LUTs/negative-portra-400/Portra400_Modern_Soft.cube
TITLE "Kodak Portra 400 Modern Soft"
# Adobe RGB in/out. REPLACES AgX. Kodak Portra 400 Modern Soft.
LUT_3D_SIZE 5
DOMAIN_MIN 0.0 0.0 0.0
DOMAIN_MAX 1.0 1.0 1.0
0.060898 0.068150 0.085817
0.514011 0.090446 0.094337
0.783379 0.145377 0.111964
0.826653 0.195630 0.143121
0.829459 0.473099 0.682913
0.074845 0.292899 0.095435
0.124515 0.183111 0.098074
0.653459 0.268948 0.112169
0.803579 0.342347 0.135325
0.820865 0.455475 0.669440
0.099817 0.618179 0.110755
0.127454 0.588830 0.115652
0.422601 0.536144 0.121370
0.720720 0.548240 0.137773
0.800523 0.566540 0.361115
0.128192 0.724410 0.121027
0.151045 0.716548 0.127247
0.356283 0.695908 0.138596
0.616945 0.678164 0.149678
0.780113 0.680157 0.179539
0.127750 0.755649 0.109332
0.160192 0.771460 0.108795
0.265977 0.768756 0.125037
0.537773 0.752539 0.142837
0.771748 0.748195 0.150354
0.064729 0.100854 0.304693
0.488246 0.225642 0.636454
0.784370 0.243700 0.522985
0.821176 0.298832 0.553267
0.826247 0.466465 0.678091
0.082262 0.232548 0.215587
0.159369 0.160784 0.177345
0.687354 0.291875 0.271201
0.799616 0.368422 0.364641
0.817648 0.449001 0.663896
0.117255 0.594573 0.229090
0.167633 0.561969 0.213735
0.480403 0.512936 0.199079
0.733473 0.543205 0.233623
0.797565 0.576505 0.546168
0.147073 0.717770 0.205186
0.180130 0.709400 0.209957
0.403326 0.688654 0.216597
0.642156 0.673818 0.226813
0.778745 0.679315 0.275146
0.126652 0.761317 0.143590
0.158520 0.774514 0.142164
0.288759 0.767185 0.161812
0.551562 0.752074 0.196518
0.772843 0.748538 0.207436
0.071489 0.284806 0.682915
0.414895 0.462701 0.781607
0.797384 0.499805 0.777024
0.822921 0.463761 0.741088
0.824808 0.489566 0.735079
0.099301 0.459249 0.679767
0.321696 0.478397 0.721099
0.716983 0.474805 0.707039
0.800585 0.490364 0.706358
0.815685 0.467715 0.721294
0.130398 0.574587 0.552425
0.190799 0.550733 0.532600
0.502692 0.503631 0.502366
0.736692 0.560559 0.578223
0.793908 0.600751 0.678938
0.174137 0.707853 0.531447
0.223891 0.700285 0.522470
0.447562 0.681154 0.503968
0.670579 0.670158 0.500494
0.775123 0.685101 0.598902
0.141519 0.772468 0.560367
0.148906 0.773201 0.554976
0.344293 0.763850 0.487000
0.580548 0.751961 0.480175
0.772598 0.751545 0.498463
0.080606 0.535677 0.825306
0.308731 0.581699 0.846153
0.793736 0.608968 0.847110
0.833333 0.575161 0.816886
0.828531 0.525876 0.779327
0.109218 0.606215 0.830887
0.351545 0.633733 0.843849
0.752536 0.622236 0.828774
0.812344 0.585945 0.794417
0.819115 0.504298 0.767491
0.152449 0.630030 0.741063
0.251425 0.626311 0.745026
0.592353 0.616717 0.742664
0.753310 0.622850 0.742383
0.795346 0.636232 0.745877
0.182710 0.706112 0.692722
0.242028 0.701044 0.690082
0.467972 0.687133 0.686575
0.675940 0.675416 0.682624
0.773334 0.696990 0.722703
0.138127 0.768389 0.640126
0.147416 0.771103 0.636470
0.343256 0.765062 0.650015
0.583703 0.755551 0.645258
0.771858 0.760736 0.698688
0.209771 0.657242 0.885080
0.615538 0.661384 0.885102
0.827593 0.673910 0.885249
0.850654 0.652789 0.868460
0.833495 0.581025 0.838042
0.308123 0.681646 0.884770
0.605595 0.685536 0.884825
0.821711 0.693574 0.882959
0.833899 0.654006 0.855887
0.824375 0.572691 0.831433
0.333272 0.700789 0.849505
0.483152 0.696207 0.845783
0.734516 0.684983 0.835363
0.792121 0.671281 0.818299
0.802034 0.661901 0.804724
0.212416 0.726067 0.802374
0.312831 0.722360 0.798672
0.601137 0.713189 0.788733
0.741784 0.707336 0.780872
0.779829 0.712243 0.778942
0.128106 0.762076 0.729167
0.144961 0.771323 0.738741
0.251234 0.775389 0.759091
0.561748 0.770499 0.772063
0.771753 0.771774 0.770567
