LUTs/negative-portra-400/Portra400_Classic_ExtraPunchy.cube
TITLE "Kodak Portra 400 Classic ExtraPunchy"
# Adobe RGB in/out. REPLACES AgX. Kodak Portra 400 Classic ExtraPunchy.
LUT_3D_SIZE 5
DOMAIN_MIN 0.0 0.0 0.0
DOMAIN_MAX 1.0 1.0 1.0
0.069662 0.073299 0.081842
0.264069 0.081067 0.078569
0.667476 0.107572 0.081637
0.778355 0.136519 0.095327
0.810190 0.340202 0.590796
0.069983 0.140005 0.078671
0.104101 0.152078 0.080067
0.557289 0.180630 0.083807
0.768282 0.226876 0.094993
0.810190 0.340211 0.590795
0.079707 0.432520 0.081616
0.097670 0.452754 0.084728
0.340240 0.464299 0.091831
0.700086 0.490431 0.105123
0.810412 0.523200 0.305404
0.101508 0.672022 0.087668
0.119916 0.678076 0.092121
0.279692 0.686956 0.105034
0.600178 0.691603 0.122522
0.807814 0.706975 0.159176
0.117562 0.776623 0.085316
0.144539 0.802106 0.085327
0.237768 0.814594 0.097494
0.523907 0.811324 0.119582
0.812903 0.818361 0.132418
0.067534 0.085063 0.132717
0.230931 0.121059 0.391885
0.677003 0.143729 0.318365
0.777961 0.183893 0.396574
0.810190 0.340216 0.590812
0.073943 0.151157 0.129212
0.171026 0.180741 0.169483
0.620409 0.209232 0.188195
0.771754 0.255705 0.250908
0.810190 0.340211 0.590795
0.089460 0.435833 0.134871
0.127930 0.448729 0.146367
0.428596 0.465518 0.167536
0.728832 0.498797 0.197563
0.810296 0.544383 0.497437
0.115184 0.672144 0.139194
0.140786 0.676878 0.150508
0.327882 0.684766 0.176065
0.639876 0.691898 0.207106
0.808754 0.709215 0.261942
0.117565 0.786593 0.111258
0.144540 0.810911 0.111256
0.260389 0.815005 0.135134
0.542398 0.812377 0.182169
0.814604 0.819424 0.205387
0.069148 0.137248 0.454673
0.177496 0.217916 0.622230
0.660901 0.253298 0.622751
0.775026 0.294813 0.636591
0.810190 0.366913 0.672514
0.077108 0.225567 0.465536
0.158950 0.273198 0.564315
0.619246 0.313744 0.593571
0.769896 0.358061 0.618932
0.810190 0.364336 0.664828
0.105715 0.464951 0.433115
0.160112 0.476799 0.452450
0.506426 0.512258 0.509946
0.743723 0.540518 0.546429
0.809891 0.579565 0.653467
0.139275 0.679851 0.433171
0.178534 0.683546 0.439739
0.395121 0.691161 0.460999
0.683845 0.701097 0.489419
0.809513 0.725324 0.595037
0.132357 0.808913 0.518132
0.140262 0.815552 0.518130
0.305607 0.816661 0.457782
0.576961 0.816207 0.469059
0.815509 0.824261 0.503567
0.071856 0.278249 0.693640
0.133740 0.328055 0.729645
0.646262 0.359025 0.731724
0.772562 0.389332 0.735037
0.810189 0.396957 0.734824
0.079530 0.355836 0.701190
0.146447 0.388341 0.724655
0.615088 0.417131 0.729593
0.768007 0.444220 0.733849
0.810184 0.395813 0.733030
0.118070 0.538937 0.676626
0.179452 0.551298 0.696795
0.527652 0.571019 0.717101
0.748857 0.590834 0.726758
0.809637 0.617120 0.740588
0.154118 0.699425 0.647670
0.201981 0.703427 0.655729
0.432916 0.713139 0.682065
0.702405 0.725322 0.701834
0.809945 0.746499 0.737370
0.133593 0.812761 0.616234
0.143021 0.820418 0.616528
0.311798 0.824304 0.644983
0.584898 0.824479 0.652697
0.815812 0.834064 0.718747
0.107902 0.422035 0.806553
0.363917 0.429223 0.806595
0.705166 0.451433 0.806868
0.783320 0.465343 0.807799
0.810190 0.458435 0.803668
0.133593 0.465503 0.805978
0.350222 0.472681 0.806080
0.699607 0.494621 0.806496
0.782477 0.509057 0.807515
0.810190 0.469131 0.807915
0.187170 0.605458 0.804822
0.322275 0.608803 0.805149
0.672721 0.619876 0.805865
0.778876 0.630415 0.807050
0.812103 0.643824 0.810388
0.180541 0.737510 0.804967
0.257577 0.739308 0.805532
0.578100 0.743763 0.806534
0.766586 0.749411 0.807783
0.813445 0.761745 0.810478
0.128176 0.813787 0.732413
0.144540 0.827128 0.751117
0.247693 0.840256 0.785767
0.567782 0.840674 0.810267
0.816182 0.845281 0.811656
