LUTs/negative-portra-400/Portra400_Modern_Soft.cube
TITLE "Kodak Portra 400 Modern Soft"
# Adobe RGB in/out. REPLACES AgX. Kodak Portra 400 Modern Soft.
LUT_3D_SIZE 9
DOMAIN_MIN 0.0 0.0 0.0
DOMAIN_MAX 1.0 1.0 1.0
0.060898 0.068150 0.085817
0.122754 0.075553 0.088299
0.514011 0.090446 0.094337
0.709802 0.112598 0.102126
0.783379 0.145377 0.111964
0.811902 0.181678 0.123812
0.826653 0.195630 0.143121
0.836380 0.230127 0.621451
0.829459 0.473099 0.682913
0.065028 0.096693 0.087922
0.076843 0.090633 0.089316
0.306284 0.102684 0.094516
0.632004 0.127242 0.102084
0.755201 0.168966 0.111610
0.802568 0.207949 0.122964
0.821634 0.222314 0.140021
0.833543 0.224580 0.616539
0.827441 0.468923 0.679872
0.074845 0.292899 0.095435
0.080842 0.256890 0.097017
0.124515 0.183111 0.098074
0.416046 0.208968 0.103370
0.653459 0.268948 0.112169
0.760634 0.321225 0.122386
0.803579 0.342347 0.135325
0.824726 0.227676 0.602444
0.820865 0.455475 0.669440
0.086193 0.509781 0.103132
0.090084 0.491770 0.104568
0.121148 0.446423 0.106633
0.264600 0.393474 0.108487
0.515407 0.399301 0.114798
0.685107 0.434265 0.123965
0.770837 0.460482 0.134929
0.803544 0.464213 0.153858
0.811045 0.408335 0.585566
0.099817 0.618179 0.110755
0.103021 0.609880 0.112236
0.127454 0.588830 0.115652
0.226981 0.559572 0.118209
0.422601 0.536144 0.121370
0.597829 0.534081 0.127849
0.720720 0.548240 0.137773
0.784096 0.558332 0.151468
0.800523 0.566540 0.361115
0.114616 0.682426 0.117375
0.117199 0.678862 0.118438
0.140188 0.670735 0.123040
0.214262 0.656787 0.127268
0.387441 0.639626 0.130830
0.536015 0.622567 0.135161
0.660442 0.618366 0.142629
0.755141 0.628025 0.154088
0.790085 0.635953 0.192141
0.128192 0.724410 0.121027
0.130558 0.722178 0.122239
0.151045 0.716548 0.127247
0.209163 0.707211 0.132636
0.356283 0.695908 0.138596
0.493681 0.685222 0.144019
0.616945 0.678164 0.149678
0.722513 0.675675 0.158123
0.780113 0.680157 0.179539
0.138438 0.763032 0.116759
0.139488 0.760827 0.117495
0.156442 0.753848 0.124607
0.199373 0.746040 0.132105
0.325017 0.736910 0.140306
0.457594 0.727591 0.147215
0.584194 0.720309 0.153986
0.689006 0.716705 0.161010
0.772720 0.715769 0.174231
0.127750 0.755649 0.109332
0.127245 0.754564 0.109190
0.160192 0.771460 0.108795
0.155899 0.767296 0.116165
0.265977 0.768756 0.125037
0.413048 0.759821 0.134783
0.537773 0.752539 0.142837
0.643208 0.748586 0.147864
0.771748 0.748195 0.150354
0.062475 0.078631 0.128020
0.097194 0.105030 0.361258
0.515460 0.102695 0.166305
0.721938 0.122293 0.147716
0.783988 0.153057 0.138940
0.809560 0.185405 0.142802
0.824432 0.201726 0.164582
0.834859 0.227167 0.618822
0.828413 0.470935 0.681337
0.068032 0.095854 0.114244
0.083615 0.090326 0.110631
0.355824 0.107295 0.124733
0.655894 0.132872 0.133998
0.759392 0.174442 0.134642
0.800677 0.211570 0.140225
0.819470 0.227112 0.158504
0.832028 0.221726 0.613938
0.826403 0.466782 0.678312
0.079821 0.269941 0.123703
0.086913 0.219162 0.119292
0.144573 0.163874 0.114707
0.463828 0.201262 0.122438
0.669909 0.267873 0.129476
0.762654 0.319789 0.136366
0.802038 0.341752 0.149028
0.823293 0.230848 0.600502
0.819860 0.453445 0.667705
0.091496 0.492127 0.126806
0.097270 0.472435 0.126425
0.135218 0.420618 0.124532
0.297935 0.374918 0.123964
0.538527 0.390150 0.128462
0.694457 0.428862 0.135569
0.771213 0.457642 0.146603
0.802301 0.463245 0.166851
0.810112 0.431091 0.650998
0.104221 0.608605 0.127267
0.108494 0.600258 0.128318
0.138556 0.578397 0.130514
0.252067 0.549928 0.131714
0.441349 0.529025 0.133933
0.606951 0.529811 0.138583
0.724494 0.545522 0.147993
0.783470 0.556570 0.162315
0.799700 0.568155 0.414337
0.117689 0.678371 0.128513
0.121081 0.674889 0.129693
0.147943 0.666525 0.133979
0.229925 0.652661 0.138375
0.400308 0.633916 0.142055
0.546364 0.618341 0.146386
0.666868 0.615764 0.152475
0.756542 0.626248 0.163834
0.789494 0.635442 0.209132
0.130506 0.722172 0.129271
0.133198 0.719962 0.130432
0.155900 0.714271 0.135839
0.219386 0.704915 0.142532
0.364832 0.693765 0.148048
0.501286 0.683409 0.153872
0.622126 0.676831 0.160145
0.725559 0.674876 0.167117
0.779760 0.679781 0.192431
0.139212 0.761425 0.120727
0.140634 0.759326 0.121978
0.159030 0.752637 0.130523
0.205426 0.744876 0.139761
0.333679 0.735810 0.148079
0.462444 0.726661 0.155995
0.587455 0.719646 0.162846
0.693187 0.716275 0.170498
0.772817 0.715550 0.185777
0.127488 0.763137 0.144149
0.126989 0.762049 0.143812
0.159791 0.775592 0.142688
0.155535 0.771950 0.140915
0.269558 0.768419 0.129199
0.415294 0.759544 0.140997
0.540162 0.752401 0.149142
0.645155 0.748575 0.155235
0.772262 0.748224 0.157543
0.064729 0.100854 0.304693
0.108728 0.219492 0.660240
0.488246 0.225642 0.636454
0.726842 0.232612 0.583057
0.784370 0.243700 0.522985
0.807325 0.276784 0.516779
0.821176 0.298832 0.553267
0.832275 0.239122 0.623272
0.826247 0.466465 0.678091
0.073023 0.131436 0.317538
0.105510 0.165571 0.460856
0.407845 0.175764 0.478275
0.669883 0.201945 0.455453
0.761826 0.242105 0.439567
0.798757 0.282176 0.459909
0.816207 0.305094 0.511015
0.829422 0.238319 0.619445
0.824224 0.462309 0.675042
0.082262 0.232548 0.215587
0.090667 0.196282 0.196790
0.159369 0.160784 0.177345
0.492021 0.215183 0.221205
0.687354 0.291875 0.271201
0.765063 0.345566 0.320199
0.799616 0.368422 0.364641
0.819944 0.312834 0.600666
0.817648 0.449001 0.663896
0.099193 0.464724 0.230359
0.107164 0.445951 0.219255
0.156779 0.387810 0.196202
0.343322 0.345391 0.182910
0.578008 0.382372 0.204393
0.709947 0.432047 0.238872
0.771818 0.461714 0.270776
0.799690 0.473043 0.367501
0.807906 0.425435 0.647252
0.117255 0.594573 0.229090
0.124242 0.585839 0.225076
0.167633 0.561969 0.213735
0.302805 0.533720 0.202917
0.480403 0.512936 0.199079
0.634576 0.524200 0.213238
0.733473 0.543205 0.233623
0.782177 0.555890 0.280638
0.797565 0.576505 0.546168
0.134062 0.672188 0.223780
0.140947 0.668604 0.222784
0.177950 0.658927 0.221041
0.285567 0.643765 0.216647
0.434973 0.622486 0.213486
0.581662 0.609728 0.215339
0.688901 0.611315 0.223007
0.760089 0.623649 0.251467
0.787878 0.636541 0.347060
0.147073 0.717770 0.205186
0.152101 0.715573 0.205963
0.180130 0.709400 0.209957
0.265155 0.699699 0.213649
0.403326 0.688654 0.216597
0.530613 0.679183 0.220432
0.642156 0.673818 0.226813
0.735427 0.673355 0.241165
0.778745 0.679315 0.275146
0.150073 0.755573 0.182656
0.153452 0.753952 0.184778
0.176981 0.748986 0.196370
0.239986 0.741608 0.206134
0.364700 0.732781 0.214432
0.486251 0.724167 0.222001
0.602875 0.717986 0.229654
0.708197 0.715300 0.238451
0.772939 0.715215 0.249514
0.126652 0.761317 0.143590
0.161175 0.776760 0.143261
0.158520 0.774514 0.142164
0.154413 0.770737 0.140442
0.288759 0.767185 0.161812
0.427381 0.758717 0.183871
0.551562 0.752074 0.196518
0.654218 0.748680 0.204169
0.772843 0.748538 0.207436
0.067966 0.154534 0.545487
0.089137 0.318128 0.720745
0.458555 0.369978 0.738213
0.723232 0.393222 0.733886
0.789870 0.390552 0.710526
0.808737 0.388854 0.688131
0.820436 0.390321 0.685649
0.828382 0.365643 0.704743
0.824804 0.470473 0.694984
0.075220 0.216711 0.561120
0.098488 0.308441 0.665721
0.441840 0.381167 0.721574
0.689346 0.382923 0.702802
0.769177 0.380595 0.677058
0.800016 0.388632 0.665543
0.815292 0.395316 0.671368
0.825081 0.371419 0.697418
0.822728 0.466247 0.691987
0.087588 0.311912 0.469129
0.101381 0.303385 0.472389
0.237214 0.301014 0.504736
0.536239 0.324804 0.529975
0.700737 0.370993 0.555681
0.766814 0.406802 0.577608
0.798411 0.430875 0.609283
0.813142 0.440146 0.658701
0.815978 0.452717 0.682350
0.102553 0.449609 0.416630
0.111698 0.432889 0.403014
0.165750 0.383867 0.364357
0.354702 0.347974 0.342215
0.589555 0.399297 0.404495
0.713271 0.452464 0.459097
0.770516 0.483271 0.506298
0.797344 0.503725 0.584211
0.805980 0.429515 0.666346
0.125693 0.580434 0.419024
0.134711 0.572563 0.410460
0.183285 0.550374 0.386885
0.333118 0.522205 0.356931
0.496932 0.499193 0.344946
0.645319 0.522765 0.376467
0.735493 0.546016 0.420405
0.779446 0.562514 0.481723
0.795325 0.588059 0.630498
0.149081 0.664683 0.408286
0.157431 0.661338 0.403981
0.197624 0.651838 0.392577
0.320425 0.632979 0.373592
0.461632 0.612718 0.359629
0.597298 0.602254 0.357138
0.701527 0.609022 0.375696
0.759939 0.623567 0.413255
0.785823 0.644901 0.556707
0.163076 0.712536 0.387714
0.169418 0.710436 0.385464
0.201794 0.704270 0.380461
0.300527 0.694722 0.372568
0.427648 0.683943 0.364876
0.556044 0.675313 0.361593
0.660111 0.671189 0.364582
0.740993 0.672530 0.379708
0.777056 0.680848 0.462587
0.162024 0.751254 0.355280
0.166602 0.749811 0.354812
0.190529 0.745342 0.356538
0.273026 0.738207 0.356464
0.396259 0.729794 0.356151
0.509561 0.721850 0.356442
0.618283 0.716469 0.358976
0.719142 0.714605 0.365268
0.772415 0.715811 0.400162
0.138589 0.771361 0.358606
0.159110 0.777634 0.357031
0.156600 0.775480 0.351791
0.183409 0.774382 0.277859
0.324603 0.765138 0.329448
0.448066 0.757611 0.334544
0.568407 0.751808 0.339151
0.667850 0.748996 0.342889
0.772851 0.749453 0.350735
0.071489 0.284806 0.682915
0.082389 0.378271 0.744399
0.414895 0.462701 0.781607
0.706400 0.483807 0.781858
0.797384 0.499805 0.777024
0.814112 0.478179 0.753785
0.822921 0.463761 0.741088
0.827975 0.433829 0.737144
0.824808 0.489566 0.735079
0.077080 0.338147 0.691178
0.090617 0.402014 0.737553
0.407025 0.477831 0.775597
0.691281 0.500469 0.777462
0.780819 0.491344 0.760678
0.805505 0.477404 0.743338
0.817697 0.467410 0.734327
0.824631 0.441681 0.732920
0.822669 0.484356 0.731817
0.099301 0.459249 0.679767
0.117583 0.464038 0.691565
0.321696 0.478397 0.721099
0.588294 0.474068 0.716723
0.716983 0.474805 0.707039
0.774812 0.484970 0.703679
0.800585 0.490364 0.706358
0.813147 0.487072 0.715485
0.815685 0.467715 0.721294
0.109094 0.482402 0.577984
0.120368 0.475318 0.575288
0.193310 0.460046 0.576211
0.423302 0.452814 0.584798
0.612803 0.470090 0.602515
0.721077 0.500942 0.625883
0.772504 0.525429 0.649198
0.796957 0.535862 0.677628
0.805883 0.522659 0.705334
0.130398 0.574587 0.552425
0.141649 0.568603 0.547038
0.190799 0.550733 0.532600
0.347794 0.525893 0.514501
0.502692 0.503631 0.502366
0.652018 0.534980 0.540353
0.736692 0.560559 0.578223
0.777966 0.579475 0.622179
0.793908 0.600751 0.678938
0.158453 0.659084 0.544165
0.167696 0.656186 0.540276
0.216561 0.647685 0.529800
0.343970 0.628047 0.515913
0.474877 0.608369 0.502923
0.603769 0.598864 0.500023
0.705047 0.612071 0.522876
0.758688 0.630175 0.560428
0.783509 0.651524 0.644623
0.174137 0.707853 0.531447
0.182195 0.705980 0.529047
0.223891 0.700285 0.522470
0.329511 0.691336 0.513377
0.447562 0.681154 0.503968
0.573360 0.673191 0.498670
0.670579 0.670158 0.500494
0.743000 0.673669 0.517057
0.775123 0.685101 0.598902
0.171239 0.747713 0.515614
0.176859 0.746391 0.513859
0.208942 0.742209 0.509127
0.292427 0.735571 0.502409
0.411003 0.727717 0.496160
0.526767 0.720476 0.491997
0.630884 0.715871 0.491082
0.726181 0.714926 0.494870
0.771561 0.718236 0.540172
0.141519 0.772468 0.560367
0.143947 0.772869 0.559128
0.148906 0.773201 0.554976
0.211518 0.770611 0.494077
0.344293 0.763850 0.487000
0.461254 0.757100 0.482594
0.580548 0.751961 0.480175
0.678354 0.749810 0.479874
0.772598 0.751545 0.498463
0.075867 0.422528 0.761636
0.082491 0.467885 0.789299
0.381077 0.532559 0.817886
0.682968 0.546476 0.819016
0.796534 0.562823 0.819675
0.821002 0.548109 0.799748
0.827566 0.527762 0.779506
0.830190 0.494446 0.766549
0.826209 0.503914 0.753777
0.079976 0.453773 0.765201
0.087837 0.487642 0.788389
0.375808 0.543394 0.815831
0.671114 0.557614 0.817604
0.791067 0.570520 0.816207
0.812858 0.547024 0.790972
0.822448 0.529767 0.773733
0.826836 0.500001 0.762740
0.824027 0.499079 0.751377
0.106005 0.546021 0.769269
0.123490 0.556611 0.780773
0.373724 0.587245 0.805305
0.613951 0.572990 0.792335
0.734746 0.558698 0.776072
0.786545 0.549441 0.763258
0.805650 0.542536 0.754732
0.815491 0.532733 0.749727
0.816865 0.483444 0.743505
0.121786 0.551618 0.710111
0.135606 0.550551 0.712967
0.255840 0.552440 0.724156
0.482827 0.549982 0.726233
0.644797 0.550243 0.724631
0.734921 0.555204 0.724498
0.779320 0.562153 0.726398
0.799008 0.564623 0.729969
0.806471 0.550226 0.731596
0.138381 0.590487 0.656042
0.150629 0.586716 0.654435
0.216945 0.577416 0.653326
0.387470 0.564621 0.651571
0.549761 0.559796 0.653229
0.670462 0.570682 0.665234
0.742459 0.588214 0.681936
0.779634 0.602055 0.699848
0.793879 0.616838 0.718428
0.163502 0.658013 0.636428
0.173472 0.655785 0.634291
0.228370 0.649064 0.628452
0.355236 0.633714 0.620564
0.485226 0.615531 0.612625
0.605915 0.603688 0.607475
0.707977 0.624900 0.633335
0.758794 0.644736 0.661568
0.782530 0.658758 0.696677
0.180718 0.705171 0.623559
0.183479 0.703559 0.621649
0.236373 0.698645 0.616549
0.344987 0.690729 0.609860
0.459407 0.681459 0.603932
0.582949 0.673830 0.600466
0.674948 0.671420 0.602939
0.743311 0.677824 0.622198
0.773615 0.690586 0.675197
0.175763 0.745431 0.610677
0.182286 0.744262 0.609133
0.218914 0.740514 0.604871
0.305893 0.734485 0.599097
0.419805 0.727331 0.593926
0.536910 0.720781 0.590453
0.638902 0.716831 0.589830
0.729408 0.716744 0.594242
0.770554 0.722673 0.643669
0.140964 0.771098 0.593456
0.143021 0.771530 0.594167
0.146954 0.771748 0.597251
0.213779 0.770038 0.592226
0.348854 0.763696 0.584106
0.466224 0.757579 0.578513
0.584845 0.753127 0.575240
0.683938 0.751546 0.573977
0.772186 0.755318 0.614835
0.080606 0.535677 0.825306
0.085720 0.552114 0.839128
0.308731 0.581699 0.846153
0.668187 0.594253 0.846716
0.793736 0.608968 0.847110
0.828204 0.605191 0.839995
0.833333 0.575161 0.816886
0.833801 0.544814 0.797912
0.828531 0.525876 0.779327
0.083921 0.548996 0.827209
0.090378 0.562926 0.838839
0.318005 0.591668 0.845812
0.659711 0.604317 0.846513
0.790827 0.618956 0.846955
0.820780 0.603082 0.834214
0.828441 0.576482 0.811578
0.830514 0.548159 0.794330
0.826342 0.521617 0.776632
0.109218 0.606215 0.830887
0.123552 0.613306 0.837337
0.351545 0.633733 0.843849
0.635052 0.645461 0.845205
0.752536 0.622236 0.828774
0.796507 0.602787 0.809689
0.812344 0.585945 0.794417
0.819456 0.568956 0.782456
0.819115 0.504298 0.767491
0.140174 0.627049 0.793458
0.157946 0.626870 0.795519
0.300208 0.627999 0.798561
0.529426 0.620705 0.792841
0.676425 0.612277 0.783915
0.751987 0.606356 0.775780
0.788567 0.601428 0.769374
0.803071 0.595634 0.764573
0.808132 0.587643 0.759097
0.152449 0.630030 0.741063
0.165414 0.628549 0.741836
0.251425 0.626311 0.745026
0.426712 0.620802 0.745012
0.592353 0.616717 0.742664
0.697319 0.618136 0.741530
0.753310 0.622850 0.742383
0.784712 0.628096 0.744447
0.795346 0.636232 0.745877
0.169913 0.665703 0.713190
0.180534 0.664244 0.712744
0.242007 0.660275 0.712965
0.376972 0.653755 0.712432
0.514472 0.646921 0.709624
0.631642 0.644012 0.709103
0.717714 0.650297 0.716461
0.762554 0.658230 0.725145
0.783523 0.667703 0.733136
0.182710 0.706112 0.692722
0.185982 0.704864 0.691864
0.242028 0.701044 0.690082
0.351708 0.694754 0.688228
0.467972 0.687133 0.686575
0.589089 0.680026 0.684475
0.675940 0.675416 0.682624
0.744568 0.685792 0.700902
0.773334 0.696990 0.722703
0.174058 0.745413 0.677147
0.180792 0.744394 0.676193
0.218750 0.741089 0.673781
0.308631 0.735818 0.670366
0.422980 0.729519 0.667932
0.541845 0.723660 0.667024
0.643051 0.720152 0.668306
0.730240 0.720666 0.674573
0.769768 0.728146 0.710093
0.138127 0.768389 0.640126
0.142654 0.770299 0.639242
0.147416 0.771103 0.636470
0.197650 0.771464 0.655263
0.343256 0.765062 0.650015
0.463200 0.759461 0.646967
0.583703 0.755551 0.645258
0.682997 0.754503 0.644612
0.771858 0.760736 0.698688
0.087166 0.613765 0.864554
0.093016 0.615655 0.865647
0.349085 0.627516 0.866399
0.686046 0.638669 0.866545
0.798922 0.649516 0.866776
0.837056 0.653059 0.864449
0.839924 0.620109 0.847590
0.838546 0.582559 0.832314
0.831211 0.551525 0.808307
0.091069 0.622400 0.864498
0.097870 0.624325 0.865525
0.357762 0.636572 0.866383
0.679082 0.647116 0.866548
0.796814 0.655027 0.866781
0.830471 0.651291 0.860136
0.835410 0.620458 0.844387
0.835384 0.585342 0.828751
0.829072 0.549702 0.805773
0.121383 0.659298 0.864279
0.136420 0.660255 0.864986
0.400009 0.666289 0.866037
0.656835 0.672014 0.866362
0.776476 0.667275 0.859844
0.808572 0.650850 0.846274
0.820381 0.628807 0.832563
0.824747 0.603055 0.816930
0.822135 0.556849 0.797379
0.168027 0.681407 0.853255
0.183405 0.679832 0.852540
0.381061 0.676452 0.849278
0.585909 0.668437 0.842381
0.713825 0.659399 0.832780
0.773208 0.650932 0.820025
0.798077 0.640510 0.808677
0.808818 0.626264 0.799201
0.810909 0.613846 0.789278
0.173628 0.671020 0.807846
0.183472 0.670210 0.807723
0.310989 0.668671 0.806172
0.483171 0.664316 0.800884
0.631959 0.659767 0.794272
0.723438 0.656560 0.788199
0.768323 0.654257 0.783323
0.791041 0.651825 0.779610
0.798031 0.652788 0.775303
0.180412 0.684024 0.772197
0.186367 0.683257 0.772559
0.274693 0.681489 0.773191
0.411140 0.677050 0.770515
0.556820 0.672351 0.766096
0.664595 0.670180 0.762669
0.733978 0.670851 0.761422
0.770422 0.672853 0.761893
0.786426 0.678033 0.762108
0.183218 0.712866 0.748028
0.187504 0.712070 0.748380
0.250666 0.709958 0.750298
0.362602 0.705681 0.751273
0.486277 0.699990 0.749590
0.607240 0.695088 0.746491
0.699000 0.694049 0.745247
0.751417 0.697802 0.748111
0.775111 0.704759 0.751918
0.165641 0.749307 0.728933
0.171683 0.748400 0.728782
0.208431 0.745406 0.729223
0.301754 0.740996 0.730493
0.422821 0.735873 0.732717
0.545911 0.731032 0.734320
0.648107 0.727738 0.734865
0.729690 0.725831 0.734554
0.769862 0.734149 0.745543
0.133204 0.765437 0.692842
0.146361 0.771837 0.693028
0.146807 0.771181 0.696821
0.183296 0.772558 0.703895
0.313355 0.768692 0.703111
0.448782 0.763437 0.703459
0.573350 0.759945 0.704414
0.673783 0.759182 0.704722
0.771690 0.766321 0.742104
0.209771 0.657242 0.885080
0.283197 0.658077 0.885085
0.615538 0.661384 0.885102
0.785109 0.667143 0.885156
0.827593 0.673910 0.885249
0.852794 0.679685 0.885396
0.850654 0.652789 0.868460
0.845256 0.604824 0.854067
0.833495 0.581025 0.838042
0.227653 0.661333 0.885032
0.294852 0.662178 0.885038
0.612741 0.665519 0.885058
0.783249 0.671320 0.885118
0.827034 0.678103 0.885216
0.849387 0.677720 0.881703
0.847103 0.651993 0.865516
0.842309 0.604736 0.851913
0.831391 0.585227 0.838689
0.308123 0.681646 0.884770
0.366889 0.682438 0.884782
0.605595 0.685536 0.884825
0.774568 0.690926 0.884920
0.821711 0.693574 0.882959
0.831486 0.674492 0.868817
0.833899 0.654006 0.855887
0.832487 0.615549 0.844518
0.824375 0.572691 0.831433
0.392358 0.714461 0.881468
0.419514 0.712611 0.880103
0.580314 0.706747 0.875534
0.730104 0.697855 0.868265
0.786596 0.686894 0.859439
0.805082 0.674760 0.850238
0.814025 0.661331 0.841134
0.817473 0.644080 0.830964
0.814341 0.639639 0.819707
0.333272 0.700789 0.849505
0.360675 0.699663 0.848661
0.483152 0.696207 0.845783
0.648239 0.691071 0.841208
0.734516 0.684983 0.835363
0.773064 0.678504 0.826571
0.792121 0.671281 0.818299
0.800816 0.662570 0.810888
0.802034 0.661901 0.804724
0.269690 0.704974 0.821677
0.290719 0.704029 0.820655
0.403364 0.701206 0.817278
0.562658 0.697179 0.812029
0.675032 0.692927 0.806123
0.735343 0.689243 0.800710
0.766624 0.685940 0.796277
0.785178 0.682249 0.792760
0.790370 0.686964 0.790116
0.212416 0.726067 0.802374
0.228940 0.725162 0.801532
0.312831 0.722360 0.798672
0.457612 0.718007 0.794064
0.601137 0.713189 0.788733
0.694696 0.709439 0.783982
0.741784 0.707336 0.780872
0.768553 0.706046 0.779358
0.779829 0.712243 0.778942
0.159699 0.757483 0.789416
0.165466 0.756825 0.789540
0.198566 0.754416 0.788623
0.327424 0.750060 0.785502
0.475943 0.744738 0.781277
0.614812 0.740001 0.776926
0.710508 0.737117 0.773467
0.755070 0.735945 0.771928
0.772983 0.740134 0.772350
0.128106 0.762076 0.729167
0.146328 0.772586 0.740257
0.144961 0.771323 0.738741
0.152478 0.769420 0.736295
0.251234 0.775389 0.759091
0.421053 0.773096 0.773465
0.561748 0.770499 0.772063
0.674654 0.769742 0.770822
0.771753 0.771774 0.770567
