LUTs/negative-portra-400/Portra400_Modern_Soft.cube
TITLE "Kodak Portra 400 Modern Soft"
# Adobe RGB in/out. REPLACES AgX. Kodak Portra 400 Modern Soft.
LUT_3D_SIZE 33
DOMAIN_MIN 0.0 0.0 0.0
DOMAIN_MAX 1.0 1.0 1.0
0.060898 0.068150 0.085817
0.065751 0.069728 0.086235
0.067548 0.070165 0.086359
0.078809 0.072249 0.087273
0.122754 0.075553 0.088299
0.166956 0.077781 0.089240
0.309804 0.082549 0.090971
0.455526 0.087876 0.093328
0.514011 0.090446 0.094337
0.583602 0.095032 0.096210
0.643848 0.102945 0.098945
0.681923 0.107850 0.100481
0.709802 0.112598 0.102126
0.732589 0.120126 0.104415
0.755438 0.128774 0.107608
0.770708 0.134375 0.109619
0.783379 0.145377 0.111964
0.792540 0.156460 0.114815
0.800138 0.170003 0.118320
0.806636 0.175713 0.120704
0.811902 0.181678 0.123812
0.816146 0.189683 0.127608
0.820207 0.197001 0.131713
0.824200 0.195720 0.136229
0.826653 0.195630 0.143121
0.828621 0.193329 0.153593
0.831820 0.176836 0.177029
0.832370 0.180250 0.298413
0.836380 0.230127 0.621451
0.833826 0.224976 0.616999
0.831285 0.220038 0.612606
0.828755 0.215224 0.608250
0.829459 0.473099 0.682913
0.061799 0.072297 0.085931
0.063663 0.071435 0.086033
0.068483 0.070502 0.086141
0.081275 0.072781 0.087194
0.124014 0.076247 0.088337
0.164974 0.078299 0.089253
0.296673 0.083058 0.090972
0.442742 0.088368 0.093330
0.503082 0.090856 0.094336
0.575079 0.095469 0.096203
0.638147 0.103444 0.098928
0.677011 0.108290 0.100464
0.706886 0.113239 0.102105
0.730199 0.120667 0.104392
0.753515 0.129225 0.107586
0.769195 0.135543 0.109590
0.782139 0.146526 0.111935
0.791799 0.157340 0.114786
0.799529 0.170895 0.118288
0.806124 0.176582 0.120659
0.811469 0.182531 0.123762
0.815778 0.190821 0.127552
0.819890 0.198150 0.131645
0.823925 0.196854 0.136109
0.826414 0.196740 0.142951
0.828411 0.194399 0.153260
0.831633 0.177503 0.175853
0.832208 0.180346 0.292837
0.836242 0.229854 0.621211
0.833700 0.224730 0.616781
0.831169 0.219816 0.612407
0.828649 0.215025 0.608068
0.829361 0.472897 0.682765
0.062074 0.073559 0.086085
0.062568 0.073444 0.086270
0.064459 0.072621 0.086201
0.072337 0.074328 0.087029
0.097375 0.078505 0.088230
0.137923 0.080164 0.089172
0.254560 0.085097 0.090981
0.412304 0.090647 0.093428
0.471059 0.093117 0.094385
0.545194 0.097585 0.096220
0.618609 0.105455 0.098896
0.659695 0.110029 0.100422
0.693942 0.115736 0.102049
0.721537 0.122740 0.104327
0.746524 0.131156 0.107518
0.763691 0.139993 0.109497
0.777633 0.149968 0.111843
0.789113 0.160638 0.114689
0.797329 0.174220 0.118182
0.804278 0.179809 0.120507
0.809908 0.185690 0.123592
0.814452 0.195044 0.127354
0.818752 0.202406 0.131406
0.822938 0.201047 0.135691
0.825556 0.200847 0.142359
0.827659 0.198362 0.152109
0.830964 0.180013 0.171867
0.831625 0.180914 0.273942
0.835749 0.228879 0.620355
0.833249 0.223850 0.616001
0.830757 0.219026 0.611696
0.828270 0.214316 0.607418
0.829012 0.472175 0.682238
0.063179 0.080727 0.086710
0.063551 0.080615 0.087006
0.065175 0.079784 0.087220
0.068587 0.078320 0.087260
0.080351 0.082515 0.088317
0.097979 0.083633 0.089181
0.160486 0.088173 0.090895
0.317936 0.094657 0.093421
0.411771 0.097083 0.094436
0.495507 0.101677 0.096308
0.587533 0.109897 0.098933
0.629985 0.116391 0.100416
0.667125 0.120793 0.102018
0.705319 0.126790 0.104270
0.733280 0.138159 0.107440
0.752859 0.148781 0.109377
0.769087 0.156821 0.111712
0.783285 0.167294 0.114543
0.793199 0.180864 0.118014
0.800830 0.186207 0.120260
0.807010 0.193790 0.123311
0.812001 0.203387 0.127022
0.816655 0.210781 0.131000
0.821122 0.209284 0.134979
0.823983 0.208910 0.141350
0.826282 0.206172 0.150163
0.829739 0.185091 0.166178
0.830560 0.182877 0.243801
0.834853 0.227122 0.618804
0.832431 0.222260 0.614586
0.830007 0.217595 0.610404
0.827582 0.213037 0.606237
0.828376 0.470858 0.681280
0.065028 0.096693 0.087922
0.065409 0.096525 0.088275
0.067138 0.095839 0.088659
0.070483 0.093501 0.088988
0.076843 0.090633 0.089316
0.084646 0.088351 0.089460
0.113057 0.093385 0.090974
0.191346 0.100748 0.093449
0.306284 0.102684 0.094516
0.420871 0.107005 0.096418
0.532714 0.118094 0.099083
0.593120 0.123363 0.100505
0.632004 0.127242 0.102084
0.673547 0.134064 0.104304
0.712568 0.154569 0.107434
0.735570 0.161949 0.109316
0.755201 0.168966 0.111610
0.772297 0.178860 0.114402
0.786740 0.194208 0.117830
0.795491 0.200691 0.119970
0.802568 0.207949 0.122964
0.808280 0.217409 0.126599
0.813493 0.224764 0.130470
0.818399 0.222997 0.134044
0.821634 0.222314 0.140021
0.824231 0.219209 0.147855
0.827917 0.196360 0.160790
0.828980 0.188452 0.212649
0.833543 0.224580 0.616539
0.831231 0.219948 0.612515
0.828906 0.215510 0.608512
0.826571 0.211259 0.604504
0.827441 0.468923 0.679872
0.066859 0.112390 0.089282
0.067086 0.111734 0.089473
0.068245 0.110758 0.089705
0.070832 0.107639 0.090141
0.075267 0.102848 0.090112
0.081946 0.099097 0.090410
0.096963 0.101562 0.091583
0.141719 0.109145 0.093877
0.200988 0.109787 0.094741
0.329903 0.115694 0.096554
0.456628 0.126480 0.099171
0.535579 0.131109 0.100634
0.593453 0.137631 0.102282
0.637826 0.151248 0.104473
0.684614 0.168554 0.107489
0.714504 0.177161 0.109336
0.736111 0.185693 0.111594
0.755785 0.201678 0.114352
0.773922 0.219661 0.117707
0.787716 0.224630 0.119724
0.796224 0.230868 0.122633
0.803056 0.239803 0.126161
0.809112 0.246887 0.129898
0.814662 0.244598 0.133057
0.818439 0.243374 0.138541
0.821460 0.239776 0.145584
0.825461 0.215642 0.155254
0.826861 0.202725 0.188045
0.831826 0.221312 0.613582
0.829656 0.216945 0.609803
0.827459 0.212795 0.606028
0.828456 0.446397 0.602225
0.826207 0.466378 0.678017
0.069479 0.156869 0.091481
0.069718 0.157461 0.091787
0.070927 0.154849 0.092412
0.073329 0.144559 0.092710
0.077469 0.130292 0.092844
0.083523 0.123964 0.092920
0.093397 0.118784 0.093276
0.117992 0.123316 0.094527
0.156082 0.122664 0.095422
0.236105 0.126609 0.096991
0.382457 0.141766 0.099459
0.466870 0.151671 0.100971
0.536722 0.157116 0.102447
0.598627 0.168423 0.104628
0.648470 0.187303 0.107654
0.685647 0.200200 0.109559
0.715197 0.208369 0.111682
0.738361 0.222825 0.114335
0.759053 0.244587 0.117631
0.775071 0.253343 0.119575
0.787639 0.264129 0.122417
0.795803 0.274739 0.125822
0.803176 0.280076 0.129398
0.809689 0.277227 0.132363
0.814262 0.275324 0.137136
0.817877 0.271639 0.143424
0.822297 0.247050 0.150452
0.824161 0.229447 0.168549
0.829727 0.217466 0.609995
0.827725 0.213323 0.606490
0.825680 0.209503 0.602985
0.826810 0.443152 0.599428
0.824685 0.463253 0.675731
0.072912 0.241752 0.094082
0.073191 0.242533 0.094285
0.074722 0.243906 0.095098
0.076769 0.225104 0.095511
0.080600 0.202647 0.095673
0.086558 0.182272 0.095965
0.096637 0.168205 0.096119
0.112688 0.157846 0.096530
0.131153 0.140186 0.096357
0.182668 0.146290 0.097630
0.301414 0.166753 0.099916
0.403605 0.173785 0.101432
0.473465 0.178165 0.102824
0.548409 0.190145 0.104975
0.611585 0.215621 0.107879
0.650836 0.226479 0.109743
0.687346 0.236306 0.111862
0.716862 0.253810 0.114495
0.740623 0.275818 0.117700
0.760343 0.280722 0.119545
0.776254 0.288163 0.122282
0.788340 0.299506 0.125596
0.796436 0.310559 0.129061
0.803550 0.314194 0.131873
0.808747 0.318641 0.136076
0.813253 0.315187 0.141737
0.818228 0.295297 0.147489
0.820758 0.276608 0.159395
0.827291 0.213563 0.605908
0.825472 0.209201 0.602645
0.823599 0.205720 0.599439
0.824878 0.438176 0.596155
0.822895 0.459597 0.672953
0.074845 0.292899 0.095435
0.075101 0.293420 0.095650
0.075992 0.289716 0.096208
0.077627 0.276501 0.096699
0.080842 0.256890 0.097017
0.085533 0.234077 0.097204
0.093646 0.213186 0.097475
0.105838 0.195309 0.097693
0.124515 0.183111 0.098074
0.157364 0.176662 0.098569
0.240649 0.197311 0.100516
0.342393 0.204828 0.102075
0.416046 0.208968 0.103370
0.492364 0.222697 0.105434
0.571972 0.249141 0.108259
0.615499 0.259137 0.110149
0.653459 0.268948 0.112169
0.691834 0.283816 0.114716
0.721267 0.304160 0.117849
0.742377 0.311945 0.119694
0.760634 0.321225 0.122386
0.776708 0.328080 0.125552
0.789049 0.336104 0.128869
0.797430 0.337936 0.131518
0.803579 0.342347 0.135325
0.808418 0.347532 0.140611
0.813545 0.342215 0.146064
0.816454 0.339671 0.155284
0.824726 0.227676 0.602444
0.822945 0.205286 0.598449
0.821252 0.201649 0.595480
0.822691 0.432597 0.592473
0.820865 0.455475 0.669440
0.077548 0.360848 0.097512
0.077656 0.359198 0.097605
0.078184 0.351991 0.097885
0.079844 0.339666 0.098358
0.082442 0.324306 0.098728
0.086681 0.307055 0.098983
0.093909 0.286173 0.099222
0.104751 0.266464 0.099448
0.120863 0.247849 0.099718
0.147612 0.233548 0.100080
0.202184 0.248314 0.101836
0.283510 0.246580 0.102899
0.364140 0.248150 0.104104
0.440191 0.260826 0.106055
0.523216 0.286083 0.108759
0.581782 0.293723 0.110689
0.620214 0.301010 0.112620
0.660111 0.314973 0.115069
0.699990 0.332649 0.118156
0.723502 0.340742 0.120009
0.744722 0.348522 0.122523
0.762869 0.359833 0.125631
0.777804 0.370266 0.128878
0.789802 0.372241 0.131374
0.797359 0.373383 0.134818
0.803216 0.375499 0.139712
0.809101 0.370690 0.144558
0.812608 0.367417 0.151965
0.816188 0.359627 0.164725
0.818240 0.356471 0.221300
0.820337 0.377807 0.557729
0.820288 0.427117 0.589984
0.818626 0.450962 0.665578
0.081698 0.439926 0.100092
0.081774 0.437522 0.100139
0.082214 0.430501 0.100334
0.083766 0.423374 0.100864
0.086355 0.410403 0.101393
0.090846 0.394545 0.101836
0.098387 0.377977 0.102225
0.109222 0.361127 0.102556
0.125711 0.342102 0.102866
0.153245 0.325519 0.103283
0.184986 0.314231 0.103904
0.246495 0.300601 0.104415
0.313909 0.290320 0.105025
0.400337 0.300213 0.106793
0.476676 0.322792 0.109540
0.536830 0.327440 0.111421
0.589105 0.331913 0.113186
0.629160 0.346067 0.115522
0.670915 0.365641 0.118569
0.704182 0.369760 0.120425
0.726734 0.376736 0.122884
0.746971 0.387509 0.125901
0.765356 0.395397 0.128968
0.780437 0.398381 0.131353
0.790307 0.404112 0.134614
0.796894 0.411451 0.139187
0.803876 0.405067 0.143498
0.808209 0.399841 0.149407
0.812339 0.390191 0.159202
0.814889 0.380993 0.188790
0.817428 0.373746 0.500083
0.817711 0.422487 0.591372
0.816217 0.419426 0.590692
0.084120 0.478771 0.101786
0.084196 0.477202 0.101841
0.084601 0.472402 0.102068
0.085962 0.467129 0.102602
0.088170 0.458093 0.103103
0.092574 0.447468 0.103672
0.099535 0.432957 0.104251
0.109006 0.415237 0.104642
0.123603 0.398694 0.105025
0.147063 0.383817 0.105421
0.179768 0.370789 0.105899
0.226915 0.360364 0.106513
0.284558 0.340752 0.106592
0.357198 0.338393 0.107667
0.435809 0.361187 0.110554
0.495676 0.364034 0.112253
0.551161 0.367581 0.113949
0.600662 0.377192 0.116187
0.642525 0.393684 0.119030
0.677188 0.397267 0.120967
0.708347 0.405033 0.123414
0.730945 0.414024 0.126264
0.750906 0.424954 0.129260
0.768022 0.430175 0.131564
0.781899 0.433492 0.134652
0.790919 0.439020 0.138958
0.798385 0.439102 0.142899
0.803215 0.441229 0.148011
0.807870 0.435689 0.155917
0.811114 0.421577 0.171341
0.814183 0.384779 0.380511
0.815004 0.415788 0.585927
0.813676 0.413774 0.587744
0.086193 0.509781 0.103132
0.086259 0.508426 0.103181
0.086583 0.504150 0.103394
0.087710 0.498776 0.103919
0.090084 0.491770 0.104568
0.093997 0.482647 0.105205
0.099836 0.471262 0.105741
0.108319 0.458930 0.106230
0.121148 0.446423 0.106633
0.140555 0.431035 0.107017
0.168879 0.416276 0.107440
0.203649 0.403477 0.107891
0.264600 0.393474 0.108487
0.332251 0.387340 0.109344
0.405302 0.395131 0.111728
0.460081 0.396965 0.113278
0.515407 0.399301 0.114798
0.571592 0.408267 0.116968
0.616398 0.424665 0.119861
0.650642 0.427549 0.121716
0.685107 0.434265 0.123965
0.714099 0.444190 0.126789
0.735739 0.453286 0.129733
0.755426 0.455343 0.131841
0.770837 0.460482 0.134929
0.782957 0.467315 0.139101
0.792640 0.465408 0.142616
0.798421 0.465173 0.147168
0.803544 0.464213 0.153858
0.807055 0.463032 0.164796
0.809821 0.464857 0.201608
0.812212 0.409079 0.580351
0.811045 0.408335 0.585566
0.089186 0.541651 0.105132
0.089271 0.540828 0.105185
0.089668 0.538165 0.105395
0.090824 0.534511 0.105850
0.093341 0.530952 0.106568
0.096794 0.524716 0.107172
0.102081 0.514757 0.107720
0.110226 0.503495 0.108255
0.122064 0.491473 0.108726
0.139591 0.479069 0.109168
0.165525 0.467324 0.109683
0.195554 0.456677 0.110313
0.249973 0.447136 0.110933
0.309359 0.437982 0.111738
0.386054 0.444209 0.113911
0.428327 0.434228 0.114532
0.481607 0.433629 0.115800
0.538114 0.441696 0.117782
0.592554 0.454260 0.120830
0.626102 0.456291 0.122671
0.660524 0.460637 0.124791
0.695273 0.468140 0.127450
0.720658 0.476046 0.130250
0.741407 0.479554 0.132305
0.758995 0.485117 0.135407
0.773512 0.490026 0.139295
0.786470 0.491605 0.142627
0.792906 0.495026 0.146788
0.798988 0.492288 0.152410
0.803190 0.488716 0.161096
0.806433 0.486328 0.183089
0.808322 0.494044 0.345194
0.809123 0.523825 0.582616
0.093861 0.576261 0.107741
0.093943 0.575554 0.107791
0.094308 0.573229 0.107985
0.095323 0.569847 0.108395
0.098165 0.567116 0.109211
0.101296 0.561126 0.109990
0.106904 0.555020 0.110872
0.115011 0.547637 0.111599
0.126559 0.539619 0.112312
0.145155 0.531240 0.112918
0.170433 0.522650 0.113533
0.200251 0.511201 0.114059
0.252843 0.500716 0.114697
0.308178 0.491507 0.115337
0.366732 0.483733 0.116126
0.412590 0.474253 0.116571
0.455601 0.466274 0.117115
0.508882 0.469415 0.118776
0.566276 0.480681 0.121965
0.603704 0.481925 0.123647
0.637517 0.485844 0.125716
0.672557 0.492959 0.128289
0.705399 0.500237 0.130934
0.727030 0.504315 0.132901
0.746670 0.508729 0.135994
0.762949 0.515628 0.139780
0.777799 0.517386 0.142882
0.787721 0.518779 0.146674
0.794276 0.520360 0.151670
0.798934 0.521901 0.158877
0.802803 0.517216 0.172377
0.805158 0.513739 0.241870
0.806397 0.524112 0.570449
0.096832 0.597755 0.109118
0.096920 0.597139 0.109181
0.097297 0.595080 0.109421
0.098269 0.591950 0.109918
0.100522 0.588957 0.110799
0.103799 0.584380 0.111679
0.109234 0.579557 0.112694
0.116301 0.572326 0.113366
0.126809 0.564980 0.114081
0.143891 0.557437 0.114822
0.166528 0.549387 0.115371
0.190624 0.541504 0.115948
0.238451 0.534166 0.116552
0.290882 0.527271 0.117179
0.349686 0.520279 0.117835
0.400632 0.512966 0.118612
0.437222 0.503654 0.119021
0.484746 0.500625 0.120331
0.539070 0.508195 0.123250
0.584066 0.508959 0.124835
0.616448 0.511858 0.126708
0.651105 0.518424 0.129205
0.685575 0.524831 0.131751
0.712946 0.527156 0.133733
0.733734 0.530611 0.136796
0.751786 0.535412 0.140422
0.768744 0.536606 0.143286
0.780377 0.539387 0.146909
0.789497 0.540184 0.151404
0.794973 0.539628 0.157525
0.799154 0.540201 0.167152
0.801750 0.542902 0.202038
0.803548 0.535839 0.516951
0.099817 0.618179 0.110755
0.099896 0.617637 0.110812
0.100229 0.615809 0.111029
0.101053 0.612934 0.111469
0.103021 0.609880 0.112236
0.106478 0.606531 0.113204
0.110841 0.601157 0.114042
0.117597 0.595299 0.114877
0.127454 0.588830 0.115652
0.142693 0.581728 0.116368
0.163371 0.574324 0.117044
0.183491 0.566816 0.117642
0.226981 0.559572 0.118209
0.278561 0.552732 0.118837
0.331903 0.546405 0.119466
0.381960 0.540861 0.120341
0.422601 0.536144 0.121370
0.468583 0.533382 0.122720
0.519364 0.535221 0.125088
0.558860 0.532305 0.126027
0.597829 0.534081 0.127849
0.631352 0.538124 0.130213
0.665513 0.542753 0.132679
0.697657 0.544691 0.134824
0.720720 0.548240 0.137773
0.740487 0.552412 0.141190
0.758865 0.554552 0.143923
0.772450 0.556690 0.147257
0.784096 0.558332 0.151468
0.790675 0.559949 0.156905
0.795566 0.559356 0.164689
0.798666 0.559076 0.187069
0.800523 0.566540 0.361115
0.103498 0.641449 0.112768
0.103583 0.640977 0.112821
0.103934 0.639366 0.113019
0.104771 0.636768 0.113417
0.106547 0.633809 0.114097
0.110240 0.631556 0.115156
0.114118 0.626058 0.115868
0.121132 0.621378 0.116841
0.130289 0.615302 0.117637
0.144643 0.608580 0.118342
0.164001 0.601731 0.119070
0.183451 0.594665 0.119794
0.223233 0.587727 0.120667
0.270854 0.580799 0.121392
0.320501 0.574477 0.122274
0.369654 0.568619 0.123122
0.413195 0.563416 0.124014
0.454614 0.559068 0.125056
0.502914 0.560272 0.127349
0.540488 0.555195 0.127899
0.580802 0.552874 0.129004
0.613553 0.556571 0.131300
0.646866 0.560783 0.133870
0.678677 0.562385 0.136051
0.707950 0.565842 0.138891
0.728913 0.569714 0.142142
0.748666 0.571907 0.144696
0.764180 0.574160 0.147812
0.776995 0.576986 0.151896
0.786626 0.577188 0.156686
0.791996 0.578417 0.163380
0.795447 0.580793 0.178810
0.797770 0.581810 0.266013
0.108089 0.659416 0.115233
0.108174 0.659164 0.115283
0.108515 0.658299 0.115466
0.109302 0.656875 0.115832
0.111168 0.655171 0.116447
0.114837 0.653749 0.117416
0.119014 0.651076 0.118225
0.125747 0.648342 0.119184
0.134816 0.643989 0.120182
0.150167 0.638286 0.121310
0.168827 0.631897 0.122279
0.187608 0.625276 0.123278
0.226038 0.618413 0.124132
0.272207 0.611719 0.124970
0.318677 0.605219 0.125757
0.367218 0.599328 0.126694
0.409730 0.593884 0.127578
0.447940 0.588911 0.128463
0.488586 0.584880 0.129534
0.526100 0.579443 0.129986
0.563423 0.575951 0.130881
0.597641 0.575124 0.132436
0.629844 0.578936 0.135285
0.660971 0.580300 0.137367
0.692609 0.583183 0.140063
0.717332 0.586972 0.143214
0.738336 0.588902 0.145577
0.755253 0.591727 0.148560
0.770201 0.593763 0.152408
0.781001 0.595335 0.156854
0.788473 0.596994 0.162772
0.792509 0.597397 0.174185
0.795068 0.601229 0.220195
0.111209 0.670935 0.116269
0.111301 0.670710 0.116316
0.111663 0.669933 0.116489
0.112475 0.668629 0.116831
0.114082 0.667000 0.117399
0.117153 0.665457 0.118280
0.121722 0.663454 0.119218
0.127313 0.660559 0.120240
0.136733 0.657709 0.121506
0.150799 0.654433 0.122691
0.167001 0.650592 0.123657
0.183453 0.646708 0.124657
0.217741 0.640585 0.125611
0.260612 0.634202 0.126499
0.304123 0.628012 0.127374
0.354485 0.622007 0.128198
0.399068 0.616541 0.129121
0.432747 0.611614 0.130044
0.472662 0.607077 0.130937
0.512803 0.603416 0.131993
0.548872 0.599334 0.132799
0.586721 0.598039 0.134682
0.614868 0.597570 0.136884
0.644665 0.598292 0.138735
0.676020 0.600808 0.141332
0.705870 0.604122 0.144342
0.727742 0.605974 0.146560
0.746109 0.608805 0.149544
0.762970 0.610966 0.153163
0.775060 0.612947 0.157244
0.784674 0.614257 0.162465
0.789534 0.616317 0.171623
0.792522 0.618463 0.201488
0.114616 0.682426 0.117375
0.114702 0.682228 0.117420
0.115039 0.681540 0.117584
0.115777 0.680370 0.117907
0.117199 0.678862 0.118438
0.120105 0.677319 0.119251
0.124907 0.675891 0.120599
0.129877 0.673019 0.121593
0.140188 0.670735 0.123040
0.151455 0.667290 0.124036
0.167514 0.664052 0.125193
0.183443 0.660584 0.126286
0.214262 0.656787 0.127268
0.253739 0.652946 0.128156
0.294328 0.649232 0.129091
0.345952 0.645203 0.129981
0.387441 0.639626 0.130830
0.421167 0.634530 0.131738
0.460751 0.630048 0.132691
0.498025 0.625914 0.133754
0.536015 0.622567 0.135161
0.574309 0.620440 0.137086
0.604060 0.619665 0.139218
0.630583 0.617210 0.140356
0.660442 0.618366 0.142629
0.691837 0.621387 0.145561
0.717206 0.623091 0.147629
0.736929 0.625495 0.150638
0.755141 0.628025 0.154088
0.769186 0.629649 0.157740
0.779879 0.631850 0.162549
0.786742 0.633220 0.170036
0.790085 0.635953 0.192141
0.118328 0.693935 0.118701
0.118421 0.693770 0.118744
0.118781 0.693193 0.118903
0.119551 0.692193 0.119211
0.120994 0.690850 0.119785
0.123594 0.689407 0.120800
0.128652 0.688254 0.122288
0.133486 0.685797 0.123331
0.142946 0.683407 0.124628
0.154712 0.680647 0.125839
0.170213 0.677749 0.127068
0.183440 0.674371 0.128114
0.213082 0.670987 0.129196
0.251291 0.667466 0.130202
0.290930 0.663886 0.131109
0.340112 0.660443 0.132091
0.379119 0.657065 0.132981
0.414823 0.653877 0.134138
0.451043 0.650908 0.135378
0.488326 0.648340 0.136705
0.525252 0.645793 0.137990
0.560957 0.642698 0.139378
0.594211 0.641240 0.141441
0.619817 0.638658 0.142467
0.647114 0.637185 0.144204
0.676977 0.638500 0.146780
0.706901 0.640210 0.148744
0.727633 0.642330 0.151864
0.747179 0.644760 0.155117
0.763068 0.646412 0.158452
0.775201 0.647709 0.162808
0.783250 0.648773 0.169284
0.787755 0.650668 0.186681
0.122143 0.705003 0.119952
0.122234 0.704858 0.120008
0.122579 0.704352 0.120212
0.123307 0.703474 0.120609
0.124639 0.702296 0.121252
0.127199 0.700977 0.122219
0.131843 0.699794 0.123624
0.138191 0.698012 0.124908
0.146334 0.695690 0.126095
0.158717 0.693554 0.127550
0.171548 0.690592 0.128622
0.184156 0.687699 0.129837
0.214934 0.684678 0.131062
0.249342 0.681290 0.132058
0.288011 0.677906 0.133011
0.332689 0.674589 0.134276
0.372012 0.671376 0.135625
0.409495 0.668272 0.136912
0.442893 0.665343 0.138174
0.479389 0.662619 0.139453
0.516465 0.660275 0.140786
0.550319 0.658178 0.142135
0.585147 0.656428 0.143517
0.609931 0.654694 0.144472
0.636341 0.653530 0.146132
0.664308 0.653064 0.148315
0.694591 0.653092 0.150056
0.718253 0.654239 0.153068
0.739228 0.655645 0.156206
0.756560 0.656792 0.159322
0.770531 0.657931 0.163178
0.779576 0.659224 0.169087
0.785469 0.660621 0.183257
0.125125 0.715388 0.120401
0.125207 0.715255 0.120455
0.125547 0.714789 0.120653
0.126288 0.713970 0.121036
0.127629 0.712847 0.121654
0.129956 0.711535 0.122580
0.134057 0.710236 0.123919
0.141441 0.708821 0.125462
0.148356 0.706501 0.126558
0.159832 0.704461 0.128074
0.171876 0.701808 0.129244
0.184175 0.699239 0.130584
0.209869 0.696275 0.131696
0.243943 0.693362 0.132881
0.284067 0.690279 0.134277
0.322543 0.687062 0.135572
0.362297 0.683950 0.136952
0.401858 0.680939 0.138278
0.432088 0.678086 0.139608
0.468420 0.675410 0.140888
0.503975 0.672972 0.142203
0.538208 0.670832 0.143509
0.573050 0.669019 0.144893
0.600800 0.667512 0.146305
0.626293 0.666066 0.147921
0.653495 0.665306 0.150329
0.682509 0.664686 0.151807
0.708925 0.664478 0.154233
0.730935 0.665741 0.157172
0.749927 0.666891 0.160299
0.765788 0.668018 0.163723
0.776082 0.669053 0.168861
0.782711 0.670613 0.181089
0.128192 0.724410 0.121027
0.128281 0.724295 0.121080
0.128620 0.723889 0.121272
0.129317 0.723173 0.121643
0.130558 0.722178 0.122239
0.132670 0.720987 0.123128
0.136983 0.719750 0.124407
0.144972 0.718716 0.126219
0.151045 0.716548 0.127247
0.160808 0.714510 0.128647
0.173670 0.712369 0.130114
0.183475 0.709789 0.131333
0.209163 0.707211 0.132636
0.241525 0.704515 0.134174
0.278015 0.701634 0.135644
0.314352 0.698771 0.137136
0.356283 0.695908 0.138596
0.396604 0.693074 0.140026
0.424016 0.690292 0.141362
0.459944 0.687660 0.142715
0.493681 0.685222 0.144019
0.528096 0.683027 0.145335
0.561144 0.681067 0.146645
0.591870 0.679483 0.148071
0.616945 0.678164 0.149678
0.643230 0.677079 0.152254
0.671742 0.676537 0.153628
0.700242 0.675728 0.155792
0.722513 0.675675 0.158123
0.743076 0.676686 0.160970
0.760930 0.677851 0.164336
0.772712 0.678821 0.168896
0.780113 0.680157 0.179539
0.130998 0.732801 0.121525
0.131084 0.732702 0.121577
0.131409 0.732352 0.121766
0.132071 0.731731 0.122130
0.133232 0.730858 0.122714
0.135605 0.729794 0.123582
0.139782 0.728648 0.124827
0.146898 0.727604 0.126585
0.153931 0.725951 0.127945
0.162422 0.724005 0.129260
0.176398 0.722293 0.131037
0.183501 0.719819 0.132168
0.210651 0.717555 0.133852
0.238144 0.714921 0.135432
0.275316 0.712354 0.137204
0.309540 0.709671 0.138778
0.350629 0.706962 0.140281
0.387859 0.704266 0.141770
0.417798 0.701618 0.143200
0.451411 0.699111 0.144599
0.484825 0.696762 0.145977
0.519434 0.694617 0.147335
0.551214 0.692676 0.148668
0.584075 0.690914 0.150270
0.608103 0.689525 0.152082
0.633578 0.688371 0.153907
0.661441 0.687958 0.155182
0.689543 0.686939 0.157327
0.715154 0.686643 0.159424
0.736072 0.686401 0.161696
0.755694 0.687342 0.164775
0.769403 0.688340 0.169006
0.777884 0.689536 0.178513
0.133467 0.743553 0.120344
0.133540 0.743458 0.120395
0.133854 0.743118 0.120583
0.134575 0.742506 0.120945
0.135847 0.741629 0.121530
0.137995 0.740518 0.122408
0.141615 0.739244 0.123681
0.147859 0.737940 0.125509
0.155806 0.736434 0.127360
0.163061 0.734442 0.128635
0.174737 0.732535 0.130364
0.183483 0.730378 0.131897
0.205649 0.728032 0.133370
0.234438 0.725616 0.135318
0.268629 0.723081 0.137167
0.299892 0.720504 0.138837
0.344388 0.717937 0.140548
0.378697 0.715345 0.142120
0.410659 0.712771 0.143596
0.441092 0.710309 0.145045
0.474744 0.707997 0.146464
0.508516 0.705862 0.147861
0.540872 0.703933 0.149334
0.573876 0.702232 0.151013
