LUTs/negative-portra-400/Portra400_Modern_Punchy.cube
TITLE "Kodak Portra 400 Modern Punchy"
# Adobe RGB in/out. REPLACES AgX. Kodak Portra 400 Modern Punchy.
LUT_3D_SIZE 5
DOMAIN_MIN 0.0 0.0 0.0
DOMAIN_MAX 1.0 1.0 1.0
0.068277 0.082999 0.079619
0.527514 0.106136 0.086059
0.876879 0.175334 0.103096
0.922055 0.222675 0.142729
0.924626 0.476696 0.728719
0.095328 0.295518 0.086817
0.169834 0.212073 0.089026
0.719805 0.276299 0.103299
0.900860 0.339167 0.132990
0.916748 0.454659 0.711443
0.135643 0.645920 0.101899
0.173446 0.615768 0.107376
0.418310 0.544468 0.114939
0.803014 0.561766 0.135464
0.897896 0.588227 0.367765
0.174320 0.801547 0.114486
0.196373 0.793442 0.122773
0.350053 0.757863 0.136297
0.668306 0.727737 0.153245
0.873829 0.731097 0.192163
0.173797 0.829866 0.100491
0.204434 0.844199 0.099900
0.285237 0.841685 0.119810
0.555306 0.827056 0.142269
0.866005 0.823128 0.154160
0.076672 0.119779 0.312714
0.497037 0.245232 0.673084
0.877804 0.258399 0.527266
0.917034 0.300390 0.562835
0.921683 0.468616 0.722253
0.108158 0.250305 0.232634
0.203652 0.188584 0.189699
0.763079 0.294675 0.282674
0.896732 0.363827 0.370811
0.913797 0.446480 0.705039
0.160073 0.621671 0.245726
0.211449 0.581586 0.230832
0.486807 0.516141 0.214193
0.820705 0.554547 0.250103
0.894103 0.602783 0.555090
0.192863 0.795501 0.221197
0.222513 0.781053 0.226678
0.392567 0.745484 0.233616
0.703772 0.720431 0.243523
0.872550 0.729677 0.286237
0.172497 0.834982 0.143491
0.202898 0.848647 0.141181
0.301718 0.840271 0.170350
0.571915 0.826636 0.211279
0.867031 0.823438 0.223781
0.089117 0.288886 0.728723
0.407967 0.463826 0.869360
0.893871 0.503145 0.863028
0.918634 0.465174 0.813706
0.920365 0.493007 0.805514
0.134797 0.459442 0.724500
0.324043 0.481945 0.781299
0.797844 0.478386 0.761249
0.897975 0.493797 0.760327
0.911994 0.470209 0.781701
0.176928 0.599974 0.561849
0.236071 0.565351 0.539049
0.516001 0.506932 0.504111
0.825183 0.579541 0.592189
0.889420 0.628019 0.723388
0.217516 0.778381 0.537633
0.258286 0.765358 0.526636
0.446216 0.732780 0.505801
0.744242 0.714298 0.502136
0.869163 0.739456 0.618426
0.187904 0.845666 0.571160
0.194487 0.846734 0.564837
0.338593 0.837265 0.487915
0.607049 0.826534 0.480730
0.866801 0.826158 0.499994
0.105113 0.543803 0.907572
0.316054 0.608439 0.929202
0.889199 0.636460 0.930094
0.928172 0.600814 0.900640
0.923776 0.529908 0.866208
0.149657 0.633632 0.912157
0.345525 0.661890 0.926239
0.847001 0.650087 0.910422
0.908924 0.612804 0.882054
0.915143 0.507593 0.849890
0.197607 0.658089 0.813671
0.276130 0.654271 0.819083
0.628065 0.644419 0.815857
0.848042 0.650717 0.815473
0.891262 0.664455 0.820245
0.224641 0.775378 0.741910
0.270130 0.766660 0.738355
0.470691 0.742902 0.733638
0.751932 0.723114 0.728332
0.867490 0.759714 0.784621
0.184844 0.841355 0.677637
0.193168 0.843798 0.673110
0.337601 0.838358 0.689026
0.611937 0.829778 0.683546
0.866109 0.834457 0.749957
0.248996 0.692808 0.951754
0.666339 0.699673 0.951767
0.922917 0.720585 0.951850
0.940898 0.685454 0.942306
0.928320 0.607746 0.918775
0.315676 0.733612 0.951579
0.652477 0.740194 0.951610
0.917525 0.753877 0.950553
0.928689 0.687461 0.935102
0.919968 0.597201 0.912605
0.331029 0.766223 0.931426
0.490387 0.758373 0.928727
0.822155 0.739255 0.915828
0.887132 0.716178 0.901805
0.899437 0.700532 0.890596
0.250756 0.803055 0.888651
0.318599 0.799682 0.885584
0.644627 0.787611 0.877331
0.832275 0.777488 0.868344
0.873563 0.785972 0.865677
0.174218 0.835666 0.797470
0.190985 0.843999 0.810504
0.276009 0.849922 0.838344
0.584228 0.843255 0.856186
0.866010 0.844657 0.854124
