LUTs/negative-portra-400/Portra400_Classic_ExtraPunchy.cube
TITLE "Kodak Portra 400 Classic ExtraPunchy"
# Adobe RGB in/out. REPLACES AgX. Kodak Portra 400 Classic ExtraPunchy.
LUT_3D_SIZE 9
DOMAIN_MIN 0.0 0.0 0.0
DOMAIN_MAX 1.0 1.0 1.0
0.069662 0.073299 0.081842
0.084888 0.073498 0.079774
0.264069 0.081067 0.078569
0.532983 0.092348 0.079922
0.667476 0.107572 0.081637
0.734414 0.124180 0.086078
0.778355 0.136519 0.095327
0.805669 0.159340 0.493334
0.810190 0.340202 0.590796
0.067829 0.086118 0.079681
0.073562 0.088084 0.078185
0.176613 0.092165 0.078942
0.464316 0.103419 0.080226
0.647149 0.119115 0.082044
0.728463 0.138655 0.086373
0.777061 0.150953 0.094688
0.805670 0.159367 0.493351
0.810190 0.340210 0.590795
0.069983 0.140005 0.078671
0.072924 0.147915 0.079154
0.104101 0.152078 0.080067
0.293486 0.162790 0.081315
0.557289 0.180630 0.083807
0.695255 0.208682 0.087841
0.768282 0.226876 0.094993
0.805923 0.168681 0.495385
0.810190 0.340211 0.590795
0.073822 0.274545 0.080054
0.075829 0.283668 0.080484
0.094973 0.297806 0.081606
0.195006 0.301298 0.083783
0.424373 0.313275 0.087070
0.631767 0.332042 0.091703
0.743184 0.354325 0.098330
0.793842 0.362052 0.113075
0.810190 0.319611 0.512293
0.079707 0.432520 0.081616
0.081830 0.437321 0.082353
0.097670 0.452754 0.084728
0.166728 0.461480 0.087746
0.340240 0.464299 0.091831
0.552206 0.474529 0.097209
0.700086 0.490431 0.105123
0.784726 0.505345 0.117087
0.810412 0.523200 0.305404
0.088499 0.571974 0.084740
0.090952 0.573899 0.085543
0.108101 0.584071 0.088403
0.160799 0.591791 0.092764
0.298935 0.595438 0.097924
0.483271 0.598157 0.104766
0.650873 0.605712 0.113655
0.767863 0.616639 0.125023
0.809077 0.628590 0.163333
0.101508 0.672022 0.087668
0.104145 0.672964 0.088489
0.119916 0.678076 0.092121
0.164008 0.683584 0.097558
0.279692 0.686956 0.105034
0.437338 0.688622 0.113278
0.600178 0.691603 0.122522
0.735180 0.697757 0.133712
0.807814 0.706975 0.159176
0.116309 0.757684 0.087368
0.117743 0.757239 0.087829
0.131260 0.756051 0.092624
0.168884 0.757580 0.099183
0.267925 0.758902 0.108908
0.405340 0.759280 0.118626
0.564698 0.760287 0.128460
0.698115 0.763803 0.140068
0.807860 0.768994 0.159589
0.117562 0.776623 0.085316
0.117563 0.776625 0.085317
0.144539 0.802106 0.085327
0.144541 0.804106 0.090072
0.237768 0.814594 0.097494
0.372806 0.812376 0.109329
0.523907 0.811324 0.119582
0.659336 0.813184 0.127568
0.812903 0.818361 0.132418
0.068681 0.074862 0.084473
0.076076 0.086750 0.155192
0.265413 0.086325 0.096252
0.566789 0.097554 0.092507
0.675319 0.111049 0.090882
0.735869 0.127346 0.093678
0.778302 0.140764 0.107294
0.805670 0.159367 0.493353
0.810190 0.340210 0.590797
0.068826 0.087864 0.083822
0.082646 0.094643 0.089356
0.214627 0.097164 0.088670
0.511895 0.108968 0.090825
0.661421 0.123525 0.090952
0.730852 0.142638 0.093767
0.777093 0.154774 0.105104
0.805671 0.159410 0.493381
0.810190 0.340210 0.590795
0.072071 0.141111 0.084214
0.075988 0.146032 0.085464
0.128048 0.152206 0.087559
0.359097 0.167649 0.090933
0.587923 0.185831 0.092614
0.703846 0.212636 0.095676
0.769501 0.230060 0.103730
0.805996 0.171493 0.496271
0.810190 0.340211 0.590795
0.075882 0.273939 0.085829
0.079181 0.280765 0.086884
0.107447 0.293328 0.089778
0.232300 0.299791 0.093079
0.467366 0.315143 0.096488
0.650105 0.334440 0.099720
0.747649 0.355939 0.107909
0.794034 0.364143 0.124276
0.810190 0.340225 0.590792
0.081945 0.430001 0.087126
0.084843 0.434475 0.088158
0.106219 0.448385 0.091941
0.185371 0.457609 0.096493
0.365593 0.462711 0.101895
0.570835 0.474463 0.107608
0.708461 0.490972 0.114862
0.785759 0.505915 0.127301
0.810388 0.528003 0.350619
0.090812 0.570050 0.089394
0.093561 0.572026 0.090521
0.113272 0.581621 0.094542
0.171195 0.589298 0.099911
0.314199 0.593572 0.107863
0.498309 0.597290 0.115691
0.659874 0.605551 0.124338
0.771598 0.616709 0.135370
0.809128 0.629516 0.181929
0.103697 0.671254 0.092016
0.106583 0.672193 0.092936
0.123596 0.677124 0.097484
0.170979 0.682491 0.105036
0.289245 0.685952 0.113755
0.449013 0.687976 0.123314
0.608569 0.691334 0.133263
0.740709 0.697762 0.146419
0.808048 0.707292 0.172459
0.117232 0.757000 0.089818
0.118909 0.756664 0.090681
0.133377 0.755772 0.096780
0.173380 0.757288 0.105898
0.274311 0.758604 0.116374
0.412384 0.759085 0.127336
0.569751 0.760276 0.139013
0.703017 0.763901 0.152719
0.808327 0.769159 0.171580
0.117562 0.786589 0.111254
0.117565 0.786592 0.111254
0.144539 0.810911 0.111254
0.144542 0.810910 0.111251
0.241014 0.814746 0.101181
0.376263 0.812521 0.115318
0.527181 0.811544 0.127044
0.661592 0.813449 0.136162
0.813588 0.818548 0.142117
0.067534 0.085063 0.132717
0.079368 0.119629 0.423184
0.230931 0.121059 0.391885
0.560883 0.127777 0.347079
0.677003 0.143729 0.318365
0.736805 0.165440 0.334052
0.777961 0.183893 0.396574
0.805807 0.166843 0.506577
0.810190 0.340216 0.590812
0.069521 0.098524 0.136716
0.078814 0.107955 0.214109
0.206098 0.118621 0.268801
0.521621 0.132474 0.262588
0.667556 0.152592 0.260151
0.733164 0.173988 0.292396
0.776963 0.192281 0.357174
0.805859 0.169102 0.507897
0.810190 0.340211 0.590798
0.073943 0.151157 0.129212
0.080281 0.155374 0.134492
0.171026 0.180741 0.169483
0.409314 0.183471 0.172113
0.620409 0.209232 0.188195
0.715506 0.237597 0.213366
0.771754 0.255705 0.250908
0.805373 0.221024 0.504012
0.810190 0.340211 0.590795
0.080599 0.282795 0.132203
0.085995 0.287153 0.134966
0.130009 0.297220 0.144635
0.294963 0.306708 0.155704
0.531752 0.327627 0.169425
0.679102 0.350553 0.188154
0.756645 0.370120 0.205601
0.794629 0.382034 0.288040
0.810190 0.340214 0.590797
0.089460 0.435833 0.134871
0.094730 0.438941 0.137776
0.127930 0.448729 0.146367
0.235230 0.457642 0.156879
0.428596 0.465518 0.167536
0.617547 0.481257 0.184526
0.728832 0.498797 0.197563
0.788605 0.513031 0.234062
0.810296 0.544383 0.497437
0.101904 0.572913 0.140469
0.107113 0.574430 0.142897
0.134011 0.581204 0.151456
0.210865 0.587775 0.162264
0.364747 0.592799 0.174072
0.549130 0.598266 0.188205
0.687608 0.608108 0.201016
0.778732 0.619553 0.226109
0.809300 0.635103 0.316692
0.115184 0.672144 0.139194
0.119410 0.672979 0.141543
0.140786 0.676878 0.150508
0.201402 0.681356 0.162561
0.327882 0.684766 0.176065
0.489281 0.687612 0.191444
0.639876 0.691898 0.207106
0.758386 0.699003 0.228301
0.808754 0.709215 0.261942
0.125549 0.753808 0.133783
0.128503 0.753980 0.136214
0.147495 0.754972 0.149287
0.196984 0.756710 0.163600
0.303444 0.758053 0.179838
0.445220 0.758880 0.196684
0.592380 0.760695 0.213072
0.722855 0.764640 0.229602
0.809577 0.770107 0.246681
0.117565 0.786593 0.111258
0.144538 0.810910 0.111257
0.144540 0.810911 0.111256
0.144562 0.810916 0.111257
0.260389 0.815005 0.135134
0.392920 0.813033 0.163109
0.542398 0.812377 0.182169
0.671738 0.814465 0.196843
0.814604 0.819424 0.205387
0.068268 0.103770 0.285543
0.074000 0.148749 0.513271
0.206039 0.168462 0.545535
0.528262 0.178645 0.537433
0.670414 0.198167 0.535050
0.733825 0.222169 0.540802
0.776715 0.243220 0.562959
0.801853 0.241030 0.607467
0.810190 0.347304 0.613408
0.070120 0.118976 0.304006
0.076377 0.145238 0.430235
0.195392 0.173367 0.514774
0.499051 0.185513 0.513320
0.662378 0.208790 0.516290
0.730664 0.233332 0.526678
0.775801 0.254897 0.553065
0.801434 0.250875 0.604363
0.810190 0.347383 0.613654
0.075928 0.179439 0.285923
0.083211 0.185554 0.310432
0.163378 0.207030 0.378569
0.413674 0.227596 0.412905
0.624597 0.256394 0.435224
0.716395 0.285993 0.460662
0.771406 0.308103 0.508886
0.798016 0.323570 0.576113
0.810190 0.347669 0.614551
0.084815 0.300080 0.270982
0.092204 0.304167 0.278392
0.144983 0.315389 0.304083
0.345113 0.347014 0.348210
0.560417 0.352851 0.359543
0.688729 0.377237 0.386182
0.759651 0.400583 0.425397
0.794475 0.419543 0.516372
0.810190 0.347772 0.614820
0.097413 0.446796 0.274055
0.105953 0.449289 0.277829
0.146412 0.457975 0.291906
0.276649 0.467372 0.310158
0.475882 0.477511 0.327266
0.644272 0.495331 0.348034
0.739278 0.514299 0.373546
0.789800 0.531558 0.427864
0.810123 0.562121 0.595844
0.113802 0.578042 0.276509
0.120577 0.579359 0.279324
0.153460 0.585008 0.290340
0.249641 0.591071 0.305238
0.407108 0.596813 0.319331
0.584148 0.603621 0.334228
0.707422 0.614783 0.352921
0.782696 0.626493 0.381933
0.809384 0.647327 0.532504
0.127988 0.674846 0.278411
0.133068 0.675579 0.280778
0.160091 0.678827 0.290445
0.236026 0.682809 0.304433
0.365260 0.686282 0.317357
0.526501 0.689809 0.331039
0.666797 0.694896 0.345350
0.770930 0.702425 0.363885
0.809285 0.715114 0.442412
0.135489 0.754263 0.276083
0.139655 0.754542 0.278165
0.163124 0.755811 0.288455
0.222850 0.757419 0.302178
0.333473 0.758845 0.315158
0.477934 0.760071 0.328194
0.616567 0.762340 0.341302
0.741783 0.766585 0.355174
0.810559 0.772811 0.392756
0.128670 0.802439 0.308465
0.144535 0.816086 0.308465
0.144539 0.816089 0.308464
0.174721 0.820736 0.245143
0.289178 0.815120 0.304422
0.417962 0.813928 0.317732
0.564290 0.813879 0.330023
0.687023 0.816171 0.340289
0.815164 0.821296 0.353320
0.069148 0.137248 0.454673
0.072392 0.172098 0.557250
0.177496 0.217916 0.622230
0.497438 0.233673 0.622647
0.660901 0.253298 0.622751
0.729579 0.277315 0.627200
0.775026 0.294813 0.636591
0.799455 0.292830 0.654519
0.810190 0.366913 0.672514
0.070796 0.156548 0.467494
0.074300 0.182492 0.544295
0.171694 0.229171 0.612300
0.476347 0.246390 0.615372
0.653693 0.266783 0.616746
0.726679 0.289835 0.622634
0.774177 0.306557 0.633412
0.799114 0.304050 0.652855
0.810190 0.366290 0.670673
0.077108 0.225567 0.465536
0.083743 0.237550 0.497367
0.158950 0.273198 0.564315
0.408722 0.294313 0.586433
0.619246 0.313744 0.593571
0.714336 0.338496 0.603405
0.769896 0.358061 0.618932
0.796912 0.369397 0.642793
0.810190 0.364336 0.664828
0.088820 0.336710 0.444651
0.096964 0.341412 0.454441
0.155319 0.357882 0.492259
0.345414 0.376619 0.527118
0.566769 0.395721 0.546085
0.691413 0.418899 0.565743
0.759893 0.439894 0.590750
0.794027 0.456804 0.623532
0.811087 0.445362 0.664880
0.105715 0.464951 0.433115
0.114931 0.467664 0.437072
0.160112 0.476799 0.452450
0.299030 0.488217 0.476348
0.506426 0.512258 0.509946
0.656876 0.520855 0.522219
0.743723 0.540518 0.546429
0.790124 0.555459 0.590287
0.809891 0.579565 0.653467
0.124617 0.587503 0.431947
0.132010 0.588757 0.433930
0.171107 0.594007 0.442424
0.278545 0.600225 0.456067
0.439676 0.606971 0.473149
0.605681 0.614942 0.490997
0.718636 0.627068 0.512624
0.784760 0.639560 0.543115
0.809339 0.659865 0.632085
0.139275 0.679851 0.433171
0.145627 0.680576 0.434376
0.178534 0.683546 0.439739
0.265691 0.687390 0.448936
0.395121 0.691161 0.460999
0.557398 0.695319 0.474511
0.683845 0.701097 0.489419
0.776328 0.709019 0.510870
0.809513 0.725324 0.595037
0.145203 0.756748 0.436848
0.149976 0.757023 0.437346
0.178560 0.758180 0.440668
0.246713 0.759783 0.446512
0.357574 0.761320 0.454922
0.501596 0.762924 0.464946
0.637992 0.765608 0.475833
0.755554 0.770210 0.488583
0.811107 0.777816 0.540057
0.132357 0.808913 0.518132
0.134583 0.810892 0.518132
0.140262 0.815552 0.518130
0.198385 0.817341 0.455677
0.305607 0.816661 0.457782
0.436474 0.815949 0.462910
0.576961 0.816207 0.469059
0.699315 0.818719 0.475771
0.815509 0.824261 0.503567
0.070357 0.192591 0.589951
0.072423 0.221750 0.635061
0.158281 0.274650 0.683649
0.464887 0.290088 0.685168
0.652353 0.307423 0.686053
0.725355 0.325861 0.688071
0.773334 0.341573 0.691929
0.798047 0.341427 0.698432
0.810190 0.378599 0.700309
0.071667 0.211372 0.595608
0.073749 0.236578 0.633535
0.156265 0.286875 0.680363
0.446104 0.301845 0.683270
0.644545 0.319548 0.684533
0.722746 0.338265 0.686799
0.772572 0.353832 0.691065
0.797741 0.353404 0.697960
0.810190 0.378599 0.700309
0.078462 0.289612 0.602098
0.083554 0.300777 0.620847
0.155467 0.334243 0.662196
0.396695 0.351170 0.672183
0.614485 0.368830 0.676289
0.711927 0.387918 0.680974
0.768365 0.404784 0.687087
0.796019 0.412770 0.695324
0.810190 0.378602 0.700309
0.092125 0.384357 0.586966
0.100013 0.389931 0.595431
0.161176 0.411661 0.626557
0.350245 0.428941 0.648458
0.570711 0.444296 0.658563
0.692095 0.460886 0.666644
0.759663 0.479153 0.677344
0.793586 0.492523 0.690154
0.810810 0.483168 0.700243
0.112614 0.496938 0.569629
0.122046 0.499771 0.574313
0.172915 0.511949 0.592691
0.316145 0.526455 0.613531
0.513386 0.540098 0.630682
0.662516 0.551449 0.643213
0.745959 0.565759 0.658111
0.790282 0.579054 0.679318
0.809685 0.598025 0.700555
0.132478 0.601883 0.559501
0.140983 0.603307 0.561734
0.184947 0.608850 0.571090
0.296234 0.615960 0.586607
0.462120 0.624041 0.601489
0.622029 0.636824 0.617532
0.725134 0.643916 0.631552
0.785914 0.654881 0.656484
0.809320 0.672330 0.695248
0.148250 0.687823 0.555944
0.155481 0.688530 0.556948
0.192822 0.691469 0.561686
0.284227 0.695482 0.570421
0.417014 0.699771 0.582497
0.574632 0.704605 0.594166
0.694930 0.711083 0.605708
0.779352 0.719744 0.625021
0.809671 0.736798 0.683970
0.152017 0.761229 0.557423
0.157764 0.761510 0.557635
0.189717 0.762635 0.559408
0.264084 0.764221 0.563315
0.374706 0.765917 0.569879
0.519046 0.767874 0.578312
0.653541 0.770936 0.587609
0.763855 0.775863 0.597072
0.811399 0.785363 0.653476
0.133780 0.811157 0.557946
0.135860 0.812937 0.560088
0.140641 0.817052 0.568225
0.203018 0.820546 0.568898
0.313804 0.819819 0.568561
0.446703 0.819337 0.571039
0.584233 0.819894 0.574805
0.706581 0.822484 0.578883
0.815660 0.828424 0.624230
0.071856 0.278249 0.693640
0.073268 0.296010 0.714491
0.133740 0.328055 0.729645
0.441533 0.342142 0.730869
0.646262 0.359025 0.731724
0.723319 0.376371 0.732920
0.772562 0.389332 0.735037
0.797289 0.389668 0.737719
0.810189 0.396957 0.734824
0.072824 0.292728 0.696211
0.074230 0.307534 0.713873
0.136189 0.339217 0.728905
0.428454 0.353646 0.730428
0.639968 0.370713 0.731389
0.721176 0.388262 0.732653
0.771879 0.401622 0.734850
0.797021 0.401843 0.737697
0.810189 0.396770 0.734501
0.079530 0.355836 0.701190
0.083572 0.364078 0.710658
0.146447 0.388341 0.724655
0.392230 0.403035 0.728005
0.615088 0.417131 0.729593
0.712065 0.431884 0.731250
0.768007 0.444220 0.733849
0.795630 0.450921 0.737273
0.810184 0.395813 0.733030
0.094645 0.439536 0.692450
0.102356 0.444312 0.698883
0.161343 0.461667 0.714433
0.355986 0.475504 0.722039
0.577032 0.488814 0.725359
0.695062 0.503313 0.728088
0.760577 0.516729 0.731517
0.793603 0.527308 0.736211
0.810286 0.533968 0.739407
0.118070 0.538937 0.676626
0.126896 0.541346 0.682150
0.179452 0.551298 0.696795
0.329087 0.561704 0.709762
0.527652 0.571019 0.717101
0.669386 0.580810 0.721786
0.748857 0.590834 0.726758
0.790820 0.601371 0.733503
0.809637 0.617120 0.740588
0.139507 0.623835 0.659677
0.147940 0.625445 0.662779
0.194785 0.632152 0.675186
0.311590 0.640084 0.690561
0.480849 0.646923 0.702477
0.632635 0.653908 0.710770
0.730824 0.661597 0.718063
0.787116 0.670736 0.727639
0.809449 0.684723 0.740092
0.154118 0.699425 0.647670
0.162027 0.700229 0.649198
0.201981 0.703427 0.655729
0.296138 0.707985 0.667390
0.432916 0.713139 0.682065
0.586557 0.718673 0.692913
0.702405 0.725322 0.701834
0.781583 0.733882 0.715285
0.809945 0.746499 0.737370
0.154664 0.768277 0.641511
0.160623 0.768544 0.641987
0.194507 0.769586 0.644627
0.272116 0.771234 0.650026
0.384337 0.773165 0.658489
0.529886 0.775471 0.668718
0.661214 0.778940 0.679590
0.768488 0.784165 0.690419
0.811679 0.793981 0.728969
0.133593 0.812761 0.616234
0.137654 0.816098 0.616245
0.143021 0.820418 0.616528
0.194822 0.825457 0.644013
0.311798 0.824304 0.644983
0.446634 0.823976 0.648573
0.584898 0.824479 0.652697
0.706988 0.826442 0.656288
0.815812 0.834064 0.718747
0.073614 0.364616 0.768879
0.074991 0.366830 0.770862
0.145432 0.380876 0.772227
0.469838 0.394320 0.772492
0.656520 0.408827 0.772912
0.727796 0.422444 0.773535
0.773946 0.431463 0.774450
0.798141 0.428948 0.776476
0.810280 0.425065 0.770733
0.074431 0.374785 0.768777
0.076233 0.377072 0.770639
0.149012 0.391775 0.772199
0.458681 0.404778 0.772497
0.652964 0.418220 0.772921
0.726246 0.431924 0.773551
0.773459 0.441179 0.774488
0.797916 0.439127 0.776506
0.810309 0.427466 0.770733
0.082946 0.425594 0.768380
0.086651 0.427257 0.769662
0.166590 0.437836 0.771569
0.424067 0.448025 0.772160
0.632806 0.460453 0.772685
0.719077 0.473638 0.773392
0.771104 0.483637 0.774446
0.796787 0.485863 0.776413
0.810636 0.453509 0.770733
0.099435 0.497065 0.765995
0.107674 0.498939 0.767337
0.182588 0.508711 0.770067
0.386448 0.518092 0.771308
0.600403 0.529466 0.772119
0.706127 0.540793 0.773016
0.765559 0.548645 0.774297
0.795219 0.553305 0.776346
0.810446 0.558071 0.776646
0.124162 0.576352 0.760784
0.132691 0.577946 0.762519
0.197409 0.584878 0.766761
0.356068 0.591504 0.769380
0.560750 0.598739 0.770952
0.685020 0.606942 0.772220
0.756493 0.615007 0.773766
0.793085 0.621902 0.776090
0.810067 0.635182 0.777659
0.145293 0.650271 0.749416
0.153866 0.651595 0.752232
0.208708 0.656966 0.760086
0.331986 0.662235 0.765245
0.506610 0.667336 0.768421
0.654749 0.673070 0.770562
0.741567 0.679139 0.772584
0.790210 0.685324 0.775388
0.810084 0.696855 0.778161
0.157997 0.716042 0.731393
0.165751 0.717041 0.733789
0.210462 0.721257 0.743049
0.307460 0.726434 0.754568
0.452784 0.731302 0.762370
0.604453 0.736127 0.766730
0.715155 0.741445 0.769836
0.785507 0.746501 0.773691
0.810655 0.755007 0.778195
0.150906 0.779201 0.714198
0.156786 0.779399 0.715226
0.191789 0.780154 0.720228
0.271863 0.781887 0.729275
0.387904 0.784274 0.741540
0.537614 0.787108 0.753098
0.668160 0.790697 0.761027
0.770758 0.793866 0.764984
0.812207 0.802179 0.777302
0.131608 0.813828 0.685198
0.142740 0.822980 0.686163
0.144431 0.824262 0.692775
0.183170 0.829823 0.704578
0.295113 0.829893 0.709121
0.432875 0.829417 0.714989
0.576902 0.829917 0.720740
0.698532 0.831769 0.724292
0.815980 0.839710 0.774595
0.107902 0.422035 0.806553
0.125998 0.423477 0.806562
0.363917 0.429223 0.806595
0.628267 0.439347 0.806695
0.705166 0.451433 0.806868
0.752368 0.461910 0.807140
0.783320 0.465343 0.807799
0.802660 0.449026 0.809067
0.810190 0.458435 0.803668
0.112087 0.429134 0.806465
0.130336 0.430610 0.806475
0.360034 0.436477 0.806513
0.625374 0.446784 0.806623
0.704200 0.459025 0.806806
0.751913 0.469652 0.807090
0.783179 0.473096 0.807751
0.802567 0.455560 0.809023
0.810190 0.469111 0.807915
0.133593 0.465503 0.805978
0.152848 0.466958 0.806000
0.350222 0.472681 0.806080
0.611963 0.482739 0.806257
0.699607 0.494621 0.806496
0.749796 0.505175 0.806849
0.782477 0.509057 0.807515
0.802110 0.492835 0.808765
0.810190 0.469131 0.807915
0.166562 0.539196 0.805263
0.188143 0.540010 0.805311
0.339237 0.543237 0.805475
0.585780 0.549081 0.805748
0.689537 0.556217 0.806066
0.745188 0.562981 0.806491
0.781055 0.566648 0.807199
0.801407 0.563125 0.808344
0.811529 0.580485 0.809872
0.187170 0.605458 0.804822
0.205735 0.606112 0.804898
0.322275 0.608803 0.805149
0.543473 0.613671 0.805464
0.672721 0.619876 0.805865
0.737675 0.626092 0.806352
0.778876 0.630415 0.807050
0.800896 0.631052 0.808183
0.812103 0.643824 0.810388
0.191555 0.671798 0.804727
0.206803 0.672216 0.804833
0.298218 0.674023 0.805173
0.482807 0.677229 0.805575
0.641270 0.681267 0.806003
0.724326 0.685658 0.806518
0.775284 0.689228 0.807191
0.800175 0.691163 0.808235
0.812597 0.705821 0.810249
0.180541 0.737510 0.804967
0.191744 0.737842 0.805110
0.257577 0.739308 0.805532
0.397357 0.741435 0.806031
0.578100 0.743763 0.806534
0.695956 0.746637 0.807066
0.766586 0.749411 0.807783
0.798922 0.751102 0.808709
0.813445 0.761745 0.810478
0.148313 0.793738 0.802643
0.153621 0.794037 0.803709
0.187627 0.794815 0.805645
0.289959 0.795482 0.806724
0.448913 0.796257 0.807495
0.617873 0.797777 0.808122
0.733856 0.800290 0.808775
0.794400 0.802221 0.809617
0.814654 0.808559 0.810992
0.128176 0.813787 0.732413
0.144539 0.827127 0.751117
0.144540 0.827128 0.751117
0.153017 0.828456 0.751164
0.247693 0.840256 0.785767
0.403557 0.840748 0.808445
0.567782 0.840674 0.810267
0.700035 0.842262 0.811111
0.816182 0.845281 0.811656
