LUTs/negative-portra-400/Portra400_Classic_ExtraPunchy.cube
TITLE "Kodak Portra 400 Classic ExtraPunchy"
# Adobe RGB in/out. REPLACES AgX. Kodak Portra 400 Classic ExtraPunchy.
LUT_3D_SIZE 33
DOMAIN_MIN 0.0 0.0 0.0
DOMAIN_MAX 1.0 1.0 1.0
0.069662 0.073299 0.081842
0.067853 0.073150 0.081842
0.068248 0.072738 0.081842
0.071628 0.072305 0.081659
0.084888 0.073498 0.079774
0.095956 0.074571 0.078835
0.135426 0.076824 0.078052
0.209147 0.079682 0.078392
0.264069 0.081067 0.078569
0.333500 0.083055 0.078821
0.425483 0.086796 0.079289
0.487332 0.089890 0.079626
0.532983 0.092348 0.079922
0.578220 0.096016 0.080284
0.616991 0.100982 0.080857
0.645965 0.104222 0.081260
0.667476 0.107572 0.081637
0.686287 0.111512 0.082581
0.704044 0.117231 0.083812
0.720198 0.120637 0.084827
0.734414 0.124180 0.086078
0.746960 0.128549 0.087543
0.759310 0.133361 0.089761
0.771594 0.134684 0.091973
0.778355 0.136519 0.095327
0.784493 0.137410 0.100722
0.792348 0.130461 0.114181
0.796609 0.134349 0.178183
0.805669 0.159340 0.493334
0.805668 0.159298 0.493304
0.805668 0.159295 0.493303
0.805668 0.159296 0.493302
0.810190 0.340202 0.590796
0.069662 0.072397 0.081842
0.067652 0.072447 0.081842
0.069012 0.072275 0.081842
0.073137 0.072492 0.081253
0.087149 0.074181 0.079436
0.097820 0.075082 0.078723
0.135820 0.077326 0.078086
0.206048 0.080161 0.078416
0.259378 0.081431 0.078591
0.328628 0.083488 0.078837
0.420440 0.087285 0.079309
0.483681 0.090328 0.079641
0.529738 0.092726 0.079935
0.576261 0.096455 0.080295
0.615462 0.101385 0.080871
0.644755 0.104680 0.081272
0.666764 0.107994 0.081646
0.685748 0.111906 0.082600
0.703643 0.117759 0.083826
0.719889 0.121139 0.084844
0.734179 0.124660 0.086090
0.746782 0.129159 0.087551
0.759175 0.134017 0.089764
0.771522 0.135324 0.091963
0.778302 0.137142 0.095287
0.784455 0.138011 0.100582
0.792318 0.130980 0.113767
0.796592 0.134516 0.175109
0.805669 0.159341 0.493334
0.805668 0.159298 0.493305
0.805668 0.159295 0.493303
0.805668 0.159296 0.493302
0.810190 0.340203 0.590796
0.069111 0.073062 0.081842
0.068074 0.073208 0.081842
0.067999 0.073242 0.081842
0.071426 0.074480 0.080352
0.081904 0.076834 0.078785
0.096369 0.077183 0.078451
0.134385 0.079338 0.078197
0.201162 0.082068 0.078526
0.246837 0.082966 0.078674
0.313228 0.085140 0.078896
0.402993 0.089238 0.079380
0.470470 0.091975 0.079702
0.517900 0.094400 0.079986
0.568916 0.098086 0.080338
0.609693 0.102950 0.080921
0.640186 0.106373 0.081313
0.664072 0.109546 0.081681
0.683716 0.113354 0.082667
0.702136 0.119702 0.083880
0.718734 0.122979 0.084906
0.733300 0.126509 0.086136
0.746119 0.131602 0.087579
0.758674 0.136422 0.089776
0.771192 0.137672 0.091932
0.778105 0.139428 0.095153
0.784311 0.140220 0.100105
0.792209 0.132916 0.112364
0.796530 0.135253 0.165764
0.805669 0.159344 0.493337
0.805668 0.159298 0.493305
0.805668 0.159295 0.493303
0.805668 0.159298 0.493302
0.810190 0.340207 0.590795
0.067838 0.077528 0.081842
0.067616 0.077752 0.081354
0.068087 0.078160 0.080294
0.069592 0.078190 0.079584
0.075639 0.081480 0.078276
0.083971 0.080864 0.078045
0.112716 0.082667 0.078335
0.170318 0.085812 0.078672
0.218736 0.086389 0.078798
0.288256 0.088630 0.079010
0.375582 0.093165 0.079516
0.440243 0.095962 0.079821
0.495417 0.098102 0.080082
0.551274 0.101324 0.080430
0.597929 0.106627 0.081016
0.630797 0.109685 0.081392
0.658528 0.112563 0.081801
0.679550 0.117197 0.082794
0.699066 0.123464 0.083984
0.716396 0.126633 0.085025
0.731533 0.130756 0.086225
0.744796 0.136324 0.087637
0.757679 0.141062 0.089809
0.770438 0.142199 0.091889
0.777716 0.143835 0.094938
0.784027 0.144492 0.099569
0.791993 0.136764 0.110093
0.796405 0.137170 0.151786
0.805670 0.159352 0.493342
0.805668 0.159299 0.493305
0.805668 0.159295 0.493303
0.805668 0.159303 0.493302
0.810190 0.340209 0.590795
0.067829 0.086118 0.079681
0.067955 0.086376 0.079185
0.068454 0.087331 0.078632
0.070096 0.087984 0.078183
0.073562 0.088084 0.078185
0.078132 0.086203 0.078245
0.094163 0.088730 0.078486
0.135641 0.092323 0.078829
0.176613 0.092165 0.078942
0.245710 0.094005 0.079224
0.341458 0.099347 0.079716
0.403283 0.101444 0.079999
0.464316 0.103419 0.080226
0.520762 0.107327 0.080572
0.577749 0.112839 0.081166
0.614190 0.115843 0.081516
0.647149 0.119115 0.082044
0.672097 0.123647 0.082996
0.693622 0.130457 0.084170
0.712287 0.134327 0.085217
0.728463 0.138655 0.086373
0.742523 0.143988 0.087737
0.755984 0.148563 0.089884
0.769163 0.149510 0.091862
0.777061 0.150953 0.094688
0.783550 0.151421 0.098956
0.791629 0.143224 0.107345
0.796190 0.141354 0.135176
0.805670 0.159367 0.493351
0.805668 0.159301 0.493307
0.805668 0.159296 0.493304
0.805670 0.159352 0.493302
0.810190 0.340210 0.590795
0.068101 0.091570 0.078757
0.068169 0.091733 0.078602
0.068531 0.092777 0.078329
0.069592 0.093666 0.078129
0.072069 0.094090 0.078258
0.075761 0.094200 0.078432
0.086083 0.097706 0.078696
0.114803 0.101995 0.079055
0.143756 0.100552 0.079171
0.196532 0.101947 0.079444
0.292060 0.107440 0.079934
0.360234 0.109518 0.080200
0.422266 0.111167 0.080428
0.489334 0.114632 0.080803
0.554321 0.121555 0.081359
0.593763 0.124940 0.081681
0.628234 0.128834 0.082381
0.659381 0.136102 0.083289
0.684183 0.144171 0.084519
0.705218 0.147133 0.085503
0.723262 0.150779 0.086598
0.738740 0.155649 0.087907
0.753202 0.159912 0.090037
0.767089 0.160550 0.091890
0.776004 0.161692 0.094476
0.782783 0.161921 0.098342
0.791042 0.153372 0.104639
0.795834 0.149325 0.123316
0.805671 0.159399 0.493371
0.805668 0.159304 0.493309
0.805668 0.159298 0.493305
0.810187 0.315885 0.493303
0.810190 0.340210 0.590795
0.068672 0.104412 0.078112
0.068749 0.104574 0.078155
0.069133 0.105923 0.078290
0.070155 0.107399 0.078429
0.072401 0.108399 0.078608
0.075591 0.108806 0.078763
0.082517 0.108907 0.078930
0.102182 0.114716 0.079385
0.124749 0.111725 0.079472
0.162765 0.112590 0.079707
0.243479 0.119509 0.080186
0.314182 0.121484 0.080446
0.375973 0.122297 0.080662
0.448704 0.126063 0.081054
0.519848 0.135336 0.081591
0.569981 0.140175 0.082149
0.607749 0.143286 0.082801
0.645100 0.149312 0.083641
0.673643 0.158446 0.084960
0.695829 0.162535 0.085887
0.715056 0.167620 0.086924
0.732256 0.173092 0.088302
0.748527 0.176742 0.090312
0.763653 0.176872 0.092031
0.774278 0.177537 0.094401
0.781538 0.177474 0.097874
0.790076 0.168965 0.102508
0.795233 0.163105 0.114529
0.805673 0.159480 0.493417
0.805669 0.159312 0.493314
0.805668 0.159301 0.493308
0.810190 0.315958 0.493304
0.810190 0.340210 0.590795
0.069494 0.124701 0.078482
0.069562 0.124874 0.078518
0.070046 0.126875 0.078658
0.071233 0.129160 0.078817
0.073058 0.131731 0.078966
0.076190 0.133464 0.079239
0.082788 0.134097 0.079460
0.094810 0.134257 0.079694
0.112185 0.127751 0.079767
0.142443 0.128402 0.080004
0.203786 0.138766 0.080473
0.272377 0.139986 0.080753
0.332315 0.139894 0.080982
0.402563 0.144517 0.081342
0.484763 0.154143 0.082025
0.538470 0.157434 0.082662
0.583780 0.160655 0.083279
0.622970 0.167349 0.084081
0.659787 0.176347 0.085516
0.685291 0.178772 0.086361
0.707371 0.182618 0.087326
0.726205 0.189034 0.088830
0.743157 0.196662 0.090742
0.758800 0.200327 0.092344
0.771233 0.205317 0.094584
0.779401 0.204767 0.097716
0.788379 0.195025 0.101452
0.794157 0.185992 0.109928
0.805681 0.159803 0.493577
0.805669 0.159340 0.493332
0.805668 0.159312 0.493316
0.810190 0.315963 0.493307
0.810190 0.340211 0.590795
0.069983 0.140005 0.078671
0.070077 0.140181 0.078697
0.070531 0.141871 0.078796
0.071462 0.144950 0.078938
0.072924 0.147915 0.079154
0.075199 0.150043 0.079384
0.080065 0.151470 0.079620
0.088082 0.151918 0.079841
0.104101 0.152078 0.080067
0.129180 0.152584 0.080285
0.178173 0.163915 0.080834
0.233589 0.164068 0.081108
0.293486 0.162790 0.081315
0.360885 0.166364 0.081637
0.443431 0.175707 0.082670
0.502951 0.178009 0.083248
0.557289 0.180630 0.083807
0.600263 0.186596 0.084760
0.642304 0.197870 0.086136
0.671508 0.202118 0.086926
0.695255 0.208682 0.087841
0.717613 0.214338 0.089506
0.737138 0.220608 0.091302
0.754582 0.222863 0.092781
0.768282 0.226876 0.094993
0.777402 0.231624 0.097904
0.786254 0.230646 0.101468
0.792239 0.231428 0.108407
0.805923 0.168681 0.495385
0.805678 0.159676 0.493517
0.805670 0.159385 0.493365
0.810190 0.315966 0.493322
0.810190 0.340211 0.590795
0.070964 0.164455 0.078918
0.071035 0.164598 0.078937
0.071359 0.165813 0.079031
0.072131 0.168967 0.079241
0.073305 0.172029 0.079463
0.075377 0.174843 0.079681
0.079437 0.176677 0.079922
0.086238 0.177733 0.080146
0.098470 0.178212 0.080359
0.120085 0.178470 0.080598
0.159885 0.192099 0.081206
0.205206 0.191562 0.081466
0.261010 0.188276 0.081637
0.325159 0.191786 0.082264
0.402587 0.203946 0.083337
0.468569 0.205715 0.083858
0.521908 0.207774 0.084495
0.576062 0.214475 0.085507
0.620463 0.226850 0.086835
0.656445 0.230534 0.087562
0.683504 0.234508 0.088659
0.707322 0.242568 0.090281
0.728350 0.251699 0.092003
0.747846 0.254195 0.093364
0.763707 0.256366 0.095580
0.775204 0.259709 0.098259
0.784780 0.257434 0.101499
0.791280 0.256699 0.107455
0.798091 0.252252 0.116705
0.802940 0.251964 0.154370
0.808013 0.273517 0.451617
0.810190 0.316422 0.496036
0.810190 0.340211 0.590794
0.072316 0.206915 0.079443
0.072379 0.207099 0.079468
0.072650 0.208419 0.079561
0.073334 0.213379 0.079752
0.074392 0.217781 0.079972
0.076612 0.221546 0.080200
0.080960 0.225002 0.080445
0.087538 0.227213 0.080721
0.100155 0.228513 0.081012
0.120860 0.229107 0.081298
0.147969 0.229619 0.081577
0.185647 0.228170 0.081936
0.232452 0.223618 0.082319
0.294902 0.226471 0.082980
0.368228 0.239332 0.084014
0.429272 0.239670 0.084672
0.489151 0.240284 0.085331
0.547390 0.246457 0.086278
0.597915 0.259373 0.087570
0.636413 0.261325 0.088414
0.668779 0.266303 0.089629
0.694902 0.275121 0.091170
0.719427 0.281941 0.092766
0.740845 0.284817 0.094251
0.757728 0.289997 0.096359
0.771631 0.296764 0.098841
0.782423 0.293199 0.101946
0.789775 0.290738 0.107044
0.797072 0.284976 0.114017
0.802348 0.279166 0.133420
0.807792 0.275124 0.393810
0.810190 0.317844 0.504474
0.810190 0.318362 0.507205
0.073155 0.242022 0.079779
0.073206 0.242187 0.079801
0.073418 0.243267 0.079885
0.073949 0.247524 0.080052
0.075125 0.251662 0.080244
0.077117 0.256461 0.080481
0.081142 0.260991 0.080780
0.086810 0.263800 0.081075
0.096991 0.265792 0.081359
0.114994 0.267012 0.081626
0.138603 0.267568 0.082126
0.171212 0.268202 0.082738
0.210249 0.261835 0.083046
0.271190 0.264941 0.083699
0.340279 0.278271 0.084952
0.395712 0.277099 0.085578
0.457086 0.276884 0.086210
0.515761 0.282659 0.087108
0.574912 0.293837 0.088525
0.614049 0.294786 0.089490
0.652980 0.299572 0.090676
0.681960 0.305649 0.092105
0.708110 0.313507 0.093713
0.731385 0.317416 0.095334
0.751324 0.320287 0.097281
0.767448 0.325271 0.099596
0.779789 0.326426 0.102805
0.787558 0.329512 0.107310
0.795326 0.326925 0.113132
0.801321 0.317836 0.125048
0.807269 0.290132 0.286462
0.810190 0.317856 0.504517
0.810190 0.318858 0.509288
0.073822 0.274545 0.080054
0.073864 0.274690 0.080073
0.074035 0.275573 0.080143
0.074653 0.278852 0.080280
0.075829 0.283668 0.080484
0.077621 0.288234 0.080747
0.081133 0.292034 0.081041
0.086181 0.295266 0.081334
0.094973 0.297806 0.081606
0.109882 0.299322 0.082078
0.130200 0.300296 0.082664
0.156625 0.300682 0.083215
0.195006 0.301298 0.083783
0.247830 0.303539 0.084498
0.315562 0.316248 0.085928
0.368468 0.314481 0.086506
0.424373 0.313275 0.087070
0.487732 0.317927 0.087975
0.549809 0.328555 0.089802
0.591928 0.328552 0.090634
0.631767 0.332042 0.091703
0.667385 0.338680 0.093104
0.695551 0.347300 0.095004
0.721753 0.348951 0.096461
0.743184 0.354325 0.098330
0.760844 0.361969 0.100882
0.776787 0.360696 0.103942
0.785652 0.361590 0.107959
0.793842 0.362052 0.113075
0.799975 0.362594 0.122231
0.805256 0.366699 0.149407
0.810190 0.317935 0.504568
0.810190 0.319611 0.512293
0.074950 0.313451 0.080395
0.075014 0.313575 0.080414
0.075267 0.314268 0.080484
0.075849 0.316640 0.080627
0.076972 0.321731 0.080884
0.079001 0.325738 0.081147
0.082134 0.329798 0.081418
0.086797 0.333737 0.081697
0.094994 0.336861 0.082319
0.108377 0.338858 0.082902
0.126800 0.340247 0.083456
0.150591 0.341197 0.084012
0.184308 0.341619 0.084713
0.229773 0.342244 0.085484
0.294935 0.355278 0.086848
0.345925 0.353289 0.087425
0.397528 0.350882 0.087972
0.460916 0.354670 0.089217
0.521869 0.365289 0.091005
0.570955 0.364998 0.091835
0.610844 0.367629 0.092833
0.651980 0.374142 0.094394
0.682549 0.381541 0.096296
0.710023 0.384531 0.097699
0.733779 0.390260 0.099471
0.754441 0.395730 0.102440
0.773082 0.397931 0.105326
0.782666 0.402524 0.108997
0.792011 0.400792 0.113427
0.798916 0.398373 0.120780
0.804667 0.397607 0.136993
0.808671 0.407659 0.269283
0.811285 0.439305 0.514679
0.076606 0.363035 0.080939
0.076663 0.363178 0.080960
0.076922 0.363884 0.081038
0.077506 0.366026 0.081188
0.079136 0.371612 0.081430
0.081079 0.375204 0.081664
0.084364 0.380250 0.082233
0.089222 0.384544 0.082840
0.096995 0.388247 0.083455
0.110643 0.391107 0.084034
0.128591 0.393223 0.084826
0.151160 0.394478 0.085574
0.183602 0.395223 0.086329
0.226130 0.395744 0.087037
0.278693 0.396293 0.087764
0.325698 0.393427 0.088497
0.374984 0.390950 0.089308
0.433857 0.394390 0.090515
0.497794 0.404290 0.092229
0.547194 0.403295 0.092986
0.590685 0.405184 0.094156
0.632298 0.410499 0.095870
0.668670 0.416289 0.097665
0.697249 0.419284 0.098998
0.723695 0.422981 0.101028
0.746058 0.429499 0.104220
0.767738 0.431342 0.106899
0.780013 0.433193 0.110246
0.789863 0.435585 0.114252
0.797239 0.438281 0.120534
0.803702 0.435112 0.131604
0.808189 0.433417 0.189327
0.811245 0.446081 0.508062
0.077960 0.399945 0.081292
0.078045 0.400074 0.081310
0.078373 0.400684 0.081378
0.079083 0.402378 0.081507
0.080457 0.406164 0.081724
0.082396 0.409965 0.082262
0.085580 0.414935 0.082887
0.090097 0.417969 0.083433
0.097071 0.421307 0.084010
0.109665 0.424380 0.084824
0.125682 0.426363 0.085584
0.145875 0.427775 0.086335
0.174105 0.428886 0.087068
0.211732 0.429429 0.087772
0.260619 0.429977 0.088755
0.308990 0.430536 0.089829
0.355779 0.427958 0.090574
0.410885 0.430693 0.091773
0.476801 0.439653 0.093480
0.523316 0.438297 0.094460
0.571798 0.439278 0.095662
0.613120 0.444187 0.097342
0.654556 0.449728 0.099077
0.684267 0.451917 0.100509
0.712230 0.456086 0.103029
0.736944 0.462580 0.106096
0.760977 0.464210 0.108568
0.776271 0.468527 0.111767
0.787461 0.470312 0.115478
0.795867 0.470462 0.120982
0.802627 0.472603 0.129865
0.807297 0.478221 0.158967
0.810995 0.469691 0.447514
0.079707 0.432520 0.081616
0.079781 0.432617 0.081632
0.080066 0.433065 0.081690
0.080672 0.434309 0.081934
0.081830 0.437321 0.082353
0.083942 0.441765 0.082885
0.086451 0.445186 0.083415
0.091107 0.449046 0.083974
0.097670 0.452754 0.084728
0.109013 0.455838 0.085527
0.123567 0.458319 0.086310
0.141922 0.460120 0.087046
0.166728 0.461480 0.087746
0.200130 0.462417 0.088751
0.244155 0.462996 0.089787
0.291800 0.463585 0.090797
0.340240 0.464299 0.091831
0.391262 0.466897 0.092988
0.455124 0.475496 0.095092
0.502520 0.473717 0.096014
0.552206 0.474529 0.097209
0.595062 0.478889 0.098817
0.636714 0.484346 0.100824
0.670890 0.486027 0.102677
0.700086 0.490431 0.105123
0.727149 0.496116 0.108030
0.752777 0.499084 0.110394
0.772283 0.502409 0.113348
0.784726 0.505345 0.117087
0.793843 0.508603 0.122014
0.801504 0.508828 0.129254
0.806770 0.509863 0.148668
0.810412 0.523200 0.305404
0.081656 0.470012 0.082371
0.081726 0.470109 0.082405
0.082036 0.470532 0.082527
0.082684 0.471635 0.082759
0.083868 0.474161 0.083126
0.085935 0.479313 0.083655
0.088386 0.481778 0.084118
0.093340 0.486412 0.084940
0.099997 0.489958 0.085715
0.110253 0.492988 0.086468
0.123954 0.495837 0.087239
0.141203 0.498054 0.088015
0.164253 0.499853 0.089136
0.195074 0.500860 0.090148
0.235526 0.501804 0.091206
0.281725 0.502420 0.092201
0.327339 0.502989 0.093173
0.375038 0.503861 0.094444
0.434664 0.512340 0.096675
0.484493 0.510389 0.097561
0.530965 0.510591 0.098699
0.578545 0.514780 0.100460
0.619323 0.519931 0.103125
0.657520 0.521220 0.104890
0.687708 0.525657 0.107275
0.716437 0.531041 0.110065
0.743985 0.534115 0.112286
0.766085 0.537547 0.115091
0.781280 0.540945 0.118963
0.791970 0.541634 0.123340
0.800237 0.543727 0.129683
0.805907 0.547365 0.143884
0.810108 0.549706 0.222276
0.084280 0.513013 0.083386
0.084356 0.513122 0.083416
0.084642 0.513572 0.083525
0.085229 0.514647 0.083732
0.086275 0.516924 0.084058
0.088524 0.521480 0.084725
0.091713 0.524820 0.085390
0.096205 0.529205 0.086164
0.103500 0.532791 0.086912
0.113658 0.536694 0.087691
0.127040 0.539097 0.088721
0.143794 0.540960 0.089885
0.165460 0.542267 0.090965
0.195365 0.543294 0.092018
0.233570 0.543955 0.093015
0.279140 0.544632 0.094279
0.322093 0.545121 0.095598
0.367780 0.545453 0.096865
0.417395 0.546186 0.098217
0.468280 0.544728 0.099057
0.512950 0.544913 0.100290
0.563604 0.547460 0.102775
0.603181 0.550921 0.105391
0.642045 0.551689 0.107109
0.675160 0.554337 0.109404
0.705190 0.558190 0.112142
0.734513 0.560111 0.114214
0.758516 0.563271 0.117314
0.777871 0.565753 0.120852
0.789562 0.567935 0.124949
0.798835 0.570457 0.130723
0.805279 0.571773 0.142073
0.809733 0.577279 0.185849
0.086155 0.545475 0.083953
0.086222 0.545541 0.083980
0.086477 0.545807 0.084079
0.086993 0.546433 0.084340
0.088242 0.547736 0.084766
0.090652 0.550298 0.085383
0.093831 0.553128 0.086071
0.097741 0.555356 0.086753
0.105315 0.558284 0.087518
0.114773 0.560945 0.088490
0.126571 0.562888 0.089577
0.141790 0.564775 0.090696
0.161814 0.566320 0.091791
0.189237 0.567516 0.092840
0.224064 0.568466 0.094018
0.267893 0.569079 0.095329
0.308643 0.569695 0.096674
0.352924 0.570299 0.097975
0.398873 0.570735 0.099208
0.450624 0.571584 0.100825
0.497050 0.571411 0.102550
0.545561 0.573957 0.105043
0.588498 0.577050 0.107662
0.626263 0.577702 0.109302
0.663076 0.580058 0.111551
0.693611 0.583480 0.114203
0.724185 0.585369 0.116438
0.750272 0.588581 0.119583
0.773699 0.591218 0.122894
0.786771 0.593861 0.126692
0.797359 0.595947 0.131982
0.804402 0.599137 0.141932
0.809418 0.602663 0.169631
0.088499 0.571974 0.084740
0.088596 0.572033 0.084776
0.088958 0.572270 0.084907
0.089688 0.572812 0.085155
0.090952 0.573899 0.085543
0.093057 0.575972 0.086104
0.096269 0.579184 0.086823
0.100553 0.580821 0.087431
0.108101 0.584071 0.088403
0.116107 0.585837 0.089430
0.127682 0.588224 0.090570
0.142416 0.590322 0.091693
0.160799 0.591791 0.092764
0.186056 0.592976 0.093908
0.218138 0.594055 0.095302
0.259178 0.594882 0.096643
0.298935 0.595438 0.097924
0.341396 0.595989 0.099212
0.385426 0.596682 0.100792
0.433329 0.597226 0.102730
0.483271 0.598157 0.104766
0.528981 0.600024 0.107217
0.575073 0.603046 0.109814
0.611758 0.603723 0.111469
0.650873 0.605712 0.113655
0.682270 0.608929 0.116571
0.713483 0.610732 0.118837
0.741534 0.613521 0.121828
0.767863 0.616639 0.125023
0.783780 0.618883 0.128523
0.795530 0.622017 0.133555
0.803586 0.624383 0.142530
0.809077 0.628590 0.163333
0.091642 0.599520 0.085695
0.091733 0.599582 0.085728
0.092072 0.599823 0.085850
0.092750 0.600346 0.086079
0.093906 0.601340 0.086437
0.095790 0.603138 0.086952
0.099717 0.606318 0.087663
0.104223 0.608073 0.088460
0.110676 0.610572 0.089561
0.119155 0.612918 0.090655
0.130283 0.615348 0.091788
0.143400 0.617103 0.092845
0.161215 0.618859 0.094110
0.185683 0.620251 0.095529
0.215822 0.621302 0.096873
0.254461 0.622267 0.098258
0.293422 0.622945 0.099554
0.334128 0.623517 0.101332
0.375930 0.624009 0.103340
0.422426 0.624750 0.105381
0.472050 0.625399 0.107336
0.514775 0.626368 0.109337
0.563068 0.628833 0.111904
0.598449 0.629586 0.113488
0.636514 0.631303 0.115844
0.671078 0.634206 0.119025
0.702693 0.636127 0.121221
0.732218 0.638255 0.124125
0.760505 0.640655 0.127179
0.780259 0.642527 0.130609
0.793580 0.644874 0.135360
0.802646 0.647030 0.143730
0.808700 0.650593 0.160384
0.094736 0.627784 0.086569
0.094821 0.627844 0.086600
0.095138 0.628074 0.086714
0.095767 0.628558 0.086928
0.096827 0.629442 0.087261
0.099213 0.630978 0.087740
0.103316 0.633599 0.088680
0.108100 0.635898 0.089690
0.113839 0.637608 0.090693
0.122837 0.639775 0.091873
0.132297 0.641119 0.092883
0.145762 0.642761 0.094187
0.163418 0.644283 0.095710
0.185972 0.645248 0.097084
0.214306 0.646092 0.098427
0.250950 0.646833 0.099779
0.289237 0.647468 0.101809
0.328325 0.647963 0.103891
0.368833 0.648382 0.105922
0.412877 0.648758 0.107930
0.461429 0.649348 0.109947
0.503838 0.649966 0.111934
0.548501 0.650777 0.113910
0.586476 0.651312 0.115566
0.623253 0.652426 0.118181
0.660336 0.654343 0.121363
0.691903 0.655882 0.123502
0.722402 0.657684 0.126335
0.752788 0.659984 0.129469
0.776305 0.662014 0.132785
0.791401 0.664165 0.137586
0.801557 0.666693 0.145350
0.808432 0.669530 0.159147
0.097584 0.651589 0.087087
0.097700 0.651625 0.087116
0.098130 0.651765 0.087222
0.098978 0.652055 0.087422
0.100405 0.652581 0.087735
0.102683 0.653488 0.088344
0.106311 0.655025 0.089303
0.111302 0.656944 0.090415
0.116602 0.658037 0.091334
0.124995 0.659912 0.092508
0.133905 0.661183 0.093566
0.147273 0.662764 0.095099
0.162517 0.663860 0.096495
0.184689 0.665036 0.097961
0.212209 0.665983 0.099376
0.246117 0.666627 0.101087
0.283123 0.667223 0.103234
0.320153 0.667717 0.105323
0.359629 0.668166 0.107395
0.401480 0.668577 0.109396
0.447903 0.669030 0.111394
0.491633 0.669619 0.113347
0.533864 0.670396 0.115424
0.575695 0.671349 0.117825
0.611149 0.672129 0.120425
0.649351 0.673707 0.123580
0.681404 0.675283 0.125648
0.712326 0.676825 0.128504
0.744230 0.678993 0.131631
0.771990 0.681096 0.135071
0.788913 0.683282 0.139963
0.800450 0.685459 0.146829
0.808131 0.688580 0.158937
0.101508 0.672022 0.087668
0.101617 0.672059 0.087695
0.102023 0.672198 0.087795
0.102819 0.672478 0.088033
0.104145 0.672964 0.088489
0.106237 0.673764 0.089143
0.109515 0.675061 0.090046
0.115013 0.677169 0.091270
0.119916 0.678076 0.092121
0.127222 0.679540 0.093200
0.136833 0.681142 0.094665
0.148299 0.682302 0.096068
0.164008 0.683584 0.097558
0.185378 0.684732 0.099047
0.209854 0.685572 0.100655
0.242924 0.686339 0.102854
0.279692 0.686956 0.105034
0.315415 0.687416 0.107185
0.353462 0.687820 0.109243
0.393392 0.688213 0.111296
0.437338 0.688622 0.113278
0.481930 0.689119 0.115310
0.521947 0.689695 0.117652
0.565415 0.690573 0.120091
0.600178 0.691603 0.122522
0.637034 0.692757 0.125666
0.671517 0.694531 0.127658
0.702191 0.695702 0.130615
0.735180 0.697757 0.133712
0.765506 0.699719 0.137460
0.786154 0.702028 0.142350
0.799275 0.704152 0.148477
0.807814 0.706975 0.159176
0.105334 0.692017 0.088383
0.105438 0.692055 0.088423
0.105823 0.692196 0.088570
0.106574 0.692473 0.088848
0.107816 0.692936 0.089283
0.109755 0.693664 0.089908
0.112757 0.694792 0.090771
0.118071 0.696552 0.091943
0.123502 0.697838 0.092939
0.129983 0.699047 0.094125
0.140475 0.700895 0.095852
0.150530 0.701816 0.097151
0.167027 0.703191 0.098747
0.185805 0.704077 0.100190
0.210809 0.705067 0.102562
0.242367 0.705821 0.104791
0.276942 0.706423 0.106972
0.310946 0.706888 0.109146
0.348164 0.707235 0.111262
0.386629 0.707582 0.113339
0.428920 0.707935 0.115476
0.474130 0.708362 0.117905
0.512600 0.708857 0.120282
0.554859 0.709461 0.122628
0.590098 0.710407 0.125106
0.625752 0.711495 0.127567
0.662222 0.713523 0.129641
0.692512 0.714422 0.132619
0.725798 0.716276 0.135755
0.758131 0.718062 0.139784
0.782930 0.720252 0.144413
0.797978 0.722477 0.150109
0.807720 0.725133 0.159799
0.109023 0.715979 0.088337
0.109115 0.716002 0.088376
0.109452 0.716090 0.088517
0.110113 0.716259 0.088786
0.111205 0.716537 0.089208
0.112926 0.716968 0.089823
0.115899 0.717638 0.090683
0.120656 0.718707 0.091872
0.126615 0.719873 0.093103
0.132290 0.720651 0.094281
0.141575 0.721837 0.095934
0.152510 0.722863 0.097482
0.166752 0.723751 0.098977
0.186291 0.724620 0.100808
0.209549 0.725334 0.103191
0.238833 0.725953 0.105450
0.274004 0.726511 0.107764
0.306663 0.726908 0.109968
0.342145 0.727178 0.112088
0.378819 0.727438 0.114178
0.419486 0.727731 0.116508
0.464358 0.728084 0.118960
0.503124 0.728543 0.121374
0.543847 0.729139 0.123750
