LUTs/negative-portra-400/Portra400_Modern_Punchy.cube
TITLE "Kodak Portra 400 Modern Punchy"
# Adobe RGB in/out. REPLACES AgX. Kodak Portra 400 Modern Punchy.
LUT_3D_SIZE 9
DOMAIN_MIN 0.0 0.0 0.0
DOMAIN_MAX 1.0 1.0 1.0
0.068277 0.082999 0.079619
0.167468 0.090198 0.080902
0.527514 0.106136 0.086059
0.787929 0.137036 0.092462
0.876879 0.175334 0.103096
0.908518 0.210575 0.118176
0.922055 0.222675 0.142729
0.930959 0.248532 0.650800
0.924626 0.476696 0.728719
0.077168 0.114408 0.080746
0.099075 0.106457 0.081751
0.314530 0.121949 0.086224
0.689441 0.157393 0.092418
0.850586 0.197227 0.102745
0.899930 0.232061 0.117049
0.917454 0.242781 0.137737
0.928364 0.244451 0.643709
0.922778 0.471750 0.724641
0.095328 0.295518 0.086817
0.105468 0.267821 0.088131
0.169834 0.212073 0.089026
0.409507 0.232829 0.093763
0.719805 0.276299 0.103299
0.855660 0.320015 0.116282
0.900860 0.339167 0.132990
0.920290 0.246730 0.623482
0.916748 0.454659 0.711443
0.114993 0.513019 0.093523
0.120338 0.495190 0.094972
0.165311 0.443231 0.097156
0.284384 0.391309 0.099482
0.528901 0.397531 0.106208
0.760892 0.430797 0.118379
0.865153 0.461006 0.132590
0.900828 0.465749 0.158929
0.907730 0.406136 0.600856
0.135643 0.645920 0.101899
0.140695 0.637397 0.103365
0.173446 0.615768 0.107376
0.260313 0.578112 0.110898
0.418310 0.544468 0.114939
0.638369 0.541533 0.123582
0.803014 0.561766 0.135464
0.877549 0.576317 0.155673
0.897896 0.588227 0.367765
0.156283 0.734929 0.109745
0.159989 0.728913 0.111215
0.186706 0.715264 0.117150
0.251979 0.692054 0.122800
0.376290 0.667939 0.127619
0.553194 0.650427 0.132824
0.729749 0.646113 0.141931
0.850506 0.656030 0.159244
0.884526 0.664169 0.206343
0.174320 0.801547 0.114486
0.177117 0.799516 0.116088
0.196373 0.793442 0.122773
0.248590 0.777273 0.130081
0.350053 0.757863 0.136297
0.504153 0.739661 0.144188
0.668306 0.727737 0.153245
0.805497 0.723550 0.164890
0.873829 0.731097 0.192163
0.185126 0.836528 0.108896
0.186075 0.834539 0.109910
0.201095 0.828239 0.119235
0.241978 0.821178 0.129356
0.326052 0.812905 0.138193
0.457352 0.804441 0.149426
0.612847 0.797814 0.159104
0.764687 0.793714 0.169159
0.866915 0.792088 0.186205
0.173797 0.829866 0.100491
0.173199 0.828886 0.100351
0.204434 0.844199 0.099900
0.200622 0.840370 0.108080
0.285237 0.841685 0.119810
0.405498 0.833632 0.132443
0.555306 0.827056 0.142269
0.705260 0.823482 0.150499
0.866005 0.823128 0.154160
0.071900 0.093089 0.123813
0.131346 0.125264 0.367895
0.528953 0.121962 0.177069
0.804700 0.149762 0.150255
0.877448 0.181493 0.136644
0.906364 0.214471 0.142211
0.920020 0.227343 0.174484
0.929568 0.246355 0.647002
0.923668 0.474318 0.726605
0.083209 0.113327 0.105452
0.110730 0.105931 0.101776
0.349615 0.129287 0.119404
0.723269 0.166719 0.131650
0.854539 0.202988 0.132301
0.898092 0.234785 0.138062
0.915469 0.246315 0.165452
0.926977 0.242347 0.639964
0.921827 0.469021 0.722549
0.103937 0.276991 0.118031
0.116190 0.240448 0.112400
0.190639 0.191853 0.106083
0.465344 0.226990 0.116351
0.743282 0.275548 0.125781
0.857484 0.318534 0.134042
0.899441 0.338717 0.152365
0.918976 0.249061 0.620708
0.915827 0.452091 0.709439
0.122065 0.495543 0.122179
0.131469 0.476038 0.121668
0.182200 0.417828 0.119136
0.309290 0.370935 0.118379
0.556212 0.387651 0.124410
0.769988 0.425664 0.133237
0.865505 0.457404 0.148419
0.899684 0.464518 0.177892
0.906873 0.427782 0.690159
0.142428 0.636087 0.122799
0.148609 0.627513 0.124215
0.185232 0.605045 0.127190
0.276536 0.564193 0.128823
0.439335 0.534362 0.131584
0.654363 0.535475 0.136284
0.808241 0.557865 0.150714
0.876964 0.573768 0.171099
0.896840 0.590580 0.414698
0.160660 0.728085 0.124479
0.165220 0.722229 0.126075
0.193635 0.708229 0.131631
0.262255 0.685243 0.136073
0.388575 0.662078 0.141004
0.565645 0.646087 0.148061
0.738929 0.643440 0.157042
0.851964 0.654206 0.173365
0.883769 0.663644 0.225730
0.177055 0.799510 0.125503
0.180229 0.797498 0.127078
0.200624 0.789488 0.133510
0.255350 0.773316 0.141776
0.358218 0.754203 0.150804
0.514148 0.736592 0.158948
0.675561 0.725493 0.167876
0.809718 0.722206 0.178292
0.873499 0.730462 0.206670
0.185825 0.835079 0.114090
0.187108 0.833185 0.115742
0.203340 0.827145 0.127202
0.246083 0.820124 0.137475
0.331274 0.811906 0.150855
0.463562 0.803596 0.161855
0.618910 0.797210 0.171890
0.768753 0.792967 0.182072
0.867006 0.791707 0.199176
0.173486 0.836623 0.144400
0.172895 0.835641 0.143851
0.204053 0.850219 0.142028
0.200306 0.844913 0.139169
0.287446 0.841382 0.125406
0.408501 0.833382 0.139301
0.558178 0.826931 0.152519
0.708017 0.823472 0.160813
0.866486 0.823155 0.164036
0.076672 0.119779 0.312714
0.148947 0.240693 0.700819
0.497037 0.245232 0.673084
0.811497 0.250352 0.597893
0.877804 0.258399 0.527266
0.904309 0.282477 0.519685
0.917034 0.300390 0.562835
0.927203 0.255091 0.653434
0.921683 0.468616 0.722253
0.091819 0.164334 0.324472
0.144292 0.193646 0.460914
0.398563 0.204377 0.478777
0.743245 0.227510 0.455376
0.856736 0.257249 0.439450
0.895631 0.286790 0.459943
0.912473 0.305515 0.513238
0.924592 0.254509 0.647902
0.919829 0.463328 0.718170
0.108158 0.250305 0.232634
0.121011 0.223177 0.211585
0.203652 0.188584 0.189699
0.501977 0.237488 0.238091
0.763079 0.294675 0.282674
0.859743 0.341601 0.327328
0.896732 0.363827 0.370811
0.915904 0.311821 0.620942
0.913797 0.446480 0.705039
0.134619 0.466399 0.246952
0.146683 0.442637 0.236198
0.201388 0.385079 0.210922
0.337664 0.341469 0.195951
0.603959 0.379106 0.220286
0.788130 0.428690 0.255162
0.866071 0.462571 0.282289
0.896827 0.476641 0.373134
0.904843 0.422407 0.685843
0.160073 0.621671 0.245726
0.169468 0.612694 0.241842
0.211449 0.581586 0.230832
0.312353 0.541021 0.218593
0.486807 0.516141 0.214193
0.693064 0.527541 0.230349
0.820705 0.554547 0.250103
0.875757 0.572786 0.291185
0.894103 0.602783 0.555090
0.181145 0.717697 0.240587
0.187389 0.711699 0.239621
0.220708 0.695597 0.237931
0.298589 0.672187 0.233664
0.432282 0.650343 0.230589
0.608405 0.637241 0.232393
0.764585 0.638871 0.239837
0.855168 0.651538 0.265784
0.881703 0.664772 0.355039
0.192863 0.795501 0.221197
0.197301 0.791748 0.222089
0.222513 0.781053 0.226678
0.284728 0.764352 0.230748
0.392567 0.745484 0.233616
0.546709 0.729455 0.237341
0.703772 0.720431 0.243523
0.823423 0.719653 0.257195
0.872550 0.729677 0.286237
0.195517 0.829797 0.195666
0.198485 0.828333 0.198053
0.219903 0.823844 0.211112
0.268813 0.817164 0.222285
0.358093 0.809156 0.231510
0.494431 0.801326 0.238862
0.647928 0.795697 0.246271
0.785716 0.791274 0.254757
0.867120 0.791126 0.264161
0.172497 0.834982 0.143491
0.205365 0.851922 0.142956
0.202898 0.848647 0.141181
0.199326 0.843469 0.138410
0.301718 0.840271 0.170350
0.423902 0.832636 0.197032
0.571915 0.826636 0.211279
0.720883 0.823567 0.220030
0.867031 0.823438 0.223781
0.083077 0.182722 0.554368
0.119245 0.316823 0.780567
0.458563 0.365529 0.809784
0.806493 0.391031 0.803890
0.884251 0.388093 0.765975
0.905608 0.386226 0.735730
0.916355 0.387840 0.732393
0.923639 0.360791 0.758142
0.920361 0.473729 0.744958
0.096029 0.238627 0.572043
0.133463 0.308245 0.707147
0.439878 0.377784 0.782281
0.765017 0.379711 0.755516
0.863599 0.377156 0.720870
0.897245 0.385982 0.706941
0.911633 0.393336 0.713671
0.920615 0.367104 0.748242
0.918458 0.468338 0.740920
0.117155 0.311071 0.469396
0.138218 0.304118 0.472740
0.267018 0.302178 0.506611
0.553462 0.323705 0.535827
0.776088 0.366638 0.565664
0.861385 0.404677 0.591464
0.895188 0.427577 0.633274
0.909658 0.436380 0.699043
0.912263 0.451170 0.727965
0.140020 0.447247 0.416965
0.152709 0.429489 0.403504
0.209681 0.380747 0.370581
0.348543 0.343417 0.350639
0.622828 0.397527 0.404969
0.792715 0.450852 0.459111
0.864853 0.486773 0.508259
0.893821 0.507025 0.599256
0.903071 0.426285 0.707869
0.171359 0.607139 0.419330
0.181738 0.597013 0.410866
0.226829 0.564833 0.388784
0.330936 0.525311 0.363983
0.508421 0.502540 0.353120
0.708249 0.525865 0.380393
0.823514 0.558574 0.420692
0.873205 0.582376 0.482359
0.891235 0.614976 0.663917
0.194642 0.705160 0.408716
0.201954 0.699598 0.404461
0.240783 0.683888 0.393349
0.323272 0.661116 0.378069
0.462518 0.640312 0.366422
0.637366 0.629563 0.364170
0.776854 0.636516 0.379770
0.855032 0.651453 0.413629
0.879161 0.673352 0.566867
0.207162 0.786480 0.389450
0.213120 0.782844 0.387642
0.243627 0.772206 0.383615
0.310923 0.755837 0.377240
0.424197 0.737494 0.371002
0.577328 0.722942 0.368197
0.729277 0.716024 0.370763
0.831172 0.718271 0.383008
0.870972 0.732264 0.462688
0.206168 0.825895 0.362489
0.210482 0.824590 0.362066
0.235883 0.820546 0.363627
0.289572 0.814081 0.363560
0.383244 0.806443 0.363277
0.522976 0.799217 0.363541
0.670179 0.793304 0.365833
0.800831 0.790067 0.371320
0.866630 0.792161 0.400684
0.185262 0.844054 0.365498
0.203410 0.853198 0.364074
0.201232 0.850055 0.359330
0.229129 0.848454 0.288683
0.325802 0.838426 0.337263
0.446775 0.831637 0.342743
0.592297 0.826395 0.347700
0.740335 0.823852 0.351251
0.867038 0.824266 0.358373
0.089117 0.288886 0.728723
0.108405 0.374608 0.818227
0.407967 0.463826 0.869360
0.783240 0.487304 0.869707
0.893871 0.503145 0.863028
0.910549 0.481729 0.831068
0.918634 0.465174 0.813706
0.923267 0.430382 0.808328
0.920365 0.493007 0.805514
0.099523 0.335984 0.739831
0.120953 0.400116 0.808885
0.397474 0.481384 0.861059
0.766900 0.503802 0.863633
0.874488 0.494768 0.840523
0.902634 0.480961 0.816778
0.913841 0.469821 0.804491
0.920202 0.437837 0.802575
0.918404 0.487848 0.801074
0.134797 0.459442 0.724500
0.160518 0.465527 0.740352
0.324043 0.481945 0.781299
0.620475 0.477656 0.774387
0.797844 0.478386 0.761249
0.868873 0.488455 0.756701
0.897975 0.493797 0.760327
0.909663 0.490537 0.772706
0.911994 0.470209 0.781701
0.149477 0.485912 0.591907
0.164261 0.478894 0.588729
0.237813 0.460454 0.589817
0.419255 0.451293 0.599950
0.662520 0.473239 0.623583
0.803508 0.504270 0.657217
0.866713 0.529276 0.688085
0.893325 0.544068 0.721633
0.902981 0.525761 0.758941
0.176928 0.599974 0.561849
0.188021 0.591233 0.556013
0.236071 0.565351 0.539049
0.341940 0.529932 0.516919
0.516001 0.506932 0.504111
0.717755 0.542812 0.548581
0.825183 0.579541 0.592189
0.871822 0.606152 0.651854
0.889420 0.628019 0.723388
0.202841 0.695857 0.552966
0.211507 0.691061 0.548487
0.253496 0.677060 0.535612
0.338283 0.656053 0.518629
0.479628 0.635845 0.504698
0.649626 0.626080 0.501640
0.781377 0.639648 0.527133
0.853903 0.658237 0.571231
0.877001 0.683369 0.682814
0.217516 0.778381 0.537633
0.224217 0.775151 0.534689
0.258286 0.765358 0.526636
0.328760 0.750047 0.515732
0.446216 0.732780 0.505801
0.598309 0.719379 0.500213
0.744242 0.714298 0.502136
0.833970 0.720181 0.520025
0.869163 0.739456 0.618426
0.214820 0.822692 0.518265
0.219802 0.821496 0.516241
0.248442 0.817708 0.511245
0.305312 0.811690 0.504156
0.402769 0.804556 0.497567
0.542100 0.797966 0.493180
0.687863 0.792265 0.492215
0.810581 0.790624 0.496206
0.865831 0.795925 0.548359
0.187904 0.845666 0.571160
0.190080 0.846251 0.569706
0.194487 0.846734 0.564837
0.250159 0.843355 0.495371
0.338593 0.837265 0.487915
0.462031 0.831176 0.483276
0.607049 0.826534 0.480730
0.754314 0.824589 0.480418
0.866801 0.826158 0.499994
0.097240 0.419644 0.841839
0.108602 0.470426 0.877802
0.371253 0.539373 0.901465
0.758809 0.559234 0.902396
0.892783 0.582825 0.902938
0.916875 0.561579 0.886475
0.922892 0.532574 0.866456
0.925295 0.497839 0.848593
0.921649 0.507213 0.831057
0.104169 0.452506 0.846739
0.117500 0.491102 0.877045
0.367071 0.554818 0.899771
0.745009 0.575277 0.901232
0.885783 0.594029 0.900081
0.909397 0.560020 0.879192
0.918201 0.535412 0.858488
0.922223 0.503339 0.843356
0.919649 0.502426 0.827769
0.145006 0.558582 0.852336
0.168456 0.573827 0.868206
0.365413 0.614140 0.891077
0.664123 0.597637 0.880325
0.822476 0.576846 0.861715
0.879997 0.563492 0.844068
0.902767 0.553591 0.832365
0.911816 0.539618 0.825511
0.913078 0.486945 0.817006
0.166168 0.566624 0.765412
0.182554 0.565089 0.769286
0.278916 0.567809 0.787635
0.489964 0.564270 0.791955
0.707511 0.564645 0.788623
0.822718 0.571795 0.788346
0.873088 0.581852 0.792299
0.895953 0.585440 0.798561
0.903522 0.564621 0.800773
0.185074 0.617471 0.695976
0.196007 0.613596 0.694122
0.253749 0.604036 0.692844
0.376313 0.585437 0.690820
0.569741 0.578436 0.692732
0.744074 0.594266 0.706584
0.833215 0.615136 0.727409
0.873381 0.629358 0.751524
0.889383 0.644543 0.776707
0.207564 0.694083 0.673043
0.216898 0.690398 0.669598
0.261230 0.679324 0.660944
0.349053 0.661870 0.649519
0.493092 0.643201 0.638075
0.652922 0.631037 0.630681
0.785413 0.652822 0.668060
0.853998 0.673183 0.702351
0.876086 0.695318 0.747243
0.222999 0.773757 0.653850
0.230465 0.770982 0.651087
0.266471 0.762546 0.643724
0.339256 0.749013 0.634103
0.459657 0.733296 0.625609
0.610540 0.720450 0.620657
0.750507 0.716409 0.624189
0.834403 0.727164 0.651880
0.867753 0.748769 0.718378
0.218890 0.820626 0.635275
0.224292 0.819568 0.633059
0.255041 0.816172 0.626952
0.314286 0.810704 0.618704
0.414550 0.804204 0.611344
0.554269 0.798244 0.606634
0.699170 0.793933 0.605897
0.815058 0.793782 0.611793
0.864887 0.799966 0.681716
0.187405 0.843793 0.610677
0.189252 0.844301 0.611686
0.192758 0.844618 0.616074
0.251660 0.842839 0.608929
0.342954 0.837127 0.599131
0.468434 0.831609 0.592531
0.614056 0.827587 0.588673
0.759754 0.826159 0.587185
0.866415 0.829567 0.641255
0.105113 0.543803 0.907572
0.114208 0.567338 0.920170
0.316054 0.608439 0.929202
0.740816 0.621342 0.929867
0.889199 0.636460 0.930094
0.923476 0.632580 0.921285
0.928172 0.600814 0.900640
0.928600 0.556851 0.884954
0.923776 0.529908 0.866208
0.111234 0.562852 0.909137
0.120677 0.582975 0.919799
0.321791 0.618685 0.928764
0.728707 0.631683 0.929666
0.885475 0.646718 0.930005
0.916671 0.630413 0.914886
0.923693 0.602750 0.896261
0.925592 0.561649 0.881981
0.921771 0.524730 0.862488
0.149657 0.633632 0.912157
0.168541 0.640916 0.917869
0.345525 0.661890 0.926239
0.693736 0.673927 0.927983
0.847001 0.650087 0.910422
0.892748 0.630110 0.894701
0.908924 0.612804 0.882054
0.915456 0.591748 0.870533
0.915143 0.507593 0.849890
0.186694 0.655029 0.881257
0.202401 0.654845 0.882968
0.310723 0.656004 0.885492
0.545286 0.648515 0.880745
0.752433 0.639859 0.872550
0.846262 0.633778 0.861311
0.882583 0.628715 0.852481
0.900392 0.622761 0.845875
0.905051 0.614549 0.838353
0.197607 0.658089 0.813671
0.209365 0.656568 0.814727
0.276130 0.654271 0.819083
0.423163 0.648614 0.819064
0.628065 0.644419 0.815857
0.772768 0.645876 0.814310
0.848042 0.650717 0.815473
0.878123 0.656103 0.818292
0.891262 0.664455 0.820245
0.213582 0.706859 0.769590
0.222847 0.704428 0.768984
0.270116 0.697832 0.769285
0.367996 0.687047 0.768561
0.527972 0.675808 0.764753
0.688930 0.672440 0.764046
0.798856 0.681351 0.774031
0.857393 0.694443 0.789690
0.877014 0.710194 0.802868
0.224641 0.775378 0.741910
0.232701 0.773229 0.740754
0.270130 0.766660 0.738355
0.345681 0.755892 0.735861
0.470691 0.742902 0.733638
0.621958 0.730876 0.730817
0.751932 0.723114 0.728332
0.836157 0.740627 0.752947
0.867490 0.759714 0.784621
0.217442 0.820610 0.720988
0.223060 0.819688 0.719711
0.254933 0.816693 0.716483
0.315992 0.811914 0.712514
0.418821 0.806193 0.709701
0.560203 0.800865 0.708652
0.705037 0.797671 0.710133
0.816213 0.798139 0.717543
0.864151 0.804946 0.765388
0.184844 0.841355 0.677637
0.188922 0.843074 0.676619
0.193168 0.843798 0.673110
0.240801 0.844204 0.695077
0.337601 0.838358 0.689026
0.464535 0.833308 0.685514
0.611937 0.829778 0.683546
0.758837 0.828831 0.682801
0.866109 0.834457 0.749957
0.116567 0.641388 0.940073
0.124160 0.643329 0.940699
0.343174 0.655508 0.941129
0.761806 0.666956 0.941212
0.895843 0.680067 0.941344
0.931577 0.685900 0.940013
0.934198 0.647902 0.930363
0.932939 0.609323 0.913328
0.926230 0.566490 0.893559
0.121476 0.650255 0.940041
0.132450 0.652232 0.940629
0.351467 0.664804 0.941120
0.755024 0.676128 0.941213
0.893142 0.689146 0.941347
0.925553 0.682987 0.937542
0.930072 0.648261 0.926931
0.930048 0.612183 0.910403
0.924271 0.563867 0.891464
0.165625 0.696213 0.939916
0.183295 0.697800 0.940320
0.388180 0.707835 0.940921
0.724609 0.717405 0.941107
0.870429 0.709481 0.937375
0.905456 0.682260 0.929358
0.916304 0.656834 0.913532
0.920308 0.630385 0.900677
0.917914 0.574171 0.884511
0.211818 0.733207 0.933587
0.229037 0.730549 0.933176
0.371241 0.724856 0.931295
0.616032 0.711420 0.924351
0.793482 0.696380 0.913710
0.867372 0.682396 0.903227
0.894761 0.668846 0.893865
0.905683 0.654222 0.886022
0.907605 0.641470 0.877784
0.217043 0.715741 0.893178
0.230322 0.714385 0.893076
0.317458 0.711811 0.891794
0.490413 0.704548 0.887416
0.689378 0.696990 0.881933
0.806778 0.691680 0.876886
0.862798 0.687875 0.871732
0.885749 0.683866 0.866599
0.894701 0.685452 0.860654
0.222746 0.737633 0.856371
0.232971 0.736334 0.856869
0.290591 0.733346 0.857740
0.402951 0.725862 0.854053
0.578266 0.717971 0.847971
0.735679 0.714334 0.843258
0.821407 0.715457 0.841544
0.864764 0.718811 0.842192
0.879845 0.727518 0.842487
0.225684 0.787052 0.823187
0.233770 0.785672 0.823668
0.275649 0.782018 0.826292
0.356090 0.774635 0.827628
0.494465 0.764853 0.825324
0.654765 0.756462 0.821085
0.774401 0.754687 0.819385
0.845495 0.761102 0.823300
0.869153 0.773048 0.828510
0.209579 0.824134 0.797152
0.215234 0.823313 0.796947
0.248100 0.820604 0.797547
0.311694 0.816609 0.799274
0.418607 0.811963 0.802298
0.565099 0.807568 0.804481
0.712203 0.804575 0.805223
0.815450 0.802840 0.804800
0.864240 0.810399 0.819789
0.180236 0.838696 0.742072
0.192231 0.844748 0.742323
0.192628 0.843869 0.747437
0.227011 0.845797 0.756994
0.318923 0.841628 0.755934
0.447569 0.836893 0.756404
0.598297 0.833744 0.757697
0.748836 0.833055 0.758113
0.865951 0.839492 0.815093
0.248996 0.692808 0.951754
0.296264 0.694190 0.951757
0.666339 0.699673 0.951767
0.878495 0.709259 0.951797
0.922917 0.720585 0.951850
0.942856 0.730301 0.951933
0.940898 0.685454 0.942306
0.937471 0.632204 0.934055
0.928320 0.607746 0.918775
0.260757 0.699588 0.951727
0.307341 0.700992 0.951730
0.662433 0.706551 0.951742
0.876758 0.716243 0.951775
0.922404 0.727635 0.951831
0.939889 0.726989 0.949841
0.938553 0.684142 0.940623
0.935742 0.632113 0.932814
0.926394 0.612065 0.919607
0.315676 0.733612 0.951579
0.359966 0.734949 0.951586
0.652477 0.740194 0.951610
0.868644 0.749348 0.951664
0.917525 0.753877 0.950553
0.926481 0.721562 0.942510
0.928689 0.687461 0.935102
0.927398 0.643220 0.927099
0.919968 0.597201 0.912605
0.380171 0.789816 0.949708
0.414158 0.786610 0.948934
0.606764 0.776472 0.946338
0.816024 0.761194 0.942195
0.880063 0.742496 0.937142
0.902244 0.722013 0.931849
0.910469 0.699586 0.922748
0.913635 0.672510 0.912220
0.910759 0.667952 0.902965
0.331029 0.766223 0.931426
0.354249 0.764291 0.930952
0.490387 0.758373 0.928727
0.712389 0.749595 0.922843
0.822155 0.739255 0.915828
0.867237 0.728311 0.908612
0.887132 0.716178 0.901805
0.898270 0.701644 0.895691
0.899437 0.700532 0.890596
0.287527 0.773417 0.904587
0.303639 0.771792 0.903745
0.392617 0.766938 0.900964
0.585330 0.760036 0.896633
0.750629 0.752773 0.891754
0.823306 0.746485 0.887273
0.861206 0.740878 0.883597
0.878559 0.734630 0.880678
0.884890 0.742614 0.878480
0.250756 0.803055 0.888651
0.261606 0.802231 0.887953
0.318599 0.799682 0.885584
0.457371 0.795717 0.881761
0.644627 0.787611 0.877331
0.770219 0.781120 0.872644
0.832275 0.777488 0.868344
0.863014 0.775265 0.866252
0.873563 0.785972 0.865677
0.203966 0.831522 0.877899
0.209414 0.830928 0.878002
0.241427 0.828752 0.877239
0.327502 0.824815 0.874643
0.481012 0.819999 0.868903
0.665326 0.815707 0.862893
0.788902 0.813092 0.858121
0.850410 0.812029 0.856000
0.867161 0.815828 0.856582
0.174218 0.835666 0.797470
0.192202 0.845838 0.812572
0.190985 0.843999 0.810504
0.197632 0.842283 0.807171
0.276009 0.849922 0.838344
0.416227 0.846582 0.858118
0.584228 0.843255 0.856186
0.750086 0.842573 0.854476
0.866010 0.844657 0.854124
