LUTs/negative-portra-400/Portra400_Modern_Punchy.cube
TITLE "Kodak Portra 400 Modern Punchy"
# Adobe RGB in/out. REPLACES AgX. Kodak Portra 400 Modern Punchy.
LUT_3D_SIZE 33
DOMAIN_MIN 0.0 0.0 0.0
DOMAIN_MAX 1.0 1.0 1.0
0.068277 0.082999 0.079619
0.078174 0.084679 0.079651
0.082226 0.085070 0.079762
0.102422 0.087024 0.080286
0.167468 0.090198 0.080902
0.210814 0.092295 0.081684
0.316722 0.096333 0.083044
0.455054 0.102517 0.085133
0.527514 0.106136 0.086059
0.611751 0.112220 0.087447
0.706166 0.122258 0.089762
0.757792 0.130279 0.091060
0.787929 0.137036 0.092462
0.819476 0.146693 0.094809
0.850906 0.159909 0.098291
0.865032 0.167985 0.100775
0.876879 0.175334 0.103096
0.887668 0.184320 0.106231
0.897401 0.198319 0.111052
0.903674 0.204323 0.114060
0.908518 0.210575 0.118176
0.912418 0.218076 0.123259
0.916145 0.223729 0.128822
0.919808 0.222745 0.133904
0.922055 0.222675 0.142729
0.923858 0.220901 0.158568
0.926787 0.205502 0.189344
0.927291 0.209080 0.307116
0.930959 0.248532 0.650800
0.928623 0.244743 0.644373
0.926297 0.241098 0.638047
0.923981 0.237519 0.631792
0.924626 0.476696 0.728719
0.070143 0.087065 0.079619
0.074175 0.086259 0.079619
0.084118 0.085343 0.079619
0.106249 0.087478 0.080222
0.169161 0.090903 0.080918
0.208951 0.092745 0.081694
0.308494 0.096692 0.083046
0.440876 0.103156 0.085135
0.516516 0.106809 0.086058
0.600397 0.112822 0.087441
0.698105 0.122848 0.089748
0.753005 0.131067 0.091046
0.783909 0.137747 0.092441
0.816156 0.147458 0.094786
0.848318 0.160676 0.098261
0.863615 0.168777 0.100746
0.875721 0.176087 0.103068
0.886720 0.185049 0.106191
0.896621 0.199258 0.111008
0.903204 0.205235 0.114001
0.908120 0.211467 0.118110
0.912079 0.218960 0.123182
0.915855 0.224611 0.128728
0.919555 0.223616 0.133782
0.921836 0.223529 0.142453
0.923666 0.221727 0.158113
0.926616 0.206202 0.188025
0.927142 0.209180 0.302133
0.930833 0.248331 0.650453
0.928508 0.244561 0.644058
0.926192 0.240934 0.637761
0.923884 0.237370 0.631531
0.924536 0.476496 0.728521
0.070813 0.088141 0.079619
0.072083 0.088043 0.079682
0.076052 0.087341 0.079620
0.090277 0.088943 0.080089
0.131642 0.092958 0.080873
0.184659 0.094636 0.081622
0.278111 0.098894 0.083050
0.404504 0.106481 0.085225
0.474682 0.109736 0.086103
0.564236 0.115557 0.087456
0.670635 0.126015 0.089720
0.728685 0.134184 0.091011
0.769487 0.140688 0.092382
0.804145 0.150396 0.094717
0.838887 0.163871 0.098169
0.858457 0.171771 0.100655
0.871511 0.178909 0.102976
0.883283 0.188429 0.106058
0.893801 0.202755 0.110861
0.901504 0.208618 0.113801
0.906685 0.214768 0.117884
0.910862 0.222224 0.122917
0.914810 0.227861 0.128403
0.918650 0.226825 0.133360
0.921050 0.226673 0.141496
0.922977 0.224773 0.156544
0.926003 0.208832 0.183554
0.926609 0.209775 0.285150
0.930381 0.247615 0.649216
0.928095 0.243914 0.642934
0.925814 0.240348 0.636739
0.923537 0.236841 0.630600
0.924217 0.475781 0.727814
0.072979 0.095038 0.079896
0.073850 0.094958 0.080071
0.077414 0.094280 0.080243
0.084329 0.092768 0.080275
0.104730 0.096309 0.080909
0.132630 0.097098 0.081630
0.204712 0.102902 0.083000
0.321749 0.111734 0.085218
0.403793 0.114910 0.086150
0.506550 0.120758 0.087531
0.619055 0.133960 0.089752
0.686599 0.141520 0.091006
0.739297 0.147636 0.092348
0.781752 0.156652 0.094656
0.820437 0.170542 0.098064
0.847435 0.177912 0.100536
0.863514 0.184620 0.102846
0.876791 0.195464 0.105859
0.888512 0.209723 0.110629
0.898289 0.215308 0.113485
0.904018 0.221258 0.117509
0.908609 0.228607 0.122470
0.912885 0.234193 0.127850
0.916985 0.233067 0.132641
0.919608 0.232785 0.139869
0.921715 0.230718 0.153903
0.924882 0.214143 0.176878
0.925634 0.211828 0.259399
0.929563 0.246322 0.646976
0.927346 0.242741 0.640896
0.925128 0.239285 0.634883
0.922907 0.235884 0.628908
0.923634 0.474220 0.726529
0.077168 0.114408 0.080746
0.077746 0.114190 0.080892
0.081232 0.113306 0.081162
0.087867 0.110234 0.081457
0.099075 0.106457 0.081751
0.112431 0.103134 0.081880
0.154375 0.110083 0.083046
0.236451 0.119642 0.085244
0.314530 0.121949 0.086224
0.415982 0.128770 0.087624
0.549229 0.143823 0.089879
0.629503 0.151280 0.091080
0.689441 0.157393 0.092418
0.748497 0.167773 0.094692
0.791745 0.182751 0.098056
0.823621 0.189817 0.100475
0.850586 0.197227 0.102745
0.866519 0.207624 0.105667
0.880247 0.221580 0.110374
0.891447 0.226553 0.113181
0.899930 0.232061 0.117049
0.905188 0.239146 0.121901
0.909980 0.244587 0.127130
0.914486 0.243285 0.131696
0.917454 0.242781 0.137737
0.919836 0.240484 0.150484
0.923214 0.223237 0.168832
0.924187 0.217118 0.229774
0.928364 0.244451 0.643709
0.926248 0.241031 0.637917
0.924120 0.237732 0.632168
0.921981 0.234552 0.626427
0.922778 0.471750 0.724641
0.080558 0.136805 0.081721
0.081106 0.136078 0.081892
0.083639 0.134995 0.082101
0.088301 0.129901 0.082465
0.096116 0.122143 0.082444
0.107547 0.117509 0.082703
0.130969 0.120622 0.083532
0.188084 0.132604 0.085637
0.243078 0.133760 0.086377
0.328997 0.140634 0.087739
0.456278 0.156144 0.089954
0.552670 0.163794 0.091175
0.630128 0.170187 0.092627
0.697650 0.179981 0.094871
0.760413 0.196792 0.098130
0.794419 0.205843 0.100495
0.824373 0.214772 0.102730
0.851280 0.227306 0.105598
0.868040 0.240819 0.110204
0.881495 0.244488 0.112924
0.892386 0.249075 0.116610
0.900379 0.255584 0.121313
0.905952 0.260690 0.126353
0.911054 0.259046 0.130658
0.914523 0.258164 0.136241
0.917294 0.255565 0.146744
0.920963 0.237831 0.160839
0.922246 0.228104 0.201729
0.926792 0.242041 0.639452
0.924806 0.238802 0.634020
0.922794 0.235703 0.628608
0.923707 0.443199 0.623169
0.921647 0.468506 0.722154
0.086140 0.184659 0.083439
0.086628 0.185149 0.083719
0.088419 0.182984 0.084292
0.092517 0.174796 0.084566
0.100257 0.162441 0.084689
0.110579 0.152134 0.084759
0.124685 0.144797 0.085085
0.161068 0.151214 0.086233
0.200782 0.150289 0.086809
0.266297 0.156356 0.088109
0.372347 0.172951 0.090197
0.469268 0.180335 0.091371
0.554042 0.184863 0.092801
0.639876 0.196654 0.095035
0.712717 0.216223 0.098353
0.761418 0.226179 0.100715
0.795377 0.232377 0.102817
0.827505 0.243158 0.105576
0.854232 0.259038 0.110098
0.869114 0.265303 0.112768
0.881397 0.272925 0.116323
0.891846 0.280836 0.120859
0.900489 0.285112 0.125676
0.906483 0.282832 0.129709
0.910686 0.281305 0.134820
0.914007 0.278345 0.143221
0.918062 0.260807 0.154293
0.919771 0.248032 0.179968
0.924872 0.239189 0.634296
0.923038 0.236099 0.629270
0.921164 0.233232 0.624255
0.922200 0.439232 0.619176
0.920252 0.464528 0.719093
0.091564 0.256994 0.085825
0.092203 0.257558 0.086011
0.095100 0.258548 0.086603
0.098935 0.244837 0.086865
0.105104 0.228044 0.086993
0.115599 0.211196 0.087240
0.130437 0.196425 0.087370
0.153923 0.185471 0.087719
0.177819 0.171899 0.087573
0.224606 0.175932 0.088650
0.311481 0.194894 0.090583
0.392936 0.202298 0.091732
0.477798 0.206895 0.093198
0.568111 0.218435 0.095401
0.660820 0.237815 0.098658
0.716076 0.245848 0.100898
0.763072 0.253047 0.102995
0.797677 0.265635 0.105794
0.830655 0.281702 0.110195
0.855397 0.285628 0.112736
0.870222 0.291615 0.116145
0.882293 0.300943 0.120557
0.892658 0.309970 0.125219
0.900834 0.312926 0.129039
0.905617 0.317352 0.133750
0.909760 0.313792 0.140491
0.914329 0.297490 0.149880
0.916651 0.282336 0.166766
0.922640 0.236278 0.628437
0.920973 0.233005 0.623769
0.919256 0.230376 0.619192
0.920429 0.434510 0.614514
0.918611 0.459884 0.715504
0.095328 0.295518 0.086817
0.095806 0.295946 0.086973
0.097474 0.292896 0.087446
0.100557 0.282249 0.087862
0.105468 0.267821 0.088131
0.113898 0.251422 0.088289
0.125127 0.235996 0.088519
0.144765 0.222428 0.088703
0.169834 0.212073 0.089026
0.201896 0.205319 0.089445
0.269241 0.223967 0.091090
0.336776 0.229700 0.092409
0.409507 0.232829 0.093763
0.502427 0.243064 0.095887
0.596624 0.262305 0.099172
0.666285 0.269410 0.101299
0.719805 0.276299 0.103299
0.767438 0.288098 0.106096
0.803771 0.304751 0.110400
0.833100 0.311098 0.112892
0.855660 0.320015 0.116282
0.870646 0.327084 0.120498
0.883200 0.334432 0.124959
0.893930 0.335824 0.128556
0.900860 0.339167 0.132990
0.905314 0.343084 0.138682
0.910028 0.339067 0.147533
0.912701 0.337140 0.160880
0.920290 0.246730 0.623482
0.918656 0.230047 0.617781
0.917104 0.227284 0.613553
0.918424 0.429213 0.609279
0.916748 0.454659 0.711443
0.100407 0.355557 0.088550
0.100612 0.353758 0.088629
0.101487 0.346442 0.088866
0.103971 0.337137 0.089266
0.108509 0.323191 0.089579
0.115803 0.307115 0.089794
0.125630 0.289975 0.089996
0.143194 0.274563 0.090188
0.164927 0.261380 0.090416
0.193341 0.251036 0.090721
0.243891 0.261713 0.092157
0.296570 0.260470 0.093277
0.357558 0.261596 0.094481
0.438053 0.270602 0.096544
0.537847 0.289904 0.099852
0.608551 0.296196 0.101833
0.672881 0.302175 0.103746
0.729278 0.313572 0.106578
0.775363 0.331798 0.110825
0.806868 0.337951 0.113222
0.836371 0.343830 0.116464
0.857686 0.354450 0.120604
0.871671 0.365844 0.124972
0.884163 0.368004 0.128359
0.893840 0.369254 0.132478
0.900526 0.371571 0.137425
0.905943 0.366307 0.145067
0.909167 0.362729 0.156348
0.912456 0.354226 0.174698
0.914340 0.350787 0.238183
0.916264 0.374100 0.568065
0.916219 0.424006 0.606079
0.914694 0.448954 0.706982
0.107066 0.436171 0.090732
0.107213 0.433889 0.090771
0.108066 0.427222 0.090936
0.110979 0.420448 0.091309
0.115262 0.408109 0.091691
0.121217 0.392487 0.092157
0.133297 0.374286 0.092567
0.149662 0.355861 0.092915
0.171380 0.338982 0.093242
0.198305 0.324442 0.093683
0.231999 0.312955 0.094269
0.272994 0.301840 0.094810
0.319266 0.293394 0.095454
0.388614 0.301522 0.097327
0.481963 0.321630 0.100697
0.554172 0.326423 0.102558
0.621988 0.331038 0.104307
0.685438 0.341979 0.107198
0.744723 0.360788 0.111397
0.780185 0.365290 0.113693
0.811348 0.372926 0.116943
0.839511 0.384747 0.120965
0.860018 0.393426 0.125093
0.874132 0.396654 0.128330
0.884810 0.402115 0.132272
0.893245 0.409106 0.136894
0.901133 0.403025 0.143341
0.905122 0.398045 0.152878
0.908919 0.387696 0.166482
0.911263 0.377593 0.202568
0.913595 0.369651 0.501703
0.913854 0.419605 0.607722
0.912482 0.416694 0.606917
0.111562 0.482316 0.092104
0.111688 0.480761 0.092162
0.112356 0.476005 0.092402
0.114610 0.469462 0.092964
0.117964 0.457976 0.093493
0.123550 0.444547 0.094032
0.135180 0.429554 0.094637
0.149350 0.412710 0.095049
0.168610 0.396952 0.095454
0.192855 0.380692 0.095873
0.222214 0.366415 0.096380
0.260270 0.355030 0.097030
0.297598 0.337959 0.097113
0.350927 0.336171 0.098370
0.433207 0.355927 0.101700
0.506771 0.359033 0.103383
0.571431 0.362908 0.105064
0.643727 0.373426 0.108109
0.704294 0.391540 0.112037
0.753177 0.395486 0.114407
0.785924 0.402993 0.117647
0.817192 0.411555 0.121452
0.844809 0.421951 0.125489
0.862516 0.426912 0.128618
0.875497 0.430062 0.132310
0.885593 0.435311 0.136662
0.895155 0.435389 0.142370
0.900525 0.437408 0.150743
0.904810 0.432149 0.161747
0.907793 0.418740 0.182965
0.910615 0.381749 0.383655
0.911368 0.413234 0.601283
0.910149 0.411317 0.603430
0.114993 0.513019 0.093523
0.115102 0.511678 0.093575
0.115641 0.507446 0.093784
0.117325 0.502127 0.094285
0.120338 0.495190 0.094972
0.125799 0.486154 0.095645
0.135676 0.474736 0.096211
0.148355 0.459037 0.096730
0.165311 0.443231 0.097156
0.187037 0.427728 0.097564
0.212616 0.413698 0.098064
0.244883 0.401510 0.098674
0.284384 0.391309 0.099482
0.330414 0.384562 0.100503
0.395186 0.393133 0.102863
0.460523 0.395153 0.104398
0.528901 0.397531 0.106208
0.596162 0.406072 0.109184
0.667542 0.421676 0.113067
0.715800 0.424417 0.115396
0.760892 0.430797 0.118379
0.793860 0.440422 0.122157
0.823856 0.451891 0.126129
0.850890 0.454492 0.128997
0.865153 0.461006 0.132590
0.876486 0.469699 0.136807
0.887795 0.467270 0.141911
0.895201 0.466971 0.149349
0.900828 0.465749 0.158929
0.904060 0.464247 0.174804
0.906605 0.466568 0.217092
0.908803 0.406845 0.594699
0.907730 0.406136 0.600856
0.119301 0.552324 0.095567
0.119399 0.551148 0.095624
0.119858 0.547349 0.095845
0.121192 0.542146 0.096327
0.124608 0.537092 0.097088
0.130692 0.528270 0.097728
0.139339 0.517942 0.098442
0.150903 0.506797 0.099168
0.166542 0.494895 0.099807
0.186168 0.482610 0.100329
0.209470 0.469710 0.100838
0.239361 0.456182 0.101462
0.275209 0.444129 0.102076
0.316445 0.434326 0.102872
0.375193 0.440445 0.105026
0.424945 0.430761 0.105844
0.488374 0.430192 0.107578
0.555716 0.437851 0.110308
0.628442 0.453122 0.114226
0.681140 0.455693 0.116660
0.729867 0.461204 0.119481
0.770780 0.470751 0.123045
0.802928 0.479616 0.126830
0.831749 0.483091 0.129630
0.854180 0.488602 0.133074
0.867656 0.493463 0.137003
0.879902 0.495026 0.141929
0.888136 0.498414 0.148722
0.895928 0.495703 0.156954
0.900502 0.492165 0.169286
0.903488 0.489801 0.196152
0.905226 0.497442 0.353345
0.905962 0.527013 0.597373
0.125539 0.602425 0.098470
0.125697 0.601390 0.098539
0.126397 0.597987 0.098802
0.128294 0.593047 0.099358
0.132934 0.589067 0.100371
0.138078 0.580363 0.101142
0.146308 0.571529 0.102015
0.156766 0.560900 0.102734
0.172386 0.549422 0.103441
0.191158 0.537500 0.104041
0.214068 0.525752 0.104651
0.242577 0.514424 0.105200
0.277027 0.504047 0.106069
0.315710 0.494930 0.106944
0.359841 0.487231 0.108026
0.404886 0.477840 0.108637
0.455137 0.468373 0.109386
0.522302 0.472378 0.111684
0.589712 0.484208 0.115725
0.649504 0.485439 0.117957
0.697215 0.489321 0.120718
0.747078 0.496367 0.124176
0.781862 0.503573 0.127760
0.811758 0.507609 0.130445
0.839091 0.511978 0.133667
0.857761 0.518805 0.137493
0.871666 0.520544 0.142341
0.881502 0.521922 0.148535
0.889891 0.523486 0.155948
0.895858 0.525011 0.166001
0.900145 0.520376 0.184126
0.902315 0.516936 0.257785
0.903454 0.527417 0.583009
0.130755 0.624941 0.100280
0.130898 0.624307 0.100342
0.131514 0.622192 0.100579
0.133105 0.618975 0.101070
0.136802 0.615899 0.101943
0.141819 0.611195 0.102814
0.149680 0.606237 0.103820
0.158656 0.596666 0.104486
0.172683 0.585959 0.105230
0.190030 0.575021 0.106240
0.210412 0.563415 0.106991
0.235949 0.552114 0.107782
0.267820 0.541655 0.108611
0.303798 0.531880 0.109474
0.343749 0.523406 0.110381
0.389004 0.516171 0.111456
0.434769 0.506955 0.112024
0.492466 0.503957 0.113569
0.556865 0.511450 0.117428
0.612611 0.512205 0.119539
0.667611 0.515074 0.122047
0.716458 0.521571 0.125414
0.761348 0.528433 0.128873
0.792267 0.531716 0.131383
0.821068 0.536609 0.134477
0.845992 0.543427 0.138378
0.863192 0.545126 0.142997
0.874076 0.549091 0.148922
0.883774 0.550228 0.155587
0.890784 0.549435 0.164009
0.896140 0.550252 0.178345
0.899176 0.554113 0.217585
0.900832 0.544034 0.519896
0.135643 0.645920 0.101899
0.135773 0.645364 0.101956
0.136320 0.643487 0.102170
0.137678 0.640534 0.102606
0.140695 0.637397 0.103365
0.145691 0.633956 0.104325
0.151658 0.628436 0.105177
0.160537 0.622417 0.106316
0.173446 0.615768 0.107376
0.188957 0.608469 0.108358
0.207440 0.599589 0.109289
0.230693 0.588629 0.110113
0.260313 0.578112 0.110898
0.292944 0.568229 0.111769
0.330204 0.559133 0.112643
0.371953 0.551196 0.113583
0.418310 0.544468 0.114939
0.471480 0.540541 0.116725
0.533241 0.543155 0.119877
0.580733 0.539011 0.121135
0.638369 0.541533 0.123582
0.688523 0.547289 0.126781
0.736991 0.553901 0.130141
0.773096 0.556675 0.132485
0.803014 0.561766 0.135464
0.830466 0.567768 0.139611
0.854063 0.570854 0.144032
0.866662 0.573942 0.149496
0.877549 0.576317 0.155673
0.885281 0.578658 0.163104
0.891543 0.577798 0.174643
0.895514 0.577393 0.200630
0.897896 0.588227 0.367765
0.141383 0.669810 0.103893
0.141507 0.669325 0.103946
0.142014 0.667672 0.104142
0.143222 0.665005 0.104536
0.145791 0.661968 0.105251
0.150920 0.659656 0.106697
0.155674 0.654011 0.107672
0.165289 0.649206 0.109009
0.176799 0.642966 0.110107
0.190701 0.636061 0.111082
0.208035 0.629026 0.112092
0.229926 0.621765 0.112997
0.257858 0.614635 0.114012
0.288242 0.607514 0.114968
0.323318 0.599812 0.116134
0.362172 0.591256 0.117258
0.405693 0.583686 0.118446
0.454041 0.577381 0.119835
0.516294 0.579126 0.122910
0.558571 0.571782 0.123651
0.607359 0.568434 0.125143
0.663567 0.573770 0.128258
0.710443 0.579866 0.131520
0.754628 0.582190 0.133724
0.785376 0.587212 0.136595
0.814371 0.592853 0.141145
0.841798 0.596055 0.145291
0.858915 0.599348 0.150413
0.870915 0.603488 0.156255
0.880101 0.603785 0.162803
0.886972 0.605064 0.172686
0.891391 0.607508 0.191345
0.894367 0.608553 0.277978
0.148022 0.696408 0.106803
0.148145 0.695990 0.106870
0.148639 0.694557 0.107121
0.149768 0.692200 0.107622
0.152059 0.689384 0.108468
0.156553 0.687037 0.109802
0.162442 0.682633 0.110921
0.171423 0.678139 0.112250
0.181834 0.672417 0.113404
0.195600 0.666563 0.114860
0.212567 0.660005 0.116141
0.233843 0.653208 0.117466
0.259689 0.646161 0.118602
0.289071 0.639286 0.119720
0.322205 0.632609 0.120773
0.360229 0.626557 0.122029
0.401072 0.620962 0.123218
0.446635 0.615852 0.124412
0.497481 0.611708 0.125860
0.541301 0.606119 0.126472
0.586256 0.601971 0.127688
0.638012 0.600760 0.129808
0.686400 0.605598 0.132950
0.730505 0.607000 0.135054
0.768191 0.609964 0.137804
0.798327 0.613859 0.142880
0.827470 0.615842 0.146732
0.850657 0.618746 0.151653
0.864558 0.620839 0.156952
0.874658 0.622454 0.163034
0.882464 0.624158 0.171780
0.887629 0.624573 0.186154
0.890905 0.628509 0.237111
0.152109 0.715598 0.108223
0.152222 0.715222 0.108287
0.152666 0.713921 0.108525
0.153662 0.711742 0.108995
0.155630 0.709021 0.109778
0.159920 0.706449 0.110997
0.166081 0.703114 0.112299
0.173279 0.698304 0.113464
0.183579 0.693581 0.115118
0.196157 0.688166 0.116687
0.210856 0.681837 0.117970
0.229952 0.675458 0.119302
0.254272 0.668923 0.120577
0.281905 0.662372 0.121767
0.313179 0.656017 0.122943
0.348335 0.649851 0.124053
0.386938 0.644238 0.125301
0.429823 0.639178 0.126551
0.476757 0.634517 0.127765
0.526299 0.630757 0.129203
0.568668 0.626562 0.130305
0.617543 0.625232 0.132341
0.665404 0.624750 0.134566
0.707323 0.625492 0.136437
0.752038 0.628077 0.139840
0.782511 0.631482 0.144714
0.812746 0.633385 0.148347
0.838308 0.636293 0.153064
0.857781 0.638513 0.157981
0.869104 0.640547 0.163597
0.878089 0.641893 0.171322
0.883821 0.644009 0.183281
0.887646 0.646213 0.216954
0.156283 0.734929 0.109745
0.156388 0.734594 0.109807
0.156800 0.733432 0.110034
0.157879 0.731457 0.110480
0.159989 0.728913 0.111215
0.163908 0.726314 0.112344
0.170360 0.723913 0.113922
0.176312 0.719091 0.115233
0.186706 0.715264 0.117150
0.196734 0.709505 0.118475
0.211337 0.704108 0.120018
0.229764 0.698344 0.121481
0.251979 0.692054 0.122800
0.277592 0.685713 0.123997
0.307009 0.679600 0.125259
0.340179 0.673662 0.126465
0.376290 0.667939 0.127619
0.416381 0.662708 0.128856
0.461385 0.658107 0.130157
0.509857 0.653863 0.131403
0.553194 0.650427 0.132824
0.599462 0.648242 0.134771
0.650181 0.647446 0.136926
0.687440 0.644925 0.138273
0.729749 0.646113 0.141931
0.767440 0.649215 0.146707
0.798153 0.650964 0.150111
0.825512 0.653433 0.154547
0.850506 0.656030 0.159244
0.863606 0.657698 0.164327
0.873610 0.659957 0.171446
0.880250 0.661363 0.181600
0.884526 0.664169 0.206343
0.161520 0.754493 0.111581
0.161645 0.754211 0.111640
0.162128 0.753227 0.111860
0.163164 0.751506 0.112288
0.165103 0.749219 0.112988
0.168596 0.746765 0.114186
0.174864 0.744805 0.116153
0.180568 0.740636 0.117536
0.189184 0.736588 0.119264
0.199587 0.731924 0.120883
0.213862 0.727039 0.122531
0.229713 0.721359 0.123941
0.251198 0.715685 0.125402
0.276045 0.709798 0.126766
0.303845 0.703832 0.127999
0.335129 0.698111 0.129337
0.369700 0.692514 0.130553
0.407870 0.687248 0.131791
0.450077 0.682356 0.133044
0.497142 0.678136 0.134386
0.540285 0.674268 0.135683
0.583270 0.671092 0.137087
0.631552 0.669596 0.140015
0.672326 0.666946 0.141671
0.710794 0.665434 0.144489
0.752972 0.666783 0.148710
0.783930 0.668538 0.151958
0.812594 0.670714 0.156212
0.839800 0.673208 0.160652
0.857872 0.674973 0.165375
0.869236 0.677100 0.171833
0.876759 0.678847 0.180791
0.881545 0.681961 0.200193
0.166648 0.773467 0.113162
0.166769 0.773218 0.113221
0.167233 0.772347 0.113435
0.168211 0.770837 0.113935
0.170001 0.768811 0.114783
0.173144 0.766545 0.116061
0.178633 0.764515 0.117926
0.184902 0.761462 0.119637
0.192207 0.757490 0.121225
0.203069 0.753842 0.123180
0.215107 0.748780 0.124626
0.231414 0.743862 0.126271
0.252423 0.738739 0.127934
0.274808 0.733010 0.129292
0.300985 0.727303 0.130595
0.330678 0.721724 0.131931
0.364050 0.716336 0.133293
0.400759 0.711146 0.134594
0.441043 0.706258 0.135870
0.485489 0.701724 0.137163
0.529951 0.697833 0.138963
0.570415 0.694357 0.141133
0.614618 0.691462 0.143372
0.658513 0.688597 0.144927
0.695554 0.686676 0.147644
0.735269 0.685908 0.151247
0.770118 0.685954 0.153757
0.799600 0.687845 0.157852
0.828713 0.690167 0.162143
0.851981 0.692063 0.166659
0.864866 0.693948 0.172384
0.873326 0.696090 0.180570
0.878831 0.698406 0.196341
0.170653 0.791426 0.113661
0.170764 0.791196 0.113732
0.171185 0.790386 0.113993
0.172064 0.788966 0.114498
0.173654 0.787019 0.115314
0.176406 0.784745 0.116540
0.181140 0.782499 0.118318
0.187834 0.780053 0.120378
0.194001 0.776049 0.121846
0.204092 0.772535 0.123886
0.215413 0.767973 0.125467
0.231427 0.763565 0.127284
0.249061 0.758490 0.128798
0.271360 0.753514 0.130417
0.297117 0.748247 0.131932
0.324556 0.742781 0.133240
0.355798 0.737508 0.134635
0.390624 0.732417 0.135976
0.429096 0.727606 0.137320
0.471269 0.723104 0.139127
0.517428 0.719011 0.141244
0.555829 0.715426 0.143359
0.597932 0.712392 0.145614
0.643988 0.709875 0.147927
0.681409 0.707463 0.150594
0.719856 0.706196 0.154127
0.758363 0.705164 0.156134
0.786720 0.704817 0.159441
0.817178 0.706921 0.163491
0.843493 0.708839 0.168105
0.860423 0.710720 0.173199
0.870061 0.712450 0.180317
0.876256 0.715058 0.193904
0.174320 0.801547 0.114486
0.174426 0.801443 0.114556
0.174826 0.801073 0.114810
0.175651 0.800421 0.115299
0.177117 0.799516 0.116088
0.179607 0.798431 0.117267
0.183806 0.797305 0.118969
0.190994 0.796363 0.121392
0.196373 0.793442 0.122773
0.205017 0.789902 0.124660
0.217082 0.786189 0.126646
0.230389 0.781726 0.128303
0.248590 0.777273 0.130081
0.269806 0.772626 0.131827
0.292612 0.767674 0.133313
0.319540 0.762762 0.134821
0.350053 0.757863 0.136297
0.383692 0.753024 0.137744
0.420192 0.748269 0.139888
0.460347 0.743796 0.142072
0.504153 0.739661 0.144188
0.543691 0.735945 0.146336
0.583497 0.732634 0.148487
0.627160 0.729960 0.150843
0.668306 0.727737 0.153245
0.705291 0.725911 0.156743
0.745909 0.724999 0.158615
0.775607 0.723639 0.161576
0.805497 0.723550 0.164890
0.834075 0.725249 0.169100
0.855927 0.727210 0.174116
0.866908 0.728844 0.180356
0.873829 0.731097 0.192163
0.177635 0.809175 0.115143
0.177737 0.809085 0.115212
0.178120 0.808767 0.115462
0.178901 0.808203 0.115944
0.180269 0.807410 0.116718
0.182553 0.806443 0.117870
0.186340 0.805402 0.119529
0.192709 0.804452 0.121883
0.198905 0.802949 0.123713
0.206544 0.801179 0.125488
0.219418 0.799621 0.127901
0.230885 0.797368 0.129443
0.249582 0.795192 0.131502
0.267621 0.790615 0.133099
0.290971 0.786164 0.134889
0.316558 0.781521 0.136480
0.344651 0.776844 0.138152
0.376620 0.772198 0.140545
0.411856 0.767645 0.142856
0.450486 0.763346 0.145134
0.492569 0.759323 0.147389
0.533325 0.755658 0.149625
0.571494 0.752337 0.151832
0.612627 0.749328 0.154047
0.655967 0.746964 0.156507
0.691658 0.745004 0.158996
0.731175 0.744301 0.160740
0.765209 0.742573 0.163719
0.795317 0.742071 0.166810
0.824320 0.741659 0.170178
0.851197 0.743256 0.174773
0.863810 0.744951 0.180479
0.871745 0.746984 0.191011
0.180546 0.818926 0.113586
0.180631 0.818840 0.113654
0.180954 0.818532 0.113901
0.181614 0.817978 0.114379
0.182774 0.817183 0.115151
0.184725 0.816176 0.116311
0.187990 0.815022 0.118002
0.193561 0.813839 0.120441
0.200541 0.812472 0.122924
0.207148 0.810665 0.124644
0.218034 0.808933 0.126985
0.230534 0.806974 0.129072
0.246233 0.804842 0.131015
0.265212 0.802645 0.132984
0.286874 0.800339 0.134852
0.310524 0.797991 0.136540
0.338684 0.795653 0.138581
0.369365 0.791351 0.141109
0.402310 0.786887 0.143501
0.439050 0.782624 0.145862
0.479455 0.778630 0.148189
0.521939 0.774946 0.150494
0.559033 0.771626 0.152780
0.598935 0.768701 0.155055
