LUTs/negative-superia-xtra-400/SuperiaXtra400_Modern_Normal.cube
TITLE "Fuji Superia X-tra 400 Modern Normal"
# Adobe RGB in/out. REPLACES AgX. Fuji Superia X-tra 400 Modern Normal.
LUT_3D_SIZE 33
DOMAIN_MIN 0.0 0.0 0.0
DOMAIN_MAX 1.0 1.0 1.0
0.070593 0.070461 0.087962
0.076574 0.074544 0.088954
0.078110 0.075676 0.089110
0.088091 0.079612 0.089627
0.130403 0.084798 0.090212
0.167102 0.087832 0.090612
0.253591 0.094638 0.091370
0.370122 0.102782 0.092439
0.428078 0.107333 0.092958
0.509448 0.113930 0.093674
0.611559 0.126957 0.095670
0.673185 0.136191 0.097193
0.714214 0.143646 0.098389
0.754091 0.156032 0.100545
0.793133 0.172626 0.103322
0.817479 0.181822 0.105062
0.836706 0.190710 0.107561
0.855183 0.201619 0.110595
0.870674 0.215126 0.114755
0.880821 0.220441 0.117996
0.889176 0.225853 0.121688
0.896240 0.232266 0.126176
0.903106 0.236945 0.131103
0.909875 0.234074 0.135171
0.912824 0.231906 0.140593
0.915365 0.227002 0.146768
0.919153 0.204190 0.148521
0.920419 0.187797 0.161348
0.925163 0.119411 0.375096
0.923361 0.118420 0.369463
0.921566 0.117482 0.363981
0.919777 0.116558 0.358589
0.921427 0.291970 0.562359
0.072042 0.079631 0.088749
0.075417 0.078655 0.088807
0.079443 0.076771 0.088890
0.091072 0.080389 0.089601
0.134622 0.085839 0.090238
0.168607 0.088446 0.090628
0.250647 0.095451 0.091377
0.363284 0.103528 0.092449
0.421461 0.108086 0.092965
0.502109 0.114570 0.093679
0.604811 0.127926 0.095670
0.668798 0.137067 0.097192
0.710264 0.144698 0.098389
0.751356 0.157033 0.100545
0.790774 0.173616 0.103322
0.815877 0.182844 0.105061
0.835338 0.191686 0.107560
0.854022 0.202572 0.110594
0.869999 0.216076 0.114752
0.880269 0.221362 0.117991
0.888701 0.226752 0.121680
0.895832 0.233157 0.126165
0.902752 0.237958 0.131082
0.909616 0.235081 0.135142
0.912653 0.232787 0.140543
0.915215 0.227882 0.146684
0.919018 0.205072 0.148363
0.920302 0.188623 0.160907
0.925066 0.119361 0.374794
0.923272 0.118373 0.369190
0.921484 0.117440 0.363734
0.919702 0.116519 0.358365
0.921358 0.291789 0.562141
0.072343 0.081647 0.088934
0.073723 0.081653 0.089132
0.076339 0.080336 0.089009
0.084463 0.082902 0.089554
0.115377 0.088790 0.090232
0.158920 0.091113 0.090619
0.239808 0.098724 0.091403
0.350057 0.107857 0.092536
0.404386 0.111356 0.093018
0.480204 0.117979 0.093718
0.582820 0.131845 0.095693
0.653064 0.140527 0.097207
0.696476 0.148799 0.098401
0.741657 0.160883 0.100559
0.782343 0.177383 0.103331
0.810122 0.186703 0.105074
0.830413 0.195349 0.107570
0.849844 0.206128 0.110599
0.867568 0.219609 0.114751
0.878281 0.224773 0.117983
0.886993 0.230076 0.121663
0.894367 0.236794 0.126133
0.901483 0.241690 0.131018
0.908501 0.238788 0.135049
0.912041 0.236316 0.140379
0.914677 0.231114 0.146403
0.918533 0.208313 0.147839
0.919884 0.191663 0.159422
0.924718 0.119183 0.373718
0.922954 0.118208 0.368215
0.921193 0.117288 0.362852
0.919434 0.116383 0.357565
0.921111 0.291138 0.561364
0.073547 0.091393 0.089517
0.074362 0.091632 0.089672
0.076864 0.090946 0.089759
0.080752 0.088846 0.089734
0.096273 0.095150 0.090311
0.120056 0.096689 0.090670
0.192717 0.103528 0.091416
0.301057 0.113750 0.092586
0.367565 0.117377 0.093090
0.446979 0.125169 0.093852
0.552055 0.140613 0.095809
0.618998 0.150262 0.097313
0.673091 0.157817 0.098489
0.722454 0.169106 0.100642
0.767018 0.185690 0.103392
0.797880 0.194640 0.105155
0.821281 0.202774 0.107633
0.842089 0.213253 0.110646
0.861608 0.226620 0.114787
0.874486 0.231493 0.118014
0.883833 0.236960 0.121671
0.891666 0.244087 0.126111
0.899146 0.248950 0.130948
0.906453 0.245982 0.134931
0.910918 0.243435 0.140139
0.913690 0.237834 0.145970
0.917645 0.214593 0.147092
0.919117 0.197575 0.157072
0.924086 0.118860 0.371773
0.922376 0.117907 0.366449
0.920663 0.117014 0.361252
0.918947 0.116138 0.356113
0.920661 0.289949 0.559951
0.074975 0.115220 0.090323
0.075758 0.115613 0.090456
0.078219 0.116370 0.090597
0.083227 0.113497 0.090714
0.091613 0.109099 0.090836
0.103874 0.104450 0.090872
0.147672 0.112405 0.091481
0.235630 0.124249 0.092669
0.307864 0.127382 0.093187
0.396436 0.135418 0.094036
0.509037 0.153676 0.096082
0.576003 0.162950 0.097522
0.637685 0.170599 0.098734
0.692943 0.182935 0.100860
0.744793 0.201443 0.103586
0.777714 0.208834 0.105416
0.807362 0.215757 0.107838
0.830230 0.225482 0.110807
0.851636 0.239112 0.114931
0.868559 0.243957 0.118168
0.879032 0.249263 0.121782
0.887584 0.256114 0.126170
0.895631 0.260847 0.130958
0.903381 0.257727 0.134880
0.908914 0.255021 0.139926
0.912218 0.249362 0.145518
0.916319 0.224829 0.146395
0.917976 0.207265 0.154391
0.923161 0.118393 0.368945
0.921528 0.117468 0.363874
0.919884 0.116613 0.358915
0.918232 0.115831 0.353988
0.919998 0.288204 0.557878
0.076088 0.141644 0.091000
0.076537 0.141509 0.091100
0.078646 0.142551 0.091199
0.082859 0.138769 0.091372
0.089218 0.130100 0.091309
0.099952 0.122726 0.091390
0.124065 0.126633 0.091814
0.190998 0.140656 0.092959
0.248435 0.141498 0.093335
0.333167 0.150430 0.094258
0.445756 0.169879 0.096317
0.527260 0.178988 0.097773
0.590583 0.186602 0.099124
0.660838 0.198653 0.101181
0.717450 0.216412 0.103801
0.754086 0.224963 0.105764
0.785216 0.233337 0.108191
0.813636 0.246671 0.111179
0.837547 0.260959 0.115402
0.857423 0.264345 0.118579
0.872061 0.268608 0.122116
0.881912 0.274801 0.126423
0.890786 0.279167 0.131190
0.899170 0.275722 0.135046
0.905287 0.272696 0.139913
0.910221 0.266924 0.145266
0.914522 0.241431 0.146089
0.916437 0.222238 0.152171
0.921949 0.117796 0.365279
0.920414 0.116895 0.360515
0.918860 0.116086 0.355859
0.920716 0.290001 0.351204
0.919123 0.285913 0.555152
0.077699 0.200074 0.092174
0.078298 0.201538 0.092330
0.080260 0.201999 0.092622
0.084368 0.195304 0.092711
0.091312 0.181765 0.092696
0.102545 0.168723 0.092655
0.119090 0.158513 0.092768
0.162062 0.166002 0.093361
0.208962 0.164047 0.093655
0.279779 0.171277 0.094707
0.386307 0.191426 0.096774
0.467754 0.200305 0.098159
0.539080 0.205670 0.099491
0.611980 0.217126 0.101502
0.683890 0.236180 0.104134
0.727791 0.246839 0.106359
0.761290 0.253265 0.108611
0.794468 0.264715 0.111470
0.822098 0.281649 0.115864
0.842844 0.288459 0.119113
0.861157 0.296798 0.122737
0.874074 0.305270 0.127034
0.884297 0.309045 0.131849
0.893589 0.304587 0.135652
0.900545 0.300622 0.140342
0.906368 0.294151 0.145517
0.912188 0.268628 0.146697
0.914457 0.246748 0.151379
0.920466 0.117117 0.360884
0.919048 0.116199 0.356439
0.917600 0.115443 0.352137
0.919551 0.287025 0.347802
0.918044 0.283108 0.551802
0.079693 0.273753 0.093543
0.080115 0.275298 0.093664
0.082701 0.280150 0.094276
0.086649 0.269912 0.094487
0.094012 0.255193 0.094463
0.106314 0.237949 0.094525
0.124124 0.222746 0.094494
0.154091 0.210915 0.094676
0.183593 0.192538 0.094432
0.239117 0.196821 0.095308
0.333657 0.217621 0.097411
0.412416 0.224277 0.098724
0.483206 0.228260 0.100089
0.561093 0.239803 0.102003
0.646327 0.260826 0.104521
0.694043 0.269289 0.106876
0.735467 0.276784 0.109144
0.769754 0.290918 0.112025
0.804072 0.309527 0.116628
0.827274 0.313525 0.119699
0.847771 0.319827 0.123184
0.865710 0.328407 0.127455
0.877066 0.336462 0.132529
0.886787 0.338133 0.136593
0.894308 0.340985 0.141551
0.901058 0.335033 0.146678
0.908781 0.313488 0.149103
0.911929 0.288774 0.153207
0.918744 0.116591 0.356040
0.917453 0.115409 0.351751
0.916125 0.114903 0.347829
0.918180 0.283461 0.343847
0.916773 0.279963 0.547881
0.080580 0.317538 0.094602
0.081115 0.318895 0.094762
0.083012 0.318843 0.095157
0.086446 0.311539 0.095453
0.092543 0.299234 0.095577
0.102982 0.282731 0.095581
0.117830 0.266333 0.095646
0.141306 0.250715 0.095684
0.174859 0.238057 0.095870
0.215305 0.229898 0.096255
0.293929 0.249265 0.098199
0.364397 0.254740 0.099625
0.432593 0.257423 0.100863
0.512251 0.268147 0.102610
0.595971 0.289447 0.105361
0.659722 0.297359 0.107659
0.703322 0.305065 0.109819
0.745160 0.318695 0.112711
0.781232 0.335137 0.117465
0.809745 0.340948 0.120567
0.831241 0.349275 0.124112
0.851733 0.355495 0.128194
0.868925 0.361812 0.133264
0.880136 0.361923 0.137134
0.888581 0.363724 0.141888
0.895592 0.365640 0.147374
0.903283 0.358193 0.151844
0.908047 0.351803 0.158247
0.916991 0.125694 0.354059
0.915664 0.115019 0.346866
0.914461 0.114355 0.343100
0.916628 0.279619 0.339438
0.915330 0.276557 0.543456
0.082399 0.376049 0.096357
0.082755 0.375011 0.096450
0.084078 0.370548 0.096716
0.087594 0.365933 0.097137
0.093095 0.356824 0.097400
0.102940 0.344581 0.097503
0.116288 0.329259 0.097580
0.137763 0.312485 0.097646
0.168274 0.295855 0.097771
0.205389 0.282184 0.098010
0.267281 0.293909 0.099747
0.325963 0.291189 0.100719
0.389801 0.291497 0.101732
0.463477 0.301409 0.103364
0.550371 0.323360 0.106485
0.613474 0.329087 0.108608
0.670357 0.334526 0.110658
0.717019 0.345440 0.113571
0.757864 0.363151 0.118608
0.788403 0.368715 0.121616
0.815412 0.373894 0.124896
0.836787 0.383723 0.129040
0.856166 0.394163 0.134459
0.871787 0.395125 0.138262
0.881766 0.394866 0.142745
0.889779 0.395273 0.148014
0.898212 0.386905 0.152233
0.903629 0.379328 0.157985
0.909417 0.362568 0.162168
0.911893 0.342306 0.172684
0.914426 0.264344 0.293278
0.914920 0.275600 0.339778
0.913738 0.272842 0.538607
0.084800 0.457810 0.099463
0.085141 0.456065 0.099528
0.086542 0.451480 0.099800
0.090551 0.449058 0.100397
0.096862 0.440942 0.100813
0.106065 0.428369 0.101089
0.120348 0.413666 0.101270
0.143363 0.396844 0.101383
0.174745 0.380092 0.101483
0.211758 0.364717 0.101714
0.254415 0.351998 0.102084
0.302816 0.339557 0.102372
0.352789 0.329883 0.102765
0.423192 0.337197 0.104226
0.508505 0.356675 0.107812
0.570154 0.360703 0.109781
0.631344 0.364621 0.111634
0.685761 0.374922 0.114579
0.734768 0.393051 0.119944
0.765986 0.396876 0.122769
0.796352 0.403805 0.126044
0.820962 0.414808 0.130374
0.842536 0.422469 0.135545
0.861878 0.424632 0.139308
0.874071 0.429628 0.143927
0.882793 0.436021 0.149465
0.892252 0.426329 0.153501
0.898557 0.417065 0.158705
0.904913 0.399695 0.162523
0.909213 0.377044 0.169151
0.912311 0.284951 0.216132
0.913087 0.271341 0.350286
0.912023 0.268900 0.352729
0.086261 0.499534 0.101569
0.086638 0.498311 0.101623
0.088160 0.494870 0.101844
0.091473 0.492632 0.102351
0.097197 0.486725 0.102775
0.105891 0.479100 0.103154
0.119293 0.469223 0.103470
0.139607 0.455258 0.103604
0.168483 0.438506 0.103728
0.202965 0.422175 0.103873
0.241951 0.407162 0.104107
0.289522 0.394680 0.104482
0.331500 0.376402 0.104385
0.389586 0.373537 0.105645
0.468748 0.392410 0.109326
0.532500 0.394615 0.111079
0.590418 0.397660 0.113007
0.656468 0.407382 0.116202
0.706508 0.424648 0.121378
0.743612 0.427843 0.124117
0.774904 0.435641 0.127415
0.805468 0.444488 0.131826
0.827837 0.455085 0.137031
0.848106 0.459583 0.140825
0.865957 0.461560 0.145163
0.876312 0.465064 0.150557
0.886077 0.463336 0.154847
0.892805 0.462960 0.160357
0.899624 0.452669 0.165306
0.904734 0.428512 0.170373
0.909891 0.336543 0.168486
0.911159 0.266931 0.344725
0.910212 0.264794 0.352555
0.087668 0.533314 0.103057
0.088003 0.532262 0.103107
0.089283 0.529159 0.103303
0.091984 0.526325 0.103733
0.097549 0.522582 0.104232
0.105519 0.516677 0.104699
0.116879 0.507639 0.105240
0.135123 0.496555 0.105668
0.161002 0.484187 0.105938
0.192940 0.470925 0.106186
0.228785 0.457613 0.106516
0.270496 0.443120 0.106913
0.317882 0.431123 0.107566
0.369711 0.423333 0.108497
0.435875 0.430778 0.111033
0.496914 0.431842 0.112726
0.554867 0.433515 0.114579
0.618163 0.442466 0.118233
0.679240 0.458873 0.123356
0.719432 0.461022 0.125770
0.753920 0.466153 0.128790
0.785513 0.474128 0.133597
0.813104 0.483699 0.138807
0.834898 0.485242 0.142269
0.853490 0.490184 0.146706
0.868399 0.496909 0.152429
0.879723 0.493168 0.156307
0.887380 0.490981 0.161314
0.894599 0.486760 0.166744
0.899902 0.480550 0.173717
0.904406 0.472572 0.181956
0.908805 0.262605 0.339085
0.907486 0.260675 0.354334
0.089489 0.576795 0.105205
0.089782 0.575877 0.105287
0.090886 0.573076 0.105600
0.093439 0.570017 0.106267
0.099193 0.568393 0.107285
0.106355 0.562504 0.108055
0.117062 0.554722 0.108668
0.134522 0.545324 0.109210
0.158604 0.534000 0.109625
0.188585 0.521223 0.109895
0.222634 0.508369 0.110155
0.262408 0.496135 0.110564
0.307451 0.484821 0.110984
0.355291 0.475274 0.111638
0.418861 0.479843 0.114301
0.466475 0.470395 0.114869
0.524747 0.469145 0.116863
0.583689 0.475265 0.120345
0.653008 0.488126 0.125338
0.693667 0.489777 0.127738
0.733834 0.494054 0.130941
0.766089 0.501876 0.135621
0.796987 0.510133 0.140601
0.821023 0.513418 0.144093
0.840801 0.518955 0.148566
0.858546 0.523581 0.154006
0.872856 0.524150 0.158075
0.881189 0.526624 0.163174
0.889336 0.521003 0.168408
0.895386 0.513120 0.174264
0.900425 0.503159 0.180023
0.903735 0.492418 0.197842
0.905640 0.490809 0.357476
0.091836 0.626074 0.109526
0.092096 0.625471 0.109605
0.093301 0.623583 0.109905
0.096377 0.621288 0.110527
0.102076 0.620927 0.111633
0.108528 0.616349 0.112475
0.119916 0.611873 0.113431
0.137424 0.605364 0.114107
0.161336 0.594928 0.114728
0.191188 0.583044 0.115233
0.225252 0.570456 0.115858
0.264121 0.557686 0.116335
0.308590 0.545518 0.117046
0.354800 0.534552 0.117798
0.404837 0.525052 0.118867
0.449502 0.513652 0.119301
0.497279 0.503947 0.119954
0.554553 0.506750 0.122836
0.620075 0.518677 0.127592
0.669679 0.519455 0.129901
0.710160 0.523255 0.133435
0.747516 0.530658 0.137997
0.779090 0.538246 0.142736
0.807274 0.542259 0.146148
0.828411 0.546556 0.150580
0.846914 0.553619 0.156098
0.865471 0.554615 0.160038
0.875446 0.554966 0.164923
0.883952 0.555022 0.170473
0.890377 0.554374 0.176641
0.896094 0.544233 0.181764
0.899962 0.529685 0.189866
0.902516 0.497450 0.340835
0.093155 0.652718 0.111770
0.093513 0.652192 0.111843
0.094849 0.650511 0.112145
0.097536 0.648290 0.112810
0.102460 0.647217 0.113962
0.108822 0.644398 0.115059
0.120108 0.641562 0.116689
0.135447 0.635150 0.117591
0.157184 0.628200 0.118506
0.185645 0.620356 0.119429
0.217238 0.611252 0.119966
0.252903 0.600663 0.120567
0.296054 0.588697 0.121231
0.340220 0.577152 0.121963
0.387718 0.566907 0.122790
0.435137 0.557962 0.123879
0.480152 0.546796 0.124267
0.532688 0.542652 0.126066
0.591092 0.550444 0.130325
0.644921 0.550713 0.132910
0.687529 0.553395 0.136095
0.729217 0.560196 0.140551
0.761796 0.567434 0.145151
0.791024 0.570636 0.148452
0.815879 0.575633 0.152950
0.835527 0.582799 0.158339
0.855191 0.583937 0.162083
0.868891 0.587599 0.167461
0.878579 0.587587 0.172724
0.885805 0.584816 0.178069
0.891753 0.583010 0.184125
0.895783 0.583376 0.194267
0.899080 0.538105 0.272606
0.094687 0.678223 0.114128
0.095009 0.677763 0.114209
0.096205 0.676269 0.114510
0.098581 0.674173 0.115148
0.102940 0.672710 0.116550
0.109300 0.671445 0.118262
0.118721 0.667504 0.119646
0.133310 0.662917 0.120934
0.153603 0.657216 0.122028
0.179836 0.650115 0.122961
0.209615 0.642019 0.123796
0.243026 0.633273 0.124465
0.284157 0.624438 0.125074
0.325942 0.615751 0.125835
0.371518 0.607524 0.126612
0.418333 0.598548 0.127491
0.465420 0.590214 0.128612
0.517354 0.585046 0.130519
0.570334 0.587276 0.134625
0.616845 0.581997 0.135970
0.667105 0.584322 0.139083
0.707949 0.590318 0.143323
0.745214 0.597316 0.147863
0.774795 0.599992 0.151205
0.803111 0.605298 0.155603
0.824431 0.610139 0.160733
0.844575 0.612375 0.164651
0.860866 0.614521 0.169909
0.873038 0.615889 0.175147
0.880857 0.617088 0.180636
0.887514 0.614995 0.185971
0.892117 0.612825 0.193107
0.895208 0.616234 0.216615
0.096584 0.705143 0.117875
0.096878 0.704874 0.117979
0.097965 0.703986 0.118367
0.100105 0.702686 0.119134
0.104156 0.701595 0.120419
0.110889 0.701701 0.122377
0.119201 0.697997 0.123593
0.134111 0.694987 0.125222
0.152991 0.689736 0.126436
0.177354 0.683199 0.127414
0.206010 0.675980 0.128402
0.238444 0.667968 0.129211
0.277735 0.659652 0.130238
0.318164 0.651007 0.131014
0.362129 0.642875 0.132107
0.407955 0.635204 0.133163
0.453417 0.628276 0.134334
0.501959 0.622369 0.135830
0.555373 0.623323 0.139862
0.597566 0.616573 0.140439
0.645304 0.613264 0.142151
0.688454 0.617489 0.146297
0.728977 0.622380 0.151075
0.759161 0.624062 0.154220
0.788163 0.628064 0.158503
0.813431 0.632567 0.163445
0.834318 0.634982 0.167608
0.851632 0.637412 0.172688
0.867176 0.640539 0.178042
0.876276 0.640186 0.182931
0.883323 0.641091 0.188417
0.888227 0.643616 0.195721
0.891876 0.643374 0.208658
0.098924 0.727329 0.122976
0.099196 0.727105 0.123076
0.100200 0.726359 0.123449
0.102404 0.725237 0.124178
0.106121 0.724191 0.125383
0.112741 0.724076 0.127239
0.121341 0.722130 0.128712
0.136037 0.720259 0.130708
0.153957 0.717086 0.132444
0.178827 0.713631 0.134132
0.207055 0.709235 0.135449
0.238818 0.704248 0.136802
0.276153 0.698085 0.137857
0.316289 0.689842 0.138882
0.358823 0.681602 0.139815
0.405010 0.673935 0.141063
0.448648 0.666743 0.142247
0.495508 0.660104 0.143453
0.541835 0.654610 0.145062
0.582268 0.647426 0.145440
0.627318 0.642667 0.146745
0.670659 0.641223 0.149666
0.710415 0.645663 0.154429
0.744432 0.647100 0.157438
0.773647 0.650437 0.161519
0.801900 0.654908 0.166839
0.824313 0.657082 0.170748
0.842383 0.660367 0.175815
0.859723 0.662630 0.180739
0.871316 0.664304 0.185758
0.879229 0.666162 0.191175
0.884744 0.666654 0.197022
0.888578 0.672413 0.208647
0.099688 0.743183 0.125170
0.099939 0.742983 0.125268
0.100920 0.742310 0.125630
0.102977 0.741263 0.126335
0.106347 0.740179 0.127483
0.112154 0.739695 0.129224
0.121094 0.738711 0.131496
0.133548 0.736393 0.133432
0.151430 0.734175 0.135564
0.174667 0.731137 0.137454
0.200070 0.726987 0.138857
0.229942 0.722508 0.140275
0.265072 0.717589 0.141576
0.304571 0.712392 0.142736
0.345663 0.707151 0.143875
0.390337 0.701925 0.144919
0.433451 0.695608 0.146199
0.478760 0.689067 0.147509
0.525762 0.682997 0.148929
0.568562 0.678008 0.150752
0.611866 0.672522 0.152022
0.658994 0.670509 0.154921
0.693877 0.669553 0.158162
0.730369 0.670241 0.160804
0.760010 0.673162 0.164965
0.788597 0.677082 0.170396
0.814378 0.679234 0.174125
0.833364 0.682604 0.179094
0.851688 0.685153 0.183825
0.866393 0.687523 0.188731
0.875245 0.689178 0.193783
0.881197 0.692220 0.199863
0.885501 0.696644 0.208265
0.100479 0.759124 0.127542
0.100747 0.758949 0.127639
0.101733 0.758358 0.127994
0.103638 0.757415 0.128681
0.106732 0.756373 0.129936
0.111999 0.755711 0.132047
0.121378 0.755560 0.134770
0.132351 0.753070 0.136563
0.150640 0.751682 0.139137
0.170084 0.748236 0.140764
0.195822 0.744995 0.142613
0.225345 0.741155 0.144275
0.257760 0.736536 0.145700
0.295880 0.731640 0.146908
0.335425 0.726720 0.148301
0.378562 0.721793 0.149660
0.421169 0.716935 0.150954
0.464605 0.712411 0.152409
0.511584 0.708373 0.153991
0.553917 0.704617 0.155506
0.597696 0.701524 0.157342
0.644873 0.699132 0.160104
0.682429 0.697818 0.163270
0.715112 0.694491 0.164879
0.747022 0.695727 0.168853
0.775998 0.699318 0.174213
0.804516 0.700957 0.177729
0.824663 0.702920 0.182445
0.843680 0.705032 0.187161
0.859639 0.706406 0.191663
0.871096 0.708414 0.196847
0.877909 0.710008 0.202343
0.882548 0.713745 0.209770
0.101603 0.775308 0.130765
0.101856 0.775161 0.130887
0.102784 0.774662 0.131335
0.104569 0.773854 0.132197
0.107446 0.772928 0.133578
0.112474 0.772244 0.135630
0.121741 0.772394 0.138574
0.132581 0.770396 0.140545
0.148476 0.768638 0.142937
0.168759 0.766206 0.145067
0.194136 0.763434 0.147140
0.220359 0.759643 0.148981
0.251953 0.755642 0.150872
0.289909 0.751226 0.152551
0.328388 0.746538 0.153993
0.369964 0.741876 0.155621
0.412585 0.737215 0.157045
0.454886 0.732751 0.158522
0.499962 0.728551 0.160038
0.544007 0.724879 0.161731
0.585367 0.721493 0.163376
0.630249 0.718678 0.165502
0.671627 0.717223 0.169068
0.703839 0.714900 0.170509
0.735987 0.713481 0.173424
0.763829 0.714455 0.178121
0.792753 0.715870 0.181504
0.816154 0.717602 0.186078
0.835934 0.719646 0.190650
0.852861 0.721141 0.194927
0.867157 0.723077 0.199891
0.874618 0.725011 0.205249
0.879723 0.729006 0.212159
0.102368 0.791394 0.134009
0.102609 0.791268 0.134132
0.103490 0.790835 0.134583
0.105181 0.790125 0.135446
0.107887 0.789280 0.136820
0.112682 0.788570 0.138845
0.121195 0.788440 0.141723
0.132879 0.787360 0.144271
0.146997 0.785402 0.146539
0.168403 0.783786 0.149475
0.190294 0.780715 0.151568
0.217518 0.777646 0.153906
0.248793 0.774149 0.156215
0.283834 0.769895 0.157968
0.321337 0.765492 0.159579
0.361700 0.761033 0.161240
0.404593 0.756612 0.162949
0.446166 0.752282 0.164732
0.490126 0.748156 0.166564
0.534419 0.744293 0.168451
0.575271 0.740942 0.170489
0.618310 0.737932 0.172586
0.661364 0.735407 0.174775
0.693161 0.732954 0.176086
0.726078 0.731230 0.178889
0.753673 0.730438 0.182820
0.781370 0.730440 0.185306
0.807774 0.731947 0.189753
0.828559 0.733854 0.194263
0.846259 0.735472 0.198439
0.862046 0.737222 0.202993
0.871361 0.739468 0.208475
0.877170 0.742775 0.214303
0.101904 0.806556 0.134992
0.102134 0.806439 0.135116
0.102976 0.806033 0.135569
0.104586 0.805354 0.136434
0.107151 0.804504 0.137806
0.111291 0.803686 0.139816
0.119187 0.803234 0.142655
0.131283 0.802748 0.145843
0.143686 0.800624 0.148085
0.163912 0.799079 0.151394
0.185136 0.796331 0.153817
0.212549 0.793624 0.156530
0.239522 0.790011 0.158693
0.274612 0.786324 0.160955
0.312950 0.782312 0.162984
0.351139 0.778001 0.164839
0.393003 0.773728 0.166942
0.433869 0.769536 0.168933
0.476840 0.765523 0.170945
0.522203 0.761741 0.172876
0.562343 0.758275 0.174901
0.604053 0.755223 0.176946
0.648609 0.752621 0.179179
0.683001 0.750452 0.181486
0.715390 0.748355 0.184232
0.745129 0.747174 0.188104
0.772087 0.746301 0.189980
0.797957 0.745952 0.193464
0.821159 0.747686 0.197757
0.839910 0.749309 0.202151
0.856711 0.751052 0.206362
0.868333 0.752928 0.211319
0.874646 0.756358 0.217096
0.101555 0.819941 0.136430
0.101776 0.819841 0.136555
0.102585 0.819496 0.137008
0.104128 0.818911 0.137872
0.106576 0.818163 0.139237
0.110354 0.817406 0.141230
0.117586 0.816888 0.144030
0.130348 0.816992 0.147955
0.141506 0.814928 0.150324
0.159185 0.813200 0.153487
0.182137 0.811224 0.156712
0.205898 0.808351 0.159270
0.234319 0.805318 0.161952
0.267938 0.801908 0.164684
0.303343 0.798053 0.167089
0.341587 0.794106 0.169486
0.383334 0.790066 0.171800
0.424649 0.785999 0.174054
0.466291 0.782066 0.176131
0.510470 0.778344 0.178261
0.551140 0.774888 0.180308
0.591730 0.771769 0.182410
0.634730 0.768982 0.184521
0.672603 0.766713 0.186909
0.705161 0.764823 0.189353
0.736754 0.763205 0.193202
0.763905 0.762457 0.194955
0.789517 0.761291 0.198031
0.813884 0.761206 0.201339
0.833723 0.762651 0.205404
0.851621 0.764419 0.209849
0.865146 0.766169 0.214395
0.872251 0.769145 0.219975
0.100907 0.827701 0.137683
0.101122 0.827651 0.137809
0.101908 0.827479 0.138267
0.103404 0.827185 0.139139
0.105769 0.826803 0.140514
0.109235 0.826398 0.142518
0.115881 0.826082 0.145327
0.127170 0.826025 0.149412
0.139789 0.825279 0.152683
0.155500 0.824229 0.155757
0.180364 0.823425 0.159844
0.201415 0.821722 0.162305
0.231158 0.819856 0.165891
0.260158 0.816434 0.168691
0.297497 0.813000 0.171793
0.334557 0.809275 0.174447
0.373796 0.805422 0.176947
0.414913 0.801537 0.179394
0.455954 0.797695 0.181714
0.499333 0.794042 0.183987
0.541128 0.790611 0.186236
0.580856 0.787477 0.188468
0.622873 0.784641 0.190669
0.663297 0.782137 0.192886
0.695054 0.780153 0.195437
0.727833 0.778509 0.198015
0.755872 0.777945 0.199663
0.781687 0.776497 0.202754
0.808102 0.776087 0.205736
0.827761 0.775783 0.208885
0.846616 0.777216 0.213100
0.861278 0.778944 0.217549
0.870215 0.781624 0.222836
0.097955 0.837251 0.135020
0.098145 0.837200 0.135151
0.098836 0.837021 0.135629
0.100150 0.836707 0.136540
0.102477 0.836276 0.137987
0.105952 0.835772 0.140109
0.111196 0.835271 0.143112
0.121203 0.834902 0.147302
0.135658 0.834323 0.151920
0.149567 0.833141 0.155021
0.171423 0.832071 0.159141
0.195101 0.830653 0.162684
0.221198 0.828960 0.166249
0.251628 0.827109 0.169897
0.287510 0.825063 0.173269
0.323079 0.822910 0.176233
0.363309 0.820723 0.179228
0.404773 0.817011 0.181919
0.444050 0.813249 0.184417
0.486268 0.809642 0.186853
0.529564 0.806257 0.189239
0.568879 0.803131 0.191600
0.610403 0.800312 0.193944
0.653995 0.797828 0.196283
