LUTs/negative-superia-xtra-400/SuperiaXtra400_Modern_ExtraPunchy.cube
TITLE "Fuji Superia X-tra 400 Modern ExtraPunchy"
# Adobe RGB in/out. REPLACES AgX. Fuji Superia X-tra 400 Modern ExtraPunchy.
LUT_3D_SIZE 33
DOMAIN_MIN 0.0 0.0 0.0
DOMAIN_MAX 1.0 1.0 1.0
0.069662 0.073299 0.081842
0.068348 0.072498 0.080013
0.069196 0.072199 0.079074
0.075059 0.073627 0.078080
0.110473 0.077670 0.078431
0.143146 0.080438 0.078712
0.236662 0.085567 0.079385
0.363143 0.092175 0.080197
0.424321 0.096102 0.080553
0.505060 0.102300 0.081146
0.593188 0.113520 0.082334
0.641759 0.122772 0.083434
0.676037 0.130372 0.084531
0.711169 0.142416 0.086271
0.749165 0.158656 0.088802
0.774688 0.167580 0.090728
0.791578 0.175621 0.092498
0.807782 0.185483 0.095067
0.823084 0.200961 0.098622
0.836299 0.207223 0.100931
0.845166 0.213638 0.104383
0.851170 0.221292 0.108593
0.857002 0.226461 0.112857
0.862791 0.223428 0.116068
0.866761 0.220861 0.120931
0.870185 0.215005 0.126481
0.875298 0.188205 0.127954
0.877009 0.172987 0.139268
0.883427 0.107334 0.376674
0.880987 0.106503 0.370847
0.878559 0.105716 0.365179
0.876141 0.104940 0.359606
0.878372 0.288485 0.557683
0.069662 0.073639 0.080945
0.067893 0.073073 0.080663
0.069925 0.072325 0.080294
0.076879 0.074247 0.078059
0.114289 0.078484 0.078445
0.144477 0.081042 0.078722
0.233134 0.086071 0.079392
0.356368 0.092752 0.080204
0.416929 0.096809 0.080558
0.498776 0.102988 0.081149
0.588480 0.114474 0.082334
0.637317 0.123654 0.083433
0.673013 0.131391 0.084530
0.708510 0.143393 0.086271
0.746867 0.159628 0.088802
0.773280 0.168504 0.090728
0.790377 0.176504 0.092498
0.806765 0.186344 0.095066
0.822226 0.202078 0.098620
0.835557 0.208312 0.100926
0.844762 0.214709 0.104376
0.850824 0.222359 0.108582
0.856702 0.227532 0.112842
0.862528 0.224492 0.116041
0.866531 0.221916 0.120886
0.869983 0.216054 0.126406
0.875115 0.189227 0.127827
0.876851 0.173734 0.138807
0.883295 0.107292 0.376362
0.880867 0.106464 0.370564
0.878449 0.105681 0.364923
0.876040 0.104908 0.359374
0.878278 0.288310 0.557480
0.069398 0.075077 0.080102
0.067865 0.075081 0.078941
0.068256 0.074213 0.079682
0.073189 0.076160 0.078085
0.095991 0.081379 0.078442
0.135918 0.083361 0.078716
0.219663 0.088616 0.079422
0.343264 0.096594 0.080263
0.397920 0.099880 0.080595
0.479945 0.106133 0.081175
0.573034 0.118401 0.082356
0.622164 0.127148 0.083445
0.662434 0.135374 0.084545
0.699081 0.147152 0.086282
0.738658 0.163331 0.088813
0.766916 0.171997 0.090737
0.786053 0.179816 0.092505
0.803102 0.190453 0.095071
0.819136 0.206240 0.098619
0.832885 0.212355 0.100919
0.843308 0.218672 0.104360
0.849579 0.226301 0.108552
0.855624 0.231480 0.112794
0.861582 0.228409 0.115958
0.865707 0.225796 0.120739
0.869258 0.219914 0.126153
0.874461 0.192994 0.127406
0.876285 0.176484 0.137257
0.882824 0.107142 0.375248
0.880436 0.106325 0.369556
0.878054 0.105554 0.364011
0.875678 0.104794 0.358548
0.877944 0.287682 0.556757
0.068015 0.083538 0.078148
0.067474 0.083687 0.078115
0.068539 0.083257 0.078175
0.071029 0.081435 0.078161
0.080517 0.085885 0.078498
0.100770 0.086838 0.078750
0.165888 0.092752 0.079437
0.290581 0.102131 0.080298
0.360609 0.105628 0.080656
0.445519 0.112151 0.081237
0.546424 0.127235 0.082466
0.598361 0.136797 0.083531
0.641664 0.144158 0.084634
0.682334 0.155202 0.086348
0.723743 0.171080 0.088889
0.753788 0.179175 0.090795
0.778030 0.186566 0.092550
0.796302 0.198765 0.095116
0.813411 0.214551 0.098648
0.827936 0.220366 0.100948
0.840352 0.226476 0.104368
0.847283 0.234196 0.108532
0.853640 0.239776 0.112742
0.859844 0.236369 0.115852
0.864194 0.233450 0.120524
0.867928 0.227400 0.125763
0.873261 0.200336 0.126773
0.875249 0.181828 0.134809
0.881969 0.106872 0.373236
0.879654 0.106073 0.367730
0.877338 0.105324 0.362358
0.875020 0.104588 0.357048
0.877335 0.286535 0.555443
0.067717 0.103755 0.078507
0.068027 0.104147 0.078602
0.069250 0.104783 0.078702
0.072481 0.101893 0.078779
0.077258 0.097760 0.078860
0.085951 0.093399 0.078884
0.126214 0.100866 0.079512
0.214286 0.111383 0.080354
0.297918 0.113930 0.080740
0.389231 0.121992 0.081312
0.504709 0.140119 0.082658
0.568163 0.149173 0.083699
0.611418 0.156666 0.084829
0.659717 0.168587 0.086522
0.702130 0.185324 0.089128
0.734152 0.193601 0.090980
0.763498 0.201703 0.092695
0.785892 0.213197 0.095269
0.804674 0.228752 0.098764
0.820396 0.234047 0.101091
0.833894 0.240136 0.104471
0.843812 0.248036 0.108588
0.850653 0.253516 0.112750
0.857236 0.249901 0.115806
0.861933 0.246773 0.120333
0.865944 0.240250 0.125357
0.871472 0.212422 0.126146
0.873709 0.191774 0.132659
0.880717 0.106480 0.370311
0.878508 0.105705 0.365068
0.876286 0.104987 0.359943
0.874054 0.104330 0.354853
0.876439 0.284852 0.553514
0.068157 0.128278 0.078969
0.068333 0.128142 0.079075
0.069461 0.129310 0.079188
0.072256 0.125371 0.079387
0.075735 0.116650 0.079314
0.083182 0.110110 0.079408
0.104985 0.113288 0.079766
0.164320 0.127279 0.080554
0.230492 0.128131 0.080869
0.325352 0.136960 0.081402
0.444144 0.155960 0.082818
0.521168 0.164911 0.083901
0.578505 0.171906 0.085140
0.629261 0.182803 0.086777
0.678512 0.202473 0.089395
0.711164 0.212581 0.091227
0.741454 0.222575 0.092943
0.771272 0.237158 0.095624
0.792316 0.253647 0.099059
0.809746 0.257580 0.101476
0.824849 0.262547 0.104785
0.837766 0.269788 0.108825
0.846535 0.274911 0.112922
0.853660 0.270867 0.115956
0.858855 0.267322 0.120320
0.863257 0.260583 0.125130
0.869049 0.231207 0.125870
0.871631 0.209349 0.130881
0.879077 0.105980 0.366521
0.877002 0.105224 0.361597
0.874902 0.104545 0.356786
0.877410 0.286586 0.351977
0.875257 0.282476 0.550976
0.068992 0.184088 0.080014
0.069289 0.185410 0.080121
0.070703 0.185826 0.080323
0.073144 0.179776 0.080383
0.077047 0.167528 0.080373
0.085032 0.154826 0.080345
0.099661 0.144837 0.080423
0.138692 0.152160 0.080892
0.183455 0.150246 0.081133
0.268547 0.157332 0.081583
0.379187 0.176269 0.083129
0.468950 0.184296 0.084263
0.533204 0.189921 0.085432
0.593481 0.203313 0.087032
0.652608 0.225653 0.089807
0.686405 0.237352 0.091648
0.718170 0.244746 0.093240
0.750465 0.258010 0.095902
0.778748 0.277821 0.099331
0.796964 0.285099 0.101975
0.813017 0.293139 0.105366
0.827411 0.301302 0.109399
0.840977 0.304937 0.113410
0.848917 0.300644 0.116498
0.854828 0.296824 0.120706
0.859772 0.290587 0.125355
0.865904 0.262570 0.126417
0.868961 0.237248 0.130246
0.877072 0.105410 0.361978
0.875156 0.104639 0.357384
0.873201 0.104005 0.352941
0.875835 0.283691 0.348465
0.873799 0.279414 0.547858
0.070163 0.268560 0.081050
0.070564 0.270370 0.081138
0.072159 0.276067 0.081409
0.074191 0.264068 0.081494
0.079034 0.246971 0.081485
0.087824 0.227522 0.081510
0.105035 0.209950 0.081498
0.131821 0.196030 0.081571
0.157749 0.177275 0.081472
0.218771 0.181147 0.081990
0.325887 0.203896 0.083610
0.406847 0.211767 0.084821
0.482532 0.216505 0.085908
0.555640 0.229483 0.087430
0.617465 0.253493 0.090286
0.660563 0.263341 0.092014
0.693065 0.272113 0.093684
0.726405 0.287470 0.096425
0.759821 0.305401 0.099780
0.783296 0.309250 0.102523
0.801286 0.315338 0.105785
0.817004 0.324826 0.109796
0.831254 0.333760 0.113913
0.843133 0.335616 0.117342
0.849529 0.338788 0.121792
0.855264 0.332173 0.126400
0.861820 0.309214 0.128421
0.865556 0.285402 0.131711
0.874746 0.104968 0.356973
0.873003 0.103976 0.352543
0.871211 0.103380 0.348493
0.873984 0.279798 0.344383
0.872084 0.275847 0.544205
0.070933 0.313112 0.081541
0.071232 0.314418 0.081606
0.072349 0.314368 0.081846
0.074113 0.307338 0.082128
0.078028 0.295486 0.082246
0.085334 0.279002 0.082250
0.098220 0.259894 0.082312
0.120659 0.241807 0.082347
0.150009 0.227636 0.082513
0.190521 0.218459 0.082776
0.282918 0.240139 0.084309
0.357471 0.246448 0.085539
0.429374 0.249549 0.086524
0.507457 0.262008 0.087924
0.582291 0.286052 0.090941
0.628131 0.293679 0.092568
0.667692 0.301104 0.094328
0.702486 0.314225 0.096977
0.737576 0.332288 0.100435
0.766449 0.338747 0.103334
0.786780 0.348023 0.106655
0.804759 0.354971 0.110491
0.820861 0.362042 0.114457
0.835378 0.362165 0.117828
0.844660 0.364185 0.122094
0.850620 0.366333 0.127026
0.857153 0.357989 0.130619
0.861196 0.350846 0.136032
0.872379 0.112590 0.354926
0.870588 0.103518 0.347499
0.868966 0.102734 0.343613
0.871888 0.275443 0.339834
0.870138 0.271847 0.540082
0.071974 0.378030 0.082845
0.072192 0.376862 0.082909
0.073001 0.371844 0.083090
0.074760 0.366662 0.083389
0.078431 0.356458 0.083600
0.085305 0.342791 0.083684
0.096688 0.325770 0.083745
0.117345 0.308249 0.083799
0.144183 0.292230 0.083900
0.179500 0.278405 0.084093
0.253219 0.290354 0.085636
0.317517 0.287732 0.086409
0.382651 0.288028 0.087215
0.464116 0.297582 0.088854
0.544708 0.319241 0.091737
0.594522 0.325579 0.093238
0.638895 0.331610 0.095128
0.678182 0.343747 0.097670
0.714839 0.363542 0.101503
0.744558 0.369784 0.104316
0.772871 0.375606 0.107391
0.791649 0.386679 0.111287
0.808644 0.398478 0.115429
0.824500 0.399567 0.118839
0.837570 0.399273 0.122864
0.845678 0.399735 0.127546
0.852846 0.390271 0.130931
0.857447 0.381724 0.135760
0.862359 0.362889 0.140126
0.865507 0.340257 0.149846
0.868920 0.257579 0.290009
0.869585 0.270724 0.340185
0.867992 0.267494 0.535560
0.073350 0.457870 0.085410
0.073512 0.456268 0.085462
0.074146 0.452058 0.085678
0.076531 0.449833 0.086153
0.080902 0.442369 0.086484
0.087556 0.430783 0.086703
0.101105 0.417200 0.086847
0.122453 0.401514 0.086938
0.149908 0.382584 0.087017
0.186564 0.365298 0.087201
0.237651 0.351064 0.087494
0.292475 0.337199 0.087723
0.345970 0.326460 0.088115
0.418861 0.334576 0.089921
0.504253 0.356291 0.092676
0.563939 0.360799 0.094291
0.606967 0.365190 0.096059
0.654185 0.376762 0.098480
0.692386 0.397220 0.102751
0.722739 0.401551 0.105396
0.752300 0.408067 0.108469
0.777750 0.418257 0.112317
0.796694 0.425337 0.116402
0.813648 0.427335 0.119778
0.827408 0.431945 0.123927
0.838952 0.437838 0.128711
0.847781 0.428901 0.131946
0.853139 0.420344 0.136509
0.858537 0.404256 0.140498
0.862186 0.379151 0.146639
0.866070 0.281425 0.197760
0.867115 0.265737 0.351030
0.865682 0.262886 0.353552
0.074045 0.504498 0.087085
0.074184 0.503108 0.087129
0.075101 0.499198 0.087304
0.077160 0.496658 0.087707
0.081121 0.489959 0.088127
0.087369 0.481328 0.088595
0.099894 0.470172 0.088985
0.119145 0.455527 0.089151
0.144368 0.440127 0.089304
0.176827 0.425066 0.089484
0.222434 0.411178 0.089774
0.278481 0.399064 0.090238
0.323538 0.378427 0.090117
0.382438 0.375204 0.091142
0.470050 0.396494 0.093858
0.526503 0.398990 0.095529
0.578389 0.402366 0.097216
0.624840 0.411382 0.099530
0.670135 0.427350 0.104094
0.700981 0.430299 0.106660
0.731416 0.437488 0.109758
0.761181 0.445631 0.113393
0.783791 0.455368 0.117735
0.801579 0.459496 0.121139
0.817219 0.461537 0.125038
0.830263 0.465483 0.129587
0.842529 0.463536 0.133024
0.848251 0.463113 0.138233
0.854046 0.453151 0.143152
0.858385 0.430916 0.147748
0.862813 0.333850 0.146036
0.864518 0.260591 0.345289
0.863245 0.258102 0.353372
0.074805 0.541429 0.088476
0.075007 0.540570 0.088537
0.075774 0.538034 0.088779
0.077518 0.535058 0.089310
0.081350 0.530776 0.089928
0.087086 0.524029 0.090470
0.097139 0.513722 0.090855
0.114776 0.501113 0.091158
0.137757 0.487084 0.091349
0.166112 0.472092 0.091526
0.205719 0.457689 0.091759
0.257143 0.444373 0.092040
0.308750 0.433323 0.092502
0.362736 0.426135 0.093159
0.433052 0.433005 0.095485
0.494320 0.433986 0.096989
0.549291 0.435529 0.098480
0.597781 0.443771 0.101152
0.647894 0.458845 0.105947
0.680026 0.460931 0.108211
0.711002 0.466711 0.111051
0.741744 0.475707 0.114703
0.770613 0.486532 0.119328
0.789991 0.488279 0.122437
0.806299 0.493881 0.126425
0.820193 0.501515 0.131087
0.834822 0.497266 0.134192
0.843638 0.494785 0.139233
0.849776 0.489999 0.144456
0.854281 0.482968 0.150785
0.858106 0.473951 0.158278
0.861840 0.255557 0.339470
0.860721 0.253317 0.355210
0.075897 0.576659 0.090830
0.076072 0.575921 0.090888
0.076748 0.573667 0.091110
0.078658 0.571202 0.091583
0.082578 0.569893 0.092303
0.087869 0.565139 0.092848
0.097345 0.558842 0.093281
0.114193 0.551214 0.093747
0.135639 0.541990 0.094142
0.162178 0.529223 0.094399
0.198754 0.514554 0.094647
0.247297 0.500635 0.095038
0.297472 0.487803 0.095438
0.348448 0.477002 0.096062
0.414028 0.482168 0.098257
0.467504 0.471494 0.098714
0.518610 0.470083 0.099917
0.573647 0.476992 0.103126
0.622126 0.491548 0.107806
0.660274 0.493419 0.110061
0.691479 0.498273 0.112737
0.722839 0.507162 0.116470
0.752918 0.516564 0.120939
0.777803 0.520311 0.124076
0.795172 0.526631 0.127990
0.810729 0.531918 0.132351
0.825860 0.532569 0.135853
0.836793 0.535400 0.141180
0.845302 0.528971 0.145965
0.850445 0.519970 0.151282
0.854726 0.508621 0.156518
0.857537 0.496416 0.174837
0.859154 0.494589 0.358456
0.077415 0.621128 0.094048
0.077597 0.620498 0.094123
0.078567 0.618526 0.094409
0.080585 0.616128 0.095002
0.084707 0.615752 0.096057
0.090222 0.610971 0.096787
0.100609 0.606299 0.097557
0.117015 0.599522 0.098101
0.138051 0.591195 0.098600
0.164490 0.581679 0.098960
0.201713 0.571556 0.099328
0.249375 0.561243 0.099608
0.298702 0.551372 0.100045
0.347962 0.542440 0.100747
0.398421 0.533601 0.101745
0.448357 0.520577 0.102150
0.494634 0.509518 0.102761
0.548971 0.512709 0.105459
0.599108 0.526314 0.109924
0.638209 0.527203 0.111966
0.672934 0.531546 0.114583
0.704776 0.539260 0.118601
0.735491 0.545453 0.122856
0.763388 0.548721 0.125923
0.784294 0.552216 0.129606
0.800533 0.557949 0.134025
0.816794 0.558755 0.137900
0.829159 0.559040 0.142805
0.840513 0.559085 0.147839
0.846187 0.558560 0.153442
0.851046 0.550328 0.158104
0.854333 0.538464 0.166121
0.856502 0.502129 0.341275
0.078471 0.646281 0.096188
0.078706 0.645854 0.096258
0.079584 0.644488 0.096521
0.081341 0.642683 0.097056
0.084973 0.641811 0.097984
0.090542 0.639513 0.098857
0.100829 0.637199 0.099816
0.115091 0.630615 0.100553
0.134386 0.623349 0.101407
0.159569 0.615155 0.102270
0.192686 0.605650 0.102772
0.235837 0.595775 0.103334
0.285200 0.586210 0.103955
0.333044 0.576946 0.104641
0.380586 0.568695 0.105415
0.432224 0.561466 0.106437
0.479900 0.552411 0.106801
0.526694 0.549041 0.108490
0.578863 0.555373 0.112281
0.616483 0.555592 0.114195
0.655548 0.557767 0.116896
0.687492 0.563274 0.120894
0.718662 0.569120 0.125027
0.747110 0.571701 0.127898
0.773281 0.575724 0.131505
0.790543 0.581482 0.136127
0.807789 0.582395 0.140037
0.820818 0.585331 0.145106
0.833285 0.585321 0.149882
0.842298 0.583100 0.154741
0.847357 0.581652 0.160382
0.850783 0.581945 0.170537
0.853583 0.545338 0.265490
0.079478 0.666918 0.098118
0.079689 0.666547 0.098183
0.080472 0.665342 0.098425
0.082093 0.663650 0.098910
0.085306 0.662469 0.099734
0.091061 0.661447 0.101180
0.099239 0.658262 0.102473
0.113016 0.654550 0.103678
0.131395 0.649931 0.104702
0.154418 0.644167 0.105576
0.184181 0.637572 0.106359
0.223828 0.628653 0.106986
0.273146 0.619418 0.107558
0.317493 0.610347 0.108273
0.364528 0.601762 0.109002
0.413439 0.594087 0.109829
0.466311 0.587425 0.110884
0.511816 0.583284 0.112425
0.564069 0.585072 0.115578
0.596865 0.580838 0.116784
0.635603 0.582704 0.119576
0.671240 0.587508 0.123383
0.702538 0.593103 0.127425
0.731311 0.595240 0.130107
0.758884 0.599470 0.133629
0.780798 0.604490 0.138625
0.798483 0.606822 0.142559
0.812762 0.609062 0.147327
0.826092 0.610491 0.152084
0.836347 0.611743 0.157076
0.843752 0.609557 0.162225
0.847667 0.607292 0.169371
0.850293 0.610851 0.198375
0.080720 0.690450 0.100818
0.080912 0.690131 0.100916
0.081621 0.689082 0.101277
0.083303 0.687547 0.101994
0.086146 0.686260 0.103196
0.092505 0.686386 0.105029
0.099789 0.682821 0.106169
0.113793 0.680406 0.107697
0.130859 0.676187 0.108837
0.152219 0.670928 0.109757
0.180187 0.665108 0.110686
0.217903 0.658637 0.111447
0.266026 0.651906 0.112216
0.309056 0.644891 0.112792
0.355223 0.638270 0.113601
0.401886 0.630671 0.114382
0.452765 0.623429 0.115318
0.498648 0.617257 0.116658
0.549807 0.618254 0.120276
0.583409 0.611204 0.120793
0.616750 0.607750 0.122331
0.656261 0.612161 0.126058
0.687309 0.617269 0.130002
0.716100 0.619026 0.132522
0.744324 0.623207 0.136299
0.771019 0.627915 0.141463
0.789482 0.630439 0.145240
0.804670 0.632980 0.149850
0.818639 0.636251 0.154716
0.830217 0.635882 0.159192
0.839666 0.636814 0.164670
0.844359 0.638875 0.172231
0.847461 0.638678 0.188296
0.082365 0.716755 0.105590
0.082581 0.716488 0.105684
0.083379 0.715602 0.106033
0.084934 0.714267 0.106718
0.087616 0.713024 0.107849
0.093975 0.712887 0.109593
0.102250 0.710576 0.110978
0.115665 0.708354 0.112565
0.131704 0.704588 0.113850
0.153525 0.700494 0.115136
0.181342 0.695289 0.116317
0.218385 0.689392 0.117529
0.264080 0.682892 0.118475
0.307025 0.676273 0.119396
0.351948 0.669641 0.120233
0.398613 0.663458 0.121353
0.447396 0.657646 0.122417
0.493114 0.652272 0.123500
0.536010 0.647817 0.124947
0.572644 0.641981 0.125287
0.604134 0.638101 0.126461
0.639202 0.636922 0.128872
0.673129 0.640545 0.132689
0.701778 0.641716 0.135190
0.730193 0.644428 0.139447
0.757704 0.648059 0.144541
0.780695 0.649822 0.148088
0.796559 0.652485 0.152691
0.811760 0.654318 0.157170
0.823901 0.655673 0.162013
0.834158 0.657177 0.167433
0.841395 0.657575 0.173829
0.844657 0.662229 0.188282
0.082972 0.735654 0.107648
0.083171 0.735415 0.107740
0.083906 0.734612 0.108080
0.085331 0.733361 0.108742
0.087860 0.732066 0.109821
0.093525 0.731490 0.111460
0.101965 0.730315 0.113149
0.113246 0.727550 0.114581
0.129496 0.724905 0.116419
0.149840 0.721286 0.118114
0.173624 0.716347 0.119373
0.207035 0.711024 0.120646
0.250530 0.705185 0.121814
0.294365 0.699025 0.122856
0.338912 0.692823 0.123879
0.383183 0.686649 0.124818
0.430335 0.680904 0.125969
0.478699 0.675650 0.127141
0.519644 0.670765 0.128281
0.562788 0.666744 0.129743
0.593402 0.662317 0.130762
0.627395 0.660691 0.133083
0.660435 0.659918 0.135943
0.688370 0.660475 0.138700
0.716925 0.662834 0.142843
0.744747 0.665997 0.147769
0.771961 0.667733 0.151156
0.788645 0.670449 0.155673
0.804720 0.672501 0.160084
0.817646 0.674407 0.164984
0.828902 0.675739 0.170050
0.836804 0.678184 0.177331
0.842039 0.681736 0.187802
0.083600 0.751594 0.109877
0.083786 0.751431 0.109968
0.084470 0.750881 0.110302
0.085788 0.750003 0.110949
0.088276 0.749033 0.111992
0.093406 0.748417 0.113556
0.102293 0.748277 0.115708
0.112162 0.745958 0.117316
0.128805 0.744665 0.119625
0.145783 0.741456 0.121085
0.169003 0.737820 0.122746
0.201818 0.733232 0.124240
0.241677 0.727720 0.125520
0.285013 0.721886 0.126607
0.327813 0.716030 0.127777
0.371509 0.710175 0.128867
0.416603 0.704409 0.129905
0.465390 0.699048 0.131072
0.506887 0.694268 0.132339
0.548322 0.689829 0.133552
0.583500 0.686177 0.135090
0.616449 0.683732 0.137969
0.651127 0.682678 0.141280
0.676724 0.680007 0.142765
0.704296 0.681000 0.146368
0.732481 0.683881 0.151235
0.760254 0.685510 0.154432
0.781002 0.687824 0.158723
0.797698 0.690318 0.163414
0.811687 0.691942 0.167921
0.823621 0.694318 0.173614
0.832385 0.696203 0.180404
0.838623 0.700629 0.189695
0.084379 0.766647 0.112607
0.084555 0.766511 0.112698
0.085197 0.766046 0.113030
0.086431 0.765296 0.113667
0.089049 0.764435 0.114689
0.093770 0.763798 0.116478
0.102711 0.763938 0.119119
0.112361 0.762080 0.120889
0.126915 0.760445 0.123037
0.144612 0.758183 0.124952
0.167311 0.755605 0.126815
0.196191 0.752077 0.128322
0.234698 0.748353 0.129839
0.278866 0.744241 0.131186
0.320152 0.739665 0.132341
0.362987 0.734094 0.133643
0.407035 0.728530 0.134783
0.454421 0.723208 0.136319
0.496935 0.718208 0.137900
0.538224 0.713842 0.139668
0.574832 0.709819 0.141392
0.606197 0.706478 0.143329
0.640181 0.704751 0.146563
0.668089 0.701997 0.147872
0.693571 0.700316 0.150519
0.720641 0.701469 0.154788
0.748794 0.703147 0.157867
0.773523 0.705202 0.162331
0.790901 0.707626 0.166906
0.805748 0.709401 0.171259
0.818615 0.711700 0.177366
0.828104 0.713999 0.184024
0.834822 0.718750 0.192713
0.084909 0.781590 0.115026
0.085076 0.781473 0.115136
0.085686 0.781071 0.115540
0.086852 0.780412 0.116313
0.089526 0.779627 0.117546
0.093929 0.778968 0.119363
0.102081 0.778847 0.121946
0.112619 0.777845 0.124236
0.125624 0.776026 0.126275
0.144297 0.774525 0.128719
0.163695 0.771672 0.130398
0.193000 0.768820 0.132271
0.230919 0.765570 0.134118
0.272826 0.761615 0.135741
0.312494 0.757519 0.137421
0.354798 0.753371 0.139155
0.398151 0.749256 0.140944
0.444605 0.745224 0.142632
0.488489 0.741381 0.144293
0.528457 0.736980 0.146004
0.567635 0.732978 0.147853
0.597883 0.729386 0.149757
0.629792 0.726373 0.151746
0.659884 0.723451 0.152938
0.685099 0.721397 0.155486
0.710763 0.720454 0.159082
0.737711 0.720456 0.161561
0.764008 0.722251 0.166007
0.784424 0.724523 0.170533
0.799959 0.726451 0.175573
0.813795 0.728539 0.181212
0.823958 0.731218 0.188066
0.831393 0.735167 0.195432
0.084588 0.795659 0.115907
0.084748 0.795550 0.116018
0.085330 0.795174 0.116424
0.086442 0.794544 0.117200
0.088729 0.793756 0.118430
0.092863 0.792997 0.120234
0.099773 0.792578 0.122783
0.111236 0.792127 0.125649
0.122735 0.790157 0.127604
0.140327 0.788724 0.130258
0.159118 0.786173 0.132200
0.187445 0.783661 0.134370
0.219293 0.780306 0.136497
0.262186 0.776882 0.138858
0.303412 0.773156 0.140981
0.344336 0.769150 0.142729
0.385826 0.765179 0.144635
0.430803 0.761281 0.146441
0.477042 0.757548 0.148268
0.516021 0.754029 0.150020
0.556914 0.750804 0.151860
0.587950 0.747962 0.153719
0.619058 0.745540 0.155750
0.651707 0.743520 0.157850
0.676936 0.741567 0.160490
0.702455 0.740425 0.164356
0.728675 0.739382 0.166235
0.753863 0.738964 0.169729
0.777923 0.740944 0.174732
0.794390 0.742456 0.180166
0.809122 0.744079 0.185416
0.820109 0.745826 0.191650
0.828140 0.749019 0.198989
0.084346 0.808065 0.117196
0.084500 0.807973 0.117308
0.085060 0.807653 0.117714
0.086126 0.807111 0.118489
0.088107 0.806418 0.119715
0.092020 0.805716 0.121504
0.097942 0.805236 0.124019
0.110426 0.805333 0.127499
0.120833 0.803420 0.129400
0.136152 0.801819 0.131935
0.156458 0.799986 0.134516
0.180063 0.797324 0.137098
0.212608 0.794511 0.139900
0.254019 0.791347 0.142589
0.293042 0.787771 0.144769
0.334537 0.784108 0.146943
0.376240 0.780357 0.149043
0.420489 0.776581 0.151091
0.467296 0.772928 0.152979
0.505934 0.769469 0.154915
0.545492 0.766257 0.156778
0.579312 0.763357 0.158691
0.609345 0.760765 0.160778
0.641170 0.758655 0.163162
0.669103 0.756897 0.165606
0.694316 0.755392 0.169467
0.720714 0.754695 0.171293
0.745643 0.753611 0.175070
0.771527 0.753531 0.179158
0.788960 0.754876 0.184218
0.804660 0.756521 0.189796
0.816510 0.758149 0.195548
0.825090 0.760917 0.202675
0.083897 0.819765 0.118320
0.084046 0.819687 0.118433
0.084591 0.819417 0.118844
0.085626 0.818957 0.119626
0.087258 0.818357 0.120861
0.090990 0.817722 0.122661
0.096377 0.817227 0.125185
0.107672 0.817138 0.128669
0.119321 0.815969 0.131291
0.133022 0.814324 0.133752
0.154886 0.813067 0.137697
0.175114 0.810404 0.140269
0.208575 0.807986 0.143682
0.244573 0.804816 0.146222
0.286750 0.801633 0.149037
0.326868 0.798180 0.151448
0.366785 0.794607 0.153720
0.409627 0.791004 0.155947
0.455625 0.787439 0.158058
0.496396 0.784049 0.160245
0.535290 0.780864 0.162490
0.571646 0.777953 0.164721
0.601048 0.775319 0.166925
0.631749 0.772994 0.169149
0.661341 0.771150 0.171883
0.686437 0.769622 0.175051
0.712901 0.769098 0.177084
0.738019 0.767752 0.180914
0.764414 0.767371 0.184632
0.783723 0.767088 0.188581
0.800272 0.768420 0.193905
0.813122 0.770027 0.199568
0.822501 0.772517 0.206358
0.081615 0.831683 0.115932
0.081746 0.831623 0.116049
0.082295 0.831414 0.116478
0.083339 0.831048 0.117295
0.084985 0.830545 0.118592
0.087434 0.829956 0.120497
0.092782 0.829372 0.123194
0.102091 0.828941 0.126961
0.115296 0.828266 0.130679
0.127869 0.826887 0.133163
0.146968 0.825639 0.136963
0.168279 0.823985 0.140667
0.197136 0.821742 0.144007
0.234309 0.818836 0.147316
0.276481 0.815630 0.150378
0.314385 0.812261 0.153071
0.356393 0.808843 0.155795
0.398350 0.805351 0.158244
0.442227 0.801864 0.160673
0.485169 0.798521 0.163106
0.523513 0.795381 0.165493
0.563017 0.792482 0.167858
0.592383 0.789867 0.170212
