LUTs/negative-superia-xtra-400/SuperiaXtra400_Classic_Soft.cube
TITLE "Fuji Superia X-tra 400 Classic Soft"
# Adobe RGB in/out. REPLACES AgX. Fuji Superia X-tra 400 Classic Soft.
LUT_3D_SIZE 5
DOMAIN_MIN 0.0 0.0 0.0
DOMAIN_MAX 1.0 1.0 1.0
0.060829 0.068055 0.085817
0.179957 0.078886 0.091228
0.602653 0.102323 0.101493
0.726960 0.124095 0.115932
0.768559 0.172564 0.424498
0.064540 0.127699 0.092726
0.107746 0.146714 0.097486
0.534155 0.174977 0.106590
0.718246 0.222540 0.119826
0.768559 0.172571 0.424495
0.071492 0.453928 0.105136
0.093937 0.485912 0.110875
0.395026 0.499289 0.120934
0.675380 0.518890 0.135722
0.768307 0.531423 0.171220
0.076994 0.653472 0.117872
0.093973 0.661488 0.126200
0.303566 0.670569 0.143394
0.615771 0.673381 0.161777
0.764044 0.684381 0.190396
0.060829 0.728909 0.108216
0.091972 0.755001 0.108253
0.205718 0.760169 0.144564
0.569154 0.756815 0.178071
0.768451 0.761949 0.202502
0.062220 0.076145 0.152629
0.153618 0.086895 0.191677
0.608046 0.109454 0.193186
0.726338 0.131120 0.221336
0.768559 0.172571 0.424536
0.072579 0.127682 0.163168
0.159089 0.160733 0.178930
0.569005 0.187400 0.183213
0.720214 0.235021 0.202021
0.768559 0.172571 0.424496
0.084231 0.447304 0.184982
0.120696 0.468158 0.189557
0.453101 0.488574 0.199061
0.692671 0.517714 0.216624
0.768114 0.535859 0.312200
0.089404 0.650746 0.201831
0.115280 0.656935 0.210893
0.366967 0.665389 0.232020
0.637247 0.670636 0.256763
0.764934 0.684161 0.277051
0.060842 0.734285 0.200537
0.091973 0.759734 0.200532
0.242879 0.759388 0.225970
0.583410 0.756584 0.284939
0.769577 0.762174 0.312977
0.065020 0.094996 0.458238
0.143903 0.109398 0.517587
0.593320 0.135204 0.520833
0.722988 0.175041 0.535477
0.768559 0.172572 0.564238
0.076858 0.161108 0.472549
0.146056 0.183728 0.493395
0.565204 0.229313 0.507635
0.718427 0.284566 0.527875
0.768559 0.172578 0.553923
0.098431 0.454126 0.489220
0.153255 0.470087 0.487320
0.503150 0.503285 0.502476
0.702658 0.526068 0.514093
0.767459 0.550661 0.556281
0.112893 0.650252 0.521547
0.157781 0.654782 0.519185
0.428065 0.662515 0.518151
0.663775 0.669875 0.523522
0.765619 0.686149 0.546598
0.080662 0.753127 0.620328
0.087658 0.760172 0.620327
0.321276 0.757697 0.567373
0.603792 0.756764 0.563838
0.770411 0.763897 0.559373
0.068297 0.130100 0.663721
0.120312 0.159421 0.667904
0.583331 0.200933 0.668882
0.720208 0.248297 0.671168
0.768559 0.172558 0.656864
0.078575 0.217985 0.668358
0.133809 0.252373 0.671259
0.561853 0.303793 0.672126
0.716804 0.349224 0.674139
0.768551 0.172442 0.654392
0.107035 0.483084 0.670273
0.169171 0.497890 0.673231
0.514214 0.522929 0.676710
0.705137 0.541637 0.679620
0.766957 0.569715 0.676953
0.126278 0.655181 0.675883
0.180990 0.659100 0.675782
0.457087 0.666520 0.678430
0.674916 0.674369 0.682354
0.765940 0.691181 0.688445
0.081866 0.754313 0.680309
0.090421 0.762491 0.680459
0.331999 0.760768 0.690832
0.609013 0.760001 0.690002
0.770652 0.767520 0.699376
0.094825 0.200013 0.762846
0.241640 0.213682 0.762937
0.637519 0.256661 0.763443
0.732219 0.283151 0.764685
0.768559 0.222736 0.755874
0.112164 0.281214 0.762663
0.257166 0.295561 0.762772
0.632770 0.333327 0.763322
0.731300 0.359808 0.764553
0.768560 0.239016 0.762518
0.161711 0.507409 0.762464
0.287738 0.513777 0.762693
0.612413 0.529387 0.763338
0.727320 0.540603 0.764527
0.770520 0.566138 0.768595
0.148991 0.661898 0.763876
0.229178 0.663974 0.764103
0.550613 0.668793 0.764735
0.716126 0.674130 0.765832
0.770094 0.692216 0.768564
0.076321 0.749102 0.740467
0.091973 0.763893 0.748742
0.221393 0.771072 0.765329
0.595951 0.767426 0.768808
0.770922 0.772238 0.769917
