LUTs/negative-superia-xtra-400/SuperiaXtra400_Modern_ExtraPunchy.cube
TITLE "Fuji Superia X-tra 400 Modern ExtraPunchy"
# Adobe RGB in/out. REPLACES AgX. Fuji Superia X-tra 400 Modern ExtraPunchy.
LUT_3D_SIZE 5
DOMAIN_MIN 0.0 0.0 0.0
DOMAIN_MAX 1.0 1.0 1.0
0.069662 0.073299 0.081842
0.424321 0.096102 0.080553
0.791578 0.175621 0.092498
0.866761 0.220861 0.120931
0.878372 0.288485 0.557683
0.070933 0.313112 0.081541
0.150009 0.227636 0.082513
0.667692 0.301104 0.094328
0.844660 0.364185 0.122094
0.870138 0.271847 0.540082
0.079478 0.666918 0.098118
0.131395 0.649931 0.104702
0.466311 0.587425 0.110884
0.758884 0.599470 0.133629
0.850293 0.610851 0.198375
0.084346 0.808065 0.117196
0.120833 0.803420 0.129400
0.376240 0.780357 0.149043
0.669103 0.756897 0.165606
0.825090 0.760917 0.202675
0.069662 0.845985 0.091194
0.102155 0.867329 0.090742
0.259710 0.859516 0.138722
0.596142 0.842753 0.179626
0.815480 0.837842 0.205365
0.068095 0.089182 0.319412
0.382058 0.123486 0.429173
0.789725 0.198226 0.371648
0.861371 0.238265 0.378768
0.875295 0.282556 0.551093
0.079605 0.234988 0.268094
0.169289 0.179575 0.169109
0.676791 0.298803 0.259721
0.840315 0.365268 0.310561
0.867055 0.265610 0.533594
0.108739 0.633567 0.322976
0.183727 0.602925 0.283396
0.504269 0.550083 0.233427
0.766644 0.584712 0.268347
0.847391 0.610237 0.376839
0.111975 0.795208 0.311629
0.162839 0.788542 0.310057
0.424412 0.765726 0.299915
0.686705 0.747441 0.297906
0.823592 0.757677 0.309570
0.069662 0.849021 0.249021
0.101411 0.869751 0.242858
0.289291 0.856865 0.264333
0.607814 0.841237 0.312192
0.816196 0.837571 0.323612
0.071611 0.165663 0.704536
0.361423 0.237551 0.753100
0.807500 0.333537 0.748536
0.862535 0.329876 0.694500
0.873917 0.279661 0.679782
0.097153 0.384195 0.705128
0.313996 0.389870 0.691422
0.709894 0.397808 0.659302
0.841161 0.421763 0.650887
0.865172 0.261873 0.650181
0.133139 0.588420 0.611121
0.215920 0.565726 0.573962
0.506896 0.511842 0.510043
0.767136 0.581286 0.560812
0.843685 0.622444 0.610390
0.155845 0.774515 0.620290
0.223978 0.767612 0.603986
0.476361 0.746830 0.567049
0.702675 0.732372 0.545282
0.819564 0.754531 0.568936
0.083241 0.861537 0.681537
0.093017 0.864313 0.675579
0.347330 0.850598 0.603823
0.631488 0.838297 0.585909
0.815915 0.838048 0.569930
0.076391 0.324303 0.858903
0.297146 0.396586 0.861419
0.803769 0.473206 0.862006
0.872004 0.457206 0.830162
0.877483 0.286795 0.771822
0.108098 0.497452 0.861691
0.339762 0.541972 0.863431
0.761151 0.549448 0.845011
0.852030 0.520149 0.805719
0.868459 0.268220 0.756382
0.154446 0.622684 0.782649
0.266075 0.620133 0.773879
0.594647 0.612785 0.756871
0.784769 0.625028 0.749815
0.844881 0.648990 0.738352
0.168820 0.762124 0.755076
0.244101 0.757509 0.744836
0.490852 0.741572 0.721811
0.701277 0.723551 0.701757
0.817500 0.758089 0.717773
0.083897 0.854878 0.732201
0.095295 0.859460 0.728299
0.347051 0.848345 0.728725
0.633842 0.838062 0.716396
0.815054 0.840379 0.720871
0.184463 0.471876 0.922768
0.522122 0.491406 0.922828
0.850624 0.545692 0.923162
0.890448 0.519616 0.907828
0.882236 0.365214 0.869856
0.267937 0.567765 0.922647
0.537300 0.581180 0.922719
0.845296 0.613078 0.921132
0.874039 0.557261 0.896114
0.873502 0.363541 0.866700
0.303981 0.682592 0.889801
0.451298 0.678437 0.885521
0.735211 0.667940 0.872249
0.829691 0.652457 0.858000
0.852188 0.654860 0.847787
0.199096 0.765300 0.845246
0.299169 0.761976 0.841890
0.598089 0.752563 0.832870
0.771993 0.746489 0.822863
0.825634 0.763816 0.821258
0.076915 0.842749 0.793354
0.095895 0.854549 0.801718
0.252104 0.854140 0.816188
0.612960 0.843011 0.812874
0.814858 0.844908 0.811001
