LUTs/negative-superia-xtra-400/SuperiaXtra400_Classic_ExtraPunchy.cube
TITLE "Fuji Superia X-tra 400 Classic ExtraPunchy"
# Adobe RGB in/out. REPLACES AgX. Fuji Superia X-tra 400 Classic ExtraPunchy.
LUT_3D_SIZE 9
DOMAIN_MIN 0.0 0.0 0.0
DOMAIN_MAX 1.0 1.0 1.0
0.069662 0.073299 0.081842
0.079309 0.073484 0.078448
0.192545 0.081652 0.078834
0.448095 0.093052 0.080437
0.617542 0.110348 0.082499
0.706563 0.129926 0.086858
0.766592 0.140658 0.093681
0.805557 0.091290 0.232512
0.812338 0.191464 0.425644
0.067973 0.086622 0.078089
0.074083 0.089913 0.078528
0.169637 0.093215 0.079458
0.408330 0.106305 0.080862
0.600096 0.125160 0.083090
0.701155 0.146729 0.087462
0.764666 0.156102 0.094297
0.805558 0.091302 0.232542
0.812338 0.191472 0.425642
0.068345 0.146948 0.079328
0.072314 0.160783 0.080027
0.113295 0.166671 0.080930
0.309572 0.175481 0.082505
0.542268 0.194276 0.085737
0.674847 0.223459 0.090727
0.753546 0.239191 0.097706
0.805940 0.096468 0.236199
0.812338 0.191473 0.425641
0.070345 0.287586 0.081229
0.073225 0.303367 0.081738
0.097863 0.329909 0.083857
0.224169 0.333191 0.086641
0.455542 0.343341 0.090841
0.630999 0.361949 0.096468
0.732136 0.384285 0.105182
0.790491 0.384733 0.116929
0.812339 0.191572 0.269433
0.072799 0.453100 0.084552
0.074899 0.462968 0.085808
0.094448 0.491041 0.089309
0.185693 0.505374 0.093532
0.379775 0.507046 0.098589
0.577857 0.515627 0.106745
0.701761 0.530637 0.116357
0.781318 0.542048 0.128704
0.812069 0.546288 0.160427
0.074854 0.591138 0.090056
0.077001 0.595721 0.091404
0.095100 0.614361 0.096457
0.166566 0.627849 0.103405
0.336352 0.632629 0.111541
0.526179 0.634711 0.120264
0.668706 0.640557 0.131024
0.767504 0.648930 0.144527
0.809615 0.660697 0.164338
0.076321 0.690191 0.095724
0.078457 0.692620 0.097244
0.094491 0.702925 0.104477
0.156670 0.712752 0.114543
0.305497 0.717446 0.125617
0.487479 0.719101 0.135998
0.635351 0.721962 0.148746
0.746489 0.728182 0.163485
0.807523 0.739720 0.184687
0.073197 0.776399 0.094144
0.074261 0.776406 0.095630
0.089456 0.777671 0.107174
0.144322 0.781028 0.121558
0.279113 0.782395 0.135846
0.454276 0.782500 0.151560
0.605485 0.783442 0.166156
0.724349 0.787024 0.183430
0.807275 0.793037 0.205426
0.069662 0.796444 0.087064
0.069662 0.796447 0.087065
0.092136 0.828015 0.087095
0.092138 0.829032 0.106159
0.223517 0.832923 0.127046
0.411257 0.830633 0.149202
0.578880 0.829738 0.168138
0.698351 0.831008 0.186872
0.812222 0.834613 0.201846
0.069662 0.072580 0.084797
0.073881 0.075689 0.087424
0.174141 0.084077 0.088726
0.465690 0.096323 0.090543
0.624382 0.112660 0.090790
0.707662 0.132522 0.093593
0.766427 0.143127 0.100772
0.805558 0.091301 0.232546
0.812338 0.191472 0.425646
0.068468 0.086628 0.086319
0.082090 0.093297 0.089705
0.173085 0.096575 0.088325
0.427319 0.110294 0.091092
0.610119 0.128331 0.091831
0.702968 0.149215 0.094685
0.764620 0.158446 0.101506
0.805560 0.091319 0.232594
0.812338 0.191473 0.425642
0.070914 0.144214 0.088392
0.075880 0.153112 0.089242
0.134309 0.161856 0.090842
0.348259 0.177343 0.093850
0.561712 0.198527 0.095930
0.680483 0.225641 0.099014
0.754557 0.241014 0.106786
0.806050 0.098160 0.237812
0.812338 0.191473 0.425641
0.073191 0.282496 0.091653
0.076738 0.294697 0.092909
0.112696 0.317095 0.096024
0.258545 0.325649 0.099281
0.480814 0.341869 0.103463
0.641222 0.362389 0.108066
0.735348 0.384336 0.115661
0.790655 0.385600 0.126891
0.812339 0.191503 0.425637
0.074979 0.447765 0.094364
0.078178 0.456648 0.096212
0.104358 0.481413 0.101192
0.205553 0.496277 0.107998
0.401617 0.501518 0.114487
0.588130 0.513083 0.120492
0.706882 0.529419 0.128718
0.782186 0.541482 0.139967
0.812026 0.547412 0.182833
0.076891 0.587836 0.098701
0.079950 0.592271 0.100455
0.101928 0.609549 0.108543
0.179487 0.622696 0.117104
0.350568 0.628453 0.126135
0.538587 0.631952 0.134956
0.674158 0.639352 0.145705
0.770160 0.648167 0.158022
0.809665 0.660854 0.178596
0.078097 0.688649 0.105072
0.080831 0.690998 0.107363
0.099053 0.700775 0.115999
0.164406 0.710256 0.127666
0.316368 0.715163 0.139419
0.496028 0.717358 0.152187
0.641730 0.720725 0.165203
0.749908 0.727428 0.180439
0.807756 0.739604 0.200733
0.073988 0.775200 0.099705
0.075588 0.775326 0.102164
0.092453 0.776758 0.117383
0.149814 0.779998 0.133317
0.286655 0.781452 0.150865
0.461896 0.781750 0.167096
0.609885 0.782925 0.184874
0.727653 0.786660 0.203367
0.807676 0.792930 0.222655
0.069662 0.803305 0.199168
0.069662 0.803308 0.199170
0.092136 0.832510 0.199172
0.092139 0.832509 0.199153
0.228196 0.832867 0.138544
0.415579 0.830561 0.164106
0.581248 0.829718 0.187220
0.700269 0.831034 0.207084
0.812669 0.834653 0.220552
0.067770 0.078358 0.136529
0.077192 0.083095 0.200047
0.163930 0.089461 0.186499
0.456203 0.102550 0.185375
0.624849 0.121243 0.188641
0.708010 0.142929 0.203728
0.765658 0.153078 0.225363
0.805765 0.093845 0.255720
0.812338 0.191473 0.425679
0.069232 0.091392 0.143158
0.078237 0.095232 0.154858
0.165912 0.102108 0.162845
0.429618 0.117118 0.171433
0.614633 0.138592 0.179883
0.704463 0.159237 0.195819
0.764144 0.168058 0.213693
0.805844 0.095154 0.258935
0.812338 0.191473 0.425648
0.073393 0.146918 0.150634
0.080307 0.153522 0.149697
0.169289 0.179575 0.169109
0.371117 0.182761 0.164218
0.578748 0.208490 0.174629
0.688573 0.235918 0.190599
0.756485 0.250525 0.201207
0.805251 0.141713 0.271166
0.812338 0.191473 0.425642
0.078012 0.281142 0.164873
0.084761 0.289989 0.165137
0.136151 0.307910 0.166761
0.303914 0.320736 0.170612
0.519963 0.343870 0.182309
0.660949 0.368505 0.196801
0.742054 0.388863 0.205286
0.791157 0.390220 0.230631
0.812338 0.191477 0.425647
0.083476 0.445301 0.177090
0.089237 0.451785 0.178748
0.130128 0.469922 0.183503
0.257750 0.484458 0.189545
0.452140 0.494220 0.197053
0.617828 0.510706 0.211324
0.719805 0.529218 0.219964
0.784627 0.540748 0.239802
0.811863 0.551779 0.319121
0.087624 0.584970 0.193516
0.093395 0.588464 0.195525
0.128823 0.601250 0.202631
0.226214 0.612814 0.211190
0.397106 0.620187 0.220331
0.573403 0.626494 0.230916
0.691856 0.637002 0.240819
0.775646 0.646347 0.260180
0.809834 0.661568 0.269769
0.089125 0.685880 0.200956
0.093846 0.687890 0.203455
0.123430 0.695682 0.213056
0.202175 0.703837 0.225257
0.356902 0.709151 0.238062
0.528562 0.712784 0.251256
0.661973 0.717554 0.265200
0.760835 0.725191 0.284623
0.808473 0.739363 0.286520
0.083895 0.768908 0.210837
0.086766 0.769627 0.214045
0.113237 0.772682 0.230221
0.179502 0.776032 0.246978
0.322462 0.777976 0.263596
0.490354 0.779032 0.279189
0.629177 0.781075 0.295098
0.740515 0.785346 0.309575
0.808793 0.792632 0.309650
0.069662 0.803309 0.199184
0.092135 0.832509 0.199181
0.092136 0.832510 0.199177
0.092164 0.832512 0.199181
0.255912 0.832181 0.230834
0.436156 0.830100 0.270454
0.591855 0.829519 0.294818
0.708680 0.831041 0.312583
0.813424 0.834826 0.319757
0.067961 0.087165 0.291627
0.073805 0.093117 0.364932
0.162818 0.101742 0.390893
0.428951 0.114190 0.386040
0.616396 0.136305 0.391478
0.704619 0.158732 0.402012
0.763502 0.170307 0.422593
0.800242 0.135788 0.470451
0.812338 0.191473 0.474177
0.069606 0.100693 0.304139
0.076178 0.106695 0.333462
0.165648 0.115908 0.367322
0.410780 0.130688 0.368790
0.608083 0.154141 0.378827
0.701595 0.174280 0.392224
0.762126 0.184692 0.415333
0.799678 0.148481 0.466298
0.812338 0.191473 0.474696
0.075163 0.162363 0.314006
0.083038 0.168528 0.314391
0.160325 0.180518 0.327735
0.370409 0.195658 0.337978
0.580205 0.222925 0.353430
0.688769 0.251646 0.368776
0.755674 0.268192 0.391833
0.795168 0.253557 0.439016
0.812338 0.191473 0.476584
0.082860 0.287378 0.325791
0.091170 0.294549 0.324243
0.150282 0.311285 0.324429
0.344144 0.345575 0.347957
0.535254 0.352027 0.345125
0.667105 0.377485 0.358227
0.744375 0.398720 0.374605
0.790851 0.403350 0.407551
0.812339 0.191506 0.477150
0.092349 0.446971 0.346711
0.101310 0.452130 0.345745
0.150625 0.467489 0.345225
0.291492 0.481792 0.346992
0.483509 0.493973 0.352076
0.634289 0.512885 0.363381
0.727185 0.532300 0.375756
0.785660 0.543834 0.393269
0.811563 0.559711 0.469436
0.100980 0.584123 0.364702
0.109643 0.587063 0.364499
0.152013 0.597635 0.365165
0.267554 0.608144 0.366912
0.434752 0.616384 0.370916
0.595334 0.624406 0.377256
0.704539 0.636405 0.387993
0.778804 0.646254 0.399353
0.809879 0.663925 0.437464
0.105121 0.684482 0.384044
0.112261 0.686182 0.384141
0.148120 0.692608 0.385608
0.243733 0.699834 0.388269
0.394452 0.705325 0.392424
0.560722 0.709937 0.398427
0.678340 0.715780 0.405197
0.769238 0.724225 0.413308
0.809008 0.740149 0.427574
0.096374 0.766721 0.408433
0.102330 0.767473 0.408348
0.135266 0.770425 0.409454
0.212632 0.773466 0.411256
0.355933 0.775663 0.414604
0.517211 0.777318 0.419283
0.648770 0.779965 0.425403
0.752326 0.784682 0.432514
0.809730 0.792961 0.436312
0.076188 0.821060 0.491901
0.092131 0.835196 0.491901
0.092136 0.835199 0.491899
0.134654 0.837370 0.425897
0.296053 0.830770 0.447188
0.466095 0.829434 0.449336
0.607296 0.829341 0.454809
0.720697 0.831101 0.462416
0.813955 0.835324 0.460206
0.068591 0.100541 0.458186
0.072028 0.105377 0.484798
0.155110 0.121146 0.523875
0.408129 0.137274 0.525312
0.604947 0.158251 0.527197
0.699981 0.179893 0.533459
0.760636 0.194351 0.542191
0.796937 0.173379 0.555429
0.812338 0.191474 0.573037
0.069961 0.113100 0.465401
0.073981 0.119883 0.483535
0.156415 0.137983 0.518564
0.396266 0.154841 0.521537
0.598082 0.174691 0.524194
0.697278 0.196884 0.531155
0.759380 0.212263 0.540563
0.796498 0.187042 0.554509
0.812338 0.191474 0.570247
0.076217 0.179919 0.475089
0.083224 0.185634 0.478893
0.157072 0.204484 0.500288
0.368561 0.222193 0.509735
0.575387 0.245353 0.514630
0.686422 0.275322 0.523284
0.753815 0.292835 0.534407
0.793688 0.288622 0.550217
0.812338 0.191481 0.561359
0.086642 0.307472 0.483202
0.095968 0.313738 0.482556
0.159114 0.331632 0.487182
0.339770 0.348561 0.496163
0.538657 0.367162 0.504133
0.668518 0.393466 0.514275
0.744226 0.413185 0.525664
0.790206 0.420053 0.542898
0.813602 0.354690 0.561439
0.100143 0.453333 0.495178
0.111423 0.458103 0.493913
0.163602 0.472210 0.492855
0.309988 0.486886 0.495301
0.506896 0.511842 0.510043
0.642638 0.520591 0.510869
0.730375 0.539673 0.520363
0.785832 0.550842 0.534300
0.811165 0.570165 0.564026
0.113991 0.586583 0.512140
0.123921 0.589177 0.511339
0.170067 0.598499 0.509831
0.292672 0.608457 0.509415
0.461740 0.617340 0.511241
0.609646 0.626346 0.514748
0.711958 0.638517 0.522123
0.780509 0.648724 0.531037
0.809747 0.668128 0.559551
0.120311 0.685102 0.527928
0.128633 0.686638 0.527235
0.167961 0.692267 0.525511
0.275744 0.698926 0.524177
0.423483 0.704563 0.524452
0.578226 0.709794 0.526427
0.689651 0.716333 0.529950
0.773666 0.725077 0.535462
0.809202 0.742149 0.553580
0.110529 0.766660 0.550498
0.117537 0.767315 0.549530
0.154044 0.769796 0.546508
0.242921 0.772604 0.543568
0.382338 0.774878 0.541986
0.539644 0.776934 0.542315
0.662302 0.780020 0.544350
0.760888 0.785132 0.547592
0.810268 0.794311 0.552585
0.079635 0.826234 0.631830
0.081767 0.828235 0.631829
0.086982 0.832926 0.631828
0.166180 0.832464 0.584956
0.317859 0.830576 0.576571
0.483294 0.829578 0.573043
0.619084 0.829690 0.572584
0.729827 0.831640 0.575367
0.814313 0.836461 0.567526
0.069496 0.120575 0.588002
0.071795 0.123335 0.597355
0.147622 0.149601 0.612089
0.386149 0.165895 0.613425
0.596250 0.185128 0.615079
0.695464 0.209059 0.617698
0.757786 0.227013 0.621097
0.795032 0.213375 0.623683
0.812338 0.191474 0.615565
0.070713 0.134128 0.590835
0.073228 0.138511 0.598211
0.148678 0.164773 0.611759
0.378610 0.180532 0.613339
0.590911 0.203004 0.615146
0.693109 0.227245 0.617786
0.756685 0.245674 0.621350
0.794645 0.230867 0.624046
0.812338 0.191474 0.615565
0.077062 0.206224 0.596960
0.082543 0.211531 0.599749
0.154536 0.235267 0.609497
0.361445 0.255022 0.612610
0.572118 0.278986 0.614930
0.683820 0.302097 0.617927
0.751960 0.320255 0.622123
0.792485 0.321707 0.625866
0.812338 0.191481 0.615564
0.089458 0.330396 0.599134
0.097935 0.335511 0.599754
0.163412 0.355516 0.605200
0.342628 0.373702 0.610146
0.542021 0.392966 0.613477
0.668479 0.412362 0.617070
0.743670 0.430889 0.622316
0.789566 0.440214 0.627924
0.813073 0.407242 0.618640
0.107610 0.468929 0.602935
0.118578 0.472921 0.602759
0.175534 0.487662 0.604332
0.323964 0.502694 0.607727
0.508823 0.517040 0.611667
0.646911 0.533082 0.615539
0.731863 0.548645 0.621551
0.785846 0.560541 0.628986
0.810791 0.582153 0.632980
0.123413 0.592045 0.609947
0.133566 0.594549 0.609465
0.184453 0.603256 0.608812
0.308889 0.612999 0.609585
0.476858 0.622249 0.612174
0.621068 0.635521 0.617920
0.716287 0.642909 0.621295
0.781436 0.653405 0.628697
0.809635 0.673728 0.638568
0.131049 0.687898 0.621099
0.140220 0.689291 0.620482
0.184340 0.694455 0.618995
0.294339 0.700784 0.617994
0.443425 0.706523 0.618603
0.589861 0.712088 0.620580
0.696787 0.719037 0.623681
0.775936 0.727957 0.629041
0.809307 0.745032 0.641650
0.119812 0.768302 0.638442
0.127323 0.768894 0.637615
0.165987 0.771085 0.634775
0.263632 0.773634 0.631853
0.400404 0.775898 0.630138
0.555306 0.778172 0.630109
0.670866 0.781516 0.631540
0.766076 0.786826 0.634029
0.810527 0.796542 0.642106
0.081046 0.827541 0.658924
0.083030 0.829290 0.660397
0.087299 0.833238 0.666010
0.172536 0.833424 0.661152
0.328278 0.831442 0.654506
0.491928 0.830551 0.651293
0.625700 0.830832 0.650468
0.735062 0.832836 0.651802
0.814449 0.837948 0.650755
0.070706 0.151241 0.682949
0.072481 0.152557 0.687653
0.129670 0.178373 0.686885
0.373815 0.196455 0.686820
0.591750 0.220233 0.687805
0.693416 0.244987 0.688899
0.756476 0.262481 0.689955
0.793994 0.253708 0.688950
0.812338 0.191458 0.674664
0.071700 0.163804 0.684080
0.073506 0.165831 0.687896
0.132778 0.192635 0.687683
0.368895 0.213062 0.687571
0.587589 0.237243 0.688508
0.691517 0.263142 0.689552
0.755491 0.281270 0.690588
0.793657 0.272712 0.689619
0.812337 0.191452 0.674122
0.077549 0.235031 0.687312
0.082024 0.239070 0.688991
0.145848 0.265861 0.690041
0.357775 0.287105 0.690050
0.572421 0.308595 0.690856
0.683787 0.330846 0.691775
0.751393 0.348320 0.692819
0.791917 0.352897 0.692412
0.812330 0.191323 0.671652
0.091586 0.357160 0.688616
0.099435 0.361234 0.689573
0.162275 0.380995 0.691704
0.345638 0.400312 0.692658
0.547397 0.416779 0.693586
0.670680 0.434252 0.694719
0.744298 0.449841 0.695916
0.789470 0.460181 0.696306
0.812123 0.461127 0.687376
0.112281 0.487668 0.689113
0.122914 0.491120 0.689693
0.180487 0.505369 0.691895
0.333589 0.520815 0.693935
0.518238 0.535519 0.695616
0.653055 0.547422 0.697114
0.734045 0.558943 0.698781
0.786284 0.570839 0.700376
0.810630 0.593979 0.695880
0.130328 0.601903 0.690653
0.140646 0.604129 0.690864
0.193554 0.612595 0.692120
0.322293 0.622628 0.694282
0.489726 0.631916 0.696630
0.627145 0.640478 0.698774
0.720192 0.648848 0.701006
0.782439 0.659015 0.703659
0.809705 0.679578 0.702641
0.136968 0.692899 0.694716
0.146725 0.694244 0.694597
0.193701 0.699123 0.694606
0.305630 0.705183 0.695513
0.456725 0.710959 0.697487
0.597892 0.716635 0.699769
0.701277 0.723551 0.701757
0.777628 0.732273 0.705678
0.809545 0.748510 0.708387
0.121879 0.772082 0.703255
0.129594 0.772597 0.702870
0.170485 0.774451 0.701528
0.271872 0.776720 0.700569
0.409481 0.778835 0.700683
0.563428 0.781078 0.701865
0.675909 0.784490 0.703890
0.768826 0.789740 0.706552
0.810765 0.799507 0.712653
0.080867 0.827361 0.699531
0.084712 0.830762 0.699537
0.090315 0.835127 0.699694
0.161127 0.836513 0.714812
0.325175 0.833492 0.710987
0.491558 0.832490 0.709910
0.626161 0.832763 0.710084
0.735366 0.834776 0.711323
0.814570 0.839898 0.720296
0.072532 0.185083 0.751698
0.073870 0.185912 0.751699
0.138224 0.208777 0.747708
0.391908 0.229202 0.747471
0.601501 0.253381 0.748141
0.698136 0.278010 0.748973
0.758659 0.292662 0.749553
0.795084 0.281761 0.750032
0.812465 0.209448 0.730602
0.073315 0.198480 0.751997
0.074979 0.200008 0.752016
0.142529 0.223897 0.748505
0.387627 0.245375 0.748197
0.598347 0.269951 0.748793
0.696735 0.293565 0.749575
0.757952 0.307945 0.750147
0.794792 0.298604 0.750592
0.812507 0.215210 0.730602
0.080725 0.275768 0.753114
0.084908 0.278447 0.753102
0.161278 0.299091 0.751136
0.377478 0.317014 0.750685
0.585633 0.337331 0.751051
0.690478 0.358525 0.751677
0.754677 0.374312 0.752265
0.793324 0.374124 0.752660
0.812966 0.279905 0.730602
0.095396 0.386041 0.754707
0.104082 0.388999 0.754889
0.179708 0.406276 0.754159
0.365492 0.420317 0.753774
0.566958 0.435740 0.754005
0.680014 0.452354 0.754570
0.749235 0.466612 0.755283
0.791336 0.474143 0.755764
0.812286 0.482821 0.747365
0.117820 0.507363 0.755684
0.128002 0.510057 0.756114
0.196492 0.523666 0.756540
0.353472 0.537408 0.756739
0.539507 0.547467 0.757148
0.664654 0.558307 0.757782
0.740903 0.568878 0.758530
0.788730 0.578191 0.759110
0.811149 0.602690 0.754197
0.135177 0.613214 0.755882
0.145610 0.615108 0.756491
0.206219 0.623536 0.757884
0.338988 0.632421 0.758835
0.508166 0.640165 0.759475
0.642294 0.647466 0.760212
0.728555 0.655138 0.760996
0.785490 0.663426 0.761837
0.810451 0.684535 0.759352
0.139734 0.699656 0.755076
0.149171 0.700857 0.755654
0.201026 0.705761 0.757544
0.315287 0.711371 0.759495
0.471861 0.716668 0.760940
0.609923 0.722117 0.762117
0.709686 0.728550 0.763181
0.780957 0.736419 0.764526
0.810333 0.751717 0.763057
0.114242 0.779109 0.755944
0.122244 0.779423 0.756070
0.164736 0.780413 0.756651
0.269103 0.781904 0.758445
0.411125 0.783476 0.760616
0.566962 0.785495 0.762734
0.679929 0.788703 0.764577
0.769238 0.792026 0.764623
0.811290 0.802774 0.766686
0.078852 0.825547 0.742206
0.089953 0.834972 0.742906
0.092007 0.836367 0.747726
0.146196 0.839577 0.756268
0.302624 0.837266 0.756839
0.479270 0.835747 0.758373
0.618614 0.835759 0.760005
0.729271 0.837562 0.761451
0.814699 0.842239 0.772602
0.095497 0.219441 0.801795
0.107179 0.221775 0.801821
0.254833 0.231143 0.801915
0.542499 0.248586 0.802175
0.662257 0.269405 0.802572
0.725433 0.287277 0.803080
0.773593 0.291667 0.804188
0.801198 0.254293 0.806273
0.812338 0.239370 0.792738
0.098948 0.230228 0.801789
0.111299 0.232698 0.801814
0.256159 0.243111 0.801906
0.540057 0.261070 0.802167
0.661357 0.282320 0.802562
0.724981 0.298973 0.803078
0.773432 0.303455 0.804169
0.801053 0.265735 0.806238
0.812338 0.254081 0.801369
0.119363 0.290066 0.801558
0.132848 0.292451 0.801589
0.268289 0.301872 0.801699
0.529989 0.317812 0.801997
0.657303 0.336343 0.802415
0.722903 0.352855 0.802984
0.772614 0.358324 0.804016
0.800321 0.326041 0.805963
0.812339 0.254134 0.801370
0.151611 0.401534 0.801224
0.166097 0.403312 0.801274
0.284985 0.409961 0.801445
0.512458 0.421154 0.801796
0.647702 0.434356 0.802245
0.718376 0.446823 0.802846
0.770752 0.453174 0.803858
0.799110 0.443177 0.805526
0.814224 0.483848 0.807749
0.172169 0.516799 0.801298
0.189200 0.518325 0.801367
0.291910 0.524468 0.801597
0.487718 0.534512 0.801932
0.630780 0.543771 0.802435
0.711127 0.552079 0.803063
0.767132 0.557660 0.803983
0.798056 0.557158 0.805535
0.814430 0.589496 0.809278
0.176895 0.617809 0.801904
0.192727 0.618793 0.801986
0.283549 0.622851 0.802247
0.451196 0.629122 0.802616
0.604132 0.636174 0.803091
0.698803 0.642030 0.803706
0.761332 0.646543 0.804530
0.796603 0.648624 0.805859
0.813993 0.679499 0.808909
0.159740 0.703578 0.803136
0.171393 0.704221 0.803213
0.243923 0.706891 0.803431
0.390714 0.710628 0.803773
0.562456 0.714599 0.804253
0.675028 0.719114 0.804840
0.750381 0.723167 0.805681
0.794393 0.725349 0.806789
0.813975 0.749820 0.809238
0.108614 0.782328 0.804514
0.115840 0.782573 0.804766
0.156892 0.783477 0.805189
0.284628 0.784221 0.805490
0.461970 0.784848 0.805997
0.615886 0.786370 0.806586
0.721415 0.789059 0.807302
0.788569 0.790699 0.808271
0.814296 0.802744 0.810013
0.075807 0.822272 0.772793
0.092136 0.836458 0.783494
0.092136 0.836458 0.783494
0.104136 0.837353 0.783519
0.237139 0.843265 0.805026
0.446776 0.840348 0.808679
0.608492 0.839809 0.809556
0.726843 0.841472 0.810376
0.814858 0.844908 0.811001
