LUTs/negative-superia-xtra-400/SuperiaXtra400_Classic_ExtraPunchy.cube
TITLE "Fuji Superia X-tra 400 Classic ExtraPunchy"
# Adobe RGB in/out. REPLACES AgX. Fuji Superia X-tra 400 Classic ExtraPunchy.
LUT_3D_SIZE 5
DOMAIN_MIN 0.0 0.0 0.0
DOMAIN_MAX 1.0 1.0 1.0
0.069662 0.073299 0.081842
0.192545 0.081652 0.078834
0.617542 0.110348 0.082499
0.766592 0.140658 0.093681
0.812338 0.191464 0.425644
0.068345 0.146948 0.079328
0.113295 0.166671 0.080930
0.542268 0.194276 0.085737
0.753546 0.239191 0.097706
0.812338 0.191473 0.425641
0.072799 0.453100 0.084552
0.094448 0.491041 0.089309
0.379775 0.507046 0.098589
0.701761 0.530637 0.116357
0.812069 0.546288 0.160427
0.076321 0.690191 0.095724
0.094491 0.702925 0.104477
0.305497 0.717446 0.125617
0.635351 0.721962 0.148746
0.807523 0.739720 0.184687
0.069662 0.796444 0.087064
0.092136 0.828015 0.087095
0.223517 0.832923 0.127046
0.578880 0.829738 0.168138
0.812222 0.834613 0.201846
0.067770 0.078358 0.136529
0.163930 0.089461 0.186499
0.624849 0.121243 0.188641
0.765658 0.153078 0.225363
0.812338 0.191473 0.425679
0.073393 0.146918 0.150634
0.169289 0.179575 0.169109
0.578748 0.208490 0.174629
0.756485 0.250525 0.201207
0.812338 0.191473 0.425642
0.083476 0.445301 0.177090
0.130128 0.469922 0.183503
0.452140 0.494220 0.197053
0.719805 0.529218 0.219964
0.811863 0.551779 0.319121
0.089125 0.685880 0.200956
0.123430 0.695682 0.213056
0.356902 0.709151 0.238062
0.661973 0.717554 0.265200
0.808473 0.739363 0.286520
0.069662 0.803309 0.199184
0.092136 0.832510 0.199177
0.255912 0.832181 0.230834
0.591855 0.829519 0.294818
0.813424 0.834826 0.319757
0.068591 0.100541 0.458186
0.155110 0.121146 0.523875
0.604947 0.158251 0.527197
0.760636 0.194351 0.542191
0.812338 0.191474 0.573037
0.076217 0.179919 0.475089
0.157072 0.204484 0.500288
0.575387 0.245353 0.514630
0.753815 0.292835 0.534407
0.812338 0.191481 0.561359
0.100143 0.453333 0.495178
0.163602 0.472210 0.492855
0.506896 0.511842 0.510043
0.730375 0.539673 0.520363
0.811165 0.570165 0.564026
0.120311 0.685102 0.527928
0.167961 0.692267 0.525511
0.423483 0.704563 0.524452
0.689651 0.716333 0.529950
0.809202 0.742149 0.553580
0.079635 0.826234 0.631830
0.086982 0.832926 0.631828
0.317859 0.830576 0.576571
0.619084 0.829690 0.572584
0.814313 0.836461 0.567526
0.070706 0.151241 0.682949
0.129670 0.178373 0.686885
0.591750 0.220233 0.687805
0.756476 0.262481 0.689955
0.812338 0.191458 0.674664
0.077549 0.235031 0.687312
0.145848 0.265861 0.690041
0.572421 0.308595 0.690856
0.751393 0.348320 0.692819
0.812330 0.191323 0.671652
0.112281 0.487668 0.689113
0.180487 0.505369 0.691895
0.518238 0.535519 0.695616
0.734045 0.558943 0.698781
0.810630 0.593979 0.695880
0.136968 0.692899 0.694716
0.193701 0.699123 0.694606
0.456725 0.710959 0.697487
0.701277 0.723551 0.701757
0.809545 0.748510 0.708387
0.080867 0.827361 0.699531
0.090315 0.835127 0.699694
0.325175 0.833492 0.710987
0.626161 0.832763 0.710084
0.814570 0.839898 0.720296
0.095497 0.219441 0.801795
0.254833 0.231143 0.801915
0.662257 0.269405 0.802572
0.773593 0.291667 0.804188
0.812338 0.239370 0.792738
0.119363 0.290066 0.801558
0.268289 0.301872 0.801699
0.657303 0.336343 0.802415
0.772614 0.358324 0.804016
0.812339 0.254134 0.801370
0.172169 0.516799 0.801298
0.291910 0.524468 0.801597
0.630780 0.543771 0.802435
0.767132 0.557660 0.803983
0.814430 0.589496 0.809278
0.159740 0.703578 0.803136
0.243923 0.706891 0.803431
0.562456 0.714599 0.804253
0.750381 0.723167 0.805681
0.813975 0.749820 0.809238
0.075807 0.822272 0.772793
0.092136 0.836458 0.783494
0.237139 0.843265 0.805026
0.608492 0.839809 0.809556
0.814858 0.844908 0.811001
