LUTs/negative-superia-xtra-400/SuperiaXtra400_Classic_ExtraSoft.cube
TITLE "Fuji Superia X-tra 400 Classic ExtraSoft"
# Adobe RGB in/out. REPLACES AgX. Fuji Superia X-tra 400 Classic ExtraSoft.
LUT_3D_SIZE 33
DOMAIN_MIN 0.0 0.0 0.0
DOMAIN_MAX 1.0 1.0 1.0
0.055369 0.061977 0.079302
0.057264 0.063025 0.080224
0.058000 0.063274 0.080401
0.061920 0.064597 0.080935
0.073354 0.066492 0.081596
0.080517 0.067509 0.082209
0.098956 0.069504 0.083178
0.139249 0.072383 0.084219
0.171653 0.073592 0.085004
0.235127 0.075769 0.086087
0.338767 0.079962 0.087555
0.404032 0.082425 0.088664
0.449656 0.085119 0.089586
0.502700 0.088517 0.090710
0.541592 0.092778 0.092303
0.571489 0.095249 0.093373
0.599503 0.097496 0.094685
0.627472 0.101911 0.096447
0.655008 0.107739 0.098538
0.672041 0.110685 0.099812
0.685643 0.113710 0.101360
0.697830 0.117796 0.103507
0.709900 0.121259 0.105651
0.722039 0.121570 0.107273
0.731583 0.122046 0.109272
0.740388 0.121173 0.111457
0.751841 0.112136 0.112490
0.758183 0.106664 0.118198
0.771855 0.083006 0.225985
0.771854 0.082984 0.225939
0.771854 0.082983 0.225936
0.771854 0.082984 0.225935
0.779149 0.172488 0.424617
0.055713 0.064987 0.080146
0.057403 0.065258 0.080424
0.059483 0.063945 0.080352
0.064085 0.065227 0.081032
0.076047 0.067140 0.081831
0.082123 0.068015 0.082353
0.100436 0.070068 0.083277
0.139691 0.072809 0.084332
0.171159 0.073916 0.085111
0.233367 0.076262 0.086166
0.336311 0.080380 0.087613
0.402217 0.082874 0.088728
0.447848 0.085556 0.089639
0.501606 0.088907 0.090755
0.540657 0.093135 0.092352
0.570670 0.095572 0.093416
0.598816 0.097813 0.094741
0.626917 0.102427 0.096496
0.654574 0.108238 0.098581
0.671828 0.111159 0.099850
0.685474 0.114165 0.101405
0.697700 0.118361 0.103547
0.709799 0.121815 0.105685
0.721959 0.122116 0.107301
0.731522 0.122582 0.109291
0.740343 0.121704 0.111465
0.751802 0.112549 0.112477
0.758161 0.107058 0.118069
0.771855 0.083006 0.225986
0.771854 0.082984 0.225939
0.771854 0.082983 0.225937
0.771854 0.082984 0.225935
0.779149 0.172490 0.424617
0.055827 0.065790 0.080317
0.056299 0.066112 0.080674
0.058098 0.066228 0.080709
0.063305 0.067494 0.081346
0.074943 0.069600 0.082355
0.084347 0.069957 0.082724
0.104668 0.072122 0.083601
0.144844 0.074558 0.084892
0.172505 0.075727 0.085511
0.229364 0.078151 0.086459
0.328557 0.081962 0.087860
0.395963 0.084767 0.088963
0.441383 0.087187 0.089833
0.495610 0.090352 0.090918
0.537194 0.094452 0.092530
0.567623 0.096760 0.093570
0.596258 0.099597 0.094943
0.624847 0.104326 0.096674
0.652956 0.110072 0.098737
0.671034 0.112899 0.099988
0.684847 0.116132 0.101570
0.697218 0.120433 0.103690
0.709425 0.123854 0.105808
0.721661 0.124115 0.107404
0.731299 0.124546 0.109363
0.740174 0.123647 0.111496
0.751660 0.114062 0.112441
0.758079 0.108500 0.117641
0.771856 0.083008 0.225990
0.771854 0.082985 0.225940
0.771854 0.082983 0.225937
0.771854 0.082985 0.225935
0.779149 0.172493 0.424616
0.056177 0.070125 0.080998
0.056502 0.070524 0.081182
0.058174 0.071265 0.081601
0.061270 0.071302 0.081948
0.070385 0.074167 0.083045
0.078756 0.073551 0.083281
0.097791 0.075494 0.084130
0.137213 0.079022 0.085603
0.167918 0.079642 0.086117
0.223067 0.081556 0.086966
0.319464 0.086223 0.088429
0.386455 0.088646 0.089416
0.430100 0.090467 0.090205
0.483950 0.093218 0.091228
0.530446 0.097036 0.092869
0.561587 0.099966 0.093919
0.591154 0.103529 0.095324
0.620709 0.108025 0.097008
0.649724 0.113623 0.099032
0.669447 0.116673 0.100250
0.683599 0.120235 0.101882
0.696261 0.124425 0.103963
0.708683 0.127772 0.106044
0.721073 0.127954 0.107603
0.730859 0.128314 0.109510
0.739842 0.127375 0.111573
0.751379 0.117578 0.112422
0.757914 0.111274 0.116991
0.771856 0.083012 0.225998
0.771854 0.082985 0.225941
0.771854 0.082983 0.225937
0.771854 0.082988 0.225935
0.779150 0.172495 0.424615
0.056670 0.078849 0.082141
0.057094 0.079376 0.082446
0.058594 0.080907 0.082859
0.061811 0.081743 0.083310
0.067220 0.081712 0.083774
0.073664 0.079803 0.083922
0.087961 0.081909 0.084962
0.119057 0.085562 0.086386
0.149217 0.085288 0.086831
0.203985 0.087115 0.087580
0.303546 0.091711 0.089203
0.367284 0.093484 0.090056
0.415545 0.095007 0.090746
0.467798 0.097652 0.091789
0.519789 0.104251 0.093403
0.551576 0.107172 0.094605
0.582494 0.110070 0.095921
0.613625 0.114106 0.097531
0.644183 0.120718 0.099493
0.666722 0.123652 0.100657
0.681466 0.126896 0.102370
0.694637 0.130870 0.104392
0.707432 0.134505 0.106420
0.720084 0.134560 0.107930
0.730121 0.134859 0.109763
0.739284 0.133591 0.111759
0.750908 0.123560 0.112505
0.757630 0.116019 0.116328
0.771857 0.083020 0.226013
0.771854 0.082986 0.225942
0.771854 0.082984 0.225938
0.771856 0.083016 0.225936
0.779150 0.172496 0.424615
0.057028 0.083756 0.082790
0.057276 0.084149 0.082967
0.058381 0.086061 0.083254
0.060829 0.087570 0.083759
0.064722 0.088164 0.084158
0.071073 0.088083 0.084922
0.083212 0.090943 0.085990
0.107002 0.094468 0.087344
0.130529 0.093062 0.087576
0.176093 0.094166 0.088412
0.270288 0.098107 0.089990
0.340445 0.100449 0.090786
0.399076 0.102454 0.091435
0.450742 0.106421 0.092547
0.508745 0.112708 0.094185
0.540089 0.116002 0.095467
0.570757 0.120029 0.096714
0.602345 0.125868 0.098275
0.635088 0.132245 0.100154
0.662212 0.134908 0.101443
0.677954 0.138266 0.103074
0.691987 0.142805 0.105015
0.705405 0.146566 0.106973
0.718491 0.146325 0.108423
0.728940 0.146363 0.110169
0.738393 0.144952 0.112125
0.750154 0.132669 0.112816
0.757161 0.124688 0.115964
0.771858 0.083036 0.226043
0.771854 0.082988 0.225946
0.771854 0.082984 0.225940
0.779145 0.172428 0.225937
0.779150 0.172497 0.424614
0.057728 0.094933 0.083856
0.057965 0.095200 0.084019
0.059029 0.096702 0.084592
0.061114 0.098793 0.085259
0.064818 0.100841 0.085932
0.070689 0.101524 0.086490
0.079682 0.101338 0.087113
0.097977 0.108046 0.088500
0.115671 0.104207 0.088709
0.151449 0.105032 0.089446
0.232249 0.111576 0.090899
0.307934 0.113221 0.091678
0.372978 0.113826 0.092321
0.429940 0.117816 0.093351
0.493357 0.125939 0.095332
0.527680 0.129784 0.096546
0.558750 0.132164 0.097635
0.592033 0.138088 0.099070
0.625553 0.147298 0.100969
0.654492 0.151259 0.102400
0.672661 0.156220 0.104003
0.687595 0.162177 0.105884
0.702079 0.166110 0.107755
0.715897 0.165172 0.109141
0.727034 0.164656 0.110793
0.736959 0.162648 0.112760
0.748928 0.149872 0.113790
0.756376 0.139186 0.116293
0.771861 0.083078 0.226116
0.771854 0.082992 0.225954
0.771854 0.082986 0.225944
0.779149 0.172492 0.225938
0.779150 0.172497 0.424614
0.058531 0.113925 0.085677
0.058784 0.114327 0.085826
0.059831 0.117650 0.086402
0.061747 0.121623 0.087028
0.065230 0.125311 0.087586
0.071087 0.127526 0.088376
0.079824 0.128107 0.089026
0.090865 0.127819 0.089722
0.107328 0.121587 0.089841
0.135988 0.121792 0.090503
0.200988 0.130109 0.091984
0.272425 0.130769 0.092766
0.337111 0.130417 0.093326
0.406801 0.134411 0.094529
0.471612 0.144173 0.096560
0.514162 0.147373 0.097633
0.545218 0.150506 0.098670
0.578835 0.157297 0.100056
0.613854 0.168389 0.102183
0.644669 0.171150 0.103470
0.668010 0.175762 0.104952
0.683726 0.182993 0.106766
0.698425 0.190422 0.108628
0.712347 0.193706 0.110040
0.723796 0.198328 0.111743
0.734538 0.195509 0.114153
0.746810 0.181078 0.115640
0.754982 0.166859 0.117811
0.771875 0.083247 0.226369
0.771855 0.083006 0.225983
0.771854 0.082991 0.225957
0.779150 0.172496 0.225943
0.779150 0.172497 0.424614
0.059016 0.127071 0.086505
0.059204 0.127471 0.086614
0.059952 0.129846 0.087026
0.061617 0.134368 0.087601
0.064564 0.139565 0.088311
0.068989 0.143360 0.089002
0.075917 0.145511 0.089715
0.085379 0.145889 0.090306
0.100541 0.145517 0.090914
0.123610 0.145390 0.091546
0.177191 0.156763 0.093218
0.238201 0.156333 0.093954
0.304740 0.154484 0.094699
0.381712 0.157858 0.095958
0.447500 0.169528 0.097901
0.498133 0.172188 0.098863
0.531172 0.175321 0.099800
0.565653 0.182917 0.101238
0.601923 0.195193 0.103481
0.632601 0.199873 0.104713
0.661051 0.207364 0.106158
0.678483 0.213559 0.107839
0.694530 0.220378 0.109584
0.709432 0.221981 0.110886
0.721663 0.225516 0.112621
0.732364 0.229517 0.115462
0.744244 0.224976 0.117699
0.752550 0.221608 0.120748
0.772267 0.087878 0.229317
0.771869 0.083180 0.226275
0.771857 0.083028 0.226035
0.779150 0.172497 0.225967
0.779150 0.172497 0.424614
0.059653 0.150422 0.087598
0.059799 0.150866 0.087680
0.060493 0.153252 0.088079
0.061965 0.158559 0.088774
0.064581 0.165359 0.089483
0.068499 0.171653 0.090145
0.074279 0.175679 0.090792
0.083217 0.177637 0.091385
0.095169 0.178016 0.092102
0.114572 0.177647 0.092807
0.157898 0.194440 0.094719
0.211314 0.192729 0.095667
0.274362 0.187961 0.096258
0.347838 0.191281 0.097443
0.423620 0.205524 0.099295
0.473829 0.207091 0.100149
0.516170 0.209072 0.101119
0.551373 0.216851 0.102743
0.589029 0.231742 0.104923
0.620190 0.235632 0.106060
0.651426 0.239785 0.107342
0.672540 0.248819 0.108996
0.689092 0.259068 0.110725
0.704926 0.260979 0.112019
0.718432 0.262177 0.114076
0.730063 0.264404 0.116801
0.742572 0.258572 0.118872
0.751408 0.253745 0.121605
0.760985 0.240370 0.123713
0.768024 0.223598 0.128469
0.775680 0.161914 0.193168
0.779150 0.172500 0.230219
0.779150 0.172498 0.424614
0.060697 0.198643 0.089600
0.060856 0.199297 0.089686
0.061463 0.202521 0.090005
0.063186 0.211822 0.090610
0.065480 0.221060 0.091243
0.069469 0.229399 0.092021
0.075287 0.236416 0.092818
0.083863 0.240637 0.093557
0.095991 0.242615 0.094475
0.115100 0.242859 0.095488
0.145879 0.242551 0.096497
0.190657 0.239703 0.097304
0.245977 0.233098 0.097855
0.318781 0.235586 0.098932
0.401339 0.250358 0.100731
0.450375 0.249973 0.101784
0.500472 0.250019 0.102787
0.536572 0.256902 0.104301
0.575608 0.272605 0.106431
0.607240 0.274517 0.107449
0.638875 0.280468 0.108683
0.665750 0.291545 0.110270
0.683903 0.299760 0.111904
0.700510 0.302230 0.113468
0.714381 0.307576 0.115823
0.726424 0.314658 0.118545
0.739950 0.307605 0.120478
0.749640 0.301237 0.122930
0.759672 0.284913 0.124835
0.767210 0.263331 0.128110
0.775341 0.181139 0.151782
0.779150 0.172502 0.243433
0.779150 0.172507 0.248188
0.061360 0.240252 0.090770
0.061490 0.240852 0.090840
0.062079 0.243640 0.091097
0.063637 0.251764 0.091659
0.065580 0.260439 0.092380
0.069290 0.270668 0.093166
0.074471 0.280581 0.094072
0.082309 0.286956 0.095125
0.091843 0.290980 0.096130
0.109656 0.292814 0.097078
0.135472 0.292929 0.098008
0.174236 0.292706 0.098961
0.222187 0.282840 0.099372
0.294347 0.285831 0.100434
0.379517 0.302390 0.102661
0.428320 0.300154 0.103589
0.477440 0.298901 0.104541
0.521898 0.304889 0.105974
0.561297 0.318093 0.107937
0.593445 0.318635 0.108890
0.625928 0.324059 0.110101
0.658486 0.331043 0.111559
0.677620 0.340257 0.113611
0.694824 0.344341 0.115469
0.710279 0.346833 0.117634
0.723525 0.351797 0.120180
0.737145 0.351149 0.122165
0.747101 0.352493 0.124692
0.757468 0.344283 0.127221
0.765814 0.323712 0.129932
0.774545 0.231618 0.129543
0.779150 0.172511 0.243500
0.779150 0.172518 0.252725
0.061894 0.279396 0.091739
0.062061 0.280004 0.091814
0.062685 0.282713 0.092093
0.063956 0.290122 0.092632
0.065731 0.300699 0.093321
0.069149 0.310141 0.094218
0.073533 0.318398 0.095304
0.080669 0.325246 0.096371
0.088701 0.330290 0.097350
0.104154 0.332991 0.098276
0.124965 0.334179 0.099174
0.155072 0.334086 0.100022
0.204244 0.333970 0.100997
0.270406 0.335831 0.102287
0.352919 0.351036 0.104604
0.408993 0.347804 0.105446
0.455992 0.345375 0.106280
0.507655 0.350483 0.107671
0.547178 0.363314 0.109605
0.579449 0.362589 0.110409
0.612575 0.366389 0.111485
0.646192 0.374213 0.113297
0.670972 0.384610 0.115788
0.689370 0.385822 0.117438
0.705308 0.391782 0.119607
0.719187 0.398532 0.122168
0.734093 0.396080 0.123927
0.745027 0.395237 0.126313
0.755677 0.392295 0.129250
0.764029 0.386869 0.132772
0.771547 0.379592 0.136881
0.779149 0.172651 0.243588
0.779150 0.172596 0.259444
0.062816 0.328881 0.093126
0.062959 0.329369 0.093191
0.063492 0.331460 0.093432
0.064559 0.336819 0.093970
0.066233 0.346853 0.094987
0.069568 0.355743 0.096003
0.073575 0.364782 0.097029
0.080333 0.373237 0.098070
0.087724 0.379727 0.099062
0.101431 0.383753 0.099962
0.119487 0.386099 0.100859
0.148159 0.387135 0.102027
0.190910 0.387050 0.103105
0.249177 0.386941 0.104248
0.329504 0.400103 0.106462
0.391681 0.397679 0.107300
0.436974 0.394915 0.108047
0.490080 0.397611 0.109311
0.533364 0.406274 0.111196
0.565628 0.405485 0.112065
0.599180 0.407271 0.113400
0.633586 0.412421 0.115587
0.664248 0.418294 0.117941
0.682987 0.420319 0.119573
0.699867 0.424639 0.121666
0.715250 0.428566 0.124028
0.730503 0.429420 0.125837
0.741867 0.432244 0.128750
0.753545 0.428501 0.131413
0.762681 0.423105 0.134382
0.770703 0.416166 0.137340
0.776599 0.408750 0.147470
0.780775 0.409384 0.267736
0.063945 0.390165 0.095376
0.064070 0.390679 0.095464
0.064535 0.392797 0.095787
0.065452 0.396754 0.096405
0.067542 0.404139 0.097389
0.070569 0.409760 0.098319
0.074650 0.416948 0.099357
0.081147 0.423206 0.100335
0.088241 0.428384 0.101545
0.101939 0.432217 0.102779
0.119830 0.434754 0.103987
0.147492 0.436031 0.105075
0.189114 0.436458 0.106187
0.244885 0.436467 0.107230
0.310035 0.436339 0.108320
0.371056 0.433269 0.109054
0.419843 0.430509 0.109804
0.471145 0.432817 0.111020
0.520413 0.440969 0.113123
0.552041 0.439433 0.114281
0.585815 0.440790 0.115863
0.620959 0.445568 0.117987
0.655462 0.450810 0.120209
0.676271 0.453292 0.121781
0.694320 0.456383 0.123723
0.710307 0.462238 0.126175
0.726586 0.463210 0.128370
0.739244 0.463983 0.131023
0.751147 0.464845 0.133773
0.760601 0.465419 0.136841
0.769350 0.458016 0.139467
0.775810 0.446988 0.144426
0.780676 0.420622 0.257405
0.064595 0.422399 0.096913
0.064705 0.422715 0.096991
0.065111 0.423989 0.097275
0.065905 0.426936 0.097816
0.067953 0.433007 0.098671
0.070882 0.439374 0.099600
0.074931 0.447257 0.100654
0.080670 0.452814 0.101858
0.087236 0.458380 0.103125
0.099354 0.463113 0.104414
0.114983 0.466170 0.105534
0.139907 0.468075 0.106644
0.175591 0.469251 0.107725
0.225704 0.469542 0.108766
0.289237 0.469651 0.109772
0.350770 0.469643 0.110813
0.404199 0.466522 0.111486
0.453941 0.468602 0.112910
0.508365 0.476825 0.115799
0.539629 0.474952 0.116899
0.572726 0.475402 0.118317
0.608235 0.479729 0.120396
0.643455 0.484690 0.122549
0.669559 0.486376 0.124003
0.688229 0.489976 0.125918
0.705221 0.495836 0.128861
0.722443 0.496734 0.130924
0.735681 0.500216 0.133630
0.748598 0.500808 0.136210
0.758987 0.499296 0.138865
0.767891 0.498953 0.142228
0.774401 0.500840 0.149009
0.780112 0.462319 0.202479
0.065185 0.453528 0.098340
0.065282 0.453817 0.098409
0.065641 0.454960 0.098661
0.066336 0.457525 0.099138
0.068427 0.462615 0.099887
0.071304 0.469686 0.100868
0.074644 0.475725 0.102098
0.080235 0.482252 0.103372
0.086502 0.488385 0.104624
0.096903 0.493377 0.105841
0.111631 0.497184 0.107023
0.133512 0.499785 0.108119
0.164296 0.501497 0.109153
0.208933 0.502385 0.110198
0.268048 0.502688 0.111188
0.328590 0.502846 0.112256
0.390742 0.503024 0.113675
0.438292 0.505005 0.115555
0.494996 0.512807 0.118418
0.527877 0.510567 0.119435
0.560510 0.510858 0.120841
0.595758 0.514620 0.122826
0.631358 0.518436 0.124935
0.662626 0.519303 0.126426
0.681935 0.522075 0.128784
0.699992 0.525707 0.131580
0.717659 0.527404 0.133636
0.732119 0.529270 0.136160
0.745846 0.530727 0.138704
0.756682 0.532286 0.141559
0.766427 0.531298 0.145230
0.773583 0.530467 0.150118
0.778860 0.534586 0.165337
0.065863 0.489512 0.099999
0.065951 0.489788 0.100061
0.066272 0.490861 0.100287
0.067325 0.493191 0.100727
0.069214 0.497629 0.101628
0.072086 0.505483 0.102906
0.075179 0.510333 0.103989
0.080733 0.517200 0.105314
0.086532 0.521505 0.106534
0.096052 0.525148 0.107697
0.110167 0.528302 0.108879
0.130429 0.530637 0.109984
0.158411 0.532323 0.111069
0.200345 0.533178 0.112113
0.255238 0.533765 0.113503
0.314862 0.533996 0.115053
0.377079 0.534110 0.116576
0.424588 0.534374 0.118180
0.479098 0.539807 0.121019
0.517120 0.538152 0.121984
0.548953 0.537959 0.123309
0.583895 0.540501 0.125269
0.619454 0.543710 0.127779
0.652871 0.544312 0.129412
0.675566 0.547066 0.131717
0.694432 0.550438 0.134413
0.712818 0.552242 0.136373
0.728201 0.554282 0.138799
0.742553 0.557149 0.141536
0.754681 0.557285 0.144841
0.764843 0.558726 0.148599
0.772303 0.561781 0.153590
0.778228 0.562696 0.162228
0.066873 0.526433 0.102389
0.067022 0.526631 0.102466
0.067567 0.527387 0.102744
0.068617 0.528972 0.103268
0.070316 0.531860 0.104085
0.072901 0.536889 0.105255
0.076447 0.540994 0.106367
0.081626 0.546009 0.107637
0.087030 0.550225 0.108841
0.097053 0.554514 0.110070
0.110836 0.557908 0.111207
0.130787 0.560569 0.112498
0.156996 0.562369 0.114084
0.198043 0.563623 0.115741
0.250411 0.564325 0.117300
0.310368 0.564865 0.118952
0.369882 0.565136 0.120498
0.418460 0.565206 0.121977
0.464939 0.565604 0.123583
0.507136 0.563978 0.124484
0.538497 0.563867 0.125788
0.572711 0.565956 0.128246
0.608006 0.568928 0.130846
0.641474 0.569411 0.132426
0.669010 0.571658 0.134635
0.688671 0.575039 0.137295
0.707816 0.576630 0.139130
0.723923 0.579375 0.141764
0.739544 0.581456 0.145037
0.752229 0.583252 0.148428
0.763175 0.585430 0.152140
0.771397 0.586659 0.156196
0.777485 0.592643 0.164032
0.067610 0.550456 0.103874
0.067747 0.550632 0.103945
0.068247 0.551297 0.104202
0.069205 0.552671 0.104685
0.070743 0.555121 0.105437
0.073052 0.559287 0.106508
0.076782 0.563875 0.107681
0.081283 0.567811 0.108818
0.086735 0.572483 0.110070
0.095830 0.576674 0.111290
0.108361 0.579835 0.112534
0.125762 0.582649 0.114239
0.150239 0.584813 0.115997
0.187200 0.586359 0.117670
0.235290 0.587442 0.119297
0.294270 0.588044 0.120827
0.350846 0.588509 0.122415
0.404389 0.588896 0.123949
0.448704 0.589090 0.125394
0.496429 0.589635 0.127282
0.528758 0.589236 0.128879
0.562254 0.591346 0.131346
0.597196 0.593977 0.133944
0.630465 0.594395 0.135437
0.662615 0.596387 0.137596
0.682724 0.599372 0.140173
0.702495 0.600983 0.142292
0.719502 0.603821 0.145570
0.736057 0.606139 0.148733
0.749557 0.608505 0.152062
0.761518 0.610464 0.155542
0.770194 0.613529 0.159755
0.776865 0.616653 0.165559
0.068365 0.575278 0.105432
0.068491 0.575439 0.105499
0.068954 0.576045 0.105739
0.069837 0.577277 0.106189
0.071246 0.579423 0.106888
0.073337 0.582972 0.107880
0.077373 0.588000 0.109128
0.081358 0.591196 0.110160
0.086923 0.596261 0.111477
0.094536 0.599447 0.112728
0.107154 0.603147 0.114597
0.123659 0.606266 0.116447
0.146571 0.608422 0.118197
0.179851 0.610055 0.119837
0.224425 0.611347 0.121501
0.282225 0.612230 0.123086
0.336245 0.612728 0.124594
0.392833 0.613068 0.126211
0.436366 0.613384 0.128163
0.481742 0.613596 0.130003
0.519927 0.614028 0.131952
0.552525 0.615000 0.134364
0.586925 0.616684 0.136940
0.620001 0.616996 0.138448
0.654025 0.618082 0.140539
0.676866 0.619905 0.143906
0.697077 0.620929 0.146211
0.715022 0.622532 0.149352
0.732275 0.624368 0.152529
0.746905 0.625708 0.155609
0.759575 0.627701 0.159191
0.769127 0.629479 0.163033
0.776219 0.633176 0.168984
0.069213 0.601097 0.107200
0.069332 0.601252 0.107262
0.069764 0.601832 0.107488
0.070587 0.602989 0.107912
0.071891 0.604953 0.108568
0.073810 0.608102 0.109496
0.078028 0.613014 0.110755
0.081897 0.615136 0.111814
0.086812 0.617833 0.113393
0.094749 0.620329 0.115290
0.107169 0.622777 0.117219
0.121547 0.624552 0.118998
0.144066 0.626177 0.120805
0.175748 0.627407 0.122527
0.217837 0.628278 0.124135
0.272735 0.628965 0.125801
0.326796 0.629401 0.127777
0.385291 0.629714 0.129732
0.427145 0.629942 0.131648
0.472180 0.630296 0.133599
0.512404 0.630586 0.135456
0.543707 0.631064 0.137360
0.577401 0.632403 0.139898
0.610065 0.632789 0.141470
0.643905 0.633712 0.144369
0.670942 0.635332 0.147914
0.691638 0.636440 0.150166
0.710390 0.637894 0.153247
0.728422 0.639701 0.156358
0.743989 0.641155 0.159311
0.757656 0.643089 0.162767
0.767967 0.645141 0.166842
0.775540 0.649038 0.173100
0.069920 0.622458 0.108835
0.070032 0.622553 0.108894
0.070440 0.622906 0.109109
0.071215 0.623599 0.109513
0.072437 0.624751 0.110136
0.074381 0.626549 0.111017
0.078332 0.629292 0.112318
0.082493 0.631780 0.113993
0.086910 0.633989 0.115805
0.095488 0.636764 0.117902
0.106369 0.638649 0.119654
0.120973 0.640666 0.121552
0.143371 0.642404 0.123465
0.172168 0.643525 0.125154
0.212152 0.644431 0.127063
0.264429 0.645138 0.129163
0.318727 0.645675 0.131264
0.375780 0.646050 0.133271
0.419794 0.646331 0.135213
0.463356 0.646559 0.137124
0.506431 0.646934 0.139048
0.536759 0.647326 0.140937
0.568561 0.647868 0.143510
0.600839 0.648238 0.145432
0.634282 0.649001 0.148290
0.665110 0.650353 0.151854
0.686137 0.651506 0.154064
0.705574 0.652825 0.157097
0.724613 0.654559 0.160200
0.740957 0.656142 0.163111
0.755677 0.657936 0.166564
0.766710 0.660253 0.171558
0.775033 0.663575 0.176948
0.070127 0.639325 0.109794
0.070234 0.639407 0.109851
0.070622 0.639709 0.110058
0.071358 0.640299 0.110446
0.072516 0.641268 0.111044
0.074345 0.642759 0.111941
0.078036 0.644994 0.113472
0.082545 0.647630 0.115575
0.086563 0.649392 0.117274
0.094476 0.651892 0.119410
0.105073 0.653695 0.121227
0.119230 0.655680 0.123208
0.138932 0.657039 0.124988
0.166297 0.658347 0.127121
0.205862 0.659343 0.129367
0.254078 0.659991 0.131413
0.307660 0.660512 0.133523
0.362355 0.660906 0.135551
0.410005 0.661226 0.137550
0.452354 0.661500 0.139462
0.497443 0.661792 0.141520
0.528543 0.662183 0.144089
0.559614 0.662713 0.146718
0.592284 0.663381 0.149332
0.625232 0.663905 0.152179
0.659370 0.665006 0.155729
0.680701 0.666199 0.157879
0.700638 0.667325 0.160900
0.720514 0.668963 0.163891
0.737896 0.670587 0.167415
0.753606 0.672401 0.171290
0.765536 0.674425 0.175890
0.774497 0.677860 0.181295
0.070382 0.655099 0.110897
0.070484 0.655176 0.110952
0.070856 0.655460 0.111151
0.071560 0.656007 0.111523
0.072664 0.656891 0.112189
0.074440 0.658220 0.113276
0.077919 0.660162 0.115064
0.082818 0.662973 0.117439
0.086529 0.664479 0.119048
0.093388 0.666529 0.121056
0.104793 0.668614 0.123141
0.116539 0.670168 0.124988
0.137095 0.671691 0.127239
0.162883 0.672953 0.129687
0.198783 0.673842 0.131890
0.245541 0.674582 0.134093
0.299990 0.675129 0.136248
0.353390 0.675500 0.138355
0.402840 0.675798 0.140349
0.444049 0.676066 0.142846
0.487628 0.676340 0.145473
0.521730 0.676675 0.148082
0.551813 0.677071 0.150640
0.583719 0.677691 0.153323
0.616801 0.678431 0.155986
0.650474 0.679219 0.159540
0.675504 0.680570 0.161631
0.695638 0.681425 0.164566
0.716283 0.682972 0.168183
0.734746 0.684490 0.171927
0.751531 0.686359 0.176066
0.764407 0.688301 0.180366
0.773970 0.691373 0.185660
0.070512 0.670532 0.112014
0.070611 0.670605 0.112077
0.070972 0.670873 0.112306
0.071654 0.671385 0.112736
0.072720 0.672198 0.113615
0.074434 0.673395 0.114905
0.077763 0.675101 0.116659
0.082409 0.677509 0.118991
0.086633 0.679351 0.120928
0.092800 0.681073 0.122838
0.105134 0.683342 0.125221
0.115699 0.684600 0.127296
0.136761 0.686174 0.130006
0.158779 0.687163 0.132301
0.195733 0.688145 0.134758
0.240486 0.688850 0.137017
0.292920 0.689366 0.139201
0.344365 0.689736 0.141494
0.396200 0.689990 0.144347
0.436668 0.690229 0.147144
0.479421 0.690466 0.149888
0.516040 0.690756 0.152577
0.545565 0.691100 0.155196
0.576388 0.691531 0.157774
0.608693 0.692211 0.160520
0.642118 0.692888 0.163234
0.670513 0.694044 0.165271
0.690842 0.694536 0.169030
0.711961 0.695583 0.172711
0.731474 0.696612 0.176507
0.749323 0.697920 0.180583
0.763300 0.699382 0.184855
0.773736 0.701509 0.189951
0.069514 0.688944 0.111863
0.069614 0.689001 0.111927
0.069977 0.689210 0.112158
0.070665 0.689605 0.112594
0.071741 0.690225 0.113437
0.073292 0.691124 0.114764
0.076282 0.692390 0.116588
0.080938 0.693759 0.119048
0.085964 0.695114 0.121530
0.090909 0.696067 0.123403
0.102234 0.697294 0.125751
0.114073 0.698300 0.128490
0.131985 0.699122 0.131093
0.154391 0.699837 0.133712
0.189287 0.700375 0.136226
0.230625 0.700792 0.138563
0.285267 0.701132 0.140917
0.335356 0.701355 0.143944
0.388565 0.701492 0.146859
0.428000 0.701618 0.149717
0.470025 0.701761 0.152517
0.509724 0.701939 0.155265
0.539161 0.702178 0.157961
0.569729 0.702498 0.160609
