LUTs/negative-superia-xtra-400/SuperiaXtra400_Classic_Soft.cube
TITLE "Fuji Superia X-tra 400 Classic Soft"
# Adobe RGB in/out. REPLACES AgX. Fuji Superia X-tra 400 Classic Soft.
LUT_3D_SIZE 9
DOMAIN_MIN 0.0 0.0 0.0
DOMAIN_MAX 1.0 1.0 1.0
0.060829 0.068055 0.085817
0.080343 0.071620 0.087728
0.179957 0.078886 0.091228
0.449580 0.089876 0.095720
0.602653 0.102323 0.101493
0.679981 0.117003 0.107963
0.726960 0.124095 0.115932
0.762200 0.088416 0.227377
0.768559 0.172564 0.424498
0.062010 0.084442 0.088220
0.073982 0.087271 0.090024
0.159432 0.089992 0.093050
0.416400 0.099139 0.097262
0.589665 0.112770 0.102725
0.674799 0.127576 0.108703
0.725677 0.132790 0.116518
0.762201 0.088426 0.227402
0.768559 0.172571 0.424496
0.064540 0.127699 0.092726
0.070609 0.138628 0.094366
0.107746 0.146714 0.097486
0.309365 0.156274 0.101506
0.534155 0.174977 0.106590
0.649587 0.204685 0.112416
0.718246 0.222540 0.119826
0.762559 0.092089 0.230464
0.768559 0.172571 0.424495
0.067860 0.278217 0.098480
0.072271 0.297388 0.100121
0.096905 0.326888 0.104151
0.206463 0.330085 0.107697
0.456059 0.342594 0.112538
0.612574 0.363152 0.118575
0.703848 0.383695 0.126746
0.748070 0.384107 0.136201
0.768560 0.172656 0.260793
0.071492 0.453928 0.105136
0.075134 0.462285 0.106676
0.093937 0.485912 0.110875
0.173832 0.497895 0.115790
0.395026 0.499289 0.120934
0.567997 0.506435 0.127953
0.675380 0.518890 0.135722
0.739466 0.527992 0.145916
0.768307 0.531423 0.171220
0.075075 0.567449 0.111687
0.077814 0.571103 0.113149
0.094489 0.585920 0.118565
0.156409 0.596594 0.125367
0.345936 0.600367 0.131615
0.521172 0.602009 0.138979
0.643700 0.607459 0.147800
0.727568 0.615919 0.158646
0.766005 0.627833 0.174702
0.076994 0.653472 0.117872
0.079509 0.655005 0.119309
0.093973 0.661488 0.126200
0.145614 0.667640 0.134132
0.303566 0.670569 0.143394
0.484201 0.671600 0.152226
0.615771 0.673381 0.161777
0.713514 0.677244 0.173944
0.764044 0.684381 0.190396
0.072218 0.713173 0.116372
0.074303 0.713178 0.117783
0.089687 0.714173 0.128282
0.132493 0.716812 0.140052
0.272483 0.717886 0.152110
0.454958 0.717968 0.163850
0.593720 0.718708 0.176316
0.697025 0.721521 0.189505
0.763811 0.726238 0.205194
0.060829 0.728909 0.108216
0.060829 0.728911 0.108217
0.091972 0.755001 0.108253
0.091975 0.756072 0.127501
0.205718 0.760169 0.144564
0.418515 0.757758 0.162113
0.569154 0.756815 0.178071
0.672112 0.758152 0.191940
0.768451 0.761949 0.202502
0.061254 0.070646 0.105437
0.073516 0.073963 0.108657
0.163481 0.081427 0.110241
0.463901 0.091985 0.112216
0.607702 0.104231 0.112483
0.681034 0.118738 0.115849
0.726851 0.125542 0.123307
0.762201 0.088426 0.227406
0.768559 0.172570 0.424500
0.064799 0.084450 0.107303
0.082994 0.090045 0.111306
0.162533 0.092166 0.109805
0.431429 0.102278 0.112811
0.597158 0.115739 0.113642
0.676537 0.128970 0.116887
0.725646 0.135466 0.123883
0.762203 0.088441 0.227446
0.768559 0.172571 0.424496
0.068549 0.126157 0.109878
0.076417 0.131139 0.110802
0.124175 0.140090 0.112540
0.357911 0.158299 0.116093
0.549775 0.178624 0.118066
0.654988 0.207231 0.121466
0.718923 0.224541 0.127984
0.762663 0.093301 0.231811
0.768559 0.172571 0.424495
0.072209 0.272288 0.113419
0.077522 0.286825 0.115026
0.107343 0.314266 0.118155
0.245906 0.322737 0.121801
0.477694 0.340639 0.125412
0.620076 0.363557 0.128967
0.706016 0.383742 0.135138
0.748224 0.384902 0.144437
0.768560 0.172596 0.424490
0.075239 0.449398 0.116581
0.079236 0.456936 0.118333
0.101224 0.477833 0.123637
0.185513 0.490296 0.128915
0.411532 0.494676 0.134075
0.579812 0.504318 0.139168
0.680287 0.517881 0.145928
0.740280 0.527533 0.155229
0.768267 0.532332 0.189081
0.077692 0.564813 0.121074
0.080970 0.568352 0.123058
0.099618 0.582102 0.129332
0.168275 0.592521 0.136347
0.360267 0.597071 0.143819
0.531191 0.599833 0.151433
0.648926 0.606242 0.159523
0.729336 0.615148 0.169001
0.766052 0.627993 0.186062
0.079157 0.652498 0.126661
0.081832 0.653982 0.128428
0.097703 0.660138 0.135422
0.154145 0.666080 0.145071
0.319109 0.669145 0.154816
0.492546 0.670514 0.164309
0.620449 0.672611 0.175470
0.715808 0.676776 0.187378
0.764262 0.684310 0.201663
0.073762 0.712229 0.122333
0.076034 0.712329 0.124398
0.092242 0.713455 0.136580
0.138117 0.716002 0.149846
0.282941 0.717145 0.163339
0.461058 0.717379 0.177149
0.596984 0.718302 0.190529
0.700190 0.721235 0.203647
0.764187 0.726154 0.218975
0.060829 0.734282 0.200526
0.060841 0.734284 0.200527
0.091973 0.759734 0.200529
0.091975 0.759733 0.200516
0.211077 0.760110 0.154156
0.421631 0.757681 0.174495
0.571872 0.756794 0.192185
0.673950 0.758180 0.206437
0.768869 0.761991 0.217138
0.062220 0.076145 0.152629
0.078068 0.080270 0.201145
0.153618 0.086895 0.191677
0.456633 0.096571 0.190883
0.608046 0.109454 0.193186
0.681368 0.125429 0.203918
0.726338 0.131120 0.221336
0.762395 0.090344 0.247733
0.768559 0.172571 0.424536
0.066199 0.088501 0.157624
0.079294 0.091201 0.166262
0.155766 0.096206 0.173375
0.433443 0.107061 0.180904
0.600502 0.122742 0.186981
0.677970 0.136533 0.198204
0.725329 0.148250 0.211367
0.762470 0.091145 0.250795
0.768559 0.172571 0.424502
0.072579 0.127682 0.163168
0.081319 0.131366 0.162478
0.159089 0.160733 0.178930
0.384367 0.164218 0.174595
0.569005 0.187400 0.183213
0.662742 0.218955 0.194561
0.720214 0.235021 0.202021
0.761914 0.124738 0.262443
0.768559 0.172571 0.424496
0.079074 0.270851 0.175177
0.085446 0.281121 0.175412
0.125586 0.302953 0.176852
0.301320 0.317950 0.180259
0.515896 0.343296 0.188709
0.636266 0.369192 0.198886
0.710534 0.387894 0.205089
0.748694 0.389138 0.225800
0.768559 0.172575 0.424501
0.084231 0.447304 0.184982
0.089500 0.452812 0.186170
0.120696 0.468158 0.189557
0.244992 0.480390 0.193821
0.453101 0.488574 0.199061
0.602864 0.502339 0.209604
0.692671 0.517714 0.216624
0.742569 0.526939 0.233473
0.768114 0.535859 0.312200
0.088243 0.562522 0.196600
0.093043 0.565314 0.198000
0.119603 0.575506 0.203094
0.208804 0.584693 0.209504
0.408248 0.590535 0.216945
0.562963 0.595523 0.226039
0.665888 0.603868 0.234321
0.734145 0.613308 0.251982
0.766211 0.628718 0.261112
0.089404 0.650746 0.201831
0.093426 0.652019 0.203714
0.115280 0.656935 0.210893
0.183437 0.662060 0.221245
0.366967 0.665389 0.232020
0.523099 0.667660 0.243479
0.637247 0.670636 0.256763
0.723121 0.675387 0.275246
0.764934 0.684161 0.277051
0.084627 0.707277 0.209241
0.087417 0.707843 0.211628
0.107708 0.710248 0.225456
0.168288 0.712884 0.239448
0.328010 0.714413 0.255235
0.487008 0.715243 0.270077
0.611234 0.716849 0.285206
0.709498 0.720204 0.300582
0.765235 0.725921 0.300673
0.060842 0.734285 0.200537
0.091972 0.759733 0.200535
0.091973 0.759734 0.200532
0.091996 0.759736 0.200535
0.242879 0.759388 0.225970
0.439164 0.757196 0.261764
0.583410 0.756584 0.284939
0.682011 0.758187 0.304233
0.769577 0.762174 0.312977
0.063466 0.084979 0.281907
0.073341 0.089922 0.358953
0.152389 0.095904 0.387447
0.432859 0.105344 0.382015
0.601806 0.121239 0.388102
0.678119 0.135851 0.398914
0.724901 0.150673 0.421163
0.757216 0.120898 0.468630
0.768559 0.172571 0.471779
0.066913 0.095104 0.294007
0.076807 0.099435 0.327304
0.155506 0.106353 0.361346
0.418171 0.117519 0.362817
0.595648 0.131708 0.373961
0.675221 0.154972 0.388937
0.723983 0.166336 0.413297
0.756686 0.128559 0.465116
0.768559 0.172571 0.472217
0.075479 0.140781 0.305965
0.083815 0.148757 0.306432
0.149636 0.161763 0.321507
0.383497 0.176163 0.331876
0.570670 0.204063 0.347439
0.662930 0.236261 0.362803
0.719671 0.255192 0.388498
0.752457 0.238377 0.439142
0.768559 0.172571 0.473811
0.083647 0.277967 0.319540
0.091150 0.286645 0.317975
0.138627 0.307099 0.318162
0.353713 0.345565 0.341962
0.528504 0.353993 0.339116
0.642166 0.377451 0.352240
0.712094 0.396921 0.369256
0.748408 0.401420 0.404890
0.768560 0.172600 0.474289
0.092154 0.448724 0.340715
0.099208 0.453105 0.339745
0.139001 0.466105 0.339218
0.287356 0.478151 0.340997
0.480325 0.488367 0.346083
0.614992 0.504153 0.357400
0.699742 0.520266 0.370538
0.743538 0.529437 0.390108
0.767832 0.542255 0.467771
0.098989 0.561845 0.358723
0.105078 0.564195 0.358520
0.140516 0.572628 0.359187
0.256314 0.580986 0.360936
0.437936 0.587523 0.365150
0.586053 0.593873 0.372209
0.678042 0.603345 0.384200
0.737107 0.613214 0.396269
0.766253 0.631110 0.437440
0.101726 0.649859 0.379785
0.107021 0.650937 0.379893
0.136275 0.654997 0.381532
0.228962 0.659546 0.384508
0.406310 0.662993 0.389161
0.548960 0.665881 0.395429
0.652935 0.669531 0.402349
0.728722 0.674788 0.411108
0.765436 0.684646 0.426609
0.095649 0.705554 0.405842
0.099885 0.706147 0.405750
0.124892 0.708472 0.406945
0.193357 0.710866 0.408890
0.365785 0.712594 0.412509
0.513212 0.713896 0.417570
0.625597 0.715977 0.424235
0.717429 0.719682 0.432016
0.766114 0.726178 0.436177
0.076820 0.748156 0.486539
0.091968 0.762564 0.486539
0.091972 0.762567 0.486538
0.124433 0.764855 0.424774
0.291515 0.757901 0.448112
0.464204 0.756495 0.450473
0.595064 0.756397 0.455369
0.693526 0.758250 0.461827
0.770076 0.762698 0.459952
0.065020 0.094996 0.458238
0.070091 0.098432 0.480717
0.143903 0.109398 0.517587
0.416255 0.121877 0.518991
0.593320 0.135204 0.520833
0.673674 0.161079 0.526949
0.722988 0.175041 0.535477
0.754116 0.153994 0.548403
0.768559 0.172572 0.564238
0.067428 0.104594 0.464356
0.073746 0.108668 0.479670
0.145335 0.122343 0.512065
0.407635 0.132095 0.515303
0.588138 0.155417 0.517899
0.671084 0.177215 0.524699
0.722149 0.191726 0.533887
0.753704 0.168763 0.547504
0.768559 0.172572 0.561776
0.076858 0.161108 0.472549
0.083992 0.167372 0.475758
0.146056 0.183728 0.493395
0.381228 0.203211 0.502128
0.565204 0.229313 0.507635
0.660680 0.263855 0.517010
0.718427 0.284566 0.527875
0.751069 0.279468 0.543315
0.768559 0.172578 0.553923
0.087280 0.302415 0.479390
0.095241 0.310121 0.478846
0.148301 0.328566 0.482673
0.349251 0.349547 0.490026
0.531247 0.367955 0.496532
0.643520 0.392112 0.507235
0.711994 0.412414 0.519335
0.747803 0.420111 0.536168
0.769744 0.356453 0.553993
0.098431 0.454126 0.489220
0.106400 0.458168 0.488186
0.153255 0.470087 0.487320
0.309958 0.482428 0.489322
0.503150 0.503285 0.502476
0.621114 0.510560 0.503404
0.702658 0.526068 0.514093
0.743700 0.535103 0.527771
0.767459 0.550661 0.556281
0.108205 0.563811 0.504833
0.115655 0.565884 0.503933
0.159824 0.573317 0.502236
0.288432 0.581235 0.501769
0.460940 0.588281 0.503822
0.596807 0.595406 0.507768
0.685152 0.605398 0.515876
0.738707 0.615710 0.524583
0.766129 0.635375 0.552324
0.112893 0.650252 0.521547
0.119443 0.651226 0.520870
0.157781 0.654782 0.519185
0.267548 0.658975 0.517882
0.428065 0.662515 0.518151
0.568414 0.665791 0.520080
0.663775 0.669875 0.523522
0.732288 0.675317 0.528906
0.765619 0.686149 0.546598
0.105737 0.705506 0.543589
0.110759 0.706022 0.542644
0.142736 0.707976 0.539692
0.228039 0.710187 0.536822
0.397418 0.711976 0.535277
0.532042 0.713593 0.535598
0.637563 0.716020 0.537585
0.723156 0.720035 0.540751
0.766618 0.727237 0.545626
0.080662 0.753127 0.620328
0.082735 0.755233 0.620328
0.087658 0.760172 0.620327
0.156029 0.759686 0.574847
0.321276 0.757697 0.567373
0.480116 0.756646 0.564244
0.603792 0.756764 0.563838
0.702274 0.758818 0.566299
0.770411 0.763897 0.559373
0.066705 0.109068 0.577791
0.069711 0.111063 0.588179
0.135733 0.129186 0.602264
0.400224 0.145638 0.603488
0.586748 0.166814 0.605003
0.669346 0.188052 0.607401
0.721084 0.208836 0.610513
0.752329 0.193005 0.612879
0.768559 0.172572 0.605448
0.068306 0.119802 0.580935
0.072277 0.122689 0.589130
0.136881 0.144089 0.601963
0.393589 0.161778 0.603409
0.582692 0.182461 0.605064
0.667089 0.209108 0.607481
0.720347 0.229667 0.610744
0.751966 0.213358 0.613211
0.768559 0.172572 0.605448
0.077885 0.185217 0.587739
0.083356 0.190886 0.590841
0.143274 0.218243 0.599889
0.372513 0.240002 0.602742
0.561510 0.268332 0.604866
0.658186 0.295836 0.607611
0.717185 0.317482 0.611451
0.749941 0.318897 0.614876
0.768559 0.172578 0.605447
0.089689 0.327362 0.590156
0.096953 0.332344 0.590846
0.153045 0.357216 0.595951
0.352167 0.373974 0.600485
0.533955 0.391654 0.603536
0.643483 0.411493 0.606826
0.711620 0.432287 0.611628
0.747202 0.442793 0.616758
0.769248 0.405767 0.608264
0.103562 0.467320 0.593875
0.111561 0.470686 0.593713
0.164731 0.483079 0.595155
0.330216 0.495658 0.598268
0.505030 0.507609 0.601877
0.624239 0.520913 0.605424
0.703663 0.533328 0.610928
0.743713 0.542923 0.617729
0.767108 0.560269 0.621380
0.115267 0.568173 0.600302
0.123571 0.570169 0.599860
0.172723 0.577102 0.599262
0.308390 0.584840 0.599970
0.473831 0.592167 0.602342
0.605257 0.602648 0.607605
0.689300 0.609834 0.610693
0.739577 0.620443 0.617465
0.766024 0.641063 0.626485
0.121467 0.652024 0.610514
0.129029 0.652904 0.609949
0.172621 0.656161 0.608588
0.289952 0.660144 0.607672
0.445510 0.663744 0.608229
0.581811 0.667225 0.610039
0.670614 0.671560 0.612877
0.734417 0.677104 0.617779
0.765717 0.688430 0.629301
0.112509 0.706799 0.626371
0.118345 0.707266 0.625615
0.155840 0.708991 0.623021
0.251775 0.710998 0.620350
0.410650 0.712779 0.618782
0.544624 0.714567 0.618756
0.645771 0.717195 0.620064
0.726617 0.721365 0.622339
0.766861 0.728986 0.629717
0.082041 0.754503 0.643927
0.083808 0.756344 0.645140
0.088011 0.760501 0.649757
0.162041 0.760697 0.645761
0.336578 0.758609 0.640287
0.488544 0.757671 0.637637
0.608673 0.757967 0.636957
0.705823 0.760077 0.638058
0.770538 0.765464 0.637194
0.068297 0.130100 0.663721
0.070911 0.130831 0.668720
0.120312 0.159421 0.667904
0.387684 0.176847 0.667835
0.583331 0.200933 0.668882
0.667383 0.228910 0.670045
0.720208 0.248297 0.671168
0.751356 0.238545 0.670100
0.768559 0.172558 0.656864
0.069578 0.142755 0.664923
0.072787 0.145551 0.668978
0.122913 0.173569 0.668752
0.381639 0.192645 0.668634
0.579187 0.220405 0.669630
0.665563 0.249093 0.670740
0.719548 0.270987 0.671841
0.751040 0.260676 0.670811
0.768558 0.172553 0.656419
0.078575 0.217985 0.668358
0.082941 0.222408 0.670143
0.133809 0.252373 0.671259
0.368031 0.277638 0.671269
0.561853 0.303793 0.672126
0.658155 0.327800 0.673104
0.716804 0.349224 0.674139
0.749408 0.354797 0.673765
0.768551 0.172442 0.654392
0.091504 0.358733 0.669744
0.097958 0.362492 0.670762
0.151788 0.380675 0.673028
0.355237 0.398377 0.673991
0.538278 0.416440 0.674844
0.645592 0.436073 0.675886
0.712043 0.451162 0.676986
0.747113 0.459927 0.677344
0.768357 0.460728 0.668426
0.107035 0.483084 0.670273
0.114886 0.485978 0.670890
0.169171 0.497890 0.673231
0.343380 0.510746 0.675165
0.514214 0.522929 0.676710
0.628724 0.532340 0.678087
0.705137 0.541637 0.679620
0.744124 0.551202 0.681085
0.766957 0.569715 0.676953
0.120864 0.576026 0.671911
0.129389 0.577796 0.672135
0.180858 0.584519 0.673471
0.327762 0.592466 0.675484
0.486395 0.599804 0.677643
0.609738 0.607378 0.679613
0.693041 0.615836 0.681664
0.740517 0.626127 0.684102
0.766090 0.646742 0.683166
0.126278 0.655181 0.675883
0.134760 0.656029 0.675774
0.180990 0.659100 0.675782
0.303753 0.662904 0.676616
0.457087 0.666520 0.678430
0.587994 0.670064 0.680527
0.674916 0.674369 0.682354
0.736005 0.679779 0.685956
0.765940 0.691181 0.688445
0.114094 0.709776 0.683731
0.120249 0.710182 0.683376
0.160199 0.711640 0.682144
0.261913 0.713425 0.681262
0.417232 0.715088 0.681367
0.551708 0.716851 0.682453
0.650604 0.719532 0.684314
0.728449 0.723652 0.686759
0.767084 0.731308 0.692361
0.081866 0.754313 0.680309
0.085400 0.757893 0.680314
0.090421 0.762491 0.680459
0.150521 0.763952 0.694343
0.331999 0.760768 0.690832
0.488183 0.759713 0.689843
0.609013 0.760001 0.690002
0.706028 0.762121 0.691140
0.770652 0.767520 0.699376
0.071005 0.166765 0.725272
0.073490 0.167677 0.725273
0.127341 0.187729 0.722873
0.404449 0.211402 0.722731
0.590729 0.238182 0.723134
0.671906 0.267138 0.723635
0.721667 0.284356 0.723983
0.752378 0.271508 0.724271
0.768678 0.188496 0.708828
0.072436 0.178584 0.725451
0.075238 0.179894 0.725463
0.130980 0.205196 0.723353
0.401311 0.229337 0.723168
0.588339 0.257324 0.723526
0.670564 0.285450 0.723997
0.721194 0.302995 0.724340
0.752104 0.291575 0.724608
0.768717 0.195120 0.708828
0.081728 0.264399 0.726123
0.085585 0.267672 0.726115
0.150687 0.292169 0.724935
0.392194 0.314165 0.724664
0.576929 0.334631 0.724884
0.664567 0.359993 0.725260
0.719004 0.374535 0.725612
0.750727 0.374362 0.725850
0.769148 0.269457 0.708828
0.094740 0.385306 0.727078
0.101042 0.388019 0.727187
0.168473 0.404687 0.726750
0.377466 0.420407 0.726518
0.555687 0.437748 0.726657
0.654538 0.453295 0.726996
0.715358 0.465364 0.727424
0.748863 0.471715 0.727712
0.768510 0.479016 0.722667
0.110977 0.499554 0.727664
0.118914 0.501799 0.727922
0.183193 0.513112 0.728177
0.363228 0.524232 0.728296
0.531932 0.532376 0.728541
0.639817 0.541124 0.728921
0.709759 0.549628 0.729401
0.746419 0.557097 0.729853
0.767444 0.576652 0.726772
0.124826 0.585010 0.727783
0.133579 0.586512 0.728148
0.186273 0.593184 0.728982
0.348453 0.600203 0.729639
0.504389 0.607062 0.730136
0.620862 0.614439 0.730709
0.701055 0.622195 0.731318
0.743379 0.630603 0.731971
0.766789 0.649892 0.730041
0.128619 0.659435 0.727299
0.137418 0.660189 0.727646
0.183388 0.663266 0.728778
0.317552 0.666777 0.730152
0.468951 0.670084 0.731274
0.597013 0.673477 0.732188
0.682974 0.677472 0.733014
0.739127 0.682343 0.734058
0.766678 0.693716 0.732918
0.108370 0.715303 0.727820
0.114374 0.715550 0.727895
0.154510 0.716329 0.728244
0.258111 0.717500 0.729336
0.418420 0.718735 0.731023
0.555692 0.720321 0.732668
0.654457 0.722839 0.734098
0.728723 0.725446 0.734133
0.767576 0.733866 0.735734
0.079895 0.752405 0.719462
0.090112 0.762328 0.719980
0.091863 0.763798 0.722884
0.134186 0.767182 0.728014
0.299496 0.764746 0.728356
0.476187 0.763144 0.729280
0.603445 0.763157 0.730548
0.701740 0.765057 0.731671
0.770773 0.769990 0.740318
0.094825 0.200013 0.762846
0.103240 0.202724 0.762866
0.241640 0.213682 0.762937
0.534341 0.232878 0.763138
0.637519 0.256661 0.763443
0.698063 0.277845 0.763834
0.732219 0.283151 0.764685
0.758112 0.239193 0.766287
0.768559 0.222736 0.755874
0.097633 0.212607 0.762841
0.106308 0.215437 0.762860
0.243163 0.226844 0.762931
0.532375 0.246724 0.763131
0.636656 0.272101 0.763435
0.697630 0.292025 0.763832
0.732068 0.297495 0.764671
0.757976 0.252221 0.766260
0.768559 0.238958 0.762518
0.112164 0.281214 0.762663
0.122971 0.284101 0.762687
0.257166 0.295561 0.762772
0.524253 0.315100 0.763001
0.632770 0.333327 0.763322
0.695639 0.354758 0.763760
0.731300 0.359808 0.764553
0.757290 0.323120 0.766048
0.768560 0.239016 0.762518
0.140077 0.399495 0.762406
0.155948 0.401377 0.762445
0.281156 0.408806 0.762576
0.508576 0.421347 0.762846
0.624817 0.436190 0.763191
0.691301 0.448598 0.763654
0.729730 0.453991 0.764431
0.756154 0.445496 0.765713
0.770328 0.479878 0.767420
0.161711 0.507409 0.762464
0.176968 0.508677 0.762517
0.287738 0.513777 0.762693
0.484434 0.522096 0.762951
0.612413 0.529387 0.763338
0.684356 0.536102 0.763820
0.727320 0.540603 0.764527
0.755166 0.540198 0.765720
0.770520 0.566138 0.768595
0.165952 0.588652 0.762930
0.180120 0.589431 0.762992
0.279027 0.592643 0.763193
0.452280 0.597599 0.763477
0.592714 0.603162 0.763842
0.672545 0.608947 0.764315
0.723453 0.613505 0.764948
0.753803 0.615609 0.765969
0.770111 0.646692 0.768311
0.148991 0.661898 0.763876
0.161015 0.662301 0.763935
0.229178 0.663974 0.764103
0.403575 0.666313 0.764366
0.550613 0.668793 0.764735
0.649760 0.671608 0.765186
0.716126 0.674130 0.765832
0.751730 0.675486 0.766683
0.770094 0.692216 0.768564
0.104312 0.717833 0.764936
0.109450 0.718026 0.765130
0.145858 0.718736 0.765454
0.280626 0.719320 0.765685
0.461113 0.719812 0.766075
0.601428 0.721007 0.766528
0.694213 0.723118 0.767078
0.746267 0.724404 0.767821
0.770395 0.733843 0.769158
0.076321 0.749102 0.740467
0.091972 0.763893 0.748742
0.091973 0.763893 0.748742
0.101078 0.764837 0.748762
0.221393 0.771072 0.765329
0.448431 0.767995 0.768135
0.595951 0.767426 0.768808
0.699414 0.769180 0.769437
0.770922 0.772238 0.769917
