LUTs/negative-superia-xtra-400/SuperiaXtra400_Classic_Punchy.cube
TITLE "Fuji Superia X-tra 400 Classic Punchy"
# Adobe RGB in/out. REPLACES AgX. Fuji Superia X-tra 400 Classic Punchy.
LUT_3D_SIZE 9
DOMAIN_MIN 0.0 0.0 0.0
DOMAIN_MAX 1.0 1.0 1.0
0.068119 0.082999 0.079619
0.104638 0.086470 0.080664
0.222666 0.093358 0.083241
0.448455 0.105150 0.087025
0.647532 0.121530 0.091781
0.755915 0.142315 0.098843
0.811678 0.152339 0.107752
0.857627 0.103212 0.244069
0.863591 0.201001 0.424701
0.070424 0.098057 0.080881
0.093653 0.101724 0.082379
0.203503 0.105349 0.084913
0.409981 0.117570 0.088331
0.623059 0.137241 0.093079
0.750316 0.157960 0.099848
0.809898 0.166574 0.108556
0.857628 0.103225 0.244094
0.863592 0.201008 0.424698
0.075710 0.158162 0.084616
0.087543 0.170849 0.086121
0.147411 0.176200 0.088520
0.316449 0.184157 0.091795
0.550834 0.203538 0.097166
0.714324 0.229578 0.103619
0.799608 0.242932 0.113022
0.857964 0.108394 0.247053
0.863592 0.201009 0.424697
0.082829 0.283628 0.089361
0.090035 0.299209 0.090748
0.130772 0.325857 0.094584
0.246780 0.329155 0.098482
0.455646 0.339357 0.103740
0.662220 0.358074 0.111397
0.779742 0.380562 0.122087
0.841062 0.381014 0.133863
0.863592 0.201098 0.273494
0.088757 0.452703 0.095626
0.095794 0.463297 0.097258
0.125587 0.489389 0.102092
0.217009 0.501254 0.107557
0.382274 0.502634 0.114353
0.591785 0.509707 0.123711
0.751151 0.522031 0.133379
0.829061 0.532898 0.147267
0.863355 0.537760 0.182933
0.095684 0.589551 0.102897
0.100834 0.594881 0.104346
0.126647 0.612778 0.111383
0.200878 0.623747 0.120239
0.340164 0.627625 0.128676
0.535281 0.629312 0.136671
0.705978 0.634910 0.150372
0.812521 0.643600 0.165635
0.861197 0.655833 0.186838
0.099283 0.686579 0.110423
0.103390 0.689109 0.112416
0.125657 0.699845 0.121354
0.191387 0.710088 0.131772
0.312830 0.714984 0.143151
0.491755 0.716712 0.156680
0.666685 0.719696 0.170271
0.793068 0.726187 0.185988
0.859357 0.738235 0.204491
0.089916 0.787566 0.108356
0.094248 0.787574 0.110300
0.119783 0.789300 0.124155
0.179230 0.793883 0.137765
0.289240 0.795597 0.156523
0.454423 0.795672 0.173360
0.630655 0.796347 0.188650
0.772498 0.798909 0.203488
0.859139 0.803201 0.221206
0.068119 0.805630 0.099186
0.068119 0.805632 0.099187
0.122653 0.829272 0.099237
0.122656 0.830239 0.123102
0.246279 0.833936 0.145054
0.412818 0.831761 0.170771
0.593214 0.830910 0.190622
0.746462 0.832117 0.206232
0.863490 0.835542 0.218117
0.068891 0.085438 0.095944
0.092790 0.088577 0.099785
0.207331 0.095543 0.101464
0.465439 0.108259 0.103420
0.655428 0.123869 0.103686
0.756941 0.144750 0.107637
0.811526 0.154629 0.117493
0.857628 0.103224 0.244097
0.863592 0.201008 0.424702
0.076213 0.098066 0.097949
0.109472 0.105440 0.102518
0.206437 0.108494 0.101032
0.428368 0.121477 0.104010
0.637128 0.140709 0.104806
0.752557 0.160252 0.109064
0.809855 0.168717 0.118259
0.857629 0.103244 0.244136
0.863592 0.201009 0.424698
0.084217 0.155635 0.101105
0.098196 0.163834 0.102020
0.169219 0.171826 0.103742
0.351609 0.185939 0.107973
0.569629 0.207363 0.110692
0.722001 0.231504 0.115055
0.800544 0.244407 0.123753
0.858061 0.109964 0.248355
0.863592 0.201009 0.424697
0.089901 0.278869 0.104614
0.100280 0.290513 0.106511
0.146828 0.312987 0.110816
0.272618 0.321577 0.115497
0.483285 0.337877 0.120299
0.672709 0.358516 0.125080
0.782727 0.380614 0.132789
0.841277 0.381887 0.144848
0.863592 0.201036 0.424692
0.095990 0.446981 0.108644
0.102982 0.456509 0.111062
0.137852 0.481386 0.117932
0.233249 0.493730 0.125010
0.403474 0.498068 0.131715
0.606177 0.507612 0.136862
0.756213 0.521034 0.147286
0.830194 0.532250 0.160781
0.863317 0.539049 0.203010
0.100602 0.585715 0.114537
0.105578 0.590867 0.117162
0.135213 0.608853 0.125574
0.211833 0.619562 0.134010
0.353859 0.624238 0.143840
0.547278 0.627075 0.155602
0.713386 0.633660 0.166930
0.814974 0.642807 0.180444
0.861241 0.655996 0.199608
0.102862 0.684974 0.121973
0.107219 0.687420 0.124352
0.132076 0.697604 0.133076
0.198905 0.707487 0.145882
0.322470 0.712603 0.160215
0.502665 0.714893 0.174047
0.673231 0.718406 0.187701
0.796237 0.725400 0.201091
0.859562 0.738115 0.217214
0.093246 0.785931 0.116201
0.097478 0.786103 0.118945
0.123025 0.788055 0.134246
0.184662 0.792476 0.153449
0.296012 0.794462 0.172597
0.461779 0.794869 0.189586
0.636799 0.795976 0.204641
0.775573 0.798648 0.219431
0.859492 0.803125 0.235926
0.068119 0.810510 0.215974
0.068119 0.810513 0.215976
0.122653 0.833544 0.215978
0.122657 0.833543 0.215963
0.249866 0.833884 0.159312
0.417004 0.831692 0.186606
0.596526 0.830890 0.206509
0.749098 0.832141 0.222633
0.863882 0.835580 0.234142
0.070810 0.090794 0.157229
0.101237 0.094717 0.216671
0.198445 0.101235 0.205936
0.456284 0.114238 0.205040
0.655908 0.133174 0.207638
0.757266 0.154445 0.219742
0.810815 0.163804 0.238218
0.857810 0.105952 0.262679
0.863592 0.201009 0.424738
0.078942 0.103323 0.164129
0.103068 0.107244 0.176977
0.200319 0.113768 0.185349
0.430593 0.128883 0.193806
0.643449 0.150417 0.200644
0.753954 0.169439 0.213313
0.809416 0.177457 0.228299
0.857880 0.107172 0.265226
0.863592 0.201009 0.424705
0.090734 0.158134 0.172343
0.106228 0.164210 0.171314
0.203201 0.188518 0.191587
0.373859 0.192204 0.186718
0.593029 0.216284 0.196402
0.733053 0.240280 0.209188
0.802330 0.252094 0.217589
0.857358 0.153318 0.274852
0.863592 0.201009 0.424698
0.102738 0.277713 0.187372
0.113642 0.285949 0.187635
0.171071 0.303767 0.189252
0.311422 0.316643 0.193080
0.529265 0.339888 0.202590
0.695469 0.364673 0.214094
0.788954 0.385175 0.221085
0.841935 0.386542 0.242543
0.863592 0.201013 0.424703
0.111634 0.444341 0.198393
0.119564 0.451292 0.199731
0.164549 0.470774 0.203546
0.272033 0.483920 0.208354
0.452361 0.492025 0.214295
0.647933 0.505653 0.226272
0.768266 0.520868 0.233642
0.833386 0.531410 0.249959
0.863174 0.544063 0.319386
0.117949 0.582388 0.211490
0.124128 0.586444 0.213078
0.163081 0.601319 0.218796
0.248350 0.611517 0.226157
0.399099 0.617521 0.233954
0.585573 0.622647 0.242775
0.737549 0.631222 0.250777
0.821655 0.640918 0.266211
0.861390 0.656741 0.273757
0.119453 0.682089 0.217391
0.124655 0.684184 0.219507
0.156996 0.692299 0.227754
0.230519 0.700795 0.238129
0.360028 0.706335 0.248557
0.537585 0.710123 0.259131
0.696854 0.715097 0.270169
0.806355 0.723065 0.286327
0.860193 0.737863 0.287954
0.112288 0.777370 0.225855
0.116786 0.778347 0.228600
0.147356 0.782502 0.242210
0.211845 0.787065 0.255716
0.327854 0.789716 0.268906
0.495419 0.791158 0.281658
0.660350 0.793947 0.295292
0.787525 0.797709 0.309051
0.860474 0.802913 0.309133
0.068119 0.810513 0.215987
0.122652 0.833543 0.215985
0.122653 0.833544 0.215982
0.122686 0.833546 0.215985
0.270677 0.833232 0.242708
0.436916 0.831254 0.274294
0.611420 0.830701 0.295053
0.757892 0.832148 0.312305
0.864546 0.835745 0.320075
0.073612 0.098751 0.292327
0.092468 0.105229 0.365812
0.197369 0.113379 0.389235
0.429947 0.125832 0.384868
0.645922 0.148286 0.389761
0.754099 0.168978 0.399450
0.808821 0.179491 0.421435
0.852946 0.147804 0.468884
0.863592 0.201008 0.472114
0.080654 0.112305 0.303179
0.098930 0.117953 0.334959
0.200092 0.127623 0.367974
0.412355 0.143030 0.369302
0.634281 0.164778 0.378367
0.750922 0.183077 0.390432
0.807549 0.194441 0.413670
0.852448 0.159576 0.465281
0.863592 0.201009 0.472563
0.096437 0.172287 0.313846
0.110950 0.177883 0.314261
0.194949 0.189608 0.328732
0.373170 0.204783 0.339874
0.595067 0.229106 0.355383
0.733322 0.252998 0.369290
0.801579 0.266619 0.390080
0.847194 0.254535 0.439034
0.863592 0.201009 0.474197
0.110672 0.283427 0.326621
0.121520 0.290364 0.324941
0.185123 0.307154 0.325142
0.347598 0.341603 0.350409
0.544056 0.348092 0.347663
0.703806 0.373714 0.359736
0.791107 0.395109 0.374558
0.841534 0.399553 0.405359
0.863592 0.201039 0.474688
0.122903 0.446130 0.349276
0.134540 0.451661 0.348340
0.185461 0.468157 0.347773
0.300343 0.481701 0.349532
0.486706 0.491820 0.354153
0.665596 0.507449 0.364408
0.775137 0.523393 0.375597
0.834737 0.534945 0.391370
0.862910 0.553188 0.468004
0.134180 0.581405 0.365604
0.143556 0.584817 0.365420
0.186826 0.597108 0.366023
0.279214 0.607706 0.367603
0.435558 0.614425 0.371224
0.616325 0.620951 0.376950
0.754025 0.630684 0.386626
0.825777 0.640821 0.396834
0.861429 0.659196 0.437369
0.138680 0.680630 0.383071
0.146363 0.682403 0.383157
0.182992 0.689097 0.384479
0.261621 0.696623 0.386874
0.396523 0.702346 0.390611
0.568646 0.707153 0.396004
0.719080 0.713247 0.402847
0.814123 0.722058 0.411507
0.860663 0.738684 0.426767
0.128725 0.774400 0.406300
0.135651 0.775421 0.406210
0.170182 0.779432 0.407391
0.238461 0.783570 0.409314
0.359085 0.786563 0.412891
0.526601 0.788819 0.417894
0.680451 0.792431 0.424443
0.798478 0.797234 0.432060
0.861299 0.803147 0.436133
0.098955 0.823083 0.487430
0.122647 0.836096 0.487430
0.122653 0.836099 0.487428
0.169566 0.838162 0.424971
0.304418 0.831890 0.447809
0.465830 0.830621 0.450118
0.633182 0.830532 0.455291
0.769098 0.832205 0.461909
0.865013 0.836218 0.459988
0.076718 0.112164 0.458231
0.086897 0.116659 0.481300
0.189862 0.133074 0.520672
0.409787 0.149190 0.522386
0.629904 0.168539 0.524635
0.748702 0.188885 0.532118
0.806171 0.203605 0.542583
0.849515 0.182264 0.557461
0.863592 0.201010 0.575706
0.081898 0.124508 0.464502
0.093216 0.131760 0.480209
0.191139 0.149850 0.514347
0.398284 0.165420 0.517886
0.620209 0.183447 0.521052
0.744987 0.205886 0.529363
0.805009 0.219647 0.540629
0.848939 0.197000 0.556508
0.863592 0.201010 0.572814
0.099027 0.188915 0.472903
0.111240 0.195533 0.476196
0.191781 0.212705 0.494653
0.371373 0.228458 0.503860
0.588338 0.247918 0.509670
0.730110 0.272736 0.519967
0.799857 0.288698 0.533253
0.845253 0.284629 0.552064
0.863592 0.201016 0.563603
0.116593 0.303328 0.479922
0.128062 0.309616 0.479363
0.193771 0.327588 0.483359
0.343333 0.344606 0.491102
0.547345 0.363321 0.497959
0.705722 0.389814 0.509248
0.790969 0.410023 0.522806
0.840689 0.417346 0.543432
0.864702 0.350770 0.563686
0.133267 0.452952 0.490254
0.145466 0.458072 0.489164
0.198128 0.473235 0.488252
0.316818 0.485938 0.490360
0.516605 0.506590 0.504226
0.674162 0.513790 0.505206
0.778104 0.530179 0.516488
0.834962 0.542987 0.533125
0.862560 0.565248 0.566367
0.148075 0.584260 0.506713
0.157552 0.587273 0.505764
0.203875 0.598115 0.503974
0.301398 0.607962 0.503481
0.461628 0.615204 0.505646
0.636466 0.622527 0.509810
0.760951 0.632793 0.518584
0.828004 0.643385 0.529222
0.861313 0.663575 0.561731
0.154054 0.681276 0.525507
0.162866 0.682880 0.524680
0.202069 0.688742 0.522623
0.286207 0.695677 0.521032
0.424656 0.701552 0.521359
0.592300 0.707005 0.523715
0.734529 0.713824 0.527923
0.819074 0.722946 0.534516
0.860834 0.741231 0.555546
0.144507 0.774318 0.552355
0.151441 0.775207 0.551353
0.188819 0.778577 0.547768
0.261012 0.782396 0.544237
0.384763 0.785493 0.542337
0.548299 0.788294 0.542731
0.697299 0.792506 0.545175
0.806404 0.797556 0.549072
0.861771 0.804110 0.554516
0.105116 0.827579 0.649167
0.108970 0.829481 0.649167
0.117126 0.833940 0.649164
0.200548 0.833501 0.588200
0.323789 0.831706 0.579402
0.486433 0.830757 0.575712
0.649697 0.830864 0.575236
0.777595 0.832717 0.578139
0.865327 0.837298 0.569994
0.080152 0.132480 0.591669
0.086369 0.135347 0.603934
0.182499 0.160608 0.623213
0.388464 0.175497 0.624963
0.617619 0.194946 0.627129
0.742497 0.216792 0.630564
0.803534 0.232715 0.635028
0.847015 0.220637 0.638429
0.863592 0.201010 0.627767
0.083727 0.146253 0.595377
0.090047 0.150342 0.605059
0.183542 0.174478 0.622783
0.381142 0.189624 0.624850
0.610089 0.211380 0.627217
0.739267 0.232920 0.630679
0.802515 0.248178 0.635360
0.846508 0.236110 0.638906
0.863592 0.201010 0.627767
0.100964 0.214261 0.603414
0.110178 0.218996 0.607083
0.189300 0.239751 0.619823
0.364450 0.255712 0.623896
0.583807 0.275871 0.626934
0.726555 0.297935 0.630865
0.798139 0.316160 0.636376
0.843676 0.317618 0.641302
0.863592 0.201016 0.627766
0.119785 0.326346 0.606273
0.130851 0.331486 0.607089
0.197944 0.351602 0.614213
0.346120 0.369905 0.620673
0.550595 0.389309 0.625031
0.705671 0.409146 0.629740
0.790453 0.428918 0.636630
0.839850 0.438892 0.644014
0.864237 0.403694 0.631801
0.141368 0.469705 0.611260
0.152423 0.474000 0.611030
0.208508 0.486583 0.613081
0.329186 0.499040 0.617512
0.518476 0.510870 0.622661
0.678545 0.524033 0.627733
0.779487 0.540464 0.635624
0.834981 0.554144 0.645414
0.862231 0.579121 0.650687
0.156977 0.590605 0.620412
0.168408 0.593517 0.619782
0.215979 0.603658 0.618928
0.315842 0.611667 0.619939
0.478272 0.619198 0.623325
0.652026 0.629967 0.630856
0.764988 0.637350 0.635288
0.829215 0.648245 0.645033
0.861215 0.669413 0.658079
0.165584 0.684192 0.635031
0.175146 0.685643 0.634220
0.215885 0.691020 0.632266
0.302887 0.697614 0.630952
0.443943 0.703595 0.631752
0.608611 0.709396 0.634348
0.744314 0.716644 0.638426
0.822034 0.725952 0.645486
0.860926 0.745103 0.662165
0.153585 0.776546 0.657913
0.161392 0.777351 0.656818
0.200383 0.780329 0.653059
0.276351 0.783799 0.649198
0.402298 0.786883 0.646934
0.563421 0.789984 0.646896
0.708911 0.794549 0.648785
0.811201 0.798767 0.652073
0.861999 0.805700 0.662770
0.107624 0.828821 0.682004
0.110938 0.830484 0.683401
0.117622 0.834236 0.688720
0.205973 0.834413 0.684117
0.333015 0.832529 0.677813
0.497427 0.831682 0.674764
0.656781 0.831949 0.673885
0.782461 0.833854 0.675248
0.865446 0.838711 0.674253
0.083708 0.162116 0.704829
0.087922 0.163325 0.710603
0.164033 0.187128 0.709660
0.376482 0.205500 0.709581
0.611272 0.226724 0.710790
0.739688 0.247622 0.712133
0.802321 0.261703 0.713432
0.845655 0.254656 0.712197
0.863591 0.200995 0.696915
0.086156 0.173598 0.706217
0.091208 0.175439 0.710901
0.167524 0.202058 0.710640
0.371698 0.220358 0.710503
0.605417 0.241354 0.711654
0.737085 0.262273 0.712937
0.801409 0.277822 0.714210
0.845213 0.270499 0.713018
0.863591 0.200990 0.696402
0.101993 0.239559 0.710184
0.109370 0.242835 0.712247
0.180744 0.264615 0.713537
0.360877 0.283164 0.713548
0.584222 0.304454 0.714539
0.726510 0.326798 0.715669
0.797613 0.344363 0.716953
0.842931 0.348967 0.716453
0.863584 0.200874 0.694064
0.122008 0.353255 0.711786
0.132493 0.357355 0.712962
0.196842 0.377248 0.715582
0.349054 0.396654 0.716755
0.555787 0.413854 0.717896
0.708657 0.432513 0.719291
0.791036 0.449206 0.720764
0.839725 0.460303 0.721244
0.863402 0.461320 0.710263
0.146384 0.486588 0.712397
0.156493 0.489454 0.713110
0.212670 0.501250 0.715816
0.337720 0.513973 0.718326
0.527596 0.526027 0.720395
0.684845 0.539061 0.722239
0.781516 0.552304 0.724293
0.835554 0.566026 0.726259
0.862090 0.592854 0.720720
0.164774 0.602081 0.714290
0.175571 0.604426 0.714550
0.223494 0.611338 0.716094
0.327706 0.619506 0.718753
0.494618 0.627046 0.721644
0.658265 0.634827 0.724284
0.768627 0.643514 0.727035
0.830526 0.654081 0.730307
0.861277 0.675513 0.729050
0.171892 0.689399 0.719287
0.181612 0.690801 0.719141
0.223615 0.695883 0.719151
0.312948 0.702198 0.720268
0.456788 0.708220 0.722698
0.619939 0.714139 0.725510
0.750484 0.721354 0.727961
0.824242 0.730459 0.732797
0.861136 0.749781 0.736143
0.155524 0.781686 0.729809
0.163948 0.782387 0.729333
0.204230 0.784911 0.727678
0.282715 0.788003 0.726496
0.411096 0.790888 0.726637
0.571961 0.793951 0.728094
0.715768 0.797097 0.730591
0.813743 0.800849 0.733877
0.862209 0.807810 0.741415
0.107286 0.828650 0.725217
0.113565 0.831883 0.725224
0.120640 0.836031 0.725418
0.195728 0.837348 0.744086
0.330262 0.834477 0.739356
0.496954 0.833525 0.738025
0.657254 0.833785 0.738239
0.782743 0.835697 0.739771
0.865553 0.840563 0.750876
0.088039 0.194894 0.789945
0.092743 0.195856 0.789946
0.173150 0.216541 0.784964
0.394055 0.234644 0.784668
0.625048 0.254393 0.785503
0.746166 0.275037 0.786543
0.804341 0.288531 0.787266
0.847084 0.278242 0.787865
0.863703 0.217139 0.763664
0.090410 0.207321 0.790318
0.095988 0.208694 0.790343
0.177448 0.229965 0.785959
0.389900 0.247936 0.785574
0.620583 0.268130 0.786318
0.744242 0.289403 0.787294
0.803687 0.303802 0.788008
0.846700 0.294431 0.788564
0.863740 0.222268 0.763664
0.107018 0.273118 0.791715
0.113872 0.275410 0.791700
0.195875 0.294920 0.789243
0.380042 0.312905 0.788680
0.602670 0.333315 0.789138
0.735662 0.354629 0.789919
0.800656 0.370518 0.790653
0.844775 0.370329 0.791147
0.864144 0.276657 0.763664
0.127130 0.382331 0.793705
0.137553 0.385312 0.793933
0.212018 0.402666 0.793021
0.368388 0.417628 0.792539
0.576766 0.434104 0.792828
0.721361 0.451902 0.793534
0.795614 0.467214 0.794426
0.842170 0.475315 0.795027
0.863546 0.482558 0.784536
0.151708 0.502896 0.794927
0.162156 0.505118 0.795464
0.225899 0.516315 0.795997
0.356687 0.527587 0.796246
0.548166 0.539112 0.796614
0.700484 0.551572 0.797129
0.787885 0.563761 0.797783
0.838756 0.574530 0.798396
0.862546 0.602998 0.793068
0.170092 0.611843 0.795174
0.180508 0.613386 0.795936
0.233786 0.620244 0.797213
0.342570 0.627456 0.798105
0.517840 0.634503 0.798781
0.673809 0.642079 0.799560
0.776412 0.650045 0.800388
0.834515 0.658676 0.801277
0.861932 0.680684 0.798652
0.174661 0.696438 0.794166
0.184029 0.697690 0.794889
0.229589 0.702800 0.796936
0.321513 0.708648 0.798803
0.471955 0.714173 0.800330
0.636854 0.719858 0.801573
0.758830 0.726571 0.802697
0.828589 0.734788 0.804117
0.861828 0.754102 0.802565
0.148314 0.791262 0.795252
0.155866 0.791691 0.795410
0.199224 0.793043 0.796136
0.280341 0.795080 0.797694
0.412689 0.796371 0.799987
0.576772 0.797816 0.802225
0.721245 0.800109 0.804172
0.814123 0.802481 0.804220
0.862670 0.810133 0.806400
0.103967 0.826926 0.778103
0.120279 0.835884 0.778975
0.122502 0.837209 0.784986
0.181088 0.840258 0.795657
0.310275 0.838063 0.796362
0.481327 0.836620 0.797618
0.649038 0.836632 0.799342
0.777077 0.838344 0.800869
0.865666 0.842787 0.812649
0.127294 0.226022 0.843494
0.140903 0.228089 0.843522
0.269880 0.236352 0.843620
0.551057 0.250530 0.843896
0.697238 0.267661 0.844315
0.773507 0.283329 0.844852
0.818979 0.287570 0.846023
0.853788 0.255126 0.848225
0.863592 0.243077 0.833924
0.131961 0.235547 0.843488
0.145333 0.237663 0.843514
0.270860 0.246102 0.843611
0.548698 0.260557 0.843887
0.696020 0.278719 0.844304
0.773087 0.294801 0.844850
0.818768 0.299297 0.846003
0.853660 0.264506 0.848189
0.863592 0.254956 0.843044
0.153163 0.286024 0.843244
0.167603 0.288327 0.843276
0.279749 0.297709 0.843392
0.538966 0.313707 0.843707
0.690540 0.332323 0.844149
0.771152 0.348924 0.844750
0.817702 0.354426 0.845841
0.853016 0.321971 0.847898
0.863592 0.254998 0.843044
0.186431 0.397719 0.842890
0.200477 0.399513 0.842943
0.294515 0.406589 0.843124
0.521998 0.418521 0.843495
0.679356 0.432625 0.843969
0.766935 0.445971 0.844605
0.815522 0.452781 0.845674
0.851948 0.442065 0.847437
0.865249 0.483413 0.849785
0.205661 0.510671 0.842969
0.219912 0.511926 0.843042
0.300717 0.516973 0.843285
0.492059 0.525203 0.843639
0.661995 0.534873 0.844170
0.760176 0.544408 0.844834
0.812177 0.550827 0.845805
0.850985 0.550249 0.847446
0.865429 0.587643 0.851401
0.209655 0.615586 0.843609
0.222815 0.616386 0.843696
0.293227 0.619688 0.843972
0.451450 0.624780 0.844361
0.628767 0.630496 0.844864
0.747083 0.636438 0.845513
0.806815 0.641121 0.846384
0.849077 0.643281 0.847788
0.865045 0.675430 0.851011
0.194380 0.700525 0.844911
0.205003 0.701195 0.844992
0.261763 0.703978 0.845223
0.392896 0.707874 0.845585
0.570640 0.712015 0.846091
0.714570 0.716725 0.846712
0.796676 0.720954 0.847600
0.846178 0.723230 0.848771
0.865030 0.751545 0.851359
0.142450 0.795549 0.846367
0.149833 0.795725 0.846634
0.191605 0.796372 0.847080
0.294194 0.796904 0.847398
0.461850 0.797353 0.847934
0.645206 0.798441 0.848557
0.769766 0.800363 0.849314
0.838545 0.801533 0.850337
0.865312 0.810112 0.852177
0.098015 0.823939 0.812851
0.122653 0.837295 0.824157
0.122654 0.837295 0.824157
0.137612 0.838146 0.824184
0.256661 0.843761 0.846908
0.447180 0.840991 0.850768
0.634852 0.840478 0.851695
0.774819 0.842058 0.852561
0.865806 0.845322 0.853222
