LUTs/negative-superia-xtra-400/SuperiaXtra400_Classic_Punchy.cube
TITLE "Fuji Superia X-tra 400 Classic Punchy"
# Adobe RGB in/out. REPLACES AgX. Fuji Superia X-tra 400 Classic Punchy.
LUT_3D_SIZE 33
DOMAIN_MIN 0.0 0.0 0.0
DOMAIN_MAX 1.0 1.0 1.0
0.068119 0.082999 0.079619
0.071900 0.083515 0.079796
0.073373 0.083719 0.079872
0.082875 0.084818 0.080196
0.104638 0.086470 0.080664
0.115649 0.087435 0.080908
0.145375 0.089514 0.081688
0.193560 0.091927 0.082740
0.222666 0.093358 0.083241
0.268967 0.095516 0.084233
0.342043 0.099482 0.085576
0.397090 0.102638 0.086353
0.448455 0.105150 0.087025
0.510066 0.109146 0.088290
0.565348 0.114391 0.089856
0.607352 0.117954 0.090794
0.647532 0.121530 0.091781
0.677954 0.126759 0.093633
0.707015 0.134244 0.095835
0.733616 0.138032 0.097179
0.755915 0.142315 0.098843
0.770674 0.147400 0.100980
0.785315 0.151425 0.103114
0.800065 0.151787 0.104730
0.811678 0.152339 0.107752
0.822406 0.151326 0.111351
0.836378 0.139985 0.112838
0.844124 0.132863 0.120240
0.857627 0.103212 0.244069
0.857625 0.103193 0.244028
0.857625 0.103191 0.244026
0.857625 0.103192 0.244024
0.863591 0.201001 0.424701
0.068190 0.085096 0.079751
0.072233 0.085290 0.079880
0.076824 0.084309 0.079855
0.086692 0.085268 0.080303
0.108888 0.087137 0.080758
0.118084 0.087843 0.080977
0.147277 0.089984 0.081783
0.194005 0.092367 0.082826
0.222289 0.093795 0.083339
0.267777 0.095864 0.084305
0.340213 0.100018 0.085629
0.395063 0.103093 0.086395
0.446405 0.105665 0.087085
0.508096 0.109604 0.088341
0.564040 0.114875 0.089899
0.606187 0.118466 0.090831
0.646540 0.122001 0.091839
0.677368 0.127421 0.093685
0.706557 0.134886 0.095880
0.733240 0.138643 0.097219
0.755711 0.142989 0.098888
0.770517 0.148058 0.101019
0.785193 0.152071 0.103148
0.799967 0.152420 0.104758
0.811604 0.152961 0.107783
0.822350 0.151942 0.111363
0.836331 0.140596 0.112820
0.844097 0.133369 0.120071
0.857627 0.103212 0.244070
0.857625 0.103193 0.244028
0.857625 0.103191 0.244026
0.857625 0.103192 0.244024
0.863591 0.201003 0.424700
0.068464 0.085701 0.079843
0.069664 0.086053 0.079982
0.073630 0.086181 0.080008
0.085312 0.087423 0.080562
0.107221 0.089594 0.080979
0.121484 0.089892 0.081297
0.152696 0.091685 0.082171
0.199161 0.094586 0.083151
0.223314 0.095486 0.083705
0.265056 0.097187 0.084573
0.334413 0.102044 0.085825
0.388086 0.104797 0.086549
0.439085 0.107583 0.087304
0.500917 0.111301 0.088525
0.559210 0.116691 0.090056
0.601859 0.120356 0.090966
0.642845 0.123791 0.092051
0.675183 0.129860 0.093871
0.704851 0.137244 0.096045
0.731839 0.141114 0.097365
0.754953 0.145463 0.099052
0.769932 0.150466 0.101162
0.784738 0.154436 0.103270
0.799605 0.154739 0.104860
0.811332 0.155238 0.107901
0.822145 0.154196 0.111415
0.836156 0.142836 0.112769
0.843996 0.135222 0.119512
0.857627 0.103214 0.244073
0.857626 0.103193 0.244028
0.857625 0.103191 0.244026
0.857626 0.103193 0.244024
0.863592 0.201006 0.424699
0.069370 0.090032 0.080266
0.070084 0.090363 0.080463
0.073843 0.090978 0.080666
0.081258 0.091008 0.080804
0.099290 0.094134 0.081574
0.112983 0.093303 0.081787
0.143875 0.095321 0.082668
0.191507 0.098278 0.083789
0.219806 0.099072 0.084260
0.260736 0.101524 0.085037
0.327570 0.106450 0.086198
0.377508 0.109298 0.086849
0.426346 0.111435 0.087722
0.487540 0.114988 0.088874
0.549828 0.120796 0.090353
0.593307 0.124265 0.091221
0.635489 0.128836 0.092452
0.670813 0.134612 0.094224
0.701440 0.142186 0.096357
0.729044 0.146093 0.097641
0.753442 0.150236 0.099362
0.768772 0.155098 0.101433
0.783838 0.158973 0.103505
0.798890 0.159184 0.105059
0.810796 0.159600 0.108141
0.821740 0.158514 0.111543
0.835813 0.147147 0.112743
0.843795 0.138790 0.118663
0.857627 0.103218 0.244080
0.857626 0.103193 0.244029
0.857625 0.103192 0.244026
0.857626 0.103196 0.244024
0.863592 0.201008 0.424699
0.070424 0.098057 0.080881
0.071426 0.098732 0.081057
0.074924 0.100692 0.081414
0.082683 0.101763 0.081822
0.093653 0.101724 0.082379
0.105201 0.099278 0.082499
0.129178 0.101976 0.083202
0.172802 0.105672 0.084507
0.203503 0.105349 0.084913
0.246578 0.107498 0.085598
0.315540 0.112944 0.086706
0.363042 0.115348 0.087554
0.409981 0.117570 0.088331
0.469082 0.121779 0.089406
0.535091 0.129763 0.090820
0.579298 0.133516 0.091697
0.623059 0.137241 0.093079
0.663330 0.142901 0.094774
0.695594 0.150796 0.096842
0.724253 0.154202 0.098137
0.750316 0.157960 0.099848
0.766804 0.162554 0.101861
0.782319 0.166252 0.103880
0.797687 0.166302 0.105564
0.809898 0.166574 0.108556
0.821060 0.165417 0.111814
0.835239 0.154095 0.112859
0.843448 0.145332 0.117798
0.857628 0.103225 0.244094
0.857626 0.103194 0.244031
0.857625 0.103192 0.244027
0.857628 0.103221 0.244025
0.863592 0.201008 0.424698
0.071242 0.103889 0.081354
0.071934 0.104242 0.081507
0.074429 0.106258 0.081755
0.080097 0.108033 0.082361
0.087823 0.108731 0.082690
0.100523 0.108636 0.083168
0.119736 0.111993 0.084144
0.155672 0.116717 0.085383
0.184705 0.114775 0.085595
0.226031 0.116275 0.086187
0.292029 0.122298 0.087480
0.343291 0.124884 0.088376
0.391557 0.127456 0.089095
0.449685 0.132550 0.090070
0.519927 0.140831 0.091376
0.563248 0.145312 0.092602
0.606311 0.149997 0.093914
0.651411 0.156770 0.095558
0.685995 0.164142 0.097539
0.716352 0.166619 0.098925
0.744077 0.169673 0.100549
0.763595 0.173769 0.102481
0.779860 0.177138 0.104431
0.795751 0.176923 0.106367
0.808461 0.176957 0.109224
0.819974 0.175695 0.112326
0.834319 0.164573 0.113296
0.842876 0.155402 0.117323
0.857629 0.103239 0.244121
0.857626 0.103195 0.244034
0.857626 0.103193 0.244029
0.863588 0.200947 0.244026
0.863592 0.201009 0.424698
0.072853 0.117454 0.082446
0.073306 0.117877 0.082578
0.075735 0.120263 0.082977
0.080845 0.122987 0.083474
0.087994 0.125387 0.084091
0.099834 0.126263 0.084601
0.114385 0.126024 0.085171
0.144115 0.134639 0.086245
0.168812 0.129707 0.086382
0.205920 0.130766 0.086874
0.267019 0.139179 0.088503
0.318873 0.141591 0.089308
0.367183 0.142487 0.089872
0.426166 0.147424 0.090775
0.498329 0.156851 0.092460
0.545993 0.161300 0.093737
0.589298 0.164048 0.094884
0.636755 0.169511 0.096396
0.675928 0.177791 0.098454
0.706470 0.181310 0.099878
0.734709 0.185749 0.101474
0.758278 0.191684 0.103347
0.775825 0.195254 0.105281
0.792598 0.194404 0.107538
0.806141 0.193936 0.110252
0.818227 0.192112 0.113218
0.832823 0.180080 0.114501
0.841916 0.170506 0.117753
0.857632 0.103277 0.244187
0.857626 0.103199 0.244042
0.857626 0.103194 0.244033
0.863592 0.201005 0.244027
0.863592 0.201009 0.424698
0.074807 0.142633 0.083857
0.075277 0.143229 0.083994
0.077722 0.147231 0.084521
0.082524 0.151847 0.085094
0.088860 0.156125 0.085605
0.100549 0.158689 0.086164
0.114600 0.159361 0.086590
0.134914 0.159028 0.087179
0.156087 0.151806 0.087312
0.190267 0.152044 0.088057
0.244292 0.161675 0.089577
0.293390 0.162438 0.090262
0.340810 0.162031 0.090753
0.400186 0.166165 0.091617
0.473432 0.174998 0.093752
0.527352 0.177857 0.094881
0.570420 0.180643 0.095974
0.617825 0.186962 0.097437
0.663571 0.197313 0.099662
0.696107 0.199800 0.100943
0.726516 0.203932 0.102419
0.753596 0.210362 0.104225
0.771394 0.216765 0.106701
0.788286 0.219276 0.109012
0.802202 0.222788 0.111791
0.815277 0.220650 0.114972
0.830238 0.208665 0.116902
0.840213 0.195932 0.119733
0.857643 0.103430 0.244413
0.857627 0.103212 0.244067
0.857626 0.103199 0.244044
0.863592 0.201008 0.244032
0.863592 0.201009 0.424698
0.075710 0.158162 0.084616
0.076106 0.158626 0.084715
0.078036 0.161372 0.085092
0.082178 0.166127 0.085618
0.087543 0.170849 0.086121
0.096795 0.174268 0.086574
0.108691 0.176195 0.087170
0.123336 0.176533 0.087835
0.147411 0.176200 0.088520
0.177562 0.176087 0.089193
0.226858 0.186360 0.090658
0.271038 0.185875 0.091241
0.316449 0.184157 0.091795
0.373503 0.187595 0.093119
0.446010 0.198340 0.095164
0.503818 0.200732 0.096178
0.550834 0.203538 0.097166
0.599064 0.210295 0.098722
0.650965 0.220409 0.100953
0.683369 0.223956 0.102180
0.714324 0.229578 0.103619
0.745015 0.234177 0.105416
0.766675 0.239189 0.108263
0.784747 0.240360 0.110406
0.799608 0.242932 0.113022
0.812629 0.245829 0.116670
0.827107 0.242540 0.119587
0.837243 0.240088 0.123589
0.857964 0.108394 0.247053
0.857638 0.103369 0.244329
0.857628 0.103232 0.244114
0.863592 0.201009 0.244053
0.863592 0.201009 0.424697
0.077263 0.180569 0.085616
0.077638 0.180962 0.085690
0.079218 0.183071 0.085969
0.082953 0.188383 0.086425
0.087573 0.194574 0.086909
0.095923 0.200251 0.087654
0.106219 0.203858 0.088382
0.119743 0.205605 0.089051
0.140493 0.205943 0.089680
0.167112 0.205615 0.090298
0.212005 0.219836 0.091816
0.252274 0.218531 0.092812
0.294619 0.214746 0.093435
0.348772 0.217423 0.094681
0.419050 0.228203 0.096633
0.475964 0.229374 0.097535
0.530110 0.230850 0.098603
0.579017 0.236603 0.100219
0.632433 0.247480 0.102390
0.670264 0.250425 0.103522
0.703236 0.253554 0.104798
0.734496 0.260308 0.107300
0.760089 0.268404 0.110140
0.779278 0.269922 0.112178
0.795680 0.270872 0.114872
0.809828 0.272636 0.118415
0.825068 0.268009 0.121123
0.835849 0.264162 0.124718
0.847548 0.253994 0.127506
0.854487 0.241538 0.133051
0.860757 0.191445 0.212419
0.863592 0.201011 0.247860
0.863592 0.201010 0.424697
0.079750 0.223027 0.087042
0.080168 0.223521 0.087138
0.081770 0.225951 0.087496
0.085102 0.232891 0.088178
0.089429 0.239688 0.088890
0.097651 0.245744 0.089609
0.107741 0.251017 0.090308
0.120724 0.254195 0.090955
0.141554 0.255678 0.091560
0.167929 0.255861 0.092625
0.200191 0.255630 0.093685
0.236832 0.253493 0.094535
0.276226 0.248508 0.095115
0.327057 0.250391 0.096250
0.394083 0.261452 0.098217
0.449270 0.261165 0.099265
0.506508 0.261199 0.100263
0.558344 0.266680 0.101770
0.613219 0.278711 0.103891
0.656583 0.280099 0.104905
0.689993 0.284401 0.106790
0.722549 0.292428 0.109389
0.753809 0.298487 0.112016
0.773923 0.300594 0.114084
0.790756 0.305422 0.117141
0.805398 0.311808 0.120695
0.821872 0.305449 0.123233
0.833690 0.299696 0.126469
0.845944 0.287597 0.128997
0.853820 0.271786 0.132677
0.860479 0.208719 0.164636
0.863592 0.201014 0.259614
0.863592 0.201018 0.263818
0.081496 0.253905 0.088358
0.081842 0.254356 0.088436
0.083153 0.256445 0.088726
0.085899 0.262578 0.089291
0.089657 0.269493 0.089923
0.097331 0.277301 0.090612
0.106509 0.284482 0.091310
0.118366 0.289062 0.092242
0.136184 0.292009 0.093299
0.159513 0.293367 0.094298
0.189744 0.293451 0.095277
0.224628 0.293287 0.096281
0.260129 0.286109 0.096715
0.308512 0.288256 0.097838
0.371918 0.300738 0.100138
0.424340 0.298777 0.101061
0.480090 0.297856 0.102009
0.537999 0.302996 0.103436
0.592897 0.314901 0.105576
0.638788 0.315388 0.107128
0.676324 0.320264 0.109111
0.710684 0.326532 0.111520
0.743485 0.334783 0.114270
0.767031 0.338433 0.116679
0.785775 0.340659 0.119502
0.801872 0.345087 0.122840
0.818453 0.344510 0.125457
0.830593 0.345708 0.128806
0.843250 0.338382 0.131754
0.852675 0.319953 0.134571
0.859828 0.247386 0.134167
0.863592 0.201022 0.259673
0.863592 0.201028 0.267783
0.082829 0.283628 0.089361
0.083121 0.284066 0.089428
0.084219 0.286017 0.089672
0.086463 0.291373 0.090144
0.090035 0.299209 0.090748
0.097081 0.307737 0.091395
0.104963 0.315175 0.092431
0.115879 0.321330 0.093553
0.130772 0.325857 0.094584
0.152039 0.328278 0.095559
0.178969 0.329343 0.096506
0.209767 0.329260 0.097400
0.246780 0.329155 0.098482
0.292105 0.330823 0.099766
0.352520 0.344409 0.102072
0.402638 0.341526 0.102911
0.455646 0.339357 0.103740
0.518436 0.343915 0.105145
0.573166 0.355341 0.108297
0.618702 0.354697 0.109619
0.662220 0.358074 0.111397
0.697713 0.365017 0.113864
0.731730 0.374225 0.117095
0.760426 0.375296 0.119245
0.779742 0.380562 0.122087
0.796597 0.388287 0.125461
0.814735 0.385069 0.127790
0.828063 0.383965 0.130810
0.841062 0.381014 0.133863
0.851210 0.376222 0.137523
0.857374 0.369783 0.144207
0.863592 0.201147 0.259752
0.863592 0.201098 0.273494
0.084450 0.324593 0.090577
0.084702 0.325031 0.090635
0.085643 0.326906 0.090846
0.087533 0.331706 0.091251
0.091671 0.340677 0.092098
0.097828 0.348604 0.093166
0.105040 0.356646 0.094246
0.115371 0.364152 0.095343
0.128669 0.369903 0.096388
0.148553 0.373466 0.097337
0.173253 0.375541 0.098344
0.202451 0.376457 0.099506
0.237016 0.376382 0.100580
0.278342 0.376285 0.101717
0.335123 0.390352 0.103922
0.383318 0.387167 0.104757
0.434102 0.383543 0.105754
0.494567 0.387078 0.107816
0.553879 0.398190 0.110919
0.599029 0.397290 0.112242
0.647065 0.399331 0.113997
0.684409 0.405225 0.116833
0.719916 0.411962 0.119903
0.752702 0.414288 0.122042
0.773142 0.419258 0.124798
0.791813 0.423783 0.127925
0.810363 0.424767 0.130316
0.824209 0.428026 0.133343
0.838458 0.423707 0.136111
0.849621 0.417492 0.140051
0.856683 0.409519 0.144976
0.861507 0.401022 0.159164
0.864919 0.401748 0.280983
0.086444 0.379134 0.092507
0.086666 0.379588 0.092600
0.087491 0.381458 0.092939
0.089365 0.385953 0.093589
0.094223 0.395670 0.094625
0.099618 0.402178 0.095605
0.106779 0.410416 0.096698
0.116604 0.417609 0.097731
0.129780 0.423573 0.099027
0.149205 0.427995 0.100255
0.173614 0.430926 0.101458
0.201791 0.432403 0.102541
0.235703 0.432897 0.103648
0.275502 0.432907 0.104687
0.320464 0.432758 0.106198
0.365787 0.429211 0.107395
0.414805 0.426023 0.108624
0.472900 0.428688 0.110626
0.535951 0.438118 0.113638
0.579940 0.436339 0.115137
0.627819 0.437911 0.117192
0.671077 0.443450 0.119964
0.707494 0.449541 0.122878
0.741093 0.452427 0.124951
0.766420 0.456027 0.127520
0.785809 0.462856 0.130667
0.805596 0.463992 0.132948
0.821011 0.464896 0.135705
0.835530 0.465902 0.139045
0.847079 0.466574 0.144141
0.855575 0.457930 0.148555
0.860862 0.445099 0.155381
0.864838 0.414637 0.271763
0.087598 0.416680 0.094123
0.087794 0.417044 0.094205
0.088591 0.418510 0.094505
0.090601 0.421903 0.095074
0.094952 0.428908 0.095975
0.100181 0.436271 0.096955
0.107202 0.445411 0.098134
0.115882 0.451872 0.099339
0.127437 0.458355 0.100599
0.145886 0.463879 0.101882
0.167747 0.467452 0.102997
0.194222 0.469679 0.104103
0.225652 0.471055 0.105232
0.262551 0.471397 0.106925
0.304581 0.471524 0.108571
0.350936 0.471514 0.110285
0.397277 0.467863 0.111399
0.453316 0.470297 0.113396
0.519407 0.478903 0.117109
0.562606 0.477201 0.118542
0.609112 0.477610 0.120396
0.657635 0.481539 0.123125
0.694825 0.486040 0.125964
0.729242 0.487568 0.127891
0.759045 0.490830 0.130399
0.779636 0.496135 0.133458
0.800555 0.496947 0.135602
0.816670 0.500096 0.138809
0.832419 0.500631 0.143088
0.845106 0.499265 0.147539
0.854379 0.498954 0.152657
0.859710 0.500661 0.161081
0.864378 0.462951 0.222045
0.088757 0.452703 0.095626
0.088979 0.453039 0.095699
0.089795 0.454370 0.095964
0.092011 0.457359 0.096467
0.095794 0.463297 0.097258
0.100938 0.471565 0.098353
0.106770 0.477904 0.099577
0.115223 0.483829 0.100845
0.125587 0.489389 0.102092
0.142731 0.493910 0.103304
0.162564 0.497354 0.104481
0.187752 0.499706 0.105871
0.217009 0.501254 0.107557
0.250431 0.502057 0.109271
0.290598 0.502330 0.110905
0.334438 0.502473 0.112510
0.382274 0.502634 0.114353
0.435590 0.504423 0.116791
0.500212 0.511464 0.120528
0.546265 0.509444 0.121861
0.591785 0.509707 0.123711
0.642123 0.513100 0.126332
0.682058 0.517475 0.129130
0.717077 0.518560 0.130927
0.751151 0.522031 0.133379
0.773294 0.526588 0.136285
0.794740 0.528719 0.138819
0.812330 0.531065 0.143004
0.829061 0.532898 0.147267
0.842289 0.534861 0.151830
0.853178 0.533616 0.156379
0.859041 0.532571 0.162464
0.863355 0.537760 0.182933
0.090466 0.490410 0.097376
0.090750 0.490660 0.097442
0.091799 0.491632 0.097680
0.093839 0.493741 0.098213
0.097196 0.497757 0.099109
0.102347 0.504855 0.100381
0.107577 0.509233 0.101459
0.115977 0.515928 0.102778
0.125665 0.521318 0.103994
0.141633 0.525886 0.105187
0.160303 0.529848 0.107109
0.184602 0.532785 0.108919
0.212409 0.534907 0.110708
0.243830 0.535984 0.112309
0.282318 0.536725 0.114130
0.324109 0.537016 0.116140
0.370155 0.537159 0.118121
0.420139 0.537492 0.120216
0.481986 0.544350 0.123945
0.531416 0.542259 0.125218
0.575656 0.542016 0.126971
0.625066 0.545227 0.129573
0.669487 0.549288 0.132333
0.704760 0.550051 0.134031
0.739846 0.553541 0.136427
0.766556 0.557821 0.140102
0.788858 0.560113 0.143359
0.807561 0.562708 0.147428
0.825045 0.566358 0.151802
0.839846 0.566532 0.155896
0.851879 0.568369 0.160569
0.857993 0.572267 0.167055
0.862839 0.573435 0.178704
0.093040 0.527499 0.099867
0.093303 0.527748 0.099943
0.094268 0.528697 0.100220
0.096133 0.530690 0.100742
0.099166 0.534324 0.101555
0.103818 0.540665 0.102720
0.109492 0.545850 0.103828
0.117330 0.552201 0.105093
0.126917 0.557550 0.107048
0.142925 0.563003 0.109061
0.161336 0.567325 0.110937
0.184969 0.570719 0.112850
0.211292 0.573017 0.114882
0.242178 0.574619 0.117033
0.279154 0.575516 0.119066
0.320717 0.576207 0.121228
0.364934 0.576554 0.123259
0.413252 0.576643 0.125209
0.465824 0.577151 0.127335
0.517728 0.575073 0.128529
0.561027 0.574931 0.130264
0.609091 0.577602 0.132819
0.657393 0.581406 0.135522
0.692735 0.582025 0.137164
0.728275 0.584906 0.140470
0.759580 0.589244 0.144900
0.782785 0.591289 0.147986
0.802356 0.594818 0.152082
0.821376 0.597498 0.156139
0.836851 0.599812 0.160357
0.850225 0.602621 0.165115
0.857252 0.604098 0.170554
0.862232 0.609509 0.181155
0.094345 0.557844 0.101345
0.094587 0.558067 0.101415
0.095473 0.558912 0.101671
0.097180 0.560658 0.102153
0.099932 0.563776 0.102901
0.104092 0.569083 0.103968
0.109998 0.574941 0.105160
0.116809 0.579976 0.107011
0.126174 0.585963 0.109061
0.141346 0.591346 0.111073
0.157516 0.595411 0.112900
0.179796 0.599036 0.115083
0.204610 0.601825 0.117367
0.234299 0.603820 0.119549
0.269077 0.604806 0.121680
0.308453 0.605350 0.123692
0.350992 0.605771 0.125788
0.397490 0.606122 0.127819
0.447375 0.606297 0.129741
0.501858 0.606790 0.131817
0.547487 0.606429 0.133477
0.594251 0.608337 0.136041
0.644199 0.610714 0.139328
0.681115 0.611092 0.141800
0.717057 0.612891 0.145405
0.752384 0.615586 0.149751
0.776330 0.617040 0.152736
0.796980 0.619600 0.156801
0.817127 0.621690 0.160737
0.833590 0.623822 0.165009
0.848199 0.625586 0.169675
0.856266 0.628624 0.175354
0.861725 0.632935 0.183203
0.095684 0.589551 0.102897
0.095909 0.589758 0.102962
0.096732 0.590537 0.103201
0.098309 0.592120 0.103651
0.100834 0.594881 0.104346
0.104609 0.599452 0.105483
0.110891 0.605311 0.107516
0.116924 0.608201 0.109208
0.126647 0.612778 0.111383
0.139673 0.615654 0.113173
0.155866 0.618992 0.115548
0.177613 0.621804 0.117953
0.200878 0.623747 0.120239
0.228852 0.625218 0.122390
0.261672 0.626382 0.124580
0.299574 0.627176 0.126675
0.340164 0.627625 0.128676
0.384600 0.627987 0.130704
0.433415 0.628423 0.132733
0.485012 0.628715 0.134646
0.535281 0.629312 0.136671
0.580608 0.630653 0.140021
0.629411 0.632978 0.144306
0.670065 0.633409 0.146837
0.705978 0.634910 0.150372
0.742149 0.637431 0.154736
0.769761 0.638845 0.157597
0.791535 0.641061 0.161508
0.812521 0.643600 0.165635
0.830353 0.645456 0.169764
0.845825 0.648218 0.174592
0.855392 0.650685 0.179797
0.861197 0.655833 0.186838
0.097194 0.617143 0.104657
0.097406 0.617283 0.104719
0.098177 0.617806 0.104944
0.099651 0.618850 0.105536
0.101995 0.620621 0.106602
0.105466 0.623458 0.108119
0.111882 0.627913 0.110189
0.117741 0.630840 0.111890
0.126367 0.634566 0.113987
0.139949 0.638016 0.116447
0.155885 0.641400 0.118959
0.175412 0.643855 0.121288
0.198386 0.646105 0.123664
0.225770 0.647810 0.125936
0.257110 0.649017 0.128066
0.293587 0.649970 0.130278
0.333091 0.650576 0.132332
0.376216 0.651011 0.134363
0.423017 0.651328 0.136355
0.474081 0.651821 0.138758
0.524940 0.652225 0.141832
0.568305 0.652890 0.145009
0.615777 0.654756 0.149285
0.659568 0.655294 0.151720
0.695301 0.656581 0.155310
0.731678 0.658841 0.159716
0.763172 0.660387 0.162524
0.785910 0.662420 0.166596
0.807830 0.664946 0.170772
0.826796 0.666982 0.174754
0.843480 0.669691 0.179436
0.854441 0.672569 0.184565
0.860642 0.678044 0.191201
0.098457 0.640958 0.107037
0.098658 0.641090 0.107134
0.099388 0.641577 0.107486
0.100778 0.642536 0.108147
0.102979 0.644130 0.109170
0.106373 0.646621 0.110622
0.112341 0.650423 0.112597
0.118644 0.653887 0.114764
0.126614 0.656967 0.117117
0.140905 0.660840 0.119852
0.154866 0.663474 0.122149
0.174811 0.666297 0.124648
0.197692 0.668732 0.127177
0.223058 0.670303 0.129421
0.252921 0.671572 0.131589
0.288276 0.672565 0.133772
0.327016 0.673318 0.135956
0.369215 0.673844 0.138218
0.414750 0.674240 0.141428
0.464021 0.674559 0.144614
0.516765 0.675086 0.147847
0.558604 0.675637 0.151048
0.603190 0.676398 0.154245
0.649465 0.676918 0.156630
0.685144 0.677991 0.160184
0.721427 0.679893 0.164731
0.756513 0.681515 0.167690
0.780064 0.683373 0.171766
0.803195 0.685818 0.175955
0.823099 0.688051 0.179903
0.841062 0.690585 0.184270
0.853411 0.693860 0.189567
0.860227 0.698563 0.195277
0.098828 0.664420 0.108607
0.099019 0.664534 0.108701
0.099714 0.664957 0.109041
0.101036 0.665783 0.109679
0.103123 0.667140 0.110667
0.106318 0.669228 0.112069
0.111894 0.672363 0.114089
0.118723 0.676064 0.116817
0.125743 0.678541 0.119032
0.139596 0.682059 0.121828
0.153213 0.684600 0.124219
0.172984 0.687400 0.126837
0.193241 0.689318 0.129200
0.218558 0.691165 0.131650
0.248043 0.692573 0.133984
0.281560 0.693489 0.136110
0.318665 0.694227 0.138633
0.359444 0.694784 0.141990
0.403772 0.695237 0.145327
0.451515 0.695625 0.148547
0.503024 0.696039 0.151781
0.547188 0.696592 0.154963
0.590519 0.697342 0.158228
0.637116 0.698289 0.161483
0.675589 0.699031 0.165167
0.711615 0.700591 0.169925
0.748956 0.702284 0.172820
0.774077 0.703882 0.176903
0.798210 0.706209 0.180963
0.819369 0.708518 0.185174
0.838533 0.711099 0.189284
0.852447 0.713980 0.194157
0.859789 0.718879 0.199878
0.099283 0.686579 0.110423
0.099467 0.686689 0.110514
0.100134 0.687089 0.110843
0.101399 0.687861 0.111460
0.103390 0.689109 0.112416
0.106463 0.690987 0.113836
0.111717 0.693731 0.116153
0.119138 0.697711 0.119247
0.125657 0.699845 0.121354
0.138188 0.702752 0.123994
0.152856 0.705713 0.126749
0.170148 0.707921 0.129200
0.191387 0.710088 0.131772
0.215911 0.711885 0.134317
0.242710 0.713150 0.136607
0.275937 0.714205 0.139574
0.312830 0.714984 0.143151
0.352867 0.715513 0.146680
0.395758 0.715938 0.150048
0.442101 0.716321 0.153422
0.491755 0.716712 0.156680
0.537767 0.717190 0.159925
0.579624 0.717755 0.163115
0.624814 0.718639 0.166697
0.666685 0.719696 0.170271
0.702231 0.720821 0.175063
0.739736 0.722751 0.177894
0.768017 0.723974 0.181882
0.793068 0.726187 0.185988
0.815530 0.728360 0.189958
0.835999 0.731038 0.194344
0.851521 0.733824 0.198895
0.859357 0.738235 0.204491
0.099517 0.708439 0.112170
0.099695 0.708543 0.112259
0.100342 0.708924 0.112581
0.101568 0.709652 0.113185
0.103491 0.710809 0.114274
0.106454 0.712513 0.115947
0.111480 0.714945 0.118229
0.118517 0.718379 0.121279
0.125917 0.721009 0.123825
0.137425 0.723470 0.126347
0.153290 0.726716 0.129510
0.168857 0.728518 0.131832
0.191050 0.730773 0.134648
0.212698 0.732192 0.137034
0.240515 0.733601 0.140674
0.272569 0.734612 0.144434
0.307416 0.735353 0.148107
0.346201 0.735883 0.151749
0.388350 0.736249 0.155283
0.433756 0.736592 0.158758
0.482356 0.736933 0.162177
0.529931 0.737350 0.165699
0.570905 0.737844 0.169210
0.614332 0.738462 0.172678
0.658119 0.739440 0.176390
0.693415 0.740582 0.180071
0.730922 0.742799 0.182842
0.762208 0.743744 0.186887
0.787817 0.745758 0.190789
0.811546 0.747737 0.194810
0.833304 0.750257 0.199124
0.850378 0.753079 0.203641
0.859166 0.757193 0.209024
0.097731 0.734747 0.111959
0.097909 0.734829 0.112049
0.098560 0.735129 0.112373
0.099791 0.735696 0.112984
0.101725 0.736586 0.114044
0.104526 0.737878 0.115764
0.109242 0.739698 0.118136
0.116287 0.742253 0.121353
0.124391 0.744854 0.124619
0.134971 0.746689 0.127095
0.149582 0.749051 0.130216
0.166339 0.750991 0.133073
0.186195 0.752577 0.135778
0.209094 0.753958 0.138944
0.235830 0.754998 0.143113
0.265915 0.755804 0.147029
0.301515 0.756464 0.151014
0.339501 0.756895 0.154783
0.379852 0.757160 0.158403
0.423980 0.757403 0.161964
0.471621 0.757680 0.165618
0.521268 0.758025 0.169302
0.561953 0.758489 0.172931
0.604850 0.759108 0.176510
