LUTs/negative-superia-xtra-400/SuperiaXtra400_Modern_Normal.cube
TITLE "Fuji Superia X-tra 400 Modern Normal"
# Adobe RGB in/out. REPLACES AgX. Fuji Superia X-tra 400 Modern Normal.
LUT_3D_SIZE 5
DOMAIN_MIN 0.0 0.0 0.0
DOMAIN_MAX 1.0 1.0 1.0
0.070593 0.070461 0.087962
0.428078 0.107333 0.092958
0.836706 0.190710 0.107561
0.912824 0.231906 0.140593
0.921427 0.291970 0.562359
0.080580 0.317538 0.094602
0.174859 0.238057 0.095870
0.703322 0.305065 0.109819
0.888581 0.363724 0.141888
0.915330 0.276557 0.543456
0.094687 0.678223 0.114128
0.153603 0.657216 0.122028
0.465420 0.590214 0.128612
0.803111 0.605298 0.155603
0.895208 0.616234 0.216615
0.101555 0.819941 0.136430
0.141506 0.814928 0.150324
0.383334 0.790066 0.171800
0.705161 0.764823 0.189353
0.872251 0.769145 0.219975
0.070736 0.849486 0.105718
0.121259 0.867688 0.105081
0.272593 0.861033 0.160826
0.615804 0.846723 0.201717
0.863970 0.842524 0.222066
0.075930 0.099369 0.319623
0.389203 0.136900 0.429115
0.834596 0.212793 0.370238
0.908252 0.247634 0.377119
0.919151 0.285987 0.555277
0.094881 0.244778 0.274816
0.196107 0.195082 0.192846
0.715200 0.302676 0.267694
0.883805 0.364690 0.311024
0.913042 0.271232 0.536500
0.128401 0.637973 0.323083
0.209206 0.608640 0.287734
0.508523 0.543933 0.245064
0.809903 0.586826 0.275031
0.891794 0.615646 0.375256
0.132136 0.806070 0.312061
0.189329 0.798884 0.310534
0.428159 0.774317 0.301371
0.728184 0.754663 0.299827
0.871073 0.765662 0.310060
0.070975 0.852079 0.258535
0.120613 0.869749 0.253229
0.299858 0.858773 0.271622
0.632550 0.845427 0.312608
0.864788 0.842291 0.323701
0.081794 0.179752 0.739086
0.368386 0.247012 0.789481
0.854861 0.336261 0.785708
0.909625 0.332963 0.726416
0.918131 0.283335 0.708736
0.116893 0.381521 0.739835
0.322721 0.386550 0.722538
0.752779 0.393571 0.688880
0.884469 0.418601 0.680708
0.911644 0.268031 0.680022
0.155648 0.591457 0.627095
0.236903 0.563231 0.579982
0.511594 0.505988 0.511292
0.810300 0.582555 0.565724
0.887435 0.627333 0.626099
0.181445 0.783775 0.639622
0.243141 0.776346 0.617392
0.476051 0.754006 0.572452
0.745354 0.740435 0.549037
0.867904 0.762280 0.574507
0.100027 0.862755 0.710435
0.111492 0.865120 0.704664
0.354162 0.853426 0.617171
0.663039 0.842913 0.593011
0.864466 0.842700 0.575589
0.090316 0.327935 0.886086
0.307149 0.392491 0.888442
0.850603 0.471912 0.888992
0.916713 0.457087 0.860336
0.920770 0.290218 0.808247
0.127662 0.493332 0.888697
0.346521 0.533979 0.890326
0.805438 0.543151 0.873063
0.897251 0.513277 0.844580
0.914085 0.273463 0.792191
0.179867 0.627563 0.819848
0.277774 0.625122 0.810451
0.613655 0.618087 0.792595
0.828951 0.629806 0.786766
0.888842 0.656057 0.777273
0.195640 0.770443 0.791114
0.259767 0.765481 0.782647
0.492875 0.748361 0.760980
0.743916 0.733038 0.735574
0.866277 0.766105 0.755853
0.100907 0.857077 0.772165
0.114466 0.860985 0.768921
0.353880 0.851501 0.769275
0.665366 0.842712 0.754105
0.863484 0.844694 0.759787
0.209869 0.470733 0.948330
0.528197 0.488002 0.948373
0.895597 0.538540 0.948610
0.930340 0.512809 0.937667
0.924283 0.364642 0.896340
0.279284 0.565755 0.948244
0.543101 0.582423 0.948295
0.889330 0.618367 0.947165
0.918221 0.552772 0.924074
0.917823 0.363150 0.893387
0.313477 0.697711 0.915664
0.452114 0.692536 0.910984
0.778803 0.679491 0.898578
0.875864 0.660333 0.885240
0.897437 0.663300 0.875667
0.222937 0.773859 0.873283
0.309023 0.770284 0.870135
0.618607 0.760165 0.862018
0.814414 0.753640 0.855789
0.872678 0.772263 0.854787
0.091124 0.846720 0.831323
0.115251 0.856797 0.840290
0.266365 0.856449 0.851535
0.639885 0.846944 0.849340
0.863260 0.848566 0.848099
