LUTs/negative-superia-xtra-400/SuperiaXtra400_Classic_Punchy.cube
TITLE "Fuji Superia X-tra 400 Classic Punchy"
# Adobe RGB in/out. REPLACES AgX. Fuji Superia X-tra 400 Classic Punchy.
LUT_3D_SIZE 5
DOMAIN_MIN 0.0 0.0 0.0
DOMAIN_MAX 1.0 1.0 1.0
0.068119 0.082999 0.079619
0.222666 0.093358 0.083241
0.647532 0.121530 0.091781
0.811678 0.152339 0.107752
0.863591 0.201001 0.424701
0.075710 0.158162 0.084616
0.147411 0.176200 0.088520
0.550834 0.203538 0.097166
0.799608 0.242932 0.113022
0.863592 0.201009 0.424697
0.088757 0.452703 0.095626
0.125587 0.489389 0.102092
0.382274 0.502634 0.114353
0.751151 0.522031 0.133379
0.863355 0.537760 0.182933
0.099283 0.686579 0.110423
0.125657 0.699845 0.121354
0.312830 0.714984 0.143151
0.666685 0.719696 0.170271
0.859357 0.738235 0.204491
0.068119 0.805630 0.099186
0.122653 0.829272 0.099237
0.246279 0.833936 0.145054
0.593214 0.830910 0.190622
0.863490 0.835542 0.218117
0.070810 0.090794 0.157229
0.198445 0.101235 0.205936
0.655908 0.133174 0.207638
0.810815 0.163804 0.238218
0.863592 0.201009 0.424738
0.090734 0.158134 0.172343
0.203201 0.188518 0.191587
0.593029 0.216284 0.196402
0.802330 0.252094 0.217589
0.863592 0.201009 0.424698
0.111634 0.444341 0.198393
0.164549 0.470774 0.203546
0.452361 0.492025 0.214295
0.768266 0.520868 0.233642
0.863174 0.544063 0.319386
0.119453 0.682089 0.217391
0.156996 0.692299 0.227754
0.360028 0.706335 0.248557
0.696854 0.715097 0.270169
0.860193 0.737863 0.287954
0.068119 0.810513 0.215987
0.122653 0.833544 0.215982
0.270677 0.833232 0.242708
0.611420 0.830701 0.295053
0.864546 0.835745 0.320075
0.076718 0.112164 0.458231
0.189862 0.133074 0.520672
0.629904 0.168539 0.524635
0.806171 0.203605 0.542583
0.863592 0.201010 0.575706
0.099027 0.188915 0.472903
0.191781 0.212705 0.494653
0.588338 0.247918 0.509670
0.799857 0.288698 0.533253
0.863592 0.201016 0.563603
0.133267 0.452952 0.490254
0.198128 0.473235 0.488252
0.516605 0.506590 0.504226
0.778104 0.530179 0.516488
0.862560 0.565248 0.566367
0.154054 0.681276 0.525507
0.202069 0.688742 0.522623
0.424656 0.701552 0.521359
0.734529 0.713824 0.527923
0.860834 0.741231 0.555546
0.105116 0.827579 0.649167
0.117126 0.833940 0.649164
0.323789 0.831706 0.579402
0.649697 0.830864 0.575236
0.865327 0.837298 0.569994
0.083708 0.162116 0.704829
0.164033 0.187128 0.709660
0.611272 0.226724 0.710790
0.802321 0.261703 0.713432
0.863591 0.200995 0.696915
0.101993 0.239559 0.710184
0.180744 0.264615 0.713537
0.584222 0.304454 0.714539
0.797613 0.344363 0.716953
0.863584 0.200874 0.694064
0.146384 0.486588 0.712397
0.212670 0.501250 0.715816
0.527596 0.526027 0.720395
0.781516 0.552304 0.724293
0.862090 0.592854 0.720720
0.171892 0.689399 0.719287
0.223615 0.695883 0.719151
0.456788 0.708220 0.722698
0.750484 0.721354 0.727961
0.861136 0.749781 0.736143
0.107286 0.828650 0.725217
0.120640 0.836031 0.725418
0.330262 0.834477 0.739356
0.657254 0.833785 0.738239
0.865553 0.840563 0.750876
0.127294 0.226022 0.843494
0.269880 0.236352 0.843620
0.697238 0.267661 0.844315
0.818979 0.287570 0.846023
0.863592 0.243077 0.833924
0.153163 0.286024 0.843244
0.279749 0.297709 0.843392
0.690540 0.332323 0.844149
0.817702 0.354426 0.845841
0.863592 0.254998 0.843044
0.205661 0.510671 0.842969
0.300717 0.516973 0.843285
0.661995 0.534873 0.844170
0.812177 0.550827 0.845805
0.865429 0.587643 0.851401
0.194380 0.700525 0.844911
0.261763 0.703978 0.845223
0.570640 0.712015 0.846091
0.796676 0.720954 0.847600
0.865030 0.751545 0.851359
0.098015 0.823939 0.812851
0.122654 0.837295 0.824157
0.256661 0.843761 0.846908
0.634852 0.840478 0.851695
0.865806 0.845322 0.853222
