LUTs/negative-superia-xtra-400/SuperiaXtra400_Modern_Normal.cube
TITLE "Fuji Superia X-tra 400 Modern Normal"
# Adobe RGB in/out. REPLACES AgX. Fuji Superia X-tra 400 Modern Normal.
LUT_3D_SIZE 9
DOMAIN_MIN 0.0 0.0 0.0
DOMAIN_MAX 1.0 1.0 1.0
0.070593 0.070461 0.087962
0.130403 0.084798 0.090212
0.428078 0.107333 0.092958
0.714214 0.143646 0.098389
0.836706 0.190710 0.107561
0.889176 0.225853 0.121688
0.912824 0.231906 0.140593
0.925163 0.119411 0.375096
0.921427 0.291970 0.562359
0.074975 0.115220 0.090323
0.091613 0.109099 0.090836
0.307864 0.127382 0.093187
0.637685 0.170599 0.098734
0.807362 0.215757 0.107838
0.879032 0.249263 0.121782
0.908914 0.255021 0.139926
0.923161 0.118393 0.368945
0.919998 0.288204 0.557878
0.080580 0.317538 0.094602
0.092543 0.299234 0.095577
0.174859 0.238057 0.095870
0.432593 0.257423 0.100863
0.703322 0.305065 0.109819
0.831241 0.349275 0.124112
0.888581 0.363724 0.141888
0.916991 0.125694 0.354059
0.915330 0.276557 0.543456
0.087668 0.533314 0.103057
0.097549 0.522582 0.104232
0.161002 0.484187 0.105938
0.317882 0.431123 0.107566
0.554867 0.433515 0.114579
0.753920 0.466153 0.128790
0.853490 0.490184 0.146706
0.894599 0.486760 0.166744
0.907486 0.260675 0.354334
0.094687 0.678223 0.114128
0.102940 0.672710 0.116550
0.153603 0.657216 0.122028
0.284157 0.624438 0.125074
0.465420 0.590214 0.128612
0.667105 0.584322 0.139083
0.803111 0.605298 0.155603
0.873038 0.615889 0.175147
0.895208 0.616234 0.216615
0.100479 0.759124 0.127542
0.106732 0.756373 0.129936
0.150640 0.751682 0.139137
0.257760 0.736536 0.145700
0.421169 0.716935 0.150954
0.597696 0.701524 0.157342
0.747022 0.695727 0.168853
0.843680 0.705032 0.187161
0.882548 0.713745 0.209770
0.101555 0.819941 0.136430
0.106576 0.818163 0.139237
0.141506 0.814928 0.150324
0.234319 0.805318 0.161952
0.383334 0.790066 0.171800
0.551140 0.774888 0.180308
0.705161 0.764823 0.189353
0.813884 0.761206 0.201339
0.872251 0.769145 0.219975
0.089297 0.855249 0.124975
0.092326 0.853700 0.127331
0.123275 0.849489 0.146715
0.205281 0.844060 0.165872
0.341028 0.836255 0.182689
0.506610 0.828067 0.195369
0.666956 0.821742 0.205870
0.786675 0.817238 0.216457
0.865278 0.816636 0.230186
0.070736 0.849486 0.105718
0.070813 0.848565 0.105558
0.121259 0.867688 0.105081
0.119597 0.863585 0.134690
0.272593 0.861033 0.160826
0.447135 0.852971 0.185238
0.615804 0.846723 0.201717
0.750580 0.843210 0.213713
0.863970 0.842524 0.222066
0.073422 0.082402 0.125700
0.107130 0.091753 0.140402
0.398184 0.114469 0.143683
0.718770 0.151176 0.143638
0.835357 0.193529 0.139268
0.886399 0.226599 0.144546
0.911226 0.233350 0.160013
0.924090 0.118878 0.371810
0.920687 0.290018 0.560036
0.079158 0.110640 0.113906
0.098578 0.104341 0.104052
0.298993 0.130834 0.118675
0.641868 0.175835 0.133975
0.807985 0.217288 0.137110
0.876641 0.249203 0.143862
0.906442 0.256056 0.158491
0.922091 0.117881 0.365736
0.919262 0.286277 0.555585
0.089567 0.286652 0.138224
0.104330 0.256218 0.125882
0.190889 0.210774 0.113024
0.453361 0.245831 0.123590
0.708065 0.300267 0.134452
0.831144 0.345357 0.144979
0.886754 0.361331 0.159742
0.915994 0.128422 0.352780
0.914616 0.274885 0.541276
0.098441 0.508418 0.147004
0.110041 0.494105 0.144225
0.182418 0.451708 0.135680
0.336854 0.404216 0.130711
0.567911 0.419577 0.137188
0.756927 0.459274 0.148543
0.852922 0.485417 0.164115
0.893180 0.484391 0.183171
0.906431 0.259109 0.520436
0.103852 0.663562 0.149360
0.113041 0.657404 0.150904
0.172139 0.639574 0.152690
0.302028 0.608192 0.151316
0.479935 0.574745 0.152534
0.673221 0.574939 0.158066
0.805318 0.599040 0.173334
0.872366 0.612610 0.191020
0.894262 0.615634 0.240193
0.106775 0.752448 0.153472
0.113947 0.749658 0.155997
0.163396 0.744069 0.164123
0.271850 0.728904 0.169504
0.432119 0.710358 0.173132
0.606782 0.694836 0.178667
0.750627 0.690985 0.187109
0.844417 0.702748 0.202791
0.881881 0.712766 0.223260
0.106082 0.815976 0.156895
0.111353 0.814158 0.159793
0.150306 0.810514 0.172134
0.243998 0.800722 0.184039
0.392968 0.785843 0.192492
0.558005 0.771400 0.199640
0.709929 0.762126 0.207667
0.815795 0.759435 0.216903
0.871944 0.768236 0.233230
0.091663 0.853540 0.137316
0.095650 0.852086 0.140795
0.128930 0.848027 0.163786
0.212125 0.842567 0.185376
0.348034 0.834882 0.201268
0.512640 0.826901 0.212929
0.670536 0.820835 0.222667
0.789452 0.816102 0.232843
0.865326 0.816016 0.245400
0.070741 0.853616 0.260630
0.070966 0.852697 0.259367
0.121104 0.871229 0.255172
0.119456 0.866234 0.248623
0.276475 0.860596 0.176939
0.450658 0.852574 0.202042
0.618712 0.846439 0.218196
0.752301 0.843046 0.229870
0.864348 0.842459 0.237139
0.075930 0.099369 0.319623
0.125305 0.113014 0.450323
0.389203 0.136900 0.429115
0.726445 0.178111 0.403548
0.834596 0.212793 0.370238
0.883584 0.242156 0.368345
0.908252 0.247634 0.377119
0.922302 0.124056 0.393566
0.919151 0.285987 0.555277
0.084254 0.144502 0.335999
0.128622 0.157465 0.356194
0.340457 0.164196 0.330597
0.656496 0.196884 0.330713
0.808570 0.232849 0.332422
0.873934 0.263461 0.342890
0.902619 0.268912 0.352529
0.920299 0.125250 0.390635
0.917716 0.282262 0.550796
0.094881 0.244778 0.274816
0.109070 0.223862 0.233805
0.196107 0.195082 0.192846
0.457670 0.241030 0.228085
0.715200 0.302676 0.267694
0.831208 0.348745 0.298755
0.883805 0.364690 0.311024
0.913526 0.203363 0.383315
0.913042 0.271232 0.536500
0.113065 0.467491 0.312613
0.128935 0.450808 0.291406
0.203612 0.400989 0.242475
0.350297 0.362126 0.215606
0.587093 0.398715 0.233949
0.764388 0.449529 0.266387
0.851829 0.479767 0.284616
0.890171 0.481640 0.313691
0.903937 0.255602 0.515808
0.128401 0.637973 0.323083
0.143119 0.630516 0.313845
0.209206 0.608640 0.287734
0.336497 0.570213 0.259506
0.508523 0.543933 0.245064
0.692448 0.556570 0.257964
0.809903 0.586826 0.275031
0.870935 0.605204 0.299566
0.891794 0.615646 0.375256
0.136505 0.739238 0.326323
0.148381 0.735954 0.322312
0.206344 0.727441 0.311247
0.316429 0.711719 0.295236
0.469048 0.692642 0.281411
0.636913 0.677176 0.276102
0.763419 0.679531 0.279446
0.846389 0.695236 0.300580
0.880056 0.710311 0.308926
0.132136 0.806070 0.312061
0.141274 0.804060 0.311318
0.189329 0.798884 0.310534
0.286762 0.788325 0.306628
0.428159 0.774317 0.301371
0.585939 0.761793 0.298448
0.728184 0.754663 0.299827
0.822133 0.754283 0.309300
0.871073 0.765662 0.310060
0.113001 0.846470 0.298434
0.119164 0.845476 0.299876
0.162574 0.842678 0.309942
0.247200 0.837478 0.315116
0.382634 0.830325 0.317480
0.538709 0.823085 0.318718
0.687419 0.816028 0.321648
0.800795 0.812409 0.326670
0.865334 0.814142 0.320593
0.070975 0.852079 0.258535
0.121636 0.872831 0.257305
0.120613 0.869749 0.253229
0.119042 0.864873 0.246893
0.299858 0.858773 0.271622
0.468290 0.851125 0.300217
0.632550 0.845427 0.312608
0.760175 0.842462 0.322062
0.864788 0.842291 0.323701
0.078620 0.128713 0.563438
0.106640 0.153187 0.649384
0.386580 0.184580 0.679018
0.725897 0.227377 0.673871
0.842482 0.259068 0.632784
0.884807 0.278531 0.600885
0.907167 0.280470 0.594368
0.918740 0.206312 0.620072
0.918128 0.283327 0.600489
0.086020 0.180321 0.575975
0.119365 0.201802 0.611954
0.393223 0.231798 0.652180
0.685005 0.256128 0.623799
0.817079 0.277684 0.589697
0.875087 0.298529 0.574117
0.901352 0.301344 0.575816
0.916329 0.222420 0.608413
0.916654 0.279681 0.595996
0.102989 0.281800 0.504963
0.123570 0.277326 0.480484
0.260176 0.271082 0.455772
0.504841 0.290000 0.461505
0.729628 0.333419 0.486281
0.832745 0.368755 0.505298
0.882266 0.382679 0.522007
0.905830 0.357161 0.558597
0.911853 0.268498 0.581718
0.120272 0.433836 0.479283
0.137317 0.420454 0.454681
0.210051 0.379360 0.392950
0.350945 0.347080 0.347309
0.592496 0.397091 0.390064
0.765776 0.451522 0.431178
0.849674 0.482708 0.459594
0.887412 0.488414 0.496360
0.901759 0.252632 0.559045
0.146498 0.612053 0.503993
0.162722 0.604986 0.488830
0.228010 0.577850 0.448598
0.350219 0.539881 0.403568
0.513821 0.516806 0.375998
0.696482 0.542825 0.395656
0.809856 0.578571 0.424046
0.868447 0.601209 0.448161
0.889165 0.619245 0.528551
0.161775 0.724197 0.510446
0.175455 0.720983 0.501839
0.233766 0.711982 0.477226
0.343111 0.694787 0.446072
0.490453 0.672031 0.420813
0.652543 0.660050 0.407215
0.769392 0.669026 0.415224
0.845301 0.687732 0.431206
0.877782 0.708756 0.474245
0.160842 0.794612 0.507302
0.172214 0.792555 0.502366
0.222046 0.786774 0.487958
0.320867 0.776150 0.467954
0.457599 0.762947 0.448807
0.610230 0.751945 0.435549
0.740218 0.746819 0.429806
0.825489 0.749288 0.432427
0.869611 0.763245 0.447802
0.136915 0.840981 0.503972
0.145569 0.840086 0.500805
0.193342 0.837447 0.492143
0.280624 0.832344 0.479167
0.412027 0.825672 0.466180
0.561506 0.818128 0.455882
0.703118 0.810749 0.450127
0.809080 0.808499 0.448720
0.864628 0.812345 0.446472
0.093784 0.861514 0.553287
0.120837 0.872833 0.551729
0.119868 0.869881 0.546526
0.176739 0.867107 0.473365
0.335668 0.855726 0.485560
0.493421 0.849003 0.476521
0.652594 0.844039 0.472372
0.771341 0.841642 0.472278
0.864768 0.842253 0.463954
0.081794 0.179752 0.739086
0.096268 0.197338 0.762272
0.368386 0.247012 0.789481
0.707346 0.291632 0.790549
0.854861 0.336261 0.785708
0.890383 0.339334 0.751676
0.909625 0.332963 0.726416
0.917980 0.271244 0.713651
0.918131 0.283335 0.708736
0.087698 0.224123 0.745431
0.107777 0.243246 0.761185
0.371468 0.293515 0.785524
0.696573 0.336446 0.787741
0.831274 0.351198 0.766731
0.880914 0.354909 0.734304
0.903738 0.349648 0.715397
0.915563 0.291148 0.706577
0.916612 0.279583 0.701886
0.116893 0.381521 0.739835
0.146895 0.383455 0.732408
0.322721 0.386550 0.722538
0.571973 0.384374 0.703692
0.752779 0.393571 0.688880
0.842180 0.412779 0.682750
0.884469 0.418601 0.680708
0.905527 0.398031 0.682982
0.911644 0.268031 0.680022
0.130525 0.453247 0.636319
0.149644 0.447070 0.621445
0.238740 0.431355 0.589179
0.416908 0.421548 0.569628
0.629974 0.442500 0.577613
0.775998 0.477311 0.598722
0.851805 0.500837 0.617407
0.886817 0.506161 0.636992
0.901936 0.433383 0.652518
0.155648 0.591457 0.627095
0.172606 0.584768 0.614635
0.236903 0.563231 0.579982
0.356795 0.529264 0.538828
0.511594 0.505988 0.511292
0.700154 0.544202 0.538384
0.810300 0.582555 0.565724
0.867044 0.606619 0.590022
0.887435 0.627333 0.626099
0.178039 0.711147 0.636643
0.191721 0.708337 0.628346
0.249816 0.700126 0.603833
0.357360 0.679041 0.572244
0.499451 0.657034 0.544892
0.654437 0.646321 0.530467
0.770462 0.662947 0.542445
0.843398 0.684960 0.560694
0.875765 0.709504 0.596842
0.181445 0.783775 0.639622
0.193073 0.781904 0.634182
0.243141 0.776346 0.617392
0.342335 0.766321 0.594475
0.476051 0.754006 0.572452
0.624418 0.744003 0.556470
0.745354 0.740435 0.549037
0.826262 0.745820 0.552553
0.867904 0.762280 0.574507
0.156267 0.836215 0.643120
0.166373 0.835358 0.639069
0.215009 0.832718 0.626010
0.304108 0.827892 0.608282
0.432383 0.821689 0.590522
0.578446 0.812489 0.576278
0.714806 0.806289 0.567244
0.813298 0.805420 0.563304
0.863542 0.811760 0.564532
0.100027 0.862755 0.710435
0.103714 0.863716 0.709109
0.111492 0.865120 0.704664
0.214291 0.860323 0.637783
0.354162 0.853426 0.617171
0.509511 0.847335 0.602559
0.663039 0.842913 0.593011
0.779263 0.841100 0.589172
0.864466 0.842700 0.575589
0.085502 0.245307 0.835933
0.095057 0.253581 0.844078
0.350709 0.324064 0.852088
0.687263 0.362684 0.852788
0.854425 0.408706 0.853621
0.897688 0.409900 0.833267
0.912758 0.392891 0.805964
0.919283 0.341573 0.785354
0.919125 0.285918 0.757483
0.090344 0.283304 0.838405
0.102982 0.294920 0.844740
0.353203 0.360014 0.851915
0.680249 0.397669 0.852743
0.846787 0.437908 0.851785
0.888778 0.423568 0.823038
0.908754 0.408054 0.799437
0.916871 0.358879 0.781134
0.917577 0.281905 0.752846
0.124461 0.448739 0.843734
0.152784 0.458548 0.845567
0.367031 0.493651 0.850727
0.622464 0.482937 0.832250
0.779626 0.474890 0.809686
0.856484 0.471852 0.791931
0.889910 0.467492 0.778906
0.907908 0.446080 0.767861
0.912485 0.269958 0.737738
0.147250 0.510125 0.781184
0.168666 0.508827 0.777402
0.282664 0.510508 0.769652
0.479331 0.507163 0.756109
0.677757 0.510354 0.745988
0.795754 0.520733 0.741383
0.859980 0.532972 0.740047
0.888962 0.533644 0.738182
0.902405 0.487424 0.718558
0.166023 0.598538 0.736798
0.182180 0.594367 0.730086
0.254699 0.583948 0.712015
0.389758 0.566159 0.690832
0.561233 0.559351 0.679406
0.721640 0.576425 0.684624
0.816576 0.603706 0.696476
0.868371 0.619308 0.706740
0.887273 0.640111 0.709270
0.186130 0.702971 0.730220
0.199990 0.700881 0.724812
0.259002 0.691831 0.708450
0.366431 0.674196 0.686397
0.506308 0.653519 0.658854
0.651490 0.639841 0.636378
0.772688 0.665548 0.660194
0.843273 0.689135 0.681024
0.874840 0.713173 0.694038
0.192340 0.775152 0.730851
0.204098 0.773540 0.726965
0.255222 0.768720 0.714849
0.353727 0.759807 0.697902
0.485686 0.748483 0.680932
0.630589 0.738745 0.662934
0.745913 0.735847 0.654073
0.825796 0.744708 0.663499
0.866551 0.763075 0.683265
0.166888 0.832321 0.732947
0.177196 0.831547 0.730019
0.226301 0.829103 0.720220
0.316414 0.824641 0.706619
0.443670 0.817776 0.692709
0.588172 0.808749 0.681231
0.721113 0.803392 0.671922
0.814664 0.803637 0.667675
0.862237 0.812247 0.676268
0.101905 0.860616 0.733126
0.104974 0.861418 0.733394
0.111251 0.862384 0.734928
0.218399 0.858508 0.723208
0.360669 0.851924 0.708467
0.515945 0.846316 0.697347
0.667227 0.842430 0.689828
0.783089 0.841103 0.686208
0.863930 0.843461 0.681931
0.090316 0.327935 0.886086
0.098643 0.331043 0.888901
0.307149 0.392491 0.888442
0.675753 0.430587 0.888404
0.850603 0.471912 0.888992
0.905579 0.484453 0.880347
0.916713 0.457087 0.860336
0.921682 0.402837 0.842044
0.920770 0.290218 0.808247
0.094570 0.357708 0.886764
0.104733 0.362533 0.889046
0.315296 0.423452 0.888919
0.671112 0.461203 0.888852
0.847059 0.496310 0.889412
0.897472 0.492900 0.874839
0.913261 0.469008 0.856669
0.919328 0.419116 0.837948
0.919219 0.286134 0.804615
0.127662 0.493332 0.888697
0.150346 0.498762 0.889700
0.346521 0.533979 0.890326
0.660022 0.560917 0.890098
0.805438 0.543151 0.873063
0.870992 0.528616 0.857809
0.897251 0.513277 0.844580
0.911322 0.489523 0.825207
0.914085 0.273463 0.792191
0.167996 0.583510 0.864690
0.189748 0.582520 0.863228
0.314726 0.586991 0.858177
0.531637 0.582668 0.849859
0.716549 0.577146 0.838888
0.817305 0.575005 0.826576
0.870494 0.572718 0.816095
0.893440 0.565854 0.805997
0.903947 0.549519 0.787977
0.179867 0.627563 0.819848
0.196235 0.626254 0.817445
0.277774 0.625122 0.810451
0.431549 0.620626 0.800663
0.613655 0.618087 0.792595
0.749645 0.622131 0.788381
0.828951 0.629806 0.786766
0.872682 0.637948 0.785236
0.888842 0.656057 0.777273
0.193420 0.704391 0.797812
0.206802 0.702999 0.795333
0.267961 0.698939 0.787802
0.384091 0.688041 0.776986
0.534394 0.675870 0.765027
0.682632 0.672897 0.756436
0.785547 0.684371 0.760000
0.847582 0.700889 0.766770
0.875656 0.719473 0.766016
0.195640 0.770443 0.791114
0.207619 0.769219 0.789071
0.259767 0.765481 0.782647
0.359437 0.758135 0.773429
0.492875 0.748361 0.760980
0.636733 0.738960 0.746949
0.743916 0.733038 0.735574
0.826713 0.747177 0.748540
0.866277 0.766105 0.755853
0.166143 0.830069 0.788382
0.176629 0.829380 0.786768
0.226864 0.827145 0.781321
0.318269 0.823113 0.773719
0.446633 0.816038 0.764458
0.591614 0.807631 0.754058
0.723203 0.802582 0.747063
0.814151 0.803324 0.745059
0.861201 0.813874 0.752795
0.100907 0.857077 0.772165
0.106833 0.859408 0.771397
0.114466 0.860985 0.768921
0.202943 0.858549 0.777706
0.353880 0.851501 0.769275
0.511586 0.846217 0.760511
0.665366 0.842712 0.754105
0.781922 0.841814 0.751045
0.863484 0.844694 0.759787
0.098916 0.408599 0.926246
0.107058 0.410593 0.926247
0.328514 0.453462 0.923971
0.692577 0.485157 0.923835
0.858869 0.517739 0.924218
0.913483 0.540808 0.921232
0.921434 0.504684 0.899210
0.925149 0.447724 0.881193
0.922686 0.321872 0.855744
0.103529 0.434361 0.926416
0.112809 0.437205 0.926428
0.338681 0.477342 0.924426
0.688631 0.507171 0.924250
0.856202 0.539241 0.924590
0.908426 0.547243 0.915973
0.918261 0.513976 0.895583
0.922888 0.462836 0.878690
0.921178 0.325422 0.853763
0.143361 0.546676 0.927052
0.165163 0.550081 0.927046
0.382945 0.578513 0.925926
0.679191 0.603543 0.925669
0.831456 0.605976 0.917041
0.884602 0.582585 0.899504
0.906382 0.557266 0.883979
0.915201 0.521413 0.870589
0.916325 0.386252 0.846854
0.194929 0.644342 0.915278
0.216648 0.642747 0.913492
0.372812 0.644904 0.906913
0.588749 0.637950 0.897314
0.756973 0.628561 0.886685
0.841588 0.619833 0.876335
0.881463 0.610196 0.866889
0.900116 0.593833 0.858278
0.907090 0.579631 0.845411
0.200017 0.666737 0.875592
0.217179 0.665937 0.874535
0.319620 0.667582 0.870636
0.485946 0.664341 0.864761
0.669689 0.660163 0.858653
0.782111 0.658161 0.853295
0.846611 0.657504 0.848556
0.879738 0.656296 0.843993
0.891944 0.671039 0.831943
0.202459 0.715129 0.853261
0.216156 0.714367 0.852365
0.289533 0.713547 0.849098
0.414877 0.709638 0.843297
0.576369 0.705340 0.834413
0.719416 0.704189 0.828194
0.807311 0.706742 0.825159
0.857419 0.711458 0.823694
0.878290 0.727095 0.818260
0.196114 0.771058 0.840118
0.207731 0.770171 0.838969
0.265120 0.767990 0.835089
0.368407 0.762610 0.828406
0.510700 0.755277 0.820018
0.660969 0.749191 0.812319
0.764067 0.748626 0.808441
0.834309 0.755068 0.809692
0.867888 0.771223 0.808493
0.152253 0.830721 0.829265
0.162776 0.830040 0.828224
0.216539 0.827691 0.824841
0.311295 0.823834 0.820159
0.444321 0.817879 0.814992
0.593656 0.810163 0.809694
0.726212 0.805134 0.805149
0.811996 0.802639 0.800535
0.861318 0.816825 0.804706
0.097112 0.852273 0.805136
0.113685 0.859959 0.805025
0.115871 0.859191 0.806723
0.182612 0.858758 0.810029
0.328702 0.852804 0.805695
0.493577 0.847512 0.802124
0.655929 0.844150 0.799760
0.774432 0.843417 0.798523
0.863228 0.846396 0.809220
0.209869 0.470733 0.948330
0.243977 0.474200 0.948339
0.528197 0.488002 0.948373
0.812791 0.511424 0.948467
0.895597 0.538540 0.948610
0.927095 0.561790 0.948794
0.930340 0.512809 0.937667
0.930705 0.420802 0.922179
0.924283 0.364642 0.896340
0.221377 0.486661 0.948327
0.256455 0.490181 0.948337
0.529682 0.504160 0.948370
0.811252 0.527777 0.948464
0.894987 0.554984 0.948607
0.923570 0.566032 0.946357
0.927530 0.518673 0.935706
0.928608 0.428784 0.919357
0.922795 0.377718 0.900154
0.279284 0.565755 0.948244
0.315481 0.569137 0.948255
0.543101 0.582423 0.948295
0.804673 0.604648 0.948402
0.889330 0.618367 0.947165
0.911097 0.592077 0.937812
0.918221 0.552772 0.924074
0.921549 0.480250 0.909940
0.917823 0.363150 0.893387
0.352482 0.679902 0.946183
0.381860 0.677583 0.945276
0.537819 0.670874 0.942234
0.751821 0.660590 0.937408
0.843309 0.647280 0.928507
0.882544 0.631632 0.916554
0.900735 0.611161 0.905351
0.910659 0.570513 0.895508
0.910959 0.588035 0.887004
0.313477 0.697711 0.915664
0.335962 0.696303 0.914584
0.452114 0.692536 0.910984
0.658829 0.686778 0.905302
0.778803 0.679491 0.898578
0.842184 0.671221 0.891685
0.875864 0.660333 0.885240
0.891979 0.643699 0.879595
0.897437 0.663300 0.875667
0.269808 0.726614 0.888084
0.288966 0.725751 0.887252
0.381019 0.723512 0.884506
0.550000 0.720085 0.880289
0.706476 0.716164 0.875593
0.795630 0.712973 0.871316
0.844957 0.709840 0.867855
0.873945 0.705373 0.865213
0.883536 0.726736 0.863757
0.222937 0.773859 0.873283
0.236632 0.772929 0.872564
0.309023 0.770284 0.870135
0.451237 0.765712 0.866328
0.618607 0.760165 0.862018
0.742777 0.755940 0.858220
0.814414 0.753640 0.855789
0.855400 0.751975 0.854684
0.872678 0.772263 0.854787
0.142517 0.830045 0.865230
0.151973 0.829469 0.864808
0.204305 0.827565 0.863098
0.324999 0.824001 0.860082
0.491771 0.818685 0.856500
0.663558 0.812050 0.852949
0.772901 0.808190 0.850030
0.837336 0.806219 0.848799
0.865906 0.818183 0.849412
0.091124 0.846720 0.831323
0.115802 0.858511 0.842462
0.115251 0.856797 0.840290
0.129110 0.854780 0.836777
0.266365 0.856449 0.851535
0.459233 0.850411 0.851166
0.639885 0.846944 0.849340
0.771297 0.846348 0.848262
0.863260 0.848566 0.848099
