LUTs/negative-superia-xtra-400/SuperiaXtra400_Modern_ExtraPunchy.cube
TITLE "Fuji Superia X-tra 400 Modern ExtraPunchy"
# Adobe RGB in/out. REPLACES AgX. Fuji Superia X-tra 400 Modern ExtraPunchy.
LUT_3D_SIZE 9
DOMAIN_MIN 0.0 0.0 0.0
DOMAIN_MAX 1.0 1.0 1.0
0.069662 0.073299 0.081842
0.110473 0.077670 0.078431
0.424321 0.096102 0.080553
0.676037 0.130372 0.084531
0.791578 0.175621 0.092498
0.845166 0.213638 0.104383
0.866761 0.220861 0.120931
0.883427 0.107334 0.376674
0.878372 0.288485 0.557683
0.067717 0.103755 0.078507
0.077258 0.097760 0.078860
0.297918 0.113930 0.080740
0.611418 0.156666 0.084829
0.763498 0.201703 0.092695
0.833894 0.240136 0.104471
0.861933 0.246773 0.120333
0.880717 0.106480 0.370311
0.876439 0.284852 0.553514
0.070933 0.313112 0.081541
0.078028 0.295486 0.082246
0.150009 0.227636 0.082513
0.429374 0.249549 0.086524
0.667692 0.301104 0.094328
0.786780 0.348023 0.106655
0.844660 0.364185 0.122094
0.872379 0.112590 0.354926
0.870138 0.271847 0.540082
0.074805 0.541429 0.088476
0.081350 0.530776 0.089928
0.137757 0.487084 0.091349
0.308750 0.433323 0.092502
0.549291 0.435529 0.098480
0.711002 0.466711 0.111051
0.806299 0.493881 0.126425
0.849776 0.489999 0.144456
0.860721 0.253317 0.355210
0.079478 0.666918 0.098118
0.085306 0.662469 0.099734
0.131395 0.649931 0.104702
0.273146 0.619418 0.107558
0.466311 0.587425 0.110884
0.635603 0.582704 0.119576
0.758884 0.599470 0.133629
0.826092 0.610491 0.152084
0.850293 0.610851 0.198375
0.083600 0.751594 0.109877
0.088276 0.749033 0.111992
0.128805 0.744665 0.119625
0.241677 0.727720 0.125520
0.416603 0.704409 0.129905
0.583500 0.686177 0.135090
0.704296 0.681000 0.146368
0.797698 0.690318 0.163414
0.838623 0.700629 0.189695
0.084346 0.808065 0.117196
0.088107 0.806418 0.119715
0.120833 0.803420 0.129400
0.212608 0.794511 0.139900
0.376240 0.780357 0.149043
0.545492 0.766257 0.156778
0.669103 0.756897 0.165606
0.771527 0.753531 0.179158
0.825090 0.760917 0.202675
0.075782 0.852735 0.107465
0.077807 0.850920 0.109679
0.104300 0.845989 0.126434
0.179382 0.839638 0.143665
0.333926 0.830521 0.158951
0.502632 0.820340 0.171800
0.635452 0.810435 0.184800
0.742875 0.805561 0.198174
0.816626 0.805003 0.215901
0.069662 0.845985 0.091194
0.069662 0.844907 0.091080
0.102155 0.867329 0.090742
0.100243 0.862511 0.115636
0.259710 0.859516 0.138722
0.445694 0.850066 0.161493
0.596142 0.842753 0.179626
0.707755 0.838645 0.194683
0.815480 0.837842 0.205365
0.068108 0.075651 0.108146
0.088706 0.083763 0.120760
0.391042 0.102869 0.123707
0.679520 0.137686 0.123667
0.790394 0.178171 0.119742
0.842803 0.214526 0.124483
0.864609 0.222591 0.137873
0.881975 0.106887 0.373275
0.877370 0.286602 0.555522
0.069714 0.099208 0.097939
0.082090 0.093297 0.089705
0.288359 0.117387 0.101566
0.614348 0.161809 0.114996
0.764269 0.203505 0.117806
0.830682 0.240068 0.123868
0.859834 0.247968 0.136286
0.879270 0.106051 0.366993
0.875445 0.282873 0.551380
0.075944 0.283283 0.118805
0.086266 0.248156 0.108317
0.164224 0.195864 0.097229
0.452702 0.236195 0.106166
0.671329 0.296481 0.115423
0.786695 0.343656 0.124872
0.843105 0.361503 0.137591
0.871033 0.114971 0.353605
0.869175 0.269885 0.538049
0.081981 0.514610 0.126693
0.091737 0.498331 0.124195
0.156708 0.452268 0.116523
0.329372 0.408448 0.112567
0.562317 0.422665 0.117876
0.713927 0.459212 0.127971
0.805801 0.488477 0.142072
0.848570 0.487315 0.159432
0.859826 0.251501 0.518595
0.085935 0.655072 0.128627
0.094204 0.650083 0.129866
0.147602 0.635242 0.131296
0.291626 0.602458 0.130195
0.479712 0.575010 0.131172
0.641796 0.575166 0.135843
0.761035 0.594480 0.150437
0.825237 0.607068 0.167278
0.849490 0.610225 0.227831
0.088322 0.745379 0.131923
0.094898 0.742780 0.133944
0.139871 0.736714 0.142080
0.258800 0.718629 0.146960
0.428843 0.696617 0.150253
0.589857 0.680284 0.155285
0.707801 0.677191 0.163362
0.798344 0.687621 0.180961
0.837724 0.699469 0.206905
0.087574 0.804391 0.134663
0.092911 0.802706 0.137644
0.128514 0.799329 0.149346
0.225092 0.790247 0.160297
0.385792 0.776436 0.168753
0.552490 0.763013 0.177055
0.672757 0.754388 0.187051
0.773207 0.751883 0.198742
0.824700 0.760072 0.219561
0.077293 0.850732 0.117990
0.080109 0.849030 0.121113
0.109197 0.844278 0.141775
0.186972 0.837893 0.161631
0.341261 0.828918 0.179070
0.507790 0.818511 0.193688
0.639076 0.809019 0.206140
0.745580 0.804508 0.219097
0.816668 0.804429 0.233813
0.069662 0.850821 0.251461
0.069662 0.849745 0.249989
0.101977 0.871491 0.245112
0.100082 0.865622 0.237529
0.264476 0.859004 0.153714
0.449658 0.849601 0.180031
0.598162 0.842420 0.200396
0.709428 0.838453 0.215488
0.815811 0.837766 0.224258
0.068095 0.089182 0.319412
0.106058 0.101439 0.450339
0.382058 0.123486 0.429173
0.685379 0.164048 0.405270
0.789725 0.198226 0.371648
0.840017 0.231987 0.369691
0.861371 0.238265 0.378768
0.879554 0.111221 0.395798
0.875295 0.282556 0.551093
0.073089 0.131201 0.336288
0.108930 0.143814 0.357131
0.333303 0.150391 0.330718
0.624868 0.181204 0.330838
0.764993 0.221990 0.332599
0.827233 0.256552 0.343395
0.856589 0.262901 0.353346
0.876847 0.112219 0.392762
0.873357 0.278490 0.546920
0.079605 0.234988 0.268094
0.090811 0.211274 0.220250
0.169289 0.179575 0.169109
0.457559 0.230782 0.213161
0.676791 0.298803 0.259721
0.786751 0.347432 0.296566
0.840315 0.365268 0.310561
0.867707 0.187246 0.385181
0.867055 0.265610 0.533594
0.094222 0.468218 0.312197
0.109202 0.451441 0.287773
0.177540 0.405455 0.230450
0.343502 0.362393 0.197089
0.576048 0.403346 0.220423
0.721184 0.450266 0.258189
0.804843 0.482082 0.279690
0.846012 0.484201 0.313306
0.857708 0.247444 0.514268
0.108739 0.633567 0.322976
0.122240 0.625770 0.313464
0.183727 0.602925 0.283396
0.328982 0.571361 0.250151
0.504269 0.550083 0.233427
0.659336 0.560339 0.248357
0.766644 0.584712 0.268347
0.823416 0.599395 0.297567
0.847391 0.610237 0.376839
0.116120 0.730943 0.326313
0.126833 0.727026 0.322182
0.180555 0.716887 0.310792
0.307176 0.698229 0.292350
0.470308 0.678522 0.275889
0.610876 0.666073 0.269611
0.720241 0.667972 0.273562
0.800073 0.680605 0.298886
0.835270 0.696562 0.308403
0.111975 0.795208 0.311629
0.120630 0.793344 0.310864
0.162839 0.788542 0.310057
0.275736 0.778741 0.306040
0.424412 0.765726 0.299915
0.575235 0.754077 0.296198
0.686705 0.747441 0.297906
0.778779 0.747088 0.308789
0.823592 0.757677 0.309570
0.094174 0.842456 0.296181
0.099746 0.841294 0.297969
0.139144 0.838022 0.309449
0.229020 0.831947 0.314772
0.375545 0.823603 0.317206
0.532826 0.812535 0.318480
0.655463 0.804440 0.321498
0.756628 0.801086 0.326671
0.816674 0.802692 0.320411
0.069662 0.849021 0.249021
0.102590 0.873374 0.247590
0.101411 0.869751 0.242858
0.099607 0.864024 0.235534
0.289291 0.856865 0.264333
0.469557 0.847903 0.298413
0.607814 0.841237 0.312192
0.717086 0.837770 0.321924
0.816196 0.837571 0.323612
0.069449 0.115261 0.558686
0.088177 0.139643 0.627405
0.379458 0.170076 0.649147
0.684961 0.215452 0.645139
0.796646 0.251454 0.615290
0.841449 0.274164 0.591898
0.860450 0.276444 0.587112
0.874740 0.190667 0.605959
0.873913 0.279652 0.591607
0.073931 0.166220 0.570284
0.099977 0.185649 0.599996
0.386045 0.220731 0.629439
0.653602 0.248052 0.608700
0.774336 0.273170 0.582872
0.828701 0.294807 0.568578
0.855514 0.297520 0.570138
0.871486 0.209564 0.597409
0.871924 0.275517 0.588309
0.085339 0.277986 0.504865
0.104555 0.272749 0.480439
0.244595 0.265435 0.455778
0.501117 0.286585 0.461499
0.687805 0.330382 0.486224
0.788101 0.369829 0.505200
0.838242 0.385502 0.520063
0.859315 0.356834 0.554183
0.865453 0.262417 0.575555
0.101018 0.435824 0.479240
0.116911 0.423476 0.454689
0.184665 0.381759 0.395161
0.344144 0.345575 0.347957
0.579850 0.401794 0.392170
0.722534 0.452097 0.431232
0.802953 0.485410 0.459592
0.843665 0.491873 0.496281
0.855859 0.244016 0.554599
0.125189 0.606487 0.503897
0.139275 0.599221 0.488767
0.204839 0.577507 0.448618
0.343425 0.546785 0.405288
0.508798 0.524177 0.377607
0.662439 0.549182 0.397965
0.766586 0.578087 0.424113
0.820254 0.596211 0.448182
0.845156 0.613995 0.526175
0.138439 0.713031 0.509251
0.150538 0.709213 0.501748
0.211901 0.698540 0.477188
0.336202 0.680245 0.446097
0.488770 0.661920 0.420885
0.621801 0.652228 0.408462
0.726053 0.659493 0.415419
0.799119 0.674576 0.431259
0.832214 0.694722 0.474213
0.137615 0.784578 0.506977
0.147668 0.782668 0.502273
0.198091 0.777301 0.487897
0.311986 0.767430 0.467935
0.457479 0.755151 0.448826
0.592262 0.744910 0.435594
0.697683 0.740001 0.429862
0.781728 0.742436 0.432477
0.821732 0.755428 0.447823
0.116520 0.836039 0.503876
0.124378 0.834993 0.500716
0.166515 0.831911 0.492073
0.269591 0.825957 0.479125
0.406414 0.816585 0.466164
0.556060 0.806386 0.455887
0.667535 0.799546 0.450143
0.765625 0.797461 0.448739
0.816056 0.801026 0.446496
0.078884 0.860081 0.549240
0.101668 0.873377 0.547789
0.100554 0.869906 0.542943
0.151675 0.866646 0.473335
0.328078 0.853294 0.485505
0.491321 0.845420 0.476484
0.621837 0.839613 0.472344
0.727949 0.836812 0.472250
0.816179 0.837525 0.463943
0.071611 0.165663 0.704536
0.080513 0.181615 0.722827
0.361423 0.237551 0.753100
0.670778 0.288158 0.754393
0.807500 0.333537 0.748536
0.846192 0.336952 0.714480
0.862535 0.329876 0.694500
0.873713 0.265624 0.684358
0.873917 0.279661 0.679782
0.074823 0.211584 0.709551
0.089407 0.233234 0.721972
0.364478 0.289975 0.748313
0.662509 0.333742 0.750995
0.786809 0.350170 0.726334
0.836423 0.354315 0.700752
0.857539 0.348440 0.685746
0.870452 0.287692 0.677554
0.871867 0.275401 0.672713
0.097153 0.384195 0.705128
0.125535 0.386376 0.699250
0.313996 0.389870 0.691422
0.565254 0.387413 0.674576
0.709894 0.397808 0.659302
0.796381 0.416379 0.652988
0.841161 0.421763 0.650887
0.859058 0.402711 0.653227
0.865172 0.261873 0.650181
0.110579 0.453681 0.617877
0.127936 0.448006 0.606969
0.218285 0.433538 0.582397
0.411851 0.424486 0.564442
0.606003 0.443803 0.571788
0.732481 0.479305 0.590311
0.804822 0.505980 0.603997
0.843159 0.512039 0.618369
0.856010 0.435407 0.629684
0.133139 0.588420 0.611121
0.148015 0.583061 0.601954
0.215920 0.565726 0.573962
0.349939 0.538120 0.535766
0.506896 0.511842 0.510043
0.665261 0.550302 0.535352
0.767136 0.581286 0.560812
0.818472 0.600817 0.583170
0.843685 0.622444 0.610390
0.152826 0.697551 0.618114
0.164962 0.694227 0.612038
0.232140 0.684532 0.594058
0.350498 0.667577 0.566857
0.496497 0.649783 0.541420
0.623121 0.641082 0.527965
0.727094 0.654575 0.539139
0.797450 0.672346 0.556135
0.829565 0.695607 0.588931
0.155845 0.774515 0.620290
0.166245 0.772776 0.616314
0.223978 0.767612 0.603986
0.335354 0.758290 0.587191
0.476361 0.746830 0.567049
0.602119 0.736634 0.552203
0.702675 0.732372 0.545282
0.782407 0.738806 0.548556
0.819564 0.754531 0.568936
0.133630 0.830473 0.622843
0.142502 0.829473 0.619887
0.190190 0.826393 0.610324
0.293867 0.820065 0.597314
0.429140 0.810353 0.583628
0.569924 0.801160 0.570562
0.676490 0.795411 0.562226
0.770853 0.794605 0.558562
0.815105 0.800484 0.559704
0.083241 0.861537 0.681537
0.085841 0.862665 0.680168
0.093017 0.864313 0.675579
0.189388 0.858683 0.618947
0.347330 0.850598 0.603823
0.505114 0.843469 0.593125
0.631488 0.838297 0.585909
0.735659 0.836179 0.582391
0.815915 0.838048 0.569930
0.073684 0.235594 0.797655
0.079720 0.245110 0.805250
0.343909 0.320019 0.817023
0.655343 0.363019 0.818082
0.807118 0.412608 0.819391
0.852401 0.413714 0.795168
0.866672 0.397039 0.769691
0.875473 0.339442 0.748108
0.875259 0.282482 0.719057
0.076407 0.279627 0.799960
0.085334 0.291329 0.805943
0.346380 0.360027 0.816763
0.648917 0.402375 0.818014
0.800423 0.439576 0.816567
0.844827 0.426352 0.785626
0.861797 0.412004 0.763598
0.872217 0.358756 0.743010
0.873169 0.278100 0.715403
0.105327 0.449540 0.804930
0.130679 0.458546 0.807187
0.360080 0.497815 0.814968
0.600765 0.485669 0.794220
0.736013 0.476568 0.773166
0.808923 0.473138 0.756067
0.845790 0.468220 0.740321
0.861079 0.447096 0.727222
0.866304 0.264121 0.703469
0.125846 0.516555 0.743071
0.144529 0.515076 0.738508
0.271663 0.516992 0.729177
0.479192 0.513180 0.717975
0.646392 0.516816 0.709991
0.751718 0.528662 0.706352
0.811986 0.541150 0.705296
0.844984 0.541699 0.703821
0.856407 0.490751 0.688260
0.142192 0.594080 0.702726
0.156496 0.590747 0.697409
0.237993 0.582404 0.683055
0.382609 0.568091 0.661314
0.555782 0.562590 0.649546
0.681712 0.576361 0.654918
0.773894 0.598202 0.667132
0.820157 0.614061 0.677722
0.843546 0.635804 0.680335
0.160000 0.687884 0.697516
0.173535 0.685420 0.693227
0.243177 0.677871 0.679487
0.359486 0.663669 0.656745
0.502373 0.646931 0.634283
0.621068 0.635521 0.617920
0.729260 0.656680 0.635254
0.797340 0.675704 0.651211
0.828387 0.699951 0.664618
0.165513 0.766502 0.698016
0.178076 0.765003 0.694935
0.238621 0.760521 0.685311
0.346899 0.752230 0.668602
0.484668 0.741686 0.651117
0.606436 0.730355 0.637238
0.703218 0.726899 0.630814
0.781998 0.737477 0.637647
0.817845 0.755270 0.653519
0.142957 0.825930 0.699677
0.152079 0.825028 0.697357
0.202901 0.821966 0.689581
0.307160 0.814970 0.677598
0.441799 0.806060 0.663248
0.576808 0.797692 0.651425
0.681310 0.792725 0.643733
0.772213 0.792952 0.640667
0.813962 0.800935 0.646866
0.084589 0.859027 0.699819
0.086710 0.859968 0.700031
0.092833 0.861102 0.701246
0.193988 0.856555 0.691954
0.353777 0.848840 0.679505
0.510613 0.842276 0.668030
0.635727 0.837732 0.660279
0.739384 0.836182 0.656550
0.815445 0.838937 0.652146
0.076391 0.324303 0.858903
0.082142 0.327747 0.861909
0.297146 0.396586 0.861419
0.644361 0.432829 0.861378
0.803769 0.473206 0.862006
0.859102 0.487386 0.852778
0.872004 0.457206 0.830162
0.878716 0.407169 0.803354
0.877483 0.286795 0.771822
0.079401 0.357446 0.859627
0.086544 0.362850 0.862064
0.305950 0.426245 0.861928
0.639659 0.461134 0.861857
0.800661 0.500834 0.862454
0.852217 0.496962 0.846904
0.867349 0.469929 0.824273
0.875535 0.422240 0.799534
0.875387 0.282717 0.768432
0.108098 0.497452 0.861691
0.128549 0.503621 0.862762
0.339762 0.541972 0.863431
0.628434 0.563857 0.863187
0.761151 0.549448 0.845011
0.823489 0.537590 0.826102
0.852030 0.520149 0.805719
0.864738 0.493131 0.787649
0.868459 0.268220 0.756382
0.143937 0.582052 0.836090
0.163210 0.581258 0.834533
0.305333 0.584843 0.826693
0.525624 0.581377 0.813657
0.677823 0.576941 0.800411
0.774535 0.575219 0.788927
0.822855 0.573378 0.779147
0.848791 0.567845 0.769722
0.857717 0.554623 0.751279
0.154446 0.622684 0.782649
0.169417 0.621316 0.780407
0.266075 0.620133 0.773879
0.428206 0.615437 0.764742
0.594647 0.612785 0.756871
0.706846 0.617009 0.751769
0.784769 0.625028 0.749815
0.825639 0.633541 0.747965
0.844881 0.648990 0.738352
0.166593 0.689561 0.762080
0.181063 0.687916 0.759766
0.254048 0.683577 0.751068
0.376990 0.674824 0.738007
0.528432 0.665020 0.724994
0.651333 0.662620 0.718232
0.741778 0.671871 0.721039
0.801120 0.685429 0.726365
0.829427 0.707421 0.725772
0.168820 0.762124 0.755076
0.181967 0.760986 0.752603
0.244101 0.757509 0.744836
0.352556 0.750673 0.733722
0.490852 0.741572 0.721811
0.610750 0.730612 0.710750
0.701277 0.723551 0.701757
0.782803 0.740429 0.712006
0.817500 0.758089 0.717773
0.142298 0.823304 0.751769
0.151577 0.822402 0.749818
0.203539 0.818893 0.743235
0.309169 0.812578 0.734070
0.445129 0.804449 0.724547
0.579230 0.796656 0.716359
0.682906 0.791973 0.710840
0.771762 0.792661 0.709257
0.813054 0.802444 0.715362
0.083897 0.854878 0.732201
0.088385 0.857610 0.731277
0.095295 0.859460 0.728299
0.176803 0.856602 0.738874
0.347051 0.848345 0.728725
0.506889 0.842160 0.721442
0.633842 0.838062 0.716396
0.738248 0.837012 0.713983
0.815054 0.840379 0.720871
0.082359 0.412509 0.897663
0.088628 0.414356 0.897663
0.320289 0.453879 0.896041
0.659435 0.488183 0.895944
0.811013 0.525243 0.896217
0.867648 0.547540 0.894006
0.878380 0.510357 0.872924
0.883409 0.448607 0.853681
0.880074 0.317596 0.822790
0.085712 0.436308 0.897784
0.094027 0.438928 0.897792
0.331364 0.479340 0.896365
0.656397 0.513189 0.896240
0.808675 0.546264 0.896482
0.861519 0.552774 0.890035
0.874093 0.520947 0.869047
0.880347 0.462973 0.851010
0.878034 0.321521 0.819619
0.122451 0.552313 0.898238
0.141432 0.555079 0.898233
0.375854 0.578040 0.897435
0.647844 0.598071 0.897252
0.786969 0.600146 0.890841
0.841274 0.581310 0.873238
0.859784 0.560903 0.856654
0.869964 0.529440 0.842374
0.871480 0.389534 0.809126
0.168107 0.639467 0.889509
0.192024 0.638165 0.888160
0.365810 0.639926 0.881164
0.577215 0.633544 0.870897
0.713971 0.623727 0.859542
0.795862 0.614609 0.848499
0.837162 0.604549 0.838432
0.854463 0.590320 0.826855
0.860384 0.578938 0.806953
0.173565 0.657642 0.847707
0.192620 0.656995 0.846580
0.310633 0.658325 0.842424
0.484892 0.655703 0.836165
0.638219 0.652320 0.827458
0.738432 0.650697 0.818870
0.800268 0.650164 0.811690
0.834843 0.649185 0.805172
0.847519 0.661120 0.793933
0.176270 0.702269 0.818815
0.191474 0.701366 0.817444
0.278492 0.700394 0.812508
0.409587 0.695766 0.804522
0.568427 0.690683 0.796237
0.680014 0.689322 0.790436
0.763434 0.692340 0.787604
0.809742 0.697920 0.786237
0.832896 0.716477 0.781167
0.169296 0.762696 0.801558
0.182091 0.761871 0.800486
0.250589 0.759843 0.796868
0.361444 0.754838 0.790634
0.506131 0.748013 0.782808
0.629392 0.742345 0.775623
0.720872 0.741819 0.772004
0.789473 0.747818 0.773171
0.819544 0.762849 0.772052
0.130215 0.824064 0.791435
0.139323 0.823271 0.790464
0.191903 0.819750 0.787308
0.301623 0.813707 0.782939
0.442531 0.806154 0.778118
0.580665 0.799003 0.773173
0.685201 0.794340 0.768930
0.769238 0.792026 0.764623
0.813158 0.805178 0.768517
0.081065 0.849248 0.768918
0.094697 0.858256 0.768815
0.096369 0.857356 0.770400
0.156879 0.856848 0.773486
0.320493 0.849870 0.769441
0.491455 0.843675 0.766106
0.624295 0.839743 0.763899
0.730958 0.838886 0.762745
0.814830 0.842370 0.772730
0.184463 0.471876 0.922768
0.225065 0.475790 0.922781
0.522122 0.491406 0.922828
0.770225 0.518036 0.922961
0.850624 0.545692 0.923162
0.886046 0.564562 0.923420
0.890448 0.519616 0.907828
0.890944 0.423797 0.894720
0.882236 0.365214 0.869856
0.197337 0.489887 0.922764
0.240105 0.493878 0.922777
0.523634 0.509760 0.922824
0.768316 0.536720 0.922956
0.850106 0.559054 0.923157
0.881271 0.567988 0.919998
0.886636 0.526309 0.905089
0.888098 0.431166 0.892591
0.880221 0.379909 0.873933
0.267937 0.567765 0.922647
0.306150 0.570493 0.922663
0.537300 0.581180 0.922719
0.760407 0.598952 0.922870
0.845296 0.613078 0.921132
0.864436 0.588916 0.908031
0.874039 0.557261 0.896114
0.878536 0.482628 0.884403
0.873502 0.363541 0.866700
0.345666 0.668272 0.919754
0.374778 0.666401 0.918481
0.531919 0.660986 0.914218
0.708962 0.652666 0.907466
0.797372 0.641862 0.899274
0.838617 0.626937 0.890474
0.854989 0.605556 0.879492
0.863846 0.571602 0.868967
0.864250 0.585680 0.859883
0.303981 0.682592 0.889801
0.328399 0.681462 0.888985
0.451298 0.678437 0.885521
0.627228 0.673808 0.879440
0.735211 0.667940 0.872249
0.796385 0.661266 0.864882
0.829691 0.652457 0.858000
0.847549 0.638943 0.851977
0.852188 0.654860 0.847787
0.256302 0.715904 0.861036
0.277929 0.714879 0.860148
0.373945 0.712217 0.857217
0.544330 0.708148 0.852716
0.670111 0.703495 0.847707
0.751597 0.699714 0.843149
0.798817 0.696005 0.839461
0.827247 0.690721 0.836647
0.839952 0.716049 0.835096
0.199096 0.765300 0.845246
0.215573 0.764435 0.844479
0.299169 0.761976 0.841890
0.450310 0.757724 0.837834
0.598089 0.752563 0.832870
0.700169 0.748630 0.826763
0.771993 0.746489 0.822863
0.807973 0.744938 0.821092
0.825634 0.763816 0.821258
0.121715 0.823277 0.836665
0.129970 0.822541 0.836216
0.178304 0.819552 0.834395
0.316470 0.813967 0.829755
0.489903 0.806902 0.824002
0.632012 0.800753 0.818326
0.729467 0.797174 0.813915
0.792131 0.795347 0.812057
0.817175 0.806437 0.812982
0.076915 0.842749 0.793354
0.096316 0.856558 0.803744
0.095895 0.854549 0.801718
0.109353 0.852184 0.798442
0.252104 0.854140 0.816188
0.459323 0.847068 0.815630
0.612960 0.843011 0.812874
0.727906 0.842314 0.811247
0.814858 0.844908 0.811001
