LUTs/negative-superia-xtra-400/SuperiaXtra400_Classic_ExtraSoft.cube
TITLE "Fuji Superia X-tra 400 Classic ExtraSoft"
# Adobe RGB in/out. REPLACES AgX. Fuji Superia X-tra 400 Classic ExtraSoft.
LUT_3D_SIZE 9
DOMAIN_MIN 0.0 0.0 0.0
DOMAIN_MAX 1.0 1.0 1.0
0.055369 0.061977 0.079302
0.073354 0.066492 0.081596
0.171653 0.073592 0.085004
0.449656 0.085119 0.089586
0.599503 0.097496 0.094685
0.685643 0.113710 0.101360
0.731583 0.122046 0.109272
0.771855 0.083006 0.225985
0.779149 0.172488 0.424617
0.056670 0.078849 0.082141
0.067220 0.081712 0.083774
0.149217 0.085288 0.086831
0.415545 0.095007 0.090746
0.582494 0.110070 0.095921
0.681466 0.126896 0.102370
0.730121 0.134859 0.109763
0.771857 0.083020 0.226013
0.779150 0.172496 0.424615
0.059016 0.127071 0.086505
0.064564 0.139565 0.088311
0.100541 0.145517 0.090914
0.304740 0.154484 0.094699
0.531172 0.175321 0.099800
0.661051 0.207364 0.106158
0.721663 0.225516 0.112621
0.772267 0.087878 0.229317
0.779150 0.172497 0.424614
0.061894 0.279396 0.091739
0.065731 0.300699 0.093321
0.088701 0.330290 0.097350
0.204244 0.333970 0.100997
0.455992 0.345375 0.106280
0.612575 0.366389 0.111485
0.705308 0.391782 0.119607
0.755677 0.392295 0.129250
0.779150 0.172596 0.259444
0.065185 0.453528 0.098340
0.068427 0.462615 0.099887
0.086502 0.488385 0.104624
0.164296 0.501497 0.109153
0.390742 0.503024 0.113675
0.560510 0.510858 0.120841
0.681935 0.522075 0.128784
0.745846 0.530727 0.138704
0.778860 0.534586 0.165337
0.068365 0.575278 0.105432
0.071246 0.579423 0.106888
0.086923 0.596261 0.111477
0.146571 0.608422 0.118197
0.336245 0.612728 0.124594
0.519927 0.614028 0.131952
0.654025 0.618082 0.140539
0.732275 0.624368 0.152529
0.776219 0.633176 0.168984
0.070382 0.655099 0.110897
0.072664 0.656891 0.112189
0.086529 0.664479 0.119048
0.137095 0.671691 0.127239
0.299990 0.675129 0.136248
0.487628 0.676340 0.145473
0.616801 0.678431 0.155986
0.716283 0.682972 0.168183
0.773970 0.691373 0.185660
0.065694 0.717059 0.109641
0.067556 0.717063 0.110822
0.083243 0.717938 0.121179
0.125216 0.720259 0.132995
0.265930 0.721204 0.145346
0.454916 0.721276 0.158279
0.587791 0.721926 0.170693
0.699335 0.724398 0.184710
0.773703 0.728540 0.201637
0.055396 0.730884 0.101704
0.055417 0.730886 0.101706
0.084999 0.753727 0.101756
0.085000 0.754662 0.120379
0.203604 0.758239 0.137387
0.418073 0.756134 0.156357
0.561521 0.755311 0.172553
0.679298 0.756478 0.187307
0.779025 0.759793 0.198538
0.056030 0.065466 0.098641
0.066732 0.068726 0.102307
0.152756 0.075807 0.103993
0.464601 0.087762 0.105958
0.606146 0.099657 0.106225
0.686491 0.115519 0.109202
0.731458 0.124020 0.116094
0.771857 0.083019 0.226016
0.779150 0.172496 0.424619
0.059246 0.078856 0.100517
0.076434 0.085365 0.105053
0.151928 0.087962 0.103559
0.431894 0.097463 0.106551
0.592292 0.112625 0.107350
0.682867 0.128878 0.110072
0.730086 0.137213 0.116682
0.771858 0.083041 0.226060
0.779150 0.172497 0.424615
0.062684 0.124888 0.103632
0.069774 0.131978 0.104552
0.115933 0.140648 0.106281
0.351683 0.156389 0.109407
0.544654 0.179612 0.111060
0.665438 0.209952 0.114218
0.722433 0.227550 0.120873
0.772386 0.089214 0.230773
0.779150 0.172497 0.424614
0.065687 0.272823 0.107157
0.070937 0.288962 0.108512
0.100087 0.315967 0.111134
0.240558 0.325520 0.114559
0.480233 0.343718 0.118243
0.622505 0.366887 0.121880
0.707768 0.391841 0.128218
0.755853 0.393283 0.137264
0.779150 0.172527 0.424609
0.068537 0.448608 0.109816
0.072438 0.456797 0.111283
0.093129 0.479561 0.116431
0.185773 0.493179 0.121826
0.409739 0.497972 0.127184
0.570663 0.508536 0.132136
0.685889 0.521279 0.138715
0.746775 0.530212 0.148768
0.778814 0.535609 0.184258
0.071117 0.572289 0.113818
0.073872 0.576302 0.115840
0.091095 0.591917 0.122254
0.157680 0.603778 0.129392
0.354739 0.608967 0.136661
0.528608 0.612118 0.144604
0.660514 0.617177 0.153496
0.734290 0.623795 0.163509
0.776273 0.633293 0.181041
0.072372 0.653961 0.119520
0.074941 0.655695 0.121328
0.089304 0.662898 0.128493
0.144587 0.669862 0.137880
0.312689 0.673458 0.148315
0.497131 0.675065 0.158788
0.622999 0.677528 0.169798
0.718891 0.682422 0.182442
0.774220 0.691289 0.197651
0.066990 0.716229 0.115101
0.069372 0.716316 0.117208
0.085205 0.717307 0.129619
0.130487 0.719547 0.142868
0.276563 0.720552 0.157713
0.461386 0.720758 0.171576
0.592064 0.721569 0.185801
0.701871 0.724147 0.199855
0.774134 0.728467 0.216935
0.055397 0.735596 0.196492
0.055452 0.735598 0.196494
0.084999 0.757859 0.196496
0.085001 0.757858 0.196481
0.208205 0.758188 0.147589
0.421800 0.756067 0.168766
0.563861 0.755292 0.187569
0.680781 0.756502 0.203069
0.779505 0.759829 0.214960
0.056873 0.071043 0.145915
0.071470 0.074680 0.197143
0.144125 0.081331 0.187027
0.456554 0.092666 0.186179
0.606600 0.106906 0.188638
0.686760 0.123862 0.200168
0.730874 0.131952 0.219475
0.772079 0.085800 0.246899
0.779150 0.172497 0.424653
0.060387 0.083128 0.151403
0.072485 0.086899 0.160954
0.146008 0.092319 0.167580
0.433866 0.103565 0.175558
0.596677 0.120391 0.182020
0.684022 0.138008 0.194005
0.729725 0.146923 0.208768
0.772165 0.086838 0.249785
0.779150 0.172497 0.424621
0.065946 0.127047 0.157525
0.074285 0.132304 0.156761
0.148917 0.158706 0.173464
0.382206 0.162748 0.168871
0.561391 0.189796 0.178011
0.671722 0.221871 0.190107
0.723901 0.237844 0.198002
0.771527 0.122890 0.261047
0.779150 0.172497 0.424615
0.072303 0.271233 0.169487
0.079191 0.282619 0.169736
0.117414 0.305743 0.171260
0.298146 0.320030 0.174873
0.515556 0.345970 0.183861
0.644064 0.373824 0.194735
0.712897 0.396161 0.201516
0.756391 0.397203 0.224284
0.779150 0.172501 0.424620
0.077864 0.446334 0.179892
0.083099 0.452316 0.181156
0.112915 0.469010 0.184765
0.239685 0.482353 0.189317
0.453099 0.491296 0.194923
0.599780 0.506367 0.206728
0.695844 0.521147 0.214407
0.749390 0.529544 0.232570
0.778638 0.539580 0.309275
0.082034 0.569694 0.192288
0.085818 0.572857 0.193786
0.111966 0.584421 0.199219
0.206255 0.594865 0.206612
0.405829 0.601516 0.214753
0.556109 0.607201 0.224542
0.674268 0.615412 0.233487
0.739773 0.622429 0.250902
0.776455 0.633827 0.259755
0.083025 0.651913 0.197816
0.086111 0.653400 0.199932
0.108024 0.659149 0.208219
0.182088 0.665149 0.219377
0.363154 0.669052 0.230999
0.521598 0.671715 0.242887
0.645377 0.675208 0.255529
0.727210 0.680790 0.273476
0.774991 0.691114 0.275227
0.078297 0.711869 0.206308
0.081267 0.712368 0.209070
0.100498 0.714485 0.223913
0.157695 0.716805 0.239037
0.319843 0.718150 0.254044
0.490822 0.718880 0.268460
0.610804 0.720292 0.283135
0.711720 0.723241 0.298031
0.775335 0.728262 0.298120
0.055455 0.735599 0.196504
0.084998 0.757858 0.196502
0.084999 0.757859 0.196499
0.085017 0.757861 0.196502
0.237665 0.757557 0.224468
0.439465 0.755644 0.260388
0.574346 0.755109 0.282877
0.687277 0.756509 0.301566
0.780318 0.759988 0.310027
0.058092 0.079392 0.279936
0.066549 0.085186 0.364242
0.143047 0.092032 0.390445
0.433294 0.101188 0.386229
0.598389 0.118558 0.390953
0.684142 0.137500 0.400299
0.729236 0.149209 0.421475
0.766144 0.118143 0.470561
0.779150 0.172496 0.473398
0.061041 0.091208 0.291664
0.070185 0.095248 0.326308
0.145780 0.102584 0.367153
0.417662 0.114193 0.368943
0.590314 0.132894 0.379950
0.681806 0.153258 0.391600
0.728191 0.165212 0.414001
0.765537 0.128293 0.466552
0.779150 0.172497 0.473793
0.068788 0.141159 0.303242
0.077412 0.147401 0.303694
0.140630 0.159899 0.319485
0.381251 0.176715 0.331704
0.562831 0.206732 0.350291
0.671874 0.239044 0.368927
0.723284 0.256825 0.391260
0.760695 0.241090 0.438397
0.779150 0.172497 0.475227
0.077228 0.279118 0.317176
0.084368 0.288761 0.315339
0.130937 0.309495 0.315559
0.346252 0.347891 0.343686
0.526281 0.355168 0.340278
0.651967 0.384033 0.356097
0.714669 0.403713 0.376051
0.756063 0.407466 0.405995
0.779150 0.172530 0.475658
0.085138 0.447876 0.342186
0.090578 0.452633 0.341023
0.131268 0.466773 0.340399
0.283452 0.479908 0.342525
0.483222 0.491069 0.348654
0.615771 0.508356 0.362355
0.701512 0.523161 0.377273
0.750497 0.532353 0.392506
0.778315 0.546788 0.469787
0.090301 0.568927 0.363962
0.097543 0.571589 0.363716
0.132604 0.581153 0.364526
0.250501 0.590649 0.366653
0.438263 0.598086 0.371539
0.577785 0.605320 0.378581
0.684081 0.615022 0.387926
0.743153 0.622359 0.397777
0.776503 0.635587 0.436797
0.093768 0.650877 0.384494
0.099725 0.652136 0.384577
0.128860 0.656882 0.385853
0.224351 0.662205 0.388166
0.403525 0.666243 0.391773
0.543951 0.669628 0.396976
0.663771 0.673910 0.403574
0.733590 0.680085 0.411917
0.775566 0.691685 0.426605
0.087751 0.710351 0.406902
0.091432 0.710873 0.406814
0.116571 0.712921 0.407952
0.192895 0.715029 0.409806
0.361864 0.716550 0.413251
0.513616 0.717695 0.418067
0.629837 0.719525 0.424369
0.720734 0.722783 0.431695
0.776343 0.728488 0.435609
0.070198 0.747743 0.486820
0.084995 0.760329 0.486820
0.084999 0.760331 0.486819
0.116157 0.762327 0.424877
0.289025 0.756259 0.446825
0.464944 0.755031 0.449041
0.589550 0.754945 0.454688
0.696530 0.756564 0.462543
0.780890 0.760446 0.460260
0.059442 0.091088 0.458175
0.064200 0.094431 0.481455
0.135589 0.106828 0.515773
0.415372 0.119335 0.517259
0.587268 0.137017 0.519209
0.680558 0.159107 0.525689
0.727059 0.175396 0.534731
0.762594 0.152338 0.548452
0.779150 0.172498 0.566825
0.061512 0.100156 0.465625
0.066973 0.105806 0.480499
0.136849 0.119903 0.510282
0.405100 0.133595 0.513355
0.580502 0.153677 0.516103
0.678467 0.177952 0.523304
0.726103 0.194193 0.533044
0.762123 0.168043 0.547498
0.779150 0.172498 0.563893
0.070238 0.159140 0.474091
0.077604 0.166419 0.476980
0.137484 0.185644 0.493131
0.378763 0.205865 0.501160
0.558070 0.232319 0.506217
0.670052 0.264530 0.515162
0.721869 0.286448 0.526670
0.759107 0.280784 0.543048
0.779150 0.172505 0.554604
0.081140 0.305256 0.480247
0.087483 0.312225 0.479758
0.139458 0.332221 0.483258
0.340502 0.351257 0.490030
0.528656 0.372300 0.496016
0.653783 0.399694 0.505850
0.714555 0.416606 0.517624
0.755371 0.422978 0.535463
0.780509 0.358175 0.554688
0.089853 0.453743 0.489289
0.099026 0.458137 0.488337
0.143807 0.471112 0.487539
0.305226 0.484578 0.489382
0.506317 0.507404 0.501479
0.623881 0.515385 0.502332
0.703958 0.528566 0.512142
0.750681 0.538729 0.526559
0.777887 0.556277 0.557373
0.101058 0.571155 0.503644
0.108384 0.573503 0.502818
0.149560 0.581935 0.501259
0.285115 0.590931 0.500830
0.461253 0.598948 0.502715
0.591832 0.607068 0.506339
0.689804 0.616550 0.513962
0.744979 0.624213 0.523182
0.776361 0.638721 0.552729
0.105732 0.651336 0.519965
0.111827 0.652474 0.519248
0.147773 0.656631 0.517465
0.261223 0.661537 0.516085
0.428601 0.665683 0.516369
0.560875 0.669523 0.518412
0.672559 0.674315 0.522058
0.737655 0.680706 0.527762
0.775776 0.693227 0.546535
0.098281 0.710310 0.543340
0.103686 0.710764 0.542336
0.134561 0.712485 0.539203
0.223466 0.714431 0.536158
0.392980 0.716006 0.534518
0.529344 0.717429 0.534859
0.645799 0.719563 0.536967
0.727250 0.723093 0.540327
0.776922 0.729417 0.545503
0.073617 0.752089 0.618073
0.076101 0.753929 0.618073
0.081491 0.758242 0.618072
0.146238 0.757817 0.579323
0.314437 0.756081 0.570540
0.482984 0.755163 0.566831
0.601000 0.755266 0.566349
0.703539 0.757059 0.569274
0.781234 0.761491 0.561035
0.060850 0.106366 0.581564
0.063902 0.108597 0.589451
0.128381 0.129185 0.601737
0.396302 0.144730 0.602846
0.578691 0.165770 0.604217
0.677063 0.190458 0.606387
0.724892 0.211584 0.609202
0.760549 0.195492 0.611342
0.779150 0.172498 0.604620
0.062405 0.116810 0.583954
0.065735 0.120326 0.590171
0.129396 0.143594 0.601464
0.389725 0.159917 0.602774
0.573412 0.184144 0.604272
0.675239 0.211860 0.606460
0.724053 0.232662 0.609411
0.760134 0.216181 0.611642
0.779150 0.172498 0.604620
0.071318 0.187410 0.589117
0.076901 0.193338 0.591466
0.135035 0.221147 0.599586
0.369217 0.242660 0.602170
0.554839 0.268706 0.604093
0.668032 0.299009 0.606578
0.720456 0.319493 0.610051
0.757817 0.321114 0.613147
0.779150 0.172505 0.604619
0.083245 0.330835 0.590948
0.088737 0.336573 0.591470
0.143623 0.359110 0.596018
0.344256 0.379729 0.600126
0.530999 0.399310 0.602889
0.653734 0.415841 0.605867
0.714131 0.433016 0.610211
0.754685 0.441637 0.614848
0.779940 0.411085 0.607168
0.095847 0.468097 0.594135
0.104455 0.471765 0.593988
0.153847 0.485289 0.595296
0.321610 0.499047 0.598117
0.507684 0.512147 0.601387
0.628031 0.523672 0.604599
0.705098 0.536730 0.609578
0.750696 0.547542 0.615725
0.777484 0.567143 0.619023
0.108012 0.576098 0.599960
0.115409 0.578363 0.599560
0.162970 0.586233 0.599018
0.303943 0.595032 0.599660
0.475849 0.603375 0.601808
0.602927 0.614503 0.606572
0.693137 0.619847 0.609366
0.745972 0.627721 0.615487
0.776241 0.642891 0.623631
0.113584 0.653406 0.609204
0.121293 0.654435 0.608693
0.162849 0.658244 0.607462
0.287041 0.662905 0.606632
0.445675 0.667122 0.607137
0.572374 0.671205 0.608774
0.678088 0.676293 0.611340
0.740083 0.682808 0.615771
0.775888 0.695243 0.626170
0.105364 0.711448 0.623528
0.110872 0.711859 0.622846
0.146072 0.713378 0.620504
0.246166 0.715145 0.618093
0.408688 0.716712 0.616677
0.540213 0.718285 0.616653
0.656806 0.720596 0.617835
0.731191 0.724261 0.619888
0.777200 0.730951 0.626546
0.075210 0.753291 0.640365
0.077404 0.754899 0.641573
0.081819 0.758529 0.646171
0.151498 0.758699 0.642192
0.326695 0.756877 0.636740
0.492571 0.756058 0.634101
0.607427 0.756317 0.633424
0.707549 0.758159 0.634520
0.781333 0.762859 0.633660
0.062394 0.130491 0.659854
0.064777 0.131537 0.663537
0.112582 0.157444 0.662936
0.385530 0.177519 0.662885
0.574242 0.203550 0.663656
0.675477 0.231929 0.664511
0.723894 0.250671 0.665337
0.759436 0.241252 0.664552
0.779149 0.172482 0.653250
0.063782 0.142614 0.660740
0.066091 0.144666 0.663727
0.114839 0.173667 0.663560
0.379213 0.195126 0.663473
0.570128 0.223345 0.664206
0.674005 0.251383 0.665022
0.723144 0.271384 0.665832
0.759074 0.261706 0.665074
0.779148 0.172476 0.652807
0.071890 0.220884 0.663270
0.076367 0.225381 0.664584
0.126679 0.254312 0.665404
0.364316 0.278753 0.665411
0.555139 0.306503 0.666041
0.668006 0.331339 0.666759
0.720023 0.350984 0.667575
0.757207 0.356150 0.667257
0.779140 0.172346 0.650788
0.084639 0.360968 0.664290
0.089496 0.365579 0.665038
0.142520 0.388031 0.666704
0.348221 0.404929 0.667450
0.534736 0.419941 0.668174
0.656565 0.436127 0.669059
0.714611 0.450523 0.669993
0.754582 0.460050 0.670298
0.778918 0.460921 0.663320
0.099741 0.485295 0.664679
0.107646 0.488457 0.665132
0.158742 0.501492 0.666853
0.332972 0.515589 0.668447
0.514340 0.525261 0.669759
0.633999 0.535618 0.670928
0.706770 0.546091 0.672229
0.751166 0.556888 0.673473
0.777311 0.577847 0.669965
0.113061 0.585012 0.665883
0.121700 0.587023 0.666048
0.172742 0.594667 0.667029
0.319645 0.603717 0.668718
0.490124 0.612085 0.670551
0.608831 0.618022 0.672223
0.696141 0.624306 0.673964
0.747046 0.631919 0.676031
0.776317 0.647238 0.675237
0.118192 0.657097 0.669057
0.127520 0.658089 0.668964
0.172900 0.661683 0.668971
0.300144 0.666139 0.669679
0.456997 0.670378 0.671219
0.580314 0.674536 0.672999
0.681560 0.679592 0.674549
0.741894 0.685955 0.677602
0.776145 0.697673 0.679711
0.106886 0.714070 0.675716
0.112527 0.714427 0.675416
0.149888 0.715710 0.674370
0.255846 0.717281 0.673623
0.416540 0.718744 0.673712
0.546319 0.720294 0.674633
0.661878 0.722650 0.676210
0.733278 0.726270 0.678283
0.777457 0.732989 0.683027
0.074986 0.753126 0.672814
0.079141 0.756252 0.672818
0.083808 0.760265 0.672941
0.141408 0.761539 0.684705
0.323037 0.758762 0.681733
0.492160 0.757840 0.680896
0.607874 0.758092 0.681030
0.707782 0.759942 0.681994
0.781421 0.764651 0.688960
0.064843 0.165713 0.713212
0.066705 0.166776 0.713213
0.119389 0.190130 0.710141
0.401314 0.214192 0.709959
0.583883 0.240902 0.710474
0.679131 0.267563 0.711115
0.725555 0.286215 0.711561
0.760605 0.271960 0.711930
0.779286 0.190910 0.696941
0.065846 0.179565 0.713442
0.068536 0.181110 0.713457
0.123500 0.207883 0.710755
0.397590 0.232343 0.710518
0.580764 0.258724 0.710977
0.678047 0.287432 0.711579
0.725017 0.305781 0.712019
0.760291 0.294254 0.712361
0.779331 0.197641 0.696941
0.074808 0.265013 0.714301
0.079344 0.268074 0.714292
0.141554 0.294916 0.712780
0.388735 0.315876 0.712433
0.568195 0.338617 0.712715
0.673200 0.362512 0.713196
0.722525 0.380422 0.713648
0.758716 0.380208 0.713952
0.779826 0.269783 0.696941
0.087114 0.393787 0.715526
0.092898 0.396265 0.715665
0.157915 0.410187 0.715105
0.374639 0.423223 0.714808
0.549743 0.437502 0.714986
0.665073 0.452840 0.715420
0.718378 0.465967 0.715969
0.756584 0.472887 0.716338
0.779093 0.480852 0.709877
0.103895 0.503314 0.716276
0.111367 0.505775 0.716607
0.175918 0.517509 0.716934
0.358590 0.526503 0.717087
0.529249 0.535659 0.717401
0.648818 0.545513 0.717888
0.712017 0.555110 0.718505
0.753789 0.563553 0.719083
0.777870 0.585722 0.715134
0.116497 0.595226 0.716429
0.126451 0.596934 0.716897
0.186501 0.604535 0.717967
0.339476 0.612541 0.718809
0.507218 0.617787 0.719447
0.623546 0.623269 0.720182
0.702563 0.629019 0.720964
0.750315 0.635214 0.721803
0.777119 0.650916 0.719325
0.120830 0.662075 0.715809
0.129870 0.662958 0.716254
0.180838 0.666563 0.717705
0.311422 0.670679 0.719467
0.470317 0.674560 0.720908
0.592102 0.678545 0.722082
0.688052 0.683241 0.723143
0.745458 0.688973 0.724484
0.776991 0.699911 0.723019
0.101245 0.718933 0.716476
0.107154 0.719150 0.716573
0.144908 0.719834 0.717020
0.252217 0.720864 0.718421
0.417959 0.721950 0.720585
0.549748 0.723344 0.722697
0.665007 0.725556 0.724535
0.733591 0.727845 0.724581
0.778021 0.735232 0.726639
0.072983 0.751458 0.705902
0.083570 0.760123 0.706441
0.084915 0.761405 0.710155
0.127012 0.764356 0.716725
0.296647 0.762232 0.717164
0.478522 0.760835 0.718349
0.600544 0.760846 0.719976
0.703112 0.762503 0.721417
0.781514 0.766804 0.732541
0.087179 0.202615 0.761260
0.095487 0.205371 0.761278
0.236480 0.216510 0.761343
0.531332 0.235771 0.761524
0.645741 0.258134 0.761800
0.700168 0.278982 0.762153
0.737576 0.284875 0.762922
0.767171 0.241879 0.764368
0.779150 0.225715 0.752650
0.089251 0.215417 0.761256
0.098923 0.218294 0.761274
0.237937 0.229893 0.761337
0.529632 0.249154 0.761519
0.644586 0.272616 0.761793
0.699821 0.294756 0.762151
0.737404 0.300796 0.762909
0.767015 0.254176 0.764344
0.779150 0.241652 0.760965
0.105034 0.282722 0.761096
0.114890 0.285931 0.761117
0.251315 0.298702 0.761194
0.522598 0.316766 0.761401
0.639394 0.337507 0.761691
0.698225 0.356102 0.762086
0.736529 0.362285 0.762803
0.766229 0.325959 0.764153
0.779150 0.241708 0.760965
0.132217 0.405861 0.760864
0.146167 0.407431 0.760898
0.274197 0.413611 0.761017
0.510258 0.423999 0.761261
0.628800 0.436223 0.761573
0.694744 0.447739 0.761991
0.734739 0.453596 0.762693
0.764928 0.444374 0.763850
0.781170 0.481794 0.765391
0.151210 0.511927 0.760916
0.168054 0.513319 0.760963
0.284051 0.518035 0.761123
0.487894 0.524604 0.761356
0.612362 0.532296 0.761705
0.689164 0.539853 0.762141
0.731993 0.544926 0.762779
0.763796 0.544469 0.763856
0.781319 0.573792 0.766451
0.154931 0.599372 0.761336
0.171850 0.600259 0.761393
0.272168 0.603918 0.761574
0.452297 0.609569 0.761830
0.586476 0.614886 0.762160
0.679647 0.619187 0.762587
0.727588 0.622576 0.763159
0.762236 0.624138 0.764081
0.780930 0.647179 0.766195
0.140064 0.664959 0.762191
0.150601 0.665432 0.762245
0.224557 0.667393 0.762397
0.400276 0.670135 0.762634
0.545376 0.673045 0.762967
0.661192 0.676350 0.763374
0.719252 0.679312 0.763958
0.759864 0.680905 0.764726
0.780912 0.698587 0.766424
0.096685 0.721157 0.763148
0.102430 0.721326 0.763323
0.137310 0.721951 0.763616
0.273692 0.722464 0.763825
0.461449 0.722897 0.764177
0.597894 0.723947 0.764585
0.697081 0.725801 0.765082
0.753616 0.726930 0.765753
0.781222 0.735211 0.766960
0.069673 0.748570 0.732732
0.084999 0.761488 0.743415
0.084999 0.761488 0.743415
0.092944 0.762312 0.743440
0.217192 0.767747 0.763503
0.448532 0.765065 0.766036
0.590711 0.764569 0.766644
0.701249 0.766098 0.767212
0.781630 0.769251 0.767644
