LUTs/negative-superia-xtra-400/SuperiaXtra400_Classic_Soft.cube
TITLE "Fuji Superia X-tra 400 Classic Soft"
# Adobe RGB in/out. REPLACES AgX. Fuji Superia X-tra 400 Classic Soft.
LUT_3D_SIZE 33
DOMAIN_MIN 0.0 0.0 0.0
DOMAIN_MAX 1.0 1.0 1.0
0.060829 0.068055 0.085817
0.062624 0.068557 0.086413
0.063376 0.068729 0.086612
0.067882 0.069881 0.087147
0.080343 0.071620 0.087728
0.086657 0.072727 0.088285
0.106338 0.074884 0.089227
0.148063 0.077314 0.090427
0.179957 0.078886 0.091228
0.240225 0.081390 0.092309
0.347902 0.085543 0.093772
0.406737 0.087975 0.094646
0.449580 0.089876 0.095720
0.498184 0.092670 0.097214
0.546223 0.096690 0.099065
0.580777 0.099435 0.100176
0.602653 0.102323 0.101493
0.623818 0.105867 0.103250
0.644433 0.110070 0.105333
0.663136 0.113484 0.106602
0.679981 0.117003 0.107963
0.695147 0.120613 0.109752
0.707895 0.123452 0.111907
0.718577 0.123706 0.113551
0.726960 0.124095 0.115932
0.734684 0.123382 0.118542
0.744715 0.115170 0.119651
0.750261 0.109281 0.125368
0.762200 0.088416 0.227377
0.762199 0.088401 0.227334
0.762198 0.088400 0.227332
0.762199 0.088401 0.227330
0.768559 0.172564 0.424498
0.060992 0.070193 0.086342
0.062795 0.070417 0.086632
0.065066 0.069335 0.086567
0.069928 0.070385 0.087280
0.082693 0.072377 0.087922
0.088339 0.073206 0.088424
0.107653 0.075347 0.089359
0.148566 0.077867 0.090557
0.179547 0.079309 0.091335
0.238385 0.081879 0.092388
0.345988 0.085956 0.093830
0.405210 0.088325 0.094713
0.447732 0.090176 0.095791
0.496685 0.093023 0.097274
0.545138 0.097065 0.099116
0.579820 0.099832 0.100220
0.602131 0.102721 0.101548
0.623400 0.106240 0.103299
0.644110 0.110648 0.105376
0.662872 0.114035 0.106640
0.679772 0.117490 0.107996
0.694985 0.121078 0.109792
0.707806 0.123907 0.111941
0.718506 0.124152 0.113584
0.726907 0.124519 0.115955
0.734644 0.123816 0.118551
0.744681 0.115651 0.119633
0.750242 0.109562 0.125242
0.762200 0.088417 0.227378
0.762199 0.088401 0.227334
0.762198 0.088400 0.227332
0.762199 0.088401 0.227330
0.768559 0.172565 0.424498
0.061068 0.070944 0.086535
0.061600 0.071250 0.086861
0.063472 0.071363 0.086892
0.069089 0.072713 0.087601
0.081833 0.074963 0.088426
0.091123 0.075256 0.088780
0.111784 0.077024 0.089793
0.154438 0.080087 0.091116
0.180663 0.081348 0.091734
0.234200 0.083751 0.092680
0.338914 0.087518 0.094043
0.399937 0.089634 0.094955
0.441123 0.091462 0.096049
0.491211 0.094331 0.097491
0.541125 0.098458 0.099301
0.576261 0.101330 0.100379
0.600183 0.104187 0.101749
0.621842 0.107608 0.103476
0.642904 0.112773 0.105532
0.661891 0.116058 0.106777
0.678994 0.119244 0.108117
0.694384 0.122777 0.109936
0.707476 0.125423 0.112064
0.718244 0.125609 0.113706
0.726711 0.125915 0.116041
0.734497 0.125276 0.118588
0.744556 0.117382 0.119584
0.750170 0.110950 0.124823
0.762200 0.088418 0.227381
0.762199 0.088402 0.227335
0.762198 0.088401 0.227332
0.762199 0.088402 0.227330
0.768559 0.172568 0.424497
0.061469 0.075394 0.087233
0.061808 0.075720 0.087478
0.063545 0.076326 0.087731
0.067163 0.076356 0.088035
0.076998 0.079637 0.089089
0.085048 0.078833 0.089364
0.105299 0.081117 0.090346
0.145748 0.084613 0.091826
0.176854 0.085226 0.092339
0.227621 0.087117 0.093185
0.327537 0.090634 0.094450
0.388983 0.092786 0.095495
0.429597 0.094434 0.096543
0.480966 0.097153 0.097904
0.533316 0.101702 0.099653
0.569230 0.104456 0.100727
0.596289 0.107034 0.102130
0.618722 0.110401 0.103810
0.640493 0.116901 0.105826
0.659932 0.119689 0.107037
0.677445 0.122615 0.108346
0.693191 0.125829 0.110210
0.706823 0.128193 0.112301
0.717727 0.128321 0.113944
0.726325 0.128574 0.116216
0.734205 0.127913 0.118680
0.744310 0.120435 0.119560
0.750026 0.114168 0.124186
0.762201 0.088421 0.227388
0.762199 0.088402 0.227336
0.762199 0.088401 0.227332
0.762199 0.088404 0.227330
0.768559 0.172570 0.424496
0.062010 0.084442 0.088220
0.062448 0.084964 0.088513
0.064066 0.086477 0.088911
0.067787 0.087302 0.089403
0.073982 0.087271 0.090024
0.080719 0.085385 0.090158
0.095927 0.087465 0.091186
0.127046 0.090181 0.092607
0.159432 0.089992 0.093050
0.206162 0.091397 0.093797
0.307905 0.095566 0.095213
0.370746 0.097433 0.096345
0.416400 0.099139 0.097262
0.466726 0.102533 0.098533
0.521013 0.107554 0.100206
0.557782 0.109643 0.101413
0.589665 0.112770 0.102725
0.613369 0.117428 0.104331
0.636354 0.123009 0.106284
0.656571 0.125280 0.107442
0.674799 0.127576 0.108703
0.691167 0.130365 0.110642
0.705720 0.132596 0.112679
0.716857 0.132626 0.114332
0.725677 0.132790 0.116518
0.733717 0.132093 0.118875
0.743898 0.125215 0.119670
0.749778 0.119150 0.123536
0.762201 0.088426 0.227402
0.762199 0.088402 0.227337
0.762199 0.088401 0.227333
0.762201 0.088423 0.227331
0.768559 0.172571 0.424496
0.062380 0.088936 0.088844
0.062641 0.089208 0.089014
0.063767 0.090523 0.089329
0.066682 0.091810 0.090004
0.070832 0.092349 0.090372
0.077650 0.092276 0.091146
0.089647 0.094865 0.092212
0.114215 0.098478 0.093561
0.138164 0.096988 0.093792
0.183200 0.098151 0.094438
0.277054 0.102972 0.096257
0.349208 0.104807 0.097315
0.402563 0.106259 0.098165
0.450690 0.109108 0.099319
0.506491 0.115836 0.100993
0.544480 0.119136 0.102273
0.579921 0.122446 0.103517
0.604815 0.126850 0.105071
0.629541 0.131324 0.106941
0.651015 0.132817 0.108024
0.670449 0.136879 0.109317
0.687868 0.143015 0.111268
0.703934 0.147871 0.113234
0.715457 0.147616 0.114920
0.724641 0.147656 0.117003
0.732936 0.145941 0.119244
0.743238 0.131584 0.120088
0.749368 0.126015 0.123179
0.762202 0.088437 0.227431
0.762199 0.088404 0.227341
0.762199 0.088402 0.227335
0.768556 0.172512 0.227332
0.768559 0.172571 0.424495
0.063111 0.099048 0.090099
0.063342 0.099376 0.090246
0.064555 0.101251 0.090816
0.066993 0.103555 0.091482
0.070969 0.105092 0.092154
0.077286 0.105587 0.092710
0.085895 0.105452 0.093331
0.105465 0.110425 0.094501
0.123872 0.107522 0.094693
0.161985 0.108114 0.095535
0.237216 0.114519 0.097465
0.313274 0.116433 0.098417
0.375949 0.117134 0.099085
0.429433 0.120630 0.100153
0.489234 0.126900 0.102138
0.530119 0.129605 0.103349
0.565983 0.131268 0.104434
0.596961 0.136640 0.105863
0.622374 0.148648 0.107676
0.644048 0.152849 0.108725
0.663901 0.158120 0.110251
0.682406 0.163726 0.112141
0.700451 0.167106 0.114125
0.713174 0.166301 0.115776
0.722967 0.165858 0.117748
0.731678 0.164131 0.120014
0.742165 0.151377 0.121047
0.748681 0.138117 0.123502
0.762205 0.088466 0.227498
0.762199 0.088406 0.227348
0.762199 0.088403 0.227339
0.768559 0.172567 0.227334
0.768559 0.172571 0.424495
0.063995 0.117237 0.091900
0.064279 0.117660 0.092048
0.065519 0.120494 0.092623
0.067708 0.123749 0.093247
0.071556 0.126457 0.093803
0.077664 0.128020 0.094412
0.086024 0.128429 0.095020
0.099436 0.128226 0.095902
0.114555 0.123720 0.096059
0.144356 0.123888 0.096939
0.202681 0.129833 0.098735
0.279296 0.130295 0.099546
0.346612 0.130049 0.100127
0.409065 0.132544 0.101336
0.470093 0.144878 0.103363
0.513968 0.148726 0.104432
0.550431 0.152050 0.105465
0.586859 0.159264 0.106845
0.613542 0.169060 0.108566
0.636718 0.171421 0.109715
0.658159 0.175353 0.111205
0.677602 0.181488 0.113027
0.695889 0.188016 0.115165
0.710049 0.191247 0.116849
0.720121 0.195796 0.118859
0.729554 0.193022 0.121403
0.740311 0.179866 0.122862
0.747462 0.167749 0.124988
0.762217 0.088584 0.227732
0.762200 0.088416 0.227375
0.762199 0.088406 0.227350
0.768559 0.172570 0.227338
0.768559 0.172571 0.424495
0.064540 0.127699 0.092726
0.064752 0.127982 0.092834
0.065700 0.129649 0.093245
0.067543 0.132520 0.093818
0.070609 0.138628 0.094366
0.075670 0.143770 0.094996
0.082592 0.146706 0.095892
0.092468 0.147154 0.096677
0.107746 0.146714 0.097486
0.131076 0.146540 0.098281
0.183244 0.158697 0.100015
0.243440 0.158239 0.100762
0.309365 0.156274 0.101506
0.383917 0.159861 0.102763
0.447376 0.170035 0.104699
0.493425 0.172308 0.105657
0.534155 0.174977 0.106590
0.573962 0.181424 0.107874
0.604494 0.192711 0.109725
0.627674 0.197315 0.110965
0.649587 0.204685 0.112416
0.671103 0.210779 0.114224
0.691034 0.217487 0.116304
0.707482 0.219064 0.117859
0.718246 0.222540 0.119826
0.727646 0.226475 0.122687
0.738063 0.222009 0.124879
0.745335 0.218696 0.127862
0.762559 0.092089 0.230464
0.762212 0.088537 0.227645
0.762202 0.088432 0.227423
0.768559 0.172571 0.227360
0.768559 0.172571 0.424495
0.065257 0.151961 0.093815
0.065470 0.152432 0.093896
0.066315 0.154965 0.094200
0.067921 0.160606 0.094760
0.070632 0.166462 0.095583
0.075203 0.171851 0.096463
0.081314 0.175283 0.097323
0.089653 0.176948 0.098114
0.102956 0.177269 0.098857
0.122606 0.176956 0.099588
0.168459 0.191969 0.101526
0.214708 0.190286 0.102472
0.281330 0.185682 0.103062
0.354942 0.188861 0.104243
0.423150 0.202875 0.106087
0.472050 0.204417 0.106937
0.516746 0.206366 0.107786
0.557550 0.214018 0.108983
0.594666 0.228717 0.111176
0.618330 0.232734 0.112318
0.641763 0.237027 0.113633
0.663752 0.246377 0.115602
0.684266 0.257710 0.117667
0.703511 0.259858 0.119137
0.715405 0.261206 0.121327
0.725627 0.263713 0.124000
0.736598 0.257153 0.126027
0.744336 0.251738 0.128699
0.752710 0.237632 0.130756
0.758856 0.220654 0.135398
0.765536 0.163500 0.197423
0.768559 0.172573 0.231298
0.768559 0.172572 0.424495
0.066537 0.196106 0.095740
0.066711 0.196749 0.095854
0.067375 0.199921 0.096277
0.068986 0.209070 0.097081
0.071913 0.218158 0.097923
0.076126 0.226359 0.098773
0.082102 0.233544 0.099600
0.090493 0.237909 0.100366
0.103692 0.239954 0.101282
0.123214 0.240207 0.102294
0.155619 0.239888 0.103300
0.190791 0.236942 0.104105
0.251577 0.230116 0.104653
0.326685 0.232687 0.105726
0.404470 0.247971 0.107501
0.450315 0.247573 0.108274
0.495476 0.247620 0.109028
0.540405 0.255278 0.110550
0.584381 0.272091 0.112690
0.608532 0.273817 0.113760
0.632381 0.279184 0.115230
0.655373 0.289144 0.117123
0.677821 0.296508 0.119021
0.698491 0.299076 0.120730
0.711840 0.304978 0.123041
0.722430 0.312815 0.125707
0.734301 0.305010 0.127598
0.742788 0.297981 0.129992
0.751563 0.283185 0.131851
0.758146 0.262504 0.135027
0.765240 0.179918 0.157968
0.768559 0.172576 0.244058
0.768559 0.172579 0.249101
0.067262 0.237510 0.097294
0.067404 0.238130 0.097387
0.068021 0.241015 0.097729
0.069417 0.249520 0.098397
0.072056 0.259251 0.099145
0.075956 0.270340 0.099960
0.081464 0.279285 0.100880
0.088539 0.285023 0.101931
0.100209 0.288637 0.102934
0.116979 0.290284 0.103880
0.143771 0.290386 0.104806
0.182094 0.290186 0.105755
0.226703 0.281320 0.106164
0.296701 0.284011 0.107220
0.381916 0.299253 0.108916
0.427779 0.296861 0.109834
0.475233 0.295740 0.110791
0.523445 0.302010 0.112231
0.568898 0.316259 0.114341
0.598038 0.316732 0.115477
0.622656 0.321464 0.116921
0.647022 0.327543 0.118664
0.670035 0.336561 0.120871
0.691400 0.341373 0.122694
0.708228 0.344315 0.124816
0.719883 0.350186 0.127306
0.731841 0.349419 0.129246
0.740565 0.351011 0.131711
0.749636 0.341305 0.134113
0.756928 0.321162 0.136902
0.764546 0.228589 0.136502
0.768559 0.172583 0.244128
0.768560 0.172589 0.253878
0.067860 0.278217 0.098480
0.068005 0.278765 0.098559
0.068550 0.281205 0.098848
0.069770 0.287867 0.099407
0.072271 0.297388 0.100121
0.075823 0.307814 0.101026
0.080560 0.316526 0.102110
0.086796 0.322498 0.103174
0.096905 0.326888 0.104151
0.111247 0.329235 0.105073
0.132271 0.330267 0.105967
0.166071 0.330187 0.106810
0.206463 0.330085 0.107697
0.277179 0.331701 0.108643
0.358865 0.349285 0.110855
0.410906 0.345463 0.111701
0.456059 0.342594 0.112538
0.504990 0.348630 0.114024
0.552706 0.360647 0.116329
0.587330 0.360056 0.117289
0.612574 0.363152 0.118575
0.637856 0.369507 0.120563
0.661815 0.377918 0.123007
0.684613 0.378895 0.124623
0.703848 0.383695 0.126746
0.716069 0.390724 0.129248
0.729163 0.387797 0.130965
0.738749 0.386793 0.133178
0.748070 0.384107 0.136201
0.755369 0.379739 0.139822
0.761931 0.373863 0.144044
0.768559 0.172702 0.244222
0.768560 0.172656 0.260793
0.068664 0.325662 0.099919
0.068789 0.326087 0.099987
0.069258 0.327905 0.100237
0.070601 0.332558 0.100778
0.072989 0.344339 0.101793
0.076221 0.354464 0.102807
0.080611 0.361843 0.103830
0.086490 0.368716 0.104868
0.095614 0.373973 0.105855
0.108535 0.377225 0.106751
0.127428 0.379118 0.107595
0.158222 0.379954 0.108452
0.191080 0.379885 0.109348
0.254928 0.379797 0.110497
0.340103 0.392601 0.112721
0.396320 0.389706 0.113583
0.436619 0.386409 0.114472
0.486356 0.389625 0.115979
0.536691 0.399989 0.118230
0.573933 0.399044 0.119184
0.602407 0.401186 0.120664
0.628414 0.407374 0.122810
0.653523 0.414451 0.125116
0.676685 0.416897 0.126713
0.697688 0.422122 0.128758
0.712605 0.426882 0.131064
0.726012 0.427918 0.132816
0.735981 0.431348 0.135686
0.746205 0.426803 0.138425
0.754192 0.420265 0.141476
0.761195 0.411884 0.144516
0.766336 0.402961 0.154047
0.769976 0.403723 0.269331
0.069758 0.382394 0.102182
0.069907 0.382808 0.102270
0.070566 0.384511 0.102592
0.071873 0.388602 0.103208
0.074290 0.397431 0.104190
0.077172 0.404175 0.105116
0.081604 0.412827 0.106149
0.087288 0.420387 0.107122
0.096296 0.426661 0.108099
0.108986 0.431315 0.109019
0.127733 0.434401 0.110235
0.157461 0.435956 0.111328
0.189022 0.436477 0.112445
0.250434 0.436487 0.113499
0.315850 0.436331 0.114797
0.374194 0.432595 0.115672
0.419995 0.429240 0.116567
0.469682 0.432045 0.118019
0.521732 0.441977 0.120392
0.558313 0.440103 0.121529
0.592208 0.441760 0.123080
0.618911 0.446597 0.125161
0.644771 0.451427 0.127334
0.668365 0.453711 0.128871
0.690772 0.456555 0.130766
0.708253 0.461938 0.133073
0.722573 0.462831 0.135296
0.733681 0.463542 0.138024
0.744107 0.464333 0.140851
0.752375 0.464861 0.144004
0.760014 0.458057 0.146700
0.765648 0.447906 0.151270
0.769890 0.417263 0.258693
0.070652 0.419411 0.103714
0.070809 0.419794 0.103792
0.071387 0.421335 0.104075
0.072520 0.424905 0.104614
0.074682 0.432276 0.105466
0.077469 0.440031 0.106390
0.081823 0.448154 0.107439
0.086797 0.453272 0.108328
0.094899 0.458392 0.109368
0.106691 0.462743 0.110664
0.123079 0.465551 0.111789
0.148812 0.467299 0.112904
0.183180 0.468379 0.114088
0.230376 0.468646 0.115329
0.291681 0.468746 0.116529
0.357207 0.468738 0.117772
0.406877 0.465873 0.118576
0.453961 0.467783 0.120183
0.505967 0.475326 0.123018
0.543947 0.473609 0.124095
0.582164 0.474021 0.125484
0.609287 0.477987 0.127518
0.635810 0.482531 0.129620
0.660071 0.484074 0.131039
0.683194 0.487368 0.132877
0.703771 0.492724 0.135801
0.718932 0.493545 0.137922
0.730557 0.496725 0.140704
0.741876 0.497266 0.143355
0.750964 0.495885 0.146082
0.758741 0.495572 0.149260
0.764420 0.497296 0.155448
0.769398 0.462013 0.205925
0.071492 0.453928 0.105136
0.071631 0.454194 0.105205
0.072143 0.455247 0.105456
0.073138 0.457606 0.105930
0.075134 0.462285 0.106676
0.077869 0.468778 0.107601
0.081599 0.474318 0.108504
0.086400 0.480298 0.109616
0.093937 0.485912 0.110875
0.104507 0.490477 0.112098
0.119218 0.493956 0.113285
0.141546 0.496332 0.114558
0.173832 0.497895 0.115790
0.211927 0.498706 0.117037
0.274704 0.498982 0.118220
0.338956 0.499126 0.119377
0.395026 0.499289 0.120934
0.437965 0.501097 0.122778
0.490673 0.508210 0.125583
0.530347 0.506169 0.126578
0.567997 0.506435 0.127953
0.599801 0.509863 0.129891
0.626741 0.514284 0.131948
0.651526 0.515381 0.133295
0.675380 0.518890 0.135722
0.697844 0.523496 0.138597
0.714725 0.525034 0.140710
0.727431 0.526695 0.143304
0.739466 0.527992 0.145916
0.748948 0.529378 0.148680
0.757463 0.528499 0.152004
0.763707 0.527760 0.156457
0.768307 0.531423 0.171220
0.072461 0.486943 0.106788
0.072586 0.487196 0.106849
0.073045 0.488177 0.107074
0.074083 0.490307 0.107498
0.075884 0.494363 0.108159
0.078812 0.501533 0.109147
0.082017 0.505956 0.110236
0.086854 0.512721 0.111568
0.093977 0.518168 0.112794
0.103746 0.522787 0.114055
0.117535 0.525834 0.115463
0.138051 0.527911 0.116781
0.168892 0.529410 0.118077
0.201935 0.530171 0.119232
0.261276 0.530693 0.120765
0.321805 0.530898 0.122286
0.379692 0.531000 0.123779
0.423968 0.531234 0.125350
0.476694 0.536061 0.128126
0.517938 0.534591 0.129069
0.554768 0.534420 0.130362
0.590738 0.536677 0.132273
0.617774 0.539525 0.134687
0.642840 0.540059 0.136367
0.667493 0.542502 0.138738
0.690912 0.545491 0.141508
0.710464 0.547088 0.143522
0.723991 0.548896 0.146014
0.736582 0.551433 0.148663
0.747199 0.551554 0.151649
0.756080 0.552829 0.155075
0.762590 0.555531 0.159608
0.767756 0.556339 0.167447
0.073651 0.524170 0.108717
0.073793 0.524346 0.108773
0.074314 0.525019 0.108984
0.075316 0.526430 0.109512
0.076932 0.528999 0.110333
0.079796 0.533469 0.111509
0.083004 0.537114 0.112626
0.087804 0.541564 0.113984
0.094629 0.545302 0.115418
0.104641 0.549101 0.116885
0.118304 0.552105 0.118243
0.138457 0.554459 0.119662
0.167698 0.556050 0.121335
0.199276 0.557158 0.122961
0.256220 0.557779 0.124488
0.316259 0.558257 0.126105
0.373121 0.558496 0.127618
0.418839 0.558558 0.129062
0.464200 0.558909 0.130630
0.504277 0.557472 0.131508
0.542635 0.557374 0.132778
0.582153 0.559220 0.135168
0.609113 0.561845 0.137842
0.634327 0.562272 0.139467
0.659393 0.564256 0.141736
0.683743 0.567238 0.144469
0.706058 0.568642 0.146354
0.720233 0.571061 0.148835
0.733944 0.572895 0.151828
0.745054 0.574477 0.154920
0.754623 0.576394 0.158294
0.761800 0.577476 0.161967
0.767109 0.582740 0.169635
0.074355 0.545507 0.110121
0.074486 0.545662 0.110192
0.074962 0.546251 0.110450
0.075875 0.547468 0.110937
0.077337 0.549638 0.111691
0.079979 0.553324 0.112768
0.083264 0.557381 0.114036
0.087433 0.560859 0.115391
0.094243 0.564983 0.116885
0.103548 0.568680 0.118342
0.115631 0.571466 0.119709
0.132973 0.573946 0.121487
0.160600 0.575852 0.123212
0.187002 0.577212 0.124850
0.240395 0.578165 0.126443
0.296608 0.578695 0.127939
0.357266 0.579104 0.129490
0.407037 0.579445 0.130986
0.448607 0.579615 0.132395
0.491930 0.580095 0.134176
0.531365 0.579744 0.135819
0.569998 0.581600 0.138356
0.600897 0.583913 0.141027
0.626070 0.584280 0.142560
0.651511 0.586030 0.144779
0.676359 0.588653 0.147425
0.700970 0.590067 0.149319
0.716346 0.592558 0.152314
0.730886 0.594591 0.155197
0.742716 0.596666 0.158222
0.753175 0.598383 0.161376
0.760751 0.601340 0.165182
0.766569 0.605537 0.171462
0.075075 0.567449 0.111687
0.075196 0.567591 0.111754
0.075636 0.568126 0.111995
0.076477 0.569212 0.112448
0.077814 0.571103 0.113149
0.080323 0.574231 0.114273
0.083779 0.578656 0.115760
0.087515 0.581468 0.116991
0.094489 0.585920 0.118565
0.102388 0.588719 0.119970
0.114374 0.591967 0.121839
0.131120 0.594703 0.123653
0.156409 0.596594 0.125367
0.183350 0.598025 0.126971
0.229040 0.599158 0.128597
0.286572 0.599931 0.130144
0.345936 0.600367 0.131615
0.397294 0.600720 0.133100
0.435998 0.601145 0.135083
0.479023 0.601429 0.136976
0.521172 0.602009 0.138979
0.558866 0.603315 0.141458
0.593057 0.605578 0.144105
0.618188 0.605997 0.145654
0.643700 0.607459 0.147800
0.669102 0.609913 0.150795
0.694208 0.611289 0.152899
0.712404 0.613447 0.155760
0.727568 0.615919 0.158646
0.740393 0.617726 0.161436
0.751478 0.620416 0.164673
0.759820 0.622819 0.168423
0.766005 0.627833 0.174702
0.075883 0.590167 0.113463
0.075996 0.590303 0.113538
0.076407 0.590813 0.113807
0.077189 0.591828 0.114312
0.078576 0.593552 0.115093
0.080895 0.596313 0.116200
0.084381 0.600648 0.117702
0.088096 0.603497 0.118931
0.094343 0.607124 0.120657
0.102579 0.610483 0.122518
0.114389 0.613777 0.124409
0.129254 0.616168 0.126151
0.153550 0.618359 0.127918
0.183186 0.620019 0.129599
0.222082 0.621195 0.131168
0.279622 0.622122 0.132788
0.336705 0.622713 0.134686
0.387347 0.623137 0.136696
0.426579 0.623446 0.138666
0.470594 0.623926 0.140672
0.511538 0.624320 0.142580
0.548677 0.624967 0.144536
0.585758 0.626785 0.147143
0.610673 0.627308 0.148614
0.636147 0.628562 0.151218
0.661778 0.630764 0.154452
0.687433 0.632270 0.156501
0.708326 0.634250 0.159297
0.724185 0.636711 0.162114
0.737840 0.638694 0.164781
0.749800 0.641334 0.168101
0.758807 0.644138 0.172676
0.765414 0.648285 0.178587
0.076556 0.613347 0.115411
0.076662 0.613475 0.115481
0.077049 0.613950 0.115738
0.077784 0.614883 0.116220
0.079235 0.616435 0.116964
0.081394 0.618861 0.118016
0.084659 0.622565 0.119439
0.088737 0.625938 0.121246
0.094472 0.628938 0.123023
0.103242 0.632711 0.125078
0.113556 0.635277 0.126792
0.128745 0.638028 0.128647
0.152758 0.640399 0.130514
0.180384 0.641930 0.132161
0.215687 0.643167 0.133950
0.270910 0.644134 0.136111
0.326617 0.644868 0.138272
0.378508 0.645381 0.140335
0.419954 0.645767 0.142331
0.462800 0.646078 0.144294
0.503307 0.646482 0.146269
0.540621 0.646818 0.148209
0.577356 0.647282 0.150433
0.603670 0.647599 0.152189
0.628936 0.648252 0.154794
0.654585 0.649411 0.158033
0.680595 0.650397 0.160037
0.704082 0.651526 0.162782
0.720839 0.653010 0.165582
0.735183 0.654364 0.168518
0.748070 0.655898 0.172413
0.757710 0.657878 0.177132
0.764971 0.660716 0.182213
0.076752 0.636198 0.116555
0.076854 0.636310 0.116623
0.077222 0.636722 0.116870
0.077934 0.637527 0.117333
0.079331 0.638849 0.118048
0.081365 0.640884 0.119059
0.084388 0.643938 0.120734
0.088793 0.647078 0.122797
0.094018 0.648587 0.124463
0.102334 0.650728 0.126553
0.112206 0.652271 0.128329
0.127200 0.653969 0.130264
0.147702 0.655132 0.131999
0.175503 0.656249 0.134010
0.208346 0.657101 0.136321
0.260060 0.657654 0.138425
0.312938 0.658100 0.140594
0.366235 0.658436 0.142678
0.411756 0.658710 0.144731
0.452339 0.658944 0.146695
0.492820 0.659194 0.148651
0.531116 0.659527 0.150962
0.566972 0.659980 0.153362
0.597152 0.660550 0.155742
0.622132 0.660998 0.158329
0.647679 0.661937 0.161545
0.673851 0.662956 0.163488
0.698650 0.663917 0.166213
0.717236 0.665314 0.169463
0.732500 0.666699 0.173219
0.746259 0.668245 0.176880
0.756685 0.669969 0.181217
0.764504 0.672894 0.186301
0.076994 0.653472 0.117872
0.077091 0.653538 0.117938
0.077444 0.653781 0.118175
0.078177 0.654249 0.118621
0.079509 0.655005 0.119309
0.081440 0.656141 0.120542
0.084281 0.657800 0.122297
0.089135 0.660202 0.124624
0.093973 0.661488 0.126200
0.101427 0.663237 0.128163
0.111914 0.665016 0.130199
0.124867 0.666341 0.132000
0.145614 0.667640 0.134132
0.172649 0.668715 0.136650
0.200130 0.669472 0.138916
0.251120 0.670103 0.141180
0.303566 0.670569 0.143394
0.359228 0.670885 0.145558
0.405734 0.671139 0.147605
0.443848 0.671367 0.149826
0.484201 0.671600 0.152226
0.523251 0.671886 0.154604
0.558052 0.672223 0.156931
0.590604 0.672750 0.159366
0.615771 0.673381 0.161777
0.641053 0.674051 0.164988
0.667417 0.675201 0.166872
0.692414 0.675928 0.170283
0.713514 0.677244 0.173944
0.729736 0.678534 0.177481
0.744443 0.680122 0.181383
0.755699 0.681772 0.185428
0.764044 0.684381 0.190396
0.077118 0.666651 0.119132
0.077212 0.666714 0.119196
0.077554 0.666942 0.119427
0.078290 0.667378 0.119981
0.079577 0.668071 0.120874
0.081435 0.669091 0.122141
0.084137 0.670545 0.123861
0.088647 0.672596 0.126144
0.094109 0.674163 0.128038
0.100964 0.675628 0.129902
0.112268 0.677558 0.132227
0.123905 0.678628 0.134190
0.145235 0.679965 0.136978
0.169201 0.680806 0.139338
0.196617 0.681640 0.141864
0.245830 0.682239 0.144184
0.294970 0.682677 0.146427
0.352252 0.682991 0.148632
0.400137 0.683207 0.151198
0.436306 0.683410 0.153750
0.476979 0.683611 0.156248
0.516566 0.683858 0.158690
0.550833 0.684150 0.161063
0.584980 0.684515 0.163393
0.609634 0.685092 0.165872
0.634810 0.685766 0.168667
0.661249 0.687073 0.171140
0.686443 0.687630 0.174745
0.709710 0.688815 0.178220
0.726866 0.689980 0.181797
0.742511 0.691460 0.185631
0.754732 0.693116 0.189642
0.763840 0.695526 0.194415
0.076169 0.682319 0.118980
0.076264 0.682367 0.119045
0.076610 0.682545 0.119278
0.077263 0.682880 0.119790
0.078395 0.683406 0.120700
0.080268 0.684169 0.122002
0.082875 0.685244 0.123790
0.087062 0.686751 0.126199
0.093234 0.688284 0.128626
0.099471 0.689363 0.130454
0.109246 0.690752 0.132743
0.122030 0.691891 0.135419
0.139814 0.692821 0.138096
0.165355 0.693631 0.140788
0.189221 0.694241 0.143371
0.235518 0.694713 0.145771
0.288552 0.695099 0.148188
0.345243 0.695351 0.150830
0.391953 0.695506 0.153490
0.427452 0.695649 0.156093
0.468692 0.695811 0.158635
0.507841 0.696013 0.161125
0.543405 0.696284 0.163563
0.578721 0.696646 0.165952
