LUTs/negative-superia-xtra-400/SuperiaXtra400_Classic_ExtraPunchy.cube
TITLE "Fuji Superia X-tra 400 Classic ExtraPunchy"
# Adobe RGB in/out. REPLACES AgX. Fuji Superia X-tra 400 Classic ExtraPunchy.
LUT_3D_SIZE 33
DOMAIN_MIN 0.0 0.0 0.0
DOMAIN_MAX 1.0 1.0 1.0
0.069662 0.073299 0.081842
0.067506 0.073299 0.081842
0.067912 0.073185 0.081608
0.070364 0.072230 0.079733
0.079309 0.073484 0.078448
0.086042 0.074482 0.078044
0.111339 0.076781 0.078333
0.158897 0.080076 0.078642
0.192545 0.081652 0.078834
0.253599 0.084045 0.079161
0.338448 0.087840 0.079758
0.395036 0.090759 0.080141
0.448095 0.093052 0.080437
0.501806 0.097278 0.080848
0.557303 0.102725 0.081405
0.588966 0.106696 0.081776
0.617542 0.110348 0.082499
0.646335 0.115079 0.083347
0.669470 0.122273 0.084713
0.688984 0.125922 0.085747
0.706563 0.129926 0.086858
0.722390 0.135356 0.088277
0.738135 0.139675 0.090259
0.754039 0.140064 0.091761
0.766592 0.140658 0.093681
0.776221 0.139568 0.096432
0.786913 0.127723 0.097566
0.792827 0.120944 0.103407
0.805557 0.091290 0.232512
0.805555 0.091272 0.232461
0.805555 0.091271 0.232458
0.805555 0.091272 0.232456
0.812338 0.191464 0.425644
0.069662 0.072334 0.081842
0.067599 0.072406 0.081525
0.068617 0.072439 0.081789
0.071938 0.072398 0.079314
0.081714 0.074140 0.078292
0.087758 0.074949 0.078086
0.113154 0.077359 0.078362
0.159354 0.080632 0.078677
0.192086 0.082076 0.078859
0.251992 0.084460 0.079193
0.336408 0.088335 0.079785
0.392947 0.091180 0.080162
0.445973 0.093537 0.080454
0.500269 0.097771 0.080866
0.555948 0.103295 0.081420
0.588137 0.107218 0.081807
0.616836 0.110831 0.082526
0.645764 0.115714 0.083375
0.669133 0.122891 0.084747
0.688709 0.126511 0.085778
0.706344 0.130644 0.086885
0.722221 0.136060 0.088313
0.738003 0.140370 0.090290
0.753934 0.140746 0.091786
0.766512 0.141329 0.093705
0.776178 0.140231 0.096442
0.786877 0.128236 0.097552
0.792806 0.121430 0.103245
0.805557 0.091290 0.232513
0.805555 0.091272 0.232461
0.805555 0.091271 0.232458
0.805555 0.091272 0.232456
0.812338 0.191466 0.425644
0.069662 0.072916 0.081842
0.068614 0.073177 0.080631
0.067964 0.073271 0.080521
0.071359 0.074468 0.078617
0.080833 0.076880 0.078086
0.091139 0.077246 0.078197
0.118868 0.079736 0.078462
0.164670 0.082940 0.078807
0.193335 0.084010 0.078951
0.248331 0.086040 0.079310
0.329855 0.090209 0.079881
0.385759 0.092758 0.080237
0.438399 0.095595 0.080516
0.494661 0.099605 0.080931
0.550943 0.105410 0.081475
0.585054 0.109148 0.081919
0.614203 0.112607 0.082622
0.643633 0.118056 0.083475
0.667875 0.125162 0.084875
0.687686 0.128671 0.085890
0.705532 0.133284 0.086983
0.721593 0.138644 0.088446
0.737513 0.142919 0.090404
0.753542 0.143246 0.091881
0.766218 0.143785 0.093795
0.776021 0.142660 0.096481
0.786744 0.130481 0.097513
0.792730 0.123214 0.102707
0.805557 0.091292 0.232517
0.805555 0.091272 0.232461
0.805555 0.091271 0.232458
0.805555 0.091272 0.232456
0.812338 0.191470 0.425643
0.069032 0.077418 0.079461
0.068145 0.077827 0.078782
0.068003 0.078622 0.078444
0.069736 0.078671 0.078215
0.076323 0.082405 0.078293
0.084340 0.081599 0.078363
0.109941 0.083814 0.078619
0.156792 0.086766 0.078973
0.189072 0.087461 0.079173
0.242553 0.089728 0.079511
0.322140 0.094379 0.080065
0.374871 0.097441 0.080383
0.425229 0.099751 0.080644
0.484165 0.103429 0.081056
0.541226 0.109597 0.081580
0.578947 0.112933 0.082130
0.608948 0.117073 0.082805
0.639373 0.122626 0.083664
0.665360 0.129789 0.085114
0.685641 0.133957 0.086102
0.703915 0.138397 0.087170
0.720348 0.143634 0.088698
0.736544 0.147828 0.090622
0.752770 0.148056 0.092067
0.765638 0.148508 0.093979
0.775710 0.147329 0.096579
0.786482 0.135085 0.097494
0.792576 0.126653 0.101893
0.805557 0.091295 0.232526
0.805555 0.091273 0.232463
0.805555 0.091271 0.232459
0.805556 0.091275 0.232457
0.812338 0.191472 0.425642
0.067973 0.086622 0.078089
0.067550 0.087147 0.078114
0.068202 0.088959 0.078238
0.070285 0.089949 0.078372
0.074083 0.089913 0.078528
0.079693 0.087651 0.078566
0.096651 0.090146 0.078824
0.137876 0.093545 0.079281
0.169637 0.093215 0.079458
0.223905 0.095504 0.079769
0.308549 0.101333 0.080314
0.359999 0.103855 0.080587
0.408330 0.106305 0.080862
0.469467 0.110603 0.081245
0.525983 0.117963 0.081797
0.568815 0.121572 0.082460
0.600096 0.125160 0.083090
0.632081 0.130550 0.083958
0.661042 0.138999 0.085488
0.682134 0.142666 0.086433
0.701155 0.146729 0.087462
0.718236 0.151717 0.089094
0.734909 0.155749 0.090970
0.751472 0.155804 0.092369
0.764666 0.156102 0.094297
0.775190 0.154838 0.096785
0.786043 0.142552 0.097582
0.792312 0.133143 0.101064
0.805558 0.091302 0.232542
0.805555 0.091273 0.232465
0.805555 0.091271 0.232460
0.805558 0.091298 0.232457
0.812338 0.191472 0.425642
0.067615 0.091916 0.078217
0.067516 0.092244 0.078270
0.068111 0.094173 0.078355
0.069485 0.096079 0.078522
0.072437 0.096831 0.078626
0.076853 0.096728 0.078814
0.089409 0.100356 0.079123
0.122037 0.105436 0.079663
0.149857 0.103178 0.079767
0.196654 0.104950 0.080060
0.282216 0.111134 0.080566
0.339727 0.113358 0.080878
0.389334 0.115748 0.081135
0.449370 0.120643 0.081480
0.510321 0.128434 0.082258
0.555126 0.133122 0.082874
0.588225 0.138140 0.083498
0.620469 0.145441 0.084499
0.653934 0.153447 0.086024
0.676338 0.156151 0.086907
0.696615 0.159493 0.087882
0.714793 0.163992 0.089671
0.732263 0.167706 0.091483
0.749383 0.167468 0.092827
0.763112 0.167506 0.094807
0.774357 0.166114 0.097176
0.785340 0.153917 0.097915
0.791875 0.143963 0.100609
0.805559 0.091315 0.232576
0.805556 0.091275 0.232469
0.805555 0.091272 0.232462
0.812334 0.191405 0.232458
0.812338 0.191473 0.425642
0.067770 0.106186 0.078549
0.067894 0.106617 0.078590
0.068350 0.109053 0.078737
0.069647 0.111840 0.078893
0.072513 0.113762 0.079099
0.076543 0.114603 0.079322
0.085235 0.114374 0.079570
0.110163 0.122653 0.080088
0.133927 0.117909 0.080155
0.172474 0.118927 0.080392
0.250970 0.127028 0.080924
0.312306 0.129155 0.081210
0.364253 0.130109 0.081410
0.425042 0.135381 0.081760
0.492635 0.145529 0.082809
0.537258 0.150353 0.083403
0.576076 0.153345 0.084017
0.609853 0.159316 0.085144
0.644360 0.168427 0.086624
0.669069 0.172320 0.087480
0.689783 0.177178 0.088735
0.709093 0.182312 0.090475
0.727925 0.185393 0.092207
0.745983 0.184660 0.093517
0.760604 0.184257 0.095593
0.773016 0.182682 0.097856
0.784196 0.170959 0.098679
0.791143 0.160407 0.101020
0.805562 0.091350 0.232657
0.805556 0.091278 0.232478
0.805556 0.091274 0.232467
0.812338 0.191469 0.232460
0.812338 0.191473 0.425641
0.068181 0.130265 0.078997
0.068267 0.130899 0.079057
0.068873 0.135174 0.079287
0.070220 0.140130 0.079536
0.072834 0.144743 0.079772
0.076866 0.147519 0.080048
0.085372 0.148248 0.080258
0.101653 0.147887 0.080481
0.122480 0.140084 0.080519
0.155523 0.140342 0.080764
0.220854 0.150761 0.081306
0.283731 0.151591 0.081548
0.337083 0.151149 0.081742
0.398227 0.155655 0.082424
0.473031 0.165345 0.083411
0.517986 0.168500 0.084015
0.562294 0.171582 0.084820
0.596396 0.178229 0.085945
0.632316 0.187387 0.087350
0.661421 0.190135 0.088242
0.683791 0.194713 0.089613
0.704080 0.201869 0.091291
0.723164 0.209028 0.093017
0.741335 0.211846 0.094645
0.756347 0.215796 0.096768
0.770487 0.213390 0.098964
0.782219 0.199976 0.100206
0.789843 0.185978 0.102920
0.805575 0.091492 0.232936
0.805557 0.091290 0.232510
0.805556 0.091278 0.232480
0.812338 0.191472 0.232466
0.812338 0.191473 0.425641
0.068345 0.146948 0.079328
0.068442 0.147451 0.079372
0.068969 0.150432 0.079535
0.070077 0.155613 0.079779
0.072314 0.160783 0.080027
0.075309 0.164542 0.080250
0.081609 0.166665 0.080478
0.092719 0.167038 0.080685
0.113295 0.166671 0.080930
0.142643 0.166546 0.081169
0.197668 0.177708 0.081688
0.256400 0.177288 0.082147
0.309572 0.175481 0.082505
0.370751 0.178776 0.083108
0.445565 0.188521 0.084195
0.496929 0.191166 0.084977
0.542268 0.194276 0.085737
0.583061 0.201794 0.086785
0.620034 0.213119 0.088252
0.651615 0.217111 0.089391
0.674847 0.223459 0.090727
0.697298 0.228671 0.092285
0.718097 0.234575 0.094072
0.737523 0.236017 0.095711
0.753546 0.239191 0.097706
0.767621 0.242775 0.099987
0.779823 0.238706 0.102780
0.787575 0.235682 0.106628
0.805940 0.096468 0.236199
0.805570 0.091435 0.232832
0.805559 0.091309 0.232567
0.812338 0.191473 0.232492
0.812338 0.191473 0.425641
0.068733 0.171499 0.079778
0.068848 0.171935 0.079814
0.069292 0.174274 0.079952
0.070396 0.179459 0.080176
0.072327 0.184807 0.080404
0.074952 0.190634 0.080620
0.080302 0.194632 0.080881
0.089416 0.196572 0.081119
0.106799 0.196947 0.081342
0.132411 0.196582 0.081561
0.179693 0.212475 0.082515
0.231354 0.211009 0.082969
0.285102 0.206767 0.083252
0.345348 0.209766 0.083909
0.417692 0.221905 0.085327
0.475034 0.223229 0.086021
0.520835 0.224900 0.086713
0.568609 0.231428 0.087684
0.606760 0.244812 0.089586
0.638839 0.248455 0.090637
0.666685 0.252338 0.091824
0.689627 0.260759 0.093357
0.711034 0.270270 0.095508
0.731638 0.272038 0.097063
0.749306 0.273147 0.098903
0.764591 0.275206 0.101655
0.778261 0.269810 0.104255
0.786510 0.265336 0.107716
0.795437 0.252884 0.110409
0.801992 0.237470 0.115970
0.809114 0.182106 0.194695
0.812338 0.191476 0.237198
0.812338 0.191474 0.425641
0.069409 0.216064 0.080442
0.069500 0.216621 0.080469
0.069908 0.219361 0.080571
0.071273 0.227213 0.080808
0.073030 0.235189 0.081062
0.075658 0.242669 0.081317
0.081108 0.249189 0.081564
0.090400 0.253134 0.081910
0.107783 0.254980 0.082398
0.133138 0.255208 0.082884
0.165763 0.254920 0.083375
0.210355 0.252261 0.083831
0.263461 0.246082 0.084158
0.321559 0.248413 0.085032
0.391937 0.262189 0.086481
0.448939 0.261832 0.087112
0.499030 0.261874 0.087711
0.550045 0.268263 0.089010
0.593132 0.282310 0.090981
0.625507 0.283933 0.091924
0.656897 0.288386 0.093067
0.680885 0.296607 0.094934
0.704308 0.302648 0.096940
0.725880 0.304747 0.098427
0.743997 0.309559 0.100434
0.759801 0.315921 0.103843
0.775812 0.309586 0.106285
0.784860 0.303853 0.109407
0.794215 0.291695 0.111852
0.801235 0.274213 0.115529
0.808799 0.200037 0.143619
0.812338 0.191478 0.251863
0.812338 0.191483 0.257156
0.069795 0.252774 0.080872
0.069938 0.253334 0.080900
0.070478 0.255936 0.081003
0.071596 0.263496 0.081204
0.073108 0.271539 0.081428
0.075528 0.280660 0.081671
0.080455 0.288470 0.082204
0.088040 0.293212 0.082710
0.102820 0.296189 0.083190
0.125658 0.297543 0.083703
0.154989 0.297627 0.084282
0.194937 0.297463 0.085056
0.241744 0.290154 0.085390
0.300644 0.292377 0.086252
0.369121 0.304892 0.087636
0.423156 0.302937 0.088352
0.478294 0.302019 0.089232
0.528989 0.307142 0.090557
0.578654 0.319001 0.092376
0.611306 0.319486 0.093260
0.644746 0.324342 0.094721
0.672171 0.330581 0.096561
0.696183 0.338791 0.098539
0.718479 0.342422 0.099993
0.738630 0.344636 0.102698
0.755991 0.349040 0.105907
0.773190 0.348466 0.108430
0.782490 0.349657 0.111667
0.792160 0.342371 0.114525
0.799935 0.324032 0.117768
0.808058 0.244696 0.117289
0.812338 0.191487 0.251937
0.812339 0.191494 0.262171
0.070345 0.287586 0.081229
0.070465 0.288040 0.081253
0.070915 0.290059 0.081339
0.071836 0.295555 0.081506
0.073225 0.303367 0.081738
0.075426 0.311866 0.082274
0.079531 0.319274 0.082796
0.086188 0.325403 0.083305
0.097863 0.329909 0.083857
0.118170 0.332319 0.084500
0.144059 0.333378 0.085229
0.177028 0.333296 0.085917
0.224169 0.333191 0.086641
0.282300 0.334851 0.087412
0.349194 0.348365 0.089291
0.400756 0.345498 0.090069
0.455542 0.343341 0.090841
0.508782 0.347875 0.092129
0.564314 0.359233 0.094098
0.597017 0.358593 0.095109
0.630999 0.361949 0.096468
0.662608 0.368848 0.098294
0.687606 0.377992 0.100390
0.711396 0.379056 0.102452
0.732136 0.384285 0.105182
0.750296 0.391951 0.108433
0.769900 0.388757 0.110684
0.780554 0.387662 0.113609
0.790491 0.384733 0.116929
0.798273 0.379975 0.121280
0.805270 0.373582 0.126410
0.812338 0.191626 0.252036
0.812339 0.191572 0.269433
0.071009 0.328651 0.081659
0.071111 0.329087 0.081679
0.071493 0.330953 0.081819
0.072310 0.335730 0.082155
0.073616 0.344654 0.082643
0.075731 0.352537 0.083130
0.079583 0.360530 0.083676
0.085864 0.367988 0.084333
0.096340 0.373701 0.085138
0.114493 0.377239 0.085869
0.138327 0.379299 0.086557
0.168409 0.380209 0.087257
0.210612 0.380134 0.087905
0.266358 0.380038 0.088961
0.330657 0.394001 0.091009
0.380850 0.390840 0.091786
0.433246 0.387243 0.092477
0.489686 0.390752 0.093730
0.545421 0.402069 0.096103
0.583036 0.401042 0.097112
0.617210 0.403141 0.098374
0.652630 0.408680 0.100140
0.678954 0.415004 0.103083
0.703123 0.417186 0.105139
0.725041 0.421845 0.107794
0.745136 0.426083 0.110814
0.765169 0.427005 0.113130
0.777603 0.430055 0.116314
0.788502 0.426013 0.119597
0.797018 0.420190 0.123283
0.804485 0.412711 0.126987
0.809967 0.404731 0.138400
0.813849 0.405413 0.278405
0.071828 0.382866 0.082830
0.071926 0.383318 0.082872
0.072291 0.385174 0.083027
0.073008 0.389635 0.083323
0.074251 0.399277 0.083878
0.076456 0.405817 0.084535
0.080598 0.413554 0.085377
0.086650 0.420299 0.086172
0.097019 0.425887 0.086969
0.115178 0.430026 0.087706
0.138687 0.432768 0.088720
0.167635 0.434149 0.089726
0.208783 0.434611 0.090755
0.262472 0.434620 0.091720
0.314102 0.434482 0.092731
0.362819 0.431164 0.093411
0.413309 0.428181 0.094349
0.472610 0.430675 0.095879
0.526872 0.439490 0.098157
0.569286 0.437829 0.099064
0.603455 0.439297 0.100484
0.639631 0.444470 0.103142
0.669823 0.450153 0.105943
0.694441 0.452844 0.107941
0.717824 0.456199 0.110423
0.738667 0.462558 0.113470
0.760015 0.463614 0.115849
0.775152 0.464455 0.119114
0.786266 0.465392 0.122525
0.795080 0.466017 0.126361
0.803226 0.457972 0.129667
0.809234 0.446009 0.134753
0.813757 0.417513 0.267228
0.072338 0.419429 0.083610
0.072424 0.419770 0.083654
0.072742 0.421144 0.083814
0.073361 0.424323 0.084126
0.074552 0.430880 0.084821
0.076691 0.437765 0.085575
0.080823 0.446300 0.086430
0.086190 0.452326 0.087156
0.095584 0.458367 0.087924
0.111816 0.463510 0.089115
0.132976 0.466833 0.090150
0.159578 0.468905 0.091178
0.196190 0.470184 0.092179
0.244976 0.470501 0.093145
0.296236 0.470620 0.094308
0.347569 0.470611 0.095618
0.395228 0.467215 0.096469
0.453129 0.469479 0.097991
0.509784 0.478432 0.100404
0.554461 0.476391 0.101777
0.590217 0.476881 0.103556
0.626532 0.481596 0.106181
0.660474 0.487008 0.108919
0.685787 0.488848 0.110782
0.709916 0.492779 0.113211
0.732022 0.499182 0.116451
0.754569 0.500164 0.118992
0.771821 0.503973 0.122347
0.783887 0.504620 0.125569
0.793576 0.502966 0.128907
0.801868 0.502591 0.132727
0.807924 0.504656 0.140258
0.813233 0.462646 0.206401
0.072799 0.453100 0.084552
0.072875 0.453414 0.084608
0.073155 0.454655 0.084812
0.073697 0.457439 0.085200
0.074899 0.462968 0.085808
0.077050 0.470658 0.086563
0.080594 0.477234 0.087299
0.085770 0.484348 0.088152
0.094448 0.491041 0.089309
0.108875 0.496494 0.090435
0.128364 0.500656 0.091529
0.152956 0.503501 0.092544
0.185693 0.505374 0.093532
0.228936 0.506346 0.094843
0.280623 0.506678 0.096092
0.329883 0.506851 0.097316
0.379775 0.507046 0.098589
0.434785 0.509215 0.100100
0.494109 0.517763 0.103683
0.537540 0.515307 0.104965
0.577857 0.515627 0.106745
0.613687 0.519752 0.109274
0.650336 0.525080 0.111980
0.676870 0.526402 0.113723
0.701761 0.530637 0.116357
0.725204 0.536205 0.119804
0.748292 0.538398 0.122354
0.767298 0.540447 0.125506
0.781318 0.542048 0.128704
0.791427 0.543760 0.132111
0.800505 0.542674 0.135707
0.807164 0.541762 0.141600
0.812069 0.546288 0.160427
0.073329 0.492272 0.085899
0.073397 0.492573 0.085949
0.073647 0.493745 0.086132
0.074127 0.496291 0.086478
0.075473 0.501143 0.087018
0.077744 0.509738 0.087781
0.081021 0.515052 0.088722
0.086250 0.523195 0.089947
0.094496 0.529766 0.091076
0.107856 0.535347 0.092153
0.126357 0.539384 0.093249
0.149753 0.541949 0.094574
0.180176 0.543801 0.095941
0.220199 0.544740 0.097163
0.271432 0.545386 0.098455
0.318221 0.545640 0.099668
0.367308 0.545765 0.101374
0.418816 0.546055 0.103384
0.479790 0.552029 0.106971
0.522185 0.550208 0.108199
0.566143 0.549996 0.109892
0.601513 0.552792 0.112410
0.638081 0.556323 0.115123
0.667809 0.556985 0.117128
0.693531 0.560017 0.119973
0.717969 0.563731 0.123322
0.741951 0.565717 0.125773
0.762138 0.567966 0.128824
0.778244 0.571126 0.132090
0.789562 0.571276 0.135240
0.799031 0.572866 0.139762
0.805973 0.576235 0.145820
0.811482 0.577244 0.156433
0.073940 0.537319 0.087473
0.074001 0.537549 0.087519
0.074269 0.538379 0.087685
0.075038 0.540120 0.088056
0.076273 0.543292 0.088810
0.078750 0.548820 0.089893
0.082102 0.553334 0.090922
0.087112 0.558853 0.092098
0.095265 0.563496 0.093214
0.109056 0.568222 0.094683
0.127274 0.571963 0.096116
0.150126 0.574898 0.097575
0.178843 0.576884 0.098909
0.217861 0.578267 0.100331
0.267473 0.579042 0.102279
0.314387 0.579638 0.104356
0.361942 0.579937 0.106311
0.411705 0.580014 0.108190
0.466089 0.580453 0.110243
0.508050 0.578659 0.111399
0.552825 0.578536 0.113080
0.590202 0.580842 0.115696
0.626296 0.584123 0.118896
0.658927 0.584657 0.120852
0.685079 0.587139 0.123599
0.710488 0.590874 0.126930
0.735410 0.592634 0.129242
0.756514 0.595668 0.132299
0.775432 0.597970 0.135475
0.787275 0.599956 0.139557
0.797478 0.602366 0.144054
0.805131 0.603727 0.149004
0.810792 0.610353 0.158671
0.074301 0.563750 0.088615
0.074401 0.563944 0.088681
0.074767 0.564676 0.088918
0.075467 0.566190 0.089366
0.076582 0.568891 0.090060
0.078937 0.573483 0.091052
0.082428 0.578545 0.092138
0.086780 0.582890 0.093193
0.094809 0.588050 0.094683
0.107590 0.592682 0.096221
0.123889 0.596176 0.097613
0.144892 0.599290 0.099031
0.170931 0.601684 0.100651
0.206858 0.603395 0.102743
0.253747 0.604593 0.104790
0.300578 0.605259 0.106728
0.347626 0.605774 0.108749
0.395447 0.606203 0.110712
0.446978 0.606418 0.112572
0.495397 0.607022 0.114586
0.538804 0.606580 0.116472
0.579622 0.608917 0.119514
0.615168 0.611830 0.122738
0.649417 0.612294 0.124601
0.676855 0.614501 0.127309
0.702783 0.617810 0.130560
0.728467 0.619596 0.132786
0.750709 0.622743 0.136114
0.772172 0.625315 0.139925
0.784783 0.627941 0.143958
0.795934 0.630115 0.148204
0.804011 0.633862 0.153378
0.810215 0.638654 0.160698
0.074854 0.591138 0.090056
0.074946 0.591317 0.090118
0.075283 0.591987 0.090340
0.075926 0.593348 0.090757
0.077001 0.595721 0.091404
0.079289 0.599647 0.092323
0.083000 0.605211 0.093500
0.086853 0.608750 0.094795
0.095100 0.614361 0.096457
0.106040 0.617893 0.097821
0.122244 0.621996 0.099311
0.142695 0.625456 0.101212
0.166566 0.627849 0.103405
0.200119 0.629662 0.105473
0.243801 0.631096 0.107584
0.290633 0.632076 0.109606
0.336352 0.632629 0.111541
0.382170 0.633077 0.113506
0.432536 0.633615 0.115595
0.482175 0.633975 0.117856
0.526179 0.634711 0.120264
0.569775 0.636368 0.123261
0.604594 0.638695 0.126485
0.638645 0.639110 0.128381
0.668706 0.640557 0.131024
0.695210 0.642987 0.134273
0.721409 0.644349 0.136885
0.744836 0.646485 0.140673
0.767504 0.648930 0.144527
0.782307 0.650718 0.148285
0.794124 0.653378 0.152683
0.803019 0.655753 0.157431
0.809615 0.660697 0.164338
0.075473 0.619722 0.091693
0.075559 0.619895 0.091750
0.075873 0.620538 0.091960
0.076469 0.621821 0.092353
0.077550 0.624000 0.092961
0.079874 0.627493 0.093962
0.083635 0.632986 0.095545
0.087418 0.636599 0.096844
0.094928 0.640226 0.098368
0.106295 0.643551 0.099853
0.122264 0.646811 0.102177
0.140486 0.649177 0.104414
0.163869 0.651344 0.106700
0.196335 0.652985 0.108892
0.237734 0.654148 0.110951
0.283951 0.655066 0.113093
0.328363 0.655649 0.115122
0.373542 0.656066 0.117521
0.421790 0.656371 0.119887
0.473544 0.656845 0.122308
0.515495 0.657233 0.124625
0.560369 0.657872 0.127011
0.594946 0.659663 0.130212
0.628416 0.660179 0.132029
0.660825 0.661415 0.134700
0.687568 0.663585 0.138936
0.714339 0.665069 0.141658
0.738775 0.667019 0.145401
0.762429 0.669443 0.149203
0.779584 0.671396 0.152831
0.792336 0.673995 0.157102
0.801939 0.676754 0.162061
0.808984 0.682004 0.168721
0.075986 0.646386 0.093208
0.076067 0.646513 0.093263
0.076363 0.646982 0.093477
0.076974 0.647906 0.093983
0.078177 0.649441 0.094766
0.080383 0.651841 0.095876
0.083929 0.655502 0.097382
0.088318 0.658829 0.098838
0.095080 0.661786 0.100411
0.107181 0.665503 0.103034
0.121176 0.668031 0.105242
0.139884 0.670740 0.107649
0.163152 0.673075 0.110091
0.193022 0.674582 0.112262
0.232204 0.675799 0.114365
0.278041 0.676751 0.116822
0.321512 0.677473 0.119412
0.366342 0.677978 0.121901
0.413252 0.678357 0.124321
0.464220 0.678663 0.126715
0.507057 0.679169 0.129137
0.550315 0.679696 0.131528
0.586003 0.680426 0.133909
0.618918 0.680924 0.135949
0.653303 0.681953 0.139389
0.680062 0.683776 0.143706
0.707203 0.685331 0.146397
0.732483 0.687111 0.150109
0.757420 0.689459 0.153926
0.776752 0.691604 0.157528
0.790491 0.694037 0.161765
0.800769 0.697181 0.167077
0.808512 0.701695 0.173242
0.076136 0.668938 0.094336
0.076214 0.669048 0.094407
0.076494 0.669454 0.094667
0.077097 0.670246 0.095156
0.078275 0.671548 0.095910
0.080354 0.673551 0.096980
0.083643 0.676557 0.098430
0.088396 0.680106 0.100124
0.094544 0.682480 0.102247
0.105968 0.685852 0.104933
0.119416 0.688290 0.107235
0.138058 0.690979 0.109762
0.158570 0.692821 0.112048
0.187562 0.694594 0.114424
0.225815 0.695946 0.117072
0.270592 0.696825 0.119596
0.312071 0.697534 0.122214
0.356303 0.698068 0.124744
0.401925 0.698503 0.127250
0.451264 0.698875 0.129661
0.496309 0.699272 0.132075
0.538495 0.699803 0.134442
0.576950 0.700524 0.137495
0.610111 0.701432 0.140648
0.644030 0.702144 0.144101
0.672856 0.703641 0.148432
0.700166 0.705266 0.151069
0.726046 0.706799 0.154791
0.752037 0.709031 0.158495
0.773892 0.711245 0.162670
0.788560 0.713721 0.166793
0.799676 0.716483 0.171865
0.808014 0.721179 0.178931
0.076321 0.690191 0.095724
0.076395 0.690296 0.095794
0.076669 0.690680 0.096045
0.077268 0.691422 0.096516
0.078457 0.692620 0.097244
0.080431 0.694423 0.098277
0.083529 0.697058 0.099676
0.088811 0.700877 0.102453
0.094491 0.702925 0.104477
0.104667 0.705715 0.107019
0.119037 0.708555 0.109677
0.135232 0.710673 0.112049
0.156670 0.712752 0.114543
0.184371 0.714474 0.117467
0.218612 0.715687 0.120187
0.263066 0.716699 0.122924
0.305497 0.717446 0.125617
0.349550 0.717953 0.128264
0.393663 0.718360 0.130782
0.441520 0.718727 0.133297
0.487479 0.719101 0.135998
0.528750 0.719560 0.139138
0.569054 0.720101 0.142232
0.601336 0.720949 0.145494
0.635351 0.721962 0.148746
0.665944 0.723040 0.153113
0.693451 0.724890 0.155694
0.719538 0.726062 0.159377
0.746489 0.728182 0.163485
0.770761 0.730263 0.167471
0.786624 0.732828 0.172094
0.798625 0.735496 0.177711
0.807523 0.739720 0.184687
0.076415 0.711170 0.097057
0.076487 0.711270 0.097125
0.076767 0.711635 0.097370
0.077348 0.712333 0.097830
0.078526 0.713442 0.098542
0.080426 0.715077 0.099552
0.083378 0.717408 0.101477
0.088191 0.720700 0.104405
0.094651 0.723220 0.106856
0.103964 0.725578 0.109289
0.119498 0.728689 0.112349
0.133966 0.730414 0.114600
0.156324 0.732574 0.117859
0.180521 0.733933 0.120696
0.215516 0.735282 0.123753
0.258479 0.736251 0.126581
0.299415 0.736960 0.129332
0.342711 0.737468 0.132051
0.386031 0.737818 0.134680
0.432888 0.738147 0.138008
0.480082 0.738473 0.141321
0.520651 0.738872 0.144586
0.562651 0.739345 0.147781
0.593922 0.739937 0.150940
0.627003 0.740815 0.154322
0.659430 0.741666 0.157681
0.687015 0.743317 0.160336
0.713305 0.744020 0.164387
0.740830 0.745519 0.168306
0.766449 0.746991 0.172668
0.784564 0.748864 0.177995
0.797594 0.750958 0.183623
0.807306 0.754009 0.190391
0.075691 0.736380 0.096896
0.075764 0.736458 0.096964
0.076028 0.736745 0.097212
0.076526 0.737288 0.097677
0.077422 0.738140 0.098403
0.079233 0.739377 0.099441
0.081942 0.741007 0.101388
0.086448 0.742911 0.104476
0.093619 0.744847 0.107621
0.101705 0.746212 0.110012
0.115575 0.747967 0.113033
0.131722 0.749408 0.115996
0.151371 0.750585 0.119201
0.176229 0.751610 0.122449
0.208959 0.752382 0.125588
0.249486 0.752979 0.128526
0.292803 0.753468 0.131503
0.335602 0.753788 0.134308
0.377283 0.753984 0.137664
0.422784 0.754164 0.141115
0.471597 0.754369 0.144512
0.511704 0.754625 0.147864
0.553785 0.754969 0.151170
