LUTs/negative-superia-xtra-400/SuperiaXtra400_Classic_ExtraSoft.cube
TITLE "Fuji Superia X-tra 400 Classic ExtraSoft"
# Adobe RGB in/out. REPLACES AgX. Fuji Superia X-tra 400 Classic ExtraSoft.
LUT_3D_SIZE 5
DOMAIN_MIN 0.0 0.0 0.0
DOMAIN_MAX 1.0 1.0 1.0
0.055369 0.061977 0.079302
0.171653 0.073592 0.085004
0.599503 0.097496 0.094685
0.731583 0.122046 0.109272
0.779149 0.172488 0.424617
0.059016 0.127071 0.086505
0.100541 0.145517 0.090914
0.531172 0.175321 0.099800
0.721663 0.225516 0.112621
0.779150 0.172497 0.424614
0.065185 0.453528 0.098340
0.086502 0.488385 0.104624
0.390742 0.503024 0.113675
0.681935 0.522075 0.128784
0.778860 0.534586 0.165337
0.070382 0.655099 0.110897
0.086529 0.664479 0.119048
0.299990 0.675129 0.136248
0.616801 0.678431 0.155986
0.773970 0.691373 0.185660
0.055396 0.730884 0.101704
0.084999 0.753727 0.101756
0.203604 0.758239 0.137387
0.561521 0.755311 0.172553
0.779025 0.759793 0.198538
0.056873 0.071043 0.145915
0.144125 0.081331 0.187027
0.606600 0.106906 0.188638
0.730874 0.131952 0.219475
0.779150 0.172497 0.424653
0.065946 0.127047 0.157525
0.148917 0.158706 0.173464
0.561391 0.189796 0.178011
0.723901 0.237844 0.198002
0.779150 0.172497 0.424615
0.077864 0.446334 0.179892
0.112915 0.469010 0.184765
0.453099 0.491296 0.194923
0.695844 0.521147 0.214407
0.778638 0.539580 0.309275
0.083025 0.651913 0.197816
0.108024 0.659149 0.208219
0.363154 0.669052 0.230999
0.645377 0.675208 0.255529
0.774991 0.691114 0.275227
0.055455 0.735599 0.196504
0.084999 0.757859 0.196499
0.237665 0.757557 0.224468
0.574346 0.755109 0.282877
0.780318 0.759988 0.310027
0.059442 0.091088 0.458175
0.135589 0.106828 0.515773
0.587268 0.137017 0.519209
0.727059 0.175396 0.534731
0.779150 0.172498 0.566825
0.070238 0.159140 0.474091
0.137484 0.185644 0.493131
0.558070 0.232319 0.506217
0.721869 0.286448 0.526670
0.779150 0.172505 0.554604
0.089853 0.453743 0.489289
0.143807 0.471112 0.487539
0.506317 0.507404 0.501479
0.703958 0.528566 0.512142
0.777887 0.556277 0.557373
0.105732 0.651336 0.519965
0.147773 0.656631 0.517465
0.428601 0.665683 0.516369
0.672559 0.674315 0.522058
0.775776 0.693227 0.546535
0.073617 0.752089 0.618073
0.081491 0.758242 0.618072
0.314437 0.756081 0.570540
0.601000 0.755266 0.566349
0.781234 0.761491 0.561035
0.062394 0.130491 0.659854
0.112582 0.157444 0.662936
0.574242 0.203550 0.663656
0.723894 0.250671 0.665337
0.779149 0.172482 0.653250
0.071890 0.220884 0.663270
0.126679 0.254312 0.665404
0.555139 0.306503 0.666041
0.720023 0.350984 0.667575
0.779140 0.172346 0.650788
0.099741 0.485295 0.664679
0.158742 0.501492 0.666853
0.514340 0.525261 0.669759
0.706770 0.546091 0.672229
0.777311 0.577847 0.669965
0.118192 0.657097 0.669057
0.172900 0.661683 0.668971
0.456997 0.670378 0.671219
0.681560 0.679592 0.674549
0.776145 0.697673 0.679711
0.074986 0.753126 0.672814
0.083808 0.760265 0.672941
0.323037 0.758762 0.681733
0.607874 0.758092 0.681030
0.781421 0.764651 0.688960
0.087179 0.202615 0.761260
0.236480 0.216510 0.761343
0.645741 0.258134 0.761800
0.737576 0.284875 0.762922
0.779150 0.225715 0.752650
0.105034 0.282722 0.761096
0.251315 0.298702 0.761194
0.639394 0.337507 0.761691
0.736529 0.362285 0.762803
0.779150 0.241708 0.760965
0.151210 0.511927 0.760916
0.284051 0.518035 0.761123
0.612362 0.532296 0.761705
0.731993 0.544926 0.762779
0.781319 0.573792 0.766451
0.140064 0.664959 0.762191
0.224557 0.667393 0.762397
0.545376 0.673045 0.762967
0.719252 0.679312 0.763958
0.780912 0.698587 0.766424
0.069673 0.748570 0.732732
0.084999 0.761488 0.743415
0.217192 0.767747 0.763503
0.590711 0.764569 0.766644
0.781630 0.769251 0.767644
