negative-ultramax-400/Ultramax400_Classic_ExtraPunchy.cube
TITLE "Kodak Ultramax 400 Classic ExtraPunchy"
# Adobe RGB in/out. REPLACES AgX. Kodak Ultramax 400 Classic ExtraPunchy.
LUT_3D_SIZE 33
DOMAIN_MIN 0.0 0.0 0.0
DOMAIN_MAX 1.0 1.0 1.0
0.069662 0.073299 0.081842
0.068219 0.073260 0.081842
0.068792 0.072845 0.081842
0.073005 0.072251 0.081842
0.094574 0.073254 0.080447
0.117690 0.074119 0.079381
0.180222 0.076195 0.078368
0.283787 0.078883 0.078190
0.340775 0.080264 0.078321
0.415048 0.082250 0.078505
0.507579 0.085969 0.078869
0.563216 0.088711 0.079158
0.597860 0.091161 0.079446
0.634861 0.094449 0.079815
0.668177 0.099378 0.080303
0.689649 0.102243 0.080598
0.708626 0.105441 0.080944
0.726319 0.109293 0.081349
0.742611 0.114340 0.081987
0.757365 0.117981 0.082700
0.769967 0.121741 0.083558
0.778026 0.126021 0.084852
0.785380 0.129592 0.086464
0.792609 0.130015 0.087901
0.798068 0.130699 0.090738
0.802986 0.129822 0.094717
0.809268 0.120556 0.103101
0.812681 0.116060 0.144620
0.820054 0.098910 0.446940
0.820053 0.098886 0.446904
0.820053 0.098884 0.446902
0.820053 0.098885 0.446901
0.823886 0.242069 0.579990
0.069266 0.072374 0.081842
0.067465 0.072394 0.081842
0.068836 0.072367 0.081842
0.073285 0.072391 0.081790
0.091834 0.073731 0.080065
0.111785 0.074633 0.079152
0.170719 0.076699 0.078301
0.272557 0.079364 0.078212
0.330676 0.080630 0.078336
0.406261 0.082654 0.078519
0.501460 0.086336 0.078882
0.558690 0.089154 0.079175
0.594875 0.091544 0.079460
0.632488 0.094892 0.079827
0.666807 0.099785 0.080314
0.688585 0.102624 0.080608
0.707807 0.105868 0.080953
0.725701 0.109692 0.081356
0.742152 0.114946 0.082001
0.757020 0.118560 0.082712
0.769710 0.122299 0.083569
0.777892 0.126564 0.084863
0.785283 0.130268 0.086469
0.792539 0.130678 0.087897
0.798019 0.131348 0.090716
0.802952 0.130459 0.094644
0.809244 0.121039 0.102757
0.812667 0.116430 0.142763
0.820054 0.098911 0.446941
0.820053 0.098886 0.446905
0.820053 0.098884 0.446902
0.820053 0.098885 0.446901
0.823886 0.242071 0.579990
0.068910 0.072958 0.081842
0.068132 0.073082 0.081842
0.067777 0.073062 0.081842
0.070469 0.074076 0.080993
0.080025 0.076230 0.079267
0.094676 0.076566 0.078738
0.144439 0.078552 0.078089
0.234970 0.081275 0.078293
0.295890 0.082192 0.078393
0.374756 0.084324 0.078581
0.478574 0.088088 0.078928
0.539134 0.090818 0.079236
0.583488 0.092970 0.079509
0.623434 0.096538 0.079874
0.661578 0.101291 0.080351
0.684539 0.104332 0.080648
0.704704 0.107437 0.080987
0.723365 0.111159 0.081384
0.740425 0.117180 0.082054
0.755726 0.120688 0.082755
0.768750 0.124344 0.083607
0.777394 0.128553 0.084901
0.784921 0.132749 0.086487
0.792280 0.133108 0.087887
0.797836 0.133730 0.090641
0.802823 0.132797 0.094396
0.809152 0.122816 0.101593
0.812616 0.117823 0.136421
0.820054 0.098913 0.446944
0.820053 0.098886 0.446905
0.820053 0.098885 0.446903
0.820053 0.098886 0.446901
0.823887 0.242075 0.579989
0.067932 0.077352 0.081842
0.067736 0.077555 0.081839
0.067843 0.077880 0.080923
0.068991 0.077767 0.080205
0.073613 0.080815 0.078579
0.080696 0.080130 0.078374
0.106521 0.081958 0.078143
0.172903 0.085034 0.078393
0.234422 0.085603 0.078488
0.318871 0.087512 0.078694
0.425703 0.092048 0.079041
0.500089 0.094492 0.079354
0.559147 0.096611 0.079604
0.604485 0.099807 0.079961
0.649744 0.104677 0.080423
0.676069 0.107677 0.080723
0.698254 0.110487 0.081050
0.718549 0.114576 0.081436
0.736894 0.121521 0.082155
0.753095 0.124806 0.082836
0.766811 0.128289 0.083682
0.776393 0.133358 0.084977
0.784198 0.137536 0.086527
0.791763 0.137793 0.087881
0.797474 0.138319 0.090525
0.802568 0.137307 0.093991
0.808971 0.126262 0.099824
0.812514 0.120651 0.128087
0.820054 0.098917 0.446950
0.820053 0.098887 0.446906
0.820053 0.098885 0.446903
0.820053 0.098890 0.446901
0.823887 0.242077 0.579989
0.067609 0.086319 0.080298
0.067729 0.086560 0.079747
0.068143 0.087496 0.078932
0.069288 0.087847 0.078493
0.071932 0.087583 0.078102
0.075475 0.085652 0.078067
0.086963 0.087807 0.078268
0.126048 0.091329 0.078517
0.171163 0.091122 0.078635
0.248836 0.092766 0.078832
0.361114 0.097937 0.079255
0.442774 0.100014 0.079527
0.510402 0.101797 0.079758
0.573010 0.105473 0.080097
0.623029 0.110938 0.080536
0.660428 0.113421 0.080842
0.686430 0.116970 0.081149
0.709820 0.121998 0.081519
0.730576 0.128638 0.082315
0.748433 0.132247 0.082967
0.763414 0.136285 0.083804
0.774658 0.141253 0.085105
0.782956 0.145283 0.086604
0.790881 0.145365 0.087898
0.796858 0.145726 0.090401
0.802137 0.144597 0.093502
0.808665 0.132711 0.098421
0.812337 0.125526 0.118495
0.820055 0.098926 0.446962
0.820053 0.098888 0.446907
0.820053 0.098885 0.446904
0.820055 0.098920 0.446902
0.823887 0.242078 0.579988
0.067854 0.091967 0.079178
0.067919 0.092116 0.078867
0.068184 0.093129 0.078619
0.068971 0.093870 0.078205
0.070622 0.093924 0.078081
0.073458 0.093627 0.078231
0.081025 0.096846 0.078413
0.101342 0.100942 0.078728
0.131254 0.099350 0.078800
0.184964 0.100663 0.078973
0.287494 0.105768 0.079468
0.370679 0.107795 0.079733
0.450784 0.109402 0.079966
0.526811 0.112612 0.080274
0.592786 0.120031 0.080701
0.635599 0.123816 0.080998
0.668475 0.127761 0.081285
0.694484 0.134721 0.081637
0.719417 0.142697 0.082548
0.740304 0.145421 0.083187
0.757585 0.148777 0.083987
0.771730 0.153290 0.085307
0.780887 0.157024 0.086740
0.789426 0.156813 0.087992
0.795852 0.156904 0.090322
0.801436 0.155614 0.093139
0.808165 0.143672 0.097074
0.812041 0.134594 0.110290
0.820055 0.098945 0.446985
0.820053 0.098890 0.446910
0.820053 0.098886 0.446905
0.823884 0.232253 0.446902
0.823887 0.242079 0.579988
0.068242 0.105424 0.078235
0.068282 0.105571 0.078154
0.068557 0.106873 0.078109
0.069337 0.108179 0.078230
0.070910 0.108810 0.078355
0.073296 0.108735 0.078464
0.078005 0.108360 0.078627
0.090739 0.113790 0.078940
0.109458 0.110534 0.079003
0.147389 0.111204 0.079253
0.223489 0.118252 0.079722
0.304043 0.120352 0.079986
0.379261 0.121162 0.080174
0.469803 0.125343 0.080460
0.552112 0.134491 0.080920
0.601192 0.139299 0.081199
0.645866 0.142327 0.081452
0.678954 0.148298 0.081875
0.706583 0.157404 0.082835
0.729249 0.161313 0.083486
0.748197 0.166183 0.084309
0.764643 0.171354 0.085610
0.777340 0.174489 0.086965
0.786964 0.173783 0.088213
0.794178 0.173426 0.090361
0.800277 0.171923 0.092919
0.807330 0.160316 0.096091
0.811536 0.150282 0.104378
0.820057 0.098992 0.447042
0.820053 0.098894 0.446916
0.820053 0.098888 0.446908
0.823887 0.232333 0.446904
0.823887 0.242079 0.579988
0.068874 0.129150 0.078270
0.068941 0.129385 0.078294
0.069286 0.132086 0.078389
0.069932 0.134722 0.078512
0.071476 0.136819 0.078670
0.073680 0.137688 0.078849
0.078077 0.137292 0.078996
0.085901 0.136450 0.079246
0.096732 0.128653 0.079314
0.125171 0.128864 0.079542
0.181094 0.139146 0.080015
0.247191 0.140043 0.080244
0.317816 0.139687 0.080411
0.401463 0.144213 0.080693
0.497751 0.153888 0.081155
0.564420 0.157096 0.081403
0.611519 0.160233 0.081642
0.656293 0.166914 0.082287
0.688910 0.175918 0.083228
0.716409 0.178120 0.083847
0.739127 0.181727 0.084755
0.757696 0.187561 0.085993
0.773137 0.194680 0.087287
0.783379 0.197466 0.088610
0.791194 0.201389 0.090605
0.798242 0.199078 0.092941
0.805831 0.185979 0.095780
0.810615 0.175295 0.100959
0.820064 0.099182 0.447238
0.820054 0.098910 0.446939
0.820053 0.098894 0.446918
0.823887 0.232338 0.446908
0.823887 0.242079 0.579988
0.069238 0.146836 0.078399
0.069286 0.147005 0.078416
0.069516 0.148718 0.078494
0.070146 0.151762 0.078639
0.071378 0.154430 0.078796
0.073065 0.155911 0.078942
0.076316 0.156403 0.079173
0.081880 0.155819 0.079389
0.091216 0.154997 0.079606
0.111197 0.154688 0.079837
0.155068 0.165745 0.080308
0.203891 0.165355 0.080507
0.268402 0.163619 0.080672
0.345040 0.166973 0.080970
0.440335 0.176323 0.081410
0.512580 0.178461 0.081634
0.574595 0.180950 0.082046
0.624718 0.186961 0.082729
0.668852 0.198275 0.083696
0.698842 0.202294 0.084354
0.724340 0.208644 0.085325
0.747567 0.213916 0.086478
0.766991 0.219654 0.087692
0.780131 0.220989 0.089111
0.789015 0.223925 0.090974
0.796263 0.227238 0.093173
0.803887 0.223448 0.096049
0.808926 0.220815 0.100359
0.820269 0.104727 0.449468
0.820061 0.099106 0.447165
0.820055 0.098936 0.446979
0.823887 0.232340 0.446926
0.823887 0.242079 0.579988
0.069709 0.173074 0.078618
0.069746 0.173211 0.078639
0.070033 0.174442 0.078718
0.070725 0.177630 0.078851
0.071705 0.180507 0.079001
0.073197 0.182836 0.079237
0.075930 0.183855 0.079470
0.080647 0.183898 0.079688
0.087695 0.183302 0.079916
0.102408 0.182556 0.080137
0.137875 0.196933 0.080582
0.176923 0.195393 0.080817
0.226317 0.191195 0.080974
0.297788 0.194224 0.081255
0.385504 0.206343 0.081673
0.462807 0.207746 0.082102
0.529113 0.209505 0.082571
0.589882 0.216103 0.083242
0.642723 0.228584 0.084275
0.678546 0.232010 0.085047
0.709309 0.235667 0.085921
0.734982 0.243489 0.087027
0.756679 0.252281 0.088359
0.774806 0.253906 0.089772
0.785558 0.254943 0.091484
0.794014 0.256842 0.093545
0.802470 0.251807 0.096201
0.808041 0.247782 0.099821
0.813774 0.236840 0.107774
0.817820 0.225605 0.132947
0.822051 0.199503 0.403991
0.823887 0.232522 0.450242
0.823887 0.242080 0.579988
0.070840 0.222095 0.078981
0.070897 0.222278 0.079008
0.071138 0.223648 0.079109
0.071731 0.228857 0.079306
0.072619 0.233189 0.079519
0.073997 0.236471 0.079750
0.076935 0.239015 0.079999
0.081564 0.239917 0.080231
0.088581 0.239691 0.080444
0.102594 0.238715 0.080667
0.126695 0.237788 0.080924
0.158203 0.234982 0.081132
0.197821 0.229138 0.081281
0.260778 0.231258 0.081538
0.341976 0.243997 0.082255
0.410608 0.243729 0.082692
0.483507 0.243844 0.083123
0.553109 0.249821 0.083821
0.610348 0.262860 0.085073
0.656186 0.264437 0.085772
0.689555 0.269145 0.086602
0.719064 0.277802 0.087650
0.745761 0.284165 0.089191
0.768069 0.286096 0.090514
0.780883 0.290523 0.092136
0.790260 0.296360 0.094244
0.800147 0.290397 0.096623
0.806622 0.285100 0.099754
0.812871 0.272802 0.106027
0.817316 0.257686 0.120826
0.821869 0.211544 0.334128
0.823887 0.233089 0.460549
0.823887 0.233297 0.464259
0.071542 0.260637 0.079332
0.071588 0.260804 0.079354
0.071785 0.261925 0.079435
0.072292 0.266420 0.079595
0.073069 0.270565 0.079798
0.074369 0.275100 0.080033
0.077079 0.278927 0.080276
0.081116 0.280582 0.080492
0.086904 0.281092 0.080726
0.097364 0.280680 0.080972
0.117945 0.279593 0.081210
0.145751 0.278734 0.081448
0.178012 0.270648 0.081567
0.229971 0.272798 0.081974
0.305329 0.285653 0.082878
0.368327 0.283816 0.083316
0.437397 0.282882 0.083781
0.509918 0.287808 0.084594
0.578401 0.298874 0.085865
0.625507 0.299386 0.086523
0.667648 0.303928 0.087331
0.701685 0.309788 0.088526
0.731312 0.317811 0.090139
0.756657 0.321308 0.091393
0.775661 0.323444 0.092888
0.786923 0.327674 0.095090
0.797453 0.326907 0.097278
0.804469 0.327912 0.100152
0.811287 0.320736 0.105698
0.816426 0.304060 0.114803
0.821437 0.244041 0.224597
0.823887 0.233098 0.460601
0.823887 0.233500 0.467768
0.072140 0.294972 0.079597
0.072182 0.295100 0.079616
0.072350 0.295902 0.079687
0.072750 0.298936 0.079838
0.073517 0.303280 0.080035
0.074855 0.307678 0.080252
0.077097 0.311048 0.080468
0.080682 0.313533 0.080703
0.085795 0.314961 0.080955
0.094112 0.315074 0.081194
0.110322 0.314542 0.081422
0.133016 0.313419 0.081636
0.163820 0.312666 0.082060
0.206630 0.313888 0.082599
0.276851 0.326917 0.083586
0.335057 0.323976 0.084010
0.396090 0.321805 0.084568
0.472613 0.326242 0.085500
0.544358 0.337398 0.086753
0.594965 0.336782 0.087318
0.642606 0.340084 0.088127
0.681506 0.346879 0.089603
0.714479 0.355840 0.091171
0.744460 0.356844 0.092295
0.767666 0.361897 0.093844
0.781619 0.369297 0.096148
0.794263 0.365920 0.098092
0.802538 0.364620 0.100971
0.809885 0.361419 0.105942
0.815227 0.356742 0.113357
0.819742 0.351830 0.132357
0.823887 0.233199 0.460665
0.823887 0.233839 0.472841
0.072903 0.337780 0.079952
0.072947 0.337912 0.079970
0.073121 0.338662 0.080035
0.073511 0.341277 0.080163
0.074243 0.346876 0.080352
0.075763 0.351001 0.080545
0.077727 0.354899 0.080782
0.081177 0.358316 0.081041
0.085842 0.360508 0.081289
0.093268 0.361211 0.081517
0.107314 0.361106 0.081768
0.127910 0.360485 0.082275
0.154828 0.359358 0.082742
0.191122 0.358578 0.083264
0.252001 0.371932 0.084349
0.306264 0.368517 0.084961
0.363519 0.364788 0.085511
0.432430 0.368147 0.086365
0.507882 0.379278 0.087587
0.566893 0.378219 0.088290
0.613789 0.380498 0.089341
0.660491 0.387163 0.090720
0.696518 0.394798 0.092200
0.728943 0.397361 0.093282
0.755865 0.402759 0.095078
0.776212 0.406876 0.097212
0.790178 0.407517 0.099052
0.799429 0.410257 0.102187
0.808096 0.405803 0.106539
0.814248 0.399121 0.112579
0.819229 0.390135 0.125393
0.822643 0.384456 0.219689
0.824840 0.389963 0.477377
0.073961 0.395336 0.080390
0.073999 0.395492 0.080406
0.074149 0.396267 0.080463
0.074711 0.398649 0.080573
0.075841 0.404384 0.080791
0.077100 0.407440 0.081008
0.079424 0.411636 0.081255
0.082662 0.414855 0.081493
0.087000 0.417251 0.081770
0.094662 0.418642 0.082301
0.108817 0.419188 0.082820
0.128201 0.418902 0.083340
0.153770 0.418152 0.083898
0.187202 0.417284 0.084561
0.232268 0.416544 0.085336
0.283012 0.412789 0.085886
0.336999 0.409513 0.086440
0.399312 0.411827 0.087264
0.476754 0.420556 0.088729
0.533341 0.418783 0.089525
0.586789 0.420181 0.090556
0.635698 0.425310 0.091892
0.677216 0.430953 0.093284
0.711408 0.433541 0.094625
0.742581 0.436803 0.096340
0.767771 0.443025 0.098414
0.785251 0.443765 0.100198
0.796522 0.444266 0.103572
0.805919 0.444604 0.107567
0.812657 0.444469 0.112748
0.818372 0.435526 0.122134
0.822241 0.423554 0.160380
0.824812 0.401930 0.467162
0.075000 0.431755 0.080661
0.075059 0.431869 0.080678
0.075287 0.432411 0.080740
0.075772 0.434001 0.080860
0.076686 0.438010 0.081053
0.077956 0.441888 0.081265
0.080349 0.446828 0.081510
0.083196 0.449444 0.081748
0.087079 0.452126 0.082279
0.094088 0.454274 0.082820
0.106380 0.455086 0.083351
0.123594 0.455188 0.083907
0.146282 0.454926 0.084602
0.175567 0.454086 0.085353
0.213660 0.453358 0.086074
0.264520 0.452741 0.086809
0.313093 0.448861 0.087316
0.372128 0.450835 0.088265
0.444497 0.459659 0.090053
0.502893 0.457399 0.090815
0.562155 0.457741 0.091750
0.609899 0.462386 0.093056
0.657848 0.467740 0.094744
0.693360 0.469447 0.096037
0.726896 0.473268 0.097682
0.755845 0.479544 0.099668
0.779457 0.480178 0.101984
0.792291 0.483607 0.105237
0.803383 0.483564 0.108868
0.811296 0.480961 0.113335
0.817388 0.479050 0.121246
0.821479 0.478873 0.141888
0.824629 0.439690 0.402611
0.076132 0.467577 0.080959
0.076184 0.467677 0.080974
0.076381 0.468143 0.081029
0.076793 0.469452 0.081133
0.077547 0.472639 0.081298
0.079125 0.477274 0.081507
0.081013 0.480608 0.081728
0.083800 0.484210 0.082243
0.087382 0.487398 0.082757
0.093768 0.489673 0.083309
0.104654 0.491103 0.083890
0.120213 0.491667 0.084582
0.140547 0.491675 0.085331
0.165736 0.491257 0.086078
0.199772 0.490484 0.086789
0.244238 0.489819 0.087478
0.294373 0.489402 0.088342
0.349600 0.491145 0.089563
0.415945 0.499504 0.091330
0.476595 0.496696 0.092045
0.532236 0.496780 0.092972
0.586211 0.500784 0.094498
0.634631 0.506021 0.096277
0.674936 0.507156 0.097487
0.709957 0.511260 0.099075
0.742447 0.516700 0.101518
0.772068 0.518948 0.103931
0.787557 0.521419 0.106947
0.800371 0.522927 0.110348
0.809229 0.524275 0.114397
0.816324 0.520877 0.121133
0.821015 0.516659 0.134543
0.824183 0.518365 0.255420
0.077388 0.509202 0.081301
0.077434 0.509303 0.081314
0.077608 0.509747 0.081362
0.078107 0.510911 0.081454
0.079038 0.513585 0.081598
0.080625 0.519037 0.081942
0.082270 0.521386 0.082364
0.085089 0.525892 0.082887
0.088778 0.528995 0.083445
0.094591 0.531317 0.084005
0.105060 0.533221 0.084789
0.119639 0.534281 0.085574
0.138492 0.534783 0.086347
0.161704 0.534439 0.087042
0.192742 0.534024 0.087765
0.232404 0.533335 0.088746
0.280320 0.532681 0.089773
0.330740 0.532465 0.090836
0.392048 0.539700 0.092578
0.449564 0.537503 0.093265
0.505929 0.536908 0.094399
0.564953 0.539730 0.096063
0.611606 0.543202 0.097811
0.656879 0.543687 0.098956
0.692745 0.546633 0.100795
0.727431 0.550285 0.103666
0.760523 0.552027 0.105942
0.781749 0.554012 0.108789
0.796417 0.556704 0.112041
0.807216 0.556029 0.115805
0.815078 0.556242 0.121860
0.820232 0.557405 0.132244
0.823941 0.553883 0.189901
0.079272 0.551286 0.081692
0.079333 0.551368 0.081704
0.079563 0.551704 0.081804
0.080030 0.552512 0.081996
0.080847 0.554219 0.082299
0.082341 0.557624 0.082738
0.084188 0.559982 0.083190
0.086715 0.562999 0.083770
0.090828 0.565260 0.084429
0.096764 0.567588 0.085267
0.107745 0.569153 0.086059
0.121899 0.570225 0.086862
0.139505 0.570642 0.087604
0.161777 0.570728 0.088562
0.190878 0.570422 0.089618
0.228851 0.570152 0.090722
0.274178 0.569765 0.091754
0.321081 0.569267 0.092741
0.372344 0.569268 0.093920
0.424955 0.566996 0.094799
0.483344 0.566544 0.095974
0.539805 0.568687 0.097605
0.590622 0.571865 0.099310
0.635566 0.572167 0.100671
0.675623 0.574527 0.103033
0.711625 0.578190 0.105859
0.747291 0.579685 0.107989
0.774667 0.582486 0.110749
0.792264 0.584305 0.113723
0.804532 0.585540 0.117600
0.813640 0.586603 0.123077
0.819638 0.585624 0.131480
0.823629 0.587767 0.163647
0.080691 0.579209 0.082185
0.080746 0.579276 0.082210
0.080950 0.579551 0.082302
0.081359 0.580199 0.082477
0.082144 0.581546 0.082751
0.083572 0.584190 0.083171
0.085402 0.587030 0.083688
0.087586 0.589115 0.084244
0.091902 0.591802 0.085070
0.097607 0.594051 0.085890
0.107442 0.595421 0.086644
0.120279 0.596592 0.087416
0.136446 0.597304 0.088319
0.157158 0.597598 0.089435
0.183548 0.597613 0.090521
0.217010 0.597284 0.091549
0.259503 0.597013 0.092600
0.303956 0.596788 0.093679
0.352139 0.596451 0.094974
0.404453 0.596620 0.096347
0.461951 0.595761 0.097478
0.516624 0.597886 0.099105
0.571824 0.600649 0.101283
0.614819 0.600823 0.102970
0.659364 0.602866 0.105292
0.695572 0.606079 0.108036
0.732658 0.607586 0.110067
0.764544 0.610518 0.112738
0.786929 0.612642 0.115657
0.801267 0.614590 0.119514
0.812056 0.615450 0.124440
0.818781 0.617074 0.131797
0.823357 0.617952 0.153546
0.082226 0.608075 0.082711
0.082286 0.608137 0.082734
0.082510 0.608382 0.082819
0.082956 0.608942 0.082980
0.083716 0.610064 0.083270
0.084952 0.612197 0.083694
0.086786 0.615465 0.084295
0.089246 0.616960 0.084957
0.093512 0.620018 0.085814
0.098823 0.621405 0.086530
0.108467 0.623284 0.087320
0.120893 0.624722 0.088205
0.135641 0.625417 0.089347
0.154778 0.625746 0.090432
0.178985 0.625925 0.091529
0.209426 0.625837 0.092579
0.248402 0.625508 0.093633
0.290888 0.625222 0.094989
0.337497 0.625140 0.096339
0.385072 0.624976 0.097612
0.440358 0.625283 0.098942
0.496484 0.626653 0.100854
0.552131 0.629334 0.103538
0.596011 0.629532 0.105246
0.640965 0.631179 0.107509
0.680064 0.634179 0.110234
0.717537 0.635632 0.112160
0.751988 0.637846 0.114699
0.780422 0.640007 0.117928
0.797556 0.641298 0.121439
0.810010 0.643090 0.126072
0.817943 0.643886 0.132500
0.823049 0.645716 0.149258
0.084057 0.637763 0.083348
0.084113 0.637813 0.083374
0.084319 0.638009 0.083467
0.084726 0.638433 0.083642
0.085411 0.639234 0.083915
0.086505 0.640675 0.084397
0.088783 0.643206 0.085175
0.091377 0.644487 0.085825
0.095137 0.646287 0.086597
0.101474 0.647865 0.087359
0.110740 0.649393 0.088283
0.121821 0.650298 0.089416
0.136065 0.651104 0.090578
0.154512 0.651551 0.091698
0.177167 0.651694 0.092755
0.205455 0.651760 0.093984
0.242031 0.651614 0.095353
0.282966 0.651412 0.096702
0.326107 0.651183 0.098023
0.372626 0.651209 0.099356
0.423099 0.651216 0.101000
0.478985 0.651531 0.103069
0.531236 0.653133 0.105730
0.578950 0.653355 0.107370
0.622091 0.654404 0.109647
0.665019 0.656469 0.112367
0.702484 0.657718 0.114233
0.738496 0.659495 0.117079
0.772952 0.661669 0.120225
0.792921 0.663189 0.123490
0.807701 0.665024 0.127768
0.816933 0.666396 0.133574
0.822690 0.668938 0.147484
0.085842 0.661642 0.083969
0.085894 0.661691 0.083993
0.086083 0.661876 0.084081
0.086455 0.662264 0.084310
0.087075 0.662967 0.084680
0.088479 0.664181 0.085210
0.090883 0.666235 0.085936
0.093603 0.667958 0.086649
0.097133 0.669320 0.087353
0.104658 0.671242 0.088333
0.112526 0.672242 0.089423
0.123909 0.673439 0.090613
0.137991 0.674421 0.091821
0.154755 0.674795 0.092905
0.175989 0.674995 0.094149
0.202685 0.675071 0.095583
0.237213 0.675046 0.097014
0.276917 0.674903 0.098385
0.317567 0.674723 0.099712
0.361866 0.674540 0.101628
0.409833 0.674637 0.103719
0.464051 0.674812 0.105782
0.512809 0.675233 0.107835
0.563717 0.675407 0.109438
0.604815 0.676217 0.111676
0.649967 0.677911 0.114394
0.687677 0.679227 0.116488
0.724438 0.680829 0.119417
0.762119 0.682943 0.122506
0.787352 0.684727 0.125616
0.804956 0.686487 0.129478
0.815706 0.688474 0.134937
0.822414 0.690487 0.146918
0.087450 0.685163 0.084412
0.087522 0.685200 0.084445
0.087788 0.685342 0.084564
0.088309 0.685637 0.084790
0.089173 0.686167 0.085140
0.090527 0.687073 0.085641
0.092630 0.688593 0.086327
0.095659 0.690443 0.087116
0.099560 0.691381 0.087764
0.106579 0.693017 0.088970
0.114123 0.693967 0.090079
0.125289 0.695113 0.091305
0.137341 0.695722 0.092415
0.153865 0.696322 0.093626
0.174415 0.696636 0.095133
0.199015 0.696647 0.096520
0.230556 0.696602 0.097942
0.268918 0.696472 0.099316
0.307103 0.696329 0.101069
0.349615 0.696192 0.103149
0.394712 0.696145 0.105228
0.445192 0.696297 0.107262
0.495342 0.696690 0.109333
0.545419 0.697307 0.111393
0.589148 0.697757 0.113618
0.632401 0.699064 0.116609
0.673430 0.700414 0.118748
0.710246 0.701727 0.121649
0.749408 0.703697 0.124600
0.780890 0.705576 0.127776
0.801593 0.707451 0.131277
0.814371 0.709173 0.136483
0.822084 0.711691 0.147161
0.089795 0.706884 0.084972
0.089862 0.706921 0.085003
0.090109 0.707059 0.085117
0.090590 0.707337 0.085331
0.091380 0.707816 0.085664
0.092605 0.708594 0.086140
0.094554 0.709840 0.086790
0.098326 0.711833 0.087663
0.102455 0.712579 0.088474
0.108558 0.713794 0.089656
0.116726 0.715053 0.090902
0.126270 0.715806 0.092029
0.138691 0.716588 0.093217
0.154433 0.717171 0.094740
0.172699 0.717429 0.096196
0.196605 0.717572 0.097663
0.226783 0.717557 0.099105
0.263384 0.717404 0.100827
0.300044 0.717235 0.102974
0.340877 0.717096 0.105116
0.382955 0.717022 0.107187
0.430384 0.717086 0.109238
0.480873 0.717274 0.111252
0.527684 0.717812 0.113345
0.574993 0.718543 0.115532
0.616176 0.719414 0.118797
0.660067 0.720997 0.120865
0.696176 0.721941 0.123681
0.736142 0.723820 0.126610
0.773489 0.725601 0.129559
0.797534 0.727690 0.133062
0.812839 0.729490 0.138154
0.821710 0.731884 0.147711
0.092069 0.727833 0.085475
0.092132 0.727871 0.085505
0.092361 0.728011 0.085614
0.092806 0.728286 0.085821
0.093534 0.728740 0.086141
0.094750 0.729444 0.086600
0.096706 0.730517 0.087227
0.101020 0.732158 0.088167
0.105585 0.733276 0.089271
0.110987 0.734256 0.090380
0.119907 0.735745 0.091781
0.128259 0.736302 0.092828
0.141170 0.737171 0.094346
0.154824 0.737556 0.095823
0.173418 0.737955 0.097418
0.196132 0.738111 0.098902
0.223792 0.738122 0.100550
0.258282 0.737995 0.102829
0.294052 0.737778 0.105047
0.333144 0.737605 0.107225
0.373584 0.737485 0.109364
0.418533 0.737488 0.111460
0.469207 0.737607 0.113504
0.512952 0.737880 0.115645
0.562164 0.738540 0.118223
0.601338 0.739377 0.120787
0.645690 0.741111 0.122779
0.682804 0.741637 0.125604
0.722614 0.742960 0.128362
0.762854 0.744229 0.131278
0.792418 0.745808 0.134594
0.810998 0.747372 0.139781
0.821522 0.749212 0.148522
0.094327 0.750268 0.085295
0.094390 0.750286 0.085324
0.094618 0.750352 0.085432
0.095063 0.750477 0.085637
0.095790 0.750679 0.085957
0.096911 0.750985 0.086418
0.099356 0.751445 0.087056
0.103389 0.752158 0.087945
0.108379 0.752893 0.089328
0.113126 0.753319 0.090398
0.121017 0.753968 0.091754
0.129965 0.754450 0.093013
0.141125 0.754777 0.094501
0.155285 0.755034 0.096160
0.172554 0.755140 0.097771
0.193553 0.755172 0.099281
0.220651 0.755133 0.101303
0.253432 0.754990 0.103625
0.287407 0.754780 0.105858
0.324144 0.754587 0.108059
0.363324 0.754455 0.110219
0.405980 0.754409 0.112339
0.454113 0.754483 0.114419
0.499337 0.754701 0.116792
