negative-ultramax-400/Ultramax400_Modern_Punchy.cube
TITLE "Kodak Ultramax 400 Modern Punchy"
# Adobe RGB in/out. REPLACES AgX. Kodak Ultramax 400 Modern Punchy.
LUT_3D_SIZE 33
DOMAIN_MIN 0.0 0.0 0.0
DOMAIN_MAX 1.0 1.0 1.0
0.070208 0.083169 0.079619
0.083636 0.085520 0.079789
0.101841 0.089206 0.080612
0.125419 0.094025 0.081774
0.157417 0.099538 0.083210
0.205950 0.109953 0.085173
0.260885 0.121890 0.086864
0.312751 0.136731 0.088978
0.368111 0.155058 0.090831
0.424980 0.174542 0.093265
0.482503 0.196222 0.095992
0.534407 0.221197 0.098673
0.577039 0.246371 0.101619
0.618589 0.271769 0.104370
0.655398 0.297472 0.108268
0.681712 0.323898 0.112234
0.706874 0.350737 0.116662
0.730964 0.377581 0.121239
0.753400 0.403230 0.125646
0.768360 0.426077 0.129893
0.782598 0.448580 0.133989
0.796194 0.470767 0.138071
0.809216 0.488727 0.144193
0.821703 0.505267 0.150220
0.833686 0.521420 0.156150
0.845196 0.537194 0.161982
0.854557 0.552594 0.168029
0.861673 0.567629 0.174063
0.868256 0.582302 0.180001
0.874318 0.596620 0.185842
0.880133 0.608564 0.191582
0.885714 0.618053 0.197220
0.891072 0.627246 0.202756
0.073222 0.087593 0.079695
0.079557 0.087200 0.079776
0.095928 0.089989 0.080451
0.119715 0.094615 0.081532
0.151908 0.100352 0.083056
0.199255 0.110642 0.085020
0.254361 0.122409 0.086716
0.307202 0.137383 0.088835
0.363113 0.155856 0.090728
0.420645 0.175287 0.093124
0.478681 0.197120 0.095880
0.531864 0.222050 0.098558
0.574804 0.247182 0.101524
0.616603 0.272537 0.104284
0.654199 0.298228 0.108155
0.680650 0.324617 0.112135
0.705926 0.351434 0.116552
0.730112 0.378246 0.121139
0.752878 0.403777 0.125556
0.767890 0.426595 0.129812
0.782173 0.449072 0.133915
0.795809 0.471237 0.137964
0.808867 0.489074 0.144094
0.821384 0.505596 0.150128
0.833395 0.521734 0.156065
0.844929 0.537493 0.161903
0.854393 0.552881 0.167949
0.861522 0.567903 0.173989
0.868127 0.582566 0.179932
0.874200 0.596874 0.185776
0.880023 0.608735 0.191521
0.885612 0.618216 0.197163
0.890978 0.627403 0.202702
0.077395 0.094730 0.080316
0.083576 0.094300 0.080393
0.092567 0.093522 0.080572
0.108339 0.096002 0.081182
0.137760 0.102381 0.082704
0.180676 0.112528 0.084578
0.234642 0.124130 0.086294
0.289955 0.139580 0.088393
0.347052 0.158564 0.090399
0.406362 0.177846 0.092662
0.465868 0.200238 0.095510
0.523195 0.225029 0.098171
0.567115 0.250032 0.101199
0.609727 0.275245 0.104008
0.649732 0.300901 0.107766
0.676929 0.327171 0.111792
0.702594 0.353908 0.116167
0.727110 0.380608 0.120792
0.750565 0.405723 0.125241
0.766226 0.428441 0.129525
0.780666 0.450826 0.133653
0.794444 0.472916 0.137642
0.807626 0.490311 0.143743
0.820252 0.506774 0.149802
0.832359 0.522856 0.155761
0.843979 0.538566 0.161620
0.853807 0.553907 0.167667
0.860984 0.568887 0.173725
0.867668 0.583510 0.179685
0.873776 0.597782 0.185545
0.879632 0.609345 0.191303
0.885250 0.618801 0.196959
0.890643 0.627963 0.202511
0.082188 0.105844 0.081005
0.086664 0.105229 0.081081
0.097535 0.103803 0.081287
0.107486 0.102659 0.081649
0.125425 0.105904 0.082515
0.160095 0.115798 0.084138
0.210502 0.128032 0.085883
0.266681 0.143864 0.087824
0.323809 0.163182 0.089937
0.384556 0.182233 0.091976
0.445560 0.205655 0.094935
0.506491 0.230243 0.097612
0.554249 0.255051 0.100668
0.598045 0.280042 0.103547
0.639861 0.305662 0.107109
0.670447 0.331806 0.111206
0.696747 0.358346 0.115503
0.721812 0.384858 0.120188
0.745743 0.409229 0.124690
0.763257 0.431773 0.129021
0.777971 0.454002 0.133190
0.791996 0.475826 0.137220
0.805395 0.492558 0.143121
0.818213 0.508914 0.149222
0.830490 0.524900 0.155220
0.842262 0.540520 0.161115
0.852746 0.555779 0.167162
0.860009 0.570682 0.173251
0.866836 0.585235 0.179240
0.873008 0.599441 0.185127
0.878922 0.610461 0.190912
0.884592 0.619870 0.196592
0.890032 0.628989 0.202166
0.087203 0.125078 0.082428
0.091422 0.124316 0.082482
0.102379 0.122450 0.082646
0.115401 0.120253 0.082877
0.129610 0.118933 0.083194
0.151518 0.122183 0.084168
0.193248 0.134866 0.085694
0.245249 0.151302 0.087404
0.300855 0.169910 0.089515
0.360125 0.189331 0.091383
0.421468 0.213342 0.094293
0.483138 0.237630 0.097037
0.537669 0.262180 0.100013
0.582633 0.286878 0.102961
0.626131 0.312480 0.106255
0.661558 0.338473 0.110428
0.688639 0.364753 0.114610
0.714395 0.391014 0.119366
0.738940 0.414314 0.123932
0.759034 0.436621 0.128319
0.774121 0.458643 0.132544
0.788484 0.479281 0.136625
0.802183 0.495851 0.142243
0.815268 0.512058 0.148400
0.827783 0.527906 0.154450
0.839767 0.543399 0.160392
0.851201 0.558541 0.166437
0.858586 0.573335 0.172570
0.865618 0.587786 0.178599
0.871883 0.601898 0.184525
0.877880 0.612113 0.190345
0.883626 0.621454 0.196059
0.889135 0.630510 0.201665
0.096096 0.168113 0.084479
0.100060 0.166929 0.084517
0.111029 0.162809 0.084628
0.125836 0.155843 0.084756
0.142056 0.147443 0.084866
0.157946 0.143405 0.085182
0.185108 0.147075 0.085860
0.230544 0.162523 0.087349
0.282219 0.179398 0.089299
0.337752 0.200225 0.091102
0.397632 0.223510 0.093745
0.458699 0.247261 0.096493
0.519374 0.271400 0.099350
0.565085 0.295919 0.102337
0.609428 0.321287 0.105314
0.650899 0.347103 0.109545
0.678766 0.373066 0.113573
0.705249 0.398650 0.118393
0.730463 0.420934 0.123019
0.753708 0.442951 0.127466
0.769242 0.464734 0.131751
0.784006 0.483817 0.135889
0.798066 0.500185 0.141152
0.811476 0.516206 0.147371
0.824284 0.531881 0.153480
0.836533 0.547214 0.159478
0.848261 0.562206 0.165516
0.856728 0.576861 0.171700
0.863929 0.591182 0.177779
0.870407 0.604774 0.183751
0.876512 0.614314 0.189615
0.882355 0.623567 0.195370
0.887953 0.632540 0.201016
0.103882 0.220001 0.086248
0.107700 0.220783 0.086332
0.120040 0.214653 0.086376
0.136586 0.201847 0.086349
0.152736 0.187141 0.086319
0.172073 0.179039 0.086457
0.195164 0.176168 0.086865
0.222916 0.177869 0.087689
0.269647 0.194177 0.089374
0.320320 0.214712 0.091018
0.377063 0.236622 0.093431
0.436077 0.259451 0.096095
0.496423 0.282848 0.098796
0.547085 0.307205 0.101769
0.591760 0.332177 0.104596
0.635039 0.357660 0.108658
0.667765 0.383232 0.112706
0.694896 0.407105 0.117355
0.720740 0.429025 0.122026
0.745407 0.450725 0.126523
0.763526 0.472239 0.130864
0.778722 0.489403 0.135056
0.793176 0.505537 0.139908
0.806946 0.521340 0.146187
0.820083 0.536812 0.152355
0.832633 0.551955 0.158411
0.844635 0.566770 0.164436
0.854468 0.581259 0.170675
0.861832 0.595424 0.176807
0.868602 0.607640 0.182830
0.874833 0.617066 0.188743
0.880793 0.626211 0.194545
0.886497 0.635085 0.200235
0.112034 0.272076 0.088161
0.116138 0.272769 0.088265
0.128256 0.270199 0.088436
0.145121 0.255036 0.088285
0.163095 0.239210 0.088201
0.185519 0.226309 0.088279
0.208711 0.218191 0.088576
0.235425 0.215327 0.089101
0.264670 0.217133 0.089815
0.308977 0.233218 0.091157
0.361199 0.253175 0.093427
0.417098 0.274536 0.095925
0.475133 0.297048 0.098448
0.530069 0.320794 0.101343
0.574441 0.345293 0.104089
0.617934 0.370189 0.107867
0.656308 0.395252 0.111902
0.683909 0.417049 0.116347
0.710268 0.438551 0.121033
0.735502 0.459918 0.125564
0.757215 0.479825 0.129944
0.772833 0.496004 0.134179
0.787682 0.511873 0.138585
0.801821 0.527430 0.144914
0.815302 0.542673 0.151134
0.828170 0.557602 0.157243
0.840467 0.572215 0.163243
0.851856 0.586515 0.169536
0.859400 0.600502 0.175720
0.866500 0.611069 0.181795
0.872873 0.620362 0.187759
0.878963 0.629384 0.193610
0.884787 0.638141 0.199348
0.120976 0.328760 0.090101
0.124322 0.329420 0.090181
0.136911 0.324240 0.090228
0.152852 0.309538 0.090108
0.174127 0.293068 0.090025
0.197441 0.278384 0.090040
0.222309 0.267160 0.090202
0.248572 0.260324 0.090533
0.276470 0.258007 0.091029
0.306432 0.259718 0.091773
0.350078 0.273351 0.093738
0.402431 0.292890 0.096015
0.457476 0.314420 0.098362
0.514515 0.337109 0.101119
0.558488 0.360722 0.103774
0.601454 0.384809 0.107259
0.642890 0.407427 0.111231
0.672847 0.428505 0.115457
0.699578 0.449556 0.120128
0.725242 0.470532 0.124662
0.749878 0.487741 0.129057
0.766561 0.503597 0.133315
0.781778 0.519171 0.137439
0.796269 0.534454 0.143623
0.810084 0.549442 0.149880
0.823269 0.564132 0.156030
0.835864 0.578522 0.162070
0.847908 0.592611 0.168332
0.856683 0.605633 0.174563
0.864057 0.615046 0.180686
0.870668 0.624191 0.186698
0.876899 0.633074 0.192596
0.882853 0.641701 0.198381
0.131319 0.390470 0.092110
0.134830 0.388803 0.092116
0.145261 0.380108 0.091994
0.160861 0.366363 0.091830
0.184159 0.350049 0.091697
0.208473 0.333852 0.091675
0.234667 0.320030 0.091832
0.261141 0.309866 0.092213
0.288494 0.303817 0.092837
0.317288 0.301862 0.093689
0.349638 0.303576 0.094734
0.391855 0.315176 0.096355
0.443707 0.334996 0.098554
0.497945 0.356336 0.101128
0.544549 0.378658 0.103648
0.586513 0.400948 0.106896
0.628130 0.421184 0.110757
0.662247 0.441607 0.114774
0.689135 0.462111 0.119386
0.715046 0.480973 0.123886
0.739993 0.496690 0.128265
0.760133 0.512179 0.132521
0.775661 0.527418 0.136653
0.790463 0.542395 0.142389
0.804584 0.557101 0.148660
0.818065 0.571528 0.154833
0.830945 0.585672 0.160902
0.843261 0.599530 0.167118
0.853745 0.610318 0.173386
0.861295 0.619558 0.179547
0.868261 0.628540 0.185600
0.874637 0.637270 0.191542
0.880727 0.645753 0.197370
0.141235 0.439000 0.094621
0.144114 0.437064 0.094593
0.153355 0.430484 0.094503
0.170719 0.419739 0.094377
0.193530 0.406365 0.094263
0.218986 0.391610 0.094222
0.245781 0.376435 0.094305
0.272703 0.363873 0.094554
0.300035 0.354773 0.094993
0.328785 0.349460 0.095626
0.360240 0.347845 0.096439
0.393448 0.349570 0.097405
0.433513 0.358883 0.099005
0.484872 0.378451 0.101372
0.532908 0.398839 0.103727
0.573589 0.417592 0.106823
0.614292 0.436867 0.110537
0.652509 0.456486 0.114359
0.679321 0.476096 0.118868
0.705280 0.491462 0.123294
0.730368 0.506698 0.127624
0.753760 0.521761 0.131849
0.769524 0.536620 0.135964
0.784577 0.551253 0.141279
0.798956 0.565643 0.147539
0.812696 0.579779 0.153712
0.825834 0.593653 0.159790
0.838402 0.606235 0.165947
0.850433 0.615537 0.172237
0.858370 0.624589 0.178426
0.865701 0.633395 0.184509
0.872221 0.641960 0.190485
0.878447 0.650287 0.196349
0.150448 0.482938 0.096856
0.152959 0.481639 0.096835
0.162336 0.477172 0.096768
0.180395 0.468065 0.096671
0.202458 0.455690 0.096577
0.228687 0.442060 0.096531
0.255823 0.428647 0.096574
0.283179 0.416660 0.096740
0.310738 0.406954 0.097054
0.340006 0.400025 0.097526
0.370885 0.396011 0.098247
0.403142 0.394729 0.099237
0.436949 0.396448 0.100388
0.475026 0.402459 0.101835
0.523694 0.418995 0.104017
0.562954 0.436446 0.107066
0.602488 0.454597 0.110596
0.641363 0.473254 0.114251
0.670417 0.488410 0.118617
0.696229 0.503128 0.122931
0.721285 0.517802 0.127177
0.745561 0.532373 0.131341
0.763539 0.546795 0.135414
0.778770 0.561037 0.140357
0.793346 0.575073 0.146575
0.807298 0.588886 0.152722
0.820653 0.602462 0.158788
0.833442 0.612194 0.164873
0.845692 0.621278 0.171166
0.855342 0.630128 0.177366
0.862863 0.638745 0.183468
0.869694 0.647131 0.189465
0.876054 0.655291 0.195356
0.159662 0.517504 0.099186
0.162616 0.516388 0.099166
0.173051 0.512524 0.099102
0.189915 0.505953 0.099006
0.211839 0.497263 0.098911
0.237794 0.487328 0.098855
0.265002 0.477087 0.098882
0.292656 0.465114 0.099028
0.320599 0.454288 0.099320
0.350490 0.445697 0.099778
0.381169 0.439684 0.100409
0.412900 0.436354 0.101211
0.445941 0.435629 0.102172
0.480434 0.437302 0.103270
0.516764 0.441433 0.104535
0.554551 0.457505 0.107613
0.592784 0.474416 0.110940
0.631257 0.488198 0.114468
0.662596 0.502030 0.118656
0.688092 0.516008 0.122827
0.712956 0.530037 0.126958
0.737143 0.544043 0.131032
0.757853 0.557968 0.135035
0.773181 0.571766 0.139673
0.787887 0.585404 0.145820
0.801991 0.598855 0.151915
0.815516 0.609620 0.157943
0.828484 0.618685 0.163943
0.840920 0.627534 0.170220
0.852270 0.636165 0.176414
0.859930 0.644578 0.182516
0.867103 0.652774 0.188522
0.873588 0.660618 0.194427
0.171194 0.550664 0.101575
0.174003 0.549697 0.101561
0.183552 0.546330 0.101512
0.199280 0.540535 0.101438
0.221098 0.532730 0.101363
0.246474 0.523588 0.101316
0.273521 0.513877 0.101330
0.301311 0.504340 0.101436
0.330023 0.495615 0.101660
0.360243 0.488193 0.102020
0.391002 0.482414 0.102527
0.422541 0.478464 0.103184
0.455115 0.476395 0.103987
0.488918 0.476150 0.105029
0.522216 0.477592 0.106711
0.549393 0.480539 0.108589
0.585078 0.491506 0.111552
0.622365 0.504047 0.115004
0.655930 0.516957 0.118994
0.680980 0.530117 0.122996
0.705517 0.543426 0.126986
0.729485 0.556797 0.130944
0.752578 0.570160 0.134854
0.767924 0.583459 0.139267
0.782689 0.596650 0.145315
0.796883 0.607941 0.151329
0.810523 0.616916 0.157295
0.823625 0.625704 0.163201
0.836208 0.634299 0.169440
0.848291 0.642694 0.175607
0.856992 0.650889 0.181693
0.864433 0.658880 0.187692
0.871089 0.666066 0.193597
0.182518 0.582554 0.103791
0.185077 0.581712 0.103780
0.193849 0.578766 0.103744
0.209026 0.573647 0.103689
0.230238 0.566654 0.103632
0.254906 0.558303 0.103596
0.281615 0.549220 0.103608
0.309382 0.540038 0.103693
0.338796 0.531331 0.103872
0.369292 0.523572 0.104163
0.400239 0.517117 0.104622
0.431786 0.512202 0.105326
0.464137 0.508950 0.106422
0.497494 0.507383 0.107727
0.528171 0.507444 0.109225
0.554700 0.509014 0.110896
0.581728 0.511942 0.112716
0.615264 0.521189 0.115842
0.650271 0.533144 0.119622
0.674926 0.545437 0.123439
0.699036 0.557967 0.127269
0.722678 0.570642 0.131091
0.745802 0.583385 0.134886
0.763082 0.596130 0.139167
0.777837 0.607331 0.145089
0.792061 0.616116 0.150998
0.805761 0.624761 0.156878
0.818947 0.633249 0.162713
0.831634 0.641568 0.168860
0.843835 0.649710 0.174981
0.854094 0.657670 0.181033
0.861639 0.664937 0.187008
0.868597 0.671919 0.192897
0.193510 0.610443 0.106513
0.195854 0.609929 0.106501
0.203991 0.608121 0.106458
0.219086 0.604950 0.106393
0.239290 0.599161 0.106327
0.263162 0.591566 0.106289
0.289387 0.583144 0.106313
0.316973 0.574431 0.106431
0.346936 0.565933 0.106676
0.377640 0.558090 0.107073
0.408798 0.551253 0.107641
0.440459 0.545682 0.108393
0.472761 0.541543 0.109336
0.505877 0.538916 0.110470
0.534113 0.537804 0.111786
0.560125 0.538151 0.113272
0.586580 0.539856 0.115270
0.613476 0.542790 0.117505
0.644181 0.550504 0.120519
0.669897 0.561911 0.124144
0.693518 0.573628 0.127802
0.716758 0.585564 0.131473
0.739564 0.597638 0.135137
0.758710 0.608000 0.139389
0.773394 0.616470 0.145162
0.787589 0.624862 0.150944
0.801295 0.633150 0.156716
0.814518 0.641314 0.162460
0.827264 0.649337 0.168510
0.839545 0.657208 0.174565
0.851280 0.664452 0.180564
0.858907 0.671393 0.186498
0.866147 0.678169 0.192356
0.204241 0.630951 0.109668
0.206611 0.630505 0.109659
0.214853 0.628934 0.109629
0.229026 0.626163 0.109584
0.248244 0.622287 0.109541
0.271269 0.617512 0.109522
0.296900 0.612114 0.109554
0.324472 0.606400 0.109666
0.354523 0.599333 0.109884
0.385333 0.591589 0.110231
0.416666 0.584600 0.110724
0.448476 0.578630 0.111379
0.480832 0.573867 0.112201
0.513857 0.570429 0.113196
0.539863 0.568366 0.114576
0.565491 0.567671 0.116246
0.591486 0.568289 0.118111
0.617873 0.570132 0.120153
0.643764 0.573092 0.122352
0.665819 0.579451 0.125090
0.688921 0.590346 0.128572
0.711712 0.601519 0.132083
0.734144 0.610174 0.135606
0.754835 0.618182 0.139937
0.769397 0.626192 0.145544
0.783512 0.634167 0.151180
0.797176 0.642076 0.156825
0.810389 0.649894 0.162460
0.823153 0.657601 0.168410
0.835475 0.664695 0.174381
0.847361 0.671545 0.180310
0.856274 0.678252 0.186186
0.863653 0.684812 0.191998
0.215613 0.650431 0.112654
0.217813 0.650043 0.112648
0.225497 0.648673 0.112629
0.238820 0.646244 0.112601
0.257086 0.642821 0.112577
0.279240 0.638561 0.112576
0.304196 0.633683 0.112620
0.331744 0.628441 0.112732
0.361634 0.623094 0.112934
0.392438 0.617888 0.113246
0.423873 0.613042 0.113728
0.455817 0.608742 0.114457
0.488267 0.605130 0.115375
0.520139 0.601657 0.116489
0.545289 0.598856 0.117801
0.570649 0.597307 0.119307
0.596292 0.596995 0.121000
0.622267 0.597871 0.122867
0.647418 0.599855 0.124893
0.666275 0.602857 0.127060
0.685171 0.606776 0.129560
0.707494 0.614042 0.132909
0.729517 0.621445 0.136285
0.751195 0.628936 0.140806
0.765859 0.636471 0.146235
0.779853 0.644011 0.151711
0.793433 0.651522 0.157214
0.806595 0.658975 0.162724
0.819338 0.665770 0.168576
0.831663 0.672464 0.174446
0.843575 0.679047 0.180289
0.853767 0.685508 0.186092
0.861195 0.691838 0.191842
0.226672 0.668163 0.115990
0.228721 0.667851 0.115986
0.235903 0.666747 0.115973
0.248443 0.664782 0.115955
0.265799 0.661995 0.115948
0.287077 0.658451 0.115968
0.311304 0.654055 0.116038
0.338754 0.649270 0.116184
0.368338 0.644314 0.116429
0.399023 0.639403 0.116795
0.430470 0.634731 0.117301
0.462498 0.630472 0.117964
0.495041 0.626764 0.118796
0.525259 0.623715 0.119804
0.550303 0.621400 0.120992
0.575485 0.619863 0.122360
0.600875 0.619116 0.123904
0.626530 0.619147 0.125616
0.650957 0.619924 0.127485
0.668605 0.621399 0.129497
0.686237 0.623515 0.131637
0.704034 0.626386 0.133932
0.725635 0.633240 0.137158
0.746941 0.640216 0.141982
0.762777 0.647271 0.147227
0.776618 0.654365 0.152534
0.790080 0.661273 0.157883
0.803157 0.667788 0.163261
0.815845 0.674252 0.169014
0.828141 0.680644 0.174770
0.840047 0.686947 0.180512
0.851408 0.693149 0.186227
0.858868 0.699239 0.191903
0.237412 0.684353 0.119383
0.239326 0.684080 0.119381
0.246056 0.683114 0.119377
0.257874 0.681388 0.119375
0.274367 0.678927 0.119386
0.294776 0.675815 0.119426
0.318240 0.672179 0.119513
0.345515 0.668176 0.119667
0.374693 0.663975 0.119910
0.405151 0.659747 0.120260
0.436517 0.655365 0.120734
0.468559 0.651225 0.121348
0.501160 0.647520 0.122113
0.529878 0.644359 0.123037
0.554858 0.641822 0.124124
0.579925 0.639963 0.125378
0.605138 0.638810 0.126796
0.630555 0.638371 0.128374
0.653478 0.638630 0.130103
0.670872 0.639558 0.131973
0.688238 0.641113 0.133973
0.705576 0.643245 0.136089
0.722876 0.645902 0.138640
0.743358 0.651965 0.143448
0.760130 0.658544 0.148506
0.773796 0.664706 0.153639
0.787116 0.670859 0.158828
0.800081 0.677011 0.164114
0.812685 0.683137 0.169727
0.824923 0.689216 0.175356
0.836795 0.695230 0.180986
0.848300 0.701164 0.186602
0.856687 0.707004 0.192190
0.247829 0.699721 0.122618
0.249622 0.699482 0.122619
0.255941 0.698635 0.122622
0.267095 0.697117 0.122634
0.282771 0.694943 0.122662
0.302331 0.692176 0.122720
0.325368 0.688920 0.122823
0.352055 0.685301 0.122987
0.380744 0.681463 0.123232
0.410881 0.677550 0.123573
0.442072 0.673705 0.124025
0.474050 0.670056 0.124603
0.506656 0.666718 0.125317
0.534003 0.663786 0.126174
0.558935 0.661338 0.127181
0.583924 0.659429 0.128341
0.609016 0.658016 0.129653
0.634125 0.657211 0.131115
0.655826 0.657051 0.132721
0.673013 0.657519 0.134465
0.690155 0.658589 0.136338
0.707260 0.660128 0.138670
0.724326 0.662115 0.142006
0.741345 0.664539 0.145523
0.757888 0.669350 0.150054
0.771368 0.675063 0.155012
0.784529 0.680827 0.160037
0.797362 0.686615 0.165244
0.809860 0.692400 0.170710
0.822018 0.698161 0.176205
0.833831 0.703879 0.181713
0.845299 0.709536 0.187219
0.854666 0.715118 0.192710
0.257919 0.714313 0.125704
0.259603 0.714104 0.125706
0.265549 0.713359 0.125717
0.276090 0.712023 0.125740
0.290996 0.710102 0.125783
0.309732 0.707644 0.125857
0.332384 0.704732 0.125975
0.358394 0.701471 0.126151
0.386526 0.697979 0.126400
0.416259 0.694382 0.126737
0.447189 0.690803 0.127175
0.479024 0.687356 0.127727
0.511572 0.684148 0.128401
0.537655 0.681267 0.129207
0.562536 0.678788 0.130149
0.587464 0.676770 0.131231
0.612468 0.675254 0.132455
0.637213 0.674266 0.133819
0.657954 0.673816 0.135320
0.674976 0.673902 0.136953
0.691935 0.674510 0.139279
0.708842 0.675617 0.142266
0.725704 0.677192 0.145448
0.742518 0.679201 0.148813
0.756940 0.681607 0.152347
0.769304 0.685754 0.156636
0.782296 0.691138 0.161497
0.794984 0.696565 0.166640
0.807361 0.702010 0.171955
0.819420 0.707452 0.177310
0.831157 0.712869 0.182689
0.842568 0.718246 0.188078
0.852810 0.723565 0.193462
0.267680 0.728169 0.128645
0.269265 0.727985 0.128650
0.274871 0.727331 0.128666
0.284845 0.726154 0.128699
0.299026 0.724456 0.128755
0.316967 0.722275 0.128844
0.339258 0.719675 0.128976
0.364542 0.716745 0.129163
0.392067 0.713582 0.129419
0.421327 0.710294 0.129756
0.451918 0.706987 0.130185
0.483532 0.703764 0.130718
0.515952 0.700719 0.131364
0.540863 0.697936 0.132129
0.565677 0.695486 0.133019
0.590545 0.693427 0.134039
0.615478 0.691803 0.135189
0.639917 0.690646 0.136471
0.659830 0.689972 0.137964
0.676723 0.689788 0.140403
0.693533 0.690088 0.143050
0.710278 0.690859 0.145899
0.726966 0.692079 0.148940
0.743601 0.693722 0.152163
0.757551 0.695758 0.155557
0.768690 0.698155 0.159109
0.780391 0.701746 0.163190
0.792927 0.706822 0.168287
0.805172 0.711933 0.173450
0.817120 0.717058 0.178662
0.828766 0.722176 0.183908
0.840106 0.727271 0.189174
0.851121 0.732325 0.194446
0.277111 0.741325 0.131449
0.278605 0.741164 0.131455
0.283898 0.740588 0.131476
0.293349 0.739552 0.131518
0.306849 0.738052 0.131586
0.324325 0.736118 0.131688
0.345964 0.733803 0.131833
0.370508 0.731176 0.132032
0.397385 0.728323 0.132295
0.426116 0.725333 0.132634
0.456299 0.722298 0.133059
0.487620 0.719310 0.133579
0.519048 0.716452 0.134202
0.543661 0.713802 0.134936
0.568382 0.711426 0.135785
0.593179 0.709381 0.136754
0.618044 0.707711 0.137906
0.642224 0.706450 0.139829
0.661434 0.705620 0.141956
0.678225 0.705233 0.144286
0.694918 0.705291 0.146816
0.711530 0.705788 0.149541
0.728073 0.706710 0.152455
0.744555 0.708038 0.155548
0.758090 0.709748 0.158811
0.769119 0.711814 0.162234
0.780029 0.714208 0.165986
0.791164 0.717345 0.170169
0.803273 0.722132 0.175180
0.815103 0.726947 0.180249
0.826648 0.731770 0.185360
0.837904 0.736584 0.190500
0.848867 0.741373 0.195655
0.286208 0.753814 0.134120
0.287620 0.753672 0.134127
0.292627 0.753167 0.134153
0.301592 0.752254 0.134202
0.314451 0.750931 0.134280
0.331607 0.749220 0.134394
0.352496 0.747162 0.134551
0.376292 0.744815 0.134761
0.402495 0.742251 0.135033
0.430650 0.739545 0.135375
0.460368 0.736779 0.135799
0.491332 0.734030 0.136310
0.521643 0.731374 0.136918
0.546083 0.728882 0.137627
0.570681 0.726614 0.138856
0.595386 0.724625 0.140330
0.620176 0.722957 0.141991
0.644132 0.721647 0.143843
0.662757 0.720720 0.145887
0.679466 0.720190 0.148124
0.696064 0.720066 0.150553
0.712569 0.720346 0.153170
0.728994 0.721025 0.155969
0.745348 0.722088 0.158945
0.758536 0.723518 0.162088
0.769469 0.725294 0.165543
0.780285 0.727393 0.169237
0.790982 0.729791 0.173086
0.801640 0.732568 0.177130
0.813347 0.737084 0.182057
0.824785 0.741619 0.187033
0.835950 0.746159 0.192046
0.846837 0.750686 0.197081
0.294972 0.765665 0.136663
0.296308 0.765541 0.136671
0.301052 0.765097 0.136700
0.309566 0.764295 0.136756
0.322000 0.763130 0.136843
0.338717 0.761618 0.136968
0.358845 0.759794 0.137136
0.381894 0.757705 0.137356
0.407404 0.755410 0.137636
0.434949 0.752974 0.138127
0.464153 0.750467 0.138798
0.494702 0.747958 0.139602
0.523931 0.745513 0.140551
0.548161 0.743194 0.141655
0.572604 0.741060 0.142921
0.597192 0.739159 0.144358
0.621891 0.737535 0.145971
0.645647 0.736221 0.147763
0.663799 0.735245 0.149739
0.680437 0.734624 0.151898
0.696958 0.734371 0.154240
0.713376 0.734488 0.156762
0.729704 0.734975 0.159461
0.745953 0.735822 0.162331
0.758868 0.737017 0.165517
0.769721 0.738544 0.168933
0.780454 0.740386 0.172513
0.791070 0.742520 0.176248
0.801569 0.744926 0.180128
0.811948 0.747582 0.184145
0.823160 0.751691 0.188913
0.834229 0.755963 0.193799
0.845034 0.760234 0.198714
0.303403 0.776905 0.139869
0.304669 0.776796 0.139884
0.309169 0.776408 0.139936
0.317264 0.775704 0.140034
0.329540 0.774681 0.140185
0.345614 0.773349 0.140398
0.365004 0.771737 0.140683
0.387311 0.769884 0.141049
0.412118 0.767840 0.141509
0.439026 0.765659 0.142074
0.467677 0.763402 0.142756
0.497762 0.761128 0.143564
0.525944 0.758896 0.144510
0.549927 0.756763 0.145603
0.574180 0.754779 0.146850
0.598624 0.752992 0.148258
0.623210 0.751441 0.149833
0.646784 0.750161 0.151578
0.664565 0.749177 0.153497
0.681139 0.748510 0.155590
0.697592 0.748174 0.157858
0.713938 0.748176 0.160299
0.730186 0.748517 0.162910
0.746347 0.749193 0.165859
