negative-ultramax-400/Ultramax400_Classic_Soft.cube
TITLE "Kodak Ultramax 400 Classic Soft"
# Adobe RGB in/out. REPLACES AgX. Kodak Ultramax 400 Classic Soft.
LUT_3D_SIZE 33
DOMAIN_MIN 0.0 0.0 0.0
DOMAIN_MAX 1.0 1.0 1.0
0.061578 0.068299 0.085817
0.065557 0.069012 0.086066
0.067004 0.069219 0.086160
0.074828 0.070180 0.086405
0.100596 0.071707 0.086889
0.117932 0.072658 0.087228
0.180664 0.074385 0.087762
0.290525 0.076840 0.088716
0.357780 0.078177 0.089285
0.423395 0.080019 0.090050
0.500414 0.083636 0.091423
0.544993 0.085834 0.092348
0.580865 0.087863 0.093070
0.606288 0.090348 0.093949
0.631545 0.094313 0.095451
0.650277 0.096886 0.096663
0.666795 0.099414 0.097802
0.682165 0.102502 0.099139
0.696293 0.106301 0.100792
0.707074 0.108193 0.102265
0.714723 0.110188 0.103873
0.721243 0.113727 0.105754
0.727511 0.116527 0.107729
0.733669 0.116802 0.109685
0.738316 0.117230 0.112784
0.742499 0.116676 0.117443
0.747841 0.109515 0.125792
0.750741 0.107198 0.159677
0.757004 0.093925 0.447954
0.757003 0.093904 0.447915
0.757003 0.093903 0.447913
0.757003 0.093904 0.447912
0.760257 0.224992 0.569406
0.062136 0.070579 0.085968
0.063699 0.070659 0.086119
0.067080 0.069714 0.086114
0.075325 0.070646 0.086490
0.097931 0.072357 0.087010
0.113263 0.073057 0.087302
0.171395 0.074768 0.087860
0.280861 0.077271 0.088800
0.348678 0.078545 0.089354
0.417473 0.080431 0.090100
0.494909 0.083991 0.091477
0.541198 0.086202 0.092390
0.577768 0.088180 0.093104
0.604709 0.090627 0.093977
0.630348 0.094651 0.095493
0.649350 0.097244 0.096699
0.666083 0.099742 0.097832
0.681629 0.102836 0.099164
0.695895 0.106618 0.100822
0.706864 0.108491 0.102289
0.714568 0.110649 0.103891
0.721129 0.114175 0.105767
0.727428 0.116966 0.107735
0.733609 0.117218 0.109680
0.738274 0.117610 0.112755
0.742470 0.117090 0.117374
0.747820 0.109762 0.125525
0.750730 0.107390 0.158294
0.757004 0.093925 0.447955
0.757003 0.093904 0.447915
0.757003 0.093903 0.447913
0.757003 0.093904 0.447912
0.760258 0.224994 0.569406
0.062265 0.071344 0.086042
0.062685 0.071494 0.086207
0.064346 0.071470 0.086247
0.070008 0.072625 0.086692
0.084483 0.074411 0.087265
0.100684 0.074666 0.087483
0.143245 0.076578 0.088173
0.237093 0.079195 0.089160
0.304367 0.079971 0.089607
0.395595 0.082046 0.090282
0.474264 0.085330 0.091676
0.526774 0.087580 0.092543
0.565965 0.089357 0.093229
0.598639 0.091950 0.094080
0.625780 0.095965 0.095648
0.645823 0.098561 0.096829
0.663384 0.100949 0.097942
0.679601 0.104061 0.099256
0.694399 0.107779 0.100931
0.706076 0.109582 0.102378
0.713987 0.112342 0.103960
0.720704 0.115815 0.105814
0.727120 0.118488 0.107757
0.733388 0.118725 0.109666
0.738118 0.119136 0.112664
0.742361 0.118520 0.117139
0.747742 0.111077 0.124618
0.750686 0.108111 0.153526
0.757004 0.093927 0.447958
0.757003 0.093904 0.447916
0.757003 0.093903 0.447913
0.757003 0.093905 0.447912
0.760258 0.224999 0.569405
0.062921 0.075394 0.086335
0.063176 0.075598 0.086477
0.064487 0.075925 0.086718
0.067345 0.075811 0.086966
0.075908 0.078732 0.087603
0.085373 0.078043 0.087758
0.109057 0.079780 0.088564
0.173527 0.082732 0.089608
0.236472 0.083283 0.089989
0.336261 0.084939 0.090673
0.432013 0.088597 0.092055
0.493674 0.090375 0.092837
0.541534 0.092010 0.093467
0.585790 0.094670 0.094274
0.616157 0.098827 0.095943
0.638435 0.101150 0.097076
0.657771 0.103500 0.098150
0.675419 0.106425 0.099430
0.691338 0.110007 0.101139
0.704472 0.112723 0.102547
0.712812 0.115598 0.104092
0.719851 0.118890 0.105907
0.726504 0.121638 0.107806
0.732949 0.121807 0.109657
0.737809 0.122150 0.112538
0.742144 0.121488 0.116756
0.747589 0.113926 0.123156
0.750599 0.109564 0.146230
0.757004 0.093930 0.447965
0.757003 0.093905 0.447917
0.757003 0.093903 0.447914
0.757003 0.093907 0.447912
0.760258 0.225002 0.569405
0.063987 0.083974 0.086936
0.064242 0.084208 0.087111
0.065247 0.084929 0.087373
0.067913 0.085167 0.087668
0.072754 0.084988 0.088153
0.078312 0.083329 0.088319
0.093213 0.085139 0.089051
0.124909 0.088002 0.090090
0.171829 0.087831 0.090435
0.252862 0.089189 0.091263
0.379772 0.093115 0.092591
0.445915 0.094841 0.093273
0.502952 0.096455 0.093824
0.555119 0.099438 0.094605
0.598366 0.103877 0.096410
0.624774 0.105792 0.097465
0.647471 0.107670 0.098477
0.667833 0.110400 0.099704
0.685858 0.115885 0.101468
0.701336 0.118156 0.102818
0.710751 0.120818 0.104308
0.718371 0.124065 0.106064
0.725445 0.126390 0.107901
0.732197 0.126436 0.109682
0.737285 0.126639 0.112403
0.741777 0.126003 0.116293
0.747328 0.118463 0.121402
0.750449 0.113318 0.138351
0.757005 0.093938 0.447978
0.757003 0.093906 0.447918
0.757003 0.093904 0.447915
0.757004 0.093933 0.447912
0.760258 0.225003 0.569404
0.064511 0.088530 0.087294
0.064649 0.088653 0.087394
0.065407 0.089488 0.087573
0.067310 0.089983 0.088001
0.070297 0.090017 0.088362
0.075632 0.089829 0.088887
0.085810 0.092207 0.089695
0.105710 0.095628 0.090817
0.129738 0.094290 0.091128
0.183281 0.095379 0.091872
0.293576 0.099665 0.093125
0.390859 0.101249 0.093768
0.452402 0.102594 0.094284
0.517620 0.105199 0.095331
0.575601 0.109247 0.097005
0.606780 0.111905 0.097980
0.631806 0.115162 0.098927
0.654488 0.119789 0.100100
0.676172 0.124930 0.101949
0.694294 0.126467 0.103218
0.707208 0.128348 0.104631
0.715872 0.130854 0.106311
0.723682 0.132907 0.108067
0.730958 0.132792 0.109783
0.736430 0.132842 0.112318
0.741181 0.132134 0.115855
0.746903 0.125481 0.119719
0.750197 0.119706 0.131305
0.757005 0.093953 0.448003
0.757003 0.093907 0.447921
0.757003 0.093904 0.447916
0.760256 0.213445 0.447913
0.760258 0.225004 0.569404
0.065652 0.099401 0.087958
0.065819 0.099514 0.088077
0.066604 0.100513 0.088453
0.068015 0.101570 0.088881
0.070842 0.102098 0.089436
0.075345 0.102036 0.089905
0.082062 0.101722 0.090410
0.096835 0.106014 0.091727
0.111258 0.103539 0.091960
0.146455 0.104099 0.092584
0.224094 0.108333 0.093744
0.315532 0.109411 0.094330
0.398993 0.109824 0.094921
0.466364 0.113166 0.096097
0.536360 0.119638 0.097723
0.583545 0.122791 0.098642
0.613593 0.124720 0.099483
0.640953 0.128081 0.100568
0.665018 0.133116 0.102544
0.684708 0.138362 0.103745
0.701131 0.145004 0.105089
0.711497 0.150974 0.106683
0.720658 0.154350 0.108343
0.728861 0.153589 0.110025
0.735005 0.153204 0.112360
0.740195 0.151586 0.115573
0.746193 0.137016 0.118739
0.749768 0.129187 0.126782
0.757007 0.093992 0.448065
0.757004 0.093911 0.447928
0.757003 0.093906 0.447920
0.760258 0.213539 0.447915
0.760258 0.225004 0.569404
0.067144 0.116239 0.089060
0.067259 0.116392 0.089167
0.067909 0.118049 0.089590
0.069186 0.119790 0.090074
0.071921 0.121168 0.090568
0.076027 0.121738 0.091337
0.082143 0.121478 0.091941
0.091806 0.120926 0.092568
0.102542 0.115898 0.092739
0.124180 0.116054 0.093311
0.181515 0.122691 0.094393
0.250987 0.123277 0.095209
0.334772 0.123045 0.095892
0.414221 0.125787 0.096977
0.491569 0.131184 0.098496
0.546237 0.132947 0.099318
0.590573 0.136904 0.100114
0.621159 0.146011 0.101411
0.649633 0.155894 0.103290
0.673560 0.158278 0.104384
0.693274 0.162196 0.105635
0.707276 0.168289 0.107152
0.717074 0.174373 0.108737
0.725806 0.176750 0.110456
0.732464 0.180095 0.112626
0.738463 0.178125 0.115601
0.744918 0.166838 0.118446
0.748985 0.155221 0.124123
0.757013 0.094150 0.448278
0.757004 0.093925 0.447952
0.757003 0.093911 0.447930
0.760258 0.213544 0.447919
0.760258 0.225004 0.569404
0.067808 0.127262 0.089633
0.067910 0.127357 0.089711
0.068391 0.128316 0.090011
0.069500 0.130009 0.090445
0.071734 0.131483 0.091109
0.074935 0.132297 0.091738
0.079524 0.132567 0.092383
0.086905 0.132247 0.092927
0.097313 0.131795 0.093473
0.112757 0.131625 0.093998
0.154841 0.144402 0.095469
0.201198 0.143867 0.096288
0.275299 0.141493 0.096909
0.361903 0.146092 0.097887
0.443935 0.156332 0.099343
0.504910 0.158648 0.100088
0.556759 0.161351 0.100915
0.599505 0.167776 0.102325
0.632135 0.177440 0.104117
0.658283 0.180866 0.105144
0.680448 0.186274 0.106334
0.700586 0.192231 0.107746
0.712921 0.198818 0.109338
0.723038 0.200358 0.111002
0.730608 0.203751 0.113085
0.736780 0.207596 0.115898
0.743265 0.203199 0.118699
0.747550 0.200157 0.123653
0.757186 0.098865 0.450707
0.757010 0.094087 0.448199
0.757005 0.093946 0.447996
0.760258 0.213547 0.447939
0.760258 0.225004 0.569404
0.068796 0.152824 0.090385
0.068874 0.152972 0.090443
0.069334 0.154300 0.090774
0.070491 0.157747 0.091347
0.072358 0.160868 0.091955
0.075170 0.163405 0.092546
0.078907 0.164517 0.093129
0.085308 0.164563 0.093669
0.093993 0.163913 0.094175
0.106404 0.163099 0.094770
0.136124 0.176295 0.096599
0.177448 0.174981 0.097385
0.227310 0.171396 0.097901
0.306958 0.173983 0.098829
0.403305 0.184315 0.100218
0.461509 0.185510 0.101030
0.519333 0.187201 0.101997
0.572591 0.194737 0.103315
0.611510 0.209162 0.105047
0.640596 0.213160 0.105993
0.667389 0.217446 0.107064
0.689680 0.226673 0.108418
0.706657 0.237142 0.110183
0.718497 0.239088 0.111721
0.727663 0.240331 0.113737
0.734865 0.242611 0.116334
0.742060 0.236575 0.118842
0.746798 0.231772 0.123152
0.751670 0.218825 0.129391
0.755107 0.205700 0.150466
0.758699 0.178487 0.401549
0.760258 0.213760 0.451548
0.760258 0.225005 0.569404
0.070709 0.201634 0.091905
0.070817 0.201846 0.091972
0.071276 0.203431 0.092225
0.072403 0.209480 0.092719
0.074111 0.214540 0.093253
0.076594 0.218391 0.093806
0.080516 0.221386 0.094357
0.086527 0.222450 0.095156
0.094744 0.222183 0.096029
0.106524 0.221032 0.096891
0.125461 0.219940 0.097735
0.158276 0.216642 0.098422
0.193534 0.209808 0.098914
0.266531 0.212282 0.099767
0.358942 0.227275 0.101345
0.420408 0.226958 0.102248
0.478721 0.227095 0.103104
0.537094 0.234202 0.104337
0.589779 0.249870 0.106025
0.621065 0.251779 0.106881
0.650195 0.257499 0.107897
0.675866 0.268086 0.109268
0.699021 0.275167 0.111089
0.713574 0.277501 0.112527
0.723679 0.282869 0.114572
0.731668 0.289976 0.116996
0.740084 0.282716 0.119239
0.745591 0.276297 0.123068
0.750903 0.261961 0.128053
0.754679 0.243627 0.140282
0.758545 0.189523 0.329030
0.760258 0.214423 0.460228
0.760258 0.214667 0.463344
0.072047 0.247184 0.092785
0.072135 0.247385 0.092839
0.072498 0.248739 0.093042
0.073398 0.254186 0.093446
0.074942 0.259229 0.093912
0.077104 0.264772 0.094433
0.080747 0.269469 0.095337
0.085931 0.271311 0.096227
0.093135 0.271855 0.097085
0.103094 0.271417 0.097894
0.118146 0.270259 0.098679
0.144671 0.269231 0.099469
0.178510 0.259330 0.099865
0.231436 0.261955 0.100767
0.317302 0.276965 0.102633
0.388130 0.274758 0.103446
0.441548 0.273762 0.104267
0.502517 0.279575 0.105438
0.560698 0.293049 0.106995
0.600038 0.293675 0.107801
0.631084 0.299245 0.108791
0.660757 0.306440 0.110366
0.686498 0.315679 0.112119
0.706644 0.318929 0.113621
0.719226 0.320912 0.115534
0.728826 0.324838 0.117795
0.737792 0.324126 0.119973
0.743761 0.325059 0.123491
0.749557 0.318398 0.127800
0.753922 0.299407 0.135248
0.758178 0.227328 0.222147
0.760258 0.214434 0.460271
0.760258 0.214905 0.466288
0.073116 0.288284 0.093451
0.073190 0.288439 0.093497
0.073524 0.289418 0.093667
0.074379 0.293125 0.094001
0.075738 0.298449 0.094438
0.077593 0.303858 0.095240
0.080776 0.307922 0.096126
0.085354 0.310845 0.097011
0.091665 0.312526 0.097839
0.100196 0.312659 0.098625
0.112003 0.312032 0.099382
0.131389 0.310710 0.100095
0.164446 0.309824 0.100943
0.204677 0.311262 0.102055
0.284795 0.324136 0.103922
0.352528 0.321406 0.104673
0.410563 0.319391 0.105406
0.468873 0.323509 0.106547
0.530639 0.334680 0.108083
0.577861 0.333866 0.108775
0.611433 0.338233 0.109931
0.643178 0.347265 0.111537
0.671883 0.357490 0.113338
0.697895 0.358417 0.114775
0.713330 0.363080 0.116617
0.724306 0.369899 0.118792
0.735077 0.366788 0.120990
0.742118 0.365590 0.124132
0.748365 0.362639 0.127987
0.752904 0.358323 0.133777
0.756739 0.353786 0.149882
0.760258 0.214551 0.460325
0.760258 0.215302 0.470538
0.074648 0.335185 0.094254
0.074726 0.335359 0.094293
0.075034 0.336351 0.094439
0.075726 0.339814 0.094876
0.076978 0.347261 0.095650
0.078681 0.352771 0.096444
0.081753 0.356621 0.097268
0.086011 0.359776 0.098119
0.091727 0.361798 0.098941
0.099365 0.362447 0.099698
0.109620 0.362351 0.100415
0.126602 0.361778 0.101386
0.154578 0.360738 0.102351
0.185154 0.360018 0.103354
0.256478 0.372324 0.105137
0.318591 0.369181 0.105888
0.382557 0.365745 0.106561
0.437504 0.368840 0.107608
0.500687 0.379078 0.109160
0.548793 0.378105 0.110109
0.592114 0.380199 0.111252
0.624830 0.386317 0.112761
0.656259 0.393314 0.114653
0.684442 0.395660 0.116038
0.706161 0.400744 0.117783
0.719696 0.405343 0.119890
0.731599 0.406059 0.122191
0.739473 0.409123 0.125082
0.746845 0.404143 0.128446
0.752073 0.397272 0.133033
0.756303 0.389042 0.144034
0.759202 0.383833 0.217872
0.761067 0.388884 0.474333
0.076529 0.393807 0.095809
0.076598 0.393949 0.095873
0.076865 0.394659 0.096107
0.077448 0.396839 0.096562
0.078780 0.402558 0.097299
0.080780 0.405973 0.098013
0.083687 0.410667 0.098828
0.087760 0.414272 0.099618
0.093262 0.416957 0.100419
0.100672 0.418517 0.101439
0.110750 0.419129 0.102513
0.126875 0.418808 0.103488
0.153420 0.417967 0.104474
0.183385 0.416994 0.105397
0.234033 0.416165 0.106347
0.289886 0.411958 0.107021
0.354231 0.408291 0.107699
0.412758 0.410881 0.108709
0.472619 0.420664 0.110586
0.522477 0.418675 0.111452
0.569385 0.420244 0.112572
0.606846 0.426004 0.114259
0.639436 0.432350 0.116041
0.669213 0.435265 0.117356
0.696267 0.438941 0.118973
0.713394 0.445364 0.121393
0.727402 0.445994 0.123527
0.737000 0.446420 0.126158
0.744994 0.446707 0.129233
0.750721 0.446592 0.133160
0.755576 0.437501 0.141360
0.758861 0.424031 0.172417
0.761043 0.399841 0.465780
0.077739 0.433253 0.096872
0.077799 0.433381 0.096928
0.078071 0.433992 0.097133
0.078692 0.435782 0.097526
0.080116 0.440301 0.098159
0.082008 0.444396 0.098861
0.084912 0.448599 0.099675
0.088342 0.450823 0.100388
0.093368 0.453100 0.101393
0.100175 0.454923 0.102512
0.108967 0.455611 0.103507
0.122868 0.455698 0.104490
0.145250 0.455476 0.105447
0.176126 0.454764 0.106368
0.212779 0.454146 0.107251
0.270831 0.453623 0.108152
0.328128 0.450328 0.108773
0.392541 0.452004 0.110081
0.447313 0.459486 0.112026
0.496199 0.457572 0.112883
0.543896 0.457861 0.114079
0.589473 0.461794 0.115748
0.622519 0.466319 0.117468
0.653510 0.467760 0.118688
0.682666 0.470982 0.120478
0.706149 0.476266 0.122960
0.722463 0.476800 0.124924
0.733398 0.479681 0.127445
0.742837 0.479646 0.130226
0.749564 0.477458 0.133754
0.754740 0.475851 0.140628
0.758214 0.475702 0.157641
0.760888 0.442197 0.400073
0.079230 0.466180 0.097851
0.079312 0.466265 0.097901
0.079627 0.466659 0.098080
0.080287 0.467764 0.098424
0.081501 0.470452 0.098972
0.083310 0.474356 0.099666
0.085793 0.477161 0.100358
0.089033 0.480188 0.101319
0.093727 0.482865 0.102383
0.099865 0.484772 0.103432
0.107857 0.485971 0.104459
0.120046 0.486444 0.105423
0.139019 0.486451 0.106341
0.166529 0.486100 0.107256
0.195990 0.485453 0.108127
0.247621 0.484895 0.108977
0.302301 0.484545 0.110164
0.366464 0.486006 0.111493
0.424016 0.493003 0.113540
0.472475 0.490654 0.114455
0.521656 0.490725 0.115641
0.568786 0.494073 0.117236
0.606136 0.498446 0.118914
0.637447 0.499392 0.120234
0.667952 0.502813 0.122219
0.696151 0.507341 0.124560
0.716161 0.509209 0.126436
0.729366 0.511262 0.128759
0.740275 0.512514 0.131350
0.747807 0.513632 0.134835
0.753837 0.510812 0.140535
0.757820 0.507306 0.152046
0.760509 0.508725 0.249064
0.081244 0.501098 0.098980
0.081318 0.501182 0.099023
0.081598 0.501552 0.099183
0.082177 0.502522 0.099488
0.083213 0.504749 0.099969
0.085278 0.509283 0.100700
0.087331 0.511235 0.101570
0.090732 0.514974 0.102653
0.094911 0.517547 0.103673
0.100611 0.519470 0.104663
0.108119 0.521046 0.105677
0.119566 0.521923 0.106639
0.136793 0.522338 0.107586
0.162119 0.522054 0.108437
0.187173 0.521710 0.109461
0.234187 0.521141 0.110605
0.287664 0.520599 0.111722
0.348734 0.520420 0.112909
0.407799 0.526103 0.115137
0.451416 0.524322 0.116015
0.498930 0.523945 0.117142
0.546788 0.526128 0.118712
0.590633 0.528940 0.120639
0.621671 0.529333 0.122070
0.652974 0.531717 0.123995
0.683130 0.534670 0.126231
0.708995 0.536076 0.127988
0.724417 0.537678 0.130165
0.736911 0.539851 0.132628
0.746096 0.539306 0.136108
0.752778 0.539478 0.141135
0.757155 0.540415 0.149769
0.760304 0.537575 0.195267
0.083486 0.535478 0.100283
0.083567 0.535544 0.100323
0.083871 0.535816 0.100467
0.084489 0.536468 0.100812
0.085573 0.537846 0.101436
0.087409 0.540592 0.102344
0.089543 0.542492 0.103223
0.092884 0.544921 0.104247
0.096924 0.546741 0.105235
0.102573 0.548612 0.106263
0.109944 0.549870 0.107232
0.121455 0.550731 0.108216
0.137889 0.551066 0.109189
0.162199 0.551135 0.110404
0.184850 0.550889 0.111553
0.230170 0.550673 0.112763
0.282579 0.550361 0.114082
0.339384 0.549961 0.115345
0.392793 0.549962 0.116689
0.431400 0.548136 0.117520
0.478574 0.547773 0.118628
0.527271 0.549495 0.120382
0.573358 0.552047 0.122512
0.606758 0.552290 0.123897
0.638046 0.554183 0.125740
0.669402 0.557120 0.127924
0.700347 0.558317 0.129556
0.718378 0.560560 0.131653
0.733375 0.562015 0.134150
0.743814 0.563003 0.137606
0.751556 0.563853 0.142137
0.756651 0.563070 0.149012
0.760039 0.564783 0.175323
0.085367 0.557936 0.101200
0.085439 0.557990 0.101252
0.085709 0.558210 0.101442
0.086254 0.558729 0.101803
0.087194 0.559808 0.102370
0.088753 0.561923 0.103189
0.091145 0.564194 0.104103
0.093901 0.565859 0.105008
0.097999 0.568005 0.106021
0.103255 0.569799 0.107026
0.109717 0.570892 0.107950
0.120101 0.571825 0.108895
0.134578 0.572393 0.110140
0.157129 0.572626 0.111354
0.183214 0.572639 0.112534
0.216627 0.572376 0.113821
0.265069 0.572161 0.115165
0.315413 0.571982 0.116461
0.369394 0.571713 0.117685
0.416249 0.571847 0.118980
0.460914 0.571163 0.120223
0.508542 0.572856 0.122256
0.553892 0.575057 0.124377
0.592812 0.575195 0.125691
0.623844 0.576821 0.127487
0.655436 0.579376 0.129592
0.687664 0.580574 0.131136
0.711437 0.582903 0.133153
0.728831 0.584588 0.135984
0.741037 0.586133 0.139196
0.750210 0.586815 0.143255
0.755923 0.588103 0.149327
0.759808 0.588798 0.166244
0.087283 0.580963 0.102287
0.087349 0.581011 0.102336
0.087593 0.581206 0.102512
0.088080 0.581651 0.102844
0.088922 0.582542 0.103364
0.090550 0.584235 0.104113
0.092978 0.586827 0.105072
0.095338 0.588012 0.105882
0.099609 0.590435 0.106932
0.104058 0.591533 0.107810
0.110487 0.593020 0.108777
0.120615 0.594157 0.110016
0.133709 0.594707 0.111259
0.154523 0.594967 0.112437
0.179459 0.595109 0.113795
0.207930 0.595039 0.115138
0.252367 0.594779 0.116417
0.297735 0.594553 0.117700
0.354668 0.594488 0.118972
0.403008 0.594358 0.120390
0.443954 0.594601 0.122053
0.490427 0.595684 0.124040
0.536375 0.597803 0.126131
0.578946 0.597959 0.127451
0.610344 0.599259 0.129189
0.641921 0.601627 0.131263
0.674539 0.602773 0.132718
0.703797 0.604759 0.135142
0.723286 0.606942 0.137879
0.737879 0.608246 0.140787
0.748471 0.610057 0.144589
0.755211 0.610862 0.150023
0.759546 0.612711 0.163106
0.089371 0.604675 0.103502
0.089444 0.604726 0.103547
0.089716 0.604924 0.103711
0.090253 0.605352 0.104021
0.091158 0.606161 0.104504
0.092605 0.607617 0.105197
0.094914 0.610174 0.106150
0.097473 0.611469 0.106946
0.101083 0.613288 0.107892
0.105795 0.614884 0.108826
0.112363 0.616429 0.110101
0.121390 0.617344 0.111333
0.134167 0.618159 0.112596
0.154232 0.618612 0.114012
0.177686 0.618756 0.115364
0.203182 0.618823 0.116750
0.245109 0.618674 0.118043
0.289848 0.618470 0.119313
0.344654 0.618239 0.120904
0.393120 0.618265 0.122570
0.429882 0.618273 0.124155
0.474636 0.618591 0.125768
0.520913 0.620211 0.127824
0.561266 0.620436 0.129082
0.597732 0.621497 0.130818
0.628786 0.623586 0.132874
0.661453 0.624851 0.134668
0.692726 0.626649 0.137172
0.716916 0.628850 0.139784
0.733934 0.630389 0.142475
0.746509 0.632211 0.145971
0.754354 0.633569 0.151087
0.759242 0.636086 0.161798
0.091727 0.628823 0.104600
0.091795 0.628872 0.104643
0.092046 0.629060 0.104797
0.092540 0.629452 0.105089
0.093361 0.630164 0.105543
0.094658 0.631377 0.106192
0.096978 0.633410 0.107082
0.099700 0.635116 0.107956
0.102937 0.636464 0.108818
0.107860 0.638368 0.110155
0.113900 0.639358 0.111341
0.123130 0.640543 0.112634
0.136250 0.641517 0.114168
0.154498 0.641887 0.115555
0.176537 0.642085 0.116906
0.199669 0.642161 0.118260
0.239636 0.642135 0.119643
0.284849 0.641994 0.121357
0.334421 0.641815 0.123016
0.380642 0.641634 0.124646
0.419886 0.641731 0.126272
0.462374 0.641904 0.127865
0.505115 0.642320 0.129438
0.545511 0.642493 0.130659
0.586015 0.643295 0.132354
0.616304 0.644974 0.134832
0.648558 0.646277 0.136679
0.680533 0.647279 0.139115
0.709965 0.648589 0.141667
0.729191 0.649693 0.144217
0.744175 0.650781 0.147358
0.753311 0.652009 0.152401
0.759008 0.653251 0.161380
0.093785 0.649962 0.105215
0.093846 0.649985 0.105255
0.094072 0.650073 0.105401
0.094514 0.650256 0.105678
0.095266 0.650583 0.106107
0.096623 0.651143 0.106721
0.098727 0.652082 0.107561
0.101536 0.653224 0.108528
0.104542 0.653802 0.109460
0.109094 0.654811 0.110849
0.115150 0.655396 0.112054
0.124278 0.656101 0.113508
0.135546 0.656476 0.114928
0.153524 0.656845 0.116411
0.175002 0.657038 0.117836
0.195036 0.657045 0.119142
0.232097 0.657017 0.120803
0.275893 0.656937 0.122520
0.319751 0.656849 0.124209
0.366480 0.656765 0.125830
0.409622 0.656736 0.127438
0.447875 0.656830 0.129000
0.489398 0.657071 0.130579
0.531423 0.657451 0.132140
0.571830 0.657734 0.134042
0.604651 0.658556 0.136780
0.636132 0.659403 0.138561
0.668204 0.660228 0.140961
0.702180 0.661463 0.143386
0.723685 0.662641 0.145977
0.741314 0.663815 0.148812
0.752177 0.664893 0.153574
0.758727 0.666466 0.161560
0.095889 0.663460 0.105901
0.095956 0.663483 0.105939
0.096203 0.663570 0.106079
0.096685 0.663744 0.106341
0.097477 0.664043 0.106749
0.098703 0.664531 0.107332
0.100579 0.665310 0.108129
0.103730 0.666555 0.109289
0.106434 0.667021 0.110309
0.110555 0.667779 0.111594
0.117138 0.668565 0.112994
0.125093 0.669034 0.114434
0.137008 0.669522 0.115954
0.154146 0.669885 0.117465
0.173328 0.670045 0.118838
0.192006 0.670135 0.120455
0.227835 0.670125 0.122257
0.269525 0.670030 0.124020
0.310043 0.669925 0.125694
0.357879 0.669838 0.127352
0.401548 0.669792 0.128942
0.435835 0.669832 0.130508
0.476342 0.669949 0.132033
0.518270 0.670284 0.133764
0.557171 0.670740 0.135879
0.593732 0.671282 0.138601
0.624458 0.672266 0.140314
0.655962 0.672853 0.142633
0.690686 0.674021 0.145028
0.717373 0.675127 0.147424
0.737861 0.676423 0.150580
0.750876 0.677539 0.154837
0.758410 0.679021 0.161966
0.098166 0.676512 0.106517
0.098229 0.676535 0.106554
0.098458 0.676622 0.106688
0.098904 0.676793 0.106941
0.099631 0.677074 0.107334
0.100748 0.677510 0.107895
0.102516 0.678174 0.108663
0.105499 0.679190 0.109974
0.108457 0.679882 0.111176
0.112576 0.680488 0.112381
0.119790 0.681408 0.114117
0.126929 0.681752 0.115457
0.139695 0.682289 0.117092
0.154574 0.682526 0.118486
0.174029 0.682773 0.120148
0.191414 0.682869 0.122003
0.224443 0.682876 0.123803
0.263668 0.682797 0.125581
0.301864 0.682664 0.127298
0.350848 0.682556 0.128972
0.394233 0.682483 0.130603
0.426141 0.682485 0.132190
0.465951 0.682558 0.133927
0.505244 0.682727 0.135974
0.543906 0.683133 0.138124
0.583645 0.683650 0.140249
0.613476 0.684806 0.141891
0.644311 0.685223 0.144207
0.678948 0.686270 0.146453
0.710412 0.687273 0.148813
0.733506 0.688522 0.152096
0.749311 0.689759 0.156061
0.758250 0.691213 0.162564
0.100382 0.692047 0.106296
0.100436 0.692061 0.106332
0.100634 0.692113 0.106465
0.101019 0.692212 0.106715
0.101649 0.692372 0.107107
0.102718 0.692613 0.107672
0.104408 0.692977 0.108454
0.107040 0.693540 0.109732
0.110421 0.694120 0.111238
0.114385 0.694457 0.112400
0.120718 0.694969 0.114084
0.128530 0.695349 0.115694
0.139646 0.695607 0.117239
0.155078 0.695810 0.118804
0.173186 0.695894 0.120589
0.188185 0.695919 0.122476
0.220819 0.695889 0.124392
0.258113 0.695776 0.126199
0.293504 0.695609 0.127923
0.342922 0.695457 0.129609
0.382330 0.695354 0.131252
0.417283 0.695317 0.132853
0.455092 0.695375 0.134858
0.492997 0.695547 0.136932
