negative-ultramax-400/Ultramax400_Classic_Soft.cube
TITLE "Kodak Ultramax 400 Classic Soft"
# Adobe RGB in/out. REPLACES AgX. Kodak Ultramax 400 Classic Soft.
LUT_3D_SIZE 9
DOMAIN_MIN 0.0 0.0 0.0
DOMAIN_MAX 1.0 1.0 1.0
0.061578 0.068299 0.085817
0.100596 0.071707 0.086889
0.357780 0.078177 0.089285
0.580865 0.087863 0.093070
0.666795 0.099414 0.097802
0.714723 0.110188 0.103873
0.738316 0.117230 0.112784
0.757004 0.093925 0.447954
0.760257 0.224992 0.569406
0.063987 0.083974 0.086936
0.072754 0.084988 0.088153
0.171829 0.087831 0.090435
0.502952 0.096455 0.093824
0.647471 0.107670 0.098477
0.710751 0.120818 0.104308
0.737285 0.126639 0.112403
0.757005 0.093938 0.447978
0.760258 0.225003 0.569404
0.067808 0.127262 0.089633
0.071734 0.131483 0.091109
0.097313 0.131795 0.093473
0.275299 0.141493 0.096909
0.556759 0.161351 0.100915
0.680448 0.186274 0.106334
0.730608 0.203751 0.113085
0.757186 0.098865 0.450707
0.760258 0.225004 0.569404
0.073116 0.288284 0.093451
0.075738 0.298449 0.094438
0.091665 0.312526 0.097839
0.164446 0.309824 0.100943
0.410563 0.319391 0.105406
0.611433 0.338233 0.109931
0.713330 0.363080 0.116617
0.748365 0.362639 0.127987
0.760258 0.215302 0.470538
0.079230 0.466180 0.097851
0.081501 0.470452 0.098972
0.093727 0.482865 0.102383
0.139019 0.486451 0.106341
0.302301 0.484545 0.110164
0.521656 0.490725 0.115641
0.667952 0.502813 0.122219
0.740275 0.512514 0.131350
0.760509 0.508725 0.249064
0.087283 0.580963 0.102287
0.088922 0.582542 0.103364
0.099609 0.590435 0.106932
0.133709 0.594707 0.111259
0.252367 0.594779 0.116417
0.443954 0.594601 0.122053
0.610344 0.599259 0.129189
0.723286 0.606942 0.137879
0.759546 0.612711 0.163106
0.095889 0.663460 0.105901
0.097477 0.664043 0.106749
0.106434 0.667021 0.110309
0.137008 0.669522 0.115954
0.227835 0.670125 0.122257
0.401548 0.669792 0.128942
0.557171 0.670740 0.135879
0.690686 0.674021 0.145028
0.758410 0.679021 0.161966
0.105022 0.721728 0.104515
0.105820 0.721331 0.105261
0.114046 0.719870 0.110253
0.141715 0.720109 0.117181
0.214102 0.719762 0.125127
0.364849 0.718835 0.132522
0.508824 0.718878 0.140881
0.644615 0.721264 0.148994
0.757922 0.725170 0.162687
0.106054 0.737186 0.100362
0.106054 0.737188 0.100362
0.123466 0.756838 0.100375
0.123908 0.758016 0.107018
0.188319 0.764163 0.114777
0.330025 0.761185 0.124830
0.463377 0.759912 0.132633
0.595019 0.761188 0.139540
0.760648 0.765206 0.143398
0.062418 0.071421 0.101998
0.094896 0.076928 0.143746
0.401116 0.081221 0.112420
0.602988 0.090446 0.109992
0.674927 0.101568 0.108604
0.715787 0.112390 0.111600
0.738301 0.119189 0.122105
0.757004 0.093937 0.447981
0.760258 0.225003 0.569407
0.066056 0.083857 0.101053
0.084739 0.088879 0.107410
0.284197 0.090536 0.106730
0.564150 0.100039 0.108607
0.661223 0.109832 0.108779
0.712488 0.122956 0.111800
0.737344 0.128285 0.120764
0.757005 0.093958 0.448017
0.760258 0.225004 0.569405
0.070320 0.125270 0.101728
0.075971 0.128280 0.103353
0.115197 0.130931 0.106014
0.381860 0.147333 0.108951
0.597485 0.166806 0.110860
0.690022 0.190289 0.113843
0.731433 0.206725 0.120486
0.757239 0.100309 0.451820
0.760258 0.225004 0.569404
0.075641 0.281148 0.103809
0.078723 0.289166 0.105212
0.099277 0.302585 0.108124
0.195167 0.306059 0.111571
0.455201 0.320853 0.114855
0.629796 0.341415 0.118030
0.716734 0.364299 0.124265
0.748538 0.364083 0.136012
0.760258 0.225029 0.569401
0.081391 0.460749 0.105476
0.084007 0.464848 0.106729
0.098318 0.476376 0.110317
0.155508 0.481339 0.114986
0.344713 0.482273 0.119665
0.543623 0.490280 0.124274
0.678584 0.502974 0.130023
0.741283 0.512558 0.139479
0.760492 0.511062 0.299602
0.088651 0.577895 0.107684
0.090758 0.579536 0.108660
0.102385 0.587053 0.112982
0.142778 0.591576 0.118398
0.272720 0.592525 0.124596
0.462470 0.593414 0.130734
0.620331 0.598808 0.137367
0.726459 0.606682 0.146029
0.759588 0.613122 0.176010
0.097056 0.662384 0.109993
0.098761 0.662962 0.111114
0.108319 0.665832 0.115756
0.142682 0.668315 0.122185
0.239268 0.669096 0.129307
0.410176 0.669088 0.136583
0.568106 0.670325 0.144720
0.697508 0.673820 0.153534
0.758616 0.679037 0.171880
0.105461 0.720878 0.107047
0.106389 0.720550 0.107897
0.115475 0.719275 0.114440
0.145203 0.719514 0.122443
0.220963 0.719221 0.130947
0.372690 0.718431 0.139902
0.516098 0.718647 0.148335
0.650250 0.721129 0.157994
0.758398 0.725127 0.171980
0.107603 0.742897 0.128184
0.107604 0.742899 0.128184
0.125431 0.762039 0.128185
0.125433 0.762039 0.128181
0.191319 0.764107 0.118321
0.334826 0.761137 0.129771
0.466419 0.759918 0.139096
0.597602 0.761229 0.146149
0.762177 0.765221 0.149866
0.063572 0.077327 0.144238
0.084416 0.088822 0.372863
0.357479 0.092378 0.338784
0.599274 0.100466 0.297738
0.676969 0.110569 0.270171
0.716617 0.125042 0.289277
0.738112 0.131625 0.350684
0.757103 0.097093 0.462465
0.760258 0.225007 0.569427
0.067345 0.088567 0.146537
0.080574 0.092705 0.191482
0.282814 0.098495 0.225200
0.574901 0.107559 0.223255
0.667745 0.120880 0.223334
0.714268 0.132768 0.249024
0.737330 0.146260 0.314862
0.757141 0.098232 0.464336
0.760258 0.225005 0.569408
0.073553 0.126746 0.141659
0.080574 0.129529 0.145375
0.162931 0.155343 0.167631
0.454632 0.157730 0.168684
0.627832 0.180202 0.179844
0.702385 0.208976 0.196523
0.733056 0.224429 0.221159
0.756818 0.130015 0.463013
0.760258 0.225004 0.569405
0.080254 0.278493 0.144084
0.085459 0.284774 0.146135
0.114678 0.297520 0.152134
0.282551 0.307301 0.159390
0.536986 0.328447 0.168708
0.664641 0.356462 0.182166
0.723305 0.373354 0.193640
0.749072 0.373333 0.253203
0.760258 0.225008 0.569407
0.087780 0.457497 0.146091
0.091622 0.460670 0.147817
0.111191 0.469596 0.153683
0.195436 0.476030 0.160852
0.416084 0.480930 0.168089
0.600922 0.493113 0.180883
0.703082 0.506990 0.189917
0.743986 0.515060 0.215243
0.760429 0.520305 0.464976
0.095702 0.574665 0.149396
0.098740 0.576060 0.151169
0.115046 0.581764 0.157290
0.176502 0.586321 0.164765
0.341897 0.588922 0.174032
0.519448 0.591978 0.184256
0.653921 0.599082 0.193290
0.734383 0.607031 0.211354
0.759729 0.615256 0.285729
0.103391 0.660168 0.148322
0.105774 0.660718 0.149944
0.119635 0.663119 0.156452
0.167471 0.665415 0.164937
0.286002 0.666636 0.175678
0.449530 0.667517 0.186960
0.600131 0.669552 0.198145
0.714755 0.673511 0.214219
0.759230 0.679303 0.240615
0.110033 0.715891 0.144617
0.111987 0.715985 0.146271
0.125076 0.716431 0.155231
0.163902 0.717136 0.165385
0.255046 0.717226 0.178317
0.405097 0.717002 0.190790
0.544055 0.717863 0.202742
0.673353 0.720679 0.215879
0.759624 0.725071 0.230059
0.107604 0.742899 0.128188
0.125431 0.762038 0.128187
0.125432 0.762039 0.128186
0.125448 0.762042 0.128187
0.208971 0.763341 0.145810
0.352032 0.760686 0.164877
0.480509 0.759747 0.179727
0.609277 0.761229 0.190558
0.763604 0.765248 0.196671
0.064952 0.086781 0.267577
0.074486 0.099558 0.487513
0.291289 0.106762 0.522887
0.582218 0.115234 0.514851
0.670914 0.128732 0.513124
0.714892 0.149371 0.519783
0.737215 0.162289 0.542922
0.754359 0.131724 0.592289
0.760258 0.228375 0.598350
0.068149 0.097500 0.283591
0.077205 0.105300 0.409694
0.239811 0.114968 0.488860
0.555306 0.124909 0.487486
0.663039 0.141895 0.491933
0.712822 0.163625 0.504464
0.736490 0.175939 0.532784
0.754069 0.144283 0.588493
0.760258 0.228413 0.598621
0.076145 0.142164 0.267322
0.083575 0.149702 0.290160
0.157716 0.163364 0.356519
0.463672 0.178155 0.393119
0.631722 0.206908 0.417053
0.703186 0.239468 0.444330
0.732864 0.259654 0.486091
0.751664 0.249391 0.556728
0.760258 0.228550 0.599606
0.084448 0.285900 0.254001
0.090502 0.292110 0.260729
0.128099 0.306553 0.283862
0.354260 0.340289 0.333066
0.569692 0.346532 0.342666
0.675416 0.371129 0.369058
0.725416 0.389643 0.411429
0.748992 0.394831 0.495955
0.760258 0.228619 0.599902
0.093767 0.458412 0.257632
0.098603 0.461177 0.261231
0.125830 0.469637 0.274545
0.245368 0.477300 0.293207
0.466209 0.484848 0.313494
0.626702 0.499187 0.334793
0.711167 0.513881 0.359937
0.745088 0.523140 0.416831
0.760309 0.531170 0.578925
0.102665 0.573330 0.260246
0.106525 0.574635 0.263034
0.129734 0.579712 0.273874
0.206448 0.584415 0.288827
0.393752 0.588224 0.306128
0.562004 0.592840 0.322995
0.678427 0.601151 0.342217
0.738401 0.609197 0.371693
0.759802 0.621139 0.516643
0.110745 0.658784 0.262080
0.114426 0.659302 0.264477
0.133873 0.661433 0.274224
0.188848 0.663704 0.288515
0.337175 0.665322 0.304885
0.491283 0.666927 0.321130
0.627685 0.669653 0.336162
0.725499 0.673973 0.355279
0.759681 0.680766 0.436795
0.116953 0.713610 0.259236
0.119817 0.713820 0.261400
0.137189 0.714663 0.272005
0.183194 0.715494 0.286038
0.288525 0.715935 0.302532
0.431762 0.716260 0.318826
0.574859 0.717624 0.332929
0.696160 0.720756 0.347711
0.760530 0.725694 0.387882
0.114453 0.752594 0.285719
0.125428 0.763579 0.285719
0.125431 0.763582 0.285718
0.149315 0.767318 0.225426
0.238997 0.761432 0.287638
0.376155 0.759795 0.305605
0.502243 0.759453 0.320913
0.626966 0.761169 0.332193
0.764170 0.765564 0.345765
0.066785 0.099680 0.460053
0.071318 0.108619 0.548529
0.206459 0.126205 0.610812
0.554412 0.136784 0.611284
0.662085 0.158490 0.611535
0.712339 0.180052 0.616228
0.735970 0.195851 0.625766
0.752699 0.175281 0.642994
0.760258 0.237757 0.660143
0.068838 0.108850 0.470231
0.074553 0.118874 0.536538
0.183289 0.136075 0.601250
0.533106 0.154527 0.604264
0.654968 0.173969 0.605749
0.710406 0.197401 0.611804
0.735282 0.215005 0.622637
0.752461 0.189304 0.641460
0.760258 0.237461 0.658331
0.077462 0.168111 0.468194
0.084113 0.176032 0.492945
0.151398 0.199960 0.555049
0.457402 0.221846 0.574251
0.627969 0.248084 0.582318
0.701816 0.280211 0.593590
0.732059 0.298836 0.608745
0.750884 0.295155 0.632276
0.760258 0.236535 0.652568
0.088118 0.313886 0.450956
0.094365 0.319174 0.459078
0.138761 0.334912 0.489277
0.359158 0.355287 0.521279
0.579871 0.371807 0.539122
0.678502 0.395349 0.557721
0.725689 0.414984 0.580856
0.748680 0.421955 0.613724
0.760916 0.365374 0.652619
0.098678 0.464839 0.438740
0.104195 0.467765 0.443044
0.138743 0.476497 0.457866
0.280202 0.485706 0.477527
0.502897 0.505025 0.506353
0.639650 0.510931 0.518587
0.714477 0.525603 0.541901
0.745418 0.533424 0.581533
0.760147 0.542501 0.642525
0.108987 0.575365 0.438205
0.114200 0.576641 0.440435
0.145715 0.581494 0.449990
0.240463 0.586526 0.462060
0.421882 0.591362 0.476534
0.589024 0.597052 0.491226
0.691802 0.606028 0.510945
0.740407 0.614713 0.540485
0.759773 0.628759 0.622979
0.118889 0.658949 0.440222
0.123461 0.659476 0.441615
0.150163 0.661496 0.447831
0.218839 0.663822 0.456862
0.371315 0.665804 0.467483
0.524036 0.667952 0.479248
0.648124 0.671190 0.491817
0.731366 0.675679 0.510908
0.759874 0.683830 0.588884
0.123746 0.713128 0.445202
0.127274 0.713340 0.445766
0.150007 0.714143 0.449638
0.197614 0.715081 0.455371
0.319458 0.715769 0.462985
0.459671 0.716530 0.472006
0.595780 0.718308 0.481703
0.710158 0.721763 0.492702
0.761012 0.727470 0.540119
0.116998 0.756065 0.529327
0.118627 0.757671 0.529326
0.122506 0.761453 0.529324
0.167149 0.762457 0.465569
0.257699 0.760987 0.466778
0.396410 0.759830 0.471280
0.519347 0.759781 0.476864
0.641137 0.761710 0.482980
0.764472 0.766940 0.505006
0.068427 0.118597 0.593783
0.071301 0.126618 0.633059
0.165779 0.159061 0.672901
0.524365 0.174677 0.674516
0.654050 0.196194 0.675457
0.709744 0.222659 0.677570
0.734704 0.242597 0.681558
0.751723 0.226681 0.688270
0.760258 0.243370 0.689933
0.070067 0.128384 0.598686
0.073459 0.137095 0.631604
0.157712 0.173159 0.669823
0.506263 0.189801 0.672517
0.648114 0.215909 0.673982
0.707972 0.243146 0.676329
0.734070 0.262925 0.680709
0.751505 0.246284 0.687792
0.760258 0.243370 0.689933
0.078713 0.206560 0.604054
0.083856 0.216479 0.620332
0.146101 0.251023 0.654633
0.441834 0.273021 0.662968
0.624194 0.295992 0.666549
0.699712 0.319314 0.670713
0.731227 0.335713 0.676853
0.750251 0.335761 0.685164
0.760258 0.243376 0.689932
0.090638 0.346745 0.590198
0.096240 0.353733 0.597887
0.145267 0.372708 0.625298
0.365901 0.389049 0.643593
0.584362 0.405769 0.651927
0.679456 0.424408 0.658779
0.725638 0.443561 0.668034
0.748370 0.449423 0.680152
0.760736 0.410342 0.690015
0.102980 0.481369 0.575125
0.108514 0.484066 0.579215
0.151524 0.494435 0.595610
0.299391 0.505133 0.614214
0.514520 0.515832 0.629382
0.646533 0.526783 0.639957
0.716149 0.537540 0.652382
0.745593 0.545416 0.670236
0.760005 0.554870 0.690720
0.114798 0.580966 0.566487
0.121024 0.582334 0.568461
0.158402 0.587245 0.576765
0.265873 0.592744 0.590469
0.444833 0.598392 0.604111
0.604067 0.607889 0.618872
0.699291 0.614116 0.631334
0.741514 0.623243 0.651850
0.759766 0.637217 0.685641
0.125570 0.661039 0.563819
0.131103 0.661541 0.564724
0.162593 0.663505 0.569023
0.241948 0.665911 0.576941
0.398625 0.668192 0.587862
0.545266 0.670719 0.598494
0.661781 0.674325 0.609194
0.734568 0.679013 0.626669
0.760006 0.687716 0.675119
0.128917 0.714489 0.565892
0.132964 0.714693 0.566067
0.159220 0.715436 0.567660
0.214462 0.716349 0.571235
0.344700 0.717177 0.577329
0.478336 0.718225 0.585158
0.609445 0.720287 0.593481
0.717620 0.723946 0.602460
0.761263 0.730415 0.650560
0.118052 0.757353 0.568194
0.119501 0.758771 0.570181
0.122765 0.762005 0.577816
0.170791 0.763585 0.577818
0.267327 0.762016 0.577184
0.403269 0.761026 0.579477
0.527878 0.761198 0.583090
0.649426 0.763196 0.587067
0.764599 0.769202 0.626202
0.070426 0.155377 0.690773
0.072666 0.163792 0.709057
0.128159 0.198093 0.721570
0.503518 0.220033 0.722353
0.649484 0.246614 0.722941
0.708415 0.273338 0.723763
0.734117 0.288970 0.725210
0.751198 0.279062 0.727055
0.760257 0.252383 0.725496
0.071940 0.169292 0.692900
0.074379 0.177170 0.708409
0.129159 0.216032 0.721115
0.488713 0.238778 0.722081
0.644643 0.266055 0.722736
0.706943 0.290674 0.723599
0.733543 0.306929 0.725094
0.751005 0.296895 0.727039
0.760257 0.252284 0.725261
0.079825 0.257649 0.696947
0.083864 0.265559 0.705295
0.134887 0.295381 0.717865
0.437129 0.315657 0.720586
0.624670 0.334753 0.721630
0.699859 0.359185 0.722734
0.731059 0.373154 0.724473
0.749983 0.374735 0.726767
0.760254 0.251685 0.724188
0.092655 0.384275 0.689176
0.097728 0.388605 0.694800
0.145745 0.406887 0.708560
0.376077 0.422861 0.715520
0.590259 0.439259 0.718689
0.682442 0.453749 0.720810
0.726273 0.465111 0.723045
0.748408 0.470779 0.726124
0.760387 0.463563 0.728303
0.106316 0.503189 0.676487
0.111941 0.505795 0.680233
0.158022 0.516589 0.692983
0.321173 0.526499 0.704487
0.530596 0.533909 0.711203
0.654212 0.542072 0.715613
0.718205 0.550057 0.720162
0.746070 0.557202 0.724483
0.759979 0.566918 0.729072
0.120136 0.591521 0.663580
0.126570 0.592845 0.666075
0.167596 0.598088 0.675664
0.286089 0.604354 0.687738
0.466478 0.610348 0.698331
0.614621 0.616892 0.705845
0.704645 0.624281 0.712584
0.742637 0.632541 0.720957
0.759872 0.645517 0.728834
0.130305 0.665175 0.654090
0.136798 0.665690 0.655353
0.170766 0.667639 0.660726
0.258280 0.670113 0.670195
0.411593 0.672656 0.680832
0.561740 0.675425 0.690389
0.671264 0.679078 0.698348
0.736864 0.683629 0.710590
0.760231 0.691820 0.727216
0.130926 0.718024 0.649349
0.135533 0.718188 0.649753
0.163332 0.718749 0.651992
0.223198 0.719562 0.656542
0.354693 0.720410 0.663600
0.490407 0.721566 0.672023
0.618503 0.723793 0.679917
0.721841 0.727495 0.689058
0.761500 0.734037 0.722146
0.117909 0.757659 0.623548
0.120726 0.760386 0.623559
0.124383 0.763906 0.623868
0.164660 0.767039 0.651531
0.265178 0.764582 0.652662
0.403316 0.763519 0.655891
0.528699 0.763720 0.659529
0.649813 0.765743 0.662713
0.764725 0.771952 0.713679
0.073294 0.211534 0.751546
0.075353 0.214557 0.753074
0.144195 0.242569 0.754002
0.526819 0.265899 0.754216
0.657343 0.289318 0.754584
0.711124 0.312261 0.755133
0.735185 0.323611 0.755930
0.751808 0.311637 0.757678
0.760324 0.278906 0.751742
0.074680 0.227984 0.751451
0.076760 0.231314 0.752889
0.146910 0.260484 0.753994
0.517199 0.282327 0.754233
0.653825 0.305499 0.754604
0.710062 0.325823 0.755156
0.734777 0.339040 0.755972
0.751649 0.326455 0.757716
0.760345 0.283239 0.751742
0.083305 0.314913 0.751074
0.087178 0.317248 0.752071
0.160359 0.334893 0.753514
0.474553 0.355263 0.753990
0.637977 0.372308 0.754440
0.705084 0.389832 0.755054
0.732841 0.401793 0.755968
0.750834 0.398138 0.757674
0.760585 0.327303 0.751742
0.096084 0.422624 0.749224
0.101147 0.425023 0.750259
0.168535 0.439166 0.752352
0.416090 0.450154 0.753343
0.610474 0.461649 0.754020
0.693132 0.474017 0.754787
0.729317 0.483785 0.755889
0.749644 0.486253 0.757659
0.760511 0.483015 0.757722
0.110178 0.526998 0.745302
0.116767 0.528287 0.746611
0.175875 0.534654 0.749819
0.361727 0.540791 0.751868
0.565679 0.547435 0.753145
0.670746 0.554862 0.754202
0.723217 0.561698 0.755508
0.747902 0.566120 0.757491
0.760303 0.575326 0.758767
0.124689 0.605447 0.738504
0.131660 0.606627 0.740113
0.180629 0.611853 0.744878
0.313033 0.617030 0.748771
0.498503 0.622220 0.751245
0.635283 0.628290 0.752972
0.712465 0.634523 0.754635
0.745328 0.640113 0.756972
0.760362 0.649831 0.759270
0.133343 0.671334 0.728383
0.140587 0.671837 0.729781
0.178179 0.673963 0.735094
0.274687 0.676398 0.741648
0.429046 0.678704 0.746818
0.585357 0.681266 0.750161
0.686620 0.684494 0.752609
0.740665 0.688166 0.755714
0.760798 0.695256 0.759356
0.128469 0.724536 0.717780
0.132630 0.724572 0.718740
0.161399 0.724565 0.722105
0.223459 0.724973 0.727489
0.358996 0.725647 0.734616
0.499464 0.726828 0.741233
0.627156 0.728985 0.746256
0.724443 0.731110 0.749084
0.761940 0.737614 0.758688
0.116482 0.756888 0.688695
0.124195 0.764446 0.689692
0.125348 0.765658 0.696524
0.155874 0.770487 0.708704
0.246361 0.769114 0.713085
0.393005 0.767627 0.718734
0.519382 0.767654 0.722701
0.639992 0.769497 0.724953
0.764862 0.774067 0.756468
0.133508 0.247677 0.784543
0.178127 0.250607 0.784550
0.473795 0.262391 0.784579
0.644014 0.281313 0.784667
0.701777 0.302623 0.784819
0.725454 0.319522 0.785059
0.742051 0.321822 0.785645
0.755023 0.276209 0.786789
0.760258 0.291151 0.782026
0.135640 0.262043 0.784465
0.178942 0.265099 0.784474
0.468924 0.276360 0.784507
0.641868 0.294760 0.784603
0.700747 0.316196 0.784763
0.725159 0.330850 0.785014
0.741945 0.333470 0.785601
0.754961 0.288300 0.786749
0.760258 0.298721 0.785588
0.149637 0.326330 0.784028
0.183378 0.328494 0.784048
0.449149 0.338994 0.784117
0.631702 0.357829 0.784270
0.695807 0.374499 0.784480
0.723749 0.388709 0.784790
0.741409 0.391512 0.785382
0.754654 0.355601 0.786510
0.760258 0.298759 0.785588
0.169858 0.441117 0.783377
0.193152 0.442782 0.783419
0.412762 0.447918 0.783562
0.610848 0.456606 0.783801
0.685173 0.466978 0.784080
0.720620 0.476312 0.784455
0.740269 0.479598 0.785081
0.754175 0.466345 0.786107
0.761348 0.476348 0.787522
0.175990 0.536892 0.782975
0.191169 0.537557 0.783041
0.356905 0.540270 0.783259
0.576172 0.545086 0.783534
0.667813 0.551043 0.783886
0.715444 0.556680 0.784313
0.738434 0.559565 0.784928
0.753811 0.555655 0.785935
0.761824 0.560201 0.787964
0.170506 0.614851 0.782899
0.183280 0.615322 0.782989
0.289363 0.617364 0.783280
0.502957 0.621000 0.783627
0.637824 0.625584 0.784000
0.706191 0.630366 0.784450
0.735304 0.633429 0.785039
0.753268 0.632366 0.785958
0.762249 0.643703 0.787768
0.154880 0.677515 0.783153
0.164823 0.677689 0.783270
0.221751 0.678482 0.783617
0.399784 0.679761 0.784037
0.580166 0.681501 0.784469
0.679146 0.683736 0.784931
0.728752 0.685637 0.785554
0.752281 0.685683 0.786364
0.762921 0.692591 0.787926
0.126662 0.730090 0.781724
0.130657 0.730141 0.782478
0.158743 0.730195 0.783870
0.248947 0.729966 0.784692
0.423926 0.729926 0.785328
0.598966 0.730784 0.785863
0.706118 0.732632 0.786427
0.748560 0.733598 0.787157
0.763856 0.737206 0.788357
0.114111 0.755116 0.731305
0.125431 0.766649 0.743758
0.125432 0.766650 0.743758
0.131712 0.767902 0.743789
0.199429 0.774880 0.771192
0.362584 0.773432 0.786360
0.508976 0.773125 0.787750
0.644281 0.774172 0.788466
0.765027 0.776301 0.788937
