negative-ultramax-400/Ultramax400_Modern_ExtraSoft.cube
TITLE "Kodak Ultramax 400 Modern ExtraSoft"
# Adobe RGB in/out. REPLACES AgX. Kodak Ultramax 400 Modern ExtraSoft.
LUT_3D_SIZE 5
DOMAIN_MIN 0.0 0.0 0.0
DOMAIN_MAX 1.0 1.0 1.0
0.057043 0.063015 0.079077
0.584933 0.084533 0.087138
0.785645 0.143783 0.102180
0.812510 0.189099 0.129025
0.810238 0.367590 0.669658
0.068883 0.325131 0.087968
0.111415 0.193786 0.090106
0.659281 0.277438 0.102512
0.792969 0.348763 0.123195
0.802857 0.345709 0.658151
0.089956 0.645909 0.101351
0.113239 0.623616 0.105752
0.390780 0.558647 0.110402
0.703910 0.568123 0.125601
0.785382 0.569644 0.317110
0.113995 0.737340 0.109691
0.132789 0.730286 0.115348
0.304507 0.710407 0.126543
0.579760 0.693636 0.137750
0.763623 0.693899 0.166292
0.114937 0.763236 0.097262
0.140901 0.774371 0.096884
0.226967 0.770376 0.111972
0.484749 0.755857 0.130031
0.752966 0.751791 0.137665
0.060553 0.083066 0.296198
0.593128 0.132257 0.613859
0.786827 0.190392 0.500855
0.807885 0.237582 0.530566
0.807480 0.359294 0.665465
0.075598 0.228243 0.204540
0.155853 0.154117 0.162798
0.696896 0.288561 0.252709
0.789613 0.360806 0.347442
0.800092 0.337876 0.652511
0.105648 0.621591 0.219168
0.146724 0.588178 0.202645
0.463468 0.531299 0.186365
0.723004 0.559505 0.221561
0.782847 0.573565 0.524316
0.128521 0.728724 0.192732
0.155325 0.721502 0.197980
0.356514 0.702594 0.205546
0.615997 0.687696 0.216131
0.762325 0.692160 0.262071
0.116188 0.765982 0.132917
0.142435 0.776309 0.131446
0.247234 0.768375 0.150086
0.501791 0.754637 0.183990
0.755517 0.751417 0.195193
0.066115 0.169233 0.686608
0.477310 0.319844 0.780473
0.798195 0.401519 0.776308
0.809760 0.376985 0.735480
0.806245 0.371533 0.728628
0.091049 0.414012 0.682593
0.320543 0.423454 0.711319
0.722850 0.424130 0.696796
0.790657 0.440986 0.695788
0.798404 0.346528 0.709767
0.115988 0.584349 0.568775
0.178795 0.558432 0.543278
0.504980 0.507904 0.504872
0.727904 0.564564 0.585258
0.779067 0.591781 0.672124
0.151322 0.714864 0.545150
0.197728 0.708624 0.534263
0.415743 0.692126 0.513032
0.660763 0.678992 0.507744
0.758655 0.692239 0.600424
0.128876 0.771139 0.583810
0.134532 0.771873 0.579330
0.291578 0.762595 0.498003
0.526511 0.752047 0.490562
0.755329 0.751773 0.506064
0.074368 0.404147 0.826832
0.319620 0.475573 0.842895
0.794932 0.529394 0.843792
0.819030 0.502505 0.816485
0.809442 0.398206 0.783448
0.101422 0.538420 0.830766
0.341467 0.570673 0.840886
0.758051 0.568927 0.826937
0.801005 0.537721 0.796806
0.801354 0.373171 0.772208
0.136300 0.619764 0.746886
0.232193 0.616659 0.749883
0.586688 0.607286 0.744581
0.744532 0.613938 0.743673
0.780966 0.620442 0.748003
0.159548 0.707895 0.696902
0.213844 0.703592 0.693961
0.441073 0.690666 0.688735
0.668950 0.676635 0.683187
0.756827 0.696944 0.717238
0.125797 0.766279 0.651289
0.133011 0.768465 0.647458
0.290556 0.761081 0.662257
0.530619 0.752367 0.658063
0.754567 0.755087 0.695911
0.337688 0.530275 0.883373
0.679718 0.542226 0.883395
0.823206 0.576877 0.883547
0.833049 0.550308 0.866806
0.813702 0.442965 0.836912
0.380615 0.599187 0.883048
0.666299 0.610072 0.883104
0.817714 0.627301 0.881246
0.818311 0.575618 0.854239
0.805873 0.430831 0.831577
0.324307 0.667939 0.847798
0.509966 0.663775 0.844249
0.737226 0.653993 0.834726
0.782369 0.640299 0.820112
0.786551 0.622455 0.808331
0.193478 0.714561 0.806099
0.287247 0.711405 0.802822
0.600062 0.703657 0.794054
0.732323 0.698586 0.786949
0.762844 0.700377 0.785196
0.116416 0.758303 0.735105
0.130779 0.765409 0.748018
0.217550 0.767568 0.770200
0.512763 0.758875 0.778711
0.754432 0.760210 0.777302
