negative-ultramax-400/Ultramax400_Modern_Normal.cube
TITLE "Kodak Ultramax 400 Modern Normal"
# Adobe RGB in/out. REPLACES AgX. Kodak Ultramax 400 Modern Normal.
LUT_3D_SIZE 33
DOMAIN_MIN 0.0 0.0 0.0
DOMAIN_MAX 1.0 1.0 1.0
0.073661 0.072636 0.087722
0.078748 0.077391 0.088232
0.088216 0.082282 0.088866
0.105153 0.087974 0.089511
0.132948 0.095658 0.090123
0.182336 0.104487 0.090875
0.243447 0.117653 0.091527
0.303283 0.132926 0.092462
0.363833 0.149172 0.093288
0.424626 0.169756 0.094522
0.482773 0.192619 0.095936
0.538116 0.216622 0.097688
0.586610 0.241717 0.099681
0.633748 0.269499 0.101857
0.670278 0.297597 0.103881
0.698829 0.325101 0.106635
0.726192 0.349813 0.109775
0.747887 0.374666 0.113076
0.767458 0.399307 0.116967
0.786141 0.423704 0.121412
0.803998 0.447832 0.125715
0.817793 0.469610 0.130062
0.830680 0.488715 0.135239
0.843029 0.507461 0.140313
0.854875 0.525846 0.145286
0.865454 0.543872 0.150489
0.872676 0.561538 0.155857
0.879343 0.578846 0.161132
0.885729 0.595797 0.166767
0.891850 0.610738 0.172684
0.897722 0.623068 0.178516
0.903356 0.635058 0.184261
0.908766 0.646714 0.189915
0.074860 0.080135 0.088160
0.077320 0.079635 0.088223
0.084635 0.083003 0.088750
0.099996 0.088735 0.089425
0.126981 0.096381 0.090055
0.174725 0.105289 0.090812
0.236001 0.118401 0.091480
0.297172 0.133562 0.092398
0.358260 0.149955 0.093243
0.420246 0.170594 0.094450
0.478908 0.193483 0.095858
0.535238 0.217440 0.097625
0.584056 0.242600 0.099605
0.631626 0.270345 0.101793
0.668978 0.298405 0.103827
0.697675 0.325773 0.106553
0.725160 0.350460 0.109703
0.747163 0.375280 0.113000
0.766807 0.399890 0.116874
0.785553 0.424259 0.121326
0.803464 0.448360 0.125636
0.817413 0.470021 0.129972
0.830334 0.489107 0.135155
0.842715 0.507835 0.140236
0.854587 0.526204 0.145214
0.865210 0.544215 0.150414
0.872522 0.561868 0.155787
0.879202 0.579163 0.161067
0.885599 0.596102 0.166696
0.891731 0.610962 0.172617
0.897611 0.623283 0.178454
0.903254 0.635264 0.184202
0.908671 0.646913 0.189860
0.076442 0.088883 0.088653
0.078720 0.088329 0.088708
0.083066 0.087329 0.088837
0.092246 0.090789 0.089278
0.114369 0.098181 0.089885
0.153495 0.107489 0.090630
0.213762 0.120649 0.091335
0.277128 0.135670 0.092200
0.340417 0.152610 0.093097
0.405823 0.173478 0.094213
0.465949 0.196483 0.095663
0.525440 0.220299 0.097413
0.575281 0.245703 0.099347
0.624098 0.273325 0.101575
0.664445 0.301262 0.103640
0.693634 0.328151 0.106267
0.721533 0.352756 0.109450
0.744610 0.377460 0.112733
0.764508 0.401964 0.116545
0.783470 0.426234 0.121026
0.801571 0.450245 0.125361
0.816061 0.471489 0.129652
0.829106 0.490507 0.134859
0.841595 0.509173 0.139962
0.853564 0.527485 0.144961
0.864340 0.545443 0.150149
0.871973 0.563047 0.155540
0.878698 0.580298 0.160836
0.885136 0.597195 0.166446
0.891303 0.611764 0.172382
0.897216 0.624053 0.178233
0.902889 0.636004 0.183994
0.908333 0.647625 0.189665
0.078182 0.101068 0.089191
0.080143 0.100654 0.089229
0.085468 0.099442 0.089329
0.091871 0.098428 0.089467
0.105158 0.101108 0.089793
0.135398 0.110809 0.090447
0.187245 0.124450 0.091166
0.250097 0.139256 0.091943
0.315207 0.157139 0.092891
0.382241 0.178439 0.093860
0.445420 0.201692 0.095372
0.507045 0.225301 0.097073
0.560629 0.251178 0.098924
0.610671 0.278611 0.101210
0.656622 0.306355 0.103323
0.686598 0.332399 0.105778
0.715172 0.356871 0.109013
0.740101 0.381381 0.112270
0.760426 0.405702 0.115970
0.779759 0.429802 0.120497
0.798187 0.453659 0.124874
0.813638 0.474151 0.129119
0.826900 0.493050 0.134334
0.839579 0.511606 0.139474
0.851717 0.529817 0.144507
0.862768 0.547681 0.149676
0.870979 0.565199 0.155098
0.877785 0.582369 0.160422
0.884295 0.599192 0.165996
0.890528 0.613231 0.171959
0.896499 0.625461 0.177834
0.902224 0.637358 0.183619
0.907716 0.648928 0.189311
0.080389 0.121572 0.089751
0.082612 0.120830 0.089777
0.088598 0.118460 0.089857
0.096763 0.115332 0.089969
0.108004 0.113991 0.090118
0.126553 0.118075 0.090460
0.167732 0.131109 0.091089
0.225674 0.145492 0.091753
0.289960 0.164554 0.092703
0.354933 0.185986 0.093596
0.421078 0.209079 0.095046
0.483416 0.232385 0.096670
0.541810 0.258975 0.098419
0.593008 0.286164 0.100746
0.641815 0.313657 0.102909
0.676955 0.338500 0.105130
0.706355 0.362805 0.108425
0.733778 0.387056 0.111639
0.754659 0.411130 0.115179
0.774484 0.434998 0.119763
0.793358 0.458651 0.124194
0.810160 0.478046 0.128491
0.823721 0.496779 0.133593
0.836666 0.515181 0.138783
0.849040 0.533249 0.143862
0.860485 0.550982 0.149000
0.869530 0.568376 0.154463
0.876451 0.585432 0.159827
0.883065 0.602147 0.165349
0.889391 0.615401 0.171348
0.895447 0.627547 0.177258
0.901249 0.639365 0.183076
0.906811 0.650861 0.188799
0.084723 0.162543 0.090588
0.086948 0.161219 0.090604
0.093837 0.156774 0.090650
0.105438 0.149942 0.090703
0.117863 0.141913 0.090748
0.133432 0.138911 0.090879
0.158371 0.141641 0.091157
0.209191 0.156494 0.091728
0.268087 0.175231 0.092606
0.330133 0.196470 0.093438
0.396951 0.218841 0.094767
0.458701 0.242685 0.096289
0.521002 0.269094 0.098058
0.572966 0.295939 0.100251
0.623753 0.322662 0.102451
0.665404 0.346439 0.104494
0.695629 0.370495 0.107740
0.724423 0.394429 0.110909
0.747461 0.418203 0.114438
0.767842 0.441788 0.118869
0.787244 0.464328 0.123361
0.805726 0.483166 0.127715
0.819646 0.501693 0.132670
0.832915 0.519904 0.137917
0.845581 0.537793 0.143049
0.857523 0.555359 0.148144
0.867644 0.572597 0.153657
0.874711 0.589505 0.159067
0.881456 0.605927 0.164520
0.887901 0.618291 0.170564
0.894065 0.630328 0.176516
0.899965 0.642043 0.182374
0.905617 0.653444 0.188136
0.089665 0.215473 0.091316
0.091965 0.216224 0.091350
0.100265 0.210338 0.091368
0.113414 0.198031 0.091357
0.127890 0.183878 0.091345
0.145588 0.174825 0.091397
0.169955 0.171586 0.091528
0.200747 0.173504 0.091882
0.253514 0.190651 0.092640
0.311546 0.210395 0.093390
0.373841 0.231418 0.094607
0.435837 0.255987 0.096009
0.496856 0.281709 0.097755
0.552489 0.308007 0.099800
0.603460 0.332739 0.102009
0.651568 0.356236 0.104069
0.683688 0.379882 0.107027
0.713159 0.403437 0.110230
0.739188 0.426859 0.113679
0.760141 0.450137 0.117884
0.780095 0.470898 0.122429
0.799129 0.489479 0.126837
0.814806 0.507767 0.131618
0.828434 0.525754 0.136920
0.841428 0.543435 0.142106
0.853834 0.560803 0.147177
0.864941 0.577856 0.152711
0.872593 0.594591 0.158171
0.879493 0.609680 0.163537
0.886078 0.621903 0.169630
0.892371 0.633808 0.175630
0.898388 0.645400 0.181533
0.904147 0.656602 0.187339
0.094512 0.269838 0.092095
0.097254 0.270600 0.092142
0.107085 0.267774 0.092219
0.120355 0.251162 0.092151
0.137849 0.233904 0.092113
0.158841 0.221527 0.092148
0.185311 0.213736 0.092282
0.214636 0.210986 0.092518
0.247786 0.212720 0.092837
0.299125 0.228154 0.093469
0.356128 0.249130 0.094605
0.416665 0.272544 0.095889
0.475318 0.297144 0.097564
0.533208 0.322200 0.099462
0.583641 0.344758 0.101639
0.633049 0.367835 0.103688
0.671264 0.390959 0.106359
0.701216 0.414052 0.109568
0.729887 0.437067 0.112918
0.751742 0.460023 0.116882
0.772214 0.478660 0.121465
0.791742 0.496952 0.125914
0.809366 0.514971 0.130498
0.823363 0.532706 0.135847
0.836700 0.550150 0.141081
0.849423 0.567296 0.146200
0.861126 0.584139 0.151666
0.870144 0.600674 0.157175
0.877214 0.614168 0.162578
0.883956 0.626229 0.168582
0.890392 0.637981 0.174629
0.896541 0.649430 0.180580
0.902421 0.660190 0.186432
0.101118 0.329608 0.092964
0.104284 0.330213 0.093000
0.113678 0.325421 0.093021
0.128017 0.310505 0.092967
0.147418 0.292895 0.092930
0.172606 0.276783 0.092937
0.200084 0.264436 0.093009
0.229430 0.256943 0.093156
0.261403 0.254408 0.093397
0.296325 0.256280 0.093756
0.343771 0.271240 0.094764
0.401854 0.292704 0.095952
0.457464 0.315737 0.097517
0.515166 0.337253 0.099284
0.565452 0.359072 0.101390
0.614585 0.381336 0.103395
0.659026 0.403781 0.105799
0.689203 0.426303 0.108983
0.718251 0.448881 0.112224
0.743020 0.469404 0.115940
0.763926 0.487600 0.120535
0.783890 0.505565 0.125005
0.802967 0.523282 0.129379
0.817868 0.540736 0.134758
0.831539 0.557917 0.140027
0.844578 0.574815 0.145185
0.856910 0.591425 0.150570
0.867421 0.607191 0.156122
0.874669 0.619374 0.161568
0.881576 0.631254 0.167459
0.888165 0.642836 0.173552
0.894456 0.654124 0.179548
0.900468 0.664372 0.185445
0.109161 0.386554 0.093929
0.111985 0.385018 0.093932
0.120469 0.376999 0.093870
0.136073 0.364295 0.093785
0.157290 0.349175 0.093728
0.185054 0.334272 0.093722
0.213790 0.321486 0.093786
0.243740 0.310856 0.093983
0.275416 0.304380 0.094303
0.308292 0.302289 0.094739
0.343282 0.304122 0.095270
0.390444 0.316548 0.096192
0.443547 0.335320 0.097623
0.498396 0.355008 0.099291
0.549610 0.375660 0.101290
0.597449 0.396875 0.103220
0.643954 0.418470 0.105404
0.677703 0.440346 0.108533
0.706895 0.462029 0.111654
0.734334 0.479955 0.115131
0.755552 0.497730 0.119706
0.775856 0.515318 0.124171
0.795288 0.532692 0.128521
0.812120 0.549831 0.133716
0.826097 0.566720 0.139002
0.839432 0.583345 0.144183
0.852166 0.599698 0.149477
0.863683 0.613309 0.155059
0.871915 0.625281 0.160540
0.878989 0.636962 0.166307
0.885735 0.648358 0.172439
0.892172 0.659167 0.178475
0.898322 0.669137 0.184413
0.117195 0.437549 0.095213
0.119537 0.435473 0.095198
0.128570 0.428422 0.095153
0.144382 0.416926 0.095089
0.168059 0.402648 0.095031
0.196455 0.387605 0.095010
0.226274 0.373607 0.095052
0.257041 0.361991 0.095179
0.288991 0.353559 0.095401
0.320429 0.348628 0.095722
0.355061 0.347128 0.096251
0.392237 0.348731 0.096928
0.433245 0.357368 0.097869
0.485170 0.375469 0.099485
0.536420 0.394629 0.101352
0.582669 0.414631 0.103184
0.629155 0.435261 0.105221
0.667147 0.456331 0.108259
0.696232 0.474455 0.111256
0.724457 0.491810 0.114648
0.747380 0.509087 0.119035
0.767907 0.526236 0.123464
0.787598 0.543215 0.127795
0.806291 0.559997 0.132778
0.820527 0.576557 0.138058
0.834123 0.592879 0.143243
0.847114 0.608113 0.148436
0.859235 0.620132 0.154034
0.869012 0.631874 0.159536
0.876249 0.643340 0.165173
0.883149 0.654532 0.171332
0.889733 0.664677 0.177400
0.896020 0.674473 0.183372
0.125382 0.482173 0.096543
0.128135 0.480707 0.096529
0.137246 0.475668 0.096482
0.153206 0.467246 0.096413
0.178483 0.455474 0.096348
0.207126 0.440832 0.096315
0.237666 0.426455 0.096345
0.269206 0.413635 0.096462
0.301065 0.403277 0.096682
0.332623 0.395893 0.097013
0.366931 0.391657 0.097454
0.402572 0.390477 0.097996
0.436717 0.392084 0.098702
0.475210 0.398485 0.099853
0.526004 0.416131 0.101582
0.570537 0.434810 0.103302
0.615774 0.454299 0.105270
0.657814 0.471785 0.108188
0.686565 0.488356 0.111063
0.714609 0.505032 0.114371
0.739652 0.521722 0.118568
0.760271 0.538355 0.122931
0.780112 0.554878 0.127214
0.799189 0.571250 0.131998
0.814975 0.587440 0.137247
0.828782 0.603421 0.142414
0.841992 0.615899 0.147498
0.854633 0.627649 0.153093
0.865907 0.639142 0.158601
0.873412 0.650376 0.164103
0.880457 0.660898 0.170276
0.887182 0.670758 0.176363
0.893603 0.680368 0.182359
0.135002 0.521382 0.097968
0.137468 0.520111 0.097957
0.146459 0.515711 0.097922
0.163883 0.508240 0.097870
0.188691 0.498380 0.097818
0.217289 0.487133 0.097787
0.248167 0.475572 0.097802
0.280297 0.464661 0.097882
0.311839 0.453967 0.098041
0.344227 0.444735 0.098291
0.378441 0.438282 0.098718
0.412425 0.434712 0.099357
0.445804 0.433934 0.100120
0.480680 0.435728 0.100991
0.517490 0.440159 0.101967
0.560972 0.457427 0.103566
0.604635 0.472801 0.105557
0.647300 0.488117 0.108331
0.678081 0.503786 0.111093
0.705762 0.519678 0.114292
0.732551 0.535685 0.118339
0.753135 0.551721 0.122606
0.773011 0.567717 0.126816
0.792179 0.583620 0.131419
0.809569 0.599388 0.136611
0.823531 0.612713 0.141736
0.836911 0.624400 0.146785
0.849733 0.635858 0.152279
0.861540 0.647079 0.157773
0.870532 0.657870 0.163183
0.877711 0.667755 0.169312
0.884565 0.677402 0.175405
0.891113 0.686811 0.181412
0.144805 0.559320 0.099646
0.147307 0.558210 0.099634
0.156598 0.554344 0.099596
0.174754 0.547699 0.099537
0.198760 0.538764 0.099477
0.227057 0.528319 0.099440
0.257987 0.517251 0.099451
0.290498 0.506408 0.099536
0.321721 0.496511 0.099714
0.355064 0.488112 0.099999
0.389484 0.481582 0.100402
0.422162 0.477124 0.100923
0.455078 0.474792 0.101559
0.489263 0.474516 0.102299
0.524335 0.476142 0.103130
0.555110 0.479466 0.104036
0.595806 0.491859 0.106067
0.637787 0.506075 0.108685
0.670855 0.520759 0.111353
0.698034 0.535777 0.114421
0.724715 0.551013 0.118368
0.746630 0.566370 0.122514
0.766434 0.581767 0.126625
0.785595 0.597136 0.131076
0.804112 0.610764 0.136185
0.818476 0.622282 0.141245
0.831973 0.633619 0.146244
0.844930 0.644756 0.151628
0.857225 0.655679 0.157091
0.867663 0.665540 0.162479
0.874958 0.675181 0.168479
0.881928 0.684600 0.174562
0.888590 0.693795 0.180567
0.155422 0.596089 0.101403
0.158336 0.595114 0.101394
0.168429 0.591707 0.101366
0.185651 0.585792 0.101322
0.208851 0.577722 0.101277
0.236621 0.568103 0.101249
0.267383 0.557662 0.101258
0.299571 0.547130 0.101325
0.331286 0.537164 0.101467
0.365152 0.528302 0.101698
0.399642 0.520942 0.102026
0.431501 0.515345 0.102457
0.464199 0.511646 0.102990
0.497940 0.509866 0.103621
0.531062 0.509935 0.104341
0.561142 0.511720 0.105520
0.591971 0.515050 0.107036
0.630194 0.525583 0.109236
0.664872 0.539237 0.111836
0.691459 0.553320 0.114759
0.717662 0.567717 0.118664
0.740838 0.582323 0.122668
0.760475 0.597051 0.126659
0.779540 0.610304 0.130991
0.798019 0.621513 0.135994
0.813702 0.632607 0.140967
0.827261 0.643559 0.145895
0.840305 0.654346 0.151173
0.852847 0.664216 0.156584
0.864209 0.673794 0.161933
0.872242 0.683173 0.167811
0.879311 0.692347 0.173867
0.886074 0.700932 0.179855
0.168035 0.625439 0.103034
0.170757 0.624790 0.103028
0.180231 0.622509 0.103007
0.196564 0.618514 0.102976
0.218966 0.612984 0.102944
0.246055 0.606267 0.102925
0.276462 0.596772 0.102937
0.307944 0.586698 0.102994
0.340289 0.576892 0.103113
0.374487 0.567858 0.103305
0.408283 0.559997 0.103579
0.440264 0.553601 0.103942
0.472920 0.548854 0.104394
0.506423 0.545844 0.105165
0.537783 0.544571 0.106262
0.567316 0.544969 0.107499
0.597526 0.546921 0.108860
0.628283 0.550284 0.110328
0.660049 0.559136 0.112524
0.686002 0.572257 0.115400
0.711660 0.585770 0.119221
0.735794 0.599573 0.123069
0.755189 0.611638 0.126923
0.774080 0.622356 0.131179
0.792446 0.633054 0.136056
0.809274 0.643687 0.140921
0.822843 0.654221 0.145759
0.835924 0.663917 0.150936
0.848528 0.673354 0.156277
0.860282 0.682627 0.161569
0.869604 0.691724 0.167336
0.876753 0.700472 0.173349
0.883599 0.706399 0.179304
0.180499 0.651422 0.104553
0.183048 0.650855 0.104549
0.191959 0.648858 0.104534
0.207503 0.645338 0.104513
0.229058 0.640421 0.104492
0.255385 0.634372 0.104483
0.285291 0.627548 0.104498
0.315903 0.620340 0.104552
0.348704 0.613135 0.104676
0.383114 0.606287 0.104966
0.416228 0.598457 0.105377
0.448367 0.591550 0.105922
0.481083 0.586046 0.106608
0.514500 0.582077 0.107435
0.544296 0.579697 0.108402
0.573429 0.578895 0.109502
0.603146 0.579608 0.110724
0.632984 0.581734 0.112243
0.659719 0.585151 0.113928
0.681577 0.592499 0.116388
0.706662 0.605113 0.120027
0.731460 0.615067 0.123710
0.750588 0.625099 0.127418
0.769246 0.635221 0.131643
0.787439 0.645375 0.136378
0.805146 0.655515 0.141119
0.818766 0.664812 0.145850
0.831840 0.674010 0.150936
0.844463 0.683091 0.156190
0.856553 0.692037 0.161409
0.867077 0.700605 0.167079
0.874285 0.706472 0.173033
0.881198 0.712199 0.178940
0.192784 0.674643 0.106985
0.195177 0.674186 0.106980
0.203589 0.672573 0.106963
0.218439 0.669714 0.106940
0.239105 0.665689 0.106920
0.264619 0.660683 0.106920
0.293867 0.654899 0.106956
0.323518 0.648232 0.107049
0.356613 0.641443 0.107217
0.391100 0.634848 0.107477
0.423507 0.628721 0.107842
0.455787 0.623292 0.108324
0.488605 0.618739 0.108929
0.521991 0.615188 0.109662
0.550450 0.612714 0.110522
0.579312 0.611345 0.111594
0.608660 0.611069 0.112893
0.637682 0.611843 0.114322
0.662613 0.613597 0.116181
0.682071 0.616248 0.118446
0.702587 0.620814 0.121062
0.726867 0.629985 0.124578
0.746657 0.639354 0.128133
0.765041 0.648861 0.132378
0.783012 0.658229 0.136960
0.800549 0.667088 0.141565
0.815060 0.675927 0.146176
0.828087 0.684712 0.151183
0.840691 0.693416 0.156335
0.852876 0.701410 0.161466
0.863971 0.707166 0.167058
0.871935 0.712807 0.172937
0.878896 0.718325 0.178781
0.204890 0.696487 0.109334
0.207165 0.696086 0.109331
0.215172 0.694669 0.109322
0.229284 0.692149 0.109311
0.249083 0.688575 0.109306
0.273757 0.684094 0.109319
0.301688 0.678912 0.109366
0.331239 0.673275 0.109461
0.364087 0.667445 0.109622
0.398414 0.661671 0.109862
0.430172 0.656187 0.110195
0.462542 0.650813 0.110629
0.495457 0.646101 0.111201
0.527771 0.642232 0.111975
0.556144 0.639297 0.112887
0.584835 0.637349 0.113934
0.613921 0.636402 0.115150
0.642242 0.636442 0.116937
0.665466 0.637426 0.118890
0.684600 0.639295 0.120996
0.703745 0.641977 0.123242
0.723100 0.645621 0.125654
0.743355 0.654335 0.129054
0.761440 0.662627 0.133372
0.779159 0.670922 0.137796
0.796489 0.679277 0.142256
0.811741 0.687650 0.146736
0.824685 0.696006 0.151681
0.837237 0.702974 0.156719
0.849394 0.708561 0.161749
0.860740 0.714062 0.167283
0.869725 0.719467 0.173075
0.876716 0.724767 0.178843
0.216860 0.711799 0.111652
0.219008 0.711561 0.111650
0.226584 0.710718 0.111647
0.240005 0.709211 0.111646
0.258966 0.707061 0.111654
0.282790 0.704341 0.111685
0.309344 0.701160 0.111752
0.338715 0.696504 0.111870
0.371188 0.691114 0.112056
0.404601 0.685696 0.112325
0.436281 0.680456 0.112689
0.468670 0.675577 0.113160
0.501650 0.671216 0.113745
0.532992 0.667497 0.114452
0.561322 0.664514 0.115380
0.589909 0.662329 0.116688
0.618820 0.660976 0.118169
0.646548 0.660459 0.119820
0.668198 0.660764 0.121631
0.687059 0.661854 0.123594
0.705920 0.663681 0.125697
0.724778 0.666188 0.127927
0.741007 0.669312 0.130545
0.758405 0.676448 0.134610
0.775853 0.684203 0.138872
0.792951 0.692051 0.143183
0.808806 0.699950 0.147535
0.821641 0.705386 0.152429
0.834112 0.710738 0.157342
0.846214 0.716041 0.162261
0.857763 0.721279 0.167763
0.867668 0.726441 0.173455
0.874673 0.731514 0.179135
0.228589 0.725186 0.114132
0.230619 0.724979 0.114132
0.237800 0.724242 0.114135
0.250573 0.722921 0.114144
0.268729 0.721029 0.114165
0.291705 0.718620 0.114210
0.316843 0.715782 0.114288
0.345964 0.712627 0.114414
0.377965 0.709276 0.114601
0.410386 0.705858 0.114861
0.441894 0.702495 0.115277
0.474223 0.698918 0.115879
0.507212 0.694632 0.116624
0.537658 0.690872 0.117519
0.565960 0.687734 0.118572
0.594485 0.685289 0.119785
0.623279 0.683581 0.121159
0.650513 0.682632 0.122693
0.670742 0.682443 0.124381
0.689383 0.682995 0.126216
0.708004 0.684256 0.128188
0.726612 0.686184 0.130570
0.742241 0.688728 0.133393
0.756699 0.691837 0.136361
0.773055 0.698012 0.140174
0.789908 0.703683 0.144333
0.806243 0.708721 0.148668
0.818949 0.713772 0.153419
0.831317 0.718815 0.158202
0.843341 0.723830 0.163001
0.855018 0.728800 0.168499
0.865548 0.733711 0.174082
0.872778 0.738551 0.179664
0.240056 0.737854 0.117028
0.241980 0.737672 0.117031
0.248796 0.737027 0.117041
0.260963 0.735869 0.117065
0.278348 0.734202 0.117110
0.299956 0.732070 0.117188
0.324214 0.729541 0.117311
0.353006 0.726708 0.117495
0.384453 0.723672 0.117755
0.415817 0.720541 0.118107
0.447066 0.717423 0.118566
0.479254 0.714419 0.119142
0.512187 0.711620 0.119848
0.541794 0.709105 0.120692
0.570061 0.706940 0.121680
0.598538 0.705176 0.122816
0.627206 0.703850 0.124101
0.654075 0.702986 0.125535
0.673048 0.702592 0.127116
0.691514 0.702668 0.128838
0.709939 0.703200 0.131086
0.728335 0.704167 0.133612
0.743414 0.705544 0.136298
0.757693 0.707300 0.139131
0.771871 0.709402 0.142099
0.787322 0.713021 0.145692
0.803618 0.717715 0.150034
0.816596 0.722441 0.154641
0.828844 0.727176 0.159290
0.840772 0.731903 0.164046
0.852375 0.736602 0.169488
0.863049 0.741261 0.174954
0.871038 0.745864 0.180430
0.251247 0.749844 0.120104
0.253073 0.749685 0.120109
0.259550 0.749119 0.120126
0.271149 0.748102 0.120160
0.287799 0.746634 0.120219
0.307937 0.744748 0.120312
0.331796 0.742498 0.120450
0.359853 0.739960 0.120647
0.390682 0.737220 0.120915
0.420936 0.734369 0.121268
0.451846 0.731499 0.121718
0.483814 0.728700 0.122277
0.516621 0.726054 0.122954
0.545430 0.723634 0.123758
0.573640 0.721502 0.124694
0.602068 0.719709 0.125766
0.630423 0.718295 0.126978
0.656667 0.717287 0.128329
0.675082 0.716699 0.129972
0.693410 0.716539 0.132037
0.711677 0.716800 0.134274
0.729898 0.717472 0.136677
0.744488 0.718535 0.139237
0.758611 0.719966 0.141945
0.772634 0.721739 0.144789
0.786553 0.723824 0.147799
0.801224 0.726946 0.151619
0.814559 0.731356 0.156083
0.826679 0.735791 0.160596
0.838498 0.740232 0.165412
0.850013 0.744663 0.170723
0.860795 0.749067 0.176068
0.869455 0.753433 0.181432
0.262147 0.761194 0.123044
0.263882 0.761055 0.123050
0.270045 0.760559 0.123073
0.281111 0.759666 0.123116
0.296783 0.758374 0.123188
0.315749 0.756706 0.123295
0.339212 0.754708 0.123447
0.366510 0.752441 0.123656
0.396672 0.749977 0.123933
0.425773 0.747392 0.124289
0.456275 0.744768 0.124736
0.487950 0.742182 0.125283
0.520563 0.739707 0.125939
0.548603 0.737411 0.126711
0.576726 0.735351 0.127606
0.605087 0.733577 0.128628
0.633166 0.732128 0.129923
0.658498 0.731033 0.131551
0.676821 0.730312 0.133350
0.695042 0.729976 0.135317
0.713182 0.730026 0.137450
0.731261 0.730458 0.139743
0.745429 0.731258 0.142189
0.759419 0.732411 0.144782
0.773307 0.733895 0.147520
0.787091 0.735687 0.150725
0.800770 0.737763 0.154069
0.812814 0.740480 0.157728
0.824800 0.744624 0.162107
0.836503 0.748788 0.167017
0.847918 0.752954 0.172195
0.858778 0.757108 0.177415
0.868026 0.761236 0.182664
0.272742 0.771939 0.125852
0.274393 0.771817 0.125859
0.280263 0.771383 0.125886
0.290831 0.770599 0.125938
0.305160 0.769461 0.126020
0.323376 0.767990 0.126140
0.346453 0.766219 0.126306
0.372977 0.764200 0.126527
0.401919 0.761992 0.126813
0.430354 0.759661 0.127174
0.460388 0.757275 0.127620
0.491705 0.754904 0.128160
0.523688 0.752612 0.128801
0.551351 0.750459 0.129632
0.579349 0.748500 0.130728
0.607620 0.746780 0.131975
0.635446 0.745338 0.133380
0.660010 0.744205 0.134943
0.678256 0.743402 0.136667
0.696389 0.742944 0.138551
0.714429 0.742836 0.140593
0.732220 0.743079 0.142789
0.746213 0.743666 0.145134
0.760091 0.744586 0.147645
0.773863 0.745823 0.150588
0.787530 0.747359 0.153681
0.801092 0.749174 0.156914
0.812633 0.751245 0.160278
0.823184 0.753643 0.163864
0.834767 0.757538 0.168847
0.846077 0.761448 0.173893
0.856989 0.765356 0.178988
0.866746 0.769250 0.184118
0.283021 0.782108 0.128532
0.284594 0.782002 0.128540
0.290192 0.781621 0.128571
0.299773 0.780934 0.128630
0.313309 0.779935 0.128722
0.331198 0.778639 0.128853
0.353508 0.777073 0.129031
0.379254 0.775280 0.129269
0.406875 0.773310 0.129644
0.434697 0.771218 0.130110
0.464215 0.769063 0.130679
0.495115 0.766904 0.131360
0.526272 0.764800 0.132162
0.553711 0.762804 0.133095
0.581543 0.760965 0.134165
0.609692 0.759328 0.135378
0.637279 0.757927 0.136738
0.661211 0.756794 0.138247
0.679386 0.755952 0.139909
0.697445 0.755417 0.141722
0.715402 0.755198 0.143686
0.732909 0.755300 0.145798
0.746816 0.755719 0.148128
0.760603 0.756450 0.150815
0.774278 0.757481 0.153657
0.787844 0.758798 0.156647
0.801304 0.760385 0.159777
0.812721 0.762223 0.163039
0.823113 0.764295 0.166895
0.833382 0.766581 0.170963
0.844471 0.770114 0.175803
0.855411 0.773785 0.180773
0.865305 0.777451 0.185785
0.292974 0.791730 0.131585
0.294386 0.791637 0.131598
0.299336 0.791305 0.131642
0.308265 0.790704 0.131725
0.321218 0.789828 0.131853
0.338824 0.788689 0.132033
0.360367 0.787309 0.132274
0.385335 0.785723 0.132584
0.411635 0.783972 0.132973
0.438817 0.782104 0.133450
0.467778 0.780168 0.134026
0.498211 0.778218 0.134708
0.528545 0.776303 0.135507
0.555716 0.774471 0.136428
0.583344 0.772768 0.137478
0.611336 0.771233 0.138664
0.638691 0.769900 0.139988
0.662111 0.768799 0.141454
0.680216 0.767953 0.143063
0.698206 0.767380 0.144817
0.716091 0.767090 0.146714
0.733388 0.767092 0.148912
0.747226 0.767385 0.151357
0.760937 0.767967 0.153958
