negative-ultramax-400/Ultramax400_Modern_Soft.cube
TITLE "Kodak Ultramax 400 Modern Soft"
# Adobe RGB in/out. REPLACES AgX. Kodak Ultramax 400 Modern Soft.
LUT_3D_SIZE 5
DOMAIN_MIN 0.0 0.0 0.0
DOMAIN_MAX 1.0 1.0 1.0
0.061578 0.068299 0.085817
0.380198 0.125219 0.098884
0.640431 0.355771 0.119450
0.737008 0.518713 0.147417
0.790299 0.600957 0.182995
0.092297 0.328915 0.097994
0.257851 0.241731 0.099126
0.597565 0.409335 0.115944
0.720668 0.540096 0.143587
0.783028 0.615150 0.179066
0.165965 0.604594 0.114789
0.363852 0.574890 0.114949
0.564547 0.553340 0.120544
0.688094 0.599922 0.140906
0.761861 0.653227 0.173333
0.273307 0.694722 0.132585
0.411986 0.687867 0.133291
0.585483 0.676342 0.138687
0.677356 0.676679 0.151498
0.746068 0.692871 0.177898
0.357964 0.740565 0.149689
0.439211 0.738383 0.151257
0.587558 0.734016 0.157429
0.675975 0.733711 0.170286
0.740185 0.740455 0.194505
0.063687 0.084998 0.380222
0.392900 0.140233 0.389444
0.633978 0.355029 0.350241
0.731547 0.511807 0.345471
0.787850 0.597211 0.355876
0.085148 0.255212 0.291448
0.176103 0.168912 0.176873
0.582285 0.389476 0.262006
0.714511 0.533138 0.313154
0.779404 0.611001 0.340810
0.151755 0.583045 0.315083
0.337773 0.555339 0.268352
0.541055 0.535020 0.224655
0.679465 0.590675 0.259968
0.758624 0.650652 0.309770
0.262448 0.689702 0.299719
0.404810 0.683146 0.286133
0.578825 0.672022 0.263520
0.672623 0.673303 0.263723
0.744230 0.691312 0.295742
0.354943 0.738895 0.281622
0.436119 0.736829 0.279395
0.585893 0.732764 0.276985
0.674727 0.732912 0.284860
0.739823 0.740316 0.308353
0.066545 0.121768 0.706300
0.393971 0.198440 0.707447
0.664313 0.436372 0.704965
0.735715 0.531135 0.650952
0.786716 0.600924 0.623259
0.092104 0.372223 0.697177
0.359170 0.382081 0.670698
0.609660 0.455443 0.636539
0.716663 0.544256 0.620228
0.777212 0.612975 0.608659
0.131694 0.552709 0.606970
0.292070 0.534053 0.575379
0.499201 0.500128 0.503155
0.671694 0.585854 0.553337
0.754842 0.649126 0.572850
0.239537 0.679177 0.596198
0.385474 0.673857 0.583802
0.562199 0.664233 0.553743
0.662702 0.666883 0.536000
0.740686 0.688974 0.548293
0.347231 0.734868 0.566498
0.428323 0.733192 0.562234
0.581735 0.730072 0.551860
0.671740 0.731354 0.544087
0.738964 0.740319 0.546202
0.069572 0.226082 0.818489
0.395939 0.313998 0.818826
0.670379 0.490793 0.820030
0.748787 0.568115 0.786331
0.789639 0.618502 0.754490
0.095083 0.449814 0.818778
0.411157 0.484865 0.819114
0.648393 0.540483 0.799044
0.730261 0.579559 0.766363
0.781129 0.628952 0.744732
0.133727 0.568017 0.748827
0.322155 0.564904 0.740709
0.566693 0.573128 0.726854
0.685757 0.611906 0.722771
0.756696 0.654970 0.720813
0.219547 0.670842 0.726712
0.364599 0.667457 0.721086
0.550883 0.660915 0.700133
0.652567 0.661565 0.681208
0.738922 0.689722 0.693786
0.335973 0.730618 0.709265
0.420029 0.729536 0.706076
0.574888 0.727843 0.697682
0.668584 0.730523 0.690431
0.738163 0.741206 0.689467
0.073470 0.374562 0.875811
0.397827 0.427373 0.875933
0.670731 0.542001 0.876371
0.759157 0.609390 0.860790
0.793470 0.642425 0.835099
0.097768 0.514681 0.875915
0.412824 0.538424 0.876038
0.670160 0.598022 0.874496
0.742659 0.620354 0.849109
0.786844 0.649324 0.825229
0.153874 0.619593 0.843429
0.372610 0.620559 0.840006
0.601797 0.628610 0.827943
0.704781 0.647825 0.812476
0.762382 0.666491 0.798599
0.215199 0.672778 0.797731
0.363381 0.671722 0.793905
0.560068 0.671303 0.784198
0.668454 0.679108 0.776840
0.741700 0.696597 0.774677
0.323794 0.728086 0.779523
0.413763 0.727652 0.777695
0.569716 0.727591 0.772687
0.666649 0.731692 0.767951
0.737855 0.743522 0.767163
