negative-ultramax-400/Ultramax400_Modern_Punchy.cube
TITLE "Kodak Ultramax 400 Modern Punchy"
# Adobe RGB in/out. REPLACES AgX. Kodak Ultramax 400 Modern Punchy.
LUT_3D_SIZE 9
DOMAIN_MIN 0.0 0.0 0.0
DOMAIN_MAX 1.0 1.0 1.0
0.070208 0.083169 0.079619
0.157417 0.099538 0.083210
0.368111 0.155058 0.090831
0.577039 0.246371 0.101619
0.706874 0.350737 0.116662
0.782598 0.448580 0.133989
0.833686 0.521420 0.156150
0.868256 0.582302 0.180001
0.891072 0.627246 0.202756
0.087203 0.125078 0.082428
0.129610 0.118933 0.083194
0.300855 0.169910 0.089515
0.537669 0.262180 0.100013
0.688639 0.364753 0.114610
0.774121 0.458643 0.132544
0.827783 0.527906 0.154450
0.865618 0.587786 0.178599
0.889135 0.630510 0.201665
0.120976 0.328760 0.090101
0.174127 0.293068 0.090025
0.276470 0.258007 0.091029
0.457476 0.314420 0.098362
0.642890 0.407427 0.111231
0.749878 0.487741 0.129057
0.810084 0.549442 0.149880
0.856683 0.605633 0.174563
0.882853 0.641701 0.198381
0.159662 0.517504 0.099186
0.211839 0.497263 0.098911
0.320599 0.454288 0.099320
0.445941 0.435629 0.102172
0.592784 0.474416 0.110940
0.712956 0.530037 0.126958
0.787887 0.585404 0.145820
0.840920 0.627534 0.170220
0.873588 0.660618 0.194427
0.204241 0.630951 0.109668
0.248244 0.622287 0.109541
0.354523 0.599333 0.109884
0.480832 0.573867 0.112201
0.591486 0.568289 0.118111
0.688921 0.590346 0.128572
0.769397 0.626192 0.145544
0.823153 0.657601 0.168410
0.863653 0.684812 0.191998
0.247829 0.699721 0.122618
0.282771 0.694943 0.122662
0.380744 0.681463 0.123232
0.506656 0.666718 0.125317
0.609016 0.658016 0.129653
0.690155 0.658589 0.136338
0.757888 0.669350 0.150054
0.809860 0.692400 0.170710
0.854666 0.715118 0.192710
0.286208 0.753814 0.134120
0.314451 0.750931 0.134280
0.402495 0.742251 0.135033
0.521643 0.731374 0.136918
0.620176 0.722957 0.141991
0.696064 0.720066 0.150553
0.758536 0.723518 0.162088
0.801640 0.732568 0.177130
0.846837 0.750686 0.197081
0.319298 0.796592 0.147067
0.343938 0.795703 0.147437
0.420968 0.790655 0.148894
0.529235 0.783515 0.151969
0.624762 0.777268 0.157172
0.698082 0.774190 0.164943
0.759047 0.775448 0.175852
0.801047 0.781099 0.189325
0.841176 0.790475 0.204982
0.348771 0.814778 0.159642
0.369450 0.814308 0.160092
0.436315 0.812816 0.161763
0.533375 0.810747 0.165140
0.624189 0.808889 0.170653
0.696144 0.808009 0.178446
0.757138 0.808614 0.188608
0.798645 0.810875 0.201061
0.838292 0.814679 0.215619
0.071940 0.089042 0.148710
0.163882 0.103954 0.151230
0.368138 0.158210 0.156057
0.566746 0.242801 0.160869
0.698731 0.343984 0.172822
0.778030 0.442698 0.187896
0.830356 0.517767 0.204433
0.866766 0.579511 0.222003
0.890012 0.625811 0.240918
0.086070 0.121266 0.125754
0.115812 0.109464 0.103826
0.289279 0.166084 0.129065
0.524281 0.255109 0.147069
0.679816 0.356400 0.164972
0.769474 0.452287 0.183129
0.824447 0.524113 0.201290
0.864046 0.584938 0.219570
0.888084 0.629064 0.239149
0.117649 0.308602 0.149239
0.162214 0.270143 0.133253
0.254017 0.235898 0.119413
0.434547 0.298448 0.129939
0.629216 0.396822 0.148906
0.742894 0.481874 0.170956
0.806776 0.545274 0.192481
0.855114 0.603401 0.212821
0.881834 0.640232 0.233714
0.155309 0.503051 0.156229
0.204025 0.483477 0.148622
0.307909 0.436969 0.135268
0.427925 0.419437 0.131537
0.580829 0.462966 0.139918
0.706589 0.523681 0.160795
0.784792 0.580971 0.183245
0.838738 0.625394 0.205094
0.872640 0.659274 0.226721
0.200623 0.624595 0.162598
0.243534 0.616075 0.159246
0.347288 0.590715 0.151280
0.470782 0.565370 0.145820
0.582927 0.560573 0.147280
0.684165 0.584809 0.158417
0.766839 0.623324 0.178646
0.821287 0.655603 0.199942
0.862768 0.683568 0.221245
0.245208 0.696149 0.170165
0.279797 0.691428 0.168579
0.376526 0.678060 0.164499
0.501033 0.663377 0.161422
0.604059 0.654533 0.162192
0.686792 0.655524 0.168190
0.756098 0.667347 0.180190
0.808458 0.690918 0.199453
0.853978 0.714098 0.219519
0.284467 0.751629 0.178134
0.312550 0.748777 0.177525
0.399958 0.740175 0.175996
0.519217 0.729379 0.175134
0.617387 0.721051 0.176758
0.694110 0.718323 0.181996
0.757313 0.722054 0.191077
0.800740 0.731575 0.203646
0.846156 0.749990 0.222257
0.318146 0.795911 0.185804
0.342670 0.794671 0.185717
0.419456 0.789425 0.185686
0.527860 0.782355 0.186522
0.623228 0.776188 0.189242
0.697022 0.773217 0.194617
0.758377 0.774628 0.202986
0.800498 0.780481 0.214280
0.840781 0.790080 0.229259
0.348065 0.814414 0.192636
0.368709 0.813950 0.192845
0.435469 0.812476 0.193714
0.532643 0.810433 0.195714
0.623410 0.808610 0.199408
0.695632 0.807773 0.205267
0.756833 0.808434 0.213565
0.798419 0.810764 0.225089
0.838166 0.814644 0.239558
0.073973 0.099080 0.386397
0.164203 0.114850 0.387962
0.378401 0.172857 0.393550
0.583006 0.262234 0.381926
0.697409 0.349932 0.361757
0.774057 0.441391 0.356694
0.825781 0.514639 0.357567
0.864056 0.575851 0.361337
0.887819 0.623430 0.366694
0.090504 0.153658 0.387738
0.168621 0.167070 0.380794
0.334977 0.199031 0.344096
0.533562 0.269124 0.336468
0.676358 0.358964 0.338972
0.764886 0.449406 0.344161
0.819631 0.520375 0.350368
0.861155 0.580979 0.356645
0.885876 0.626589 0.363497
0.109997 0.267629 0.307077
0.149130 0.242072 0.264915
0.213733 0.198317 0.195940
0.414190 0.287814 0.245472
0.614014 0.387429 0.281083
0.733353 0.475655 0.307050
0.801229 0.539613 0.325954
0.852045 0.598504 0.341178
0.879593 0.637476 0.353464
0.146871 0.471985 0.325883
0.189395 0.450721 0.303517
0.283763 0.405212 0.255961
0.390989 0.385836 0.227770
0.558238 0.442782 0.244825
0.694394 0.512544 0.272459
0.778489 0.572829 0.298035
0.833950 0.621171 0.319639
0.870401 0.656207 0.338003
0.191807 0.608993 0.327620
0.232074 0.600034 0.316306
0.330451 0.571148 0.286726
0.447352 0.545984 0.260032
0.562069 0.542267 0.248147
0.672877 0.572257 0.257522
0.760671 0.616770 0.279266
0.816675 0.650970 0.302151
0.860496 0.680608 0.323026
0.238062 0.686512 0.321979
0.271756 0.682049 0.316159
0.365399 0.669227 0.299478
0.486404 0.654486 0.280345
0.590931 0.645502 0.268093
0.677649 0.647399 0.265199
0.750965 0.662183 0.273167
0.804649 0.687066 0.293158
0.852075 0.711431 0.313579
0.279391 0.745340 0.314297
0.307032 0.742610 0.311337
0.392694 0.734326 0.302418
0.510943 0.723843 0.291210
0.609485 0.715771 0.282432
0.688491 0.713437 0.279245
0.753744 0.717899 0.282613
0.798144 0.728825 0.292370
0.844165 0.748054 0.310830
0.314729 0.792429 0.306323
0.338800 0.790815 0.304930
0.414872 0.785763 0.300654
0.523721 0.778942 0.295152
0.618637 0.773036 0.290927
0.693833 0.770372 0.290055
0.756345 0.772219 0.293649
0.798817 0.778660 0.301830
0.839565 0.788928 0.314012
0.345820 0.813277 0.298453
0.366356 0.812832 0.297958
0.432795 0.811419 0.296492
0.530341 0.809470 0.294862
0.620969 0.807762 0.294366
0.694027 0.807063 0.296237
0.755875 0.807895 0.301301
0.797705 0.810436 0.309871
0.837767 0.814554 0.321799
0.076677 0.118961 0.603726
0.164793 0.134462 0.604407
0.378748 0.193260 0.606842
0.607743 0.296395 0.611285
0.715189 0.383996 0.578671
0.778499 0.457766 0.550123
0.826072 0.520592 0.531981
0.862955 0.577920 0.520895
0.886365 0.623454 0.513422
0.091544 0.174483 0.604309
0.172371 0.190067 0.604989
0.383294 0.249493 0.607421
0.582129 0.321004 0.586331
0.692974 0.391183 0.553467
0.768709 0.464290 0.533749
0.819554 0.525543 0.522168
0.859926 0.582579 0.514651
0.884368 0.626429 0.509263
0.111552 0.287159 0.523479
0.159180 0.281128 0.502214
0.285613 0.284948 0.468550
0.459080 0.331955 0.467274
0.628495 0.408186 0.479076
0.735130 0.482628 0.488109
0.799802 0.541991 0.493095
0.850020 0.598497 0.495361
0.877904 0.636705 0.496036
0.139243 0.440218 0.491631
0.177377 0.425238 0.472464
0.268069 0.386980 0.415457
0.353072 0.349717 0.353101
0.548527 0.438068 0.401120
0.688776 0.510307 0.435795
0.774756 0.570407 0.457703
0.830430 0.619375 0.469772
0.868450 0.654516 0.477391
0.181525 0.585919 0.496142
0.219029 0.576683 0.485099
0.312955 0.551418 0.453740
0.422572 0.526448 0.410810
0.537946 0.522063 0.386212
0.661620 0.561100 0.401192
0.754843 0.611518 0.426010
0.812236 0.647346 0.445993
0.858175 0.678229 0.459216
0.228826 0.674269 0.490821
0.261469 0.670308 0.484620
0.351681 0.658635 0.465948
0.468949 0.643848 0.439898
0.574918 0.634941 0.416104
0.666107 0.637618 0.405037
0.742628 0.656359 0.411777
0.800196 0.683032 0.429110
0.849217 0.708716 0.444671
0.272377 0.736827 0.479095
0.299451 0.734334 0.475644
0.382927 0.726694 0.464837
0.498988 0.716860 0.449480
0.599189 0.709198 0.432400
0.681041 0.707271 0.421297
0.747476 0.712596 0.418060
0.794779 0.725569 0.423246
0.841568 0.745815 0.436647
0.309760 0.786868 0.464452
0.333196 0.785376 0.462601
0.408313 0.780690 0.456669
0.517885 0.774336 0.447218
0.612252 0.768869 0.436811
0.689393 0.766635 0.429377
0.753485 0.769044 0.426615
0.796434 0.776275 0.428816
0.837875 0.787526 0.435204
0.342413 0.811603 0.447808
0.362791 0.811192 0.446710
0.428770 0.809890 0.443173
0.526908 0.808105 0.438072
0.617371 0.806588 0.433058
0.691674 0.806101 0.429793
0.754469 0.807182 0.429450
0.796654 0.810027 0.432514
0.837181 0.814494 0.438811
0.078969 0.149993 0.748285
0.165671 0.166817 0.748604
0.379267 0.225935 0.749749
0.608001 0.323517 0.751844
0.742176 0.432970 0.746582
0.789830 0.487294 0.707020
0.831814 0.536792 0.682042
0.864374 0.587601 0.661617
0.886381 0.627213 0.644477
0.092997 0.206270 0.748558
0.173212 0.223031 0.748877
0.383809 0.278113 0.750021
0.610260 0.369755 0.752114
0.720661 0.439281 0.725157
0.779955 0.491817 0.694273
0.825080 0.541153 0.674104
0.861233 0.591806 0.654510
0.884320 0.629969 0.639759
0.120707 0.368606 0.736659
0.187647 0.369405 0.727220
0.349949 0.379351 0.703596
0.529853 0.408533 0.681251
0.662029 0.454645 0.663172
0.750113 0.505201 0.649926
0.804321 0.555342 0.640338
0.851229 0.605414 0.632202
0.877619 0.639486 0.624595
0.138419 0.445327 0.638410
0.178561 0.438459 0.625859
0.285953 0.424610 0.593637
0.420904 0.430652 0.570196
0.576764 0.475522 0.574342
0.697700 0.525928 0.587296
0.776815 0.578968 0.596696
0.830337 0.622522 0.601509
0.867732 0.656012 0.602709
0.173222 0.567386 0.622304
0.208865 0.560546 0.612574
0.301719 0.540903 0.583318
0.408791 0.518385 0.543523
0.513141 0.503168 0.502881
0.657522 0.560264 0.535867
0.752803 0.611856 0.558648
0.810203 0.647480 0.572297
0.856804 0.678122 0.580412
0.219491 0.662301 0.618237
0.251155 0.659011 0.612229
0.338448 0.648243 0.593509
0.452918 0.634857 0.567472
0.559571 0.625562 0.541804
0.654009 0.628007 0.526588
0.735282 0.651869 0.536595
0.796601 0.680646 0.552457
0.846518 0.707329 0.562961
0.264619 0.727686 0.607746
0.291105 0.725525 0.604181
0.372391 0.718820 0.592774
0.486483 0.709983 0.576148
0.588535 0.702881 0.559099
0.673116 0.701182 0.545678
0.739782 0.707258 0.539332
0.791393 0.722794 0.543542
0.839019 0.744114 0.553351
0.303970 0.780601 0.592140
0.326702 0.779283 0.590101
0.400787 0.775125 0.583424
0.509569 0.769455 0.573236
0.605191 0.764603 0.562352
0.684496 0.762868 0.553400
0.749481 0.765839 0.547734
0.793762 0.773919 0.546654
0.836270 0.786640 0.550117
0.338286 0.809656 0.573315
0.358480 0.809293 0.572207
0.423937 0.808147 0.568560
0.522829 0.806595 0.563028
0.613165 0.805337 0.557004
0.688952 0.805118 0.551984
0.752850 0.806492 0.548796
0.795448 0.809686 0.548562
0.836522 0.814557 0.551242
0.082379 0.191930 0.838719
0.166851 0.209383 0.838862
0.379967 0.266155 0.839374
0.608348 0.358944 0.840312
0.751015 0.468323 0.841706
0.803541 0.520671 0.818208
0.840930 0.560890 0.791765
0.867646 0.604046 0.764587
0.887819 0.634691 0.744376
0.094792 0.248347 0.838842
0.174342 0.263510 0.838984
0.384503 0.315198 0.839496
0.610606 0.402149 0.840433
0.748051 0.490936 0.839053
0.794062 0.525117 0.809039
0.834234 0.564959 0.782637
0.864655 0.606765 0.758584
0.885715 0.637247 0.740328
0.123621 0.413553 0.839280
0.198995 0.424070 0.839423
0.400502 0.460359 0.839933
0.580293 0.479548 0.818433
0.692532 0.504283 0.797691
0.765500 0.538057 0.773253
0.813307 0.577990 0.754232
0.854429 0.615884 0.739414
0.878834 0.646052 0.727162
0.145426 0.490102 0.773144
0.192981 0.489066 0.767384
0.321297 0.488973 0.751463
0.482434 0.498135 0.734771
0.621558 0.521550 0.724154
0.718126 0.556896 0.718867
0.784627 0.598865 0.715519
0.834103 0.631192 0.712016
0.868541 0.661107 0.707656
0.170765 0.566928 0.724289
0.206716 0.562984 0.718570
0.304560 0.552178 0.701243
0.427847 0.543278 0.679877
0.556521 0.551088 0.664788
0.671854 0.584288 0.669470
0.757417 0.621426 0.678732
0.811987 0.653144 0.684434
0.856944 0.681239 0.687019
0.212136 0.653425 0.713340
0.243158 0.650709 0.709129
0.329042 0.642363 0.695634
0.443580 0.631515 0.676048
0.551592 0.622672 0.648037
0.639007 0.619349 0.623902
0.732834 0.652597 0.644537
0.795515 0.681910 0.659273
0.845393 0.708382 0.668541
0.257214 0.719433 0.705513
0.283168 0.717660 0.702830
0.362590 0.712093 0.694075
0.475335 0.704566 0.680960
0.579299 0.698198 0.663771
0.665816 0.696266 0.647312
0.732090 0.702446 0.639348
0.788534 0.721215 0.645523
0.837066 0.743648 0.654486
0.297978 0.774427 0.693968
0.320038 0.773318 0.692351
0.393096 0.769806 0.687010
0.500828 0.764994 0.678818
0.598271 0.760907 0.667830
0.679716 0.759690 0.656562
0.744787 0.763088 0.649187
0.791056 0.771953 0.646847
0.834769 0.786308 0.649664
0.333813 0.807659 0.679121
0.353813 0.807356 0.678217
0.418732 0.806403 0.675207
0.518478 0.805137 0.669047
0.608760 0.804196 0.661619
0.686144 0.804286 0.654977
0.750803 0.805971 0.650472
0.794226 0.809525 0.648828
0.835887 0.814823 0.649931
0.085274 0.246615 0.892397
0.168340 0.261838 0.892459
0.380856 0.313630 0.892678
0.608790 0.400934 0.893081
0.751212 0.493994 0.893680
0.816057 0.557164 0.885685
0.850792 0.589523 0.862298
0.871780 0.618942 0.838928
0.890196 0.645114 0.820905
0.096851 0.296867 0.892450
0.175769 0.311128 0.892511
0.385385 0.360368 0.892730
0.611046 0.436839 0.893133
0.752153 0.517461 0.893732
0.807228 0.561699 0.880157
0.844331 0.593489 0.856068
0.868872 0.621498 0.834676
0.888086 0.647511 0.817962
0.124905 0.447580 0.892638
0.200251 0.457510 0.892699
0.401359 0.488167 0.892918
0.618464 0.532534 0.893099
0.718597 0.549990 0.877146
0.780223 0.574957 0.855466
0.823923 0.605438 0.836302
0.858987 0.630031 0.820899
0.881145 0.655750 0.808286
0.154582 0.541122 0.866291
0.210744 0.541391 0.863231
0.356694 0.543752 0.853783
0.530263 0.551880 0.840930
0.658216 0.568560 0.828191
0.741061 0.593892 0.817286
0.795311 0.619262 0.808284
0.840566 0.644178 0.800594
0.870620 0.669063 0.792153
0.175605 0.589382 0.813578
0.214083 0.587961 0.810988
0.320872 0.584889 0.803093
0.463116 0.585675 0.791348
0.594186 0.596777 0.779359
0.693868 0.615490 0.773438
0.767035 0.638398 0.771372
0.817296 0.663687 0.769977
0.858615 0.687661 0.767555
0.208987 0.652151 0.791569
0.240043 0.650415 0.787973
0.327328 0.645196 0.776390
0.447595 0.639064 0.759634
0.563761 0.636573 0.743234
0.663035 0.644219 0.734691
0.742356 0.664674 0.737370
0.798465 0.688710 0.742864
0.846471 0.712647 0.746392
0.251352 0.713814 0.779080
0.276939 0.712465 0.776525
0.355253 0.708207 0.768088
0.467957 0.702401 0.755121
0.574346 0.697417 0.740422
0.662179 0.695565 0.726822
0.724760 0.698486 0.716382
0.787614 0.722659 0.725997
0.836461 0.745373 0.732345
0.292411 0.769181 0.767152
0.314109 0.768299 0.765536
0.386051 0.765502 0.760146
0.493049 0.761677 0.751716
0.592355 0.758501 0.741983
0.675719 0.757819 0.732929
0.740627 0.761313 0.726368
0.788479 0.770608 0.723984
0.833553 0.786783 0.726838
0.329350 0.805829 0.752071
0.349159 0.805592 0.751135
0.413562 0.804855 0.747999
0.513405 0.803912 0.743053
0.604514 0.803329 0.737301
0.683496 0.803754 0.731952
0.748535 0.805744 0.728081
0.793100 0.809632 0.726378
0.835360 0.815354 0.726857
0.087882 0.305753 0.925555
0.170141 0.319799 0.925598
0.381940 0.368565 0.925750
0.609329 0.443127 0.926029
0.751452 0.521583 0.926445
0.825611 0.593813 0.923944
0.856706 0.615029 0.904840
0.875884 0.635473 0.888743
0.892875 0.657394 0.875508
0.099097 0.352914 0.925592
0.177497 0.366222 0.925634
0.386460 0.409974 0.925786
0.611583 0.476345 0.926065
0.752316 0.543586 0.926481
0.817539 0.598430 0.919025
0.852612 0.617761 0.901363
0.873071 0.637921 0.886114
0.890795 0.659619 0.873075
0.126963 0.484140 0.925722
0.201775 0.491330 0.925764
0.402405 0.516142 0.925916
0.619594 0.558277 0.926195
0.738069 0.593331 0.918805
0.792490 0.609595 0.903527
0.833876 0.626429 0.889523
0.863781 0.646076 0.877502
0.883914 0.666809 0.862787
0.164439 0.591757 0.914791
0.226976 0.592230 0.913169
0.385400 0.594578 0.907871
0.561100 0.600825 0.899847
0.681030 0.610149 0.890134
0.758483 0.623015 0.880632
0.806027 0.639815 0.870434
0.847938 0.659457 0.857953
0.873357 0.679112 0.846986
0.184427 0.618996 0.878264
0.226137 0.618868 0.877092
0.342227 0.619088 0.872599
0.497405 0.621626 0.863699
0.626188 0.628623 0.854517
0.714363 0.640969 0.846579
0.777710 0.657992 0.840096
0.824286 0.676623 0.834523
0.861268 0.696525 0.829228
0.211116 0.660728 0.846508
0.242935 0.659990 0.844753
0.334209 0.657903 0.839090
0.463339 0.656376 0.830917
0.585078 0.658654 0.822880
0.681190 0.666796 0.817372
0.755217 0.681218 0.814926
0.804298 0.699741 0.814074
0.849433 0.719786 0.813180
0.248225 0.712671 0.831360
0.273732 0.711779 0.829923
0.352187 0.709014 0.825146
0.466947 0.705488 0.817726
0.577032 0.703250 0.809316
0.667871 0.704825 0.802023
0.737494 0.713559 0.798526
0.791184 0.730460 0.799627
0.837852 0.750121 0.801501
0.287923 0.765765 0.821980
0.309407 0.765119 0.820999
0.380530 0.763083 0.817700
0.487345 0.760369 0.812448
0.588571 0.758333 0.806214
0.673645 0.758482 0.800150
0.738608 0.762098 0.794704
0.786157 0.770058 0.790165
0.833131 0.788748 0.795182
0.325270 0.804388 0.812038
0.344883 0.804219 0.811446
0.408833 0.803706 0.809452
0.508287 0.803106 0.806265
0.600799 0.802906 0.802487
0.681276 0.803681 0.798874
0.746699 0.805954 0.796043
0.792192 0.810103 0.794068
0.835013 0.816207 0.794591
0.091337 0.371152 0.940982
0.172256 0.384134 0.940996
0.383224 0.424477 0.941048
0.609969 0.486396 0.941143
0.751737 0.552141 0.941285
0.831032 0.620620 0.941476
0.861015 0.635835 0.932814
0.879273 0.652354 0.919739
0.895288 0.669582 0.905783
0.101465 0.412077 0.940994
0.179528 0.422621 0.941008
0.387734 0.458996 0.941060
0.612220 0.510297 0.941155
0.752509 0.572700 0.941297
0.824379 0.624542 0.939608
0.857208 0.638504 0.931314
0.876590 0.654715 0.917304
0.893264 0.671585 0.904012
0.129332 0.517461 0.941038
0.203582 0.524088 0.941053
0.403643 0.547076 0.941104
0.620221 0.586492 0.941199
0.750885 0.624256 0.940269
0.801449 0.634076 0.933074
0.841884 0.646999 0.922255
0.867776 0.662298 0.909268
0.886538 0.678443 0.898005
0.173357 0.627527 0.939622
0.239239 0.627804 0.938922
0.406338 0.629059 0.936576
0.583409 0.632184 0.932841
0.698004 0.638134 0.926468
0.769467 0.647443 0.915989
0.815184 0.659977 0.906018
0.853565 0.674154 0.896784
0.876107 0.690141 0.888159
0.193672 0.646224 0.915336
0.238322 0.646366 0.914372
0.361937 0.647208 0.911170
0.523993 0.649817 0.906157
0.650652 0.655401 0.900220
0.731360 0.664204 0.893793
0.787279 0.676004 0.887677
0.831202 0.690438 0.882039
0.864161 0.706609 0.876797
0.217006 0.675568 0.890385
0.249895 0.675376 0.889582
0.345833 0.675067 0.886942
0.482657 0.675802 0.882943
0.605428 0.679195 0.878527
0.696405 0.686444 0.874529
0.764219 0.697716 0.869167
0.810634 0.712165 0.864748
0.852476 0.728499 0.860656
0.248453 0.717028 0.876114
0.274193 0.716575 0.875419
0.354063 0.715274 0.872191
0.472513 0.714059 0.866222
0.585858 0.714579 0.859515
0.677430 0.718661 0.853688
0.748341 0.727571 0.849925
0.796373 0.740977 0.848146
0.840491 0.756987 0.847109
0.285110 0.765037 0.864097
0.306496 0.764629 0.863236
0.377346 0.763383 0.860327
0.484754 0.761898 0.855663
0.587963 0.761304 0.850088
0.674646 0.762943 0.844675
0.741472 0.768176 0.840538
0.789974 0.778433 0.838806
0.834261 0.793224 0.839203
0.321884 0.803548 0.853420
0.341330 0.803446 0.852877
0.404933 0.803157 0.851039
0.504180 0.802904 0.848078
0.597992 0.803101 0.844521
0.679776 0.804244 0.841057
0.745652 0.806796 0.838365
0.791740 0.811119 0.837000
0.834914 0.817434 0.837340
