negative-ultramax-400/Ultramax400_Modern_ExtraPunchy.cube
TITLE "Kodak Ultramax 400 Modern ExtraPunchy"
# Adobe RGB in/out. REPLACES AgX. Kodak Ultramax 400 Modern ExtraPunchy.
LUT_3D_SIZE 5
DOMAIN_MIN 0.0 0.0 0.0
DOMAIN_MAX 1.0 1.0 1.0
0.069662 0.073299 0.081842
0.371947 0.162425 0.083448
0.659880 0.366417 0.107059
0.768907 0.521216 0.146267
0.824664 0.612575 0.196787
0.094884 0.346339 0.082809
0.275337 0.278149 0.083632
0.604064 0.415939 0.101352
0.745990 0.547121 0.140205
0.815547 0.627896 0.191344
0.187662 0.616498 0.099684
0.358854 0.584490 0.099845
0.569973 0.561329 0.108436
0.706567 0.611458 0.136018
0.794443 0.667305 0.183463
0.286197 0.726287 0.125646
0.404979 0.716847 0.126721
0.588814 0.701046 0.133095
0.696063 0.701506 0.152015
0.778681 0.723736 0.189732
0.353304 0.778932 0.149647
0.437339 0.776574 0.151700
0.591427 0.771856 0.159947
0.694711 0.771526 0.179306
0.772805 0.778814 0.212930
0.068019 0.094381 0.393210
0.381847 0.181721 0.400682
0.653547 0.365685 0.367483
0.761227 0.514007 0.363113
0.821054 0.608534 0.372635
0.086340 0.288206 0.317368
0.198008 0.212182 0.188320
0.584791 0.399584 0.291810
0.737400 0.539664 0.334004
0.811935 0.623415 0.358836
0.173058 0.593269 0.335466
0.335336 0.563475 0.298185
0.545811 0.541681 0.251778
0.698127 0.601489 0.289760
0.791214 0.663542 0.331433
0.278590 0.719372 0.323748
0.395577 0.710365 0.313241
0.581826 0.694960 0.293333
0.691431 0.696858 0.293537
0.776845 0.721588 0.320687
0.350456 0.777128 0.309721
0.433976 0.774895 0.307977
0.589330 0.770503 0.306085
0.693490 0.770663 0.312249
0.772443 0.778663 0.330354
0.069637 0.156948 0.703688
0.382679 0.242673 0.704762
0.683293 0.437337 0.702439
0.767088 0.537518 0.646467
0.819458 0.612539 0.618498
0.094630 0.382623 0.695143
0.354441 0.392318 0.667151
0.620214 0.455323 0.631391
0.740399 0.551581 0.615629
0.809751 0.625547 0.604524
0.153139 0.560651 0.602878
0.303583 0.540644 0.571667
0.500602 0.501826 0.505954
0.690521 0.596294 0.549889
0.787439 0.661316 0.569107
0.261005 0.704924 0.592382
0.376067 0.697648 0.580196
0.568019 0.683458 0.550289
0.681715 0.687366 0.534209
0.773306 0.718370 0.545201
0.343177 0.772776 0.562849
0.425509 0.770966 0.558651
0.584235 0.767594 0.548435
0.690566 0.768980 0.541443
0.771585 0.778667 0.543333
0.072097 0.265571 0.835231
0.384207 0.332203 0.835497
0.689234 0.492097 0.836449
0.781395 0.577203 0.799830
0.823692 0.631517 0.764313
0.099273 0.449477 0.835459
0.403890 0.485923 0.835725
0.667691 0.547536 0.814051
0.759423 0.589515 0.777540
0.813655 0.641481 0.752007
0.155566 0.577098 0.757913
0.325062 0.573751 0.746219
0.571758 0.582595 0.726387
0.704282 0.624392 0.720572
0.789290 0.669855 0.717788
0.243901 0.693215 0.726183
0.359558 0.688213 0.718177
0.557336 0.678577 0.697913
0.671783 0.679533 0.679426
0.771544 0.719399 0.691966
0.334160 0.768184 0.706465
0.415582 0.767016 0.703479
0.578563 0.765187 0.695617
0.687476 0.768082 0.688820
0.770534 0.779625 0.687916
0.074790 0.384923 0.895182
0.386483 0.430247 0.895289
0.689578 0.549163 0.895673
0.791745 0.621675 0.879504
0.829348 0.653664 0.848332
0.103838 0.517007 0.895274
0.406080 0.545329 0.895381
0.689019 0.609409 0.894030
0.775276 0.633519 0.865036
0.819633 0.661604 0.840554
0.175244 0.632696 0.858017
0.366001 0.633741 0.853792
0.609450 0.641193 0.842695
0.723880 0.659419 0.829099
0.794963 0.686787 0.813553
0.240202 0.696081 0.812581
0.358410 0.694517 0.808300
0.566244 0.693897 0.797447
0.687348 0.704830 0.789228
0.774318 0.728874 0.786814
0.326148 0.765449 0.792224
0.407316 0.764981 0.790183
0.574270 0.764914 0.784594
0.685580 0.769344 0.779311
0.770100 0.782128 0.778432
