negative-ultramax-400/Ultramax400_Modern_Soft.cube
TITLE "Kodak Ultramax 400 Modern Soft"
# Adobe RGB in/out. REPLACES AgX. Kodak Ultramax 400 Modern Soft.
LUT_3D_SIZE 33
DOMAIN_MIN 0.0 0.0 0.0
DOMAIN_MAX 1.0 1.0 1.0
0.061578 0.068299 0.085817
0.068608 0.070714 0.086284
0.079372 0.074462 0.087380
0.095388 0.079351 0.088700
0.118803 0.085303 0.090329
0.167780 0.092922 0.092471
0.233881 0.102203 0.094268
0.308716 0.111660 0.096626
0.380198 0.125219 0.098884
0.429242 0.142775 0.101047
0.476522 0.166923 0.103694
0.518776 0.192273 0.106114
0.553035 0.225750 0.108339
0.584660 0.261084 0.110941
0.605067 0.294146 0.113750
0.623228 0.324198 0.116683
0.640431 0.355771 0.119450
0.656759 0.380460 0.122927
0.672284 0.404901 0.126259
0.687068 0.429067 0.129442
0.701169 0.450611 0.132488
0.711004 0.468220 0.136215
0.720066 0.485435 0.140064
0.728725 0.502265 0.143797
0.737008 0.518713 0.147417
0.744939 0.531420 0.151419
0.752540 0.542320 0.155636
0.759831 0.552878 0.159749
0.766828 0.563108 0.163761
0.773547 0.573020 0.167801
0.780004 0.582625 0.172958
0.786174 0.591935 0.178023
0.790299 0.600957 0.182995
0.063246 0.072817 0.086175
0.066784 0.072354 0.086270
0.075898 0.075184 0.087172
0.091393 0.079926 0.088496
0.113598 0.085914 0.090167
0.160270 0.093455 0.092298
0.224101 0.102643 0.094137
0.299592 0.112248 0.096452
0.374054 0.125709 0.098759
0.425420 0.143904 0.100909
0.473669 0.167775 0.103586
0.516596 0.193378 0.106027
0.551249 0.226854 0.108267
0.583631 0.262179 0.110858
0.604235 0.295070 0.113666
0.622498 0.324898 0.116610
0.639785 0.356415 0.119386
0.656184 0.381069 0.122852
0.671768 0.405479 0.126191
0.686603 0.429616 0.129382
0.700747 0.451004 0.132433
0.710735 0.468591 0.136147
0.719823 0.485788 0.140002
0.728504 0.502600 0.143740
0.736807 0.519033 0.147365
0.744756 0.531633 0.151361
0.752372 0.542522 0.155582
0.759676 0.553071 0.159699
0.766685 0.563291 0.163714
0.773416 0.573194 0.167743
0.779882 0.582792 0.172903
0.786092 0.592095 0.177972
0.790228 0.601111 0.182947
0.065394 0.080038 0.086997
0.068578 0.079620 0.087096
0.074125 0.078863 0.087328
0.084145 0.081827 0.088146
0.102980 0.087482 0.089759
0.139295 0.094912 0.091801
0.194983 0.103960 0.093735
0.279351 0.114204 0.095915
0.356205 0.127364 0.098358
0.414804 0.147612 0.100497
0.464061 0.170738 0.103227
0.508156 0.197255 0.105733
0.545099 0.230740 0.108023
0.579016 0.266049 0.110573
0.601314 0.298340 0.113377
0.619940 0.327378 0.116357
0.637515 0.358696 0.119164
0.654156 0.383233 0.122588
0.669946 0.407534 0.125954
0.684957 0.431571 0.129168
0.699254 0.452402 0.132239
0.709783 0.469916 0.135908
0.718960 0.487047 0.139783
0.727720 0.503799 0.143540
0.736092 0.520177 0.147181
0.744101 0.532395 0.151152
0.751772 0.543245 0.155388
0.759124 0.553758 0.159520
0.766177 0.563946 0.163548
0.772946 0.573820 0.167535
0.779448 0.583391 0.172708
0.785696 0.592668 0.177789
0.789976 0.601661 0.182775
0.067905 0.089995 0.087942
0.070640 0.089635 0.088030
0.076739 0.088580 0.088267
0.083628 0.087697 0.088595
0.095392 0.090031 0.089541
0.121097 0.097364 0.091304
0.172636 0.106170 0.093271
0.242684 0.117494 0.095223
0.326920 0.130172 0.097794
0.398812 0.152855 0.100036
0.447318 0.175898 0.102669
0.494307 0.204100 0.105263
0.534776 0.237638 0.107622
0.569758 0.272559 0.110098
0.595900 0.304178 0.112887
0.615475 0.331880 0.115925
0.633526 0.362786 0.118780
0.650572 0.387124 0.122129
0.666709 0.411239 0.125539
0.682022 0.435103 0.128791
0.696584 0.454931 0.131896
0.708076 0.472318 0.135484
0.717410 0.489332 0.139395
0.726308 0.505978 0.143182
0.734801 0.522258 0.146853
0.742919 0.533781 0.150778
0.750686 0.544563 0.155042
0.758125 0.555013 0.159198
0.765255 0.565143 0.163248
0.772094 0.574964 0.167196
0.778659 0.584486 0.172356
0.784963 0.593717 0.177459
0.789516 0.602668 0.182465
0.071086 0.104499 0.089441
0.073516 0.104066 0.089503
0.079811 0.102677 0.089692
0.088391 0.100822 0.089959
0.097936 0.099799 0.090317
0.113235 0.102451 0.091338
0.153391 0.109990 0.093058
0.210434 0.122691 0.094714
0.291205 0.135841 0.097280
0.370388 0.160398 0.099558
0.426147 0.183247 0.102045
0.476995 0.213931 0.104706
0.521413 0.247548 0.107128
0.557498 0.281120 0.109493
0.588559 0.312577 0.112316
0.609334 0.340412 0.115351
0.627979 0.368682 0.118262
0.645543 0.392753 0.121502
0.662135 0.416617 0.124967
0.677848 0.440244 0.128266
0.692771 0.458619 0.131416
0.705623 0.475830 0.134887
0.715175 0.492682 0.138845
0.724266 0.509178 0.142675
0.732931 0.524804 0.146384
0.741201 0.535822 0.150244
0.749105 0.546505 0.154545
0.756667 0.556865 0.158735
0.763907 0.566912 0.162817
0.770846 0.576656 0.166793
0.777502 0.586106 0.171847
0.783889 0.595272 0.176980
0.788841 0.604161 0.182015
0.075986 0.133194 0.091689
0.078098 0.132436 0.091732
0.085770 0.129946 0.091857
0.095642 0.125701 0.092001
0.105922 0.119965 0.092125
0.119256 0.117204 0.092481
0.144217 0.119705 0.093245
0.189146 0.129773 0.094647
0.266932 0.149460 0.097017
0.346684 0.170725 0.099215
0.408432 0.195275 0.101514
0.458658 0.226960 0.104180
0.504436 0.260559 0.106627
0.543473 0.292252 0.108878
0.578779 0.321654 0.111717
0.601945 0.351899 0.114698
0.621203 0.376318 0.117658
0.639325 0.400065 0.120759
0.656421 0.423621 0.124277
0.672588 0.446116 0.127626
0.687941 0.463449 0.130826
0.702493 0.480442 0.134149
0.712308 0.497093 0.138160
0.721635 0.513403 0.142039
0.730511 0.527640 0.145793
0.738972 0.538522 0.149568
0.747047 0.549079 0.153912
0.754763 0.559323 0.158143
0.762144 0.569263 0.162264
0.769211 0.578907 0.166276
0.775982 0.588266 0.171192
0.782475 0.597345 0.176362
0.787950 0.606154 0.181432
0.081039 0.190726 0.093683
0.083758 0.191737 0.093778
0.091626 0.184504 0.093827
0.102174 0.172269 0.093797
0.114370 0.158330 0.093763
0.130721 0.149032 0.093907
0.155576 0.145245 0.094269
0.183317 0.147639 0.095059
0.247241 0.164984 0.097108
0.321261 0.184560 0.099112
0.391244 0.212580 0.101208
0.439003 0.243739 0.103794
0.486868 0.276066 0.106208
0.529010 0.306075 0.108452
0.564765 0.332242 0.111139
0.593243 0.362155 0.114040
0.613624 0.385636 0.117029
0.632261 0.408995 0.119966
0.649846 0.432190 0.123524
0.666484 0.452322 0.126918
0.682288 0.469382 0.130166
0.697327 0.486122 0.133314
0.708899 0.502539 0.137376
0.718488 0.518631 0.141305
0.727603 0.531149 0.145106
0.736281 0.541869 0.148785
0.744553 0.552277 0.153169
0.752449 0.562383 0.157444
0.759994 0.572194 0.161607
0.767211 0.581719 0.165659
0.774119 0.590966 0.170408
0.780738 0.599941 0.175620
0.786810 0.608653 0.180731
0.086374 0.261522 0.095632
0.088831 0.262510 0.095760
0.097114 0.258853 0.095968
0.108017 0.237617 0.095784
0.123395 0.216053 0.095681
0.144676 0.198928 0.095776
0.170722 0.188394 0.096137
0.196106 0.185150 0.096776
0.239615 0.187035 0.097645
0.302473 0.208041 0.099282
0.371705 0.235051 0.101204
0.422586 0.265033 0.103629
0.471014 0.293629 0.105943
0.514848 0.321173 0.108131
0.550959 0.349483 0.110658
0.584321 0.373677 0.113452
0.605698 0.396624 0.116439
0.624736 0.419510 0.119268
0.642740 0.442290 0.122771
0.659820 0.459631 0.126197
0.676050 0.476383 0.129480
0.691495 0.492838 0.132628
0.705063 0.508991 0.136541
0.714924 0.524464 0.140513
0.724290 0.535308 0.144358
0.733198 0.545845 0.148079
0.741683 0.556084 0.152347
0.749775 0.566031 0.156667
0.757500 0.575695 0.160872
0.764883 0.585082 0.164965
0.771945 0.594200 0.169524
0.778705 0.603055 0.174780
0.785180 0.611654 0.179934
0.092297 0.328915 0.097994
0.094691 0.329558 0.098092
0.102397 0.324531 0.098149
0.114478 0.308948 0.098003
0.132461 0.288780 0.097902
0.158183 0.270492 0.097920
0.183285 0.254549 0.098117
0.215376 0.244955 0.098521
0.257851 0.241731 0.099126
0.298395 0.244111 0.099899
0.359302 0.263340 0.101507
0.411939 0.288562 0.103716
0.457734 0.314961 0.105878
0.500210 0.338605 0.107963
0.538181 0.364973 0.110332
0.572463 0.387079 0.112999
0.597565 0.409335 0.115944
0.617129 0.431640 0.118754
0.635458 0.451390 0.122083
0.652893 0.468034 0.125518
0.669485 0.484432 0.128818
0.685289 0.500565 0.131988
0.700355 0.516422 0.135704
0.711056 0.529472 0.139709
0.720668 0.540096 0.143587
0.729809 0.550430 0.147344
0.738510 0.560479 0.151484
0.746804 0.570251 0.155844
0.754718 0.579750 0.160089
0.762275 0.588984 0.164221
0.769500 0.597958 0.168570
0.776411 0.606678 0.173870
0.783028 0.615150 0.179066
0.098970 0.392256 0.100126
0.101087 0.390732 0.100130
0.108113 0.382775 0.100048
0.121730 0.370162 0.099937
0.143159 0.355137 0.099847
0.170467 0.334299 0.099832
0.195020 0.320429 0.099938
0.234266 0.309352 0.100195
0.276988 0.301913 0.100630
0.316291 0.299515 0.101459
0.358851 0.301617 0.102474
0.404193 0.315698 0.104046
0.445694 0.335810 0.106024
0.487995 0.360934 0.107969
0.526966 0.381446 0.110202
0.560590 0.402490 0.112728
0.589589 0.423886 0.115594
0.609811 0.445041 0.118357
0.628319 0.461371 0.121518
0.645985 0.477549 0.124932
0.662844 0.493536 0.128225
0.678934 0.509301 0.131399
0.694295 0.524456 0.134916
0.707005 0.535111 0.138936
0.716846 0.545493 0.142836
0.726205 0.555604 0.146617
0.735115 0.565446 0.150621
0.743608 0.575025 0.155012
0.751708 0.584345 0.159289
0.759443 0.593411 0.163455
0.766834 0.602227 0.167584
0.773901 0.610799 0.172922
0.780664 0.619130 0.178157
0.105360 0.442767 0.102364
0.107329 0.440713 0.102337
0.114947 0.433737 0.102250
0.129575 0.422356 0.102127
0.153712 0.408213 0.102017
0.181773 0.393298 0.101976
0.211222 0.379408 0.102057
0.251970 0.367873 0.102299
0.290384 0.359494 0.102725
0.335051 0.354593 0.103339
0.370529 0.352891 0.104127
0.405364 0.354695 0.105063
0.436749 0.363280 0.106366
0.478288 0.381257 0.108153
0.517564 0.400264 0.110283
0.550278 0.420084 0.112676
0.582430 0.440504 0.115431
0.603062 0.456907 0.118116
0.621585 0.472592 0.121122
0.639346 0.488217 0.124485
0.656356 0.503722 0.127745
0.672639 0.519061 0.130899
0.688220 0.531012 0.134225
0.702892 0.541374 0.138240
0.712928 0.551488 0.142143
0.722482 0.561354 0.145934
0.731583 0.570971 0.149799
0.740261 0.580341 0.154208
0.748540 0.589465 0.158508
0.756445 0.598349 0.162700
0.763999 0.606994 0.166783
0.771221 0.615404 0.171973
0.778131 0.623584 0.177240
0.112240 0.479548 0.104531
0.114578 0.478227 0.104511
0.122829 0.473686 0.104446
0.138984 0.466085 0.104352
0.163975 0.456273 0.104261
0.186526 0.445403 0.104217
0.226299 0.431790 0.104258
0.268461 0.419098 0.104419
0.305380 0.408835 0.104723
0.348992 0.401516 0.105180
0.383616 0.397317 0.105791
0.412458 0.396147 0.106542
0.439768 0.397740 0.107412
0.470934 0.404087 0.108501
0.508642 0.421569 0.110582
0.541764 0.440058 0.112855
0.573283 0.455404 0.115475
0.596726 0.470183 0.118053
0.615454 0.485112 0.120930
0.633172 0.500087 0.124210
0.650215 0.515028 0.127410
0.666587 0.527990 0.130522
0.682301 0.538226 0.133673
0.697375 0.548259 0.137659
0.709018 0.558077 0.141546
0.718733 0.567674 0.145331
0.727998 0.577044 0.149056
0.736839 0.586186 0.153469
0.745280 0.595099 0.157779
0.753343 0.603786 0.161985
0.761051 0.612246 0.166086
0.768421 0.620484 0.171057
0.775473 0.628501 0.176348
0.120726 0.514724 0.106503
0.123038 0.513588 0.106488
0.131549 0.509653 0.106439
0.149614 0.502963 0.106367
0.174068 0.494119 0.106294
0.199523 0.484012 0.106252
0.240120 0.473599 0.106272
0.283003 0.463750 0.106383
0.321713 0.455158 0.106604
0.359724 0.448310 0.106950
0.396305 0.443492 0.107427
0.419550 0.439960 0.108032
0.447651 0.439191 0.108754
0.474977 0.440966 0.109812
0.501895 0.444901 0.111086
0.535018 0.457716 0.113263
0.565579 0.471100 0.115729
0.591198 0.484897 0.118179
0.610052 0.498970 0.120961
0.627605 0.513201 0.124132
0.644566 0.526325 0.127245
0.660925 0.536278 0.130291
0.676681 0.546103 0.133293
0.691840 0.555770 0.137228
0.705206 0.565261 0.141077
0.715042 0.574560 0.144836
0.724438 0.583661 0.148502
0.733415 0.592555 0.152829
0.741995 0.601240 0.157134
0.750199 0.609713 0.161341
0.758045 0.617976 0.165449
0.765551 0.626028 0.170210
0.772737 0.633615 0.175514
0.129977 0.540958 0.108306
0.132356 0.540276 0.108295
0.142483 0.537897 0.108258
0.160299 0.533792 0.108203
0.183222 0.528245 0.108146
0.212250 0.520922 0.108110
0.253242 0.511031 0.108121
0.291661 0.501321 0.108201
0.337072 0.492442 0.108370
0.370533 0.484892 0.108640
0.403566 0.479015 0.109045
0.427093 0.474999 0.109724
0.455673 0.472896 0.110552
0.481299 0.472647 0.111518
0.507203 0.474113 0.112605
0.530869 0.477109 0.113989
0.559447 0.488262 0.116181
0.586616 0.501023 0.118491
0.605436 0.514167 0.121219
0.622725 0.526382 0.124260
0.639507 0.535842 0.127267
0.655760 0.545280 0.130226
0.671472 0.554648 0.133128
0.686637 0.563911 0.136972
0.701258 0.573040 0.140763
0.711484 0.582014 0.144478
0.720973 0.590819 0.148110
0.730055 0.599443 0.152317
0.738748 0.607881 0.156601
0.747068 0.616126 0.160795
0.755033 0.624175 0.164897
0.762661 0.631918 0.169464
0.769967 0.638969 0.174768
0.141334 0.563282 0.110349
0.144182 0.562698 0.110338
0.154076 0.560649 0.110301
0.171058 0.557083 0.110244
0.188714 0.552196 0.110185
0.224929 0.546338 0.110148
0.265971 0.539939 0.110161
0.303141 0.533440 0.110248
0.347753 0.527248 0.110433
0.381652 0.520906 0.110734
0.410339 0.514331 0.111162
0.435232 0.509325 0.111725
0.462758 0.506014 0.112422
0.487661 0.504419 0.113347
0.513001 0.504481 0.114460
0.535138 0.506080 0.115697
0.556776 0.509061 0.117037
0.582935 0.518478 0.118976
0.601603 0.528539 0.121697
0.618561 0.537265 0.124594
0.635089 0.546102 0.127479
0.651158 0.554985 0.130335
0.666749 0.563860 0.133151
0.681849 0.572681 0.136909
0.696451 0.581415 0.140622
0.708121 0.590034 0.144275
0.717664 0.598518 0.147858
0.726816 0.606850 0.151958
0.735591 0.615019 0.156205
0.744003 0.623017 0.160371
0.752066 0.630822 0.164454
0.759796 0.637859 0.168849
0.767206 0.644722 0.174140
0.153689 0.584468 0.112480
0.156364 0.583964 0.112472
0.165700 0.582190 0.112444
0.181881 0.579081 0.112403
0.201692 0.574772 0.112361
0.237323 0.569528 0.112337
0.278432 0.563693 0.112352
0.315763 0.557630 0.112428
0.356086 0.551692 0.112583
0.391957 0.546189 0.112860
0.416575 0.541374 0.113283
0.442847 0.537438 0.113843
0.469237 0.534507 0.114543
0.493854 0.532643 0.115382
0.518538 0.531854 0.116353
0.539495 0.532100 0.117445
0.560643 0.533310 0.118645
0.581981 0.535391 0.120081
0.598273 0.540845 0.122380
0.615096 0.548873 0.125127
0.631319 0.557069 0.127878
0.647146 0.565371 0.130620
0.662555 0.573722 0.133396
0.677528 0.582072 0.137049
0.692051 0.590381 0.140668
0.704998 0.598617 0.144241
0.714557 0.606753 0.147760
0.723746 0.614770 0.151772
0.732572 0.622651 0.155965
0.741048 0.630384 0.160089
0.749186 0.637382 0.164139
0.756996 0.644205 0.168391
0.764493 0.649156 0.173654
0.165965 0.604594 0.114789
0.168483 0.604156 0.114782
0.177308 0.602614 0.114760
0.187004 0.599894 0.114727
0.214885 0.596089 0.114695
0.249746 0.591403 0.114681
0.287247 0.586107 0.114705
0.328001 0.580502 0.114788
0.363852 0.574890 0.114949
0.399387 0.569544 0.115205
0.422274 0.564703 0.115570
0.449870 0.560554 0.116053
0.475275 0.557236 0.116659
0.499727 0.554836 0.117389
0.523185 0.553394 0.118242
0.543798 0.552908 0.119210
0.564547 0.553340 0.120544
0.584290 0.554629 0.122102
0.598045 0.556696 0.123772
0.612281 0.561126 0.125841
0.628172 0.568684 0.128455
0.643721 0.576396 0.131074
0.658904 0.584204 0.133866
0.673700 0.592061 0.137395
0.688094 0.599922 0.140906
0.702074 0.607751 0.144386
0.711688 0.615518 0.147826
0.720880 0.623198 0.151772
0.729729 0.630759 0.155897
0.738242 0.637622 0.159965
0.746428 0.644355 0.163968
0.754298 0.649206 0.168111
0.761861 0.653227 0.173333
0.178127 0.623726 0.116992
0.180503 0.623345 0.116987
0.183451 0.621998 0.116973
0.201010 0.619612 0.116952
0.228181 0.616250 0.116935
0.262210 0.612066 0.116934
0.294928 0.607277 0.116966
0.339891 0.602130 0.117048
0.372239 0.596881 0.117197
0.404622 0.591772 0.117426
0.428266 0.587018 0.117749
0.456286 0.582799 0.118173
0.480815 0.579257 0.118706
0.505181 0.576490 0.119350
0.527562 0.574561 0.120307
0.547927 0.573493 0.121457
0.568367 0.573278 0.122746
0.586565 0.573882 0.124162
0.600048 0.575250 0.125692
0.612595 0.577316 0.127322
0.625602 0.580872 0.129194
0.640853 0.587999 0.131687
0.655782 0.595263 0.134546
0.670368 0.602616 0.137942
0.684595 0.610014 0.141335
0.698448 0.617419 0.144712
0.709078 0.624797 0.148061
0.718244 0.632004 0.151967
0.727087 0.638678 0.156010
0.735612 0.645258 0.160009
0.743824 0.649694 0.163954
0.751731 0.653653 0.168026
0.759341 0.657519 0.173192
0.183700 0.641030 0.119062
0.186575 0.640723 0.119060
0.196794 0.639638 0.119052
0.215183 0.637707 0.119042
0.241336 0.634968 0.119037
0.274703 0.631529 0.119049
0.306316 0.627287 0.119090
0.347710 0.622585 0.119174
0.380478 0.617717 0.119315
0.409450 0.612893 0.119537
0.434075 0.608306 0.119925
0.461523 0.604123 0.120432
0.485844 0.600483 0.121067
0.510165 0.597491 0.121836
0.531602 0.595219 0.122740
0.551794 0.593710 0.123778
0.572004 0.592977 0.124946
0.588765 0.593008 0.126237
0.601985 0.593770 0.127641
0.614204 0.595218 0.129147
0.626333 0.597294 0.130742
0.638497 0.600112 0.132445
0.653159 0.606841 0.135422
0.667514 0.613691 0.138681
0.681547 0.620621 0.141950
0.695243 0.627591 0.145215
0.706738 0.634258 0.148466
0.715853 0.640662 0.152359
0.724666 0.646747 0.156310
0.733178 0.650674 0.160228
0.741394 0.654533 0.164104
0.749317 0.658318 0.168148
0.756955 0.662023 0.173247
0.198970 0.652946 0.121515
0.201746 0.652779 0.121514
0.211629 0.652188 0.121510
0.229359 0.651130 0.121509
0.254561 0.649621 0.121518
0.285123 0.647709 0.121548
0.317890 0.644978 0.121614
0.354631 0.641043 0.121732
0.388315 0.636914 0.121916
0.413922 0.632759 0.122183
0.439388 0.628574 0.122544
0.466084 0.624506 0.123010
0.490373 0.620866 0.123590
0.514662 0.617761 0.124290
0.535265 0.615269 0.125112
0.555338 0.613443 0.126058
0.575383 0.612311 0.127124
0.590837 0.611879 0.128307
0.603735 0.612134 0.129599
0.615768 0.613045 0.130992
0.627705 0.614572 0.132476
0.639547 0.616667 0.134350
0.651292 0.619277 0.136576
0.665107 0.625232 0.139599
0.678931 0.631613 0.142741
0.692449 0.637632 0.145890
0.704668 0.643680 0.149086
0.713712 0.648444 0.152947
0.722474 0.652202 0.156797
0.730954 0.655919 0.160626
0.739152 0.659585 0.164423
0.747074 0.663191 0.168484
0.754722 0.666729 0.173505
0.214266 0.662315 0.123973
0.216948 0.662170 0.123974
0.226475 0.661656 0.123977
0.243318 0.660733 0.123985
0.267810 0.659410 0.124007
0.292682 0.657725 0.124050
0.329461 0.655738 0.124128
0.361326 0.653527 0.124253
0.395800 0.651176 0.124438
0.418086 0.648775 0.124695
0.444261 0.646411 0.125037
0.470203 0.642891 0.125473
0.494429 0.639610 0.126011
0.518449 0.636729 0.126656
0.538540 0.634323 0.127413
0.558527 0.632446 0.128282
0.578453 0.631135 0.129263
0.592738 0.630388 0.130353
0.605364 0.630230 0.131548
0.617244 0.630685 0.132840
0.629017 0.631654 0.134599
0.640693 0.633133 0.136594
0.652273 0.635086 0.138696
0.663754 0.637468 0.140893
0.676716 0.642197 0.143695
0.690045 0.647247 0.146726
0.702859 0.650786 0.149981
0.711818 0.654330 0.153725
0.720513 0.657861 0.157468
0.728943 0.661368 0.161200
0.737108 0.664837 0.164910
0.745010 0.668260 0.169039
0.752651 0.671628 0.173971
0.229426 0.671143 0.126302
0.231951 0.671017 0.126304
0.240954 0.670568 0.126312
0.257255 0.669762 0.126330
0.281039 0.668602 0.126362
0.303717 0.667117 0.126418
0.340941 0.665354 0.126506
0.368267 0.663377 0.126639
0.400267 0.661257 0.126826
0.421980 0.659069 0.127079
0.448744 0.656888 0.127408
0.473924 0.654783 0.127822
0.498047 0.652821 0.128327
0.521402 0.651056 0.128930
0.541429 0.649535 0.129633
0.561347 0.648296 0.130440
0.581184 0.647364 0.131350
0.594441 0.646756 0.132362
0.606839 0.646479 0.133579
0.618596 0.646532 0.135216
0.630236 0.646906 0.136979
0.641770 0.647587 0.138859
0.653205 0.648555 0.140846
0.664542 0.649789 0.142930
0.675779 0.651265 0.145101
0.688002 0.653804 0.147712
0.700869 0.657092 0.151061
0.710160 0.660397 0.154684
0.718776 0.663705 0.158316
0.727144 0.667000 0.161947
0.735262 0.670273 0.165565
0.743131 0.673511 0.169811
0.750751 0.676707 0.174648
0.244215 0.679466 0.128510
0.246652 0.679356 0.128513
0.255347 0.678964 0.128525
0.271122 0.678259 0.128550
0.289374 0.677241 0.128592
0.315753 0.675932 0.128658
0.348226 0.674371 0.128757
0.375810 0.672608 0.128897
0.404349 0.670702 0.129088
0.426022 0.668718 0.129340
0.452880 0.666719 0.129660
0.477289 0.664768 0.130058
0.501265 0.662921 0.130538
0.523993 0.661231 0.131107
0.543947 0.659741 0.131769
0.563798 0.658487 0.132524
0.583046 0.657498 0.133448
0.595931 0.656792 0.134733
0.608138 0.656381 0.136148
0.619798 0.656268 0.137688
0.631329 0.656451 0.139350
0.642746 0.656922 0.141126
0.654058 0.657666 0.143008
0.665270 0.658667 0.144989
0.676383 0.659906 0.147057
0.687394 0.661364 0.149294
0.698980 0.663544 0.152310
0.708725 0.666619 0.155813
0.717255 0.669708 0.159333
0.725550 0.672797 0.162859
0.733610 0.675873 0.166381
0.741434 0.678928 0.170795
0.749023 0.681951 0.175531
0.258856 0.687316 0.130602
0.261208 0.687220 0.130606
0.269608 0.686878 0.130622
0.283696 0.686261 0.130653
0.299042 0.685368 0.130704
0.327761 0.684215 0.130779
0.355091 0.682834 0.130887
0.383151 0.681265 0.131035
0.408251 0.679558 0.131231
0.430243 0.677767 0.131483
0.456707 0.675947 0.131798
0.480334 0.674151 0.132184
0.504119 0.672432 0.132646
0.526250 0.670835 0.133194
0.546113 0.669402 0.134046
0.565893 0.668167 0.135017
0.584378 0.667157 0.136110
0.597199 0.666394 0.137327
0.609249 0.665892 0.138665
0.620831 0.665657 0.140122
0.632276 0.665693 0.141695
0.643597 0.665993 0.143379
0.654807 0.666551 0.145167
0.665912 0.667355 0.147052
0.676916 0.668388 0.149073
0.687820 0.669636 0.151605
0.698622 0.671080 0.154235
0.707495 0.672969 0.157099
0.715934 0.675847 0.160506
0.724151 0.678734 0.163927
0.732146 0.681620 0.167369
0.739917 0.684493 0.171986
0.747464 0.687345 0.176617
0.273307 0.694722 0.132585
0.275578 0.694638 0.132590
0.282974 0.694339 0.132609
0.291942 0.693799 0.132645
0.311547 0.693017 0.132703
0.339667 0.692003 0.132787
0.361777 0.690783 0.132904
0.390290 0.689390 0.133059
0.411986 0.687867 0.133291
0.434233 0.686257 0.133634
0.459917 0.684609 0.134059
0.483092 0.682969 0.134572
0.506644 0.681383 0.135181
0.528203 0.679893 0.135893
0.547953 0.678535 0.136712
0.567647 0.677342 0.137643
0.585483 0.676342 0.138687
0.598246 0.675556 0.139846
0.610164 0.674999 0.141119
0.621684 0.674680 0.142505
0.633059 0.674606 0.144001
0.644303 0.674774 0.145604
0.655429 0.675182 0.147307
0.666444 0.675820 0.149172
0.677356 0.676679 0.151498
0.688166 0.677744 0.153931
0.698876 0.679002 0.156463
0.707368 0.680437 0.159085
0.714798 0.682097 0.161825
0.722934 0.684791 0.165141
0.730858 0.687491 0.168872
0.738570 0.690188 0.173375
0.746068 0.692871 0.177898
0.285319 0.701709 0.134925
0.286655 0.701636 0.134934
0.291402 0.701375 0.134963
0.303443 0.700903 0.135019
0.323982 0.700218 0.135106
0.347672 0.699327 0.135231
0.368820 0.698252 0.135400
0.396842 0.697020 0.135621
0.415562 0.695665 0.135902
0.438012 0.694225 0.136251
0.462770 0.692742 0.136675
0.485593 0.691255 0.137184
0.508873 0.689804 0.137782
0.529877 0.688427 0.138475
0.549491 0.687158 0.139269
0.569081 0.686027 0.140167
0.586370 0.685060 0.141171
0.599077 0.684277 0.142282
0.610885 0.683694 0.143501
0.622352 0.683324 0.144826
0.633670 0.683173 0.146256
0.644851 0.683243 0.147788
0.655908 0.683533 0.149555
0.666850 0.684038 0.151677
0.677684 0.684751 0.153912
0.688415 0.685661 0.156254
0.699044 0.686757 0.158696
0.707429 0.688026 0.161229
0.714748 0.689456 0.163846
0.721962 0.691032 0.166540
0.729734 0.693466 0.170561
0.737382 0.695992 0.174950
0.744827 0.698512 0.179365
0.293755 0.708300 0.137352
0.295659 0.708236 0.137361
0.302789 0.708009 0.137394
0.316250 0.707598 0.137456
0.336284 0.706998 0.137551
0.354732 0.706218 0.137685
0.376376 0.705274 0.137865
0.400847 0.704187 0.138095
0.418983 0.702987 0.138384
0.441591 0.701706 0.138739
0.465421 0.700378 0.139166
0.487860 0.699039 0.139672
0.510832 0.697723 0.140262
0.531299 0.696464 0.140942
0.550751 0.695292 0.141716
0.570218 0.694236 0.142588
0.587052 0.693318 0.143559
0.599700 0.692560 0.144630
0.611414 0.691978 0.145803
0.622834 0.691582 0.147077
0.634103 0.691383 0.148451
0.645233 0.691384 0.150175
0.656234 0.691586 0.152104
0.667115 0.691987 0.154148
