negative-ultramax-400/Ultramax400_Classic_ExtraSoft.cube
TITLE "Kodak Ultramax 400 Classic ExtraSoft"
# Adobe RGB in/out. REPLACES AgX. Kodak Ultramax 400 Classic ExtraSoft.
LUT_3D_SIZE 5
DOMAIN_MIN 0.0 0.0 0.0
DOMAIN_MAX 1.0 1.0 1.0
0.057043 0.063015 0.079077
0.349615 0.073900 0.084251
0.676988 0.096900 0.093522
0.747823 0.118121 0.110540
0.772594 0.234134 0.563208
0.061954 0.130165 0.084752
0.088863 0.137700 0.089191
0.551915 0.165093 0.097558
0.738860 0.212819 0.110784
0.772594 0.234146 0.563206
0.072517 0.466577 0.093568
0.085912 0.484150 0.098963
0.297900 0.485922 0.108058
0.677940 0.505202 0.121076
0.772866 0.511449 0.261879
0.087773 0.661061 0.102915
0.098966 0.665062 0.108195
0.221385 0.668553 0.121114
0.552276 0.669244 0.136261
0.770594 0.678567 0.165625
0.098533 0.731136 0.096936
0.113879 0.747591 0.096955
0.184018 0.753707 0.112376
0.464092 0.750159 0.133002
0.773017 0.754578 0.144286
0.058485 0.073098 0.145386
0.349220 0.089847 0.350105
0.685350 0.111656 0.281772
0.747586 0.137392 0.363689
0.772594 0.234149 0.563231
0.066826 0.129437 0.142017
0.149252 0.158219 0.173417
0.635136 0.187122 0.186160
0.741705 0.233593 0.233369
0.772594 0.234146 0.563207
0.080294 0.457444 0.147818
0.104055 0.470172 0.156651
0.414550 0.482111 0.173895
0.706965 0.509615 0.196677
0.772780 0.521472 0.465762
0.095510 0.657364 0.150759
0.110979 0.660678 0.159635
0.279924 0.664629 0.181813
0.597862 0.667908 0.206532
0.771482 0.678885 0.253869
0.100301 0.735927 0.127321
0.115350 0.751935 0.127319
0.203578 0.753021 0.147448
0.483815 0.750021 0.186038
0.776217 0.754613 0.204717
0.061094 0.097148 0.460238
0.201212 0.128676 0.600063
0.673109 0.161779 0.600656
0.745093 0.204810 0.612311
0.772594 0.246385 0.642629
0.070997 0.172956 0.469378
0.139211 0.208977 0.547882
0.635320 0.256259 0.577034
0.740546 0.307246 0.598365
0.772594 0.245215 0.635819
0.089907 0.465166 0.439591
0.128148 0.477440 0.457786
0.506640 0.507539 0.501485
0.720146 0.526147 0.534806
0.772475 0.544460 0.626781
0.110413 0.655996 0.440879
0.138133 0.658855 0.447486
0.366171 0.663694 0.468579
0.661578 0.669751 0.489244
0.772179 0.683988 0.582354
0.108951 0.746945 0.522653
0.113154 0.751445 0.522650
0.250147 0.751057 0.467786
0.519048 0.750049 0.476661
0.777157 0.756024 0.500353
0.064444 0.158251 0.669059
0.117506 0.207084 0.693260
0.662703 0.254855 0.694841
0.742938 0.297948 0.697460
0.772594 0.260360 0.697790
0.072920 0.265376 0.673784
0.124768 0.304163 0.689727
0.630849 0.342971 0.693329
0.739384 0.382050 0.696609
0.772590 0.259694 0.696280
0.098832 0.505599 0.657700
0.144983 0.518645 0.670751
0.528959 0.535142 0.684659
0.724465 0.552665 0.691637
0.772292 0.571005 0.701921
0.119910 0.662988 0.637188
0.156475 0.665757 0.643153
0.409122 0.671400 0.661433
0.680665 0.678631 0.674854
0.772565 0.692888 0.699777
0.109667 0.748277 0.610497
0.114570 0.753493 0.610760
0.257346 0.754056 0.635903
0.527289 0.753338 0.642077
0.777431 0.760528 0.686543
0.123515 0.255871 0.764594
0.476073 0.269887 0.764624
0.705643 0.310621 0.764819
0.752171 0.329308 0.765491
0.772594 0.300351 0.762547
0.137675 0.334388 0.764176
0.449096 0.346497 0.764248
0.700772 0.383672 0.764543
0.751425 0.401033 0.765277
0.772594 0.307178 0.765445
0.162648 0.538376 0.763319
0.348470 0.542039 0.763551
0.677826 0.553735 0.764060
0.747961 0.563001 0.764908
0.774290 0.563693 0.767375
0.142246 0.676871 0.763465
0.215604 0.677960 0.763842
0.572346 0.681362 0.764535
0.736704 0.686026 0.765417
0.775478 0.693542 0.767344
0.106520 0.746151 0.704503
0.115350 0.755781 0.718928
0.194558 0.764478 0.750877
0.511126 0.762110 0.767202
0.777758 0.766397 0.768165
