negative-ultramax-400/Ultramax400_Classic_Soft.cube
TITLE "Kodak Ultramax 400 Classic Soft"
# Adobe RGB in/out. REPLACES AgX. Kodak Ultramax 400 Classic Soft.
LUT_3D_SIZE 5
DOMAIN_MIN 0.0 0.0 0.0
DOMAIN_MAX 1.0 1.0 1.0
0.061578 0.068299 0.085817
0.357780 0.078177 0.089285
0.666795 0.099414 0.097802
0.738316 0.117230 0.112784
0.760257 0.224992 0.569406
0.067808 0.127262 0.089633
0.097313 0.131795 0.093473
0.556759 0.161351 0.100915
0.730608 0.203751 0.113085
0.760258 0.225004 0.569404
0.079230 0.466180 0.097851
0.093727 0.482865 0.102383
0.302301 0.484545 0.110164
0.667952 0.502813 0.122219
0.760509 0.508725 0.249064
0.095889 0.663460 0.105901
0.106434 0.667021 0.110309
0.227835 0.670125 0.122257
0.557171 0.670740 0.135879
0.758410 0.679021 0.161966
0.106054 0.737186 0.100362
0.123466 0.756838 0.100375
0.188319 0.764163 0.114777
0.463377 0.759912 0.132633
0.760648 0.765206 0.143398
0.063572 0.077327 0.144238
0.357479 0.092378 0.338784
0.676969 0.110569 0.270171
0.738112 0.131625 0.350684
0.760258 0.225007 0.569427
0.073553 0.126746 0.141659
0.162931 0.155343 0.167631
0.627832 0.180202 0.179844
0.733056 0.224429 0.221159
0.760258 0.225004 0.569405
0.087780 0.457497 0.146091
0.111191 0.469596 0.153683
0.416084 0.480930 0.168089
0.703082 0.506990 0.189917
0.760429 0.520305 0.464976
0.103391 0.660168 0.148322
0.119635 0.663119 0.156452
0.286002 0.666636 0.175678
0.600131 0.669552 0.198145
0.759230 0.679303 0.240615
0.107604 0.742899 0.128188
0.125432 0.762039 0.128186
0.208971 0.763341 0.145810
0.480509 0.759747 0.179727
0.763604 0.765248 0.196671
0.066785 0.099680 0.460053
0.206459 0.126205 0.610812
0.662085 0.158490 0.611535
0.735970 0.195851 0.625766
0.760258 0.237757 0.660143
0.077462 0.168111 0.468194
0.151398 0.199960 0.555049
0.627969 0.248084 0.582318
0.732059 0.298836 0.608745
0.760258 0.236535 0.652568
0.098678 0.464839 0.438740
0.138743 0.476497 0.457866
0.502897 0.505025 0.506353
0.714477 0.525603 0.541901
0.760147 0.542501 0.642525
0.118889 0.658949 0.440222
0.150163 0.661496 0.447831
0.371315 0.665804 0.467483
0.648124 0.671190 0.491817
0.759874 0.683830 0.588884
0.116998 0.756065 0.529327
0.122506 0.761453 0.529324
0.257699 0.760987 0.466778
0.519347 0.759781 0.476864
0.764472 0.766940 0.505006
0.070426 0.155377 0.690773
0.128159 0.198093 0.721570
0.649484 0.246614 0.722941
0.734117 0.288970 0.725210
0.760257 0.252383 0.725496
0.079825 0.257649 0.696947
0.134887 0.295381 0.717865
0.624670 0.334753 0.721630
0.731059 0.373154 0.724473
0.760254 0.251685 0.724188
0.106316 0.503189 0.676487
0.158022 0.516589 0.692983
0.530596 0.533909 0.711203
0.718205 0.550057 0.720162
0.759979 0.566918 0.729072
0.130305 0.665175 0.654090
0.170766 0.667639 0.660726
0.411593 0.672656 0.680832
0.671264 0.679078 0.698348
0.760231 0.691820 0.727216
0.117909 0.757659 0.623548
0.124383 0.763906 0.623868
0.265178 0.764582 0.652662
0.528699 0.763720 0.659529
0.764725 0.771952 0.713679
0.133508 0.247677 0.784543
0.473795 0.262391 0.784579
0.701777 0.302623 0.784819
0.742051 0.321822 0.785645
0.760258 0.291151 0.782026
0.149637 0.326330 0.784028
0.449149 0.338994 0.784117
0.695807 0.374499 0.784480
0.741409 0.391512 0.785382
0.760258 0.298759 0.785588
0.175990 0.536892 0.782975
0.356905 0.540270 0.783259
0.667813 0.551043 0.783886
0.738434 0.559565 0.784928
0.761824 0.560201 0.787964
0.154880 0.677515 0.783153
0.221751 0.678482 0.783617
0.580166 0.681501 0.784469
0.728752 0.685637 0.785554
0.762921 0.692591 0.787926
0.114111 0.755116 0.731305
0.125432 0.766650 0.743758
0.199429 0.774880 0.771192
0.508976 0.773125 0.787750
0.765027 0.776301 0.788937
