negative-ultramax-400/Ultramax400_Classic_Punchy.cube
TITLE "Kodak Ultramax 400 Classic Punchy"
# Adobe RGB in/out. REPLACES AgX. Kodak Ultramax 400 Classic Punchy.
LUT_3D_SIZE 5
DOMAIN_MIN 0.0 0.0 0.0
DOMAIN_MAX 1.0 1.0 1.0
0.070208 0.083169 0.079619
0.223489 0.118700 0.087721
0.482923 0.218763 0.102483
0.680316 0.361511 0.128780
0.787452 0.497380 0.168354
0.103693 0.185846 0.086855
0.233530 0.214056 0.091335
0.488034 0.297588 0.105370
0.681826 0.418705 0.131707
0.788083 0.527508 0.171844
0.153989 0.433833 0.100133
0.266379 0.447603 0.103597
0.505999 0.489734 0.118502
0.687175 0.547008 0.143189
0.790331 0.614046 0.183865
0.229102 0.620732 0.122857
0.317762 0.625150 0.126626
0.532351 0.640377 0.138803
0.696727 0.665568 0.167164
0.794394 0.697008 0.204242
0.312293 0.732014 0.155960
0.385695 0.734575 0.160064
0.565085 0.743565 0.174715
0.710372 0.759313 0.199335
0.800300 0.781212 0.233230
0.073752 0.094275 0.209045
0.223607 0.123451 0.212374
0.482982 0.223808 0.224729
0.680334 0.365163 0.247035
0.787459 0.499171 0.278037
0.103864 0.191593 0.211901
0.233643 0.219191 0.215227
0.488092 0.301714 0.227713
0.681843 0.421510 0.249816
0.788090 0.529143 0.280855
0.154112 0.436542 0.222420
0.266477 0.450232 0.225926
0.506055 0.491568 0.238198
0.687192 0.548554 0.259622
0.790338 0.614936 0.290846
0.229217 0.621597 0.241767
0.317844 0.625999 0.245063
0.532391 0.641174 0.256638
0.696743 0.666229 0.277084
0.794401 0.697586 0.308725
0.312376 0.732514 0.268716
0.385768 0.735070 0.271764
0.565122 0.744042 0.283201
0.710387 0.759762 0.304316
0.800307 0.781624 0.334396
0.077823 0.115753 0.485550
0.224031 0.144257 0.486952
0.483194 0.241216 0.491947
0.680396 0.378074 0.500962
0.787485 0.505525 0.514054
0.104466 0.211171 0.486752
0.234048 0.236877 0.488150
0.488302 0.316203 0.493128
0.681906 0.431437 0.502115
0.788116 0.534956 0.515168
0.154552 0.446142 0.491038
0.266830 0.459552 0.492420
0.506259 0.498073 0.497340
0.687253 0.554054 0.506227
0.790364 0.618106 0.519142
0.229630 0.624679 0.498795
0.318138 0.629024 0.500148
0.532534 0.644015 0.504968
0.696801 0.668589 0.513679
0.794426 0.699648 0.526350
0.312675 0.734301 0.510105
0.386029 0.736839 0.511418
0.565252 0.745749 0.516098
0.710443 0.761367 0.524561
0.800331 0.783101 0.536890
0.082401 0.153179 0.680180
0.224808 0.180112 0.680661
0.483584 0.270952 0.682380
0.680511 0.400398 0.685510
0.787533 0.516903 0.690115
0.105522 0.243782 0.680592
0.234790 0.266990 0.681072
0.488688 0.341925 0.682788
0.682020 0.449142 0.685912
0.788164 0.545401 0.690510
0.155355 0.463298 0.682066
0.267478 0.476038 0.682543
0.506632 0.509709 0.684248
0.687365 0.563959 0.687353
0.790411 0.623828 0.691923
0.230388 0.630246 0.684754
0.318681 0.634492 0.685226
0.532798 0.649158 0.686911
0.696909 0.672868 0.689982
0.794472 0.703397 0.694501
0.313225 0.737556 0.688719
0.386508 0.740061 0.689182
0.565492 0.748860 0.690840
0.710545 0.764295 0.693860
0.800376 0.785798 0.698307
0.086449 0.205489 0.798065
0.225966 0.231715 0.798260
0.484167 0.311931 0.798959
0.680683 0.428498 0.800237
0.787605 0.533231 0.802130
0.107468 0.287022 0.798232
0.235897 0.308247 0.798427
0.489265 0.378269 0.799125
0.682191 0.474421 0.800402
0.788236 0.560470 0.802293
0.156541 0.485023 0.798831
0.268445 0.494490 0.799025
0.507190 0.526381 0.799721
0.687532 0.578290 0.800993
0.790482 0.632138 0.802877
0.231517 0.638340 0.799928
0.319531 0.642447 0.800121
0.533192 0.656657 0.800811
0.697070 0.679124 0.802075
0.794541 0.708897 0.803946
0.314045 0.742348 0.801554
0.387224 0.744806 0.801745
0.565851 0.753444 0.802429
0.710698 0.768614 0.803679
0.800442 0.789781 0.805532
