negative-ultramax-400/Ultramax400_Classic_ExtraPunchy.cube
TITLE "Kodak Ultramax 400 Classic ExtraPunchy"
# Adobe RGB in/out. REPLACES AgX. Kodak Ultramax 400 Classic ExtraPunchy.
LUT_3D_SIZE 9
DOMAIN_MIN 0.0 0.0 0.0
DOMAIN_MAX 1.0 1.0 1.0
0.069662 0.073299 0.081842
0.094574 0.073254 0.080447
0.340775 0.080264 0.078321
0.597860 0.091161 0.079446
0.708626 0.105441 0.080944
0.769967 0.121741 0.083558
0.798068 0.130699 0.090738
0.820054 0.098910 0.446940
0.823886 0.242069 0.579990
0.067609 0.086319 0.080298
0.071932 0.087583 0.078102
0.171163 0.091122 0.078635
0.510402 0.101797 0.079758
0.686430 0.116970 0.081149
0.763414 0.136285 0.083804
0.796858 0.145726 0.090401
0.820055 0.098926 0.446962
0.823887 0.242078 0.579988
0.069238 0.146836 0.078399
0.071378 0.154430 0.078796
0.091216 0.154997 0.079606
0.268402 0.163619 0.080672
0.574595 0.180950 0.082046
0.724340 0.208644 0.085325
0.789015 0.223925 0.090974
0.820269 0.104727 0.449468
0.823887 0.242079 0.579988
0.072140 0.294972 0.079597
0.073517 0.303280 0.080035
0.085795 0.314961 0.080955
0.163820 0.312666 0.082060
0.396090 0.321805 0.084568
0.642606 0.340084 0.088127
0.767666 0.361897 0.093844
0.809885 0.361419 0.105942
0.823887 0.233839 0.472841
0.076132 0.467577 0.080959
0.077547 0.472639 0.081298
0.087382 0.487398 0.082757
0.140547 0.491675 0.085331
0.294373 0.489402 0.088342
0.532236 0.496780 0.092972
0.709957 0.511260 0.099075
0.800371 0.522927 0.110348
0.824183 0.518365 0.255420
0.082226 0.608075 0.082711
0.083716 0.610064 0.083270
0.093512 0.620018 0.085814
0.135641 0.625417 0.089347
0.248402 0.625508 0.093633
0.440358 0.625283 0.098942
0.640965 0.631179 0.107509
0.780422 0.640007 0.117928
0.823049 0.645716 0.149258
0.089795 0.706884 0.084972
0.091380 0.707816 0.085664
0.102455 0.712579 0.088474
0.138691 0.716588 0.093217
0.226783 0.717557 0.099105
0.382955 0.717022 0.107187
0.574993 0.718543 0.115532
0.736142 0.723820 0.126610
0.821710 0.731884 0.147711
0.100291 0.787974 0.083921
0.101511 0.787467 0.084450
0.112696 0.785606 0.088423
0.143031 0.785910 0.094441
0.214813 0.785468 0.102245
0.348090 0.784286 0.111899
0.516939 0.784342 0.121552
0.683154 0.787382 0.131462
0.821135 0.792362 0.148690
0.101870 0.807714 0.081730
0.101872 0.807716 0.081730
0.124313 0.830287 0.081740
0.124843 0.831406 0.085884
0.193660 0.837242 0.092296
0.314444 0.834416 0.101864
0.465496 0.833207 0.112046
0.618078 0.834419 0.119929
0.824347 0.838233 0.124615
0.068622 0.073022 0.082571
0.088761 0.078994 0.125041
0.382330 0.083472 0.090416
0.629907 0.094604 0.088183
0.717983 0.108177 0.087178
0.771630 0.124403 0.089661
0.798051 0.133810 0.098984
0.820055 0.098926 0.446964
0.823887 0.242078 0.579991
0.068339 0.086198 0.082113
0.080219 0.092391 0.086204
0.276129 0.094748 0.085648
0.581735 0.106255 0.087180
0.702221 0.121177 0.087321
0.766277 0.139551 0.089846
0.796926 0.148663 0.097911
0.820055 0.098950 0.446998
0.823887 0.242079 0.579989
0.070634 0.143298 0.082440
0.073648 0.148655 0.083264
0.114185 0.153430 0.085065
0.362918 0.167959 0.087461
0.621724 0.185950 0.088980
0.735377 0.212216 0.091566
0.789983 0.226488 0.097688
0.820330 0.106606 0.450564
0.823887 0.242079 0.579988
0.073463 0.289105 0.083522
0.075796 0.295696 0.084410
0.093180 0.306645 0.086787
0.199119 0.309463 0.089634
0.454248 0.323380 0.092357
0.666174 0.342483 0.095339
0.772739 0.363219 0.101140
0.810089 0.362984 0.115690
0.823887 0.242100 0.579984
0.077479 0.461151 0.084625
0.079666 0.465999 0.085648
0.092221 0.479674 0.088482
0.155678 0.485581 0.092460
0.326173 0.486693 0.097031
0.561890 0.496248 0.101152
0.722194 0.511453 0.108601
0.801556 0.522981 0.119856
0.824163 0.521178 0.307577
0.083478 0.604216 0.086428
0.085109 0.606279 0.087224
0.096574 0.615749 0.090893
0.144010 0.621459 0.095730
0.266163 0.622659 0.101565
0.464189 0.623783 0.109536
0.655346 0.630607 0.117313
0.784145 0.639750 0.127839
0.823098 0.646122 0.164421
0.090960 0.705165 0.088184
0.092663 0.706089 0.089214
0.105371 0.710676 0.093062
0.143921 0.714653 0.099047
0.236888 0.715905 0.107663
0.395524 0.715892 0.116374
0.585554 0.717877 0.126232
0.744013 0.723496 0.136431
0.821953 0.731911 0.159777
0.100962 0.786889 0.085908
0.102385 0.786472 0.086601
0.114547 0.784847 0.092033
0.146239 0.785152 0.099255
0.220777 0.784778 0.109817
0.354992 0.783771 0.120367
0.525046 0.784046 0.130686
0.689619 0.787209 0.142360
0.821696 0.792307 0.159889
0.104259 0.815025 0.106198
0.104261 0.815027 0.106198
0.126663 0.835227 0.106199
0.126665 0.835226 0.106194
0.196056 0.837190 0.095648
0.317854 0.834370 0.108271
0.469882 0.833213 0.119393
0.621898 0.834458 0.127987
0.826148 0.838247 0.132341
0.067524 0.079420 0.125642
0.079974 0.092321 0.377085
0.340463 0.097052 0.343817
0.624375 0.106812 0.306030
0.720334 0.122202 0.277655
0.772602 0.142896 0.297821
0.797829 0.154688 0.355770
0.820170 0.102456 0.463212
0.823887 0.242081 0.580015
0.068991 0.092012 0.128466
0.076971 0.097444 0.184520
0.274461 0.104247 0.228165
0.592111 0.116756 0.225871
0.709718 0.136380 0.225961
0.769215 0.156769 0.255379
0.796910 0.167095 0.320177
0.820215 0.103904 0.465440
0.823887 0.242080 0.579993
0.072363 0.145916 0.122497
0.076971 0.150897 0.127035
0.162443 0.175408 0.155336
0.453543 0.177614 0.156413
0.663927 0.201514 0.168754
0.749675 0.228424 0.191698
0.791889 0.241593 0.223461
0.819835 0.151774 0.463865
0.823887 0.242079 0.579989
0.076772 0.286915 0.125454
0.080761 0.292091 0.127970
0.113508 0.302523 0.134632
0.274144 0.310520 0.144234
0.552962 0.331541 0.156438
0.706150 0.354727 0.171486
0.780444 0.373051 0.187581
0.810717 0.373029 0.259777
0.823887 0.242083 0.579992
0.082681 0.457310 0.127916
0.085763 0.461058 0.130045
0.109381 0.471624 0.136628
0.199332 0.479263 0.146204
0.404209 0.485094 0.155805
0.626819 0.499636 0.169932
0.750816 0.516278 0.182309
0.804734 0.525996 0.216677
0.824089 0.532325 0.466203
0.089609 0.600156 0.131867
0.092642 0.601909 0.133657
0.113987 0.609085 0.141419
0.175953 0.614826 0.151520
0.322982 0.618108 0.162194
0.529267 0.621968 0.174383
0.693832 0.630955 0.187084
0.793448 0.640095 0.211963
0.823264 0.648233 0.294073
0.097813 0.701632 0.130670
0.101441 0.702509 0.132420
0.119722 0.706338 0.140301
0.166700 0.710008 0.151755
0.278309 0.711962 0.164048
0.447235 0.713374 0.178155
0.625646 0.716636 0.194025
0.770019 0.722999 0.215506
0.822676 0.732339 0.246534
0.107862 0.780538 0.126106
0.110303 0.780657 0.128138
0.126249 0.781225 0.138677
0.163325 0.782123 0.152368
0.250749 0.782237 0.167026
0.388108 0.781952 0.183540
0.562309 0.783049 0.200442
0.716172 0.786636 0.217406
0.823140 0.792236 0.233974
0.104262 0.815028 0.106202
0.126662 0.835226 0.106202
0.126663 0.835227 0.106200
0.126681 0.835230 0.106202
0.210336 0.836462 0.127570
0.334492 0.833942 0.151673
0.485487 0.833050 0.168622
0.639356 0.834458 0.183213
0.827830 0.838273 0.191910
0.068049 0.089853 0.274920
0.072811 0.105629 0.493419
0.284715 0.115223 0.529865
0.599248 0.127848 0.521555
0.713364 0.149464 0.519969
0.770246 0.169862 0.526655
0.796775 0.181812 0.550593
0.816939 0.154868 0.602322
0.823887 0.244924 0.608905
0.069401 0.102956 0.291816
0.074470 0.112750 0.411596
0.237367 0.127525 0.495082
0.573191 0.142660 0.493386
0.704308 0.163914 0.498879
0.766827 0.183038 0.512200
0.795923 0.196516 0.540102
0.816598 0.165658 0.598723
0.823887 0.244956 0.609199
0.073746 0.164111 0.274651
0.079339 0.170169 0.298753
0.157693 0.182799 0.361637
0.465919 0.199113 0.395331
0.668379 0.226646 0.418458
0.750987 0.254223 0.443611
0.791664 0.270913 0.491665
0.813766 0.262464 0.565468
0.823887 0.245071 0.610276
0.079999 0.293015 0.260617
0.084915 0.298106 0.267702
0.129505 0.309883 0.292102
0.337032 0.341635 0.338138
0.587085 0.346330 0.347706
0.718547 0.370633 0.373646
0.782921 0.390791 0.413215
0.810623 0.396454 0.503857
0.823887 0.245129 0.610602
0.087428 0.458391 0.264441
0.092506 0.461657 0.268232
0.127087 0.471673 0.282269
0.242258 0.480774 0.301974
0.469579 0.489763 0.319053
0.662633 0.506910 0.339853
0.764099 0.524575 0.365074
0.806030 0.535752 0.418251
0.823948 0.545956 0.590048
0.096857 0.598480 0.267194
0.102596 0.600120 0.270131
0.131250 0.606501 0.281560
0.208130 0.612423 0.297346
0.373170 0.617227 0.312980
0.579663 0.623057 0.328130
0.722013 0.633576 0.347254
0.798169 0.642239 0.376028
0.823349 0.654050 0.523408
0.108811 0.699428 0.269127
0.113179 0.700253 0.271652
0.135794 0.703648 0.281930
0.194083 0.707273 0.297016
0.319519 0.709859 0.311952
0.497434 0.712428 0.326277
0.663758 0.716798 0.341213
0.783018 0.723742 0.360390
0.823208 0.734705 0.436682
0.116483 0.777635 0.266130
0.119939 0.777901 0.268409
0.138859 0.778974 0.279589
0.183138 0.780032 0.294400
0.281362 0.780593 0.310005
0.425397 0.781008 0.323985
0.592071 0.782745 0.338002
0.742458 0.786735 0.352780
0.824208 0.793032 0.390622
0.113214 0.826252 0.294063
0.126660 0.836689 0.294063
0.126663 0.836691 0.294061
0.150013 0.840237 0.228435
0.236650 0.834650 0.296090
0.357989 0.833096 0.312548
0.509613 0.832771 0.326061
0.662935 0.834401 0.337271
0.828497 0.838572 0.350822
0.068663 0.105787 0.460341
0.071160 0.118808 0.556398
0.208140 0.144954 0.622648
0.572327 0.160144 0.623170
0.703211 0.178316 0.623446
0.766030 0.201338 0.628635
0.795312 0.217074 0.639188
0.814986 0.195745 0.659430
0.823887 0.252795 0.680549
0.069729 0.119259 0.472474
0.072849 0.133333 0.543987
0.185150 0.159617 0.612089
0.547697 0.174653 0.615416
0.695035 0.194208 0.617055
0.762844 0.218423 0.623744
0.794504 0.233586 0.635724
0.814705 0.211352 0.657546
0.823887 0.252548 0.678312
0.074725 0.187353 0.470042
0.079746 0.196624 0.500131
0.151920 0.220645 0.563548
0.456977 0.239405 0.585524
0.664083 0.261383 0.593126
0.748988 0.288333 0.603735
0.790719 0.303595 0.620364
0.812849 0.300594 0.646399
0.823887 0.251774 0.671206
0.082991 0.316115 0.449696
0.088134 0.321572 0.459181
0.140309 0.337574 0.495596
0.342200 0.353455 0.528202
0.596903 0.371370 0.546661
0.722100 0.397021 0.566605
0.783242 0.415490 0.591800
0.810255 0.421705 0.625866
0.824662 0.364385 0.671270
0.092581 0.465988 0.438472
0.099032 0.469454 0.442429
0.140292 0.479819 0.457741
0.272097 0.490786 0.481201
0.510341 0.513917 0.513895
0.677461 0.521021 0.525418
0.769559 0.539083 0.549537
0.806418 0.548744 0.592414
0.823756 0.559992 0.658855
0.106411 0.601036 0.437979
0.112884 0.602639 0.440030
0.146709 0.608744 0.448809
0.237942 0.615085 0.462730
0.412797 0.621190 0.480012
0.609238 0.628384 0.498005
0.737429 0.639103 0.518015
0.800526 0.647696 0.548071
0.823316 0.661579 0.636103
0.118832 0.699691 0.439834
0.124306 0.700530 0.441115
0.150789 0.703748 0.446827
0.218933 0.707461 0.456548
0.353802 0.710631 0.469193
0.535441 0.714071 0.483264
0.687179 0.719267 0.498736
0.789905 0.726491 0.517982
0.823434 0.739669 0.599077
0.124649 0.777021 0.444412
0.128626 0.777291 0.444930
0.150647 0.778313 0.448486
0.201059 0.779507 0.454777
0.306893 0.780383 0.463831
0.460167 0.781351 0.474595
0.619202 0.783615 0.486259
0.762436 0.788018 0.499830
0.824776 0.795298 0.547692
0.116543 0.829552 0.536526
0.118519 0.831078 0.536525
0.123160 0.834670 0.536523
0.166370 0.835624 0.466910
0.253069 0.834228 0.468352
0.375537 0.833129 0.473727
0.529131 0.833082 0.480407
0.679165 0.834915 0.487831
0.828853 0.839878 0.512687
0.069534 0.132915 0.603945
0.071151 0.145689 0.647267
0.165031 0.178842 0.693176
0.535884 0.195037 0.694840
0.693980 0.217373 0.695875
0.761755 0.240095 0.698200
0.793825 0.256829 0.702589
0.813837 0.243495 0.709982
0.823887 0.257472 0.711813
0.070501 0.148841 0.609270
0.072320 0.160375 0.645654
0.157689 0.193259 0.690249
0.514087 0.211788 0.692811
0.687167 0.234357 0.694252
0.758840 0.257286 0.696834
0.793080 0.273591 0.701655
0.813580 0.259891 0.709455
0.823887 0.257472 0.711813
0.075788 0.226347 0.615184
0.079551 0.234843 0.633174
0.147064 0.263812 0.673751
0.437749 0.282187 0.683726
0.659764 0.301278 0.687134
0.746558 0.321723 0.691096
0.789741 0.338180 0.697412
0.812104 0.338216 0.706561
0.823887 0.257477 0.711812
0.085018 0.346489 0.600268
0.090146 0.351774 0.608402
0.146298 0.372349 0.638670
0.349113 0.390143 0.660166
0.602390 0.407258 0.670417
0.723198 0.423890 0.678865
0.783182 0.440908 0.688546
0.809890 0.447797 0.701042
0.824450 0.411346 0.711905
0.097191 0.485616 0.586512
0.105674 0.488831 0.590311
0.152035 0.501218 0.605929
0.292189 0.514047 0.626408
0.523287 0.526927 0.643193
0.685353 0.540539 0.655702
0.772054 0.553841 0.670977
0.806624 0.563613 0.690642
0.823588 0.575383 0.712682
0.113663 0.608080 0.576643
0.121383 0.609802 0.578906
0.158318 0.615992 0.588087
0.260204 0.622936 0.600513
0.441441 0.630080 0.615247
0.631525 0.640945 0.631558
0.746072 0.647106 0.645355
0.801828 0.656129 0.670322
0.823308 0.670080 0.707086
0.126811 0.703020 0.573586
0.132711 0.703821 0.574623
0.162135 0.706956 0.579550
0.239249 0.710802 0.588247
0.378729 0.714456 0.598151
0.563480 0.718510 0.609061
0.702861 0.724308 0.620860
0.793665 0.731872 0.640188
0.823590 0.744788 0.695504
0.130378 0.778753 0.575961
0.134764 0.779012 0.576162
0.159064 0.779959 0.577988
0.215126 0.781121 0.582088
0.326159 0.782175 0.588599
0.483080 0.783509 0.595701
0.639609 0.786137 0.603617
0.773778 0.790801 0.613425
0.825072 0.799059 0.668734
0.117833 0.830776 0.578600
0.119561 0.832123 0.580880
0.123470 0.835194 0.589041
0.170100 0.836695 0.589043
0.261471 0.835205 0.588468
0.385452 0.834265 0.590548
0.540625 0.834428 0.593826
0.688673 0.836325 0.597431
0.829003 0.842023 0.639671
0.070690 0.175440 0.712739
0.071882 0.183191 0.732905
0.129570 0.219024 0.747775
0.511031 0.237867 0.749090
0.688739 0.260165 0.750079
0.759569 0.282484 0.751462
0.793136 0.295535 0.753899
0.813219 0.287385 0.757011
0.823886 0.264934 0.754381
0.071486 0.188733 0.715083
0.072750 0.197959 0.732190
0.130636 0.234462 0.747010
0.494581 0.253648 0.748633
0.683186 0.276147 0.749734
0.757149 0.296931 0.751186
0.792462 0.310204 0.753704
0.812991 0.302014 0.756984
0.823886 0.264853 0.753984
0.076505 0.269268 0.719545
0.079558 0.275742 0.728752
0.136732 0.300779 0.742632
0.431970 0.317788 0.746123
0.660309 0.337453 0.747876
0.746728 0.357676 0.749730
0.789545 0.372834 0.752658
0.811788 0.374553 0.756524
0.823882 0.264359 0.752178
0.086542 0.384937 0.710979
0.091631 0.389658 0.717178
0.146737 0.408258 0.732356
0.357921 0.422512 0.740042
0.611055 0.437086 0.743542
0.726639 0.452890 0.746499
0.783926 0.466310 0.750254
0.809936 0.473028 0.755441
0.824038 0.464478 0.758940
0.102274 0.511711 0.697008
0.110250 0.514843 0.701131
0.157972 0.527840 0.715175
0.308123 0.540189 0.727861
0.544299 0.549343 0.735274
0.694166 0.559461 0.740145
0.774463 0.569386 0.745411
0.807185 0.578292 0.752675
0.823558 0.590440 0.759941
0.120320 0.621391 0.684308
0.127876 0.623063 0.686683
0.166828 0.629695 0.696103
0.278415 0.637445 0.709396
0.469967 0.643378 0.721071
0.647421 0.649851 0.729360
0.753378 0.657155 0.736799
0.803148 0.665357 0.746744
0.823432 0.678459 0.759632
0.131859 0.709624 0.673082
0.138497 0.710449 0.674639
0.170074 0.713568 0.681269
0.253577 0.717538 0.690602
0.397602 0.721623 0.701790
0.579407 0.726081 0.712317
0.713768 0.731976 0.721089
0.796362 0.739343 0.734598
0.823855 0.749980 0.757283
0.132521 0.783253 0.667243
0.137328 0.783462 0.667741
0.162807 0.784177 0.670497
0.222713 0.785213 0.676105
0.337525 0.786294 0.684327
0.496462 0.787767 0.692342
0.653257 0.790606 0.700783
0.778727 0.795329 0.710849
0.825350 0.803687 0.748742
0.117663 0.831067 0.636732
0.121026 0.833657 0.636745
0.125415 0.836999 0.637087
0.164014 0.839972 0.669929
0.259599 0.837640 0.671322
0.385521 0.836632 0.675302
0.541733 0.836822 0.679791
0.689117 0.838742 0.683482
0.829151 0.845002 0.738008
0.072241 0.230618 0.789304
0.073300 0.233203 0.791308
0.145313 0.256806 0.792526
0.539194 0.276020 0.792806
0.697763 0.295820 0.793291
0.764029 0.314736 0.794010
0.794390 0.326351 0.795057
0.813936 0.314206 0.797353
0.823964 0.287256 0.789560
0.072921 0.244594 0.789179
0.074090 0.247397 0.791065
0.147806 0.271593 0.792515
0.526274 0.290077 0.792829
0.693722 0.309009 0.793316
0.762279 0.328736 0.794041
0.793911 0.340693 0.795112
0.813749 0.329417 0.797404
0.823990 0.290828 0.789560
0.079121 0.316986 0.788685
0.082130 0.319499 0.789992
0.160101 0.337559 0.791885
0.478893 0.353429 0.792510
0.675544 0.371914 0.793101
0.754098 0.390997 0.793907
0.791637 0.403699 0.795108
0.812790 0.400068 0.797348
0.824272 0.330332 0.789560
0.089990 0.422302 0.786260
0.095210 0.424437 0.787616
0.167789 0.437003 0.790361
0.404219 0.448657 0.791661
0.641161 0.462215 0.792550
0.738963 0.476871 0.793557
0.787499 0.488495 0.795003
0.811389 0.491439 0.797329
0.824185 0.487577 0.797411
0.108055 0.540804 0.781123
0.116239 0.542395 0.782837
0.175310 0.550266 0.787040
0.344858 0.557871 0.789727
0.583211 0.566123 0.791401
0.713171 0.575373 0.792789
0.780341 0.583908 0.794503
0.809340 0.589441 0.797108
0.823941 0.600987 0.798785
0.125784 0.638527 0.772237
0.133305 0.639695 0.774339
0.180186 0.644867 0.780569
0.302224 0.649987 0.785666
0.505455 0.655118 0.788909
0.672457 0.661116 0.791175
0.766239 0.667359 0.793356
0.806312 0.673004 0.796426
0.824010 0.684951 0.799447
0.135215 0.719499 0.759044
0.141992 0.720307 0.760865
0.177672 0.723726 0.767788
0.267871 0.727649 0.776345
0.422078 0.731371 0.783108
0.603849 0.735515 0.787488
0.731454 0.740716 0.790698
0.800830 0.745357 0.794773
0.824523 0.754332 0.799559
0.129901 0.791554 0.742538
0.134367 0.791600 0.743598
0.161049 0.791591 0.748674
0.222940 0.792111 0.757743
0.342032 0.792972 0.767164
0.506523 0.794479 0.775802
0.663153 0.797232 0.782373
0.781780 0.799946 0.786077
0.825869 0.808262 0.798681
0.115865 0.830334 0.710450
0.125188 0.837512 0.711548
0.126574 0.838661 0.719078
0.156012 0.843242 0.732515
0.243131 0.841940 0.737353
0.372526 0.840530 0.743592
0.529178 0.840555 0.749675
0.677853 0.842303 0.753466
0.829313 0.848248 0.795764
0.135411 0.261046 0.832810
0.177619 0.263469 0.832820
0.478055 0.273154 0.832857
0.682465 0.289242 0.832974
0.748943 0.306675 0.833176
0.782965 0.321947 0.833494
0.802458 0.324424 0.834172
0.817721 0.285027 0.835173
0.823887 0.297322 0.829475
0.137427 0.272870 0.832707
0.178454 0.275367 0.832719
0.472670 0.285152 0.832762
0.680003 0.300272 0.832890
0.747754 0.318367 0.833101
0.782619 0.334007 0.833434
0.802335 0.336482 0.834133
0.817648 0.294986 0.835139
0.823887 0.303502 0.834122
0.150307 0.329282 0.832128
0.187046 0.331589 0.832154
0.446763 0.340658 0.832246
0.668356 0.356207 0.832449
0.742050 0.374297 0.832727
0.780965 0.389772 0.833138
0.801705 0.392831 0.833922
0.817287 0.353795 0.834929
0.823887 0.303533 0.834122
0.169144 0.438733 0.831265
0.197518 0.440209 0.831320
0.399318 0.446027 0.831511
0.641724 0.456259 0.831827
0.729785 0.468521 0.832197
0.777295 0.479598 0.832693
0.800364 0.483507 0.833523
0.816723 0.467772 0.834576
0.825171 0.479641 0.835815
0.175427 0.553037 0.830732
0.195937 0.553861 0.830819
0.339870 0.557224 0.831109
0.593336 0.563204 0.831473
0.709797 0.570613 0.831939
0.771158 0.577640 0.832505
0.798207 0.581243 0.833321
0.816294 0.576362 0.834425
0.825732 0.582037 0.836202
0.169808 0.647833 0.830631
0.184944 0.648299 0.830751
0.282379 0.650318 0.831136
0.510408 0.653913 0.831597
0.675368 0.658442 0.832090
0.755915 0.663166 0.832687
0.794530 0.666255 0.833468
0.815655 0.665180 0.834445
0.826232 0.676628 0.836030
0.155104 0.729452 0.830969
0.164162 0.729733 0.831124
0.221460 0.731014 0.831583
0.380404 0.733081 0.832140
0.597187 0.735895 0.832712
0.722841 0.739516 0.833324
0.786836 0.742160 0.834092
0.814494 0.742218 0.834801
0.827025 0.750957 0.836169
0.127974 0.798643 0.829075
0.132235 0.798708 0.830073
0.158630 0.798778 0.831918
0.245402 0.798485 0.833007
0.415835 0.798434 0.833851
0.623919 0.799530 0.834362
0.755795 0.801891 0.834856
0.810115 0.803126 0.835496
0.828127 0.807740 0.836546
0.112772 0.828650 0.762850
0.126663 0.839602 0.779104
0.126663 0.839602 0.779104
0.133361 0.840790 0.779145
0.202495 0.849496 0.815151
0.345745 0.847273 0.834797
0.517108 0.846802 0.836015
0.682770 0.848409 0.836642
0.829507 0.851680 0.837054
