negative-ultramax-400/Ultramax400_Classic_Punchy.cube
TITLE "Kodak Ultramax 400 Classic Punchy"
# Adobe RGB in/out. REPLACES AgX. Kodak Ultramax 400 Classic Punchy.
LUT_3D_SIZE 9
DOMAIN_MIN 0.0 0.0 0.0
DOMAIN_MAX 1.0 1.0 1.0
0.070208 0.083169 0.079619
0.124062 0.094971 0.082628
0.223489 0.118700 0.087721
0.347528 0.160832 0.094166
0.482923 0.218763 0.102483
0.595124 0.286788 0.113961
0.680316 0.361511 0.128780
0.744403 0.434434 0.145834
0.787452 0.497380 0.168354
0.085749 0.111361 0.082318
0.127387 0.117668 0.084294
0.225715 0.139767 0.088706
0.349040 0.180253 0.094989
0.484040 0.237589 0.103098
0.595759 0.302646 0.114818
0.680646 0.375346 0.129431
0.744660 0.444699 0.146666
0.787589 0.504180 0.169120
0.103693 0.185846 0.086855
0.138811 0.192276 0.088134
0.233530 0.214056 0.091335
0.354422 0.250031 0.097573
0.488034 0.297588 0.105370
0.598032 0.356089 0.117782
0.681826 0.418705 0.131707
0.745581 0.478799 0.149614
0.788083 0.527508 0.171844
0.125806 0.304399 0.092465
0.155743 0.308943 0.093553
0.247238 0.324876 0.096832
0.364134 0.353256 0.102271
0.495304 0.392964 0.110720
0.602180 0.435934 0.122830
0.683983 0.482634 0.135676
0.747268 0.523668 0.154881
0.788987 0.566682 0.176753
0.153989 0.433833 0.100133
0.182766 0.436868 0.100946
0.266379 0.447603 0.103597
0.378231 0.466725 0.109458
0.505999 0.489734 0.118502
0.608302 0.516162 0.129597
0.687175 0.547008 0.143189
0.749772 0.581366 0.162419
0.790331 0.614046 0.183865
0.189572 0.536742 0.109681
0.214804 0.538526 0.110572
0.290167 0.544860 0.113619
0.396543 0.556224 0.119923
0.519261 0.572579 0.128140
0.616427 0.593592 0.137628
0.691424 0.614258 0.154113
0.752765 0.634120 0.172667
0.792131 0.655750 0.193084
0.229102 0.620732 0.122857
0.251209 0.621701 0.123700
0.317762 0.625150 0.126626
0.418763 0.631367 0.131638
0.532351 0.640377 0.138803
0.626526 0.652043 0.151863
0.696727 0.665568 0.167164
0.755612 0.680476 0.184986
0.794394 0.697008 0.204242
0.270469 0.679555 0.136235
0.289314 0.680252 0.136903
0.350275 0.682739 0.140123
0.444514 0.687245 0.146678
0.547695 0.693828 0.155934
0.638088 0.702440 0.167880
0.703056 0.712963 0.182536
0.759025 0.725227 0.199061
0.797119 0.739034 0.217208
0.312293 0.732014 0.155960
0.329222 0.732574 0.156863
0.385695 0.734575 0.160064
0.473401 0.738216 0.165958
0.565085 0.743565 0.174715
0.650861 0.750617 0.185930
0.710372 0.759313 0.199335
0.762988 0.769554 0.214671
0.800300 0.781212 0.233230
0.072001 0.087845 0.111939
0.124093 0.096068 0.112775
0.223515 0.119792 0.116178
0.347545 0.162022 0.122195
0.482936 0.219869 0.130101
0.595132 0.287681 0.140217
0.680320 0.362309 0.156466
0.744406 0.435025 0.174914
0.787453 0.497771 0.195108
0.085824 0.112547 0.112657
0.127427 0.118793 0.113477
0.225741 0.141038 0.116998
0.349057 0.181276 0.122927
0.484053 0.238624 0.130737
0.595767 0.303537 0.141084
0.680650 0.376122 0.157238
0.744663 0.445276 0.175652
0.787591 0.504563 0.195775
0.103730 0.187109 0.115539
0.138844 0.193505 0.116508
0.233555 0.215183 0.119843
0.354439 0.251029 0.125478
0.488046 0.298490 0.132963
0.598040 0.356895 0.144155
0.681830 0.419317 0.159977
0.745584 0.479214 0.178282
0.788084 0.527864 0.198153
0.125847 0.305286 0.120797
0.155770 0.309821 0.121673
0.247261 0.325721 0.124707
0.364151 0.354066 0.129886
0.495316 0.393715 0.136851
0.602187 0.436522 0.149628
0.683987 0.483044 0.165008
0.747271 0.524029 0.183028
0.788989 0.567001 0.202460
0.154016 0.434424 0.127805
0.182796 0.437455 0.128576
0.266400 0.448177 0.131263
0.378247 0.467276 0.135904
0.506011 0.490134 0.144917
0.608309 0.516531 0.157436
0.687179 0.547345 0.172576
0.749775 0.581673 0.189919
0.790333 0.614240 0.208745
0.189600 0.537089 0.136070
0.214830 0.538871 0.136739
0.290187 0.545199 0.139873
0.396558 0.556552 0.146440
0.519270 0.572894 0.155711
0.616434 0.593889 0.167659
0.691428 0.614452 0.182332
0.752767 0.634299 0.198873
0.792133 0.655913 0.217032
0.229127 0.620921 0.149659
0.251232 0.621889 0.150603
0.317780 0.625335 0.153943
0.418778 0.631548 0.159893
0.532360 0.640551 0.168735
0.626532 0.652209 0.180301
0.696730 0.665712 0.194073
0.755614 0.680611 0.209741
0.794395 0.697134 0.228146
0.270490 0.679691 0.165762
0.289334 0.680387 0.166668
0.350292 0.682872 0.169886
0.444528 0.687376 0.175663
0.547703 0.693955 0.183984
0.638094 0.702563 0.194696
0.703060 0.713081 0.207567
0.759027 0.725339 0.222936
0.797120 0.739140 0.241268
0.312311 0.732123 0.184008
0.329241 0.732683 0.184830
0.385711 0.734683 0.187754
0.473414 0.738322 0.193026
0.565093 0.743669 0.200668
0.650865 0.750718 0.210580
0.710375 0.759411 0.223211
0.762990 0.769648 0.238709
0.800302 0.781302 0.256181
0.073752 0.094275 0.209045
0.124203 0.100758 0.209774
0.223607 0.123451 0.212374
0.347608 0.166203 0.217149
0.482982 0.223808 0.224729
0.595158 0.290903 0.234743
0.680334 0.365163 0.247035
0.744417 0.437140 0.261456
0.787459 0.499171 0.278037
0.086084 0.117028 0.209670
0.127571 0.122554 0.210397
0.225832 0.145729 0.212996
0.349119 0.184889 0.217767
0.484099 0.242311 0.225381
0.595793 0.306721 0.235374
0.680663 0.378902 0.247642
0.744674 0.447344 0.262038
0.787597 0.505934 0.278652
0.103864 0.191593 0.211901
0.138964 0.197869 0.212622
0.233643 0.219191 0.215227
0.354501 0.254588 0.220158
0.488092 0.301714 0.227713
0.598066 0.359780 0.237632
0.681843 0.421510 0.249816
0.745595 0.480699 0.264122
0.788090 0.529143 0.280855
0.125995 0.308457 0.215999
0.155863 0.312958 0.216717
0.247345 0.328780 0.219425
0.364210 0.356968 0.224509
0.495361 0.396389 0.231956
0.602213 0.438630 0.241744
0.684000 0.484511 0.253779
0.747282 0.525323 0.267925
0.788994 0.568146 0.284882
0.154112 0.436542 0.222420
0.182902 0.439559 0.223187
0.266477 0.450232 0.225926
0.378305 0.469249 0.230901
0.506055 0.491568 0.238198
0.608335 0.517854 0.247799
0.687192 0.548554 0.259622
0.749785 0.582774 0.273539
0.790338 0.614936 0.290846
0.189702 0.538334 0.231086
0.214927 0.540110 0.231831
0.290257 0.546415 0.234494
0.396614 0.557731 0.239335
0.519302 0.574020 0.246442
0.616459 0.594954 0.255809
0.691441 0.615147 0.267364
0.752774 0.634938 0.281525
0.792138 0.656499 0.298792
0.229217 0.621597 0.241767
0.251313 0.622563 0.242487
0.317844 0.625999 0.245063
0.418830 0.632195 0.249749
0.532391 0.641174 0.256638
0.626557 0.652803 0.265734
0.696743 0.666229 0.277084
0.755621 0.681095 0.291799
0.794401 0.697586 0.308725
0.270565 0.680177 0.254354
0.289404 0.680872 0.255048
0.350354 0.683352 0.257529
0.444578 0.687847 0.262046
0.547733 0.694413 0.268697
0.638116 0.703005 0.277657
0.703072 0.713503 0.289720
0.759034 0.725741 0.304072
0.797126 0.739520 0.320611
0.312376 0.732514 0.268716
0.329306 0.733073 0.269382
0.385768 0.735070 0.271764
0.473461 0.738703 0.276123
0.565122 0.744042 0.283201
0.650880 0.751081 0.292605
0.710387 0.759762 0.304316
0.762997 0.769985 0.318275
0.800307 0.781624 0.334396
0.075965 0.102836 0.353860
0.124406 0.109836 0.354377
0.223777 0.132206 0.356231
0.347723 0.173549 0.359618
0.483067 0.230911 0.364633
0.595206 0.296927 0.371312
0.680359 0.370375 0.379654
0.744436 0.441006 0.389627
0.787469 0.501732 0.401175
0.086540 0.124151 0.354303
0.127835 0.131053 0.354820
0.226000 0.154396 0.356671
0.349234 0.192995 0.360055
0.484184 0.248996 0.365065
0.595841 0.312517 0.371737
0.680688 0.383980 0.380070
0.744693 0.451124 0.390033
0.787607 0.508442 0.401572
0.104108 0.199625 0.355892
0.139184 0.205700 0.356407
0.233805 0.226412 0.358251
0.354614 0.261032 0.361622
0.488176 0.307580 0.366612
0.598114 0.365046 0.373259
0.681868 0.425514 0.381562
0.745614 0.483413 0.391491
0.788101 0.531484 0.402992
0.126266 0.314229 0.358799
0.156036 0.318669 0.359310
0.247497 0.334389 0.361141
0.364321 0.362263 0.364487
0.495444 0.400639 0.369443
0.602260 0.442483 0.376045
0.684025 0.487192 0.384294
0.747301 0.527689 0.394161
0.789005 0.570243 0.405593
0.154289 0.440413 0.363109
0.183096 0.443404 0.363614
0.266619 0.453988 0.365426
0.378411 0.472857 0.368737
0.506137 0.494190 0.373641
0.608381 0.520274 0.380178
0.687216 0.550768 0.388348
0.749804 0.584790 0.398124
0.790349 0.616211 0.409457
0.189888 0.540614 0.368860
0.215104 0.542378 0.369359
0.290387 0.548643 0.371145
0.396716 0.559889 0.374410
0.519362 0.576085 0.379249
0.616504 0.596907 0.385699
0.691465 0.616421 0.393766
0.752787 0.636110 0.403424
0.792148 0.657572 0.414626
0.229383 0.622837 0.376060
0.251464 0.623797 0.376550
0.317962 0.627216 0.378306
0.418927 0.633380 0.381516
0.532449 0.642316 0.386274
0.626601 0.653893 0.392621
0.696766 0.667178 0.400562
0.755633 0.681984 0.410076
0.794411 0.698414 0.421118
0.270705 0.681070 0.384692
0.289534 0.681762 0.385172
0.350468 0.684233 0.386892
0.444669 0.688710 0.390039
0.547788 0.695253 0.394704
0.638156 0.703814 0.400931
0.703095 0.714278 0.408726
0.759046 0.726478 0.418072
0.797136 0.740218 0.428929
0.312496 0.733232 0.394718
0.329427 0.733789 0.395187
0.385872 0.735780 0.396868
0.473547 0.739403 0.399944
0.565174 0.744727 0.404506
0.650909 0.751748 0.410599
0.710410 0.760406 0.418232
0.763009 0.770605 0.427390
0.800317 0.782217 0.438039
0.077823 0.115753 0.485550
0.124706 0.121474 0.485856
0.224031 0.144257 0.486952
0.347895 0.183821 0.488962
0.483194 0.241216 0.491947
0.595278 0.305773 0.495942
0.680396 0.378074 0.500962
0.744466 0.446728 0.507004
0.787485 0.505525 0.514054
0.087172 0.136815 0.485812
0.128228 0.143038 0.486118
0.226252 0.166265 0.487214
0.349405 0.204848 0.489221
0.484311 0.258756 0.492204
0.595913 0.321042 0.496197
0.680726 0.391488 0.501213
0.744723 0.456722 0.507252
0.787623 0.512159 0.514297
0.104466 0.211171 0.486752
0.139512 0.216980 0.487057
0.234048 0.236877 0.488150
0.354783 0.270438 0.490153
0.488302 0.316203 0.493128
0.598185 0.372824 0.497110
0.681906 0.431437 0.502115
0.745644 0.487429 0.508139
0.788116 0.534956 0.515168
0.126669 0.322720 0.488475
0.156293 0.327079 0.488779
0.247726 0.342658 0.489867
0.364486 0.370082 0.491860
0.495569 0.406916 0.494821
0.602331 0.448187 0.498786
0.684062 0.491161 0.503768
0.747330 0.531200 0.509766
0.789020 0.573358 0.516765
0.154552 0.446142 0.491038
0.183387 0.449096 0.491339
0.266830 0.459552 0.492420
0.378570 0.477565 0.494399
0.506259 0.498073 0.497340
0.608451 0.523861 0.501278
0.687253 0.554054 0.506227
0.749833 0.587787 0.512186
0.790364 0.618106 0.519142
0.190166 0.543996 0.494473
0.215368 0.545743 0.494771
0.290580 0.551949 0.495841
0.396868 0.563093 0.497803
0.519451 0.579151 0.500717
0.616573 0.599811 0.504619
0.691501 0.618314 0.509525
0.752806 0.637853 0.515433
0.792164 0.659158 0.522331
0.229630 0.624679 0.498795
0.251689 0.625632 0.499090
0.318138 0.629024 0.500148
0.419072 0.635143 0.502087
0.532534 0.644015 0.504968
0.626668 0.655514 0.508827
0.696801 0.668589 0.513679
0.755652 0.683308 0.519524
0.794426 0.699648 0.526350
0.270913 0.682398 0.504009
0.289728 0.683087 0.504300
0.350639 0.685543 0.505343
0.444807 0.689996 0.507255
0.547870 0.696503 0.510097
0.638216 0.705021 0.513904
0.703129 0.715434 0.518692
0.759064 0.727577 0.524463
0.797151 0.741258 0.531204
0.312675 0.734301 0.510105
0.329608 0.734856 0.510392
0.386029 0.736839 0.511418
0.473677 0.740447 0.513300
0.565252 0.745749 0.516098
0.650951 0.752742 0.519846
0.710443 0.761367 0.524561
0.763027 0.771529 0.530246
0.800331 0.783101 0.536890
0.079934 0.131727 0.591559
0.125238 0.137897 0.591750
0.224374 0.161356 0.592435
0.348127 0.199873 0.593691
0.483366 0.254639 0.595561
0.595376 0.317434 0.598072
0.680447 0.388305 0.601238
0.744505 0.454347 0.605066
0.787506 0.510582 0.609554
0.088076 0.153912 0.591723
0.128755 0.160260 0.591913
0.226591 0.180703 0.592598
0.349637 0.220026 0.593853
0.484482 0.271491 0.595723
0.596011 0.332401 0.598232
0.680776 0.400767 0.601397
0.744762 0.464181 0.605223
0.787644 0.517115 0.609709
0.104939 0.226000 0.592309
0.139953 0.231502 0.592500
0.234375 0.250470 0.593183
0.355011 0.282744 0.594437
0.488472 0.327601 0.596303
0.598282 0.383154 0.598808
0.681956 0.439317 0.601967
0.745683 0.492776 0.605787
0.788137 0.539592 0.610266
0.127210 0.334067 0.593387
0.156640 0.338391 0.593576
0.248035 0.353611 0.594258
0.364708 0.380466 0.595507
0.495736 0.415251 0.597367
0.602427 0.455783 0.599864
0.684112 0.496445 0.603014
0.747369 0.535886 0.606821
0.789041 0.577526 0.611286
0.154907 0.453772 0.594992
0.183779 0.456677 0.595180
0.267116 0.466967 0.595858
0.378785 0.483082 0.597102
0.506423 0.503246 0.598953
0.608546 0.528649 0.601438
0.687302 0.558448 0.604573
0.749872 0.591799 0.608363
0.790385 0.620642 0.612808
0.190541 0.548514 0.597148
0.215725 0.550239 0.597336
0.290841 0.556368 0.598009
0.397074 0.567378 0.599244
0.519572 0.583255 0.601084
0.616665 0.603699 0.603553
0.691549 0.620847 0.606668
0.752832 0.640188 0.610435
0.792184 0.661132 0.614853
0.229964 0.627146 0.599870
0.251992 0.628089 0.600056
0.318375 0.631447 0.600724
0.419268 0.637504 0.601950
0.532650 0.646292 0.603774
0.626758 0.657688 0.606224
0.696849 0.670483 0.609315
0.755678 0.685084 0.613052
0.794446 0.701305 0.617437
0.271194 0.684182 0.603166
0.289990 0.684865 0.603351
0.350870 0.687303 0.604012
0.444992 0.691723 0.605225
0.547981 0.698183 0.607032
0.638297 0.706641 0.609459
0.703176 0.716986 0.612520
0.759089 0.729054 0.616223
0.797171 0.742657 0.620567
0.312917 0.735739 0.607038
0.329853 0.736291 0.607220
0.386240 0.738262 0.607874
0.473852 0.741850 0.609073
0.565358 0.747123 0.610860
0.651008 0.754078 0.613259
0.710488 0.762660 0.616286
0.763051 0.772772 0.619949
0.800351 0.784292 0.624247
0.082401 0.153179 0.680180
0.125942 0.159566 0.680285
0.224808 0.180112 0.680661
0.348423 0.219389 0.681351
0.483584 0.270952 0.682380
0.595500 0.331912 0.683763
0.680511 0.400398 0.685510
0.744555 0.463862 0.687626
0.787533 0.516903 0.690115
0.089257 0.173730 0.680270
0.129418 0.179167 0.680375
0.227021 0.200530 0.680750
0.349931 0.238175 0.681440
0.484700 0.287022 0.682469
0.596135 0.346583 0.683851
0.680840 0.411494 0.685597
0.744812 0.473502 0.687713
0.787671 0.523315 0.690201
0.105522 0.243782 0.680592
0.140509 0.248977 0.680697
0.234790 0.266990 0.681072
0.355301 0.298098 0.681761
0.488688 0.341925 0.682788
0.598405 0.396014 0.684168
0.682020 0.449142 0.685912
0.745733 0.499449 0.688026
0.788164 0.545401 0.690510
0.127890 0.348200 0.681184
0.157122 0.352400 0.681288
0.248426 0.367203 0.681662
0.364991 0.393389 0.682350
0.495949 0.425621 0.683374
0.602549 0.465268 0.684751
0.684175 0.503043 0.686491
0.747419 0.541757 0.688599
0.789068 0.582761 0.691077
0.155355 0.463298 0.682066
0.184277 0.466145 0.682170
0.267478 0.476038 0.682543
0.379058 0.489960 0.683228
0.506632 0.509709 0.684248
0.608665 0.534643 0.685620
0.687365 0.563959 0.687353
0.749921 0.596841 0.689454
0.790411 0.623828 0.691923
0.191016 0.554179 0.683253
0.216178 0.555877 0.683357
0.291173 0.561911 0.683728
0.397335 0.572757 0.684409
0.519725 0.588411 0.685424
0.616782 0.607166 0.686789
0.691611 0.624031 0.688514
0.752865 0.643127 0.690604
0.792210 0.663618 0.693061
0.230388 0.630246 0.684754
0.252377 0.631177 0.684857
0.318681 0.634492 0.685226
0.419517 0.640475 0.685903
0.532798 0.649158 0.686911
0.626873 0.660315 0.688268
0.696909 0.672868 0.689982
0.755710 0.687324 0.692059
0.794472 0.703397 0.694501
0.271551 0.686430 0.686575
0.290323 0.687107 0.686677
0.351163 0.689521 0.687043
0.445227 0.693900 0.687715
0.548122 0.700301 0.688716
0.638400 0.708687 0.690062
0.703234 0.718946 0.691763
0.759121 0.730921 0.693824
0.797196 0.744425 0.696249
0.313225 0.737556 0.688719
0.330163 0.738104 0.688820
0.386508 0.740061 0.689182
0.474074 0.743624 0.689848
0.565492 0.748860 0.690840
0.651081 0.755769 0.692174
0.710545 0.764295 0.693860
0.763082 0.774345 0.695903
0.800376 0.785798 0.698307
0.084546 0.177128 0.741460
0.126790 0.182431 0.741542
0.225339 0.204301 0.741834
0.348783 0.241458 0.742371
0.483850 0.289863 0.743171
0.595652 0.349201 0.744249
0.680590 0.413478 0.745613
0.744617 0.475232 0.747270
0.787566 0.524467 0.749223
0.090793 0.197088 0.741530
0.130219 0.203225 0.741612
0.227546 0.224125 0.741904
0.350290 0.258987 0.742440
0.484966 0.305714 0.743240
0.596286 0.363369 0.744318
0.680919 0.424239 0.745682
0.744873 0.482548 0.747338
0.787704 0.530738 0.749291
0.106368 0.264258 0.741781
0.141182 0.269139 0.741862
0.235297 0.286114 0.742154
0.355655 0.316407 0.742689
0.488952 0.358867 0.743489
0.598556 0.409265 0.744566
0.682098 0.460868 0.745928
0.745794 0.507419 0.747583
0.788197 0.552370 0.749534
0.128712 0.364933 0.742240
0.157767 0.368996 0.742322
0.248904 0.383338 0.742613
0.365336 0.407065 0.743148
0.496210 0.437963 0.743946
0.602697 0.476325 0.745021
0.684253 0.510926 0.746381
0.747479 0.548798 0.748033
0.789100 0.589059 0.749980
0.155900 0.474681 0.742927
0.184882 0.476989 0.743008
0.267921 0.484610 0.743298
0.379392 0.498165 0.743832
0.506887 0.517435 0.744628
0.608812 0.541827 0.745700
0.687441 0.570581 0.747056
0.749981 0.602913 0.748704
0.790444 0.627664 0.750646
0.191595 0.560980 0.743852
0.216730 0.562647 0.743932
0.291578 0.568570 0.744222
0.397655 0.579224 0.744753
0.519912 0.594617 0.745547
0.616926 0.611282 0.746614
0.691686 0.627863 0.747966
0.752906 0.646669 0.749608
0.792242 0.666618 0.751543
0.230905 0.633981 0.745023
0.252847 0.634897 0.745103
0.319070 0.638162 0.745391
0.419820 0.644056 0.745921
0.532978 0.652615 0.746710
0.627012 0.663359 0.747773
0.696983 0.675750 0.749119
0.755750 0.690031 0.750753
0.794504 0.705927 0.752680
0.271986 0.689148 0.746447
0.290729 0.689817 0.746527
0.351521 0.692204 0.746813
0.445515 0.696533 0.747339
0.548295 0.702865 0.748124
0.638526 0.711162 0.749182
0.703306 0.721319 0.750520
0.759160 0.733182 0.752145
0.797227 0.746568 0.754062
0.313600 0.739758 0.748127
0.330542 0.740301 0.748206
0.386836 0.742242 0.748491
0.474345 0.745773 0.749013
0.565657 0.750966 0.749793
0.651170 0.757819 0.750844
0.710615 0.766279 0.752173
0.763120 0.776254 0.753788
0.800406 0.787626 0.755693
0.086449 0.205489 0.798065
0.127781 0.211425 0.798107
0.225966 0.231715 0.798260
0.349211 0.265788 0.798540
0.484167 0.311931 0.798959
0.595831 0.368965 0.799523
0.680683 0.428498 0.800237
0.744689 0.485436 0.801105
0.787605 0.533231 0.802130
0.092700 0.225227 0.798101
0.131157 0.230744 0.798144
0.228167 0.249755 0.798296
0.350716 0.282097 0.798577
0.485281 0.326989 0.798995
0.596465 0.382607 0.799559
0.681012 0.438899 0.800273
0.744946 0.492492 0.801141
0.787742 0.539345 0.802165
0.107468 0.287022 0.798232
0.141973 0.291651 0.798275
0.235897 0.308247 0.798427
0.356075 0.337360 0.798707
0.489265 0.378269 0.799125
0.598734 0.424431 0.799688
0.682191 0.474421 0.800402
0.745866 0.516634 0.801269
0.788236 0.560470 0.802293
0.129672 0.384115 0.798473
0.158527 0.388034 0.798515
0.249470 0.401124 0.798667
0.365746 0.422309 0.798947
0.496519 0.452187 0.799364
0.602874 0.486467 0.799927
0.684345 0.520046 0.800639
0.747551 0.556978 0.801505
0.789139 0.596402 0.802527
0.156541 0.485023 0.798831
0.185597 0.487109 0.798874
0.268445 0.494490 0.799025
0.379788 0.507642 0.799305
0.507190 0.526381 0.799721
0.608986 0.550168 0.800282
0.687532 0.578290 0.800993
0.750052 0.608152 0.801857
0.790482 0.632138 0.802877
0.192280 0.568892 0.799315
0.217384 0.570522 0.799357
0.292058 0.576321 0.799508
0.398034 0.586759 0.799787
0.520134 0.601856 0.800202
0.617096 0.616076 0.800761
0.691775 0.632334 0.801470
0.752953 0.650808 0.802331
0.792280 0.670129 0.803348
0.231517 0.638340 0.799928
0.253404 0.639240 0.799970
0.319531 0.642447 0.800121
0.420181 0.648239 0.800398
0.533192 0.656657 0.800811
0.627178 0.666921 0.801369
0.697070 0.679124 0.802075
0.755797 0.693205 0.802933
0.794541 0.708897 0.803946
0.272502 0.692334 0.800674
0.291211 0.692994 0.800715
0.351945 0.695349 0.800865
0.445856 0.699621 0.801141
0.548499 0.705872 0.801553
0.638676 0.714068 0.802108
0.703392 0.724107 0.802810
0.759206 0.735840 0.803665
0.797264 0.749089 0.804673
0.314045 0.742348 0.801554
0.330991 0.742885 0.801596
0.387224 0.744806 0.801745
0.474667 0.748302 0.802019
0.565851 0.753444 0.802429
0.651275 0.760232 0.802980
0.710698 0.768614 0.803679
0.763165 0.778503 0.804529
0.800442 0.789781 0.805532
