negative-ultramax-400/Ultramax400_Modern_ExtraSoft.cube
TITLE "Kodak Ultramax 400 Modern ExtraSoft"
# Adobe RGB in/out. REPLACES AgX. Kodak Ultramax 400 Modern ExtraSoft.
LUT_3D_SIZE 33
DOMAIN_MIN 0.0 0.0 0.0
DOMAIN_MAX 1.0 1.0 1.0
0.057043 0.063015 0.079077
0.064007 0.064587 0.080151
0.066132 0.064948 0.080390
0.083849 0.066899 0.080981
0.178988 0.069941 0.082063
0.273378 0.071947 0.082847
0.430356 0.076368 0.084258
0.542561 0.081657 0.086276
0.584933 0.084533 0.087138
0.636271 0.089724 0.088517
0.684162 0.097174 0.090752
0.707945 0.103643 0.092335
0.726916 0.108927 0.093542
0.746401 0.115978 0.095707
0.765474 0.127860 0.098602
0.777688 0.135635 0.100255
0.785645 0.143783 0.102180
0.791672 0.153905 0.104695
0.796885 0.168538 0.107782
0.801264 0.174849 0.109597
0.804579 0.181363 0.111746
0.807035 0.189214 0.115299
0.809289 0.195349 0.119541
0.811442 0.191876 0.123271
0.812510 0.189099 0.129025
0.813242 0.183525 0.137791
0.814772 0.157837 0.155535
0.814591 0.146796 0.244321
0.816730 0.109062 0.596956
0.814538 0.108049 0.592945
0.812356 0.107086 0.588988
0.810183 0.106138 0.585064
0.810238 0.367590 0.669658
0.057810 0.067130 0.079700
0.059412 0.066314 0.079822
0.064540 0.065353 0.079980
0.081260 0.067413 0.080927
0.150882 0.070590 0.082097
0.237209 0.072451 0.082858
0.404983 0.076889 0.084261
0.526978 0.082072 0.086279
0.572669 0.085112 0.087138
0.626570 0.090217 0.088512
0.679386 0.097615 0.090740
0.704117 0.104272 0.092319
0.723831 0.109495 0.093528
0.743927 0.116654 0.095689
0.763647 0.128617 0.098584
0.776205 0.136547 0.100238
0.784832 0.144664 0.102157
0.791010 0.154776 0.104672
0.796344 0.169637 0.107757
0.800814 0.175927 0.109571
0.804202 0.182429 0.111712
0.806717 0.190437 0.115246
0.809018 0.196586 0.119476
0.811209 0.193096 0.123188
0.812308 0.190297 0.128877
0.813065 0.184557 0.137557
0.814616 0.158617 0.154785
0.814454 0.147346 0.240078
0.816611 0.109010 0.596740
0.814430 0.108001 0.592748
0.812257 0.107043 0.588809
0.810092 0.106098 0.584900
0.810155 0.367338 0.669530
0.057991 0.068482 0.079885
0.058443 0.068318 0.080234
0.060213 0.067349 0.080099
0.067407 0.068899 0.080833
0.094230 0.072678 0.082014
0.147098 0.074236 0.082796
0.305568 0.078977 0.084275
0.468170 0.084860 0.086368
0.530695 0.087632 0.087184
0.592619 0.092263 0.088532
0.662063 0.100357 0.090718
0.690120 0.106760 0.092282
0.712520 0.111703 0.093493
0.734853 0.119253 0.095637
0.756545 0.131502 0.098529
0.770788 0.140002 0.100184
0.781868 0.147978 0.102085
0.788606 0.158033 0.104596
0.794384 0.173742 0.107673
0.799188 0.179939 0.109482
0.802841 0.186385 0.111595
0.805571 0.194974 0.115061
0.808043 0.201166 0.119252
0.810372 0.197612 0.122902
0.811583 0.194737 0.128360
0.812431 0.188365 0.136747
0.814054 0.162126 0.152239
0.813961 0.149445 0.225720
0.816188 0.108826 0.595970
0.814043 0.107831 0.592046
0.811903 0.106888 0.588169
0.809767 0.105958 0.584315
0.809855 0.366433 0.669071
0.058922 0.075423 0.080648
0.059246 0.075262 0.080824
0.060757 0.074337 0.080951
0.063651 0.072727 0.080982
0.073908 0.076535 0.082094
0.092312 0.077569 0.082809
0.161360 0.081966 0.084210
0.339234 0.089398 0.086370
0.443066 0.091828 0.087235
0.532157 0.096140 0.088612
0.612357 0.106672 0.090757
0.663563 0.112369 0.092286
0.690704 0.116991 0.093480
0.717272 0.124878 0.095598
0.742609 0.138893 0.098472
0.760224 0.147156 0.100119
0.773800 0.154739 0.101986
0.784039 0.166031 0.104485
0.790693 0.181987 0.107544
0.796143 0.187932 0.109339
0.800309 0.194955 0.111404
0.803449 0.203943 0.114752
0.806246 0.210182 0.118873
0.808833 0.206484 0.122416
0.810255 0.203448 0.127483
0.811271 0.196782 0.135381
0.813028 0.169073 0.148106
0.813063 0.153816 0.203583
0.815419 0.108493 0.594574
0.813340 0.107522 0.590772
0.811259 0.106606 0.587005
0.809176 0.105707 0.583250
0.809309 0.364783 0.668238
0.060647 0.093460 0.081779
0.060906 0.093250 0.082070
0.062160 0.092417 0.082388
0.065229 0.089394 0.082659
0.070768 0.085643 0.082929
0.078203 0.082325 0.083045
0.106013 0.088202 0.084288
0.196133 0.095472 0.086403
0.314045 0.097111 0.087311
0.439055 0.102694 0.088712
0.548670 0.114056 0.090917
0.608611 0.120315 0.092388
0.659282 0.125804 0.093539
0.690051 0.136061 0.095647
0.719715 0.153133 0.098486
0.741831 0.160475 0.100097
0.760006 0.168634 0.101921
0.774584 0.180282 0.104386
0.784873 0.197254 0.107410
0.791401 0.203388 0.109176
0.796415 0.210170 0.111174
0.800220 0.219035 0.114364
0.803532 0.225255 0.118385
0.806526 0.221262 0.121784
0.808274 0.217921 0.126336
0.809547 0.210957 0.133609
0.811506 0.180756 0.143060
0.811734 0.162324 0.181911
0.814294 0.108012 0.592537
0.812310 0.107072 0.588907
0.810313 0.106194 0.585300
0.808307 0.105382 0.581689
0.808506 0.362363 0.667013
0.061796 0.112793 0.082911
0.062080 0.112154 0.083067
0.063319 0.111139 0.083259
0.065457 0.106485 0.083595
0.069237 0.098965 0.083574
0.074933 0.094623 0.083795
0.088717 0.096623 0.084818
0.130188 0.106274 0.086777
0.199208 0.106945 0.087461
0.322810 0.112092 0.088833
0.464215 0.124895 0.091020
0.542614 0.132070 0.092516
0.600298 0.139079 0.093691
0.657647 0.150226 0.095817
0.693360 0.168890 0.098552
0.718497 0.179131 0.100128
0.739519 0.189366 0.101935
0.757803 0.206145 0.104375
0.773693 0.224626 0.107337
0.784418 0.229161 0.109052
0.790808 0.234670 0.110967
0.795662 0.242597 0.113978
0.799761 0.248252 0.117871
0.803358 0.243914 0.121100
0.805584 0.240197 0.125232
0.807222 0.233141 0.131674
0.809463 0.200876 0.138784
0.809959 0.178553 0.162918
0.812820 0.107395 0.589878
0.810957 0.106483 0.586465
0.809070 0.105654 0.583062
0.809377 0.350024 0.579634
0.807446 0.359188 0.665399
0.064435 0.167563 0.084755
0.064679 0.168238 0.085015
0.065547 0.164520 0.085546
0.067594 0.152614 0.085800
0.071254 0.136658 0.085912
0.076471 0.124294 0.085974
0.085593 0.116867 0.086273
0.107531 0.121867 0.087339
0.141578 0.120537 0.087919
0.225560 0.125708 0.089200
0.372642 0.142993 0.091330
0.467973 0.151268 0.092768
0.537403 0.156352 0.093856
0.599683 0.169241 0.095973
0.661691 0.192292 0.098718
0.690206 0.205695 0.100293
0.716155 0.214024 0.102037
0.739088 0.228975 0.104384
0.758519 0.250580 0.107297
0.772886 0.258772 0.108989
0.783111 0.268857 0.110858
0.789264 0.279238 0.113710
0.794619 0.283978 0.117449
0.799134 0.278598 0.120502
0.802068 0.273888 0.124323
0.804227 0.266233 0.129874
0.806848 0.234973 0.135658
0.807711 0.207940 0.150764
0.811018 0.106686 0.586653
0.809298 0.105768 0.583480
0.807541 0.104995 0.580320
0.807964 0.346062 0.575934
0.806139 0.355305 0.663410
0.067044 0.270849 0.086981
0.067382 0.271622 0.087153
0.068864 0.272691 0.087701
0.070730 0.251041 0.088022
0.073596 0.224470 0.088153
0.079468 0.197379 0.088389
0.087764 0.176254 0.088510
0.102285 0.161537 0.088842
0.116694 0.143790 0.088694
0.165836 0.147688 0.089731
0.284714 0.169094 0.091814
0.391077 0.177082 0.093109
0.469873 0.181981 0.094275
0.542420 0.196170 0.096303
0.609543 0.222969 0.098938
0.660156 0.234018 0.100429
0.688601 0.243634 0.102218
0.714792 0.260991 0.104551
0.738484 0.283683 0.107387
0.757763 0.288729 0.108997
0.772266 0.296641 0.110798
0.782592 0.307390 0.113529
0.788703 0.316832 0.117174
0.793868 0.318771 0.120107
0.797417 0.322116 0.123692
0.800370 0.315266 0.128549
0.803516 0.289215 0.133719
0.804909 0.259915 0.142999
0.808924 0.106097 0.582993
0.807362 0.104956 0.580017
0.805752 0.104234 0.575952
0.806305 0.341342 0.571374
0.804602 0.350782 0.661074
0.068883 0.325131 0.087968
0.069133 0.325606 0.088143
0.069997 0.321546 0.088597
0.071512 0.307337 0.088997
0.073806 0.284907 0.089256
0.078384 0.257981 0.089407
0.085555 0.232954 0.089625
0.095752 0.210590 0.089799
0.111415 0.193786 0.090106
0.139283 0.183598 0.090506
0.219612 0.207316 0.092447
0.311866 0.214298 0.093578
0.402276 0.217847 0.094865
0.486319 0.231833 0.096735
0.558061 0.258297 0.099297
0.610239 0.267951 0.100724
0.659281 0.277438 0.102512
0.689007 0.294289 0.104769
0.716634 0.314546 0.107542
0.738245 0.321437 0.109124
0.756032 0.331293 0.110904
0.770983 0.338776 0.113540
0.782122 0.346434 0.117035
0.788530 0.346573 0.119805
0.792969 0.348763 0.123195
0.796275 0.351094 0.127634
0.799657 0.342025 0.132781
0.801400 0.334699 0.140261
0.806690 0.113933 0.580133
0.805189 0.104350 0.574615
0.803734 0.103438 0.570446
0.804426 0.336137 0.566258
0.802857 0.345709 0.658151
0.071327 0.399388 0.089670
0.071440 0.397786 0.089745
0.071905 0.389720 0.089971
0.073129 0.377135 0.090356
0.075517 0.358175 0.090657
0.079755 0.336218 0.090887
0.085807 0.313041 0.091132
0.094605 0.289352 0.091363
0.108325 0.266967 0.091638
0.129602 0.249644 0.092008
0.184135 0.263197 0.093421
0.254361 0.259802 0.094391
0.335103 0.260140 0.095546
0.424003 0.272135 0.097313
0.511743 0.299793 0.099766
0.563147 0.306679 0.101223
0.612617 0.313145 0.102933
0.662075 0.326066 0.105102
0.692462 0.347250 0.107837
0.716877 0.354103 0.109358
0.738802 0.360533 0.111039
0.756568 0.372666 0.113675
0.770434 0.385589 0.117111
0.781786 0.386774 0.119735
0.787577 0.386478 0.122895
0.791824 0.386987 0.126891
0.795905 0.376550 0.131508
0.798159 0.367389 0.137945
0.800382 0.347765 0.149417
0.801520 0.328035 0.191758
0.802670 0.284297 0.523026
0.802361 0.330746 0.563637
0.800932 0.340224 0.654222
0.074542 0.472125 0.092046
0.074644 0.469975 0.092094
0.075186 0.463649 0.092294
0.076902 0.457008 0.092752
0.079511 0.444812 0.093130
0.083560 0.428998 0.093446
0.089004 0.412043 0.093723
0.098963 0.394541 0.094063
0.111704 0.370596 0.094390
0.133544 0.349972 0.094832
0.167994 0.333812 0.095392
0.219329 0.318725 0.095849
0.284417 0.307258 0.096396
0.372522 0.315722 0.097997
0.458521 0.338673 0.100344
0.520980 0.343541 0.101892
0.569805 0.348379 0.103454
0.620513 0.361036 0.105523
0.667947 0.383465 0.108223
0.694357 0.388316 0.109656
0.718478 0.396164 0.111349
0.739262 0.405419 0.114007
0.757544 0.411861 0.117255
0.771608 0.413643 0.119772
0.781370 0.417759 0.122820
0.786374 0.422996 0.126526
0.791492 0.414855 0.130678
0.794464 0.407163 0.136218
0.797166 0.392203 0.144303
0.798705 0.367077 0.166578
0.800198 0.298185 0.453787
0.800145 0.325557 0.567007
0.798861 0.322412 0.566809
0.077066 0.516336 0.093415
0.077152 0.514695 0.093454
0.077579 0.508964 0.093615
0.079019 0.502530 0.094120
0.081387 0.491437 0.094659
0.084981 0.478149 0.095209
0.089829 0.462966 0.095736
0.098845 0.445787 0.096089
0.110184 0.428978 0.096433
0.128043 0.413459 0.096789
0.155168 0.399740 0.097217
0.201110 0.385839 0.097769
0.250622 0.362773 0.097832
0.319858 0.359058 0.098803
0.412852 0.382167 0.101146
0.477248 0.384857 0.102650
0.531091 0.388656 0.104150
0.582051 0.398726 0.106131
0.633962 0.413208 0.108651
0.671149 0.415926 0.110036
0.697018 0.422441 0.111789
0.721219 0.429829 0.114430
0.741781 0.438599 0.117614
0.758921 0.442259 0.120056
0.771789 0.444066 0.122914
0.781117 0.447539 0.126391
0.786801 0.445590 0.130243
0.790264 0.445058 0.135225
0.793464 0.436056 0.141533
0.795566 0.416981 0.155703
0.797475 0.337191 0.319725
0.797817 0.319375 0.560556
0.796675 0.316916 0.563882
0.079102 0.542447 0.094693
0.079194 0.541300 0.094746
0.079624 0.537663 0.094957
0.080877 0.533012 0.095433
0.083028 0.526817 0.096024
0.086140 0.518587 0.096604
0.090087 0.505268 0.097092
0.098289 0.489481 0.097537
0.108442 0.473336 0.097901
0.122541 0.457354 0.098247
0.146090 0.442740 0.098627
0.181363 0.429703 0.099030
0.230820 0.419117 0.099566
0.292873 0.412270 0.100242
0.373754 0.418339 0.102207
0.434307 0.419075 0.103577
0.496895 0.420389 0.104921
0.546214 0.427810 0.106843
0.598704 0.441408 0.109326
0.641944 0.443280 0.110553
0.675636 0.448478 0.112241
0.701641 0.456581 0.115025
0.724709 0.466272 0.118159
0.745189 0.467795 0.120397
0.760666 0.472735 0.123191
0.771689 0.479441 0.126636
0.781824 0.475418 0.130085
0.786171 0.472991 0.134544
0.789828 0.468407 0.140035
0.792196 0.462113 0.151039
0.793967 0.455332 0.179200
0.795415 0.313223 0.553930
0.794411 0.311473 0.562075
0.082087 0.575385 0.096536
0.082169 0.574394 0.096584
0.082536 0.571179 0.096774
0.083538 0.566718 0.097188
0.085618 0.562234 0.097842
0.088163 0.554403 0.098393
0.092517 0.545066 0.098893
0.100096 0.534767 0.099381
0.109206 0.523614 0.099809
0.121788 0.510555 0.100156
0.143143 0.495219 0.100492
0.174237 0.481264 0.100983
0.217645 0.468774 0.101528
0.272606 0.458471 0.102236
0.344713 0.462799 0.104163
0.401503 0.452975 0.104707
0.456101 0.451521 0.105827
0.515632 0.457625 0.107582
0.566365 0.470654 0.109988
0.608771 0.472275 0.111260
0.652199 0.476582 0.112937
0.681950 0.484517 0.115763
0.707267 0.492898 0.118747
0.729561 0.496161 0.120936
0.747682 0.501702 0.123618
0.762348 0.506296 0.126902
0.774092 0.506568 0.130204
0.781431 0.508762 0.134326
0.785979 0.502572 0.139109
0.788943 0.494165 0.147527
0.791110 0.484113 0.164415
0.792272 0.476808 0.295808
0.792641 0.479417 0.559609
0.085822 0.615350 0.098900
0.085900 0.614791 0.098946
0.086232 0.612943 0.099123
0.087083 0.608790 0.099497
0.089051 0.605295 0.100178
0.091761 0.597771 0.100703
0.097235 0.589906 0.101494
0.104104 0.580331 0.102144
0.112482 0.569828 0.102781
0.126509 0.558786 0.103319
0.147153 0.547775 0.103864
0.177503 0.537104 0.104328
0.218884 0.527244 0.104890
0.269619 0.518516 0.105452
0.323290 0.509266 0.106147
0.380900 0.497204 0.106535
0.425497 0.487038 0.107010
0.484209 0.489704 0.108479
0.537460 0.501760 0.110759
0.579107 0.502414 0.112042
0.620999 0.506198 0.113950
0.663074 0.513695 0.116689
0.689360 0.519814 0.119513
0.712972 0.522673 0.121614
0.734046 0.525743 0.124123
0.750730 0.530794 0.127460
0.765505 0.531275 0.130549
0.774832 0.531271 0.134317
0.781962 0.530855 0.138694
0.785373 0.529806 0.145586
0.788072 0.521705 0.157856
0.789607 0.509171 0.210589
0.790302 0.483718 0.544186
0.087971 0.631471 0.100105
0.088040 0.631027 0.100147
0.088328 0.629538 0.100306
0.089036 0.627253 0.100636
0.090844 0.625004 0.101413
0.094277 0.621252 0.102202
0.099534 0.617160 0.103113
0.105235 0.610097 0.103716
0.112739 0.600456 0.104356
0.125606 0.590429 0.105016
0.144003 0.579748 0.105504
0.169827 0.569259 0.106015
0.207058 0.559443 0.106548
0.252620 0.550232 0.107100
0.303116 0.542186 0.107678
0.358141 0.535249 0.108362
0.406174 0.526766 0.108718
0.455059 0.523538 0.109691
0.512884 0.529135 0.111757
0.551771 0.529161 0.113047
0.593036 0.530995 0.115035
0.636036 0.535880 0.117698
0.671865 0.541074 0.120421
0.696456 0.543284 0.122383
0.719198 0.546802 0.124795
0.738445 0.551860 0.128167
0.755978 0.552417 0.131030
0.767168 0.554761 0.134656
0.776230 0.554243 0.138620
0.782003 0.551557 0.144360
0.785011 0.549130 0.154503
0.786771 0.547750 0.181886
0.787894 0.516924 0.480975
0.089956 0.645909 0.101351
0.090018 0.645523 0.101402
0.090297 0.644217 0.101597
0.091301 0.642147 0.101994
0.093442 0.639901 0.102683
0.096880 0.637367 0.103553
0.100890 0.633312 0.104306
0.106334 0.628796 0.105057
0.113239 0.623616 0.105752
0.124771 0.617495 0.106392
0.141526 0.610031 0.106995
0.163967 0.599976 0.107526
0.197797 0.590233 0.108028
0.237903 0.581045 0.108583
0.287006 0.572534 0.109137
0.335312 0.565051 0.109723
0.390780 0.558647 0.110402
0.435307 0.554638 0.111365
0.491247 0.556095 0.113350
0.528138 0.552063 0.114342
0.567897 0.553558 0.116280
0.609638 0.557757 0.118806
0.652371 0.562681 0.121448
0.680107 0.564449 0.123279
0.703910 0.568123 0.125601
0.725553 0.572500 0.128996
0.745065 0.574319 0.131741
0.759096 0.576024 0.135088
0.769899 0.576768 0.138786
0.776969 0.577130 0.143933
0.781983 0.573856 0.152245
0.784163 0.569753 0.169574
0.785382 0.569644 0.317110
0.093641 0.662139 0.103123
0.093738 0.661806 0.103171
0.094128 0.660670 0.103350
0.095023 0.658825 0.103710
0.096854 0.656688 0.104324
0.100394 0.654969 0.105279
0.103601 0.650925 0.105922
0.108986 0.647325 0.106797
0.115123 0.642651 0.107513
0.126534 0.637418 0.108146
0.142177 0.631993 0.108797
0.163202 0.626342 0.109376
0.194783 0.620379 0.109959
0.231524 0.614314 0.110440
0.277192 0.606474 0.111047
0.322188 0.598557 0.111706
0.375859 0.591504 0.112397
0.419121 0.585559 0.113345
0.470639 0.586236 0.115788
0.511161 0.579614 0.116366
0.545072 0.576296 0.117540
0.586237 0.580088 0.119997
0.627201 0.584529 0.122560
0.664404 0.585909 0.124279
0.688825 0.589505 0.126722
0.711966 0.593580 0.130008
0.733598 0.595558 0.132580
0.749962 0.597527 0.135720
0.763009 0.599934 0.139237
0.771758 0.598801 0.143867
0.777891 0.598284 0.151137
0.781459 0.598447 0.163650
0.783053 0.593824 0.233565
0.098126 0.679948 0.105285
0.098221 0.679666 0.105331
0.098596 0.678693 0.105499
0.099428 0.677083 0.105832
0.101062 0.675133 0.106392
0.104171 0.673435 0.107269
0.107488 0.670296 0.108002
0.112365 0.666993 0.108868
0.118750 0.662780 0.109616
0.131221 0.658364 0.110377
0.146251 0.653386 0.111054
0.167650 0.648171 0.111840
0.196914 0.642750 0.112510
0.232283 0.637425 0.113290
0.275003 0.632233 0.114128
0.318816 0.627476 0.115126
0.368403 0.622926 0.116067
0.411496 0.618555 0.117008
0.453307 0.614950 0.118150
0.495835 0.608914 0.118625
0.528900 0.604174 0.119577
0.564502 0.602642 0.121243
0.604571 0.606620 0.123707
0.643338 0.607724 0.125348
0.674159 0.610661 0.127948
0.698213 0.614078 0.131139
0.721556 0.615208 0.133524
0.740003 0.617014 0.136543
0.755735 0.618052 0.139734
0.766203 0.618572 0.144217
0.773419 0.618828 0.150725
0.777904 0.617656 0.160707
0.780584 0.618279 0.198176
0.100898 0.692667 0.106176
0.100984 0.692458 0.106219
0.101322 0.691583 0.106379
0.102057 0.690109 0.106692
0.103467 0.688248 0.107212
0.106077 0.686434 0.108014
0.109508 0.684049 0.108867
0.113414 0.680615 0.109626
0.120449 0.677134 0.110486
0.131874 0.673099 0.111357
0.144905 0.668386 0.112123
0.163510 0.663554 0.112946
0.190632 0.658561 0.113972
0.223283 0.653530 0.114926
0.262663 0.648621 0.115863
0.304892 0.643848 0.116744
0.349938 0.639481 0.117732
0.396726 0.635521 0.118718
0.434931 0.631872 0.119673
0.477916 0.628873 0.120802
0.515360 0.625615 0.121663
0.548824 0.624311 0.123259
0.584856 0.623613 0.124998
0.621399 0.623843 0.126643
0.660396 0.625424 0.129272
0.684624 0.627496 0.132326
0.708931 0.628505 0.134570
0.729431 0.630202 0.137460
0.747627 0.631322 0.140424
0.760255 0.632214 0.144792
0.769026 0.632363 0.150579
0.774155 0.632806 0.159213
0.777376 0.632698 0.183830
0.103737 0.702187 0.107118
0.103818 0.702021 0.107159
0.104129 0.701442 0.107312
0.104795 0.700453 0.107611
0.106041 0.699166 0.108101
0.108285 0.697818 0.108846
0.111871 0.696516 0.109824
0.115094 0.693987 0.110505
0.123409 0.691630 0.111595
0.132543 0.687477 0.112391
0.145455 0.683450 0.113490
0.163455 0.679103 0.114675
0.188068 0.674368 0.115738
0.217983 0.669562 0.116697
0.254402 0.664885 0.117705
0.295495 0.660327 0.118663
0.336279 0.655941 0.119576
0.384982 0.651910 0.120552
0.421276 0.648332 0.121575
0.460475 0.645038 0.122551
0.503487 0.642320 0.123664
0.535023 0.640484 0.125186
0.569434 0.639630 0.127174
0.602512 0.637628 0.128319
0.639615 0.638165 0.130623
0.671688 0.640018 0.133604
0.696287 0.640938 0.135700
0.718459 0.642348 0.138412
0.738766 0.643789 0.141353
0.753853 0.644505 0.145463
0.764462 0.645453 0.150847
0.770607 0.645579 0.158296
0.774302 0.646302 0.176276
0.106751 0.711691 0.108242
0.106829 0.711548 0.108283
0.107125 0.711050 0.108432
0.107748 0.710191 0.108720
0.108885 0.709049 0.109187
0.110874 0.707798 0.109890
0.114343 0.706736 0.110917
0.117950 0.704574 0.111761
0.125781 0.702402 0.112804
0.135325 0.699873 0.114125
0.147769 0.697164 0.115468
0.163563 0.694029 0.116612
0.187282 0.690269 0.117791
0.216118 0.685832 0.118886
0.250179 0.681328 0.119871
0.289677 0.676981 0.120934
0.327803 0.672735 0.121897
0.373392 0.668731 0.122873
0.411168 0.665004 0.123857
0.448853 0.661756 0.124908
0.489373 0.658785 0.125961
0.522695 0.656306 0.127366
0.555298 0.654981 0.129459
0.587737 0.652918 0.130495
0.621391 0.651637 0.132256
0.659067 0.652300 0.134879
0.683951 0.653236 0.136875
0.707159 0.654459 0.139470
0.729337 0.655867 0.142595
0.746889 0.656722 0.146367
0.759711 0.657687 0.151279
0.767108 0.658219 0.157926
0.771358 0.659440 0.171921
0.109634 0.721028 0.109182
0.109708 0.720903 0.109222
0.109988 0.720467 0.109368
0.110569 0.719708 0.109650
0.111609 0.718680 0.110103
0.113388 0.717508 0.110777
0.116413 0.716409 0.111902
0.121986 0.714769 0.112988
0.128672 0.712633 0.114303
0.138709 0.710580 0.115907
0.148976 0.707853 0.117094
0.165572 0.705139 0.118431
0.188788 0.702275 0.119774
0.214661 0.699104 0.120867
0.246441 0.695914 0.121909
0.284536 0.692773 0.122973
0.320647 0.688793 0.124052
0.363824 0.684887 0.125078
0.403070 0.681210 0.126163
0.438338 0.677795 0.127464
0.477023 0.674841 0.128820
0.512796 0.672195 0.130190
0.542471 0.669961 0.131595
0.573852 0.667781 0.132563
0.606401 0.666242 0.134251
0.641371 0.665489 0.136477
0.672006 0.665297 0.138012
0.695738 0.666338 0.140504
0.719582 0.667652 0.143898
0.739348 0.668652 0.147442
0.754624 0.669540 0.151813
0.763620 0.670481 0.157952
0.768654 0.671331 0.169160
0.111904 0.729790 0.109386
0.111971 0.729676 0.109425
0.112224 0.729275 0.109568
0.112744 0.728569 0.109844
0.113663 0.727594 0.110285
0.115216 0.726438 0.110949
0.118629 0.725256 0.112049
0.124796 0.723929 0.113488
0.130461 0.721823 0.114716
0.139752 0.719876 0.116400
0.149375 0.717390 0.117703
0.165745 0.714903 0.119187
0.185087 0.712073 0.120418
0.210608 0.709237 0.121724
0.241512 0.706292 0.122940
0.276200 0.703269 0.123986
0.311055 0.700333 0.125094
0.350937 0.697493 0.126258
0.392839 0.694803 0.127618
0.426013 0.692202 0.128927
0.462592 0.689143 0.130269
0.501894 0.686454 0.131601
0.529961 0.684154 0.133012
0.560662 0.682220 0.134452
0.592568 0.680374 0.136101
0.626109 0.679301 0.138274
0.661607 0.678416 0.139495
0.684439 0.677983 0.141703
0.709266 0.679169 0.145056
0.731258 0.680218 0.148630
0.749210 0.681178 0.152534
0.760073 0.681942 0.157904
0.766075 0.683153 0.167483
0.113995 0.737340 0.109691
0.114058 0.737241 0.109729
0.114296 0.736893 0.109871
0.114777 0.736276 0.110141
0.115618 0.735413 0.110572
0.117263 0.734367 0.111264
0.121177 0.733248 0.112328
0.127833 0.732241 0.114181
0.132789 0.730286 0.115348
0.140671 0.728376 0.116920
0.150942 0.726323 0.118561
0.164771 0.723878 0.119926
0.184668 0.721382 0.121377
0.208827 0.718757 0.122792
0.235905 0.715976 0.123991
0.269476 0.713190 0.125199
0.304507 0.710407 0.126543
0.342145 0.707662 0.128016
0.385186 0.705041 0.129392
0.416532 0.702578 0.130782
0.450734 0.700300 0.132119
0.488191 0.698248 0.133467
0.519175 0.696413 0.134809
0.548080 0.694906 0.136270
0.579760 0.693636 0.137750
0.611768 0.692566 0.139893
0.647341 0.691793 0.141053
0.674434 0.690712 0.143523
0.698789 0.690473 0.146189
0.722561 0.691404 0.149454
0.743389 0.692468 0.153315
0.756431 0.693075 0.158051
0.763623 0.693899 0.166292
0.115909 0.744323 0.109885
0.115969 0.744238 0.109923
0.116193 0.743937 0.110064
0.116700 0.743402 0.110333
0.117946 0.742645 0.110760
0.120105 0.741709 0.111478
0.123642 0.740674 0.112525
0.129551 0.739672 0.114412
0.135280 0.738144 0.115961
0.142107 0.736337 0.117456
0.153079 0.734640 0.119457
0.165451 0.732325 0.120738
0.185886 0.730098 0.122426
0.206326 0.727578 0.123729
0.233853 0.725065 0.125178
0.265467 0.722458 0.126649
0.298445 0.719837 0.128213
0.333398 0.717232 0.129759
0.374443 0.714686 0.131239
0.408045 0.712284 0.132685
0.440627 0.710039 0.134107
0.476235 0.707992 0.135506
0.510149 0.706140 0.136878
0.537184 0.704501 0.138246
0.567012 0.703187 0.139757
0.598384 0.702084 0.141392
0.632609 0.701618 0.142849
0.665026 0.700646 0.145309
0.689361 0.700282 0.147717
0.713498 0.699964 0.150331
0.736832 0.700611 0.153879
0.752694 0.701278 0.158236
0.761415 0.702062 0.165516
0.118376 0.753314 0.108832
0.118460 0.753232 0.108872
0.118777 0.752941 0.109016
0.119419 0.752417 0.109293
0.120532 0.751659 0.109734
0.122376 0.750689 0.110387
0.125424 0.749553 0.111397
0.130582 0.748340 0.112989
0.137030 0.746919 0.115114
0.142828 0.745094 0.116588
0.152061 0.743265 0.118560
0.165269 0.741202 0.120305
0.182282 0.738952 0.121919
0.203608 0.736608 0.123538
0.228867 0.734148 0.125064
0.257660 0.731654 0.126617
0.291841 0.729158 0.128409
0.324541 0.726658 0.130052
0.362285 0.724198 0.131591
0.398365 0.721850 0.133097
0.429362 0.719653 0.134569
0.463301 0.717629 0.136017
0.500558 0.715803 0.137441
0.526750 0.714190 0.138850
