negative-ultramax-400/Ultramax400_Classic_Normal.cube
TITLE "Kodak Ultramax 400 Classic Normal"
# Adobe RGB in/out. REPLACES AgX. Kodak Ultramax 400 Classic Normal.
LUT_3D_SIZE 33
DOMAIN_MIN 0.0 0.0 0.0
DOMAIN_MAX 1.0 1.0 1.0
0.073661 0.072636 0.087722
0.077321 0.074739 0.088213
0.078428 0.075394 0.088271
0.085974 0.077547 0.088566
0.118556 0.080165 0.088888
0.141669 0.081510 0.089094
0.208660 0.084099 0.089501
0.299615 0.087423 0.089931
0.350058 0.089172 0.090159
0.420686 0.092267 0.090518
0.510999 0.097149 0.091067
0.566437 0.100011 0.091383
0.613393 0.102250 0.091695
0.661482 0.106541 0.092260
0.697699 0.112577 0.092955
0.724848 0.116383 0.093394
0.745194 0.120948 0.093987
0.762785 0.126348 0.094955
0.778961 0.132785 0.096205
0.793594 0.136022 0.097224
0.805972 0.139340 0.098332
0.814381 0.143267 0.100169
0.822477 0.147196 0.102160
0.830439 0.147583 0.103931
0.836454 0.148206 0.107360
0.841875 0.147406 0.112719
0.848801 0.138297 0.124052
0.852565 0.134317 0.172791
0.860314 0.112004 0.447338
0.860313 0.111974 0.447303
0.860313 0.111972 0.447301
0.860313 0.111973 0.447300
0.864233 0.253928 0.581678
0.074160 0.078424 0.088121
0.075758 0.078576 0.088246
0.078512 0.076554 0.088243
0.086499 0.078551 0.088631
0.115008 0.081072 0.088951
0.136082 0.082091 0.089150
0.199340 0.084708 0.089539
0.289593 0.088032 0.089969
0.340727 0.089637 0.090185
0.412975 0.092835 0.090544
0.504041 0.097629 0.091085
0.561513 0.100417 0.091397
0.609310 0.102619 0.091717
0.659231 0.107083 0.092278
0.695972 0.113077 0.092970
0.723499 0.117025 0.093410
0.744379 0.121544 0.094009
0.762170 0.126910 0.094973
0.778505 0.133326 0.096226
0.793252 0.136535 0.097241
0.805772 0.139830 0.098345
0.814235 0.143896 0.100182
0.822370 0.147813 0.102165
0.830362 0.148187 0.103928
0.836400 0.148797 0.107329
0.841836 0.147987 0.112630
0.848774 0.138722 0.123686
0.852550 0.134646 0.170748
0.860314 0.112005 0.447339
0.860313 0.111974 0.447303
0.860313 0.111972 0.447301
0.860313 0.111973 0.447300
0.864234 0.253930 0.581678
0.074290 0.079687 0.088192
0.074772 0.079887 0.088301
0.076240 0.079856 0.088339
0.081385 0.081462 0.088786
0.096929 0.084141 0.089122
0.118673 0.084546 0.089288
0.170772 0.087004 0.089662
0.258286 0.090681 0.090110
0.310052 0.092174 0.090285
0.383713 0.095005 0.090641
0.478111 0.099441 0.091153
0.542878 0.101938 0.091449
0.593799 0.104626 0.091797
0.648449 0.109097 0.092343
0.689392 0.114927 0.093023
0.718371 0.119401 0.093467
0.741292 0.123741 0.094088
0.759849 0.128980 0.095039
0.776792 0.135312 0.096302
0.791969 0.138413 0.097302
0.804876 0.141623 0.098392
0.813686 0.146197 0.100229
0.821972 0.150071 0.102188
0.830076 0.150397 0.103918
0.836198 0.150962 0.107224
0.841695 0.150115 0.112326
0.848673 0.140284 0.122449
0.852494 0.135882 0.163754
0.860314 0.112007 0.447341
0.860313 0.111974 0.447304
0.860313 0.111972 0.447302
0.860313 0.111975 0.447300
0.864234 0.253933 0.581677
0.074973 0.085496 0.088471
0.075278 0.085740 0.088622
0.076396 0.086133 0.088800
0.078804 0.085996 0.088928
0.087267 0.089872 0.089379
0.097893 0.089003 0.089497
0.130753 0.091805 0.089850
0.201476 0.095930 0.090285
0.257830 0.096672 0.090485
0.330065 0.098911 0.090809
0.430007 0.103183 0.091283
0.502483 0.106594 0.091549
0.561948 0.109186 0.091950
0.622478 0.113105 0.092468
0.675579 0.119882 0.093126
0.707656 0.124077 0.093575
0.734871 0.128031 0.094239
0.755062 0.132996 0.095165
0.773286 0.139147 0.096446
0.789360 0.142027 0.097419
0.802955 0.145892 0.098496
0.812585 0.150624 0.100323
0.821176 0.154405 0.102238
0.829507 0.154637 0.103911
0.835799 0.155111 0.107062
0.841414 0.154198 0.111831
0.848474 0.143546 0.120461
0.852381 0.138381 0.153826
0.860315 0.112013 0.447347
0.860313 0.111975 0.447305
0.860313 0.111973 0.447302
0.860314 0.111979 0.447300
0.864234 0.253936 0.581677
0.075975 0.097606 0.088913
0.076155 0.097922 0.089005
0.077108 0.098897 0.089204
0.079364 0.099219 0.089429
0.083876 0.098977 0.089654
0.090318 0.096735 0.089719
0.108470 0.099182 0.090067
0.149963 0.102403 0.090539
0.199774 0.102215 0.090722
0.269767 0.104303 0.091012
0.370215 0.110810 0.091466
0.444876 0.113358 0.091825
0.514214 0.115609 0.092180
0.579616 0.120992 0.092661
0.647891 0.128668 0.093287
0.687945 0.131918 0.093744
0.720767 0.135126 0.094476
0.746382 0.139566 0.095363
0.767012 0.146295 0.096674
0.784737 0.149615 0.097606
0.799589 0.153276 0.098713
0.810676 0.157750 0.100482
0.819808 0.161833 0.102333
0.828536 0.161917 0.103929
0.835120 0.162283 0.106890
0.840939 0.161136 0.111232
0.848136 0.150037 0.118089
0.852185 0.142695 0.142514
0.860315 0.112023 0.447359
0.860313 0.111976 0.447306
0.860313 0.111973 0.447303
0.860315 0.112016 0.447301
0.864234 0.253937 0.581676
0.076422 0.103092 0.089144
0.076575 0.103272 0.089220
0.077207 0.104879 0.089356
0.078765 0.105835 0.089594
0.081641 0.105900 0.089741
0.086903 0.105537 0.090003
0.098424 0.109474 0.090329
0.125467 0.114498 0.090858
0.155645 0.112543 0.090965
0.213296 0.114155 0.091220
0.302820 0.121404 0.091730
0.379681 0.124243 0.092144
0.451825 0.126502 0.092474
0.531117 0.130909 0.092913
0.606457 0.137834 0.093544
0.662182 0.141161 0.094116
0.698075 0.145280 0.094802
0.730985 0.151860 0.095648
0.755925 0.159203 0.097006
0.776672 0.161974 0.097882
0.793812 0.165381 0.099039
0.807453 0.169953 0.100730
0.817531 0.173727 0.102501
0.826933 0.173513 0.104004
0.834012 0.173606 0.106780
0.840165 0.172303 0.110718
0.847584 0.160195 0.115825
0.851859 0.151745 0.132308
0.860316 0.112046 0.447382
0.860313 0.111979 0.447309
0.860313 0.111974 0.447304
0.864231 0.244826 0.447301
0.864234 0.253937 0.581676
0.077394 0.120924 0.089577
0.077522 0.121130 0.089624
0.078123 0.122950 0.089790
0.079457 0.124782 0.090000
0.082125 0.125668 0.090218
0.086525 0.125564 0.090441
0.094036 0.125036 0.090709
0.113553 0.132295 0.091171
0.133732 0.128097 0.091250
0.174066 0.129043 0.091463
0.248657 0.136262 0.092128
0.317039 0.138117 0.092504
0.388167 0.138831 0.092770
0.468260 0.142496 0.093178
0.555249 0.151652 0.093930
0.617957 0.155994 0.094596
0.671909 0.158826 0.095203
0.711304 0.164896 0.096047
0.743161 0.174111 0.097417
0.765695 0.178052 0.098244
0.784503 0.183186 0.099499
0.800806 0.188844 0.101105
0.813627 0.192273 0.102779
0.824222 0.191501 0.104180
0.832168 0.191110 0.106834
0.838889 0.189466 0.110409
0.846664 0.177048 0.114403
0.851302 0.166907 0.125407
0.860317 0.112104 0.447436
0.860314 0.111984 0.447315
0.860313 0.111977 0.447307
0.864234 0.244901 0.447303
0.864234 0.253937 0.581676
0.078582 0.146792 0.090071
0.078709 0.147007 0.090112
0.079361 0.149469 0.090278
0.080486 0.151861 0.090530
0.083078 0.153758 0.090773
0.087424 0.154542 0.091037
0.094140 0.154185 0.091244
0.106647 0.153425 0.091458
0.121048 0.146313 0.091516
0.149097 0.146532 0.091850
0.209514 0.155856 0.092544
0.268413 0.156663 0.092871
0.329109 0.156343 0.093108
0.408755 0.160745 0.093532
0.499828 0.170558 0.094489
0.568053 0.173800 0.095084
0.632110 0.176964 0.095658
0.682750 0.183986 0.096634
0.723911 0.193837 0.097931
0.752935 0.196245 0.098790
0.775503 0.200190 0.100050
0.793922 0.206288 0.101578
0.809002 0.212335 0.103177
0.820274 0.214688 0.104496
0.828880 0.217989 0.107175
0.836646 0.216046 0.110440
0.845010 0.204839 0.114022
0.850286 0.193156 0.121775
0.860325 0.112337 0.447625
0.860314 0.112004 0.447336
0.860314 0.111984 0.447317
0.864234 0.244905 0.447307
0.864234 0.253937 0.581676
0.079269 0.163412 0.090295
0.079362 0.163583 0.090337
0.079797 0.165322 0.090497
0.080844 0.168407 0.090728
0.082913 0.171106 0.090959
0.086075 0.172603 0.091174
0.091439 0.173100 0.091395
0.099901 0.172510 0.091602
0.114187 0.171679 0.091954
0.135489 0.171367 0.092291
0.182626 0.182707 0.092961
0.231623 0.182280 0.093245
0.285707 0.180381 0.093502
0.354288 0.184051 0.094049
0.442756 0.194280 0.095102
0.516696 0.196618 0.095640
0.581755 0.199340 0.096290
0.650215 0.205776 0.097265
0.698550 0.215370 0.098521
0.735457 0.218748 0.099554
0.760818 0.224055 0.100753
0.783878 0.228433 0.102177
0.803133 0.233171 0.103677
0.816698 0.234326 0.105094
0.826480 0.237068 0.107689
0.834465 0.240159 0.110766
0.842867 0.236623 0.114351
0.848424 0.234163 0.121136
0.860534 0.119952 0.449780
0.860322 0.112244 0.447555
0.860315 0.112036 0.447375
0.864234 0.244907 0.447324
0.864234 0.253937 0.581676
0.080163 0.190725 0.090696
0.080234 0.190875 0.090727
0.080654 0.192222 0.090844
0.081814 0.195709 0.091040
0.083463 0.198855 0.091249
0.086297 0.201402 0.091450
0.090924 0.202517 0.091733
0.097823 0.202563 0.092080
0.109513 0.201912 0.092404
0.126558 0.201096 0.092718
0.163427 0.214238 0.093366
0.205424 0.212938 0.093709
0.251040 0.209381 0.094059
0.311682 0.211949 0.094731
0.394336 0.222136 0.095734
0.462225 0.223306 0.096370
0.533315 0.224772 0.097039
0.602496 0.230243 0.097948
0.668933 0.241413 0.099457
0.710787 0.244600 0.100410
0.745874 0.247997 0.101489
0.771388 0.255241 0.102855
0.792914 0.263351 0.104296
0.810839 0.264846 0.106014
0.822673 0.265799 0.108401
0.831987 0.267544 0.111284
0.841305 0.262914 0.114537
0.847448 0.259205 0.120456
0.853771 0.249085 0.129001
0.858029 0.238637 0.159865
0.862356 0.216403 0.404238
0.864234 0.245077 0.450528
0.864234 0.253938 0.581676
0.082007 0.235359 0.091231
0.082103 0.235531 0.091255
0.082508 0.236810 0.091341
0.083503 0.241667 0.091509
0.085295 0.245696 0.091812
0.088171 0.248743 0.092168
0.092264 0.251101 0.092522
0.099390 0.251937 0.092852
0.110688 0.251727 0.093155
0.126748 0.250823 0.093494
0.150601 0.249964 0.093939
0.186113 0.247361 0.094436
0.225775 0.241929 0.094792
0.279530 0.243902 0.095408
0.351250 0.255710 0.096588
0.416792 0.255463 0.097213
0.483687 0.255570 0.097803
0.556198 0.261085 0.098743
0.630511 0.273064 0.100442
0.682616 0.274508 0.101304
0.724729 0.278814 0.102330
0.755574 0.286706 0.103626
0.782086 0.292521 0.105205
0.804201 0.294506 0.107048
0.817526 0.299060 0.109313
0.827851 0.305062 0.112140
0.838745 0.298930 0.115069
0.845883 0.293482 0.120342
0.852775 0.282151 0.127154
0.857514 0.268320 0.145098
0.862170 0.226467 0.337994
0.864234 0.245603 0.460479
0.864234 0.245797 0.464058
0.083189 0.271027 0.091531
0.083267 0.271180 0.091550
0.083587 0.272208 0.091677
0.084619 0.276323 0.091937
0.086082 0.280110 0.092236
0.088845 0.284246 0.092570
0.092456 0.287730 0.092915
0.098587 0.289234 0.093224
0.108369 0.289698 0.093578
0.121693 0.289324 0.094054
0.141924 0.288336 0.094623
0.172237 0.287554 0.095193
0.206494 0.280186 0.095479
0.254108 0.282147 0.096188
0.318138 0.294051 0.097478
0.377354 0.292173 0.098038
0.440201 0.291324 0.098672
0.513662 0.296268 0.099851
0.586902 0.307648 0.101420
0.651302 0.308175 0.102232
0.697033 0.312846 0.103231
0.738287 0.318856 0.104430
0.767744 0.325789 0.106524
0.792893 0.328757 0.108274
0.811779 0.330566 0.110367
0.824176 0.334145 0.113176
0.835776 0.333496 0.116166
0.843509 0.334346 0.120916
0.851027 0.328272 0.126805
0.856603 0.312982 0.138383
0.861729 0.255751 0.243567
0.864234 0.245611 0.460529
0.864234 0.245985 0.467444
0.084303 0.303635 0.091940
0.084390 0.303767 0.091969
0.084738 0.304591 0.092079
0.085549 0.307712 0.092293
0.087042 0.312179 0.092573
0.089492 0.316702 0.092882
0.092480 0.320034 0.093189
0.097873 0.322151 0.093546
0.106465 0.323367 0.094014
0.118022 0.323463 0.094583
0.134605 0.323010 0.095131
0.157842 0.322054 0.095645
0.192352 0.321413 0.096310
0.234252 0.322453 0.097079
0.293598 0.333505 0.098365
0.344672 0.331017 0.099080
0.404021 0.329179 0.099819
0.471384 0.332934 0.100968
0.547860 0.342341 0.102517
0.609432 0.341823 0.103215
0.668822 0.344667 0.104112
0.714531 0.350656 0.105778
0.751016 0.358530 0.107965
0.780796 0.359410 0.109536
0.803802 0.363838 0.111650
0.818336 0.370307 0.114473
0.832262 0.367357 0.117534
0.841381 0.366220 0.121787
0.849481 0.363419 0.127064
0.855374 0.359321 0.136434
0.859995 0.355010 0.159131
0.864234 0.245705 0.460591
0.864234 0.246300 0.472336
0.085804 0.342662 0.092455
0.085878 0.342773 0.092481
0.086169 0.343412 0.092574
0.087027 0.345719 0.092755
0.088678 0.350653 0.093024
0.090701 0.354280 0.093299
0.093639 0.357704 0.093658
0.098696 0.360701 0.094217
0.106545 0.362621 0.094812
0.116916 0.363237 0.095358
0.131559 0.363145 0.095893
0.151809 0.362602 0.096617
0.182358 0.361614 0.097284
0.219289 0.360930 0.097975
0.272365 0.372606 0.099547
0.318937 0.369626 0.100304
0.372596 0.366367 0.100982
0.435876 0.369302 0.102037
0.511345 0.379006 0.103547
0.571375 0.378084 0.104242
0.635215 0.380067 0.105413
0.688025 0.385858 0.107335
0.733142 0.392475 0.109403
0.765391 0.394692 0.110919
0.792108 0.399494 0.113161
0.812385 0.403836 0.116055
0.827761 0.404512 0.119154
0.837954 0.407402 0.123082
0.847509 0.402703 0.127696
0.854294 0.396214 0.135386
0.859470 0.388436 0.150482
0.862962 0.383508 0.239164
0.865208 0.388286 0.476709
0.088085 0.392941 0.093079
0.088176 0.393075 0.093101
0.088530 0.393746 0.093182
0.089300 0.395806 0.093350
0.090805 0.401207 0.093672
0.092484 0.404430 0.094140
0.096067 0.408858 0.094730
0.101138 0.412257 0.095301
0.108533 0.414787 0.095896
0.118657 0.416258 0.096654
0.133083 0.416834 0.097395
0.152139 0.416532 0.098067
0.181180 0.415740 0.098880
0.215478 0.414823 0.099810
0.256031 0.414041 0.100766
0.298944 0.410075 0.101446
0.346418 0.406617 0.102129
0.406860 0.409060 0.103148
0.476057 0.418280 0.104591
0.537351 0.416406 0.105669
0.598285 0.417884 0.107106
0.662276 0.423307 0.108972
0.709106 0.429279 0.110922
0.747961 0.432019 0.112607
0.778931 0.435474 0.114707
0.803906 0.442070 0.118077
0.822335 0.442854 0.120964
0.834750 0.443386 0.124552
0.845108 0.443744 0.128782
0.852538 0.443601 0.135613
0.858594 0.434121 0.146547
0.862551 0.421450 0.189896
0.865180 0.398641 0.466859
0.089685 0.430128 0.093486
0.089763 0.430248 0.093510
0.090067 0.430822 0.093599
0.090713 0.432506 0.093787
0.091932 0.436753 0.094246
0.093967 0.440864 0.094754
0.097394 0.446104 0.095342
0.102040 0.448880 0.095866
0.108671 0.451727 0.096622
0.117994 0.454008 0.097395
0.130610 0.454871 0.098080
0.147537 0.454979 0.098896
0.172831 0.454701 0.099860
0.204091 0.453809 0.100788
0.240317 0.453036 0.101678
0.282568 0.452381 0.102586
0.324828 0.448261 0.103213
0.381114 0.450356 0.104221
0.446372 0.459730 0.106405
0.505670 0.457328 0.107468
0.565012 0.457691 0.108774
0.629897 0.462229 0.110601
0.684703 0.466860 0.112752
0.729558 0.468336 0.114336
0.763358 0.471635 0.116845
0.792087 0.477047 0.120195
0.815956 0.477594 0.122866
0.830088 0.480546 0.126318
0.842312 0.480509 0.130402
0.851038 0.478268 0.136404
0.857588 0.476621 0.145564
0.861771 0.476469 0.169785
0.864993 0.438534 0.402705
0.091193 0.466719 0.094023
0.091262 0.466806 0.094059
0.091525 0.467208 0.094189
0.092074 0.468340 0.094438
0.093315 0.471092 0.094834
0.095639 0.475091 0.095335
0.098402 0.477963 0.095836
0.103064 0.481065 0.096571
0.109137 0.483807 0.097306
0.117582 0.485762 0.098029
0.128853 0.486990 0.098865
0.144183 0.487474 0.099836
0.166420 0.487482 0.100760
0.194451 0.487122 0.101683
0.227657 0.486459 0.102561
0.265977 0.485888 0.103413
0.308748 0.485529 0.104282
0.358809 0.487026 0.105723
0.421472 0.494197 0.108186
0.475877 0.491790 0.109186
0.536297 0.491862 0.110484
0.597499 0.495294 0.112451
0.661264 0.499777 0.114631
0.706226 0.500747 0.116516
0.746518 0.504255 0.119192
0.778798 0.508899 0.122370
0.807825 0.510816 0.124933
0.824874 0.512922 0.128127
0.838992 0.514206 0.132387
0.848758 0.515354 0.137836
0.856500 0.512460 0.145439
0.861297 0.508864 0.161850
0.864537 0.510319 0.269927
0.092986 0.502496 0.094840
0.093081 0.502583 0.094871
0.093441 0.502962 0.094987
0.094183 0.503956 0.095206
0.095514 0.506240 0.095554
0.097791 0.510892 0.096142
0.100476 0.512894 0.096744
0.105258 0.516730 0.097492
0.110950 0.519370 0.098194
0.118576 0.521344 0.099071
0.129267 0.522962 0.100092
0.143612 0.523862 0.101060
0.164119 0.524288 0.102015
0.190003 0.523996 0.102874
0.220861 0.523643 0.103767
0.256145 0.523059 0.104605
0.296610 0.522503 0.106015
0.340784 0.522319 0.107497
0.400453 0.529254 0.109933
0.450768 0.526644 0.110894
0.509122 0.526092 0.112330
0.568768 0.529291 0.114368
0.632230 0.533420 0.117061
0.683486 0.533998 0.118991
0.728777 0.537508 0.121600
0.763888 0.541864 0.124652
0.796724 0.543943 0.127064
0.818479 0.546315 0.130295
0.834635 0.549535 0.134662
0.846538 0.548728 0.139525
0.855210 0.548983 0.146244
0.860497 0.550373 0.158991
0.864289 0.546161 0.215491
0.095849 0.543058 0.095780
0.095937 0.543156 0.095809
0.096267 0.543558 0.095945
0.096936 0.544522 0.096219
0.098110 0.546562 0.096651
0.100596 0.550635 0.097279
0.103723 0.553459 0.097885
0.108044 0.557076 0.098652
0.113671 0.559789 0.099647
0.121084 0.562585 0.100681
0.131996 0.564466 0.101659
0.145858 0.565756 0.102651
0.165253 0.566257 0.103568
0.190084 0.566360 0.104458
0.219052 0.565993 0.105799
0.253169 0.565668 0.107337
0.291115 0.565202 0.108778
0.332064 0.564603 0.110160
0.381328 0.564604 0.111744
0.429354 0.561874 0.112819
0.483503 0.561332 0.114259
0.543519 0.563906 0.116715
0.603505 0.567728 0.119589
0.662150 0.568092 0.121468
0.707093 0.570933 0.123980
0.748177 0.575348 0.126976
0.783604 0.577152 0.129228
0.810685 0.580535 0.132925
0.830059 0.582733 0.136927
0.843578 0.584227 0.141519
0.853623 0.585513 0.147610
0.859889 0.584328 0.158041
0.863970 0.586921 0.193147
0.097886 0.576578 0.096488
0.097965 0.576659 0.096524
0.098289 0.576991 0.096656
0.099022 0.577773 0.096905
0.100291 0.579399 0.097297
0.102678 0.582594 0.097862
0.105793 0.586029 0.098507
0.109368 0.588553 0.099418
0.115099 0.591808 0.100438
0.121881 0.594536 0.101451
0.131689 0.596198 0.102382
0.144248 0.597620 0.103336
0.161826 0.598485 0.104265
0.184950 0.598841 0.105544
0.211914 0.598860 0.107057
0.243170 0.598460 0.108493
0.278494 0.598132 0.109963
0.316965 0.597859 0.111449
0.361325 0.597449 0.113034
0.411386 0.597654 0.114716
0.461486 0.596611 0.116502
0.521307 0.599191 0.119243
0.578016 0.602550 0.122120
0.636625 0.602761 0.123913
0.686608 0.605247 0.126375
0.732200 0.608274 0.129287
0.769080 0.609674 0.132009
0.800709 0.612397 0.135600
0.824182 0.614369 0.139360
0.839979 0.616177 0.143644
0.851876 0.616975 0.149300
0.859013 0.618482 0.158436
0.863692 0.619297 0.182583
0.100411 0.610129 0.097240
0.100503 0.610186 0.097273
0.100881 0.610414 0.097395
0.101634 0.610934 0.097624
0.102921 0.611976 0.097982
0.105023 0.613956 0.098517
0.108165 0.616989 0.099482
0.111570 0.618377 0.100298
0.117240 0.621213 0.101356
0.122878 0.622500 0.102241
0.132729 0.624243 0.103217
0.144859 0.625575 0.104174
0.160925 0.626219 0.105422
0.182303 0.626525 0.106933
0.207448 0.626691 0.108464
0.236697 0.626609 0.109934
0.269409 0.626304 0.111392
0.305747 0.626039 0.113053
0.346866 0.625963 0.114706
0.393909 0.625811 0.116727
0.442776 0.626095 0.118967
0.498390 0.627365 0.121663
0.555268 0.629850 0.124515
0.610863 0.630033 0.126327
0.667267 0.631559 0.128721
0.712707 0.634337 0.132233
0.754056 0.635683 0.134822
0.788263 0.638015 0.138242
0.817019 0.640579 0.141884
0.835889 0.642111 0.145777
0.849619 0.644240 0.151325
0.858155 0.645187 0.159309
0.863377 0.647361 0.177885
0.103501 0.637916 0.098077
0.103595 0.637976 0.098108
0.103946 0.638208 0.098221
0.104639 0.638711 0.098434
0.105809 0.639661 0.098910
0.107682 0.641372 0.099608
0.110955 0.644378 0.100568
0.114401 0.645900 0.101371
0.119206 0.648040 0.102324
0.125601 0.649917 0.103266
0.135028 0.651735 0.104236
0.145781 0.652813 0.105518
0.161400 0.653773 0.107137
0.182007 0.654305 0.108701
0.205664 0.654475 0.110180
0.233124 0.654554 0.111822
0.264152 0.654379 0.113498
0.298904 0.654139 0.115200
0.336606 0.653867 0.117417
0.381607 0.653898 0.119667
0.427732 0.653906 0.121819
0.478576 0.654281 0.124018
0.535342 0.656177 0.126839
0.587645 0.656436 0.128574
0.646602 0.657657 0.131446
0.693721 0.660064 0.135100
0.739082 0.661520 0.137614
0.774877 0.663593 0.140941
0.808799 0.666130 0.144432
0.830782 0.667904 0.148121
0.847073 0.670047 0.153430
0.857122 0.671649 0.160644
0.863010 0.674620 0.175938
0.106546 0.666098 0.099007
0.106634 0.666155 0.099050
0.106959 0.666371 0.099206
0.107598 0.666823 0.099499
0.108663 0.667645 0.099957
0.110553 0.669062 0.100611
0.113744 0.671462 0.101508
0.117362 0.673475 0.102388
0.121509 0.675067 0.103259
0.128857 0.677316 0.104276
0.136829 0.678486 0.105527
0.147849 0.679886 0.107185
0.163558 0.681036 0.108872
0.182277 0.681473 0.110390
0.204506 0.681708 0.112024
0.230462 0.681797 0.113780
0.260154 0.681767 0.115723
0.293655 0.681600 0.118028
0.328884 0.681389 0.120271
0.370960 0.681175 0.122487
0.416112 0.681289 0.124708
0.463300 0.681493 0.126895
0.516956 0.681986 0.129065
0.567109 0.682190 0.131165
0.622931 0.683138 0.134172
0.675790 0.685123 0.137832
0.722347 0.686665 0.140285
0.760916 0.688543 0.143536
0.798306 0.691023 0.146960
0.824648 0.693115 0.150759
0.844046 0.695181 0.155554
0.855867 0.697515 0.162297
0.862728 0.699879 0.175317
0.109212 0.693627 0.099626
0.109291 0.693670 0.099666
0.109636 0.693837 0.099814
0.110327 0.694183 0.100092
0.111474 0.694806 0.100525
0.113272 0.695869 0.101143
0.116067 0.697654 0.101991
0.119809 0.699828 0.102965
0.123636 0.700671 0.103767
0.130812 0.701980 0.104898
0.138293 0.702740 0.106440
0.149213 0.703656 0.108151
0.162829 0.704142 0.109704
0.181286 0.704622 0.111384
0.202958 0.704873 0.113229
0.226927 0.704882 0.114928
0.254598 0.704846 0.117282
0.286124 0.704742 0.119599
0.319653 0.704628 0.121892
0.358823 0.704518 0.124103
0.402805 0.704481 0.126307
0.446975 0.704603 0.128459
0.497093 0.704916 0.131024
0.548871 0.705410 0.133791
0.601497 0.705777 0.136785
0.659149 0.706845 0.140418
0.704325 0.707947 0.142794
0.746806 0.709019 0.146011
0.785705 0.710626 0.149499
0.817534 0.712159 0.153440
0.840339 0.713687 0.157788
0.854429 0.715090 0.163823
0.862390 0.717140 0.175583
0.112300 0.713225 0.100317
0.112388 0.713255 0.100356
0.112716 0.713368 0.100496
0.113354 0.713595 0.100760
0.114405 0.713984 0.101172
0.116034 0.714619 0.101759
0.118533 0.715633 0.102563
0.122435 0.717256 0.103641
0.126606 0.717863 0.104388
0.132821 0.718851 0.105851
0.140706 0.719875 0.107589
0.150182 0.720488 0.109163
0.164342 0.721123 0.110827
0.181919 0.721597 0.112748
0.201276 0.721807 0.114531
0.224600 0.721923 0.116813
0.251432 0.721911 0.119243
0.281647 0.721787 0.121635
0.313616 0.721650 0.123918
0.350159 0.721537 0.126190
0.391817 0.721476 0.128380
0.434092 0.721528 0.130898
0.480710 0.721681 0.133601
0.531951 0.722119 0.136417
0.582293 0.722712 0.139221
0.638484 0.723420 0.142849
0.687491 0.724705 0.145141
0.732802 0.725472 0.148359
0.772540 0.726996 0.151993
0.809389 0.728441 0.155654
0.835865 0.730135 0.160008
0.852740 0.731594 0.165668
0.862008 0.733532 0.176187
0.115321 0.730251 0.100938
0.115404 0.730281 0.100975
0.115709 0.730395 0.101110
0.116302 0.730618 0.101365
0.117270 0.730986 0.101761
0.118759 0.731556 0.102327
0.121018 0.732425 0.103102
0.125136 0.733754 0.104143
0.129801 0.734659 0.105317
0.135277 0.735452 0.106861
0.143879 0.736656 0.108816
0.152204 0.737107 0.110283
0.167117 0.737809 0.112265
0.182354 0.738120 0.114074
0.201978 0.738443 0.116401
0.224143 0.738570 0.118901
0.248912 0.738578 0.121339
0.277499 0.738476 0.123763
0.308472 0.738300 0.126116
0.342951 0.738160 0.128421
0.382554 0.738063 0.131066
0.423738 0.738066 0.133881
0.467747 0.738162 0.136632
0.517120 0.738383 0.139347
0.565026 0.738916 0.142211
0.618157 0.739593 0.145055
0.671742 0.741108 0.147261
0.716174 0.741654 0.150744
0.759102 0.743026 0.154168
0.799035 0.744342 0.157791
0.830229 0.745980 0.161913
0.850708 0.747603 0.167463
0.861815 0.749512 0.177077
0.118270 0.750608 0.100715
0.118342 0.750626 0.100752
0.118607 0.750694 0.100885
0.119120 0.750824 0.101138
0.119960 0.751034 0.101533
0.121254 0.751351 0.102102
0.123426 0.751828 0.102891
0.127562 0.752568 0.103966
0.132639 0.753331 0.105395
0.137397 0.753773 0.106885
0.144982 0.754447 0.108780
0.154137 0.754947 0.110542
0.167067 0.755286 0.112455
0.182867 0.755553 0.114487
0.201134 0.755663 0.116993
0.221646 0.755696 0.119540
0.246258 0.755656 0.122141
0.273537 0.755508 0.124608
0.302744 0.755289 0.126975
0.334833 0.755089 0.129318
0.372402 0.754953 0.132213
0.412728 0.754904 0.135063
0.454709 0.754981 0.137866
0.501629 0.755207 0.140622
