negative-ultramax-400/Ultramax400_Classic_Punchy.cube
TITLE "Kodak Ultramax 400 Classic Punchy"
# Adobe RGB in/out. REPLACES AgX. Kodak Ultramax 400 Classic Punchy.
LUT_3D_SIZE 33
DOMAIN_MIN 0.0 0.0 0.0
DOMAIN_MAX 1.0 1.0 1.0
0.070208 0.083169 0.079619
0.081421 0.085397 0.079813
0.093951 0.088070 0.080552
0.107253 0.091493 0.081367
0.124062 0.094971 0.082628
0.144799 0.098724 0.083880
0.167144 0.104556 0.085181
0.194421 0.111420 0.086298
0.223489 0.118700 0.087721
0.253710 0.126717 0.089216
0.284189 0.136749 0.090575
0.314905 0.148171 0.092063
0.347528 0.160832 0.094166
0.380843 0.173433 0.096143
0.414529 0.186126 0.098061
0.448562 0.202330 0.100321
0.482923 0.218763 0.102483
0.517354 0.235412 0.104596
0.543473 0.252303 0.107643
0.569393 0.269447 0.110795
0.595124 0.286788 0.113961
0.620678 0.304878 0.117751
0.645074 0.323323 0.121482
0.663615 0.342268 0.125157
0.680316 0.361511 0.128780
0.696730 0.380985 0.132354
0.712873 0.400083 0.135881
0.728760 0.417223 0.140317
0.744403 0.434434 0.145834
0.757305 0.451714 0.151363
0.767554 0.469061 0.156904
0.777600 0.483954 0.162456
0.787452 0.497380 0.168354
0.073559 0.087484 0.079780
0.081977 0.087992 0.079956
0.094226 0.089984 0.080665
0.107460 0.092747 0.081513
0.124189 0.095897 0.082708
0.144925 0.099987 0.083959
0.167280 0.105713 0.085235
0.194534 0.112409 0.086337
0.223595 0.119612 0.087772
0.253803 0.127840 0.089256
0.284272 0.137712 0.090607
0.314979 0.149277 0.092111
0.347600 0.161824 0.094206
0.380909 0.174330 0.096178
0.414590 0.187178 0.098099
0.448619 0.203313 0.100355
0.482976 0.219685 0.102513
0.517391 0.236281 0.104627
0.543508 0.253128 0.107682
0.569425 0.270230 0.110831
0.595154 0.287532 0.114002
0.620707 0.305617 0.117789
0.645099 0.324030 0.121517
0.663632 0.342959 0.125190
0.680332 0.362176 0.128811
0.696745 0.381625 0.132383
0.712887 0.400616 0.135908
0.728773 0.417735 0.140358
0.744416 0.434926 0.145874
0.757312 0.452188 0.151401
0.767562 0.469517 0.156941
0.777607 0.484294 0.162491
0.787458 0.497706 0.168391
0.077505 0.093169 0.080450
0.083664 0.093542 0.080600
0.095176 0.094729 0.080970
0.108190 0.096473 0.081965
0.124641 0.099560 0.082972
0.145375 0.104163 0.084229
0.167768 0.109875 0.085423
0.194938 0.116179 0.086491
0.223976 0.122702 0.087949
0.254136 0.131719 0.089396
0.284569 0.141324 0.090720
0.315245 0.153161 0.092280
0.347858 0.165322 0.094350
0.381146 0.177505 0.096301
0.414809 0.190918 0.098235
0.448823 0.206812 0.100474
0.483167 0.222973 0.102619
0.517526 0.239381 0.104739
0.543633 0.256076 0.107821
0.569541 0.273027 0.110958
0.595263 0.290198 0.114149
0.620808 0.308258 0.117925
0.645187 0.326560 0.121644
0.663692 0.345432 0.125309
0.680388 0.364556 0.128923
0.696797 0.383918 0.132488
0.712936 0.402526 0.136007
0.728819 0.419569 0.140506
0.744459 0.436690 0.146016
0.757340 0.453885 0.151538
0.767588 0.471154 0.157072
0.777632 0.485511 0.162618
0.787482 0.498873 0.168521
0.081734 0.100134 0.081140
0.085980 0.100512 0.081283
0.096791 0.101803 0.081836
0.109492 0.103955 0.082600
0.125726 0.107313 0.083508
0.146197 0.111565 0.084675
0.168660 0.116703 0.085743
0.195679 0.122198 0.086794
0.224675 0.129830 0.088264
0.254749 0.138301 0.089646
0.285113 0.148611 0.090924
0.315735 0.159984 0.092586
0.348332 0.171513 0.094610
0.381582 0.183156 0.096524
0.415212 0.197647 0.098482
0.449197 0.213128 0.100692
0.483517 0.228920 0.102812
0.517773 0.245001 0.104943
0.543862 0.261428 0.108076
0.569754 0.278114 0.111191
0.595462 0.295232 0.114418
0.620995 0.313074 0.118175
0.645350 0.331257 0.121877
0.663803 0.349950 0.125527
0.680491 0.368906 0.129127
0.696894 0.388113 0.132680
0.713027 0.406018 0.136188
0.728904 0.422923 0.140778
0.744540 0.439916 0.146277
0.757392 0.456993 0.151789
0.767637 0.474150 0.157313
0.777677 0.487740 0.162850
0.787525 0.501010 0.168761
0.085749 0.111361 0.082318
0.088751 0.111656 0.082426
0.098943 0.112704 0.082773
0.111348 0.114784 0.083357
0.127387 0.117668 0.084294
0.147408 0.121207 0.085249
0.169984 0.126037 0.086172
0.196781 0.132646 0.087320
0.225715 0.139767 0.088706
0.255662 0.148947 0.090003
0.285926 0.159060 0.091216
0.316466 0.169520 0.093031
0.349040 0.180253 0.094989
0.382233 0.192863 0.096851
0.415814 0.207378 0.098846
0.449758 0.222299 0.101013
0.484040 0.237589 0.103098
0.518143 0.253254 0.105298
0.544204 0.269274 0.108453
0.570073 0.285586 0.111537
0.595759 0.302646 0.114818
0.621273 0.320178 0.118547
0.645593 0.338201 0.122224
0.663968 0.356633 0.125851
0.680646 0.375346 0.129431
0.697039 0.394328 0.132965
0.713163 0.411187 0.136457
0.729032 0.427892 0.141184
0.744660 0.444699 0.146666
0.757469 0.461603 0.152163
0.767709 0.477869 0.157673
0.777746 0.491043 0.163198
0.787589 0.504180 0.169120
0.089495 0.124050 0.083384
0.092859 0.124395 0.083491
0.101470 0.125622 0.083848
0.113702 0.127816 0.084420
0.129561 0.130962 0.085128
0.149011 0.134983 0.085897
0.171752 0.139833 0.086750
0.198258 0.146442 0.088003
0.227114 0.154306 0.089257
0.256892 0.162819 0.090454
0.287020 0.171871 0.091645
0.317451 0.181369 0.093607
0.349995 0.192908 0.095484
0.383111 0.206174 0.097281
0.416627 0.219962 0.099325
0.450514 0.234222 0.101438
0.484747 0.248924 0.103477
0.518642 0.264077 0.105849
0.544667 0.279591 0.108957
0.570503 0.295647 0.111998
0.596161 0.312455 0.115353
0.621650 0.329647 0.119045
0.645921 0.347426 0.122689
0.664192 0.365524 0.126286
0.680854 0.383926 0.129839
0.697234 0.401753 0.133349
0.713346 0.418072 0.136819
0.729205 0.434518 0.141730
0.744823 0.451083 0.147191
0.757573 0.467761 0.152667
0.767807 0.482467 0.158159
0.777838 0.495454 0.163698
0.787677 0.508415 0.169603
0.094640 0.141862 0.084678
0.097246 0.142166 0.084751
0.104225 0.143250 0.085001
0.116478 0.145452 0.085417
0.132218 0.148702 0.085959
0.150999 0.152948 0.086621
0.173970 0.158131 0.087642
0.200117 0.164171 0.088774
0.228880 0.170977 0.089894
0.258446 0.178457 0.090986
0.288406 0.186825 0.092457
0.318704 0.197916 0.094304
0.351206 0.209713 0.096087
0.384225 0.222150 0.097807
0.417658 0.235165 0.099917
0.451473 0.248721 0.101965
0.485644 0.262811 0.103948
0.519275 0.277344 0.106538
0.545254 0.292370 0.109587
0.571050 0.308294 0.112577
0.596672 0.324610 0.116026
0.622128 0.341559 0.119672
0.646337 0.358914 0.123274
0.664475 0.376615 0.126834
0.681119 0.394645 0.130354
0.697482 0.410688 0.133834
0.713579 0.426672 0.137276
0.729424 0.442805 0.142422
0.745030 0.459078 0.147855
0.757705 0.475454 0.153306
0.767931 0.488219 0.158774
0.777955 0.500977 0.164332
0.787787 0.513724 0.170216
0.099388 0.163795 0.085787
0.101382 0.164080 0.085840
0.107628 0.165096 0.086023
0.119595 0.166944 0.086337
0.135317 0.169659 0.086853
0.153354 0.173238 0.087690
0.176632 0.177652 0.088624
0.202360 0.182854 0.089602
0.231018 0.189740 0.090594
0.260332 0.198288 0.091624
0.290089 0.207701 0.093382
0.320305 0.217912 0.095106
0.352680 0.228858 0.096788
0.385583 0.240477 0.098586
0.418915 0.252748 0.100613
0.452643 0.265617 0.102587
0.486738 0.279011 0.104539
0.520048 0.292997 0.107361
0.545970 0.307890 0.110341
0.571716 0.323241 0.113271
0.597294 0.339240 0.116836
0.622712 0.355723 0.120427
0.646846 0.372603 0.123981
0.664822 0.389857 0.127497
0.681443 0.405935 0.130977
0.697785 0.421352 0.134421
0.713863 0.436954 0.137883
0.729692 0.452728 0.143262
0.745282 0.468664 0.148662
0.757867 0.482625 0.154082
0.768083 0.495106 0.159522
0.778098 0.507598 0.165103
0.787923 0.520096 0.170962
0.103693 0.185846 0.086855
0.105266 0.186155 0.086910
0.112315 0.187261 0.087148
0.122974 0.189283 0.087562
0.138811 0.192276 0.088134
0.156054 0.196260 0.088831
0.179729 0.201234 0.089618
0.205135 0.207177 0.090461
0.233530 0.214056 0.091335
0.262552 0.221829 0.092786
0.292075 0.230447 0.094397
0.322196 0.239858 0.095996
0.354422 0.250031 0.097573
0.387188 0.260928 0.099473
0.420403 0.272470 0.101407
0.454029 0.284610 0.103300
0.488034 0.297588 0.105370
0.520962 0.311330 0.108313
0.546818 0.325594 0.111217
0.572506 0.340592 0.114223
0.598032 0.356089 0.117782
0.623404 0.372034 0.121310
0.647448 0.388404 0.124808
0.665232 0.403959 0.128273
0.681826 0.418705 0.131707
0.698144 0.433678 0.135110
0.714200 0.448860 0.138915
0.730009 0.464239 0.144252
0.745581 0.478799 0.149614
0.758058 0.490929 0.154999
0.768263 0.503094 0.160405
0.778268 0.515289 0.166014
0.788083 0.527508 0.171844
0.108511 0.214310 0.088322
0.110564 0.214585 0.088375
0.117048 0.215571 0.088563
0.127239 0.217375 0.088895
0.142648 0.220051 0.089360
0.159541 0.223626 0.089938
0.183246 0.228106 0.090603
0.208430 0.233483 0.091332
0.236414 0.239738 0.092569
0.265108 0.246848 0.094013
0.294364 0.254807 0.095483
0.324380 0.263546 0.096959
0.356437 0.273023 0.098594
0.389046 0.283197 0.100451
0.422126 0.294178 0.102286
0.455634 0.306074 0.104094
0.489535 0.318585 0.106539
0.522022 0.331762 0.109388
0.547801 0.345647 0.112208
0.573422 0.360062 0.115377
0.598888 0.374979 0.118859
0.624206 0.390369 0.122319
0.648148 0.404850 0.125753
0.665708 0.418830 0.129162
0.682271 0.433080 0.132545
0.698561 0.447582 0.135901
0.714592 0.462318 0.140103
0.730377 0.476842 0.145394
0.745929 0.488544 0.150712
0.758280 0.500311 0.156056
0.768472 0.512135 0.161425
0.778465 0.524007 0.167066
0.788269 0.535921 0.172863
0.114454 0.243448 0.089667
0.116183 0.243696 0.089710
0.121772 0.244585 0.089862
0.132443 0.246216 0.090133
0.146779 0.248647 0.090517
0.164013 0.251903 0.091001
0.187165 0.255995 0.091604
0.212129 0.260923 0.092749
0.239665 0.266678 0.093985
0.267997 0.273241 0.095283
0.296957 0.280588 0.096620
0.326859 0.288689 0.098020
0.358727 0.297802 0.099762
0.391159 0.307694 0.101506
0.424086 0.318279 0.103242
0.457461 0.329570 0.105074
0.491246 0.341653 0.107827
0.523228 0.354345 0.110577
0.548921 0.367614 0.113308
0.574465 0.381432 0.116664
0.599863 0.395769 0.120063
0.625121 0.408632 0.123448
0.648945 0.421765 0.126814
0.666251 0.435213 0.130161
0.682778 0.448954 0.133488
0.699036 0.462970 0.136792
0.715038 0.476817 0.141448
0.730797 0.488021 0.146687
0.746325 0.499322 0.151957
0.758534 0.510709 0.157255
0.768711 0.522171 0.162581
0.778690 0.533701 0.168262
0.788482 0.545290 0.174021
0.120110 0.273350 0.090902
0.121588 0.273577 0.090937
0.127111 0.274390 0.091062
0.137832 0.275882 0.091287
0.151158 0.278101 0.091677
0.169056 0.281078 0.092421
0.191465 0.284827 0.093308
0.216221 0.289354 0.094313
0.243276 0.294833 0.095410
0.271217 0.301137 0.096577
0.299853 0.308222 0.097793
0.329643 0.316068 0.099374
0.361292 0.324651 0.100992
0.393528 0.334075 0.102626
0.426286 0.344237 0.104262
0.459513 0.355071 0.106576
0.493168 0.366547 0.109224
0.524583 0.378638 0.111871
0.550179 0.391314 0.114764
0.575638 0.403420 0.118078
0.600960 0.415265 0.121389
0.626150 0.427491 0.124693
0.649842 0.440074 0.127987
0.666861 0.452990 0.131267
0.683348 0.466218 0.134532
0.699570 0.478752 0.137804
0.715540 0.489394 0.142948
0.731270 0.500167 0.148130
0.746771 0.511056 0.153347
0.758819 0.522051 0.158596
0.768979 0.533140 0.163922
0.778943 0.544313 0.169600
0.788721 0.555562 0.175317
0.125806 0.304399 0.092465
0.127590 0.304615 0.092519
0.133600 0.305393 0.092710
0.143356 0.306819 0.093055
0.155743 0.308943 0.093553
0.174467 0.311797 0.094196
0.196123 0.315398 0.094970
0.220691 0.319757 0.095855
0.247238 0.324876 0.096832
0.274760 0.330820 0.097897
0.303049 0.337558 0.099306
0.332733 0.345043 0.100770
0.364134 0.353256 0.102271
0.396156 0.362177 0.103798
0.428728 0.371785 0.105672
0.461792 0.382055 0.108187
0.495304 0.392964 0.110720
0.526089 0.403365 0.113261
0.551577 0.413788 0.116396
0.576941 0.424653 0.119610
0.602180 0.435934 0.122830
0.627294 0.447607 0.126050
0.650823 0.459651 0.129266
0.667540 0.472042 0.132476
0.683983 0.482634 0.135676
0.700165 0.492663 0.139523
0.716099 0.502854 0.144601
0.731796 0.513194 0.149722
0.747268 0.523668 0.154881
0.759136 0.534265 0.160076
0.769278 0.544973 0.165450
0.779225 0.555782 0.171080
0.788987 0.566682 0.176753
0.133084 0.336954 0.094406
0.134671 0.337159 0.094452
0.140067 0.337893 0.094617
0.148976 0.339242 0.094913
0.161373 0.341252 0.095344
0.180215 0.343955 0.095905
0.201115 0.347371 0.096584
0.225525 0.351513 0.097368
0.251542 0.356385 0.098354
0.278622 0.361987 0.099562
0.306541 0.368314 0.100848
0.336118 0.375356 0.102195
0.367250 0.383100 0.103587
0.399041 0.391531 0.105144
0.431411 0.400040 0.107494
0.464299 0.408446 0.109884
0.497654 0.417365 0.112302
0.527744 0.426774 0.115052
0.553116 0.436650 0.118142
0.578377 0.446971 0.121253
0.603523 0.457713 0.124378
0.628555 0.468856 0.127511
0.651625 0.479246 0.130648
0.668288 0.488412 0.133783
0.684683 0.497788 0.136915
0.700821 0.507358 0.141397
0.716715 0.517106 0.146405
0.732377 0.527018 0.151460
0.747816 0.537080 0.156558
0.759487 0.547279 0.161695
0.769608 0.557604 0.167124
0.779536 0.568044 0.172703
0.789281 0.578589 0.178327
0.140198 0.370625 0.096240
0.141621 0.370817 0.096280
0.146497 0.371503 0.096422
0.154661 0.372764 0.096680
0.168277 0.374645 0.097057
0.186267 0.377175 0.097549
0.206714 0.380377 0.098237
0.230704 0.384262 0.099127
0.256175 0.388838 0.100128
0.282794 0.394107 0.101224
0.310322 0.399553 0.102399
0.339794 0.405286 0.103639
0.370641 0.411588 0.105035
0.402183 0.418445 0.107168
0.434336 0.425841 0.109387
0.467033 0.433757 0.111656
0.500220 0.442177 0.114074
0.529550 0.451079 0.117013
0.554796 0.460445 0.119991
0.579944 0.470255 0.122998
0.604991 0.479331 0.126027
0.629934 0.487539 0.129071
0.652502 0.496002 0.132125
0.669106 0.504703 0.135184
0.685448 0.513624 0.138541
0.701538 0.522750 0.143421
0.717390 0.532067 0.148356
0.733012 0.541559 0.153342
0.748416 0.551214 0.158375
0.759870 0.561019 0.163470
0.769969 0.570963 0.168942
0.779877 0.581035 0.174465
0.789603 0.591225 0.180038
0.147162 0.403801 0.098021
0.148447 0.403956 0.098065
0.152880 0.404512 0.098224
0.161218 0.405533 0.098512
0.175418 0.407055 0.098935
0.192594 0.409103 0.099491
0.212871 0.411694 0.100173
0.236212 0.414838 0.100972
0.261125 0.418539 0.101877
0.287268 0.422801 0.102874
0.314389 0.427619 0.103950
0.343757 0.432989 0.105274
0.374302 0.438902 0.107217
0.405580 0.445347 0.109244
0.437503 0.452312 0.111340
0.469996 0.459782 0.113491
0.503002 0.467743 0.116248
0.531508 0.475994 0.119068
0.556617 0.482871 0.121935
0.581645 0.490059 0.124838
0.606584 0.497539 0.127769
0.631430 0.505295 0.130723
0.653454 0.513310 0.133693
0.669994 0.521569 0.136674
0.686278 0.530056 0.140793
0.702318 0.538756 0.145592
0.718122 0.547656 0.150451
0.733702 0.556741 0.155365
0.749067 0.565999 0.160330
0.760286 0.575418 0.165490
0.770361 0.584987 0.170901
0.780247 0.594694 0.176367
0.789953 0.604324 0.181884
0.153989 0.433833 0.100133
0.155157 0.433977 0.100172
0.159708 0.434495 0.100313
0.169337 0.435447 0.100570
0.182766 0.436868 0.100946
0.199168 0.438780 0.101443
0.219338 0.441200 0.102056
0.242031 0.444139 0.102777
0.266379 0.447603 0.103597
0.292033 0.451596 0.104538
0.318739 0.456117 0.105926
0.348004 0.461162 0.107641
0.378231 0.466725 0.109458
0.409231 0.472799 0.111363
0.440909 0.478469 0.113341
0.473186 0.483927 0.115861
0.505999 0.489734 0.118502
0.533615 0.495875 0.121206
0.558580 0.502337 0.123963
0.583479 0.509104 0.126763
0.608302 0.516162 0.129597
0.632997 0.523496 0.132460
0.654481 0.531091 0.135345
0.670952 0.538933 0.138543
0.687175 0.547008 0.143189
0.703159 0.555301 0.147905
0.718914 0.563800 0.152686
0.734448 0.572493 0.157525
0.749772 0.581366 0.162419
0.760736 0.590410 0.167653
0.770785 0.599611 0.173001
0.780647 0.607426 0.178406
0.790331 0.614046 0.183865
0.161644 0.464075 0.102159
0.163146 0.464210 0.102194
0.168404 0.464695 0.102320
0.177579 0.465587 0.102549
0.190296 0.466917 0.102887
0.206214 0.468709 0.103334
0.226093 0.470979 0.103886
0.248145 0.473737 0.104577
0.271924 0.476624 0.105590
0.297080 0.479530 0.106942
0.323608 0.482817 0.108424
0.352528 0.486483 0.110022
0.382424 0.490521 0.111723
0.413133 0.494925 0.113514
0.444553 0.499685 0.115862
0.476602 0.504792 0.118305
0.509211 0.510236 0.120828
0.535873 0.516004 0.123419
0.560683 0.522085 0.126068
0.585445 0.528465 0.128766
0.610146 0.535133 0.131504
0.634606 0.542074 0.134277
0.655582 0.549276 0.137076
0.671981 0.556725 0.141169
0.688138 0.564410 0.145725
0.704063 0.572317 0.150356
0.719764 0.580435 0.155055
0.735250 0.588751 0.159818
0.750529 0.597254 0.164739
0.761220 0.605307 0.169955
0.771241 0.611489 0.175237
0.781077 0.617752 0.180579
0.790738 0.624089 0.185978
0.170963 0.490148 0.104106
0.172365 0.490245 0.104137
0.177287 0.490596 0.104251
0.185924 0.491239 0.104479
0.197985 0.492200 0.104838
0.213918 0.493493 0.105394
0.233115 0.495131 0.106207
0.254535 0.497120 0.107175
0.277746 0.499465 0.108289
0.302399 0.502169 0.109541
0.328760 0.505231 0.110918
0.357324 0.508650 0.112410
0.386877 0.512421 0.114129
0.417283 0.516539 0.116251
0.448434 0.520997 0.118481
0.480243 0.525788 0.120806
0.512638 0.530902 0.123215
0.538279 0.536330 0.125696
0.562927 0.542062 0.128241
0.587544 0.548086 0.130839
0.612115 0.554393 0.133483
0.636325 0.560969 0.136165
0.656758 0.567804 0.139548
0.673080 0.574885 0.143929
0.689167 0.582203 0.148395
0.705029 0.589744 0.152939
0.720673 0.597499 0.157556
0.736107 0.604972 0.162239
0.751339 0.610669 0.167248
0.761738 0.616469 0.172394
0.771729 0.622365 0.177606
0.781538 0.628348 0.182883
0.791174 0.634412 0.188220
0.180272 0.513529 0.106719
0.181585 0.513620 0.106765
0.186207 0.513946 0.106932
0.194358 0.514545 0.107237
0.206047 0.515439 0.107687
0.221845 0.516644 0.108287
0.240385 0.518169 0.109035
0.261186 0.520023 0.109928
0.283831 0.522211 0.110959
0.307978 0.524736 0.112121
0.334220 0.527598 0.113405
0.362386 0.530796 0.115129
0.391585 0.534327 0.117016
0.421677 0.538189 0.119024
0.452548 0.542375 0.121141
0.484106 0.546879 0.123355
0.516277 0.551694 0.125655
0.540832 0.556811 0.128031
0.565310 0.562223 0.130474
0.589774 0.567920 0.132975
0.614209 0.573893 0.135526
0.638153 0.580130 0.138342
0.658009 0.586623 0.142532
0.674249 0.593361 0.146818
0.690263 0.600333 0.151193
0.706058 0.606424 0.155649
0.721641 0.611601 0.160182
0.737020 0.616901 0.164896
0.752143 0.622316 0.169893
0.762289 0.627839 0.174964
0.772249 0.633461 0.180107
0.782029 0.639176 0.185317
0.791638 0.644977 0.190590
0.189572 0.536742 0.109681
0.190806 0.536827 0.109724
0.195159 0.537131 0.109877
0.202868 0.537691 0.110157
0.214804 0.538526 0.110572
0.229977 0.539651 0.111125
0.247885 0.541077 0.111815
0.268081 0.542812 0.112642
0.290167 0.544860 0.113619
0.313807 0.547224 0.114979
0.339947 0.549907 0.116490
0.367706 0.552907 0.118142
0.396543 0.556224 0.119923
0.426311 0.559854 0.121825
0.456892 0.563793 0.123835
0.488191 0.568037 0.125943
0.519261 0.572579 0.128140
0.543531 0.577414 0.130416
0.567831 0.582532 0.132761
0.592136 0.587928 0.135168
0.616427 0.593592 0.137628
0.640090 0.599515 0.141548
0.659335 0.605136 0.145639
0.675488 0.609623 0.149830
0.691424 0.614258 0.154113
0.707149 0.619032 0.158481
0.722669 0.623939 0.162930
0.737990 0.628971 0.167748
0.752765 0.634120 0.172667
0.762875 0.639380 0.177664
0.772800 0.644742 0.182736
0.782550 0.650201 0.187877
0.792131 0.655750 0.193084
0.198863 0.559795 0.112575
0.200026 0.559874 0.112615
0.204205 0.560160 0.112756
0.212245 0.560684 0.113014
0.223711 0.561466 0.113397
0.238295 0.562521 0.114008
0.255597 0.563859 0.114814
0.275206 0.565486 0.115781
0.296741 0.567409 0.116905
0.319945 0.569630 0.118181
0.345932 0.572151 0.119602
0.373279 0.574974 0.121159
0.401746 0.578096 0.122844
0.431181 0.581517 0.124646
0.461464 0.585233 0.126556
0.492494 0.589240 0.128566
0.522312 0.593534 0.130664
0.546375 0.598109 0.132844
0.570489 0.602958 0.135095
0.594628 0.606807 0.137411
0.618768 0.610565 0.140985
0.642136 0.614489 0.144869
0.660734 0.618574 0.148862
0.676797 0.622811 0.152958
0.692652 0.627194 0.157150
0.708303 0.631717 0.161430
0.723756 0.636372 0.165974
0.739016 0.641152 0.170728
0.753423 0.646050 0.175568
0.763494 0.651060 0.180490
0.773385 0.656176 0.185488
0.783102 0.661205 0.190559
0.792653 0.666094 0.195699
0.208612 0.582697 0.115894
0.209822 0.582771 0.115940
0.214111 0.583039 0.116105
0.221778 0.583532 0.116407
0.232755 0.584268 0.116855
0.246784 0.585260 0.117455
0.263507 0.586517 0.118208
0.282545 0.588049 0.119114
0.303539 0.589858 0.120169
0.326592 0.591950 0.121369
0.352166 0.594326 0.122707
0.379097 0.596988 0.124178
0.407187 0.599935 0.125772
0.436283 0.603166 0.127482
0.466259 0.605829 0.129300
0.497012 0.608481 0.131215
0.525513 0.611319 0.133221
0.549361 0.614341 0.135309
0.573283 0.617540 0.137470
0.597248 0.620912 0.140849
0.621233 0.624451 0.144513
0.644290 0.628152 0.148298
0.662207 0.632008 0.152195
0.678176 0.636015 0.156197
0.693945 0.640165 0.160298
0.709519 0.644453 0.164580
0.724901 0.648871 0.169158
0.740097 0.653415 0.173830
0.754117 0.658078 0.178591
0.764147 0.662551 0.183436
0.774001 0.667047 0.188361
0.783684 0.671634 0.193361
0.793205 0.676305 0.198432
0.218840 0.604972 0.119400
0.219992 0.605021 0.119443
0.224078 0.605198 0.119597
0.231401 0.605523 0.119880
0.241925 0.606009 0.120299
0.255430 0.606663 0.120861
0.271600 0.607493 0.121567
0.290086 0.608503 0.122417
0.310550 0.609696 0.123409
0.333512 0.611074 0.124540
0.358641 0.612639 0.125803
0.385153 0.614391 0.127194
0.412862 0.616329 0.128705
0.441611 0.618453 0.130329
0.471274 0.620760 0.132059
0.501742 0.623248 0.133887
0.528860 0.625914 0.135805
0.552487 0.628755 0.137843
0.576210 0.631766 0.141140
0.599996 0.634942 0.144576
0.623819 0.638281 0.148141
0.646551 0.641776 0.151829
0.663752 0.645423 0.155631
0.679623 0.649215 0.159541
0.695303 0.653149 0.163577
0.710797 0.657217 0.167967
0.726106 0.661227 0.172460
0.741235 0.665209 0.177050
0.754847 0.669297 0.181732
0.764835 0.673487 0.186500
0.774649 0.677774 0.191350
0.784297 0.682152 0.196279
0.793785 0.686617 0.201281
0.229102 0.620732 0.122857
0.230201 0.620778 0.122897
0.234102 0.620944 0.123041
0.241108 0.621248 0.123306
0.251209 0.621701 0.123700
0.264221 0.622313 0.124227
0.279863 0.623089 0.124891
0.297816 0.624034 0.125691
0.317762 0.625150 0.126626
0.340675 0.626441 0.127692
0.365348 0.627907 0.128887
0.391440 0.629549 0.130204
0.418763 0.631367 0.131638
0.447162 0.633361 0.133183
0.476504 0.635529 0.134831
0.506682 0.637868 0.136576
0.532351 0.640377 0.138803
0.555751 0.643052 0.141856
0.579270 0.645891 0.145055
0.602871 0.648889 0.148393
0.626526 0.652043 0.151863
0.648918 0.655349 0.155456
0.665369 0.658801 0.159165
0.681138 0.662130 0.162984
0.696727 0.665568 0.167164
0.712136 0.669126 0.171468
0.727369 0.672800 0.175876
0.742428 0.676584 0.180384
0.755612 0.680476 0.184986
0.765556 0.684468 0.189678
0.775330 0.688558 0.194453
0.784940 0.692739 0.199309
0.794394 0.697008 0.204242
0.239397 0.636235 0.126266
0.240447 0.636278 0.126304
0.244178 0.636433 0.126440
0.250891 0.636718 0.126688
0.260598 0.637143 0.127059
0.273145 0.637717 0.127555
0.288283 0.638444 0.128180
0.305722 0.639330 0.128934
0.325526 0.640378 0.129817
0.348058 0.641589 0.130826
0.372278 0.642966 0.131957
0.397949 0.644509 0.133206
0.424885 0.646219 0.134569
0.452929 0.648094 0.136040
0.481946 0.650135 0.137611
0.511827 0.652339 0.140182
0.535984 0.654704 0.142987
0.559151 0.657229 0.145946
0.582459 0.659840 0.149052
0.605869 0.662452 0.152296
0.629352 0.665200 0.155672
0.651225 0.668082 0.159173
0.667058 0.671095 0.162792
0.682721 0.674233 0.166752
0.698214 0.677493 0.170858
0.713536 0.680871 0.175076
0.728690 0.684363 0.179401
0.743676 0.687965 0.183828
0.756413 0.691671 0.188351
0.766310 0.695478 0.192965
0.776042 0.699382 0.197666
0.785614 0.703377 0.202449
0.795032 0.707461 0.207311
0.249724 0.651494 0.129631
0.250729 0.651535 0.129666
0.254302 0.651680 0.129794
0.260745 0.651948 0.130029
0.270083 0.652347 0.130378
0.282191 0.652886 0.130846
0.296850 0.653570 0.131436
0.313794 0.654403 0.132149
0.333574 0.655388 0.132984
0.355652 0.656528 0.133939
0.379423 0.657824 0.135012
0.404675 0.659257 0.136199
0.431222 0.660741 0.137495
0.458907 0.662370 0.139574
0.487596 0.664143 0.141966
0.517037 0.666059 0.144524
0.539754 0.668116 0.147240
0.562684 0.670313 0.150110
0.585776 0.672647 0.153125
0.608991 0.675115 0.156279
0.632295 0.677716 0.159564
0.653104 0.680445 0.162976
0.668817 0.683300 0.166735
0.684372 0.686277 0.170635
