negative-ultramax-400/Ultramax400_Classic_ExtraSoft.cube
TITLE "Kodak Ultramax 400 Classic ExtraSoft"
# Adobe RGB in/out. REPLACES AgX. Kodak Ultramax 400 Classic ExtraSoft.
LUT_3D_SIZE 9
DOMAIN_MIN 0.0 0.0 0.0
DOMAIN_MAX 1.0 1.0 1.0
0.057043 0.063015 0.079077
0.092143 0.067181 0.081090
0.349615 0.073900 0.084251
0.572954 0.083946 0.088662
0.676988 0.096900 0.093522
0.720432 0.111327 0.100388
0.747823 0.118121 0.110540
0.769072 0.091528 0.447593
0.772594 0.234134 0.563208
0.058860 0.080045 0.081138
0.066014 0.081056 0.083033
0.157727 0.083900 0.085910
0.506681 0.094137 0.089654
0.661038 0.107904 0.094335
0.715833 0.122069 0.100849
0.746624 0.129286 0.110192
0.769073 0.091543 0.447613
0.772594 0.234145 0.563207
0.061954 0.130165 0.084752
0.065327 0.137135 0.086558
0.088863 0.137700 0.089191
0.267085 0.146329 0.092708
0.551915 0.165093 0.097558
0.688204 0.195034 0.103478
0.738860 0.212819 0.110784
0.769269 0.096388 0.449980
0.772594 0.234146 0.563206
0.066327 0.297192 0.089163
0.069152 0.306901 0.090462
0.084033 0.319420 0.093556
0.150568 0.317023 0.097585
0.407878 0.326571 0.102272
0.612990 0.345865 0.107835
0.718818 0.369936 0.114608
0.759530 0.369406 0.127066
0.772595 0.224513 0.471424
0.072517 0.466577 0.093568
0.074113 0.471073 0.095017
0.085912 0.484150 0.098963
0.128390 0.487932 0.103487
0.297900 0.485922 0.108058
0.521085 0.492440 0.113336
0.677940 0.505202 0.121076
0.750103 0.515455 0.131357
0.772866 0.511449 0.261879
0.079750 0.586316 0.098871
0.081533 0.588040 0.099901
0.090878 0.596659 0.104258
0.123733 0.601328 0.109101
0.245014 0.601408 0.114348
0.443940 0.601212 0.120912
0.611527 0.606307 0.128596
0.730357 0.614102 0.138154
0.771824 0.618217 0.167208
0.087773 0.661061 0.102915
0.088989 0.661716 0.104019
0.098966 0.665062 0.108195
0.126627 0.667874 0.113745
0.221385 0.668553 0.121114
0.397025 0.668179 0.128282
0.552276 0.669244 0.136261
0.696588 0.672937 0.146422
0.770594 0.678567 0.165625
0.097360 0.718146 0.101117
0.098266 0.717811 0.102083
0.106465 0.716581 0.108142
0.130751 0.716783 0.115346
0.208410 0.716490 0.123953
0.358894 0.715709 0.132860
0.511014 0.715746 0.141004
0.658004 0.717755 0.151604
0.770065 0.721041 0.166626
0.098533 0.731136 0.096936
0.098534 0.731137 0.096937
0.113879 0.747591 0.096955
0.114212 0.748575 0.104370
0.184018 0.753707 0.112376
0.319293 0.751222 0.123660
0.464092 0.750159 0.133002
0.591103 0.751224 0.139725
0.773017 0.754578 0.144286
0.057654 0.066872 0.098594
0.086977 0.072693 0.144742
0.396507 0.077301 0.110208
0.601665 0.087633 0.107893
0.683674 0.099507 0.106443
0.721664 0.113224 0.109426
0.747805 0.120324 0.120964
0.769073 0.091542 0.447615
0.772594 0.234145 0.563209
0.060625 0.079928 0.097690
0.077267 0.085390 0.104881
0.277081 0.087763 0.103994
0.558377 0.097483 0.106447
0.672398 0.110923 0.106673
0.717844 0.124389 0.109617
0.746692 0.131608 0.119636
0.769074 0.091564 0.447647
0.772594 0.234146 0.563207
0.064372 0.127363 0.098336
0.069401 0.131601 0.099891
0.107435 0.136138 0.103063
0.377841 0.150694 0.106899
0.594360 0.171434 0.108720
0.696045 0.199165 0.111487
0.739818 0.215831 0.119361
0.769326 0.097735 0.451014
0.772594 0.234146 0.563206
0.069049 0.289340 0.100326
0.072153 0.298164 0.102021
0.090454 0.310587 0.105816
0.190517 0.313678 0.109398
0.455103 0.328217 0.112450
0.637800 0.348507 0.116457
0.722761 0.371399 0.123100
0.759733 0.371138 0.136386
0.772594 0.234170 0.563203
0.073999 0.460863 0.102363
0.076623 0.465175 0.103992
0.089632 0.477312 0.108203
0.142794 0.482542 0.112575
0.332625 0.483527 0.118549
0.540405 0.491971 0.123110
0.686676 0.505372 0.129660
0.751277 0.515502 0.139667
0.772848 0.513920 0.309255
0.081248 0.582969 0.105240
0.083206 0.584759 0.106517
0.094372 0.592964 0.110700
0.131681 0.597906 0.116939
0.264604 0.598944 0.123428
0.463049 0.599916 0.130569
0.624980 0.605814 0.137669
0.734040 0.613917 0.147736
0.771869 0.618510 0.182158
0.088667 0.659852 0.107894
0.089970 0.660502 0.108963
0.101119 0.663726 0.113486
0.131597 0.666518 0.121042
0.232399 0.667396 0.128746
0.407411 0.667387 0.136927
0.561832 0.668777 0.146017
0.702160 0.672710 0.156490
0.770817 0.678586 0.177850
0.097859 0.717429 0.104408
0.098914 0.717154 0.105518
0.107669 0.716080 0.112056
0.133802 0.716281 0.121298
0.214864 0.716034 0.130841
0.367691 0.715369 0.140068
0.516364 0.715551 0.150775
0.663337 0.717641 0.161298
0.770581 0.721005 0.177954
0.100299 0.735924 0.127316
0.100301 0.735926 0.127317
0.115350 0.751934 0.127317
0.115351 0.751934 0.127313
0.186866 0.753661 0.116839
0.323164 0.751181 0.129339
0.467585 0.750164 0.139305
0.594515 0.751259 0.147894
0.774672 0.754590 0.152542
0.058485 0.073098 0.145386
0.076982 0.085308 0.384779
0.349220 0.089847 0.350105
0.596727 0.097956 0.307523
0.685350 0.111656 0.281772
0.722625 0.127044 0.299645
0.747586 0.137392 0.363689
0.769179 0.094733 0.462944
0.772594 0.234149 0.563231
0.061508 0.084945 0.148405
0.073425 0.090202 0.198348
0.274909 0.096043 0.237636
0.567759 0.107750 0.235582
0.677770 0.122136 0.235665
0.719905 0.139469 0.261841
0.746676 0.149824 0.323399
0.769220 0.095797 0.465043
0.772594 0.234147 0.563211
0.066826 0.129437 0.142017
0.073425 0.133618 0.146876
0.149252 0.158219 0.173417
0.454538 0.160899 0.174514
0.635136 0.187122 0.186160
0.706160 0.218111 0.204536
0.741705 0.233593 0.233369
0.768871 0.134489 0.463559
0.772594 0.234146 0.563207
0.073209 0.286422 0.145185
0.077899 0.293329 0.147876
0.106998 0.306072 0.154982
0.274496 0.314782 0.162805
0.534578 0.336750 0.174540
0.675215 0.362010 0.188584
0.730380 0.382290 0.200992
0.760355 0.382266 0.265793
0.772594 0.234150 0.563210
0.080294 0.457444 0.147818
0.083993 0.460780 0.150092
0.104055 0.470172 0.156651
0.190772 0.476948 0.164383
0.414550 0.482111 0.173895
0.598910 0.494960 0.187245
0.706965 0.509615 0.196677
0.754425 0.517480 0.227123
0.772780 0.521472 0.465762
0.087629 0.579446 0.152036
0.089954 0.580968 0.153944
0.107308 0.587191 0.160539
0.163256 0.592165 0.169521
0.328993 0.595006 0.180095
0.519138 0.598346 0.190766
0.666372 0.606114 0.200563
0.743248 0.614166 0.222769
0.772022 0.620029 0.296335
0.095510 0.657364 0.150759
0.098215 0.657982 0.152625
0.110979 0.660678 0.159635
0.153194 0.663257 0.169761
0.279924 0.664629 0.181813
0.449475 0.665620 0.193589
0.597862 0.667908 0.206532
0.720468 0.672363 0.226042
0.771482 0.678885 0.253869
0.102946 0.713229 0.145882
0.104728 0.713308 0.148055
0.115092 0.713684 0.158319
0.150095 0.714278 0.170388
0.247594 0.714354 0.184567
0.401291 0.714165 0.197588
0.540785 0.714891 0.212078
0.682381 0.717262 0.227795
0.771908 0.720958 0.242766
0.100301 0.735927 0.127321
0.115350 0.751934 0.127320
0.115350 0.751935 0.127319
0.115361 0.751937 0.127320
0.203578 0.753021 0.147448
0.342115 0.750805 0.169677
0.483815 0.750021 0.186038
0.610093 0.751259 0.197346
0.776217 0.754613 0.204717
0.059843 0.082600 0.279336
0.067817 0.097035 0.485608
0.287674 0.106643 0.516426
0.574208 0.115921 0.508653
0.680377 0.132241 0.507169
0.720627 0.152612 0.513424
0.746542 0.166182 0.535793
0.766209 0.137571 0.584822
0.772594 0.237386 0.589817
0.062351 0.095114 0.294339
0.070721 0.104620 0.414136
0.232922 0.115630 0.486746
0.550644 0.126858 0.485585
0.673895 0.146626 0.489341
0.718230 0.167733 0.499897
0.745698 0.182113 0.525995
0.765896 0.148379 0.582085
0.772594 0.237422 0.590040
0.069587 0.146823 0.279096
0.076244 0.152923 0.300468
0.144716 0.167430 0.370376
0.464430 0.184715 0.399482
0.640418 0.216017 0.420644
0.707085 0.248023 0.444448
0.741482 0.267284 0.484406
0.763293 0.257506 0.549672
0.772594 0.237554 0.590852
0.077011 0.294567 0.266547
0.082973 0.301239 0.272893
0.117438 0.314117 0.294592
0.345017 0.347572 0.343669
0.563216 0.352745 0.354519
0.684076 0.379609 0.381991
0.732829 0.399512 0.415672
0.760262 0.403728 0.492734
0.772594 0.237620 0.591095
0.085948 0.458406 0.269974
0.089850 0.461314 0.273366
0.115615 0.470216 0.285875
0.238274 0.478286 0.303307
0.467344 0.486241 0.322134
0.633602 0.501372 0.345612
0.716315 0.516582 0.374299
0.755710 0.523626 0.420448
0.772650 0.532174 0.573403
0.094688 0.577991 0.272438
0.099070 0.579414 0.275063
0.119269 0.584951 0.285245
0.201201 0.590084 0.299226
0.388892 0.594243 0.315312
0.556502 0.599288 0.332359
0.686547 0.608377 0.354006
0.747923 0.615712 0.383922
0.772100 0.624208 0.510387
0.103640 0.655811 0.274166
0.106786 0.656392 0.276421
0.123878 0.658784 0.285574
0.184520 0.661335 0.298935
0.325054 0.663153 0.314159
0.496271 0.664957 0.330269
0.634935 0.668022 0.347153
0.732926 0.672882 0.368954
0.771970 0.680534 0.437899
0.108913 0.711306 0.271486
0.111117 0.711483 0.273525
0.126787 0.712193 0.283493
0.171621 0.712894 0.296624
0.283918 0.713266 0.311976
0.431837 0.713540 0.327686
0.567723 0.714690 0.343515
0.701061 0.717327 0.360286
0.772889 0.721483 0.395702
0.106808 0.744043 0.296326
0.115348 0.753220 0.296326
0.115350 0.753222 0.296325
0.137394 0.756339 0.237875
0.232138 0.751428 0.298117
0.371522 0.750061 0.314827
0.506157 0.749775 0.330025
0.633960 0.751209 0.342688
0.776830 0.754876 0.358060
0.061094 0.097148 0.460238
0.065047 0.109226 0.541211
0.201212 0.128676 0.600063
0.549861 0.142844 0.600450
0.673109 0.161779 0.600656
0.717671 0.186946 0.604505
0.745093 0.204810 0.612311
0.764414 0.181341 0.627203
0.772594 0.246385 0.642629
0.063155 0.109550 0.471169
0.067889 0.119987 0.529624
0.173979 0.142317 0.592204
0.531167 0.157454 0.594684
0.667237 0.179803 0.595904
0.715433 0.206382 0.600876
0.744293 0.224213 0.609752
0.764156 0.198165 0.625822
0.772594 0.246101 0.641000
0.070997 0.172956 0.469378
0.076717 0.182221 0.490196
0.139211 0.208977 0.547882
0.457287 0.231107 0.568403
0.635320 0.256259 0.577034
0.705675 0.288310 0.585894
0.740546 0.307246 0.598365
0.762450 0.303960 0.617629
0.772594 0.245215 0.635819
0.080664 0.320625 0.450195
0.086493 0.326327 0.459144
0.128164 0.343104 0.487098
0.351418 0.360605 0.514871
0.572089 0.380426 0.532121
0.686609 0.404149 0.550732
0.733147 0.419999 0.575470
0.759897 0.425589 0.602452
0.773307 0.372689 0.635865
0.089907 0.465166 0.439591
0.096421 0.468245 0.443331
0.128148 0.477440 0.457786
0.271802 0.487146 0.477209
0.506640 0.507539 0.501485
0.651217 0.513782 0.512267
0.720146 0.526147 0.534806
0.756094 0.534617 0.576194
0.772475 0.544460 0.626781
0.101883 0.580210 0.439125
0.106594 0.581601 0.441064
0.134249 0.586896 0.449358
0.233551 0.592390 0.462489
0.421577 0.597673 0.476388
0.583201 0.603893 0.488744
0.697500 0.613450 0.505341
0.750257 0.619643 0.533438
0.772070 0.629499 0.610032
0.110413 0.655996 0.440879
0.113875 0.656588 0.442089
0.138133 0.658855 0.447486
0.212866 0.661467 0.456661
0.366171 0.663694 0.468579
0.523183 0.666109 0.478631
0.661578 0.669751 0.489244
0.739741 0.674804 0.505310
0.772179 0.683988 0.582354
0.114090 0.710900 0.445205
0.116598 0.711078 0.445694
0.137998 0.711755 0.449053
0.192837 0.712546 0.454990
0.311179 0.713126 0.463527
0.459839 0.713768 0.472640
0.592108 0.715265 0.480693
0.715146 0.718175 0.489990
0.773411 0.722975 0.533084
0.108951 0.746945 0.522653
0.110214 0.748287 0.522652
0.113154 0.751445 0.522650
0.152914 0.752284 0.466428
0.250147 0.751057 0.467786
0.390863 0.750091 0.472038
0.519048 0.750049 0.476661
0.653247 0.751660 0.481775
0.777157 0.756024 0.500353
0.062676 0.119691 0.586054
0.065035 0.129257 0.618268
0.151726 0.162439 0.654084
0.523473 0.180633 0.655655
0.666478 0.205158 0.656631
0.714667 0.231890 0.658825
0.743621 0.251016 0.661991
0.763358 0.235758 0.667141
0.772594 0.251755 0.668415
0.064200 0.131748 0.590094
0.066725 0.143076 0.617080
0.144713 0.178854 0.651322
0.509126 0.198670 0.653740
0.661570 0.225128 0.655100
0.712618 0.251541 0.657536
0.742884 0.270394 0.661339
0.763122 0.254540 0.666775
0.772594 0.251756 0.668415
0.072145 0.215665 0.594511
0.076490 0.225703 0.607866
0.134586 0.259063 0.637675
0.441835 0.280414 0.645167
0.630205 0.304709 0.648383
0.703959 0.326484 0.652121
0.739578 0.343770 0.658081
0.761730 0.343810 0.664760
0.772594 0.251761 0.668415
0.083097 0.352921 0.583260
0.088042 0.358749 0.589436
0.133857 0.381511 0.611929
0.360195 0.399029 0.627742
0.577045 0.412580 0.635242
0.687391 0.427552 0.641403
0.733088 0.442804 0.649716
0.759536 0.448960 0.660911
0.773112 0.416266 0.668479
0.095044 0.482573 0.569338
0.101341 0.485417 0.573713
0.139321 0.496355 0.587560
0.295586 0.507653 0.602854
0.515205 0.518068 0.615266
0.660261 0.527424 0.624468
0.722083 0.539079 0.635651
0.756298 0.547624 0.651693
0.772320 0.557896 0.669019
0.107099 0.586320 0.560090
0.112032 0.587813 0.562198
0.145313 0.593174 0.571092
0.258014 0.599183 0.583446
0.444813 0.605359 0.594558
0.603109 0.614779 0.606670
0.703616 0.619218 0.616859
0.751547 0.625682 0.635173
0.772062 0.635435 0.665126
0.115443 0.658342 0.557241
0.120806 0.658906 0.558207
0.148958 0.661112 0.562799
0.234981 0.663815 0.571280
0.393517 0.666379 0.581650
0.541847 0.669221 0.589936
0.672858 0.673278 0.598734
0.743463 0.678559 0.613049
0.772322 0.688371 0.656281
0.118354 0.712047 0.559454
0.122901 0.712219 0.559641
0.146025 0.712846 0.561343
0.208748 0.713615 0.565163
0.332609 0.714313 0.571695
0.481307 0.715195 0.579784
0.610319 0.716932 0.585805
0.723788 0.720012 0.593200
0.773683 0.725451 0.634013
0.109776 0.748021 0.561913
0.110877 0.749206 0.564037
0.113349 0.751906 0.572216
0.156505 0.753225 0.572218
0.259414 0.751916 0.571540
0.399093 0.751089 0.573993
0.526567 0.751232 0.577861
0.662656 0.752900 0.581101
0.777295 0.757910 0.612668
0.064444 0.158251 0.669059
0.065955 0.167927 0.683025
0.117506 0.207084 0.693260
0.507099 0.229297 0.694163
0.662703 0.254855 0.694841
0.713130 0.280763 0.695789
0.742938 0.297948 0.697460
0.762790 0.287048 0.699590
0.772594 0.260360 0.697790
0.065467 0.174333 0.670687
0.067704 0.183558 0.682532
0.118625 0.225252 0.692735
0.493296 0.247363 0.693849
0.658042 0.273368 0.694604
0.711428 0.299825 0.695600
0.742271 0.314451 0.697326
0.762581 0.305514 0.699572
0.772594 0.260265 0.697518
0.072920 0.265376 0.673784
0.076498 0.272897 0.680158
0.124768 0.304163 0.689727
0.437165 0.322372 0.692126
0.630849 0.342971 0.693329
0.704079 0.365268 0.694602
0.739384 0.382050 0.696609
0.761417 0.383956 0.699257
0.772590 0.259694 0.696280
0.084935 0.395137 0.667835
0.089181 0.398667 0.672142
0.134275 0.413482 0.682647
0.371436 0.426314 0.687944
0.584826 0.439384 0.690352
0.689840 0.453505 0.692384
0.733824 0.465452 0.694961
0.759581 0.471418 0.698516
0.772734 0.463823 0.701032
0.098832 0.505599 0.657700
0.104689 0.508353 0.660973
0.144983 0.518645 0.670751
0.312485 0.527117 0.679542
0.528959 0.535142 0.684659
0.666612 0.543995 0.688015
0.724465 0.552665 0.691637
0.756855 0.560431 0.696621
0.772292 0.571005 0.701921
0.111359 0.597847 0.645716
0.116106 0.599293 0.647957
0.153302 0.605025 0.656846
0.280062 0.611883 0.666734
0.467654 0.616533 0.674842
0.617279 0.621192 0.680577
0.708772 0.626401 0.685710
0.752854 0.632139 0.692553
0.772176 0.641266 0.701646
0.119910 0.662988 0.637188
0.126443 0.663567 0.638323
0.156475 0.665757 0.643153
0.250706 0.668540 0.651656
0.409122 0.671400 0.661433
0.556271 0.674517 0.668765
0.680665 0.678631 0.674854
0.746133 0.683761 0.684193
0.772565 0.692888 0.699777
0.120607 0.715026 0.632923
0.125334 0.715164 0.633287
0.149600 0.715637 0.635301
0.216964 0.716322 0.639392
0.345582 0.717036 0.645734
0.495258 0.718009 0.653297
0.622513 0.719883 0.660730
0.728681 0.722996 0.667745
0.773939 0.728493 0.693924
0.109667 0.748277 0.610497
0.111807 0.750554 0.610507
0.114570 0.753493 0.610760
0.150754 0.756106 0.634886
0.257346 0.754056 0.635903
0.399150 0.753170 0.638807
0.527289 0.753338 0.642077
0.662976 0.755025 0.644938
0.777431 0.760528 0.686543
0.066543 0.220701 0.727974
0.068741 0.223760 0.729751
0.132920 0.250989 0.730831
0.525634 0.273220 0.731079
0.669198 0.298331 0.731508
0.716265 0.319184 0.732146
0.744180 0.331323 0.733074
0.763449 0.318631 0.735109
0.772666 0.286877 0.728201
0.068024 0.237010 0.727863
0.070244 0.240208 0.729535
0.135293 0.268073 0.730821
0.517172 0.290637 0.731099
0.666292 0.313180 0.731531
0.715036 0.333816 0.732174
0.743706 0.346536 0.733123
0.763277 0.334529 0.735154
0.772689 0.291640 0.728201
0.075990 0.321535 0.727425
0.079635 0.324161 0.728584
0.147016 0.343088 0.730263
0.476946 0.360577 0.730817
0.648934 0.381030 0.731340
0.709279 0.399666 0.732054
0.741455 0.409368 0.733119
0.762396 0.406410 0.735105
0.772948 0.335486 0.728201
0.087922 0.426125 0.725275
0.092852 0.428043 0.726478
0.154117 0.439310 0.728911
0.414557 0.449727 0.730064
0.611702 0.461810 0.730852
0.698587 0.474828 0.731744
0.737359 0.485120 0.733026
0.761022 0.487723 0.735088
0.772868 0.484308 0.735161
0.103088 0.527656 0.720719
0.108756 0.529052 0.722239
0.162512 0.535949 0.725967
0.354789 0.542605 0.728349
0.559713 0.549816 0.729833
0.680238 0.557886 0.731064
0.730278 0.565322 0.732583
0.758990 0.570136 0.734892
0.772644 0.580167 0.736378
0.114801 0.613034 0.712835
0.121433 0.613877 0.714701
0.168174 0.617606 0.720228
0.306224 0.621290 0.724748
0.503389 0.624973 0.727624
0.645262 0.629174 0.729633
0.717817 0.633537 0.731567
0.755990 0.637472 0.734288
0.772707 0.645771 0.736965
0.123329 0.669913 0.701124
0.129763 0.670479 0.702741
0.165250 0.672871 0.708887
0.266496 0.675612 0.716480
0.429140 0.678210 0.722480
0.578362 0.681098 0.726364
0.693262 0.684737 0.729210
0.750558 0.688879 0.732823
0.773179 0.695798 0.737064
0.117853 0.720508 0.689662
0.122525 0.720538 0.690391
0.147920 0.720533 0.693877
0.217210 0.720875 0.700092
0.351206 0.721443 0.708333
0.504101 0.722436 0.715998
0.634219 0.724249 0.721827
0.731701 0.726035 0.725113
0.774416 0.731495 0.736286
0.108516 0.747633 0.667467
0.114428 0.753943 0.668231
0.115295 0.754954 0.673460
0.143112 0.758981 0.682756
0.239231 0.757836 0.686092
0.388355 0.756597 0.690386
0.519080 0.756619 0.694564
0.651683 0.758155 0.697163
0.777580 0.763381 0.733701
0.123515 0.255871 0.764594
0.165188 0.258667 0.764601
0.476073 0.269887 0.764624
0.657182 0.289522 0.764695
0.705643 0.310621 0.764819
0.732873 0.326718 0.765014
0.752171 0.329308 0.765491
0.766928 0.283914 0.766421
0.772594 0.300351 0.762547
0.125428 0.269556 0.764531
0.166160 0.272460 0.764539
0.470466 0.284080 0.764565
0.654246 0.303608 0.764643
0.704803 0.322978 0.764773
0.732531 0.339331 0.764977
0.752049 0.341921 0.765455
0.766861 0.297210 0.766388
0.772594 0.307144 0.765445
0.137675 0.334388 0.764176
0.176206 0.336801 0.764192
0.449096 0.346497 0.764248
0.640390 0.363644 0.764373
0.700772 0.383672 0.764543
0.730895 0.398752 0.764796
0.751425 0.401033 0.765277
0.766529 0.360980 0.766194
0.772594 0.307178 0.765445
0.155407 0.440859 0.763646
0.188606 0.442179 0.763681
0.410533 0.447379 0.763797
0.612204 0.456507 0.763991
0.692076 0.467416 0.764219
0.727265 0.477245 0.764523
0.750096 0.480707 0.765032
0.766011 0.466751 0.765866
0.773774 0.477283 0.767016
0.162648 0.538376 0.763319
0.186724 0.539097 0.763373
0.348470 0.542039 0.763551
0.568867 0.547266 0.763774
0.677826 0.553735 0.764060
0.721267 0.559863 0.764408
0.747961 0.563001 0.764908
0.765617 0.558749 0.765726
0.774290 0.563693 0.767375
0.156169 0.619741 0.763257
0.173737 0.620076 0.763331
0.285203 0.621528 0.763567
0.506685 0.624110 0.763850
0.648725 0.627303 0.764153
0.710559 0.630608 0.764519
0.744319 0.632766 0.764998
0.765029 0.632016 0.765745
0.774750 0.639994 0.767216
0.142246 0.676871 0.763465
0.150895 0.677067 0.763560
0.215604 0.677960 0.763842
0.394908 0.679401 0.764184
0.572346 0.681362 0.764535
0.687137 0.683882 0.764910
0.736704 0.686026 0.765417
0.763962 0.686077 0.766075
0.775478 0.693542 0.767344
0.116167 0.725178 0.762302
0.120306 0.725220 0.762915
0.145610 0.725266 0.764047
0.241721 0.725074 0.764716
0.424057 0.725040 0.765233
0.596320 0.725761 0.765668
0.710474 0.727313 0.766126
0.759758 0.728124 0.766720
0.776491 0.731153 0.767694
0.106520 0.746151 0.704503
0.115350 0.755781 0.718928
0.115350 0.755781 0.718928
0.121491 0.756826 0.718964
0.194558 0.764478 0.750877
0.355914 0.762524 0.766072
0.511126 0.762110 0.767202
0.657546 0.763522 0.767783
0.777758 0.766397 0.768165
