negative-ultramax-400/Ultramax400_Modern_ExtraPunchy.cube
TITLE "Kodak Ultramax 400 Modern ExtraPunchy"
# Adobe RGB in/out. REPLACES AgX. Kodak Ultramax 400 Modern ExtraPunchy.
LUT_3D_SIZE 9
DOMAIN_MIN 0.0 0.0 0.0
DOMAIN_MAX 1.0 1.0 1.0
0.069662 0.073299 0.081842
0.136694 0.094937 0.079392
0.371947 0.162425 0.083448
0.559863 0.265301 0.092534
0.659880 0.366417 0.107059
0.719347 0.450305 0.125492
0.768907 0.521216 0.146267
0.799397 0.571821 0.169222
0.824664 0.612575 0.196787
0.072994 0.125990 0.078933
0.104125 0.117049 0.079385
0.302611 0.178522 0.082349
0.522881 0.282759 0.091103
0.645476 0.379137 0.105109
0.711139 0.458623 0.123794
0.763172 0.528117 0.144622
0.796484 0.575910 0.167829
0.822514 0.616031 0.195426
0.094884 0.346339 0.082809
0.154060 0.312824 0.082749
0.275337 0.278149 0.083632
0.457526 0.332945 0.089631
0.604064 0.415939 0.101352
0.688358 0.485472 0.119717
0.745990 0.547121 0.140205
0.787315 0.589722 0.163823
0.815547 0.627896 0.191344
0.139283 0.517052 0.090366
0.195936 0.495563 0.090120
0.324769 0.455027 0.090485
0.446527 0.439552 0.093026
0.570832 0.471597 0.101006
0.663937 0.530386 0.117277
0.724469 0.574135 0.136285
0.774614 0.612880 0.159519
0.805290 0.645622 0.186452
0.187662 0.616498 0.099684
0.239934 0.607325 0.099590
0.358854 0.584490 0.099845
0.477434 0.565513 0.102504
0.569973 0.561329 0.108436
0.645744 0.577816 0.119152
0.706567 0.611458 0.136018
0.758675 0.643013 0.157813
0.794443 0.667305 0.183463
0.239406 0.680636 0.112725
0.282359 0.676366 0.112767
0.384099 0.664308 0.113309
0.495984 0.651095 0.115375
0.581518 0.643357 0.120411
0.646916 0.643831 0.128261
0.695437 0.653456 0.140374
0.745772 0.674093 0.160004
0.785253 0.694378 0.184337
0.286197 0.726287 0.125646
0.317932 0.723936 0.125834
0.404979 0.716847 0.126721
0.507801 0.707947 0.128947
0.588814 0.701046 0.133095
0.652480 0.698671 0.140856
0.696063 0.701506 0.152015
0.737800 0.708925 0.166370
0.778681 0.723736 0.189732
0.323373 0.757122 0.137489
0.348638 0.756060 0.137846
0.422670 0.752739 0.139253
0.514947 0.748251 0.142224
0.591800 0.744313 0.147256
0.653998 0.742369 0.154671
0.696557 0.743164 0.165101
0.737224 0.746729 0.180184
0.774790 0.752625 0.199570
0.353304 0.778932 0.149647
0.373236 0.778368 0.150082
0.437339 0.776574 0.151700
0.518842 0.774087 0.154850
0.591427 0.771856 0.159947
0.652551 0.770800 0.167676
0.694711 0.771526 0.179306
0.734896 0.774241 0.194674
0.772805 0.778814 0.212930
0.067738 0.079225 0.139075
0.143680 0.100048 0.141510
0.371973 0.165838 0.146177
0.550203 0.261348 0.150834
0.654433 0.360266 0.162096
0.714923 0.445428 0.178436
0.765671 0.517332 0.198883
0.797752 0.569736 0.220486
0.823488 0.611055 0.242997
0.072444 0.120702 0.115881
0.090548 0.105898 0.094879
0.289631 0.174371 0.119727
0.510285 0.274947 0.137491
0.637098 0.371564 0.154697
0.706642 0.453373 0.172636
0.759932 0.524080 0.194959
0.794846 0.573788 0.217687
0.821347 0.614500 0.240855
0.092048 0.327478 0.139586
0.141998 0.290653 0.124626
0.247314 0.253699 0.109674
0.435650 0.317909 0.120746
0.594693 0.406986 0.139264
0.683765 0.479261 0.160247
0.742781 0.543963 0.184055
0.785712 0.587504 0.209435
0.814418 0.626338 0.234298
0.133920 0.501702 0.146343
0.187428 0.480958 0.138990
0.310550 0.440667 0.126998
0.429323 0.426028 0.122614
0.562902 0.462187 0.131549
0.659689 0.523621 0.150763
0.721471 0.570827 0.172776
0.773112 0.610614 0.199711
0.804242 0.644416 0.225928
0.183445 0.609768 0.152509
0.233954 0.600754 0.149263
0.351873 0.578091 0.141559
0.470142 0.559137 0.136285
0.564297 0.555526 0.137695
0.641228 0.573691 0.148460
0.704092 0.608423 0.167875
0.756864 0.641360 0.193281
0.793537 0.666192 0.219613
0.236076 0.677444 0.159465
0.279043 0.673224 0.157966
0.380045 0.661261 0.154268
0.491967 0.648099 0.151369
0.578264 0.640474 0.152115
0.643722 0.641294 0.157613
0.693706 0.651660 0.169409
0.744412 0.672767 0.192674
0.784550 0.693469 0.217628
0.284252 0.724506 0.167366
0.315786 0.722178 0.166762
0.402547 0.715150 0.165245
0.505518 0.706312 0.164389
0.586995 0.699481 0.166001
0.650671 0.697235 0.171263
0.694880 0.700304 0.182331
0.736927 0.708112 0.197899
0.778213 0.723168 0.220778
0.322110 0.756308 0.175885
0.347413 0.755257 0.175780
0.421223 0.751966 0.175742
0.513653 0.747520 0.176761
0.590802 0.743631 0.180082
0.653287 0.741754 0.186687
0.695909 0.742646 0.197074
0.736692 0.746340 0.211255
0.774518 0.752378 0.228945
0.352623 0.778495 0.184247
0.372523 0.777937 0.184504
0.436531 0.776164 0.185574
0.518154 0.773710 0.188042
0.590920 0.771521 0.192618
0.652099 0.770517 0.199927
0.694416 0.771310 0.210363
0.734676 0.774107 0.224043
0.772718 0.778771 0.241350
0.068019 0.094381 0.393210
0.144004 0.111581 0.394846
0.381847 0.181721 0.400682
0.564350 0.282819 0.388539
0.653547 0.365685 0.367483
0.711077 0.444343 0.362203
0.761227 0.514007 0.363113
0.794856 0.566999 0.367045
0.821054 0.608534 0.372635
0.074379 0.160911 0.394612
0.148470 0.175440 0.387356
0.339978 0.212969 0.349861
0.519018 0.289661 0.343209
0.633816 0.373892 0.345395
0.702203 0.450990 0.349918
0.755255 0.520105 0.355607
0.791888 0.570833 0.362152
0.818899 0.611879 0.369299
0.086340 0.288206 0.317368
0.126296 0.260539 0.272344
0.198008 0.212182 0.188320
0.416183 0.307795 0.248522
0.584791 0.399584 0.291810
0.677471 0.472683 0.317345
0.737400 0.539664 0.334004
0.782575 0.583876 0.347319
0.811935 0.623415 0.358836
0.123544 0.469602 0.333941
0.170240 0.452078 0.314215
0.283466 0.414072 0.261329
0.393940 0.398153 0.227161
0.542214 0.445498 0.247736
0.650941 0.511781 0.281683
0.715368 0.564736 0.309349
0.769163 0.606144 0.328455
0.801767 0.641860 0.344549
0.173058 0.593269 0.335466
0.219558 0.585011 0.325519
0.335336 0.563475 0.298185
0.447873 0.544501 0.266328
0.545811 0.541681 0.251778
0.630511 0.564307 0.263243
0.698127 0.601489 0.289760
0.752386 0.637522 0.313004
0.791214 0.663542 0.331433
0.227053 0.668826 0.330512
0.270222 0.664832 0.325390
0.369336 0.653345 0.310631
0.481459 0.640435 0.290976
0.569606 0.631930 0.276271
0.635041 0.633944 0.272695
0.689072 0.647027 0.282563
0.740718 0.669322 0.305009
0.782606 0.691089 0.323115
0.278590 0.719372 0.323748
0.309562 0.717141 0.321135
0.395577 0.710365 0.313241
0.499039 0.701772 0.303258
0.581826 0.694960 0.293333
0.645336 0.692879 0.289736
0.691431 0.696858 0.293537
0.734409 0.705858 0.304307
0.776845 0.721588 0.320687
0.318246 0.753851 0.316701
0.343674 0.752839 0.315468
0.416836 0.749665 0.311675
0.509758 0.745369 0.306785
0.587810 0.741639 0.302938
0.650409 0.739767 0.301951
0.693944 0.741123 0.305446
0.735062 0.745191 0.312719
0.773681 0.751654 0.323497
0.350456 0.777128 0.309721
0.370257 0.776593 0.309281
0.433976 0.774895 0.307977
0.515987 0.772554 0.306527
0.589330 0.770503 0.306085
0.650593 0.769665 0.307750
0.693490 0.770663 0.312249
0.733984 0.773714 0.319840
0.772443 0.778663 0.330354
0.068719 0.117092 0.589473
0.144599 0.138076 0.589966
0.382181 0.206613 0.591728
0.580683 0.315969 0.594940
0.665424 0.396499 0.567572
0.715377 0.457899 0.542455
0.761510 0.520336 0.528570
0.793729 0.568547 0.520034
0.819440 0.608560 0.514256
0.074892 0.183488 0.589895
0.152275 0.203098 0.590387
0.386550 0.268747 0.592147
0.563767 0.339118 0.574365
0.649592 0.402789 0.545304
0.705902 0.463277 0.529929
0.755181 0.525602 0.521016
0.790631 0.572027 0.515207
0.817226 0.611709 0.511032
0.087153 0.307161 0.522027
0.138726 0.301321 0.505238
0.285532 0.305022 0.469218
0.459054 0.349268 0.467857
0.594226 0.416578 0.480463
0.678645 0.480060 0.490126
0.736017 0.541471 0.495465
0.780865 0.583871 0.497892
0.810066 0.622597 0.498616
0.114390 0.443369 0.493897
0.157373 0.430883 0.473398
0.265497 0.399180 0.419888
0.357454 0.365489 0.358456
0.533089 0.441581 0.407334
0.645606 0.509405 0.437595
0.711753 0.562919 0.457648
0.765743 0.604244 0.470523
0.799611 0.640460 0.478662
0.161614 0.574519 0.498729
0.203816 0.567622 0.486905
0.316242 0.548616 0.453425
0.424204 0.526566 0.415825
0.523142 0.521900 0.393017
0.619826 0.555924 0.407398
0.692493 0.595938 0.429090
0.748078 0.633887 0.446430
0.788840 0.661412 0.459261
0.215519 0.657864 0.493030
0.256919 0.654314 0.486393
0.356112 0.643869 0.466442
0.468452 0.630174 0.441153
0.557873 0.620727 0.420452
0.624084 0.623565 0.410770
0.683590 0.641985 0.416671
0.736400 0.665712 0.431787
0.780314 0.688667 0.445287
0.270876 0.712412 0.480484
0.301034 0.710371 0.476795
0.386198 0.704111 0.465256
0.490503 0.695931 0.449446
0.575060 0.689097 0.434647
0.638262 0.687378 0.424983
0.686780 0.692129 0.422160
0.731148 0.703188 0.426683
0.775059 0.719760 0.438334
0.312637 0.750360 0.464846
0.338255 0.749422 0.462870
0.410555 0.746471 0.456546
0.504264 0.742461 0.447490
0.583638 0.738545 0.438476
0.646193 0.736729 0.432019
0.691180 0.738687 0.429616
0.732752 0.743686 0.431531
0.772518 0.750773 0.437081
0.347165 0.775116 0.448000
0.366824 0.774622 0.447051
0.430131 0.773058 0.443990
0.512757 0.770915 0.439569
0.586984 0.769094 0.435218
0.648358 0.768510 0.432380
0.692131 0.769808 0.432083
0.732966 0.773223 0.434745
0.772040 0.778591 0.440211
0.069637 0.156948 0.703688
0.145486 0.175166 0.703923
0.382679 0.242673 0.704762
0.580852 0.341470 0.706298
0.683293 0.437337 0.702439
0.726352 0.484999 0.670438
0.767088 0.537518 0.646467
0.795181 0.575772 0.630322
0.819458 0.612539 0.618498
0.075603 0.220950 0.703889
0.153130 0.239461 0.704123
0.387045 0.298398 0.704962
0.582334 0.383662 0.706497
0.669063 0.442590 0.686661
0.716787 0.489790 0.658204
0.760547 0.540835 0.638884
0.791967 0.578902 0.625430
0.817173 0.615459 0.615227
0.094630 0.382623 0.695143
0.168205 0.383345 0.688184
0.354441 0.392318 0.667151
0.515529 0.416870 0.645708
0.620214 0.455323 0.631391
0.688513 0.503983 0.622266
0.740399 0.551581 0.615629
0.781741 0.589490 0.609975
0.809751 0.625547 0.604524
0.113413 0.447610 0.614291
0.158582 0.441907 0.605431
0.285911 0.430358 0.580975
0.422609 0.435404 0.560096
0.559605 0.472543 0.563755
0.653742 0.526012 0.575239
0.713747 0.569330 0.583742
0.765654 0.607574 0.587867
0.798818 0.641698 0.588736
0.153139 0.560651 0.602878
0.192691 0.555506 0.595870
0.303583 0.540644 0.571667
0.411013 0.517989 0.537416
0.500602 0.501826 0.505954
0.615937 0.555294 0.531554
0.690521 0.596294 0.549889
0.746105 0.634030 0.561950
0.787439 0.661316 0.569107
0.204323 0.647133 0.599952
0.243649 0.644180 0.595621
0.343334 0.634840 0.580860
0.453181 0.620638 0.557690
0.543465 0.610792 0.536102
0.612603 0.613380 0.524423
0.678745 0.638267 0.532112
0.732914 0.663576 0.544409
0.778461 0.687429 0.553704
0.261005 0.704924 0.592382
0.291674 0.703152 0.589803
0.376067 0.697648 0.580196
0.481516 0.689798 0.565347
0.568019 0.683458 0.550289
0.630738 0.681941 0.539063
0.681715 0.687366 0.534209
0.727866 0.700911 0.537430
0.773306 0.718370 0.545201
0.306114 0.746415 0.579622
0.331322 0.745584 0.577777
0.403341 0.742960 0.571760
0.498060 0.739022 0.562779
0.579008 0.735075 0.553165
0.641542 0.733664 0.545245
0.688097 0.736081 0.540633
0.730162 0.742197 0.539809
0.771412 0.750217 0.542451
0.343177 0.772776 0.562849
0.362670 0.772341 0.561871
0.425509 0.770966 0.558651
0.508918 0.769103 0.553763
0.584235 0.767594 0.548435
0.645773 0.767331 0.543991
0.690566 0.768980 0.541443
0.731797 0.772813 0.541265
0.771585 0.778667 0.543333
0.070900 0.205148 0.779616
0.146678 0.224384 0.779738
0.383352 0.286769 0.780177
0.581080 0.373873 0.780982
0.689104 0.466594 0.782179
0.739642 0.520420 0.761995
0.774620 0.555765 0.735392
0.798723 0.588047 0.715621
0.821054 0.620462 0.700819
0.076477 0.267482 0.779720
0.154279 0.284191 0.779843
0.387712 0.333675 0.780282
0.582560 0.411488 0.781086
0.687158 0.488857 0.779901
0.730453 0.525149 0.752847
0.769440 0.558827 0.728769
0.795468 0.590916 0.711234
0.818720 0.623172 0.697844
0.097502 0.421092 0.780097
0.181516 0.429907 0.780219
0.403068 0.460039 0.780657
0.562545 0.476801 0.762188
0.649173 0.503010 0.740206
0.702798 0.538481 0.721942
0.749117 0.568599 0.708048
0.785011 0.600552 0.697171
0.811096 0.632514 0.688142
0.121794 0.487973 0.721863
0.174433 0.486876 0.717663
0.325518 0.486777 0.706020
0.478592 0.496487 0.693753
0.589715 0.521354 0.685920
0.667378 0.552754 0.681811
0.721311 0.584144 0.678597
0.769312 0.616755 0.675234
0.799712 0.646061 0.671049
0.150644 0.560308 0.686019
0.190351 0.557341 0.681526
0.306778 0.549190 0.664893
0.429248 0.542448 0.644389
0.540601 0.548366 0.632501
0.629540 0.573303 0.635712
0.694981 0.606414 0.643291
0.747836 0.639323 0.648762
0.787582 0.664108 0.651243
0.196260 0.639556 0.676505
0.233478 0.637305 0.672462
0.333832 0.628599 0.659510
0.444274 0.617096 0.640716
0.535970 0.607733 0.620961
0.601364 0.604216 0.604026
0.677128 0.638870 0.618539
0.731861 0.664708 0.628710
0.777688 0.688369 0.635075
0.251424 0.698152 0.668992
0.282802 0.696644 0.666416
0.366629 0.691680 0.658013
0.473451 0.684962 0.645429
0.561884 0.679275 0.631803
0.623809 0.677549 0.620459
0.676636 0.683069 0.614942
0.725096 0.699615 0.619222
0.771960 0.717989 0.625414
0.299379 0.742519 0.657911
0.324166 0.741818 0.656359
0.395963 0.739307 0.651234
0.491821 0.735393 0.643374
0.574454 0.732067 0.634588
0.637003 0.731076 0.626844
0.685011 0.733843 0.621755
0.727540 0.740954 0.620138
0.769959 0.750008 0.622085
0.338852 0.770379 0.643665
0.358169 0.770016 0.642797
0.420530 0.768873 0.639910
0.504822 0.767354 0.635422
0.581350 0.766226 0.630324
0.643107 0.766334 0.625752
0.688966 0.768355 0.622644
0.730612 0.772619 0.621508
0.771046 0.778986 0.622270
0.072097 0.265571 0.835231
0.148185 0.282382 0.835289
0.384207 0.332203 0.835497
0.581370 0.410462 0.835880
0.689234 0.492097 0.836449
0.751786 0.552956 0.826245
0.781395 0.577203 0.799830
0.803292 0.603786 0.779795
0.823692 0.631517 0.764313
0.077470 0.316415 0.835281
0.155733 0.329853 0.835339
0.388559 0.375165 0.835547
0.582848 0.440559 0.835929
0.689893 0.517007 0.836498
0.743219 0.556375 0.818343
0.776959 0.580153 0.794494
0.800077 0.606491 0.776144
0.821350 0.634063 0.761783
0.099273 0.449477 0.835459
0.183004 0.457688 0.835517
0.403890 0.485923 0.835725
0.587698 0.533044 0.835897
0.667691 0.547536 0.814051
0.717047 0.566330 0.793978
0.759423 0.589515 0.777540
0.789670 0.615525 0.764308
0.813655 0.641481 0.752007
0.133016 0.540811 0.803250
0.194740 0.541015 0.800630
0.360947 0.542808 0.792535
0.515914 0.548965 0.781513
0.616595 0.561533 0.770575
0.682558 0.580452 0.761201
0.731663 0.604124 0.752005
0.774370 0.630525 0.743437
0.802009 0.653199 0.735674
0.155566 0.577098 0.757913
0.198390 0.576040 0.755022
0.325062 0.573751 0.746219
0.462899 0.574338 0.735090
0.571758 0.582595 0.726387
0.650442 0.600136 0.722077
0.704282 0.624392 0.720572
0.752989 0.648376 0.719555
0.789290 0.669855 0.717788
0.192824 0.638500 0.735250
0.229546 0.637062 0.732643
0.331995 0.631605 0.724226
0.448105 0.625099 0.712002
0.547400 0.622457 0.699980
0.621169 0.630568 0.693694
0.683411 0.649262 0.695667
0.734720 0.670793 0.699708
0.778429 0.692174 0.702300
0.243901 0.693215 0.726183
0.275860 0.692012 0.724325
0.359558 0.688213 0.718177
0.467508 0.683029 0.708699
0.557336 0.678577 0.697913
0.620356 0.676922 0.687890
0.671783 0.679533 0.679426
0.724204 0.700801 0.687281
0.771544 0.719399 0.691966
0.293137 0.738799 0.717494
0.317545 0.738082 0.716315
0.389199 0.735807 0.712377
0.486242 0.732694 0.706205
0.570548 0.730108 0.699060
0.633209 0.729552 0.692396
0.682272 0.732398 0.687555
0.725043 0.739958 0.685794
0.768778 0.750307 0.687902
0.334160 0.768184 0.706465
0.353678 0.767900 0.705779
0.415582 0.767016 0.703479
0.500789 0.765885 0.699847
0.578563 0.765187 0.695617
0.640593 0.765696 0.691676
0.687476 0.768082 0.688820
0.729520 0.772748 0.687562
0.770534 0.779625 0.687916
0.073315 0.324797 0.868387
0.150011 0.337990 0.868430
0.385249 0.382586 0.868584
0.581724 0.445784 0.868868
0.689391 0.521390 0.869290
0.761063 0.580394 0.866751
0.787338 0.599648 0.847375
0.807830 0.621291 0.830627
0.826667 0.642842 0.811719
0.078950 0.368397 0.868424
0.157496 0.380467 0.868467
0.389592 0.418082 0.868621
0.583200 0.473413 0.868904
0.690050 0.542682 0.869327
0.753225 0.583821 0.861759
0.783154 0.602537 0.843853
0.804718 0.623887 0.826860
0.824356 0.644725 0.809057
0.101389 0.481659 0.868556
0.184812 0.489274 0.868599
0.404892 0.515604 0.868753
0.588435 0.553796 0.869036
0.680585 0.580036 0.861536
0.728929 0.593906 0.846045
0.769091 0.611710 0.831747
0.794574 0.632539 0.814557
0.816723 0.651177 0.800250
0.144242 0.578866 0.857464
0.213225 0.579217 0.855819
0.388574 0.580962 0.850448
0.544901 0.585596 0.842318
0.638251 0.594491 0.832624
0.696012 0.608096 0.819021
0.742054 0.625895 0.806796
0.779437 0.644580 0.796109
0.805035 0.662203 0.786708
0.164590 0.603844 0.815644
0.212187 0.603707 0.813974
0.346985 0.603940 0.808649
0.489369 0.606626 0.801031
0.592727 0.614033 0.793165
0.664874 0.627120 0.786359
0.714613 0.643337 0.780797
0.759776 0.659974 0.776013
0.792004 0.677780 0.771465
0.195147 0.645721 0.786298
0.233197 0.645059 0.784793
0.339236 0.643263 0.779934
0.463111 0.642000 0.772917
0.565726 0.643885 0.766011
0.638403 0.651165 0.761276
0.692854 0.664088 0.759171
0.740377 0.680653 0.758439
0.780463 0.698442 0.757469
0.239911 0.692195 0.773297
0.272304 0.691400 0.772063
0.356600 0.688933 0.767959
0.466546 0.685785 0.761580
0.559857 0.683788 0.753156
0.625759 0.685194 0.745027
0.680206 0.692987 0.741135
0.727664 0.707198 0.742361
0.772502 0.723275 0.744446
0.288114 0.736021 0.765237
0.312239 0.735495 0.764394
0.383894 0.733839 0.761557
0.482137 0.731629 0.756651
0.568043 0.729971 0.749696
0.631241 0.730092 0.742942
0.680941 0.733037 0.737521
0.722793 0.739512 0.734232
0.768368 0.751541 0.737868
0.329785 0.766456 0.756193
0.349551 0.766254 0.755533
0.411053 0.765639 0.753308
0.497147 0.764920 0.749754
0.576120 0.764681 0.745544
0.638484 0.765609 0.741522
0.686269 0.768334 0.738490
0.728640 0.773314 0.737061
0.770196 0.780652 0.737440
0.074790 0.384923 0.895182
0.152158 0.396623 0.895206
0.386483 0.430247 0.895289
0.582143 0.484049 0.895443
0.689578 0.549163 0.895673
0.766329 0.605561 0.895982
0.791745 0.621675 0.879504
0.811581 0.638668 0.862484
0.829348 0.653664 0.848332
0.080591 0.419851 0.895202
0.159570 0.428695 0.895226
0.390815 0.458914 0.895309
0.583617 0.509394 0.895463
0.690237 0.564639 0.895693
0.759866 0.609712 0.892960
0.787851 0.624505 0.876101
0.808612 0.640624 0.860013
0.827099 0.655459 0.846537
0.103838 0.517007 0.895274
0.186947 0.524054 0.895297
0.406080 0.545329 0.895381
0.588843 0.574946 0.895535
0.689019 0.609409 0.894030
0.737614 0.619810 0.880096
0.775276 0.633519 0.865036
0.798867 0.647130 0.851864
0.819633 0.661604 0.840554
0.153277 0.612872 0.892984
0.228533 0.613166 0.891853
0.408663 0.614494 0.888066
0.564617 0.617805 0.879565
0.653945 0.624113 0.869313
0.706636 0.633990 0.858679
0.750938 0.645047 0.848570
0.784128 0.657762 0.839395
0.808077 0.672073 0.829790
0.175244 0.632696 0.858017
0.227380 0.632847 0.857039
0.366001 0.633741 0.853792
0.510014 0.636511 0.848710
0.609450 0.641193 0.842695
0.676154 0.648841 0.836556
0.723880 0.659419 0.829099
0.766494 0.672338 0.821030
0.794963 0.686787 0.813553
0.201594 0.659028 0.832985
0.242040 0.658856 0.831832
0.350468 0.658579 0.828046
0.478754 0.659238 0.822322
0.579164 0.662277 0.816019
0.652781 0.668766 0.810325
0.701558 0.678844 0.805712
0.746523 0.691744 0.801929
0.783015 0.705591 0.798425
0.240202 0.696081 0.812581
0.272805 0.695677 0.811592
0.358410 0.694517 0.808300
0.471401 0.693433 0.803191
0.566244 0.693897 0.797447
0.634833 0.697518 0.792454
0.687348 0.704830 0.789228
0.732693 0.715806 0.787702
0.774318 0.728874 0.786814
0.284970 0.735429 0.801372
0.308958 0.735097 0.800634
0.380833 0.734083 0.798142
0.480268 0.732874 0.794147
0.567640 0.732391 0.789368
0.632190 0.733725 0.784726
0.682829 0.737982 0.781176
0.726491 0.745048 0.779690
0.769465 0.754350 0.780030
0.326148 0.765449 0.792224
0.346118 0.765327 0.791759
0.407316 0.764981 0.790183
0.494216 0.764678 0.787645
0.574270 0.764914 0.784594
0.637061 0.766283 0.781621
0.685580 0.769344 0.779311
0.728202 0.774534 0.778139
0.770100 0.782128 0.778432
