negative-ultramax-400/Ultramax400_Modern_ExtraPunchy.cube
TITLE "Kodak Ultramax 400 Modern ExtraPunchy"
# Adobe RGB in/out. REPLACES AgX. Kodak Ultramax 400 Modern ExtraPunchy.
LUT_3D_SIZE 33
DOMAIN_MIN 0.0 0.0 0.0
DOMAIN_MAX 1.0 1.0 1.0
0.069662 0.073299 0.081842
0.071406 0.073615 0.080470
0.080851 0.079473 0.078150
0.099800 0.086184 0.078689
0.136694 0.094937 0.079392
0.189518 0.106444 0.080258
0.256163 0.121686 0.081087
0.316012 0.141222 0.081927
0.371947 0.162425 0.083448
0.426507 0.183552 0.085366
0.478642 0.209874 0.087365
0.519813 0.237433 0.089909
0.559863 0.265301 0.092534
0.587779 0.292234 0.095529
0.613921 0.316986 0.098643
0.638899 0.341827 0.102542
0.659880 0.366417 0.107059
0.675892 0.390724 0.111411
0.691098 0.412400 0.115756
0.705564 0.431585 0.120692
0.719347 0.450305 0.125492
0.732519 0.468602 0.130168
0.745148 0.486517 0.134731
0.757267 0.504053 0.140534
0.768907 0.521216 0.146267
0.777553 0.537824 0.151912
0.785142 0.549505 0.157468
0.792417 0.560834 0.163327
0.799397 0.571821 0.169222
0.806098 0.582479 0.175931
0.812534 0.592817 0.182951
0.818718 0.602846 0.189905
0.824664 0.612575 0.196787
0.067781 0.076898 0.081374
0.069763 0.076134 0.080609
0.077026 0.080459 0.078052
0.093737 0.087033 0.078598
0.129707 0.095876 0.079302
0.181824 0.107213 0.080188
0.247756 0.122506 0.081020
0.309754 0.142129 0.081815
0.367134 0.163289 0.083353
0.422360 0.184362 0.085262
0.475877 0.210863 0.087284
0.517421 0.238376 0.089806
0.557766 0.266197 0.092449
0.586483 0.292982 0.095431
0.612783 0.317701 0.098559
0.637890 0.342500 0.102425
0.659247 0.367051 0.106954
0.675328 0.391323 0.111317
0.690593 0.412862 0.115652
0.705109 0.432018 0.120597
0.718935 0.450712 0.125405
0.732146 0.468988 0.130088
0.744809 0.486884 0.134658
0.756958 0.504403 0.140445
0.768624 0.521550 0.146184
0.777370 0.538052 0.151835
0.784974 0.549722 0.157396
0.792263 0.561040 0.163254
0.799255 0.572018 0.169152
0.805967 0.582667 0.175852
0.812412 0.592997 0.182876
0.818606 0.603019 0.189834
0.824560 0.612741 0.196720
0.069030 0.087255 0.078257
0.071382 0.086556 0.078141
0.075393 0.085508 0.078122
0.085470 0.089721 0.078463
0.112652 0.098222 0.079075
0.160745 0.109322 0.079986
0.222765 0.124975 0.080815
0.290387 0.145150 0.081604
0.351645 0.166221 0.083050
0.408685 0.187353 0.084923
0.465519 0.214299 0.087012
0.509263 0.241670 0.089461
0.550550 0.269342 0.092160
0.581985 0.295613 0.095098
0.608813 0.320224 0.098269
0.634357 0.344881 0.102017
0.657019 0.369300 0.106588
0.673340 0.393450 0.110986
0.688809 0.414503 0.115288
0.703499 0.433559 0.120263
0.717475 0.452164 0.125096
0.730823 0.470366 0.129805
0.743605 0.488195 0.134397
0.755858 0.505653 0.140130
0.767618 0.522744 0.145891
0.776717 0.538868 0.151562
0.784375 0.550498 0.157140
0.791713 0.561779 0.162992
0.798748 0.572722 0.168907
0.805498 0.583340 0.175570
0.811979 0.593642 0.182609
0.818205 0.603637 0.189582
0.824188 0.613334 0.196482
0.070822 0.102011 0.078403
0.072703 0.101466 0.078427
0.077865 0.099873 0.078505
0.085020 0.098544 0.078642
0.099807 0.102065 0.078965
0.139783 0.112587 0.079783
0.194476 0.129261 0.080582
0.263688 0.150327 0.081414
0.328215 0.171224 0.082680
0.387763 0.193489 0.084417
0.446164 0.220272 0.086592
0.495867 0.247438 0.088910
0.538466 0.274884 0.091686
0.574305 0.300268 0.094542
0.601958 0.324711 0.097780
0.628204 0.349132 0.101322
0.653082 0.373330 0.105957
0.669827 0.397274 0.110412
0.685640 0.417455 0.114698
0.700628 0.436339 0.119675
0.714866 0.454791 0.124553
0.728451 0.472864 0.129304
0.741441 0.490575 0.133935
0.753879 0.507926 0.139570
0.765802 0.524918 0.145367
0.775536 0.540353 0.151072
0.783291 0.551911 0.156682
0.790715 0.563126 0.162522
0.797828 0.574009 0.168465
0.804649 0.584571 0.175062
0.811193 0.594821 0.182128
0.817475 0.604768 0.189127
0.823510 0.614420 0.196051
0.072994 0.125990 0.078933
0.074831 0.125174 0.078953
0.081223 0.122571 0.079038
0.090212 0.119110 0.079187
0.104125 0.117049 0.079385
0.129226 0.122149 0.079797
0.174746 0.138634 0.080496
0.236129 0.158362 0.081273
0.302611 0.178522 0.082349
0.364255 0.202288 0.083959
0.423148 0.228755 0.086121
0.479101 0.255618 0.088259
0.522881 0.282759 0.091103
0.564102 0.306890 0.093836
0.592690 0.331123 0.097142
0.619767 0.355233 0.100401
0.645476 0.379137 0.105109
0.664895 0.402664 0.109629
0.681160 0.421731 0.113975
0.696544 0.440377 0.118858
0.711139 0.458623 0.123794
0.725048 0.476518 0.128600
0.738326 0.494065 0.133282
0.751020 0.511265 0.138776
0.763172 0.528117 0.144622
0.773820 0.542540 0.150373
0.781713 0.553995 0.156025
0.789260 0.565115 0.161847
0.796484 0.575910 0.167829
0.803405 0.586391 0.174330
0.810039 0.596566 0.181434
0.816404 0.606443 0.188468
0.822514 0.616031 0.195426
0.077107 0.176572 0.079940
0.079618 0.175288 0.079958
0.086880 0.170820 0.080009
0.100229 0.163275 0.080067
0.117740 0.154191 0.080118
0.137303 0.149827 0.080262
0.165288 0.153795 0.080572
0.217652 0.170511 0.081254
0.281744 0.189518 0.082179
0.342661 0.214284 0.083699
0.400316 0.239990 0.085719
0.458691 0.266283 0.087731
0.505666 0.291876 0.090512
0.548644 0.315520 0.093173
0.581788 0.339384 0.096439
0.609652 0.363109 0.099593
0.636101 0.386652 0.104124
0.658794 0.408532 0.108704
0.675560 0.427282 0.113107
0.691396 0.445638 0.117866
0.706417 0.463642 0.122864
0.720710 0.481318 0.127731
0.734334 0.498662 0.132469
0.747340 0.515673 0.137782
0.759773 0.532349 0.143684
0.771593 0.545433 0.149488
0.779658 0.556756 0.155191
0.787361 0.567755 0.160985
0.794725 0.578438 0.167014
0.801774 0.588814 0.173390
0.808525 0.598892 0.180539
0.814996 0.608679 0.187617
0.821202 0.618183 0.194618
0.082384 0.236111 0.080788
0.085133 0.236976 0.080837
0.094003 0.230203 0.080862
0.111414 0.216073 0.080846
0.130729 0.199880 0.080829
0.151971 0.189017 0.080903
0.176997 0.185318 0.081087
0.208213 0.187385 0.081368
0.267560 0.207622 0.082238
0.324469 0.230268 0.083621
0.380561 0.254501 0.085488
0.437112 0.279743 0.087441
0.488664 0.302988 0.090019
0.531734 0.326164 0.092668
0.570154 0.349472 0.095761
0.598600 0.372709 0.098933
0.625659 0.395811 0.103103
0.651418 0.415667 0.107717
0.669115 0.434047 0.112161
0.685419 0.452081 0.116772
0.700888 0.469811 0.121826
0.715593 0.487232 0.126748
0.729594 0.504340 0.131541
0.742945 0.521130 0.136639
0.755694 0.537533 0.142597
0.767884 0.549022 0.148455
0.777168 0.560189 0.154211
0.785051 0.571042 0.159969
0.792581 0.581591 0.166049
0.799779 0.591841 0.172273
0.806668 0.601802 0.179472
0.813265 0.611479 0.186599
0.819587 0.620880 0.193647
0.087465 0.292534 0.081527
0.090814 0.293207 0.081562
0.102723 0.290708 0.081619
0.121425 0.274867 0.081568
0.142886 0.257368 0.081540
0.165735 0.243086 0.081566
0.192523 0.234111 0.081665
0.223744 0.230948 0.082024
0.261072 0.232942 0.082584
0.311754 0.250731 0.083749
0.365290 0.272811 0.085485
0.418967 0.294924 0.087316
0.473304 0.316586 0.089708
0.515732 0.338921 0.092288
0.557425 0.361459 0.095196
0.587352 0.384053 0.098345
0.614785 0.405774 0.102148
0.640985 0.424026 0.106759
0.662145 0.441983 0.111216
0.678891 0.459674 0.115661
0.694785 0.477093 0.120751
0.709892 0.494228 0.125715
0.724271 0.511069 0.130553
0.737975 0.527611 0.135410
0.751053 0.541989 0.141417
0.763548 0.553286 0.147324
0.774302 0.564275 0.153130
0.782382 0.574963 0.158841
0.790092 0.585357 0.164971
0.797458 0.595463 0.171020
0.804500 0.605288 0.178269
0.811238 0.614839 0.185445
0.817692 0.624120 0.192543
0.094884 0.346339 0.082809
0.098494 0.346945 0.082872
0.111756 0.342147 0.082909
0.130873 0.328359 0.082815
0.154060 0.312824 0.082749
0.179680 0.298660 0.082761
0.207468 0.287749 0.082888
0.240353 0.280708 0.083173
0.275337 0.278149 0.083632
0.308886 0.280039 0.084268
0.354566 0.293773 0.085714
0.404917 0.312655 0.087382
0.457526 0.332945 0.089631
0.501578 0.353986 0.092089
0.542448 0.375485 0.094816
0.576551 0.397230 0.097891
0.604064 0.415939 0.101352
0.630482 0.433613 0.105914
0.655000 0.451114 0.110355
0.672102 0.468409 0.114671
0.688358 0.485472 0.119717
0.703824 0.502282 0.124700
0.718552 0.518824 0.129563
0.732592 0.535089 0.134308
0.745990 0.547121 0.140205
0.758787 0.558205 0.146150
0.771024 0.568997 0.151997
0.779416 0.579500 0.157742
0.787315 0.589722 0.163823
0.794856 0.599667 0.169902
0.802062 0.609340 0.176974
0.808953 0.618748 0.184198
0.815547 0.627896 0.191344
0.105900 0.402264 0.084516
0.109569 0.400818 0.084520
0.121594 0.393000 0.084431
0.140637 0.380594 0.084309
0.164315 0.365791 0.084211
0.192263 0.351006 0.084195
0.222797 0.338206 0.084311
0.256494 0.328667 0.084592
0.288752 0.322973 0.085051
0.321139 0.321130 0.085678
0.354141 0.322746 0.086445
0.394772 0.333655 0.087631
0.444395 0.352053 0.089803
0.489756 0.371506 0.092096
0.529350 0.391694 0.094663
0.566679 0.410473 0.097621
0.593988 0.427492 0.100790
0.620421 0.444523 0.105264
0.645947 0.461482 0.109649
0.665329 0.478308 0.113932
0.681854 0.494955 0.118795
0.697607 0.511393 0.123768
0.712630 0.527598 0.128634
0.726965 0.541778 0.133391
0.740654 0.552909 0.139027
0.753735 0.563760 0.144993
0.766244 0.574335 0.150866
0.776224 0.584637 0.156642
0.784312 0.594669 0.162655
0.792030 0.604437 0.168771
0.799403 0.613945 0.175638
0.806450 0.623197 0.182902
0.813192 0.632196 0.190090
0.116758 0.442356 0.086361
0.120211 0.440746 0.086341
0.131494 0.435264 0.086275
0.150596 0.426281 0.086182
0.175077 0.415044 0.086099
0.203769 0.403102 0.086069
0.236803 0.389690 0.086130
0.271219 0.378340 0.086313
0.301690 0.370087 0.086634
0.333557 0.365255 0.087097
0.364366 0.363784 0.087692
0.396301 0.365356 0.088676
0.434662 0.373817 0.090205
0.480354 0.391508 0.092314
0.518403 0.408691 0.094759
0.556626 0.424481 0.097566
0.584972 0.440582 0.100529
0.611179 0.456843 0.104870
0.636629 0.473150 0.109156
0.658815 0.489414 0.113368
0.675497 0.505573 0.118049
0.691446 0.521579 0.122979
0.706690 0.537388 0.127820
0.721263 0.548491 0.132565
0.735196 0.559342 0.137944
0.748524 0.569937 0.143909
0.761279 0.580275 0.149790
0.772881 0.590357 0.155581
0.781148 0.600185 0.161517
0.789039 0.609761 0.167656
0.796575 0.619089 0.174311
0.803778 0.628171 0.181605
0.810667 0.636956 0.188826
0.127911 0.480387 0.088054
0.131005 0.479013 0.088031
0.142121 0.474287 0.087955
0.160457 0.466383 0.087861
0.185624 0.456185 0.087793
0.215345 0.444898 0.087759
0.249634 0.433731 0.087790
0.282814 0.423700 0.087923
0.313740 0.415540 0.088278
0.344840 0.409694 0.088814
0.374617 0.406330 0.089529
0.405599 0.405391 0.090412
0.437944 0.406669 0.091437
0.473226 0.411750 0.092726
0.509733 0.425658 0.095109
0.546642 0.440232 0.097747
0.577231 0.455282 0.100600
0.603003 0.470644 0.104768
0.628176 0.486181 0.108917
0.652626 0.501784 0.113023
0.669477 0.517369 0.117531
0.685520 0.532872 0.122384
0.700901 0.545116 0.127170
0.715639 0.555876 0.131877
0.729759 0.566417 0.137014
0.743287 0.576729 0.142952
0.756248 0.586809 0.148820
0.768670 0.596652 0.154607
0.777894 0.606258 0.160456
0.785944 0.615627 0.166605
0.793634 0.624760 0.173046
0.800986 0.633659 0.180356
0.808018 0.641101 0.187599
0.139283 0.517052 0.090366
0.142403 0.515866 0.090348
0.152965 0.511760 0.090291
0.170847 0.504782 0.090206
0.195936 0.495563 0.090120
0.226716 0.485035 0.090071
0.261503 0.474197 0.090095
0.293411 0.463955 0.090225
0.324769 0.455027 0.090485
0.354963 0.447916 0.090893
0.384508 0.442924 0.091456
0.414948 0.440155 0.092171
0.446527 0.439552 0.093026
0.477145 0.440944 0.094208
0.503208 0.444378 0.095698
0.538750 0.457684 0.098156
0.570832 0.471597 0.101006
0.596018 0.485957 0.104973
0.620752 0.500619 0.108955
0.644957 0.515462 0.112924
0.663937 0.530386 0.117277
0.679974 0.543029 0.122023
0.695402 0.553563 0.126724
0.710229 0.563938 0.131366
0.724469 0.574135 0.136285
0.738140 0.584136 0.142171
0.751261 0.593932 0.148001
0.763853 0.603514 0.153765
0.774614 0.612880 0.159519
0.782805 0.622025 0.165659
0.790635 0.630949 0.171893
0.798124 0.639017 0.179202
0.805290 0.645622 0.186452
0.151078 0.548045 0.092495
0.153934 0.547314 0.092482
0.163692 0.544763 0.092438
0.181853 0.540365 0.092373
0.206092 0.533254 0.092305
0.237684 0.523522 0.092263
0.272081 0.513197 0.092276
0.303124 0.503070 0.092371
0.334878 0.493815 0.092570
0.364369 0.485951 0.092891
0.393953 0.479833 0.093342
0.424175 0.475654 0.094105
0.455276 0.473466 0.095073
0.483271 0.473207 0.096205
0.508341 0.474732 0.097483
0.533903 0.477849 0.098882
0.565726 0.489460 0.101733
0.590240 0.502759 0.105483
0.614426 0.516470 0.109276
0.638204 0.530471 0.113085
0.658974 0.542561 0.117309
0.674913 0.552679 0.121920
0.690303 0.562734 0.126510
0.705142 0.572684 0.131063
0.719434 0.582500 0.135797
0.733188 0.592159 0.141606
0.746416 0.601644 0.147375
0.759134 0.610942 0.153091
0.771358 0.620046 0.158746
0.779679 0.628950 0.164858
0.787630 0.637454 0.170903
0.795241 0.644072 0.178188
0.802528 0.650510 0.185429
0.162631 0.572009 0.094836
0.165257 0.571380 0.094823
0.175452 0.569179 0.094779
0.192867 0.565349 0.094713
0.217272 0.560101 0.094644
0.248455 0.553815 0.094601
0.281069 0.546953 0.094615
0.312211 0.539988 0.094718
0.343670 0.531764 0.094934
0.373084 0.523506 0.095286
0.402816 0.516641 0.095788
0.433012 0.511418 0.096448
0.463871 0.507964 0.097267
0.489432 0.506300 0.098240
0.513946 0.506365 0.099355
0.538890 0.508032 0.100954
0.563500 0.511142 0.103116
0.585608 0.520970 0.106279
0.609186 0.533694 0.109873
0.632456 0.544087 0.113506
0.654637 0.553562 0.117637
0.670402 0.563096 0.122091
0.685679 0.572629 0.126548
0.700458 0.582115 0.130988
0.714736 0.591514 0.135579
0.728513 0.600798 0.141286
0.741795 0.609944 0.146971
0.754591 0.618933 0.152620
0.766913 0.627755 0.158221
0.776618 0.636398 0.164237
0.784669 0.643071 0.170247
0.792382 0.649498 0.177352
0.799774 0.655758 0.184568
0.175053 0.594802 0.097335
0.177808 0.594258 0.097326
0.187391 0.592349 0.097294
0.203878 0.589001 0.097245
0.228597 0.584363 0.097196
0.259113 0.578724 0.097167
0.289751 0.572450 0.097185
0.320783 0.565936 0.097274
0.351533 0.559560 0.097457
0.381115 0.553655 0.097753
0.411019 0.548491 0.098176
0.441295 0.544272 0.098736
0.471581 0.541131 0.099438
0.495428 0.539134 0.100450
0.519536 0.538289 0.102010
0.543986 0.538553 0.103778
0.566723 0.539849 0.105735
0.584439 0.542078 0.107860
0.604961 0.547924 0.110727
0.627683 0.556534 0.114178
0.650109 0.565334 0.118256
0.666468 0.574254 0.122538
0.681571 0.583234 0.126844
0.696231 0.592221 0.131154
0.710436 0.601172 0.135650
0.724181 0.610050 0.141233
0.737465 0.618829 0.146814
0.750292 0.627485 0.152375
0.762668 0.636002 0.157903
0.773668 0.642688 0.163825
0.781793 0.649062 0.169781
0.789589 0.655287 0.176731
0.797068 0.661359 0.183903
0.187662 0.616498 0.099684
0.190237 0.616026 0.099678
0.199234 0.614362 0.099655
0.215766 0.611428 0.099622
0.239934 0.607325 0.099590
0.269682 0.602274 0.099576
0.298169 0.596567 0.099600
0.328927 0.590531 0.099683
0.358854 0.584490 0.099845
0.388510 0.578741 0.100168
0.418553 0.573536 0.100752
0.448946 0.569077 0.101527
0.477434 0.565513 0.102504
0.501110 0.562936 0.103687
0.524944 0.561388 0.105076
0.549025 0.560865 0.106663
0.569973 0.561329 0.108436
0.587312 0.562713 0.110378
0.604672 0.564932 0.112471
0.623811 0.569691 0.115113
0.645744 0.577816 0.119152
0.663108 0.586111 0.123254
0.677994 0.594518 0.127397
0.692485 0.602982 0.131563
0.706567 0.611458 0.136018
0.720231 0.619906 0.141462
0.733471 0.628293 0.146920
0.746285 0.636593 0.152375
0.758675 0.643013 0.157813
0.770645 0.649281 0.163642
0.779040 0.655423 0.169528
0.786897 0.661433 0.176351
0.794443 0.667305 0.183463
0.200066 0.637075 0.103042
0.202480 0.636751 0.103035
0.211396 0.635296 0.103011
0.228006 0.632717 0.102978
0.251259 0.629084 0.102950
0.278422 0.624565 0.102949
0.306368 0.619394 0.103001
0.336716 0.613840 0.103134
0.365709 0.608179 0.103375
0.395332 0.602671 0.103747
0.425448 0.597548 0.104271
0.455944 0.593004 0.104964
0.482802 0.589190 0.105836
0.506386 0.586213 0.106894
0.530045 0.584137 0.108141
0.553867 0.582988 0.109574
0.573149 0.582757 0.111184
0.590176 0.583406 0.112961
0.607208 0.584878 0.114891
0.624244 0.587102 0.117395
0.642183 0.590929 0.120303
0.660294 0.598605 0.124223
0.674934 0.606434 0.128198
0.689223 0.614365 0.132211
0.703145 0.622349 0.136685
0.716688 0.630347 0.141975
0.729843 0.637979 0.147296
0.742605 0.644151 0.152631
0.754971 0.650245 0.157963
0.766942 0.656247 0.163707
0.776439 0.662144 0.169507
0.784334 0.667928 0.176236
0.791929 0.673590 0.183271
0.212848 0.652391 0.106420
0.215388 0.652111 0.106416
0.224344 0.651121 0.106403
0.240188 0.649359 0.106387
0.262540 0.646858 0.106379
0.287167 0.643717 0.106398
0.314378 0.640078 0.106466
0.343629 0.635930 0.106604
0.372166 0.630669 0.106837
0.401649 0.625458 0.107185
0.431755 0.620505 0.107666
0.462310 0.615991 0.108297
0.487673 0.612064 0.109087
0.511205 0.608836 0.110046
0.534759 0.606387 0.111177
0.558405 0.604760 0.112479
0.576170 0.603970 0.113949
0.592949 0.604003 0.115722
0.609707 0.604825 0.117888
0.626456 0.606385 0.120230
0.643195 0.608624 0.122731
0.657982 0.611664 0.125425
0.672363 0.618924 0.129231
0.686428 0.626320 0.133088
0.700163 0.633807 0.137643
0.713556 0.640335 0.142770
0.726594 0.646210 0.147944
0.739271 0.652055 0.153146
0.751580 0.657849 0.158360
0.763520 0.663574 0.164028
0.774012 0.669216 0.169729
0.781925 0.674762 0.176401
0.789548 0.680205 0.183346
0.226236 0.666894 0.109645
0.228643 0.666650 0.109644
0.237152 0.665785 0.109640
0.252274 0.664241 0.109638
0.272998 0.662037 0.109649
0.295787 0.659250 0.109687
0.322216 0.655992 0.109769
0.350161 0.652403 0.109916
0.378281 0.648635 0.110147
0.407525 0.644840 0.110480
0.437532 0.641163 0.110931
0.468081 0.637733 0.111516
0.492058 0.634072 0.112243
0.515552 0.630717 0.113123
0.539039 0.628024 0.114159
0.562300 0.626052 0.115446
0.578973 0.624830 0.117089
0.595562 0.624364 0.118921
0.612100 0.624639 0.120937
0.628608 0.625623 0.123125
0.645095 0.627272 0.125473
0.659013 0.629535 0.127967
0.670533 0.632355 0.130594
0.684071 0.638346 0.134178
0.697604 0.643794 0.138878
0.710825 0.649290 0.143838
0.723723 0.654808 0.148858
0.736288 0.660321 0.153920
0.748514 0.665806 0.159030
0.760395 0.671246 0.164610
0.771774 0.676623 0.170200
0.779685 0.681924 0.176858
0.787319 0.687139 0.183699
0.239406 0.680636 0.112725
0.241692 0.680422 0.112725
0.249786 0.679665 0.112729
0.264228 0.678309 0.112740
0.282359 0.676366 0.112767
0.304271 0.673893 0.112821
0.329889 0.670981 0.112919
0.356473 0.667743 0.113076
0.384099 0.664308 0.113309
0.413014 0.660804 0.113634
0.442835 0.657359 0.114065
0.472518 0.654088 0.114615
0.495984 0.651095 0.115375
0.519433 0.648466 0.116367
0.542868 0.646269 0.117535
0.564960 0.644555 0.118883
0.581518 0.643357 0.120411
0.597962 0.642691 0.122119
0.614328 0.642558 0.124002
0.630640 0.642946 0.126052
0.646916 0.643831 0.128261
0.660138 0.645183 0.130616
0.671495 0.646965 0.133106
0.682745 0.649141 0.135998
0.695437 0.653456 0.140374
0.708475 0.658576 0.145166
0.721216 0.663739 0.150029
0.733651 0.668918 0.154944
0.745772 0.674093 0.160004
0.757573 0.679242 0.165452
0.769048 0.684349 0.170922
0.777624 0.689398 0.177610
0.785253 0.694378 0.184337
0.252332 0.693660 0.115823
0.254506 0.693473 0.115826
0.262214 0.692810 0.115838
0.274915 0.691618 0.115864
0.291551 0.689903 0.115914
0.312605 0.687710 0.116000
0.337400 0.685111 0.116136
0.362586 0.682199 0.116340
0.389655 0.679080 0.116629
0.418164 0.675865 0.117020
0.447718 0.672665 0.117528
0.476125 0.669582 0.118169
0.499485 0.666711 0.118953
0.522868 0.664132 0.119891
0.546250 0.661912 0.120991
0.567309 0.660105 0.122256
0.583779 0.658747 0.123690
0.600114 0.657862 0.125292
0.616347 0.657459 0.127060
0.632504 0.657536 0.128989
0.648606 0.658080 0.131071
0.661194 0.659072 0.133299
0.672408 0.660483 0.135926
0.683518 0.662282 0.139175
0.694520 0.664437 0.142590
0.706477 0.668148 0.146737
0.719054 0.672964 0.151442
0.731346 0.677815 0.156209
0.743348 0.682680 0.161237
0.755051 0.687539 0.166549
0.766450 0.692373 0.172103
0.775747 0.697167 0.178659
0.783356 0.701544 0.185264
0.264991 0.705320 0.119238
0.267060 0.705169 0.119243
0.273558 0.704633 0.119261
0.284674 0.703668 0.119300
0.300556 0.702275 0.119365
0.320776 0.700485 0.119469
0.344117 0.698351 0.119622
0.368511 0.695828 0.119841
0.394975 0.693008 0.120139
0.423013 0.690075 0.120532
0.452228 0.687124 0.121033
0.479385 0.684246 0.121656
0.502598 0.681527 0.122411
0.525885 0.679041 0.123307
0.549199 0.676851 0.124352
0.569350 0.675011 0.125550
0.585748 0.673559 0.126905
0.601997 0.672524 0.128418
0.618127 0.671922 0.130088
0.634162 0.671757 0.131911
0.650124 0.672025 0.133882
0.662152 0.672715 0.136361
0.673245 0.673806 0.139297
0.684230 0.675275 0.142412
0.695110 0.677094 0.145693
0.705883 0.679236 0.149130
0.717208 0.682444 0.153082
0.729353 0.686976 0.157702
0.741225 0.691537 0.162719
0.752818 0.696108 0.167891
0.764127 0.700404 0.173581
0.774053 0.704584 0.179999
0.781631 0.708725 0.186476
0.276051 0.716091 0.122511
0.277715 0.715958 0.122518
0.283617 0.715488 0.122542
0.294187 0.714641 0.122591
0.309355 0.713414 0.122671
0.328769 0.711832 0.122790
0.350595 0.709936 0.122960
0.374254 0.707785 0.123193
0.400079 0.705446 0.123502
0.427593 0.702994 0.123900
0.456404 0.700504 0.124398
0.482336 0.698051 0.125009
0.505359 0.695568 0.125743
0.528515 0.693205 0.126607
0.551739 0.691085 0.127609
0.571092 0.689260 0.128753
0.587424 0.687770 0.130044
0.603602 0.686644 0.131482
0.619649 0.685903 0.133069
0.635588 0.685558 0.134805
0.651439 0.685610 0.137247
0.662986 0.686053 0.139878
0.673978 0.686876 0.142694
0.684859 0.688062 0.145685
0.695632 0.689588 0.148842
0.706299 0.691431 0.152156
0.716858 0.693567 0.155617
0.727645 0.696363 0.159468
0.739383 0.700368 0.164435
0.750860 0.704318 0.169467
0.762069 0.708271 0.175345
0.772537 0.712213 0.181623
0.780074 0.716130 0.187968
0.286197 0.726287 0.125646
0.287775 0.726172 0.125654
0.293378 0.725760 0.125684
0.303439 0.725015 0.125742
0.317932 0.723936 0.125834
0.336570 0.722539 0.125968
0.356899 0.720859 0.126153
0.379819 0.718943 0.126400
0.404979 0.716847 0.126721
0.431927 0.714635 0.127125
0.460281 0.712372 0.127624
0.485008 0.710122 0.128228
0.507801 0.707947 0.128947
0.530792 0.705904 0.129787
0.553897 0.704045 0.130755
0.572551 0.702413 0.131857
0.588814 0.701046 0.133095
0.604927 0.699970 0.134471
0.620905 0.699208 0.136350
0.636766 0.698774 0.138510
0.652480 0.698671 0.140856
0.663679 0.698902 0.143385
0.674588 0.699459 0.146092
0.685381 0.700332 0.148971
0.696063 0.701506 0.152015
0.706638 0.702963 0.155215
0.717106 0.704684 0.158562
0.727468 0.706650 0.162358
0.737800 0.708925 0.166370
0.749156 0.712621 0.171337
0.760260 0.716331 0.177383
0.771107 0.720040 0.183521
0.778681 0.723736 0.189732
0.296007 0.735940 0.128645
0.297505 0.735838 0.128655
0.302832 0.735477 0.128690
0.312418 0.734825 0.128756
0.326273 0.733877 0.128859
0.343593 0.732646 0.129006
0.363021 0.731161 0.129205
0.385204 0.729459 0.129466
0.409684 0.727589 0.129797
0.436034 0.725603 0.130210
0.463886 0.723558 0.130712
0.487430 0.721509 0.131313
0.509956 0.719512 0.132022
0.532745 0.717618 0.132844
0.555701 0.715874 0.133786
0.573743 0.714319 0.134874
0.589931 0.712990 0.136430
0.605979 0.711916 0.138161
0.621894 0.711116 0.140069
0.637689 0.710609 0.142155
0.653244 0.710401 0.144419
0.664217 0.710497 0.146859
0.675058 0.710895 0.149471
0.685778 0.711589 0.152250
0.696384 0.712567 0.155191
0.706881 0.713817 0.158286
0.717270 0.715322 0.161790
0.727554 0.717067 0.165494
0.737730 0.719033 0.169348
0.747798 0.721202 0.173869
0.758682 0.724556 0.179680
0.769434 0.728040 0.185678
0.777442 0.731519 0.191757
0.305476 0.744084 0.131512
0.306901 0.744015 0.131523
0.311970 0.743770 0.131562
0.321111 0.743326 0.131635
0.334363 0.742679 0.131748
0.350256 0.741837 0.131907
0.368955 0.740817 0.132120
0.390409 0.739370 0.132393
0.414199 0.737708 0.132736
0.439928 0.735935 0.133157
0.467241 0.734098 0.133664
0.489625 0.732247 0.134265
0.511850 0.730429 0.135021
0.534405 0.728691 0.136075
0.557181 0.727074 0.137279
0.574687 0.725617 0.138639
0.590790 0.724352 0.140160
0.606768 0.723308 0.141846
0.622621 0.722505 0.143701
0.638354 0.721960 0.145725
0.653670 0.721686 0.147919
0.664591 0.721687 0.150282
0.675377 0.721965 0.152811
0.686038 0.722518 0.155502
