negative-ultramax-400/Ultramax400_Modern_Punchy.cube
TITLE "Kodak Ultramax 400 Modern Punchy"
# Adobe RGB in/out. REPLACES AgX. Kodak Ultramax 400 Modern Punchy.
LUT_3D_SIZE 5
DOMAIN_MIN 0.0 0.0 0.0
DOMAIN_MAX 1.0 1.0 1.0
0.070208 0.083169 0.079619
0.368111 0.155058 0.090831
0.706874 0.350737 0.116662
0.833686 0.521420 0.156150
0.891072 0.627246 0.202756
0.120976 0.328760 0.090101
0.276470 0.258007 0.091029
0.642890 0.407427 0.111231
0.810084 0.549442 0.149880
0.882853 0.641701 0.198381
0.204241 0.630951 0.109668
0.354523 0.599333 0.109884
0.591486 0.568289 0.118111
0.769397 0.626192 0.145544
0.863653 0.684812 0.191998
0.286208 0.753814 0.134120
0.402495 0.742251 0.135033
0.620176 0.722957 0.141991
0.758536 0.723518 0.162088
0.846837 0.750686 0.197081
0.348771 0.814778 0.159642
0.436315 0.812816 0.161763
0.624189 0.808889 0.170653
0.757138 0.808614 0.188608
0.838292 0.814679 0.215619
0.073973 0.099080 0.386397
0.378401 0.172857 0.393550
0.697409 0.349932 0.361757
0.825781 0.514639 0.357567
0.887819 0.623430 0.366694
0.109997 0.267629 0.307077
0.213733 0.198317 0.195940
0.614014 0.387429 0.281083
0.801229 0.539613 0.325954
0.879593 0.637476 0.353464
0.191807 0.608993 0.327620
0.330451 0.571148 0.286726
0.562069 0.542267 0.248147
0.760671 0.616770 0.279266
0.860496 0.680608 0.323026
0.279391 0.745340 0.314297
0.392694 0.734326 0.302418
0.609485 0.715771 0.282432
0.753744 0.717899 0.282613
0.844165 0.748054 0.310830
0.345820 0.813277 0.298453
0.432795 0.811419 0.296492
0.620969 0.807762 0.294366
0.755875 0.807895 0.301301
0.837767 0.814554 0.321799
0.078969 0.149993 0.748285
0.379267 0.225935 0.749749
0.742176 0.432970 0.746582
0.831814 0.536792 0.682042
0.886381 0.627213 0.644477
0.120707 0.368606 0.736659
0.349949 0.379351 0.703596
0.662029 0.454645 0.663172
0.804321 0.555342 0.640338
0.877619 0.639486 0.624595
0.173222 0.567386 0.622304
0.301719 0.540903 0.583318
0.513141 0.503168 0.502881
0.752803 0.611856 0.558648
0.856804 0.678122 0.580412
0.264619 0.727686 0.607746
0.372391 0.718820 0.592774
0.588535 0.702881 0.559099
0.739782 0.707258 0.539332
0.839019 0.744114 0.553351
0.338286 0.809656 0.573315
0.423937 0.808147 0.568560
0.613165 0.805337 0.557004
0.752850 0.806492 0.548796
0.836522 0.814557 0.551242
0.085274 0.246615 0.892397
0.380856 0.313630 0.892678
0.751212 0.493994 0.893680
0.850792 0.589523 0.862298
0.890196 0.645114 0.820905
0.124905 0.447580 0.892638
0.401359 0.488167 0.892918
0.718597 0.549990 0.877146
0.823923 0.605438 0.836302
0.881145 0.655750 0.808286
0.175605 0.589382 0.813578
0.320872 0.584889 0.803093
0.594186 0.596777 0.779359
0.767035 0.638398 0.771372
0.858615 0.687661 0.767555
0.251352 0.713814 0.779080
0.355253 0.708207 0.768088
0.574346 0.697417 0.740422
0.724760 0.698486 0.716382
0.836461 0.745373 0.732345
0.329350 0.805829 0.752071
0.413562 0.804855 0.747999
0.604514 0.803329 0.737301
0.748535 0.805744 0.728081
0.835360 0.815354 0.726857
0.091337 0.371152 0.940982
0.383224 0.424477 0.941048
0.751737 0.552141 0.941285
0.861015 0.635835 0.932814
0.895288 0.669582 0.905783
0.129332 0.517461 0.941038
0.403643 0.547076 0.941104
0.750885 0.624256 0.940269
0.841884 0.646999 0.922255
0.886538 0.678443 0.898005
0.193672 0.646224 0.915336
0.361937 0.647208 0.911170
0.650652 0.655401 0.900220
0.787279 0.676004 0.887677
0.864161 0.706609 0.876797
0.248453 0.717028 0.876114
0.354063 0.715274 0.872191
0.585858 0.714579 0.859515
0.748341 0.727571 0.849925
0.840491 0.756987 0.847109
0.321884 0.803548 0.853420
0.404933 0.803157 0.851039
0.597992 0.803101 0.844521
0.745652 0.806796 0.838365
0.834914 0.817434 0.837340
