negative-ultramax-400/Ultramax400_Classic_Normal.cube
TITLE "Kodak Ultramax 400 Classic Normal"
# Adobe RGB in/out. REPLACES AgX. Kodak Ultramax 400 Classic Normal.
LUT_3D_SIZE 9
DOMAIN_MIN 0.0 0.0 0.0
DOMAIN_MAX 1.0 1.0 1.0
0.073661 0.072636 0.087722
0.118556 0.080165 0.088888
0.350058 0.089172 0.090159
0.613393 0.102250 0.091695
0.745194 0.120948 0.093987
0.805972 0.139340 0.098332
0.836454 0.148206 0.107360
0.860314 0.112004 0.447338
0.864233 0.253928 0.581678
0.075975 0.097606 0.088913
0.083876 0.098977 0.089654
0.199774 0.102215 0.090722
0.514214 0.115609 0.092180
0.720767 0.135126 0.094476
0.799589 0.153276 0.098713
0.835120 0.162283 0.106890
0.860315 0.112023 0.447359
0.864234 0.253937 0.581676
0.079269 0.163412 0.090295
0.082913 0.171106 0.090959
0.114187 0.171679 0.091954
0.285707 0.180381 0.093502
0.581755 0.199340 0.096290
0.760818 0.224055 0.100753
0.826480 0.237068 0.107689
0.860534 0.119952 0.449780
0.864234 0.253937 0.581676
0.084303 0.303635 0.091940
0.087042 0.312179 0.092573
0.106465 0.323367 0.094014
0.192352 0.321413 0.096310
0.404021 0.329179 0.099819
0.668822 0.344667 0.104112
0.803802 0.363838 0.111650
0.849481 0.363419 0.127064
0.864234 0.246300 0.472336
0.091193 0.466719 0.094023
0.093315 0.471092 0.094834
0.109137 0.483807 0.097306
0.166420 0.487482 0.100760
0.308748 0.485529 0.104282
0.536297 0.491862 0.110484
0.746518 0.504255 0.119192
0.838992 0.514206 0.132387
0.864537 0.510319 0.269927
0.100411 0.610129 0.097240
0.102921 0.611976 0.097982
0.117240 0.621213 0.101356
0.160925 0.626219 0.105422
0.269409 0.626304 0.111392
0.442776 0.626095 0.118967
0.667267 0.631559 0.128721
0.817019 0.640579 0.141884
0.863377 0.647361 0.177885
0.112300 0.713225 0.100317
0.114405 0.713984 0.101172
0.126606 0.717863 0.104388
0.164342 0.721123 0.110827
0.251432 0.721911 0.119243
0.391817 0.721476 0.128380
0.582293 0.722712 0.139221
0.772540 0.726996 0.151993
0.862008 0.733532 0.176187
0.124388 0.789767 0.098921
0.125639 0.789240 0.099672
0.137000 0.787306 0.104347
0.169198 0.787622 0.112381
0.241300 0.787163 0.123143
0.357313 0.785934 0.134471
0.521665 0.785992 0.145903
0.716617 0.789152 0.158019
0.861419 0.794330 0.177261
0.126008 0.810296 0.095840
0.126009 0.810299 0.095840
0.148249 0.830031 0.095853
0.148773 0.830958 0.101443
0.221750 0.835795 0.109538
0.326053 0.833454 0.122738
0.464546 0.832452 0.134670
0.641092 0.833456 0.144104
0.864704 0.836615 0.149517
0.074478 0.079791 0.097040
0.110927 0.087563 0.150045
0.391200 0.093896 0.106911
0.656783 0.106732 0.104156
0.754499 0.124779 0.103042
0.807344 0.141675 0.105859
0.836435 0.151035 0.119039
0.860315 0.112023 0.447361
0.864234 0.253937 0.581679
0.077704 0.097448 0.096386
0.097207 0.103707 0.101838
0.292947 0.106907 0.101152
0.591421 0.122085 0.103045
0.738820 0.138843 0.103219
0.802426 0.156221 0.106116
0.835196 0.165266 0.117229
0.860316 0.112053 0.447394
0.864234 0.253937 0.581677
0.081662 0.159814 0.096853
0.087349 0.165257 0.097975
0.138349 0.170095 0.100431
0.372001 0.185130 0.103392
0.646098 0.204807 0.104912
0.771780 0.227024 0.108516
0.827547 0.239460 0.116855
0.860597 0.122577 0.450838
0.864234 0.253937 0.581676
0.086915 0.297602 0.098288
0.090744 0.304379 0.099623
0.116799 0.315640 0.102559
0.227028 0.318538 0.105821
0.454826 0.330513 0.109623
0.695176 0.346783 0.113482
0.808564 0.364995 0.121968
0.849706 0.364789 0.139397
0.864234 0.253957 0.581672
0.093175 0.461159 0.099889
0.096414 0.465355 0.101151
0.115523 0.477159 0.104394
0.183304 0.482244 0.109767
0.336666 0.483201 0.115752
0.564658 0.491406 0.121981
0.758685 0.504420 0.130044
0.840298 0.514252 0.144023
0.864516 0.512716 0.312817
0.102518 0.606543 0.102115
0.105292 0.608460 0.103099
0.120865 0.617253 0.107576
0.170292 0.622550 0.113960
0.283897 0.623663 0.122419
0.463418 0.624705 0.131297
0.681562 0.631029 0.141201
0.821117 0.640273 0.153519
0.863427 0.647844 0.193916
0.113847 0.711824 0.104157
0.116111 0.712577 0.105237
0.129583 0.716314 0.110610
0.170193 0.719550 0.119146
0.259884 0.720569 0.128884
0.403521 0.720558 0.140157
0.596606 0.722171 0.151523
0.780352 0.726734 0.163765
0.862256 0.733554 0.189295
0.125077 0.788640 0.101472
0.126535 0.788206 0.102329
0.138674 0.786517 0.109169
0.172783 0.786834 0.119496
0.246364 0.786445 0.131674
0.364152 0.785399 0.144590
0.529431 0.785685 0.157054
0.724809 0.788972 0.170305
0.861993 0.794272 0.189407
0.128450 0.817904 0.127334
0.128452 0.817907 0.127335
0.150569 0.834125 0.127335
0.150571 0.834125 0.127330
0.224070 0.835751 0.113860
0.329144 0.833415 0.129602
0.468328 0.832456 0.143510
0.646336 0.833488 0.153703
0.866464 0.836627 0.159112
0.075641 0.088102 0.150791
0.096856 0.103597 0.378459
0.349749 0.109726 0.347149
0.649743 0.122865 0.311345
0.756836 0.139745 0.288498
0.808414 0.159405 0.304636
0.836191 0.171367 0.358420
0.860433 0.116753 0.463049
0.864234 0.253939 0.581704
0.078804 0.103143 0.154296
0.092313 0.110207 0.211249
0.291381 0.119282 0.246707
0.605535 0.134936 0.244706
0.746281 0.153361 0.244787
0.805336 0.173470 0.269892
0.835178 0.184184 0.324782
0.860479 0.118805 0.465198
0.864234 0.253938 0.581681
0.084766 0.162476 0.146949
0.092313 0.167531 0.152521
0.190823 0.193279 0.184541
0.454216 0.195692 0.185718
0.692346 0.218093 0.198209
0.785969 0.241264 0.216900
0.829646 0.253487 0.242549
0.860090 0.168419 0.463678
0.864234 0.253938 0.581676
0.092046 0.295349 0.150558
0.097987 0.300672 0.153681
0.137741 0.311401 0.161961
0.291083 0.319573 0.172367
0.556058 0.337409 0.185746
0.742730 0.357553 0.200810
0.817043 0.373582 0.213667
0.850398 0.373563 0.273591
0.864234 0.253941 0.581680
0.101170 0.457234 0.153614
0.106410 0.461078 0.156258
0.133653 0.470216 0.163983
0.227233 0.476805 0.174532
0.411171 0.481825 0.185053
0.653109 0.494310 0.199373
0.787101 0.508539 0.209494
0.843801 0.516819 0.236638
0.864440 0.522201 0.465934
0.112052 0.601951 0.158523
0.116083 0.604083 0.160748
0.138171 0.611066 0.169268
0.204471 0.616397 0.180365
0.333783 0.619442 0.191703
0.533462 0.623022 0.203151
0.730158 0.631351 0.213275
0.831364 0.640683 0.232734
0.863597 0.650355 0.301808
0.122039 0.708941 0.157035
0.125568 0.709657 0.159210
0.143695 0.712780 0.168036
0.195399 0.715770 0.180622
0.294865 0.717361 0.193545
0.448748 0.718510 0.206181
0.651492 0.721163 0.218719
0.806013 0.726330 0.235670
0.862996 0.733901 0.262414
0.132115 0.782039 0.151367
0.134586 0.782162 0.153889
0.150161 0.782753 0.166245
0.191803 0.783686 0.181293
0.271338 0.783805 0.196500
0.396908 0.783508 0.210472
0.565219 0.784648 0.223697
0.752698 0.788377 0.237240
0.863470 0.794198 0.251701
0.128452 0.817908 0.127339
0.150569 0.834125 0.127338
0.150570 0.834125 0.127337
0.150587 0.834128 0.127338
0.237476 0.835149 0.153185
0.344164 0.833061 0.180532
0.485927 0.832321 0.198079
0.665743 0.833488 0.210213
0.867650 0.836648 0.217066
0.076884 0.101056 0.286230
0.085650 0.121210 0.492163
0.300418 0.133572 0.530065
0.615293 0.145382 0.521529
0.749907 0.166078 0.519900
0.806190 0.187211 0.526767
0.835028 0.200283 0.551372
0.857128 0.171548 0.609073
0.864234 0.256567 0.617733
0.079578 0.117486 0.300101
0.088979 0.131080 0.412701
0.260282 0.145008 0.493764
0.579859 0.159165 0.492131
0.740897 0.180703 0.497419
0.802971 0.201623 0.511924
0.834090 0.213886 0.540585
0.856779 0.182612 0.604349
0.864234 0.256596 0.618120
0.087580 0.180919 0.286007
0.095945 0.187548 0.305338
0.185546 0.201361 0.363944
0.464912 0.216075 0.395553
0.697954 0.239607 0.419790
0.787270 0.265137 0.444121
0.829398 0.280428 0.490475
0.853762 0.272701 0.566676
0.864234 0.256703 0.619532
0.096892 0.301623 0.274296
0.104962 0.306859 0.280224
0.153617 0.318949 0.300317
0.346448 0.346035 0.341785
0.598688 0.350172 0.350819
0.755060 0.371473 0.375231
0.819770 0.389004 0.414504
0.850295 0.393908 0.502210
0.864234 0.256757 0.619956
0.109189 0.458383 0.277499
0.115902 0.461597 0.280666
0.150987 0.470258 0.292313
0.264340 0.478106 0.307759
0.468067 0.485839 0.323716
0.690718 0.500537 0.343406
0.800268 0.515609 0.367176
0.845230 0.525110 0.419589
0.864296 0.536701 0.593000
0.121192 0.599914 0.279800
0.126750 0.601906 0.282249
0.155639 0.608666 0.291728
0.235584 0.614166 0.304278
0.382145 0.618624 0.317952
0.588611 0.624032 0.332319
0.758505 0.633778 0.350393
0.836565 0.643229 0.377467
0.863684 0.657245 0.523432
0.133077 0.707142 0.281412
0.137446 0.707816 0.283515
0.161095 0.710586 0.292034
0.222160 0.713542 0.304030
0.330651 0.715649 0.316976
0.499468 0.717740 0.330564
0.692134 0.721294 0.344691
0.819877 0.726933 0.362771
0.863539 0.735815 0.437424
0.140463 0.779022 0.278911
0.143911 0.779299 0.280814
0.164530 0.780414 0.290099
0.211513 0.781513 0.302055
0.297514 0.782096 0.315125
0.429740 0.782527 0.328393
0.605480 0.784332 0.341657
0.778809 0.788479 0.355603
0.864562 0.795026 0.391147
0.137476 0.826683 0.301801
0.150566 0.835336 0.301801
0.150569 0.835338 0.301799
0.176993 0.838273 0.246940
0.259686 0.833648 0.303331
0.367120 0.832360 0.317541
0.513316 0.832090 0.330359
0.691098 0.833441 0.340966
0.868120 0.836896 0.353758
0.078261 0.121431 0.460278
0.082545 0.136754 0.557343
0.235593 0.161499 0.635645
0.578694 0.176874 0.636327
0.739806 0.196459 0.636688
0.802181 0.217946 0.643474
0.833417 0.231045 0.657326
0.855107 0.213235 0.682256
0.864234 0.263824 0.701775
0.080201 0.137152 0.471982
0.085714 0.150602 0.544579
0.213478 0.176343 0.621888
0.551043 0.192452 0.626215
0.731665 0.211935 0.628350
0.799025 0.232157 0.637076
0.832526 0.246065 0.652772
0.854798 0.226307 0.680512
0.864234 0.263596 0.699711
0.089319 0.206110 0.469637
0.096529 0.213978 0.498624
0.179119 0.234004 0.564700
0.457187 0.251463 0.587467
0.692543 0.271711 0.597021
0.785288 0.296807 0.610928
0.828357 0.312503 0.632663
0.852750 0.309417 0.666828
0.864234 0.262884 0.693148
0.101693 0.324348 0.450001
0.110095 0.328981 0.459159
0.166153 0.342489 0.494260
0.351471 0.356436 0.528357
0.612082 0.372116 0.547329
0.758592 0.394398 0.567846
0.820123 0.412928 0.595288
0.849889 0.419495 0.639851
0.865027 0.366015 0.693207
0.116001 0.465345 0.439154
0.123093 0.468341 0.442979
0.166134 0.477284 0.457768
0.289134 0.486718 0.480395
0.514144 0.506524 0.513665
0.709416 0.512582 0.525496
0.805654 0.528522 0.550286
0.845658 0.540025 0.596091
0.864101 0.553472 0.681723
0.130642 0.603021 0.438677
0.137180 0.604971 0.440660
0.173307 0.610750 0.449143
0.260760 0.616637 0.462583
0.418712 0.622300 0.479249
0.628994 0.628969 0.496578
0.773818 0.639506 0.517894
0.839163 0.649716 0.548779
0.863650 0.666025 0.653270
0.142808 0.707357 0.440471
0.148243 0.708042 0.441709
0.177859 0.710668 0.447229
0.244802 0.713695 0.456617
0.362973 0.716277 0.468818
0.539355 0.719077 0.482382
0.721716 0.723300 0.497282
0.827460 0.729163 0.517861
0.863771 0.739828 0.604813
0.148581 0.778385 0.444895
0.152621 0.778665 0.445396
0.177700 0.779727 0.448831
0.228898 0.780967 0.454907
0.319473 0.781877 0.463645
0.459945 0.782884 0.474027
0.642634 0.785237 0.485268
0.798620 0.789813 0.498335
0.865143 0.797382 0.548389
0.140523 0.829421 0.536909
0.142496 0.830687 0.536909
0.147108 0.833664 0.536907
0.195074 0.834454 0.466616
0.273240 0.833298 0.468007
0.384486 0.832387 0.473190
0.533332 0.832348 0.479630
0.711570 0.833867 0.486783
0.868371 0.837977 0.512424
0.079830 0.150222 0.611205
0.082531 0.162246 0.667973
0.193696 0.197035 0.716320
0.539778 0.212637 0.718317
0.730345 0.231292 0.719558
0.797945 0.252101 0.722350
0.831778 0.267533 0.727625
0.853840 0.255247 0.736520
0.864234 0.268123 0.738727
0.081437 0.165446 0.618214
0.084676 0.177106 0.665845
0.185542 0.211132 0.712808
0.518413 0.226669 0.715882
0.721700 0.246781 0.717611
0.795056 0.267952 0.720710
0.830958 0.282870 0.726502
0.853556 0.270343 0.735886
0.864234 0.268123 0.738727
0.090734 0.239328 0.625913
0.096249 0.247232 0.649424
0.173703 0.273937 0.695499
0.440507 0.290693 0.704994
0.687111 0.310120 0.709075
0.782877 0.329108 0.713824
0.827280 0.342998 0.721404
0.851929 0.343029 0.732402
0.864234 0.268128 0.738726
0.105137 0.350312 0.606375
0.112765 0.354960 0.617069
0.172848 0.372970 0.656644
0.358326 0.388442 0.682937
0.619600 0.404238 0.692418
0.759683 0.421805 0.700221
0.820057 0.439825 0.710768
0.849487 0.447132 0.725764
0.864810 0.408552 0.738837
0.121559 0.482274 0.588500
0.129892 0.485038 0.593343
0.179248 0.495665 0.613814
0.306868 0.506635 0.640560
0.527751 0.517611 0.662599
0.719402 0.530252 0.678803
0.807810 0.546111 0.692937
0.845885 0.557813 0.713280
0.863929 0.571965 0.739773
0.137881 0.610133 0.578181
0.145346 0.611732 0.580545
0.186241 0.617478 0.590442
0.279064 0.623919 0.606697
0.443718 0.630541 0.625996
0.658318 0.641692 0.647305
0.782395 0.649015 0.665450
0.840598 0.659668 0.692331
0.863642 0.675956 0.733034
0.150715 0.710074 0.575032
0.157461 0.710727 0.576100
0.190482 0.713284 0.581218
0.261847 0.716416 0.590650
0.387640 0.719390 0.603600
0.566791 0.722686 0.617939
0.739458 0.727393 0.633311
0.831603 0.733522 0.658642
0.863931 0.744922 0.719113
0.154605 0.780184 0.577478
0.159941 0.780453 0.577685
0.187070 0.781437 0.579585
0.241567 0.782645 0.583873
0.336653 0.783740 0.591109
0.483204 0.785127 0.600390
0.665983 0.787857 0.610773
0.809708 0.792706 0.623625
0.865445 0.801293 0.690863
0.141812 0.830436 0.580225
0.143534 0.831553 0.582608
0.147415 0.834098 0.591686
0.198734 0.835341 0.591688
0.280094 0.834107 0.590938
0.394284 0.833329 0.593653
0.544300 0.833463 0.597936
0.723610 0.835035 0.602655
0.868476 0.839752 0.657962
0.081756 0.193314 0.739843
0.083771 0.201791 0.764199
0.153690 0.232653 0.777391
0.514931 0.250037 0.778429
0.723693 0.270594 0.779209
0.795778 0.290963 0.780299
0.831019 0.304214 0.782220
0.853158 0.295832 0.784669
0.864233 0.274964 0.782599
0.083095 0.207287 0.742668
0.085549 0.215103 0.763333
0.154898 0.246879 0.776787
0.496231 0.264608 0.778068
0.716657 0.285199 0.778936
0.793380 0.305650 0.780082
0.830277 0.319263 0.782066
0.852907 0.310877 0.784648
0.864233 0.274889 0.782287
0.091690 0.278926 0.748050
0.096259 0.284831 0.759174
0.162147 0.309607 0.773329
0.435475 0.325769 0.776087
0.687795 0.342387 0.777470
0.783046 0.360139 0.778934
0.827064 0.373394 0.781241
0.851580 0.374892 0.784286
0.864229 0.274437 0.780863
0.107747 0.383926 0.737722
0.114739 0.388022 0.745194
0.173339 0.405293 0.763535
0.367053 0.420348 0.771280
0.631477 0.435774 0.774049
0.763102 0.452539 0.776384
0.820877 0.465624 0.779347
0.849537 0.471428 0.783433
0.864389 0.464039 0.786327
0.126421 0.504641 0.720919
0.134533 0.507314 0.725872
0.185856 0.518388 0.742778
0.320523 0.529836 0.758097
0.547804 0.540740 0.767067
0.730582 0.552835 0.771362
0.810461 0.564747 0.775525
0.846504 0.575472 0.781255
0.863898 0.590158 0.787349
0.144290 0.622486 0.705691
0.151771 0.624038 0.708535
0.195524 0.630184 0.719832
0.294957 0.637539 0.735815
0.468402 0.644582 0.749892
0.673380 0.652281 0.759909
0.789642 0.660864 0.768713
0.842053 0.670436 0.776578
0.863769 0.685765 0.787033
0.156399 0.715458 0.694882
0.164125 0.716129 0.696319
0.198708 0.718668 0.702439
0.273656 0.721895 0.713233
0.405353 0.725213 0.726664
0.588265 0.728831 0.739333
0.750308 0.733606 0.749914
0.834574 0.739565 0.766248
0.864201 0.750309 0.784884
0.157225 0.784861 0.689485
0.162815 0.785077 0.689945
0.191228 0.785821 0.692493
0.248002 0.786897 0.697673
0.346892 0.788021 0.705714
0.498365 0.789552 0.715318
0.678940 0.792504 0.725454
0.815153 0.797415 0.737565
0.865730 0.806108 0.778154
0.141642 0.830677 0.654097
0.144992 0.832824 0.654114
0.149338 0.835593 0.654564
0.192568 0.838054 0.691968
0.278571 0.836124 0.693255
0.394352 0.835289 0.696931
0.545357 0.835447 0.701075
0.724173 0.837037 0.704703
0.868580 0.842215 0.769671
0.084514 0.243306 0.817322
0.086535 0.245709 0.819367
0.171748 0.267511 0.820610
0.542936 0.285084 0.820896
0.734382 0.304508 0.821390
0.800198 0.323175 0.822125
0.832401 0.333027 0.823192
0.853950 0.322724 0.825536
0.864313 0.295700 0.817584
0.085834 0.256262 0.817195
0.088390 0.258850 0.819119
0.174532 0.281048 0.820599
0.530604 0.298601 0.820919
0.730018 0.318071 0.821416
0.798465 0.335042 0.822156
0.831873 0.345204 0.823249
0.853743 0.335617 0.825587
0.864339 0.299373 0.817584
0.095632 0.325089 0.816690
0.100269 0.327223 0.818024
0.188223 0.342477 0.819956
0.478473 0.356414 0.820594
0.706994 0.372591 0.821197
0.790355 0.389183 0.822019
0.829368 0.400485 0.823244
0.852685 0.397033 0.825531
0.864628 0.336389 0.817584
0.112558 0.420126 0.814216
0.119291 0.422384 0.815600
0.196469 0.435686 0.818401
0.411179 0.448044 0.819728
0.667452 0.462080 0.820635
0.775341 0.474744 0.821662
0.824811 0.484750 0.823138
0.851140 0.487279 0.825511
0.864539 0.483960 0.825595
0.132311 0.530567 0.808973
0.140219 0.532460 0.810722
0.203838 0.541840 0.815012
0.354108 0.550931 0.817753
0.593424 0.560826 0.819462
0.749714 0.571952 0.820878
0.816930 0.582254 0.822628
0.848880 0.588948 0.825285
0.864289 0.602961 0.826997
0.149702 0.638823 0.799902
0.158203 0.640209 0.802048
0.208625 0.646352 0.808408
0.315483 0.652443 0.813610
0.508582 0.658490 0.816919
0.703097 0.665484 0.819231
0.802388 0.672775 0.821457
0.845541 0.679377 0.824590
0.864359 0.693378 0.827672
0.160447 0.723489 0.786433
0.168037 0.724145 0.788292
0.206160 0.726920 0.795360
0.285279 0.730102 0.804095
0.426839 0.733117 0.810999
0.621604 0.736471 0.815469
0.767885 0.740698 0.818745
0.839498 0.745512 0.822903
0.864885 0.754824 0.827786
0.154065 0.793490 0.773255
0.159495 0.793537 0.774093
0.189276 0.793528 0.778101
0.248193 0.794068 0.785245
0.351305 0.794963 0.794723
0.509798 0.796530 0.803541
0.691373 0.799394 0.810248
0.818513 0.802216 0.814029
0.866261 0.810867 0.826890
0.139853 0.830070 0.737084
0.149114 0.836018 0.738407
0.150482 0.836970 0.747487
0.183676 0.840760 0.763727
0.265063 0.839683 0.769152
0.381508 0.838516 0.774088
0.533378 0.838537 0.778890
0.709911 0.839983 0.781879
0.868695 0.844899 0.823914
0.160666 0.271402 0.855166
0.206107 0.273622 0.855172
0.477526 0.282472 0.855196
0.715745 0.297742 0.855269
0.785243 0.315671 0.855396
0.819819 0.329298 0.855595
0.841293 0.331397 0.856083
0.857928 0.293408 0.857033
0.864234 0.306052 0.853072
0.162926 0.282213 0.855101
0.206928 0.284489 0.855109
0.471449 0.293536 0.855136
0.712630 0.309086 0.855216
0.784063 0.326262 0.855349
0.819437 0.339488 0.855557
0.841157 0.341571 0.856046
0.857853 0.303649 0.857000
0.864234 0.312407 0.856035
0.177322 0.335503 0.854738
0.215326 0.337450 0.854754
0.448339 0.345173 0.854812
0.697925 0.358851 0.854939
0.778404 0.374668 0.855114
0.817616 0.388120 0.855371
0.840462 0.390772 0.855863
0.857484 0.356735 0.856801
0.864234 0.312439 0.856035
0.197797 0.437519 0.854196
0.225482 0.439084 0.854231
0.406866 0.445254 0.854350
0.667986 0.456117 0.854549
0.766227 0.467535 0.854781
0.813578 0.477094 0.855093
0.838984 0.480460 0.855613
0.856908 0.466888 0.856466
0.865547 0.477131 0.857642
0.203954 0.545151 0.853862
0.223954 0.546135 0.853916
0.349160 0.550158 0.854098
0.607208 0.557322 0.854327
0.746359 0.566222 0.854619
0.806901 0.574686 0.854975
0.836607 0.579033 0.855486
0.856469 0.573144 0.856323
0.866121 0.579992 0.858009
0.198448 0.649879 0.853798
0.213277 0.650433 0.853874
0.298395 0.652836 0.854115
0.514220 0.657085 0.854405
0.706772 0.662365 0.854714
0.792156 0.667877 0.855089
0.832555 0.671485 0.855578
0.855815 0.670229 0.856342
0.866524 0.683620 0.857846
0.182665 0.731562 0.854010
0.192732 0.731790 0.854108
0.246942 0.732827 0.854396
0.389296 0.734501 0.854746
0.612471 0.736778 0.855105
0.759328 0.739705 0.855488
0.824081 0.742196 0.856007
0.854565 0.742256 0.856680
0.867083 0.751322 0.857978
0.151882 0.800861 0.852821
0.156868 0.800929 0.853448
0.186587 0.801001 0.854606
0.266939 0.800697 0.855290
0.421375 0.800644 0.855819
0.649115 0.801784 0.856264
0.792038 0.804239 0.856732
0.849735 0.805523 0.857339
0.867859 0.810324 0.858336
0.137076 0.828673 0.790318
0.150569 0.837748 0.806911
0.150570 0.837749 0.806912
0.158272 0.838732 0.806954
0.230280 0.845930 0.843693
0.354987 0.844093 0.856676
0.521846 0.843703 0.857832
0.716131 0.845031 0.858427
0.868831 0.847733 0.858817
