negative-ultramax-400/Ultramax400_Classic_ExtraSoft.cube
TITLE "Kodak Ultramax 400 Classic ExtraSoft"
# Adobe RGB in/out. REPLACES AgX. Kodak Ultramax 400 Classic ExtraSoft.
LUT_3D_SIZE 33
DOMAIN_MIN 0.0 0.0 0.0
DOMAIN_MAX 1.0 1.0 1.0
0.057043 0.063015 0.079077
0.060302 0.063952 0.079871
0.061235 0.064295 0.080079
0.068182 0.065388 0.080619
0.092143 0.067181 0.081090
0.109685 0.068162 0.081656
0.168216 0.069994 0.082655
0.286692 0.072588 0.083579
0.349615 0.073900 0.084251
0.423415 0.076093 0.085354
0.504804 0.079708 0.086853
0.541608 0.081818 0.087723
0.572954 0.083946 0.088662
0.606084 0.087492 0.089818
0.640177 0.091951 0.091377
0.663359 0.094541 0.092483
0.676988 0.096900 0.093522
0.689613 0.100780 0.095247
0.701169 0.106004 0.097441
0.711579 0.108632 0.098850
0.720432 0.111327 0.100388
0.727988 0.114373 0.102725
0.735262 0.117335 0.105298
0.742417 0.117636 0.107600
0.747823 0.118121 0.110540
0.752694 0.117498 0.115688
0.758919 0.110480 0.124612
0.762296 0.107247 0.163115
0.769072 0.091528 0.447593
0.769071 0.091506 0.447559
0.769071 0.091505 0.447557
0.769071 0.091506 0.447556
0.772594 0.234134 0.563208
0.057429 0.065900 0.079647
0.058616 0.066008 0.079983
0.061284 0.064861 0.079970
0.068712 0.065991 0.080705
0.089336 0.067851 0.081250
0.105805 0.068574 0.081794
0.157216 0.070452 0.082749
0.272435 0.073045 0.083647
0.337758 0.074247 0.084349
0.416231 0.076514 0.085426
0.500473 0.080062 0.086904
0.538278 0.082117 0.087770
0.570257 0.084395 0.088706
0.603968 0.087893 0.089855
0.638551 0.092319 0.091416
0.662593 0.094875 0.092516
0.676402 0.097206 0.093550
0.689173 0.101236 0.095282
0.700844 0.106443 0.097469
0.711337 0.109048 0.098873
0.720252 0.111725 0.100406
0.727856 0.114762 0.102741
0.735166 0.117815 0.105306
0.742348 0.118106 0.107596
0.747774 0.118582 0.110517
0.752660 0.117951 0.115598
0.758895 0.110825 0.124347
0.762283 0.107514 0.161622
0.769072 0.091529 0.447593
0.769071 0.091506 0.447559
0.769071 0.091505 0.447557
0.769071 0.091506 0.447556
0.772594 0.234137 0.563208
0.057533 0.066799 0.079820
0.057870 0.066940 0.080191
0.059146 0.066918 0.080283
0.064160 0.068128 0.080910
0.077041 0.070026 0.081724
0.092256 0.070330 0.082131
0.132090 0.072274 0.083053
0.230304 0.074914 0.084071
0.299507 0.076024 0.084715
0.390213 0.078122 0.085689
0.476613 0.081398 0.087090
0.525595 0.083544 0.087971
0.559963 0.086072 0.088870
0.595887 0.089383 0.089990
0.632353 0.093680 0.091557
0.659658 0.096104 0.092635
0.674179 0.098666 0.093650
0.687510 0.102915 0.095408
0.699622 0.108055 0.097574
0.710426 0.110574 0.098958
0.719579 0.113182 0.100471
0.727363 0.116556 0.102802
0.734808 0.119574 0.105335
0.742091 0.119828 0.107583
0.747593 0.120268 0.110440
0.752533 0.119608 0.115291
0.758804 0.112094 0.123450
0.762236 0.108518 0.156482
0.769072 0.091531 0.447596
0.769071 0.091506 0.447559
0.769071 0.091505 0.447557
0.769071 0.091507 0.447556
0.772594 0.234141 0.563208
0.058017 0.071043 0.080493
0.058218 0.071227 0.080693
0.059292 0.071522 0.080929
0.061508 0.071419 0.081168
0.069334 0.074423 0.082355
0.077823 0.073773 0.082646
0.101963 0.075749 0.083432
0.159732 0.078807 0.084716
0.229706 0.079355 0.085266
0.324319 0.081008 0.086146
0.432086 0.084987 0.087448
0.499042 0.087531 0.088357
0.538572 0.089448 0.089183
0.578936 0.092339 0.090246
0.619349 0.096352 0.091827
0.649559 0.098939 0.092860
0.669551 0.102145 0.093886
0.684078 0.106175 0.095648
0.697121 0.111170 0.097773
0.708572 0.113511 0.099120
0.718219 0.116318 0.100598
0.726373 0.120005 0.102923
0.734093 0.122948 0.105399
0.741580 0.123129 0.107574
0.747234 0.123498 0.110320
0.752280 0.122787 0.114791
0.758625 0.114543 0.122003
0.762136 0.110548 0.148001
0.769072 0.091535 0.447602
0.769071 0.091507 0.447560
0.769071 0.091505 0.447558
0.769071 0.091510 0.447556
0.772594 0.234144 0.563207
0.058860 0.080045 0.081138
0.059063 0.080278 0.081438
0.060096 0.080997 0.081926
0.062076 0.081235 0.082478
0.066014 0.081056 0.083033
0.071807 0.079402 0.083194
0.085443 0.081207 0.083914
0.114966 0.084142 0.085412
0.157727 0.083900 0.085910
0.245491 0.085832 0.086702
0.375527 0.090648 0.088034
0.445886 0.092526 0.088928
0.506681 0.094137 0.089654
0.550480 0.096923 0.090642
0.595525 0.102662 0.092252
0.630990 0.105299 0.093215
0.661038 0.107904 0.094335
0.677843 0.111510 0.096027
0.692638 0.116633 0.098088
0.705283 0.119219 0.099379
0.715833 0.122069 0.100849
0.724658 0.125741 0.103128
0.732864 0.128936 0.105523
0.740707 0.129001 0.107597
0.746624 0.129286 0.110192
0.751853 0.128392 0.114186
0.758321 0.119547 0.120268
0.761961 0.114022 0.138600
0.769073 0.091543 0.447613
0.769071 0.091508 0.447561
0.769071 0.091505 0.447558
0.769073 0.091537 0.447556
0.772594 0.234145 0.563207
0.059322 0.084892 0.081778
0.059494 0.085067 0.081966
0.060205 0.086260 0.082299
0.061475 0.086968 0.082886
0.064356 0.087017 0.083236
0.069039 0.086748 0.083710
0.078206 0.089662 0.084842
0.098141 0.093365 0.086282
0.119274 0.091926 0.086575
0.173760 0.093112 0.087275
0.290615 0.097134 0.088734
0.386814 0.099073 0.089579
0.452325 0.100905 0.090258
0.517525 0.104481 0.091267
0.568369 0.110104 0.092795
0.606743 0.112806 0.093685
0.640531 0.115842 0.094955
0.666840 0.120967 0.096573
0.684697 0.126887 0.098548
0.699537 0.129045 0.099762
0.711734 0.131698 0.101268
0.721763 0.135999 0.103449
0.730818 0.139724 0.105741
0.739266 0.139512 0.107694
0.745628 0.139604 0.110111
0.751158 0.138316 0.113615
0.757825 0.127660 0.118602
0.761667 0.120878 0.131300
0.769073 0.091559 0.447635
0.769071 0.091509 0.447564
0.769071 0.091506 0.447560
0.772592 0.222634 0.447557
0.772594 0.234146 0.563206
0.060363 0.096888 0.082844
0.060471 0.096994 0.082960
0.060978 0.098025 0.083325
0.062195 0.099510 0.083704
0.064725 0.100229 0.084468
0.068733 0.100144 0.085145
0.074697 0.099716 0.085875
0.088497 0.105606 0.087139
0.104112 0.102199 0.087358
0.134896 0.102967 0.088025
0.217807 0.108827 0.089548
0.308153 0.110333 0.090320
0.393959 0.110913 0.090893
0.467522 0.113891 0.091966
0.534028 0.120805 0.093450
0.575963 0.124189 0.094563
0.615895 0.126593 0.095720
0.652996 0.131320 0.097222
0.675525 0.140104 0.099116
0.691696 0.144016 0.100266
0.705117 0.148907 0.101861
0.716696 0.154119 0.103933
0.727310 0.157288 0.106102
0.736830 0.156574 0.107924
0.743971 0.156212 0.110150
0.750011 0.154693 0.113248
0.756999 0.143017 0.117387
0.761167 0.133006 0.125591
0.769075 0.091602 0.447689
0.769072 0.091514 0.447570
0.769071 0.091508 0.447563
0.772594 0.222729 0.447558
0.772594 0.234146 0.563206
0.061325 0.117020 0.083927
0.061428 0.117187 0.084081
0.062072 0.119105 0.084690
0.063473 0.120968 0.085388
0.065454 0.122445 0.086048
0.069461 0.123055 0.086771
0.074781 0.122777 0.087340
0.084161 0.122185 0.088003
0.094549 0.116647 0.088227
0.114417 0.116817 0.088978
0.169233 0.124077 0.090403
0.243685 0.124780 0.091156
0.323121 0.124497 0.091780
0.412296 0.128088 0.092770
0.496602 0.136595 0.094361
0.542699 0.139796 0.095494
0.585240 0.142934 0.096593
0.626100 0.149642 0.098033
0.662827 0.158778 0.099830
0.682551 0.161533 0.100948
0.698703 0.166074 0.102570
0.711813 0.173163 0.104545
0.723154 0.180276 0.106619
0.733282 0.183065 0.108336
0.741016 0.186997 0.110403
0.747995 0.184680 0.113285
0.755512 0.171471 0.117002
0.760254 0.158105 0.122960
0.769081 0.091773 0.447874
0.769072 0.091528 0.447591
0.769072 0.091514 0.447572
0.772594 0.222735 0.447562
0.772594 0.234146 0.563206
0.061954 0.130165 0.084752
0.062073 0.130298 0.084864
0.062633 0.131652 0.085297
0.063747 0.134478 0.085925
0.065327 0.137135 0.086558
0.068296 0.138612 0.087149
0.072716 0.139104 0.087762
0.079336 0.138520 0.088474
0.088863 0.137700 0.089191
0.105378 0.137392 0.089882
0.142212 0.148466 0.091393
0.196235 0.148074 0.092141
0.267085 0.146329 0.092708
0.355019 0.149701 0.093600
0.443921 0.159283 0.095527
0.508127 0.161961 0.096557
0.551915 0.165093 0.097558
0.597033 0.172565 0.098907
0.640979 0.183875 0.100621
0.669973 0.187905 0.101932
0.688204 0.195034 0.103478
0.704672 0.201137 0.105320
0.718344 0.207819 0.107269
0.730070 0.209380 0.108856
0.738860 0.212819 0.110784
0.746035 0.216714 0.113671
0.753586 0.212260 0.117335
0.758580 0.209176 0.122495
0.769269 0.096388 0.449980
0.769079 0.091705 0.447805
0.769073 0.091552 0.447629
0.772594 0.222737 0.447579
0.772594 0.234146 0.563206
0.063106 0.155856 0.085839
0.063198 0.155995 0.085923
0.063602 0.157241 0.086242
0.064488 0.160919 0.086781
0.065748 0.164534 0.087353
0.068546 0.167477 0.087974
0.072298 0.168770 0.088739
0.077766 0.168823 0.089449
0.086154 0.168068 0.090115
0.098932 0.167122 0.090761
0.125852 0.182531 0.092425
0.164381 0.180989 0.093142
0.220878 0.176791 0.093612
0.301520 0.179820 0.094820
0.399137 0.192382 0.096737
0.461947 0.193998 0.097668
0.519037 0.196029 0.098594
0.565745 0.203679 0.099855
0.613094 0.218300 0.101807
0.652509 0.222346 0.103035
0.677477 0.226682 0.104429
0.695765 0.235751 0.106201
0.711097 0.245796 0.108075
0.724804 0.247659 0.109541
0.735438 0.248849 0.111387
0.743808 0.251030 0.114239
0.752182 0.245252 0.117522
0.757703 0.240648 0.121999
0.763301 0.228076 0.128854
0.767019 0.214793 0.153187
0.770907 0.185105 0.406916
0.772594 0.222953 0.450710
0.772594 0.234147 0.563206
0.064635 0.210674 0.087306
0.064709 0.210889 0.087370
0.065018 0.212495 0.087608
0.065778 0.218622 0.088201
0.067419 0.223742 0.088902
0.070067 0.227637 0.089629
0.073386 0.230664 0.090356
0.078923 0.231688 0.091108
0.086838 0.231432 0.091905
0.099069 0.230307 0.092692
0.115370 0.229203 0.093462
0.145203 0.225869 0.094260
0.188968 0.218953 0.094936
0.258648 0.221458 0.096113
0.351136 0.236329 0.097969
0.419789 0.236025 0.098834
0.481752 0.236156 0.099653
0.534673 0.242978 0.100887
0.584194 0.257963 0.103076
0.625973 0.259784 0.104191
0.663292 0.265234 0.105519
0.684445 0.275296 0.107203
0.703396 0.282769 0.108939
0.719101 0.285332 0.110309
0.730813 0.291233 0.112181
0.740092 0.299056 0.115103
0.749881 0.291064 0.118044
0.756297 0.284010 0.121916
0.762471 0.269478 0.127150
0.766556 0.252002 0.140426
0.770740 0.198387 0.339133
0.772594 0.223624 0.460434
0.772594 0.223871 0.463930
0.065538 0.255399 0.088287
0.065598 0.255591 0.088359
0.065842 0.256884 0.088625
0.066661 0.262078 0.089156
0.068303 0.266881 0.089768
0.070613 0.272149 0.090456
0.073541 0.276609 0.091273
0.078313 0.278539 0.092086
0.085372 0.279136 0.092868
0.095174 0.278655 0.093606
0.109848 0.277386 0.094614
0.133337 0.276383 0.095702
0.165645 0.266977 0.096249
0.224854 0.269472 0.097416
0.309518 0.284744 0.099202
0.384799 0.282321 0.099979
0.441551 0.281228 0.100796
0.506359 0.287611 0.102314
0.555360 0.302079 0.104340
0.597738 0.302639 0.105393
0.639550 0.307611 0.106689
0.672014 0.314017 0.108249
0.693161 0.322397 0.109921
0.711082 0.326051 0.111276
0.725649 0.328283 0.113197
0.736789 0.332706 0.116148
0.747213 0.331903 0.118854
0.754163 0.332954 0.122334
0.760920 0.325453 0.126828
0.765737 0.307755 0.135663
0.770343 0.236380 0.234413
0.772594 0.223635 0.460483
0.772594 0.224112 0.467237
0.066327 0.297192 0.089163
0.066405 0.297363 0.089223
0.066794 0.298441 0.089446
0.067704 0.302146 0.089886
0.069152 0.306901 0.090462
0.071137 0.311720 0.091184
0.073561 0.315333 0.091993
0.077807 0.317928 0.092801
0.084033 0.319420 0.093556
0.091629 0.319537 0.094539
0.104741 0.318981 0.095582
0.121128 0.317809 0.096566
0.150568 0.317023 0.097585
0.199531 0.318299 0.098649
0.278021 0.331914 0.100434
0.342761 0.328839 0.101321
0.407878 0.326571 0.102272
0.470407 0.331208 0.103756
0.528997 0.342910 0.105761
0.570338 0.342235 0.106668
0.612990 0.345865 0.107835
0.656038 0.353350 0.109366
0.681173 0.363239 0.111006
0.702476 0.364348 0.112375
0.718818 0.369936 0.114608
0.731541 0.378129 0.117457
0.744055 0.374388 0.119860
0.752250 0.372949 0.122969
0.759530 0.369406 0.127066
0.764636 0.364236 0.134269
0.768785 0.358812 0.152558
0.772594 0.223754 0.460543
0.772595 0.224513 0.471424
0.067990 0.343330 0.090219
0.068074 0.343475 0.090271
0.068402 0.344301 0.090463
0.069140 0.347178 0.090852
0.070477 0.353347 0.091559
0.072118 0.357896 0.092284
0.074375 0.362200 0.093036
0.078383 0.365975 0.093845
0.084089 0.368399 0.094974
0.090567 0.369177 0.096017
0.102545 0.369061 0.097010
0.116127 0.368374 0.098009
0.141983 0.367127 0.098932
0.181013 0.366265 0.099891
0.248972 0.381049 0.101923
0.310512 0.377265 0.102898
0.378613 0.373135 0.103774
0.437537 0.376854 0.105140
0.505006 0.389201 0.107100
0.544940 0.388024 0.108004
0.587270 0.390555 0.109094
0.631066 0.396803 0.110522
0.668303 0.402497 0.112258
0.691478 0.404401 0.113854
0.710524 0.408520 0.116134
0.726194 0.412237 0.118772
0.740011 0.412814 0.121048
0.749170 0.415285 0.123909
0.757758 0.411268 0.127650
0.763736 0.405708 0.133517
0.768314 0.399023 0.145119
0.771451 0.394777 0.229899
0.773470 0.398894 0.474566
0.069997 0.402897 0.091704
0.070071 0.403013 0.091762
0.070357 0.403589 0.091976
0.070981 0.405357 0.092391
0.072202 0.409987 0.093064
0.073564 0.412745 0.093715
0.076342 0.416528 0.094819
0.080271 0.419427 0.095907
0.085487 0.421583 0.097014
0.092241 0.422835 0.098060
0.103644 0.423326 0.099087
0.116308 0.423069 0.100020
0.140974 0.422394 0.101064
0.176390 0.421613 0.102261
0.227356 0.420948 0.103495
0.285873 0.417567 0.104373
0.344979 0.414614 0.105259
0.410528 0.416700 0.106581
0.474718 0.424556 0.108460
0.521809 0.422962 0.109285
0.562948 0.424219 0.110352
0.606832 0.428827 0.111883
0.650925 0.433890 0.113857
0.678978 0.436210 0.115574
0.701148 0.439131 0.117694
0.718892 0.444697 0.120259
0.735135 0.445358 0.122370
0.746292 0.445806 0.124974
0.755600 0.446108 0.128652
0.762274 0.445987 0.133680
0.767526 0.437987 0.141627
0.771082 0.427251 0.178410
0.773444 0.407789 0.466666
0.071293 0.434609 0.092674
0.071357 0.434711 0.092725
0.071603 0.435197 0.092912
0.072127 0.436622 0.093271
0.073116 0.440211 0.093900
0.074641 0.443681 0.094864
0.077418 0.448095 0.095987
0.080910 0.450430 0.096972
0.085584 0.452823 0.098016
0.091603 0.454738 0.099086
0.101860 0.455462 0.100038
0.113427 0.455553 0.101085
0.133843 0.455319 0.102326
0.162809 0.454571 0.103522
0.207165 0.453922 0.104674
0.262786 0.453372 0.105851
0.317765 0.449910 0.106665
0.388022 0.451671 0.107978
0.447274 0.459535 0.109832
0.501680 0.457522 0.110620
0.540645 0.457827 0.111711
0.583792 0.461962 0.113476
0.627938 0.466723 0.115721
0.666032 0.468239 0.117320
0.690023 0.471631 0.119354
0.710509 0.477197 0.121809
0.729403 0.477758 0.123752
0.742102 0.480795 0.126377
0.753087 0.480758 0.129920
0.760929 0.478452 0.134247
0.766622 0.476759 0.140754
0.770381 0.476602 0.160917
0.773276 0.441715 0.405605
0.072517 0.466577 0.093568
0.072573 0.466667 0.093612
0.072786 0.467080 0.093792
0.073231 0.468243 0.094263
0.074113 0.471073 0.095017
0.075995 0.475184 0.095974
0.078192 0.478139 0.096931
0.081634 0.481329 0.097945
0.085912 0.484150 0.098963
0.091206 0.486162 0.099966
0.100591 0.487426 0.101045
0.111291 0.487924 0.102295
0.128390 0.487932 0.103487
0.152377 0.487562 0.104681
0.191297 0.486879 0.105819
0.240444 0.486291 0.106926
0.297900 0.485922 0.108058
0.360815 0.487463 0.109324
0.424146 0.494844 0.111199
0.474553 0.492366 0.112070
0.521085 0.492440 0.113336
0.562426 0.495973 0.115417
0.605879 0.500590 0.117617
0.648211 0.501589 0.119112
0.677940 0.505202 0.121076
0.701053 0.509986 0.123393
0.722097 0.511961 0.125249
0.737417 0.514132 0.128048
0.750103 0.515455 0.131357
0.758880 0.516392 0.135272
0.765645 0.513656 0.140666
0.769955 0.509950 0.154888
0.772866 0.511449 0.261879
0.073876 0.503390 0.095027
0.073926 0.503479 0.095088
0.074215 0.503870 0.095308
0.074815 0.504894 0.095727
0.075894 0.507247 0.096393
0.077740 0.512039 0.097353
0.079803 0.514103 0.098185
0.083182 0.517415 0.099221
0.086990 0.519374 0.100196
0.092162 0.520837 0.101309
0.100890 0.522036 0.102624
0.110927 0.522702 0.103875
0.126439 0.523017 0.105111
0.148546 0.522802 0.106225
0.182930 0.522540 0.107387
0.227505 0.522107 0.108478
0.282553 0.521696 0.109542
0.337831 0.521560 0.110642
0.404545 0.526688 0.112719
0.451346 0.524759 0.113824
0.503705 0.524352 0.115294
0.543182 0.526715 0.117352
0.585319 0.529759 0.119512
0.626792 0.530185 0.120928
0.665589 0.532767 0.122833
0.690403 0.535967 0.125046
0.713801 0.537492 0.127067
0.731670 0.539229 0.129842
0.746188 0.541585 0.132997
0.756885 0.540994 0.136478
0.764499 0.541181 0.141334
0.769236 0.542197 0.152438
0.772644 0.539116 0.202990
0.076166 0.536843 0.096827
0.076237 0.536914 0.096882
0.076504 0.537209 0.097081
0.077047 0.537916 0.097460
0.077999 0.539410 0.098056
0.079887 0.542389 0.098925
0.082099 0.544450 0.099767
0.085143 0.547087 0.100771
0.088566 0.549062 0.102051
0.094585 0.551095 0.103385
0.102860 0.552461 0.104650
0.112359 0.553397 0.105936
0.127400 0.553761 0.107128
0.148616 0.553835 0.108286
0.180724 0.553569 0.109382
0.223634 0.553333 0.110524
0.274541 0.552995 0.111715
0.326830 0.552560 0.112952
0.388203 0.552561 0.114703
0.431478 0.550578 0.115788
0.481582 0.550184 0.117241
0.526033 0.552054 0.119258
0.566414 0.554827 0.121366
0.606713 0.555091 0.122737
0.649028 0.557149 0.124560
0.679133 0.560341 0.126985
0.704477 0.561644 0.129064
0.724667 0.564084 0.131746
0.742075 0.565667 0.134622
0.754225 0.566742 0.137895
0.763177 0.567667 0.142639
0.768690 0.566815 0.151623
0.772357 0.568680 0.181442
0.077817 0.561229 0.097831
0.077881 0.561288 0.097881
0.078118 0.561528 0.098063
0.078625 0.562092 0.098408
0.079652 0.563265 0.098950
0.081361 0.565567 0.099734
0.083559 0.568039 0.100608
0.086070 0.569852 0.101756
0.089388 0.572188 0.103071
0.095356 0.574144 0.104380
0.102639 0.575334 0.105587
0.111333 0.576351 0.106825
0.124496 0.576970 0.108035
0.144205 0.577224 0.109191
0.172102 0.577238 0.110316
0.210786 0.576952 0.111467
0.257241 0.576717 0.112745
0.308062 0.576522 0.114405
0.364049 0.576229 0.116005
0.414750 0.576375 0.117703
0.461264 0.575629 0.119101
0.510806 0.577475 0.121113
0.549406 0.579874 0.123211
0.588191 0.580024 0.124511
0.629731 0.581798 0.126431
0.667623 0.584585 0.129110
0.694116 0.585892 0.131084
0.716627 0.588433 0.133671
0.736795 0.590273 0.136360
0.750991 0.591960 0.139399
0.761683 0.592705 0.144099
0.767903 0.594111 0.151961
0.772108 0.594871 0.171590
0.079750 0.586316 0.098871
0.079822 0.586369 0.098918
0.080089 0.586582 0.099086
0.080622 0.587067 0.099404
0.081533 0.588040 0.099901
0.083017 0.589888 0.100618
0.085229 0.592718 0.101838
0.087350 0.594013 0.102891
0.090878 0.596659 0.104258
0.096265 0.597859 0.105404
0.103389 0.599485 0.106671
0.111722 0.600728 0.107916
0.123733 0.601328 0.109101
0.141936 0.601613 0.110224
0.166776 0.601768 0.111442
0.202598 0.601692 0.112720
0.245014 0.601408 0.114348
0.294208 0.601160 0.116024
0.345549 0.601089 0.117692
0.398779 0.600948 0.119267
0.443940 0.601212 0.120912
0.495281 0.602397 0.122878
0.534041 0.604714 0.124947
0.571284 0.604885 0.126385
0.611527 0.606307 0.128596
0.654318 0.608898 0.131246
0.683356 0.610152 0.133112
0.707792 0.612327 0.135563
0.730357 0.614102 0.138154
0.747315 0.615033 0.140904
0.759654 0.616325 0.145846
0.767132 0.616900 0.152711
0.771824 0.618217 0.167208
0.081942 0.612234 0.100033
0.082009 0.612290 0.100076
0.082256 0.612506 0.100233
0.082746 0.612966 0.100529
0.083570 0.613544 0.101103
0.084889 0.614584 0.102000
0.086993 0.616409 0.103239
0.088986 0.617332 0.104276
0.092770 0.618628 0.105511
0.098239 0.619764 0.106735
0.105046 0.620863 0.107997
0.112309 0.621514 0.109172
0.124135 0.622093 0.110375
0.141682 0.622414 0.111648
0.164664 0.622517 0.112976
0.198115 0.622564 0.114782
0.238025 0.622459 0.116473
0.285825 0.622314 0.118141
0.332550 0.622150 0.119775
0.388438 0.622168 0.121423
0.429970 0.622173 0.122992
0.477041 0.622399 0.124587
0.520430 0.623550 0.126859
0.555857 0.623709 0.128460
0.594688 0.624462 0.130676
0.636430 0.625920 0.133312
0.672587 0.626796 0.135114
0.698256 0.628040 0.137485
0.722972 0.629561 0.139956
0.742726 0.630624 0.143081
0.757366 0.631907 0.147659
0.766204 0.632864 0.153855
0.771494 0.634638 0.165406
0.084089 0.629543 0.101227
0.084151 0.629577 0.101282
0.084380 0.629706 0.101483
0.084830 0.629977 0.101861
0.085578 0.630469 0.102450
0.086759 0.631318 0.103294
0.088607 0.632752 0.104454
0.090995 0.633955 0.105595
0.094996 0.634905 0.106725
0.100594 0.636245 0.108049
0.106342 0.636941 0.109179
0.113625 0.637775 0.110411
0.125963 0.638458 0.111797
0.141913 0.638718 0.113225
0.163298 0.638858 0.114986
0.194786 0.638911 0.116758
0.232754 0.638893 0.118527
0.278107 0.638794 0.120223
0.322838 0.638668 0.121864
0.376491 0.638541 0.123477
0.419155 0.638609 0.125086
0.462940 0.638730 0.126910
0.508279 0.639023 0.128914
0.542062 0.639144 0.130473
0.579234 0.639707 0.132644
0.619548 0.640885 0.135269
0.661938 0.641799 0.137018
0.688274 0.642912 0.139323
0.714923 0.644379 0.142027
0.737214 0.645616 0.145358
0.754646 0.646835 0.149486
0.765076 0.648211 0.155270
0.771241 0.649604 0.164954
0.085964 0.645918 0.102024
0.086020 0.645944 0.102076
0.086226 0.646042 0.102266
0.086628 0.646247 0.102625
0.087294 0.646614 0.103183
0.088335 0.647241 0.103982
0.089945 0.648293 0.105079
0.093352 0.649574 0.106344
0.096815 0.650222 0.107386
0.102006 0.651353 0.108710
0.107395 0.652009 0.109858
0.114491 0.652800 0.111169
0.125346 0.653220 0.112520
0.141065 0.653635 0.114339
0.161477 0.653852 0.116203
0.190393 0.653859 0.117916
0.225491 0.653828 0.119675
0.267656 0.653738 0.121374
0.311402 0.653639 0.123045
0.360833 0.653545 0.124649
0.406742 0.653513 0.126368
0.447832 0.653618 0.128355
0.494089 0.653889 0.130371
0.529687 0.654315 0.132370
0.565081 0.654632 0.134520
0.603890 0.655554 0.137113
0.646420 0.656506 0.138799
0.678147 0.657431 0.141108
0.705972 0.658818 0.144270
0.730821 0.660141 0.147668
0.751314 0.661460 0.151406
0.763849 0.662671 0.156533
0.770937 0.664439 0.165148
0.087773 0.661061 0.102915
0.087824 0.661087 0.102965
0.088014 0.661184 0.103146
0.088383 0.661380 0.103487
0.088989 0.661716 0.104019
0.089926 0.662264 0.104779
0.092121 0.663139 0.105821
0.095894 0.664539 0.107223
0.098966 0.665062 0.108195
0.103455 0.665915 0.109420
0.109068 0.666798 0.110710
0.115105 0.667326 0.112050
0.126627 0.667874 0.113745
0.141607 0.668283 0.115717
0.159496 0.668463 0.117516
0.187518 0.668564 0.119330
0.221385 0.668553 0.121114
0.261529 0.668446 0.122858
0.303911 0.668328 0.124515
0.349744 0.668230 0.126259
0.397025 0.668179 0.128282
0.435881 0.668223 0.130279
0.479008 0.668355 0.132233
0.518098 0.668732 0.134257
0.552276 0.669244 0.136261
0.589404 0.669854 0.138837
0.630563 0.670962 0.140456
0.668057 0.671623 0.143286
0.696588 0.672937 0.146422
0.723502 0.674182 0.149573
0.747294 0.675641 0.153309
0.762441 0.676898 0.157893
0.770594 0.678567 0.165625
0.089516 0.675741 0.103716
0.089564 0.675767 0.103765
0.089739 0.675865 0.103939
0.090079 0.676057 0.104269
0.090906 0.676374 0.104782
0.092339 0.676865 0.105515
0.094520 0.677614 0.106522
0.097902 0.678758 0.107876
0.101276 0.679538 0.109022
0.105225 0.680220 0.110170
0.111097 0.681258 0.111748
0.116344 0.681645 0.113098
0.128982 0.682250 0.115229
0.141980 0.682518 0.117055
0.160325 0.682796 0.119027
0.186956 0.682905 0.120863
0.218135 0.682912 0.122643
0.255893 0.682824 0.124402
0.297560 0.682673 0.126191
0.340575 0.682552 0.128319
0.389236 0.682469 0.130401
0.426256 0.682471 0.132435
0.467048 0.682554 0.134411
0.508374 0.682744 0.136350
0.540654 0.683203 0.138386
0.576095 0.683785 0.140395
0.615738 0.685089 0.142319
0.657587 0.685559 0.145345
0.686975 0.686740 0.148294
0.715440 0.687872 0.151408
0.742228 0.689282 0.154942
0.760634 0.690677 0.159214
0.770421 0.692319 0.166455
0.091869 0.693081 0.103429
0.091938 0.693093 0.103476
0.092192 0.693137 0.103649
0.092687 0.693221 0.103975
0.093498 0.693356 0.104486
0.094749 0.693560 0.105224
0.096663 0.693868 0.106248
0.099657 0.694345 0.107646
0.103324 0.694837 0.109081
0.106751 0.695122 0.110188
0.111801 0.695555 0.111716
0.117921 0.695877 0.113406
0.128940 0.696096 0.115421
0.142419 0.696267 0.117472
0.159329 0.696338 0.119463
0.183891 0.696359 0.121331
0.214728 0.696334 0.123226
0.250546 0.696238 0.125014
0.290522 0.696098 0.126985
0.330314 0.695969 0.129132
0.378363 0.695881 0.131231
0.416001 0.695850 0.133285
0.454995 0.695899 0.135293
0.498257 0.696045 0.137258
