negative-ultramax-400/Ultramax400_Classic_Normal.cube
TITLE "Kodak Ultramax 400 Classic Normal"
# Adobe RGB in/out. REPLACES AgX. Kodak Ultramax 400 Classic Normal.
LUT_3D_SIZE 5
DOMAIN_MIN 0.0 0.0 0.0
DOMAIN_MAX 1.0 1.0 1.0
0.073661 0.072636 0.087722
0.350058 0.089172 0.090159
0.745194 0.120948 0.093987
0.836454 0.148206 0.107360
0.864233 0.253928 0.581678
0.079269 0.163412 0.090295
0.114187 0.171679 0.091954
0.581755 0.199340 0.096290
0.826480 0.237068 0.107689
0.864234 0.253937 0.581676
0.091193 0.466719 0.094023
0.109137 0.483807 0.097306
0.308748 0.485529 0.104282
0.746518 0.504255 0.119192
0.864537 0.510319 0.269927
0.112300 0.713225 0.100317
0.126606 0.717863 0.104388
0.251432 0.721911 0.119243
0.582293 0.722712 0.139221
0.862008 0.733532 0.176187
0.126008 0.810296 0.095840
0.148249 0.830031 0.095853
0.221750 0.835795 0.109538
0.464546 0.832452 0.134670
0.864704 0.836615 0.149517
0.075641 0.088102 0.150791
0.349749 0.109726 0.347149
0.756836 0.139745 0.288498
0.836191 0.171367 0.358420
0.864234 0.253939 0.581704
0.084766 0.162476 0.146949
0.190823 0.193279 0.184541
0.692346 0.218093 0.198209
0.829646 0.253487 0.242549
0.864234 0.253938 0.581676
0.101170 0.457234 0.153614
0.133653 0.470216 0.163983
0.411171 0.481825 0.185053
0.787101 0.508539 0.209494
0.864440 0.522201 0.465934
0.122039 0.708941 0.157035
0.143695 0.712780 0.168036
0.294865 0.717361 0.193545
0.651492 0.721163 0.218719
0.862996 0.733901 0.262414
0.128452 0.817908 0.127339
0.150570 0.834125 0.127337
0.237476 0.835149 0.153185
0.485927 0.832321 0.198079
0.867650 0.836648 0.217066
0.078261 0.121431 0.460278
0.235593 0.161499 0.635645
0.739806 0.196459 0.636688
0.833417 0.231045 0.657326
0.864234 0.263824 0.701775
0.089319 0.206110 0.469637
0.179119 0.234004 0.564700
0.692543 0.271711 0.597021
0.828357 0.312503 0.632663
0.864234 0.262884 0.693148
0.116001 0.465345 0.439154
0.166134 0.477284 0.457768
0.514144 0.506524 0.513665
0.805654 0.528522 0.550286
0.864101 0.553472 0.681723
0.142808 0.707357 0.440471
0.177859 0.710668 0.447229
0.362973 0.716277 0.468818
0.721716 0.723300 0.497282
0.863771 0.739828 0.604813
0.140523 0.829421 0.536909
0.147108 0.833664 0.536907
0.273240 0.833298 0.468007
0.533332 0.832348 0.479630
0.868371 0.837977 0.512424
0.081756 0.193314 0.739843
0.153690 0.232653 0.777391
0.723693 0.270594 0.779209
0.831019 0.304214 0.782220
0.864233 0.274964 0.782599
0.091690 0.278926 0.748050
0.162147 0.309607 0.773329
0.687795 0.342387 0.777470
0.827064 0.373394 0.781241
0.864229 0.274437 0.780863
0.126421 0.504641 0.720919
0.185856 0.518388 0.742778
0.547804 0.540740 0.767067
0.810461 0.564747 0.775525
0.863898 0.590158 0.787349
0.156399 0.715458 0.694882
0.198708 0.718668 0.702439
0.405353 0.725213 0.726664
0.750308 0.733606 0.749914
0.864201 0.750309 0.784884
0.141642 0.830677 0.654097
0.149338 0.835593 0.654564
0.278571 0.836124 0.693255
0.545357 0.835447 0.701075
0.868580 0.842215 0.769671
0.160666 0.271402 0.855166
0.477526 0.282472 0.855196
0.785243 0.315671 0.855396
0.841293 0.331397 0.856083
0.864234 0.306052 0.853072
0.177322 0.335503 0.854738
0.448339 0.345173 0.854812
0.778404 0.374668 0.855114
0.840462 0.390772 0.855863
0.864234 0.312439 0.856035
0.203954 0.545151 0.853862
0.349160 0.550158 0.854098
0.746359 0.566222 0.854619
0.836607 0.579033 0.855486
0.866121 0.579992 0.858009
0.182665 0.731562 0.854010
0.246942 0.732827 0.854396
0.612471 0.736778 0.855105
0.824081 0.742196 0.856007
0.867083 0.751322 0.857978
0.137076 0.828673 0.790318
0.150570 0.837749 0.806912
0.230280 0.845930 0.843693
0.521846 0.843703 0.857832
0.868831 0.847733 0.858817
