negative-ultramax-400/Ultramax400_Modern_ExtraSoft.cube
TITLE "Kodak Ultramax 400 Modern ExtraSoft"
# Adobe RGB in/out. REPLACES AgX. Kodak Ultramax 400 Modern ExtraSoft.
LUT_3D_SIZE 9
DOMAIN_MIN 0.0 0.0 0.0
DOMAIN_MAX 1.0 1.0 1.0
0.057043 0.063015 0.079077
0.178988 0.069941 0.082063
0.584933 0.084533 0.087138
0.726916 0.108927 0.093542
0.785645 0.143783 0.102180
0.804579 0.181363 0.111746
0.812510 0.189099 0.129025
0.816730 0.109062 0.596956
0.810238 0.367590 0.669658
0.060647 0.093460 0.081779
0.070768 0.085643 0.082929
0.314045 0.097111 0.087311
0.659282 0.125804 0.093539
0.760006 0.168634 0.101921
0.796415 0.210170 0.111174
0.808274 0.217921 0.126336
0.814294 0.108012 0.592537
0.808506 0.362363 0.667013
0.068883 0.325131 0.087968
0.073806 0.284907 0.089256
0.111415 0.193786 0.090106
0.402276 0.217847 0.094865
0.659281 0.277438 0.102512
0.756032 0.331293 0.110904
0.792969 0.348763 0.123195
0.806690 0.113933 0.580133
0.802857 0.345709 0.658151
0.079102 0.542447 0.094693
0.083028 0.526817 0.096024
0.108442 0.473336 0.097901
0.230820 0.419117 0.099566
0.496895 0.420389 0.104921
0.675636 0.448478 0.112241
0.760666 0.472735 0.123191
0.789828 0.468407 0.140035
0.794411 0.311473 0.562075
0.089956 0.645909 0.101351
0.093442 0.639901 0.102683
0.113239 0.623616 0.105752
0.197797 0.590233 0.108028
0.390780 0.558647 0.110402
0.567897 0.553558 0.116280
0.703910 0.568123 0.125601
0.769899 0.576768 0.138786
0.785382 0.569644 0.317110
0.103737 0.702187 0.107118
0.106041 0.699166 0.108101
0.123409 0.691630 0.111595
0.188068 0.674368 0.115738
0.336279 0.655941 0.119576
0.503487 0.642320 0.123664
0.639615 0.638165 0.130623
0.738766 0.643789 0.141353
0.774302 0.646302 0.176276
0.113995 0.737340 0.109691
0.115618 0.735413 0.110572
0.132789 0.730286 0.115348
0.184668 0.721382 0.121377
0.304507 0.710407 0.126543
0.450734 0.700300 0.132119
0.579760 0.693636 0.137750
0.698789 0.690473 0.146189
0.763623 0.693899 0.166292
0.123628 0.769439 0.104804
0.124484 0.767607 0.105661
0.138037 0.761332 0.111811
0.177851 0.753913 0.120225
0.276648 0.745041 0.127895
0.410628 0.736177 0.135191
0.532885 0.729409 0.141356
0.661184 0.725985 0.149512
0.755763 0.724942 0.162449
0.114937 0.763236 0.097262
0.114607 0.762324 0.097171
0.140901 0.774371 0.096884
0.137943 0.771113 0.104293
0.226967 0.770376 0.111972
0.361178 0.762258 0.122382
0.484749 0.755857 0.130031
0.593633 0.752338 0.135350
0.752966 0.751791 0.137665
0.058410 0.069704 0.116417
0.161992 0.082196 0.293794
0.616143 0.092683 0.147734
0.740551 0.115168 0.133343
0.786358 0.148512 0.125477
0.802614 0.183929 0.129267
0.810615 0.192698 0.149005
0.815424 0.108510 0.594592
0.809341 0.364880 0.668288
0.063188 0.089502 0.104523
0.079299 0.083404 0.100787
0.437764 0.101321 0.112150
0.687121 0.132375 0.121720
0.765154 0.173152 0.122401
0.794878 0.212102 0.126977
0.806424 0.220734 0.143101
0.812994 0.107481 0.590199
0.807615 0.359692 0.665656
0.073002 0.286883 0.112205
0.080270 0.234383 0.109001
0.134021 0.166355 0.104794
0.475313 0.208236 0.110928
0.679499 0.275590 0.117703
0.759211 0.328837 0.124135
0.791660 0.347225 0.136065
0.805450 0.116294 0.578099
0.801993 0.343221 0.656386
0.083781 0.522328 0.115210
0.088276 0.502168 0.114850
0.119338 0.446315 0.112818
0.273010 0.400638 0.112305
0.524616 0.411647 0.116842
0.686344 0.443652 0.123744
0.761593 0.469132 0.134227
0.788755 0.466703 0.154161
0.793608 0.320257 0.639394
0.094063 0.637201 0.115617
0.098428 0.631246 0.116801
0.121424 0.613954 0.119242
0.219371 0.577419 0.120527
0.412193 0.549620 0.122651
0.583147 0.548271 0.126423
0.709789 0.564690 0.135928
0.769389 0.574334 0.150276
0.784676 0.569990 0.376964
0.106019 0.697984 0.116787
0.108680 0.695045 0.118123
0.129445 0.685989 0.122671
0.200261 0.669075 0.126369
0.352795 0.651511 0.130125
0.513748 0.639060 0.134512
0.649775 0.636133 0.139988
0.740892 0.642339 0.152545
0.773543 0.645703 0.192603
0.115325 0.734939 0.117164
0.117456 0.733029 0.118518
0.136457 0.727863 0.123886
0.192204 0.719012 0.130447
0.313724 0.708270 0.136223
0.459669 0.698566 0.141374
0.587203 0.692267 0.148582
0.703034 0.689368 0.156628
0.763290 0.693435 0.179119
0.124087 0.767890 0.108365
0.125249 0.766083 0.109379
0.139962 0.760004 0.118009
0.182237 0.752635 0.126985
0.283374 0.743867 0.135912
0.415693 0.735193 0.143577
0.537404 0.728669 0.151627
0.664931 0.725448 0.159588
0.755918 0.724615 0.173241
0.116851 0.767505 0.133494
0.116412 0.766594 0.133146
0.143525 0.777506 0.131986
0.139872 0.773465 0.130159
0.229702 0.770025 0.116547
0.364608 0.761890 0.128021
0.487708 0.755599 0.136599
0.596424 0.752187 0.142145
0.754409 0.751705 0.144845
0.060553 0.083066 0.296198
0.114753 0.117719 0.636790
0.593128 0.132257 0.613859
0.746178 0.160297 0.565343
0.786827 0.190392 0.500855
0.800819 0.227679 0.494780
0.807885 0.237582 0.530566
0.813189 0.113746 0.600441
0.807480 0.359294 0.665465
0.067633 0.116670 0.307595
0.102005 0.130720 0.441630
0.499673 0.137254 0.453755
0.698430 0.166584 0.429901
0.767887 0.209566 0.416529
0.793383 0.248365 0.436889
0.803674 0.258358 0.487418
0.810733 0.114688 0.597229
0.805743 0.354134 0.662810
0.075598 0.228243 0.204540
0.084367 0.193357 0.183917
0.155853 0.154117 0.162798
0.525312 0.210193 0.203992
0.696896 0.288561 0.252709
0.762743 0.342078 0.300003
0.789613 0.360806 0.347442
0.802663 0.190385 0.581972
0.800092 0.337876 0.652511
0.089704 0.479481 0.220772
0.097806 0.459368 0.208374
0.141132 0.408045 0.183660
0.324992 0.358669 0.169399
0.573962 0.399627 0.190407
0.705780 0.441336 0.225781
0.762948 0.468405 0.255143
0.786496 0.469052 0.350495
0.791709 0.315215 0.635587
0.105648 0.621591 0.219168
0.110986 0.615115 0.214675
0.146724 0.588178 0.202645
0.273832 0.553639 0.190714
0.463468 0.531299 0.186365
0.627738 0.539027 0.200604
0.723004 0.559505 0.221561
0.768315 0.570356 0.265800
0.782847 0.573565 0.524316
0.117283 0.688462 0.212862
0.123173 0.684581 0.211833
0.153754 0.673835 0.210147
0.247652 0.657405 0.205602
0.404567 0.641466 0.202136
0.549140 0.631459 0.203697
0.675063 0.631725 0.211147
0.745888 0.639130 0.240451
0.771466 0.644727 0.328121
0.128521 0.728724 0.192732
0.132733 0.726868 0.193619
0.155325 0.721502 0.197980
0.227416 0.712730 0.202474
0.356514 0.702594 0.205546
0.497552 0.693959 0.209372
0.615997 0.687696 0.216131
0.717177 0.686481 0.231737
0.762325 0.692160 0.262071
0.132829 0.760956 0.169195
0.135504 0.759557 0.171404
0.153878 0.755084 0.183497
0.208006 0.748291 0.193837
0.312611 0.740039 0.203092
0.441300 0.732058 0.211001
0.559064 0.726356 0.219605
0.680583 0.723779 0.229475
0.756149 0.723671 0.239747
0.116188 0.765982 0.132917
0.144712 0.778801 0.132577
0.142435 0.776309 0.131446
0.138907 0.772365 0.129672
0.247234 0.768375 0.150086
0.382500 0.760497 0.170979
0.501791 0.754637 0.183990
0.609487 0.751607 0.191899
0.755517 0.751417 0.195193
0.063263 0.110596 0.559232
0.084629 0.168502 0.703457
0.548893 0.215612 0.725528
0.743898 0.265802 0.720024
0.791412 0.291559 0.694051
0.802222 0.305524 0.674956
0.807408 0.305292 0.672919
0.810401 0.217391 0.690627
0.806242 0.359832 0.682258
0.069721 0.156878 0.575826
0.092268 0.204891 0.660278
0.510522 0.264474 0.704284
0.713053 0.286015 0.687415
0.775121 0.302747 0.665584
0.794628 0.319421 0.655704
0.803032 0.321734 0.660818
0.807622 0.236050 0.684106
0.804458 0.354571 0.679669
0.081500 0.284559 0.476530
0.094029 0.276607 0.476649
0.246843 0.267007 0.499421
0.564454 0.291754 0.522582
0.706970 0.340347 0.551119
0.764621 0.383530 0.576734
0.788653 0.399680 0.602615
0.797798 0.377548 0.648925
0.798655 0.337994 0.671345
0.093666 0.448743 0.421331
0.102658 0.434523 0.406392
0.151824 0.392598 0.366277
0.351413 0.346712 0.333599
0.594056 0.403935 0.398989
0.710357 0.449200 0.453890
0.761861 0.478566 0.500564
0.784508 0.485085 0.581113
0.790050 0.314772 0.657910
0.112421 0.600483 0.424450
0.119403 0.591887 0.415303
0.165516 0.566878 0.391199
0.304177 0.534310 0.358699
0.493001 0.514041 0.341138
0.648506 0.532392 0.377924
0.726301 0.557116 0.417584
0.765785 0.571239 0.478396
0.780836 0.580967 0.621594
0.130341 0.675765 0.413414
0.137430 0.672247 0.408876
0.178034 0.662064 0.396898
0.284975 0.646540 0.380260
0.435558 0.631772 0.363472
0.575446 0.623599 0.359005
0.688374 0.627697 0.379303
0.746202 0.636578 0.412109
0.768925 0.645858 0.549914
0.141906 0.721519 0.393031
0.147134 0.719783 0.391142
0.179755 0.714587 0.386902
0.262375 0.706236 0.380051
0.394697 0.696769 0.371710
0.523403 0.687940 0.366969
0.643546 0.682793 0.369963
0.725358 0.683676 0.383843
0.760611 0.691318 0.459395
0.142513 0.755082 0.359255
0.146119 0.753860 0.358738
0.171651 0.749959 0.361324
0.233220 0.743582 0.361433
0.342712 0.735930 0.361033
0.467868 0.728711 0.361252
0.581753 0.723802 0.364311
0.695221 0.721987 0.371916
0.755648 0.722917 0.401212
0.126728 0.771202 0.354469
0.142942 0.777908 0.352449
0.140787 0.775523 0.345749
0.167109 0.774228 0.263931
0.276980 0.765052 0.325386
0.400938 0.758265 0.332649
0.515919 0.753189 0.338800
0.629400 0.750702 0.343715
0.755590 0.751208 0.353170
0.066115 0.169233 0.686608
0.076419 0.229806 0.742805
0.477310 0.319844 0.780473
0.726881 0.363416 0.780742
0.798195 0.401519 0.776308
0.807088 0.393092 0.752312
0.809760 0.376985 0.735480
0.810394 0.310499 0.730573
0.806245 0.371533 0.728628
0.071432 0.231578 0.692877
0.084794 0.284708 0.734778
0.442015 0.361870 0.775010
0.713575 0.402564 0.776737
0.784757 0.406317 0.761109
0.799576 0.401896 0.738388
0.805299 0.392781 0.726480
0.807563 0.327874 0.724910
0.804407 0.365525 0.724153
0.091049 0.414012 0.682593
0.108974 0.417409 0.690538
0.320543 0.423454 0.711319
0.607580 0.419453 0.705535
0.722850 0.424130 0.696796
0.772367 0.437674 0.693731
0.790657 0.440986 0.695788
0.797948 0.423860 0.703658
0.798404 0.346528 0.709767
0.100545 0.468760 0.592403
0.110129 0.462015 0.589399
0.188612 0.445190 0.586965
0.429337 0.434734 0.590411
0.623950 0.451617 0.604342
0.718463 0.483355 0.625057
0.763874 0.506744 0.646874
0.784235 0.511354 0.670928
0.789869 0.449193 0.695139
0.115988 0.584349 0.568775
0.126266 0.578063 0.561925
0.178795 0.558432 0.543278
0.322638 0.529673 0.519538
0.504980 0.507904 0.504872
0.660003 0.537567 0.544820
0.727904 0.564564 0.585258
0.764438 0.580525 0.621056
0.779067 0.591781 0.672124
0.138854 0.665109 0.559723
0.146743 0.662129 0.554973
0.194848 0.653228 0.541981
0.305521 0.639128 0.524557
0.455336 0.624997 0.509759
0.588758 0.617145 0.505363
0.693770 0.626173 0.527949
0.745138 0.637055 0.568706
0.766782 0.648669 0.641148
0.151322 0.714864 0.545150
0.158189 0.713338 0.542260
0.197728 0.708624 0.534263
0.287912 0.700968 0.523289
0.415743 0.692126 0.513032
0.541320 0.682827 0.506828
0.660763 0.678992 0.507744
0.728456 0.682186 0.523195
0.758655 0.692239 0.600424
0.149841 0.750003 0.526922
0.154087 0.748889 0.524936
0.185785 0.745283 0.519978
0.253525 0.739433 0.512929
0.367835 0.732400 0.506272
0.490455 0.725893 0.501664
0.599912 0.721713 0.500309
0.705436 0.720709 0.503591
0.754781 0.723140 0.547243
0.128876 0.771139 0.583810
0.130755 0.771560 0.582781
0.134532 0.771873 0.579330
0.188811 0.768943 0.505973
0.291578 0.762595 0.498003
0.412889 0.756530 0.493207
0.526511 0.752047 0.490562
0.644910 0.750143 0.490165
0.755329 0.751773 0.506064
0.070409 0.283310 0.770711
0.076380 0.321905 0.792803
0.409625 0.410974 0.815418
0.708035 0.439432 0.816396
0.797449 0.473127 0.817002
0.813235 0.464044 0.799610
0.813966 0.441396 0.781370
0.812499 0.395120 0.769313
0.807448 0.382288 0.755823
0.073684 0.330782 0.773537
0.082128 0.364093 0.792042
0.395998 0.436698 0.813697
0.697604 0.464810 0.815204
0.792523 0.493345 0.814008
0.806112 0.470850 0.791937
0.809582 0.450829 0.775970
0.809654 0.406898 0.765735
0.805574 0.376374 0.752585
0.098127 0.486350 0.776617
0.113290 0.498716 0.785865
0.371212 0.533030 0.805137
0.635152 0.521131 0.793387
0.740326 0.508786 0.778311
0.782926 0.500441 0.766255
0.795158 0.491748 0.757340
0.800086 0.469503 0.750594
0.799418 0.357497 0.741992
0.111079 0.530001 0.709731
0.123292 0.528760 0.711299
0.243260 0.529179 0.719960
0.492261 0.525154 0.720845
0.661500 0.525878 0.718072
0.732327 0.531986 0.717554
0.770388 0.539232 0.719791
0.786067 0.537413 0.724265
0.790421 0.494760 0.726168
0.123784 0.591990 0.665064
0.134635 0.588038 0.663454
0.202194 0.577691 0.661103
0.370328 0.562093 0.657264
0.544961 0.555389 0.657057
0.674171 0.566740 0.665977
0.733759 0.585204 0.678952
0.766030 0.597184 0.693788
0.779071 0.606734 0.709554
0.143698 0.659175 0.647639
0.152269 0.656913 0.645196
0.205920 0.649906 0.638728
0.321122 0.638143 0.629828
0.470930 0.625051 0.620633
0.595124 0.615525 0.614311
0.697686 0.629972 0.637297
0.745309 0.641807 0.663057
0.765879 0.653463 0.690700
0.157136 0.709949 0.635745
0.166016 0.708639 0.633849
0.208509 0.704578 0.628665
0.301363 0.697825 0.621667
0.429569 0.688965 0.615126
0.552806 0.680044 0.610803
0.666359 0.676858 0.612068
0.729243 0.682942 0.628446
0.757131 0.694071 0.672483
0.153330 0.746188 0.623927
0.159111 0.745195 0.622421
0.193527 0.741934 0.618212
0.265799 0.736600 0.612455
0.384078 0.730183 0.607146
0.504172 0.724279 0.603502
0.612262 0.720650 0.602470
0.710748 0.720333 0.605702
0.753758 0.724361 0.647178
0.128244 0.769334 0.608832
0.129834 0.769681 0.609406
0.132816 0.769807 0.611968
0.190301 0.767238 0.606633
0.296083 0.761200 0.599771
0.418080 0.755652 0.595134
0.531784 0.751727 0.592378
0.653308 0.750309 0.591276
0.754906 0.753047 0.621763
0.074368 0.404147 0.826832
0.079847 0.419677 0.837060
0.319620 0.475573 0.842895
0.696119 0.503083 0.843407
0.794932 0.529394 0.843792
0.819516 0.532912 0.837065
0.819030 0.502505 0.816485
0.815713 0.451738 0.799887
0.809442 0.398206 0.783448
0.077868 0.429703 0.828189
0.084367 0.443906 0.836778
0.322979 0.498166 0.842596
0.688025 0.522833 0.843229
0.792253 0.545138 0.843658
0.813022 0.536029 0.831628
0.814837 0.510789 0.811839
0.812921 0.462509 0.796736
0.807563 0.393742 0.780895
0.101422 0.538420 0.830766
0.113313 0.544745 0.835417
0.341467 0.570673 0.840886
0.659920 0.587510 0.842068
0.758051 0.568927 0.826937
0.791643 0.553276 0.810214
0.801005 0.537721 0.796806
0.803560 0.516371 0.786056
0.801354 0.373171 0.772208
0.126964 0.594271 0.798549
0.142968 0.593644 0.799799
0.287900 0.595437 0.801235
0.531738 0.589183 0.795749
0.684889 0.582290 0.787634
0.749270 0.578012 0.779929
0.780000 0.573537 0.773855
0.789593 0.564945 0.769295
0.791931 0.545352 0.764189
0.136300 0.619764 0.746886
0.147800 0.618612 0.747390
0.232193 0.616659 0.749883
0.417709 0.611865 0.748389
0.586688 0.607286 0.744581
0.693830 0.609267 0.742759
0.744532 0.613938 0.743673
0.770770 0.616743 0.746229
0.780966 0.620442 0.748003
0.149596 0.661967 0.713938
0.159449 0.660417 0.713276
0.218357 0.656028 0.712379
0.347355 0.648415 0.710310
0.504693 0.640368 0.706540
0.628059 0.637713 0.705324
0.707930 0.643116 0.711259
0.748997 0.650792 0.720780
0.766795 0.660083 0.730971
0.159548 0.707895 0.696902
0.169007 0.706857 0.696027
0.213844 0.703592 0.693961
0.310202 0.697981 0.691399
0.441073 0.690666 0.688735
0.563237 0.682185 0.685745
0.668950 0.676635 0.683187
0.730752 0.686960 0.698211
0.756827 0.696944 0.717238
0.152123 0.744374 0.683688
0.157727 0.743485 0.682808
0.193615 0.740508 0.680501
0.268674 0.735704 0.677526
0.388809 0.729887 0.675109
0.509561 0.724447 0.673712
0.619466 0.721081 0.673946
0.712836 0.721127 0.677917
0.752954 0.726318 0.705438
0.125797 0.766279 0.651289
0.129356 0.767837 0.650358
0.133011 0.768465 0.647458
0.178502 0.767398 0.666181
0.290556 0.761081 0.662257
0.415219 0.755887 0.659815
0.530619 0.752367 0.658063
0.652305 0.751379 0.657260
0.754567 0.755087 0.695911
0.081715 0.492585 0.862349
0.086771 0.496341 0.863331
0.366149 0.526023 0.863927
0.709596 0.545015 0.864064
0.799259 0.565414 0.864301
0.827016 0.577985 0.861991
0.824583 0.544402 0.845258
0.819681 0.493256 0.831383
0.811732 0.426531 0.809421
0.085106 0.512736 0.862287
0.090359 0.516459 0.863212
0.373363 0.540700 0.863922
0.703471 0.559273 0.864076
0.797326 0.579318 0.864314
0.821270 0.579976 0.857695
0.820713 0.549104 0.842226
0.816994 0.503469 0.828272
0.809893 0.426188 0.807197
0.111813 0.587221 0.862045
0.125991 0.589684 0.862686
0.400493 0.607124 0.863614
0.680144 0.618901 0.863919
0.781100 0.617342 0.857419
0.802048 0.597240 0.844028
0.807812 0.573935 0.831623
0.807985 0.543110 0.817937
0.803899 0.453171 0.799818
0.151971 0.640520 0.851168
0.173946 0.639217 0.850382
0.369761 0.638078 0.846974
0.588019 0.631783 0.840377
0.716758 0.624343 0.831850
0.770147 0.616755 0.820667
0.788518 0.606095 0.810707
0.794408 0.588646 0.802388
0.794310 0.568088 0.793482
0.155260 0.647100 0.810831
0.172603 0.646293 0.810567
0.291595 0.645444 0.808831
0.481487 0.641662 0.804010
0.639794 0.637684 0.798128
0.719445 0.635108 0.792752
0.759469 0.633102 0.788345
0.778205 0.629865 0.784846
0.783302 0.630061 0.780732
0.159756 0.673930 0.779776
0.172451 0.672991 0.779881
0.246985 0.670930 0.779773
0.392746 0.666078 0.776773
0.543604 0.661084 0.772387
0.667045 0.658927 0.769061
0.724622 0.659711 0.767826
0.756827 0.661413 0.768219
0.769543 0.667097 0.768359
0.161236 0.709787 0.757920
0.170691 0.709021 0.758130
0.221665 0.706831 0.759612
0.324334 0.702612 0.759529
0.463940 0.697291 0.756248
0.589336 0.692868 0.751554
0.687421 0.691593 0.749607
0.737661 0.694657 0.753247
0.758541 0.700689 0.758154
0.145521 0.745728 0.734095
0.150342 0.744875 0.733809
0.186004 0.741892 0.733950
0.263619 0.737439 0.734768
0.389556 0.732197 0.736410
0.514241 0.727321 0.737241
0.627972 0.724038 0.737045
0.713475 0.722147 0.735933
0.753015 0.728817 0.749631
0.121594 0.762492 0.698300
0.132129 0.768025 0.698470
0.132377 0.767045 0.701883
0.163926 0.767740 0.708224
0.268320 0.762755 0.707286
0.402114 0.757654 0.707281
0.521251 0.754354 0.707803
0.639360 0.753562 0.707898
0.754385 0.757480 0.745095
0.337688 0.530275 0.883373
0.430075 0.532689 0.883378
0.679718 0.542226 0.883395
0.791904 0.558375 0.883451
0.823206 0.576877 0.883547
0.840743 0.592074 0.883698
0.833049 0.550308 0.866806
0.824846 0.465173 0.852475
0.813702 0.442965 0.836912
0.343459 0.541948 0.883323
0.431409 0.544381 0.883329
0.676971 0.553965 0.883350
0.790711 0.570137 0.883411
0.822661 0.588576 0.883511
0.836348 0.593997 0.880010
0.829615 0.553707 0.863864
0.822333 0.471237 0.850323
0.811896 0.445556 0.837496
0.380615 0.599187 0.883048
0.444994 0.601408 0.883060
0.666299 0.610072 0.883104
0.785034 0.620580 0.883201
0.817714 0.627301 0.881246
0.820821 0.608879 0.867133
0.818311 0.575618 0.854239
0.813973 0.515770 0.843151
0.805873 0.430831 0.831577
0.409136 0.662493 0.879724
0.449375 0.660896 0.878362
0.617153 0.656029 0.873803
0.742828 0.648717 0.866551
0.786403 0.639562 0.857744
0.797793 0.628857 0.848566
0.801251 0.614262 0.839879
0.801163 0.578793 0.831297
0.797173 0.567423 0.821511
0.324307 0.667939 0.847798
0.359880 0.666886 0.846979
0.509966 0.663775 0.844249
0.672752 0.659280 0.839908
0.737226 0.653993 0.834726
0.768688 0.648028 0.827359
0.782369 0.640299 0.820112
0.786864 0.628103 0.813630
0.786551 0.622455 0.808331
0.250868 0.687381 0.823035
0.275633 0.686398 0.822138
0.397102 0.683511 0.819172
0.570277 0.679458 0.814560
0.684017 0.675235 0.809371
0.731248 0.671608 0.804612
0.756620 0.667816 0.800719
0.770006 0.661865 0.797642
0.774226 0.664686 0.795387
0.193478 0.714561 0.806099
0.207436 0.713793 0.805353
0.287247 0.711405 0.802822
0.446597 0.707691 0.798755
0.600062 0.703657 0.794054
0.692022 0.700549 0.789866
0.732323 0.698586 0.786949
0.754020 0.696477 0.785539
0.762844 0.700377 0.785196
0.140943 0.747496 0.795126
0.145592 0.746804 0.795108
0.179345 0.744362 0.794086
0.288435 0.740156 0.791252
0.451219 0.735241 0.787347
0.602649 0.731046 0.783245
0.700394 0.728520 0.779989
0.741083 0.727078 0.778549
0.755867 0.729303 0.778973
0.116416 0.758303 0.735105
0.131956 0.767096 0.750086
0.130779 0.765409 0.748018
0.136482 0.763659 0.744687
0.217550 0.767568 0.770200
0.374797 0.762233 0.780170
0.512763 0.758875 0.778711
0.643854 0.758213 0.777537
0.754432 0.760210 0.777302
