negative-ultramax-400/Ultramax400_Classic_ExtraPunchy.cube
TITLE "Kodak Ultramax 400 Classic ExtraPunchy"
# Adobe RGB in/out. REPLACES AgX. Kodak Ultramax 400 Classic ExtraPunchy.
LUT_3D_SIZE 5
DOMAIN_MIN 0.0 0.0 0.0
DOMAIN_MAX 1.0 1.0 1.0
0.069662 0.073299 0.081842
0.340775 0.080264 0.078321
0.708626 0.105441 0.080944
0.798068 0.130699 0.090738
0.823886 0.242069 0.579990
0.069238 0.146836 0.078399
0.091216 0.154997 0.079606
0.574595 0.180950 0.082046
0.789015 0.223925 0.090974
0.823887 0.242079 0.579988
0.076132 0.467577 0.080959
0.087382 0.487398 0.082757
0.294373 0.489402 0.088342
0.709957 0.511260 0.099075
0.824183 0.518365 0.255420
0.089795 0.706884 0.084972
0.102455 0.712579 0.088474
0.226783 0.717557 0.099105
0.574993 0.718543 0.115532
0.821710 0.731884 0.147711
0.101870 0.807714 0.081730
0.124313 0.830287 0.081740
0.193660 0.837242 0.092296
0.465496 0.833207 0.112046
0.824347 0.838233 0.124615
0.067524 0.079420 0.125642
0.340463 0.097052 0.343817
0.720334 0.122202 0.277655
0.797829 0.154688 0.355770
0.823887 0.242081 0.580015
0.072363 0.145916 0.122497
0.162443 0.175408 0.155336
0.663927 0.201514 0.168754
0.791889 0.241593 0.223461
0.823887 0.242079 0.579989
0.082681 0.457310 0.127916
0.109381 0.471624 0.136628
0.404209 0.485094 0.155805
0.750816 0.516278 0.182309
0.824089 0.532325 0.466203
0.097813 0.701632 0.130670
0.119722 0.706338 0.140301
0.278309 0.711962 0.164048
0.625646 0.716636 0.194025
0.822676 0.732339 0.246534
0.104262 0.815028 0.106202
0.126663 0.835227 0.106200
0.210336 0.836462 0.127570
0.485487 0.833050 0.168622
0.827830 0.838273 0.191910
0.068663 0.105787 0.460341
0.208140 0.144954 0.622648
0.703211 0.178316 0.623446
0.795312 0.217074 0.639188
0.823887 0.252795 0.680549
0.074725 0.187353 0.470042
0.151920 0.220645 0.563548
0.664083 0.261383 0.593126
0.790719 0.303595 0.620364
0.823887 0.251774 0.671206
0.092581 0.465988 0.438472
0.140292 0.479819 0.457741
0.510341 0.513917 0.513895
0.769559 0.539083 0.549537
0.823756 0.559992 0.658855
0.118832 0.699691 0.439834
0.150789 0.703748 0.446827
0.353802 0.710631 0.469193
0.687179 0.719267 0.498736
0.823434 0.739669 0.599077
0.116543 0.829552 0.536526
0.123160 0.834670 0.536523
0.253069 0.834228 0.468352
0.529131 0.833082 0.480407
0.828853 0.839878 0.512687
0.070690 0.175440 0.712739
0.129570 0.219024 0.747775
0.688739 0.260165 0.750079
0.793136 0.295535 0.753899
0.823886 0.264934 0.754381
0.076505 0.269268 0.719545
0.136732 0.300779 0.742632
0.660309 0.337453 0.747876
0.789545 0.372834 0.752658
0.823882 0.264359 0.752178
0.102274 0.511711 0.697008
0.157972 0.527840 0.715175
0.544299 0.549343 0.735274
0.774463 0.569386 0.745411
0.823558 0.590440 0.759941
0.131859 0.709624 0.673082
0.170074 0.713568 0.681269
0.397602 0.721623 0.701790
0.713768 0.731976 0.721089
0.823855 0.749980 0.757283
0.117663 0.831067 0.636732
0.125415 0.836999 0.637087
0.259599 0.837640 0.671322
0.541733 0.836822 0.679791
0.829151 0.845002 0.738008
0.135411 0.261046 0.832810
0.478055 0.273154 0.832857
0.748943 0.306675 0.833176
0.802458 0.324424 0.834172
0.823887 0.297322 0.829475
0.150307 0.329282 0.832128
0.446763 0.340658 0.832246
0.742050 0.374297 0.832727
0.801705 0.392831 0.833922
0.823887 0.303533 0.834122
0.175427 0.553037 0.830732
0.339870 0.557224 0.831109
0.709797 0.570613 0.831939
0.798207 0.581243 0.833321
0.825732 0.582037 0.836202
0.155104 0.729452 0.830969
0.221460 0.731014 0.831583
0.597187 0.735895 0.832712
0.786836 0.742160 0.834092
0.827025 0.750957 0.836169
0.112772 0.828650 0.762850
0.126663 0.839602 0.779104
0.202495 0.849496 0.815151
0.517108 0.846802 0.836015
0.829507 0.851680 0.837054
