negative-ultramax-400/Ultramax400_Modern_Soft.cube
TITLE "Kodak Ultramax 400 Modern Soft"
# Adobe RGB in/out. REPLACES AgX. Kodak Ultramax 400 Modern Soft.
LUT_3D_SIZE 9
DOMAIN_MIN 0.0 0.0 0.0
DOMAIN_MAX 1.0 1.0 1.0
0.061578 0.068299 0.085817
0.118803 0.085303 0.090329
0.380198 0.125219 0.098884
0.553035 0.225750 0.108339
0.640431 0.355771 0.119450
0.701169 0.450611 0.132488
0.737008 0.518713 0.147417
0.766828 0.563108 0.163761
0.790299 0.600957 0.182995
0.071086 0.104499 0.089441
0.097936 0.099799 0.090317
0.291205 0.135841 0.097280
0.521413 0.247548 0.107128
0.627979 0.368682 0.118262
0.692771 0.458619 0.131416
0.732931 0.524804 0.146384
0.763907 0.566912 0.162817
0.788841 0.604161 0.182015
0.092297 0.328915 0.097994
0.132461 0.288780 0.097902
0.257851 0.241731 0.099126
0.457734 0.314961 0.105878
0.597565 0.409335 0.115944
0.669485 0.484432 0.128818
0.720668 0.540096 0.143587
0.754718 0.579750 0.160089
0.783028 0.615150 0.179066
0.120726 0.514724 0.106503
0.174068 0.494119 0.106294
0.321713 0.455158 0.106604
0.447651 0.439191 0.108754
0.565579 0.471100 0.115729
0.644566 0.526325 0.127245
0.705206 0.565261 0.141077
0.741995 0.601240 0.157134
0.772737 0.633615 0.175514
0.165965 0.604594 0.114789
0.214885 0.596089 0.114695
0.363852 0.574890 0.114949
0.475275 0.557236 0.116659
0.564547 0.553340 0.120544
0.628172 0.568684 0.128455
0.688094 0.599922 0.140906
0.729729 0.630759 0.155897
0.761861 0.653227 0.173333
0.214266 0.662315 0.123973
0.267810 0.659410 0.124007
0.395800 0.651176 0.124438
0.494429 0.639610 0.126011
0.578453 0.631135 0.129263
0.629017 0.631654 0.134599
0.676716 0.642197 0.143695
0.720513 0.657861 0.157468
0.752651 0.671628 0.173971
0.273307 0.694722 0.132585
0.311547 0.693017 0.132703
0.411986 0.687867 0.133291
0.506644 0.681383 0.135181
0.585483 0.676342 0.138687
0.633059 0.674606 0.144001
0.677356 0.676679 0.151498
0.714798 0.682097 0.161825
0.746068 0.692871 0.177898
0.319612 0.720376 0.141851
0.353017 0.719392 0.142080
0.425705 0.716317 0.142980
0.514036 0.712160 0.144870
0.587853 0.708512 0.148036
0.634437 0.706711 0.153518
0.677861 0.707448 0.160961
0.714384 0.710751 0.170931
0.742172 0.716212 0.184994
0.357964 0.740565 0.149689
0.381848 0.740042 0.150022
0.439211 0.738383 0.151257
0.517941 0.736081 0.153654
0.587558 0.734016 0.157429
0.633114 0.733039 0.162713
0.675975 0.733711 0.170286
0.712712 0.736224 0.181473
0.740185 0.740455 0.194505
0.062496 0.074299 0.142866
0.123981 0.088697 0.144417
0.380232 0.127148 0.147361
0.544803 0.220901 0.150597
0.634881 0.347738 0.158906
0.696641 0.445913 0.169647
0.734708 0.514993 0.184501
0.765178 0.561167 0.199824
0.789501 0.599548 0.217089
0.070149 0.101674 0.126340
0.088637 0.092544 0.110386
0.278257 0.131927 0.128824
0.509213 0.237717 0.141852
0.621925 0.360993 0.153538
0.688171 0.453566 0.165860
0.730624 0.521456 0.181678
0.762265 0.564938 0.197859
0.788049 0.602741 0.215242
0.089912 0.307794 0.143193
0.122738 0.258773 0.131942
0.223577 0.211612 0.121538
0.437658 0.295339 0.129477
0.590148 0.398135 0.142987
0.664795 0.478466 0.157636
0.718370 0.537150 0.173766
0.753111 0.577690 0.192030
0.781895 0.613707 0.210053
0.116773 0.500010 0.147465
0.165736 0.480096 0.142812
0.300716 0.440613 0.133526
0.431836 0.422037 0.130667
0.556060 0.462049 0.137383
0.640237 0.521017 0.150542
0.703042 0.562182 0.165937
0.740492 0.599139 0.185095
0.771687 0.632294 0.203888
0.161850 0.598354 0.151874
0.207902 0.589993 0.149396
0.356446 0.568940 0.144448
0.467753 0.551298 0.141077
0.557732 0.547933 0.141983
0.624912 0.564848 0.148788
0.685563 0.597107 0.162848
0.728437 0.628808 0.180467
0.760953 0.652466 0.199212
0.210373 0.660144 0.157097
0.263091 0.657269 0.156013
0.390581 0.649088 0.153212
0.490279 0.636327 0.151005
0.574528 0.627756 0.151574
0.626713 0.628730 0.155746
0.674947 0.640228 0.163888
0.719539 0.656958 0.180029
0.751947 0.671014 0.197817
0.270517 0.693430 0.162503
0.308383 0.691740 0.162092
0.410134 0.686632 0.161059
0.504283 0.680190 0.160475
0.584037 0.675198 0.161574
0.631723 0.673558 0.165100
0.676148 0.675800 0.172505
0.714171 0.681503 0.183794
0.745600 0.692459 0.200029
0.317732 0.719623 0.167767
0.351719 0.718649 0.167690
0.424371 0.715602 0.167661
0.512697 0.711483 0.168413
0.587062 0.707881 0.170856
0.633713 0.706141 0.175685
0.677199 0.706968 0.183201
0.714002 0.710390 0.193321
0.741900 0.715983 0.206126
0.357241 0.740160 0.173906
0.380935 0.739643 0.174093
0.438468 0.738003 0.174874
0.517349 0.735732 0.176670
0.587155 0.733706 0.179988
0.632764 0.732777 0.185250
0.675673 0.733511 0.192688
0.712554 0.736100 0.202448
0.740098 0.740416 0.215669
0.063687 0.084998 0.380222
0.124221 0.096627 0.382235
0.392900 0.140233 0.389444
0.557795 0.247624 0.374484
0.633978 0.355029 0.350241
0.692707 0.444868 0.344479
0.731547 0.511807 0.345471
0.762275 0.558619 0.349763
0.787850 0.597211 0.355876
0.073084 0.124351 0.381947
0.127802 0.132521 0.373034
0.343843 0.169591 0.330941
0.518093 0.257328 0.323644
0.619547 0.363356 0.326039
0.683632 0.451271 0.331003
0.727290 0.517649 0.337262
0.759300 0.562188 0.344423
0.786306 0.600312 0.352226
0.085148 0.255212 0.291448
0.111021 0.219913 0.242720
0.176103 0.168912 0.176873
0.420483 0.282296 0.221851
0.582285 0.389476 0.262006
0.658371 0.472144 0.291417
0.714511 0.533138 0.313154
0.749969 0.574318 0.328150
0.779404 0.611001 0.340810
0.109211 0.469182 0.313072
0.149027 0.452319 0.287385
0.269391 0.406994 0.232872
0.403556 0.388019 0.204813
0.537981 0.445981 0.221173
0.631918 0.509673 0.251955
0.697097 0.556512 0.281147
0.737190 0.594994 0.305864
0.769204 0.629401 0.325112
0.151755 0.583045 0.315083
0.191317 0.575373 0.302027
0.337773 0.555339 0.268352
0.448886 0.537652 0.237170
0.541055 0.535020 0.224655
0.617150 0.556113 0.234518
0.679465 0.590675 0.259968
0.725242 0.624255 0.285829
0.758624 0.650652 0.309770
0.199911 0.654267 0.308561
0.250500 0.651535 0.301859
0.376863 0.642076 0.282787
0.479429 0.627710 0.261177
0.564105 0.618883 0.246600
0.620435 0.620747 0.243066
0.670214 0.635153 0.252826
0.716891 0.654606 0.275617
0.749999 0.669405 0.298895
0.262448 0.689702 0.299719
0.299327 0.688080 0.296323
0.404810 0.683146 0.286133
0.497585 0.676874 0.273412
0.578825 0.672022 0.263520
0.627878 0.670615 0.259944
0.672623 0.673303 0.263723
0.712363 0.679858 0.274725
0.744230 0.691312 0.295742
0.312009 0.717347 0.290587
0.347757 0.716409 0.288997
0.420977 0.713470 0.284124
0.508668 0.709491 0.277876
0.584685 0.706035 0.273092
0.631534 0.704473 0.272108
0.675191 0.705556 0.276173
0.712832 0.709326 0.285463
0.741062 0.715312 0.299392
0.354943 0.738895 0.281622
0.378039 0.738400 0.281060
0.436119 0.736829 0.279395
0.515113 0.734662 0.277547
0.585893 0.732764 0.276985
0.631667 0.731988 0.279105
0.674727 0.732912 0.284860
0.712057 0.735736 0.294644
0.739823 0.740316 0.308353
0.064923 0.099820 0.593213
0.124660 0.109766 0.593718
0.393329 0.164115 0.595527
0.577446 0.292833 0.598823
0.646082 0.386335 0.571295
0.697106 0.457923 0.545219
0.731748 0.517870 0.529704
0.761146 0.560061 0.520188
0.786703 0.597235 0.513632
0.073581 0.142685 0.593646
0.130974 0.161094 0.594151
0.397879 0.230003 0.595956
0.557097 0.321378 0.578044
0.630947 0.392908 0.548408
0.687414 0.463098 0.531220
0.727237 0.522914 0.521282
0.758040 0.563300 0.514815
0.784713 0.600155 0.509498
0.086085 0.281473 0.522408
0.120313 0.273916 0.502492
0.272352 0.278697 0.468742
0.458946 0.332025 0.467442
0.589777 0.410138 0.479473
0.659569 0.479233 0.488470
0.713517 0.534824 0.493427
0.748256 0.574314 0.495680
0.777528 0.610243 0.496351
0.103997 0.443929 0.491972
0.135664 0.428178 0.472732
0.244811 0.389065 0.413212
0.362367 0.354830 0.340397
0.530171 0.441779 0.398148
0.628073 0.507396 0.434767
0.693399 0.554821 0.457687
0.734759 0.593232 0.469987
0.767043 0.627740 0.477756
0.140233 0.565618 0.496456
0.181819 0.559199 0.485477
0.309056 0.541491 0.453649
0.427119 0.523763 0.408326
0.521637 0.519369 0.379984
0.609377 0.548303 0.398224
0.673709 0.585523 0.424358
0.722163 0.620694 0.445630
0.756245 0.649192 0.459229
0.186723 0.646758 0.491166
0.234761 0.643139 0.485001
0.360943 0.631695 0.466090
0.466377 0.617259 0.439135
0.551340 0.608511 0.413892
0.612479 0.611140 0.402260
0.664616 0.629550 0.409342
0.713792 0.652137 0.427654
0.747704 0.667765 0.444221
0.251464 0.684638 0.479494
0.289800 0.683151 0.475974
0.397607 0.678583 0.464957
0.488767 0.672677 0.449349
0.570667 0.668056 0.431153
0.622767 0.666891 0.419356
0.667873 0.670108 0.415949
0.710017 0.677909 0.421421
0.742442 0.689984 0.435673
0.303764 0.714114 0.464565
0.342020 0.713245 0.462678
0.416222 0.710512 0.456634
0.502986 0.706797 0.446936
0.581013 0.703591 0.435848
0.628496 0.702279 0.427937
0.672368 0.703694 0.425001
0.711171 0.707932 0.427340
0.739897 0.714497 0.434137
0.351456 0.737033 0.447566
0.373659 0.736576 0.446395
0.432579 0.735128 0.442624
0.511770 0.733146 0.437190
0.584029 0.731460 0.431853
0.630057 0.730919 0.428379
0.673339 0.732120 0.428015
0.711325 0.735281 0.431274
0.739418 0.740249 0.437978
0.066545 0.121768 0.706300
0.125314 0.132369 0.706550
0.393971 0.198440 0.707447
0.577650 0.323826 0.709087
0.664313 0.436372 0.704965
0.706563 0.483978 0.673809
0.735715 0.531135 0.650952
0.762601 0.566783 0.635517
0.786716 0.600924 0.623259
0.074353 0.176485 0.706514
0.131686 0.194652 0.706764
0.398260 0.270155 0.707660
0.579438 0.373279 0.709299
0.649792 0.443066 0.688128
0.698549 0.488578 0.662160
0.731062 0.534231 0.643704
0.759379 0.569694 0.630585
0.784660 0.603630 0.619804
0.092104 0.372223 0.697177
0.147060 0.372957 0.689753
0.359170 0.382081 0.670698
0.514638 0.410504 0.650226
0.609660 0.455443 0.636539
0.669643 0.502197 0.627241
0.716663 0.544256 0.620228
0.749134 0.579535 0.614258
0.777212 0.612975 0.608659
0.103431 0.448015 0.618816
0.136964 0.442194 0.609590
0.272897 0.427513 0.584572
0.425649 0.433915 0.563702
0.552815 0.472009 0.567418
0.634177 0.523306 0.578907
0.695438 0.560790 0.587304
0.734696 0.596320 0.591564
0.766247 0.629209 0.592456
0.131694 0.552709 0.606970
0.170886 0.547915 0.599777
0.292070 0.534053 0.575379
0.416570 0.515622 0.539583
0.499201 0.500128 0.503155
0.606540 0.547716 0.533034
0.671694 0.585854 0.553337
0.720751 0.620826 0.565585
0.754842 0.649126 0.572850
0.182319 0.635269 0.603967
0.219250 0.632036 0.599522
0.347397 0.621576 0.584458
0.453754 0.608429 0.561258
0.539051 0.599304 0.538114
0.604103 0.601703 0.525079
0.659671 0.625139 0.533657
0.711288 0.650675 0.547407
0.745849 0.666926 0.557210
0.239537 0.679177 0.596198
0.281216 0.677882 0.593551
0.385474 0.673857 0.583802
0.479487 0.668530 0.569036
0.562199 0.664233 0.553743
0.617315 0.663202 0.541424
0.662702 0.666883 0.536000
0.707655 0.676244 0.539599
0.740686 0.688974 0.548293
0.294578 0.710460 0.583235
0.331641 0.709690 0.581414
0.410739 0.707258 0.575471
0.496574 0.703935 0.566427
0.575425 0.701084 0.556663
0.625139 0.700064 0.548342
0.669218 0.701811 0.543181
0.709308 0.706552 0.542259
0.738791 0.713981 0.545214
0.347231 0.734868 0.566498
0.368373 0.734465 0.565505
0.428323 0.733192 0.562234
0.507799 0.731468 0.557271
0.581735 0.730072 0.551860
0.628194 0.729828 0.546938
0.671740 0.731354 0.544087
0.710484 0.734902 0.543887
0.738964 0.740319 0.546202
0.067998 0.162856 0.768224
0.126307 0.179458 0.768334
0.394838 0.253131 0.768728
0.577925 0.363337 0.769450
0.670247 0.466289 0.770523
0.716120 0.517951 0.752407
0.742002 0.548156 0.733160
0.766152 0.578194 0.719051
0.787850 0.608266 0.703236
0.075301 0.228439 0.768319
0.132644 0.249412 0.768428
0.398773 0.315719 0.768822
0.579712 0.403759 0.769543
0.668259 0.487682 0.768481
0.709517 0.522480 0.745315
0.737386 0.551009 0.728525
0.762888 0.580860 0.714361
0.786175 0.610776 0.700059
0.094190 0.415812 0.768656
0.159971 0.426942 0.768766
0.410531 0.459982 0.769158
0.555632 0.476102 0.752580
0.630644 0.501263 0.736520
0.684240 0.532033 0.723734
0.722906 0.560109 0.710957
0.752409 0.589806 0.699342
0.778561 0.619424 0.689707
0.108226 0.486834 0.723679
0.153088 0.485780 0.720725
0.322842 0.485685 0.708790
0.476470 0.495006 0.695694
0.586198 0.518846 0.687338
0.648075 0.545349 0.683169
0.702927 0.574567 0.680526
0.737296 0.604831 0.677759
0.767144 0.634095 0.674312
0.129614 0.552388 0.687444
0.168595 0.549625 0.682935
0.295491 0.542026 0.668543
0.431767 0.535736 0.648967
0.536602 0.541258 0.637601
0.616445 0.564486 0.640672
0.676251 0.595245 0.647917
0.721990 0.626392 0.653145
0.754985 0.651039 0.655514
0.174387 0.626668 0.678805
0.207348 0.623998 0.675477
0.335471 0.615800 0.663407
0.445583 0.605148 0.645456
0.532639 0.596468 0.625862
0.595430 0.593206 0.608148
0.658021 0.625853 0.623302
0.710530 0.651450 0.633975
0.745074 0.667563 0.640063
0.228373 0.674226 0.672453
0.268443 0.673159 0.669997
0.373411 0.669804 0.661978
0.471166 0.665253 0.649960
0.554839 0.661390 0.636933
0.612279 0.660216 0.625331
0.657518 0.663969 0.619503
0.705658 0.675296 0.624024
0.739339 0.688697 0.630567
0.288326 0.706850 0.661880
0.320805 0.706201 0.660399
0.405105 0.704141 0.655505
0.490128 0.701314 0.647996
0.569937 0.698909 0.639597
0.621856 0.698191 0.632079
0.666067 0.700193 0.626701
0.707419 0.705400 0.624992
0.737755 0.713788 0.627049
0.342652 0.732650 0.648274
0.363125 0.732313 0.647445
0.423765 0.731255 0.644685
0.503563 0.729849 0.640394
0.578251 0.728806 0.635519
0.626269 0.728905 0.630925
0.670105 0.730776 0.627640
0.709631 0.734723 0.626439
0.738526 0.740615 0.627245
0.069572 0.226082 0.818489
0.127564 0.247071 0.818562
0.395939 0.313998 0.818826
0.578275 0.402476 0.819310
0.670379 0.490793 0.820030
0.724813 0.545537 0.809930
0.748787 0.568115 0.786331
0.770733 0.592807 0.768385
0.789639 0.618502 0.754490
0.076382 0.293408 0.818552
0.133905 0.310908 0.818625
0.399424 0.364648 0.818889
0.580060 0.440475 0.819372
0.671053 0.514681 0.820092
0.718684 0.548724 0.802878
0.744344 0.570857 0.781555
0.767510 0.595315 0.765111
0.788051 0.620857 0.752216
0.095083 0.449814 0.818778
0.161419 0.457720 0.818851
0.411157 0.484865 0.819114
0.584596 0.528105 0.819331
0.648393 0.540483 0.799044
0.698815 0.557996 0.781093
0.730261 0.579559 0.766363
0.757077 0.603691 0.754485
0.781129 0.628952 0.744732
0.116093 0.534208 0.789390
0.172895 0.534399 0.787047
0.366186 0.536073 0.779802
0.515037 0.541816 0.769925
0.607020 0.553530 0.760113
0.663563 0.571136 0.751694
0.710388 0.593120 0.744730
0.741752 0.617583 0.738772
0.769447 0.641915 0.733356
0.133727 0.568017 0.748827
0.176478 0.567033 0.746824
0.322155 0.564904 0.740709
0.461989 0.565449 0.732949
0.566693 0.573128 0.726854
0.631558 0.589420 0.723829
0.685757 0.611906 0.722771
0.725672 0.636631 0.722056
0.756696 0.654970 0.720813
0.171016 0.625415 0.733060
0.202789 0.623710 0.731237
0.332667 0.618583 0.725338
0.449099 0.612560 0.715182
0.542411 0.610114 0.702339
0.610356 0.617623 0.695631
0.664434 0.637601 0.697736
0.712586 0.655610 0.702049
0.745816 0.670138 0.704817
0.219547 0.670842 0.726712
0.258587 0.670029 0.725408
0.364599 0.667457 0.721086
0.465632 0.663942 0.711653
0.550883 0.660915 0.700133
0.609764 0.659789 0.689439
0.652567 0.661565 0.681208
0.705015 0.676163 0.688790
0.738922 0.689722 0.693786
0.282758 0.703775 0.720606
0.310975 0.703257 0.719775
0.399917 0.701613 0.715582
0.484367 0.699362 0.708988
0.565238 0.697490 0.701358
0.619107 0.697087 0.694245
0.663271 0.699147 0.689082
0.705620 0.704612 0.687204
0.736916 0.714064 0.689452
0.335973 0.730618 0.709265
0.358361 0.730355 0.708532
0.420029 0.729536 0.706076
0.499394 0.728490 0.702198
0.574888 0.727843 0.697682
0.624453 0.728314 0.693477
0.668584 0.730523 0.690431
0.708846 0.734842 0.689090
0.738163 0.741206 0.689467
0.071580 0.304290 0.851817
0.129086 0.320204 0.851852
0.396876 0.372186 0.851976
0.578702 0.446257 0.852205
0.670540 0.518880 0.852547
0.731429 0.571082 0.850495
0.754741 0.588967 0.833884
0.775285 0.609034 0.813838
0.791655 0.630567 0.796961
0.077551 0.357780 0.851847
0.135796 0.370033 0.851881
0.400219 0.412027 0.852006
0.580484 0.472845 0.852235
0.671213 0.535955 0.852577
0.725841 0.574267 0.846458
0.750549 0.591648 0.829412
0.772164 0.611438 0.810478
0.790090 0.632633 0.794582
0.096328 0.480770 0.851954
0.163182 0.488083 0.851988
0.411920 0.513337 0.852113
0.585182 0.546320 0.852342
0.661549 0.570748 0.846277
0.708420 0.583637 0.832194
0.737139 0.600155 0.814836
0.761992 0.619447 0.799496
0.784209 0.639700 0.786706
0.124396 0.569661 0.842981
0.184126 0.569987 0.841649
0.399436 0.571610 0.837295
0.540277 0.575917 0.827465
0.622759 0.584180 0.815619
0.677304 0.596804 0.803483
0.717849 0.613298 0.792561
0.746825 0.632474 0.783001
0.772481 0.649734 0.774582
0.143457 0.592860 0.800467
0.183485 0.592734 0.798975
0.351265 0.592950 0.794217
0.487595 0.595441 0.787405
0.588589 0.602308 0.780365
0.645521 0.614431 0.774269
0.696325 0.631114 0.769284
0.730513 0.648206 0.764993
0.759416 0.660373 0.760912
0.173294 0.633723 0.774215
0.207022 0.632998 0.772866
0.343057 0.631032 0.768510
0.462157 0.629567 0.762215
0.559446 0.631713 0.756015
0.622869 0.639686 0.751761
0.674078 0.651026 0.749869
0.716647 0.662327 0.749211
0.747853 0.674437 0.748519
0.214858 0.670153 0.762556
0.253571 0.669615 0.761449
0.361461 0.667945 0.757764
0.464872 0.665812 0.752034
0.553029 0.664456 0.745529
0.613697 0.665410 0.739880
0.661161 0.670688 0.737168
0.707509 0.680837 0.738023
0.739881 0.692537 0.739475
0.276067 0.701768 0.755320
0.303182 0.701388 0.754562
0.395536 0.700190 0.752014
0.480129 0.698592 0.747953
0.562228 0.697391 0.743127
0.617680 0.697479 0.738428
0.661912 0.699610 0.734647
0.703997 0.704289 0.732349
0.736625 0.715208 0.734889
0.329303 0.729018 0.747636
0.353984 0.728831 0.747178
0.416600 0.728262 0.745634
0.495630 0.727596 0.743167
0.571944 0.727374 0.740240
0.622928 0.728234 0.737438
0.667352 0.730756 0.735323
0.708212 0.735366 0.734325
0.737923 0.742156 0.734590
0.073470 0.374562 0.875811
0.130876 0.386461 0.875837
0.397827 0.427373 0.875933
0.579208 0.483065 0.876109
0.670731 0.542001 0.876371
0.735176 0.594453 0.876724
0.759157 0.609390 0.860790
0.779048 0.625615 0.847044
0.793470 0.642425 0.835099
0.079065 0.414250 0.875833
0.138028 0.425407 0.875860
0.401158 0.458900 0.875956
0.580988 0.507385 0.876131
0.671404 0.556422 0.876393
0.730577 0.598303 0.873275
0.755255 0.612010 0.858045
0.776069 0.627935 0.845045
0.791948 0.644394 0.832819
0.097768 0.514681 0.875915
0.165266 0.521431 0.875942
0.412824 0.538424 0.876038
0.585506 0.566015 0.876213
0.670160 0.598022 0.874496
0.714665 0.607662 0.861267
0.742659 0.620354 0.849109
0.766296 0.635265 0.838444
0.786844 0.649324 0.825229
0.131808 0.601232 0.873302
0.201618 0.601505 0.872011
0.414786 0.602736 0.867693
0.558116 0.605805 0.860839
0.634384 0.611647 0.852565
0.688164 0.620790 0.843965
0.724208 0.632985 0.835402
0.751524 0.646687 0.823760
0.775533 0.656484 0.813091
0.153874 0.619593 0.843429
0.200288 0.619732 0.842637
0.372610 0.620559 0.840006
0.508933 0.623122 0.835580
0.601797 0.628610 0.827943
0.657026 0.637139 0.820165
0.704781 0.647825 0.812476
0.735293 0.656665 0.805276
0.762382 0.666491 0.798599
0.179630 0.647557 0.815940
0.217357 0.647439 0.814912
0.354957 0.647249 0.811536
0.476637 0.647701 0.806429
0.575613 0.649785 0.800802
0.633292 0.654226 0.795715
0.682973 0.661097 0.791591
0.721050 0.669848 0.788208
0.750410 0.679663 0.785074
0.215199 0.672778 0.797731
0.254290 0.672506 0.796847
0.363381 0.671722 0.793905
0.469052 0.670990 0.789338
0.560068 0.671303 0.784198
0.620285 0.673761 0.779729
0.668454 0.679108 0.776840
0.711129 0.687109 0.775473
0.741700 0.696597 0.774677
0.271546 0.701340 0.787710
0.298494 0.701100 0.787050
0.391595 0.700366 0.784821
0.478200 0.699492 0.781245
0.561744 0.699143 0.776965
0.618369 0.700108 0.772806
0.663839 0.703184 0.769624
0.706664 0.709193 0.768291
0.737404 0.717809 0.768596
0.323794 0.728086 0.779523
0.350347 0.727973 0.779106
0.413763 0.727652 0.777695
0.492602 0.727372 0.775421
0.569716 0.727591 0.772687
0.621898 0.728858 0.770023
0.666649 0.731692 0.767951
0.707897 0.736495 0.766901
0.737855 0.743522 0.767163
