negative-ultramax-400/Ultramax400_Modern_Normal.cube
TITLE "Kodak Ultramax 400 Modern Normal"
# Adobe RGB in/out. REPLACES AgX. Kodak Ultramax 400 Modern Normal.
LUT_3D_SIZE 5
DOMAIN_MIN 0.0 0.0 0.0
DOMAIN_MAX 1.0 1.0 1.0
0.073661 0.072636 0.087722
0.363833 0.149172 0.093288
0.726192 0.349813 0.109775
0.854875 0.525846 0.145286
0.908766 0.646714 0.189915
0.101118 0.329608 0.092964
0.261403 0.254408 0.093397
0.659026 0.403781 0.105799
0.831539 0.557917 0.140027
0.900468 0.664372 0.185445
0.180499 0.651422 0.104553
0.348704 0.613135 0.104676
0.603146 0.579608 0.110724
0.787439 0.645375 0.136378
0.881198 0.712199 0.178940
0.272742 0.771939 0.125852
0.401919 0.761992 0.126813
0.635446 0.745338 0.133380
0.773863 0.745823 0.150588
0.866746 0.769250 0.184118
0.342322 0.831618 0.148298
0.436077 0.829715 0.150283
0.639738 0.825905 0.158152
0.772118 0.825638 0.175492
0.859134 0.831522 0.203062
0.075185 0.095228 0.378875
0.375340 0.167860 0.387154
0.715892 0.349066 0.350571
0.847062 0.518119 0.345792
0.905482 0.641870 0.356216
0.093143 0.264951 0.296043
0.190744 0.194635 0.182954
0.628858 0.383752 0.269462
0.822776 0.546643 0.314177
0.897176 0.659408 0.341122
0.166066 0.623608 0.315755
0.322168 0.582907 0.275219
0.569529 0.549684 0.233691
0.776528 0.633433 0.267610
0.878241 0.708530 0.311404
0.264795 0.764652 0.303133
0.391388 0.755160 0.291268
0.623819 0.739117 0.270837
0.767887 0.740961 0.271022
0.864510 0.766987 0.299847
0.339053 0.830162 0.287208
0.432520 0.828360 0.285201
0.636293 0.824811 0.283027
0.770543 0.824941 0.290124
0.858653 0.831401 0.310241
0.077144 0.144210 0.777815
0.376309 0.221169 0.778921
0.757403 0.431085 0.776529
0.853025 0.543412 0.706228
0.904030 0.646671 0.670480
0.100865 0.366371 0.769012
0.343627 0.376300 0.731081
0.677466 0.454351 0.688161
0.825837 0.564697 0.665603
0.895184 0.661770 0.647096
0.146611 0.578566 0.644409
0.290982 0.548120 0.598908
0.513776 0.505077 0.514133
0.766714 0.627222 0.570858
0.874782 0.706357 0.595622
0.247728 0.749426 0.627357
0.368615 0.741758 0.609879
0.599765 0.727933 0.571381
0.755374 0.731734 0.550418
0.859800 0.763596 0.564730
0.330723 0.826649 0.587602
0.423572 0.825185 0.582235
0.627951 0.822458 0.568955
0.766772 0.823579 0.559828
0.857513 0.831404 0.562293
0.079506 0.241982 0.899445
0.378090 0.314890 0.899750
0.765055 0.494676 0.900840
0.869238 0.604159 0.872008
0.907881 0.668385 0.841899
0.104803 0.446758 0.899707
0.400772 0.488082 0.900011
0.737361 0.558546 0.882875
0.845225 0.619127 0.853843
0.898743 0.680909 0.827459
0.148736 0.603996 0.833511
0.312125 0.598792 0.821524
0.606243 0.610876 0.801164
0.784482 0.660491 0.795187
0.876479 0.714685 0.792325
0.232581 0.737421 0.800955
0.349515 0.732558 0.792725
0.583533 0.723182 0.771866
0.742611 0.724112 0.745866
0.857457 0.764680 0.764365
0.321019 0.822936 0.780674
0.413093 0.821990 0.777599
0.618102 0.820422 0.769500
0.762790 0.822853 0.759418
0.856448 0.832176 0.757999
0.082579 0.368725 0.953374
0.380746 0.421993 0.953462
0.765499 0.561018 0.953775
0.878727 0.657482 0.942585
0.911826 0.698310 0.914458
0.107816 0.521333 0.953449
0.403078 0.555201 0.953537
0.764778 0.642918 0.952432
0.862422 0.670603 0.933622
0.904189 0.706638 0.905544
0.168224 0.669691 0.925565
0.356950 0.670849 0.920719
0.665173 0.680498 0.907997
0.808967 0.704506 0.894314
0.881673 0.731171 0.882496
0.229296 0.740206 0.881755
0.348193 0.738686 0.878487
0.596698 0.738084 0.870180
0.762625 0.749327 0.863449
0.861147 0.774664 0.861467
0.313187 0.820721 0.865905
0.404380 0.820140 0.864232
0.610610 0.820049 0.859644
0.760349 0.823874 0.855300
0.856040 0.834193 0.854577
