negative-ultramax-400/Ultramax400_Modern_Normal.cube
TITLE "Kodak Ultramax 400 Modern Normal"
# Adobe RGB in/out. REPLACES AgX. Kodak Ultramax 400 Modern Normal.
LUT_3D_SIZE 9
DOMAIN_MIN 0.0 0.0 0.0
DOMAIN_MAX 1.0 1.0 1.0
0.073661 0.072636 0.087722
0.132948 0.095658 0.090123
0.363833 0.149172 0.093288
0.586610 0.241717 0.099681
0.726192 0.349813 0.109775
0.803998 0.447832 0.125715
0.854875 0.525846 0.145286
0.885729 0.595797 0.166767
0.908766 0.646714 0.189915
0.080389 0.121572 0.089751
0.108004 0.113991 0.090118
0.289960 0.164554 0.092703
0.541810 0.258975 0.098419
0.706355 0.362805 0.108425
0.793358 0.458651 0.124194
0.849040 0.533249 0.143862
0.883065 0.602147 0.165349
0.906811 0.650861 0.188799
0.101118 0.329608 0.092964
0.147418 0.292895 0.092930
0.261403 0.254408 0.093397
0.457464 0.315737 0.097517
0.659026 0.403781 0.105799
0.763926 0.487600 0.120535
0.831539 0.557917 0.140027
0.874669 0.619374 0.161568
0.900468 0.664372 0.185445
0.135002 0.521382 0.097968
0.188691 0.498380 0.097818
0.311839 0.453967 0.098041
0.445804 0.433934 0.100120
0.604635 0.472801 0.105557
0.732551 0.535685 0.118339
0.809569 0.599388 0.136611
0.861540 0.647079 0.157773
0.891113 0.686811 0.181412
0.180499 0.651422 0.104553
0.229058 0.640421 0.104492
0.348704 0.613135 0.104676
0.481083 0.586046 0.106608
0.603146 0.579608 0.110724
0.706662 0.605113 0.120027
0.787439 0.645375 0.136378
0.844463 0.683091 0.156190
0.881198 0.712199 0.178940
0.228589 0.725186 0.114132
0.268729 0.721029 0.114165
0.377965 0.709276 0.114601
0.507212 0.694632 0.116624
0.623279 0.683581 0.121159
0.708004 0.684256 0.128188
0.773055 0.698012 0.140174
0.831317 0.718815 0.158202
0.872778 0.738551 0.179664
0.272742 0.771939 0.125852
0.305160 0.769461 0.126020
0.401919 0.761992 0.126813
0.523688 0.752612 0.128801
0.635446 0.745338 0.133380
0.714429 0.742836 0.140593
0.773863 0.745823 0.150588
0.823184 0.753643 0.163864
0.866746 0.769250 0.184118
0.310475 0.809430 0.137661
0.336970 0.807985 0.137973
0.420573 0.803471 0.139199
0.532265 0.797378 0.141782
0.640350 0.792041 0.146141
0.716624 0.789408 0.153155
0.774501 0.790484 0.162693
0.822597 0.795315 0.176221
0.861775 0.803317 0.192193
0.342322 0.831618 0.148298
0.365329 0.831162 0.148719
0.436077 0.829715 0.150283
0.536948 0.827707 0.153328
0.639738 0.825905 0.158152
0.714517 0.825051 0.165193
0.772118 0.825638 0.175492
0.820220 0.827832 0.188182
0.859134 0.831522 0.203062
0.074239 0.082100 0.139044
0.138474 0.099576 0.141162
0.363864 0.152263 0.145208
0.574859 0.237821 0.149446
0.717330 0.343542 0.160047
0.798260 0.441516 0.174769
0.851584 0.521682 0.191631
0.884225 0.592568 0.209164
0.907696 0.644892 0.226696
0.079871 0.116756 0.117080
0.097037 0.103918 0.101431
0.276336 0.160275 0.120544
0.526667 0.251241 0.137663
0.696769 0.355067 0.153180
0.787536 0.451815 0.169934
0.845743 0.528918 0.188416
0.881566 0.598849 0.206907
0.905749 0.649023 0.225057
0.098291 0.309502 0.139488
0.137149 0.267712 0.124939
0.235609 0.230724 0.111675
0.434290 0.298640 0.121460
0.645115 0.392482 0.139209
0.758011 0.480972 0.158416
0.828266 0.553133 0.179430
0.873199 0.616728 0.200229
0.899439 0.662646 0.220021
0.130723 0.504945 0.145352
0.180267 0.482782 0.138969
0.297950 0.435371 0.127061
0.427601 0.416603 0.123136
0.590944 0.462779 0.131627
0.725881 0.528425 0.149377
0.806504 0.594257 0.170051
0.859542 0.644363 0.192307
0.890157 0.685090 0.213539
0.176328 0.643348 0.151065
0.223739 0.632554 0.147927
0.340678 0.605513 0.141204
0.470918 0.576243 0.136610
0.593344 0.570715 0.137841
0.701494 0.598699 0.147182
0.784237 0.641736 0.165396
0.842619 0.680736 0.187038
0.880369 0.711114 0.208461
0.225628 0.722079 0.157726
0.265267 0.717969 0.156338
0.373240 0.706303 0.152766
0.501521 0.690347 0.149964
0.617580 0.679475 0.150685
0.704348 0.680642 0.155997
0.770821 0.695440 0.166958
0.829930 0.717524 0.186539
0.872133 0.737668 0.206860
0.270708 0.770061 0.164878
0.303062 0.767609 0.164263
0.399358 0.760203 0.162819
0.520790 0.750889 0.162066
0.632464 0.743689 0.163488
0.712304 0.741327 0.168785
0.772337 0.744557 0.178002
0.822293 0.752786 0.190825
0.866317 0.768652 0.209400
0.309241 0.808323 0.172645
0.335567 0.806893 0.172557
0.419046 0.802422 0.172526
0.530710 0.796387 0.173374
0.638710 0.791117 0.176137
0.715471 0.788576 0.181606
0.773665 0.789783 0.190150
0.822053 0.794787 0.201706
0.861413 0.802980 0.215892
0.341539 0.831265 0.179589
0.364501 0.830814 0.179802
0.435222 0.829384 0.180687
0.536120 0.827403 0.182725
0.638904 0.825634 0.186493
0.713959 0.824822 0.192484
0.771738 0.825463 0.200982
0.819996 0.827724 0.212026
0.859019 0.831488 0.225435
0.075185 0.095228 0.378875
0.138729 0.109848 0.380684
0.375340 0.167860 0.387154
0.593434 0.259035 0.373715
0.715892 0.349066 0.350571
0.793277 0.440114 0.344798
0.847062 0.518119 0.345792
0.881575 0.588338 0.350092
0.905482 0.641870 0.356216
0.082247 0.147801 0.380426
0.142515 0.161376 0.372410
0.327072 0.195322 0.331351
0.537159 0.266593 0.324132
0.693015 0.357444 0.326502
0.781795 0.448720 0.331413
0.840981 0.524655 0.337603
0.878858 0.594266 0.344742
0.903521 0.645879 0.352560
0.093143 0.264951 0.296043
0.123943 0.237025 0.251863
0.190744 0.194635 0.182954
0.413727 0.287199 0.230981
0.628858 0.383752 0.269462
0.749917 0.473958 0.296015
0.822776 0.546643 0.314177
0.870321 0.612402 0.328590
0.897176 0.659408 0.341122
0.121777 0.470675 0.314109
0.163284 0.450133 0.292394
0.269886 0.401419 0.241893
0.389469 0.382283 0.214512
0.565167 0.441606 0.230326
0.712613 0.515734 0.260310
0.798837 0.584848 0.286780
0.855135 0.639006 0.308195
0.887895 0.681448 0.325585
0.166066 0.623608 0.315755
0.210895 0.613755 0.305037
0.322168 0.582907 0.275219
0.447231 0.553948 0.246419
0.569529 0.549684 0.233691
0.689235 0.584187 0.243627
0.776528 0.633433 0.267610
0.838058 0.675277 0.290995
0.878241 0.708530 0.311404
0.217589 0.713682 0.310411
0.255947 0.709788 0.304898
0.360808 0.697854 0.288257
0.486720 0.679419 0.268709
0.602510 0.668841 0.255416
0.694416 0.671074 0.252181
0.764846 0.688816 0.261105
0.826162 0.714166 0.281791
0.870350 0.735355 0.302453
0.264795 0.764652 0.303133
0.296984 0.762301 0.300327
0.391388 0.755160 0.291268
0.511551 0.746105 0.279799
0.623819 0.739117 0.270837
0.706195 0.737095 0.267588
0.767887 0.740961 0.271022
0.819723 0.750410 0.280986
0.864510 0.766987 0.299847
0.305466 0.804982 0.295270
0.331290 0.803606 0.293842
0.414416 0.799297 0.289461
0.526034 0.793472 0.283831
0.633800 0.788421 0.279510
0.712003 0.786141 0.278620
0.771129 0.787722 0.282293
0.820390 0.793230 0.290666
0.860300 0.801997 0.302863
0.339053 0.830162 0.287208
0.361875 0.829730 0.286702
0.432520 0.828360 0.285201
0.533515 0.826469 0.283534
0.636293 0.824811 0.283027
0.712214 0.824133 0.284940
0.770543 0.824941 0.290124
0.819290 0.827406 0.298909
0.858653 0.831401 0.310241
0.076129 0.114019 0.622659
0.139198 0.130715 0.623454
0.375728 0.189769 0.626300
0.621815 0.296447 0.631498
0.734456 0.380586 0.593653
0.798850 0.457708 0.561147
0.847349 0.524902 0.543105
0.880544 0.590730 0.532073
0.904013 0.641900 0.524633
0.082661 0.169689 0.623340
0.145854 0.186695 0.624134
0.380825 0.245116 0.626977
0.592431 0.322397 0.602375
0.711068 0.387211 0.564864
0.786577 0.463939 0.544865
0.840905 0.530551 0.533340
0.877707 0.596117 0.525856
0.901997 0.645676 0.520490
0.094188 0.286474 0.534644
0.134561 0.279810 0.513468
0.272046 0.284029 0.471219
0.459087 0.332535 0.469600
0.644344 0.404591 0.484626
0.751426 0.481824 0.496194
0.821364 0.549368 0.502603
0.868752 0.612397 0.505521
0.895471 0.658503 0.506391
0.115576 0.438855 0.500719
0.150316 0.422806 0.476196
0.251694 0.383338 0.412672
0.347093 0.348867 0.340708
0.554126 0.436550 0.395943
0.706505 0.513190 0.433835
0.794153 0.582051 0.457486
0.851656 0.636731 0.472771
0.885925 0.679455 0.482475
0.154370 0.599984 0.506528
0.196502 0.589300 0.492333
0.303509 0.560187 0.452489
0.422193 0.531585 0.407238
0.542124 0.526580 0.378662
0.677022 0.571323 0.396028
0.769257 0.626796 0.423865
0.833668 0.671011 0.444232
0.876066 0.706451 0.459397
0.207281 0.702988 0.499678
0.244115 0.699242 0.491719
0.345548 0.684311 0.467917
0.469065 0.666896 0.438017
0.584186 0.656432 0.413429
0.681889 0.659575 0.400503
0.757786 0.681627 0.408368
0.821755 0.710646 0.427023
0.868246 0.733000 0.442884
0.256665 0.757317 0.484651
0.288301 0.755167 0.480246
0.380413 0.748570 0.466509
0.499452 0.740061 0.447789
0.611985 0.733418 0.430375
0.698100 0.731746 0.419064
0.761893 0.736365 0.415719
0.816393 0.747597 0.421050
0.862134 0.765060 0.434703
0.299987 0.800240 0.466021
0.325108 0.798967 0.463676
0.407793 0.794965 0.456181
0.518998 0.789533 0.445481
0.626975 0.784853 0.434871
0.707176 0.782940 0.427294
0.767564 0.785003 0.424481
0.818031 0.791191 0.426723
0.858752 0.800802 0.433232
0.335283 0.828538 0.446083
0.357902 0.828139 0.444964
0.428454 0.826876 0.441356
0.529634 0.825144 0.436156
0.632447 0.823672 0.431045
0.709655 0.823199 0.427718
0.768790 0.824249 0.427369
0.818249 0.827009 0.430491
0.858116 0.831342 0.436910
0.077144 0.144210 0.777815
0.139895 0.161094 0.778056
0.376309 0.221169 0.778921
0.622111 0.324745 0.780503
0.757403 0.431085 0.776529
0.811493 0.487095 0.735038
0.853025 0.543412 0.706228
0.881873 0.601932 0.686883
0.904030 0.646671 0.670480
0.083235 0.202283 0.778022
0.146603 0.218382 0.778263
0.381402 0.276485 0.779127
0.624711 0.367434 0.780707
0.739121 0.437851 0.756029
0.800678 0.492211 0.720321
0.846369 0.548408 0.697135
0.878931 0.606479 0.681030
0.901949 0.650174 0.664922
0.100865 0.366371 0.769012
0.161277 0.367110 0.758420
0.343627 0.376300 0.731081
0.532963 0.404961 0.705317
0.677466 0.454351 0.688161
0.764126 0.507386 0.676905
0.825837 0.564697 0.665603
0.869556 0.619097 0.656032
0.895184 0.661770 0.647096
0.114905 0.444339 0.663334
0.151372 0.436969 0.648580
0.272443 0.422134 0.610883
0.420509 0.428602 0.584082
0.586295 0.473809 0.588762
0.716209 0.530990 0.603498
0.796736 0.591941 0.614451
0.851565 0.640718 0.620069
0.885200 0.681217 0.621470
0.146611 0.578566 0.644409
0.185477 0.570685 0.633006
0.290982 0.548120 0.598908
0.408276 0.522386 0.554586
0.513776 0.505077 0.514133
0.672580 0.570360 0.546971
0.766714 0.627222 0.570858
0.831656 0.671169 0.586452
0.874782 0.706357 0.595622
0.197005 0.688968 0.639640
0.232357 0.684755 0.632602
0.330902 0.672067 0.610735
0.452857 0.656334 0.581007
0.566684 0.644575 0.552876
0.668772 0.647680 0.537739
0.751554 0.676336 0.547695
0.818197 0.708563 0.563697
0.866545 0.731796 0.575853
0.247728 0.749426 0.627357
0.278476 0.747558 0.623190
0.368615 0.741758 0.609879
0.486799 0.734099 0.590802
0.599765 0.727933 0.571381
0.689495 0.726457 0.556728
0.755374 0.731734 0.550418
0.813041 0.745197 0.554604
0.859800 0.763596 0.564730
0.293618 0.794889 0.609139
0.318244 0.793763 0.606764
0.400195 0.790208 0.599027
0.510160 0.785355 0.587513
0.618881 0.781198 0.575147
0.701854 0.779711 0.564787
0.763590 0.782258 0.558773
0.815386 0.789176 0.557699
0.857282 0.800046 0.561142
0.330723 0.826649 0.587602
0.353103 0.826297 0.586351
0.423572 0.825185 0.582235
0.525026 0.823679 0.575931
0.627951 0.822458 0.568955
0.706696 0.822245 0.563150
0.766772 0.823579 0.559828
0.817055 0.826678 0.559596
0.857513 0.831404 0.562293
0.078244 0.188489 0.855551
0.140941 0.205275 0.855651
0.377094 0.263333 0.856013
0.622511 0.357425 0.856675
0.764888 0.467471 0.857659
0.825065 0.524992 0.838811
0.861549 0.571081 0.810414
0.885113 0.617375 0.790096
0.905482 0.656139 0.774860
0.084043 0.243867 0.855637
0.147610 0.260433 0.855738
0.382181 0.316571 0.856099
0.625110 0.398154 0.856760
0.762380 0.491214 0.855786
0.815683 0.530064 0.828320
0.855416 0.575769 0.803612
0.882135 0.620799 0.785583
0.903358 0.659140 0.771795
0.103620 0.410318 0.855947
0.174421 0.421557 0.856047
0.399907 0.460493 0.856407
0.590331 0.478348 0.839068
0.710588 0.506344 0.815355
0.782563 0.544860 0.796596
0.834727 0.590810 0.782304
0.872556 0.632313 0.771102
0.896411 0.669489 0.758353
0.120603 0.490271 0.796515
0.167424 0.489099 0.792197
0.312571 0.488993 0.780216
0.482703 0.499368 0.767180
0.636924 0.525995 0.754867
0.736960 0.566485 0.748742
0.806341 0.612722 0.744867
0.855287 0.651729 0.740814
0.886017 0.687437 0.735773
0.144424 0.578039 0.755023
0.183161 0.573492 0.748399
0.294266 0.561059 0.728364
0.427522 0.550843 0.703735
0.563214 0.559808 0.689490
0.688125 0.598096 0.693335
0.772467 0.639330 0.702418
0.833421 0.677838 0.708982
0.874913 0.709081 0.711959
0.189013 0.678169 0.742345
0.223315 0.674969 0.737475
0.320698 0.665151 0.721891
0.443418 0.652140 0.699331
0.557609 0.640909 0.674678
0.655944 0.636698 0.646283
0.749476 0.677193 0.670550
0.817121 0.709667 0.684953
0.865633 0.732710 0.692572
0.239252 0.742289 0.733297
0.269193 0.740753 0.730197
0.357677 0.735929 0.720092
0.475523 0.729397 0.704982
0.589194 0.723862 0.688654
0.681574 0.722181 0.673822
0.748843 0.727555 0.664438
0.810210 0.743831 0.671713
0.858011 0.763195 0.681010
0.286562 0.789611 0.719969
0.311250 0.788662 0.718104
0.391841 0.785656 0.711948
0.501314 0.781533 0.702517
0.610930 0.778029 0.691989
0.696661 0.776984 0.682721
0.759616 0.779899 0.676033
0.812707 0.787494 0.673274
0.855907 0.799762 0.676596
0.325789 0.824711 0.702866
0.347915 0.824417 0.701826
0.418315 0.823493 0.698365
0.519795 0.822264 0.692988
0.622985 0.821351 0.686884
0.703645 0.821438 0.681414
0.764709 0.823074 0.677550
0.815845 0.826522 0.675610
0.856931 0.831661 0.676911
0.079506 0.241982 0.899445
0.142265 0.258601 0.899512
0.378090 0.314890 0.899750
0.623020 0.396860 0.900188
0.765055 0.494676 0.900840
0.837446 0.566792 0.892150
0.869238 0.604159 0.872008
0.889288 0.636183 0.855698
0.907881 0.668385 0.841899
0.085115 0.296951 0.899502
0.148882 0.312208 0.899569
0.383171 0.358745 0.899807
0.625616 0.435231 0.900245
0.765905 0.521334 0.900897
0.828713 0.572013 0.886145
0.864662 0.607968 0.867764
0.886351 0.639421 0.852693
0.905751 0.671206 0.838529
0.104803 0.446758 0.899707
0.175891 0.457432 0.899773
0.400772 0.488082 0.900011
0.633616 0.538539 0.900208
0.737361 0.558546 0.882875
0.801014 0.587305 0.867342
0.845225 0.619127 0.853843
0.876827 0.650253 0.841893
0.898743 0.680909 0.827459
0.129920 0.548371 0.874626
0.187507 0.548680 0.872620
0.351116 0.551387 0.866160
0.533427 0.560717 0.857111
0.673332 0.579921 0.848101
0.756458 0.608325 0.837755
0.816919 0.636588 0.827456
0.861216 0.667285 0.818670
0.888116 0.697644 0.810703
0.148736 0.603996 0.833511
0.191122 0.602349 0.830549
0.312125 0.598792 0.821524
0.463167 0.599702 0.810104
0.606243 0.610876 0.801164
0.712041 0.631815 0.796735
0.784482 0.660491 0.795187
0.838672 0.690744 0.794142
0.876479 0.714685 0.792325
0.185608 0.676668 0.810268
0.219812 0.674624 0.807591
0.318902 0.668482 0.798944
0.447476 0.661274 0.786373
0.571456 0.658349 0.773995
0.678557 0.667333 0.767087
0.757556 0.692010 0.769552
0.820041 0.715600 0.773715
0.866515 0.736409 0.776385
0.232581 0.737421 0.800955
0.261948 0.736252 0.799045
0.349515 0.732558 0.792725
0.468062 0.727516 0.782974
0.583533 0.723182 0.771866
0.677629 0.721570 0.757959
0.742611 0.724112 0.745866
0.809298 0.745081 0.757003
0.857457 0.764680 0.764365
0.280010 0.785121 0.792023
0.304781 0.784365 0.790809
0.383919 0.781969 0.786758
0.493442 0.778689 0.780407
0.604143 0.775964 0.773048
0.692321 0.775378 0.765042
0.756090 0.778377 0.757432
0.810155 0.786342 0.754669
0.854743 0.800168 0.757977
0.321019 0.822936 0.780674
0.342751 0.822706 0.779968
0.413093 0.821990 0.777599
0.514043 0.821075 0.773858
0.618102 0.820422 0.769500
0.700767 0.820922 0.763909
0.762790 0.822853 0.759418
0.814731 0.826626 0.757444
0.856448 0.832176 0.757999
0.080849 0.306452 0.936109
0.143868 0.321271 0.936134
0.379306 0.366333 0.936224
0.623640 0.441977 0.936389
0.765258 0.526033 0.936636
0.846894 0.608255 0.935153
0.874690 0.631232 0.913361
0.893431 0.657057 0.895472
0.910291 0.682847 0.881097
0.086273 0.351834 0.936130
0.150423 0.364165 0.936155
0.384379 0.406497 0.936245
0.626234 0.474736 0.936411
0.766107 0.551196 0.936658
0.838912 0.612337 0.929860
0.870853 0.634687 0.909324
0.890591 0.659932 0.892616
0.908486 0.685532 0.879065
0.106206 0.483530 0.936207
0.177680 0.491660 0.936232
0.401828 0.519830 0.936322
0.634824 0.568073 0.936488
0.753921 0.607829 0.929603
0.814126 0.624369 0.911836
0.855062 0.645676 0.896320
0.881317 0.669516 0.883261
0.901539 0.694749 0.872329
0.138917 0.606436 0.924932
0.205228 0.606854 0.923044
0.383189 0.608931 0.916884
0.568425 0.614453 0.907565
0.698088 0.625068 0.896985
0.773797 0.641344 0.886661
0.827525 0.662156 0.877338
0.867441 0.685325 0.869087
0.890880 0.707223 0.861380
0.157595 0.636252 0.884089
0.204297 0.636088 0.882817
0.335077 0.636367 0.878754
0.497850 0.639583 0.872927
0.641875 0.648463 0.866676
0.733751 0.663512 0.861093
0.797859 0.683553 0.856523
0.845584 0.705048 0.852585
0.878964 0.722406 0.848836
0.187909 0.686953 0.861044
0.223065 0.686007 0.859807
0.326226 0.683447 0.855813
0.463392 0.681647 0.850033
0.595805 0.684333 0.844162
0.698262 0.694732 0.837854
0.769723 0.709062 0.835053
0.825814 0.725203 0.834079
0.868383 0.742594 0.833056
0.229038 0.736430 0.850346
0.258232 0.735657 0.849328
0.346110 0.733258 0.845941
0.467040 0.730197 0.838259
0.586602 0.728254 0.828636
0.683803 0.729622 0.820301
0.753432 0.737200 0.816308
0.812834 0.751822 0.817566
0.858731 0.768765 0.819705
0.274748 0.782194 0.843130
0.299599 0.781640 0.842006
0.377725 0.779895 0.838229
0.487672 0.777567 0.832219
0.599805 0.775820 0.825090
0.690070 0.775948 0.818162
0.754378 0.779050 0.812599
0.807855 0.785871 0.809223
0.854327 0.801844 0.812955
0.316741 0.821537 0.831749
0.338015 0.821373 0.831073
0.408318 0.820875 0.828792
0.508863 0.820057 0.825149
0.613834 0.819730 0.820831
0.698355 0.820851 0.816705
0.761235 0.823057 0.813594
0.813831 0.827083 0.812127
0.856130 0.833004 0.812515
0.082579 0.368725 0.953374
0.145751 0.380713 0.953393
0.380746 0.421993 0.953462
0.624376 0.486080 0.953588
0.765499 0.561018 0.953775
0.852252 0.638308 0.954028
0.878727 0.657482 0.942585
0.896853 0.676907 0.930691
0.911826 0.698310 0.914458
0.087949 0.408742 0.953391
0.152314 0.420007 0.953410
0.385810 0.459031 0.953478
0.626940 0.513178 0.953604
0.766348 0.584698 0.953792
0.845675 0.643281 0.951557
0.875160 0.660616 0.940606
0.894145 0.679689 0.927856
0.910539 0.700640 0.912400
0.107816 0.521333 0.953449
0.179791 0.528890 0.953468
0.403078 0.555201 0.953537
0.635493 0.600648 0.953662
0.764778 0.642918 0.952432
0.822995 0.655399 0.942928
0.862422 0.670603 0.933622
0.885245 0.688963 0.918508
0.904189 0.706638 0.905544
0.146732 0.647070 0.951577
0.218909 0.647422 0.950651
0.405799 0.649016 0.947551
0.593895 0.652991 0.942620
0.716539 0.660181 0.936650
0.787527 0.671125 0.926326
0.836583 0.685991 0.914731
0.871746 0.702888 0.904215
0.893657 0.716847 0.894838
0.168224 0.669691 0.925565
0.217881 0.669858 0.924444
0.356950 0.670849 0.920719
0.526341 0.673919 0.914892
0.665173 0.680498 0.907997
0.748224 0.691407 0.900963
0.808967 0.704506 0.894314
0.852420 0.717105 0.888189
0.881673 0.731171 0.882496
0.194298 0.704125 0.897258
0.230929 0.703957 0.896385
0.339067 0.703687 0.893516
0.482929 0.704330 0.889171
0.619153 0.707295 0.884375
0.714800 0.713624 0.880033
0.780961 0.723442 0.876509
0.832083 0.735992 0.873615
0.870725 0.750129 0.870930
0.229296 0.740206 0.881755
0.258765 0.739814 0.881000
0.348193 0.738686 0.878487
0.472669 0.737633 0.874581
0.596698 0.738084 0.870180
0.694178 0.741621 0.866094
0.762625 0.749327 0.863449
0.817971 0.760894 0.862196
0.861147 0.774664 0.861467
0.271458 0.781570 0.873188
0.296395 0.781220 0.872623
0.374158 0.780152 0.870714
0.485051 0.778878 0.867480
0.599109 0.778369 0.863563
0.691156 0.779775 0.859752
0.756807 0.784260 0.856834
0.811635 0.793036 0.855612
0.855441 0.805660 0.855892
0.313187 0.820721 0.865905
0.334085 0.820613 0.865523
0.404380 0.820140 0.864232
0.504706 0.819727 0.862149
0.610610 0.820049 0.859644
0.696726 0.821397 0.857201
0.760349 0.823874 0.855300
0.813384 0.828068 0.854336
0.856040 0.834193 0.854577
