negative-superia-reala/SuperiaReala_Modern_Normal.cube
TITLE "Fuji Superia Reala Modern Normal"
# Adobe RGB in/out. REPLACES AgX. Fuji Superia Reala Modern Normal.
LUT_3D_SIZE 5
DOMAIN_MIN 0.0 0.0 0.0
DOMAIN_MAX 1.0 1.0 1.0
0.074318 0.073381 0.089635
0.364731 0.102340 0.094021
0.812715 0.165061 0.109583
0.908120 0.191608 0.146693
0.917146 0.154842 0.688538
0.084478 0.369951 0.096040
0.180936 0.202504 0.097036
0.696670 0.247303 0.110959
0.882612 0.291914 0.141262
0.911376 0.148691 0.669374
0.103598 0.729050 0.116733
0.171418 0.652771 0.120976
0.480813 0.519724 0.125951
0.801218 0.518658 0.150207
0.891173 0.427212 0.320736
0.121062 0.846504 0.143102
0.172434 0.829379 0.150394
0.406410 0.771926 0.163562
0.719074 0.730150 0.178929
0.869753 0.713781 0.211633
0.112372 0.868669 0.136126
0.184191 0.871698 0.134356
0.315353 0.861962 0.172123
0.633786 0.844187 0.196978
0.861638 0.840242 0.212563
0.078080 0.106762 0.314216
0.311332 0.137955 0.612313
0.808297 0.201568 0.485080
0.902081 0.212643 0.516396
0.914992 0.152441 0.682337
0.098745 0.296093 0.252742
0.196799 0.195929 0.195545
0.690179 0.281873 0.279304
0.878207 0.313627 0.348351
0.908873 0.146669 0.660646
0.140102 0.704205 0.292343
0.223873 0.631330 0.262088
0.518790 0.516181 0.232017
0.804248 0.531161 0.263838
0.887952 0.434938 0.507670
0.155235 0.839151 0.284986
0.216539 0.823870 0.281969
0.448116 0.768822 0.273767
0.737012 0.731705 0.275406
0.868587 0.713285 0.301828
0.111798 0.871416 0.242251
0.182496 0.874322 0.237857
0.335419 0.860380 0.248265
0.652624 0.843723 0.280305
0.862125 0.839799 0.291300
0.084404 0.215563 0.735776
0.343939 0.257689 0.836341
0.827037 0.328079 0.831164
0.902974 0.295003 0.784370
0.914026 0.151373 0.771533
0.122252 0.455016 0.735002
0.323388 0.408721 0.765377
0.729575 0.386620 0.740301
0.878666 0.378328 0.736263
0.906777 0.145450 0.744720
0.165147 0.659309 0.594559
0.250072 0.608426 0.559807
0.512362 0.506103 0.510959
0.803170 0.552893 0.585118
0.883856 0.471798 0.696064
0.202096 0.825768 0.591985
0.267794 0.808727 0.575293
0.494107 0.761402 0.542210
0.747898 0.731525 0.528403
0.865113 0.716231 0.606473
0.148718 0.872890 0.641101
0.167011 0.871407 0.633616
0.381852 0.856200 0.557123
0.678738 0.842666 0.542363
0.861788 0.839892 0.543907
0.093291 0.397823 0.888464
0.305520 0.428429 0.902798
0.824177 0.479527 0.903725
0.911918 0.429324 0.874364
0.916524 0.154139 0.838684
0.134461 0.576651 0.892697
0.349112 0.580185 0.901934
0.780666 0.554825 0.885475
0.890574 0.492285 0.857196
0.910197 0.147502 0.822897
0.189196 0.699431 0.813652
0.290497 0.674114 0.812985
0.610313 0.633619 0.804191
0.821510 0.620919 0.801589
0.885222 0.526643 0.800089
0.214804 0.817383 0.773585
0.281859 0.801673 0.767815
0.509027 0.763372 0.751318
0.743565 0.733108 0.737265
0.862811 0.727066 0.775304
0.148286 0.866926 0.729733
0.169502 0.866313 0.725086
0.380829 0.854443 0.733865
0.681165 0.843340 0.722484
0.860845 0.842901 0.762763
0.193870 0.522223 0.947225
0.420430 0.541435 0.947261
0.878786 0.596492 0.947437
0.925721 0.551490 0.937347
0.919847 0.225783 0.898999
0.267120 0.639255 0.947184
0.470147 0.650753 0.947228
0.872665 0.678048 0.946162
0.914089 0.602236 0.924953
0.913736 0.233485 0.894051
0.317135 0.762947 0.916863
0.440878 0.753764 0.912079
0.756906 0.734715 0.899358
0.870848 0.707738 0.885585
0.893283 0.529649 0.874663
0.241036 0.825807 0.873302
0.324155 0.819370 0.870174
0.614082 0.798086 0.861937
0.808206 0.783679 0.855508
0.870273 0.738071 0.854012
0.131317 0.859442 0.811179
0.169333 0.861358 0.820686
0.306736 0.857377 0.841250
0.659374 0.847952 0.848777
0.860652 0.848339 0.847562
