negative-superia-reala/SuperiaReala_Modern_Punchy.cube
TITLE "Fuji Superia Reala Modern Punchy"
# Adobe RGB in/out. REPLACES AgX. Fuji Superia Reala Modern Punchy.
LUT_3D_SIZE 5
DOMAIN_MIN 0.0 0.0 0.0
DOMAIN_MAX 1.0 1.0 1.0
0.071271 0.083381 0.080583
0.360794 0.103903 0.089237
0.815039 0.162254 0.107950
0.910626 0.185175 0.144209
0.921320 0.153026 0.682023
0.089577 0.367358 0.091476
0.190307 0.196505 0.092918
0.697796 0.242143 0.109390
0.886892 0.283721 0.137732
0.913981 0.147248 0.662480
0.115101 0.716490 0.115335
0.181685 0.640937 0.119431
0.482848 0.519469 0.124570
0.802934 0.518470 0.148070
0.896465 0.427664 0.320944
0.135038 0.843086 0.139918
0.182700 0.824083 0.148270
0.402069 0.770131 0.162431
0.721125 0.717855 0.177702
0.872066 0.697584 0.210329
0.124359 0.867910 0.133856
0.193128 0.871534 0.132513
0.313192 0.860277 0.170916
0.635176 0.840513 0.195705
0.864623 0.836132 0.211256
0.078484 0.107765 0.313672
0.309325 0.135304 0.607744
0.809979 0.195522 0.481497
0.905782 0.207165 0.509830
0.918579 0.150851 0.675964
0.109498 0.287602 0.251963
0.204024 0.189614 0.194276
0.691042 0.274385 0.276663
0.881677 0.304594 0.351387
0.911231 0.145125 0.654118
0.153195 0.685781 0.289986
0.229101 0.622751 0.260648
0.522563 0.516148 0.230952
0.805667 0.530176 0.262272
0.892862 0.435281 0.500907
0.167298 0.834921 0.282467
0.222353 0.817979 0.279384
0.447200 0.766222 0.271472
0.741389 0.719787 0.272990
0.870765 0.696971 0.299905
0.123845 0.871196 0.241828
0.191660 0.873765 0.237229
0.332495 0.858517 0.247794
0.652880 0.839997 0.277685
0.864998 0.835640 0.288920
0.089474 0.210243 0.728151
0.340727 0.251838 0.840297
0.831467 0.320385 0.835190
0.906500 0.286590 0.783972
0.917351 0.149882 0.764698
0.136530 0.455068 0.727396
0.320915 0.409424 0.757036
0.732069 0.386269 0.732568
0.882233 0.376848 0.728627
0.909550 0.143845 0.736881
0.176064 0.646471 0.590681
0.253029 0.603013 0.557232
0.517245 0.506697 0.503856
0.804695 0.550481 0.581600
0.888283 0.474168 0.689375
0.208993 0.820082 0.588205
0.269068 0.806557 0.572145
0.497404 0.756890 0.538542
0.754678 0.719563 0.523137
0.867297 0.700609 0.602133
0.160917 0.872583 0.635379
0.177702 0.871186 0.628197
0.377410 0.853865 0.554647
0.679144 0.838823 0.538713
0.864739 0.835744 0.540438
0.103406 0.398668 0.901158
0.303733 0.428864 0.915005
0.828183 0.481717 0.915901
0.914670 0.429746 0.887528
0.920528 0.152390 0.842608
0.148018 0.572623 0.905249
0.345722 0.575911 0.914171
0.784374 0.552284 0.898270
0.895795 0.493719 0.868563
0.912484 0.145999 0.827033
0.197447 0.680182 0.817911
0.289457 0.658942 0.817253
0.612129 0.624693 0.808573
0.825122 0.613903 0.805922
0.889809 0.525948 0.804375
0.220754 0.812261 0.767768
0.281719 0.801894 0.759415
0.513783 0.759366 0.743319
0.750139 0.721532 0.729605
0.865526 0.714027 0.770343
0.160492 0.865827 0.722252
0.179886 0.865122 0.717716
0.376424 0.851911 0.726286
0.681667 0.839571 0.715176
0.864013 0.839084 0.754486
0.201464 0.521810 0.948517
0.417196 0.539782 0.948547
0.882380 0.591071 0.948696
0.932251 0.549172 0.939923
0.924761 0.221043 0.911337
0.268459 0.629471 0.948483
0.471196 0.639227 0.948519
0.875313 0.662250 0.947623
0.917430 0.596404 0.932763
0.916981 0.229209 0.906557
0.314905 0.758831 0.928581
0.439340 0.747310 0.923964
0.762854 0.723530 0.911683
0.873286 0.690131 0.898377
0.898714 0.528761 0.887817
0.244807 0.820125 0.886501
0.321651 0.813568 0.883476
0.615831 0.799517 0.875506
0.809875 0.784975 0.865857
0.872645 0.727708 0.863460
0.145108 0.857473 0.815470
0.179738 0.859605 0.824852
0.304904 0.855174 0.845139
0.658959 0.844695 0.855092
0.863864 0.845125 0.853154
