negative-superia-reala/SuperiaReala_Classic_ExtraPunchy.cube
TITLE "Fuji Superia Reala Classic ExtraPunchy"
# Adobe RGB in/out. REPLACES AgX. Fuji Superia Reala Classic ExtraPunchy.
LUT_3D_SIZE 9
DOMAIN_MIN 0.0 0.0 0.0
DOMAIN_MAX 1.0 1.0 1.0
0.069662 0.073299 0.081842
0.075705 0.073163 0.078183
0.152103 0.079279 0.078742
0.385955 0.088455 0.079976
0.596234 0.100134 0.081439
0.704538 0.111301 0.084690
0.769798 0.115020 0.090821
0.806951 0.073299 0.417439
0.813570 0.107082 0.548008
0.067525 0.089789 0.078112
0.073732 0.085534 0.078481
0.161125 0.087712 0.079158
0.374919 0.096848 0.080264
0.582041 0.108305 0.081673
0.699006 0.121539 0.085090
0.767603 0.125194 0.090709
0.806952 0.073299 0.417458
0.813571 0.107084 0.548006
0.068803 0.165262 0.079091
0.072559 0.154540 0.079568
0.109228 0.137581 0.080251
0.308253 0.141601 0.081320
0.538834 0.156502 0.083442
0.673737 0.175627 0.086778
0.755577 0.182481 0.092025
0.807326 0.074525 0.419713
0.813571 0.107085 0.548006
0.071046 0.336390 0.080578
0.073670 0.323652 0.081002
0.097450 0.294404 0.082028
0.227430 0.269834 0.083827
0.466038 0.270582 0.086564
0.638769 0.284677 0.090163
0.735159 0.299645 0.096210
0.792740 0.280878 0.107816
0.813572 0.107108 0.440673
0.073556 0.520233 0.083051
0.076257 0.510739 0.083647
0.096320 0.486728 0.085690
0.192446 0.458255 0.087929
0.390098 0.438605 0.091368
0.591744 0.437285 0.096440
0.710820 0.445358 0.103804
0.783957 0.444134 0.114665
0.814561 0.356992 0.238953
0.076999 0.650349 0.087106
0.080005 0.646213 0.087634
0.099964 0.634073 0.090400
0.178061 0.613684 0.094316
0.347618 0.595074 0.099093
0.546258 0.583851 0.106099
0.684291 0.583209 0.114803
0.773249 0.585831 0.126084
0.812695 0.556927 0.152271
0.081204 0.741023 0.092607
0.084106 0.738581 0.093298
0.103840 0.729792 0.097061
0.172486 0.716896 0.102937
0.320854 0.703650 0.110655
0.506542 0.693588 0.118847
0.657471 0.688962 0.128017
0.759183 0.689472 0.139600
0.811007 0.682386 0.158855
0.084702 0.808377 0.097578
0.086421 0.806923 0.098104
0.107243 0.798519 0.103952
0.167793 0.789508 0.112119
0.299754 0.780080 0.121589
0.475682 0.772449 0.131225
0.628543 0.768397 0.142033
0.744022 0.768680 0.154253
0.811184 0.768666 0.169893
0.082391 0.825569 0.096855
0.082392 0.825570 0.096856
0.127405 0.833527 0.096880
0.127408 0.834700 0.110712
0.261803 0.834504 0.123479
0.428726 0.829829 0.135869
0.596631 0.827539 0.148993
0.722615 0.828368 0.160404
0.816441 0.832478 0.169835
0.068182 0.073341 0.083273
0.072566 0.075993 0.121705
0.121662 0.082940 0.089743
0.385353 0.093017 0.088377
0.601111 0.103839 0.087696
0.705567 0.114384 0.090018
0.769632 0.117722 0.098592
0.806952 0.073299 0.417461
0.813571 0.107084 0.548009
0.068683 0.090232 0.083559
0.080407 0.092902 0.086902
0.147348 0.093736 0.086355
0.368313 0.103186 0.087744
0.588432 0.113612 0.088023
0.700649 0.125739 0.090411
0.767567 0.127963 0.097853
0.806953 0.073299 0.417491
0.813571 0.107084 0.548006
0.071047 0.165321 0.084811
0.075619 0.158195 0.085421
0.129738 0.147512 0.086682
0.336398 0.155257 0.088843
0.548009 0.167872 0.090297
0.678293 0.182213 0.092780
0.756598 0.186334 0.098743
0.807435 0.075483 0.420700
0.813571 0.107085 0.548006
0.073399 0.335676 0.086874
0.077178 0.325595 0.087495
0.110388 0.301691 0.089414
0.260708 0.282673 0.092021
0.486096 0.284611 0.094751
0.645821 0.294750 0.097856
0.737877 0.305694 0.104582
0.792908 0.284517 0.117390
0.813571 0.107092 0.548003
0.075943 0.517462 0.088928
0.079683 0.509546 0.089876
0.105126 0.488632 0.092844
0.212038 0.463621 0.096835
0.412426 0.446776 0.101604
0.600927 0.444736 0.106854
0.714481 0.451107 0.113846
0.784760 0.447151 0.124865
0.814522 0.359953 0.287747
0.079407 0.648670 0.092714
0.082738 0.644961 0.093646
0.106180 0.633723 0.097719
0.190308 0.614959 0.103478
0.362059 0.597888 0.110479
0.559002 0.587737 0.118138
0.688926 0.586760 0.126387
0.774737 0.588158 0.136429
0.812741 0.558066 0.166113
0.083211 0.740177 0.098641
0.086153 0.737737 0.099572
0.108239 0.729406 0.105279
0.180963 0.717153 0.112726
0.331441 0.704580 0.121349
0.515678 0.695076 0.130243
0.662213 0.690722 0.140540
0.761645 0.690951 0.152457
0.811227 0.682913 0.170661
0.085546 0.807656 0.101974
0.087456 0.806232 0.103188
0.110235 0.798167 0.111532
0.173341 0.789468 0.121260
0.306786 0.780368 0.131472
0.481996 0.773001 0.142976
0.633275 0.769126 0.154963
0.746692 0.769396 0.167217
0.811540 0.768879 0.184652
0.082392 0.830976 0.167197
0.082395 0.830976 0.167198
0.127405 0.838703 0.167199
0.127409 0.838702 0.167189
0.265782 0.834577 0.130837
0.433379 0.829951 0.146696
0.599455 0.827709 0.160384
0.724529 0.828529 0.172221
0.816743 0.832478 0.183411
0.067533 0.080184 0.124919
0.075515 0.082921 0.351536
0.123284 0.088760 0.321840
0.376145 0.099811 0.283699
0.600306 0.112540 0.258218
0.705734 0.126613 0.277292
0.768824 0.127891 0.334557
0.807155 0.073051 0.432037
0.813571 0.107085 0.548030
0.069253 0.096301 0.129301
0.077079 0.096465 0.172941
0.140476 0.100401 0.212629
0.364075 0.111330 0.211606
0.590844 0.126777 0.212714
0.701907 0.141117 0.239589
0.767085 0.141034 0.302118
0.807233 0.073658 0.434039
0.813571 0.107085 0.548010
0.073190 0.168221 0.129122
0.079566 0.164744 0.131254
0.163163 0.176070 0.156384
0.345519 0.172245 0.155926
0.561404 0.188013 0.166803
0.685337 0.205893 0.186668
0.758596 0.205326 0.214163
0.806838 0.097557 0.433534
0.813571 0.107085 0.548006
0.078040 0.336644 0.137605
0.084359 0.330225 0.138980
0.133513 0.314151 0.143664
0.301287 0.302748 0.150437
0.516222 0.312083 0.161252
0.659873 0.325393 0.174590
0.743847 0.329302 0.188211
0.793432 0.299034 0.249263
0.813571 0.107086 0.548009
0.084029 0.518914 0.146480
0.089605 0.513116 0.147931
0.130165 0.496894 0.152543
0.262894 0.477979 0.158839
0.461766 0.466040 0.166150
0.625760 0.468905 0.179929
0.724066 0.473383 0.190817
0.787073 0.461141 0.219692
0.814373 0.371629 0.440027
0.089877 0.648641 0.157931
0.095258 0.645774 0.159254
0.132239 0.637144 0.164283
0.236248 0.622171 0.171000
0.409979 0.608550 0.180853
0.587412 0.600677 0.192532
0.702781 0.600416 0.203482
0.778938 0.598846 0.225390
0.812894 0.562560 0.286191
0.094293 0.738660 0.164256
0.099306 0.736661 0.165673
0.131682 0.729821 0.171501
0.217788 0.719547 0.181805
0.371390 0.708953 0.193648
0.550080 0.701019 0.206473
0.678662 0.697368 0.220366
0.769421 0.697365 0.240492
0.811905 0.685122 0.258367
0.095345 0.802555 0.173119
0.099621 0.801442 0.175263
0.130643 0.796206 0.187241
0.202781 0.789318 0.200071
0.341084 0.781650 0.213821
0.510680 0.775293 0.227678
0.653494 0.772052 0.242872
0.756655 0.772217 0.258895
0.812551 0.769789 0.266127
0.082395 0.830977 0.167206
0.127403 0.838703 0.167204
0.127405 0.838703 0.167202
0.127439 0.838704 0.167204
0.285895 0.834531 0.188860
0.455696 0.830291 0.218622
0.612023 0.828247 0.238444
0.732700 0.829045 0.255430
0.817333 0.832444 0.265138
0.068121 0.091326 0.267912
0.073329 0.095881 0.464102
0.134735 0.100774 0.504989
0.357410 0.110449 0.495477
0.591352 0.127121 0.494712
0.701939 0.143528 0.503781
0.766445 0.145872 0.525939
0.802253 0.101512 0.573092
0.813571 0.107084 0.578746
0.069608 0.107491 0.284976
0.075415 0.109734 0.390142
0.146142 0.113484 0.467012
0.351095 0.125499 0.466095
0.583963 0.144212 0.472059
0.698721 0.158481 0.486560
0.764872 0.159226 0.516938
0.801731 0.107688 0.569378
0.813571 0.107085 0.579077
0.074610 0.186736 0.281552
0.081920 0.185098 0.297340
0.153116 0.182536 0.348752
0.341881 0.189301 0.378349
0.561365 0.209495 0.402699
0.685227 0.226945 0.425875
0.757722 0.226588 0.468658
0.797409 0.182492 0.539700
0.813571 0.107085 0.580282
0.082353 0.343521 0.282267
0.089734 0.339535 0.285220
0.147656 0.328830 0.299746
0.338254 0.341822 0.337866
0.525925 0.334771 0.343877
0.664725 0.347622 0.366839
0.746028 0.350519 0.402878
0.793144 0.318636 0.481522
0.813571 0.107092 0.580643
0.091953 0.521496 0.300068
0.099973 0.517164 0.301145
0.151230 0.505261 0.306764
0.294021 0.491194 0.315942
0.488169 0.483474 0.327994
0.638414 0.488362 0.345576
0.730133 0.492189 0.366867
0.788080 0.475971 0.411266
0.814101 0.392539 0.563338
0.101889 0.648564 0.313915
0.110197 0.646345 0.314673
0.156243 0.639580 0.318723
0.275227 0.628373 0.325218
0.447945 0.617880 0.334308
0.607534 0.612335 0.345442
0.712216 0.613298 0.361240
0.781739 0.608644 0.383682
0.812927 0.570909 0.508651
0.109525 0.737633 0.328292
0.117598 0.736001 0.329002
0.156987 0.730428 0.332705
0.258440 0.722061 0.338752
0.410182 0.713434 0.346737
0.576819 0.707139 0.356512
0.693136 0.704443 0.367829
0.774540 0.703687 0.382740
0.812411 0.689124 0.436449
0.109295 0.800276 0.345447
0.115890 0.799361 0.345953
0.152335 0.795332 0.349630
0.235803 0.789567 0.354912
0.373588 0.783164 0.362292
0.539624 0.777894 0.371080
0.668527 0.775271 0.381253
0.765317 0.775470 0.392791
0.813425 0.771544 0.412757
0.096735 0.836548 0.412089
0.127397 0.841005 0.412089
0.127405 0.841006 0.412087
0.172467 0.841480 0.349439
0.319492 0.833971 0.382385
0.484190 0.830600 0.389532
0.629944 0.828982 0.398763
0.743742 0.829763 0.407518
0.817820 0.832582 0.412854
0.068786 0.107616 0.451971
0.071790 0.111298 0.536289
0.137330 0.120487 0.599217
0.347997 0.133366 0.600034
0.579785 0.150770 0.600786
0.696846 0.166747 0.605809
0.763283 0.169556 0.614755
0.799163 0.127894 0.629821
0.813571 0.107085 0.645107
0.069947 0.126172 0.463742
0.073606 0.130049 0.526881
0.142612 0.138581 0.590928
0.345283 0.151521 0.594032
0.573988 0.167425 0.595873
0.694023 0.181275 0.602098
0.761858 0.182726 0.612231
0.798734 0.140050 0.628626
0.813571 0.107085 0.643053
0.075798 0.215735 0.468368
0.082127 0.215308 0.490925
0.150385 0.214988 0.547154
0.341931 0.221976 0.566169
0.554438 0.236625 0.574389
0.682515 0.254126 0.586501
0.755727 0.254549 0.600844
0.795969 0.215417 0.621454
0.813571 0.107087 0.636527
0.085854 0.368807 0.460931
0.094118 0.366037 0.466423
0.156786 0.359070 0.492476
0.331061 0.354506 0.520146
0.527021 0.359735 0.535871
0.665634 0.372904 0.553643
0.745805 0.375628 0.576587
0.792515 0.344799 0.606844
0.815262 0.164506 0.636586
0.098478 0.529848 0.461987
0.109044 0.526750 0.463460
0.164719 0.517705 0.471562
0.311025 0.507067 0.487085
0.509785 0.513818 0.514004
0.644677 0.508132 0.522482
0.732846 0.511350 0.543032
0.788249 0.494513 0.579967
0.813739 0.417044 0.632935
0.114068 0.651262 0.473286
0.124694 0.649476 0.473670
0.175760 0.643992 0.476909
0.299091 0.636323 0.483940
0.473317 0.628198 0.494953
0.619844 0.624330 0.507592
0.717888 0.625543 0.521962
0.783308 0.619572 0.545886
0.812792 0.582596 0.618458
0.124980 0.738595 0.487526
0.133909 0.737246 0.487582
0.178661 0.732563 0.488913
0.286908 0.725569 0.492525
0.440121 0.718470 0.499027
0.593731 0.713481 0.507455
0.702037 0.711596 0.515443
0.777639 0.710146 0.528124
0.812592 0.694879 0.591897
0.123403 0.800015 0.507244
0.130837 0.799197 0.506936
0.171147 0.795664 0.506628
0.264740 0.790714 0.507248
0.400892 0.785236 0.509525
0.563005 0.780849 0.513491
0.680527 0.778804 0.518814
0.771437 0.779161 0.525633
0.813940 0.774211 0.555757
0.103648 0.838581 0.583595
0.107707 0.839228 0.583595
0.118781 0.840763 0.583593
0.202295 0.838088 0.531584
0.340105 0.834264 0.529293
0.502092 0.831405 0.529978
0.643178 0.830026 0.532416
0.751685 0.830878 0.536716
0.818173 0.833661 0.545048
0.069521 0.136981 0.596556
0.071623 0.138892 0.631649
0.135082 0.153671 0.671292
0.336522 0.165738 0.673122
0.571764 0.181098 0.674620
0.691780 0.196212 0.677435
0.760147 0.200259 0.681961
0.797327 0.162795 0.686495
0.813571 0.107085 0.682017
0.070660 0.156362 0.601810
0.072949 0.158325 0.631183
0.137997 0.170731 0.669005
0.335478 0.181371 0.671651
0.567491 0.198572 0.673515
0.689210 0.214540 0.676540
0.758907 0.217226 0.681480
0.796942 0.175189 0.686443
0.813571 0.107085 0.682017
0.076700 0.253649 0.609789
0.081569 0.252853 0.623799
0.148434 0.255286 0.656415
0.337564 0.260982 0.664396
0.550768 0.274741 0.668093
0.679583 0.287519 0.672420
0.753738 0.288704 0.678919
0.794792 0.252992 0.685897
0.813571 0.107087 0.682016
0.088005 0.399533 0.601742
0.095683 0.397240 0.607479
0.161294 0.392999 0.630753
0.333648 0.389812 0.647792
0.529627 0.395188 0.656055
0.665277 0.403064 0.662997
0.745187 0.405245 0.672271
0.791891 0.376669 0.683811
0.814929 0.206682 0.684417
0.105230 0.546490 0.595946
0.116121 0.544717 0.598063
0.177029 0.539946 0.608589
0.323978 0.532599 0.623721
0.509561 0.529007 0.636858
0.647731 0.530894 0.646967
0.734092 0.533625 0.659556
0.788267 0.516974 0.676708
0.813401 0.443349 0.691611
0.123667 0.657294 0.595820
0.134657 0.655850 0.596524
0.189676 0.651250 0.600347
0.314630 0.644920 0.608032
0.485700 0.639818 0.618469
0.629780 0.640698 0.631454
0.721256 0.638540 0.642125
0.784174 0.632575 0.661916
0.812683 0.596807 0.690966
0.136010 0.741910 0.601130
0.146324 0.740971 0.601200
0.194613 0.736964 0.602358
0.305041 0.730903 0.605557
0.460460 0.724875 0.611288
0.604724 0.720778 0.618611
0.707413 0.719464 0.627205
0.779569 0.717560 0.641905
0.812690 0.702247 0.685435
0.132453 0.801708 0.611643
0.140894 0.800963 0.611313
0.184758 0.797744 0.610603
0.281899 0.793256 0.610695
0.419760 0.788410 0.612544
0.574643 0.784649 0.616169
0.688420 0.783043 0.621142
0.774073 0.783481 0.627886
0.814190 0.778120 0.667214
0.106311 0.839003 0.619514
0.110034 0.839571 0.621413
0.119552 0.840865 0.628631
0.208537 0.838910 0.627894
0.349533 0.835339 0.625077
0.511611 0.832804 0.624812
0.650480 0.831692 0.626184
0.756112 0.832577 0.628784
0.818311 0.835528 0.655063
0.070659 0.177173 0.703474
0.072272 0.176834 0.720025
0.120847 0.191296 0.729866
0.329886 0.203635 0.730593
0.567889 0.222137 0.731592
0.689444 0.237839 0.732854
0.758693 0.238994 0.734669
0.796320 0.197375 0.735909
0.813570 0.107080 0.728401
0.071586 0.194999 0.705873
0.073225 0.194875 0.719793
0.124695 0.210772 0.729787
0.329844 0.222130 0.730683
0.564693 0.240071 0.731726
0.687407 0.255354 0.733006
0.757590 0.256271 0.734857
0.795982 0.213521 0.736201
0.813570 0.107079 0.727975
0.077180 0.292783 0.711212
0.081194 0.291443 0.718426
0.139766 0.295332 0.728259
0.334180 0.300310 0.730392
0.551109 0.313174 0.731767
0.679486 0.324799 0.733232
0.753120 0.324687 0.735325
0.794244 0.291626 0.737240
0.813563 0.107044 0.726032
0.089994 0.430139 0.706447
0.096610 0.428285 0.711175
0.159988 0.425676 0.722554
0.336020 0.423521 0.727958
0.533684 0.428237 0.730507
0.667308 0.434538 0.732754
0.745788 0.433477 0.735438
0.791815 0.409536 0.738474
0.814198 0.280284 0.736385
0.109637 0.564795 0.697888
0.120599 0.563296 0.700855
0.181702 0.559397 0.711307
0.332670 0.554256 0.720790
0.517329 0.552530 0.726351
0.652902 0.554014 0.730057
0.736053 0.552972 0.733976
0.788714 0.540733 0.738877
0.813267 0.469682 0.740990
0.130854 0.667664 0.691253
0.142108 0.666476 0.692750
0.198493 0.662726 0.699121
0.327478 0.657393 0.708743
0.497774 0.653103 0.717550
0.634188 0.651592 0.723941
0.724398 0.650792 0.729692
0.785130 0.645109 0.736999
0.812753 0.611518 0.744001
0.142414 0.747122 0.688749
0.153032 0.746280 0.689297
0.203669 0.743345 0.692009
0.316026 0.738596 0.697588
0.472873 0.733317 0.705366
0.611973 0.729862 0.713162
0.710597 0.728769 0.719820
0.781041 0.726343 0.730333
0.812922 0.710509 0.745398
0.134721 0.805766 0.691706
0.143575 0.805051 0.691638
0.189513 0.801886 0.691791
0.288822 0.797628 0.693294
0.429308 0.793122 0.696783
0.581045 0.789698 0.701803
0.692817 0.788381 0.707742
0.775420 0.788780 0.715234
0.814423 0.783015 0.742760
0.105960 0.838943 0.677698
0.113430 0.840050 0.677709
0.124329 0.841481 0.677996
0.198426 0.841136 0.700235
0.346929 0.837271 0.697970
0.511197 0.834921 0.698551
0.650937 0.833968 0.700178
0.756390 0.834926 0.702298
0.818437 0.838121 0.741361
0.072333 0.227249 0.780085
0.073550 0.225862 0.781432
0.128294 0.233477 0.781070
0.343661 0.247402 0.781192
0.577718 0.265344 0.781711
0.694815 0.280329 0.782421
0.761053 0.279383 0.783253
0.797397 0.230149 0.784898
0.813741 0.111660 0.776454
0.073061 0.245800 0.780158
0.074312 0.244553 0.781420
0.132843 0.251998 0.781321
0.343460 0.265155 0.781438
0.575213 0.282713 0.781935
0.693324 0.296667 0.782632
0.760250 0.295566 0.783470
0.797109 0.246947 0.785077
0.813796 0.113100 0.776454
0.080020 0.338450 0.780469
0.083784 0.336654 0.781303
0.154768 0.337126 0.781860
0.348240 0.343686 0.782096
0.566025 0.356153 0.782576
0.686718 0.367107 0.783262
0.756621 0.364995 0.784160
0.795662 0.323689 0.785633
0.814412 0.134121 0.776454
0.093479 0.462001 0.779718
0.100485 0.460089 0.780648
0.176413 0.456664 0.782116
0.351582 0.456129 0.782751
0.551015 0.461511 0.783346
0.676559 0.467417 0.784115
0.750871 0.465011 0.785173
0.793709 0.436143 0.786639
0.814408 0.308967 0.784419
0.114972 0.584861 0.776959
0.125760 0.583407 0.778240
0.196868 0.579472 0.781110
0.350562 0.575519 0.782809
0.534345 0.575060 0.783923
0.663278 0.576696 0.784931
0.742686 0.574810 0.786162
0.791183 0.558834 0.787830
0.813783 0.488492 0.787046
0.135905 0.680655 0.771211
0.147198 0.679589 0.772842
0.211152 0.676091 0.777543
0.343014 0.671373 0.781246
0.514145 0.667978 0.783534
0.646699 0.667258 0.785203
0.731705 0.666030 0.786805
0.788131 0.657724 0.788870
0.813485 0.623362 0.789274
0.145218 0.754258 0.762369
0.155490 0.753524 0.763712
0.211218 0.750735 0.768875
0.325309 0.746875 0.775421
0.484542 0.743129 0.780582
0.622470 0.740965 0.783915
0.717006 0.740108 0.786368
0.784096 0.736569 0.789368
0.813695 0.717866 0.791224
0.127998 0.812999 0.754764
0.136260 0.812219 0.755332
0.183957 0.808551 0.758212
0.286522 0.804022 0.762886
0.431089 0.799515 0.769685
0.584451 0.796348 0.776358
0.695867 0.795221 0.781575
0.775188 0.793964 0.784176
0.814938 0.788174 0.792783
0.102231 0.838360 0.734703
0.123797 0.841440 0.735545
0.127189 0.841904 0.741345
0.184429 0.843085 0.751626
0.326233 0.840324 0.753298
0.497595 0.837966 0.756748
0.642478 0.837053 0.760252
0.751258 0.837961 0.762515
0.818571 0.841237 0.794662
0.087609 0.252558 0.826396
0.093410 0.255435 0.826422
0.174798 0.266669 0.826516
0.477692 0.286126 0.826758
0.646551 0.307179 0.827117
0.725356 0.322402 0.827566
0.776472 0.317845 0.828485
0.803161 0.241159 0.830038
0.813571 0.144062 0.819631
0.090502 0.268516 0.826398
0.096289 0.271432 0.826424
0.179423 0.282842 0.826519
0.476565 0.301461 0.826764
0.645297 0.322534 0.827124
0.724789 0.337652 0.827583
0.776256 0.332542 0.828493
0.803035 0.253492 0.830032
0.813571 0.156578 0.826140
0.106557 0.347074 0.826257
0.116863 0.349501 0.826290
0.204441 0.358793 0.826405
0.473207 0.375305 0.826690
0.639965 0.394160 0.827078
0.722255 0.406345 0.827591
0.775204 0.400524 0.828468
0.802393 0.322548 0.829944
0.813571 0.156595 0.826140
0.141474 0.483420 0.826076
0.154970 0.484287 0.826127
0.248354 0.487683 0.826301
0.468183 0.495428 0.826640
0.629919 0.505279 0.827063
0.717109 0.511784 0.827616
0.773178 0.505620 0.828509
0.801323 0.457025 0.829854
0.816094 0.307807 0.831052
0.167495 0.603525 0.826208
0.183200 0.603431 0.826282
0.276261 0.603280 0.826526
0.457098 0.605250 0.826865
0.615514 0.609289 0.827352
0.709544 0.611828 0.827948
0.769828 0.607639 0.828794
0.800419 0.581104 0.830132
0.816838 0.459890 0.832620
0.177682 0.693683 0.826730
0.193053 0.693212 0.826828
0.280289 0.691607 0.827138
0.438145 0.690895 0.827540
0.594447 0.691961 0.828023
0.697716 0.692991 0.828630
0.763708 0.690827 0.829424
0.799161 0.677091 0.830643
0.816999 0.615784 0.832863
0.165161 0.762739 0.827682
0.178449 0.762205 0.827803
0.251471 0.760226 0.828147
0.395300 0.758016 0.828593
0.562942 0.757343 0.829120
0.675560 0.757788 0.829727
0.752786 0.757494 0.830572
0.797193 0.751573 0.831594
0.817369 0.717919 0.833545
0.121976 0.817739 0.826825
0.129572 0.817196 0.827686
0.174110 0.814734 0.829194
0.300858 0.810860 0.830011
0.478787 0.808049 0.830714
0.627427 0.807289 0.831341
0.726430 0.808125 0.832050
0.791682 0.807383 0.832984
0.817965 0.790259 0.834321
0.096074 0.837355 0.772340
0.127405 0.841934 0.785063
0.127406 0.841934 0.785064
0.140718 0.842288 0.785097
0.274128 0.844469 0.814808
0.467203 0.841866 0.832519
0.630895 0.841203 0.834026
0.747085 0.842342 0.834604
0.818737 0.844728 0.835009
