negative-superia-reala/SuperiaReala_Modern_Normal.cube
TITLE "Fuji Superia Reala Modern Normal"
# Adobe RGB in/out. REPLACES AgX. Fuji Superia Reala Modern Normal.
LUT_3D_SIZE 33
DOMAIN_MIN 0.0 0.0 0.0
DOMAIN_MAX 1.0 1.0 1.0
0.074318 0.073381 0.089635
0.078309 0.077114 0.090310
0.079442 0.077967 0.090443
0.088174 0.080829 0.090839
0.120796 0.084902 0.091250
0.147538 0.087411 0.091534
0.218633 0.093128 0.092552
0.315866 0.099521 0.093442
0.364731 0.102340 0.094021
0.439116 0.108337 0.095179
0.545092 0.118346 0.097145
0.610843 0.125797 0.098384
0.665270 0.131520 0.099721
0.712250 0.138829 0.101634
0.757926 0.150274 0.104416
0.787598 0.158097 0.107017
0.812715 0.165061 0.109583
0.833672 0.173569 0.112708
0.853789 0.184379 0.117120
0.869675 0.188407 0.120161
0.879694 0.192394 0.123560
0.887737 0.197107 0.127714
0.895460 0.199607 0.133251
0.902997 0.195538 0.138878
0.908120 0.191608 0.146693
0.911452 0.184515 0.158616
0.915279 0.160144 0.179773
0.916501 0.142360 0.262413
0.920638 0.074112 0.581227
0.918933 0.073563 0.575284
0.917235 0.073500 0.569441
0.915543 0.073542 0.563666
0.917146 0.154842 0.688538
0.075203 0.082373 0.090130
0.077469 0.079913 0.090156
0.081070 0.078505 0.090233
0.091227 0.081453 0.090807
0.126379 0.085595 0.091264
0.151295 0.087958 0.091542
0.220502 0.093696 0.092558
0.314982 0.099976 0.093446
0.362886 0.102793 0.094027
0.436200 0.108882 0.095181
0.541499 0.119037 0.097139
0.606906 0.126418 0.098377
0.662523 0.132081 0.099714
0.709634 0.139350 0.101624
0.756014 0.151054 0.104406
0.785857 0.158841 0.107001
0.811488 0.165773 0.109568
0.832597 0.174264 0.112691
0.852856 0.185136 0.117094
0.869105 0.189144 0.120132
0.879236 0.193117 0.123526
0.887341 0.197826 0.127673
0.895115 0.200329 0.133172
0.902693 0.196259 0.138770
0.907855 0.192326 0.146530
0.911306 0.185235 0.158305
0.915149 0.160820 0.178858
0.916390 0.142866 0.258695
0.920546 0.074119 0.580906
0.918849 0.073565 0.574993
0.917158 0.073502 0.569177
0.915472 0.073549 0.563426
0.917080 0.154770 0.688349
0.075449 0.084667 0.090265
0.076338 0.083528 0.090426
0.078483 0.081342 0.090324
0.086456 0.083258 0.090746
0.117248 0.087906 0.091250
0.153059 0.089855 0.091526
0.224187 0.095971 0.092580
0.318727 0.102290 0.093498
0.360903 0.105411 0.094095
0.429052 0.111151 0.095214
0.530684 0.121834 0.097141
0.594153 0.128871 0.098369
0.652202 0.134257 0.099701
0.700562 0.141349 0.101606
0.749275 0.154027 0.104384
0.779667 0.161650 0.106959
0.807101 0.168443 0.109523
0.828741 0.176859 0.112640
0.849509 0.187950 0.117011
0.867057 0.191875 0.120038
0.877588 0.195790 0.123415
0.885917 0.200476 0.127536
0.893875 0.202983 0.132904
0.901602 0.198911 0.138403
0.906907 0.194964 0.145971
0.910782 0.187880 0.157241
0.914682 0.163306 0.175766
0.915989 0.144938 0.246032
0.920217 0.074146 0.579764
0.918548 0.073571 0.573955
0.916882 0.073507 0.568233
0.915218 0.073574 0.562566
0.916846 0.154509 0.687670
0.076292 0.096990 0.090721
0.076868 0.095751 0.090848
0.079185 0.091913 0.090909
0.083385 0.088347 0.090898
0.099143 0.092676 0.091294
0.123264 0.093903 0.091550
0.190741 0.099288 0.092578
0.292081 0.106939 0.093518
0.346262 0.110068 0.094184
0.416693 0.115494 0.095305
0.517183 0.128073 0.097226
0.576701 0.134389 0.098414
0.631225 0.138980 0.099738
0.685326 0.146567 0.101629
0.737436 0.160235 0.104385
0.768544 0.167413 0.106940
0.797366 0.173842 0.109487
0.821662 0.182202 0.112586
0.843352 0.193534 0.116905
0.861921 0.197253 0.119906
0.874393 0.201023 0.123247
0.883292 0.205639 0.127319
0.891591 0.208134 0.132469
0.899595 0.204047 0.137800
0.905164 0.200062 0.145042
0.909820 0.192987 0.155475
0.913826 0.168122 0.170813
0.915256 0.148945 0.228409
0.919619 0.074198 0.577694
0.918001 0.073583 0.572072
0.916380 0.073518 0.566520
0.914757 0.073690 0.561004
0.916420 0.154033 0.686437
0.077440 0.128393 0.091330
0.078259 0.125606 0.091405
0.080593 0.117763 0.091481
0.085773 0.109569 0.091560
0.094753 0.103138 0.091737
0.106824 0.099764 0.091801
0.151512 0.105041 0.092646
0.239887 0.113896 0.093559
0.305420 0.116340 0.094309
0.382951 0.123025 0.095416
0.487985 0.135435 0.097406
0.550884 0.141050 0.098577
0.604681 0.146553 0.099871
0.666012 0.156686 0.101764
0.718609 0.171585 0.104491
0.752653 0.177663 0.107053
0.782445 0.183500 0.109545
0.811074 0.191876 0.112597
0.834093 0.202971 0.116854
0.853638 0.206237 0.119803
0.869397 0.209683 0.123086
0.879330 0.214114 0.127081
0.888152 0.216540 0.131958
0.896578 0.212398 0.137064
0.902553 0.208328 0.143877
0.907560 0.201262 0.153260
0.912545 0.175962 0.164909
0.914163 0.156331 0.208168
0.918744 0.074291 0.574678
0.917199 0.073623 0.569322
0.915644 0.073535 0.564013
0.914081 0.074214 0.558715
0.915793 0.153332 0.684626
0.078673 0.161903 0.092062
0.079143 0.157940 0.092172
0.081419 0.147348 0.092256
0.085716 0.135105 0.092463
0.092203 0.122414 0.092374
0.103180 0.114069 0.092495
0.129603 0.115663 0.092917
0.195728 0.126415 0.093872
0.255371 0.127004 0.094518
0.333799 0.132591 0.095554
0.439870 0.144434 0.097546
0.515573 0.151784 0.098801
0.573402 0.158250 0.100116
0.638396 0.168083 0.102013
0.695905 0.182560 0.104638
0.734434 0.190074 0.107259
0.764094 0.197317 0.109734
0.794506 0.207364 0.112775
0.821370 0.218131 0.116991
0.842146 0.220436 0.119846
0.860729 0.223195 0.123037
0.873634 0.227190 0.126922
0.883413 0.229404 0.131523
0.892433 0.225121 0.136374
0.898989 0.220876 0.142704
0.904462 0.213813 0.150983
0.910804 0.188643 0.159788
0.912686 0.167982 0.189068
0.917597 0.074541 0.570749
0.916145 0.073685 0.565725
0.914675 0.073562 0.560728
0.916473 0.154045 0.555709
0.914966 0.152411 0.682240
0.080343 0.232354 0.093269
0.081150 0.230191 0.093363
0.083881 0.216769 0.093526
0.088138 0.193209 0.093555
0.095534 0.168186 0.093531
0.106446 0.149126 0.093503
0.124362 0.139182 0.093601
0.166917 0.142139 0.094508
0.215613 0.140415 0.094989
0.287434 0.144800 0.095887
0.388465 0.160485 0.097856
0.466462 0.167674 0.099179
0.533654 0.172158 0.100343
0.600677 0.181547 0.102259
0.671463 0.197896 0.105084
0.711014 0.206049 0.107710
0.745030 0.211156 0.110017
0.776491 0.219824 0.112931
0.807716 0.232369 0.117153
0.828708 0.237106 0.120007
0.847823 0.243008 0.123189
0.865348 0.248910 0.126986
0.877093 0.250841 0.131388
0.886933 0.245580 0.135981
0.894313 0.240334 0.141824
0.900429 0.232480 0.149121
0.907798 0.208466 0.156036
0.910780 0.186232 0.174495
0.916195 0.075021 0.565996
0.914853 0.073784 0.561341
0.913483 0.073628 0.556711
0.915370 0.152858 0.552025
0.913944 0.151281 0.679305
0.083264 0.324317 0.095034
0.083862 0.322024 0.095174
0.086240 0.310985 0.095596
0.091208 0.278355 0.095674
0.099325 0.243436 0.095608
0.111969 0.215573 0.095641
0.131410 0.194331 0.095624
0.160220 0.179628 0.095781
0.189286 0.162887 0.095612
0.248741 0.165128 0.096497
0.340422 0.180899 0.098309
0.416563 0.186394 0.099664
0.485122 0.189820 0.100759
0.559536 0.199182 0.102683
0.639281 0.215062 0.105629
0.684914 0.221577 0.108103
0.722910 0.227360 0.110414
0.756488 0.237807 0.113324
0.789138 0.252286 0.117566
0.814712 0.255248 0.120265
0.835316 0.259736 0.123320
0.853926 0.266686 0.127047
0.869636 0.272707 0.131435
0.880281 0.272266 0.135983
0.888154 0.272490 0.141618
0.895192 0.264342 0.148220
0.903091 0.239877 0.154433
0.907488 0.216654 0.166166
0.914566 0.076226 0.560614
0.913344 0.074075 0.556267
0.912087 0.073774 0.552041
0.914073 0.151423 0.547726
0.912742 0.149977 0.674927
0.084478 0.369951 0.096040
0.084925 0.367929 0.096180
0.086827 0.354876 0.096502
0.091233 0.328085 0.096700
0.098409 0.295527 0.096751
0.108593 0.263096 0.096715
0.124955 0.235784 0.096776
0.148638 0.216387 0.096827
0.180936 0.202504 0.097036
0.223965 0.193433 0.097357
0.303339 0.206972 0.099080
0.371256 0.210184 0.100306
0.438515 0.211771 0.101454
0.516883 0.219542 0.103214
0.597166 0.235001 0.106424
0.657159 0.241225 0.108760
0.696670 0.247303 0.110959
0.736670 0.257917 0.113769
0.770084 0.272517 0.118073
0.797831 0.277434 0.120757
0.820361 0.284358 0.123809
0.840787 0.289483 0.127359
0.859660 0.294184 0.131657
0.873683 0.292507 0.135941
0.882612 0.291914 0.141262
0.889861 0.290631 0.147651
0.897718 0.278131 0.154299
0.902505 0.266070 0.164475
0.912910 0.085066 0.556349
0.911651 0.075723 0.550772
0.910512 0.074336 0.546849
0.912604 0.149847 0.542902
0.911376 0.148691 0.669374
0.086135 0.437810 0.097786
0.086616 0.433524 0.097833
0.088650 0.416918 0.097953
0.092458 0.392271 0.098162
0.099392 0.361575 0.098271
0.109293 0.329771 0.098294
0.124262 0.299241 0.098327
0.146299 0.272671 0.098376
0.175174 0.251600 0.098497
0.214316 0.235916 0.098794
0.278946 0.242162 0.100320
0.335197 0.238125 0.101209
0.398029 0.237065 0.102247
0.471173 0.244050 0.103894
0.556270 0.261039 0.107422
0.616689 0.265883 0.109583
0.669548 0.270666 0.111673
0.712103 0.280390 0.114368
0.750918 0.296209 0.118841
0.778851 0.300930 0.121428
0.806351 0.305281 0.124256
0.827096 0.313546 0.127797
0.846454 0.321625 0.132310
0.864900 0.320902 0.136408
0.876019 0.318823 0.141356
0.884231 0.316351 0.147273
0.892815 0.303187 0.153186
0.898266 0.290147 0.161715
0.903925 0.262912 0.175085
0.907414 0.230045 0.218578
0.910555 0.151157 0.504271
0.910988 0.148328 0.540363
0.909869 0.147282 0.663290
0.089789 0.518445 0.100649
0.090204 0.514495 0.100669
0.091831 0.501623 0.100791
0.096797 0.482728 0.101170
0.103633 0.456381 0.101397
0.114432 0.421984 0.101537
0.130875 0.388616 0.101639
0.153469 0.358393 0.101721
0.183954 0.332686 0.101821
0.222781 0.311617 0.102069
0.267369 0.294833 0.102464
0.313612 0.280175 0.102784
0.361828 0.269318 0.103209
0.432099 0.274357 0.104726
0.518261 0.290858 0.108625
0.577586 0.293808 0.110634
0.636063 0.296888 0.112527
0.685999 0.305886 0.115118
0.731843 0.321769 0.119778
0.760079 0.324720 0.122205
0.787946 0.330156 0.124997
0.813031 0.338893 0.128459
0.833851 0.344594 0.132986
0.853050 0.344872 0.136957
0.868205 0.347136 0.141846
0.877494 0.349888 0.147588
0.887044 0.336741 0.152921
0.893387 0.323229 0.160185
0.899648 0.296350 0.170033
0.903748 0.260844 0.195063
0.907871 0.166442 0.433206
0.908940 0.146711 0.543119
0.907345 0.145781 0.542806
0.091729 0.564964 0.102745
0.092075 0.561526 0.102765
0.093820 0.550087 0.102867
0.098323 0.532717 0.103176
0.104343 0.509084 0.103409
0.114906 0.482559 0.103631
0.130651 0.454093 0.103838
0.151247 0.421825 0.103917
0.178928 0.392980 0.104020
0.214829 0.368467 0.104168
0.256015 0.348316 0.104419
0.301913 0.332792 0.104955
0.342134 0.313537 0.104848
0.399725 0.308668 0.106332
0.479602 0.323691 0.110021
0.541862 0.324340 0.111813
0.598989 0.326062 0.113618
0.660511 0.333705 0.116449
0.707310 0.347903 0.120803
0.741343 0.350189 0.123146
0.769873 0.356259 0.125938
0.797965 0.363278 0.129198
0.820641 0.371415 0.134059
0.840203 0.373693 0.137973
0.857895 0.373805 0.142542
0.870931 0.374980 0.147996
0.881105 0.368343 0.153127
0.887852 0.362448 0.159878
0.894610 0.343249 0.168365
0.899553 0.308162 0.183530
0.904333 0.203216 0.322490
0.906050 0.145030 0.537173
0.904632 0.144211 0.539979
0.093369 0.603152 0.104257
0.093825 0.600160 0.104276
0.095564 0.590053 0.104367
0.099247 0.574053 0.104619
0.105057 0.553141 0.105142
0.114990 0.528502 0.105608
0.128541 0.501926 0.105932
0.147698 0.475645 0.106219
0.172694 0.448722 0.106416
0.205491 0.421511 0.106640
0.243118 0.398423 0.106977
0.285026 0.379128 0.107402
0.329892 0.364048 0.108092
0.380677 0.354020 0.109061
0.447143 0.358360 0.111614
0.509161 0.357254 0.113226
0.565385 0.357176 0.114823
0.627605 0.363810 0.117987
0.683636 0.377163 0.122280
0.720666 0.378247 0.124344
0.752134 0.382870 0.126897
0.780971 0.390655 0.130387
0.807755 0.399876 0.135447
0.828181 0.400063 0.139017
0.846180 0.403524 0.143571
0.861950 0.408318 0.149112
0.874936 0.399750 0.153676
0.882668 0.392108 0.159681
0.889829 0.378245 0.167319
0.895015 0.358702 0.179741
0.899323 0.327869 0.208135
0.903068 0.143385 0.531097
0.901822 0.142630 0.538160
0.096123 0.640675 0.107360
0.096522 0.638681 0.107394
0.098031 0.631851 0.107544
0.101247 0.620652 0.107927
0.107571 0.606443 0.108591
0.116734 0.583161 0.109054
0.129770 0.557444 0.109417
0.148339 0.531403 0.109777
0.171956 0.506209 0.110079
0.202546 0.482510 0.110293
0.238145 0.461301 0.110536
0.278530 0.439194 0.110953
0.320887 0.420317 0.111398
0.366982 0.405317 0.112086
0.430769 0.407150 0.114391
0.479192 0.394458 0.114917
0.536154 0.390917 0.116650
0.595391 0.395805 0.119595
0.660752 0.408486 0.123761
0.698275 0.409022 0.125803
0.734997 0.412535 0.128199
0.764517 0.420054 0.131969
0.792736 0.428018 0.136894
0.815899 0.430040 0.140436
0.834563 0.434301 0.144847
0.851749 0.437091 0.150128
0.868107 0.433347 0.154638
0.876773 0.431047 0.160352
0.884827 0.416023 0.166987
0.890765 0.394861 0.176740
0.895623 0.362289 0.194870
0.898759 0.318298 0.304741
0.900580 0.259721 0.535944
0.099699 0.686612 0.111760
0.100057 0.684867 0.111795
0.101533 0.678838 0.111942
0.104656 0.668719 0.112297
0.111952 0.655994 0.113036
0.120384 0.639130 0.113487
0.134537 0.620642 0.114004
0.152852 0.599359 0.114356
0.176542 0.573676 0.114725
0.207412 0.548967 0.115009
0.242958 0.526210 0.115464
0.282063 0.505718 0.115847
0.323508 0.487882 0.116453
0.367861 0.472734 0.117114
0.417375 0.460238 0.118049
0.462854 0.443972 0.118472
0.511484 0.430595 0.119082
0.567242 0.431479 0.121515
0.632515 0.442948 0.125466
0.676937 0.442031 0.127309
0.714843 0.444769 0.129745
0.748682 0.451737 0.134005
0.777513 0.458954 0.138676
0.803591 0.461493 0.142105
0.823503 0.463962 0.146234
0.841028 0.468594 0.151649
0.859060 0.466133 0.155910
0.871004 0.462521 0.161105
0.879724 0.454825 0.167483
0.886047 0.442499 0.176015
0.891602 0.410435 0.188663
0.895299 0.362041 0.235703
0.897668 0.269398 0.522327
0.101700 0.710549 0.114117
0.102065 0.709509 0.114149
0.103425 0.705885 0.114282
0.106467 0.699470 0.114591
0.112956 0.687564 0.115284
0.121341 0.672604 0.116069
0.135647 0.655848 0.116996
0.151837 0.636875 0.117427
0.173652 0.617778 0.117937
0.203039 0.597295 0.118528
0.235979 0.573754 0.118872
0.272591 0.552327 0.119318
0.312604 0.533232 0.119854
0.354826 0.516308 0.120472
0.401823 0.502069 0.121187
0.449082 0.490193 0.122128
0.494990 0.477021 0.122508
0.546009 0.471125 0.124039
0.605064 0.476634 0.127375
0.657213 0.474960 0.129093
0.694784 0.475818 0.131850
0.733300 0.480789 0.136218
0.762787 0.486222 0.140738
0.789334 0.487640 0.143937
0.812598 0.490734 0.148002
0.830807 0.495601 0.153378
0.849464 0.493471 0.157355
0.864021 0.493233 0.162488
0.874520 0.486997 0.168486
0.881745 0.475394 0.175677
0.887562 0.457874 0.186351
0.891484 0.429678 0.212625
0.894572 0.321824 0.456669
0.103598 0.729050 0.116733
0.103926 0.728140 0.116774
0.105218 0.724951 0.116938
0.108203 0.719417 0.117307
0.114117 0.711972 0.118029
0.122561 0.702932 0.118964
0.134707 0.688174 0.119683
0.150616 0.670853 0.120373
0.171418 0.652771 0.120976
0.198382 0.634602 0.121527
0.229418 0.616966 0.122066
0.264270 0.598528 0.122526
0.303022 0.578264 0.122983
0.342194 0.560426 0.123595
0.386809 0.544517 0.124244
0.432741 0.530971 0.124994
0.480813 0.519724 0.125951
0.532000 0.512247 0.127331
0.585246 0.512462 0.130186
0.631478 0.505404 0.131431
0.676337 0.505580 0.134501
0.715023 0.509561 0.138648
0.748523 0.514594 0.143048
0.775538 0.515331 0.146027
0.801218 0.518658 0.150207
0.821096 0.522813 0.155297
0.839804 0.522577 0.159186
0.855378 0.521818 0.164012
0.869090 0.517778 0.169864
0.877100 0.511163 0.176553
0.883610 0.494275 0.185165
0.888101 0.469090 0.202475
0.891173 0.427212 0.320736
0.106206 0.749762 0.120378
0.106576 0.748966 0.120417
0.107944 0.746166 0.120566
0.110907 0.741255 0.120897
0.116374 0.734510 0.121528
0.125842 0.726546 0.122612
0.136283 0.716369 0.123188
0.152645 0.705585 0.124093
0.172170 0.690959 0.124750
0.197416 0.673358 0.125290
0.227314 0.656150 0.125901
0.261080 0.639448 0.126430
0.298744 0.623774 0.127014
0.336049 0.609224 0.127473
0.378489 0.593470 0.128159
0.423140 0.578466 0.128843
0.469436 0.565455 0.129714
0.519126 0.554713 0.130969
0.570920 0.553606 0.134864
0.613398 0.542728 0.135510
0.659008 0.536591 0.137237
0.697549 0.539911 0.141278
0.734849 0.544258 0.145554
0.762167 0.544339 0.148453
0.788567 0.547548 0.152666
0.811680 0.551418 0.157539
0.830726 0.551581 0.161211
0.846900 0.551477 0.166070
0.862288 0.550332 0.171793
0.872543 0.542174 0.177649
0.879703 0.530501 0.185359
0.884515 0.513988 0.198551
0.888134 0.475144 0.255802
0.109877 0.772343 0.124879
0.110290 0.771652 0.124915
0.111819 0.769213 0.125056
0.114812 0.764896 0.125359
0.119779 0.758869 0.125925
0.129345 0.751584 0.126911
0.140181 0.742601 0.127642
0.156114 0.732638 0.128550
0.174809 0.721867 0.129290
0.200852 0.710699 0.130247
0.230357 0.698810 0.131013
0.263384 0.682468 0.132037
0.299007 0.666705 0.132866
0.335789 0.652025 0.133734
0.376584 0.638362 0.134569
0.421295 0.626235 0.135740
0.465596 0.615497 0.136884
0.513504 0.605884 0.138072
0.557863 0.595759 0.139660
0.599028 0.583599 0.140102
0.643925 0.575188 0.141429
0.681345 0.571594 0.144063
0.719273 0.575223 0.148272
0.749441 0.574767 0.151251
0.776242 0.577075 0.155251
0.801803 0.580932 0.160007
0.822096 0.580877 0.163417
0.838637 0.582177 0.168508
0.854989 0.580327 0.173706
0.867812 0.575650 0.179360
0.875854 0.566433 0.186363
0.881292 0.548311 0.196532
0.885120 0.521930 0.229154
0.111783 0.788777 0.127096
0.112166 0.788159 0.127131
0.113578 0.785973 0.127264
0.116322 0.782076 0.127546
0.120824 0.776559 0.128062
0.129587 0.769728 0.128944
0.140996 0.761635 0.130034
0.154555 0.752246 0.131007
0.173452 0.742272 0.132376
0.198003 0.731744 0.133624
0.224512 0.720868 0.134536
0.255515 0.710085 0.135548
0.290248 0.699292 0.136538
0.325839 0.684566 0.137473
0.364622 0.670876 0.138449
0.408101 0.658148 0.139386
0.450899 0.646977 0.140582
0.497080 0.637055 0.141831
0.542066 0.628137 0.143070
0.585842 0.620807 0.144663
0.629451 0.613274 0.145808
0.670888 0.609729 0.148431
0.704408 0.607446 0.151585
0.737358 0.606189 0.154198
0.764601 0.607459 0.158057
0.790619 0.609887 0.162616
0.813705 0.609862 0.166209
0.830806 0.611143 0.171144
0.847694 0.610390 0.176036
0.861786 0.608147 0.181356
0.871915 0.600515 0.187595
0.878009 0.588016 0.196570
0.882292 0.562222 0.217698
0.113860 0.805038 0.129578
0.114218 0.804491 0.129620
0.115532 0.802547 0.129782
0.118073 0.799063 0.130121
0.122198 0.794074 0.130728
0.130532 0.787782 0.131904
0.142722 0.780459 0.133604
0.154597 0.771770 0.134588
0.174126 0.762527 0.136260
0.194797 0.752553 0.137224
0.221668 0.742377 0.138453
0.252314 0.732079 0.139611
0.284777 0.721917 0.140649
0.318895 0.712033 0.141566
0.356070 0.702755 0.142635
0.398429 0.691210 0.143679
0.439280 0.679505 0.144715
0.483360 0.669055 0.145919
0.529866 0.659881 0.147257
0.571486 0.651666 0.148698
0.616026 0.644834 0.150480
0.660878 0.640045 0.153147
0.694287 0.637226 0.156205
0.725468 0.632137 0.157644
0.753375 0.631721 0.160981
0.780010 0.633787 0.165755
0.805678 0.633650 0.169241
0.823450 0.634555 0.173890
0.840629 0.634791 0.178658
0.855515 0.632669 0.183449
0.867976 0.628709 0.189426
0.874851 0.619566 0.197090
0.879571 0.603022 0.212716
0.116389 0.820936 0.133661
0.116726 0.820652 0.133711
0.117960 0.818959 0.133902
0.120334 0.815890 0.134294
0.124675 0.811459 0.134985
0.132469 0.805788 0.136127
0.144728 0.799140 0.137951
0.156450 0.791312 0.139039
0.173476 0.782721 0.140500
0.195238 0.773560 0.141817
0.221710 0.763968 0.143161
0.248813 0.754311 0.144269
0.280877 0.744649 0.145466
0.314895 0.735106 0.146574
0.350685 0.725917 0.147578
0.391061 0.717399 0.148930
0.431524 0.709392 0.150154
0.474256 0.702059 0.151474
0.520241 0.693174 0.152870
0.561940 0.684694 0.154463
0.604280 0.677133 0.156037
0.649498 0.670734 0.157820
0.684536 0.666903 0.160763
0.715626 0.661494 0.162015
0.743838 0.657911 0.164620
0.769661 0.657955 0.169128
0.795956 0.657869 0.172455
0.816417 0.658546 0.176924
0.834013 0.659037 0.181478
0.849425 0.657651 0.185924
0.863382 0.654541 0.191435
0.871655 0.647408 0.198349
0.876960 0.634680 0.210784
0.118680 0.830291 0.137794
0.118998 0.830043 0.137844
0.120164 0.829157 0.138033
0.122395 0.827551 0.138418
0.127108 0.825211 0.139086
0.134338 0.822170 0.140172
0.145671 0.817075 0.141884
0.158679 0.810010 0.143371
0.173762 0.802090 0.144673
0.196895 0.793619 0.146395
0.219571 0.784636 0.147503
0.247705 0.775502 0.149037
0.279613 0.766372 0.150656
0.311043 0.757273 0.151885
0.345346 0.748378 0.153069
0.383987 0.739952 0.154378
0.424415 0.732081 0.155800
0.466196 0.724751 0.157187
0.510870 0.718023 0.158594
0.552668 0.711894 0.160081
0.594591 0.706609 0.161719
0.638165 0.701919 0.163426
0.675112 0.696837 0.165506
0.706097 0.691009 0.166805
0.736368 0.686817 0.169499
0.761100 0.684368 0.173259
0.786483 0.682360 0.175716
0.809580 0.682786 0.180023
0.827917 0.683333 0.184459
0.843683 0.682687 0.188698
0.858319 0.680132 0.193620
0.868569 0.675087 0.200164
0.874457 0.663031 0.210110
0.119688 0.839121 0.140231
0.119989 0.838898 0.140279
0.121086 0.838102 0.140458
0.123366 0.836652 0.140821
0.127854 0.834522 0.141448
0.134559 0.831719 0.142462
0.144910 0.828290 0.144053
0.159025 0.824352 0.145934
0.172432 0.819545 0.147086
0.194359 0.811512 0.149070
0.216209 0.803097 0.150480
0.244453 0.794290 0.152208
0.272008 0.785632 0.153612
0.304435 0.776931 0.155186
0.338758 0.768320 0.156649
0.374621 0.760076 0.157882
0.414161 0.752324 0.159324
0.454487 0.745043 0.160740
0.497919 0.738332 0.162225
0.540639 0.732181 0.163726
0.581763 0.726652 0.165551
0.624298 0.721822 0.167430
0.665048 0.717647 0.169512
0.696851 0.714049 0.171690
0.728281 0.710741 0.174295
0.753925 0.708629 0.177960
0.778930 0.706435 0.179817
0.802195 0.705001 0.183186
0.821954 0.705331 0.187363
0.838369 0.705239 0.191720
0.853536 0.704062 0.196150
0.865477 0.701070 0.201857
0.872029 0.692005 0.210608
0.121062 0.846504 0.143102
0.121346 0.846310 0.143148
0.122381 0.845617 0.143323
0.124935 0.844351 0.143673
0.129145 0.842480 0.144273
0.135388 0.839996 0.145235
0.144974 0.836917 0.146731
0.160319 0.833287 0.149216
0.172434 0.829379 0.150394
0.191729 0.825030 0.152211
0.215267 0.820222 0.154158
0.239538 0.812085 0.155671
0.268434 0.803809 0.157390
0.300115 0.795553 0.159125
0.331073 0.787465 0.160542
0.366392 0.779538 0.162035
0.406410 0.771926 0.163562
0.445926 0.764737 0.165344
0.487770 0.758084 0.167044
0.530936 0.751980 0.168852
0.570631 0.746427 0.170636
0.612232 0.741477 0.172514
0.655779 0.737060 0.174436
0.687145 0.733354 0.176643
0.719074 0.730150 0.178929
0.746707 0.727563 0.182527
0.772281 0.725520 0.184236
0.795597 0.723305 0.187183
0.816197 0.722036 0.190392
0.833402 0.721962 0.194371
0.849135 0.721406 0.198879
0.861684 0.719122 0.203922
0.869753 0.713781 0.211633
0.122471 0.853161 0.145983
0.122771 0.852994 0.146030
0.124077 0.852394 0.146204
0.126568 0.851296 0.146550
0.130521 0.849665 0.147139
0.136353 0.847484 0.148151
0.145323 0.844747 0.149770
0.159365 0.841463 0.152241
0.173160 0.837911 0.154008
0.190471 0.834017 0.155676
0.215790 0.829720 0.158181
0.237054 0.825365 0.159541
0.267089 0.820706 0.161603
0.294894 0.813142 0.163124
0.326977 0.805415 0.165176
0.360965 0.797880 0.167016
0.398790 0.790680 0.168833
0.436867 0.783736 0.170692
0.477832 0.777173 0.172519
0.521742 0.771127 0.174377
0.560657 0.765599 0.176274
0.601514 0.760621 0.178208
0.644254 0.756151 0.180157
0.678334 0.752185 0.182157
0.709725 0.748917 0.184493
0.739548 0.746091 0.186885
0.765587 0.744305 0.188462
0.789462 0.741835 0.191374
0.811941 0.740326 0.194230
0.828819 0.738776 0.197294
0.845000 0.738355 0.201472
0.858194 0.736871 0.206194
0.867838 0.732417 0.213068
0.122337 0.861855 0.146882
0.122585 0.861704 0.146924
0.123775 0.861163 0.147084
0.126081 0.860166 0.147407
0.129747 0.858672 0.148023
0.135168 0.856642 0.149027
0.143364 0.854040 0.150609
0.156271 0.850826 0.153078
0.172137 0.847280 0.155602
0.187424 0.843678 0.157140
0.209705 0.839615 0.159471
0.233337 0.835426 0.161496
0.259285 0.831096 0.163349
0.289108 0.826682 0.165578
0.319698 0.822266 0.167738
0.351603 0.816198 0.169698
0.389629 0.809127 0.171791
0.427493 0.802386 0.173735
0.466349 0.796036 0.175608
0.508770 0.790090 0.177508
0.549034 0.784627 0.179434
0.589368 0.779666 0.181400
0.631829 0.775226 0.183403
0.669824 0.771306 0.185447
