negative-superia-reala/SuperiaReala_Classic_ExtraSoft.cube
TITLE "Fuji Superia Reala Classic ExtraSoft"
# Adobe RGB in/out. REPLACES AgX. Fuji Superia Reala Classic ExtraSoft.
LUT_3D_SIZE 33
DOMAIN_MIN 0.0 0.0 0.0
DOMAIN_MAX 1.0 1.0 1.0
0.057575 0.063254 0.082403
0.061197 0.064526 0.082798
0.066293 0.066016 0.083377
0.073262 0.067770 0.084138
0.082372 0.069522 0.085015
0.093747 0.071700 0.085963
0.110003 0.074117 0.086746
0.130559 0.076983 0.087654
0.158960 0.079859 0.088828
0.200917 0.082541 0.089908
0.247505 0.086878 0.090885
0.296149 0.091003 0.091937
0.340268 0.094940 0.093075
0.386364 0.099278 0.094332
0.418330 0.105127 0.095832
0.450462 0.110882 0.097249
0.482750 0.117049 0.098593
0.510094 0.125244 0.099873
0.530506 0.133994 0.101365
0.550564 0.144795 0.103404
0.570295 0.155846 0.105376
0.589718 0.169193 0.107287
0.608853 0.183680 0.109141
0.626750 0.200083 0.110943
0.643902 0.218028 0.112696
0.660360 0.236458 0.114989
0.670370 0.254977 0.117281
0.680145 0.274165 0.119531
0.689699 0.294021 0.121739
0.699045 0.311855 0.123908
0.708194 0.329707 0.126169
0.717158 0.348240 0.129385
0.725944 0.367177 0.132578
0.058407 0.066714 0.082915
0.061349 0.066956 0.083115
0.066377 0.067822 0.083546
0.073334 0.069025 0.084297
0.082438 0.070729 0.085156
0.093843 0.072781 0.086052
0.110078 0.074951 0.086806
0.130653 0.077858 0.087719
0.159091 0.080542 0.088896
0.201045 0.083509 0.089961
0.247629 0.087695 0.090928
0.296247 0.091699 0.091985
0.340361 0.095542 0.093116
0.386424 0.100118 0.094384
0.418384 0.105883 0.095876
0.450512 0.111567 0.097288
0.482797 0.117850 0.098628
0.510122 0.126114 0.099904
0.530531 0.135028 0.101412
0.550588 0.145788 0.103446
0.570317 0.156800 0.105415
0.589738 0.170340 0.107323
0.608872 0.184804 0.109174
0.626766 0.201353 0.110973
0.643917 0.219288 0.112724
0.660369 0.237647 0.115024
0.670378 0.256154 0.117315
0.680152 0.275330 0.119562
0.689706 0.295174 0.121768
0.699051 0.312774 0.123936
0.708200 0.330671 0.126209
0.717163 0.349187 0.129423
0.725950 0.368109 0.132614
0.059796 0.071238 0.083684
0.061816 0.071375 0.083790
0.066788 0.071958 0.084215
0.073589 0.072968 0.084770
0.082676 0.074238 0.085592
0.094187 0.076101 0.086340
0.110349 0.078315 0.087052
0.130989 0.080533 0.088017
0.159564 0.082931 0.089132
0.201503 0.086715 0.090147
0.248077 0.090428 0.091078
0.296597 0.094058 0.092156
0.340693 0.097598 0.093259
0.386636 0.103031 0.094568
0.418580 0.108520 0.096035
0.450693 0.113969 0.097427
0.482965 0.121090 0.098750
0.510221 0.129192 0.100012
0.530622 0.138708 0.101580
0.550672 0.149323 0.103599
0.570395 0.160588 0.105554
0.589811 0.174445 0.107450
0.608940 0.188829 0.109291
0.626824 0.205908 0.111081
0.643971 0.223809 0.112825
0.660400 0.241915 0.115152
0.670407 0.260376 0.117434
0.680179 0.279509 0.119674
0.689731 0.299312 0.121873
0.699075 0.316080 0.124035
0.708223 0.334126 0.126352
0.717184 0.352583 0.129560
0.725970 0.371448 0.132745
0.061183 0.077548 0.084706
0.062842 0.077674 0.084810
0.067485 0.078115 0.085143
0.074105 0.078882 0.085640
0.083106 0.079941 0.086207
0.094815 0.081232 0.086782
0.110844 0.082898 0.087537
0.131605 0.085702 0.088532
0.160432 0.088660 0.089536
0.202346 0.091710 0.090471
0.248901 0.094808 0.091342
0.297241 0.098019 0.092459
0.341305 0.102996 0.093515
0.387028 0.108025 0.094898
0.418940 0.113084 0.096322
0.451026 0.119275 0.097678
0.483275 0.126909 0.098972
0.510405 0.135277 0.100209
0.530791 0.145347 0.101887
0.550827 0.155713 0.103877
0.570538 0.168229 0.105808
0.589944 0.181937 0.107682
0.609064 0.197209 0.109505
0.626931 0.214266 0.111278
0.644071 0.232036 0.113074
0.660457 0.249739 0.115385
0.670459 0.268119 0.117652
0.680228 0.287175 0.119878
0.689777 0.305692 0.122066
0.699118 0.322519 0.124217
0.708263 0.340453 0.126614
0.717223 0.358804 0.129810
0.726006 0.377568 0.132984
0.062600 0.085104 0.085926
0.064325 0.085234 0.085983
0.068413 0.085697 0.086174
0.075104 0.086526 0.086484
0.083803 0.087716 0.086873
0.095742 0.089238 0.087489
0.111579 0.091052 0.088300
0.132523 0.093108 0.089203
0.161731 0.095358 0.090077
0.203607 0.097759 0.090914
0.250133 0.101772 0.091842
0.298204 0.105972 0.092887
0.342219 0.110320 0.093947
0.387612 0.114796 0.095372
0.419478 0.121032 0.096736
0.451524 0.128004 0.098042
0.483738 0.135901 0.099295
0.510679 0.145274 0.100498
0.531042 0.154986 0.102337
0.551059 0.166556 0.104287
0.570752 0.179504 0.106182
0.590143 0.193567 0.108025
0.609249 0.209748 0.109820
0.627091 0.226715 0.111570
0.644221 0.243796 0.113444
0.660542 0.261378 0.115730
0.670539 0.279642 0.117976
0.680302 0.298587 0.120183
0.689846 0.314805 0.122352
0.699183 0.332075 0.124487
0.708324 0.349849 0.127004
0.717280 0.368047 0.130182
0.726060 0.386664 0.133340
0.064581 0.094869 0.086885
0.065763 0.094958 0.086921
0.069843 0.095275 0.087102
0.076372 0.095850 0.087409
0.084813 0.096687 0.087845
0.096975 0.097794 0.088509
0.112560 0.099914 0.089229
0.133756 0.102396 0.089972
0.163483 0.105206 0.090718
0.205309 0.108305 0.091484
0.251797 0.111657 0.092469
0.299504 0.115360 0.093423
0.343452 0.120500 0.094643
0.388400 0.126383 0.095980
0.420203 0.132588 0.097270
0.452196 0.140739 0.098515
0.484363 0.149292 0.099716
0.511048 0.158228 0.100982
0.531381 0.169677 0.102930
0.551371 0.181786 0.104828
0.571041 0.195247 0.106677
0.590412 0.210521 0.108480
0.609500 0.226586 0.110240
0.627307 0.242819 0.111958
0.644423 0.259557 0.113937
0.660656 0.276988 0.116192
0.670645 0.295106 0.118409
0.680402 0.311347 0.120589
0.689940 0.327722 0.122735
0.699271 0.344851 0.124848
0.708407 0.362419 0.127528
0.717358 0.380421 0.130683
0.726133 0.397397 0.133818
0.066260 0.107311 0.088163
0.067454 0.107418 0.088213
0.071431 0.107801 0.088387
0.077866 0.108500 0.088689
0.086045 0.109529 0.089105
0.098509 0.110893 0.089611
0.113790 0.112583 0.090181
0.135313 0.114587 0.090789
0.165709 0.117478 0.091438
0.207472 0.121209 0.092314
0.253912 0.125446 0.093186
0.301153 0.130069 0.094197
0.345019 0.135739 0.095465
0.389400 0.142496 0.096705
0.421124 0.149714 0.097913
0.453048 0.157373 0.099088
0.485156 0.167092 0.100229
0.511517 0.177698 0.101784
0.531811 0.188911 0.103661
0.551768 0.202430 0.105496
0.571409 0.216773 0.107290
0.590753 0.231850 0.109046
0.609818 0.246999 0.110763
0.627582 0.262853 0.112443
0.644681 0.279409 0.114555
0.660802 0.296661 0.116770
0.670781 0.311909 0.118952
0.680529 0.327593 0.121100
0.690058 0.344011 0.123217
0.699382 0.360886 0.125303
0.708512 0.378210 0.128188
0.717457 0.395465 0.131314
0.726227 0.407629 0.134422
0.068349 0.123349 0.089569
0.069556 0.123478 0.089605
0.073086 0.123942 0.089732
0.079543 0.124791 0.089956
0.087478 0.126052 0.090271
0.100335 0.127736 0.090665
0.115266 0.129850 0.091119
0.137322 0.132389 0.091715
0.168425 0.136113 0.092445
0.210111 0.140382 0.093200
0.256492 0.145177 0.094077
0.303164 0.150484 0.095234
0.346929 0.156288 0.096387
0.390618 0.163516 0.097526
0.422246 0.171910 0.098648
0.454088 0.180943 0.099748
0.486123 0.190817 0.100894
0.512089 0.202624 0.102723
0.532336 0.215225 0.104520
0.552252 0.228622 0.106285
0.571857 0.242225 0.108017
0.591170 0.256450 0.109717
0.610207 0.271388 0.111385
0.627917 0.287036 0.113094
0.644994 0.302846 0.115294
0.660980 0.316649 0.117464
0.670947 0.331814 0.119604
0.680683 0.347462 0.121715
0.690203 0.363585 0.123797
0.699518 0.380173 0.125880
0.708639 0.396302 0.128986
0.717577 0.407989 0.132077
0.726340 0.419806 0.135154
0.070859 0.146658 0.090805
0.071842 0.146803 0.090832
0.075216 0.147321 0.090928
0.081360 0.148272 0.091101
0.089086 0.149688 0.091346
0.102441 0.151591 0.091770
0.117197 0.153993 0.092278
0.139859 0.156900 0.092848
0.171643 0.160726 0.093465
0.213239 0.165579 0.094300
0.259552 0.171082 0.095311
0.305544 0.177236 0.096343
0.349192 0.184037 0.097384
0.392059 0.191822 0.098424
0.423574 0.201104 0.099459
0.455319 0.211174 0.100482
0.487269 0.222033 0.102052
0.512766 0.233540 0.103784
0.532958 0.245375 0.105496
0.552826 0.257936 0.107185
0.572388 0.271218 0.108850
0.591663 0.285220 0.110489
0.610667 0.299939 0.112102
0.628315 0.312521 0.114008
0.645366 0.326112 0.116151
0.661190 0.340441 0.118270
0.671143 0.355270 0.120363
0.680867 0.370591 0.122431
0.690375 0.386395 0.124474
0.699679 0.399962 0.126859
0.708791 0.411101 0.129922
0.717720 0.422395 0.132973
0.726475 0.433837 0.136012
0.073191 0.177336 0.092117
0.074013 0.177502 0.092146
0.077818 0.178098 0.092251
0.083277 0.179193 0.092438
0.091262 0.180829 0.092710
0.104807 0.183034 0.093059
0.120067 0.185829 0.093476
0.142778 0.189244 0.094057
0.175373 0.193842 0.094846
0.216866 0.199172 0.095692
0.263102 0.205247 0.096580
0.308301 0.212078 0.097497
0.351814 0.219672 0.098434
0.393726 0.228038 0.099380
0.425112 0.236867 0.100330
0.456744 0.246301 0.101680
0.488597 0.256462 0.103320
0.513551 0.267349 0.104954
0.533679 0.278962 0.106577
0.553491 0.291298 0.108186
0.573004 0.303630 0.109779
0.592236 0.314745 0.111353
0.611201 0.327067 0.112938
0.628776 0.340002 0.115039
0.645798 0.353461 0.117122
0.661435 0.367437 0.119184
0.671371 0.381919 0.121225
0.681080 0.396087 0.123246
0.690574 0.406430 0.125245
0.699866 0.416965 0.127979
0.708967 0.427680 0.130994
0.717886 0.438566 0.134000
0.726632 0.449614 0.136997
0.076122 0.217344 0.093500
0.077142 0.217529 0.093524
0.080404 0.218191 0.093608
0.085699 0.219410 0.093768
0.094453 0.221231 0.094101
0.107417 0.223691 0.094535
0.123287 0.226815 0.095060
0.146078 0.230627 0.095668
0.179626 0.234931 0.096345
0.221003 0.239916 0.097080
0.267152 0.245593 0.097861
0.311440 0.251972 0.098677
0.354801 0.259059 0.099518
0.395622 0.266859 0.100377
0.426862 0.275375 0.101625
0.458368 0.284611 0.103147
0.490110 0.294567 0.104680
0.514444 0.304349 0.106215
0.534499 0.313545 0.107749
0.554248 0.323765 0.109276
0.573706 0.334705 0.110795
0.592889 0.346198 0.112301
0.611810 0.358235 0.114152
0.629301 0.370809 0.116181
0.646290 0.383910 0.118198
0.661714 0.396511 0.120200
0.671631 0.405960 0.122186
0.681323 0.415634 0.124155
0.690802 0.425523 0.126270
0.700080 0.435616 0.129237
0.709168 0.445902 0.132199
0.718075 0.456372 0.135156
0.726811 0.467017 0.138107
0.079266 0.261788 0.095290
0.080131 0.261960 0.095319
0.082955 0.262576 0.095424
0.088225 0.263710 0.095615
0.097866 0.265404 0.095893
0.110249 0.267692 0.096258
0.126847 0.270597 0.096704
0.149754 0.274140 0.097224
0.184408 0.278338 0.097810
0.225658 0.283203 0.098451
0.271710 0.288749 0.099140
0.314964 0.294983 0.099866
0.358157 0.301649 0.100622
0.397749 0.307827 0.101893
0.428826 0.314544 0.103277
0.460191 0.322204 0.104687
0.491810 0.330535 0.106114
0.515446 0.339440 0.107554
0.535421 0.348913 0.108998
0.555099 0.358950 0.110444
0.574495 0.369544 0.111887
0.593623 0.380687 0.113509
0.612495 0.392373 0.115470
0.629893 0.401247 0.117425
0.646844 0.409728 0.119373
0.662028 0.418467 0.121312
0.671923 0.427451 0.123239
0.681596 0.436670 0.125154
0.691058 0.446112 0.127722
0.700320 0.455768 0.130628
0.709394 0.465628 0.133533
0.718288 0.475683 0.136437
0.727012 0.485923 0.139338
0.082249 0.307756 0.097070
0.082994 0.307891 0.097095
0.085943 0.308377 0.097184
0.091176 0.309270 0.097344
0.101472 0.310604 0.097581
0.113284 0.312403 0.097892
0.130736 0.314685 0.098274
0.153803 0.317572 0.098723
0.189726 0.321085 0.099233
0.230836 0.325151 0.099796
0.276784 0.329778 0.100405
0.318878 0.334970 0.101290
0.361886 0.340730 0.102472
0.400106 0.347060 0.103704
0.431005 0.353960 0.104976
0.462215 0.361429 0.106280
0.493698 0.369465 0.107609
0.516560 0.378064 0.108955
0.536445 0.387223 0.110313
0.556045 0.396112 0.111678
0.575372 0.402989 0.113129
0.594439 0.410171 0.115004
0.613257 0.417645 0.116883
0.630551 0.425402 0.118762
0.647460 0.433431 0.120640
0.662377 0.441721 0.122513
0.672249 0.450261 0.124379
0.681900 0.459041 0.126469
0.691343 0.468052 0.129306
0.700588 0.477283 0.132147
0.709646 0.486726 0.134993
0.718526 0.496372 0.137840
0.727236 0.506212 0.140688
0.085486 0.351083 0.098738
0.086291 0.351222 0.098759
0.088999 0.351718 0.098834
0.095573 0.352631 0.098972
0.105245 0.353996 0.099175
0.116500 0.355837 0.099442
0.134940 0.358175 0.099774
0.159420 0.361024 0.100165
0.195585 0.364397 0.100611
0.236544 0.368304 0.101387
0.282379 0.372752 0.102328
0.323182 0.377748 0.103340
0.365991 0.383294 0.104413
0.402694 0.389393 0.105538
0.433400 0.395513 0.106708
0.464441 0.400353 0.107914
0.495776 0.405533 0.109148
0.517784 0.411046 0.110405
0.537572 0.416885 0.111680
0.557086 0.423041 0.113020
0.576338 0.429505 0.114794
0.595338 0.436269 0.116582
0.614097 0.443322 0.118380
0.631276 0.450656 0.120183
0.648139 0.458262 0.121989
0.662761 0.466129 0.123795
0.672607 0.474248 0.125599
0.682235 0.482611 0.128249
0.691657 0.491208 0.131015
0.700883 0.500030 0.133790
0.709924 0.509069 0.136572
0.718788 0.517602 0.139360
0.727484 0.524391 0.142602
0.088873 0.396338 0.100307
0.089586 0.396427 0.100325
0.093219 0.396748 0.100390
0.100069 0.397339 0.100509
0.109161 0.398220 0.100689
0.121478 0.399407 0.101057
0.139897 0.400913 0.101559
0.165961 0.402745 0.102156
0.201979 0.404910 0.102843
0.242785 0.407411 0.103614
0.287821 0.410251 0.104461
0.327877 0.413432 0.105377
0.370473 0.416951 0.106353
0.405513 0.420807 0.107383
0.436011 0.424998 0.108459
0.466870 0.429520 0.109574
0.498045 0.434367 0.110721
0.519119 0.439534 0.111895
0.538802 0.445015 0.113188
0.558224 0.450803 0.114848
0.577393 0.456892 0.116532
0.596321 0.463273 0.118234
0.615015 0.469938 0.119951
0.632069 0.476881 0.121678
0.648882 0.484092 0.123413
0.663182 0.491563 0.125152
0.673000 0.499287 0.127472
0.682602 0.507254 0.130150
0.692001 0.515458 0.132843
0.701206 0.521610 0.135549
0.710228 0.527810 0.138266
0.719074 0.534133 0.141004
0.727754 0.540573 0.144780
0.093459 0.428307 0.102574
0.094540 0.428390 0.102601
0.098277 0.428688 0.102701
0.104643 0.429236 0.102882
0.113200 0.430055 0.103151
0.126750 0.431159 0.103509
0.145410 0.432558 0.103955
0.173056 0.434263 0.104488
0.208897 0.436278 0.105103
0.249566 0.438608 0.105797
0.293161 0.441256 0.106562
0.332964 0.444224 0.107394
0.375412 0.447511 0.108285
0.408561 0.451118 0.109229
0.438837 0.455041 0.110220
0.469501 0.459280 0.111251
0.500504 0.463829 0.112317
0.520565 0.468685 0.113630
0.540134 0.473843 0.115166
0.559457 0.479299 0.116734
0.578538 0.485045 0.118331
0.597387 0.491075 0.119950
0.615940 0.497384 0.121588
0.632930 0.503965 0.123240
0.649690 0.510810 0.124904
0.663639 0.517310 0.126987
0.673426 0.522598 0.129563
0.683001 0.528039 0.132163
0.692375 0.533626 0.134782
0.701557 0.539353 0.137418
0.710558 0.545214 0.140069
0.719386 0.551200 0.143403
0.728049 0.557308 0.147113
0.098902 0.460543 0.105041
0.099895 0.460620 0.105066
0.103347 0.460899 0.105154
0.109281 0.461410 0.105316
0.117728 0.462174 0.105555
0.132289 0.463204 0.105875
0.151266 0.464512 0.106274
0.180708 0.466104 0.106752
0.216362 0.467988 0.107307
0.256887 0.470167 0.107933
0.298905 0.472646 0.108627
0.338441 0.475426 0.109385
0.380843 0.478509 0.110200
0.411836 0.481893 0.111067
0.441876 0.485579 0.111981
0.472334 0.489564 0.112978
0.502438 0.493846 0.114335
0.522122 0.498423 0.115740
0.541570 0.503289 0.117186
0.560786 0.508442 0.118668
0.579773 0.513876 0.120181
0.598538 0.518516 0.121720
0.616934 0.522815 0.123281
0.633859 0.527291 0.124860
0.650561 0.531937 0.126801
0.664132 0.536747 0.129265
0.673887 0.541715 0.131760
0.683432 0.546836 0.134281
0.692778 0.552103 0.136826
0.701937 0.557510 0.139391
0.710915 0.563052 0.142356
0.719723 0.568722 0.145954
0.728367 0.574515 0.149595
0.104303 0.493030 0.107413
0.105221 0.493103 0.107435
0.108422 0.493363 0.107515
0.113968 0.493843 0.107659
0.124000 0.494559 0.107874
0.138334 0.495525 0.108161
0.158384 0.496751 0.108521
0.188917 0.498244 0.108952
0.224376 0.500012 0.109454
0.264753 0.502059 0.110022
0.305049 0.504387 0.110655
0.344307 0.507001 0.111347
0.386061 0.509900 0.112094
0.415335 0.513087 0.112919
0.445128 0.516335 0.114074
0.475367 0.519042 0.115290
0.504251 0.521948 0.116560
0.523788 0.525049 0.117878
0.543108 0.528342 0.119240
0.562210 0.531824 0.120640
0.581097 0.535490 0.122073
0.599773 0.539337 0.123535
0.618001 0.543359 0.125022
0.634857 0.547552 0.126917
0.651497 0.551910 0.129260
0.664662 0.556429 0.131639
0.674381 0.561104 0.134053
0.683894 0.565929 0.136497
0.693212 0.570900 0.138967
0.702345 0.576009 0.141648
0.711299 0.581254 0.145125
0.720085 0.586627 0.148651
0.728710 0.592125 0.152223
0.109665 0.522951 0.109699
0.110516 0.523000 0.109719
0.113497 0.523175 0.109790
0.119719 0.523499 0.109921
0.130489 0.523982 0.110115
0.145261 0.524633 0.110374
0.167312 0.525460 0.110699
0.197685 0.526467 0.111091
0.232941 0.527657 0.111546
0.273165 0.529035 0.112065
0.311592 0.530603 0.112643
0.350561 0.532360 0.113445
0.390076 0.534308 0.114386
0.419056 0.536448 0.115398
0.448590 0.538777 0.116473
0.478600 0.541295 0.117608
0.506181 0.544001 0.118798
0.525564 0.546891 0.120036
0.544748 0.549965 0.121319
0.563730 0.553217 0.122641
0.582511 0.556646 0.123999
0.601092 0.560248 0.125388
0.619140 0.564019 0.127336
0.635924 0.567955 0.129548
0.652498 0.572052 0.131805
0.665229 0.576305 0.134102
0.674910 0.580710 0.136435
0.684389 0.585263 0.138802
0.693677 0.589958 0.141286
0.702781 0.594792 0.144633
0.711711 0.599759 0.148035
0.720473 0.604855 0.151488
0.729077 0.610076 0.154988
0.114990 0.546395 0.111906
0.115784 0.546440 0.111924
0.119535 0.546604 0.111988
0.126814 0.546904 0.112107
0.137302 0.547352 0.112282
0.152489 0.547956 0.112518
0.176800 0.548724 0.112814
0.206976 0.549659 0.113299
0.242058 0.550765 0.113868
0.282125 0.552046 0.114518
0.318528 0.553504 0.115246
0.357199 0.555139 0.116049
0.394320 0.556953 0.116922
0.422995 0.558946 0.117863
0.452260 0.561118 0.118866
0.482030 0.563469 0.119927
0.508225 0.565996 0.121042
0.527447 0.568698 0.122207
0.546489 0.571573 0.123416
0.565345 0.574620 0.124666
0.584014 0.577835 0.126034
0.602494 0.581216 0.128053
0.620353 0.584759 0.130128
0.637059 0.588461 0.132254
0.653564 0.592318 0.134427
0.665831 0.596328 0.136643
0.675473 0.600485 0.138899
0.684917 0.604787 0.141274
0.694171 0.609228 0.144483
0.703246 0.613509 0.147752
0.712149 0.616543 0.151078
0.720887 0.619475 0.154457
0.729468 0.622472 0.157887
0.122073 0.569607 0.114490
0.123178 0.569650 0.114513
0.127090 0.569802 0.114593
0.134073 0.570081 0.114741
0.145205 0.570499 0.114961
0.161866 0.571062 0.115257
0.186847 0.571777 0.115628
0.216811 0.572649 0.116077
0.251728 0.573680 0.116603
0.290339 0.574875 0.117203
0.325854 0.576235 0.117877
0.364219 0.577762 0.118622
0.398789 0.579457 0.119434
0.427149 0.581320 0.120311
0.456135 0.583352 0.121248
0.485656 0.585551 0.122242
0.510384 0.587918 0.123288
0.529437 0.590452 0.124384
0.548330 0.593149 0.125525
0.567054 0.596010 0.127187
0.585605 0.599032 0.129059
0.603981 0.602211 0.130993
0.621638 0.605547 0.132984
0.638263 0.609036 0.135027
0.654695 0.612675 0.137120
0.666471 0.615240 0.139257
0.676070 0.617680 0.141614
0.685476 0.620145 0.144677
0.694696 0.622686 0.147806
0.703740 0.625300 0.150998
0.712614 0.627986 0.154248
0.721326 0.630739 0.157554
0.729883 0.633558 0.160913
0.129972 0.592601 0.117337
0.131029 0.592641 0.117357
0.134777 0.592783 0.117432
0.142241 0.593044 0.117568
0.153369 0.593434 0.117771
0.172629 0.593961 0.118043
0.197454 0.594630 0.118386
0.227200 0.595445 0.118801
0.261949 0.596410 0.119287
0.298388 0.597528 0.119844
0.333565 0.598801 0.120470
0.371617 0.600232 0.121163
0.403476 0.601820 0.121920
0.431514 0.603566 0.122738
0.460211 0.605472 0.123615
0.489475 0.607537 0.124548
0.512654 0.609760 0.125532
0.531531 0.612140 0.126968
0.550270 0.614077 0.128620
0.568857 0.615832 0.130343
0.587285 0.617574 0.132133
0.605550 0.619390 0.133985
0.622996 0.621293 0.135896
0.639536 0.623281 0.137860
0.655890 0.625352 0.139875
0.667146 0.627503 0.142304
0.676702 0.629734 0.145216
0.686068 0.632040 0.148198
0.695252 0.634421 0.151249
0.704262 0.636874 0.154363
0.713107 0.639396 0.157539
0.721791 0.641985 0.160771
0.730323 0.644638 0.164059
0.138216 0.614541 0.120116
0.139377 0.614566 0.120136
0.143509 0.614652 0.120204
0.150962 0.614812 0.120330
0.164305 0.615050 0.120518
0.183948 0.615372 0.120770
0.208574 0.615781 0.121088
0.238142 0.616264 0.121473
0.272724 0.616813 0.121924
0.306821 0.617450 0.122442
0.341656 0.618175 0.123024
0.379619 0.618989 0.123670
0.408378 0.619892 0.124377
0.436086 0.620884 0.125143
0.464487 0.621967 0.126054
0.493485 0.623139 0.127393
0.515033 0.624400 0.128815
0.533730 0.625749 0.130316
0.552307 0.627186 0.131891
0.570751 0.628710 0.133536
0.589051 0.630319 0.135249
0.607202 0.632012 0.137023
0.624425 0.633787 0.138857
0.640876 0.635644 0.140746
0.657150 0.637580 0.143339
0.667858 0.639594 0.146095
0.677367 0.641683 0.148926
0.686691 0.643846 0.151830
0.695838 0.646080 0.154803
0.704814 0.648385 0.157842
0.713626 0.650757 0.160943
0.722282 0.653194 0.164104
0.730787 0.655695 0.167855
0.147545 0.628288 0.122834
0.148669 0.628309 0.122852
0.152674 0.628384 0.122916
0.161734 0.628522 0.123033
0.176316 0.628728 0.123207
0.195822 0.629007 0.123441
0.220235 0.629360 0.123736
0.249637 0.629791 0.124094
0.284051 0.630301 0.124515
0.315633 0.630892 0.124997
0.350124 0.631565 0.125541
0.386967 0.632321 0.126327
0.413488 0.633160 0.127340
0.440860 0.634083 0.128442
0.468958 0.635090 0.129630
0.497682 0.636181 0.130903
0.517520 0.637355 0.132255
0.536030 0.638612 0.133685
0.554441 0.639952 0.135188
0.572737 0.641374 0.136760
0.590905 0.642877 0.138400
0.608936 0.644459 0.140101
0.625926 0.646119 0.142201
0.642284 0.647857 0.144713
0.658473 0.649671 0.147309
0.668606 0.651559 0.149985
0.678067 0.653519 0.152739
0.687347 0.655551 0.155566
0.696454 0.657652 0.158464
0.705394 0.659820 0.161428
0.714173 0.662054 0.164457
0.722799 0.664352 0.168145
0.731276 0.666712 0.172211
0.157854 0.641636 0.125494
0.159339 0.641655 0.125511
0.164661 0.641725 0.125570
0.174406 0.641853 0.125679
0.188877 0.642045 0.125864
0.208208 0.642304 0.126196
0.232447 0.642633 0.126617
0.261684 0.643034 0.127128
0.293783 0.643509 0.127729
0.324817 0.644059 0.128421
0.358961 0.644686 0.129204
0.392658 0.645390 0.130075
0.418801 0.646172 0.131035
0.445831 0.647032 0.132080
0.473620 0.647972 0.133209
0.501742 0.648990 0.134419
0.520111 0.650086 0.135707
0.538430 0.651261 0.137071
0.556670 0.652514 0.138506
0.574813 0.653844 0.140011
0.592843 0.655250 0.141814
0.610751 0.656732 0.144068
0.627497 0.658288 0.146415
0.643759 0.659918 0.148850
0.659796 0.661621 0.151369
0.669390 0.663394 0.153970
0.678800 0.665237 0.156648
0.688035 0.667149 0.159400
0.697100 0.669127 0.162224
0.706002 0.671171 0.165116
0.714747 0.673278 0.168824
0.723341 0.675447 0.172727
0.731789 0.677677 0.176728
0.171206 0.654705 0.129325
0.172678 0.654723 0.129349
0.177955 0.654788 0.129434
0.187623 0.654908 0.129591
0.201978 0.655087 0.129824
0.221121 0.655328 0.130138
0.245207 0.655635 0.130536
0.274283 0.656009 0.131018
0.303694 0.656453 0.131587
0.334367 0.656966 0.132242
0.368164 0.657552 0.132983
0.398548 0.658209 0.133810
0.424311 0.658940 0.134720
0.450995 0.659745 0.135713
0.478469 0.660623 0.136787
0.504656 0.661576 0.137940
0.522805 0.662602 0.139168
0.540927 0.663703 0.140470
0.558992 0.664876 0.142174
0.576977 0.666123 0.144165
0.594866 0.667442 0.146252
0.612646 0.668833 0.148435
0.629139 0.670295 0.150708
0.645301 0.671827 0.153069
0.660673 0.673428 0.155515
0.670209 0.675097 0.158041
0.679567 0.676833 0.160646
0.688755 0.678634 0.163326
0.697777 0.680500 0.166255
0.706639 0.682429 0.169890
0.715348 0.684419 0.173627
0.723909 0.686470 0.177464
0.732327 0.688579 0.181399
0.185096 0.667512 0.133279
0.186556 0.667529 0.133301
0.191791 0.667590 0.133382
0.201377 0.667702 0.133530
0.215567 0.667869 0.133751
0.234579 0.668095 0.134048
0.258516 0.668382 0.134424
0.286960 0.668733 0.134881
0.313963 0.669147 0.135420
0.344277 0.669628 0.136041
0.377894 0.670176 0.136744
0.404631 0.670792 0.137529
0.430012 0.671477 0.138395
0.456346 0.672231 0.139340
0.483502 0.673055 0.140363
0.507674 0.673948 0.141650
0.525599 0.674911 0.143268
0.543521 0.675944 0.144991
0.561406 0.677046 0.146815
0.579229 0.678217 0.148738
0.596972 0.679457 0.150758
0.614620 0.680766 0.152871
0.630850 0.682141 0.155074
0.646908 0.683584 0.157364
