negative-superia-reala/SuperiaReala_Classic_ExtraSoft.cube
TITLE "Fuji Superia Reala Classic ExtraSoft"
# Adobe RGB in/out. REPLACES AgX. Fuji Superia Reala Classic ExtraSoft.
LUT_3D_SIZE 9
DOMAIN_MIN 0.0 0.0 0.0
DOMAIN_MAX 1.0 1.0 1.0
0.057575 0.063254 0.082403
0.082372 0.069522 0.085015
0.158960 0.079859 0.088828
0.340268 0.094940 0.093075
0.482750 0.117049 0.098593
0.570295 0.155846 0.105376
0.643902 0.218028 0.112696
0.689699 0.294021 0.121739
0.725944 0.367177 0.132578
0.062600 0.085104 0.085926
0.083803 0.087716 0.086873
0.161731 0.095358 0.090077
0.342219 0.110320 0.093947
0.483738 0.135901 0.099295
0.570752 0.179504 0.106182
0.644221 0.243796 0.113444
0.689846 0.314805 0.122352
0.726060 0.386664 0.133340
0.070859 0.146658 0.090805
0.089086 0.149688 0.091346
0.171643 0.160726 0.093465
0.349192 0.184037 0.097384
0.487269 0.222033 0.102052
0.572388 0.271218 0.108850
0.645366 0.326112 0.116151
0.690375 0.386395 0.124474
0.726475 0.433837 0.136012
0.082249 0.307756 0.097070
0.101472 0.310604 0.097581
0.189726 0.321085 0.099233
0.361886 0.340730 0.102472
0.493698 0.369465 0.107609
0.575372 0.402989 0.113129
0.647460 0.433431 0.120640
0.691343 0.468052 0.129306
0.727236 0.506212 0.140688
0.098902 0.460543 0.105041
0.117728 0.462174 0.105555
0.216362 0.467988 0.107307
0.380843 0.478509 0.110200
0.502438 0.493846 0.114335
0.579773 0.513876 0.120181
0.650561 0.531937 0.126801
0.692778 0.552103 0.136826
0.728367 0.574515 0.149595
0.122073 0.569607 0.114490
0.145205 0.570499 0.114961
0.251728 0.573680 0.116603
0.398789 0.579457 0.119434
0.510384 0.587918 0.123288
0.585605 0.599032 0.129059
0.654695 0.612675 0.137120
0.694696 0.622686 0.147806
0.729883 0.633558 0.160913
0.157854 0.641636 0.125494
0.188877 0.642045 0.125864
0.293783 0.643509 0.127729
0.418801 0.646172 0.131035
0.520111 0.650086 0.135707
0.592843 0.655250 0.141814
0.659796 0.661621 0.151369
0.697100 0.669127 0.162224
0.731789 0.677677 0.176728
0.214418 0.692399 0.141127
0.244366 0.692670 0.141711
0.335546 0.693516 0.143790
0.441964 0.695058 0.147533
0.531476 0.697335 0.152947
0.601429 0.700354 0.159949
0.663525 0.704103 0.169251
0.699985 0.708554 0.181928
0.734087 0.713665 0.196300
0.279282 0.727565 0.162512
0.303737 0.727750 0.163014
0.383062 0.728413 0.164805
0.467906 0.729626 0.168789
0.544308 0.731421 0.174907
0.611284 0.733813 0.182970
0.667827 0.736801 0.192918
0.703338 0.740372 0.205807
0.736771 0.744503 0.221709
0.057575 0.066914 0.106220
0.082372 0.070855 0.106707
0.158960 0.080622 0.108371
0.340268 0.095613 0.111135
0.482750 0.117946 0.115428
0.570295 0.156914 0.121108
0.643902 0.219439 0.128000
0.689699 0.295313 0.137868
0.725944 0.368220 0.150871
0.062600 0.086084 0.106995
0.083803 0.088599 0.107465
0.161731 0.096020 0.109074
0.342219 0.111095 0.111757
0.483738 0.137050 0.116160
0.570752 0.180770 0.121732
0.644221 0.245122 0.128813
0.689846 0.315830 0.138577
0.726060 0.387690 0.151742
0.070859 0.147762 0.109571
0.089086 0.150780 0.109989
0.171643 0.162027 0.111429
0.349192 0.185295 0.114241
0.487269 0.223442 0.118670
0.572388 0.272525 0.123889
0.645366 0.327195 0.131658
0.690375 0.387421 0.141108
0.726475 0.434464 0.154827
0.082249 0.308790 0.113949
0.101472 0.311635 0.114428
0.189726 0.322173 0.116095
0.361886 0.341798 0.118966
0.493698 0.370505 0.122868
0.575372 0.403662 0.128489
0.647460 0.434059 0.136611
0.691343 0.468635 0.147175
0.727236 0.506753 0.160337
0.098902 0.461135 0.120852
0.117728 0.462764 0.121246
0.216362 0.468571 0.122624
0.380843 0.479080 0.125032
0.502438 0.494401 0.129737
0.579773 0.514410 0.136091
0.650561 0.532300 0.144396
0.692778 0.552444 0.155776
0.728367 0.574834 0.169009
0.122073 0.569931 0.129899
0.145205 0.570821 0.130394
0.251728 0.574000 0.132142
0.398789 0.579771 0.135252
0.510384 0.588225 0.139669
0.585605 0.599328 0.146899
0.654695 0.612957 0.156120
0.694696 0.622851 0.166981
0.729883 0.633713 0.182087
0.157854 0.641784 0.142790
0.188877 0.642194 0.143367
0.293783 0.643656 0.145421
0.418801 0.646317 0.149119
0.520111 0.650228 0.154473
0.592843 0.655388 0.161404
0.659796 0.661754 0.171030
0.697100 0.669256 0.183630
0.731789 0.677800 0.197923
0.214418 0.692514 0.160807
0.244366 0.692756 0.161315
0.335546 0.693601 0.163126
0.441964 0.695142 0.166672
0.531476 0.697418 0.172837
0.601429 0.700435 0.180958
0.663525 0.704182 0.190971
0.699985 0.708631 0.203596
0.734087 0.713739 0.219561
0.279282 0.727632 0.183969
0.303737 0.727817 0.184562
0.383062 0.728480 0.186681
0.467906 0.729692 0.190542
0.544308 0.731487 0.196228
0.611284 0.733877 0.204744
0.667827 0.736864 0.215778
0.703338 0.740433 0.229028
0.736771 0.744563 0.245992
0.057575 0.071819 0.168474
0.082372 0.074665 0.169099
0.158960 0.083464 0.171336
0.340268 0.097985 0.175403
0.482750 0.121584 0.181382
0.570295 0.161228 0.189271
0.643902 0.224501 0.199179
0.689699 0.299946 0.212765
0.725944 0.371960 0.228481
0.062600 0.089315 0.169476
0.083803 0.091541 0.170099
0.161731 0.098582 0.172327
0.342219 0.113798 0.176381
0.483738 0.141136 0.182339
0.570752 0.185301 0.190204
0.644221 0.249880 0.200240
0.689846 0.319752 0.213800
0.726060 0.391369 0.229594
0.070859 0.151690 0.173046
0.089086 0.154667 0.173662
0.171643 0.166678 0.175862
0.349192 0.189896 0.179866
0.487269 0.228496 0.185754
0.572388 0.277211 0.193531
0.645366 0.331076 0.204035
0.690375 0.391101 0.217503
0.726475 0.436711 0.233582
0.082249 0.312497 0.179500
0.101472 0.315328 0.180101
0.189726 0.326073 0.182252
0.361886 0.345626 0.186170
0.493698 0.374237 0.191937
0.575372 0.406071 0.199816
0.647460 0.436307 0.210949
0.691343 0.470726 0.224253
0.727236 0.508693 0.240876
0.098902 0.463258 0.188893
0.117728 0.464880 0.189476
0.216362 0.470662 0.191561
0.380843 0.481127 0.195361
0.502438 0.496387 0.201459
0.579773 0.516164 0.210205
0.650561 0.533604 0.221133
0.692778 0.553668 0.234823
0.728367 0.575977 0.251690
0.122073 0.571091 0.201674
0.145205 0.571978 0.202333
0.251728 0.575146 0.204695
0.398789 0.580898 0.209013
0.510384 0.589324 0.215411
0.585605 0.600393 0.223942
0.654695 0.613626 0.235274
0.694696 0.623442 0.249491
0.729883 0.634270 0.266594
0.157854 0.642318 0.219351
0.188877 0.642726 0.219990
0.293783 0.644184 0.222278
0.418801 0.646837 0.226464
0.520111 0.650738 0.233121
0.592843 0.655884 0.242315
0.659796 0.662234 0.253960
0.697100 0.669717 0.268385
0.731789 0.678242 0.285300
0.214418 0.692827 0.241510
0.244366 0.693063 0.242195
0.335546 0.693906 0.244652
0.441964 0.695445 0.249157
0.531476 0.697715 0.256000
0.601429 0.700726 0.265287
0.663525 0.704466 0.277001
0.699985 0.708906 0.291172
0.734087 0.714005 0.307807
0.279282 0.727873 0.268781
0.303737 0.728058 0.269471
0.383062 0.728720 0.271948
0.467906 0.729930 0.276494
0.544308 0.731722 0.283264
0.611284 0.734109 0.292358
0.667827 0.737091 0.303839
0.703338 0.740655 0.317744
0.736771 0.744779 0.334087
0.057575 0.078653 0.325315
0.082372 0.080843 0.325978
0.158960 0.089678 0.328358
0.340268 0.104048 0.332728
0.482750 0.128062 0.339243
0.570295 0.169772 0.348004
0.643902 0.233639 0.359080
0.689699 0.306936 0.372514
0.725944 0.378808 0.384983
0.062600 0.094367 0.326378
0.083803 0.096218 0.327041
0.161731 0.104583 0.329419
0.342219 0.119761 0.333786
0.483738 0.148494 0.340296
0.570752 0.194209 0.349052
0.644221 0.258600 0.360121
0.689846 0.326934 0.373547
0.726060 0.396900 0.385706
0.070859 0.158833 0.330190
0.089086 0.162421 0.330851
0.171643 0.175155 0.333224
0.349192 0.199320 0.337580
0.487269 0.237428 0.344075
0.572388 0.285804 0.352810
0.645366 0.338180 0.363855
0.690375 0.396720 0.377125
0.726475 0.440815 0.388295
0.082249 0.319502 0.337180
0.101472 0.322503 0.337838
0.189726 0.333212 0.340201
0.361886 0.352635 0.344538
0.493698 0.381073 0.351005
0.575372 0.410469 0.359704
0.647460 0.440416 0.370705
0.691343 0.474548 0.381955
0.727236 0.512245 0.393028
0.098902 0.467139 0.347580
0.117728 0.468748 0.348234
0.216362 0.474485 0.350581
0.380843 0.484871 0.354891
0.502438 0.500022 0.361318
0.579773 0.518687 0.369965
0.650561 0.535988 0.379720
0.692778 0.555907 0.389101
0.728367 0.578071 0.400035
0.122073 0.573215 0.361529
0.145205 0.574097 0.362178
0.251728 0.577245 0.364506
0.398789 0.582962 0.368781
0.510384 0.591338 0.375157
0.585605 0.602344 0.381732
0.654695 0.614850 0.389394
0.694696 0.624525 0.398613
0.729883 0.635290 0.409368
0.157854 0.643295 0.378446
0.188877 0.643701 0.378903
0.293783 0.645151 0.380540
0.418801 0.647791 0.383540
0.520111 0.651673 0.387996
0.592843 0.656794 0.393961
0.659796 0.663114 0.401459
0.697100 0.670564 0.410487
0.731789 0.679052 0.421027
0.214418 0.693392 0.393439
0.244366 0.693627 0.393883
0.335546 0.694466 0.395477
0.441964 0.695999 0.398397
0.531476 0.698260 0.402737
0.601429 0.701260 0.408551
0.663525 0.704986 0.415862
0.699985 0.709410 0.424674
0.734087 0.714491 0.434972
0.279282 0.728316 0.410734
0.303737 0.728500 0.411165
0.383062 0.729160 0.412711
0.467906 0.730367 0.415546
0.544308 0.732153 0.419761
0.611284 0.734533 0.425411
0.667827 0.737507 0.432521
0.703338 0.741061 0.441098
0.736771 0.745174 0.451131
0.057575 0.087265 0.486295
0.082372 0.089669 0.486572
0.158960 0.096832 0.487565
0.340268 0.112056 0.489385
0.482750 0.138489 0.492091
0.570295 0.182361 0.495716
0.643902 0.246791 0.500279
0.689699 0.317203 0.505777
0.725944 0.388980 0.512198
0.062600 0.102150 0.486739
0.083803 0.104573 0.487015
0.161731 0.112522 0.488007
0.342219 0.129466 0.489825
0.483738 0.159291 0.492527
0.570752 0.208265 0.496149
0.644221 0.271566 0.500706
0.689846 0.337585 0.506198
0.726060 0.403603 0.512612
0.070859 0.171620 0.488328
0.089086 0.175141 0.488603
0.171643 0.187652 0.489591
0.349192 0.213345 0.491401
0.487269 0.250549 0.494092
0.572388 0.298590 0.497699
0.645366 0.348720 0.502238
0.690375 0.403427 0.507706
0.726475 0.446888 0.514096
0.082249 0.330230 0.491235
0.101472 0.333200 0.491508
0.189726 0.343800 0.492488
0.361886 0.363037 0.494284
0.493698 0.391226 0.496955
0.575372 0.416964 0.500535
0.647460 0.446494 0.505040
0.691343 0.480213 0.510466
0.727236 0.517023 0.516811
0.098902 0.472889 0.495541
0.117728 0.474479 0.495812
0.216362 0.480150 0.496780
0.380843 0.490422 0.498556
0.502438 0.505413 0.501198
0.579773 0.522423 0.504738
0.650561 0.539522 0.509188
0.692778 0.559228 0.514557
0.728367 0.581179 0.520837
0.122073 0.576368 0.501285
0.145205 0.577242 0.501551
0.251728 0.580360 0.502505
0.398789 0.586025 0.504255
0.510384 0.594328 0.506854
0.585605 0.605242 0.510338
0.654695 0.616627 0.514725
0.694696 0.626132 0.520020
0.729883 0.636806 0.526215
0.157854 0.644747 0.508461
0.188877 0.645150 0.508721
0.293783 0.646589 0.509657
0.418801 0.649209 0.511372
0.520111 0.653062 0.513924
0.592843 0.658146 0.517346
0.659796 0.664422 0.521657
0.697100 0.671823 0.526860
0.731789 0.680258 0.532952
0.214418 0.694232 0.517046
0.244366 0.694466 0.517301
0.335546 0.695300 0.518217
0.441964 0.696824 0.519895
0.531476 0.699072 0.522393
0.601429 0.702055 0.525743
0.663525 0.705761 0.529965
0.699985 0.710161 0.535063
0.734087 0.715217 0.541034
0.279282 0.728976 0.527003
0.303737 0.729159 0.527252
0.383062 0.729816 0.528144
0.467906 0.731017 0.529782
0.544308 0.732796 0.532219
0.611284 0.735166 0.535489
0.667827 0.738127 0.539611
0.703338 0.741667 0.544592
0.736771 0.745764 0.550429
0.057575 0.097277 0.593533
0.082372 0.099654 0.593666
0.158960 0.108263 0.594144
0.340268 0.124184 0.595020
0.482750 0.153304 0.596326
0.570295 0.200500 0.598078
0.643902 0.264404 0.600287
0.689699 0.331706 0.602959
0.725944 0.399908 0.606091
0.062600 0.113051 0.593746
0.083803 0.115162 0.593879
0.161731 0.124791 0.594357
0.342219 0.144070 0.595232
0.483738 0.176502 0.596537
0.570752 0.227126 0.598287
0.644221 0.288947 0.600495
0.689846 0.351810 0.603164
0.726060 0.412496 0.606293
0.070859 0.188537 0.594511
0.089086 0.192391 0.594644
0.171643 0.206474 0.595120
0.349192 0.232095 0.595993
0.487269 0.268126 0.597293
0.572388 0.312822 0.599038
0.645366 0.362803 0.601238
0.690375 0.412324 0.603899
0.726475 0.454971 0.607018
0.082249 0.344553 0.595913
0.101472 0.347483 0.596044
0.189726 0.357945 0.596517
0.361886 0.376945 0.597385
0.493698 0.401394 0.598677
0.575372 0.425590 0.600412
0.647460 0.454583 0.602599
0.691343 0.487767 0.605245
0.727236 0.522088 0.608347
0.098902 0.480553 0.597993
0.117728 0.482119 0.598124
0.216362 0.487706 0.598593
0.380843 0.497828 0.599453
0.502438 0.512612 0.600733
0.579773 0.527399 0.602453
0.650561 0.544234 0.604621
0.692778 0.563663 0.607244
0.728367 0.585334 0.610320
0.122073 0.580582 0.600775
0.145205 0.581445 0.600904
0.251728 0.584525 0.601368
0.398789 0.590122 0.602217
0.510384 0.598328 0.603483
0.585605 0.609121 0.605182
0.654695 0.618892 0.607326
0.694696 0.628282 0.609919
0.729883 0.638835 0.612961
0.157854 0.646692 0.604266
0.188877 0.647090 0.604394
0.293783 0.648515 0.604850
0.418801 0.651108 0.605687
0.520111 0.654922 0.606934
0.592843 0.659958 0.608609
0.659796 0.666176 0.610722
0.697100 0.673511 0.613278
0.731789 0.681876 0.616277
0.214418 0.695360 0.608462
0.244366 0.695591 0.608587
0.335546 0.696420 0.609035
0.441964 0.697931 0.609858
0.531476 0.700162 0.611083
0.601429 0.703122 0.612729
0.663525 0.706801 0.614806
0.699985 0.711170 0.617318
0.734087 0.716191 0.620268
0.279282 0.729863 0.613348
0.303737 0.730045 0.613471
0.383062 0.730698 0.613910
0.467906 0.731892 0.614716
0.544308 0.733661 0.615916
0.611284 0.736017 0.617529
0.667827 0.738962 0.619564
0.703338 0.742482 0.622028
0.736771 0.746557 0.624921
0.057575 0.111666 0.662683
0.082372 0.113731 0.662757
0.158960 0.122977 0.663022
0.340268 0.142010 0.663508
0.482750 0.174160 0.664232
0.570295 0.224540 0.665206
0.643902 0.286565 0.666438
0.689699 0.349865 0.667930
0.725944 0.411284 0.669685
0.062600 0.128979 0.662802
0.083803 0.131574 0.662875
0.161731 0.142705 0.663140
0.342219 0.163337 0.663625
0.483738 0.199091 0.664349
0.570752 0.249917 0.665323
0.644221 0.308871 0.666553
0.689846 0.369643 0.668045
0.726060 0.423549 0.669799
0.070859 0.212620 0.663225
0.089086 0.216515 0.663299
0.171643 0.230455 0.663563
0.349192 0.254656 0.664047
0.487269 0.290245 0.664770
0.572388 0.331106 0.665741
0.645366 0.380467 0.666968
0.690375 0.423380 0.668456
0.726475 0.465057 0.670206
0.082249 0.362500 0.664003
0.101472 0.365384 0.664076
0.189726 0.375683 0.664339
0.361886 0.394402 0.664821
0.493698 0.412731 0.665540
0.575372 0.436325 0.666507
0.647460 0.464677 0.667729
0.691343 0.497216 0.669210
0.727236 0.528410 0.670953
0.098902 0.490135 0.665159
0.117728 0.491672 0.665232
0.216362 0.497156 0.665493
0.380843 0.507098 0.665972
0.502438 0.519987 0.666686
0.579773 0.533614 0.667647
0.650561 0.550129 0.668861
0.692778 0.569219 0.670333
0.728367 0.590546 0.672064
0.122073 0.585867 0.666710
0.145205 0.586716 0.666782
0.251728 0.589750 0.667040
0.398789 0.595263 0.667515
0.510384 0.603351 0.668223
0.585605 0.613631 0.669175
0.654695 0.621733 0.670379
0.694696 0.630981 0.671838
0.729883 0.641384 0.673555
0.157854 0.649136 0.668662
0.188877 0.649529 0.668733
0.293783 0.650936 0.668989
0.418801 0.653496 0.669459
0.520111 0.657263 0.670159
0.592843 0.662238 0.671100
0.659796 0.668384 0.672291
0.697100 0.675638 0.673734
0.731789 0.683914 0.675433
0.214418 0.696781 0.671018
0.244366 0.697010 0.671088
0.335546 0.697830 0.671340
0.441964 0.699327 0.671804
0.531476 0.701536 0.672495
0.601429 0.704468 0.673424
0.663525 0.708112 0.674599
0.699985 0.712443 0.676023
0.734087 0.717420 0.677700
0.279282 0.730984 0.673774
0.303737 0.731165 0.673843
0.383062 0.731813 0.674092
0.467906 0.732998 0.674548
0.544308 0.734753 0.675228
0.611284 0.737092 0.676143
0.667827 0.740016 0.677300
0.703338 0.743512 0.678703
0.736771 0.747560 0.680354
0.057575 0.130801 0.710840
0.082372 0.133608 0.710894
0.158960 0.144861 0.711085
0.340268 0.165834 0.711435
0.482750 0.201835 0.711958
0.570295 0.252467 0.712662
0.643902 0.310864 0.713553
0.689699 0.371650 0.714635
0.725944 0.424787 0.715912
0.062600 0.151652 0.710926
0.083803 0.154629 0.710979
0.161731 0.166633 0.711170
0.342219 0.189845 0.711520
0.483738 0.228447 0.712042
0.570752 0.277165 0.712746
0.644221 0.331038 0.713637
0.689846 0.391065 0.714718
0.726060 0.436689 0.715994
0.070859 0.241275 0.711231
0.089086 0.244934 0.711284
0.171643 0.258013 0.711475
0.349192 0.281835 0.711824
0.487269 0.313788 0.712346
0.572388 0.353262 0.713048
0.645366 0.399309 0.713937
0.690375 0.436525 0.715017
0.726475 0.477103 0.716291
0.082249 0.384051 0.711792
0.101472 0.386882 0.711845
0.189726 0.396153 0.712035
0.361886 0.408441 0.712383
0.493698 0.426190 0.712903
0.575372 0.449107 0.713603
0.647460 0.476732 0.714489
0.691343 0.508533 0.715566
0.727236 0.535962 0.716835
0.098902 0.501604 0.712627
0.117728 0.503108 0.712680
0.216362 0.508474 0.712869
0.380843 0.517523 0.713216
0.502438 0.527746 0.713733
0.579773 0.541043 0.714430
0.650561 0.557187 0.715312
0.692778 0.575883 0.716383
0.728367 0.596810 0.717647
0.122073 0.592215 0.713750
0.145205 0.593049 0.713802
0.251728 0.596028 0.713990
0.398789 0.601443 0.714334
0.510384 0.609392 0.714848
0.585605 0.617357 0.715541
0.654695 0.625144 0.716417
0.694696 0.634224 0.717482
0.729883 0.644451 0.718737
0.157854 0.652080 0.715167
0.188877 0.652467 0.715219
0.293783 0.653852 0.715405
0.418801 0.656374 0.715747
0.520111 0.660085 0.716257
0.592843 0.664987 0.716943
0.659796 0.671048 0.717813
0.697100 0.678205 0.718869
0.731789 0.686377 0.720115
0.214418 0.698498 0.716883
0.244366 0.698725 0.716934
0.335546 0.699535 0.717118
0.441964 0.701013 0.717457
0.531476 0.703197 0.717962
0.601429 0.706095 0.718642
0.663525 0.709699 0.719503
0.699985 0.713983 0.720549
0.734087 0.718909 0.721783
0.279282 0.732341 0.718898
0.303737 0.732521 0.718949
0.383062 0.733163 0.719131
0.467906 0.734337 0.719465
0.544308 0.736077 0.719964
0.611284 0.738396 0.720637
0.667827 0.741294 0.721488
0.703338 0.744761 0.722522
0.736771 0.748776 0.723742
0.057575 0.157899 0.752736
0.082372 0.161342 0.752778
0.158960 0.174096 0.752928
0.340268 0.198139 0.753205
0.482750 0.236321 0.753618
0.570295 0.284727 0.754175
0.643902 0.337291 0.754881
0.689699 0.396152 0.755740
0.725944 0.440302 0.756754
0.062600 0.181939 0.752803
0.083803 0.185411 0.752845
0.161731 0.199019 0.752996
0.342219 0.224792 0.753272
0.483738 0.261243 0.753685
0.570752 0.307405 0.754242
0.644221 0.357293 0.754948
0.689846 0.408851 0.755806
0.726060 0.451813 0.756820
0.070859 0.273732 0.753044
0.089086 0.277326 0.753086
0.171643 0.290180 0.753237
0.349192 0.311113 0.753513
0.487269 0.340331 0.753925
0.572388 0.379004 0.754481
0.645366 0.415734 0.755186
0.690375 0.451654 0.756043
0.726475 0.491035 0.757056
0.082249 0.404284 0.753488
0.101472 0.406130 0.753529
0.189726 0.412698 0.753679
0.361886 0.424527 0.753955
0.493698 0.441658 0.754366
0.575372 0.463844 0.754921
0.647460 0.490675 0.755624
0.691343 0.520010 0.756479
0.727236 0.544697 0.757489
0.098902 0.514903 0.754148
0.117728 0.516198 0.754190
0.216362 0.519968 0.754339
0.380843 0.526785 0.754614
0.502438 0.536710 0.755024
0.579773 0.549641 0.755577
0.650561 0.565372 0.756277
0.692778 0.583627 0.757129
0.728367 0.604102 0.758136
0.122073 0.599603 0.755038
0.145205 0.600419 0.755079
0.251728 0.603336 0.755228
0.398789 0.608641 0.755501
0.510384 0.615221 0.755909
0.585605 0.621498 0.756459
0.654695 0.629111 0.757156
0.694696 0.638001 0.758004
0.729883 0.648028 0.759006
0.157854 0.655516 0.756162
0.188877 0.655896 0.756203
0.293783 0.657256 0.756351
0.418801 0.659734 0.756623
0.520111 0.663381 0.757028
0.592843 0.668201 0.757575
0.659796 0.674164 0.758268
0.697100 0.681210 0.759111
0.731789 0.689261 0.760107
0.214418 0.700510 0.757527
0.244366 0.700733 0.757568
0.335546 0.701532 0.757715
0.441964 0.702990 0.757984
0.531476 0.705144 0.758387
0.601429 0.708004 0.758929
0.663525 0.711560 0.759617
0.699985 0.715790 0.760393
0.734087 0.720656 0.761079
0.279282 0.733937 0.759134
0.303737 0.734114 0.759175
0.383062 0.734750 0.759320
0.467906 0.735912 0.759587
0.544308 0.737633 0.759986
0.611284 0.739928 0.760441
0.667827 0.742798 0.760915
0.703338 0.746230 0.761492
0.736771 0.750207 0.762172
