negative-superia-reala/SuperiaReala_Classic_Soft.cube
TITLE "Fuji Superia Reala Classic Soft"
# Adobe RGB in/out. REPLACES AgX. Fuji Superia Reala Classic Soft.
LUT_3D_SIZE 5
DOMAIN_MIN 0.0 0.0 0.0
DOMAIN_MAX 1.0 1.0 1.0
0.062059 0.068823 0.088435
0.094408 0.071456 0.088578
0.497574 0.086383 0.090350
0.742487 0.131238 0.096930
0.859006 0.307870 0.106862
0.063816 0.097944 0.088778
0.099419 0.104457 0.089236
0.504880 0.132852 0.091981
0.744131 0.246595 0.098443
0.859476 0.417518 0.108496
0.071106 0.461401 0.093142
0.119535 0.472067 0.094049
0.528552 0.510502 0.097636
0.749962 0.564226 0.104309
0.861151 0.629829 0.115664
0.094024 0.715490 0.103653
0.179249 0.718335 0.104723
0.567011 0.728350 0.108349
0.760398 0.747153 0.116517
0.864184 0.772723 0.129952
0.164762 0.838312 0.122555
0.312030 0.839352 0.123986
0.606737 0.843042 0.129025
0.775355 0.849643 0.139862
0.868767 0.858228 0.159175
0.062059 0.069649 0.125850
0.094408 0.072542 0.127225
0.497574 0.088104 0.132309
0.742487 0.134872 0.144007
0.859006 0.314983 0.164103
0.063816 0.100249 0.128074
0.099419 0.106811 0.129512
0.504880 0.138794 0.134985
0.744131 0.254321 0.146809
0.859476 0.422754 0.167518
0.071106 0.465283 0.137124
0.119535 0.475915 0.138939
0.528552 0.514524 0.145325
0.749962 0.566858 0.158756
0.861151 0.632060 0.183694
0.094024 0.716526 0.157459
0.179249 0.719361 0.159590
0.567011 0.729396 0.167158
0.760398 0.748158 0.185678
0.864184 0.773301 0.212798
0.164762 0.838690 0.198432
0.312030 0.839729 0.201171
0.606737 0.843411 0.211000
0.775355 0.849999 0.232152
0.868767 0.858455 0.268431
0.062059 0.073457 0.501323
0.094408 0.077344 0.503494
0.497574 0.094485 0.511261
0.742487 0.155544 0.523971
0.859006 0.336201 0.542009
0.063816 0.108740 0.504800
0.099419 0.117723 0.506965
0.504880 0.158679 0.514693
0.744131 0.281017 0.526921
0.859476 0.441545 0.544898
0.071106 0.479127 0.516862
0.119535 0.489646 0.518718
0.528552 0.527310 0.525354
0.749962 0.576231 0.537434
0.861151 0.640014 0.554839
0.094024 0.720218 0.536330
0.179249 0.723021 0.538145
0.567011 0.733175 0.544637
0.760398 0.751746 0.555977
0.864184 0.775361 0.571698
0.164762 0.840043 0.563415
0.312030 0.841073 0.565006
0.606737 0.844729 0.570677
0.775355 0.851271 0.580997
0.868767 0.859265 0.595378
0.062059 0.083691 0.750261
0.094408 0.088603 0.750763
0.497574 0.109713 0.752558
0.742487 0.190505 0.755831
0.859006 0.377075 0.760658
0.063816 0.129040 0.751065
0.099419 0.140733 0.751565
0.504880 0.194860 0.753355
0.744131 0.325080 0.756619
0.859476 0.467860 0.761432
0.071106 0.504648 0.753934
0.119535 0.515744 0.754429
0.528552 0.545482 0.756201
0.749962 0.592956 0.759432
0.861151 0.651364 0.764198
0.094024 0.726901 0.759136
0.179249 0.729717 0.759623
0.567011 0.740027 0.761362
0.760398 0.758256 0.764535
0.864184 0.779097 0.769217
0.164762 0.842505 0.766744
0.312030 0.843522 0.767218
0.606737 0.847130 0.768912
0.775355 0.853590 0.772002
0.868767 0.860742 0.776564
0.062059 0.103267 0.869081
0.094408 0.109689 0.869280
0.497574 0.146888 0.869995
0.742487 0.264163 0.871301
0.859006 0.429341 0.873239
0.063816 0.178340 0.869400
0.099419 0.194782 0.869599
0.504880 0.269049 0.870312
0.744131 0.385007 0.871617
0.859476 0.506065 0.873551
0.071106 0.537938 0.870543
0.119535 0.545452 0.870741
0.528552 0.571771 0.871449
0.749962 0.615931 0.872746
0.861151 0.664366 0.874668
0.094024 0.737175 0.872627
0.179249 0.740016 0.872822
0.567011 0.750037 0.873523
0.760398 0.767784 0.874805
0.864184 0.784556 0.876707
0.164762 0.846129 0.875701
0.312030 0.847126 0.875893
0.606737 0.850665 0.876582
0.775355 0.856823 0.877843
0.868767 0.862917 0.879713
