negative-superia-reala/SuperiaReala_Classic_ExtraPunchy.cube
TITLE "Fuji Superia Reala Classic ExtraPunchy"
# Adobe RGB in/out. REPLACES AgX. Fuji Superia Reala Classic ExtraPunchy.
LUT_3D_SIZE 5
DOMAIN_MIN 0.0 0.0 0.0
DOMAIN_MAX 1.0 1.0 1.0
0.069662 0.073299 0.081842
0.152103 0.079279 0.078742
0.596234 0.100134 0.081439
0.769798 0.115020 0.090821
0.813570 0.107082 0.548008
0.068803 0.165262 0.079091
0.109228 0.137581 0.080251
0.538834 0.156502 0.083442
0.755577 0.182481 0.092025
0.813571 0.107085 0.548006
0.073556 0.520233 0.083051
0.096320 0.486728 0.085690
0.390098 0.438605 0.091368
0.710820 0.445358 0.103804
0.814561 0.356992 0.238953
0.081204 0.741023 0.092607
0.103840 0.729792 0.097061
0.320854 0.703650 0.110655
0.657471 0.688962 0.128017
0.811007 0.682386 0.158855
0.082391 0.825569 0.096855
0.127405 0.833527 0.096880
0.261803 0.834504 0.123479
0.596631 0.827539 0.148993
0.816441 0.832478 0.169835
0.067533 0.080184 0.124919
0.123284 0.088760 0.321840
0.600306 0.112540 0.258218
0.768824 0.127891 0.334557
0.813571 0.107085 0.548030
0.073190 0.168221 0.129122
0.163163 0.176070 0.156384
0.561404 0.188013 0.166803
0.758596 0.205326 0.214163
0.813571 0.107085 0.548006
0.084029 0.518914 0.146480
0.130165 0.496894 0.152543
0.461766 0.466040 0.166150
0.724066 0.473383 0.190817
0.814373 0.371629 0.440027
0.094293 0.738660 0.164256
0.131682 0.729821 0.171501
0.371390 0.708953 0.193648
0.678662 0.697368 0.220366
0.811905 0.685122 0.258367
0.082395 0.830977 0.167206
0.127405 0.838703 0.167202
0.285895 0.834531 0.188860
0.612023 0.828247 0.238444
0.817333 0.832444 0.265138
0.068786 0.107616 0.451971
0.137330 0.120487 0.599217
0.579785 0.150770 0.600786
0.763283 0.169556 0.614755
0.813571 0.107085 0.645107
0.075798 0.215735 0.468368
0.150385 0.214988 0.547154
0.554438 0.236625 0.574389
0.755727 0.254549 0.600844
0.813571 0.107087 0.636527
0.098478 0.529848 0.461987
0.164719 0.517705 0.471562
0.509785 0.513818 0.514004
0.732846 0.511350 0.543032
0.813739 0.417044 0.632935
0.124980 0.738595 0.487526
0.178661 0.732563 0.488913
0.440121 0.718470 0.499027
0.702037 0.711596 0.515443
0.812592 0.694879 0.591897
0.103648 0.838581 0.583595
0.118781 0.840763 0.583593
0.340105 0.834264 0.529293
0.643178 0.830026 0.532416
0.818173 0.833661 0.545048
0.070659 0.177173 0.703474
0.120847 0.191296 0.729866
0.567889 0.222137 0.731592
0.758693 0.238994 0.734669
0.813570 0.107080 0.728401
0.077180 0.292783 0.711212
0.139766 0.295332 0.728259
0.551109 0.313174 0.731767
0.753120 0.324687 0.735325
0.813563 0.107044 0.726032
0.109637 0.564795 0.697888
0.181702 0.559397 0.711307
0.517329 0.552530 0.726351
0.736053 0.552972 0.733976
0.813267 0.469682 0.740990
0.142414 0.747122 0.688749
0.203669 0.743345 0.692009
0.472873 0.733317 0.705366
0.710597 0.728769 0.719820
0.812922 0.710509 0.745398
0.105960 0.838943 0.677698
0.124329 0.841481 0.677996
0.346929 0.837271 0.697970
0.650937 0.833968 0.700178
0.818437 0.838121 0.741361
0.087609 0.252558 0.826396
0.174798 0.266669 0.826516
0.646551 0.307179 0.827117
0.776472 0.317845 0.828485
0.813571 0.144062 0.819631
0.106557 0.347074 0.826257
0.204441 0.358793 0.826405
0.639965 0.394160 0.827078
0.775204 0.400524 0.828468
0.813571 0.156595 0.826140
0.167495 0.603525 0.826208
0.276261 0.603280 0.826526
0.615514 0.609289 0.827352
0.769828 0.607639 0.828794
0.816838 0.459890 0.832620
0.165161 0.762739 0.827682
0.251471 0.760226 0.828147
0.562942 0.757343 0.829120
0.752786 0.757494 0.830572
0.817369 0.717919 0.833545
0.096074 0.837355 0.772340
0.127406 0.841934 0.785064
0.274128 0.844469 0.814808
0.630895 0.841203 0.834026
0.818737 0.844728 0.835009
