negative-superia-reala/SuperiaReala_Classic_Soft.cube
TITLE "Fuji Superia Reala Classic Soft"
# Adobe RGB in/out. REPLACES AgX. Fuji Superia Reala Classic Soft.
LUT_3D_SIZE 9
DOMAIN_MIN 0.0 0.0 0.0
DOMAIN_MAX 1.0 1.0 1.0
0.062059 0.068823 0.088435
0.066388 0.069178 0.088435
0.094408 0.071456 0.088578
0.242843 0.076454 0.089167
0.497574 0.086383 0.090350
0.643588 0.102252 0.093277
0.742487 0.131238 0.096930
0.810982 0.199373 0.101109
0.859006 0.307870 0.106862
0.062376 0.072923 0.088433
0.066749 0.073581 0.088440
0.095408 0.076637 0.088682
0.246174 0.082944 0.089309
0.499168 0.093556 0.090627
0.644241 0.112802 0.093600
0.742846 0.153058 0.097263
0.811210 0.229343 0.101503
0.859109 0.332491 0.107205
0.063816 0.097944 0.088778
0.068253 0.099335 0.088875
0.099419 0.104457 0.089236
0.258295 0.115578 0.089972
0.504880 0.132852 0.091981
0.646577 0.176182 0.094709
0.744131 0.246595 0.098443
0.812028 0.332168 0.102955
0.859476 0.417518 0.108496
0.066355 0.218288 0.089889
0.071970 0.222719 0.090034
0.106757 0.238895 0.090598
0.281236 0.269692 0.092142
0.515338 0.311273 0.094170
0.650841 0.362502 0.097131
0.746482 0.416781 0.100457
0.813526 0.472159 0.105422
0.860150 0.528203 0.111404
0.071106 0.461401 0.093142
0.078348 0.463732 0.093349
0.119535 0.472067 0.094049
0.308099 0.487262 0.095490
0.528552 0.510502 0.097636
0.657257 0.536787 0.100253
0.749962 0.564226 0.104309
0.815750 0.595917 0.108887
0.861151 0.629829 0.115664
0.079892 0.622359 0.097700
0.088450 0.623713 0.097903
0.142260 0.628557 0.098647
0.350242 0.637377 0.099919
0.545673 0.648838 0.102143
0.666219 0.659507 0.105313
0.754601 0.672356 0.109055
0.818723 0.686875 0.114821
0.862492 0.703254 0.121555
0.094024 0.715490 0.103653
0.106402 0.716112 0.103890
0.179249 0.718335 0.104723
0.393127 0.722386 0.106185
0.567011 0.728350 0.108349
0.677385 0.736741 0.111991
0.760398 0.747153 0.116517
0.822453 0.759478 0.122375
0.864184 0.772723 0.129952
0.118492 0.787791 0.111663
0.136414 0.788132 0.111942
0.234890 0.789351 0.112929
0.428568 0.791577 0.114693
0.588710 0.794864 0.117272
0.690693 0.799227 0.120952
0.767329 0.804653 0.126225
0.826934 0.811104 0.132585
0.866299 0.818524 0.142160
0.164762 0.838312 0.122555
0.184339 0.838539 0.122869
0.312030 0.839352 0.123986
0.473590 0.840840 0.126002
0.606737 0.843042 0.129025
0.704951 0.845977 0.133110
0.775355 0.849643 0.139862
0.832150 0.854027 0.147832
0.868767 0.858228 0.159175
0.062059 0.068834 0.093616
0.066388 0.069374 0.093810
0.094408 0.071651 0.094472
0.242843 0.076748 0.096031
0.497574 0.086766 0.098115
0.643588 0.102781 0.100703
0.742487 0.131809 0.104843
0.810982 0.200927 0.109548
0.859006 0.309420 0.116278
0.062376 0.073148 0.093925
0.066749 0.073888 0.094113
0.095408 0.076926 0.094837
0.246174 0.083374 0.096389
0.499168 0.093970 0.098447
0.644241 0.113578 0.101105
0.742846 0.154158 0.105204
0.811210 0.230976 0.110015
0.859109 0.334097 0.116696
0.063816 0.098451 0.095126
0.068253 0.099834 0.095368
0.099419 0.104974 0.096200
0.258295 0.116348 0.097596
0.504880 0.133840 0.099577
0.646577 0.177303 0.102554
0.744131 0.248270 0.106459
0.812028 0.333659 0.111655
0.859476 0.418659 0.118169
0.066355 0.219892 0.097474
0.071970 0.224335 0.097674
0.106757 0.240552 0.098417
0.281236 0.271239 0.099710
0.515338 0.312827 0.101854
0.650841 0.363674 0.105060
0.746482 0.417922 0.108783
0.813526 0.472998 0.114525
0.860150 0.528809 0.121194
0.071106 0.462248 0.100551
0.078348 0.464576 0.100792
0.119535 0.472906 0.101687
0.308099 0.488091 0.103337
0.528552 0.511379 0.105613
0.657257 0.537385 0.108534
0.749962 0.564800 0.113216
0.815750 0.596430 0.118619
0.861151 0.630316 0.126108
0.079892 0.622851 0.105684
0.088450 0.624204 0.105903
0.142260 0.629044 0.106671
0.350242 0.637858 0.108130
0.545673 0.649133 0.110734
0.666219 0.659791 0.114396
0.754601 0.672616 0.118782
0.818723 0.687123 0.125130
0.862492 0.703489 0.132665
0.094024 0.715716 0.112455
0.106402 0.716337 0.112729
0.179249 0.718559 0.113700
0.393127 0.722607 0.115435
0.567011 0.728567 0.118000
0.677385 0.736967 0.121863
0.760398 0.747372 0.127079
0.822453 0.759690 0.133537
0.864184 0.772849 0.143263
0.118492 0.787915 0.121489
0.136414 0.788256 0.121807
0.234890 0.789474 0.122938
0.428568 0.791699 0.124980
0.588710 0.794983 0.127967
0.690693 0.799344 0.132095
0.767329 0.804767 0.138538
0.826934 0.811215 0.146556
0.866299 0.818632 0.157612
0.164762 0.838395 0.133769
0.184339 0.838622 0.134173
0.312030 0.839434 0.135617
0.473590 0.840921 0.138246
0.606737 0.843122 0.142111
0.704951 0.846056 0.147217
0.775355 0.849721 0.154859
0.832150 0.854102 0.164463
0.868767 0.858277 0.178576
0.062059 0.069649 0.125850
0.066388 0.070316 0.126152
0.094408 0.072542 0.127225
0.242843 0.077931 0.129278
0.497574 0.088104 0.132309
0.643588 0.104657 0.137381
0.742487 0.134872 0.144007
0.810982 0.206544 0.152667
0.859006 0.314983 0.164103
0.062376 0.074157 0.126333
0.066749 0.074985 0.126632
0.095408 0.078129 0.127706
0.246174 0.084870 0.129776
0.499168 0.095427 0.132792
0.644241 0.116352 0.138016
0.742846 0.158120 0.144621
0.811210 0.236875 0.153420
0.859109 0.340113 0.164836
0.063816 0.100249 0.128074
0.068253 0.101668 0.128389
0.099419 0.106811 0.129512
0.258295 0.118907 0.131544
0.504880 0.138794 0.134985
0.646577 0.181338 0.140279
0.744131 0.254321 0.146809
0.812028 0.339673 0.156114
0.859476 0.422754 0.167518
0.066355 0.225690 0.131358
0.071970 0.230174 0.131663
0.106757 0.246536 0.132748
0.281236 0.276629 0.135269
0.515338 0.317678 0.139195
0.650841 0.367884 0.144375
0.746482 0.422018 0.151346
0.813526 0.476007 0.161028
0.860150 0.530982 0.174001
0.071106 0.465283 0.137124
0.078348 0.467606 0.137520
0.119535 0.475915 0.138939
0.308099 0.491065 0.141523
0.528552 0.514524 0.145325
0.657257 0.539529 0.150805
0.749962 0.566858 0.158756
0.815750 0.598268 0.168617
0.861151 0.632060 0.183694
0.079892 0.624615 0.145448
0.088450 0.625965 0.145829
0.142260 0.630792 0.147189
0.350242 0.639583 0.149938
0.545673 0.650189 0.154592
0.666219 0.660812 0.160801
0.754601 0.673548 0.169017
0.818723 0.688011 0.181719
0.862492 0.704331 0.196545
0.094024 0.716526 0.157459
0.106402 0.717145 0.157924
0.179249 0.719361 0.159590
0.393127 0.723399 0.162637
0.567011 0.729396 0.167158
0.677385 0.737776 0.175286
0.760398 0.748158 0.185678
0.822453 0.760450 0.198091
0.864184 0.773301 0.212798
0.118492 0.788359 0.174566
0.136414 0.788699 0.175178
0.234890 0.789915 0.177376
0.428568 0.792135 0.181419
0.588710 0.795413 0.187437
0.690693 0.799765 0.195418
0.767329 0.805178 0.205552
0.826934 0.811613 0.218877
0.866299 0.819017 0.236353
0.164762 0.838690 0.198432
0.184339 0.838917 0.199029
0.312030 0.839729 0.201171
0.473590 0.841213 0.205111
0.606737 0.843411 0.211000
0.704951 0.846339 0.220112
0.775355 0.849999 0.232152
0.832150 0.854374 0.248048
0.868767 0.858455 0.268431
0.062059 0.071157 0.257439
0.066388 0.071713 0.258264
0.094408 0.074292 0.261234
0.242843 0.079908 0.266718
0.497574 0.090402 0.274970
0.643588 0.108021 0.286212
0.742487 0.144056 0.300658
0.810982 0.217022 0.318019
0.859006 0.323104 0.335657
0.062376 0.076203 0.258762
0.066749 0.077012 0.259588
0.095408 0.080094 0.262561
0.246174 0.087441 0.268052
0.499168 0.098788 0.276314
0.644241 0.120982 0.287568
0.742846 0.165443 0.302029
0.811210 0.247866 0.319164
0.859109 0.351267 0.336806
0.063816 0.103702 0.263527
0.068253 0.105131 0.264357
0.099419 0.110137 0.267343
0.258295 0.123427 0.272856
0.504880 0.147803 0.281151
0.646577 0.189610 0.292449
0.744131 0.265588 0.306965
0.812028 0.350822 0.323280
0.859476 0.430287 0.340925
0.066355 0.236498 0.272348
0.071970 0.241056 0.273184
0.106757 0.257682 0.276192
0.281236 0.286617 0.281746
0.515338 0.325802 0.290101
0.650841 0.375630 0.301480
0.746482 0.429550 0.316015
0.813526 0.481525 0.330862
0.860150 0.534959 0.348435
0.071106 0.470848 0.285665
0.078348 0.473160 0.286510
0.119535 0.481434 0.289551
0.308099 0.496520 0.295165
0.528552 0.520298 0.303609
0.657257 0.543455 0.315105
0.749962 0.570628 0.327345
0.815750 0.601636 0.342198
0.861151 0.635258 0.359887
0.079892 0.627849 0.303887
0.088450 0.629192 0.304744
0.142260 0.633996 0.307828
0.350242 0.642746 0.313521
0.545673 0.652124 0.320951
0.666219 0.662682 0.330510
0.754601 0.675255 0.342661
0.818723 0.689638 0.357494
0.862492 0.705874 0.377197
0.094024 0.718010 0.325346
0.106402 0.718627 0.326062
0.179249 0.720833 0.328633
0.393127 0.724852 0.333368
0.567011 0.730915 0.340453
0.677385 0.739260 0.349924
0.760398 0.749600 0.362291
0.822453 0.761844 0.379344
0.864184 0.774129 0.398647
0.118492 0.789173 0.349090
0.136414 0.789512 0.349799
0.234890 0.790723 0.352348
0.428568 0.792934 0.357131
0.588710 0.796201 0.364605
0.690693 0.800537 0.375634
0.767329 0.805931 0.389746
0.826934 0.812345 0.404476
0.866299 0.819725 0.421129
0.164762 0.839233 0.379819
0.184339 0.839459 0.380649
0.312030 0.840269 0.383631
0.473590 0.841748 0.389130
0.606737 0.843940 0.396632
0.704951 0.846860 0.405657
0.775355 0.850510 0.417132
0.832150 0.854873 0.431249
0.868767 0.858780 0.448038
0.062059 0.073457 0.501323
0.066388 0.074289 0.501796
0.094408 0.077344 0.503494
0.242843 0.083907 0.506611
0.497574 0.094485 0.511261
0.643588 0.114552 0.517124
0.742487 0.155544 0.523971
0.810982 0.233036 0.532264
0.859006 0.336201 0.542009
0.062376 0.079297 0.502081
0.066749 0.080090 0.502554
0.095408 0.084165 0.504250
0.246174 0.090929 0.507366
0.499168 0.103885 0.512014
0.644241 0.127256 0.517772
0.742846 0.176480 0.524614
0.811210 0.264634 0.532901
0.859109 0.363571 0.542639
0.063816 0.108740 0.504800
0.068253 0.110129 0.505272
0.099419 0.117723 0.506965
0.258295 0.129335 0.510075
0.504880 0.158679 0.514693
0.646577 0.204894 0.520097
0.744131 0.281017 0.526921
0.812028 0.363263 0.535186
0.859476 0.441545 0.544898
0.066355 0.252995 0.509789
0.071970 0.257663 0.510259
0.106757 0.274052 0.511945
0.281236 0.301752 0.514980
0.515338 0.339878 0.518981
0.650841 0.387214 0.524357
0.746482 0.440810 0.531148
0.813526 0.489737 0.539374
0.860150 0.540865 0.549041
0.071106 0.479127 0.516862
0.078348 0.481425 0.517266
0.119535 0.489646 0.518718
0.308099 0.505099 0.521383
0.528552 0.527310 0.525354
0.657257 0.549285 0.530692
0.749962 0.576231 0.537434
0.815750 0.606641 0.545602
0.861151 0.640014 0.554839
0.079892 0.632657 0.525485
0.088450 0.633991 0.525885
0.142260 0.638760 0.527323
0.350242 0.647018 0.529961
0.545673 0.654995 0.533894
0.666219 0.665457 0.539180
0.754601 0.677791 0.545858
0.818723 0.692056 0.553704
0.862492 0.708168 0.562317
0.094024 0.720218 0.536330
0.106402 0.720830 0.536725
0.179249 0.723021 0.538145
0.393127 0.727013 0.540752
0.567011 0.733175 0.544637
0.677385 0.741468 0.549860
0.760398 0.751746 0.555977
0.822453 0.763920 0.563216
0.864184 0.775361 0.571698
0.118492 0.790385 0.549401
0.136414 0.790722 0.549791
0.234890 0.791926 0.551191
0.428568 0.794126 0.553531
0.588710 0.797374 0.557000
0.690693 0.801688 0.561661
0.767329 0.807053 0.567539
0.826934 0.813435 0.574642
0.866299 0.820779 0.582988
0.164762 0.840043 0.563415
0.184339 0.840268 0.563762
0.312030 0.841073 0.565006
0.473590 0.842547 0.567284
0.606737 0.844729 0.570677
0.704951 0.847637 0.575238
0.775355 0.851271 0.580997
0.832150 0.855617 0.587974
0.868767 0.859265 0.595378
0.062059 0.077589 0.653487
0.066388 0.078482 0.653715
0.094408 0.081797 0.654534
0.242843 0.089033 0.656039
0.497574 0.100991 0.658280
0.643588 0.123989 0.661294
0.742487 0.170362 0.665102
0.810982 0.255309 0.669715
0.859006 0.357158 0.674938
0.062376 0.084458 0.653853
0.066749 0.085571 0.654081
0.095408 0.089249 0.654900
0.246174 0.096748 0.656403
0.499168 0.110963 0.658643
0.644241 0.137444 0.661654
0.742846 0.193319 0.665459
0.811210 0.285432 0.670069
0.859109 0.379228 0.675241
0.063816 0.118211 0.655165
0.068253 0.120108 0.655393
0.099419 0.126518 0.656209
0.258295 0.142436 0.657708
0.504880 0.173535 0.659943
0.646577 0.226204 0.662947
0.744131 0.301407 0.666742
0.812028 0.378921 0.671341
0.859476 0.453467 0.676328
0.066355 0.275113 0.657571
0.071970 0.279259 0.657797
0.106757 0.294300 0.658610
0.281236 0.320889 0.660102
0.515338 0.359730 0.662326
0.650841 0.402661 0.665316
0.746482 0.452916 0.669094
0.813526 0.500924 0.673670
0.860150 0.548762 0.678320
0.071106 0.490231 0.661148
0.078348 0.492509 0.661373
0.119535 0.500827 0.662180
0.308099 0.516810 0.663662
0.528552 0.535371 0.665871
0.657257 0.557083 0.668840
0.749962 0.583731 0.672592
0.815750 0.613343 0.676666
0.861151 0.646353 0.681283
0.079892 0.639100 0.665943
0.088450 0.640421 0.666166
0.142260 0.645145 0.666966
0.350242 0.650956 0.668434
0.545673 0.658833 0.670622
0.666219 0.669120 0.673564
0.754601 0.681184 0.676789
0.818723 0.695293 0.680680
0.862492 0.711242 0.685252
0.094024 0.723177 0.671977
0.106402 0.723784 0.672198
0.179249 0.725954 0.672988
0.393127 0.729997 0.674333
0.567011 0.736207 0.676202
0.677385 0.744431 0.678714
0.760398 0.754626 0.681887
0.822453 0.766706 0.685730
0.864184 0.777014 0.690246
0.118492 0.792012 0.678493
0.136414 0.792346 0.678681
0.234890 0.793542 0.679354
0.428568 0.795725 0.680589
0.588710 0.798949 0.682429
0.690693 0.803232 0.684904
0.767329 0.808560 0.688029
0.826934 0.814899 0.691816
0.866299 0.822196 0.696267
0.164762 0.841131 0.685835
0.184339 0.841354 0.686019
0.312030 0.842155 0.686680
0.473590 0.843620 0.687894
0.606737 0.845790 0.689702
0.704951 0.848681 0.692133
0.775355 0.852295 0.695205
0.832150 0.856563 0.698928
0.868767 0.859917 0.703305
0.062059 0.083691 0.750261
0.066388 0.084833 0.750371
0.094408 0.088603 0.750763
0.242843 0.095792 0.751484
0.497574 0.109713 0.752558
0.643588 0.134910 0.754004
0.742487 0.190505 0.755831
0.810982 0.282649 0.758048
0.859006 0.377075 0.760658
0.062376 0.090723 0.750436
0.066749 0.091903 0.750546
0.095408 0.096115 0.750938
0.246174 0.105493 0.751658
0.499168 0.123317 0.752732
0.644241 0.158151 0.754176
0.742846 0.220018 0.756003
0.811210 0.311539 0.758219
0.859109 0.399024 0.760827
0.063816 0.129040 0.751065
0.068253 0.130625 0.751174
0.099419 0.140733 0.751565
0.258295 0.162121 0.752284
0.504880 0.194860 0.753355
0.646577 0.254368 0.754797
0.744131 0.325080 0.756619
0.812028 0.398725 0.758830
0.859476 0.467860 0.761432
0.066355 0.300963 0.752218
0.071970 0.305213 0.752326
0.106757 0.319391 0.752716
0.281236 0.345112 0.753432
0.515338 0.379645 0.754499
0.650841 0.422050 0.755934
0.746482 0.467315 0.757750
0.813526 0.515840 0.759952
0.860150 0.558672 0.762544
0.071106 0.504648 0.753934
0.078348 0.507070 0.754042
0.119535 0.515744 0.754429
0.308099 0.529195 0.755140
0.528552 0.545482 0.756201
0.657257 0.566874 0.757628
0.749962 0.592956 0.759432
0.815750 0.621768 0.761621
0.861151 0.651364 0.764198
0.079892 0.646866 0.756236
0.088450 0.647683 0.756343
0.142260 0.650599 0.756727
0.350242 0.655892 0.757432
0.545673 0.663646 0.758484
0.666219 0.673555 0.759900
0.754601 0.685444 0.761690
0.818723 0.699362 0.763861
0.862492 0.715108 0.766418
0.094024 0.726901 0.759136
0.106402 0.727501 0.759242
0.179249 0.729717 0.759623
0.393127 0.733884 0.760321
0.567011 0.740027 0.761362
0.677385 0.748164 0.762763
0.760398 0.758256 0.764535
0.822453 0.770220 0.766685
0.864184 0.779097 0.769217
0.118492 0.794064 0.762640
0.136414 0.794395 0.762745
0.234890 0.795579 0.763120
0.428568 0.797742 0.763810
0.588710 0.800937 0.764839
0.690693 0.805181 0.766223
0.767329 0.810463 0.767974
0.826934 0.816748 0.770098
0.866299 0.823985 0.772600
0.164762 0.842505 0.766744
0.184339 0.842727 0.766848
0.312030 0.843522 0.767218
0.473590 0.844976 0.767898
0.606737 0.847130 0.768912
0.704951 0.850001 0.770276
0.775355 0.853590 0.772002
0.832150 0.857412 0.774097
0.868767 0.860742 0.776564
0.062059 0.091547 0.820534
0.066388 0.092726 0.820616
0.094408 0.097114 0.820908
0.242843 0.106479 0.821446
0.497574 0.124599 0.822248
0.643588 0.160284 0.823329
0.742487 0.223126 0.824697
0.810982 0.314540 0.826360
0.859006 0.401228 0.828322
0.062376 0.100232 0.820665
0.066749 0.101649 0.820746
0.095408 0.106793 0.821039
0.246174 0.118883 0.821576
0.499168 0.138745 0.822378
0.644241 0.181299 0.823458
0.742846 0.254261 0.824826
0.811210 0.339614 0.826488
0.859109 0.422714 0.828449
0.063816 0.150973 0.821134
0.068253 0.154002 0.821215
0.099419 0.164948 0.821507
0.258295 0.185341 0.822043
0.504880 0.227729 0.822844
0.646577 0.287520 0.823922
0.744131 0.356125 0.825288
0.812028 0.422415 0.826947
0.859476 0.485223 0.828905
0.066355 0.329360 0.821994
0.071970 0.332782 0.822075
0.106757 0.349417 0.822366
0.281236 0.372048 0.822901
0.515338 0.403733 0.823699
0.650841 0.445161 0.824774
0.746482 0.484686 0.826136
0.813526 0.530802 0.827790
0.860150 0.570587 0.829743
0.071106 0.522818 0.823276
0.078348 0.524730 0.823357
0.119535 0.530736 0.823647
0.308099 0.541642 0.824179
0.528552 0.557628 0.824974
0.657257 0.578649 0.826044
0.749962 0.603563 0.827400
0.815750 0.631916 0.829047
0.861151 0.657376 0.830991
0.079892 0.652966 0.825000
0.088450 0.653767 0.825080
0.142260 0.656626 0.825368
0.350242 0.661819 0.825897
0.545673 0.669367 0.826687
0.666219 0.678885 0.827751
0.754601 0.690569 0.829099
0.818723 0.704261 0.830737
0.862492 0.719768 0.832670
0.094024 0.731577 0.827177
0.106402 0.732208 0.827257
0.179249 0.734463 0.827543
0.393127 0.738574 0.828068
0.567011 0.744638 0.828852
0.677385 0.752673 0.829908
0.760398 0.762643 0.831246
0.822453 0.773263 0.832872
0.864184 0.781612 0.834790
0.118492 0.796544 0.829816
0.136414 0.796872 0.829894
0.234890 0.798043 0.830178
0.428568 0.800181 0.830698
0.588710 0.803340 0.831475
0.690693 0.807538 0.832522
0.767329 0.812764 0.833848
0.826934 0.818985 0.835459
0.866299 0.826152 0.837022
0.164762 0.844171 0.832917
0.184339 0.844391 0.832995
0.312030 0.845179 0.833275
0.473590 0.846620 0.833790
0.606737 0.848755 0.834559
0.704951 0.851601 0.835595
0.775355 0.855159 0.836732
0.832150 0.858440 0.837749
0.868767 0.861742 0.839010
0.062059 0.103267 0.869081
0.066388 0.104702 0.869125
0.094408 0.109689 0.869280
0.242843 0.122863 0.869567
0.497574 0.146888 0.869995
0.643588 0.188346 0.870571
0.742487 0.264163 0.871301
0.810982 0.349416 0.872190
0.859006 0.429341 0.873239
0.062376 0.114294 0.869151
0.066749 0.116419 0.869194
0.095408 0.123283 0.869350
0.246174 0.135156 0.869636
0.499168 0.167679 0.870064
0.644241 0.217745 0.870640
0.742846 0.293352 0.871370
0.811210 0.372772 0.872258
0.859109 0.448988 0.873307
0.063816 0.178340 0.869400
0.068253 0.181437 0.869444
0.099419 0.194782 0.869599
0.258295 0.223517 0.869885
0.504880 0.269049 0.870312
0.646577 0.323337 0.870888
0.744131 0.385007 0.871617
0.812028 0.448764 0.872504
0.859476 0.506065 0.873551
0.066355 0.364758 0.869859
0.071970 0.367987 0.869902
0.106757 0.379586 0.870058
0.281236 0.400766 0.870343
0.515338 0.431840 0.870769
0.650841 0.466121 0.871343
0.746482 0.505497 0.872070
0.813526 0.545517 0.872955
0.860150 0.584470 0.874000
0.071106 0.537938 0.870543
0.078348 0.539581 0.870586
0.119535 0.545452 0.870741
0.308099 0.556120 0.871025
0.528552 0.571771 0.871449
0.657257 0.592225 0.872021
0.749962 0.615931 0.872746
0.815750 0.643766 0.873627
0.861151 0.664366 0.874668
0.079892 0.660055 0.871463
0.088450 0.660837 0.871506
0.142260 0.663632 0.871660
0.350242 0.668683 0.871943
0.545673 0.675772 0.872365
0.666219 0.685091 0.872934
0.754601 0.696543 0.873655
0.818723 0.709978 0.874532
0.862492 0.725213 0.875568
0.094024 0.737175 0.872627
0.106402 0.737796 0.872669
0.179249 0.740016 0.872822
0.393127 0.744064 0.873103
0.567011 0.750037 0.873523
0.677385 0.757955 0.874088
0.760398 0.767784 0.874805
0.822453 0.776334 0.875677
0.864184 0.784556 0.876707
0.118492 0.799453 0.874039
0.136414 0.799775 0.874081
0.234890 0.800931 0.874233
0.428568 0.803041 0.874512
0.588710 0.806160 0.874928
0.690693 0.810305 0.875489
0.767329 0.815466 0.876200
0.826934 0.821613 0.877066
0.866299 0.828697 0.878088
0.164762 0.846129 0.875701
0.184339 0.846346 0.875743
0.312030 0.847126 0.875893
0.473590 0.848552 0.876170
0.606737 0.850665 0.876582
0.704951 0.853482 0.877138
0.775355 0.856823 0.877843
0.832150 0.859649 0.878701
0.868767 0.862917 0.879713
