negative-superia-reala/SuperiaReala_Classic_Normal.cube
TITLE "Fuji Superia Reala Classic Normal"
# Adobe RGB in/out. REPLACES AgX. Fuji Superia Reala Classic Normal.
LUT_3D_SIZE 5
DOMAIN_MIN 0.0 0.0 0.0
DOMAIN_MAX 1.0 1.0 1.0
0.074318 0.073381 0.089635
0.215496 0.106520 0.093794
0.482591 0.170701 0.103888
0.686029 0.266985 0.125451
0.790663 0.374894 0.159529
0.092633 0.206345 0.095664
0.226049 0.220598 0.098343
0.487079 0.269947 0.109431
0.687426 0.345736 0.130093
0.791334 0.433533 0.164984
0.137219 0.460550 0.113102
0.261175 0.466685 0.116217
0.502854 0.487865 0.127596
0.692377 0.523847 0.150783
0.793727 0.572085 0.185207
0.214562 0.653906 0.148581
0.315877 0.656462 0.152182
0.529144 0.665456 0.164443
0.701230 0.681303 0.187545
0.798056 0.702432 0.217746
0.305440 0.760708 0.202272
0.382628 0.761785 0.205310
0.561389 0.765608 0.215886
0.713903 0.772453 0.234152
0.804364 0.782273 0.262794
0.074318 0.092906 0.209284
0.215496 0.113614 0.212226
0.482591 0.176639 0.222487
0.686029 0.271761 0.240422
0.790663 0.378220 0.269618
0.092633 0.211633 0.213981
0.226049 0.225538 0.216862
0.487079 0.274682 0.226923
0.687426 0.349320 0.244932
0.791334 0.436441 0.274251
0.137219 0.462789 0.230096
0.261175 0.468885 0.232787
0.502854 0.489935 0.242543
0.692377 0.525726 0.262211
0.793727 0.573751 0.290510
0.214562 0.654836 0.260409
0.315877 0.657384 0.263368
0.529144 0.666349 0.273833
0.701230 0.682148 0.292466
0.798056 0.702966 0.317491
0.305440 0.761100 0.304681
0.382628 0.762175 0.307156
0.561389 0.765990 0.315925
0.713903 0.772822 0.331596
0.804364 0.782624 0.354049
0.074318 0.119750 0.486801
0.215496 0.137435 0.488251
0.482591 0.197661 0.493425
0.686029 0.288392 0.502803
0.790663 0.389951 0.515113
0.092633 0.229587 0.489123
0.226049 0.243618 0.490567
0.487079 0.291178 0.495716
0.687426 0.361924 0.505050
0.791334 0.446743 0.516793
0.137219 0.470715 0.497374
0.261175 0.476672 0.498793
0.502854 0.497276 0.503857
0.692377 0.532401 0.512445
0.793727 0.579682 0.522755
0.214562 0.658153 0.511799
0.315877 0.660670 0.512860
0.529144 0.669535 0.516641
0.701230 0.685166 0.523479
0.798056 0.704870 0.533445
0.305440 0.762500 0.528199
0.382628 0.763568 0.529207
0.561389 0.767356 0.532800
0.713903 0.774143 0.539310
0.804364 0.783882 0.548817
0.074318 0.161600 0.687446
0.215496 0.178395 0.687898
0.482591 0.231651 0.689518
0.686029 0.317148 0.692472
0.790663 0.410719 0.696826
0.092633 0.262953 0.688171
0.226049 0.276106 0.688622
0.487079 0.319723 0.690238
0.687426 0.384104 0.693183
0.791334 0.464272 0.697525
0.137219 0.484837 0.690759
0.261175 0.490562 0.691206
0.502854 0.510407 0.692805
0.692377 0.544392 0.695720
0.793727 0.590383 0.700019
0.214562 0.664155 0.695453
0.315877 0.666620 0.695892
0.529144 0.675305 0.697461
0.701230 0.690639 0.700324
0.798056 0.708322 0.704547
0.305440 0.765052 0.702317
0.382628 0.766106 0.702744
0.561389 0.769846 0.704271
0.713903 0.776549 0.707059
0.804364 0.786175 0.711174
0.074318 0.218099 0.797162
0.215496 0.231599 0.797333
0.482591 0.280549 0.797949
0.686029 0.353783 0.799077
0.790663 0.440076 0.800748
0.092633 0.308039 0.797437
0.226049 0.319683 0.797609
0.487079 0.355957 0.798224
0.687426 0.415219 0.799349
0.791334 0.485572 0.801017
0.137219 0.504968 0.798423
0.261175 0.510386 0.798593
0.502854 0.529228 0.799204
0.692377 0.561681 0.800322
0.793727 0.605796 0.801980
0.214562 0.672904 0.800220
0.315877 0.675296 0.800388
0.529144 0.683729 0.800993
0.701230 0.698642 0.802098
0.798056 0.713367 0.803738
0.305440 0.768808 0.802871
0.382628 0.769842 0.803037
0.561389 0.773513 0.803631
0.713903 0.780096 0.804718
0.804364 0.789558 0.806331
