negative-superia-reala/SuperiaReala_Modern_Punchy.cube
TITLE "Fuji Superia Reala Modern Punchy"
# Adobe RGB in/out. REPLACES AgX. Fuji Superia Reala Modern Punchy.
LUT_3D_SIZE 9
DOMAIN_MIN 0.0 0.0 0.0
DOMAIN_MAX 1.0 1.0 1.0
0.071271 0.083381 0.080583
0.134705 0.090088 0.083937
0.360794 0.103903 0.089237
0.665082 0.128640 0.096803
0.815039 0.162254 0.107950
0.883480 0.185917 0.121923
0.910626 0.185175 0.144209
0.925768 0.083714 0.577856
0.921320 0.153026 0.682023
0.077440 0.125407 0.084248
0.104813 0.104661 0.085226
0.303637 0.116373 0.089566
0.606596 0.145003 0.097001
0.785982 0.178553 0.107910
0.871669 0.204048 0.121467
0.906162 0.202623 0.140842
0.923356 0.083795 0.571554
0.919599 0.151659 0.678200
0.089577 0.367358 0.091476
0.109083 0.287076 0.092493
0.190307 0.196505 0.092918
0.436777 0.206247 0.099174
0.697796 0.242143 0.109390
0.823804 0.276697 0.122164
0.886892 0.283721 0.137732
0.915931 0.090227 0.553900
0.913981 0.147248 0.662480
0.103482 0.597254 0.102900
0.116992 0.550713 0.103790
0.182960 0.448867 0.104763
0.327161 0.360689 0.106389
0.567965 0.352945 0.113441
0.758525 0.382005 0.125659
0.852700 0.404295 0.140476
0.894962 0.376754 0.166126
0.905575 0.140887 0.534017
0.115101 0.716490 0.115335
0.126366 0.695351 0.116586
0.181685 0.640937 0.119431
0.301329 0.574124 0.121367
0.482848 0.519469 0.124570
0.676641 0.506206 0.132623
0.802934 0.518470 0.148070
0.871325 0.517645 0.168663
0.896465 0.427664 0.320944
0.126046 0.804120 0.128669
0.136462 0.796855 0.129716
0.184378 0.758304 0.133958
0.284336 0.707645 0.137272
0.437606 0.663474 0.141842
0.617740 0.634205 0.148363
0.759650 0.623082 0.159660
0.847096 0.625687 0.177432
0.883331 0.597133 0.211409
0.135038 0.843086 0.139918
0.143091 0.838616 0.141315
0.182700 0.824083 0.148270
0.269644 0.803308 0.155789
0.402069 0.770131 0.162431
0.573126 0.738132 0.169433
0.721125 0.717855 0.177702
0.819029 0.707791 0.189136
0.872066 0.697584 0.210329
0.138073 0.874641 0.144745
0.142492 0.872631 0.145416
0.178273 0.860660 0.155607
0.251637 0.844949 0.166255
0.365825 0.827960 0.176297
0.531322 0.813028 0.185159
0.683298 0.802364 0.193531
0.799123 0.796634 0.202778
0.865185 0.788887 0.216285
0.124359 0.867910 0.133856
0.124122 0.866863 0.133537
0.193128 0.871534 0.132513
0.189353 0.867144 0.154291
0.313192 0.860277 0.170916
0.466229 0.848848 0.185047
0.635176 0.840513 0.195705
0.770784 0.836248 0.204441
0.864623 0.836132 0.211256
0.074301 0.091061 0.125940
0.115341 0.096139 0.302461
0.297402 0.114956 0.168132
0.655218 0.141566 0.150154
0.811881 0.171001 0.139377
0.880295 0.191392 0.145733
0.908704 0.188581 0.172696
0.924475 0.083794 0.574482
0.920428 0.152319 0.680041
0.085331 0.120598 0.112309
0.111612 0.106905 0.105089
0.270492 0.125997 0.121352
0.583106 0.160801 0.134155
0.783502 0.187941 0.135598
0.868876 0.209587 0.142978
0.904292 0.206043 0.166245
0.922067 0.083875 0.568228
0.918713 0.150957 0.676240
0.103370 0.339782 0.130380
0.121049 0.268807 0.121577
0.202829 0.191870 0.112416
0.445525 0.215054 0.121897
0.693232 0.252458 0.131272
0.822399 0.282074 0.140345
0.884958 0.286399 0.158949
0.914733 0.091539 0.551578
0.913122 0.146582 0.659860
0.116373 0.576996 0.137815
0.132311 0.535045 0.135416
0.200371 0.438198 0.129445
0.343224 0.358091 0.126562
0.576325 0.357823 0.131871
0.758461 0.386949 0.142016
0.852009 0.406351 0.159246
0.893470 0.377704 0.184286
0.904775 0.140254 0.634806
0.125847 0.705933 0.142780
0.139702 0.686342 0.143169
0.196535 0.634787 0.143337
0.316000 0.569615 0.141912
0.497830 0.518991 0.143806
0.680906 0.507496 0.150126
0.803551 0.519766 0.165291
0.870563 0.517704 0.184560
0.895467 0.428690 0.365023
0.134917 0.800269 0.150229
0.145040 0.791438 0.151445
0.194593 0.753141 0.156485
0.295109 0.704290 0.159569
0.449082 0.661833 0.162492
0.625956 0.634058 0.167996
0.761816 0.623640 0.176509
0.847464 0.625858 0.192357
0.882561 0.596822 0.227411
0.140804 0.840802 0.159138
0.148747 0.836434 0.160530
0.189828 0.822265 0.167559
0.277494 0.801978 0.174748
0.410832 0.768597 0.180736
0.579919 0.737523 0.186828
0.725450 0.717930 0.194378
0.820336 0.708123 0.203491
0.871727 0.697241 0.223462
0.140191 0.873561 0.155452
0.145028 0.871502 0.156834
0.182152 0.859445 0.170153
0.256770 0.844038 0.182061
0.371934 0.827371 0.191907
0.536430 0.812725 0.200252
0.687008 0.802306 0.208188
0.801043 0.796702 0.217113
0.865192 0.788579 0.228739
0.124236 0.872573 0.243646
0.124004 0.871851 0.242551
0.192776 0.874905 0.238916
0.189033 0.870745 0.233263
0.315760 0.859919 0.182138
0.470161 0.848601 0.197481
0.638423 0.840387 0.208373
0.772347 0.836202 0.217075
0.864792 0.836022 0.222692
0.078484 0.107765 0.313672
0.138122 0.116236 0.639922
0.309325 0.135304 0.607744
0.661662 0.169940 0.545929
0.809979 0.195522 0.481497
0.876964 0.215879 0.475620
0.905782 0.207165 0.509830
0.922322 0.088114 0.582245
0.918579 0.150851 0.675964
0.094062 0.164994 0.329142
0.145285 0.162561 0.425487
0.303251 0.160945 0.435185
0.589343 0.184955 0.414731
0.782382 0.215402 0.403710
0.865823 0.234041 0.422092
0.901383 0.224677 0.467858
0.919912 0.089221 0.577580
0.916852 0.149489 0.671297
0.109498 0.287602 0.251963
0.126160 0.244310 0.223571
0.204024 0.189614 0.194276
0.433433 0.227869 0.235004
0.691042 0.274385 0.276663
0.821136 0.306297 0.316324
0.881677 0.304594 0.351387
0.911874 0.127683 0.556799
0.911231 0.145125 0.654118
0.134120 0.535818 0.280271
0.150672 0.502815 0.263490
0.218555 0.413837 0.227943
0.350537 0.343038 0.208111
0.583267 0.367467 0.228448
0.759955 0.407418 0.260821
0.850724 0.422455 0.283915
0.890323 0.388778 0.354013
0.902882 0.138896 0.629236
0.153195 0.685781 0.289986
0.167271 0.668932 0.281497
0.229101 0.622751 0.260648
0.345488 0.559906 0.240123
0.522563 0.516148 0.230952
0.693464 0.515701 0.244538
0.805667 0.530176 0.262272
0.868965 0.523727 0.295927
0.892862 0.435281 0.500907
0.165127 0.790056 0.294108
0.176381 0.778335 0.290081
0.231819 0.743495 0.279659
0.331977 0.698825 0.266788
0.488084 0.660022 0.257370
0.651520 0.635445 0.255036
0.769409 0.628452 0.259919
0.848643 0.629903 0.282951
0.880457 0.597549 0.340108
0.167298 0.834921 0.282467
0.176418 0.830934 0.281269
0.222353 0.817979 0.279384
0.310757 0.799224 0.275364
0.447200 0.766222 0.271472
0.607093 0.737607 0.270246
0.741389 0.719787 0.272990
0.824710 0.711426 0.284602
0.870765 0.696971 0.299905
0.160139 0.867286 0.272489
0.167359 0.864710 0.273088
0.208608 0.855042 0.279971
0.284820 0.841260 0.283291
0.403294 0.825915 0.285065
0.561262 0.812285 0.286687
0.704076 0.802662 0.290451
0.808588 0.797379 0.296682
0.865136 0.787990 0.296739
0.123845 0.871196 0.241828
0.193988 0.876140 0.240763
0.191660 0.873765 0.237229
0.188055 0.869223 0.231897
0.332495 0.858517 0.247794
0.490046 0.847783 0.267725
0.652880 0.839997 0.277685
0.779281 0.836062 0.286045
0.864998 0.835640 0.288920
0.084206 0.145479 0.554438
0.121551 0.163473 0.737763
0.335389 0.181657 0.769257
0.665932 0.220746 0.762048
0.818120 0.244083 0.724250
0.877952 0.252262 0.696284
0.904822 0.238903 0.691913
0.918304 0.142256 0.712845
0.917348 0.149879 0.698819
0.097356 0.209783 0.570427
0.137542 0.218073 0.678416
0.358724 0.232260 0.740049
0.630840 0.248659 0.715519
0.791328 0.261216 0.684002
0.866745 0.268965 0.669398
0.900299 0.255504 0.675236
0.915416 0.155731 0.703769
0.915575 0.148488 0.695041
0.118741 0.333038 0.480825
0.143434 0.309455 0.473546
0.263870 0.275145 0.486541
0.479204 0.280731 0.507576
0.703477 0.312041 0.536668
0.822527 0.337173 0.561075
0.879852 0.331671 0.594209
0.904568 0.265686 0.655138
0.909801 0.144031 0.682927
0.141620 0.504266 0.447177
0.156973 0.480369 0.427486
0.223307 0.403436 0.380798
0.347112 0.341352 0.351147
0.582058 0.382680 0.399461
0.759718 0.423806 0.448985
0.848256 0.439047 0.489597
0.887412 0.406175 0.564173
0.901229 0.137844 0.660015
0.168736 0.662160 0.461770
0.183011 0.648248 0.451364
0.245522 0.608715 0.418299
0.355744 0.546214 0.382809
0.522312 0.506926 0.364938
0.692868 0.518668 0.388034
0.804560 0.537251 0.422637
0.866270 0.530396 0.470013
0.890094 0.450507 0.614229
0.186442 0.770684 0.462950
0.199044 0.760606 0.457129
0.256012 0.730034 0.438270
0.354730 0.689675 0.412936
0.509214 0.654183 0.393125
0.659086 0.632847 0.385208
0.771865 0.631127 0.396678
0.847082 0.632210 0.422553
0.877836 0.601959 0.534707
0.191804 0.827343 0.456866
0.202178 0.823772 0.453598
0.250779 0.812123 0.442619
0.339321 0.794805 0.426993
0.478295 0.761518 0.412343
0.629179 0.735551 0.403059
0.752276 0.720046 0.400811
0.826811 0.713421 0.408009
0.869162 0.697822 0.459048
0.180635 0.860972 0.447164
0.189150 0.858645 0.444808
0.233384 0.850207 0.439156
0.310069 0.837664 0.430104
0.432125 0.823649 0.421153
0.584091 0.811193 0.414418
0.719101 0.802459 0.411590
0.814018 0.797756 0.412976
0.864577 0.787856 0.425726
0.152981 0.873454 0.476172
0.192173 0.875927 0.474675
0.189970 0.873651 0.469680
0.237380 0.869753 0.403892
0.361256 0.855941 0.424025
0.518330 0.846385 0.419826
0.668587 0.839365 0.418541
0.788508 0.835810 0.419575
0.864959 0.835263 0.419083
0.089474 0.210243 0.728151
0.110287 0.223940 0.799427
0.340727 0.251838 0.840297
0.656970 0.285989 0.840905
0.831467 0.320385 0.835190
0.883815 0.311151 0.805717
0.906500 0.286590 0.783972
0.917452 0.196890 0.772249
0.917351 0.149882 0.764698
0.099813 0.268017 0.737480
0.123873 0.278408 0.791454
0.351537 0.298238 0.834111
0.654363 0.331337 0.836432
0.806842 0.337248 0.815269
0.872875 0.328157 0.790601
0.901940 0.302736 0.771193
0.914540 0.213383 0.764360
0.915524 0.148449 0.758070
0.136530 0.455068 0.727396
0.164708 0.441517 0.733922
0.320915 0.409424 0.757036
0.551740 0.388555 0.746200
0.732069 0.386269 0.732568
0.832685 0.392880 0.727380
0.882233 0.376848 0.728627
0.904330 0.309222 0.736089
0.909550 0.143845 0.736881
0.151025 0.521819 0.609468
0.168349 0.506763 0.601110
0.251100 0.466827 0.588329
0.410551 0.432011 0.587255
0.615330 0.438332 0.605129
0.768127 0.461934 0.634018
0.850558 0.469408 0.663780
0.886778 0.434234 0.692651
0.901656 0.216053 0.715400
0.176064 0.646471 0.590681
0.191089 0.635621 0.581653
0.253029 0.603013 0.557232
0.359995 0.545236 0.524484
0.517245 0.506697 0.503856
0.694121 0.530169 0.543100
0.804695 0.550481 0.581600
0.864748 0.543741 0.627790
0.888283 0.474168 0.689375
0.199895 0.753812 0.592204
0.213215 0.745295 0.585971
0.269595 0.718893 0.568114
0.366660 0.682700 0.544143
0.516398 0.649257 0.521604
0.657405 0.629517 0.512288
0.771338 0.633936 0.532813
0.844842 0.636398 0.567173
0.875566 0.609031 0.651203
0.208993 0.820082 0.588205
0.220503 0.816937 0.584181
0.269068 0.806557 0.572145
0.357596 0.787334 0.555744
0.497404 0.756890 0.538542
0.640816 0.732990 0.526379
0.754678 0.719563 0.523137
0.826903 0.715443 0.534628
0.867297 0.700609 0.602133
0.196631 0.855392 0.581941
0.205530 0.853269 0.579102
0.251128 0.845612 0.570532
0.328640 0.834218 0.558586
0.453518 0.821395 0.545985
0.600707 0.810016 0.535294
0.729487 0.802158 0.529394
0.816660 0.798188 0.529019
0.863757 0.789128 0.557114
0.160917 0.872583 0.635379
0.166306 0.872406 0.633728
0.177702 0.871186 0.628197
0.263809 0.863564 0.566410
0.377410 0.853865 0.554647
0.532327 0.845203 0.545217
0.679144 0.838823 0.538713
0.794592 0.835803 0.536392
0.864739 0.835744 0.540438
0.096534 0.294426 0.838316
0.109205 0.298979 0.864124
0.336103 0.336934 0.885267
0.644283 0.368616 0.886037
0.831710 0.407751 0.886665
0.891219 0.395615 0.869002
0.910008 0.354598 0.842353
0.919023 0.259671 0.823608
0.918547 0.150826 0.801933
0.103409 0.343960 0.842224
0.118425 0.349099 0.863785
0.342095 0.381855 0.884304
0.643024 0.408382 0.885418
0.824439 0.437126 0.884388
0.881475 0.409405 0.858233
0.905577 0.371357 0.835388
0.916112 0.275784 0.819103
0.916684 0.149358 0.798756
0.145113 0.523212 0.848129
0.170521 0.522188 0.858411
0.363479 0.525313 0.878958
0.602659 0.496940 0.863190
0.762222 0.478419 0.841677
0.848289 0.460796 0.824721
0.888093 0.434306 0.812865
0.906127 0.366082 0.804143
0.910560 0.144616 0.784103
0.166497 0.583671 0.771602
0.185193 0.574003 0.771403
0.290586 0.549519 0.777926
0.478107 0.524989 0.775329
0.664470 0.514888 0.769448
0.785041 0.512605 0.767467
0.856806 0.507251 0.769179
0.889040 0.474616 0.772363
0.902121 0.270109 0.763119
0.184661 0.652516 0.711602
0.199485 0.644666 0.707487
0.269136 0.621517 0.698739
0.391285 0.588438 0.688849
0.562963 0.565192 0.685566
0.714381 0.568377 0.696058
0.811488 0.577912 0.713316
0.866194 0.566439 0.731684
0.888130 0.498670 0.746130
0.206605 0.744216 0.697683
0.220418 0.737239 0.693752
0.276707 0.715047 0.682569
0.374392 0.683516 0.665347
0.520482 0.652153 0.645554
0.653200 0.630303 0.632074
0.772512 0.642275 0.663674
0.844662 0.645447 0.692378
0.874557 0.619364 0.723568
0.218362 0.814602 0.691912
0.229950 0.811834 0.688959
0.278525 0.802665 0.680167
0.367370 0.782948 0.665718
0.506838 0.754969 0.649719
0.644696 0.732057 0.638261
0.753650 0.719675 0.636295
0.826029 0.719200 0.656031
0.865820 0.705917 0.702984
0.204407 0.850998 0.686535
0.214158 0.849084 0.684314
0.260202 0.842145 0.677307
0.338754 0.831744 0.664842
0.465333 0.819990 0.651302
0.609740 0.809511 0.640851
0.734399 0.802349 0.635295
0.816940 0.799031 0.636331
0.862774 0.792294 0.679442
0.162890 0.869684 0.674286
0.167435 0.869426 0.674899
0.176691 0.867920 0.677673
0.266466 0.861429 0.669408
0.382980 0.852434 0.655503
0.537917 0.844530 0.644981
0.683650 0.838849 0.638022
0.797319 0.836347 0.634817
0.864342 0.837015 0.662237
0.103406 0.398668 0.901158
0.113326 0.397883 0.909877
0.303733 0.428864 0.915005
0.636238 0.450947 0.915382
0.828183 0.481717 0.915901
0.899097 0.481931 0.907254
0.914670 0.429746 0.887528
0.921909 0.325222 0.870193
0.920528 0.152390 0.842608
0.108949 0.435520 0.902429
0.120691 0.435296 0.909756
0.312559 0.463600 0.914964
0.636185 0.481708 0.915429
0.825268 0.505586 0.915970
0.890804 0.490369 0.901438
0.910451 0.443634 0.883586
0.919065 0.343014 0.865797
0.918661 0.150902 0.839074
0.148018 0.572623 0.905249
0.168453 0.570890 0.909040
0.345722 0.575911 0.914171
0.640786 0.581694 0.915045
0.784374 0.552284 0.898270
0.861531 0.525869 0.883237
0.895795 0.493719 0.868563
0.909395 0.425190 0.851593
0.912484 0.145999 0.827033
0.185085 0.646622 0.878305
0.205112 0.640833 0.878742
0.320144 0.625668 0.878294
0.531713 0.606299 0.870941
0.702118 0.587628 0.858418
0.806280 0.572553 0.847251
0.866083 0.552778 0.838114
0.893789 0.512271 0.830303
0.903407 0.359248 0.818988
0.197447 0.680182 0.817911
0.213207 0.674757 0.817514
0.289457 0.658942 0.817253
0.435443 0.638776 0.813519
0.612129 0.624693 0.808573
0.746414 0.618816 0.805954
0.825122 0.613903 0.805922
0.870903 0.597545 0.806797
0.889809 0.525948 0.804375
0.213386 0.747856 0.786290
0.226657 0.742411 0.784168
0.284123 0.725039 0.779079
0.391057 0.700167 0.771611
0.544662 0.676753 0.762641
0.682070 0.664385 0.758762
0.783222 0.664170 0.766075
0.849479 0.661369 0.777883
0.875448 0.632703 0.786649
0.220754 0.812261 0.767768
0.232532 0.809884 0.765587
0.281719 0.801894 0.759415
0.372222 0.784548 0.751342
0.513783 0.759366 0.743319
0.648804 0.737415 0.735738
0.750139 0.721532 0.729605
0.826840 0.727285 0.749352
0.865526 0.714027 0.770343
0.203079 0.848638 0.756227
0.212946 0.846910 0.754291
0.260030 0.840537 0.748264
0.339893 0.831037 0.740212
0.468213 0.820226 0.732642
0.612569 0.810439 0.727028
0.735291 0.803649 0.724563
0.815643 0.800679 0.727792
0.861998 0.796395 0.758775
0.160492 0.865827 0.722252
0.169588 0.866202 0.721164
0.179886 0.865122 0.717716
0.254150 0.860702 0.736315
0.376424 0.851911 0.726286
0.534129 0.844664 0.719569
0.681667 0.839571 0.715176
0.796250 0.837606 0.713187
0.864013 0.839084 0.754486
0.113716 0.488593 0.936096
0.123403 0.486733 0.936486
0.320794 0.496891 0.936381
0.652801 0.515149 0.936417
0.837111 0.538110 0.936567
0.906940 0.548538 0.935242
0.920468 0.496096 0.920278
0.926104 0.385072 0.903134
0.922867 0.164049 0.883052
0.119341 0.513068 0.936117
0.131258 0.511445 0.936483
0.331195 0.521089 0.936454
0.652607 0.537872 0.936488
0.834841 0.559718 0.936632
0.901455 0.555285 0.932820
0.916593 0.505429 0.916486
0.923374 0.402385 0.900452
0.921060 0.165548 0.881069
0.162072 0.622178 0.936207
0.180909 0.620646 0.936449
0.377033 0.621049 0.936610
0.657203 0.626617 0.936678
0.811250 0.620109 0.932908
0.876888 0.591305 0.919407
0.903616 0.548570 0.904241
0.914099 0.476203 0.891632
0.915326 0.191613 0.874480
0.210505 0.701100 0.930392
0.231780 0.695431 0.929822
0.372941 0.679481 0.924661
0.582324 0.659531 0.915768
0.745042 0.641849 0.905482
0.832715 0.624897 0.895393
0.878488 0.603571 0.886289
0.900227 0.550048 0.878372
0.905824 0.401188 0.865433
0.217050 0.719677 0.889668
0.233882 0.715313 0.889186
0.326855 0.702143 0.886867
0.492232 0.685011 0.881983
0.662328 0.670655 0.876393
0.775044 0.659765 0.869295
0.844841 0.647507 0.862441
0.878862 0.623880 0.856724
0.893105 0.548709 0.848682
0.222139 0.765505 0.857254
0.235587 0.761349 0.856966
0.302564 0.747938 0.855411
0.422104 0.729073 0.849958
0.583487 0.711832 0.842997
0.715993 0.701227 0.837855
0.801973 0.694511 0.835637
0.857462 0.682493 0.835295
0.878425 0.646041 0.833090
0.220733 0.814008 0.831812
0.232152 0.812052 0.831567
0.285945 0.805271 0.831377
0.380454 0.794786 0.829481
0.528437 0.773688 0.824896
0.666181 0.756741 0.819457
0.766948 0.748010 0.816930
0.835131 0.743825 0.819518
0.867290 0.723961 0.821615
0.191430 0.849510 0.814406
0.200653 0.847903 0.813758
0.250493 0.841701 0.812273
0.333464 0.832804 0.810871
0.465493 0.822828 0.810207
0.614013 0.813865 0.809275
0.736987 0.807379 0.807918
0.812548 0.802429 0.805792
0.862094 0.799836 0.815657
0.154079 0.861631 0.782413
0.178772 0.864086 0.782358
0.181119 0.862333 0.785601
0.238377 0.859917 0.791778
0.353796 0.852766 0.786571
0.518382 0.846000 0.783323
0.671456 0.841357 0.781840
0.790363 0.839727 0.781027
0.863830 0.841816 0.815631
0.201464 0.521810 0.948517
0.225050 0.525504 0.948524
0.417196 0.539782 0.948547
0.765479 0.563988 0.948607
0.882380 0.591071 0.948696
0.925474 0.608336 0.948807
0.932251 0.549172 0.939923
0.932719 0.408887 0.931671
0.924761 0.221043 0.911337
0.212987 0.542108 0.948518
0.237269 0.545767 0.948524
0.425748 0.559866 0.948548
0.764677 0.583779 0.948608
0.881661 0.608451 0.948698
0.921171 0.612749 0.946946
0.928820 0.556610 0.938248
0.930197 0.418970 0.930436
0.922967 0.238595 0.913222
0.268459 0.629471 0.948483
0.294568 0.631506 0.948491
0.471196 0.639227 0.948519
0.762282 0.652665 0.948590
0.875313 0.662250 0.947623
0.905942 0.635880 0.940170
0.917430 0.596404 0.932763
0.921728 0.483142 0.922065
0.916981 0.229209 0.906557
0.342288 0.739126 0.946953
0.365818 0.735905 0.946257
0.505958 0.725578 0.943922
0.714366 0.711152 0.939927
0.824973 0.694032 0.934867
0.876826 0.673294 0.929263
0.900156 0.644702 0.918094
0.908686 0.581983 0.908099
0.909166 0.406010 0.898995
0.314905 0.758831 0.928581
0.334159 0.756123 0.927516
0.439340 0.747310 0.923964
0.626621 0.735703 0.918349
0.762854 0.723530 0.911683
0.835299 0.709486 0.904831
0.873286 0.690131 0.898377
0.892519 0.652301 0.892587
0.898714 0.528761 0.887817
0.281934 0.792359 0.901329
0.298035 0.789566 0.900514
0.379784 0.780351 0.897819
0.543194 0.768523 0.893657
0.689771 0.757606 0.889001
0.786109 0.747533 0.884741
0.844296 0.735478 0.881257
0.872726 0.711847 0.878502
0.884533 0.644394 0.876472
0.244807 0.820125 0.886501
0.257936 0.818647 0.885812
0.321651 0.813568 0.883476
0.459429 0.806333 0.879759
0.615831 0.799517 0.875506
0.737188 0.793054 0.869918
0.809875 0.784975 0.865857
0.856367 0.771863 0.863906
0.872645 0.727708 0.863460
0.181769 0.849882 0.877198
0.190562 0.848629 0.877113
0.238289 0.843919 0.876020
0.344880 0.836409 0.872550
0.514477 0.828741 0.866824
0.667506 0.822620 0.861050
0.772894 0.818692 0.856513
0.838833 0.815638 0.854536
0.865650 0.802277 0.855169
0.145108 0.857473 0.815470
0.180828 0.861517 0.826870
0.179738 0.859605 0.824852
0.192145 0.856840 0.821594
0.304904 0.855174 0.845139
0.479343 0.848682 0.857303
0.658959 0.844695 0.855092
0.785890 0.843577 0.853447
0.863864 0.845125 0.853154
