negative-superia-reala/SuperiaReala_Modern_Soft.cube
TITLE "Fuji Superia Reala Modern Soft"
# Adobe RGB in/out. REPLACES AgX. Fuji Superia Reala Modern Soft.
LUT_3D_SIZE 9
DOMAIN_MIN 0.0 0.0 0.0
DOMAIN_MAX 1.0 1.0 1.0
0.061901 0.068453 0.087572
0.112314 0.078095 0.091407
0.374455 0.098659 0.098084
0.561329 0.131021 0.105534
0.654604 0.202138 0.114725
0.715635 0.295490 0.124158
0.754463 0.377647 0.135261
0.786881 0.445384 0.148373
0.806928 0.493688 0.162773
0.069381 0.103161 0.092319
0.093334 0.095661 0.092454
0.284297 0.116468 0.097627
0.526798 0.165954 0.105091
0.640952 0.243657 0.114371
0.709134 0.327311 0.123859
0.749984 0.400673 0.134967
0.783962 0.460352 0.148196
0.805340 0.506387 0.162652
0.086985 0.348934 0.102064
0.122306 0.293081 0.100958
0.243750 0.222629 0.100567
0.458501 0.270147 0.105710
0.605992 0.345991 0.114240
0.686322 0.410018 0.123505
0.736516 0.463752 0.134517
0.773838 0.506889 0.147909
0.799812 0.540114 0.162486
0.111049 0.544370 0.113438
0.158157 0.524923 0.112237
0.308967 0.469524 0.110415
0.447080 0.435943 0.111197
0.574411 0.454273 0.116305
0.658860 0.495885 0.124679
0.719534 0.532614 0.135432
0.759823 0.558774 0.148474
0.791554 0.582503 0.163065
0.146717 0.645145 0.124807
0.192438 0.634302 0.123975
0.354620 0.605402 0.122182
0.475942 0.576693 0.121578
0.572785 0.562030 0.123402
0.640722 0.567881 0.128703
0.705281 0.590500 0.139132
0.746297 0.612328 0.151498
0.781573 0.631301 0.165420
0.187851 0.693857 0.138406
0.244024 0.689833 0.137668
0.384041 0.678081 0.135833
0.495587 0.663949 0.134628
0.585526 0.653036 0.135616
0.641366 0.647855 0.139318
0.693811 0.649373 0.145903
0.736098 0.659105 0.157725
0.771373 0.668357 0.171327
0.245935 0.732124 0.153281
0.290163 0.729675 0.152794
0.404765 0.722086 0.151510
0.507679 0.711834 0.150531
0.591355 0.702314 0.151124
0.645446 0.695873 0.154046
0.694257 0.693269 0.159408
0.729710 0.694125 0.166883
0.764041 0.700873 0.181570
0.293290 0.762575 0.167892
0.333797 0.761086 0.167598
0.418000 0.756305 0.166961
0.514564 0.749382 0.166652
0.593420 0.742256 0.167413
0.646578 0.736600 0.170614
0.694517 0.733337 0.176413
0.729094 0.732619 0.184770
0.759639 0.734084 0.195357
0.339050 0.780751 0.184160
0.362197 0.780217 0.184112
0.429960 0.778465 0.184089
0.517784 0.775817 0.184554
0.592579 0.772922 0.186155
0.644736 0.769893 0.189466
0.692124 0.767275 0.194839
0.727082 0.766370 0.202361
0.757311 0.767116 0.211897
0.061901 0.073565 0.136736
0.116491 0.081128 0.138136
0.374424 0.100480 0.140562
0.552330 0.130579 0.142687
0.648526 0.197924 0.148564
0.712139 0.290960 0.157535
0.751941 0.374487 0.167441
0.785367 0.443463 0.181189
0.806061 0.492290 0.194983
0.068742 0.100237 0.122791
0.084780 0.089479 0.109050
0.265884 0.114209 0.124490
0.514546 0.161509 0.134922
0.634333 0.236592 0.144854
0.705572 0.322493 0.155079
0.747455 0.397055 0.165986
0.782156 0.458284 0.180022
0.804472 0.504904 0.194262
0.084879 0.321282 0.140683
0.114637 0.261296 0.129575
0.208123 0.193490 0.119536
0.437008 0.250025 0.125831
0.597902 0.331739 0.137086
0.681172 0.403052 0.149119
0.734000 0.460099 0.162244
0.772073 0.504369 0.176811
0.798906 0.538919 0.192240
0.108019 0.532147 0.149155
0.149832 0.508889 0.143820
0.290075 0.453693 0.133081
0.430100 0.417136 0.129204
0.564012 0.444692 0.134238
0.654120 0.489277 0.145967
0.717169 0.529520 0.159225
0.758173 0.556741 0.173937
0.790712 0.581175 0.190379
0.142680 0.638213 0.159412
0.185536 0.627552 0.156258
0.347101 0.598429 0.148498
0.467830 0.569873 0.143269
0.565345 0.555957 0.142407
0.637159 0.563671 0.147720
0.703318 0.587483 0.159915
0.744881 0.610284 0.174261
0.780575 0.630055 0.190713
0.184057 0.691286 0.170901
0.239262 0.687301 0.168677
0.378559 0.675627 0.163791
0.491099 0.661544 0.159193
0.582705 0.650740 0.157264
0.638848 0.645597 0.159099
0.691867 0.647987 0.165168
0.735031 0.658109 0.179363
0.770599 0.667695 0.194730
0.243134 0.730583 0.184848
0.288146 0.728155 0.183654
0.402788 0.720620 0.180208
0.505119 0.710427 0.176379
0.589779 0.700976 0.174430
0.643984 0.694661 0.175785
0.692928 0.692264 0.180806
0.729023 0.693457 0.189181
0.763526 0.700418 0.202875
0.292101 0.761671 0.197780
0.331711 0.760194 0.197192
0.416831 0.755449 0.195472
0.513109 0.748577 0.193568
0.592555 0.741509 0.192823
0.645784 0.735931 0.194305
0.693788 0.732781 0.198544
0.728675 0.732206 0.205541
0.759340 0.733827 0.215390
0.337871 0.780451 0.209109
0.361421 0.779921 0.208904
0.429160 0.778184 0.208351
0.517098 0.775559 0.207961
0.592137 0.772693 0.208504
0.644351 0.769582 0.210688
0.691791 0.767040 0.215416
0.726909 0.766227 0.223963
0.757215 0.767074 0.235390
0.061901 0.083182 0.369911
0.116491 0.089142 0.371777
0.387604 0.108106 0.378465
0.566425 0.148805 0.361687
0.647510 0.208437 0.336146
0.709086 0.293868 0.328311
0.748469 0.373939 0.327351
0.782170 0.441677 0.329728
0.804239 0.490782 0.333975
0.070597 0.122844 0.372901
0.119104 0.126670 0.363349
0.335048 0.133661 0.319705
0.523101 0.174842 0.310094
0.631645 0.243204 0.311253
0.701924 0.322846 0.315224
0.743795 0.395280 0.319694
0.778894 0.456401 0.324964
0.802509 0.503093 0.330910
0.080939 0.264508 0.281091
0.105159 0.219652 0.231993
0.163217 0.156396 0.168679
0.418832 0.237629 0.210575
0.589314 0.324503 0.247182
0.674111 0.396764 0.274955
0.729771 0.455878 0.294561
0.768619 0.500875 0.309813
0.796913 0.537026 0.321501
0.101950 0.498976 0.309915
0.133297 0.476074 0.282505
0.253982 0.418428 0.225779
0.400233 0.380157 0.198738
0.544283 0.422933 0.211861
0.645011 0.477973 0.239609
0.712344 0.524034 0.266954
0.754548 0.552940 0.289387
0.788720 0.578557 0.308087
0.132969 0.621178 0.319952
0.178654 0.610906 0.306350
0.322529 0.582494 0.268997
0.447400 0.554234 0.234625
0.547153 0.541503 0.219846
0.628363 0.554145 0.228282
0.697025 0.580667 0.251286
0.741378 0.605633 0.275103
0.778013 0.627178 0.296587
0.182375 0.684317 0.322590
0.226553 0.680515 0.316108
0.364368 0.669232 0.293773
0.479362 0.655377 0.268065
0.571643 0.643855 0.249848
0.631942 0.637161 0.243388
0.686663 0.643306 0.250852
0.732131 0.655538 0.271720
0.768458 0.665988 0.292666
0.235020 0.726131 0.323430
0.282280 0.723788 0.319893
0.397095 0.716479 0.307794
0.497852 0.706515 0.291165
0.585293 0.697265 0.277250
0.639774 0.691259 0.270064
0.689052 0.689413 0.270703
0.727041 0.691614 0.278914
0.762020 0.699165 0.297605
0.288451 0.758935 0.323693
0.325355 0.757504 0.321824
0.413271 0.752895 0.315974
0.508722 0.746202 0.306438
0.589955 0.739325 0.297837
0.643393 0.733976 0.293088
0.691575 0.731144 0.293670
0.727390 0.730991 0.299756
0.758417 0.733082 0.310650
0.334122 0.779510 0.323403
0.358951 0.778996 0.322531
0.426620 0.777310 0.319783
0.514643 0.774765 0.316056
0.590749 0.771997 0.312325
0.643141 0.768645 0.310990
0.690744 0.766337 0.313339
0.726360 0.765807 0.319122
0.756909 0.766971 0.327811
0.061901 0.096863 0.598997
0.116491 0.102246 0.599496
0.387604 0.123855 0.601283
0.585802 0.180748 0.604543
0.660697 0.249687 0.574370
0.712459 0.318158 0.545649
0.748671 0.385594 0.528047
0.780917 0.447217 0.516802
0.802940 0.493555 0.507919
0.070597 0.139271 0.599797
0.121223 0.150395 0.600295
0.393253 0.182705 0.602077
0.565415 0.232211 0.582824
0.644106 0.282227 0.550319
0.704947 0.344751 0.531021
0.743720 0.405661 0.519399
0.777498 0.460770 0.510921
0.801163 0.505410 0.503881
0.081406 0.290703 0.525215
0.112298 0.276106 0.504059
0.258150 0.261440 0.467581
0.459577 0.293193 0.465684
0.597418 0.352901 0.477794
0.675391 0.408303 0.486503
0.728668 0.460322 0.490664
0.766728 0.502945 0.491794
0.795408 0.537630 0.491142
0.097044 0.468751 0.495373
0.123382 0.451879 0.474618
0.228447 0.397907 0.410640
0.355581 0.340537 0.332793
0.535725 0.418455 0.393141
0.640780 0.476510 0.430869
0.709472 0.522827 0.454763
0.751874 0.551974 0.466557
0.786981 0.577725 0.473389
0.124360 0.600619 0.503872
0.164179 0.591653 0.491847
0.293966 0.566265 0.457202
0.423992 0.538360 0.408657
0.526006 0.525481 0.377110
0.619175 0.545768 0.395772
0.690684 0.575416 0.422186
0.737998 0.602254 0.443161
0.775392 0.625130 0.456643
0.172057 0.675397 0.502723
0.210304 0.671956 0.495863
0.349958 0.661531 0.475080
0.465236 0.648248 0.447120
0.557683 0.632701 0.418547
0.622536 0.627041 0.404676
0.680505 0.637187 0.410771
0.728732 0.652898 0.428680
0.765932 0.664322 0.444439
0.223909 0.720070 0.495234
0.269524 0.717896 0.491329
0.384801 0.711046 0.479055
0.488269 0.701557 0.461723
0.578029 0.692630 0.443411
0.634174 0.686961 0.428940
0.683824 0.685778 0.423435
0.724469 0.689453 0.427460
0.760052 0.697746 0.440742
0.283118 0.755038 0.484844
0.316218 0.753692 0.482674
0.408139 0.749342 0.475583
0.502520 0.742983 0.465210
0.586318 0.736429 0.454609
0.640054 0.731403 0.445017
0.688460 0.728989 0.439808
0.725565 0.729407 0.440199
0.757132 0.732191 0.445272
0.328422 0.778118 0.473011
0.355186 0.777634 0.471866
0.422985 0.776041 0.468139
0.510967 0.773634 0.462622
0.588692 0.770850 0.456868
0.641362 0.767372 0.452456
0.689203 0.765407 0.450209
0.725549 0.765288 0.451478
0.756458 0.766918 0.455250
0.061901 0.117203 0.721621
0.116491 0.123829 0.721785
0.387604 0.153613 0.722375
0.585802 0.220229 0.723455
0.680586 0.314652 0.720210
0.721075 0.361835 0.685130
0.752990 0.411308 0.660826
0.782495 0.460492 0.643038
0.802944 0.502374 0.629468
0.070597 0.173894 0.721884
0.121223 0.182670 0.722049
0.393253 0.222811 0.722638
0.587014 0.294640 0.723716
0.664637 0.343858 0.701695
0.713516 0.383398 0.673982
0.747881 0.430487 0.652893
0.778948 0.473341 0.637980
0.801109 0.513725 0.625790
0.085822 0.389610 0.713053
0.131709 0.384219 0.704672
0.351567 0.375671 0.683624
0.519190 0.380707 0.662007
0.619708 0.404092 0.646376
0.686386 0.441525 0.636222
0.732080 0.476390 0.628169
0.767671 0.513228 0.620897
0.795144 0.542253 0.613981
0.096227 0.472851 0.629455
0.123853 0.463700 0.619103
0.256771 0.441635 0.592335
0.423219 0.431286 0.569304
0.560256 0.457250 0.572938
0.647400 0.494470 0.585038
0.711023 0.530456 0.593355
0.751785 0.556408 0.596716
0.786333 0.580486 0.597010
0.118690 0.585075 0.617847
0.152977 0.578109 0.609759
0.281671 0.557460 0.584125
0.413190 0.531775 0.545638
0.502397 0.504942 0.506473
0.615790 0.545492 0.537597
0.688440 0.576317 0.558341
0.736436 0.603062 0.570831
0.773838 0.625714 0.577839
0.161700 0.666589 0.616608
0.194411 0.663639 0.611577
0.332761 0.654478 0.595837
0.451258 0.639723 0.570780
0.544234 0.622816 0.546068
0.612642 0.617130 0.531360
0.675055 0.632794 0.539951
0.725978 0.651454 0.553756
0.763884 0.663629 0.563099
0.211539 0.713513 0.610435
0.255389 0.711576 0.607412
0.370969 0.705400 0.597708
0.478157 0.696643 0.582130
0.568720 0.688157 0.564966
0.627840 0.682713 0.551968
0.678128 0.682132 0.545365
0.721872 0.687649 0.548401
0.758114 0.696732 0.556329
0.273801 0.750618 0.600248
0.305729 0.749395 0.598485
0.402191 0.745420 0.592716
0.495494 0.739552 0.582602
0.582263 0.733450 0.571393
0.636356 0.728804 0.561957
0.684979 0.726818 0.556088
0.723514 0.727857 0.554313
0.755907 0.731669 0.556270
0.321507 0.776492 0.586991
0.350594 0.776048 0.585836
0.419178 0.774586 0.582023
0.506578 0.772375 0.576185
0.586269 0.769173 0.569706
0.639294 0.766068 0.564079
0.687422 0.764507 0.560441
0.724615 0.764864 0.559322
0.755947 0.767037 0.560591
0.061901 0.155981 0.783118
0.116491 0.165090 0.783221
0.387604 0.199956 0.783591
0.585802 0.275122 0.784270
0.686981 0.366710 0.785279
0.731466 0.411729 0.765983
0.759842 0.447893 0.745482
0.786289 0.481425 0.730169
0.804205 0.517325 0.717438
0.070597 0.225762 0.783284
0.121223 0.237259 0.783387
0.393253 0.277340 0.783756
0.587014 0.339792 0.784434
0.684760 0.410358 0.783186
0.724231 0.433048 0.758561
0.754771 0.461873 0.740656
0.782775 0.493670 0.726776
0.802333 0.526813 0.713964
0.086985 0.438735 0.783876
0.142675 0.444952 0.783978
0.406390 0.462641 0.784346
0.562973 0.458936 0.766741
0.643456 0.463583 0.749663
0.702336 0.478978 0.735877
0.738873 0.502697 0.724726
0.771237 0.529249 0.713897
0.796208 0.551139 0.702677
0.100090 0.517629 0.736680
0.135480 0.513559 0.733359
0.308109 0.504128 0.724119
0.477377 0.500219 0.711516
0.593104 0.509159 0.701933
0.662531 0.527747 0.697005
0.716959 0.546460 0.693737
0.754608 0.566864 0.690277
0.787037 0.587453 0.686009
0.116758 0.584262 0.703365
0.150162 0.579727 0.698271
0.284342 0.566481 0.682805
0.428502 0.552046 0.662098
0.542012 0.549103 0.649147
0.627386 0.564567 0.652314
0.693394 0.587297 0.660091
0.737766 0.609946 0.665542
0.773976 0.629948 0.667727
0.153481 0.660269 0.694834
0.183458 0.657899 0.691066
0.317003 0.650398 0.678973
0.442283 0.636053 0.659454
0.537151 0.619799 0.638034
0.602916 0.607640 0.618388
0.673205 0.633846 0.634817
0.725127 0.652591 0.645306
0.763016 0.664666 0.651649
0.199885 0.707533 0.689321
0.242116 0.705876 0.686905
0.359391 0.700526 0.679010
0.469039 0.692735 0.666133
0.560595 0.684824 0.651237
0.621852 0.679286 0.638746
0.672410 0.678863 0.632381
0.719669 0.686698 0.636633
0.756621 0.696596 0.642787
0.263382 0.746229 0.680700
0.294946 0.745154 0.679230
0.395878 0.741639 0.674365
0.488395 0.736390 0.665819
0.576284 0.730852 0.656096
0.632726 0.726606 0.647434
0.681487 0.724962 0.641571
0.721430 0.726586 0.639382
0.754755 0.731543 0.640964
0.314048 0.774812 0.668590
0.345572 0.774418 0.667624
0.415030 0.773119 0.664401
0.501866 0.771047 0.659371
0.583709 0.767631 0.653606
0.637147 0.764956 0.648336
0.685592 0.763828 0.644577
0.723663 0.764679 0.642879
0.755450 0.767430 0.643161
0.061901 0.218089 0.836336
0.116491 0.229592 0.836410
0.387604 0.270739 0.836584
0.585802 0.332601 0.836894
0.686981 0.410606 0.837356
0.740905 0.463598 0.826932
0.767234 0.482899 0.801821
0.789934 0.508304 0.782687
0.806158 0.533325 0.767826
0.070597 0.292821 0.836444
0.121223 0.302694 0.836491
0.393253 0.335005 0.836659
0.587014 0.389178 0.836969
0.687680 0.453437 0.837431
0.734184 0.479164 0.819513
0.762349 0.496281 0.796816
0.787345 0.520023 0.779272
0.804417 0.540553 0.765469
0.086985 0.470190 0.836714
0.142675 0.474924 0.836761
0.406390 0.491561 0.836929
0.590975 0.520243 0.837047
0.662721 0.516185 0.815737
0.713540 0.521568 0.796628
0.746877 0.532064 0.780916
0.776326 0.546476 0.768205
0.798239 0.563668 0.757721
0.105537 0.561300 0.806004
0.153697 0.559518 0.803515
0.356173 0.554772 0.795815
0.518444 0.550759 0.785309
0.616114 0.551119 0.774849
0.679406 0.557100 0.765839
0.725063 0.567954 0.758346
0.759457 0.582158 0.751891
0.788864 0.598232 0.745987
0.119301 0.602113 0.763520
0.157102 0.599676 0.761393
0.304920 0.592807 0.754899
0.460724 0.586146 0.746644
0.574575 0.585440 0.740125
0.644181 0.592952 0.736730
0.703346 0.606471 0.735399
0.741763 0.622318 0.734424
0.775829 0.637931 0.732831
0.149573 0.659187 0.747399
0.183263 0.657492 0.745463
0.313572 0.652145 0.739198
0.445723 0.644005 0.729550
0.547589 0.634534 0.719943
0.619850 0.634452 0.712308
0.680174 0.646850 0.714459
0.727342 0.657606 0.719053
0.763805 0.667951 0.721138
0.190621 0.703377 0.741358
0.231667 0.702028 0.739970
0.351455 0.697634 0.735189
0.462865 0.691111 0.727633
0.556143 0.684240 0.718595
0.618819 0.678826 0.706349
0.666939 0.676201 0.696853
0.718938 0.687853 0.705122
0.756141 0.697982 0.710436
0.253704 0.742451 0.735532
0.288046 0.741539 0.734589
0.386339 0.738537 0.731438
0.481990 0.734002 0.726482
0.571028 0.729135 0.720713
0.629433 0.725305 0.712985
0.678373 0.723779 0.706920
0.719437 0.725750 0.704521
0.753813 0.731981 0.706733
0.306578 0.773255 0.727753
0.339826 0.772917 0.727198
0.410849 0.771799 0.725333
0.497185 0.769358 0.722378
0.580776 0.766438 0.718481
0.635104 0.764231 0.713523
0.683876 0.763532 0.709831
0.722777 0.764849 0.708023
0.755030 0.768180 0.708112
0.061901 0.299658 0.866569
0.116491 0.309966 0.866603
0.387604 0.342579 0.866728
0.585802 0.394143 0.866957
0.686981 0.456875 0.867299
0.748063 0.510105 0.864934
0.773708 0.521310 0.847228
0.793545 0.534420 0.830920
0.808326 0.549967 0.812914
0.070597 0.362644 0.866624
0.121223 0.369971 0.866659
0.393253 0.395728 0.866784
0.587014 0.441100 0.867013
0.687680 0.489192 0.867354
0.741929 0.524441 0.860415
0.769096 0.530912 0.844039
0.791041 0.542188 0.827397
0.806621 0.556806 0.810430
0.086985 0.504788 0.866824
0.142675 0.509208 0.866859
0.406390 0.524428 0.866983
0.591314 0.543587 0.867212
0.676952 0.554228 0.860346
0.722822 0.552882 0.846183
0.754352 0.557165 0.832257
0.781680 0.566225 0.815890
0.800673 0.578759 0.802215
0.110500 0.601918 0.856876
0.169444 0.600322 0.855373
0.389886 0.595580 0.850465
0.544975 0.589951 0.843025
0.634334 0.586395 0.833499
0.694369 0.586808 0.820558
0.733163 0.591632 0.808890
0.764978 0.600285 0.798649
0.791270 0.611739 0.789601
0.124288 0.629886 0.817907
0.168893 0.628558 0.816320
0.338154 0.624706 0.811257
0.487838 0.620539 0.804000
0.595099 0.618905 0.796485
0.659338 0.621418 0.789951
0.711465 0.627985 0.784573
0.747021 0.637515 0.779911
0.778783 0.647838 0.775452
0.150937 0.664770 0.790524
0.183379 0.663717 0.789090
0.323639 0.660465 0.784456
0.459708 0.656328 0.777752
0.565892 0.653579 0.771132
0.634341 0.654239 0.766550
0.690677 0.658701 0.764446
0.731743 0.665574 0.763625
0.766009 0.673247 0.762748
0.185280 0.702367 0.778694
0.225875 0.701352 0.777515
0.347815 0.698050 0.773591
0.461745 0.693195 0.767484
0.558280 0.688324 0.760539
0.623351 0.685369 0.754481
0.676280 0.686808 0.751509
0.721624 0.693393 0.752286
0.757162 0.701450 0.753674
0.245762 0.739919 0.771639
0.282666 0.739176 0.770830
0.378711 0.736723 0.768107
0.477174 0.732992 0.763763
0.567577 0.728958 0.758590
0.627662 0.725751 0.753531
0.676822 0.724357 0.749423
0.717632 0.725469 0.746864
0.753467 0.733442 0.749399
0.299617 0.772003 0.764198
0.332226 0.771722 0.763706
0.406944 0.770473 0.762046
0.492897 0.768206 0.759387
0.577408 0.765818 0.756219
0.633366 0.764102 0.753164
0.682466 0.763806 0.750814
0.722052 0.765499 0.749624
0.754740 0.769361 0.749749
0.061901 0.378023 0.890437
0.116491 0.385204 0.890454
0.387604 0.410479 0.890517
0.585802 0.452239 0.890632
0.686981 0.498758 0.890803
0.752066 0.545846 0.891033
0.778485 0.549575 0.875913
0.796516 0.557079 0.860971
0.810271 0.568045 0.848015
0.070597 0.425871 0.890465
0.121223 0.432649 0.890482
0.393253 0.453347 0.890545
0.587014 0.484858 0.890659
0.687680 0.527085 0.890830
0.747013 0.555967 0.888511
0.774190 0.557821 0.873165
0.794128 0.564341 0.858740
0.808613 0.574491 0.846395
0.086985 0.537182 0.890565
0.142675 0.540036 0.890582
0.406390 0.550070 0.890645
0.591314 0.567709 0.890759
0.686182 0.587366 0.889476
0.729548 0.582487 0.876510
0.760333 0.582455 0.863432
0.786281 0.587010 0.851380
0.802974 0.595286 0.840999
0.114438 0.636700 0.888718
0.180871 0.635215 0.887525
0.407821 0.630549 0.883166
0.563860 0.624172 0.876245
0.646828 0.618434 0.867527
0.705031 0.615101 0.857809
0.740051 0.615425 0.848548
0.770083 0.619357 0.840120
0.793684 0.626106 0.830401
0.130540 0.654017 0.857476
0.180787 0.653382 0.856583
0.358816 0.651423 0.853613
0.510336 0.648891 0.848961
0.609306 0.646944 0.843445
0.671804 0.646494 0.837802
0.718710 0.647904 0.830204
0.752208 0.651053 0.822479
0.782003 0.655548 0.815294
0.155990 0.675204 0.834455
0.188768 0.674559 0.833360
0.341413 0.672568 0.829763
0.474794 0.670023 0.824317
0.582833 0.668228 0.818304
0.645598 0.668267 0.812851
0.700354 0.670491 0.808402
0.736511 0.674523 0.804721
0.768777 0.679662 0.801289
0.184551 0.705235 0.815557
0.225536 0.704542 0.814616
0.349134 0.702308 0.811479
0.465841 0.699136 0.806606
0.565692 0.696258 0.801113
0.630994 0.695089 0.796315
0.684187 0.696643 0.793174
0.725533 0.700803 0.791628
0.759121 0.706379 0.790670
0.240407 0.739236 0.805416
0.277348 0.738665 0.804711
0.373998 0.736781 0.802330
0.474777 0.733938 0.798506
0.566837 0.730947 0.793922
0.628367 0.728812 0.789450
0.678856 0.728563 0.785997
0.720500 0.731256 0.784486
0.754287 0.736607 0.784693
0.293718 0.771175 0.797291
0.325726 0.770814 0.796844
0.403612 0.769623 0.795329
0.489354 0.767836 0.792884
0.574789 0.765998 0.789936
0.632122 0.764798 0.787044
0.681624 0.764906 0.784765
0.721667 0.766863 0.783549
0.754633 0.771039 0.783708
