negative-superia-reala/SuperiaReala_Classic_Normal.cube
TITLE "Fuji Superia Reala Classic Normal"
# Adobe RGB in/out. REPLACES AgX. Fuji Superia Reala Classic Normal.
LUT_3D_SIZE 33
DOMAIN_MIN 0.0 0.0 0.0
DOMAIN_MAX 1.0 1.0 1.0
0.074318 0.073381 0.089635
0.079429 0.077855 0.090065
0.086335 0.081305 0.090545
0.097021 0.084717 0.091001
0.110867 0.088341 0.091373
0.130118 0.092686 0.091971
0.154087 0.097166 0.092645
0.182816 0.101123 0.093218
0.215496 0.106520 0.093794
0.249346 0.112423 0.094816
0.284107 0.119047 0.095740
0.317706 0.126590 0.096883
0.351096 0.133892 0.097972
0.385552 0.140981 0.099231
0.418576 0.149655 0.100624
0.450513 0.160148 0.102285
0.482591 0.170701 0.103888
0.514800 0.181331 0.106008
0.542942 0.192829 0.108589
0.569797 0.204376 0.111089
0.596501 0.215968 0.113514
0.623063 0.227605 0.116183
0.649490 0.240036 0.119332
0.669394 0.253445 0.122420
0.686029 0.266985 0.125451
0.702118 0.280652 0.128429
0.717931 0.294441 0.132119
0.733074 0.308349 0.136514
0.745038 0.322022 0.140888
0.756767 0.335144 0.145241
0.768273 0.348333 0.149833
0.779568 0.361584 0.154683
0.790663 0.374894 0.159529
0.075980 0.082561 0.090165
0.079596 0.082996 0.090337
0.086521 0.084814 0.090654
0.097154 0.087275 0.091079
0.111005 0.090423 0.091417
0.130251 0.094682 0.092047
0.154205 0.098604 0.092696
0.182941 0.102434 0.093255
0.215607 0.108043 0.093858
0.249445 0.113671 0.094867
0.284197 0.120532 0.095781
0.317781 0.127874 0.096930
0.351165 0.135016 0.098010
0.385618 0.141975 0.099279
0.418630 0.150966 0.100665
0.450563 0.161417 0.102332
0.482637 0.171875 0.103928
0.514844 0.182519 0.106072
0.542976 0.193944 0.108647
0.569829 0.205425 0.111142
0.596531 0.216960 0.113562
0.623091 0.228543 0.116244
0.649516 0.241052 0.119387
0.669411 0.254419 0.122472
0.686044 0.267919 0.125500
0.702131 0.281550 0.128475
0.717944 0.295305 0.132183
0.733084 0.309181 0.136576
0.745047 0.322765 0.140946
0.756775 0.335864 0.145297
0.768281 0.349028 0.149893
0.779576 0.362255 0.154741
0.790670 0.375543 0.159584
0.077673 0.091675 0.090754
0.080310 0.092014 0.090829
0.087164 0.093161 0.091039
0.097625 0.095029 0.091298
0.111495 0.097394 0.091651
0.130725 0.100029 0.092296
0.154626 0.103142 0.092871
0.183390 0.108023 0.093383
0.216006 0.112932 0.094082
0.249801 0.118752 0.095043
0.284518 0.125532 0.095959
0.318052 0.132247 0.097093
0.351411 0.138877 0.098147
0.385854 0.146360 0.099450
0.418825 0.155795 0.100842
0.450743 0.165878 0.102497
0.482804 0.176015 0.104074
0.515000 0.186724 0.106300
0.543097 0.197896 0.108854
0.569942 0.209151 0.111329
0.596637 0.220482 0.113733
0.623190 0.231882 0.116459
0.649609 0.244675 0.119587
0.669471 0.257891 0.122657
0.686096 0.271253 0.125673
0.702180 0.284755 0.128637
0.717989 0.298392 0.132415
0.733117 0.312158 0.136796
0.745078 0.325437 0.141156
0.756804 0.338439 0.145497
0.768309 0.351514 0.150108
0.779602 0.364656 0.154947
0.790695 0.377865 0.159782
0.079413 0.101954 0.091278
0.081968 0.102149 0.091310
0.088259 0.102832 0.091413
0.098464 0.104356 0.091692
0.112385 0.106702 0.092181
0.131589 0.109590 0.092676
0.155426 0.112889 0.093151
0.184214 0.116919 0.093606
0.216737 0.122291 0.094464
0.250455 0.127894 0.095348
0.285109 0.133645 0.096307
0.318549 0.139486 0.097382
0.351865 0.146305 0.098392
0.386287 0.154886 0.099757
0.419183 0.164231 0.101182
0.451074 0.173723 0.102796
0.483112 0.183606 0.104339
0.515287 0.194213 0.106715
0.543321 0.204959 0.109229
0.570151 0.215831 0.111671
0.596832 0.226814 0.114046
0.623373 0.238456 0.116852
0.649782 0.251233 0.119952
0.669582 0.264185 0.122997
0.686191 0.277303 0.125990
0.702270 0.290579 0.128934
0.718073 0.304006 0.132839
0.733179 0.317577 0.137199
0.745136 0.330300 0.141541
0.756859 0.343131 0.145864
0.768360 0.356044 0.150502
0.779651 0.369037 0.155326
0.790741 0.382104 0.160147
0.081648 0.115840 0.091939
0.083800 0.116075 0.091988
0.089720 0.116909 0.092153
0.099660 0.118409 0.092419
0.113685 0.120570 0.092754
0.132867 0.123349 0.093123
0.156688 0.126680 0.093500
0.185441 0.130481 0.094149
0.217828 0.134673 0.094977
0.251430 0.139178 0.095768
0.285992 0.144385 0.096793
0.319291 0.151128 0.097791
0.352543 0.159111 0.098873
0.386934 0.167397 0.100197
0.419717 0.175942 0.101675
0.451569 0.185102 0.103230
0.483572 0.194884 0.104796
0.515716 0.204882 0.107323
0.543656 0.215074 0.109781
0.570462 0.225438 0.112174
0.597124 0.236243 0.114507
0.623647 0.248411 0.117433
0.650039 0.260795 0.120492
0.669747 0.273382 0.123501
0.686334 0.286161 0.126461
0.702403 0.299121 0.129411
0.718198 0.312253 0.133469
0.733271 0.324970 0.137799
0.745223 0.337453 0.142113
0.756940 0.350039 0.146411
0.768437 0.362723 0.151089
0.779723 0.375500 0.155890
0.790810 0.388365 0.160690
0.084116 0.133758 0.092764
0.085576 0.133924 0.092794
0.091436 0.134517 0.092899
0.101274 0.135592 0.093077
0.115388 0.137163 0.093312
0.134565 0.139220 0.093594
0.158376 0.141734 0.094173
0.187089 0.145364 0.094877
0.219295 0.149778 0.095582
0.252744 0.155400 0.096451
0.287181 0.161583 0.097392
0.320292 0.168224 0.098303
0.353457 0.175271 0.099520
0.387808 0.182887 0.100776
0.420439 0.191309 0.102311
0.452236 0.200065 0.103794
0.484192 0.209119 0.105678
0.516296 0.218440 0.108122
0.544107 0.228001 0.110508
0.570883 0.238319 0.112839
0.597517 0.249715 0.115154
0.624017 0.261377 0.118206
0.650387 0.273288 0.121211
0.669971 0.285432 0.124172
0.686527 0.297795 0.127089
0.702584 0.310364 0.130159
0.718368 0.322721 0.134314
0.733396 0.334745 0.138604
0.745340 0.346900 0.142881
0.757051 0.359178 0.147144
0.768541 0.371571 0.151878
0.779821 0.384073 0.156648
0.790902 0.396678 0.161420
0.086272 0.153576 0.093444
0.088210 0.153772 0.093464
0.093665 0.154475 0.093536
0.103317 0.155757 0.093696
0.117471 0.157652 0.094057
0.136678 0.160168 0.094536
0.160496 0.163301 0.095074
0.189168 0.167031 0.095649
0.221150 0.171330 0.096407
0.254406 0.176166 0.097244
0.288688 0.181606 0.098078
0.321560 0.187920 0.099105
0.354617 0.194709 0.100283
0.388916 0.201936 0.101638
0.421354 0.209562 0.103076
0.453083 0.217554 0.104478
0.484980 0.225879 0.106756
0.517032 0.234595 0.109103
0.544681 0.244748 0.111405
0.571418 0.255242 0.113662
0.598018 0.266053 0.116189
0.624486 0.277161 0.119169
0.650829 0.288547 0.122109
0.670255 0.300194 0.125011
0.686772 0.312087 0.127876
0.702813 0.323727 0.131128
0.718583 0.335186 0.135377
0.733555 0.346807 0.139617
0.745489 0.358580 0.143848
0.757190 0.370497 0.148145
0.768672 0.382547 0.152874
0.779946 0.394725 0.157606
0.791020 0.407023 0.162342
0.089618 0.178862 0.094496
0.091097 0.179025 0.094530
0.096697 0.179609 0.094650
0.105797 0.180711 0.094862
0.119902 0.182434 0.095160
0.139194 0.184736 0.095532
0.163047 0.187621 0.096013
0.191684 0.191084 0.096672
0.223400 0.195111 0.097370
0.256427 0.199684 0.098091
0.290520 0.204780 0.098994
0.323103 0.210370 0.100069
0.356028 0.216427 0.101259
0.390266 0.222922 0.102616
0.422470 0.229824 0.103953
0.454116 0.237553 0.105745
0.485941 0.246266 0.108014
0.517930 0.255390 0.110254
0.545380 0.264901 0.112461
0.572070 0.274773 0.114634
0.598628 0.284987 0.117420
0.625059 0.295522 0.120316
0.651368 0.306358 0.123181
0.670602 0.317479 0.126015
0.687071 0.328055 0.128819
0.703093 0.338855 0.132473
0.718846 0.349852 0.136658
0.733748 0.361032 0.140840
0.745670 0.372386 0.145017
0.757361 0.383902 0.149399
0.768833 0.395572 0.154079
0.780098 0.407386 0.158767
0.791164 0.419338 0.163461
0.092633 0.206345 0.095664
0.094416 0.206497 0.095690
0.099794 0.207044 0.095781
0.108879 0.208046 0.095988
0.122644 0.209535 0.096312
0.142356 0.211530 0.096724
0.166022 0.214039 0.097210
0.194637 0.217063 0.097755
0.226049 0.220598 0.098343
0.258809 0.224631 0.099201
0.292685 0.229149 0.100140
0.324927 0.234172 0.101207
0.357698 0.240359 0.102446
0.391864 0.247051 0.103686
0.423790 0.254228 0.105139
0.455339 0.261867 0.107290
0.487079 0.269947 0.109431
0.518993 0.278445 0.111557
0.546209 0.287339 0.113662
0.572843 0.296610 0.116012
0.599351 0.306236 0.118835
0.625738 0.316200 0.121638
0.652008 0.325840 0.124420
0.671013 0.335666 0.127179
0.687426 0.345736 0.130093
0.703425 0.356035 0.134043
0.719157 0.366551 0.138156
0.733978 0.377270 0.142271
0.745886 0.388180 0.146385
0.757564 0.399271 0.150871
0.769024 0.410533 0.155495
0.780278 0.421957 0.160130
0.791334 0.433533 0.164984
0.096891 0.234263 0.097055
0.098354 0.234415 0.097084
0.103250 0.234960 0.097183
0.112739 0.235960 0.097363
0.126693 0.237450 0.097622
0.146017 0.239450 0.097956
0.169410 0.241976 0.098355
0.198024 0.245034 0.098975
0.229096 0.248625 0.099708
0.261556 0.252745 0.100494
0.295044 0.257389 0.101489
0.327034 0.262546 0.102581
0.359628 0.268204 0.103697
0.393714 0.274347 0.104974
0.425318 0.280961 0.106968
0.456756 0.288028 0.108975
0.488398 0.295530 0.110986
0.520226 0.303450 0.112995
0.547170 0.311769 0.114994
0.573739 0.320366 0.117707
0.600190 0.328674 0.120421
0.626526 0.337406 0.123126
0.652750 0.346427 0.125818
0.671490 0.355722 0.128494
0.687837 0.365276 0.131809
0.703810 0.375075 0.135832
0.719519 0.385105 0.139865
0.734244 0.395354 0.143906
0.746136 0.405811 0.148013
0.757799 0.416464 0.152558
0.769246 0.427303 0.157120
0.780487 0.438319 0.161697
0.791532 0.449502 0.166737
0.100934 0.266478 0.098377
0.102327 0.266615 0.098400
0.107255 0.267107 0.098493
0.116885 0.268010 0.098706
0.131090 0.269356 0.099016
0.150065 0.271166 0.099419
0.173196 0.273455 0.099908
0.201839 0.276231 0.100472
0.232540 0.279498 0.101210
0.264668 0.283256 0.102085
0.297671 0.287501 0.103015
0.329427 0.292229 0.103987
0.361823 0.297431 0.105263
0.395819 0.303096 0.107067
0.427058 0.309214 0.108908
0.458369 0.315770 0.110775
0.489901 0.322371 0.112657
0.521632 0.329241 0.114548
0.548265 0.336467 0.116965
0.574761 0.344035 0.119562
0.601147 0.351930 0.122164
0.627424 0.360135 0.124766
0.653596 0.368637 0.127363
0.672033 0.377421 0.130142
0.688307 0.386474 0.133903
0.704249 0.395783 0.137833
0.719931 0.405335 0.141780
0.734548 0.415118 0.145740
0.746421 0.425121 0.149985
0.758067 0.435333 0.154458
0.769499 0.445744 0.158951
0.780726 0.456344 0.163465
0.791758 0.465886 0.168719
0.105328 0.299420 0.100120
0.106793 0.299545 0.100148
0.112073 0.299993 0.100245
0.121175 0.300816 0.100422
0.135792 0.302044 0.100681
0.154471 0.303697 0.101106
0.177849 0.305790 0.101637
0.206110 0.308330 0.102256
0.236377 0.311325 0.102953
0.268142 0.314776 0.103718
0.300607 0.318683 0.104540
0.332105 0.322641 0.105992
0.364283 0.327109 0.107585
0.398111 0.331981 0.109236
0.429010 0.337249 0.110934
0.460180 0.342902 0.112666
0.491589 0.348930 0.114424
0.522979 0.355320 0.116634
0.549495 0.362061 0.119088
0.575910 0.369139 0.121562
0.602222 0.376541 0.124049
0.628435 0.384256 0.126544
0.654548 0.392270 0.129043
0.672645 0.400571 0.132398
0.688835 0.409146 0.136205
0.704744 0.417983 0.140037
0.720395 0.427072 0.143892
0.734890 0.436400 0.147805
0.746742 0.445957 0.152171
0.758369 0.455733 0.156565
0.769783 0.464742 0.160985
0.780995 0.473009 0.165740
0.792013 0.481396 0.170927
0.110614 0.331925 0.102073
0.112152 0.332031 0.102102
0.117299 0.332413 0.102207
0.126575 0.333115 0.102399
0.140860 0.334163 0.102680
0.159622 0.335573 0.103051
0.183052 0.337359 0.103507
0.210797 0.339529 0.104042
0.240599 0.342089 0.104667
0.271977 0.345040 0.105845
0.303852 0.348384 0.107127
0.335070 0.352119 0.108499
0.367009 0.356242 0.109946
0.400456 0.360747 0.111458
0.431176 0.365628 0.113022
0.462191 0.370877 0.114628
0.493464 0.376486 0.116727
0.524449 0.382447 0.119013
0.550863 0.388748 0.121336
0.577187 0.395380 0.123687
0.603419 0.402332 0.126060
0.629559 0.409593 0.128448
0.655573 0.417152 0.131346
0.673282 0.424999 0.135006
0.689422 0.433123 0.138703
0.705294 0.441512 0.142434
0.720912 0.450157 0.146193
0.735270 0.459048 0.150285
0.747099 0.466738 0.154562
0.758705 0.474322 0.158873
0.770101 0.482053 0.163214
0.781294 0.489923 0.168242
0.792296 0.497924 0.173357
0.116526 0.363597 0.104060
0.117888 0.363694 0.104085
0.122495 0.364045 0.104175
0.132634 0.364690 0.104339
0.146696 0.365653 0.104581
0.165187 0.366950 0.105105
0.188669 0.368594 0.105798
0.215884 0.370594 0.106621
0.245200 0.372954 0.107563
0.276166 0.375679 0.108617
0.307401 0.378770 0.109769
0.338318 0.382228 0.111011
0.370091 0.386050 0.112329
0.403030 0.390234 0.113714
0.433557 0.394774 0.115207
0.464403 0.399666 0.117244
0.495528 0.404903 0.119343
0.526066 0.410478 0.121495
0.552368 0.416383 0.123691
0.578593 0.422610 0.125922
0.604737 0.429150 0.128181
0.630798 0.435994 0.130792
0.656376 0.443133 0.134257
0.673975 0.450558 0.137800
0.690070 0.458258 0.141387
0.705901 0.465155 0.145013
0.721482 0.471831 0.148822
0.735690 0.478687 0.152966
0.747493 0.485713 0.157152
0.759076 0.492901 0.161376
0.770450 0.500242 0.165981
0.781625 0.507730 0.170967
0.792609 0.515356 0.176006
0.122280 0.395608 0.106920
0.123788 0.395698 0.106958
0.129390 0.396023 0.107096
0.138826 0.396619 0.107348
0.152777 0.397510 0.107719
0.171072 0.398710 0.108213
0.194681 0.400232 0.108828
0.221359 0.402085 0.109559
0.250170 0.404273 0.110402
0.280705 0.406802 0.111347
0.311251 0.409674 0.112388
0.341848 0.412890 0.113515
0.373466 0.416450 0.114718
0.405833 0.420351 0.116346
0.436152 0.424590 0.118170
0.466816 0.429165 0.120071
0.497781 0.434070 0.122038
0.527832 0.439299 0.124062
0.554012 0.444847 0.126136
0.580130 0.450707 0.128250
0.606178 0.456871 0.130711
0.632153 0.462801 0.133974
0.657255 0.468290 0.137343
0.674733 0.473991 0.140767
0.690778 0.479898 0.144242
0.706564 0.486003 0.147801
0.722105 0.492296 0.151795
0.736149 0.498770 0.155840
0.747925 0.505418 0.159932
0.759482 0.512231 0.164162
0.770833 0.519201 0.169005
0.781987 0.526323 0.173908
0.792952 0.533588 0.178868
0.129721 0.427938 0.110071
0.131211 0.428022 0.110105
0.136359 0.428324 0.110227
0.145763 0.428878 0.110450
0.159478 0.429706 0.110779
0.177718 0.430823 0.111219
0.201068 0.432239 0.111767
0.227206 0.433964 0.112422
0.255498 0.436003 0.113179
0.285585 0.438361 0.114032
0.315396 0.441042 0.114976
0.345656 0.444045 0.116364
0.377113 0.447373 0.117873
0.408863 0.451025 0.119481
0.438960 0.454997 0.121176
0.469430 0.459289 0.122950
0.500223 0.463260 0.124793
0.529745 0.467259 0.126698
0.555796 0.471499 0.128655
0.581797 0.475974 0.131059
0.607742 0.480678 0.134162
0.633624 0.485605 0.137341
0.658208 0.490747 0.140587
0.675556 0.496099 0.143895
0.691547 0.501654 0.147258
0.707285 0.507403 0.151064
0.722782 0.513340 0.154953
0.736648 0.519459 0.158897
0.748393 0.525752 0.162892
0.759924 0.532211 0.167488
0.771250 0.538831 0.172242
0.782380 0.545605 0.177059
0.793324 0.552526 0.181937
0.137219 0.460550 0.113102
0.138588 0.460614 0.113133
0.143757 0.460843 0.113241
0.152963 0.461265 0.113440
0.166649 0.461895 0.113735
0.185129 0.462745 0.114129
0.207862 0.463822 0.114621
0.233412 0.465134 0.115282
0.261175 0.466685 0.116217
0.290800 0.468478 0.117277
0.319830 0.470515 0.118456
0.349738 0.472798 0.119748
0.381031 0.475326 0.121143
0.412119 0.478099 0.122633
0.441981 0.481115 0.124211
0.472244 0.484371 0.125868
0.502854 0.487865 0.127596
0.531807 0.491593 0.129426
0.557718 0.495550 0.131934
0.583596 0.499734 0.134821
0.609430 0.504137 0.137796
0.635212 0.508756 0.140850
0.659237 0.513584 0.143977
0.676444 0.518617 0.147169
0.692377 0.523847 0.150783
0.708064 0.529270 0.154501
0.723514 0.534878 0.158284
0.737187 0.540666 0.162126
0.748900 0.546627 0.166432
0.760401 0.552756 0.171022
0.771700 0.559045 0.175684
0.782805 0.565491 0.180413
0.793727 0.572085 0.185207
0.145236 0.487200 0.116397
0.146657 0.487259 0.116434
0.151628 0.487471 0.116568
0.160803 0.487862 0.116813
0.174035 0.488446 0.117177
0.192862 0.489233 0.117664
0.215009 0.490231 0.118275
0.239960 0.491448 0.119010
0.267188 0.492886 0.119865
0.296117 0.494550 0.120838
0.324548 0.496443 0.121924
0.354090 0.498565 0.123116
0.385217 0.500916 0.124408
0.415598 0.503498 0.125793
0.445213 0.506309 0.127264
0.475257 0.509347 0.128813
0.505674 0.512610 0.130756
0.534016 0.516095 0.133279
0.559779 0.519800 0.135943
0.585525 0.523721 0.138704
0.611241 0.527853 0.141555
0.636917 0.532192 0.144488
0.660341 0.536735 0.147505
0.677397 0.541475 0.150959
0.693269 0.546409 0.154493
0.708900 0.551530 0.158101
0.724300 0.556834 0.161778
0.737767 0.562315 0.165845
0.749444 0.567968 0.170260
0.760914 0.573787 0.174754
0.772183 0.579767 0.179323
0.783263 0.585903 0.183963
0.794160 0.592189 0.188670
0.153560 0.513736 0.120284
0.154887 0.513791 0.120318
0.159991 0.513989 0.120440
0.169001 0.514352 0.120664
0.182722 0.514895 0.120996
0.200897 0.515628 0.121441
0.222479 0.516557 0.122000
0.246836 0.517690 0.122674
0.273527 0.519029 0.123460
0.301540 0.520580 0.124356
0.329542 0.522345 0.125359
0.358706 0.524324 0.126462
0.389665 0.526520 0.127661
0.419298 0.528932 0.128951
0.448653 0.531561 0.130615
0.478468 0.534404 0.132754
0.508681 0.537461 0.135075
0.536372 0.540729 0.137510
0.561979 0.544206 0.140052
0.587585 0.547890 0.142692
0.613176 0.551776 0.145424
0.638740 0.555862 0.148339
0.661520 0.560144 0.151589
0.678416 0.564618 0.154929
0.694223 0.569280 0.158352
0.709795 0.574124 0.161852
0.725141 0.579147 0.165736
0.738386 0.584344 0.169964
0.750027 0.589710 0.174279
0.761462 0.595241 0.178676
0.772701 0.600931 0.183151
0.783753 0.606456 0.187701
0.794624 0.611026 0.192321
0.162570 0.540167 0.124081
0.163944 0.540219 0.124112
0.168783 0.540403 0.124224
0.177805 0.540742 0.124429
0.191660 0.541249 0.124734
0.209278 0.541933 0.125142
0.230255 0.542802 0.125656
0.254026 0.543860 0.126276
0.280178 0.545113 0.127001
0.307241 0.546563 0.127830
0.334805 0.548214 0.128758
0.363581 0.550067 0.129927
0.394373 0.552124 0.131423
0.423214 0.554385 0.133249
0.452300 0.556850 0.135209
0.481876 0.559519 0.137295
0.511875 0.562390 0.139502
0.538873 0.565463 0.141822
0.564316 0.568735 0.144248
0.589776 0.572204 0.146774
0.615235 0.575868 0.149630
0.640680 0.579724 0.152670
0.662775 0.583768 0.155807
0.679500 0.587998 0.159036
0.695238 0.592410 0.162350
0.710747 0.596999 0.166107
0.726037 0.601763 0.170138
0.739046 0.606395 0.174263
0.750648 0.610284 0.178478
0.762047 0.614289 0.182779
0.773253 0.618404 0.187161
0.784275 0.622627 0.191619
0.795118 0.626954 0.196151
0.171771 0.566498 0.127793
0.173069 0.566546 0.127822
0.178174 0.566719 0.127925
0.187512 0.567037 0.128114
0.200831 0.567512 0.128394
0.217942 0.568153 0.128771
0.238319 0.568967 0.129246
0.261514 0.569959 0.129973
0.287131 0.571134 0.130826
0.313208 0.572495 0.131968
0.340328 0.574045 0.133277
0.368753 0.575785 0.134731
0.399146 0.577718 0.136324
0.427344 0.579843 0.138052
0.456150 0.582162 0.139910
0.485477 0.584674 0.141892
0.515254 0.587378 0.143992
0.541519 0.590274 0.146203
0.566790 0.593361 0.148652
0.592096 0.596635 0.151365
0.617416 0.600097 0.154190
0.642736 0.603742 0.157119
0.664105 0.607062 0.160146
0.680650 0.610116 0.163267
0.696314 0.613300 0.166956
0.711758 0.616609 0.170782
0.726988 0.620042 0.174709
0.739747 0.623594 0.178734
0.751307 0.627263 0.182850
0.762668 0.631045 0.187055
0.773840 0.634936 0.191343
0.784829 0.638933 0.195710
0.795644 0.642914 0.200153
0.182031 0.592734 0.132226
0.183444 0.592779 0.132266
0.188452 0.592941 0.132410
0.197401 0.593240 0.132675
0.210295 0.593687 0.133070
0.226857 0.594289 0.133600
0.246656 0.595055 0.134270
0.269288 0.595988 0.135082
0.294293 0.597093 0.136036
0.319432 0.598374 0.137132
0.346105 0.599833 0.138368
0.374326 0.601472 0.139741
0.403807 0.603293 0.141248
0.431682 0.605296 0.142886
0.460201 0.606996 0.144650
0.489270 0.608804 0.146534
0.518816 0.610749 0.148667
0.544308 0.612832 0.151035
0.569400 0.615050 0.153526
0.594545 0.617403 0.156134
0.619721 0.619889 0.158851
0.644909 0.622505 0.161674
0.665510 0.625251 0.164777
0.681864 0.628123 0.168278
0.697452 0.631119 0.171892
0.712826 0.634236 0.175615
0.727993 0.637473 0.179441
0.740488 0.640826 0.183367
0.752004 0.644087 0.187386
0.763325 0.647421 0.191495
0.774461 0.650854 0.195690
0.785416 0.654383 0.199966
0.796200 0.658004 0.204321
0.192725 0.615673 0.137669
0.194077 0.615705 0.137707
0.198871 0.615822 0.137842
0.207510 0.616035 0.138091
0.219981 0.616355 0.138463
0.236009 0.616787 0.138962
0.255252 0.617335 0.139593
0.277333 0.618003 0.140358
0.301258 0.618794 0.141258
0.325904 0.619710 0.142292
0.352126 0.620754 0.143461
0.380150 0.621927 0.144761
0.408682 0.623229 0.146189
0.436226 0.624661 0.147781
0.464449 0.626224 0.149661
0.493252 0.627918 0.151676
0.522434 0.629741 0.153821
0.547238 0.631695 0.156092
0.572145 0.633777 0.158483
0.597122 0.635987 0.160989
0.622147 0.638323 0.163629
0.647199 0.640784 0.166784
0.666989 0.643226 0.170063
0.683143 0.645748 0.173462
0.698651 0.648381 0.176975
0.713952 0.651123 0.180598
0.729054 0.653971 0.184325
0.741269 0.656922 0.188153
0.752739 0.659975 0.192076
0.764019 0.663127 0.196091
0.775116 0.666375 0.200194
0.786036 0.669717 0.204381
0.796788 0.673150 0.208647
0.203543 0.635375 0.143079
0.204850 0.635405 0.143115
0.209492 0.635514 0.143243
0.217831 0.635714 0.143477
0.229862 0.636013 0.143827
0.245385 0.636417 0.144298
0.264091 0.636930 0.144894
0.285637 0.637556 0.145617
0.308456 0.638297 0.146468
0.332612 0.639156 0.147448
0.358384 0.640134 0.148688
0.386220 0.641233 0.150071
0.413763 0.642374 0.151595
0.440971 0.643627 0.153257
0.468890 0.644995 0.155054
0.497421 0.646478 0.156982
0.525717 0.648075 0.159037
0.550308 0.649787 0.161216
0.575022 0.651612 0.163521
0.599826 0.653550 0.166315
0.624694 0.655599 0.169243
0.649604 0.657759 0.172300
0.668542 0.660028 0.175480
0.684486 0.662405 0.178780
0.699910 0.664887 0.182195
0.715136 0.667474 0.185720
0.730169 0.670163 0.189351
0.742091 0.672952 0.193084
0.753513 0.675840 0.196913
0.764748 0.678823 0.200836
0.775805 0.681901 0.204848
0.786689 0.685069 0.208945
0.797406 0.688328 0.213124
0.214562 0.653906 0.148581
0.215816 0.653933 0.148619
0.220277 0.654028 0.148754
0.228308 0.654203 0.149003
0.239928 0.654465 0.149375
0.254971 0.654818 0.149874
0.273163 0.655267 0.150507
0.294120 0.655814 0.151276
0.315877 0.656462 0.152182
0.339549 0.657213 0.153226
0.364871 0.658069 0.154408
0.392529 0.659031 0.155728
0.419045 0.660100 0.157183
0.445911 0.661276 0.158771
0.473521 0.662561 0.160490
0.501773 0.663955 0.162337
0.529144 0.665456 0.164443
0.553515 0.667066 0.166868
0.578031 0.668783 0.169434
0.602656 0.670608 0.172136
0.627361 0.672539 0.174971
0.652123 0.674575 0.177933
0.670167 0.676715 0.181019
0.685893 0.678958 0.184225
0.701230 0.681303 0.187545
0.716377 0.683748 0.190975
0.731338 0.686291 0.194513
0.742953 0.688931 0.198152
0.754324 0.691666 0.201890
0.765514 0.694494 0.205722
0.776529 0.697413 0.209644
0.787374 0.700326 0.213653
0.798056 0.702432 0.217746
0.225690 0.671790 0.154592
0.226897 0.671815 0.154628
0.231191 0.671904 0.154757
0.238935 0.672069 0.154994
0.250169 0.672315 0.155347
0.264756 0.672646 0.155823
0.282454 0.673068 0.156425
0.302255 0.673582 0.157158
0.323510 0.674191 0.158021
0.346704 0.674897 0.159017
0.371728 0.675702 0.160146
0.398906 0.676606 0.161406
0.424522 0.677612 0.162797
0.451042 0.678719 0.164454
0.478339 0.679929 0.166363
0.506305 0.681241 0.168420
0.532713 0.682656 0.170621
0.556857 0.684173 0.172964
0.581169 0.685792 0.175445
0.605610 0.687514 0.178060
0.630147 0.689336 0.180805
0.654757 0.691259 0.183678
0.671866 0.693282 0.186673
0.687363 0.695403 0.189787
0.702610 0.697621 0.193015
0.717676 0.699936 0.196355
0.732352 0.701635 0.199801
0.743854 0.703336 0.203350
0.755174 0.705099 0.206998
0.766316 0.706920 0.210741
0.777287 0.708799 0.214575
0.788092 0.710734 0.218498
0.798736 0.712724 0.222506
0.236925 0.689433 0.160597
0.238088 0.689456 0.160631
0.242227 0.689541 0.160754
0.249703 0.689695 0.160979
0.260574 0.689927 0.161316
0.274728 0.690239 0.161770
0.291953 0.690636 0.162345
0.310581 0.691120 0.163043
0.331345 0.691694 0.163933
0.354068 0.692359 0.165035
0.378906 0.693118 0.166286
0.404955 0.693970 0.167686
0.430189 0.694919 0.169235
0.456360 0.695963 0.170930
0.483338 0.697104 0.172771
0.511014 0.698342 0.174756
0.536419 0.699678 0.176881
0.560333 0.700795 0.179146
0.584435 0.701836 0.181546
0.608686 0.702943 0.184078
0.633051 0.704114 0.186739
0.656877 0.705349 0.189525
0.673569 0.706648 0.192433
0.688896 0.708010 0.195459
