negative-superia-reala/SuperiaReala_Modern_ExtraSoft.cube
TITLE "Fuji Superia Reala Modern ExtraSoft"
# Adobe RGB in/out. REPLACES AgX. Fuji Superia Reala Modern ExtraSoft.
LUT_3D_SIZE 9
DOMAIN_MIN 0.0 0.0 0.0
DOMAIN_MAX 1.0 1.0 1.0
0.057575 0.063254 0.082403
0.108615 0.072941 0.086125
0.374542 0.094324 0.092160
0.552136 0.131372 0.099565
0.660196 0.203871 0.109031
0.711818 0.299072 0.118855
0.754425 0.384017 0.129599
0.787133 0.444213 0.142805
0.806070 0.496998 0.158698
0.064496 0.098797 0.086738
0.087757 0.091478 0.086829
0.284859 0.113514 0.091721
0.523290 0.164040 0.099219
0.642888 0.245276 0.108680
0.704707 0.330422 0.118550
0.749498 0.406713 0.129314
0.784934 0.460517 0.142568
0.804459 0.510955 0.158565
0.082049 0.350418 0.096446
0.118360 0.296371 0.095339
0.244861 0.224670 0.094944
0.458498 0.270789 0.099701
0.599556 0.347926 0.108551
0.684898 0.414505 0.118188
0.734703 0.464227 0.128878
0.775769 0.511506 0.142184
0.799230 0.544578 0.158382
0.107396 0.549392 0.107759
0.151204 0.527431 0.106573
0.309124 0.470532 0.104774
0.447524 0.435961 0.105546
0.562993 0.453890 0.110593
0.663526 0.499410 0.119388
0.716086 0.536104 0.129764
0.760324 0.565719 0.142940
0.791506 0.592729 0.159020
0.141235 0.645557 0.119520
0.196346 0.637596 0.118668
0.351491 0.616789 0.116835
0.477680 0.586103 0.116218
0.561646 0.569418 0.118082
0.642592 0.576070 0.123127
0.700494 0.601862 0.133347
0.745445 0.621598 0.146325
0.783274 0.635385 0.161620
0.191989 0.699895 0.132644
0.245122 0.696332 0.131929
0.384838 0.683723 0.130153
0.499368 0.667091 0.128987
0.573682 0.654289 0.129943
0.643421 0.648223 0.133527
0.690693 0.650000 0.139906
0.734244 0.661404 0.153144
0.773050 0.672272 0.167445
0.246945 0.733649 0.148274
0.292227 0.731496 0.147741
0.403184 0.724816 0.146338
0.508556 0.715779 0.145269
0.581025 0.707374 0.145917
0.648681 0.701679 0.149111
0.691038 0.699374 0.154993
0.727236 0.700132 0.163237
0.764969 0.706100 0.178271
0.296155 0.760354 0.164185
0.328904 0.759051 0.163943
0.418558 0.754866 0.163323
0.513391 0.748800 0.162981
0.583632 0.742549 0.163791
0.650142 0.737582 0.166693
0.691238 0.734715 0.172814
0.726561 0.734084 0.181664
0.760121 0.735372 0.192919
0.333032 0.779193 0.181016
0.361148 0.778571 0.180965
0.431220 0.776530 0.180941
0.515711 0.773448 0.181434
0.582570 0.770080 0.183133
0.647766 0.766751 0.186649
0.689389 0.764464 0.192366
0.724356 0.763672 0.200790
0.757559 0.764325 0.212833
0.057575 0.068631 0.131027
0.112637 0.075964 0.132382
0.374509 0.096052 0.134732
0.544646 0.130739 0.136790
0.652659 0.199596 0.143060
0.707993 0.293997 0.152935
0.751651 0.380098 0.163814
0.785894 0.442142 0.177868
0.805191 0.495463 0.192520
0.063772 0.095821 0.117457
0.080116 0.084226 0.103427
0.265928 0.111827 0.119195
0.513378 0.158887 0.129271
0.634377 0.238455 0.138890
0.700813 0.324876 0.150242
0.746718 0.403688 0.162245
0.783699 0.458262 0.176632
0.803586 0.509323 0.191753
0.080203 0.323484 0.134849
0.110851 0.262269 0.123876
0.211138 0.195097 0.114132
0.437936 0.251416 0.120568
0.589298 0.335528 0.131366
0.680905 0.408700 0.143729
0.731941 0.460241 0.158115
0.773822 0.508734 0.173236
0.798383 0.543226 0.189600
0.104267 0.535577 0.143768
0.143956 0.513708 0.137888
0.292117 0.453258 0.127457
0.431353 0.420419 0.123558
0.554367 0.443461 0.128609
0.659817 0.492157 0.139968
0.713496 0.532613 0.154791
0.758508 0.563412 0.170199
0.790718 0.591214 0.187620
0.137701 0.640472 0.154997
0.189786 0.632621 0.151534
0.341965 0.610932 0.142972
0.468750 0.578336 0.137354
0.555473 0.562522 0.136519
0.638008 0.571282 0.141931
0.698350 0.598415 0.155551
0.743890 0.620181 0.170541
0.782532 0.634467 0.187975
0.188378 0.697619 0.166997
0.240577 0.694090 0.164830
0.378948 0.680831 0.159821
0.494405 0.664267 0.154757
0.570136 0.651599 0.152638
0.640179 0.645888 0.154654
0.689190 0.648378 0.161341
0.733074 0.660236 0.175934
0.772196 0.671494 0.192251
0.244273 0.732294 0.181746
0.289699 0.730158 0.180480
0.400894 0.723525 0.176829
0.506753 0.714538 0.172779
0.579038 0.706192 0.170719
0.646795 0.700606 0.172151
0.690011 0.698485 0.177462
0.726484 0.699541 0.186347
0.764402 0.705698 0.201435
0.294660 0.759563 0.195502
0.327261 0.758270 0.194875
0.417197 0.754116 0.193042
0.512371 0.748094 0.191014
0.582540 0.741893 0.190220
0.649118 0.736995 0.191798
0.690675 0.734226 0.196317
0.726101 0.733720 0.204790
0.759792 0.735146 0.216707
0.332107 0.778843 0.209296
0.360157 0.778226 0.209036
0.430457 0.776203 0.208337
0.515166 0.773147 0.207844
0.582012 0.769814 0.208531
0.647268 0.766480 0.211297
0.689132 0.764259 0.216733
0.724165 0.763547 0.225060
0.757453 0.764288 0.237004
0.057575 0.078053 0.377802
0.112637 0.083738 0.379246
0.387356 0.105689 0.384409
0.556371 0.146877 0.369090
0.651346 0.210264 0.338558
0.704654 0.297253 0.329374
0.747832 0.379419 0.328251
0.783708 0.440676 0.331032
0.803368 0.493809 0.336010
0.065692 0.120087 0.380115
0.114986 0.125181 0.371064
0.329889 0.135309 0.319328
0.520184 0.174417 0.309271
0.631010 0.244839 0.310384
0.696955 0.325282 0.314198
0.742696 0.402201 0.319315
0.781283 0.456209 0.325462
0.801752 0.507331 0.332416
0.075874 0.265358 0.281364
0.101035 0.221647 0.233345
0.155851 0.154021 0.164832
0.419528 0.239457 0.211155
0.578452 0.327188 0.248692
0.675419 0.403444 0.275446
0.727303 0.455639 0.294337
0.770013 0.504893 0.309001
0.796520 0.541087 0.321421
0.097427 0.502805 0.309099
0.130209 0.477693 0.282727
0.254611 0.421491 0.226828
0.397938 0.387136 0.196524
0.537932 0.425223 0.212788
0.648119 0.479772 0.241556
0.708217 0.526429 0.267724
0.754519 0.559100 0.289357
0.788854 0.588228 0.307343
0.129883 0.627910 0.319616
0.174167 0.620612 0.305674
0.320004 0.592719 0.269696
0.447829 0.560567 0.236180
0.540329 0.546149 0.221050
0.627122 0.560467 0.229351
0.693175 0.590635 0.252574
0.740041 0.616949 0.275589
0.780375 0.632345 0.296287
0.178638 0.691082 0.322691
0.228425 0.686594 0.315142
0.363829 0.673302 0.293579
0.481449 0.657032 0.268796
0.560699 0.644612 0.251193
0.631362 0.639698 0.245129
0.685163 0.644210 0.252154
0.729891 0.657220 0.272325
0.769836 0.669487 0.292514
0.236524 0.728377 0.323670
0.281745 0.726315 0.319547
0.394312 0.719876 0.307062
0.501620 0.711085 0.291069
0.573390 0.702910 0.277661
0.641371 0.697595 0.270727
0.687012 0.695960 0.271343
0.724311 0.697909 0.279265
0.762743 0.704590 0.297266
0.290081 0.757169 0.323978
0.322242 0.755915 0.321797
0.413056 0.751879 0.314986
0.509289 0.746011 0.305759
0.579260 0.739976 0.297489
0.646033 0.735277 0.292920
0.688965 0.732787 0.293480
0.724693 0.732652 0.299335
0.758776 0.734491 0.309805
0.329160 0.777747 0.323640
0.357005 0.777149 0.322621
0.428035 0.775186 0.319418
0.513446 0.772223 0.315082
0.580261 0.768957 0.311414
0.645709 0.765661 0.310131
0.688321 0.763644 0.312388
0.723564 0.763180 0.318649
0.757116 0.764198 0.328789
0.057575 0.092619 0.597216
0.112637 0.097618 0.597661
0.387356 0.121322 0.599253
0.574030 0.181364 0.602157
0.664962 0.251090 0.576871
0.708343 0.319896 0.544267
0.748055 0.393908 0.525887
0.782786 0.446208 0.514160
0.802155 0.496852 0.505826
0.065692 0.139481 0.597928
0.116976 0.148374 0.598372
0.391274 0.183674 0.599960
0.555531 0.234221 0.584044
0.646952 0.284237 0.549148
0.700130 0.346875 0.528990
0.742613 0.410876 0.516867
0.779806 0.460973 0.508537
0.800493 0.509880 0.502177
0.076469 0.293709 0.522932
0.108599 0.277414 0.502339
0.258577 0.262408 0.469408
0.459679 0.296497 0.467125
0.588685 0.353772 0.478569
0.676414 0.413077 0.486428
0.726093 0.460485 0.490204
0.767929 0.507168 0.491229
0.795111 0.541769 0.490638
0.091190 0.469686 0.494473
0.119739 0.451283 0.475751
0.230239 0.404400 0.412085
0.352713 0.343299 0.334623
0.530775 0.421513 0.395664
0.642666 0.478170 0.430988
0.705076 0.525326 0.454015
0.751577 0.558005 0.468176
0.787227 0.587279 0.474661
0.120994 0.613269 0.502169
0.156981 0.603180 0.491277
0.296955 0.574232 0.456938
0.425528 0.542594 0.410220
0.522624 0.528060 0.383365
0.616256 0.550975 0.398087
0.688275 0.584648 0.422915
0.736329 0.614491 0.442395
0.777483 0.630833 0.456268
0.166293 0.680560 0.501130
0.213186 0.676507 0.494917
0.345577 0.664251 0.476161
0.465897 0.648683 0.446064
0.549104 0.636417 0.419517
0.620227 0.632243 0.406474
0.680387 0.639717 0.412209
0.726164 0.654126 0.428953
0.767052 0.667529 0.443580
0.225925 0.723040 0.494347
0.269384 0.721124 0.490807
0.385405 0.715084 0.479686
0.491278 0.706705 0.462363
0.565989 0.698809 0.442627
0.634172 0.693788 0.429195
0.682962 0.692740 0.424077
0.721491 0.695995 0.427820
0.760576 0.703335 0.440152
0.283038 0.753756 0.484923
0.314965 0.752577 0.482952
0.407096 0.748765 0.476608
0.504919 0.743187 0.466555
0.574679 0.737432 0.453831
0.641732 0.733015 0.444115
0.686554 0.730892 0.439285
0.722693 0.731260 0.439648
0.757361 0.733708 0.444352
0.324666 0.776127 0.474325
0.352210 0.775562 0.473309
0.424369 0.773708 0.469999
0.510868 0.770907 0.463443
0.577668 0.767588 0.456537
0.643416 0.764548 0.451254
0.687129 0.762831 0.448926
0.722675 0.762727 0.450101
0.756619 0.764152 0.454598
0.057575 0.114070 0.705776
0.112637 0.121291 0.705983
0.387356 0.151404 0.706725
0.574030 0.222234 0.708082
0.680450 0.315938 0.704004
0.717773 0.364477 0.674687
0.752804 0.415578 0.654642
0.783931 0.460670 0.637235
0.802158 0.506540 0.624301
0.065692 0.173305 0.706108
0.116976 0.183633 0.706314
0.391274 0.224855 0.707055
0.575556 0.298119 0.708410
0.668038 0.346117 0.688464
0.709499 0.391170 0.665387
0.747186 0.431465 0.646880
0.781323 0.474704 0.632284
0.800443 0.518118 0.621039
0.081030 0.397446 0.697882
0.128625 0.392193 0.690935
0.347616 0.381565 0.673432
0.516895 0.387820 0.655797
0.616885 0.409567 0.640502
0.684948 0.440551 0.630563
0.729836 0.478040 0.623149
0.768968 0.517723 0.616696
0.794865 0.546997 0.610553
0.090189 0.474168 0.624290
0.120343 0.464170 0.615103
0.257265 0.440641 0.591275
0.424643 0.432124 0.570993
0.551244 0.457135 0.575208
0.651203 0.497856 0.585697
0.706772 0.533669 0.592185
0.751479 0.563034 0.595182
0.786621 0.590428 0.595445
0.114626 0.595665 0.613988
0.146698 0.587718 0.606798
0.280900 0.564228 0.585015
0.412961 0.535157 0.544255
0.504833 0.509365 0.504522
0.612031 0.550662 0.535856
0.686539 0.585675 0.558302
0.734615 0.615095 0.572763
0.775768 0.631263 0.580315
0.154278 0.670194 0.612887
0.198219 0.666727 0.608416
0.328088 0.655978 0.594399
0.451499 0.641580 0.572704
0.537891 0.629122 0.544704
0.608016 0.624923 0.529344
0.676154 0.636485 0.538313
0.723145 0.652435 0.553005
0.764796 0.666716 0.563804
0.214345 0.717261 0.607399
0.255950 0.715552 0.604710
0.370885 0.710100 0.596067
0.480121 0.702360 0.583525
0.558275 0.694848 0.565966
0.626502 0.689188 0.550941
0.678541 0.688502 0.543970
0.718646 0.694398 0.547142
0.758443 0.702438 0.555977
0.273441 0.749884 0.598331
0.306507 0.748812 0.596759
0.400203 0.745325 0.591615
0.499265 0.740175 0.583878
0.569581 0.734814 0.573416
0.636975 0.730729 0.562483
0.683857 0.728982 0.555698
0.720446 0.729896 0.553648
0.756013 0.733249 0.555908
0.319193 0.774233 0.587154
0.346383 0.773716 0.586293
0.419931 0.772016 0.583445
0.507781 0.769444 0.578978
0.574618 0.766123 0.571459
0.640753 0.763408 0.564939
0.685750 0.762044 0.560729
0.721652 0.762355 0.559436
0.756057 0.764256 0.560902
0.057575 0.153630 0.775954
0.112637 0.163037 0.776045
0.387356 0.201658 0.776372
0.574030 0.276319 0.776972
0.685409 0.370481 0.777865
0.729162 0.415929 0.760779
0.760345 0.446943 0.734951
0.786579 0.483551 0.716204
0.803337 0.520972 0.701511
0.065692 0.227851 0.776100
0.116976 0.239099 0.776191
0.391274 0.278789 0.776518
0.575556 0.342666 0.777117
0.683688 0.414788 0.776014
0.721231 0.433577 0.751554
0.754763 0.462177 0.728846
0.784122 0.496979 0.712178
0.801587 0.529561 0.698636
0.082049 0.438258 0.776624
0.137696 0.443744 0.776715
0.405067 0.463014 0.777040
0.553503 0.458972 0.761452
0.646115 0.464043 0.740249
0.697277 0.480872 0.722987
0.737290 0.506895 0.709680
0.772900 0.532307 0.698581
0.795859 0.557058 0.689279
0.095054 0.521213 0.723942
0.131986 0.517986 0.719994
0.308431 0.508470 0.708916
0.479261 0.504172 0.696609
0.583233 0.514005 0.688662
0.666394 0.530613 0.684569
0.713266 0.551757 0.681852
0.754584 0.574912 0.678973
0.787279 0.598381 0.675419
0.112894 0.594737 0.689850
0.144244 0.589562 0.685620
0.284930 0.574477 0.672750
0.429830 0.558087 0.655887
0.536034 0.554752 0.643214
0.625965 0.572301 0.646313
0.690371 0.598202 0.653923
0.736075 0.619947 0.659246
0.775920 0.634388 0.660828
0.147137 0.662770 0.682764
0.186655 0.659989 0.679630
0.315596 0.651199 0.669553
0.442959 0.638884 0.653300
0.531968 0.626889 0.632337
0.595651 0.618344 0.614468
0.674714 0.637260 0.629188
0.722213 0.653768 0.639454
0.763840 0.667934 0.645662
0.203388 0.711984 0.678178
0.243301 0.710520 0.676166
0.357566 0.705793 0.669584
0.470079 0.698902 0.659673
0.551527 0.691680 0.645259
0.619419 0.685144 0.633034
0.674096 0.684645 0.626883
0.716234 0.693555 0.630965
0.756799 0.702318 0.636990
0.263552 0.746035 0.670994
0.297753 0.745092 0.669768
0.393089 0.742008 0.665706
0.491417 0.737398 0.659446
0.564544 0.732530 0.650015
0.632314 0.728795 0.641538
0.681149 0.727348 0.635799
0.718162 0.728777 0.633656
0.754746 0.733138 0.635205
0.313220 0.772278 0.661452
0.340035 0.771819 0.660753
0.415102 0.770308 0.658140
0.504457 0.767760 0.653219
0.571397 0.764775 0.647577
0.637992 0.762436 0.642420
0.684333 0.761450 0.638741
0.720608 0.762194 0.637079
0.755511 0.764599 0.637355
0.057575 0.220061 0.822858
0.112637 0.231688 0.822923
0.387356 0.271446 0.823156
0.574030 0.336523 0.823582
0.685409 0.414994 0.824218
0.739522 0.464059 0.814594
0.768487 0.485166 0.792476
0.789990 0.513064 0.775573
0.805290 0.536906 0.762414
0.065692 0.296080 0.822962
0.116976 0.305793 0.823027
0.391274 0.338593 0.823259
0.575556 0.397084 0.823686
0.685950 0.452979 0.824321
0.732143 0.481076 0.808067
0.763106 0.499845 0.788058
0.787568 0.523108 0.772551
0.803535 0.545074 0.760324
0.082049 0.471260 0.823334
0.137696 0.476435 0.823399
0.405067 0.494663 0.823631
0.580546 0.523282 0.823793
0.666543 0.520069 0.804742
0.709526 0.524330 0.787893
0.746082 0.535484 0.774006
0.778513 0.551775 0.762749
0.797759 0.571278 0.750484
0.101461 0.568589 0.796166
0.147325 0.566565 0.793970
0.353466 0.561178 0.787174
0.516267 0.556628 0.777891
0.612444 0.557036 0.768636
0.679534 0.563820 0.760652
0.722142 0.576152 0.751280
0.759921 0.592335 0.743077
0.788989 0.610707 0.735591
0.115158 0.614386 0.757869
0.150287 0.612360 0.755159
0.305853 0.604499 0.746897
0.460939 0.596888 0.736422
0.563129 0.596082 0.728174
0.647050 0.604666 0.724002
0.698380 0.617532 0.722419
0.740464 0.628754 0.721259
0.777964 0.640264 0.719366
0.143730 0.661501 0.737380
0.181716 0.659512 0.734927
0.312837 0.653244 0.727003
0.446233 0.644722 0.715470
0.540692 0.637766 0.703670
0.617053 0.637706 0.697265
0.680131 0.647048 0.699046
0.724641 0.659646 0.702847
0.764709 0.671795 0.705170
0.194621 0.708313 0.729733
0.233319 0.707121 0.727978
0.347474 0.703237 0.722169
0.463292 0.697464 0.713194
0.547822 0.690991 0.702469
0.615836 0.684602 0.692326
0.669834 0.681507 0.684442
0.715433 0.694578 0.691308
0.756271 0.703544 0.695714
0.254346 0.742721 0.722577
0.289575 0.741920 0.721456
0.386476 0.739284 0.717711
0.484348 0.735299 0.711829
0.560189 0.731020 0.704636
0.628389 0.727650 0.697826
0.678732 0.726306 0.692799
0.715980 0.728042 0.690810
0.753710 0.733523 0.692644
0.307194 0.770467 0.713337
0.333641 0.770073 0.712679
0.410242 0.768678 0.710444
0.501135 0.766284 0.706728
0.568261 0.763732 0.702374
0.635367 0.761802 0.698271
0.683003 0.761191 0.695213
0.719638 0.762343 0.693714
0.755048 0.765255 0.693788
0.057575 0.303138 0.853901
0.112637 0.311968 0.853931
0.387356 0.345032 0.854038
0.574030 0.401248 0.854233
0.685409 0.456726 0.854525
0.747387 0.515047 0.852506
0.775625 0.524126 0.836651
0.793369 0.538143 0.818100
0.807489 0.555731 0.802256
0.065692 0.365472 0.853949
0.116976 0.374508 0.853979
0.391274 0.402576 0.854085
0.575556 0.440202 0.854281
0.685950 0.492064 0.854572
0.740646 0.526887 0.848646
0.770540 0.534183 0.833435
0.791026 0.546923 0.815002
0.805759 0.563486 0.800067
0.082049 0.509195 0.854120
0.137696 0.514059 0.854149
0.405067 0.526873 0.854255
0.580974 0.548506 0.854450
0.677628 0.560561 0.848588
0.719687 0.559035 0.835653
0.754302 0.563893 0.819275
0.783354 0.574186 0.804877
0.800035 0.588459 0.792823
0.106867 0.614240 0.845622
0.163193 0.613048 0.844337
0.388941 0.607671 0.839747
0.538510 0.601235 0.832034
0.634378 0.597172 0.820366
0.691125 0.597644 0.808987
0.731024 0.603156 0.798710
0.766002 0.613020 0.789677
0.791241 0.621190 0.781686
0.120902 0.634342 0.806653
0.162541 0.633363 0.805256
0.332329 0.630519 0.800795
0.490802 0.627437 0.794398
0.585753 0.626227 0.787767
0.663900 0.628087 0.781995
0.707255 0.632940 0.777241
0.746241 0.639958 0.773117
0.781201 0.648204 0.769170
0.144920 0.668056 0.782502
0.184636 0.666819 0.781234
0.320883 0.663000 0.777137
0.459824 0.658146 0.771206
0.555928 0.654925 0.765343
0.634386 0.655698 0.761282
0.688270 0.660931 0.759051
0.729465 0.669001 0.758004
0.767137 0.678028 0.756886
0.189542 0.707420 0.772040
0.227777 0.706524 0.770996
0.342867 0.703604 0.767522
0.462061 0.699309 0.762111
0.549601 0.694996 0.754072
0.621191 0.692324 0.746365
0.677105 0.693653 0.742592
0.718375 0.699484 0.743578
0.757395 0.706610 0.745340
0.246779 0.740498 0.765793
0.282340 0.739845 0.765076
0.379111 0.737691 0.762662
0.479037 0.734412 0.758180
0.557326 0.730865 0.751591
0.626292 0.728043 0.745159
0.677527 0.726815 0.739946
0.714003 0.727794 0.736702
0.753329 0.734808 0.739915
0.301553 0.768965 0.758734
0.327667 0.768568 0.758107
0.405710 0.767259 0.755991
0.496393 0.765278 0.752605
0.565475 0.763190 0.748575
0.633135 0.761689 0.744692
0.681909 0.761431 0.741709
0.718843 0.762911 0.740200
0.754730 0.766287 0.740358
0.057575 0.384484 0.876935
0.112637 0.393421 0.876958
0.387356 0.414889 0.877039
0.574030 0.451675 0.877189
0.685409 0.502566 0.877413
0.751788 0.551063 0.877714
0.780895 0.555286 0.862377
0.796148 0.563796 0.849122
0.809463 0.576256 0.837404
0.065692 0.427653 0.876971
0.116976 0.433248 0.876994
0.391274 0.452881 0.877076
0.575556 0.487312 0.877225
0.685950 0.529867 0.877449
0.746232 0.562534 0.874419
0.776157 0.564638 0.859756
0.793915 0.572044 0.847215
0.807780 0.583594 0.835855
0.082049 0.541263 0.877102
0.137696 0.544489 0.877125
0.405067 0.555847 0.877206
0.580974 0.575874 0.877356
0.684790 0.598281 0.875680
0.727059 0.592711 0.862946
0.760885 0.592675 0.851224
0.786571 0.597874 0.840622
0.802186 0.607335 0.829239
0.110659 0.639359 0.874689
0.176828 0.638268 0.873448
0.406726 0.634831 0.869293
0.554240 0.630125 0.862693
0.650465 0.625878 0.854719
0.700221 0.623520 0.846419
0.738584 0.623744 0.837915
0.771628 0.626562 0.828027
0.793499 0.631553 0.817644
0.127459 0.655438 0.846135
0.176727 0.654694 0.845372
0.356832 0.652399 0.842759
0.510424 0.649435 0.838310
0.603769 0.647157 0.832615
0.673624 0.646631 0.824832
0.715184 0.648280 0.817470
0.751944 0.651966 0.810677
0.783594 0.657233 0.804352
0.149321 0.680332 0.821206
0.192860 0.679573 0.820244
0.334885 0.677228 0.817083
0.476415 0.674232 0.812294
0.570297 0.672121 0.807003
0.648878 0.672166 0.802200
0.695744 0.674783 0.798279
0.734698 0.679531 0.795034
0.770188 0.685588 0.792006
0.188849 0.709954 0.804584
0.227452 0.709342 0.803755
0.344535 0.707369 0.800992
0.466562 0.704564 0.796696
0.555762 0.702020 0.791851
0.630239 0.700985 0.787616
0.683244 0.702360 0.784842
0.722658 0.706038 0.783477
0.759550 0.710965 0.782630
0.241670 0.739898 0.795647
0.276805 0.739396 0.795025
0.374052 0.737742 0.792925
0.476397 0.735243 0.789550
0.556712 0.732614 0.785503
0.627127 0.730736 0.781552
0.679107 0.730517 0.778500
0.717144 0.732886 0.777164
0.754231 0.737589 0.777347
0.296692 0.767872 0.788478
0.322536 0.767556 0.788083
0.401849 0.766516 0.786746
0.492477 0.764954 0.784586
0.563306 0.763347 0.781981
0.631576 0.762298 0.779426
0.681256 0.762392 0.777410
0.718422 0.764104 0.776335
0.754612 0.767753 0.776475
