negative-superia-reala/SuperiaReala_Classic_Punchy.cube
TITLE "Fuji Superia Reala Classic Punchy"
# Adobe RGB in/out. REPLACES AgX. Fuji Superia Reala Classic Punchy.
LUT_3D_SIZE 33
DOMAIN_MIN 0.0 0.0 0.0
DOMAIN_MAX 1.0 1.0 1.0
0.071271 0.083381 0.080583
0.075471 0.084316 0.081115
0.076866 0.084533 0.081314
0.084847 0.085410 0.081847
0.102682 0.086981 0.082436
0.111194 0.087709 0.082798
0.134075 0.089327 0.083482
0.170469 0.091727 0.084720
0.193534 0.092785 0.085270
0.232952 0.094523 0.085995
0.296004 0.096870 0.087083
0.343863 0.099329 0.088130
0.391116 0.101744 0.088948
0.451348 0.104703 0.089944
0.522900 0.109453 0.091175
0.567032 0.112226 0.092233
0.609815 0.115068 0.093491
0.653282 0.118443 0.095038
0.685723 0.122401 0.097294
0.715039 0.124561 0.098959
0.741778 0.127330 0.100936
0.761463 0.130434 0.103256
0.777601 0.132628 0.105882
0.793663 0.132047 0.108750
0.806081 0.131488 0.112468
0.817317 0.129491 0.118220
0.831548 0.120228 0.127880
0.839157 0.114036 0.175540
0.853383 0.083621 0.419964
0.853382 0.083455 0.419933
0.853382 0.083431 0.419931
0.853382 0.083446 0.419930
0.859273 0.122498 0.540910
0.072189 0.086406 0.081012
0.076171 0.085826 0.081286
0.080298 0.085002 0.081235
0.088410 0.085820 0.081938
0.106831 0.087454 0.082571
0.114124 0.087998 0.082881
0.137270 0.089769 0.083613
0.172823 0.092061 0.084814
0.195205 0.093115 0.085338
0.233879 0.094784 0.086045
0.296093 0.097084 0.087150
0.343442 0.099744 0.088182
0.390323 0.102102 0.088990
0.450326 0.105029 0.089980
0.522054 0.109833 0.091204
0.566185 0.112571 0.092279
0.609017 0.115433 0.093530
0.652764 0.118784 0.095081
0.685298 0.122725 0.097330
0.714665 0.125016 0.098998
0.741463 0.127767 0.100968
0.761291 0.130857 0.103281
0.777464 0.133042 0.105905
0.793551 0.132454 0.108758
0.805996 0.131889 0.112451
0.817253 0.129890 0.118142
0.831496 0.120508 0.127558
0.839128 0.114317 0.173604
0.853383 0.083623 0.419965
0.853382 0.083456 0.419933
0.853382 0.083431 0.419931
0.853382 0.083450 0.419930
0.859273 0.122498 0.540910
0.072385 0.087386 0.081188
0.073486 0.087234 0.081534
0.077812 0.086767 0.081577
0.088464 0.087642 0.082259
0.109088 0.089192 0.082864
0.121465 0.089497 0.083087
0.147089 0.091378 0.084041
0.184037 0.093622 0.085174
0.202881 0.094384 0.085593
0.238492 0.095772 0.086230
0.297284 0.098571 0.087394
0.342446 0.101298 0.088373
0.387763 0.103432 0.089147
0.446762 0.106567 0.090110
0.519003 0.111237 0.091313
0.563091 0.114036 0.092446
0.606082 0.116775 0.093673
0.650850 0.120033 0.095238
0.683727 0.124050 0.097464
0.713281 0.126685 0.099142
0.740299 0.129364 0.101087
0.760657 0.132402 0.103373
0.776954 0.134554 0.105990
0.793136 0.133942 0.108789
0.805681 0.133352 0.112397
0.817016 0.131347 0.117882
0.831306 0.121529 0.126475
0.839019 0.115343 0.166972
0.853383 0.083630 0.419968
0.853382 0.083460 0.419934
0.853382 0.083433 0.419932
0.853382 0.083464 0.419930
0.859273 0.122499 0.540909
0.073317 0.092291 0.081895
0.074467 0.092099 0.082100
0.078191 0.091488 0.082383
0.085218 0.090806 0.082597
0.102590 0.092998 0.083300
0.115251 0.092393 0.083556
0.144956 0.094003 0.084586
0.185787 0.096031 0.085628
0.209767 0.096428 0.085979
0.245424 0.097775 0.086549
0.302554 0.102250 0.087862
0.343277 0.104436 0.088742
0.384632 0.106418 0.089447
0.440895 0.109604 0.090357
0.512407 0.114199 0.091520
0.557215 0.116886 0.092763
0.600400 0.119368 0.093945
0.645748 0.122437 0.095536
0.680637 0.127444 0.097718
0.710553 0.129893 0.099417
0.738005 0.132425 0.101315
0.759408 0.135356 0.103553
0.775953 0.137557 0.106164
0.792322 0.136790 0.108869
0.805064 0.136141 0.112330
0.816550 0.134125 0.117476
0.830932 0.123472 0.124759
0.838802 0.117300 0.156605
0.853383 0.083644 0.419973
0.853382 0.083467 0.419934
0.853382 0.083436 0.419932
0.853382 0.083496 0.419931
0.859273 0.122500 0.540909
0.075049 0.103156 0.082767
0.075950 0.102614 0.082923
0.079563 0.101248 0.083135
0.086806 0.099451 0.083535
0.097769 0.098059 0.084188
0.108673 0.096390 0.084347
0.133815 0.097639 0.085160
0.173777 0.101052 0.086124
0.202063 0.100956 0.086432
0.242554 0.102668 0.087016
0.302589 0.107277 0.088512
0.341396 0.109421 0.089274
0.380783 0.111233 0.089891
0.434221 0.114554 0.090737
0.502335 0.119484 0.092107
0.548239 0.121573 0.093264
0.591286 0.123584 0.094372
0.637326 0.127644 0.096004
0.675470 0.132936 0.098199
0.705985 0.135051 0.099854
0.734164 0.137420 0.101681
0.757320 0.140791 0.103847
0.774283 0.143419 0.106463
0.790965 0.142422 0.109042
0.804038 0.141462 0.112305
0.815775 0.138826 0.117029
0.830307 0.128007 0.122774
0.838430 0.120412 0.144537
0.853384 0.083683 0.419983
0.853382 0.083477 0.419935
0.853382 0.083442 0.419933
0.853384 0.083661 0.419931
0.859273 0.122500 0.540908
0.075853 0.110770 0.083150
0.076491 0.110227 0.083278
0.079169 0.108994 0.083503
0.084866 0.107135 0.084158
0.091934 0.105053 0.084534
0.104038 0.103944 0.085096
0.123732 0.106058 0.085823
0.159617 0.109854 0.086736
0.186577 0.108237 0.086952
0.228357 0.109563 0.087765
0.289934 0.114234 0.089169
0.333811 0.116160 0.089883
0.374611 0.117691 0.090455
0.426471 0.120547 0.091224
0.492055 0.125570 0.092837
0.538505 0.128692 0.093909
0.579838 0.131874 0.095014
0.624794 0.136376 0.096681
0.667301 0.142414 0.098944
0.698728 0.144468 0.100495
0.728039 0.146921 0.102225
0.753993 0.150185 0.104294
0.771629 0.152570 0.106944
0.788811 0.151381 0.109372
0.802415 0.150235 0.112405
0.814546 0.147464 0.116702
0.829307 0.134877 0.121233
0.837820 0.125700 0.134889
0.853385 0.083749 0.420004
0.853382 0.083494 0.419938
0.853382 0.083458 0.419934
0.859270 0.122482 0.419931
0.859273 0.122500 0.540908
0.077688 0.128677 0.084406
0.078228 0.127917 0.084533
0.080755 0.126193 0.084927
0.085815 0.123473 0.085326
0.092757 0.121264 0.085756
0.103813 0.119142 0.086128
0.118136 0.117589 0.086552
0.148893 0.121420 0.087762
0.172465 0.118426 0.087969
0.210285 0.118868 0.088638
0.271660 0.123356 0.089931
0.318601 0.125013 0.090574
0.360446 0.125777 0.091027
0.414093 0.129274 0.091914
0.480580 0.135723 0.093718
0.528992 0.139066 0.094729
0.568920 0.141619 0.095903
0.614030 0.146500 0.097441
0.659215 0.153786 0.099822
0.690116 0.156709 0.101306
0.719241 0.160280 0.102973
0.747108 0.164009 0.104949
0.767399 0.165941 0.107685
0.785376 0.164442 0.109952
0.799838 0.162997 0.112742
0.812593 0.160157 0.116693
0.827688 0.147283 0.120360
0.836805 0.135753 0.129528
0.853388 0.083855 0.420053
0.853382 0.083532 0.419944
0.853382 0.083481 0.419937
0.859273 0.122499 0.419933
0.859273 0.122500 0.540908
0.079872 0.161331 0.085744
0.080395 0.160426 0.085826
0.083143 0.158526 0.086153
0.087492 0.154892 0.086519
0.094506 0.150402 0.086877
0.104943 0.146011 0.087602
0.118950 0.141863 0.088179
0.140714 0.138808 0.088807
0.161022 0.132496 0.088932
0.194464 0.132041 0.089534
0.252172 0.138359 0.090733
0.298566 0.138886 0.091282
0.341755 0.138628 0.091803
0.396720 0.142264 0.092985
0.465450 0.150166 0.094664
0.517471 0.152837 0.095797
0.556909 0.155437 0.096912
0.601229 0.160750 0.098546
0.649605 0.167846 0.100911
0.681612 0.169466 0.102252
0.711966 0.172055 0.103798
0.740564 0.176045 0.105905
0.762926 0.179752 0.108619
0.780815 0.180458 0.110807
0.795572 0.181620 0.113461
0.809360 0.178722 0.117242
0.824909 0.167471 0.120550
0.835013 0.155243 0.126862
0.853399 0.084265 0.420225
0.853383 0.083621 0.419963
0.853382 0.083531 0.419945
0.859273 0.122500 0.419936
0.859273 0.122500 0.540908
0.080935 0.179060 0.086299
0.081348 0.178285 0.086358
0.083604 0.176301 0.086587
0.087329 0.173353 0.086977
0.092928 0.169402 0.087583
0.101993 0.164907 0.088158
0.113303 0.160720 0.088775
0.129774 0.156844 0.089301
0.152638 0.153883 0.089848
0.181625 0.152130 0.090389
0.234690 0.160075 0.091554
0.279094 0.159229 0.092404
0.321965 0.157590 0.093043
0.375502 0.160125 0.094097
0.445372 0.167494 0.095978
0.499240 0.169198 0.097014
0.543978 0.171178 0.098077
0.588747 0.175781 0.099839
0.637280 0.182599 0.102099
0.671668 0.184828 0.103369
0.701705 0.189107 0.104855
0.732134 0.192733 0.107172
0.758363 0.196375 0.109719
0.777200 0.196213 0.111734
0.792833 0.196948 0.114381
0.806510 0.197422 0.118050
0.821566 0.190742 0.121507
0.831907 0.184597 0.127266
0.853717 0.088120 0.422184
0.853394 0.084110 0.420161
0.853384 0.083721 0.419998
0.859273 0.122500 0.419952
0.859273 0.122500 0.540908
0.082814 0.210399 0.087181
0.083255 0.209481 0.087261
0.084974 0.206876 0.087568
0.088127 0.203460 0.088089
0.093315 0.198523 0.088638
0.101615 0.192840 0.089173
0.111616 0.187017 0.089719
0.125455 0.182428 0.090236
0.146740 0.178733 0.090731
0.172351 0.175860 0.091223
0.219511 0.183716 0.092949
0.261859 0.181762 0.093751
0.302711 0.178563 0.094263
0.354130 0.180017 0.095403
0.423154 0.187437 0.097365
0.477783 0.188331 0.098417
0.528869 0.189600 0.099597
0.574697 0.194530 0.101239
0.624373 0.203793 0.103431
0.661920 0.206131 0.104601
0.692911 0.208598 0.106235
0.723135 0.213949 0.108581
0.752284 0.219690 0.111068
0.771814 0.219756 0.112943
0.788800 0.219144 0.115638
0.803559 0.218613 0.119023
0.819397 0.211195 0.122103
0.830442 0.203911 0.127138
0.842149 0.187050 0.133961
0.850502 0.169896 0.163536
0.856571 0.123238 0.382988
0.859273 0.122501 0.422853
0.859273 0.122500 0.540908
0.085585 0.262076 0.088999
0.085942 0.261178 0.089058
0.087308 0.258457 0.089283
0.090200 0.255379 0.089728
0.096291 0.250200 0.090206
0.103589 0.243989 0.090710
0.113556 0.237521 0.091218
0.127918 0.231103 0.091851
0.148578 0.225197 0.092677
0.173953 0.220161 0.093516
0.207249 0.216365 0.094357
0.246671 0.212028 0.095127
0.285819 0.206162 0.095737
0.334907 0.206750 0.096893
0.400871 0.215549 0.099049
0.455169 0.214916 0.100130
0.510430 0.214709 0.101161
0.558995 0.218908 0.102694
0.610641 0.228286 0.104833
0.651854 0.229225 0.106177
0.682859 0.232318 0.107923
0.713474 0.238138 0.110169
0.744362 0.242140 0.112465
0.766790 0.242602 0.114413
0.783930 0.244793 0.117168
0.799028 0.247633 0.120402
0.816057 0.239232 0.123286
0.828197 0.230712 0.127659
0.840552 0.213467 0.132965
0.849586 0.190378 0.149100
0.856346 0.132737 0.326960
0.859273 0.122501 0.431869
0.859273 0.122502 0.435113
0.087182 0.298997 0.090037
0.087477 0.298134 0.090084
0.088591 0.295406 0.090262
0.091350 0.292040 0.090624
0.096845 0.286911 0.091039
0.103623 0.281067 0.091510
0.112918 0.274690 0.092398
0.125113 0.267886 0.093214
0.144302 0.261339 0.094016
0.166906 0.255455 0.094805
0.196530 0.250365 0.095789
0.234269 0.246587 0.096806
0.270800 0.238289 0.097266
0.317905 0.238252 0.098562
0.380088 0.246622 0.100875
0.432610 0.244277 0.101832
0.487665 0.243007 0.102812
0.542421 0.246500 0.104264
0.595129 0.255207 0.106661
0.637370 0.255311 0.108021
0.672688 0.258615 0.109734
0.704302 0.262990 0.111810
0.735139 0.268557 0.114181
0.760627 0.270153 0.116313
0.779217 0.270491 0.118845
0.795550 0.271933 0.121857
0.812560 0.267864 0.124849
0.825017 0.264577 0.128899
0.837862 0.251524 0.133562
0.847987 0.227101 0.142980
0.855813 0.158059 0.241474
0.859273 0.122504 0.431914
0.859273 0.122505 0.438183
0.088414 0.336008 0.090832
0.088662 0.335143 0.090872
0.089592 0.332332 0.091020
0.092449 0.328447 0.091317
0.097511 0.323471 0.091857
0.103670 0.317193 0.092643
0.111779 0.309841 0.093439
0.122824 0.302234 0.094247
0.139953 0.295141 0.095091
0.159789 0.288428 0.096040
0.185899 0.282700 0.096978
0.219059 0.277659 0.097890
0.258410 0.273895 0.099104
0.302694 0.272441 0.100407
0.361434 0.280959 0.102720
0.412227 0.277263 0.103590
0.465454 0.274528 0.104451
0.525497 0.277252 0.106144
0.578969 0.285390 0.108825
0.621764 0.284318 0.109984
0.661913 0.286321 0.111519
0.694510 0.291131 0.113578
0.725906 0.297587 0.116331
0.755044 0.297293 0.118231
0.773761 0.299959 0.120714
0.790526 0.304202 0.123902
0.808856 0.297896 0.126636
0.822462 0.292768 0.130232
0.835682 0.283205 0.134478
0.845912 0.269539 0.142432
0.853681 0.247247 0.164335
0.859273 0.122540 0.431971
0.859274 0.122523 0.442620
0.089910 0.384621 0.092010
0.090209 0.383805 0.092072
0.091376 0.381096 0.092302
0.094413 0.377072 0.092757
0.099244 0.372707 0.093445
0.104625 0.366132 0.094149
0.112289 0.358645 0.094926
0.122829 0.350824 0.095914
0.138780 0.342921 0.096887
0.156819 0.334963 0.097793
0.180842 0.327579 0.098898
0.212083 0.321145 0.100052
0.248886 0.315440 0.101131
0.289979 0.311121 0.102283
0.345420 0.320122 0.104487
0.393642 0.314908 0.105441
0.445169 0.309919 0.106505
0.506109 0.311533 0.108275
0.562198 0.320263 0.110900
0.605723 0.318392 0.112052
0.650809 0.319508 0.113478
0.684464 0.324515 0.115875
0.716864 0.330291 0.118476
0.747273 0.331251 0.120332
0.768091 0.334588 0.122756
0.786190 0.337040 0.126003
0.804637 0.334144 0.128668
0.818643 0.332876 0.132066
0.833101 0.320744 0.135746
0.844340 0.303509 0.142440
0.853079 0.278657 0.156749
0.857795 0.245361 0.237683
0.861147 0.203414 0.446797
0.092958 0.440963 0.094143
0.093317 0.440315 0.094198
0.094648 0.438126 0.094400
0.097298 0.434705 0.094817
0.101844 0.431229 0.095659
0.106794 0.425470 0.096470
0.114445 0.419315 0.097406
0.124799 0.412197 0.098448
0.140723 0.404983 0.099655
0.158616 0.397615 0.100806
0.182387 0.389680 0.101961
0.212500 0.382027 0.103022
0.248542 0.375228 0.104121
0.288165 0.369417 0.105189
0.331885 0.364795 0.106698
0.376579 0.357653 0.107738
0.426621 0.351708 0.108808
0.485753 0.352340 0.110515
0.546014 0.360358 0.113029
0.589342 0.357067 0.114206
0.635093 0.357422 0.115961
0.674131 0.361951 0.118299
0.707423 0.367044 0.120753
0.737988 0.368468 0.122544
0.762598 0.370531 0.125166
0.780973 0.375426 0.128375
0.800214 0.372793 0.130866
0.815574 0.369268 0.133940
0.830234 0.362717 0.137411
0.841897 0.352706 0.144147
0.852084 0.325106 0.154359
0.857289 0.284672 0.193088
0.861115 0.213985 0.438084
0.095065 0.480126 0.095645
0.095383 0.479656 0.095706
0.096557 0.478046 0.095932
0.098867 0.475427 0.096370
0.102746 0.471597 0.097087
0.107782 0.466464 0.097903
0.115322 0.460774 0.099099
0.124507 0.453369 0.100137
0.139262 0.445970 0.101262
0.155979 0.438729 0.102445
0.177641 0.431135 0.103495
0.204695 0.424090 0.104559
0.238679 0.417685 0.105806
0.276290 0.411770 0.107225
0.317120 0.406925 0.108614
0.362156 0.403003 0.110066
0.409577 0.396516 0.111028
0.466958 0.396272 0.112717
0.530641 0.403112 0.115636
0.573760 0.399321 0.116873
0.619175 0.398285 0.118452
0.663215 0.401627 0.120739
0.697662 0.405685 0.123241
0.728912 0.405994 0.125200
0.756794 0.408316 0.127736
0.775878 0.412763 0.130829
0.795740 0.410518 0.133135
0.811518 0.410521 0.136153
0.827241 0.404825 0.140224
0.840016 0.393714 0.146128
0.850946 0.375405 0.154863
0.856323 0.350668 0.176777
0.860843 0.257756 0.382544
0.097032 0.511793 0.097210
0.097316 0.511358 0.097263
0.098361 0.509854 0.097459
0.100399 0.507339 0.097842
0.103764 0.504248 0.098625
0.109006 0.500710 0.099633
0.115327 0.495912 0.100641
0.124293 0.490697 0.101717
0.138261 0.485045 0.102806
0.153810 0.479180 0.103898
0.173747 0.472777 0.104987
0.198716 0.465330 0.106363
0.230415 0.458244 0.107733
0.265296 0.452063 0.109145
0.304254 0.446328 0.110504
0.346824 0.441556 0.111850
0.394989 0.437830 0.113256
0.449747 0.436837 0.115229
0.516078 0.442915 0.118320
0.558612 0.438095 0.119465
0.603939 0.436459 0.121027
0.652119 0.438948 0.123355
0.687543 0.442730 0.126127
0.719546 0.442297 0.127951
0.750447 0.444841 0.130413
0.770875 0.448556 0.133338
0.790799 0.448051 0.135581
0.807628 0.447342 0.138731
0.824089 0.443570 0.143497
0.837335 0.437456 0.149023
0.849302 0.421049 0.156177
0.855770 0.396472 0.170827
0.860153 0.356270 0.264420
0.099328 0.547784 0.099358
0.099585 0.547389 0.099418
0.100528 0.546014 0.099638
0.102352 0.543662 0.100063
0.105324 0.540625 0.100747
0.111023 0.537506 0.101757
0.116741 0.532662 0.102623
0.126012 0.527879 0.103724
0.139134 0.522339 0.104764
0.153609 0.516452 0.106039
0.172633 0.510643 0.107510
0.196472 0.504773 0.108924
0.226621 0.499200 0.110348
0.259741 0.493857 0.111641
0.297088 0.489165 0.113029
0.337580 0.484933 0.114558
0.383356 0.481278 0.116200
0.434701 0.478526 0.117940
0.498421 0.482829 0.120997
0.544588 0.478473 0.122080
0.589196 0.476329 0.123761
0.637764 0.477882 0.126329
0.677265 0.480398 0.129053
0.709860 0.479539 0.130772
0.741826 0.481453 0.133166
0.765716 0.484124 0.135970
0.786056 0.483979 0.138285
0.803538 0.483862 0.142481
0.820422 0.483142 0.147169
0.835060 0.476896 0.152051
0.847518 0.465851 0.158520
0.854857 0.449547 0.169933
0.859783 0.410136 0.217887
0.102023 0.588030 0.102070
0.102258 0.587683 0.102124
0.103119 0.586465 0.102322
0.104773 0.584349 0.102701
0.107950 0.581517 0.103308
0.113174 0.578427 0.104212
0.119438 0.574210 0.105088
0.128927 0.569551 0.106502
0.141200 0.564363 0.107892
0.155687 0.558900 0.109358
0.174649 0.552998 0.110753
0.198034 0.547254 0.112213
0.226672 0.541497 0.113589
0.259118 0.536090 0.115286
0.295043 0.530891 0.116909
0.335196 0.526420 0.118654
0.378907 0.522509 0.120308
0.428514 0.518924 0.121905
0.482660 0.516399 0.123879
0.531471 0.511566 0.125079
0.575467 0.509125 0.126801
0.623475 0.509908 0.129312
0.666932 0.511965 0.131969
0.700177 0.510732 0.133625
0.732845 0.511956 0.135912
0.760442 0.514648 0.139201
0.781355 0.514297 0.142334
0.799281 0.515296 0.146478
0.817230 0.513918 0.150774
0.832315 0.510433 0.155521
0.845643 0.503400 0.161455
0.854221 0.489134 0.170539
0.859316 0.465978 0.199510
0.103580 0.616129 0.103725
0.103796 0.615900 0.103773
0.104582 0.615092 0.103951
0.106212 0.613664 0.104291
0.109310 0.611688 0.104834
0.113971 0.609376 0.105837
0.120595 0.606630 0.107083
0.128985 0.602968 0.108323
0.141352 0.597927 0.109742
0.155067 0.592460 0.111169
0.172127 0.586597 0.112491
0.193711 0.580747 0.113967
0.220726 0.574947 0.115698
0.251752 0.569346 0.117380
0.286178 0.564105 0.119049
0.324072 0.559089 0.120644
0.365373 0.554907 0.122322
0.413006 0.551267 0.124250
0.464373 0.547951 0.126114
0.519627 0.545629 0.128137
0.562546 0.542439 0.129774
0.609911 0.543011 0.132279
0.656914 0.544491 0.134922
0.690565 0.542905 0.136480
0.724000 0.543685 0.139272
0.754974 0.545887 0.143507
0.776479 0.545575 0.146509
0.795089 0.546896 0.150568
0.813674 0.546201 0.154652
0.829409 0.544097 0.159162
0.843803 0.537578 0.164599
0.853348 0.527886 0.172829
0.858922 0.507142 0.191946
0.105224 0.639928 0.105615
0.105423 0.639721 0.105676
0.106289 0.638984 0.105897
0.108066 0.637668 0.106321
0.110900 0.635803 0.106996
0.115217 0.633520 0.107992
0.122245 0.630979 0.109298
0.130101 0.627679 0.110395
0.142719 0.624284 0.111861
0.154443 0.620433 0.113088
0.171480 0.616505 0.114716
0.192591 0.612431 0.116453
0.217731 0.608348 0.118142
0.247086 0.604294 0.119759
0.279999 0.599136 0.121437
0.316365 0.594071 0.123183
0.355474 0.589434 0.125058
0.400493 0.585411 0.126982
0.450685 0.582047 0.128926
0.503980 0.579039 0.130774
0.550789 0.576905 0.132742
0.597125 0.576453 0.135176
0.645835 0.577694 0.137808
0.681188 0.575961 0.140286
0.715024 0.576189 0.143718
0.748373 0.578124 0.147944
0.771583 0.577745 0.150799
0.791024 0.578706 0.154673
0.810001 0.579114 0.158701
0.826651 0.577091 0.162812
0.841668 0.573227 0.168317
0.852579 0.563792 0.175453
0.858494 0.546972 0.189837
0.107497 0.664071 0.108328
0.107735 0.663891 0.108384
0.108602 0.663251 0.108588
0.110253 0.662096 0.108980
0.112869 0.660432 0.109600
0.117206 0.658331 0.110513
0.124088 0.655966 0.111807
0.132396 0.653003 0.112879
0.143496 0.649726 0.114353
0.155691 0.646186 0.115996
0.172653 0.642366 0.117715
0.191570 0.638522 0.119351
0.216173 0.634594 0.121058
0.245037 0.630608 0.122775
0.276676 0.626731 0.124669
0.311546 0.623246 0.126678
0.349492 0.619934 0.128572
0.392675 0.616950 0.130471
0.440679 0.614263 0.132355
0.493398 0.612125 0.134291
0.540797 0.610262 0.136149
0.585311 0.608896 0.138257
0.633269 0.609183 0.142320
0.671980 0.607898 0.144688
0.706149 0.607767 0.148147
0.740113 0.608844 0.152384
0.766667 0.608681 0.155160
0.786939 0.609233 0.158941
0.806464 0.609756 0.162841
0.823757 0.608912 0.166950
0.839625 0.606831 0.172120
0.851742 0.600743 0.178647
0.858031 0.587235 0.190282
0.109766 0.688483 0.110963
0.109989 0.688324 0.111015
0.110802 0.687756 0.111205
0.112346 0.686722 0.111568
0.114805 0.685209 0.112143
0.119206 0.683246 0.112985
0.125777 0.680926 0.114344
0.134991 0.678240 0.115826
0.144909 0.675132 0.117305
0.157835 0.671790 0.119084
0.172811 0.668123 0.120598
0.192316 0.664391 0.122299
0.216771 0.660647 0.124380
0.243473 0.656819 0.126288
0.273796 0.653009 0.128172
0.307450 0.649442 0.130113
0.344515 0.646165 0.132090
0.386310 0.643123 0.134008
0.432875 0.640374 0.135889
0.483659 0.637912 0.137773
0.532940 0.636025 0.140793
0.575996 0.634449 0.143807
0.621481 0.633273 0.146837
0.663193 0.631844 0.149133
0.697504 0.631405 0.152530
0.731822 0.632092 0.156776
0.761617 0.631994 0.159485
0.782724 0.632408 0.163189
0.803166 0.633024 0.167309
0.820928 0.632804 0.171311
0.837606 0.631185 0.176005
0.850716 0.627699 0.182262
0.857700 0.618703 0.191731
0.111275 0.712647 0.112906
0.111485 0.712497 0.112954
0.112248 0.711960 0.113128
0.113694 0.710972 0.113460
0.116272 0.709503 0.114105
0.120363 0.707543 0.115076
0.126697 0.705121 0.116451
0.136591 0.702368 0.118075
0.145505 0.699340 0.119404
0.157950 0.695952 0.121152
0.172438 0.692395 0.122715
0.191931 0.688545 0.124761
0.213228 0.684891 0.126668
0.240139 0.681125 0.128699
0.270320 0.677314 0.130677
0.302060 0.673700 0.132518
0.337342 0.670368 0.134461
0.377137 0.667261 0.136360
0.422264 0.664466 0.138565
0.471326 0.661962 0.141496
0.522675 0.659819 0.144473
0.564760 0.658136 0.147430
0.609377 0.656880 0.150486
0.654892 0.655985 0.153556
0.689184 0.655144 0.156921
0.723697 0.655439 0.161131
0.756533 0.655413 0.163790
0.778378 0.655603 0.167710
0.799706 0.656230 0.171660
0.818273 0.656464 0.175830
0.835611 0.655539 0.180130
0.849502 0.652601 0.185683
0.857344 0.645686 0.194138
0.113024 0.734810 0.115440
0.113221 0.734681 0.115496
0.113938 0.734216 0.115699
0.115444 0.733356 0.116087
0.118071 0.732062 0.116702
0.121884 0.730302 0.117603
0.128214 0.728063 0.118879
0.138833 0.725365 0.120661
0.146952 0.722629 0.121872
0.158117 0.719465 0.123644
0.173589 0.716054 0.125674
0.190653 0.712471 0.127521
0.212741 0.708805 0.129531
0.238827 0.705143 0.131582
0.266303 0.701576 0.133469
0.297794 0.698030 0.135403
0.332651 0.694627 0.137338
0.371255 0.691449 0.140165
0.414709 0.688599 0.143134
0.462159 0.686074 0.146152
0.513479 0.683872 0.149101
0.555451 0.682054 0.152071
0.598748 0.680549 0.155017
0.644737 0.679583 0.158140
0.681265 0.678932 0.161270
0.715724 0.678755 0.165617
0.751380 0.678992 0.168323
0.773910 0.678822 0.172114
0.796195 0.679477 0.176058
0.815729 0.679789 0.179939
0.833773 0.679633 0.184370
0.848400 0.677532 0.189367
0.856993 0.671914 0.196935
0.114847 0.756175 0.118171
0.115076 0.756067 0.118224
0.115909 0.755674 0.118416
0.117484 0.754943 0.118782
0.119950 0.753828 0.119362
0.123516 0.752286 0.120212
0.129979 0.750272 0.121415
0.139821 0.747750 0.123222
0.148910 0.745175 0.124923
0.159201 0.742337 0.126652
0.175738 0.739030 0.128923
0.191112 0.735827 0.130611
0.214076 0.732179 0.132743
0.237067 0.728842 0.134605
0.265360 0.725323 0.136656
0.295738 0.721909 0.139079
0.328426 0.718712 0.142129
0.365334 0.715602 0.145214
0.407790 0.712690 0.148260
0.454072 0.710112 0.151305
0.504154 0.707861 0.154344
0.547679 0.705969 0.157367
0.590111 0.704393 0.160351
0.634652 0.703137 0.163332
0.673367 0.702447 0.166753
0.708055 0.702038 0.170172
0.744235 0.702645 0.172790
0.769574 0.702233 0.176586
0.792620 0.702786 0.180294
0.813235 0.703130 0.184160
0.831990 0.703347 0.188416
0.847401 0.702225 0.193171
0.856887 0.697637 0.200025
0.115903 0.782002 0.119891
0.116117 0.781899 0.119939
0.116891 0.781526 0.120114
0.118358 0.780822 0.120448
0.120658 0.779726 0.120984
0.123994 0.778159 0.121779
0.130236 0.776023 0.123015
0.139563 0.773194 0.124966
0.149922 0.770158 0.127033
0.159290 0.767383 0.128622
0.174132 0.764012 0.130727
0.190903 0.760620 0.132719
0.210933 0.757105 0.134661
0.235305 0.753505 0.136688
0.262162 0.749917 0.139257
0.290828 0.746576 0.142323
0.323932 0.743242 0.145522
0.359608 0.740123 0.148615
0.399830 0.737259 0.151648
0.444521 0.734643 0.154686
0.493390 0.732352 0.157718
0.538967 0.730400 0.160747
0.581108 0.728812 0.163804
0.625425 0.727591 0.167017
