negative-superia-reala/SuperiaReala_Modern_ExtraPunchy.cube
TITLE "Fuji Superia Reala Modern ExtraPunchy"
# Adobe RGB in/out. REPLACES AgX. Fuji Superia Reala Modern ExtraPunchy.
LUT_3D_SIZE 9
DOMAIN_MIN 0.0 0.0 0.0
DOMAIN_MAX 1.0 1.0 1.0
0.069662 0.073299 0.081842
0.094405 0.076635 0.078464
0.352375 0.090899 0.080140
0.644373 0.112983 0.083089
0.784182 0.147746 0.088512
0.849127 0.173817 0.097771
0.875937 0.173100 0.116400
0.893780 0.073299 0.585723
0.888532 0.137733 0.677396
0.068062 0.110421 0.078530
0.076932 0.091612 0.078777
0.285832 0.101669 0.080240
0.595318 0.129123 0.083184
0.755455 0.165707 0.088488
0.839252 0.190498 0.097437
0.870689 0.188909 0.114039
0.890933 0.073299 0.578953
0.886503 0.136259 0.672866
0.071633 0.368698 0.080999
0.079166 0.286194 0.081281
0.148903 0.183040 0.081394
0.434704 0.192953 0.084078
0.672838 0.233728 0.089353
0.791435 0.273919 0.097947
0.851880 0.282233 0.112086
0.882181 0.076773 0.560014
0.879885 0.131522 0.658240
0.076259 0.601429 0.086051
0.083714 0.559897 0.086521
0.141331 0.449276 0.087032
0.313093 0.361936 0.087700
0.565118 0.354084 0.092016
0.723536 0.383555 0.100202
0.815917 0.406478 0.113810
0.858689 0.378228 0.132754
0.870000 0.125576 0.541235
0.082671 0.725943 0.093063
0.089318 0.704906 0.093857
0.140027 0.650623 0.095945
0.283181 0.580839 0.097364
0.481646 0.529572 0.099458
0.655715 0.512931 0.107028
0.774149 0.528315 0.119316
0.838829 0.527278 0.134531
0.859957 0.428941 0.309224
0.089122 0.802468 0.103142
0.095471 0.791906 0.104169
0.142784 0.761488 0.108345
0.262364 0.717142 0.111628
0.435610 0.673138 0.114663
0.603954 0.643912 0.119538
0.724840 0.631718 0.128045
0.810654 0.635042 0.142453
0.849011 0.601322 0.174618
0.094607 0.850133 0.113460
0.100642 0.845253 0.114334
0.141065 0.829401 0.119468
0.242059 0.801285 0.125134
0.396930 0.770554 0.130126
0.569176 0.745947 0.135154
0.691630 0.727301 0.142701
0.787485 0.717288 0.153216
0.839742 0.707129 0.173381
0.096447 0.883564 0.116805
0.100098 0.881308 0.117312
0.136199 0.869339 0.124998
0.217944 0.852167 0.132845
0.357825 0.833627 0.141415
0.525968 0.815478 0.149549
0.661108 0.799911 0.157283
0.770817 0.791586 0.165881
0.831260 0.784866 0.180758
0.087988 0.877273 0.108244
0.087786 0.876127 0.107930
0.151835 0.880150 0.106919
0.147914 0.876434 0.124007
0.296851 0.868921 0.136504
0.466990 0.856426 0.149445
0.617401 0.847322 0.159299
0.737757 0.842668 0.167432
0.830568 0.842541 0.174443
0.067538 0.077605 0.100476
0.082804 0.083520 0.288067
0.278682 0.100523 0.134159
0.634023 0.126149 0.120889
0.781566 0.157343 0.113121
0.846648 0.178591 0.117552
0.873676 0.176142 0.138126
0.892254 0.073299 0.582098
0.887480 0.136969 0.675047
0.069785 0.105720 0.091235
0.080590 0.093303 0.087203
0.243216 0.110889 0.097353
0.577003 0.146161 0.108540
0.752562 0.175583 0.109967
0.835808 0.196692 0.115469
0.868492 0.192725 0.132838
0.889413 0.073299 0.575382
0.885459 0.135503 0.670544
0.076202 0.340744 0.104820
0.085936 0.264658 0.097518
0.162028 0.179008 0.091309
0.444271 0.202838 0.097752
0.669150 0.245632 0.105697
0.790272 0.280260 0.113728
0.850277 0.285434 0.127511
0.880770 0.078083 0.557525
0.878874 0.130810 0.656023
0.083373 0.583401 0.112140
0.092949 0.545824 0.109787
0.159429 0.439049 0.103903
0.331930 0.359302 0.101083
0.571688 0.359030 0.106287
0.723462 0.388571 0.114772
0.815069 0.408456 0.127734
0.857431 0.379192 0.148745
0.869060 0.125042 0.634764
0.089000 0.715438 0.115319
0.097575 0.695937 0.115613
0.155396 0.644493 0.115740
0.300103 0.576813 0.114707
0.494163 0.528971 0.116095
0.659169 0.514545 0.120868
0.774661 0.529945 0.132169
0.837888 0.527351 0.148998
0.859114 0.429925 0.355410
0.094534 0.796864 0.120946
0.102416 0.786806 0.121863
0.153365 0.757519 0.125658
0.276062 0.713803 0.127977
0.448168 0.671497 0.130171
0.610300 0.643766 0.134064
0.727349 0.632430 0.141609
0.810957 0.635261 0.156195
0.848412 0.601045 0.194992
0.098570 0.847638 0.127653
0.105809 0.842871 0.128698
0.148406 0.827419 0.133758
0.252839 0.799349 0.139999
0.406438 0.769380 0.145482
0.574507 0.745476 0.151086
0.695089 0.727376 0.158068
0.788566 0.717618 0.166546
0.839324 0.706788 0.189898
0.098016 0.882352 0.124880
0.102405 0.880125 0.125920
0.140504 0.868010 0.135809
0.224731 0.851172 0.146699
0.364390 0.832985 0.155779
0.531605 0.815033 0.163526
0.664114 0.799826 0.170937
0.772579 0.791685 0.181805
0.831269 0.784631 0.196715
0.087883 0.881243 0.215093
0.087686 0.880433 0.213773
0.151469 0.883861 0.209403
0.147582 0.879539 0.202624
0.299824 0.868529 0.146769
0.470997 0.856156 0.160949
0.619897 0.847186 0.171148
0.739574 0.842617 0.181756
0.830775 0.842421 0.188911
0.068266 0.094105 0.301831
0.096477 0.101558 0.639116
0.292383 0.120155 0.611660
0.640783 0.156173 0.552235
0.779991 0.182186 0.487591
0.844053 0.203767 0.480120
0.870243 0.193979 0.519057
0.889714 0.074667 0.589750
0.885301 0.135389 0.670218
0.072918 0.150741 0.317202
0.102639 0.148081 0.423478
0.285388 0.146318 0.433320
0.581881 0.172853 0.412567
0.751256 0.203230 0.401393
0.832045 0.224414 0.420033
0.865077 0.213729 0.470289
0.886872 0.075757 0.585426
0.883266 0.133925 0.665688
0.079400 0.286784 0.225197
0.089192 0.236230 0.190039
0.163239 0.177041 0.157973
0.431051 0.217362 0.204728
0.667379 0.271200 0.256945
0.789228 0.306831 0.304727
0.847724 0.305108 0.339392
0.877405 0.112226 0.563121
0.876648 0.129253 0.651162
0.094050 0.546519 0.261250
0.107580 0.508692 0.239875
0.178946 0.415656 0.195682
0.340760 0.344043 0.170864
0.577130 0.368809 0.196337
0.725192 0.409483 0.236441
0.813641 0.423938 0.265614
0.854776 0.390427 0.342467
0.866837 0.123842 0.630021
0.110158 0.695378 0.272919
0.124679 0.678591 0.262717
0.190802 0.631296 0.236219
0.334742 0.568133 0.210852
0.516314 0.525396 0.199598
0.669337 0.524834 0.216171
0.776415 0.541440 0.238307
0.835918 0.534935 0.280111
0.856918 0.436251 0.510766
0.122507 0.785755 0.277905
0.134024 0.776824 0.273034
0.193889 0.750088 0.260519
0.318699 0.708364 0.244139
0.486027 0.669688 0.232023
0.630147 0.645149 0.229048
0.736160 0.638176 0.235284
0.811928 0.639623 0.264458
0.846774 0.601691 0.327880
0.124707 0.841220 0.263878
0.134063 0.836870 0.262443
0.183193 0.822737 0.260191
0.294036 0.795346 0.255328
0.446106 0.767561 0.250233
0.595703 0.745541 0.248633
0.707655 0.729223 0.252216
0.792183 0.720905 0.266438
0.838137 0.706519 0.284949
0.117491 0.876590 0.251561
0.124769 0.873771 0.252345
0.167953 0.863196 0.260892
0.263042 0.848138 0.264866
0.398257 0.831398 0.266994
0.559099 0.814390 0.268944
0.677907 0.800345 0.273481
0.778838 0.792666 0.281028
0.831200 0.784183 0.281097
0.087551 0.879888 0.212901
0.152732 0.885246 0.211620
0.150308 0.882581 0.207384
0.146572 0.878360 0.200833
0.319302 0.866995 0.220117
0.487667 0.855262 0.245354
0.631572 0.846760 0.258162
0.747642 0.842465 0.268172
0.831030 0.842004 0.271633
0.069524 0.129631 0.560590
0.086210 0.149078 0.729481
0.322673 0.169166 0.758092
0.645266 0.209268 0.751552
0.786732 0.235967 0.717176
0.844823 0.245406 0.691650
0.869115 0.229996 0.687654
0.884976 0.126731 0.706776
0.883850 0.134344 0.693968
0.073709 0.196912 0.577743
0.096125 0.206245 0.673121
0.350026 0.222376 0.731562
0.614065 0.241244 0.709215
0.761698 0.255797 0.679744
0.833181 0.264844 0.664085
0.863805 0.249160 0.669356
0.881575 0.140656 0.698491
0.881761 0.132851 0.690514
0.084674 0.333911 0.486736
0.100954 0.310028 0.477489
0.234232 0.272094 0.494022
0.478592 0.278673 0.516963
0.677424 0.312646 0.543685
0.790378 0.338100 0.567706
0.846303 0.332526 0.600047
0.868816 0.261009 0.652026
0.874966 0.128227 0.678468
0.099308 0.510506 0.445496
0.114337 0.480809 0.425506
0.184263 0.405652 0.374098
0.336762 0.342335 0.339111
0.576183 0.384241 0.396420
0.724918 0.425236 0.447332
0.811609 0.439863 0.497927
0.852319 0.408288 0.571030
0.864897 0.122824 0.656155
0.126170 0.671824 0.462608
0.141383 0.657919 0.449748
0.209954 0.613449 0.416186
0.346650 0.555861 0.376493
0.516038 0.513832 0.355310
0.668856 0.528564 0.382726
0.775498 0.547808 0.420586
0.832596 0.541639 0.473014
0.854583 0.450847 0.617211
0.144907 0.770977 0.464095
0.158032 0.763255 0.456769
0.223724 0.739416 0.436451
0.345501 0.699255 0.410747
0.503633 0.663852 0.388817
0.638080 0.642559 0.379352
0.739014 0.640843 0.393078
0.810642 0.641923 0.420501
0.844733 0.605605 0.541873
0.150458 0.832955 0.456438
0.161338 0.829062 0.452338
0.216817 0.814153 0.440866
0.327266 0.789364 0.425006
0.477830 0.763955 0.410146
0.612785 0.743951 0.400734
0.716306 0.729481 0.398043
0.793920 0.722890 0.405751
0.836160 0.707366 0.459182
0.138943 0.869681 0.445482
0.147704 0.867136 0.443090
0.195673 0.857911 0.437351
0.293241 0.844213 0.428162
0.429623 0.828928 0.419081
0.577775 0.812793 0.412250
0.690004 0.800049 0.409382
0.783337 0.793214 0.410788
0.830512 0.784081 0.423720
0.109930 0.882231 0.480820
0.150841 0.885007 0.478921
0.148553 0.882453 0.472594
0.200248 0.878771 0.401579
0.352900 0.864178 0.421994
0.511656 0.853735 0.417734
0.648054 0.846070 0.416432
0.758404 0.842190 0.417480
0.830982 0.841593 0.416981
0.071589 0.197428 0.720731
0.079845 0.212891 0.780254
0.328910 0.244915 0.825385
0.635861 0.284973 0.826064
0.797766 0.321095 0.819679
0.849388 0.311745 0.786943
0.871086 0.285648 0.768402
0.883973 0.183375 0.760239
0.883854 0.134348 0.753956
0.074389 0.263734 0.729224
0.087575 0.275935 0.773593
0.341890 0.298411 0.818474
0.633127 0.332188 0.821066
0.777391 0.338176 0.797467
0.840741 0.328966 0.773002
0.865731 0.303227 0.759502
0.880543 0.200956 0.753649
0.881701 0.132810 0.747940
0.095512 0.455216 0.720042
0.122084 0.442232 0.725985
0.305811 0.411413 0.747002
0.548540 0.390201 0.737155
0.700313 0.387881 0.724753
0.798772 0.394590 0.720028
0.848157 0.378323 0.721164
0.868537 0.309792 0.727958
0.874672 0.128070 0.728678
0.107906 0.532531 0.613136
0.125776 0.513629 0.605973
0.217239 0.466469 0.594990
0.406132 0.433113 0.594066
0.602089 0.439178 0.609420
0.734670 0.461787 0.634093
0.813504 0.468938 0.659339
0.851784 0.435247 0.688329
0.865398 0.203964 0.709107
0.133696 0.656142 0.597014
0.149715 0.645324 0.589239
0.219778 0.606541 0.563585
0.351469 0.554983 0.532416
0.510463 0.513546 0.513507
0.669868 0.541434 0.549624
0.775609 0.559690 0.589194
0.830721 0.553640 0.628789
0.853054 0.473488 0.685332
0.158928 0.758035 0.598324
0.173022 0.751476 0.592960
0.241992 0.728334 0.575260
0.358721 0.692311 0.550586
0.509592 0.658927 0.529749
0.636317 0.639239 0.521322
0.738401 0.643644 0.540122
0.808797 0.646099 0.574250
0.842964 0.613850 0.648692
0.168375 0.825040 0.594884
0.181121 0.821207 0.591418
0.241274 0.806021 0.579588
0.348747 0.783683 0.561990
0.493807 0.760402 0.545416
0.621735 0.741969 0.534171
0.719084 0.729001 0.531169
0.793996 0.724902 0.541800
0.833861 0.710140 0.606850
0.155497 0.863579 0.589487
0.164694 0.861257 0.587039
0.217276 0.852891 0.577856
0.314819 0.840453 0.565037
0.453030 0.826471 0.552286
0.590740 0.811071 0.542415
0.698277 0.799611 0.536961
0.785524 0.793842 0.536613
0.829501 0.785049 0.563458
0.118270 0.881254 0.635252
0.123700 0.881056 0.633846
0.135539 0.879880 0.629136
0.234151 0.872517 0.573430
0.370285 0.861909 0.560813
0.527076 0.852444 0.551577
0.657740 0.845478 0.545573
0.765514 0.842182 0.543429
0.830710 0.842118 0.547167
0.073513 0.294276 0.823171
0.079235 0.299215 0.845278
0.323507 0.337858 0.865150
0.624394 0.369974 0.866050
0.797966 0.409804 0.866785
0.855532 0.397365 0.848710
0.875210 0.355760 0.827683
0.885824 0.253998 0.806755
0.885263 0.135362 0.782918
0.076222 0.344978 0.827539
0.084500 0.350186 0.845040
0.330528 0.383403 0.864024
0.623428 0.410410 0.865327
0.791959 0.438021 0.864123
0.847567 0.411395 0.841127
0.870001 0.372754 0.819900
0.882394 0.272845 0.801735
0.883068 0.133785 0.779541
0.102483 0.534286 0.833989
0.127993 0.532996 0.841252
0.355306 0.536936 0.857780
0.592258 0.501366 0.844620
0.727820 0.478401 0.826927
0.811636 0.460699 0.807996
0.852894 0.435315 0.794791
0.870647 0.367405 0.785268
0.875860 0.128720 0.768493
0.123894 0.589349 0.759788
0.143621 0.580730 0.759649
0.270905 0.558827 0.764197
0.477672 0.536528 0.762387
0.643732 0.523813 0.758265
0.754357 0.520948 0.756469
0.820956 0.514238 0.758021
0.853693 0.473916 0.760318
0.865943 0.266183 0.752524
0.143076 0.662185 0.705642
0.158496 0.654340 0.701885
0.241367 0.629723 0.693894
0.385256 0.593592 0.684851
0.560987 0.572861 0.681600
0.686208 0.575707 0.691444
0.781241 0.584217 0.707205
0.832502 0.573976 0.723948
0.852926 0.503521 0.737091
0.165761 0.750644 0.692929
0.181027 0.745257 0.689336
0.251751 0.724508 0.678045
0.367034 0.693123 0.660663
0.514024 0.661822 0.643900
0.631908 0.640022 0.632439
0.739766 0.651957 0.659249
0.808649 0.655119 0.688079
0.842177 0.626980 0.716555
0.178731 0.817782 0.687653
0.191765 0.813730 0.684951
0.254267 0.800349 0.675196
0.359484 0.780343 0.660977
0.501659 0.758925 0.647433
0.624711 0.741247 0.637703
0.717894 0.729112 0.636031
0.793274 0.728639 0.652783
0.832042 0.715422 0.697773
0.163608 0.858775 0.682733
0.174064 0.856683 0.680115
0.229307 0.849105 0.671808
0.326602 0.837754 0.660236
0.466004 0.824941 0.648775
0.597757 0.810332 0.639905
0.702150 0.799889 0.635180
0.785756 0.795065 0.636062
0.828292 0.787457 0.674337
0.120251 0.878717 0.668232
0.124846 0.878517 0.668957
0.134372 0.877283 0.672241
0.237740 0.870181 0.664093
0.376288 0.860345 0.652335
0.533248 0.851710 0.643413
0.661394 0.845506 0.637500
0.768704 0.842776 0.634774
0.830221 0.843505 0.658035
0.076221 0.400846 0.883761
0.081551 0.399924 0.892245
0.285942 0.430093 0.896491
0.618218 0.451269 0.896803
0.795054 0.482475 0.897232
0.862396 0.482740 0.890073
0.880696 0.430940 0.867795
0.889227 0.325993 0.849547
0.887599 0.137046 0.827969
0.079090 0.436480 0.885252
0.085741 0.436266 0.892145
0.296118 0.463382 0.896457
0.618177 0.482464 0.896842
0.792645 0.512156 0.897289
0.855181 0.493195 0.884089
0.875731 0.444261 0.863185
0.885874 0.344019 0.846456
0.885397 0.135444 0.824018
0.105139 0.579499 0.888411
0.125882 0.577951 0.891552
0.335032 0.582433 0.895800
0.621712 0.587588 0.896524
0.753579 0.561306 0.880374
0.826763 0.537559 0.862777
0.859391 0.497358 0.848401
0.874490 0.426565 0.836439
0.878123 0.130187 0.810575
0.143511 0.656293 0.857018
0.164290 0.650520 0.857527
0.304914 0.635019 0.857004
0.526398 0.610387 0.850072
0.676327 0.592872 0.841258
0.776924 0.579436 0.833055
0.832365 0.561749 0.822945
0.857700 0.520528 0.814223
0.867453 0.360475 0.801607
0.156353 0.689803 0.800408
0.173013 0.684401 0.799966
0.269573 0.668609 0.799675
0.433246 0.648469 0.795519
0.599610 0.633773 0.790017
0.711607 0.626282 0.787195
0.792524 0.620033 0.787161
0.838308 0.601687 0.788092
0.854343 0.537630 0.785515
0.173211 0.753450 0.770012
0.188036 0.749252 0.768538
0.262066 0.734448 0.764999
0.385010 0.709700 0.759794
0.540704 0.686389 0.752089
0.660113 0.674047 0.748568
0.752235 0.673833 0.755206
0.812616 0.671034 0.764167
0.842872 0.642415 0.770261
0.181401 0.814355 0.756742
0.194702 0.810878 0.754763
0.258707 0.799227 0.749161
0.364699 0.781562 0.741829
0.507424 0.762303 0.734536
0.627858 0.745393 0.727639
0.714533 0.730959 0.722054
0.793943 0.736682 0.740021
0.831679 0.723492 0.758909
0.162292 0.856196 0.746266
0.172725 0.854309 0.744508
0.229077 0.847349 0.739031
0.327934 0.836982 0.731710
0.469172 0.825198 0.724820
0.599950 0.811689 0.719707
0.702853 0.801782 0.717461
0.784682 0.797460 0.720403
0.827337 0.791240 0.748580
0.117845 0.874993 0.715355
0.127040 0.875403 0.714363
0.138071 0.874222 0.711219
0.221258 0.869385 0.728164
0.369223 0.859774 0.719031
0.529064 0.851855 0.712909
0.659787 0.846295 0.708902
0.767453 0.844150 0.707088
0.829817 0.845763 0.744685
0.081783 0.490991 0.920305
0.087218 0.488684 0.921026
0.305671 0.501305 0.920832
0.631489 0.524140 0.920898
0.802424 0.548581 0.921175
0.871603 0.557946 0.918726
0.887528 0.500316 0.900852
0.894178 0.386667 0.886079
0.890357 0.149707 0.862562
0.085003 0.521529 0.920344
0.092308 0.519492 0.921020
0.317788 0.531611 0.920967
0.631286 0.548367 0.921029
0.800550 0.567964 0.921295
0.865162 0.563995 0.914258
0.882961 0.511960 0.897716
0.890955 0.404640 0.882933
0.888225 0.151348 0.860244
0.119428 0.630565 0.920511
0.139234 0.628613 0.920957
0.369878 0.629127 0.921255
0.636105 0.636230 0.921381
0.781044 0.627929 0.914419
0.843994 0.596142 0.900132
0.867698 0.557975 0.887378
0.880024 0.475667 0.872596
0.881469 0.178784 0.852556
0.170035 0.710628 0.909788
0.193845 0.704986 0.908741
0.365474 0.689105 0.904474
0.576391 0.669197 0.897122
0.710528 0.651532 0.888604
0.798796 0.634034 0.877001
0.845241 0.607036 0.866345
0.863721 0.559301 0.857095
0.870293 0.403487 0.846199
0.177271 0.729114 0.870298
0.196241 0.724772 0.869734
0.312735 0.711667 0.867021
0.489493 0.694612 0.861312
0.641482 0.680313 0.854786
0.742711 0.669431 0.848916
0.808797 0.657179 0.844093
0.845532 0.632736 0.840063
0.857123 0.558100 0.834380
0.182953 0.767012 0.840437
0.198192 0.763825 0.840233
0.284599 0.753514 0.839136
0.418697 0.738461 0.835283
0.577301 0.721308 0.828403
0.687504 0.710755 0.822656
0.773352 0.704070 0.820178
0.821761 0.692104 0.819796
0.845192 0.655712 0.817334
0.181378 0.816913 0.815907
0.194269 0.814048 0.815634
0.264621 0.804146 0.815421
0.373565 0.789350 0.813306
0.522786 0.773275 0.808191
0.645527 0.760287 0.802130
0.733302 0.753569 0.799316
0.800790 0.750343 0.802198
0.833853 0.733376 0.804535
0.150068 0.857150 0.796507
0.159727 0.855393 0.795785
0.216442 0.848620 0.794133
0.320430 0.838910 0.792573
0.466180 0.828033 0.791835
0.601069 0.816703 0.790798
0.704189 0.807220 0.789289
0.782119 0.800005 0.787022
0.827455 0.796235 0.797899
0.111098 0.870401 0.767319
0.136777 0.873087 0.767280
0.139449 0.871170 0.769533
0.201394 0.868527 0.773817
0.344445 0.860707 0.770206
0.511713 0.853315 0.767951
0.651069 0.848244 0.766920
0.760570 0.846465 0.766355
0.829591 0.848746 0.797870
0.160583 0.532519 0.940872
0.186224 0.537177 0.940879
0.413355 0.550084 0.940907
0.731597 0.571784 0.940976
0.848271 0.595934 0.941081
0.893434 0.612968 0.941211
0.901440 0.558515 0.927392
0.901994 0.410896 0.912141
0.892591 0.209605 0.893454
0.172769 0.552174 0.940872
0.200120 0.555460 0.940880
0.422667 0.568097 0.940907
0.730667 0.589445 0.940978
0.847712 0.613114 0.941083
0.888357 0.618567 0.939032
0.897385 0.565182 0.924288
0.899013 0.420591 0.909869
0.890475 0.229641 0.895015
0.240446 0.639192 0.940831
0.275443 0.641221 0.940841
0.471867 0.648919 0.940874
0.727889 0.662335 0.940957
0.842767 0.671914 0.939825
0.870430 0.645582 0.927851
0.883947 0.600674 0.914152
0.889013 0.484238 0.902329
0.883418 0.218889 0.889495
0.330768 0.746715 0.939040
0.357817 0.744225 0.938226
0.500927 0.734984 0.935121
0.686196 0.720632 0.927399
0.792400 0.703593 0.918035
0.843946 0.682943 0.908275
0.863637 0.654376 0.899046
0.873655 0.587845 0.890773
0.874220 0.408128 0.881224
0.298834 0.761892 0.907712
0.321239 0.759812 0.906832
0.437506 0.753030 0.903899
0.610813 0.744069 0.899257
0.728553 0.732946 0.893741
0.800929 0.718974 0.888065
0.841186 0.699709 0.880499
0.856628 0.661970 0.873715
0.861946 0.540166 0.868132
0.259007 0.787506 0.883961
0.279407 0.785382 0.883005
0.372842 0.778363 0.879844
0.539080 0.769324 0.874968
0.666350 0.760952 0.869517
0.755603 0.753202 0.864535
0.808348 0.743895 0.860464
0.840558 0.721323 0.857247
0.849947 0.654069 0.854878
0.209026 0.825087 0.866593
0.226282 0.823477 0.865787
0.306668 0.816267 0.863056
0.459517 0.805694 0.858715
0.602476 0.795771 0.853751
0.704348 0.788034 0.849353
0.779905 0.781887 0.846498
0.820416 0.771879 0.845125
0.840458 0.737103 0.844811
0.140112 0.857555 0.855726
0.149167 0.856186 0.855627
0.201292 0.851042 0.854351
0.333986 0.842844 0.851202
0.507999 0.834479 0.847178
0.646919 0.827806 0.843113
0.740210 0.823526 0.839913
0.803844 0.819301 0.838518
0.831832 0.799785 0.838965
0.102478 0.865854 0.797691
0.139152 0.870277 0.810392
0.137900 0.868185 0.808143
0.150812 0.865162 0.804511
0.287288 0.863341 0.830794
0.478709 0.856245 0.840471
0.637947 0.851890 0.838911
0.755348 0.850668 0.837749
0.829634 0.852359 0.837542
