negative-superia-reala/SuperiaReala_Classic_Soft.cube
TITLE "Fuji Superia Reala Classic Soft"
# Adobe RGB in/out. REPLACES AgX. Fuji Superia Reala Classic Soft.
LUT_3D_SIZE 33
DOMAIN_MIN 0.0 0.0 0.0
DOMAIN_MAX 1.0 1.0 1.0
0.062059 0.068823 0.088435
0.062120 0.068823 0.088435
0.063051 0.068823 0.088435
0.064342 0.068899 0.088435
0.066388 0.069178 0.088435
0.069462 0.069621 0.088432
0.075207 0.070191 0.088434
0.082839 0.070789 0.088523
0.094408 0.071456 0.088578
0.111793 0.072324 0.088660
0.138898 0.073351 0.088789
0.181928 0.074786 0.088974
0.242843 0.076454 0.089167
0.319315 0.078359 0.089354
0.392013 0.080345 0.089638
0.443885 0.083256 0.089930
0.497574 0.086383 0.090350
0.545044 0.089410 0.090903
0.587351 0.092866 0.091718
0.615568 0.097084 0.092496
0.643588 0.102252 0.093277
0.672558 0.107795 0.094042
0.702255 0.115360 0.094877
0.723034 0.123790 0.095920
0.742487 0.131238 0.096930
0.761445 0.147006 0.097915
0.780115 0.162391 0.098953
0.796232 0.178713 0.099963
0.810982 0.199373 0.101109
0.825473 0.224681 0.102568
0.839520 0.252178 0.104027
0.851211 0.280335 0.105458
0.859006 0.307870 0.106862
0.062059 0.068823 0.088435
0.062167 0.068837 0.088435
0.063074 0.068903 0.088435
0.064358 0.069079 0.088435
0.066406 0.069355 0.088435
0.069483 0.069877 0.088431
0.075238 0.070366 0.088434
0.082871 0.070982 0.088527
0.094453 0.071630 0.088583
0.111856 0.072553 0.088667
0.138997 0.073576 0.088794
0.182039 0.075044 0.088982
0.243001 0.076717 0.089174
0.319480 0.078635 0.089360
0.392142 0.080692 0.089647
0.443976 0.083637 0.089942
0.497650 0.086725 0.090361
0.545104 0.089717 0.090923
0.587387 0.093241 0.091736
0.615601 0.097542 0.092513
0.643619 0.102724 0.093292
0.672589 0.108242 0.094056
0.702284 0.116048 0.094895
0.723053 0.124395 0.095937
0.742504 0.131748 0.096946
0.761461 0.147984 0.097932
0.780130 0.163381 0.098968
0.796243 0.179716 0.099977
0.810993 0.200760 0.101128
0.825483 0.226128 0.102587
0.839529 0.253685 0.104045
0.851217 0.281684 0.105474
0.859011 0.309254 0.106878
0.062059 0.069490 0.088435
0.062274 0.069534 0.088435
0.063154 0.069682 0.088435
0.064424 0.069921 0.088435
0.066469 0.070219 0.088435
0.069572 0.070594 0.088429
0.075352 0.071083 0.088461
0.082985 0.071628 0.088540
0.094617 0.072417 0.088601
0.112080 0.073306 0.088692
0.139353 0.074572 0.088814
0.182438 0.076067 0.089010
0.243567 0.077766 0.089200
0.320078 0.079581 0.089381
0.392605 0.081941 0.089679
0.444305 0.084964 0.089986
0.497921 0.087926 0.090399
0.545320 0.090803 0.090995
0.587515 0.094564 0.091801
0.615720 0.099168 0.092571
0.643731 0.104402 0.093348
0.672701 0.109821 0.094106
0.702370 0.118372 0.094963
0.723123 0.126285 0.096000
0.742565 0.134197 0.097003
0.761518 0.151501 0.097989
0.780184 0.166945 0.099022
0.796285 0.183325 0.100026
0.811031 0.205772 0.101196
0.825520 0.231354 0.102655
0.839560 0.259127 0.104108
0.851235 0.286543 0.105535
0.859028 0.314237 0.106935
0.062115 0.070914 0.088435
0.062401 0.070942 0.088435
0.063295 0.071039 0.088435
0.064540 0.071207 0.088435
0.066583 0.071477 0.088429
0.069741 0.071842 0.088434
0.075559 0.072409 0.088512
0.083196 0.073060 0.088562
0.094917 0.073910 0.088631
0.112493 0.075048 0.088734
0.140008 0.076396 0.088874
0.183171 0.077942 0.089060
0.244610 0.079570 0.089245
0.321179 0.081670 0.089447
0.393456 0.084476 0.089737
0.444911 0.087263 0.090065
0.498421 0.089997 0.090473
0.545718 0.093331 0.091127
0.587750 0.097339 0.091918
0.615939 0.102187 0.092676
0.643935 0.107418 0.093450
0.672906 0.114293 0.094199
0.702506 0.122419 0.095087
0.723250 0.129711 0.096113
0.742678 0.142375 0.097108
0.761624 0.158002 0.098095
0.780283 0.173529 0.099120
0.796361 0.191224 0.100118
0.811103 0.215107 0.101320
0.825587 0.241079 0.102779
0.839616 0.269245 0.104226
0.851269 0.295553 0.105645
0.859060 0.321629 0.107039
0.062376 0.072923 0.088433
0.062588 0.072953 0.088432
0.063482 0.073059 0.088429
0.064705 0.073254 0.088430
0.066749 0.073581 0.088440
0.070028 0.074128 0.088507
0.075866 0.074804 0.088552
0.083526 0.075648 0.088606
0.095408 0.076637 0.088682
0.113109 0.077854 0.088793
0.140988 0.079174 0.088958
0.183232 0.080733 0.089134
0.246174 0.082944 0.089309
0.322830 0.085413 0.089544
0.394729 0.087905 0.089821
0.445817 0.090382 0.090178
0.499168 0.093556 0.090627
0.546313 0.097305 0.091319
0.588102 0.101827 0.092090
0.616266 0.106763 0.092837
0.644241 0.112802 0.093600
0.673214 0.120674 0.094335
0.702711 0.127864 0.095270
0.723441 0.137040 0.096282
0.742846 0.153058 0.097263
0.761781 0.167793 0.098252
0.780431 0.183440 0.099266
0.796474 0.204890 0.100253
0.811210 0.229343 0.101503
0.825688 0.255890 0.102964
0.839701 0.282626 0.104400
0.851320 0.309162 0.105810
0.859109 0.332491 0.107205
0.062630 0.076423 0.088442
0.062904 0.076462 0.088447
0.063671 0.076600 0.088466
0.064911 0.076851 0.088499
0.066964 0.077264 0.088532
0.070451 0.077866 0.088561
0.076274 0.078568 0.088608
0.084022 0.079376 0.088669
0.096123 0.080381 0.088767
0.113941 0.081821 0.088899
0.142316 0.083686 0.089062
0.183303 0.085656 0.089229
0.248293 0.087711 0.089395
0.325067 0.089812 0.089668
0.396380 0.092354 0.089937
0.447040 0.095287 0.090326
0.500177 0.099154 0.090828
0.547117 0.103429 0.091571
0.588577 0.107984 0.092316
0.616708 0.114200 0.093056
0.644654 0.121479 0.093798
0.673629 0.128181 0.094515
0.702987 0.136913 0.095513
0.723699 0.152249 0.096505
0.743073 0.166253 0.097469
0.761994 0.181145 0.098461
0.780631 0.200678 0.099460
0.796628 0.223883 0.100435
0.811354 0.249087 0.101763
0.825824 0.275533 0.103211
0.839816 0.300843 0.104633
0.851389 0.325025 0.106030
0.859173 0.352502 0.107437
0.063042 0.081345 0.088546
0.063289 0.081393 0.088548
0.063942 0.081568 0.088556
0.065190 0.081930 0.088569
0.067223 0.082504 0.088599
0.070973 0.083262 0.088637
0.076784 0.084199 0.088696
0.084646 0.085305 0.088776
0.097027 0.086567 0.088892
0.114997 0.087969 0.089036
0.144008 0.089481 0.089187
0.183394 0.091208 0.089338
0.251001 0.093498 0.089563
0.327920 0.096018 0.089815
0.397689 0.099347 0.090138
0.448596 0.103008 0.090529
0.501459 0.106973 0.091140
0.548138 0.111696 0.091879
0.589180 0.118417 0.092594
0.617270 0.124846 0.093325
0.645178 0.130730 0.094043
0.674156 0.142180 0.094821
0.703337 0.155718 0.095816
0.724026 0.169045 0.096784
0.743362 0.183238 0.097727
0.762265 0.202555 0.098723
0.780885 0.224765 0.099704
0.796823 0.248887 0.100699
0.811538 0.274349 0.102094
0.825997 0.298594 0.103523
0.839961 0.322392 0.104927
0.851477 0.347718 0.106308
0.859256 0.370619 0.107729
0.063470 0.088736 0.088634
0.063634 0.088782 0.088637
0.064304 0.088947 0.088646
0.065625 0.089249 0.088666
0.067643 0.089695 0.088708
0.071589 0.090288 0.088760
0.077394 0.091107 0.088823
0.085398 0.092278 0.088937
0.098125 0.093632 0.089058
0.116283 0.095160 0.089189
0.146082 0.097260 0.089324
0.183504 0.099699 0.089516
0.254325 0.102471 0.089750
0.331419 0.105564 0.090017
0.399287 0.108852 0.090367
0.450495 0.113684 0.090843
0.503024 0.119351 0.091537
0.549384 0.124926 0.092237
0.589915 0.130101 0.092932
0.617954 0.138918 0.093641
0.645818 0.151758 0.094332
0.674799 0.163630 0.095211
0.703765 0.176327 0.096175
0.724426 0.191059 0.097116
0.743714 0.210763 0.098054
0.762595 0.232205 0.099036
0.781196 0.255479 0.099995
0.797062 0.279230 0.101094
0.811762 0.302558 0.102492
0.826209 0.324730 0.103897
0.840139 0.349787 0.105281
0.851584 0.371252 0.106643
0.859357 0.392336 0.108082
0.063816 0.097944 0.088778
0.064033 0.098010 0.088782
0.064723 0.098249 0.088794
0.066117 0.098686 0.088819
0.068253 0.099335 0.088875
0.072292 0.100204 0.088946
0.078160 0.101333 0.089030
0.086301 0.102774 0.089127
0.099419 0.104457 0.089236
0.117859 0.106378 0.089350
0.148551 0.108531 0.089532
0.187031 0.111413 0.089742
0.258295 0.115578 0.089972
0.335593 0.119835 0.090298
0.401181 0.124277 0.090706
0.452749 0.128448 0.091309
0.504880 0.132852 0.091981
0.550861 0.143952 0.092641
0.590787 0.154368 0.093325
0.618766 0.164883 0.094001
0.646577 0.176182 0.094709
0.675562 0.188924 0.095657
0.704272 0.206536 0.096588
0.724899 0.225729 0.097499
0.744131 0.246595 0.098443
0.762987 0.269225 0.099398
0.781564 0.290419 0.100334
0.797344 0.312955 0.101554
0.812028 0.332168 0.102955
0.826459 0.357252 0.104335
0.840349 0.376750 0.105695
0.851711 0.396975 0.107034
0.859476 0.417518 0.108496
0.064327 0.111474 0.089004
0.064525 0.111575 0.089009
0.065180 0.111941 0.089026
0.066629 0.112612 0.089057
0.068915 0.113614 0.089102
0.073074 0.114964 0.089164
0.079182 0.116675 0.089238
0.087478 0.118593 0.089322
0.100848 0.120806 0.089436
0.119806 0.123356 0.089609
0.151432 0.126012 0.089790
0.191182 0.128818 0.090008
0.262940 0.131903 0.090301
0.340467 0.138342 0.090668
0.403378 0.147343 0.091207
0.455367 0.155137 0.091839
0.507034 0.163640 0.092465
0.552574 0.172871 0.093107
0.591796 0.182851 0.093758
0.619707 0.196114 0.094399
0.647456 0.211955 0.095246
0.676446 0.229247 0.096156
0.704860 0.248072 0.097051
0.725449 0.268517 0.097938
0.744616 0.287807 0.098881
0.763441 0.308255 0.099807
0.781991 0.326813 0.100779
0.797672 0.349255 0.102114
0.812337 0.368514 0.103483
0.826750 0.387216 0.104834
0.840594 0.406402 0.106167
0.851858 0.426150 0.107525
0.859615 0.445877 0.108974
0.064870 0.130961 0.089242
0.065038 0.131036 0.089246
0.065859 0.131304 0.089261
0.067151 0.131797 0.089288
0.069643 0.132531 0.089327
0.074118 0.134082 0.089378
0.080319 0.137139 0.089480
0.088799 0.140904 0.089604
0.102504 0.145417 0.089742
0.122025 0.149851 0.089891
0.154738 0.154549 0.090122
0.195974 0.159870 0.090376
0.268291 0.165831 0.090734
0.344379 0.172453 0.091238
0.405882 0.179755 0.091818
0.458271 0.188210 0.092399
0.509492 0.200029 0.092996
0.554528 0.213051 0.093614
0.592947 0.227345 0.094225
0.620779 0.242985 0.094955
0.648459 0.260045 0.095834
0.677455 0.277437 0.096702
0.705530 0.294723 0.097559
0.726075 0.313281 0.098457
0.745168 0.329192 0.099366
0.763959 0.350305 0.100261
0.782479 0.367689 0.101396
0.798047 0.384829 0.102737
0.812689 0.402542 0.104072
0.827082 0.420755 0.105392
0.840873 0.439707 0.106696
0.852026 0.455457 0.108083
0.859773 0.470671 0.109706
0.065549 0.168141 0.089527
0.065785 0.168286 0.089533
0.066543 0.168809 0.089555
0.067928 0.169772 0.089594
0.070755 0.171213 0.089650
0.075310 0.173164 0.089724
0.081561 0.175649 0.089815
0.090549 0.178691 0.089922
0.104526 0.182311 0.090106
0.124521 0.186564 0.090306
0.158483 0.193084 0.090553
0.201439 0.200529 0.090899
0.274379 0.208950 0.091402
0.348310 0.218398 0.091920
0.408699 0.228928 0.092448
0.461184 0.240599 0.092999
0.512258 0.253472 0.093573
0.556726 0.267611 0.094148
0.594240 0.281293 0.094794
0.621985 0.295765 0.095631
0.649587 0.311391 0.096464
0.678590 0.325342 0.097290
0.706284 0.341764 0.098134
0.726756 0.359476 0.099018
0.745790 0.374321 0.099892
0.764543 0.389919 0.100835
0.783027 0.405992 0.102109
0.798468 0.422679 0.103421
0.813085 0.440099 0.104720
0.827455 0.454600 0.106006
0.841187 0.468679 0.107299
0.852216 0.483166 0.108700
0.859951 0.498056 0.110517
0.066355 0.218288 0.089889
0.066554 0.218497 0.089894
0.067202 0.219250 0.089911
0.068895 0.220638 0.089960
0.071970 0.222719 0.090034
0.076575 0.225542 0.090131
0.082899 0.229152 0.090251
0.092477 0.233589 0.090391
0.106757 0.238895 0.090598
0.127558 0.245114 0.090866
0.162683 0.252288 0.091257
0.207612 0.260465 0.091689
0.281236 0.269692 0.092142
0.352697 0.278659 0.092610
0.411833 0.288526 0.093116
0.464427 0.299390 0.093640
0.515338 0.311273 0.094170
0.559172 0.322219 0.094769
0.595678 0.333337 0.095555
0.623325 0.349317 0.096344
0.650841 0.362502 0.097131
0.679853 0.375103 0.097922
0.707123 0.388439 0.098773
0.727495 0.402327 0.099619
0.746482 0.416781 0.100457
0.765192 0.431957 0.101610
0.783638 0.446792 0.102890
0.798937 0.459259 0.104161
0.813526 0.472159 0.105422
0.827871 0.485485 0.106673
0.841537 0.499290 0.108005
0.852427 0.514500 0.109530
0.860150 0.528203 0.111404
0.067106 0.284391 0.090395
0.067275 0.284589 0.090402
0.068221 0.285300 0.090425
0.069970 0.286612 0.090473
0.073220 0.288578 0.090570
0.077909 0.291240 0.090698
0.084497 0.294635 0.090855
0.094567 0.298797 0.091097
0.109198 0.303756 0.091395
0.131029 0.309545 0.091726
0.167351 0.315921 0.092087
0.214527 0.321843 0.092472
0.286154 0.328454 0.092888
0.357546 0.336876 0.093342
0.415286 0.347838 0.093811
0.468004 0.357927 0.094291
0.518497 0.366941 0.094881
0.561868 0.376653 0.095609
0.597260 0.387072 0.096345
0.624801 0.398121 0.097085
0.652223 0.409683 0.097827
0.681245 0.421947 0.098638
0.708047 0.434918 0.099447
0.728309 0.447351 0.100254
0.747244 0.458148 0.101270
0.765908 0.469397 0.102490
0.784312 0.481091 0.103725
0.799454 0.493225 0.104954
0.814013 0.506337 0.106176
0.828330 0.520310 0.107423
0.841923 0.531403 0.108765
0.852659 0.541765 0.110531
0.860369 0.552366 0.112366
0.068173 0.349875 0.091192
0.068442 0.350097 0.091204
0.069347 0.350892 0.091248
0.071500 0.352357 0.091327
0.074853 0.354247 0.091444
0.079682 0.356294 0.091600
0.086316 0.358897 0.091793
0.097129 0.362076 0.092021
0.112313 0.365851 0.092283
0.135169 0.370236 0.092576
0.172580 0.375246 0.092908
0.222224 0.380893 0.093277
0.291302 0.387191 0.093669
0.362867 0.394149 0.094080
0.419062 0.401606 0.094507
0.471917 0.409710 0.095128
0.521584 0.418481 0.095792
0.564816 0.427929 0.096469
0.598988 0.438058 0.097156
0.626414 0.447559 0.097851
0.653733 0.456198 0.098615
0.682767 0.465304 0.099382
0.709058 0.474873 0.100150
0.729200 0.484901 0.101070
0.748078 0.495383 0.102228
0.766691 0.506897 0.103419
0.785049 0.519128 0.104609
0.800020 0.529370 0.105795
0.814545 0.538560 0.106977
0.828833 0.548016 0.108273
0.842346 0.557730 0.109811
0.852914 0.567694 0.111605
0.860609 0.577902 0.113397
0.069399 0.407529 0.092181
0.069667 0.407678 0.092191
0.070895 0.408214 0.092229
0.073020 0.409199 0.092298
0.076540 0.410674 0.092401
0.081527 0.412666 0.092536
0.088532 0.415198 0.092706
0.099980 0.418292 0.092919
0.115691 0.421963 0.093167
0.140536 0.426228 0.093446
0.178548 0.431099 0.093752
0.230605 0.436588 0.094084
0.298595 0.442708 0.094438
0.369287 0.448004 0.094927
0.423161 0.453567 0.095502
0.476171 0.459599 0.096098
0.524935 0.466100 0.096712
0.568017 0.473069 0.097341
0.600861 0.480506 0.097996
0.628164 0.488408 0.098707
0.655372 0.496773 0.099425
0.684420 0.506129 0.100150
0.710155 0.516106 0.101012
0.730167 0.525689 0.102110
0.748984 0.533352 0.103250
0.767542 0.541311 0.104392
0.785850 0.549560 0.105536
0.800635 0.558089 0.106680
0.815124 0.566893 0.107903
0.829379 0.575964 0.109252
0.842805 0.585294 0.110998
0.853191 0.594563 0.112746
0.860869 0.603746 0.114496
0.071106 0.461401 0.093142
0.071442 0.461512 0.093152
0.072593 0.461909 0.093188
0.074904 0.462640 0.093253
0.078348 0.463732 0.093349
0.083432 0.465206 0.093477
0.091270 0.467078 0.093637
0.102963 0.469361 0.093828
0.119535 0.472067 0.094049
0.146400 0.475203 0.094298
0.183270 0.478777 0.094582
0.239748 0.482795 0.095018
0.308099 0.487262 0.095490
0.376823 0.492180 0.095991
0.428411 0.497553 0.096518
0.480766 0.503748 0.097067
0.528552 0.510502 0.097636
0.571474 0.517754 0.098257
0.602881 0.524933 0.098910
0.630051 0.530700 0.099577
0.657257 0.536787 0.100253
0.686204 0.543189 0.101097
0.711339 0.549899 0.102138
0.731211 0.556914 0.103220
0.749962 0.564226 0.104309
0.768461 0.571829 0.105404
0.786606 0.579718 0.106503
0.801299 0.587885 0.107661
0.815750 0.595917 0.108887
0.829969 0.604050 0.110552
0.843302 0.612418 0.112249
0.853490 0.621013 0.113951
0.861151 0.629829 0.115664
0.072908 0.509213 0.094092
0.073211 0.509328 0.094101
0.074542 0.509739 0.094132
0.076858 0.510497 0.094190
0.080569 0.511629 0.094275
0.085749 0.513158 0.094389
0.094208 0.515101 0.094531
0.106419 0.517471 0.094768
0.123834 0.520282 0.095058
0.152777 0.523542 0.095387
0.186292 0.526162 0.095753
0.249769 0.529087 0.096153
0.318472 0.532334 0.096584
0.384979 0.535903 0.097042
0.434242 0.539794 0.097527
0.485704 0.544008 0.098052
0.532434 0.548543 0.098628
0.575186 0.553396 0.099222
0.605047 0.558566 0.099833
0.632075 0.564048 0.100457
0.659289 0.569840 0.101324
0.688121 0.575937 0.102312
0.712609 0.582336 0.103330
0.732332 0.589030 0.104361
0.751013 0.595628 0.105402
0.769448 0.602423 0.106451
0.787365 0.609474 0.107551
0.802013 0.616776 0.108729
0.816422 0.624323 0.110272
0.830604 0.632109 0.111912
0.843836 0.640128 0.113561
0.853811 0.647597 0.115216
0.861454 0.652880 0.116926
0.075065 0.550111 0.095200
0.075422 0.550187 0.095212
0.076663 0.550463 0.095253
0.079058 0.550968 0.095329
0.082815 0.551725 0.095441
0.088473 0.552745 0.095591
0.097675 0.554040 0.095779
0.110214 0.555620 0.096005
0.128837 0.557490 0.096268
0.159684 0.559656 0.096567
0.196208 0.562123 0.096899
0.260715 0.564894 0.097263
0.329858 0.567971 0.097657
0.393729 0.571356 0.098101
0.440490 0.575049 0.098589
0.490899 0.579050 0.099101
0.536582 0.583359 0.099635
0.579154 0.587975 0.100188
0.607357 0.592710 0.100839
0.634237 0.597591 0.101699
0.661460 0.602749 0.102630
0.690169 0.608181 0.103581
0.713967 0.613882 0.104548
0.733530 0.619849 0.105529
0.752137 0.626076 0.106523
0.770504 0.632560 0.107574
0.788178 0.639295 0.108699
0.802777 0.646277 0.110164
0.817142 0.650798 0.111740
0.831283 0.655440 0.113328
0.844408 0.660204 0.114928
0.854156 0.665087 0.116574
0.861779 0.669990 0.118245
0.077280 0.587181 0.096475
0.077607 0.587254 0.096485
0.078992 0.587514 0.096522
0.081549 0.587994 0.096591
0.085391 0.588711 0.096692
0.091853 0.589678 0.096827
0.101380 0.590850 0.096997
0.114755 0.592251 0.097202
0.134597 0.593910 0.097441
0.167139 0.595832 0.097712
0.207055 0.598021 0.098032
0.272633 0.600480 0.098397
0.341983 0.603211 0.098791
0.400355 0.606216 0.099215
0.447157 0.609495 0.099665
0.496414 0.613049 0.100140
0.540995 0.616876 0.100661
0.582924 0.620977 0.101410
0.609812 0.625348 0.102230
0.636535 0.629990 0.103086
0.663771 0.634898 0.103966
0.692349 0.640070 0.104867
0.715412 0.645503 0.105786
0.734805 0.649360 0.106720
0.753333 0.653065 0.107732
0.771628 0.656913 0.108799
0.789043 0.660900 0.110227
0.803591 0.665022 0.111734
0.817909 0.669218 0.113257
0.832007 0.673384 0.114795
0.845017 0.677665 0.116377
0.854523 0.682057 0.117992
0.862125 0.686554 0.119658
0.079892 0.622359 0.097700
0.080281 0.622423 0.097710
0.081645 0.622654 0.097743
0.084150 0.623078 0.097805
0.088450 0.623713 0.097903
0.095463 0.624570 0.098037
0.105551 0.625658 0.098206
0.119776 0.626985 0.098409
0.142260 0.628557 0.098647
0.175382 0.630378 0.098918
0.218887 0.632454 0.099222
0.284126 0.634786 0.099556
0.350242 0.637377 0.099919
0.406294 0.640230 0.100310
0.454247 0.643344 0.100793
0.502268 0.646563 0.101432
0.545673 0.648838 0.102143
0.585855 0.651272 0.102894
0.612410 0.653863 0.103674
0.638968 0.656609 0.104482
0.666219 0.659507 0.105313
0.694661 0.662555 0.106166
0.716943 0.665750 0.107039
0.736157 0.669043 0.108021
0.754601 0.672356 0.109055
0.772822 0.675799 0.110464
0.789961 0.679368 0.111896
0.804454 0.683062 0.113349
0.818723 0.686875 0.114821
0.832776 0.690804 0.116339
0.845664 0.694846 0.117893
0.854912 0.698998 0.119461
0.862492 0.703254 0.121555
0.082638 0.653337 0.098978
0.082999 0.653375 0.098988
0.084432 0.653511 0.099021
0.087262 0.653762 0.099082
0.092271 0.654137 0.099174
0.099814 0.654642 0.099296
0.110101 0.655284 0.099450
0.125350 0.656066 0.099636
0.150495 0.656992 0.099854
0.183242 0.658065 0.100103
0.231598 0.659286 0.100381
0.292621 0.660657 0.100739
0.359018 0.662179 0.101225
0.412566 0.663853 0.101765
0.461218 0.665678 0.102367
0.508460 0.667654 0.103005
0.550615 0.669702 0.103679
0.588788 0.671869 0.104384
0.615151 0.674177 0.105119
0.641537 0.676624 0.105880
0.668806 0.679209 0.106667
0.697104 0.681930 0.107518
0.718560 0.684784 0.108440
0.737585 0.687768 0.109543
0.755943 0.690881 0.110870
0.774084 0.694120 0.112224
0.790933 0.697481 0.113603
0.805368 0.700962 0.115004
0.819585 0.704560 0.116459
0.833590 0.708271 0.117948
0.846349 0.712092 0.119454
0.855325 0.716020 0.121467
0.862881 0.720052 0.123521
0.085708 0.674824 0.100224
0.086110 0.674858 0.100233
0.087772 0.674979 0.100263
0.091125 0.675202 0.100319
0.096457 0.675534 0.100403
0.104332 0.675983 0.100515
0.115534 0.676553 0.100691
0.132003 0.677248 0.100938
0.159320 0.678071 0.101228
0.188947 0.679024 0.101562
0.245211 0.680109 0.101962
0.305944 0.681328 0.102405
0.368869 0.682682 0.102889
0.419170 0.684171 0.103413
0.468078 0.685795 0.103975
0.514990 0.687555 0.104573
0.555820 0.689450 0.105205
0.591868 0.691480 0.105868
0.618032 0.693643 0.106561
0.644240 0.695938 0.107301
0.671529 0.698364 0.108128
0.699679 0.700919 0.108991
0.720264 0.703601 0.110200
0.739090 0.706409 0.111443
0.757356 0.709340 0.112716
0.775414 0.712391 0.114017
0.791956 0.715562 0.115345
0.806332 0.718847 0.116738
0.820493 0.722247 0.118157
0.834448 0.725756 0.119630
0.847072 0.729426 0.121574
0.855760 0.733392 0.123549
0.863292 0.737467 0.125552
0.089492 0.695302 0.101831
0.090030 0.695333 0.101844
0.091940 0.695447 0.101887
0.095409 0.695655 0.101967
0.101200 0.695965 0.102087
0.109304 0.696385 0.102247
0.121613 0.696918 0.102450
0.140593 0.697567 0.102695
0.168754 0.698337 0.102983
0.202486 0.699228 0.103313
0.259941 0.700244 0.103685
0.321009 0.701385 0.104098
0.380662 0.702653 0.104550
0.426595 0.704048 0.105040
0.475291 0.705570 0.105566
0.521091 0.707221 0.106127
0.561286 0.708999 0.106720
0.595094 0.710904 0.107372
0.621053 0.712936 0.108099
0.647075 0.715093 0.108855
0.674390 0.717375 0.109899
0.702365 0.719779 0.111019
0.722052 0.722306 0.112175
0.740671 0.724952 0.113366
0.758841 0.727717 0.114588
0.776812 0.730730 0.115852
0.793033 0.733921 0.117173
0.807345 0.737232 0.118520
0.821450 0.740662 0.120020
0.835352 0.744206 0.121878
0.847833 0.747863 0.123769
0.856218 0.751631 0.125692
0.863724 0.755506 0.127646
0.094024 0.715490 0.103653
0.094539 0.715520 0.103664
0.096601 0.715626 0.103705
0.100486 0.715820 0.103779
0.106402 0.716112 0.103890
0.115356 0.716505 0.104039
0.128536 0.717004 0.104227
0.150280 0.717614 0.104455
0.179249 0.718335 0.104723
0.217190 0.719171 0.105030
0.275849 0.720124 0.105377
0.337337 0.721195 0.105762
0.393127 0.722386 0.106185
0.435507 0.723696 0.106644
0.482857 0.725127 0.107142
0.527065 0.726678 0.107728
0.567011 0.728350 0.108349
0.598465 0.730246 0.109022
0.624211 0.732284 0.109969
0.650041 0.734449 0.110959
0.677385 0.736741 0.111991
0.704364 0.739159 0.113061
0.723925 0.741701 0.114168
0.742327 0.744366 0.115309
0.760398 0.747153 0.116517
0.778279 0.750059 0.117760
0.794162 0.753084 0.119032
0.808409 0.756224 0.120608
0.822453 0.759478 0.122375
0.836301 0.762845 0.124180
0.848632 0.766321 0.126019
0.856699 0.769904 0.127911
0.864184 0.772723 0.129952
0.099243 0.735853 0.105431
0.099833 0.735882 0.105442
0.101810 0.735988 0.105479
0.105877 0.736184 0.105548
0.112312 0.736475 0.105651
0.122088 0.736869 0.105790
0.137079 0.737370 0.105965
0.160608 0.737980 0.106178
0.184276 0.738704 0.106428
0.232928 0.739542 0.106715
0.288646 0.740498 0.107039
0.349795 0.741572 0.107433
0.402233 0.742767 0.107873
0.444853 0.744083 0.108352
0.490690 0.745520 0.108868
0.533304 0.747079 0.109596
0.572994 0.748761 0.110405
0.601977 0.750565 0.111261
0.627505 0.752491 0.112162
0.653138 0.754538 0.113107
0.680514 0.756706 0.114091
0.706450 0.758994 0.115115
0.725882 0.761402 0.116200
0.744058 0.763927 0.117331
0.762026 0.766568 0.118495
0.779813 0.769325 0.119755
0.795342 0.771860 0.121388
0.809521 0.773702 0.123063
0.823503 0.775609 0.124779
0.837294 0.777580 0.126532
0.849468 0.779613 0.128371
0.857203 0.781707 0.130327
0.864680 0.783860 0.132318
0.104815 0.756821 0.107176
0.105429 0.756849 0.107187
0.107620 0.756949 0.107226
0.112018 0.757133 0.107297
0.119108 0.757409 0.107404
0.129833 0.757781 0.107548
0.147714 0.758253 0.107730
0.171626 0.758829 0.107951
0.199878 0.759512 0.108211
0.249717 0.760304 0.108510
0.302919 0.761206 0.108847
0.361197 0.762221 0.109325
0.410404 0.763350 0.109896
0.454635 0.764593 0.110518
0.498788 0.765952 0.111191
0.539804 0.767427 0.111913
0.579233 0.769018 0.112682
0.605628 0.770725 0.113497
0.630932 0.772078 0.114356
0.656423 0.773276 0.115257
0.683776 0.774543 0.116224
0.708624 0.775880 0.117236
0.727831 0.777286 0.118286
0.745863 0.778759 0.119371
