negative-superia-reala/SuperiaReala_Modern_ExtraSoft.cube
TITLE "Fuji Superia Reala Modern ExtraSoft"
# Adobe RGB in/out. REPLACES AgX. Fuji Superia Reala Modern ExtraSoft.
LUT_3D_SIZE 33
DOMAIN_MIN 0.0 0.0 0.0
DOMAIN_MAX 1.0 1.0 1.0
0.057575 0.063254 0.082403
0.062627 0.064865 0.082885
0.072004 0.067058 0.083680
0.085842 0.069625 0.084823
0.108615 0.072941 0.086125
0.148912 0.077414 0.087420
0.222310 0.081981 0.089184
0.301150 0.088257 0.090661
0.374542 0.094324 0.092160
0.429829 0.101288 0.093730
0.481324 0.109887 0.095849
0.520967 0.119297 0.097787
0.552136 0.131372 0.099565
0.581980 0.146340 0.101551
0.610586 0.162522 0.104199
0.636264 0.181988 0.106687
0.660196 0.203871 0.109031
0.674152 0.227590 0.111243
0.687367 0.251007 0.113526
0.699904 0.274810 0.116251
0.711818 0.299072 0.118855
0.723178 0.319499 0.121350
0.734044 0.340905 0.123749
0.744450 0.362423 0.126191
0.754425 0.384017 0.129599
0.763994 0.401954 0.132910
0.773183 0.416290 0.136129
0.781730 0.430377 0.139258
0.787133 0.444213 0.142805
0.792169 0.457795 0.146905
0.796996 0.471121 0.150920
0.801627 0.484189 0.154851
0.806070 0.496998 0.158698
0.058488 0.067447 0.082951
0.061201 0.066803 0.082977
0.068534 0.068476 0.083607
0.082354 0.071001 0.084725
0.104185 0.074122 0.086067
0.142272 0.078626 0.087356
0.212668 0.083167 0.089109
0.293634 0.089467 0.090608
0.367750 0.095323 0.092110
0.425909 0.102639 0.093694
0.477916 0.111071 0.095809
0.519084 0.120858 0.097757
0.550512 0.132905 0.099540
0.580562 0.148041 0.101516
0.609335 0.164514 0.104171
0.635238 0.183915 0.106663
0.659606 0.206022 0.109010
0.673660 0.229700 0.111225
0.686928 0.252968 0.113505
0.699509 0.276722 0.116232
0.711462 0.300856 0.118838
0.722856 0.321057 0.121335
0.733752 0.342413 0.123736
0.744184 0.363883 0.126174
0.754182 0.385432 0.129583
0.763772 0.402870 0.132896
0.772979 0.417164 0.136117
0.781603 0.431213 0.139247
0.787026 0.445012 0.142793
0.792070 0.458561 0.146894
0.796905 0.471856 0.150910
0.801542 0.484895 0.154843
0.805992 0.497676 0.158691
0.060134 0.074067 0.083931
0.062550 0.073459 0.083936
0.067005 0.072142 0.083999
0.076026 0.073721 0.084661
0.092741 0.077324 0.085944
0.125229 0.081474 0.087183
0.184568 0.087240 0.088891
0.267282 0.092999 0.090456
0.346279 0.098764 0.091962
0.412962 0.106975 0.093585
0.466467 0.115015 0.095683
0.512649 0.126113 0.097657
0.544914 0.139085 0.099460
0.575641 0.153917 0.101401
0.604971 0.171470 0.104074
0.631643 0.190893 0.106580
0.656383 0.213611 0.108939
0.671925 0.236848 0.111163
0.685375 0.259910 0.113430
0.698112 0.283502 0.116166
0.710198 0.306220 0.118779
0.721713 0.326589 0.121284
0.732714 0.347772 0.123690
0.743238 0.369078 0.126114
0.753318 0.390471 0.129530
0.762980 0.406127 0.132849
0.772251 0.420274 0.136075
0.781152 0.434187 0.139211
0.786644 0.447861 0.142748
0.791718 0.461292 0.146855
0.796579 0.474476 0.150877
0.801241 0.487413 0.154813
0.805713 0.500098 0.158665
0.061847 0.083494 0.085294
0.064304 0.082707 0.085298
0.069389 0.081242 0.085312
0.075505 0.079807 0.085409
0.085786 0.080889 0.086006
0.110343 0.086032 0.087083
0.153069 0.092131 0.088706
0.230826 0.097624 0.090301
0.315733 0.105661 0.091790
0.393093 0.113444 0.093445
0.448246 0.123480 0.095510
0.502031 0.135203 0.097513
0.535501 0.149422 0.099339
0.567247 0.165146 0.101224
0.597444 0.183533 0.103921
0.625382 0.204462 0.106447
0.650729 0.227047 0.108822
0.668856 0.249457 0.111060
0.682615 0.272286 0.113306
0.695618 0.295634 0.116055
0.707938 0.315796 0.118680
0.719662 0.336512 0.121196
0.730848 0.357409 0.123613
0.741535 0.378441 0.126010
0.751758 0.397882 0.129438
0.761548 0.411988 0.132768
0.770934 0.425882 0.136003
0.779938 0.439559 0.139147
0.785949 0.453013 0.142672
0.791077 0.466238 0.146788
0.795988 0.479230 0.150818
0.800694 0.491984 0.154763
0.805206 0.504499 0.158622
0.064496 0.098797 0.086738
0.066298 0.097931 0.086736
0.072149 0.096093 0.086731
0.079844 0.093568 0.086739
0.087757 0.091478 0.086829
0.103740 0.092600 0.087389
0.136052 0.097656 0.088820
0.199261 0.105688 0.090296
0.284859 0.113514 0.091721
0.363506 0.123540 0.093357
0.426504 0.135068 0.095373
0.481744 0.148951 0.097382
0.523290 0.164040 0.099219
0.556110 0.181813 0.101034
0.587278 0.201720 0.103748
0.616798 0.223480 0.106291
0.642888 0.245276 0.108680
0.664545 0.267333 0.110932
0.678709 0.289934 0.113147
0.692068 0.310631 0.115910
0.704707 0.330422 0.118550
0.716719 0.350783 0.121081
0.728160 0.371324 0.123511
0.739073 0.392008 0.125872
0.749498 0.406713 0.129314
0.759469 0.420456 0.132658
0.769016 0.434010 0.135906
0.778166 0.447366 0.139062
0.784934 0.460517 0.142568
0.790140 0.473457 0.146697
0.795121 0.486180 0.150739
0.799890 0.498680 0.154695
0.804459 0.510955 0.158565
0.068199 0.134661 0.089246
0.070543 0.132896 0.089223
0.077179 0.127979 0.089137
0.085762 0.119986 0.088968
0.095916 0.112140 0.088749
0.108743 0.108036 0.088804
0.128850 0.108328 0.089340
0.178602 0.115160 0.090551
0.254578 0.125296 0.091876
0.333719 0.137091 0.093408
0.404844 0.150919 0.095367
0.459876 0.166365 0.097334
0.509702 0.183960 0.099149
0.543337 0.203861 0.100899
0.575337 0.225199 0.103607
0.605810 0.246415 0.106151
0.633344 0.267909 0.108545
0.658881 0.289905 0.110804
0.673823 0.310103 0.112982
0.687589 0.329305 0.115756
0.700609 0.349103 0.118409
0.712965 0.369104 0.120954
0.724713 0.389276 0.123397
0.735902 0.404576 0.125744
0.746576 0.418060 0.129175
0.756771 0.431383 0.132533
0.766520 0.444536 0.135795
0.775854 0.457510 0.138964
0.783606 0.470298 0.142450
0.788910 0.482892 0.146593
0.793981 0.495286 0.150649
0.798831 0.507474 0.154618
0.803475 0.518418 0.158500
0.072615 0.196694 0.091424
0.074946 0.197248 0.091500
0.082035 0.187070 0.091357
0.091170 0.169163 0.091075
0.104391 0.150823 0.090745
0.117379 0.138869 0.090602
0.137661 0.132393 0.090715
0.168173 0.131103 0.091065
0.234900 0.142394 0.092305
0.310833 0.155252 0.093655
0.386012 0.171235 0.095570
0.439502 0.188693 0.097433
0.493386 0.209266 0.099183
0.530127 0.230584 0.100889
0.562613 0.251429 0.103555
0.593665 0.272715 0.106073
0.622711 0.294416 0.108454
0.648863 0.313438 0.110706
0.668191 0.332468 0.112845
0.682382 0.351810 0.115621
0.695806 0.371341 0.118282
0.708531 0.391039 0.120836
0.720616 0.405438 0.123289
0.732113 0.418610 0.125646
0.743066 0.431641 0.129039
0.753516 0.444523 0.132411
0.763498 0.457249 0.135686
0.773044 0.469810 0.138867
0.781846 0.482199 0.142332
0.787405 0.494409 0.146490
0.792582 0.506433 0.150561
0.797530 0.517565 0.154544
0.802264 0.525922 0.158439
0.077176 0.272942 0.093603
0.079549 0.273464 0.093659
0.086446 0.267783 0.093665
0.097782 0.242574 0.093246
0.111560 0.215826 0.092827
0.128717 0.193197 0.092542
0.150784 0.178918 0.092478
0.184852 0.171163 0.092662
0.227153 0.168443 0.093063
0.295369 0.180791 0.094290
0.364529 0.198014 0.096020
0.422292 0.217942 0.097720
0.474369 0.238581 0.099360
0.517530 0.259327 0.101066
0.550042 0.280587 0.103645
0.581322 0.301926 0.106104
0.611358 0.319920 0.108444
0.638232 0.338934 0.110669
0.662091 0.358031 0.112786
0.676687 0.377267 0.115540
0.690497 0.395910 0.118199
0.703586 0.408919 0.120753
0.716010 0.421796 0.123209
0.727823 0.434536 0.125571
0.739068 0.447134 0.128931
0.749789 0.459587 0.132312
0.760022 0.471888 0.135596
0.769799 0.484031 0.138787
0.779151 0.496011 0.142236
0.785653 0.507822 0.146407
0.790949 0.518423 0.150491
0.796007 0.526645 0.154486
0.800841 0.534686 0.158394
0.082049 0.350418 0.096446
0.084080 0.350851 0.096510
0.090597 0.342491 0.096388
0.103808 0.320566 0.095885
0.118360 0.296371 0.095339
0.139245 0.269895 0.094888
0.166557 0.248641 0.094638
0.203044 0.233736 0.094654
0.244861 0.224670 0.094944
0.291736 0.220859 0.095474
0.349512 0.232640 0.096703
0.408895 0.251026 0.098208
0.458498 0.270789 0.099701
0.506301 0.291536 0.101471
0.538370 0.310594 0.103918
0.569483 0.329010 0.106281
0.599556 0.347926 0.108551
0.627529 0.366931 0.110727
0.653306 0.386054 0.112812
0.670754 0.401704 0.115548
0.684898 0.414505 0.118188
0.698314 0.427158 0.120730
0.711055 0.439664 0.123179
0.723170 0.452020 0.125537
0.734703 0.464227 0.128878
0.745694 0.476282 0.132260
0.756180 0.488183 0.135548
0.766195 0.499925 0.138744
0.775769 0.511506 0.142184
0.783687 0.520916 0.146365
0.789111 0.528973 0.150458
0.794286 0.536861 0.154463
0.799230 0.544578 0.158382
0.087364 0.420183 0.099092
0.089121 0.418422 0.099052
0.097053 0.409686 0.098796
0.109520 0.395685 0.098395
0.126648 0.371316 0.097930
0.149701 0.346192 0.097498
0.182781 0.323861 0.097187
0.220968 0.306628 0.097057
0.263435 0.293273 0.097139
0.306150 0.284166 0.097431
0.348696 0.279913 0.097908
0.399154 0.288543 0.098877
0.446037 0.306140 0.100205
0.494437 0.322863 0.102121
0.528088 0.340927 0.104398
0.558670 0.359428 0.106630
0.588473 0.378212 0.108803
0.617270 0.396304 0.110909
0.643189 0.409088 0.112989
0.664824 0.421739 0.115677
0.679222 0.434240 0.118279
0.692905 0.446585 0.120794
0.705917 0.458769 0.123223
0.718301 0.470791 0.125567
0.730096 0.482651 0.128909
0.741342 0.494349 0.132282
0.752072 0.505884 0.135564
0.762319 0.516837 0.138757
0.772113 0.524891 0.142203
0.781373 0.532779 0.146386
0.787103 0.540501 0.150483
0.792401 0.548060 0.154494
0.797459 0.555456 0.158420
0.093196 0.469373 0.101528
0.095610 0.467144 0.101425
0.103384 0.459542 0.101077
0.115033 0.447028 0.100605
0.134454 0.431235 0.100212
0.160842 0.414178 0.099819
0.197829 0.397697 0.099492
0.237939 0.377840 0.099287
0.281737 0.360768 0.099239
0.320862 0.348374 0.099362
0.362522 0.340418 0.099651
0.400435 0.336346 0.100087
0.436739 0.341025 0.100943
0.482706 0.357313 0.103005
0.519434 0.374561 0.105089
0.549246 0.392552 0.107168
0.578559 0.405567 0.109223
0.607250 0.418027 0.111237
0.633678 0.430450 0.113339
0.658724 0.442781 0.115953
0.673664 0.454983 0.118497
0.687536 0.467036 0.120967
0.700756 0.478926 0.123361
0.713359 0.490648 0.125679
0.725379 0.502199 0.129051
0.736848 0.513578 0.132402
0.747800 0.522253 0.135668
0.758263 0.530152 0.138849
0.768266 0.537883 0.142318
0.777835 0.545450 0.146495
0.784967 0.552855 0.150589
0.790386 0.560100 0.154599
0.795559 0.567186 0.158526
0.100451 0.516453 0.104776
0.102581 0.514787 0.104693
0.109573 0.508121 0.104411
0.122247 0.496926 0.103946
0.142777 0.482376 0.103364
0.173109 0.466062 0.102751
0.211719 0.449565 0.102198
0.253687 0.434190 0.101784
0.296311 0.420856 0.101566
0.335143 0.410093 0.101582
0.376618 0.402083 0.101841
0.409032 0.396739 0.102336
0.439655 0.393507 0.103039
0.473803 0.395021 0.104100
0.512527 0.405909 0.105989
0.541433 0.417302 0.107904
0.570044 0.429024 0.109821
0.598225 0.440925 0.111723
0.625043 0.452890 0.113880
0.649941 0.464834 0.116397
0.668390 0.476698 0.118862
0.682362 0.488441 0.121269
0.695717 0.500038 0.123613
0.708478 0.511471 0.125940
0.720672 0.520780 0.129329
0.732325 0.528723 0.132643
0.743465 0.536494 0.135880
0.754118 0.544094 0.139039
0.764309 0.551527 0.142556
0.774063 0.558796 0.146715
0.782668 0.565903 0.150797
0.788279 0.572853 0.154799
0.793563 0.579646 0.158720
0.107396 0.549392 0.107759
0.109291 0.548197 0.107692
0.115605 0.544046 0.107461
0.130120 0.536938 0.107073
0.151204 0.527431 0.106573
0.184927 0.516372 0.106026
0.224679 0.500484 0.105502
0.268214 0.484815 0.105067
0.309124 0.470532 0.104774
0.348560 0.458263 0.104661
0.388666 0.448371 0.104750
0.417643 0.440965 0.105048
0.447524 0.435961 0.105546
0.478437 0.433146 0.106222
0.507283 0.432555 0.107078
0.535210 0.442990 0.108823
0.562993 0.453890 0.110593
0.590509 0.465101 0.112369
0.617448 0.476492 0.114620
0.642037 0.487955 0.117020
0.663526 0.499410 0.119388
0.677510 0.510796 0.121715
0.690922 0.520303 0.123994
0.703775 0.528283 0.126439
0.716086 0.536104 0.129764
0.727874 0.543758 0.133026
0.739162 0.551246 0.136221
0.749972 0.558565 0.139345
0.760324 0.565719 0.142940
0.770241 0.572710 0.147070
0.779744 0.579540 0.151129
0.786116 0.586212 0.155113
0.791506 0.592729 0.159020
0.114045 0.580774 0.110512
0.115742 0.579742 0.110457
0.123842 0.576138 0.110265
0.138199 0.569897 0.109939
0.161222 0.561409 0.109510
0.196464 0.551319 0.109025
0.236937 0.540380 0.108542
0.281702 0.529324 0.108113
0.320897 0.518787 0.107785
0.361096 0.506782 0.107597
0.397348 0.495559 0.107573
0.426102 0.486526 0.107727
0.455518 0.479735 0.108059
0.485774 0.475099 0.108561
0.511221 0.472436 0.109216
0.531337 0.471512 0.110004
0.557351 0.480201 0.111524
0.584115 0.490621 0.113293
0.610627 0.501331 0.115557
0.635119 0.512215 0.117825
0.658805 0.521098 0.120081
0.673072 0.528951 0.122314
0.686467 0.536716 0.124512
0.699344 0.544365 0.127129
0.711712 0.551878 0.130374
0.723585 0.559243 0.133569
0.734977 0.566451 0.136707
0.745904 0.573500 0.139784
0.756384 0.580388 0.143492
0.766436 0.587115 0.147581
0.776078 0.593683 0.151606
0.783934 0.600094 0.155561
0.789420 0.606351 0.159445
0.122288 0.610766 0.113159
0.124574 0.609869 0.113096
0.132456 0.606723 0.112877
0.147208 0.601229 0.112587
0.172711 0.593656 0.112219
0.207897 0.584498 0.111794
0.248796 0.574359 0.111356
0.292612 0.563858 0.110949
0.331830 0.553561 0.110614
0.372760 0.543939 0.110384
0.405446 0.535351 0.110285
0.434163 0.528038 0.110335
0.463339 0.522129 0.110540
0.493158 0.517655 0.110899
0.515510 0.514112 0.111404
0.535111 0.511618 0.112041
0.554834 0.510713 0.112794
0.578970 0.517008 0.114575
0.604802 0.524162 0.116680
0.629216 0.531469 0.118808
0.652488 0.538854 0.120941
0.669106 0.546254 0.123067
0.682417 0.553618 0.125173
0.695256 0.560908 0.128022
0.707625 0.568094 0.131171
0.719530 0.575156 0.134283
0.730978 0.582081 0.137351
0.741983 0.588858 0.140368
0.752556 0.595484 0.144231
0.762712 0.601956 0.148266
0.772467 0.608273 0.152244
0.781611 0.613919 0.156160
0.787339 0.617712 0.160010
0.131527 0.629197 0.116434
0.133650 0.628727 0.116381
0.141698 0.627072 0.116195
0.156773 0.624154 0.115875
0.184426 0.620074 0.115441
0.219329 0.614974 0.114931
0.260383 0.606715 0.114393
0.302325 0.596848 0.113875
0.341998 0.586949 0.113426
0.383925 0.577450 0.113087
0.412892 0.568702 0.112890
0.441675 0.560965 0.112859
0.470771 0.554410 0.113010
0.500342 0.549121 0.113347
0.519768 0.545111 0.113869
0.538953 0.542333 0.114565
0.558228 0.540697 0.115420
0.577598 0.540090 0.116415
0.600087 0.543649 0.117972
0.624299 0.550348 0.119956
0.647098 0.557185 0.121960
0.665638 0.564094 0.123971
0.678810 0.571022 0.126071
0.691557 0.577920 0.129122
0.703875 0.584754 0.132162
0.715763 0.591494 0.135179
0.727225 0.598122 0.138164
0.738266 0.604621 0.141164
0.748895 0.610982 0.145171
0.759123 0.615721 0.149139
0.768961 0.619423 0.153058
0.778421 0.622999 0.156924
0.785290 0.626473 0.160731
0.141235 0.645557 0.119520
0.143510 0.645151 0.119475
0.151472 0.643718 0.119317
0.169231 0.641177 0.119043
0.196346 0.637596 0.118668
0.230805 0.633133 0.118221
0.271771 0.628011 0.117740
0.311577 0.622478 0.117264
0.351491 0.616789 0.116835
0.390951 0.609700 0.116488
0.419683 0.600994 0.116255
0.448568 0.593065 0.116159
0.477680 0.586103 0.116218
0.504982 0.580228 0.116440
0.523864 0.575497 0.116828
0.542734 0.571909 0.117379
0.561646 0.569418 0.118082
0.580625 0.567949 0.118927
0.599674 0.567406 0.119896
0.620292 0.569797 0.121253
0.642592 0.576070 0.123127
0.662665 0.582466 0.125020
0.675659 0.588928 0.127511
0.688271 0.595407 0.130428
0.700494 0.601862 0.133347
0.712323 0.608259 0.136258
0.723756 0.614007 0.139149
0.734795 0.617915 0.142409
0.745445 0.621598 0.146325
0.755712 0.625190 0.150213
0.765605 0.628685 0.154062
0.775132 0.632084 0.157867
0.783274 0.635385 0.161620
0.151517 0.660989 0.122432
0.153662 0.660636 0.122394
0.163499 0.659389 0.122260
0.181914 0.657168 0.122025
0.208397 0.654016 0.121701
0.242329 0.650053 0.121310
0.283014 0.645452 0.120882
0.320449 0.640417 0.120451
0.360402 0.635159 0.120050
0.397059 0.629883 0.119711
0.425853 0.624771 0.119461
0.454829 0.619979 0.119325
0.483999 0.615603 0.119319
0.508985 0.610763 0.119455
0.527703 0.605505 0.119738
0.546347 0.601278 0.120169
0.564978 0.598076 0.120745
0.583638 0.595857 0.121455
0.602345 0.594554 0.122291
0.620642 0.594086 0.123238
0.638899 0.595467 0.124426
0.660164 0.601342 0.126411
0.672954 0.607323 0.129156
0.685401 0.613219 0.131932
0.697495 0.617090 0.134724
0.709229 0.620742 0.137520
0.720598 0.624349 0.140308
0.731601 0.627895 0.143884
0.742239 0.631370 0.147699
0.752515 0.634766 0.151495
0.762434 0.638077 0.155263
0.772002 0.641301 0.158996
0.781202 0.644433 0.162686
0.164150 0.675560 0.125183
0.166943 0.675253 0.125150
0.176876 0.674163 0.125036
0.194767 0.672215 0.124835
0.220561 0.669435 0.124556
0.253896 0.665913 0.124215
0.292350 0.661785 0.123837
0.329004 0.657216 0.123450
0.368816 0.652384 0.123081
0.402676 0.647464 0.122759
0.431453 0.642617 0.122508
0.460480 0.637988 0.122349
0.489708 0.633695 0.122300
0.512612 0.629832 0.122373
0.531225 0.626467 0.122576
0.549712 0.623640 0.122912
0.568136 0.621368 0.123381
0.586545 0.619648 0.123978
0.604971 0.618460 0.124695
0.622790 0.617770 0.125523
0.639838 0.617538 0.126796
0.657053 0.617854 0.128398
0.670671 0.621182 0.130991
0.682933 0.624553 0.133624
0.694874 0.627943 0.136284
0.706486 0.631327 0.138960
0.717763 0.634686 0.141894
0.728701 0.638004 0.145592
0.739299 0.641267 0.149294
0.749555 0.644465 0.152989
0.759474 0.647591 0.156667
0.769058 0.650638 0.160319
0.778313 0.653603 0.163936
0.178048 0.689333 0.128840
0.180748 0.689064 0.128797
0.190364 0.688108 0.128648
0.207696 0.686396 0.128383
0.232817 0.683939 0.128014
0.265488 0.680806 0.127560
0.301159 0.677104 0.127052
0.337289 0.672969 0.126525
0.376936 0.668547 0.126015
0.407866 0.663987 0.125640
0.436544 0.659434 0.125397
0.465561 0.655015 0.125230
0.494821 0.650842 0.125155
0.515855 0.647008 0.125184
0.534397 0.643581 0.125327
0.552777 0.640613 0.125589
0.571052 0.638130 0.126063
0.589272 0.636144 0.126829
0.607474 0.634648 0.127772
0.624871 0.633624 0.128882
0.641673 0.633042 0.130149
0.658453 0.632868 0.131559
0.669030 0.633065 0.133098
0.680841 0.635818 0.135488
0.692615 0.638921 0.138016
0.704087 0.642037 0.140569
0.715251 0.645147 0.143960
0.726101 0.648233 0.147528
0.736633 0.651282 0.151111
0.746847 0.654279 0.154697
0.756742 0.657217 0.158276
0.766319 0.660088 0.161838
0.775582 0.662886 0.165374
0.191989 0.699895 0.132644
0.194600 0.699718 0.132608
0.203890 0.699090 0.132479
0.220661 0.697960 0.132250
0.245122 0.696332 0.131929
0.277082 0.694242 0.131533
0.309832 0.691493 0.131085
0.345340 0.687757 0.130614
0.384838 0.683723 0.130153
0.412686 0.679521 0.129731
0.441181 0.675273 0.129379
0.470121 0.671096 0.129123
0.499368 0.667091 0.128987
0.518721 0.663346 0.128988
0.537207 0.659932 0.129142
0.555512 0.656901 0.129459
0.573682 0.654289 0.129943
0.591763 0.652116 0.130595
0.609793 0.650387 0.131415
0.626826 0.649096 0.132395
0.643421 0.648223 0.133527
0.659871 0.647744 0.134802
0.669816 0.647631 0.136207
0.679642 0.647850 0.137731
0.690693 0.650000 0.139906
0.702014 0.652853 0.142855
0.713050 0.655717 0.146251
0.723795 0.658572 0.149685
0.734244 0.661404 0.153144
0.744395 0.664200 0.156615
0.754246 0.666949 0.160088
0.763798 0.669642 0.163554
0.773050 0.672272 0.167445
0.205892 0.709092 0.136280
0.208404 0.708937 0.136249
0.217371 0.708386 0.136138
0.233637 0.707393 0.135941
0.257433 0.705956 0.135664
0.287941 0.704104 0.135319
0.318369 0.701886 0.134927
0.353177 0.699366 0.134511
0.389768 0.696621 0.134098
0.417181 0.693730 0.133716
0.445418 0.690189 0.133389
0.474211 0.686271 0.133144
0.502590 0.682466 0.133000
0.521229 0.678857 0.132976
0.539661 0.675510 0.133085
0.557907 0.672481 0.133340
0.576000 0.669809 0.133746
0.593979 0.667519 0.134307
0.611879 0.665626 0.135023
0.628606 0.664131 0.135892
0.645033 0.663026 0.136906
0.660735 0.662294 0.138060
0.670558 0.661915 0.139343
0.680264 0.661862 0.140745
0.689852 0.662109 0.142746
0.700243 0.663753 0.145501
0.711143 0.666376 0.148754
0.721772 0.669004 0.152052
0.732125 0.671622 0.155384
0.742198 0.674217 0.158737
0.751990 0.676777 0.162100
0.761498 0.679292 0.165467
0.770723 0.681754 0.169787
0.219696 0.717762 0.139754
0.222126 0.717626 0.139728
0.230805 0.717141 0.139633
0.246575 0.716266 0.139464
0.269708 0.714998 0.139225
0.297165 0.713355 0.138928
0.326764 0.711378 0.138587
0.360814 0.709118 0.138223
0.394438 0.706640 0.137858
0.421393 0.704009 0.137517
0.449302 0.701296 0.137222
0.477880 0.698566 0.136994
0.504851 0.695883 0.136854
0.523404 0.693303 0.136817
0.541773 0.690322 0.136899
0.559964 0.687345 0.137109
0.577995 0.684668 0.137456
0.595896 0.682322 0.137945
0.613698 0.680326 0.138576
0.630174 0.678687 0.139351
0.646467 0.677405 0.140264
0.661511 0.676472 0.141441
0.671231 0.675872 0.143060
0.680831 0.675588 0.144849
0.690315 0.675597 0.146795
0.699684 0.675875 0.148889
0.709508 0.677103 0.151453
0.720014 0.679511 0.154617
0.730262 0.681920 0.157821
0.740247 0.684317 0.161054
0.749967 0.686689 0.164304
0.759420 0.689027 0.168167
0.768604 0.691322 0.172376
0.233395 0.725937 0.143874
0.235745 0.725818 0.143842
0.244145 0.725391 0.143730
0.259431 0.724620 0.143532
0.281907 0.723498 0.143250
0.306250 0.722041 0.142897
0.335007 0.720279 0.142491
0.368257 0.718256 0.142057
0.398905 0.716022 0.141619
0.425351 0.713636 0.141207
0.452872 0.711155 0.140879
0.481174 0.708639 0.140675
0.506830 0.706142 0.140547
0.525272 0.703715 0.140509
0.543563 0.701404 0.140575
0.561692 0.699247 0.140756
0.579667 0.697275 0.141095
0.597506 0.695513 0.141691
0.615219 0.693978 0.142469
0.631502 0.692681 0.143432
0.647691 0.691322 0.144577
0.662177 0.690236 0.145902
0.671811 0.689462 0.147400
0.681323 0.688987 0.149064
0.690717 0.688794 0.150886
0.699996 0.688864 0.152854
0.709161 0.689177 0.154959
0.718501 0.690071 0.157366
0.728639 0.692278 0.160444
0.738530 0.693996 0.163556
0.748169 0.695637 0.167046
0.757556 0.697258 0.171112
0.766688 0.698852 0.175207
0.246945 0.733649 0.148274
0.249218 0.733544 0.148247
0.257348 0.733168 0.148152
0.272162 0.732487 0.147982
0.292227 0.731496 0.147741
0.315175 0.730203 0.147439
0.343086 0.728634 0.147091
0.375592 0.726824 0.146716
0.403184 0.724816 0.146338
0.429080 0.722657 0.145980
0.456162 0.720398 0.145667
0.484130 0.718089 0.145423
0.508556 0.715779 0.145269
0.526860 0.713514 0.145226
0.545053 0.711335 0.145310
0.563111 0.709278 0.145536
0.581025 0.707374 0.145917
0.598806 0.705646 0.146460
0.616363 0.704113 0.147171
0.632576 0.702789 0.148055
0.648681 0.701679 0.149111
0.662717 0.700787 0.150337
0.672282 0.700110 0.151730
0.681720 0.699642 0.153285
0.691038 0.699374 0.154993
0.700240 0.699296 0.156847
0.709329 0.699394 0.158839
0.718305 0.699656 0.160957
0.727236 0.700132 0.163237
0.737028 0.701641 0.166452
0.746583 0.703144 0.170349
0.755897 0.704632 0.174293
0.764969 0.706100 0.178271
0.260306 0.740924 0.152504
0.262505 0.740831 0.152482
0.270374 0.740500 0.152401
0.284729 0.739899 0.152258
0.301750 0.739022 0.152055
0.323918 0.737876 0.151799
0.350986 0.736481 0.151504
0.382905 0.734864 0.151186
0.407284 0.733062 0.150866
0.432600 0.731114 0.150562
0.459200 0.729064 0.150298
0.486785 0.726955 0.150094
0.510053 0.724831 0.149970
0.528194 0.722731 0.149944
0.546268 0.720694 0.150033
0.564237 0.718751 0.150250
0.582084 0.716933 0.150608
0.599806 0.715263 0.151114
0.617234 0.713759 0.151776
0.633387 0.712437 0.152597
0.649426 0.711304 0.153580
0.663119 0.710366 0.154725
0.672629 0.709624 0.156028
0.682007 0.709074 0.157487
0.691262 0.708711 0.159095
0.700399 0.708527 0.160846
0.709422 0.708512 0.162733
0.718334 0.708655 0.164748
0.727134 0.708945 0.167289
0.735822 0.709370 0.170183
0.745192 0.710651 0.173876
0.754430 0.712013 0.177698
0.763437 0.713359 0.181559
0.273441 0.747785 0.156566
0.275568 0.747704 0.156547
0.283185 0.747412 0.156480
0.294713 0.746882 0.156361
0.311050 0.746107 0.156191
0.332460 0.745092 0.155979
0.358693 0.743852 0.155733
0.388223 0.742411 0.155470
0.411211 0.740797 0.155204
0.435924 0.739046 0.154955
0.462009 0.737192 0.154740
0.489167 0.735275 0.154580
0.511346 0.733331 0.154490
0.529298 0.731397 0.154489
0.547230 0.729506 0.154591
0.565093 0.727688 0.154810
0.582859 0.725970 0.155156
0.600515 0.724375 0.155639
0.617835 0.722922 0.156265
0.633935 0.721625 0.157040
0.649917 0.720495 0.157965
0.663377 0.719539 0.159043
0.672842 0.718758 0.160271
0.682172 0.718153 0.161648
