negative-superia-reala/SuperiaReala_Modern_Soft.cube
TITLE "Fuji Superia Reala Modern Soft"
# Adobe RGB in/out. REPLACES AgX. Fuji Superia Reala Modern Soft.
LUT_3D_SIZE 33
DOMAIN_MIN 0.0 0.0 0.0
DOMAIN_MAX 1.0 1.0 1.0
0.061901 0.068453 0.087572
0.067724 0.069846 0.088166
0.077235 0.072024 0.089184
0.091196 0.074669 0.090206
0.112314 0.078095 0.091407
0.155521 0.082554 0.093091
0.220042 0.087686 0.094453
0.299121 0.092724 0.096244
0.374455 0.098659 0.098084
0.428501 0.104961 0.099722
0.479248 0.111741 0.101467
0.524033 0.122196 0.103404
0.561329 0.131021 0.105534
0.592111 0.148235 0.107638
0.614658 0.164647 0.109832
0.635802 0.181278 0.112353
0.654604 0.202138 0.114725
0.672482 0.225505 0.116963
0.689510 0.249601 0.119079
0.704740 0.273764 0.121611
0.715635 0.295490 0.124158
0.726008 0.317812 0.126637
0.735916 0.337722 0.129427
0.745391 0.360165 0.132115
0.754463 0.377647 0.135261
0.763156 0.394985 0.138681
0.771494 0.412164 0.142004
0.779495 0.429169 0.145234
0.786881 0.445384 0.148373
0.792262 0.457856 0.152029
0.797423 0.470064 0.155698
0.802375 0.482007 0.159279
0.806928 0.493688 0.162773
0.063140 0.072453 0.088279
0.065905 0.071679 0.088304
0.073902 0.073420 0.089113
0.087334 0.076151 0.090143
0.107946 0.079316 0.091320
0.147904 0.083744 0.093027
0.209752 0.088746 0.094400
0.291284 0.093821 0.096169
0.367938 0.099712 0.098033
0.424391 0.105931 0.099685
0.476156 0.113200 0.101427
0.521793 0.123475 0.103374
0.559375 0.132019 0.105503
0.590987 0.150041 0.107612
0.613677 0.166362 0.109803
0.635004 0.182909 0.112328
0.653896 0.204258 0.114704
0.671851 0.227583 0.116945
0.688943 0.251635 0.119063
0.704379 0.275483 0.121592
0.715310 0.297152 0.124141
0.725714 0.319169 0.126620
0.735650 0.339495 0.129411
0.745149 0.361352 0.132102
0.754242 0.378786 0.135245
0.762954 0.396079 0.138667
0.771308 0.413215 0.141992
0.779325 0.430181 0.145224
0.786767 0.446118 0.148364
0.792157 0.458558 0.152019
0.797326 0.470736 0.155689
0.802285 0.482651 0.159271
0.806851 0.494306 0.162766
0.064862 0.079259 0.089377
0.067626 0.078630 0.089381
0.072223 0.077269 0.089422
0.081059 0.078902 0.090089
0.098271 0.082465 0.091193
0.128304 0.087062 0.092853
0.183377 0.091800 0.094243
0.267309 0.097264 0.095951
0.350512 0.103137 0.097878
0.413190 0.109018 0.099571
0.465754 0.118278 0.101301
0.513506 0.127329 0.103274
0.552651 0.138736 0.105400
0.587082 0.156285 0.107527
0.610251 0.172327 0.109705
0.632178 0.189344 0.112245
0.651407 0.211735 0.114632
0.669622 0.234929 0.116882
0.686937 0.258844 0.119008
0.703100 0.281569 0.121527
0.714155 0.303196 0.124084
0.724671 0.323983 0.126560
0.734704 0.345809 0.129359
0.744289 0.365572 0.132056
0.753457 0.382836 0.135189
0.762235 0.399972 0.138618
0.770648 0.416961 0.141949
0.778718 0.433789 0.145186
0.786358 0.448736 0.148331
0.791780 0.461062 0.151983
0.796977 0.473133 0.155658
0.801963 0.484949 0.159244
0.806576 0.496511 0.162743
0.066879 0.088973 0.090543
0.069212 0.088427 0.090546
0.074724 0.086776 0.090561
0.080650 0.085014 0.090658
0.091133 0.086343 0.091255
0.114109 0.090721 0.092753
0.160306 0.096349 0.094110
0.229061 0.102253 0.095729
0.317173 0.108087 0.097699
0.395884 0.116374 0.099425
0.447839 0.125464 0.101128
0.498433 0.133519 0.103130
0.541374 0.151507 0.105245
0.579550 0.166905 0.107396
0.604329 0.182585 0.109550
0.626893 0.202719 0.112110
0.647032 0.224970 0.114514
0.665685 0.247993 0.116778
0.683376 0.271494 0.118916
0.700190 0.292422 0.121418
0.712089 0.314487 0.123986
0.722799 0.332590 0.126458
0.733003 0.356078 0.129269
0.742738 0.373150 0.131977
0.752039 0.390128 0.135094
0.760935 0.406994 0.138534
0.769453 0.423730 0.141875
0.777617 0.440318 0.145120
0.785447 0.453468 0.148274
0.791096 0.465594 0.151922
0.796345 0.477478 0.155605
0.801377 0.489119 0.159198
0.806075 0.500517 0.162704
0.069381 0.103161 0.092319
0.071461 0.102532 0.092316
0.077374 0.100523 0.092307
0.084470 0.097863 0.092320
0.093334 0.095661 0.092454
0.107554 0.096843 0.093059
0.140755 0.102289 0.094192
0.195510 0.108106 0.095721
0.284297 0.116468 0.097627
0.364106 0.125506 0.099333
0.425015 0.133338 0.100991
0.479629 0.151007 0.103000
0.526798 0.165954 0.105091
0.566112 0.181129 0.107255
0.596305 0.200017 0.109375
0.619634 0.221457 0.111951
0.640952 0.243657 0.114371
0.660163 0.266562 0.116649
0.678344 0.287328 0.118799
0.695590 0.308389 0.121277
0.709134 0.327311 0.123859
0.720112 0.349366 0.126332
0.730552 0.367393 0.129150
0.740497 0.384070 0.131871
0.749984 0.400673 0.134967
0.759046 0.417180 0.138421
0.767714 0.433574 0.141775
0.776011 0.448281 0.145032
0.783962 0.460352 0.148196
0.790094 0.472200 0.151839
0.795418 0.483824 0.155533
0.800517 0.495221 0.159137
0.805340 0.506387 0.162652
0.073488 0.132985 0.094498
0.075833 0.132014 0.094482
0.081961 0.128644 0.094420
0.091107 0.122761 0.094298
0.100766 0.114627 0.094141
0.112448 0.109768 0.094180
0.131934 0.109974 0.094571
0.182345 0.118416 0.096088
0.253948 0.126752 0.097788
0.339925 0.136050 0.099386
0.406197 0.153098 0.100985
0.459756 0.167952 0.102951
0.509309 0.182947 0.105002
0.550760 0.202127 0.107155
0.586840 0.223150 0.109232
0.610910 0.244838 0.111809
0.633529 0.267161 0.114234
0.653337 0.287302 0.116519
0.672060 0.307766 0.118677
0.689797 0.326342 0.121126
0.705386 0.347381 0.123722
0.716683 0.365593 0.126208
0.727408 0.381877 0.129017
0.737609 0.398117 0.131752
0.747326 0.414293 0.134823
0.756595 0.430388 0.138292
0.765449 0.445680 0.141660
0.773916 0.457595 0.144931
0.782020 0.469311 0.148108
0.788780 0.480823 0.151744
0.794199 0.492128 0.155451
0.799386 0.503223 0.159067
0.804353 0.514103 0.162593
0.077820 0.195064 0.097317
0.080210 0.195610 0.097397
0.086969 0.185574 0.097244
0.097028 0.170353 0.096840
0.108129 0.152996 0.096365
0.121539 0.138444 0.096161
0.142635 0.131732 0.096323
0.173637 0.130832 0.096825
0.233320 0.143224 0.098236
0.311085 0.157706 0.099644
0.385673 0.172126 0.101189
0.438652 0.187115 0.103050
0.490177 0.207453 0.105045
0.534952 0.228454 0.107147
0.573953 0.250038 0.109179
0.601350 0.271880 0.111731
0.624637 0.291335 0.114141
0.645587 0.311701 0.116419
0.664833 0.329086 0.118575
0.683076 0.350580 0.120993
0.700434 0.367407 0.123598
0.712631 0.383293 0.126093
0.723670 0.399148 0.128892
0.734156 0.414956 0.131638
0.744132 0.430700 0.134682
0.753637 0.445669 0.138165
0.762706 0.457355 0.141547
0.771368 0.468864 0.144831
0.779651 0.480190 0.148020
0.787172 0.491329 0.151650
0.792704 0.502277 0.155370
0.797994 0.513028 0.158999
0.803057 0.523581 0.162538
0.081959 0.272085 0.099590
0.084134 0.272555 0.099648
0.091870 0.267030 0.099654
0.102267 0.240857 0.099218
0.115373 0.213917 0.098781
0.131801 0.191616 0.098484
0.157674 0.178673 0.098417
0.183388 0.172064 0.098609
0.225224 0.169735 0.099027
0.292665 0.180263 0.100115
0.364935 0.196364 0.101638
0.421204 0.216001 0.103337
0.472936 0.236723 0.105272
0.519944 0.258238 0.107278
0.558810 0.278954 0.109270
0.591590 0.298326 0.111762
0.615263 0.318179 0.114132
0.637334 0.335406 0.116383
0.657025 0.356586 0.118522
0.675741 0.372202 0.120915
0.693558 0.387781 0.123516
0.708109 0.403315 0.126012
0.719465 0.418796 0.128798
0.730245 0.434212 0.131549
0.740492 0.448069 0.134571
0.750249 0.459499 0.138063
0.759549 0.470765 0.141454
0.768424 0.481863 0.144748
0.776904 0.492789 0.147948
0.785013 0.503539 0.151573
0.790958 0.514110 0.155306
0.796365 0.524226 0.158947
0.801535 0.531358 0.162497
0.086985 0.348934 0.102064
0.089231 0.349446 0.102129
0.096574 0.339587 0.102006
0.107613 0.318741 0.101503
0.122306 0.293081 0.100958
0.144443 0.269228 0.100529
0.172279 0.247146 0.100356
0.199519 0.231709 0.100367
0.243750 0.222629 0.100567
0.289771 0.218875 0.101092
0.353062 0.230576 0.102321
0.409690 0.249620 0.103824
0.458501 0.270147 0.105710
0.504479 0.288761 0.107579
0.544807 0.308345 0.109547
0.582185 0.326085 0.111941
0.605992 0.345991 0.114240
0.628706 0.363829 0.116441
0.649027 0.379286 0.118549
0.668119 0.394686 0.120923
0.686322 0.410018 0.123505
0.703286 0.425273 0.125990
0.714938 0.440445 0.128763
0.726001 0.452557 0.131511
0.736516 0.463752 0.134517
0.746523 0.474784 0.138010
0.756058 0.485652 0.141405
0.765154 0.496354 0.144704
0.773838 0.506889 0.147909
0.782138 0.517254 0.151534
0.788994 0.526292 0.155276
0.794526 0.533284 0.158926
0.799812 0.540114 0.162486
0.092895 0.416851 0.104928
0.094860 0.414729 0.104878
0.101655 0.404234 0.104550
0.113255 0.387514 0.104036
0.129727 0.367387 0.103546
0.156428 0.343947 0.103116
0.183306 0.321610 0.102804
0.218608 0.303676 0.102674
0.263260 0.290314 0.102756
0.305288 0.282164 0.103048
0.352419 0.278350 0.103525
0.401285 0.286084 0.104653
0.445517 0.303101 0.106356
0.491128 0.320742 0.108060
0.532519 0.337747 0.110034
0.569196 0.357725 0.112295
0.597250 0.372965 0.114494
0.620034 0.388250 0.116625
0.641186 0.403517 0.118682
0.660520 0.418727 0.121049
0.679004 0.433853 0.123594
0.696675 0.447563 0.126052
0.710242 0.458749 0.128814
0.721557 0.469761 0.131545
0.732318 0.480603 0.134549
0.742562 0.491274 0.138032
0.752324 0.501777 0.141421
0.761635 0.512111 0.144718
0.770523 0.522277 0.147923
0.779016 0.529667 0.151554
0.786849 0.536507 0.155299
0.792511 0.543193 0.158954
0.797918 0.549725 0.162520
0.098630 0.468464 0.107621
0.100527 0.466424 0.107545
0.107239 0.459458 0.107287
0.119157 0.447971 0.106870
0.138676 0.430208 0.106365
0.167455 0.409625 0.105860
0.194000 0.389908 0.105442
0.236500 0.372664 0.105179
0.282275 0.358817 0.105117
0.323612 0.346521 0.105274
0.363310 0.337150 0.105646
0.402391 0.332447 0.106205
0.435752 0.337862 0.107188
0.480502 0.356000 0.108713
0.522209 0.370014 0.110734
0.557853 0.384507 0.112840
0.589399 0.399302 0.114920
0.612041 0.414254 0.116957
0.633789 0.429257 0.118941
0.653216 0.444066 0.121319
0.671856 0.455277 0.123808
0.689729 0.466324 0.126221
0.705521 0.477201 0.128976
0.717043 0.487901 0.131676
0.728016 0.498424 0.134695
0.738470 0.508771 0.138156
0.748439 0.518943 0.141528
0.757951 0.527337 0.144812
0.767033 0.534190 0.148010
0.775711 0.540886 0.151653
0.784009 0.547429 0.155395
0.790357 0.553821 0.159050
0.795886 0.560066 0.162617
0.104641 0.511627 0.110416
0.106529 0.509869 0.110333
0.113309 0.503811 0.110047
0.125333 0.493623 0.109576
0.148481 0.480352 0.108985
0.177771 0.465433 0.108525
0.208741 0.450302 0.108117
0.253012 0.433792 0.107810
0.293415 0.417662 0.107650
0.341688 0.404722 0.107661
0.376389 0.395138 0.107853
0.409808 0.388768 0.108219
0.438813 0.385273 0.108738
0.472422 0.386723 0.109732
0.513332 0.399711 0.111645
0.548476 0.413382 0.113584
0.582631 0.427530 0.115525
0.604945 0.441980 0.117448
0.626607 0.453355 0.119340
0.646422 0.464308 0.121753
0.665088 0.475164 0.124165
0.683051 0.485888 0.126544
0.700319 0.496456 0.129269
0.712583 0.506857 0.131924
0.723721 0.517082 0.134982
0.734349 0.526070 0.138405
0.744495 0.532959 0.141747
0.754184 0.539687 0.145008
0.763442 0.546256 0.148187
0.772292 0.552672 0.151855
0.780757 0.558936 0.155585
0.788105 0.565052 0.159231
0.793753 0.571024 0.162793
0.111049 0.544370 0.113438
0.113016 0.543315 0.113370
0.119814 0.539644 0.113136
0.133208 0.533353 0.112743
0.158157 0.524923 0.112237
0.183391 0.511526 0.111683
0.222576 0.496862 0.111152
0.268292 0.482579 0.110712
0.308967 0.469524 0.110415
0.352311 0.458285 0.110300
0.389490 0.449205 0.110391
0.417214 0.442029 0.110693
0.447080 0.435943 0.111197
0.476629 0.432526 0.111882
0.505872 0.431809 0.112749
0.541026 0.444259 0.114515
0.574411 0.454273 0.116305
0.598858 0.464552 0.118101
0.620184 0.474975 0.120014
0.640291 0.485445 0.122363
0.658860 0.495885 0.124679
0.676801 0.506243 0.127062
0.694108 0.516481 0.129712
0.708282 0.525680 0.132304
0.719534 0.532614 0.135432
0.730292 0.539390 0.138800
0.740578 0.546008 0.142099
0.750414 0.552468 0.145324
0.759823 0.558774 0.148474
0.768825 0.564927 0.152181
0.777441 0.570931 0.155889
0.785691 0.576789 0.159517
0.791554 0.582503 0.163065
0.118023 0.572015 0.116224
0.119972 0.571108 0.116168
0.126912 0.567941 0.115974
0.143249 0.562452 0.115644
0.167777 0.554976 0.115210
0.192562 0.546073 0.114720
0.235452 0.536400 0.114230
0.282252 0.526603 0.113796
0.323656 0.514569 0.113465
0.362156 0.502594 0.113274
0.399723 0.492377 0.113250
0.424593 0.484140 0.113405
0.455485 0.477940 0.113741
0.483283 0.473702 0.114249
0.511470 0.471266 0.114912
0.536397 0.470421 0.115710
0.567606 0.478366 0.117246
0.593802 0.487876 0.118907
0.614690 0.497634 0.120931
0.634911 0.507533 0.123151
0.653278 0.517484 0.125356
0.671095 0.526272 0.127757
0.688347 0.533156 0.130316
0.704228 0.539926 0.132831
0.715539 0.546567 0.136062
0.726379 0.553066 0.139361
0.736765 0.559418 0.142601
0.746714 0.565622 0.145777
0.756244 0.571675 0.148901
0.765373 0.577581 0.152648
0.774119 0.583339 0.156323
0.782500 0.588953 0.159925
0.789325 0.594425 0.163450
0.125369 0.598284 0.118807
0.127647 0.597500 0.118761
0.136088 0.594751 0.118599
0.153562 0.589946 0.118321
0.177438 0.583316 0.117949
0.204674 0.575284 0.117520
0.247878 0.566377 0.117077
0.290469 0.557134 0.116665
0.337519 0.548052 0.116326
0.372781 0.539550 0.116094
0.406717 0.531947 0.115994
0.433048 0.525462 0.116044
0.462908 0.518786 0.116251
0.489971 0.513142 0.116615
0.517544 0.509256 0.117125
0.540907 0.506990 0.117770
0.564575 0.506167 0.118531
0.589725 0.512326 0.119969
0.610118 0.521355 0.122031
0.630131 0.528506 0.124112
0.648395 0.535050 0.126196
0.666006 0.541597 0.128633
0.683120 0.548103 0.131086
0.699720 0.554534 0.133632
0.711803 0.560865 0.136885
0.722678 0.567078 0.140099
0.733122 0.573162 0.143266
0.743146 0.579110 0.146381
0.752764 0.584917 0.149579
0.761992 0.590582 0.153274
0.770844 0.596105 0.156905
0.779335 0.601487 0.160469
0.787101 0.606730 0.163963
0.134887 0.622918 0.121789
0.137634 0.622282 0.121737
0.147247 0.620046 0.121556
0.164002 0.616018 0.121242
0.183371 0.610130 0.120817
0.216857 0.602900 0.120318
0.260049 0.594744 0.119791
0.300569 0.586112 0.119336
0.347127 0.577435 0.119005
0.383192 0.569094 0.118754
0.413131 0.561400 0.118608
0.440935 0.554585 0.118586
0.469667 0.548802 0.118697
0.496468 0.544131 0.118947
0.522606 0.540586 0.119332
0.545505 0.538128 0.119959
0.568664 0.536681 0.120797
0.588636 0.536144 0.121772
0.606411 0.539293 0.123295
0.625978 0.545215 0.125234
0.644219 0.551250 0.127347
0.661562 0.557342 0.129686
0.678473 0.563442 0.132023
0.694929 0.569508 0.134768
0.708374 0.575509 0.137908
0.719239 0.581421 0.141023
0.729699 0.587226 0.144105
0.739761 0.592913 0.147145
0.749435 0.598473 0.150442
0.758732 0.603900 0.154072
0.767664 0.609193 0.157647
0.776243 0.614350 0.161163
0.784482 0.619236 0.164616
0.146717 0.645145 0.124807
0.149320 0.644591 0.124763
0.158467 0.642636 0.124610
0.174525 0.639174 0.124342
0.192438 0.634302 0.123975
0.229039 0.628246 0.123538
0.272040 0.621314 0.123067
0.312008 0.613598 0.122602
0.354620 0.605402 0.122182
0.392786 0.597353 0.121843
0.418966 0.589740 0.121615
0.448177 0.582797 0.121521
0.475942 0.576693 0.121578
0.502609 0.571536 0.121795
0.527482 0.567378 0.122175
0.550036 0.564222 0.122714
0.572785 0.562030 0.123402
0.591037 0.560737 0.124228
0.606085 0.560259 0.125175
0.622591 0.562364 0.126525
0.640722 0.567881 0.128703
0.657759 0.573500 0.130907
0.674419 0.579171 0.133122
0.690679 0.584849 0.136117
0.705281 0.590500 0.139132
0.716097 0.596093 0.142137
0.726535 0.601606 0.145122
0.736600 0.607022 0.148077
0.746297 0.612328 0.151498
0.755633 0.617505 0.155052
0.764618 0.622226 0.158561
0.773261 0.626825 0.162019
0.781573 0.631301 0.165420
0.158518 0.658751 0.127894
0.160990 0.658450 0.127850
0.169702 0.657387 0.127694
0.183271 0.655493 0.127422
0.205206 0.652803 0.127045
0.241097 0.649419 0.126591
0.283103 0.645001 0.126138
0.323090 0.638139 0.125717
0.361613 0.630994 0.125325
0.399473 0.623845 0.124994
0.424332 0.616909 0.124750
0.454761 0.609994 0.124617
0.481674 0.603743 0.124611
0.508289 0.598282 0.124744
0.532060 0.593686 0.125020
0.554371 0.589989 0.125442
0.576808 0.587187 0.126004
0.593424 0.585243 0.126760
0.608187 0.584102 0.127731
0.622887 0.583692 0.128832
0.637853 0.584902 0.130215
0.654563 0.590045 0.132283
0.670944 0.595276 0.134804
0.686971 0.600552 0.137671
0.702536 0.605835 0.140554
0.713269 0.611093 0.143441
0.723654 0.616299 0.146319
0.733690 0.621157 0.149261
0.743379 0.625858 0.152755
0.752727 0.630460 0.156222
0.761739 0.634957 0.159654
0.770423 0.639342 0.163043
0.778785 0.643611 0.166385
0.170252 0.671151 0.131097
0.172603 0.670890 0.131060
0.180910 0.669964 0.130926
0.190774 0.668308 0.130692
0.218173 0.665944 0.130367
0.253231 0.662946 0.129970
0.290261 0.659429 0.129530
0.333924 0.655534 0.129079
0.368969 0.651410 0.128650
0.404327 0.647206 0.128275
0.430205 0.641135 0.127983
0.460306 0.634835 0.127798
0.486847 0.629008 0.127741
0.513453 0.623777 0.127826
0.536263 0.619229 0.128062
0.558414 0.615274 0.128453
0.580624 0.611995 0.128999
0.595725 0.609517 0.129694
0.610251 0.607806 0.130529
0.624703 0.606813 0.131495
0.638583 0.606479 0.132577
0.651925 0.606934 0.134020
0.668013 0.611727 0.136698
0.683786 0.616595 0.139418
0.699226 0.621222 0.142165
0.710762 0.625799 0.144927
0.721066 0.630352 0.147692
0.731046 0.634857 0.150827
0.740702 0.639296 0.154214
0.750036 0.643655 0.157584
0.759051 0.647314 0.160930
0.767752 0.649919 0.164242
0.776144 0.652451 0.167589
0.181885 0.682836 0.134477
0.183225 0.682608 0.134433
0.186144 0.681798 0.134278
0.204461 0.680347 0.134005
0.231142 0.678264 0.133623
0.265421 0.675606 0.133160
0.299132 0.672463 0.132773
0.343394 0.668949 0.132370
0.376686 0.665188 0.131980
0.408803 0.661306 0.131631
0.435547 0.657425 0.131347
0.464930 0.653656 0.131152
0.491475 0.650093 0.131065
0.517955 0.646816 0.131099
0.540053 0.642450 0.131266
0.562099 0.638405 0.131571
0.583434 0.635029 0.132017
0.597882 0.632331 0.132602
0.612217 0.630301 0.133373
0.626462 0.628912 0.134521
0.640008 0.628123 0.135829
0.653006 0.627887 0.137285
0.665908 0.628154 0.138875
0.681090 0.631888 0.141343
0.696299 0.636103 0.143953
0.708568 0.640345 0.146588
0.718771 0.644585 0.149331
0.728674 0.647864 0.152599
0.738274 0.650468 0.155872
0.747572 0.653028 0.159139
0.756569 0.655535 0.162390
0.765266 0.657983 0.165617
0.773669 0.660368 0.169340
0.187851 0.693857 0.138406
0.190599 0.693657 0.138368
0.200417 0.692947 0.138235
0.218280 0.691671 0.137999
0.244024 0.689833 0.137668
0.277641 0.687474 0.137259
0.309844 0.684666 0.136796
0.349770 0.681500 0.136310
0.384041 0.678081 0.135833
0.412953 0.674515 0.135397
0.440415 0.670907 0.135033
0.469076 0.667356 0.134769
0.495587 0.663949 0.134628
0.521361 0.660760 0.134630
0.543416 0.657850 0.134789
0.565392 0.655265 0.135116
0.585526 0.653036 0.135616
0.599849 0.651181 0.136290
0.614036 0.649705 0.137136
0.628113 0.648601 0.138149
0.641366 0.647855 0.139318
0.654189 0.647446 0.140634
0.666916 0.647349 0.142085
0.679545 0.647536 0.143658
0.693811 0.649373 0.145903
0.706671 0.651811 0.148411
0.716761 0.654255 0.151431
0.726571 0.656691 0.154571
0.736098 0.659105 0.157725
0.745342 0.661488 0.160882
0.754301 0.663828 0.164033
0.762977 0.666120 0.167169
0.771373 0.668357 0.171327
0.202543 0.704259 0.142161
0.205214 0.704084 0.142128
0.214767 0.703460 0.142014
0.231999 0.702336 0.141811
0.256948 0.700710 0.141524
0.286740 0.698616 0.141169
0.320468 0.696107 0.140763
0.355946 0.693260 0.140334
0.391079 0.690159 0.139908
0.416817 0.686896 0.139513
0.444866 0.683561 0.139176
0.472793 0.680241 0.138922
0.499223 0.677015 0.138773
0.524345 0.673951 0.138748
0.546354 0.671109 0.138862
0.568277 0.668534 0.139125
0.587367 0.666261 0.139544
0.601598 0.664313 0.140124
0.615671 0.662702 0.140863
0.629616 0.661428 0.141759
0.642617 0.660487 0.142807
0.655293 0.659864 0.143998
0.667868 0.659541 0.145322
0.680346 0.659496 0.146770
0.692723 0.659706 0.148329
0.705051 0.661106 0.150743
0.715019 0.663340 0.153720
0.724725 0.665577 0.156730
0.734167 0.667804 0.159763
0.743342 0.670010 0.162808
0.752250 0.672185 0.165855
0.760890 0.674321 0.169450
0.769263 0.676411 0.173547
0.217249 0.714081 0.145747
0.219846 0.713927 0.145719
0.229039 0.713378 0.145621
0.245547 0.712386 0.145447
0.269866 0.710948 0.145201
0.294224 0.709087 0.144894
0.331081 0.706847 0.144542
0.361935 0.704289 0.144166
0.397205 0.701483 0.143790
0.420432 0.698508 0.143438
0.448948 0.695440 0.143133
0.476124 0.692356 0.142898
0.502423 0.689326 0.142753
0.526934 0.686414 0.142715
0.548885 0.683674 0.142799
0.570756 0.681151 0.143016
0.588951 0.678882 0.143375
0.603110 0.676892 0.143879
0.617097 0.675198 0.144531
0.630939 0.673807 0.145330
0.643730 0.672718 0.146273
0.656284 0.671925 0.147353
0.668731 0.671416 0.148564
0.681077 0.671175 0.150146
0.693322 0.671182 0.151929
0.704539 0.671419 0.153843
0.713524 0.672461 0.156184
0.723121 0.674506 0.159066
0.732469 0.676551 0.161978
0.741566 0.678584 0.164908
0.750411 0.680596 0.168038
0.759002 0.682577 0.172011
0.767340 0.684521 0.175998
0.231746 0.723359 0.149252
0.234204 0.723223 0.149223
0.243000 0.722739 0.149120
0.259048 0.721863 0.148938
0.282385 0.720590 0.148705
0.305411 0.718936 0.148442
0.341569 0.716937 0.148139
0.368428 0.714642 0.147814
0.401069 0.712109 0.147486
0.423825 0.709405 0.147177
0.452702 0.706595 0.146908
0.479112 0.703746 0.146698
0.505229 0.700920 0.146565
0.529160 0.698176 0.146525
0.551031 0.695563 0.146594
0.572841 0.693125 0.146780
0.590278 0.690898 0.147094
0.604378 0.688908 0.147540
0.618297 0.687176 0.148122
0.632060 0.685712 0.148846
0.644678 0.684520 0.149897
0.657135 0.683601 0.151111
0.669476 0.682945 0.152482
0.681710 0.682543 0.154004
0.693842 0.682379 0.155666
0.704825 0.682439 0.157461
0.713207 0.682704 0.159377
0.721739 0.683461 0.161564
0.730989 0.685330 0.164355
0.740002 0.687196 0.167171
0.748775 0.689048 0.170948
0.757309 0.690878 0.174802
0.765601 0.692678 0.178675
0.245935 0.732124 0.153281
0.248320 0.732005 0.153257
0.256858 0.731577 0.153170
0.272452 0.730803 0.153015
0.290163 0.729675 0.152794
0.316478 0.728206 0.152518
0.347988 0.726423 0.152199
0.375433 0.724367 0.151856
0.404765 0.722086 0.151510
0.427716 0.719635 0.151183
0.456163 0.717071 0.150896
0.481793 0.714452 0.150672
0.507679 0.711834 0.150531
0.531053 0.709267 0.150491
0.552819 0.706799 0.150568
0.574553 0.704470 0.150776
0.591355 0.702314 0.151124
0.605402 0.700359 0.151622
0.619266 0.698626 0.152273
0.632930 0.697128 0.153081
0.645446 0.695873 0.154046
0.657825 0.694865 0.155166
0.670080 0.694100 0.156437
0.682222 0.693571 0.157853
0.694257 0.693269 0.159408
0.705048 0.693180 0.161093
0.713361 0.693292 0.162900
0.721560 0.693587 0.164820
0.729710 0.694125 0.166883
0.738634 0.695830 0.170384
0.747332 0.697529 0.174079
0.755801 0.699212 0.177811
0.764041 0.700873 0.181570
0.259968 0.740404 0.157142
0.262281 0.740299 0.157122
0.270567 0.739921 0.157049
0.284212 0.739237 0.156918
0.299860 0.738239 0.156733
0.327475 0.736934 0.156499
0.354223 0.735346 0.156230
0.382243 0.733507 0.155941
0.408301 0.731456 0.155648
0.431408 0.729242 0.155371
0.459141 0.726912 0.155130
0.484199 0.724516 0.154944
0.509808 0.722103 0.154831
0.532644 0.719719 0.154807
0.554277 0.717407 0.154888
0.575913 0.715204 0.155087
0.592193 0.713142 0.155413
0.606189 0.711249 0.155875
0.620003 0.709545 0.156478
0.633562 0.708046 0.157227
0.646023 0.706763 0.158122
0.658339 0.705701 0.159164
0.670526 0.704861 0.160349
0.682592 0.704238 0.161674
0.694547 0.703828 0.163133
0.705194 0.703619 0.164720
0.713446 0.703602 0.166428
0.721586 0.703765 0.168577
0.729616 0.704093 0.171179
0.737535 0.704574 0.173922
0.746067 0.706025 0.177417
0.754468 0.707567 0.181029
0.762650 0.709092 0.184672
0.273800 0.748225 0.160837
0.276044 0.748132 0.160820
0.283214 0.747799 0.160759
0.292143 0.747194 0.160651
0.311355 0.746311 0.160497
0.338320 0.745154 0.160304
0.360275 0.743741 0.160081
0.388852 0.742098 0.159841
0.411683 0.740260 0.159600
0.434897 0.738266 0.159373
0.461698 0.736156 0.159178
0.486357 0.733974 0.159032
0.511648 0.731763 0.158951
0.533962 0.729563 0.158950
0.555432 0.727413 0.159043
0.576947 0.725348 0.159241
0.592807 0.723396 0.159556
0.606748 0.721586 0.159995
0.620512 0.719936 0.160564
0.633989 0.718464 0.161268
0.646403 0.717182 0.162108
0.658670 0.716097 0.163086
0.670800 0.715211 0.164199
0.682806 0.714525 0.165446
