negative-superia-reala/SuperiaReala_Modern_Normal.cube
TITLE "Fuji Superia Reala Modern Normal"
# Adobe RGB in/out. REPLACES AgX. Fuji Superia Reala Modern Normal.
LUT_3D_SIZE 9
DOMAIN_MIN 0.0 0.0 0.0
DOMAIN_MAX 1.0 1.0 1.0
0.074318 0.073381 0.089635
0.120796 0.084902 0.091250
0.364731 0.102340 0.094021
0.665270 0.131520 0.099721
0.812715 0.165061 0.109583
0.879694 0.192394 0.123560
0.908120 0.191608 0.146693
0.920638 0.074112 0.581227
0.917146 0.154842 0.688538
0.077440 0.128393 0.091330
0.094753 0.103138 0.091737
0.305420 0.116340 0.094309
0.604681 0.146553 0.099871
0.782445 0.183500 0.109545
0.869397 0.209683 0.123086
0.902553 0.208328 0.143877
0.918744 0.074291 0.574678
0.915793 0.153332 0.684626
0.084478 0.369951 0.096040
0.098409 0.295527 0.096751
0.180936 0.202504 0.097036
0.438515 0.211771 0.101454
0.696670 0.247303 0.110959
0.820361 0.284358 0.123809
0.882612 0.291914 0.141262
0.912910 0.085066 0.556349
0.911376 0.148691 0.669374
0.093369 0.603152 0.104257
0.105057 0.553141 0.105142
0.172694 0.448722 0.106416
0.329892 0.364048 0.108092
0.565385 0.357176 0.114823
0.752134 0.382870 0.126897
0.846180 0.403524 0.143571
0.889829 0.378245 0.167319
0.901822 0.142630 0.538160
0.103598 0.729050 0.116733
0.114117 0.711972 0.118029
0.171418 0.652771 0.120976
0.303022 0.578264 0.122983
0.480813 0.519724 0.125951
0.676337 0.505580 0.134501
0.801218 0.518658 0.150207
0.869090 0.517778 0.169864
0.891173 0.427212 0.320736
0.113860 0.805038 0.129578
0.122198 0.794074 0.130728
0.174126 0.762527 0.136260
0.284777 0.721917 0.140649
0.439280 0.679505 0.144715
0.616026 0.644834 0.150480
0.753375 0.631721 0.160981
0.840629 0.634791 0.178658
0.879571 0.603022 0.212716
0.121062 0.846504 0.143102
0.129145 0.842480 0.144273
0.172434 0.829379 0.150394
0.268434 0.803809 0.157390
0.406410 0.771926 0.163562
0.570631 0.746427 0.170636
0.719074 0.730150 0.178929
0.816197 0.722036 0.190392
0.869753 0.713781 0.211633
0.123767 0.875383 0.147140
0.128502 0.872948 0.147731
0.167661 0.862305 0.157221
0.248540 0.848181 0.167448
0.369834 0.832876 0.177520
0.528164 0.818550 0.186405
0.682733 0.802383 0.194798
0.796994 0.793743 0.204067
0.862368 0.786769 0.217547
0.112372 0.868669 0.136126
0.112107 0.867793 0.135705
0.184191 0.871698 0.134356
0.179837 0.868028 0.155998
0.315353 0.861962 0.172123
0.465595 0.851689 0.186293
0.633786 0.844187 0.196978
0.765652 0.840347 0.205733
0.861638 0.840242 0.212563
0.076014 0.086055 0.127141
0.103777 0.094224 0.304133
0.298944 0.114654 0.169331
0.655770 0.143277 0.152149
0.809958 0.174796 0.142648
0.877066 0.197628 0.148027
0.905722 0.194942 0.173908
0.919623 0.074290 0.577721
0.916445 0.154061 0.686510
0.081416 0.122327 0.113743
0.100455 0.105779 0.106844
0.269374 0.128964 0.122967
0.580780 0.163448 0.136521
0.779702 0.194330 0.138428
0.866893 0.214941 0.145665
0.900224 0.211577 0.167438
0.917732 0.074618 0.571224
0.915097 0.152558 0.682620
0.093253 0.345454 0.131556
0.108796 0.275881 0.123201
0.195464 0.198084 0.113845
0.446574 0.220120 0.123533
0.692284 0.258352 0.132726
0.819135 0.290142 0.143461
0.880913 0.294797 0.160322
0.911967 0.086668 0.553939
0.910700 0.148057 0.666639
0.104549 0.581351 0.141335
0.118884 0.536368 0.138187
0.192596 0.437896 0.130430
0.346525 0.361745 0.127681
0.573884 0.361507 0.133513
0.752064 0.387217 0.144860
0.845286 0.405607 0.160597
0.888496 0.379083 0.185530
0.900826 0.142151 0.640504
0.113700 0.720535 0.145500
0.125510 0.704661 0.145825
0.188137 0.645520 0.145965
0.318274 0.573420 0.144773
0.494496 0.519215 0.146356
0.680432 0.506954 0.152124
0.801902 0.520041 0.166481
0.868406 0.517841 0.185805
0.890280 0.428252 0.362900
0.120966 0.799220 0.152219
0.131245 0.788782 0.153351
0.185886 0.758415 0.158036
0.296564 0.719207 0.160896
0.449847 0.677552 0.163626
0.624394 0.644661 0.169195
0.755761 0.632378 0.177732
0.840948 0.634993 0.193621
0.878936 0.602686 0.228525
0.126690 0.844447 0.160497
0.135250 0.840514 0.161787
0.180384 0.827739 0.168757
0.277154 0.801800 0.175966
0.414537 0.770709 0.181971
0.577539 0.745939 0.188078
0.723224 0.730210 0.195647
0.817337 0.722304 0.204781
0.869449 0.713504 0.224630
0.126033 0.874075 0.157076
0.131232 0.871671 0.158360
0.171885 0.861214 0.171358
0.254195 0.847361 0.183299
0.376170 0.832345 0.193170
0.533349 0.818088 0.201535
0.686300 0.802296 0.209488
0.799121 0.793845 0.218365
0.862377 0.786526 0.229835
0.112235 0.872878 0.244017
0.111976 0.872003 0.242954
0.183785 0.875704 0.239422
0.179468 0.871039 0.234296
0.318024 0.861640 0.183376
0.469199 0.851466 0.198758
0.637094 0.844074 0.209674
0.767378 0.840305 0.218327
0.861857 0.840142 0.223871
0.078080 0.106762 0.314216
0.123820 0.116148 0.645838
0.311332 0.137955 0.612313
0.661977 0.173612 0.548816
0.808297 0.201568 0.485080
0.874144 0.220901 0.478268
0.902081 0.212643 0.516396
0.917933 0.082342 0.585788
0.914992 0.152441 0.682337
0.086721 0.168105 0.328068
0.131508 0.165402 0.426316
0.305018 0.163607 0.435383
0.587124 0.191337 0.416244
0.778464 0.220450 0.404392
0.863196 0.238610 0.423139
0.896602 0.229213 0.469289
0.916039 0.083825 0.580939
0.913634 0.150940 0.678420
0.098745 0.296093 0.252742
0.113951 0.249630 0.224738
0.196799 0.195929 0.195545
0.435431 0.232223 0.235874
0.690179 0.281873 0.279304
0.818035 0.315272 0.316595
0.878207 0.313627 0.348351
0.909677 0.130595 0.559358
0.908873 0.146669 0.660646
0.120330 0.537194 0.282837
0.137338 0.501966 0.265151
0.212422 0.413194 0.229050
0.354100 0.348359 0.209411
0.580944 0.370048 0.229548
0.753710 0.406689 0.262275
0.843779 0.421930 0.286404
0.885682 0.388823 0.351150
0.898469 0.141125 0.634698
0.140102 0.704205 0.292343
0.155204 0.686005 0.284037
0.223873 0.631330 0.262088
0.348870 0.562998 0.240596
0.518790 0.516181 0.232017
0.692507 0.515703 0.244884
0.804248 0.531161 0.263838
0.866973 0.524271 0.298151
0.887952 0.434938 0.507670
0.153008 0.787691 0.296374
0.165507 0.778428 0.292436
0.226833 0.750716 0.282238
0.334883 0.714786 0.268709
0.485599 0.675398 0.258559
0.650723 0.646296 0.256047
0.764135 0.638052 0.261303
0.841972 0.639764 0.285460
0.877200 0.603470 0.337848
0.155235 0.839151 0.284986
0.165550 0.835557 0.283814
0.216539 0.823870 0.281969
0.312821 0.797644 0.277974
0.448116 0.768822 0.273767
0.605186 0.746007 0.272442
0.737012 0.731705 0.275406
0.821150 0.724969 0.287076
0.868587 0.713285 0.301828
0.147927 0.868147 0.274866
0.155303 0.865942 0.275513
0.201685 0.857258 0.282543
0.285317 0.844860 0.285793
0.407547 0.831032 0.287529
0.558572 0.817420 0.289116
0.702704 0.802833 0.292798
0.807082 0.794863 0.298890
0.862304 0.786061 0.298945
0.111798 0.871416 0.242251
0.185185 0.877200 0.241217
0.182496 0.874322 0.237857
0.178344 0.869766 0.232949
0.335419 0.860380 0.248265
0.487391 0.850730 0.269720
0.652624 0.843723 0.280305
0.775036 0.840179 0.288488
0.862125 0.839799 0.291300
0.080599 0.147006 0.556907
0.109259 0.166415 0.745624
0.338413 0.187294 0.774579
0.666088 0.225502 0.769759
0.815403 0.249386 0.731780
0.875030 0.258143 0.703138
0.900884 0.243825 0.698662
0.914775 0.143936 0.720097
0.914024 0.151369 0.705734
0.088976 0.215127 0.573508
0.123200 0.222976 0.684847
0.362585 0.236702 0.747967
0.629369 0.254287 0.722835
0.788361 0.267737 0.690564
0.864395 0.276051 0.676597
0.895254 0.261615 0.681592
0.912505 0.157832 0.710802
0.912629 0.149871 0.701865
0.106668 0.339427 0.484301
0.129514 0.318322 0.475866
0.262037 0.282690 0.490937
0.477480 0.288696 0.514313
0.702129 0.320669 0.540533
0.819247 0.343124 0.563796
0.876701 0.338204 0.598229
0.900568 0.272531 0.661710
0.907090 0.145627 0.689463
0.127565 0.503513 0.446576
0.144709 0.478095 0.428186
0.217574 0.402654 0.379781
0.350551 0.346855 0.348095
0.579714 0.383464 0.399820
0.753449 0.423300 0.448262
0.841636 0.438758 0.494491
0.883077 0.405429 0.567013
0.896412 0.140251 0.666801
0.156853 0.677941 0.462264
0.172745 0.661416 0.450479
0.241820 0.614825 0.419587
0.359497 0.548321 0.381937
0.518486 0.506346 0.362809
0.691934 0.518870 0.387542
0.803021 0.538727 0.423649
0.863778 0.531397 0.471780
0.885477 0.450386 0.619065
0.176491 0.772364 0.463625
0.191052 0.764359 0.456917
0.253359 0.739938 0.438264
0.358445 0.707368 0.414333
0.504870 0.668459 0.393009
0.659496 0.643235 0.384509
0.766846 0.641209 0.396828
0.840617 0.642484 0.423571
0.874926 0.607560 0.538778
0.182662 0.832320 0.456614
0.194703 0.829098 0.452855
0.247595 0.817173 0.442324
0.342484 0.791437 0.427725
0.476648 0.765084 0.413693
0.627677 0.744360 0.403692
0.745253 0.731913 0.401272
0.822981 0.726578 0.409022
0.867149 0.713974 0.459127
0.170357 0.862586 0.446564
0.179603 0.860496 0.444366
0.228540 0.852911 0.439092
0.312105 0.841622 0.430634
0.434225 0.828987 0.422260
0.581782 0.815760 0.415931
0.717131 0.802527 0.412881
0.811824 0.795432 0.414376
0.861578 0.785955 0.426539
0.139849 0.873945 0.478907
0.183088 0.876942 0.477173
0.180547 0.874184 0.471396
0.232904 0.870210 0.404589
0.365211 0.858066 0.424948
0.513672 0.849472 0.421017
0.668644 0.843154 0.419814
0.785240 0.839952 0.420782
0.862075 0.839459 0.420321
0.084404 0.215563 0.735776
0.099384 0.228518 0.795291
0.343939 0.257689 0.836341
0.657459 0.294356 0.836957
0.827037 0.328079 0.831164
0.879970 0.319921 0.801389
0.902974 0.295003 0.784370
0.914106 0.202871 0.776575
0.914026 0.151373 0.771533
0.090644 0.275033 0.745334
0.111830 0.286198 0.789211
0.355136 0.307227 0.830070
0.654698 0.337905 0.832423
0.805552 0.343191 0.810976
0.870479 0.335056 0.788671
0.897295 0.311830 0.775871
0.911815 0.218538 0.771306
0.912589 0.149834 0.766436
0.122252 0.455016 0.735002
0.152581 0.441264 0.741688
0.323388 0.408721 0.765377
0.548897 0.388628 0.754270
0.729575 0.386620 0.740301
0.828097 0.392423 0.734986
0.878666 0.378328 0.736263
0.900271 0.318097 0.743909
0.906777 0.145450 0.744720
0.137722 0.522234 0.614107
0.156417 0.506173 0.605408
0.247949 0.465747 0.592113
0.414276 0.431621 0.590997
0.613573 0.438033 0.609591
0.762720 0.461704 0.639682
0.843635 0.467876 0.670731
0.882510 0.433876 0.699418
0.896943 0.221066 0.722714
0.165147 0.659309 0.594559
0.181837 0.646502 0.585173
0.250072 0.608426 0.559807
0.363903 0.547274 0.529612
0.512362 0.506103 0.510959
0.693138 0.531153 0.546288
0.803170 0.552893 0.585118
0.861800 0.545673 0.633192
0.883856 0.471798 0.696064
0.192042 0.758950 0.596143
0.206648 0.752154 0.589662
0.268379 0.730985 0.571106
0.370700 0.701700 0.547219
0.511406 0.662612 0.527026
0.657877 0.639310 0.518652
0.766264 0.644518 0.537081
0.838670 0.647419 0.570128
0.872891 0.615196 0.657605
0.202096 0.825768 0.591985
0.214532 0.822929 0.587801
0.267794 0.808727 0.575293
0.361416 0.785542 0.558262
0.494107 0.761402 0.542210
0.639533 0.742308 0.531313
0.747898 0.731525 0.528403
0.823061 0.728207 0.538707
0.865113 0.716231 0.606473
0.188248 0.857573 0.585472
0.198403 0.855664 0.582522
0.247980 0.848777 0.573617
0.331430 0.838518 0.561212
0.453925 0.826953 0.548866
0.598686 0.813972 0.539303
0.727098 0.802072 0.534017
0.814129 0.796083 0.533680
0.860512 0.786959 0.559684
0.148718 0.872890 0.641101
0.154211 0.872676 0.639380
0.167011 0.871407 0.633616
0.261970 0.864914 0.569335
0.381852 0.856200 0.557123
0.529183 0.848409 0.548179
0.678738 0.842666 0.542363
0.791975 0.839945 0.540286
0.861788 0.839892 0.543907
0.088415 0.303271 0.834332
0.098508 0.307996 0.854427
0.339153 0.342911 0.872026
0.643067 0.371063 0.872822
0.827248 0.407026 0.873472
0.886482 0.394820 0.857469
0.907349 0.358644 0.838425
0.915341 0.266080 0.819425
0.914967 0.152414 0.797720
0.093294 0.349181 0.838294
0.106376 0.353757 0.854215
0.345355 0.382738 0.871030
0.641783 0.407665 0.872183
0.820914 0.436809 0.871118
0.878040 0.408703 0.850744
0.901824 0.373484 0.831365
0.913052 0.283377 0.814860
0.913502 0.150795 0.794640
0.131323 0.523721 0.844281
0.158867 0.522628 0.850855
0.367407 0.525965 0.865505
0.600673 0.495712 0.853843
0.756209 0.476026 0.837739
0.841665 0.460763 0.820553
0.883687 0.433948 0.808539
0.902509 0.368823 0.799863
0.908037 0.146184 0.784457
0.154406 0.588528 0.776144
0.175059 0.578134 0.776011
0.291760 0.551862 0.780355
0.476476 0.525619 0.778627
0.664681 0.514836 0.774706
0.781404 0.512401 0.773384
0.851496 0.506693 0.774527
0.884534 0.472166 0.776651
0.897521 0.277279 0.770476
0.174450 0.666479 0.718824
0.191565 0.657173 0.714609
0.267870 0.629877 0.705651
0.396257 0.593658 0.695526
0.560300 0.568671 0.692165
0.712601 0.572090 0.702906
0.809615 0.582335 0.720579
0.863679 0.570009 0.739395
0.883720 0.497553 0.754198
0.199548 0.751292 0.704570
0.214441 0.745712 0.700545
0.276279 0.727888 0.689098
0.378720 0.702364 0.672367
0.516273 0.666049 0.651712
0.653072 0.640237 0.637656
0.767560 0.654350 0.670620
0.838514 0.658096 0.699139
0.871987 0.627343 0.731081
0.212213 0.820819 0.698662
0.224797 0.816734 0.695638
0.278302 0.802838 0.686639
0.371436 0.782077 0.672754
0.502706 0.759872 0.656056
0.643487 0.741560 0.644106
0.746765 0.731614 0.642056
0.822300 0.731232 0.662643
0.863193 0.720522 0.709998
0.197206 0.853622 0.693157
0.207667 0.851900 0.690884
0.257983 0.845657 0.683712
0.341896 0.836288 0.671840
0.464773 0.825685 0.657707
0.607881 0.813205 0.646806
0.731763 0.802360 0.641014
0.814374 0.797353 0.642094
0.859237 0.789457 0.685896
0.150727 0.870152 0.680620
0.155389 0.869936 0.681247
0.165860 0.868677 0.684086
0.264911 0.862996 0.676607
0.387633 0.854914 0.662091
0.534859 0.847804 0.651114
0.683072 0.842689 0.643857
0.794995 0.840435 0.640516
0.861272 0.841037 0.669121
0.093291 0.397823 0.888464
0.102035 0.397028 0.897488
0.305520 0.428429 0.902798
0.634868 0.450833 0.903189
0.824177 0.479527 0.903725
0.893759 0.479755 0.894773
0.911918 0.429324 0.874364
0.917608 0.332423 0.858211
0.916524 0.154139 0.838684
0.098301 0.435180 0.889779
0.108466 0.434953 0.897362
0.314695 0.463081 0.902756
0.634814 0.479518 0.903237
0.821637 0.504919 0.903797
0.886111 0.488722 0.888753
0.907901 0.443412 0.870288
0.915374 0.348338 0.855471
0.915056 0.152498 0.835101
0.134461 0.576651 0.892697
0.156534 0.574789 0.896622
0.349112 0.580185 0.901934
0.639503 0.586402 0.902839
0.780666 0.554825 0.885475
0.857622 0.526559 0.869927
0.890574 0.492285 0.857196
0.906584 0.424703 0.846582
0.910197 0.147502 0.822897
0.174936 0.659488 0.864830
0.197957 0.652649 0.865281
0.322586 0.634769 0.864818
0.528560 0.611989 0.858677
0.700823 0.592787 0.850860
0.804928 0.576575 0.843391
0.863535 0.555355 0.834128
0.888780 0.512045 0.826211
0.899122 0.362771 0.814743
0.189196 0.699431 0.813652
0.206640 0.692952 0.813250
0.290497 0.674114 0.812985
0.437286 0.650221 0.809202
0.610313 0.633619 0.804191
0.740777 0.626697 0.801620
0.821510 0.620919 0.801589
0.868711 0.603465 0.802437
0.885222 0.526643 0.800089
0.206833 0.754199 0.785907
0.221214 0.749850 0.784500
0.284540 0.735928 0.781121
0.396020 0.715873 0.776150
0.541708 0.695335 0.770156
0.681552 0.680588 0.767146
0.779393 0.680333 0.772454
0.842698 0.676999 0.780327
0.872785 0.643065 0.786145
0.214804 0.817383 0.773585
0.227611 0.813772 0.772127
0.281859 0.801673 0.767815
0.376468 0.783341 0.759540
0.509027 0.763372 0.751318
0.647675 0.745853 0.743549
0.743565 0.733108 0.737265
0.823006 0.737731 0.757501
0.862811 0.727066 0.775304
0.195756 0.851499 0.764547
0.206358 0.849945 0.762563
0.257793 0.844209 0.756385
0.343075 0.835650 0.748134
0.467414 0.825898 0.740377
0.610761 0.814614 0.734625
0.732433 0.804326 0.732100
0.813242 0.799839 0.735408
0.858228 0.793383 0.767159
0.148286 0.866926 0.729733
0.157814 0.867240 0.728617
0.169502 0.866313 0.725086
0.251306 0.862343 0.744141
0.380829 0.854443 0.733865
0.531013 0.847924 0.726984
0.681165 0.843340 0.722484
0.793811 0.841570 0.720447
0.860845 0.842901 0.762763
0.102395 0.486833 0.931924
0.111306 0.484856 0.932735
0.323263 0.495660 0.932517
0.652513 0.515114 0.932591
0.831948 0.539646 0.932903
0.903523 0.550810 0.930147
0.916476 0.494814 0.908260
0.920902 0.385568 0.890508
0.918360 0.167054 0.869736
0.107221 0.512895 0.931968
0.118041 0.511164 0.932728
0.334073 0.521454 0.932668
0.652242 0.539391 0.932739
0.829973 0.562796 0.933038
0.896692 0.558042 0.925087
0.913431 0.504752 0.904331
0.918759 0.401589 0.887733
0.916941 0.168721 0.867686
0.149894 0.630655 0.932155
0.170642 0.628852 0.932657
0.381460 0.629326 0.932993
0.657683 0.635888 0.933135
0.809407 0.628220 0.925290
0.874076 0.596744 0.907358
0.899382 0.550845 0.891654
0.911469 0.473674 0.878608
0.912434 0.197838 0.860878
0.203724 0.716627 0.919469
0.226791 0.712037 0.918155
0.377215 0.698593 0.912800
0.579984 0.674814 0.903588
0.739749 0.653847 0.892938
0.828123 0.633860 0.882498
0.875510 0.608885 0.873083
0.895165 0.552428 0.864899
0.902133 0.400376 0.855244
0.210793 0.731616 0.876577
0.229083 0.728103 0.876079
0.329573 0.717471 0.873681
0.489387 0.703579 0.868631
0.662619 0.688059 0.862853
0.770356 0.675092 0.857652
0.838670 0.660538 0.853376
0.875845 0.632661 0.849799
0.888169 0.550994 0.844753
0.216306 0.768253 0.850131
0.230945 0.764950 0.849951
0.304305 0.754265 0.848977
0.424969 0.739167 0.845555
0.581167 0.725296 0.839078
0.714148 0.716730 0.833865
0.800153 0.711292 0.831616
0.852345 0.701531 0.831270
0.875454 0.658800 0.829035
0.214782 0.820041 0.827739
0.227197 0.817065 0.827492
0.286573 0.806780 0.827299
0.385011 0.791422 0.825377
0.525235 0.774747 0.820730
0.666328 0.761283 0.815219
0.761420 0.754322 0.812658
0.830226 0.750980 0.815280
0.865104 0.735061 0.817406
0.182230 0.852284 0.810101
0.192925 0.850838 0.809445
0.247281 0.845257 0.807940
0.336421 0.837243 0.806520
0.464920 0.828247 0.805847
0.612231 0.819823 0.804903
0.733707 0.809972 0.803528
0.810541 0.802481 0.801462
0.858353 0.798568 0.811369
0.141183 0.863177 0.783336
0.168230 0.865382 0.783300
0.170853 0.863808 0.785451
0.233994 0.861638 0.789415
0.357477 0.855211 0.786093
0.513735 0.849126 0.783940
0.671406 0.844947 0.782956
0.787293 0.843480 0.782416
0.860607 0.845361 0.811342
0.193870 0.522223 0.947225
0.219467 0.526169 0.947233
0.420430 0.541435 0.947261
0.759800 0.567378 0.947332
0.878786 0.596492 0.947437
0.920407 0.614380 0.947570
0.925721 0.551490 0.937347
0.926088 0.408177 0.922425
0.919847 0.225783 0.898999
0.206401 0.543924 0.947226
0.232782 0.547843 0.947233
0.428337 0.562955 0.947261
0.758916 0.588645 0.947333
0.878194 0.614515 0.947440
0.917029 0.619562 0.945357
0.923032 0.559463 0.935569
0.924112 0.418398 0.919571
0.918439 0.243494 0.900951
0.267120 0.639255 0.947184
0.296001 0.641655 0.947194
0.470147 0.650753 0.947228
0.756275 0.666657 0.947312
0.872665 0.678048 0.946162
0.902279 0.646808 0.937610
0.914089 0.602236 0.924953
0.917466 0.481041 0.910111
0.913736 0.233485 0.894051
0.345555 0.747222 0.945365
0.369826 0.744644 0.944538
0.501904 0.736360 0.941763
0.712586 0.724748 0.937351
0.821379 0.710903 0.929369
0.874021 0.691206 0.917570
0.895076 0.657216 0.905997
0.905699 0.586713 0.895647
0.906298 0.405262 0.886225
0.317135 0.762947 0.916863
0.337140 0.760791 0.915758
0.440878 0.753764 0.912079
0.625071 0.744482 0.906261
0.756906 0.734715 0.899358
0.830372 0.723404 0.892265
0.870848 0.707738 0.885585
0.887645 0.666224 0.879596
0.893283 0.529649 0.874663
0.282099 0.789508 0.888640
0.299602 0.787305 0.887797
0.384315 0.780023 0.885008
0.540217 0.770650 0.880703
0.688957 0.761972 0.875887
0.782585 0.753942 0.871482
0.838196 0.744302 0.867880
0.870346 0.725308 0.865033
0.880563 0.656852 0.862935
0.241036 0.825807 0.873302
0.255481 0.824473 0.872590
0.324155 0.819370 0.870174
0.459355 0.808387 0.866333
0.614082 0.798086 0.861937
0.733859 0.790057 0.858040
0.808206 0.783679 0.855508
0.850927 0.773299 0.854291
0.870273 0.738071 0.854012
0.171502 0.852618 0.863686
0.181229 0.851491 0.863598
0.233897 0.847254 0.862468
0.348240 0.840492 0.859678
0.509659 0.833580 0.856112
0.667604 0.828058 0.852506
0.767982 0.824513 0.849667
0.833447 0.821755 0.848428
0.862971 0.802252 0.848825
0.131317 0.859442 0.811179
0.170562 0.863075 0.822731
0.169333 0.861358 0.820686
0.183055 0.858874 0.817384
0.306736 0.857377 0.841250
0.477608 0.851539 0.850162
0.659374 0.847952 0.848777
0.782344 0.846945 0.847746
0.860652 0.848339 0.847562
