negative-superia-reala/SuperiaReala_Classic_ExtraSoft.cube
TITLE "Fuji Superia Reala Classic ExtraSoft"
# Adobe RGB in/out. REPLACES AgX. Fuji Superia Reala Classic ExtraSoft.
LUT_3D_SIZE 5
DOMAIN_MIN 0.0 0.0 0.0
DOMAIN_MAX 1.0 1.0 1.0
0.057575 0.063254 0.082403
0.158960 0.079859 0.088828
0.482750 0.117049 0.098593
0.643902 0.218028 0.112696
0.725944 0.367177 0.132578
0.070859 0.146658 0.090805
0.171643 0.160726 0.093465
0.487269 0.222033 0.102052
0.645366 0.326112 0.116151
0.726475 0.433837 0.136012
0.098902 0.460543 0.105041
0.216362 0.467988 0.107307
0.502438 0.493846 0.114335
0.650561 0.531937 0.126801
0.728367 0.574515 0.149595
0.157854 0.641636 0.125494
0.293783 0.643509 0.127729
0.520111 0.650086 0.135707
0.659796 0.661621 0.151369
0.731789 0.677677 0.176728
0.279282 0.727565 0.162512
0.383062 0.728413 0.164805
0.544308 0.731421 0.174907
0.667827 0.736801 0.192918
0.736771 0.744503 0.221709
0.057575 0.071819 0.168474
0.158960 0.083464 0.171336
0.482750 0.121584 0.181382
0.643902 0.224501 0.199179
0.725944 0.371960 0.228481
0.070859 0.151690 0.173046
0.171643 0.166678 0.175862
0.487269 0.228496 0.185754
0.645366 0.331076 0.204035
0.726475 0.436711 0.233582
0.098902 0.463258 0.188893
0.216362 0.470662 0.191561
0.502438 0.496387 0.201459
0.650561 0.533604 0.221133
0.728367 0.575977 0.251690
0.157854 0.642318 0.219351
0.293783 0.644184 0.222278
0.520111 0.650738 0.233121
0.659796 0.662234 0.253960
0.731789 0.678242 0.285300
0.279282 0.727873 0.268781
0.383062 0.728720 0.271948
0.544308 0.731722 0.283264
0.667827 0.737091 0.303839
0.736771 0.744779 0.334087
0.057575 0.087265 0.486295
0.158960 0.096832 0.487565
0.482750 0.138489 0.492091
0.643902 0.246791 0.500279
0.725944 0.388980 0.512198
0.070859 0.171620 0.488328
0.171643 0.187652 0.489591
0.487269 0.250549 0.494092
0.645366 0.348720 0.502238
0.726475 0.446888 0.514096
0.098902 0.472889 0.495541
0.216362 0.480150 0.496780
0.502438 0.505413 0.501198
0.650561 0.539522 0.509188
0.728367 0.581179 0.520837
0.157854 0.644747 0.508461
0.293783 0.646589 0.509657
0.520111 0.653062 0.513924
0.659796 0.664422 0.521657
0.731789 0.680258 0.532952
0.279282 0.728976 0.527003
0.383062 0.729816 0.528144
0.544308 0.732796 0.532219
0.667827 0.738127 0.539611
0.736771 0.745764 0.550429
0.057575 0.111666 0.662683
0.158960 0.122977 0.663022
0.482750 0.174160 0.664232
0.643902 0.286565 0.666438
0.725944 0.411284 0.669685
0.070859 0.212620 0.663225
0.171643 0.230455 0.663563
0.487269 0.290245 0.664770
0.645366 0.380467 0.666968
0.726475 0.465057 0.670206
0.098902 0.490135 0.665159
0.216362 0.497156 0.665493
0.502438 0.519987 0.666686
0.650561 0.550129 0.668861
0.728367 0.590546 0.672064
0.157854 0.649136 0.668662
0.293783 0.650936 0.668989
0.520111 0.657263 0.670159
0.659796 0.668384 0.672291
0.731789 0.683914 0.675433
0.279282 0.730984 0.673774
0.383062 0.731813 0.674092
0.544308 0.734753 0.675228
0.667827 0.740016 0.677300
0.736771 0.747560 0.680354
0.057575 0.157899 0.752736
0.158960 0.174096 0.752928
0.482750 0.236321 0.753618
0.643902 0.337291 0.754881
0.725944 0.440302 0.756754
0.070859 0.273732 0.753044
0.171643 0.290180 0.753237
0.487269 0.340331 0.753925
0.645366 0.415734 0.755186
0.726475 0.491035 0.757056
0.098902 0.514903 0.754148
0.216362 0.519968 0.754339
0.502438 0.536710 0.755024
0.650561 0.565372 0.756277
0.728367 0.604102 0.758136
0.157854 0.655516 0.756162
0.293783 0.657256 0.756351
0.520111 0.663381 0.757028
0.659796 0.674164 0.758268
0.731789 0.689261 0.760107
0.279282 0.733937 0.759134
0.383062 0.734750 0.759320
0.544308 0.737633 0.759986
0.667827 0.742798 0.760915
0.736771 0.750207 0.762172
