negative-superia-reala/SuperiaReala_Modern_ExtraPunchy.cube
TITLE "Fuji Superia Reala Modern ExtraPunchy"
# Adobe RGB in/out. REPLACES AgX. Fuji Superia Reala Modern ExtraPunchy.
LUT_3D_SIZE 5
DOMAIN_MIN 0.0 0.0 0.0
DOMAIN_MAX 1.0 1.0 1.0
0.069662 0.073299 0.081842
0.352375 0.090899 0.080140
0.784182 0.147746 0.088512
0.875937 0.173100 0.116400
0.888532 0.137733 0.677396
0.071633 0.368698 0.080999
0.148903 0.183040 0.081394
0.672838 0.233728 0.089353
0.851880 0.282233 0.112086
0.879885 0.131522 0.658240
0.082671 0.725943 0.093063
0.140027 0.650623 0.095945
0.481646 0.529572 0.099458
0.774149 0.528315 0.119316
0.859957 0.428941 0.309224
0.094607 0.850133 0.113460
0.141065 0.829401 0.119468
0.396930 0.770554 0.130126
0.691630 0.727301 0.142701
0.839742 0.707129 0.173381
0.087988 0.877273 0.108244
0.151835 0.880150 0.106919
0.296851 0.868921 0.136504
0.617401 0.847322 0.159299
0.830568 0.842541 0.174443
0.068266 0.094105 0.301831
0.292383 0.120155 0.611660
0.779991 0.182186 0.487591
0.870243 0.193979 0.519057
0.885301 0.135389 0.670218
0.079400 0.286784 0.225197
0.163239 0.177041 0.157973
0.667379 0.271200 0.256945
0.847724 0.305108 0.339392
0.876648 0.129253 0.651162
0.110158 0.695378 0.272919
0.190802 0.631296 0.236219
0.516314 0.525396 0.199598
0.776415 0.541440 0.238307
0.856918 0.436251 0.510766
0.124707 0.841220 0.263878
0.183193 0.822737 0.260191
0.446106 0.767561 0.250233
0.707655 0.729223 0.252216
0.838137 0.706519 0.284949
0.087551 0.879888 0.212901
0.150308 0.882581 0.207384
0.319302 0.866995 0.220117
0.631572 0.846760 0.258162
0.831030 0.842004 0.271633
0.071589 0.197428 0.720731
0.328910 0.244915 0.825385
0.797766 0.321095 0.819679
0.871086 0.285648 0.768402
0.883854 0.134348 0.753956
0.095512 0.455216 0.720042
0.305811 0.411413 0.747002
0.700313 0.387881 0.724753
0.848157 0.378323 0.721164
0.874672 0.128070 0.728678
0.133696 0.656142 0.597014
0.219778 0.606541 0.563585
0.510463 0.513546 0.513507
0.775609 0.559690 0.589194
0.853054 0.473488 0.685332
0.168375 0.825040 0.594884
0.241274 0.806021 0.579588
0.493807 0.760402 0.545416
0.719084 0.729001 0.531169
0.833861 0.710140 0.606850
0.118270 0.881254 0.635252
0.135539 0.879880 0.629136
0.370285 0.861909 0.560813
0.657740 0.845478 0.545573
0.830710 0.842118 0.547167
0.076221 0.400846 0.883761
0.285942 0.430093 0.896491
0.795054 0.482475 0.897232
0.880696 0.430940 0.867795
0.887599 0.137046 0.827969
0.105139 0.579499 0.888411
0.335032 0.582433 0.895800
0.753579 0.561306 0.880374
0.859391 0.497358 0.848401
0.878123 0.130187 0.810575
0.156353 0.689803 0.800408
0.269573 0.668609 0.799675
0.599610 0.633773 0.790017
0.792524 0.620033 0.787161
0.854343 0.537630 0.785515
0.181401 0.814355 0.756742
0.258707 0.799227 0.749161
0.507424 0.762303 0.734536
0.714533 0.730959 0.722054
0.831679 0.723492 0.758909
0.117845 0.874993 0.715355
0.138071 0.874222 0.711219
0.369223 0.859774 0.719031
0.659787 0.846295 0.708902
0.829817 0.845763 0.744685
0.160583 0.532519 0.940872
0.413355 0.550084 0.940907
0.848271 0.595934 0.941081
0.901440 0.558515 0.927392
0.892591 0.209605 0.893454
0.240446 0.639192 0.940831
0.471867 0.648919 0.940874
0.842767 0.671914 0.939825
0.883947 0.600674 0.914152
0.883418 0.218889 0.889495
0.298834 0.761892 0.907712
0.437506 0.753030 0.903899
0.728553 0.732946 0.893741
0.841186 0.699709 0.880499
0.861946 0.540166 0.868132
0.209026 0.825087 0.866593
0.306668 0.816267 0.863056
0.602476 0.795771 0.853751
0.779905 0.781887 0.846498
0.840458 0.737103 0.844811
0.102478 0.865854 0.797691
0.137900 0.868185 0.808143
0.287288 0.863341 0.830794
0.637947 0.851890 0.838911
0.829634 0.852359 0.837542
