negative-superia-reala/SuperiaReala_Modern_ExtraSoft.cube
TITLE "Fuji Superia Reala Modern ExtraSoft"
# Adobe RGB in/out. REPLACES AgX. Fuji Superia Reala Modern ExtraSoft.
LUT_3D_SIZE 5
DOMAIN_MIN 0.0 0.0 0.0
DOMAIN_MAX 1.0 1.0 1.0
0.057575 0.063254 0.082403
0.374542 0.094324 0.092160
0.660196 0.203871 0.109031
0.754425 0.384017 0.129599
0.806070 0.496998 0.158698
0.082049 0.350418 0.096446
0.244861 0.224670 0.094944
0.599556 0.347926 0.108551
0.734703 0.464227 0.128878
0.799230 0.544578 0.158382
0.141235 0.645557 0.119520
0.351491 0.616789 0.116835
0.561646 0.569418 0.118082
0.700494 0.601862 0.133347
0.783274 0.635385 0.161620
0.246945 0.733649 0.148274
0.403184 0.724816 0.146338
0.581025 0.707374 0.145917
0.691038 0.699374 0.154993
0.764969 0.706100 0.178271
0.333032 0.779193 0.181016
0.431220 0.776530 0.180941
0.582570 0.770080 0.183133
0.689389 0.764464 0.192366
0.757559 0.764325 0.212833
0.057575 0.078053 0.377802
0.387356 0.105689 0.384409
0.651346 0.210264 0.338558
0.747832 0.379419 0.328251
0.803368 0.493809 0.336010
0.075874 0.265358 0.281364
0.155851 0.154021 0.164832
0.578452 0.327188 0.248692
0.727303 0.455639 0.294337
0.796520 0.541087 0.321421
0.129883 0.627910 0.319616
0.320004 0.592719 0.269696
0.540329 0.546149 0.221050
0.693175 0.590635 0.252574
0.780375 0.632345 0.296287
0.236524 0.728377 0.323670
0.394312 0.719876 0.307062
0.573390 0.702910 0.277661
0.687012 0.695960 0.271343
0.762743 0.704590 0.297266
0.329160 0.777747 0.323640
0.428035 0.775186 0.319418
0.580261 0.768957 0.311414
0.688321 0.763644 0.312388
0.757116 0.764198 0.328789
0.057575 0.114070 0.705776
0.387356 0.151404 0.706725
0.680450 0.315938 0.704004
0.752804 0.415578 0.654642
0.802158 0.506540 0.624301
0.081030 0.397446 0.697882
0.347616 0.381565 0.673432
0.616885 0.409567 0.640502
0.729836 0.478040 0.623149
0.794865 0.546997 0.610553
0.114626 0.595665 0.613988
0.280900 0.564228 0.585015
0.504833 0.509365 0.504522
0.686539 0.585675 0.558302
0.775768 0.631263 0.580315
0.214345 0.717261 0.607399
0.370885 0.710100 0.596067
0.558275 0.694848 0.565966
0.678541 0.688502 0.543970
0.758443 0.702438 0.555977
0.319193 0.774233 0.587154
0.419931 0.772016 0.583445
0.574618 0.766123 0.571459
0.685750 0.762044 0.560729
0.756057 0.764256 0.560902
0.057575 0.220061 0.822858
0.387356 0.271446 0.823156
0.685409 0.414994 0.824218
0.768487 0.485166 0.792476
0.805290 0.536906 0.762414
0.082049 0.471260 0.823334
0.405067 0.494663 0.823631
0.666543 0.520069 0.804742
0.746082 0.535484 0.774006
0.797759 0.571278 0.750484
0.115158 0.614386 0.757869
0.305853 0.604499 0.746897
0.563129 0.596082 0.728174
0.698380 0.617532 0.722419
0.777964 0.640264 0.719366
0.194621 0.708313 0.729733
0.347474 0.703237 0.722169
0.547822 0.690991 0.702469
0.669834 0.681507 0.684442
0.756271 0.703544 0.695714
0.307194 0.770467 0.713337
0.410242 0.768678 0.710444
0.568261 0.763732 0.702374
0.683003 0.761191 0.695213
0.755048 0.765255 0.693788
0.057575 0.384484 0.876935
0.387356 0.414889 0.877039
0.685409 0.502566 0.877413
0.780895 0.555286 0.862377
0.809463 0.576256 0.837404
0.082049 0.541263 0.877102
0.405067 0.555847 0.877206
0.684790 0.598281 0.875680
0.760885 0.592675 0.851224
0.802186 0.607335 0.829239
0.127459 0.655438 0.846135
0.356832 0.652399 0.842759
0.603769 0.647157 0.832615
0.715184 0.648280 0.817470
0.783594 0.657233 0.804352
0.188849 0.709954 0.804584
0.344535 0.707369 0.800992
0.555762 0.702020 0.791851
0.683244 0.702360 0.784842
0.759550 0.710965 0.782630
0.296692 0.767872 0.788478
0.401849 0.766516 0.786746
0.563306 0.763347 0.781981
0.681256 0.762392 0.777410
0.754612 0.767753 0.776475
