negative-superia-reala/SuperiaReala_Modern_Soft.cube
TITLE "Fuji Superia Reala Modern Soft"
# Adobe RGB in/out. REPLACES AgX. Fuji Superia Reala Modern Soft.
LUT_3D_SIZE 5
DOMAIN_MIN 0.0 0.0 0.0
DOMAIN_MAX 1.0 1.0 1.0
0.061901 0.068453 0.087572
0.374455 0.098659 0.098084
0.654604 0.202138 0.114725
0.754463 0.377647 0.135261
0.806928 0.493688 0.162773
0.086985 0.348934 0.102064
0.243750 0.222629 0.100567
0.605992 0.345991 0.114240
0.736516 0.463752 0.134517
0.799812 0.540114 0.162486
0.146717 0.645145 0.124807
0.354620 0.605402 0.122182
0.572785 0.562030 0.123402
0.705281 0.590500 0.139132
0.781573 0.631301 0.165420
0.245935 0.732124 0.153281
0.404765 0.722086 0.151510
0.591355 0.702314 0.151124
0.694257 0.693269 0.159408
0.764041 0.700873 0.181570
0.339050 0.780751 0.184160
0.429960 0.778465 0.184089
0.592579 0.772922 0.186155
0.692124 0.767275 0.194839
0.757311 0.767116 0.211897
0.061901 0.083182 0.369911
0.387604 0.108106 0.378465
0.647510 0.208437 0.336146
0.748469 0.373939 0.327351
0.804239 0.490782 0.333975
0.080939 0.264508 0.281091
0.163217 0.156396 0.168679
0.589314 0.324503 0.247182
0.729771 0.455878 0.294561
0.796913 0.537026 0.321501
0.132969 0.621178 0.319952
0.322529 0.582494 0.268997
0.547153 0.541503 0.219846
0.697025 0.580667 0.251286
0.778013 0.627178 0.296587
0.235020 0.726131 0.323430
0.397095 0.716479 0.307794
0.585293 0.697265 0.277250
0.689052 0.689413 0.270703
0.762020 0.699165 0.297605
0.334122 0.779510 0.323403
0.426620 0.777310 0.319783
0.590749 0.771997 0.312325
0.690744 0.766337 0.313339
0.756909 0.766971 0.327811
0.061901 0.117203 0.721621
0.387604 0.153613 0.722375
0.680586 0.314652 0.720210
0.752990 0.411308 0.660826
0.802944 0.502374 0.629468
0.085822 0.389610 0.713053
0.351567 0.375671 0.683624
0.619708 0.404092 0.646376
0.732080 0.476390 0.628169
0.795144 0.542253 0.613981
0.118690 0.585075 0.617847
0.281671 0.557460 0.584125
0.502397 0.504942 0.506473
0.688440 0.576317 0.558341
0.773838 0.625714 0.577839
0.211539 0.713513 0.610435
0.370969 0.705400 0.597708
0.568720 0.688157 0.564966
0.678128 0.682132 0.545365
0.758114 0.696732 0.556329
0.321507 0.776492 0.586991
0.419178 0.774586 0.582023
0.586269 0.769173 0.569706
0.687422 0.764507 0.560441
0.755947 0.767037 0.560591
0.061901 0.218089 0.836336
0.387604 0.270739 0.836584
0.686981 0.410606 0.837356
0.767234 0.482899 0.801821
0.806158 0.533325 0.767826
0.086985 0.470190 0.836714
0.406390 0.491561 0.836929
0.662721 0.516185 0.815737
0.746877 0.532064 0.780916
0.798239 0.563668 0.757721
0.119301 0.602113 0.763520
0.304920 0.592807 0.754899
0.574575 0.585440 0.740125
0.703346 0.606471 0.735399
0.775829 0.637931 0.732831
0.190621 0.703377 0.741358
0.351455 0.697634 0.735189
0.556143 0.684240 0.718595
0.666939 0.676201 0.696853
0.756141 0.697982 0.710436
0.306578 0.773255 0.727753
0.410849 0.771799 0.725333
0.580776 0.766438 0.718481
0.683876 0.763532 0.709831
0.755030 0.768180 0.708112
0.061901 0.378023 0.890437
0.387604 0.410479 0.890517
0.686981 0.498758 0.890803
0.778485 0.549575 0.875913
0.810271 0.568045 0.848015
0.086985 0.537182 0.890565
0.406390 0.550070 0.890645
0.686182 0.587366 0.889476
0.760333 0.582455 0.863432
0.802974 0.595286 0.840999
0.130540 0.654017 0.857476
0.358816 0.651423 0.853613
0.609306 0.646944 0.843445
0.718710 0.647904 0.830204
0.782003 0.655548 0.815294
0.184551 0.705235 0.815557
0.349134 0.702308 0.811479
0.565692 0.696258 0.801113
0.684187 0.696643 0.793174
0.759121 0.706379 0.790670
0.293718 0.771175 0.797291
0.403612 0.769623 0.795329
0.574789 0.765998 0.789936
0.681624 0.764906 0.784765
0.754633 0.771039 0.783708
