negative-superia-reala/SuperiaReala_Classic_Normal.cube
TITLE "Fuji Superia Reala Classic Normal"
# Adobe RGB in/out. REPLACES AgX. Fuji Superia Reala Classic Normal.
LUT_3D_SIZE 9
DOMAIN_MIN 0.0 0.0 0.0
DOMAIN_MAX 1.0 1.0 1.0
0.074318 0.073381 0.089635
0.110867 0.088341 0.091373
0.215496 0.106520 0.093794
0.351096 0.133892 0.097972
0.482591 0.170701 0.103888
0.596501 0.215968 0.113514
0.686029 0.266985 0.125451
0.745038 0.322022 0.140888
0.790663 0.374894 0.159529
0.081648 0.115840 0.091939
0.113685 0.120570 0.092754
0.217828 0.134673 0.094977
0.352543 0.159111 0.098873
0.483572 0.194884 0.104796
0.597124 0.236243 0.114507
0.686334 0.286161 0.126461
0.745223 0.337453 0.142113
0.790810 0.388365 0.160690
0.092633 0.206345 0.095664
0.122644 0.209535 0.096312
0.226049 0.220598 0.098343
0.357698 0.240359 0.102446
0.487079 0.269947 0.109431
0.599351 0.306236 0.118835
0.687426 0.345736 0.130093
0.745886 0.388180 0.146385
0.791334 0.433533 0.164984
0.110614 0.331925 0.102073
0.140860 0.334163 0.102680
0.240599 0.342089 0.104667
0.367009 0.356242 0.109946
0.493464 0.376486 0.116727
0.603419 0.402332 0.126060
0.689422 0.433123 0.138703
0.747099 0.466738 0.154562
0.792296 0.497924 0.173357
0.137219 0.460550 0.113102
0.166649 0.461895 0.113735
0.261175 0.466685 0.116217
0.381031 0.475326 0.121143
0.502854 0.487865 0.127596
0.609430 0.504137 0.137796
0.692377 0.523847 0.150783
0.748900 0.546627 0.166432
0.793727 0.572085 0.185207
0.171771 0.566498 0.127793
0.200831 0.567512 0.128394
0.287131 0.571134 0.130826
0.399146 0.577718 0.136324
0.515254 0.587378 0.143992
0.617416 0.600097 0.154190
0.696314 0.613300 0.166956
0.751307 0.627263 0.182850
0.795644 0.642914 0.200153
0.214562 0.653906 0.148581
0.239928 0.654465 0.149375
0.315877 0.656462 0.152182
0.419045 0.660100 0.157183
0.529144 0.665456 0.164443
0.627361 0.672539 0.174971
0.701230 0.681303 0.187545
0.754324 0.691666 0.201890
0.798056 0.702432 0.217746
0.259704 0.716327 0.174069
0.281847 0.716624 0.174837
0.347583 0.717686 0.177567
0.442069 0.719626 0.182490
0.544234 0.722490 0.189626
0.639206 0.726291 0.198879
0.707105 0.731017 0.210084
0.757948 0.736634 0.223043
0.800964 0.743092 0.237549
0.305440 0.760708 0.202272
0.323543 0.760943 0.202937
0.382628 0.761785 0.205310
0.467845 0.763326 0.209608
0.561389 0.765608 0.215886
0.652864 0.768650 0.224101
0.713903 0.772453 0.234152
0.762162 0.777003 0.246636
0.804364 0.782273 0.262794
0.074318 0.082922 0.114554
0.110867 0.090731 0.115205
0.215496 0.108221 0.118020
0.351096 0.135149 0.122751
0.482591 0.172015 0.128990
0.596501 0.217078 0.139632
0.686029 0.268031 0.152590
0.745038 0.322854 0.168292
0.790663 0.375621 0.186888
0.081648 0.117610 0.115691
0.113685 0.122181 0.116485
0.217828 0.135913 0.119216
0.352543 0.160542 0.123824
0.483572 0.196118 0.130108
0.597124 0.237396 0.140873
0.686334 0.287151 0.153818
0.745223 0.338254 0.169561
0.790810 0.389068 0.188037
0.092633 0.207509 0.120066
0.122644 0.210680 0.120781
0.226049 0.221683 0.123257
0.357698 0.241495 0.127476
0.487079 0.270984 0.134825
0.599351 0.307174 0.145201
0.687426 0.346519 0.158128
0.745886 0.388884 0.174045
0.791334 0.434168 0.192108
0.110614 0.332739 0.127105
0.140860 0.334971 0.127715
0.240599 0.342880 0.130001
0.367009 0.357004 0.135405
0.493464 0.377210 0.143147
0.603419 0.403012 0.153328
0.689422 0.433758 0.166049
0.747099 0.467218 0.182019
0.792296 0.498363 0.199391
0.137219 0.461039 0.139125
0.166649 0.462382 0.139906
0.261175 0.467165 0.142658
0.381031 0.475795 0.147528
0.502854 0.488317 0.155216
0.609430 0.504569 0.165125
0.692377 0.524257 0.178363
0.748900 0.547014 0.193361
0.793727 0.572448 0.209835
0.171771 0.566866 0.155460
0.200831 0.567879 0.156210
0.287131 0.571498 0.158866
0.399146 0.578076 0.163635
0.515254 0.587729 0.171521
0.617416 0.600437 0.181657
0.696314 0.613550 0.193815
0.751307 0.627501 0.207746
0.795644 0.643125 0.223204
0.214562 0.654109 0.176253
0.239928 0.654667 0.177012
0.315877 0.656663 0.179711
0.419045 0.660298 0.184579
0.529144 0.665651 0.191640
0.627361 0.672729 0.200804
0.701230 0.681487 0.211912
0.754324 0.691844 0.224770
0.798056 0.702548 0.239223
0.259704 0.716435 0.200014
0.281847 0.716731 0.200687
0.347583 0.717794 0.203084
0.442069 0.719732 0.207427
0.544234 0.722594 0.213766
0.639206 0.726393 0.222056
0.707105 0.731116 0.232192
0.757948 0.736730 0.244525
0.800964 0.743186 0.260621
0.305440 0.760793 0.225115
0.323543 0.761028 0.225716
0.382628 0.761870 0.227861
0.467845 0.763410 0.231760
0.561389 0.765691 0.237477
0.652864 0.768732 0.245589
0.713903 0.772534 0.256788
0.762162 0.777081 0.270116
0.804364 0.782349 0.285426
0.074318 0.092906 0.209284
0.110867 0.098191 0.209928
0.215496 0.113614 0.212226
0.351096 0.139447 0.216393
0.482591 0.176639 0.222487
0.596501 0.221017 0.230478
0.686029 0.271761 0.240422
0.745038 0.325844 0.253728
0.790663 0.378220 0.269618
0.081648 0.123491 0.210315
0.113685 0.127582 0.210956
0.217828 0.140155 0.213243
0.352543 0.165560 0.217392
0.483572 0.200488 0.223460
0.597124 0.241500 0.231419
0.686334 0.290683 0.241410
0.745223 0.341118 0.254780
0.790810 0.391584 0.270631
0.092633 0.211633 0.213981
0.122644 0.214741 0.214611
0.226049 0.225538 0.216862
0.357698 0.245545 0.220945
0.487079 0.274682 0.226923
0.599351 0.310523 0.234769
0.687426 0.349320 0.244932
0.745886 0.391401 0.258537
0.791334 0.436441 0.274251
0.110614 0.335647 0.220573
0.140860 0.337861 0.221185
0.240599 0.345708 0.223372
0.367009 0.359729 0.227344
0.493464 0.379800 0.233165
0.603419 0.405448 0.241015
0.689422 0.436033 0.251880
0.747099 0.468937 0.265363
0.792296 0.499937 0.280835
0.137219 0.462789 0.230096
0.166649 0.464126 0.230685
0.261175 0.468885 0.232787
0.381031 0.477472 0.236607
0.502854 0.489935 0.242543
0.609430 0.506117 0.251123
0.692377 0.525726 0.262211
0.748900 0.548400 0.275374
0.793727 0.573751 0.290510
0.171771 0.568186 0.242742
0.200831 0.569196 0.243354
0.287131 0.572804 0.245543
0.399146 0.579362 0.249909
0.515254 0.588985 0.256415
0.617416 0.601658 0.265048
0.696314 0.614445 0.275782
0.751307 0.628356 0.288553
0.795644 0.643881 0.302968
0.214562 0.654836 0.260409
0.239928 0.655393 0.261055
0.315877 0.657384 0.263368
0.419045 0.661010 0.267591
0.529144 0.666349 0.273833
0.627361 0.673410 0.282128
0.701230 0.682148 0.292466
0.754324 0.692482 0.304372
0.798056 0.702966 0.317491
0.259704 0.716821 0.281405
0.281847 0.717118 0.282020
0.347583 0.718177 0.284226
0.442069 0.720112 0.288256
0.544234 0.722968 0.294220
0.639206 0.726760 0.301942
0.707105 0.731474 0.311085
0.757948 0.737077 0.321988
0.800964 0.743521 0.334580
0.305440 0.761100 0.304681
0.323543 0.761334 0.305221
0.382628 0.762175 0.307156
0.467845 0.763712 0.310692
0.561389 0.765990 0.315925
0.652864 0.769026 0.322894
0.713903 0.772822 0.331596
0.762162 0.777363 0.342000
0.804364 0.782624 0.354049
0.074318 0.103852 0.347605
0.110867 0.108718 0.348094
0.215496 0.124155 0.349847
0.351096 0.147958 0.353054
0.482591 0.185181 0.357812
0.596501 0.228079 0.364166
0.686029 0.278520 0.372128
0.745038 0.331280 0.381684
0.790663 0.382961 0.392800
0.081648 0.132822 0.348389
0.113685 0.136284 0.348877
0.217828 0.148798 0.350627
0.352543 0.174337 0.353829
0.483572 0.208279 0.358579
0.597124 0.248910 0.364922
0.686334 0.297095 0.372872
0.745223 0.346331 0.382415
0.790810 0.396176 0.393514
0.092633 0.219012 0.351193
0.122644 0.222012 0.351678
0.226049 0.232456 0.353417
0.357698 0.252859 0.356601
0.487079 0.281384 0.361323
0.599351 0.316612 0.367631
0.687426 0.354420 0.375537
0.745886 0.395994 0.385029
0.791334 0.440596 0.396073
0.110614 0.340937 0.356309
0.140860 0.343120 0.356789
0.240599 0.350857 0.358509
0.367009 0.364693 0.361658
0.493464 0.384522 0.366331
0.603419 0.409894 0.372575
0.689422 0.440191 0.380403
0.747099 0.472078 0.389806
0.792296 0.502816 0.400750
0.137219 0.465987 0.363859
0.166649 0.467311 0.364332
0.261175 0.472026 0.366025
0.381031 0.480536 0.369126
0.502854 0.492894 0.373728
0.609430 0.508948 0.379879
0.692377 0.528414 0.387596
0.748900 0.550938 0.396869
0.793727 0.576137 0.407669
0.171771 0.570605 0.373879
0.200831 0.571609 0.374341
0.287131 0.575196 0.376001
0.399146 0.581716 0.379040
0.515254 0.591288 0.383551
0.617416 0.603894 0.389585
0.696314 0.616087 0.397159
0.751307 0.629922 0.406266
0.795644 0.645268 0.416777
0.214562 0.656170 0.386336
0.239928 0.656724 0.386788
0.315877 0.658705 0.388407
0.419045 0.662314 0.391372
0.529144 0.667630 0.395777
0.627361 0.674660 0.401672
0.701230 0.683361 0.409075
0.754324 0.693654 0.417736
0.798056 0.703731 0.426748
0.259704 0.717531 0.401156
0.281847 0.717826 0.401595
0.347583 0.718882 0.403168
0.442069 0.720809 0.406052
0.544234 0.723655 0.410338
0.639206 0.727433 0.416075
0.707105 0.732130 0.422336
0.757948 0.737714 0.429858
0.800964 0.744137 0.438616
0.305440 0.761662 0.417947
0.323543 0.761896 0.418317
0.382628 0.762734 0.419641
0.467845 0.764267 0.422066
0.561389 0.766539 0.425667
0.652864 0.769567 0.430485
0.713903 0.773352 0.436534
0.762162 0.777882 0.443810
0.804364 0.783129 0.452293
0.074318 0.119750 0.486801
0.110867 0.124138 0.487117
0.215496 0.137435 0.488251
0.351096 0.162322 0.490331
0.482591 0.197661 0.493425
0.596501 0.238840 0.497575
0.686029 0.288392 0.502803
0.745038 0.339260 0.509115
0.790663 0.389951 0.515113
0.081648 0.144978 0.487308
0.113685 0.148784 0.487623
0.217828 0.163188 0.488756
0.352543 0.187097 0.490834
0.483572 0.219396 0.493925
0.597124 0.259676 0.498070
0.686334 0.306486 0.503293
0.745223 0.353994 0.509599
0.790810 0.402952 0.515480
0.092633 0.229587 0.489123
0.122644 0.232445 0.489438
0.226049 0.243618 0.490567
0.357698 0.263496 0.492636
0.487079 0.291178 0.495716
0.599351 0.324971 0.499846
0.687426 0.361924 0.505050
0.745886 0.402774 0.511129
0.791334 0.446743 0.516793
0.110614 0.348711 0.492446
0.140860 0.350848 0.492759
0.240599 0.358430 0.493879
0.367009 0.372003 0.495935
0.493464 0.391487 0.498994
0.603419 0.416463 0.503097
0.689422 0.446343 0.508267
0.747099 0.476723 0.513578
0.792296 0.507081 0.519195
0.137219 0.470715 0.497374
0.166649 0.472021 0.497684
0.261175 0.476672 0.498793
0.381031 0.485071 0.500828
0.502854 0.497276 0.503857
0.609430 0.513143 0.507920
0.692377 0.532401 0.512445
0.748900 0.554705 0.517202
0.793727 0.579682 0.522755
0.171771 0.574196 0.503956
0.200831 0.575192 0.504261
0.287131 0.578748 0.505356
0.399146 0.585215 0.507364
0.515254 0.594710 0.510353
0.617416 0.606794 0.513465
0.696314 0.618525 0.517350
0.751307 0.632249 0.522032
0.795644 0.647329 0.527504
0.214562 0.658153 0.511799
0.239928 0.658703 0.512030
0.315877 0.660670 0.512860
0.419045 0.664255 0.514382
0.529144 0.669535 0.516641
0.627361 0.676519 0.519669
0.701230 0.685166 0.523479
0.754324 0.695397 0.528074
0.798056 0.704870 0.533445
0.259704 0.718587 0.519404
0.281847 0.718881 0.519629
0.347583 0.719931 0.520439
0.442069 0.721847 0.521922
0.544234 0.724677 0.524129
0.639206 0.728434 0.527088
0.707105 0.733107 0.530812
0.757948 0.738663 0.535306
0.800964 0.745055 0.540561
0.305440 0.762500 0.528199
0.323543 0.762733 0.528419
0.382628 0.763568 0.529207
0.467845 0.765095 0.530651
0.561389 0.767356 0.532800
0.652864 0.770372 0.535681
0.713903 0.774143 0.539310
0.762162 0.778654 0.543690
0.804364 0.783882 0.548817
0.074318 0.138273 0.593446
0.110867 0.141426 0.593627
0.215496 0.155323 0.594280
0.351096 0.179913 0.595477
0.482591 0.213321 0.597261
0.596501 0.253765 0.599658
0.686029 0.301319 0.602685
0.745038 0.349774 0.606349
0.790663 0.399216 0.610653
0.081648 0.164171 0.593737
0.113685 0.167935 0.593919
0.217828 0.180711 0.594571
0.352543 0.203607 0.595767
0.483572 0.233544 0.597550
0.597124 0.273683 0.599945
0.686334 0.318822 0.602969
0.745223 0.364110 0.606630
0.790810 0.411945 0.610931
0.092633 0.244413 0.594782
0.122644 0.247495 0.594963
0.226049 0.258320 0.595613
0.357698 0.277348 0.596806
0.487079 0.304011 0.598584
0.599351 0.335902 0.600972
0.687426 0.371839 0.603988
0.745886 0.411770 0.607639
0.791334 0.454926 0.611928
0.110614 0.358966 0.596697
0.140860 0.361047 0.596877
0.240599 0.368433 0.597523
0.367009 0.381674 0.598710
0.493464 0.400719 0.600479
0.603419 0.425188 0.602855
0.689422 0.454533 0.605856
0.747099 0.482903 0.609489
0.792296 0.512767 0.613757
0.137219 0.477002 0.599542
0.166649 0.478284 0.599721
0.261175 0.482853 0.600363
0.381031 0.491108 0.601541
0.502854 0.503114 0.603296
0.609430 0.518738 0.605654
0.692377 0.537724 0.608632
0.748900 0.559740 0.612239
0.793727 0.584425 0.616477
0.171771 0.579001 0.603353
0.200831 0.579985 0.603530
0.287131 0.583502 0.604165
0.399146 0.589898 0.605331
0.515254 0.599291 0.607069
0.617416 0.610190 0.609403
0.696314 0.621788 0.612352
0.751307 0.635366 0.615924
0.795644 0.650090 0.620121
0.214562 0.660810 0.608145
0.239928 0.661355 0.608319
0.315877 0.663304 0.608946
0.419045 0.666856 0.610098
0.529144 0.672089 0.611813
0.627361 0.679012 0.614119
0.701230 0.687587 0.617031
0.754324 0.697737 0.620559
0.798056 0.706397 0.624706
0.259704 0.720005 0.613916
0.281847 0.720296 0.614088
0.347583 0.721338 0.614706
0.442069 0.723240 0.615840
0.544234 0.726049 0.617529
0.639206 0.729780 0.619801
0.707105 0.734419 0.622670
0.757948 0.739938 0.626147
0.800964 0.746287 0.630234
0.305440 0.763628 0.620656
0.323543 0.763859 0.620825
0.382628 0.764689 0.621432
0.467845 0.766207 0.622546
0.561389 0.768456 0.624206
0.652864 0.771455 0.626438
0.713903 0.775205 0.629259
0.762162 0.779693 0.632677
0.804364 0.784894 0.636697
0.074318 0.161600 0.687446
0.110867 0.165436 0.687544
0.215496 0.178395 0.687898
0.351096 0.201419 0.688549
0.482591 0.231651 0.689518
0.596501 0.271790 0.690822
0.686029 0.317148 0.692472
0.745038 0.362734 0.694472
0.790663 0.410719 0.696826
0.081648 0.186433 0.687604
0.113685 0.189973 0.687702
0.217828 0.202158 0.688056
0.352543 0.222773 0.688706
0.483572 0.252682 0.689675
0.597124 0.290711 0.690978
0.686334 0.332802 0.692627
0.745223 0.376611 0.694625
0.790810 0.423124 0.696978
0.092633 0.262953 0.688171
0.122644 0.265861 0.688269
0.226049 0.276106 0.688622
0.357698 0.294205 0.689271
0.487079 0.319723 0.690238
0.599351 0.349342 0.691538
0.687426 0.384104 0.693183
0.745886 0.422954 0.695177
0.791334 0.464272 0.697525
0.110614 0.371627 0.689211
0.140860 0.373643 0.689309
0.240599 0.380801 0.689661
0.367009 0.393654 0.690307
0.493464 0.412182 0.691269
0.603419 0.436051 0.692565
0.689422 0.463959 0.694202
0.747099 0.490611 0.696189
0.792296 0.519876 0.698527
0.137219 0.484837 0.690759
0.166649 0.486092 0.690857
0.261175 0.490562 0.691206
0.381031 0.498643 0.691848
0.502854 0.510407 0.692805
0.609430 0.525738 0.694092
0.692377 0.544392 0.695720
0.748900 0.566056 0.697695
0.793727 0.590383 0.700019
0.171771 0.585034 0.692836
0.200831 0.586005 0.692933
0.287131 0.589472 0.693279
0.399146 0.595780 0.693916
0.515254 0.605049 0.694865
0.617416 0.614452 0.696142
0.696314 0.625886 0.697757
0.751307 0.639284 0.699716
0.795644 0.653563 0.702022
0.214562 0.664155 0.695453
0.239928 0.664693 0.695549
0.315877 0.666620 0.695892
0.419045 0.670131 0.696522
0.529144 0.675305 0.697461
0.627361 0.682154 0.698725
0.701230 0.690639 0.700324
0.754324 0.700506 0.702263
0.798056 0.708322 0.704547
0.259704 0.721793 0.698614
0.281847 0.722081 0.698709
0.347583 0.723113 0.699048
0.442069 0.724997 0.699670
0.544234 0.727780 0.700598
0.639206 0.731477 0.701846
0.707105 0.736075 0.703425
0.757948 0.741546 0.705342
0.800964 0.747844 0.707598
0.305440 0.765052 0.702317
0.323543 0.765282 0.702410
0.382628 0.766106 0.702744
0.467845 0.767613 0.703357
0.561389 0.769846 0.704271
0.652864 0.772824 0.705502
0.713903 0.776549 0.707059
0.762162 0.781008 0.708949
0.804364 0.786175 0.711174
0.074318 0.188919 0.752528
0.110867 0.192412 0.752605
0.215496 0.204445 0.752881
0.351096 0.224842 0.753389
0.482591 0.254787 0.754146
0.596501 0.292594 0.755167
0.686029 0.334367 0.756459
0.745038 0.378006 0.758030
0.790663 0.424376 0.759883
0.081648 0.211593 0.752651
0.113685 0.214702 0.752728
0.217828 0.225500 0.753004
0.352543 0.245505 0.753512
0.483572 0.274645 0.754269
0.597124 0.310491 0.755289
0.686334 0.349293 0.756581
0.745223 0.391377 0.758150
0.790810 0.436419 0.760003
0.092633 0.284276 0.753094
0.122644 0.287010 0.753171
0.226049 0.296666 0.753446
0.357698 0.313808 0.753953
0.487079 0.336657 0.754709
0.599351 0.365136 0.755727
0.687426 0.398611 0.757017
0.745886 0.436254 0.758584
0.791334 0.474173 0.760434
0.110614 0.386571 0.753906
0.140860 0.388514 0.753983
0.240599 0.395421 0.754258
0.367009 0.407844 0.754763
0.493464 0.425795 0.755517
0.603419 0.448989 0.756532
0.689422 0.473869 0.757818
0.747099 0.499807 0.759381
0.792296 0.528385 0.761225
0.137219 0.494181 0.755117
0.166649 0.495403 0.755193
0.261175 0.499759 0.755467
0.381031 0.507642 0.755970
0.502854 0.519129 0.756720
0.609430 0.534119 0.757731
0.692377 0.552389 0.759012
0.748900 0.573643 0.760568
0.793727 0.597551 0.762404
0.171771 0.592291 0.756745
0.200831 0.593246 0.756821
0.287131 0.596656 0.757093
0.399146 0.602861 0.757593
0.515254 0.610427 0.758339
0.617416 0.619577 0.759344
0.696314 0.630818 0.760617
0.751307 0.643818 0.762164
0.795644 0.657749 0.763990
0.214562 0.668188 0.758802
0.239928 0.668719 0.758877
0.315877 0.670619 0.759147
0.419045 0.674082 0.759643
0.529144 0.679187 0.760384
0.627361 0.685946 0.761381
0.701230 0.694325 0.762645
0.754324 0.702931 0.764181
0.798056 0.710646 0.765994
0.259704 0.723954 0.761294
0.281847 0.724239 0.761368
0.347583 0.725259 0.761636
0.442069 0.727122 0.762128
0.544234 0.729874 0.762862
0.639206 0.733529 0.763850
0.707105 0.738079 0.765103
0.757948 0.743494 0.766625
0.800964 0.749729 0.768392
0.305440 0.766778 0.764223
0.323543 0.767006 0.764297
0.382628 0.767823 0.764562
0.467845 0.769317 0.765048
0.561389 0.771531 0.765775
0.652864 0.774485 0.766753
0.713903 0.778179 0.767993
0.762162 0.782601 0.769096
0.804364 0.787729 0.770258
0.074318 0.218099 0.797162
0.110867 0.221112 0.797199
0.215496 0.231599 0.797333
0.351096 0.251950 0.797581
0.482591 0.280549 0.797949
0.596501 0.315852 0.798447
0.686029 0.353783 0.799077
0.745038 0.395420 0.799843
0.790663 0.440076 0.800748
0.081648 0.238458 0.797222
0.113685 0.241600 0.797259
0.217828 0.252627 0.797393
0.352543 0.271975 0.797640
0.483572 0.299023 0.798009
0.597124 0.331649 0.798506
0.686334 0.367974 0.799136
0.745223 0.408259 0.799902
0.790810 0.451728 0.800806
0.092633 0.308039 0.797437
0.122644 0.310605 0.797474
0.226049 0.319683 0.797609
0.357698 0.334562 0.797855
0.487079 0.355957 0.798224
0.599351 0.383096 0.798720
0.687426 0.415219 0.799349
0.745886 0.451568 0.800114
0.791334 0.485572 0.801017
0.110614 0.403640 0.797833
0.140860 0.405507 0.797870
0.240599 0.412148 0.798004
0.367009 0.424114 0.798250
0.493464 0.441448 0.798617
0.603419 0.463272 0.799112
0.689422 0.485278 0.799740
0.747099 0.510433 0.800503
0.792296 0.538248 0.801404
0.137219 0.504968 0.798423
0.166649 0.506155 0.798460
0.261175 0.510386 0.798593
0.381031 0.518048 0.798838
0.502854 0.529228 0.799204
0.609430 0.543840 0.799697
0.692377 0.561681 0.800322
0.748900 0.582476 0.801083
0.793727 0.605796 0.801980
0.171771 0.600752 0.799216
0.200831 0.601687 0.799253
0.287131 0.605032 0.799386
0.399146 0.609770 0.799630
0.515254 0.616584 0.799994
0.617416 0.625547 0.800485
0.696314 0.636570 0.801107
0.751307 0.648955 0.801863
0.795644 0.662639 0.802756
0.214562 0.672904 0.800220
0.239928 0.673427 0.800257
0.315877 0.675296 0.800388
0.419045 0.678704 0.800631
0.529144 0.683729 0.800993
0.627361 0.690386 0.801480
0.701230 0.698642 0.802098
0.754324 0.705769 0.802850
0.798056 0.713367 0.803738
0.259704 0.726488 0.801437
0.281847 0.726769 0.801474
0.347583 0.727775 0.801605
0.442069 0.729613 0.801845
0.544234 0.732329 0.802204
0.639206 0.735938 0.802688
0.707105 0.740431 0.803302
0.757948 0.745780 0.804048
0.800964 0.751943 0.804929
0.305440 0.768808 0.802871
0.323543 0.769034 0.802907
0.382628 0.769842 0.803037
0.467845 0.771321 0.803275
0.561389 0.773513 0.803631
0.652864 0.776438 0.804110
0.713903 0.780096 0.804718
0.762162 0.784477 0.805458
0.804364 0.789558 0.806331
