negative-superia-reala/SuperiaReala_Modern_ExtraPunchy.cube
TITLE "Fuji Superia Reala Modern ExtraPunchy"
# Adobe RGB in/out. REPLACES AgX. Fuji Superia Reala Modern ExtraPunchy.
LUT_3D_SIZE 33
DOMAIN_MIN 0.0 0.0 0.0
DOMAIN_MAX 1.0 1.0 1.0
0.069662 0.073299 0.081842
0.068339 0.072287 0.078595
0.068976 0.072271 0.078388
0.073429 0.073442 0.078192
0.094405 0.076635 0.078464
0.117110 0.078572 0.078687
0.185360 0.082662 0.079198
0.297421 0.087993 0.079842
0.352375 0.090899 0.080140
0.435416 0.095389 0.080564
0.544391 0.102880 0.081437
0.600013 0.108292 0.082223
0.644373 0.112983 0.083089
0.685914 0.121169 0.084195
0.729625 0.133276 0.086163
0.760893 0.140915 0.087272
0.784182 0.147746 0.088512
0.804058 0.156130 0.090485
0.823129 0.166509 0.093266
0.839634 0.170181 0.095368
0.849127 0.173817 0.097771
0.856715 0.178116 0.101120
0.864000 0.180397 0.106091
0.871107 0.176685 0.110304
0.875937 0.173100 0.116400
0.879999 0.166633 0.126128
0.885731 0.142920 0.143472
0.887565 0.125287 0.236607
0.893780 0.073299 0.585723
0.891217 0.073299 0.579579
0.888666 0.073299 0.573540
0.886127 0.073299 0.567572
0.888532 0.137733 0.677396
0.068182 0.074695 0.079012
0.068071 0.072935 0.078850
0.069673 0.072346 0.078713
0.074831 0.073867 0.078171
0.098308 0.077218 0.078475
0.120812 0.079004 0.078694
0.187298 0.083107 0.079202
0.296438 0.088499 0.079846
0.350355 0.091304 0.080142
0.431961 0.095832 0.080565
0.540476 0.103374 0.081434
0.597014 0.108801 0.082216
0.641378 0.113442 0.083084
0.683721 0.121775 0.084189
0.727615 0.134037 0.086157
0.759055 0.141644 0.087266
0.783018 0.148446 0.088502
0.803039 0.156817 0.090473
0.822245 0.167199 0.093253
0.838850 0.170854 0.095348
0.848695 0.174477 0.097748
0.856342 0.178772 0.101074
0.863674 0.181055 0.106032
0.870821 0.177343 0.110223
0.875688 0.173755 0.116252
0.879780 0.167290 0.125876
0.885536 0.143583 0.142636
0.887397 0.125785 0.232184
0.893642 0.073299 0.585391
0.891090 0.073299 0.579278
0.888551 0.073299 0.573267
0.886020 0.073299 0.567324
0.888434 0.137662 0.677177
0.068022 0.076437 0.078664
0.067536 0.075578 0.078415
0.068416 0.073768 0.078573
0.072824 0.075416 0.078131
0.091704 0.078963 0.078464
0.122558 0.080498 0.078681
0.191129 0.084887 0.079218
0.300609 0.090855 0.079887
0.348187 0.093064 0.080166
0.423511 0.097678 0.080579
0.528707 0.105369 0.081435
0.587271 0.110813 0.082209
0.631256 0.115890 0.083076
0.676108 0.124105 0.084176
0.720530 0.136937 0.086141
0.752525 0.144397 0.087249
0.778856 0.151074 0.088474
0.799382 0.159383 0.090436
0.819072 0.169765 0.093209
0.836033 0.173344 0.095281
0.847140 0.176915 0.097669
0.854999 0.181190 0.100920
0.862505 0.183477 0.105831
0.869792 0.179762 0.109949
0.874794 0.176161 0.115746
0.878997 0.169701 0.125014
0.884836 0.146022 0.139817
0.886797 0.127617 0.217593
0.893147 0.073299 0.584210
0.890638 0.073299 0.578205
0.888137 0.073299 0.572291
0.885641 0.073299 0.566436
0.888083 0.137407 0.676391
0.067514 0.085682 0.078115
0.067800 0.084715 0.078197
0.068826 0.081833 0.078237
0.070976 0.079311 0.078230
0.079677 0.082324 0.078500
0.096161 0.083269 0.078699
0.157751 0.087734 0.079216
0.271232 0.094249 0.079903
0.331614 0.096798 0.080197
0.408967 0.101182 0.080624
0.514852 0.110158 0.081469
0.573861 0.116041 0.082250
0.615467 0.121345 0.083100
0.663293 0.129139 0.084192
0.708100 0.143009 0.086142
0.740802 0.150060 0.087242
0.771210 0.156400 0.088453
0.792669 0.164524 0.090397
0.813235 0.174858 0.093153
0.830837 0.178250 0.095187
0.844270 0.181689 0.097551
0.852522 0.185901 0.100676
0.860350 0.188682 0.105505
0.867900 0.184448 0.109497
0.873151 0.180812 0.114907
0.877559 0.174358 0.123583
0.883553 0.150757 0.135314
0.885697 0.131809 0.194838
0.892248 0.073299 0.582071
0.889817 0.073299 0.576259
0.887384 0.073299 0.570521
0.884949 0.073299 0.564822
0.887444 0.136942 0.674963
0.068062 0.110421 0.078530
0.068323 0.108135 0.078592
0.069522 0.102484 0.078646
0.072481 0.096391 0.078705
0.076932 0.091612 0.078777
0.084766 0.088263 0.078803
0.121026 0.092832 0.079264
0.207669 0.099908 0.079936
0.285832 0.101669 0.080240
0.371426 0.106216 0.080686
0.488210 0.117244 0.081540
0.550707 0.123755 0.082365
0.595318 0.129123 0.083184
0.645182 0.139535 0.084288
0.691241 0.154171 0.086216
0.724082 0.160179 0.087287
0.755455 0.165707 0.088488
0.782625 0.173345 0.090405
0.804458 0.183467 0.093126
0.822986 0.186462 0.095115
0.839252 0.190498 0.097437
0.848784 0.195715 0.100409
0.857107 0.198585 0.105121
0.865054 0.193691 0.108947
0.870689 0.188909 0.114039
0.875410 0.181907 0.121789
0.881635 0.158496 0.131069
0.884058 0.139188 0.169703
0.890933 0.073299 0.578953
0.888612 0.073299 0.573416
0.886279 0.073299 0.567931
0.883935 0.073299 0.562457
0.886503 0.136259 0.672866
0.068527 0.144645 0.078908
0.068802 0.140761 0.078953
0.069787 0.130014 0.078992
0.072444 0.116865 0.079136
0.075569 0.105782 0.079074
0.082363 0.100048 0.079158
0.101029 0.101279 0.079453
0.162268 0.108799 0.080089
0.226149 0.109282 0.080311
0.317481 0.113980 0.080763
0.436310 0.127172 0.081595
0.513386 0.134748 0.082508
0.571316 0.141065 0.083339
0.620877 0.150719 0.084464
0.672195 0.164850 0.086318
0.704952 0.171702 0.087369
0.736116 0.178308 0.088604
0.768188 0.187780 0.090534
0.792392 0.200473 0.093199
0.812092 0.203213 0.095145
0.829706 0.206507 0.097402
0.843610 0.211295 0.100230
0.852637 0.213959 0.104795
0.861145 0.208812 0.108430
0.867328 0.203738 0.113163
0.872489 0.195360 0.119945
0.879030 0.170397 0.127078
0.881845 0.150620 0.151997
0.889210 0.073299 0.574892
0.887031 0.073299 0.569699
0.884825 0.073299 0.564537
0.887522 0.136955 0.559353
0.885261 0.135360 0.670106
0.069433 0.217520 0.079705
0.069698 0.214907 0.079780
0.071274 0.198856 0.079909
0.073416 0.174561 0.079932
0.077311 0.150821 0.079913
0.084542 0.132012 0.079891
0.096784 0.121579 0.079962
0.135443 0.125029 0.080308
0.182237 0.123015 0.080481
0.265706 0.127495 0.080938
0.377152 0.143254 0.081733
0.468029 0.150316 0.082746
0.531937 0.154737 0.083481
0.592261 0.163928 0.084638
0.651131 0.178836 0.086497
0.684879 0.186275 0.087549
0.716072 0.192229 0.088777
0.749176 0.202486 0.090646
0.779440 0.217539 0.093284
0.799350 0.222807 0.095259
0.817474 0.229121 0.097510
0.834083 0.235455 0.100302
0.846673 0.237533 0.104694
0.855957 0.231879 0.108136
0.862918 0.226257 0.112506
0.868686 0.217673 0.118437
0.875634 0.189070 0.124037
0.878994 0.168198 0.138660
0.887105 0.073299 0.569980
0.885093 0.073299 0.565170
0.883040 0.073299 0.560388
0.885868 0.135796 0.555548
0.883730 0.134258 0.666712
0.070903 0.316861 0.080501
0.071262 0.314279 0.080562
0.072739 0.302341 0.080786
0.074816 0.267357 0.080829
0.079804 0.229580 0.080793
0.087681 0.197440 0.080811
0.102556 0.175584 0.080801
0.129219 0.162126 0.080888
0.156435 0.145611 0.080795
0.218186 0.147812 0.081181
0.324938 0.163337 0.082153
0.408814 0.168346 0.083053
0.485591 0.171470 0.083737
0.560152 0.180009 0.084939
0.621544 0.196835 0.086717
0.662946 0.204574 0.087705
0.694830 0.211499 0.089020
0.728113 0.223556 0.090931
0.762518 0.239088 0.093528
0.786076 0.242281 0.095442
0.805617 0.247128 0.097602
0.823259 0.254657 0.100370
0.839581 0.261200 0.104729
0.849681 0.260720 0.108138
0.857109 0.260964 0.112352
0.863747 0.252114 0.117708
0.871196 0.225769 0.122739
0.875342 0.198720 0.131949
0.884662 0.072551 0.564419
0.882831 0.073299 0.559929
0.880950 0.073299 0.555565
0.883924 0.134397 0.551109
0.881929 0.132971 0.662734
0.071633 0.368698 0.080999
0.071922 0.366380 0.081055
0.072956 0.351461 0.081183
0.074835 0.321101 0.081261
0.079166 0.286194 0.081281
0.085816 0.250764 0.081267
0.097119 0.221396 0.081291
0.118191 0.198404 0.081311
0.148903 0.183040 0.081394
0.190897 0.174765 0.081521
0.283531 0.187322 0.082684
0.359298 0.191087 0.083458
0.434704 0.192953 0.084078
0.514579 0.202149 0.085314
0.589577 0.220560 0.087035
0.635534 0.227211 0.088007
0.672838 0.233728 0.089353
0.707297 0.245162 0.091254
0.742424 0.260993 0.093888
0.771613 0.266351 0.095790
0.791435 0.273919 0.097947
0.810804 0.279537 0.100721
0.828694 0.284794 0.104896
0.843653 0.282933 0.108106
0.851880 0.282233 0.112086
0.858719 0.280797 0.117247
0.866129 0.267112 0.122631
0.870643 0.253988 0.130766
0.882181 0.076773 0.560014
0.880296 0.072842 0.554254
0.878593 0.073299 0.550204
0.881723 0.132825 0.546129
0.879885 0.131522 0.658240
0.072687 0.438967 0.081690
0.072881 0.434914 0.081711
0.073595 0.419188 0.081823
0.075761 0.394414 0.082017
0.079851 0.359108 0.082118
0.086230 0.323002 0.082139
0.096727 0.290068 0.082170
0.115893 0.261161 0.082215
0.143724 0.238349 0.082315
0.180898 0.221537 0.082503
0.255070 0.228214 0.083467
0.319052 0.223896 0.083958
0.387163 0.222763 0.084630
0.472809 0.230237 0.085795
0.556585 0.248537 0.087434
0.604457 0.253785 0.088511
0.649041 0.258979 0.089789
0.685791 0.269579 0.091687
0.722257 0.286905 0.094433
0.751664 0.291831 0.096264
0.778145 0.296376 0.098262
0.797822 0.305024 0.101213
0.816176 0.313798 0.105385
0.833659 0.312927 0.108456
0.845683 0.310554 0.112156
0.853408 0.307962 0.116925
0.861505 0.294188 0.121729
0.866646 0.280265 0.128640
0.871982 0.250565 0.139196
0.875272 0.214731 0.182079
0.878658 0.134137 0.508056
0.879305 0.131115 0.543509
0.877632 0.129940 0.653308
0.073991 0.528064 0.083675
0.074135 0.523411 0.083687
0.075288 0.508290 0.083752
0.078041 0.486203 0.083939
0.082697 0.456503 0.084050
0.089559 0.423990 0.084127
0.102104 0.390188 0.084199
0.122964 0.355473 0.084257
0.151622 0.326290 0.084328
0.189666 0.303004 0.084504
0.240752 0.285471 0.084783
0.294915 0.269345 0.085010
0.349198 0.257514 0.085311
0.427110 0.262997 0.086353
0.515834 0.281046 0.087924
0.574543 0.284402 0.089155
0.619119 0.287613 0.090354
0.663860 0.297008 0.092210
0.702234 0.313972 0.095097
0.731891 0.317315 0.096814
0.761260 0.323435 0.098785
0.784482 0.333306 0.101959
0.804228 0.339768 0.105892
0.822429 0.340083 0.108867
0.837612 0.342653 0.112522
0.847052 0.345782 0.117196
0.856062 0.330871 0.121514
0.862044 0.315638 0.127400
0.867949 0.287052 0.134649
0.871815 0.248326 0.157528
0.875703 0.149104 0.430955
0.876711 0.129300 0.546353
0.875207 0.128363 0.546031
0.075210 0.569773 0.084982
0.075472 0.566905 0.084997
0.076479 0.557341 0.085069
0.079106 0.542751 0.085287
0.083221 0.517047 0.085452
0.089919 0.486006 0.085609
0.101915 0.454345 0.085755
0.120765 0.423839 0.085811
0.147097 0.395235 0.085884
0.181427 0.366997 0.085989
0.226927 0.343994 0.086165
0.281957 0.326409 0.086445
0.326871 0.305014 0.086402
0.389136 0.299918 0.086999
0.480536 0.316158 0.088779
0.540872 0.316887 0.089874
0.590971 0.318824 0.091144
0.639186 0.327441 0.092913
0.681772 0.343525 0.095822
0.712201 0.346124 0.097479
0.742202 0.353038 0.099448
0.771714 0.361055 0.102793
0.791700 0.370379 0.106696
0.810251 0.372994 0.109627
0.827020 0.373122 0.113042
0.841259 0.374473 0.117527
0.850459 0.366855 0.121681
0.856824 0.360105 0.127151
0.863198 0.338242 0.133485
0.867860 0.299388 0.146910
0.872367 0.183690 0.311130
0.873986 0.127699 0.540217
0.872649 0.126975 0.543113
0.076259 0.601429 0.086051
0.076481 0.598961 0.086065
0.077325 0.590610 0.086129
0.079750 0.577340 0.086307
0.083714 0.559897 0.086521
0.089983 0.539198 0.086708
0.100131 0.508645 0.086838
0.117267 0.477958 0.086953
0.141331 0.449276 0.087032
0.171838 0.423541 0.087122
0.211491 0.401542 0.087256
0.262677 0.379244 0.087426
0.313093 0.361936 0.087700
0.369066 0.350485 0.088192
0.444949 0.355435 0.089753
0.507546 0.354173 0.090860
0.565118 0.354084 0.092016
0.612730 0.361663 0.093827
0.661869 0.376983 0.096867
0.692962 0.378230 0.098325
0.723536 0.383555 0.100202
0.753900 0.392544 0.103865
0.779477 0.403012 0.107736
0.798851 0.403190 0.110408
0.815917 0.406478 0.113810
0.830864 0.411030 0.118430
0.844742 0.402893 0.122125
0.851934 0.394225 0.126991
0.858689 0.378228 0.132754
0.863580 0.355826 0.143443
0.867642 0.320859 0.169672
0.871174 0.126244 0.533948
0.870000 0.125576 0.541235
0.077595 0.640392 0.087409
0.077849 0.638708 0.087423
0.078902 0.631859 0.087482
0.081073 0.619745 0.087635
0.085210 0.604401 0.087903
0.091312 0.584902 0.088187
0.101170 0.563495 0.088410
0.117897 0.541645 0.088630
0.140576 0.513670 0.088815
0.168835 0.485949 0.088946
0.205767 0.461321 0.089095
0.254551 0.440275 0.089349
0.303017 0.422410 0.089621
0.354840 0.408181 0.090041
0.425538 0.409921 0.091704
0.480160 0.396946 0.092084
0.534657 0.392847 0.093019
0.588219 0.398506 0.094967
0.639448 0.411190 0.097913
0.674187 0.411698 0.099353
0.705542 0.415031 0.101666
0.736561 0.422161 0.105130
0.766318 0.429703 0.108819
0.787203 0.431617 0.111469
0.804903 0.435649 0.114762
0.821196 0.438287 0.119253
0.837477 0.434746 0.122905
0.846371 0.432570 0.127535
0.853970 0.418339 0.132522
0.859571 0.397413 0.140704
0.864153 0.359924 0.157349
0.867111 0.310003 0.288893
0.868828 0.247111 0.538949
0.080065 0.679100 0.089842
0.080314 0.677637 0.089864
0.081246 0.672577 0.089953
0.083452 0.664071 0.090187
0.087668 0.653345 0.090723
0.094090 0.639087 0.091049
0.105204 0.619735 0.091424
0.122353 0.598300 0.091678
0.144952 0.577026 0.091946
0.173804 0.556402 0.092150
0.211301 0.537225 0.092393
0.258962 0.513094 0.092595
0.305944 0.492214 0.092915
0.355782 0.474576 0.093263
0.409768 0.460140 0.093871
0.463705 0.444791 0.094172
0.509662 0.432143 0.094603
0.566555 0.432980 0.096326
0.616441 0.443823 0.099115
0.656221 0.442956 0.100665
0.688087 0.445543 0.103292
0.719908 0.452122 0.106656
0.750253 0.458930 0.110153
0.775924 0.461544 0.112715
0.794415 0.464401 0.115984
0.811033 0.469771 0.120484
0.828125 0.466916 0.123935
0.841322 0.462734 0.128145
0.849156 0.455036 0.132869
0.855121 0.443399 0.140044
0.860361 0.413040 0.151624
0.863848 0.359640 0.204500
0.866082 0.257601 0.525014
0.081348 0.703159 0.091505
0.081569 0.701882 0.091529
0.082544 0.697437 0.091625
0.084554 0.689836 0.091849
0.088433 0.679898 0.092298
0.094819 0.667339 0.092712
0.106145 0.653221 0.093201
0.121348 0.637181 0.093430
0.142312 0.616639 0.093792
0.169337 0.596597 0.094211
0.203483 0.577091 0.094455
0.247183 0.559216 0.094771
0.293795 0.543185 0.095150
0.341552 0.525547 0.095589
0.391579 0.508813 0.096094
0.447257 0.494913 0.096760
0.494614 0.479558 0.097028
0.545390 0.472707 0.098110
0.595610 0.479109 0.100738
0.635593 0.477162 0.102674
0.671252 0.478159 0.105040
0.703762 0.483945 0.108314
0.734741 0.490277 0.111694
0.762725 0.491932 0.114083
0.784072 0.495546 0.117532
0.801341 0.501236 0.121885
0.819029 0.498745 0.125106
0.832827 0.498466 0.129267
0.844380 0.491182 0.133570
0.851063 0.477667 0.139736
0.856550 0.457911 0.149499
0.860250 0.431275 0.174515
0.863162 0.314038 0.456499
0.082671 0.725943 0.093063
0.082913 0.724819 0.093084
0.083810 0.720882 0.093171
0.085585 0.714062 0.093365
0.089318 0.704906 0.093857
0.095747 0.693819 0.094520
0.105349 0.680409 0.095029
0.120141 0.665866 0.095518
0.140027 0.650623 0.095945
0.164675 0.634838 0.096335
0.196592 0.615761 0.096716
0.236956 0.597615 0.097041
0.283181 0.580839 0.097364
0.326939 0.565987 0.097796
0.375432 0.552671 0.098254
0.427869 0.541280 0.098783
0.481646 0.529572 0.099458
0.530138 0.520766 0.100689
0.580439 0.521019 0.103685
0.615659 0.512725 0.104726
0.655715 0.512931 0.107028
0.688238 0.517608 0.110132
0.719741 0.523528 0.113420
0.748171 0.524395 0.115796
0.774149 0.528315 0.119316
0.792131 0.533214 0.123439
0.809872 0.532936 0.126590
0.824635 0.532041 0.130441
0.838829 0.527278 0.134531
0.846679 0.519491 0.140533
0.852822 0.499685 0.148410
0.857059 0.470345 0.164400
0.859957 0.428941 0.309224
0.084399 0.749167 0.095522
0.084619 0.748399 0.095549
0.085432 0.745695 0.095655
0.087024 0.740953 0.095889
0.091038 0.732694 0.096335
0.097855 0.722851 0.097102
0.106685 0.710311 0.097508
0.122148 0.697070 0.098148
0.140795 0.682737 0.098611
0.163799 0.667973 0.098991
0.194391 0.653477 0.099423
0.233067 0.639356 0.099795
0.278462 0.623120 0.100334
0.320011 0.607402 0.100849
0.366795 0.593437 0.101620
0.416543 0.581006 0.102392
0.471214 0.570181 0.103264
0.516621 0.561212 0.104379
0.569399 0.560286 0.107300
0.601956 0.551170 0.107783
0.637548 0.546012 0.109076
0.673577 0.548803 0.112098
0.705386 0.552454 0.115369
0.734088 0.552522 0.117897
0.761915 0.555213 0.121308
0.783201 0.558455 0.125255
0.801265 0.558592 0.128231
0.816599 0.558505 0.131881
0.831185 0.557545 0.136204
0.842661 0.550704 0.141533
0.849136 0.540884 0.148588
0.853676 0.522814 0.160757
0.857090 0.477376 0.228759
0.086520 0.770957 0.098702
0.086723 0.770291 0.098727
0.087566 0.767937 0.098826
0.089847 0.763773 0.099041
0.093631 0.757958 0.099439
0.100811 0.750926 0.100218
0.110226 0.742253 0.101039
0.125502 0.730377 0.102062
0.143397 0.717080 0.102886
0.167098 0.703343 0.103739
0.197575 0.689286 0.104412
0.235875 0.675625 0.105181
0.278752 0.662376 0.105803
0.319719 0.649993 0.106453
0.364819 0.638438 0.107078
0.414373 0.625782 0.107956
0.466991 0.614175 0.108812
0.511502 0.603798 0.109701
0.558324 0.595328 0.110889
0.591001 0.585265 0.111219
0.625040 0.578283 0.112211
0.659938 0.575294 0.114178
0.691796 0.578312 0.117751
0.720705 0.577934 0.120162
0.748914 0.579851 0.123401
0.774587 0.583053 0.127256
0.793081 0.583008 0.130020
0.808766 0.584086 0.133585
0.824266 0.582551 0.137942
0.837072 0.578667 0.143095
0.845540 0.570997 0.149510
0.850635 0.555853 0.158887
0.854247 0.532173 0.195819
0.087539 0.786801 0.100425
0.087831 0.786206 0.100464
0.088907 0.784099 0.100614
0.090998 0.780342 0.100931
0.094425 0.775022 0.101512
0.101015 0.768434 0.102506
0.110935 0.760627 0.103549
0.124042 0.751565 0.104408
0.142108 0.741934 0.105435
0.164331 0.729272 0.106371
0.191468 0.715849 0.107054
0.226323 0.702589 0.107812
0.269258 0.689687 0.108553
0.308552 0.677385 0.109253
0.352255 0.665886 0.109983
0.398905 0.655162 0.110684
0.449421 0.645726 0.111578
0.496523 0.637334 0.112511
0.541093 0.627839 0.113436
0.580896 0.619912 0.114625
0.614127 0.611774 0.115598
0.650503 0.607947 0.117879
0.679337 0.605483 0.120433
0.708018 0.604127 0.122549
0.736650 0.605497 0.125675
0.764082 0.608117 0.129370
0.785121 0.608090 0.131978
0.801340 0.609473 0.135615
0.817352 0.608660 0.140062
0.830708 0.606240 0.144920
0.842115 0.599254 0.150642
0.847538 0.588924 0.158922
0.851579 0.567485 0.180951
0.089122 0.802468 0.103142
0.089395 0.801941 0.103180
0.090396 0.800069 0.103325
0.092331 0.796712 0.103627
0.095471 0.791906 0.104169
0.101814 0.785842 0.105081
0.112439 0.778783 0.106355
0.124084 0.770404 0.107093
0.142784 0.761488 0.108345
0.161423 0.751861 0.109066
0.188508 0.742036 0.109986
0.222468 0.729686 0.110852
0.262364 0.717142 0.111628
0.300795 0.704981 0.112313
0.342908 0.693602 0.113111
0.387628 0.682946 0.113891
0.435610 0.673138 0.114663
0.483978 0.664353 0.115699
0.527818 0.656625 0.116911
0.569837 0.649690 0.118095
0.603954 0.643912 0.119538
0.639585 0.639860 0.121697
0.670835 0.637478 0.124175
0.696936 0.632169 0.125341
0.724840 0.631718 0.128045
0.752886 0.633955 0.131661
0.777506 0.633807 0.134097
0.794364 0.634786 0.138109
0.810654 0.635042 0.142453
0.824765 0.632745 0.146836
0.837298 0.628458 0.152327
0.844667 0.618572 0.159404
0.849011 0.601322 0.174618
0.091049 0.817971 0.106398
0.091306 0.817511 0.106436
0.092246 0.815872 0.106578
0.094053 0.812918 0.106873
0.096961 0.808651 0.107390
0.103453 0.803191 0.108246
0.114355 0.796786 0.109610
0.125805 0.789244 0.110424
0.142131 0.780963 0.111517
0.161823 0.772131 0.112501
0.188552 0.762878 0.113504
0.218271 0.753559 0.114331
0.257479 0.744230 0.115289
0.296341 0.733431 0.116292
0.336923 0.722074 0.117189
0.379852 0.711578 0.118283
0.426430 0.701738 0.119273
0.475637 0.692751 0.120342
0.517635 0.684586 0.121473
0.562448 0.677492 0.122763
0.595012 0.671146 0.124038
0.629227 0.665766 0.125483
0.662628 0.662542 0.127868
0.688743 0.657985 0.128884
0.714820 0.654962 0.130867
0.741978 0.655000 0.134017
0.769720 0.654928 0.136805
0.787694 0.655499 0.140871
0.804381 0.655913 0.145031
0.818992 0.654743 0.149106
0.832221 0.652118 0.154178
0.841889 0.646090 0.160569
0.846548 0.634922 0.172412
0.092794 0.830503 0.109493
0.093036 0.830203 0.109531
0.093923 0.829132 0.109672
0.095621 0.827193 0.109960
0.098922 0.824368 0.110459
0.105035 0.819975 0.111272
0.115278 0.814058 0.112551
0.127823 0.807256 0.113660
0.142424 0.799629 0.114633
0.163326 0.791467 0.116130
0.186332 0.782809 0.117128
0.216947 0.774003 0.118369
0.255901 0.765197 0.119680
0.292062 0.756417 0.120675
0.330517 0.747831 0.121634
0.372501 0.739434 0.122694
0.418044 0.729689 0.123846
0.467711 0.720635 0.124970
0.509103 0.712346 0.126111
0.552653 0.704810 0.127316
0.587606 0.698325 0.128643
0.620704 0.692580 0.130027
0.654681 0.687641 0.131487
0.680754 0.682779 0.132395
0.706979 0.679272 0.134276
0.732965 0.677218 0.137535
0.759716 0.675534 0.139771
0.781209 0.675892 0.143701
0.798601 0.676350 0.147762
0.813550 0.675808 0.151656
0.827423 0.673665 0.156195
0.838113 0.669426 0.162254
0.844325 0.659281 0.171645
0.093561 0.841184 0.111316
0.093790 0.840914 0.111351
0.094625 0.839950 0.111485
0.096220 0.838195 0.111756
0.099552 0.835617 0.112225
0.105223 0.832228 0.112982
0.114533 0.828086 0.114170
0.128136 0.823332 0.115712
0.141063 0.816435 0.116756
0.161026 0.808703 0.118396
0.182852 0.800598 0.119538
0.213075 0.792114 0.120937
0.246463 0.783770 0.122074
0.284743 0.775381 0.123349
0.323062 0.767076 0.124534
0.362784 0.759123 0.125533
0.405998 0.751641 0.126702
0.453700 0.744611 0.127850
0.497289 0.737426 0.129054
0.539539 0.729813 0.130241
0.577760 0.722982 0.131518
0.610228 0.717025 0.132832
0.644131 0.711882 0.134285
0.672990 0.707458 0.136111
0.699249 0.703394 0.138478
0.725418 0.700802 0.141816
0.751747 0.698111 0.143513
0.774880 0.696354 0.146595
0.792946 0.696758 0.150429
0.808511 0.696645 0.154441
0.822890 0.695203 0.158533
0.834206 0.691540 0.163826
0.842214 0.683610 0.172211
0.094607 0.850133 0.113460
0.094823 0.849898 0.113495
0.095610 0.849057 0.113625
0.097108 0.847521 0.113886
0.100642 0.845253 0.114334
0.105926 0.842244 0.115080
0.114596 0.838515 0.116435
0.129309 0.834124 0.118514
0.141065 0.829401 0.119468
0.158645 0.824151 0.120939
0.181879 0.817087 0.122516
0.207258 0.809254 0.123742
0.242059 0.801285 0.125134
0.279973 0.793331 0.126540
0.314419 0.785537 0.127689
0.354194 0.777895 0.128900
0.396930 0.770554 0.130126
0.443502 0.763619 0.131374
0.488013 0.757200 0.132562
0.528981 0.751308 0.133825
0.569176 0.745947 0.135154
0.601070 0.741167 0.136858
0.634032 0.735850 0.138606
0.664825 0.731263 0.140615
0.691630 0.727301 0.142701
0.717833 0.724106 0.145991
0.744739 0.721584 0.147557
0.769341 0.718853 0.150263
0.787485 0.717288 0.153216
0.803802 0.717196 0.156888
0.818717 0.716512 0.161061
0.830612 0.713699 0.165746
0.839742 0.707129 0.173381
0.095678 0.858215 0.115757
0.095882 0.858012 0.115799
0.096623 0.857283 0.115956
0.098466 0.855950 0.116271
0.101804 0.853969 0.116804
0.106744 0.851322 0.117652
0.114937 0.848001 0.118963
0.128444 0.844021 0.120964
0.141808 0.839718 0.122395
0.157507 0.835007 0.123746
0.182419 0.829813 0.125776
0.204615 0.824554 0.126878
0.240408 0.817598 0.128549
0.274225 0.810272 0.129783
0.309826 0.802831 0.131256
0.348254 0.795573 0.132543
0.388048 0.788635 0.133812
0.432751 0.781942 0.135205
0.478914 0.775615 0.136863
0.519000 0.769784 0.138552
0.561377 0.764451 0.140279
0.592900 0.759648 0.142043
0.625288 0.755334 0.143823
0.657400 0.751506 0.145652
0.683797 0.748351 0.147794
0.710316 0.745623 0.149989
0.737688 0.743898 0.151440
0.762860 0.741513 0.154121
0.783448 0.739897 0.156758
0.799456 0.737976 0.159592
0.814798 0.737454 0.163468
0.827304 0.735617 0.167862
0.837107 0.730104 0.175061
0.095577 0.868791 0.116571
0.095765 0.868607 0.116609
0.096451 0.867949 0.116754
0.098056 0.866735 0.117047
0.101150 0.864916 0.117549
0.105739 0.862447 0.118361
0.113023 0.859284 0.119642
0.125643 0.855378 0.121642
0.140761 0.851073 0.123686
0.154753 0.846705 0.124932
0.176154 0.841782 0.126821
0.200703 0.836711 0.128462
0.230886 0.831475 0.129965
0.267817 0.826144 0.131537
0.301691 0.820131 0.133047
0.338027 0.813214 0.134415
0.378363 0.806406 0.136202
0.421672 0.799913 0.137968
0.467894 0.793796 0.139673
0.507189 0.788067 0.141404
0.548688 0.782801 0.143163
0.583603 0.778018 0.144960
0.615924 0.773737 0.146794
0.649342 0.769956 0.148668
