negative-superia-reala/SuperiaReala_Classic_Punchy.cube
TITLE "Fuji Superia Reala Classic Punchy"
# Adobe RGB in/out. REPLACES AgX. Fuji Superia Reala Classic Punchy.
LUT_3D_SIZE 9
DOMAIN_MIN 0.0 0.0 0.0
DOMAIN_MAX 1.0 1.0 1.0
0.071271 0.083381 0.080583
0.102682 0.086981 0.082436
0.193534 0.092785 0.085270
0.391116 0.101744 0.088948
0.609815 0.115068 0.093491
0.741778 0.127330 0.100936
0.806081 0.131488 0.112468
0.853383 0.083621 0.419964
0.859273 0.122498 0.540910
0.075049 0.103156 0.082767
0.097769 0.098059 0.084188
0.202063 0.100956 0.086432
0.380783 0.111233 0.089891
0.591286 0.123584 0.094372
0.734164 0.137420 0.101681
0.804038 0.141462 0.112305
0.853384 0.083683 0.419983
0.859273 0.122500 0.540908
0.080935 0.179060 0.086299
0.092928 0.169402 0.087583
0.152638 0.153883 0.089848
0.321965 0.157590 0.093043
0.543978 0.171178 0.098077
0.701705 0.189107 0.104855
0.792833 0.196948 0.114381
0.853717 0.088120 0.422184
0.859273 0.122500 0.540908
0.088414 0.336008 0.090832
0.097511 0.323471 0.091857
0.139953 0.295141 0.095091
0.258410 0.273895 0.099104
0.465454 0.274528 0.104451
0.661913 0.286321 0.111519
0.773761 0.299959 0.120714
0.835682 0.283205 0.134478
0.859274 0.122523 0.442620
0.097032 0.511793 0.097210
0.103764 0.504248 0.098625
0.138261 0.485045 0.102806
0.230415 0.458244 0.107733
0.394989 0.437830 0.113256
0.603939 0.436459 0.121027
0.750447 0.444841 0.130413
0.824089 0.443570 0.143497
0.860153 0.356270 0.264420
0.105224 0.639928 0.105615
0.110900 0.635803 0.106996
0.142719 0.624284 0.111861
0.217731 0.608348 0.118142
0.355474 0.589434 0.125058
0.550789 0.576905 0.132742
0.715024 0.576189 0.143718
0.810001 0.579114 0.158701
0.858494 0.546972 0.189837
0.113024 0.734810 0.115440
0.118071 0.732062 0.116702
0.146952 0.722629 0.121872
0.212741 0.708805 0.129531
0.332651 0.694627 0.137338
0.513479 0.683872 0.149101
0.681265 0.678932 0.161270
0.796195 0.679477 0.176058
0.856993 0.671914 0.196935
0.119154 0.813018 0.122600
0.122282 0.811952 0.123453
0.150637 0.805780 0.130563
0.208506 0.799144 0.139431
0.314733 0.789234 0.152735
0.475969 0.778516 0.165702
0.652000 0.772841 0.178716
0.782047 0.773237 0.191978
0.857150 0.773218 0.208749
0.114974 0.826291 0.121591
0.114976 0.826292 0.121593
0.170223 0.834115 0.121626
0.170226 0.835268 0.137395
0.283303 0.835075 0.155242
0.430953 0.830479 0.171971
0.610334 0.828228 0.186287
0.762016 0.829042 0.198599
0.861824 0.833083 0.208687
0.072791 0.087217 0.097671
0.092955 0.089644 0.152889
0.164602 0.095965 0.110824
0.390553 0.107064 0.108495
0.616210 0.119317 0.107157
0.743196 0.130915 0.111295
0.805927 0.133915 0.124244
0.853384 0.083680 0.419986
0.859273 0.122500 0.540911
0.080474 0.103624 0.098390
0.111612 0.106905 0.105089
0.188987 0.107913 0.104056
0.374587 0.118675 0.107283
0.599614 0.130219 0.107894
0.736423 0.142106 0.111876
0.804004 0.144738 0.123045
0.853385 0.083765 0.420015
0.859273 0.122500 0.540909
0.088415 0.179113 0.101160
0.102514 0.172707 0.102302
0.172486 0.163008 0.104674
0.345598 0.170052 0.109288
0.552394 0.181394 0.111712
0.707450 0.196642 0.115755
0.793784 0.201365 0.124489
0.853814 0.089087 0.423146
0.859273 0.122500 0.540908
0.096379 0.335305 0.105038
0.105576 0.325383 0.106630
0.153725 0.301838 0.110261
0.282528 0.284667 0.114374
0.488572 0.286263 0.118733
0.668744 0.295458 0.123050
0.776304 0.305784 0.131204
0.835905 0.286180 0.147172
0.859273 0.122507 0.540904
0.103147 0.509593 0.109433
0.110331 0.503298 0.111051
0.148348 0.486574 0.115873
0.246844 0.463825 0.121565
0.415810 0.446314 0.128171
0.615968 0.444195 0.133506
0.754388 0.450814 0.142186
0.825148 0.446703 0.157082
0.860119 0.359181 0.303800
0.109844 0.638253 0.115635
0.115599 0.634554 0.117233
0.149489 0.624012 0.122828
0.228547 0.609348 0.130081
0.368713 0.592581 0.137161
0.562460 0.581240 0.148163
0.720887 0.580150 0.159104
0.811955 0.581710 0.172586
0.858535 0.548235 0.204715
0.116453 0.733776 0.124324
0.121794 0.731155 0.125839
0.151708 0.722215 0.131911
0.220312 0.709080 0.140398
0.341571 0.695622 0.152417
0.522679 0.685462 0.164304
0.687212 0.680811 0.177087
0.798489 0.681056 0.190038
0.857188 0.672476 0.209568
0.120687 0.812490 0.128549
0.124069 0.811445 0.129787
0.153581 0.805522 0.138498
0.213509 0.799114 0.152299
0.320719 0.789641 0.166053
0.483603 0.779289 0.179746
0.656589 0.773861 0.192744
0.784541 0.774239 0.205895
0.857467 0.773515 0.221016
0.114975 0.831606 0.205873
0.114981 0.831607 0.205875
0.170223 0.839202 0.205876
0.170227 0.839201 0.205865
0.286109 0.835146 0.165149
0.435268 0.830599 0.183794
0.614036 0.828394 0.198578
0.763810 0.829200 0.210982
0.862093 0.833083 0.220043
0.075085 0.093706 0.157154
0.102310 0.095952 0.362703
0.166197 0.102066 0.335302
0.381933 0.114670 0.300499
0.615154 0.128888 0.279465
0.743427 0.143140 0.295253
0.805175 0.144653 0.348268
0.853565 0.086833 0.434203
0.859273 0.122500 0.540934
0.083258 0.110650 0.162978
0.105381 0.110825 0.211610
0.182351 0.115397 0.243342
0.370608 0.127367 0.242494
0.602763 0.143334 0.243412
0.738154 0.157145 0.264911
0.803556 0.157069 0.315435
0.853634 0.087567 0.436154
0.859273 0.122500 0.540913
0.095512 0.181706 0.162740
0.110126 0.178596 0.165742
0.204024 0.189614 0.194276
0.353602 0.185292 0.193783
0.564657 0.202882 0.205453
0.716346 0.218755 0.222593
0.795647 0.218256 0.244610
0.853282 0.111989 0.435663
0.859273 0.122500 0.540909
0.107437 0.336258 0.173874
0.118530 0.329941 0.175380
0.176126 0.314115 0.180495
0.316040 0.302881 0.187852
0.523180 0.312078 0.199510
0.684276 0.325185 0.213054
0.781883 0.329033 0.223795
0.836597 0.299398 0.272335
0.859273 0.122501 0.540912
0.117933 0.510746 0.183560
0.127284 0.506139 0.185135
0.172899 0.493197 0.190131
0.284074 0.478003 0.196918
0.461516 0.466342 0.204754
0.648755 0.469323 0.217300
0.763376 0.473985 0.225818
0.828198 0.461245 0.249160
0.859987 0.370656 0.441991
0.127727 0.638225 0.195941
0.136518 0.635365 0.197364
0.174901 0.626760 0.202758
0.264914 0.614994 0.209915
0.413531 0.604317 0.218030
0.598282 0.595702 0.227144
0.739358 0.595410 0.235726
0.817479 0.593653 0.253816
0.858672 0.553220 0.302533
0.134936 0.732147 0.202729
0.141996 0.730000 0.204245
0.174364 0.722660 0.210353
0.251198 0.711645 0.218780
0.377475 0.700300 0.228005
0.554291 0.691813 0.238227
0.707915 0.687911 0.249713
0.805731 0.687908 0.265608
0.857792 0.674833 0.279590
0.136661 0.808747 0.211766
0.142343 0.807929 0.213596
0.173361 0.804079 0.223039
0.239370 0.799004 0.232926
0.349643 0.791445 0.244327
0.518071 0.782506 0.255645
0.676269 0.777960 0.267440
0.793838 0.778191 0.280030
0.858366 0.774789 0.286042
0.114981 0.831607 0.205883
0.170221 0.839202 0.205881
0.170223 0.839202 0.205879
0.170256 0.839203 0.205881
0.302855 0.835102 0.224299
0.455913 0.830933 0.248282
0.630572 0.828924 0.264026
0.771461 0.829708 0.277135
0.862618 0.833049 0.285223
0.077874 0.104781 0.287521
0.096086 0.110202 0.462906
0.177237 0.115856 0.494690
0.364341 0.126259 0.487347
0.603427 0.143742 0.486754
0.738198 0.159361 0.493758
0.802960 0.161509 0.516686
0.848275 0.116765 0.566100
0.859273 0.122500 0.571457
0.084786 0.122897 0.301542
0.102114 0.125361 0.394908
0.187829 0.130078 0.465188
0.358572 0.141823 0.464470
0.593787 0.159989 0.469138
0.733771 0.172965 0.480435
0.801495 0.173637 0.506976
0.847583 0.123064 0.562582
0.859273 0.122500 0.571770
0.100545 0.201740 0.298744
0.114229 0.199948 0.311581
0.194497 0.197012 0.360356
0.350354 0.204035 0.385135
0.564622 0.221924 0.405572
0.716207 0.237146 0.428194
0.794833 0.236837 0.466477
0.841859 0.196961 0.531775
0.859273 0.122500 0.572910
0.114906 0.343024 0.299329
0.127493 0.339103 0.301741
0.189283 0.328568 0.313524
0.347112 0.341352 0.351147
0.532114 0.334415 0.356238
0.690367 0.347057 0.375543
0.783920 0.349906 0.405747
0.836217 0.318532 0.476518
0.859274 0.122508 0.573253
0.131110 0.512794 0.313783
0.142729 0.509356 0.314651
0.192701 0.499882 0.319917
0.309832 0.488630 0.329286
0.491087 0.482429 0.341577
0.661570 0.486358 0.357675
0.769058 0.489428 0.375566
0.829527 0.476383 0.413938
0.859745 0.391190 0.556857
0.144826 0.638148 0.327217
0.153546 0.635935 0.327990
0.197463 0.629188 0.332123
0.293639 0.619840 0.338748
0.448752 0.611637 0.348014
0.624654 0.607289 0.357562
0.752262 0.608044 0.370856
0.821168 0.604391 0.389561
0.858700 0.562493 0.498169
0.152916 0.731044 0.341882
0.160581 0.729292 0.342606
0.198166 0.723311 0.346381
0.280920 0.714339 0.351899
0.413721 0.705098 0.358656
0.584500 0.698359 0.366889
0.726218 0.695475 0.376370
0.811697 0.694667 0.388781
0.858241 0.679105 0.438504
0.152701 0.807073 0.357566
0.158879 0.806400 0.357993
0.193755 0.803436 0.361097
0.264588 0.799187 0.365544
0.379535 0.793578 0.371738
0.544702 0.786160 0.379083
0.695146 0.782475 0.387547
0.801910 0.782754 0.397096
0.859144 0.777247 0.415394
0.138943 0.837084 0.414742
0.170215 0.841465 0.414742
0.170223 0.841466 0.414740
0.212723 0.841932 0.360936
0.331495 0.834551 0.388486
0.486261 0.831237 0.394404
0.653360 0.829647 0.402017
0.781785 0.830414 0.410279
0.863050 0.833185 0.415489
0.080870 0.123003 0.453363
0.090186 0.127327 0.528030
0.179464 0.136385 0.593716
0.355812 0.149976 0.594683
0.588352 0.165979 0.595574
0.731195 0.180389 0.601528
0.800015 0.182897 0.612156
0.844181 0.144656 0.630122
0.859273 0.122500 0.648436
0.085909 0.142619 0.462625
0.097241 0.146885 0.517717
0.184422 0.154807 0.583917
0.353391 0.166662 0.587583
0.580829 0.180995 0.589760
0.727344 0.195567 0.597128
0.798687 0.197229 0.609154
0.843613 0.156162 0.628694
0.859273 0.122500 0.645970
0.102864 0.227392 0.466250
0.114529 0.227018 0.483821
0.191895 0.226738 0.539971
0.350399 0.232832 0.559540
0.558283 0.245503 0.567330
0.712780 0.260543 0.578799
0.792972 0.260905 0.595642
0.839952 0.227114 0.620134
0.859273 0.122502 0.638146
0.121249 0.367882 0.460417
0.134650 0.365160 0.464727
0.197976 0.358313 0.485023
0.341262 0.353826 0.510388
0.533123 0.358967 0.527571
0.691509 0.371908 0.547115
0.783712 0.374584 0.569412
0.835385 0.344280 0.602756
0.860777 0.178383 0.638216
0.141086 0.519406 0.461246
0.152465 0.516955 0.462403
0.205622 0.509786 0.468749
0.324316 0.501323 0.480843
0.517245 0.506697 0.503856
0.667636 0.502171 0.512908
0.771597 0.504734 0.535437
0.829750 0.491291 0.572613
0.859423 0.415472 0.633846
0.157057 0.640839 0.470096
0.167579 0.639057 0.470396
0.215677 0.633589 0.472924
0.314166 0.626037 0.478399
0.473114 0.619704 0.486941
0.640911 0.616682 0.497045
0.757584 0.617630 0.512339
0.823234 0.612961 0.538575
0.858581 0.575506 0.616563
0.167858 0.732077 0.481185
0.176506 0.730629 0.481228
0.218265 0.725602 0.482261
0.303727 0.718100 0.485061
0.441514 0.710491 0.490091
0.606538 0.705147 0.496900
0.738333 0.703130 0.505386
0.815770 0.701577 0.519076
0.858403 0.685251 0.585062
0.166313 0.806881 0.496675
0.173549 0.806279 0.496348
0.211536 0.803680 0.496021
0.285375 0.800033 0.496680
0.405066 0.795990 0.499098
0.566634 0.790317 0.503311
0.710269 0.787439 0.508971
0.807622 0.787942 0.516352
0.859601 0.780987 0.549445
0.146742 0.839082 0.576047
0.151137 0.839718 0.576047
0.161755 0.841227 0.576045
0.238952 0.838598 0.522867
0.348768 0.834838 0.520356
0.508040 0.832028 0.521107
0.666184 0.830673 0.523780
0.789202 0.831510 0.528498
0.863363 0.834246 0.537654
0.084407 0.153328 0.590568
0.089742 0.155094 0.632307
0.177535 0.168614 0.678338
0.345699 0.179486 0.679913
0.577948 0.195365 0.681201
0.724501 0.210192 0.683621
0.797093 0.213780 0.687508
0.841750 0.176848 0.692377
0.859273 0.122500 0.687556
0.087530 0.171051 0.596787
0.094517 0.172824 0.631749
0.180034 0.183944 0.676370
0.344851 0.195677 0.678647
0.572421 0.212286 0.680251
0.721247 0.226346 0.682852
0.795938 0.228694 0.687096
0.841240 0.188606 0.692319
0.859273 0.122500 0.687556
0.104634 0.260135 0.606252
0.113673 0.259455 0.622930
0.190029 0.261534 0.662038
0.346543 0.266388 0.671667
0.554922 0.278040 0.675584
0.709077 0.288846 0.679309
0.791117 0.289898 0.684896
0.838396 0.259574 0.691711
0.859273 0.122502 0.687555
0.124712 0.397814 0.596706
0.137215 0.395805 0.603510
0.202221 0.391642 0.631235
0.343365 0.388514 0.651661
0.535519 0.393790 0.661605
0.691061 0.400999 0.669977
0.783135 0.403256 0.679180
0.834560 0.375606 0.689386
0.860481 0.219450 0.690062
0.148460 0.535418 0.589846
0.159110 0.533459 0.592351
0.216811 0.528188 0.604827
0.335299 0.521579 0.622837
0.517038 0.518741 0.638542
0.670593 0.520232 0.650670
0.772763 0.522389 0.665825
0.829774 0.509206 0.682996
0.859123 0.442754 0.698079
0.166572 0.646851 0.589697
0.177170 0.645415 0.590529
0.227993 0.640827 0.595054
0.327368 0.634514 0.604166
0.488092 0.629426 0.616576
0.653200 0.630303 0.632074
0.760743 0.628152 0.644857
0.824376 0.623117 0.668673
0.858484 0.591372 0.697360
0.178333 0.736035 0.595981
0.188004 0.734739 0.596064
0.232303 0.730326 0.597436
0.319236 0.723820 0.601229
0.460311 0.717356 0.608033
0.620957 0.712964 0.616746
0.745742 0.711556 0.626996
0.818310 0.709516 0.644592
0.858490 0.693127 0.691196
0.175107 0.808125 0.608454
0.182757 0.807578 0.608062
0.223670 0.805211 0.607219
0.299411 0.801907 0.607329
0.422629 0.798334 0.609526
0.581678 0.795556 0.613838
0.720247 0.793408 0.619762
0.811083 0.794026 0.627810
0.859823 0.786478 0.674827
0.149630 0.839497 0.617822
0.153394 0.840055 0.620085
0.162519 0.841328 0.628700
0.244174 0.839406 0.627819
0.357181 0.835896 0.624456
0.518929 0.833404 0.624139
0.673253 0.832311 0.625777
0.793331 0.833181 0.628882
0.863486 0.836082 0.660410
0.087529 0.190875 0.711320
0.091767 0.190487 0.729833
0.163799 0.205816 0.740863
0.340295 0.216765 0.741677
0.572936 0.232972 0.742798
0.721542 0.246552 0.744214
0.795738 0.247549 0.746251
0.840417 0.211224 0.747643
0.859272 0.122496 0.739220
0.089656 0.209114 0.714001
0.095656 0.209003 0.729574
0.167579 0.223045 0.740774
0.340259 0.232967 0.741778
0.568810 0.248479 0.742948
0.718964 0.261591 0.744385
0.794710 0.262374 0.746462
0.839970 0.225454 0.747971
0.859272 0.122495 0.738742
0.105581 0.293649 0.719970
0.113007 0.292415 0.728044
0.181661 0.295994 0.739060
0.343798 0.300570 0.741452
0.555235 0.313153 0.742995
0.708954 0.324601 0.744638
0.790541 0.324489 0.746988
0.837671 0.292584 0.749136
0.859266 0.122460 0.736564
0.127917 0.429046 0.714643
0.138738 0.427123 0.719929
0.200994 0.424417 0.732666
0.345291 0.422183 0.738723
0.539248 0.427072 0.741581
0.693614 0.433609 0.744101
0.783697 0.432508 0.747114
0.834459 0.407696 0.750522
0.859831 0.282707 0.748177
0.153022 0.555701 0.705083
0.163554 0.554036 0.708395
0.220967 0.549711 0.720077
0.342570 0.544012 0.730690
0.524200 0.542101 0.736921
0.675597 0.543745 0.741077
0.774598 0.542590 0.745473
0.830364 0.529058 0.750975
0.859003 0.470131 0.753348
0.173566 0.657166 0.697681
0.183934 0.655983 0.699350
0.235670 0.652254 0.706459
0.338261 0.646950 0.717210
0.502773 0.642676 0.727063
0.657475 0.641169 0.734221
0.763687 0.640370 0.740667
0.825636 0.634702 0.748866
0.858546 0.606648 0.756731
0.184230 0.743237 0.694889
0.194417 0.742072 0.695499
0.240134 0.738015 0.698523
0.328549 0.732078 0.704748
0.472579 0.726411 0.713434
0.630506 0.722704 0.722152
0.750139 0.721532 0.729605
0.820248 0.718929 0.741386
0.858696 0.701966 0.758301
0.177225 0.811104 0.698186
0.185353 0.810579 0.698110
0.227851 0.808256 0.698281
0.305372 0.805125 0.699956
0.431493 0.801808 0.703850
0.589989 0.799284 0.709455
0.725815 0.798312 0.716091
0.812853 0.798607 0.724470
0.860031 0.793369 0.755336
0.149251 0.839439 0.683847
0.156496 0.840526 0.683856
0.167221 0.841933 0.684103
0.235613 0.841594 0.707704
0.354860 0.837794 0.705174
0.518547 0.835485 0.705823
0.673695 0.834548 0.707639
0.793590 0.835489 0.710007
0.863598 0.838630 0.753765
0.092013 0.237410 0.801866
0.097008 0.236207 0.803159
0.171087 0.242792 0.802811
0.351944 0.254786 0.802929
0.585667 0.270093 0.803426
0.728407 0.282744 0.804108
0.797938 0.281949 0.804906
0.841843 0.239919 0.806484
0.859424 0.127781 0.798381
0.094979 0.253410 0.801937
0.099965 0.252338 0.803147
0.175482 0.258724 0.803052
0.351764 0.269932 0.803164
0.582416 0.284699 0.803641
0.726457 0.297222 0.804310
0.797189 0.296209 0.805115
0.841461 0.254395 0.806656
0.859474 0.129594 0.798381
0.110926 0.338035 0.802235
0.117490 0.336268 0.803034
0.196066 0.336732 0.803569
0.356029 0.343186 0.803796
0.570528 0.355445 0.804256
0.718093 0.366212 0.804914
0.793806 0.364137 0.805776
0.839547 0.323507 0.807189
0.860021 0.150677 0.798381
0.133604 0.462140 0.801514
0.143290 0.460151 0.802407
0.216260 0.456590 0.803815
0.359006 0.456034 0.804424
0.555148 0.461630 0.804995
0.705262 0.467775 0.805733
0.788442 0.465271 0.806748
0.836963 0.435274 0.808140
0.860017 0.309008 0.806025
0.157963 0.578031 0.798865
0.168620 0.576410 0.800095
0.234263 0.572024 0.802849
0.358097 0.567622 0.804480
0.539856 0.567111 0.805548
0.688550 0.568933 0.806516
0.780799 0.566834 0.807696
0.833624 0.549086 0.809233
0.859462 0.486462 0.808513
0.178243 0.670088 0.791744
0.188844 0.669028 0.794146
0.246171 0.665548 0.799426
0.351366 0.660854 0.802980
0.521265 0.657478 0.805176
0.669594 0.656761 0.806777
0.770530 0.655540 0.808292
0.829594 0.647279 0.810187
0.859197 0.615926 0.810558
0.186939 0.753130 0.778756
0.196750 0.752111 0.780723
0.246221 0.748242 0.788305
0.336426 0.742895 0.797390
0.486688 0.737717 0.802343
0.644391 0.734730 0.805542
0.756757 0.733702 0.807891
0.824273 0.729902 0.810644
0.859384 0.709844 0.812347
0.170800 0.816404 0.768835
0.178547 0.815833 0.769474
0.222963 0.813146 0.772716
0.303394 0.809824 0.779513
0.433145 0.806513 0.789497
0.594423 0.804184 0.798289
0.729850 0.803354 0.803296
0.812548 0.802429 0.805792
0.860489 0.798159 0.813777
0.145198 0.838865 0.746289
0.166700 0.841892 0.747235
0.170012 0.842349 0.753746
0.223379 0.843510 0.765304
0.337208 0.840796 0.767185
0.502555 0.838477 0.771068
0.665507 0.837580 0.775656
0.788803 0.838473 0.778969
0.863717 0.841693 0.815500
0.124249 0.259203 0.844537
0.133490 0.261661 0.844560
0.214816 0.271216 0.844646
0.478397 0.287609 0.844867
0.669451 0.307246 0.845194
0.764585 0.322240 0.845604
0.814237 0.317753 0.846444
0.849479 0.249417 0.847861
0.859273 0.159851 0.838357
0.128743 0.272780 0.844539
0.138210 0.275246 0.844562
0.218944 0.284800 0.844649
0.477035 0.301627 0.844872
0.668237 0.322370 0.845202
0.764054 0.337249 0.845620
0.813952 0.332222 0.846451
0.849312 0.260001 0.847856
0.859273 0.171246 0.844303
0.149897 0.346518 0.844410
0.159850 0.348905 0.844440
0.240797 0.358040 0.844545
0.472981 0.374267 0.844805
0.663072 0.392782 0.845159
0.761679 0.404393 0.845627
0.812569 0.398654 0.846429
0.848461 0.322384 0.847775
0.859274 0.171262 0.844303
0.183320 0.482385 0.844244
0.196258 0.483083 0.844291
0.273706 0.485812 0.844450
0.467431 0.492024 0.844759
0.653336 0.499897 0.845146
0.756853 0.505080 0.845651
0.809907 0.500169 0.846465
0.847042 0.456965 0.847693
0.861516 0.307866 0.848808
0.208237 0.598890 0.844365
0.222293 0.598785 0.844433
0.294535 0.598616 0.844655
0.457208 0.600822 0.844965
0.635182 0.604898 0.845410
0.748684 0.606892 0.845954
0.806109 0.603499 0.846726
0.845844 0.573843 0.847947
0.862177 0.459944 0.850327
0.217393 0.683974 0.844841
0.230945 0.683470 0.844931
0.298020 0.681756 0.845214
0.439684 0.680996 0.845581
0.607474 0.682134 0.846022
0.732391 0.683234 0.846576
0.800411 0.680924 0.847301
0.844177 0.666542 0.848413
0.862320 0.609994 0.850563
0.206075 0.764935 0.845711
0.218077 0.764191 0.845821
0.275947 0.761433 0.846135
0.399848 0.758355 0.846542
0.566552 0.757419 0.847023
0.704003 0.758038 0.847578
0.790229 0.757629 0.848349
0.841573 0.749403 0.849334
0.862649 0.709900 0.851223
0.164911 0.819870 0.844928
0.172326 0.819473 0.845714
0.214199 0.817673 0.847091
0.315674 0.814838 0.847837
0.479720 0.812778 0.848481
0.650918 0.812221 0.849089
0.765591 0.812833 0.849775
0.834284 0.812289 0.850679
0.863178 0.799697 0.852146
0.137858 0.837878 0.793406
0.170223 0.842378 0.806643
0.170223 0.842379 0.806643
0.182586 0.842726 0.806675
0.292686 0.844869 0.833947
0.466529 0.842311 0.850229
0.654282 0.841659 0.851713
0.784908 0.842779 0.852560
0.863864 0.845125 0.853154
