negative-superia-reala/SuperiaReala_Classic_ExtraPunchy.cube
TITLE "Fuji Superia Reala Classic ExtraPunchy"
# Adobe RGB in/out. REPLACES AgX. Fuji Superia Reala Classic ExtraPunchy.
LUT_3D_SIZE 33
DOMAIN_MIN 0.0 0.0 0.0
DOMAIN_MAX 1.0 1.0 1.0
0.069662 0.073299 0.081842
0.067617 0.073008 0.079837
0.067921 0.072638 0.079476
0.069622 0.072272 0.078603
0.075705 0.073163 0.078183
0.080171 0.073873 0.078124
0.093767 0.075714 0.078353
0.127658 0.078085 0.078595
0.152103 0.079279 0.078742
0.195359 0.081061 0.078955
0.277957 0.084317 0.079432
0.334261 0.086378 0.079725
0.385955 0.088455 0.079976
0.450753 0.091252 0.080280
0.515918 0.095178 0.080740
0.563315 0.097780 0.081103
0.596234 0.100134 0.081439
0.629864 0.102950 0.082002
0.661026 0.106983 0.083091
0.684303 0.109096 0.083772
0.704538 0.111301 0.084690
0.722025 0.113850 0.085930
0.739265 0.116288 0.087208
0.756467 0.115641 0.088527
0.769798 0.115020 0.090821
0.778814 0.113018 0.094373
0.789610 0.104767 0.101319
0.795368 0.099296 0.139126
0.806951 0.073299 0.417439
0.806949 0.073299 0.417407
0.806949 0.073299 0.417405
0.806949 0.073299 0.417404
0.813570 0.107082 0.548008
0.068848 0.072728 0.080089
0.067781 0.072394 0.079539
0.068638 0.072336 0.079638
0.071044 0.072393 0.078516
0.077694 0.073543 0.078065
0.081849 0.074331 0.078157
0.095716 0.076117 0.078375
0.130086 0.078422 0.078615
0.153860 0.079603 0.078763
0.196426 0.081382 0.078970
0.278061 0.084644 0.079450
0.333743 0.086654 0.079741
0.385107 0.088793 0.079989
0.449647 0.091552 0.080291
0.515000 0.095535 0.080755
0.562658 0.098104 0.081115
0.595626 0.100431 0.081450
0.629330 0.103297 0.082023
0.660688 0.107314 0.083109
0.684007 0.109459 0.083787
0.704310 0.111648 0.084708
0.721842 0.114319 0.085943
0.739118 0.116749 0.087217
0.756347 0.116094 0.088532
0.769706 0.115465 0.090810
0.778765 0.113335 0.094316
0.789571 0.105052 0.101004
0.795346 0.099524 0.137358
0.806951 0.073299 0.417440
0.806949 0.073299 0.417407
0.806949 0.073299 0.417405
0.806949 0.073299 0.417404
0.813570 0.107083 0.548008
0.068499 0.073474 0.079705
0.067798 0.073354 0.078980
0.068108 0.073001 0.078883
0.071068 0.073767 0.078305
0.078978 0.075585 0.078151
0.085973 0.075845 0.078240
0.103967 0.077734 0.078449
0.142214 0.080102 0.078714
0.161998 0.080890 0.078838
0.201760 0.082647 0.079056
0.279437 0.085875 0.079516
0.332517 0.088034 0.079800
0.382370 0.090050 0.080037
0.445793 0.092660 0.080331
0.511691 0.096851 0.080808
0.559691 0.099295 0.081160
0.593383 0.101520 0.081488
0.627356 0.104568 0.082099
0.659435 0.108689 0.083173
0.682912 0.110788 0.083841
0.703464 0.112918 0.084771
0.721165 0.116036 0.085992
0.738573 0.118437 0.087250
0.755902 0.117752 0.088550
0.769368 0.117094 0.090772
0.778585 0.114863 0.094125
0.789427 0.106092 0.099963
0.795263 0.100357 0.132117
0.806951 0.073299 0.417442
0.806949 0.073299 0.417408
0.806949 0.073299 0.417406
0.806949 0.073299 0.417404
0.813571 0.107084 0.548007
0.067898 0.078709 0.078557
0.067521 0.078464 0.078400
0.068183 0.077844 0.078230
0.069708 0.077158 0.078043
0.075658 0.079488 0.078307
0.082545 0.078840 0.078366
0.102008 0.080476 0.078566
0.144023 0.083040 0.078848
0.169187 0.083643 0.078951
0.210173 0.085311 0.079218
0.285546 0.088933 0.079643
0.333540 0.090999 0.079913
0.379026 0.092552 0.080129
0.439453 0.095320 0.080406
0.505665 0.099428 0.080909
0.553272 0.101610 0.081245
0.589035 0.103891 0.081560
0.623494 0.107020 0.082243
0.656971 0.111391 0.083295
0.680752 0.113337 0.083944
0.701799 0.116061 0.084894
0.719833 0.119333 0.086087
0.737502 0.121671 0.087316
0.755030 0.120928 0.088597
0.768706 0.120213 0.090726
0.778231 0.117957 0.093825
0.789144 0.108171 0.098909
0.795099 0.101946 0.124506
0.806951 0.073299 0.417448
0.806949 0.073299 0.417408
0.806949 0.073299 0.417406
0.806949 0.073299 0.417404
0.813571 0.107084 0.548007
0.067525 0.089789 0.078112
0.067722 0.089277 0.078174
0.068446 0.087987 0.078259
0.070342 0.086460 0.078362
0.073732 0.085534 0.078481
0.078743 0.083585 0.078515
0.093608 0.085197 0.078710
0.131073 0.087802 0.079003
0.161125 0.087712 0.079158
0.206490 0.089328 0.079413
0.285586 0.093170 0.079843
0.331226 0.095149 0.080076
0.374919 0.096848 0.080264
0.432250 0.099717 0.080542
0.497415 0.104008 0.081069
0.543478 0.106137 0.081379
0.582041 0.108305 0.081673
0.617135 0.111551 0.082470
0.652771 0.116631 0.083487
0.677132 0.118992 0.084109
0.699006 0.121539 0.085090
0.717606 0.124627 0.086243
0.735716 0.126848 0.087431
0.753575 0.126006 0.088698
0.767603 0.125194 0.090709
0.777642 0.122903 0.093496
0.788670 0.111839 0.097685
0.794818 0.104954 0.115398
0.806952 0.073299 0.417458
0.806949 0.073299 0.417410
0.806949 0.073299 0.417407
0.806952 0.073299 0.417405
0.813571 0.107084 0.548006
0.067701 0.096414 0.078266
0.067846 0.095904 0.078301
0.068355 0.094748 0.078357
0.069627 0.093068 0.078474
0.072313 0.091569 0.078555
0.076397 0.090534 0.078691
0.087213 0.092293 0.078905
0.116629 0.095554 0.079312
0.144842 0.094040 0.079396
0.190091 0.095281 0.079617
0.270960 0.099456 0.080044
0.322221 0.101021 0.080262
0.368339 0.102263 0.080436
0.423896 0.105092 0.080765
0.488965 0.109900 0.081265
0.532876 0.112384 0.081551
0.573224 0.115448 0.081991
0.607640 0.120476 0.082797
0.644330 0.125999 0.083767
0.671373 0.127735 0.084454
0.694546 0.130087 0.085380
0.714061 0.133591 0.086481
0.732880 0.136162 0.087614
0.751267 0.134879 0.088892
0.765860 0.133645 0.090778
0.776707 0.130669 0.093298
0.787913 0.118798 0.096592
0.794357 0.110004 0.108223
0.806953 0.073299 0.417480
0.806949 0.073299 0.417412
0.806949 0.073299 0.417408
0.813567 0.107066 0.417405
0.813571 0.107084 0.548006
0.068084 0.112372 0.078528
0.068190 0.111767 0.078555
0.068756 0.110397 0.078642
0.069906 0.108173 0.078759
0.072517 0.105822 0.078885
0.076282 0.103661 0.079005
0.084142 0.102180 0.079219
0.105630 0.105982 0.079616
0.129716 0.102932 0.079675
0.169760 0.103382 0.079881
0.245517 0.108033 0.080277
0.304295 0.109457 0.080478
0.353201 0.110065 0.080668
0.410581 0.112846 0.081017
0.479498 0.119744 0.081500
0.522531 0.123136 0.081852
0.564779 0.125327 0.082421
0.599450 0.129636 0.083162
0.635984 0.137476 0.084095
0.664525 0.140643 0.084889
0.687626 0.144530 0.085779
0.708402 0.148608 0.086827
0.728361 0.150729 0.087900
0.747587 0.149083 0.089232
0.763094 0.147499 0.091012
0.775222 0.144396 0.093293
0.786686 0.130475 0.095949
0.793589 0.119778 0.102934
0.806956 0.073299 0.417530
0.806950 0.073299 0.417418
0.806949 0.073299 0.417411
0.813571 0.107083 0.417407
0.813571 0.107085 0.548006
0.068527 0.145678 0.078882
0.068663 0.144689 0.078906
0.069226 0.142618 0.079017
0.070643 0.138674 0.079202
0.072946 0.133825 0.079374
0.076857 0.129112 0.079573
0.084590 0.125533 0.079740
0.098139 0.122886 0.079933
0.118042 0.116141 0.079971
0.153081 0.115634 0.080155
0.219082 0.122449 0.080540
0.280920 0.122961 0.080793
0.331667 0.122711 0.080987
0.391950 0.125873 0.081304
0.466033 0.133571 0.081812
0.510030 0.136451 0.082370
0.552937 0.139264 0.082908
0.589669 0.145043 0.083618
0.626400 0.152825 0.084677
0.657748 0.154610 0.085395
0.681871 0.157473 0.086217
0.703657 0.161901 0.087217
0.723586 0.166035 0.088450
0.742703 0.166824 0.089733
0.758515 0.168124 0.091510
0.772761 0.164885 0.093653
0.784579 0.152411 0.096089
0.792234 0.139053 0.100324
0.806968 0.073096 0.417706
0.806951 0.073299 0.417438
0.806950 0.073299 0.417419
0.813571 0.107084 0.417410
0.813571 0.107085 0.548006
0.068803 0.165262 0.079091
0.068903 0.164397 0.079121
0.069334 0.162186 0.079237
0.070572 0.158911 0.079403
0.072559 0.154540 0.079568
0.075353 0.149593 0.079733
0.081361 0.145010 0.079923
0.091134 0.140790 0.080084
0.109228 0.137581 0.080251
0.139729 0.135687 0.080416
0.197361 0.144307 0.080920
0.255873 0.143384 0.081149
0.308253 0.141601 0.081320
0.369288 0.144361 0.081601
0.444291 0.152436 0.082457
0.494875 0.154315 0.082957
0.538834 0.156502 0.083442
0.580089 0.161608 0.084101
0.617101 0.169221 0.085313
0.648842 0.171724 0.085990
0.673737 0.175627 0.086778
0.697530 0.178798 0.087701
0.718718 0.181980 0.089096
0.738835 0.181839 0.090312
0.755577 0.182481 0.092025
0.770259 0.182894 0.094248
0.782042 0.177058 0.096793
0.789883 0.171465 0.100719
0.807326 0.074525 0.419713
0.806963 0.073299 0.417641
0.806952 0.073299 0.417474
0.813571 0.107085 0.417427
0.813571 0.107085 0.548006
0.069163 0.196445 0.079459
0.069252 0.195412 0.079480
0.069652 0.192485 0.079564
0.070921 0.188658 0.079712
0.072654 0.183855 0.079881
0.075159 0.178891 0.080045
0.080410 0.173797 0.080212
0.088479 0.169030 0.080369
0.103646 0.164897 0.080539
0.129598 0.161696 0.080764
0.180061 0.170475 0.081295
0.232091 0.168283 0.081509
0.285727 0.164707 0.081645
0.346111 0.166331 0.082179
0.420325 0.174165 0.083126
0.477184 0.174948 0.083569
0.522399 0.176058 0.084011
0.569252 0.180368 0.084853
0.607320 0.189031 0.086023
0.638775 0.191650 0.086643
0.666749 0.194419 0.087344
0.690702 0.200450 0.088428
0.712239 0.206954 0.089886
0.733078 0.207029 0.091151
0.751255 0.206334 0.092716
0.767089 0.205731 0.094965
0.780394 0.197341 0.097231
0.788773 0.189163 0.100593
0.797629 0.173826 0.107303
0.803932 0.155085 0.129703
0.810532 0.107894 0.375767
0.813571 0.107085 0.420399
0.813571 0.107085 0.548006
0.069804 0.255921 0.079992
0.069962 0.254869 0.080010
0.070563 0.251687 0.080079
0.071794 0.248093 0.080215
0.073378 0.242068 0.080360
0.076168 0.234866 0.080531
0.081503 0.227378 0.080762
0.089995 0.219989 0.081000
0.105338 0.213226 0.081222
0.131255 0.207489 0.081446
0.166406 0.203182 0.081669
0.211810 0.198281 0.082045
0.265369 0.191684 0.082341
0.323514 0.192344 0.082899
0.396396 0.202259 0.083806
0.454890 0.201542 0.084257
0.504048 0.201309 0.084811
0.555216 0.206066 0.085630
0.596865 0.216759 0.086766
0.628392 0.217834 0.087321
0.658743 0.221384 0.088041
0.683065 0.228090 0.089360
0.706413 0.232721 0.090820
0.727710 0.233257 0.092043
0.746038 0.235799 0.093598
0.762223 0.239091 0.095980
0.777856 0.229354 0.098001
0.787072 0.219540 0.101103
0.796422 0.199905 0.106319
0.803242 0.176739 0.118846
0.810280 0.116409 0.313663
0.813571 0.107086 0.429642
0.813571 0.107087 0.432971
0.070507 0.298599 0.080309
0.070637 0.297659 0.080323
0.071123 0.294692 0.080377
0.072168 0.291036 0.080498
0.073511 0.285340 0.080674
0.076185 0.278334 0.080905
0.081144 0.270773 0.081147
0.088268 0.262744 0.081366
0.101410 0.255058 0.081579
0.124007 0.248183 0.081889
0.155258 0.242260 0.082366
0.196876 0.237880 0.082857
0.244329 0.228264 0.083078
0.303476 0.228222 0.083624
0.374177 0.237919 0.084658
0.430512 0.235200 0.085170
0.485348 0.233726 0.085693
0.537138 0.237779 0.086465
0.584993 0.247894 0.087507
0.617168 0.248015 0.088098
0.649896 0.251871 0.089105
0.675797 0.256993 0.090365
0.699716 0.263534 0.091915
0.721133 0.265415 0.093085
0.740994 0.265814 0.094834
0.758492 0.267516 0.097050
0.775197 0.262719 0.098964
0.784660 0.258855 0.102317
0.794389 0.243606 0.106909
0.802036 0.215403 0.114342
0.809680 0.142111 0.210376
0.813571 0.107088 0.429689
0.813571 0.107090 0.436120
0.071046 0.336390 0.080578
0.071154 0.335511 0.080594
0.071558 0.332654 0.080665
0.072441 0.328707 0.080810
0.073670 0.323652 0.081002
0.076209 0.317276 0.081213
0.080502 0.309813 0.081425
0.086717 0.302092 0.081640
0.097450 0.294404 0.082028
0.116802 0.287047 0.082487
0.144140 0.280276 0.082940
0.179553 0.274290 0.083371
0.227430 0.269834 0.083827
0.285708 0.268115 0.084407
0.354312 0.278206 0.085644
0.408578 0.273820 0.086107
0.466038 0.270582 0.086564
0.518736 0.273806 0.087309
0.572553 0.283592 0.088571
0.605337 0.282228 0.089251
0.638769 0.284677 0.090163
0.668021 0.290049 0.091583
0.692889 0.297064 0.093095
0.715180 0.296744 0.094381
0.735159 0.299645 0.096210
0.753105 0.304089 0.098381
0.772377 0.297401 0.100103
0.782722 0.291827 0.103626
0.792740 0.280878 0.107816
0.800470 0.264692 0.113999
0.807286 0.238644 0.130265
0.813571 0.107126 0.429747
0.813572 0.107108 0.440673
0.071696 0.385847 0.081043
0.071797 0.385017 0.081059
0.072174 0.382259 0.081121
0.072923 0.378161 0.081243
0.074081 0.373717 0.081427
0.076695 0.367026 0.081614
0.080789 0.359408 0.081948
0.086720 0.351453 0.082427
0.096636 0.343416 0.082896
0.113820 0.335328 0.083331
0.138924 0.327825 0.083750
0.171754 0.321290 0.084216
0.214727 0.315496 0.084795
0.271011 0.311112 0.085411
0.336178 0.320251 0.086583
0.388657 0.314957 0.087039
0.444070 0.309891 0.087447
0.500509 0.311530 0.088248
0.558716 0.320394 0.089787
0.593108 0.318494 0.090533
0.627315 0.319627 0.091522
0.660023 0.324713 0.092845
0.685747 0.330580 0.094562
0.708522 0.331556 0.095929
0.729100 0.334947 0.097675
0.748458 0.337439 0.099673
0.768246 0.334496 0.102091
0.779822 0.333207 0.105431
0.790787 0.320882 0.109073
0.799284 0.303386 0.114005
0.806609 0.275472 0.124614
0.811908 0.236459 0.205822
0.815678 0.188607 0.444960
0.072566 0.441623 0.081613
0.072655 0.440999 0.081627
0.072980 0.438890 0.081681
0.073619 0.435595 0.081895
0.075276 0.432245 0.082303
0.077673 0.426692 0.082695
0.082069 0.420754 0.083145
0.088075 0.413882 0.083581
0.098148 0.406915 0.084032
0.115626 0.399298 0.084621
0.140513 0.391001 0.085239
0.172218 0.383206 0.085805
0.214273 0.376284 0.086389
0.268710 0.370369 0.086942
0.319951 0.365665 0.087521
0.370436 0.358399 0.087931
0.424058 0.352352 0.088561
0.483770 0.352994 0.089562
0.541053 0.361151 0.091210
0.580547 0.357803 0.091929
0.615447 0.358163 0.092893
0.651386 0.362771 0.094431
0.678272 0.367954 0.096238
0.701786 0.369403 0.097544
0.723236 0.371503 0.099159
0.742872 0.376486 0.101804
0.763497 0.373805 0.104250
0.777489 0.370217 0.107283
0.788615 0.363551 0.110728
0.797438 0.353367 0.115103
0.805492 0.325313 0.122814
0.811340 0.282679 0.155282
0.815643 0.200490 0.436018
0.073082 0.480614 0.082296
0.073159 0.480031 0.082326
0.073442 0.478033 0.082435
0.073992 0.474788 0.082647
0.075738 0.471089 0.082992
0.078236 0.466158 0.083376
0.082584 0.460688 0.083825
0.087830 0.453565 0.084261
0.096929 0.446445 0.084865
0.112806 0.439472 0.085497
0.135204 0.432154 0.086056
0.163815 0.425361 0.086621
0.201978 0.419181 0.087179
0.251950 0.413470 0.087722
0.302554 0.408791 0.088447
0.355088 0.405001 0.089299
0.405732 0.398004 0.089862
0.467669 0.397716 0.090995
0.524323 0.405106 0.092715
0.568527 0.401310 0.093392
0.603369 0.400089 0.094544
0.640113 0.403671 0.096228
0.670526 0.407593 0.097974
0.695183 0.407891 0.099180
0.717045 0.410135 0.101178
0.737421 0.414429 0.104213
0.758695 0.412262 0.106487
0.774404 0.412264 0.109477
0.786347 0.406762 0.112617
0.796017 0.395110 0.116600
0.804267 0.376464 0.123193
0.810254 0.351294 0.140257
0.815337 0.250868 0.375234
0.073556 0.520233 0.083051
0.073624 0.519685 0.083077
0.073872 0.517791 0.083171
0.074534 0.514624 0.083353
0.076257 0.510739 0.083647
0.078931 0.506299 0.084024
0.082587 0.500288 0.084532
0.087647 0.493772 0.085109
0.096320 0.486728 0.085690
0.110479 0.479440 0.086270
0.131042 0.472223 0.086847
0.157569 0.465068 0.087392
0.192446 0.458255 0.087929
0.236770 0.452309 0.088759
0.287521 0.446790 0.089556
0.337910 0.442195 0.090393
0.390098 0.438605 0.091368
0.449021 0.437649 0.092491
0.508665 0.443503 0.094447
0.554797 0.438861 0.095290
0.591744 0.437285 0.096440
0.628665 0.439683 0.098044
0.662476 0.443325 0.099749
0.687867 0.442908 0.101388
0.710820 0.445358 0.103804
0.732074 0.448934 0.106688
0.753397 0.448448 0.108910
0.771442 0.447766 0.111679
0.783957 0.444134 0.114665
0.793990 0.438245 0.118788
0.803028 0.422426 0.124183
0.809632 0.397951 0.134827
0.814561 0.356992 0.238953
0.074101 0.557659 0.083922
0.074161 0.557303 0.083944
0.074601 0.556062 0.084026
0.075536 0.553940 0.084221
0.077050 0.551197 0.084589
0.080074 0.548378 0.085130
0.083371 0.543997 0.085593
0.088822 0.539665 0.086178
0.096851 0.533562 0.086730
0.110264 0.526114 0.087268
0.129890 0.518784 0.087830
0.155196 0.511399 0.088629
0.188111 0.504405 0.089464
0.229225 0.497719 0.090248
0.279211 0.491861 0.091210
0.326673 0.486589 0.092122
0.377665 0.482045 0.093023
0.432767 0.478629 0.094167
0.494201 0.483971 0.096418
0.539499 0.478562 0.097214
0.580435 0.475905 0.098294
0.617467 0.477830 0.099873
0.654279 0.480951 0.102469
0.680203 0.479885 0.104157
0.704573 0.482262 0.106518
0.726563 0.485583 0.109295
0.748314 0.485402 0.111399
0.767066 0.485257 0.114030
0.781173 0.484361 0.117388
0.792269 0.476607 0.121074
0.801682 0.465569 0.125948
0.808607 0.449888 0.134192
0.814144 0.411893 0.180672
0.075368 0.593817 0.085298
0.075488 0.593506 0.085326
0.075928 0.592416 0.085432
0.076770 0.590522 0.085634
0.078331 0.587985 0.085957
0.081288 0.585216 0.086437
0.084859 0.581434 0.086901
0.090615 0.577252 0.087446
0.098581 0.572589 0.088022
0.112491 0.567676 0.088884
0.131978 0.562360 0.089701
0.156848 0.557182 0.090645
0.188169 0.551985 0.091589
0.228383 0.547097 0.092522
0.276848 0.542394 0.093411
0.323856 0.538344 0.094693
0.372918 0.533777 0.095911
0.426097 0.529238 0.097085
0.481217 0.526046 0.098367
0.525226 0.519948 0.099106
0.569847 0.516872 0.100264
0.606638 0.517859 0.102722
0.643949 0.520451 0.105336
0.672523 0.518897 0.106972
0.698047 0.520439 0.109238
0.720936 0.523835 0.111975
0.743282 0.523392 0.113939
0.762495 0.524654 0.116865
0.778748 0.522915 0.120110
0.790191 0.518520 0.123689
0.800267 0.509674 0.128155
0.807892 0.491822 0.134617
0.813619 0.465691 0.161252
0.076163 0.623621 0.086179
0.076273 0.623329 0.086204
0.076673 0.622295 0.086299
0.077437 0.620470 0.086479
0.079104 0.617947 0.086766
0.081744 0.614996 0.087191
0.085495 0.611496 0.087667
0.090650 0.607165 0.088276
0.098719 0.602664 0.089109
0.111826 0.597780 0.089944
0.129367 0.592535 0.090838
0.152289 0.587295 0.091797
0.181431 0.582095 0.092748
0.218524 0.577068 0.093754
0.265879 0.572358 0.094984
0.310737 0.567846 0.096158
0.358507 0.564080 0.097392
0.409414 0.560800 0.098596
0.464865 0.557810 0.099741
0.512367 0.555715 0.101570
0.559095 0.552835 0.103176
0.596308 0.553352 0.105642
0.633610 0.554688 0.108256
0.664883 0.553256 0.109802
0.691385 0.553960 0.112019
0.715105 0.555948 0.114671
0.738065 0.555666 0.116889
0.757997 0.556858 0.119954
0.776045 0.556231 0.123035
0.787990 0.554332 0.126431
0.798878 0.548443 0.130450
0.806911 0.539672 0.136651
0.813175 0.514377 0.154224
0.076999 0.650349 0.087106
0.077100 0.650141 0.087129
0.077467 0.649402 0.087214
0.078397 0.648082 0.087376
0.080005 0.646213 0.087634
0.082526 0.643924 0.088081
0.086400 0.641375 0.088849
0.091335 0.638067 0.089492
0.099964 0.634073 0.090400
0.111157 0.629133 0.091251
0.128699 0.624103 0.092209
0.151114 0.618895 0.093162
0.178061 0.613684 0.094316
0.212355 0.608521 0.095507
0.257145 0.603745 0.096742
0.301669 0.599220 0.097938
0.347618 0.595074 0.099093
0.395991 0.591473 0.100441
0.450036 0.588460 0.102343
0.498765 0.585764 0.104159
0.546258 0.583851 0.106099
0.586525 0.583446 0.108508
0.623559 0.584559 0.111098
0.657410 0.583005 0.112656
0.684291 0.583209 0.114803
0.709319 0.584944 0.117973
0.732831 0.584605 0.120128
0.753638 0.585466 0.123050
0.773249 0.585831 0.126084
0.785900 0.584018 0.129176
0.797266 0.580551 0.133060
0.806048 0.572076 0.139046
0.812695 0.556927 0.152271
0.078074 0.674607 0.088279
0.078209 0.674426 0.088312
0.078702 0.673782 0.088432
0.079639 0.672621 0.088662
0.081116 0.670948 0.089026
0.083627 0.668836 0.089561
0.087472 0.666459 0.090363
0.092741 0.663480 0.091107
0.100673 0.660185 0.092010
0.112496 0.656625 0.092911
0.129910 0.652793 0.094001
0.150045 0.648939 0.095206
0.176315 0.645000 0.096462
0.209666 0.641003 0.097686
0.252489 0.637115 0.098853
0.296024 0.632740 0.100144
0.340916 0.628493 0.101997
0.387622 0.624672 0.103861
0.439220 0.621236 0.105717
0.490071 0.618505 0.107630
0.535370 0.616125 0.109473
0.577444 0.614384 0.111381
0.614066 0.614749 0.113930
0.649164 0.613111 0.115512
0.677262 0.612944 0.118126
0.703329 0.614318 0.121324
0.727580 0.614110 0.123417
0.749261 0.614813 0.126264
0.770209 0.615480 0.129197
0.783705 0.614404 0.132101
0.795722 0.611751 0.136005
0.805107 0.605179 0.141969
0.812174 0.593105 0.152683
0.079363 0.697903 0.089824
0.079489 0.697755 0.089854
0.079949 0.697223 0.089966
0.080821 0.696256 0.090197
0.082297 0.694840 0.090596
0.084731 0.693002 0.091180
0.088677 0.690829 0.092005
0.094327 0.688314 0.092819
0.101965 0.685402 0.093699
0.114844 0.682270 0.095010
0.130074 0.678680 0.096124
0.150826 0.674928 0.097375
0.176985 0.671165 0.098676
0.207622 0.667316 0.099848
0.248478 0.663485 0.101605
0.291242 0.659899 0.103509
0.335064 0.656604 0.105456
0.380819 0.653552 0.107351
0.430798 0.650796 0.109215
0.482042 0.648327 0.111076
0.526822 0.646436 0.112974
0.570256 0.644855 0.114858
0.605122 0.643676 0.117137
0.640090 0.642243 0.118871
0.670400 0.641803 0.121435
0.697302 0.642492 0.124634
0.722190 0.642393 0.126674
0.744747 0.642809 0.129459
0.766666 0.643426 0.132353
0.781558 0.643206 0.135268
0.794195 0.641581 0.139551
0.804093 0.638086 0.145287
0.811802 0.626916 0.154025
0.080217 0.720482 0.091126
0.080335 0.720342 0.091159
0.080766 0.719841 0.091279
0.081581 0.718919 0.091509
0.083111 0.717548 0.091873
0.085368 0.715718 0.092407
0.089244 0.713456 0.093161
0.095303 0.710884 0.094266
0.102511 0.708056 0.095245
0.114959 0.704889 0.096532
0.129688 0.701563 0.097649
0.150422 0.697962 0.098910
0.173029 0.694542 0.100134
0.203675 0.691016 0.102121
0.243667 0.687447 0.104064
0.284972 0.684060 0.105878
0.326391 0.680936 0.107799
0.371030 0.677813 0.109683
0.419367 0.675003 0.111575
0.471835 0.672487 0.113414
0.515674 0.670332 0.115349
0.561516 0.668640 0.117584
0.595900 0.667377 0.119892
0.631525 0.666478 0.122208
0.663783 0.665632 0.124744
0.691145 0.665929 0.127912
0.716767 0.665902 0.129882
0.740096 0.666094 0.132635
0.762952 0.666723 0.135586
0.779541 0.666959 0.139391
0.792686 0.666029 0.143329
0.803179 0.663075 0.148436
0.811402 0.656122 0.156256
0.081204 0.741023 0.092607
0.081315 0.740929 0.092638
0.081721 0.740587 0.092749
0.082652 0.739786 0.092962
0.084106 0.738581 0.093298
0.086202 0.736942 0.093919
0.090176 0.734856 0.094859
0.096668 0.732342 0.096170
0.103840 0.729792 0.097061
0.115126 0.726842 0.098222
0.130879 0.723661 0.099471
0.149086 0.720318 0.100968
0.172486 0.716896 0.102937
0.202150 0.713477 0.104954
0.238147 0.710145 0.106817
0.280027 0.706831 0.108732
0.320854 0.703650 0.110655
0.364764 0.700678 0.112580
0.411244 0.698012 0.114438
0.462464 0.695649 0.116619
0.506542 0.693588 0.118847
0.551345 0.691885 0.121088
0.587769 0.690476 0.123310
0.622731 0.689572 0.125662
0.657471 0.688962 0.128017
0.684845 0.688796 0.131166
0.711495 0.689018 0.133064
0.735318 0.688859 0.136000
0.759183 0.689472 0.139600
0.777607 0.689764 0.143154
0.791296 0.689618 0.147226
0.802347 0.687651 0.151836
0.811007 0.682386 0.158855
0.082321 0.756449 0.094337
0.082448 0.756371 0.094376
0.082910 0.756088 0.094518
0.083782 0.755562 0.094787
0.085141 0.754761 0.095214
0.087095 0.753650 0.095840
0.091260 0.752199 0.096725
0.097330 0.750380 0.097962
0.105645 0.748522 0.099010
0.116212 0.746471 0.100118
0.133109 0.744079 0.102340
0.149566 0.741759 0.103999
0.173973 0.738690 0.106100
0.200108 0.735581 0.107941
0.236857 0.732303 0.109977
0.277650 0.729121 0.111898
0.315881 0.726140 0.113810
0.358465 0.723239 0.115910
0.403815 0.720522 0.118212
0.453701 0.718117 0.120510
0.498907 0.716015 0.122802
0.542867 0.714248 0.125080
0.581138 0.712776 0.127326
0.615113 0.711603 0.129559
0.650598 0.710958 0.131963
0.678773 0.710576 0.134359
0.706320 0.711143 0.136615
0.730684 0.710758 0.140083
0.755349 0.711276 0.143479
0.775710 0.711597 0.147033
0.789946 0.711799 0.150958
0.801594 0.710751 0.155359
0.810888 0.706464 0.161733
0.082907 0.774934 0.095604
0.083025 0.774861 0.095639
0.083454 0.774595 0.095768
0.084264 0.774093 0.096014
0.085530 0.773312 0.096408
0.087392 0.772195 0.096993
0.091417 0.770670 0.097834
0.097112 0.768649 0.099036
0.106581 0.766478 0.100490
0.116301 0.764492 0.102046
0.131441 0.762077 0.104113
0.149347 0.759642 0.106076
0.170478 0.757117 0.107997
0.198071 0.754528 0.110009
0.232502 0.751944 0.112010
0.271989 0.749533 0.113932
0.310572 0.747126 0.116143
0.352258 0.744871 0.118480
0.395280 0.742797 0.120769
0.443371 0.740902 0.123060
0.490064 0.738851 0.125344
0.533379 0.737033 0.127623
0.574204 0.735554 0.129892
0.608119 0.734416 0.132148
