negative-superia-reala/SuperiaReala_Classic_Punchy.cube
TITLE "Fuji Superia Reala Classic Punchy"
# Adobe RGB in/out. REPLACES AgX. Fuji Superia Reala Classic Punchy.
LUT_3D_SIZE 5
DOMAIN_MIN 0.0 0.0 0.0
DOMAIN_MAX 1.0 1.0 1.0
0.071271 0.083381 0.080583
0.193534 0.092785 0.085270
0.609815 0.115068 0.093491
0.806081 0.131488 0.112468
0.859273 0.122498 0.540910
0.080935 0.179060 0.086299
0.152638 0.153883 0.089848
0.543978 0.171178 0.098077
0.792833 0.196948 0.114381
0.859273 0.122500 0.540908
0.097032 0.511793 0.097210
0.138261 0.485045 0.102806
0.394989 0.437830 0.113256
0.750447 0.444841 0.130413
0.860153 0.356270 0.264420
0.113024 0.734810 0.115440
0.146952 0.722629 0.121872
0.332651 0.694627 0.137338
0.681265 0.678932 0.161270
0.856993 0.671914 0.196935
0.114974 0.826291 0.121591
0.170223 0.834115 0.121626
0.283303 0.835075 0.155242
0.610334 0.828228 0.186287
0.861824 0.833083 0.208687
0.075085 0.093706 0.157154
0.166197 0.102066 0.335302
0.615154 0.128888 0.279465
0.805175 0.144653 0.348268
0.859273 0.122500 0.540934
0.095512 0.181706 0.162740
0.204024 0.189614 0.194276
0.564657 0.202882 0.205453
0.795647 0.218256 0.244610
0.859273 0.122500 0.540909
0.117933 0.510746 0.183560
0.172899 0.493197 0.190131
0.461516 0.466342 0.204754
0.763376 0.473985 0.225818
0.859987 0.370656 0.441991
0.134936 0.732147 0.202729
0.174364 0.722660 0.210353
0.377475 0.700300 0.228005
0.707915 0.687911 0.249713
0.857792 0.674833 0.279590
0.114981 0.831607 0.205883
0.170223 0.839202 0.205879
0.302855 0.835102 0.224299
0.630572 0.828924 0.264026
0.862618 0.833049 0.285223
0.080870 0.123003 0.453363
0.179464 0.136385 0.593716
0.588352 0.165979 0.595574
0.800015 0.182897 0.612156
0.859273 0.122500 0.648436
0.102864 0.227392 0.466250
0.191895 0.226738 0.539971
0.558283 0.245503 0.567330
0.792972 0.260905 0.595642
0.859273 0.122502 0.638146
0.141086 0.519406 0.461246
0.205622 0.509786 0.468749
0.517245 0.506697 0.503856
0.771597 0.504734 0.535437
0.859423 0.415472 0.633846
0.167858 0.732077 0.481185
0.218265 0.725602 0.482261
0.441514 0.710491 0.490091
0.738333 0.703130 0.505386
0.858403 0.685251 0.585062
0.146742 0.839082 0.576047
0.161755 0.841227 0.576045
0.348768 0.834838 0.520356
0.666184 0.830673 0.523780
0.863363 0.834246 0.537654
0.087529 0.190875 0.711320
0.163799 0.205816 0.740863
0.572936 0.232972 0.742798
0.795738 0.247549 0.746251
0.859272 0.122496 0.739220
0.105581 0.293649 0.719970
0.181661 0.295994 0.739060
0.555235 0.313153 0.742995
0.790541 0.324489 0.746988
0.859266 0.122460 0.736564
0.153022 0.555701 0.705083
0.220967 0.549711 0.720077
0.524200 0.542101 0.736921
0.774598 0.542590 0.745473
0.859003 0.470131 0.753348
0.184230 0.743237 0.694889
0.240134 0.738015 0.698523
0.472579 0.726411 0.713434
0.750139 0.721532 0.729605
0.858696 0.701966 0.758301
0.149251 0.839439 0.683847
0.167221 0.841933 0.684103
0.354860 0.837794 0.705174
0.673695 0.834548 0.707639
0.863598 0.838630 0.753765
0.124249 0.259203 0.844537
0.214816 0.271216 0.844646
0.669451 0.307246 0.845194
0.814237 0.317753 0.846444
0.859273 0.159851 0.838357
0.149897 0.346518 0.844410
0.240797 0.358040 0.844545
0.663072 0.392782 0.845159
0.812569 0.398654 0.846429
0.859274 0.171262 0.844303
0.208237 0.598890 0.844365
0.294535 0.598616 0.844655
0.635182 0.604898 0.845410
0.806109 0.603499 0.846726
0.862177 0.459944 0.850327
0.206075 0.764935 0.845711
0.275947 0.761433 0.846135
0.566552 0.757419 0.847023
0.790229 0.757629 0.848349
0.862649 0.709900 0.851223
0.137858 0.837878 0.793406
0.170223 0.842379 0.806643
0.292686 0.844869 0.833947
0.654282 0.841659 0.851713
0.863864 0.845125 0.853154
