negative-superia-reala/SuperiaReala_Modern_Punchy.cube
TITLE "Fuji Superia Reala Modern Punchy"
# Adobe RGB in/out. REPLACES AgX. Fuji Superia Reala Modern Punchy.
LUT_3D_SIZE 33
DOMAIN_MIN 0.0 0.0 0.0
DOMAIN_MAX 1.0 1.0 1.0
0.071271 0.083381 0.080583
0.078881 0.085017 0.081798
0.081527 0.085358 0.082031
0.096181 0.087247 0.082887
0.134705 0.090088 0.083937
0.159757 0.092001 0.084920
0.224283 0.095569 0.086362
0.313685 0.100812 0.088257
0.360794 0.103903 0.089237
0.437429 0.109141 0.090560
0.547994 0.117795 0.093081
0.612650 0.123019 0.094996
0.665082 0.128640 0.096803
0.714016 0.136211 0.099412
0.763779 0.148885 0.103113
0.790639 0.155971 0.105265
0.815039 0.162254 0.107950
0.839093 0.169901 0.111222
0.858575 0.179273 0.115708
0.871978 0.182566 0.118644
0.883480 0.185917 0.121923
0.892622 0.190847 0.126600
0.900464 0.193466 0.131672
0.906518 0.189205 0.135937
0.910626 0.185175 0.144209
0.914077 0.179385 0.157109
0.918944 0.157820 0.178544
0.920500 0.140544 0.260950
0.925768 0.083714 0.577856
0.923596 0.083487 0.572137
0.921434 0.083452 0.566512
0.919280 0.083475 0.560950
0.921320 0.153026 0.682023
0.072741 0.088131 0.081459
0.077487 0.086571 0.081532
0.084854 0.085545 0.081674
0.100676 0.087605 0.082834
0.140514 0.090673 0.083992
0.163448 0.092341 0.084942
0.226003 0.095865 0.086370
0.312835 0.101350 0.088268
0.359014 0.104333 0.089245
0.434266 0.109617 0.090562
0.544456 0.118283 0.093072
0.608782 0.123450 0.094983
0.662228 0.129219 0.096793
0.711291 0.136760 0.099400
0.762045 0.149593 0.103100
0.789066 0.156644 0.105249
0.813634 0.162896 0.107933
0.837856 0.170525 0.111205
0.857856 0.179893 0.115683
0.871343 0.183168 0.118616
0.882924 0.186673 0.121891
0.892179 0.191600 0.126553
0.900187 0.194222 0.131612
0.906274 0.189960 0.135856
0.910415 0.185846 0.144014
0.913892 0.179974 0.156775
0.918779 0.158431 0.177631
0.920358 0.141135 0.257496
0.925650 0.083718 0.577548
0.923489 0.083488 0.571857
0.921336 0.083453 0.566257
0.919190 0.083479 0.560718
0.921237 0.152961 0.681837
0.073093 0.089890 0.081726
0.074996 0.089033 0.081989
0.079274 0.087542 0.081821
0.093676 0.088864 0.082734
0.130268 0.092309 0.083938
0.165177 0.093800 0.084898
0.229390 0.097041 0.086401
0.316436 0.103856 0.088403
0.357101 0.106583 0.089323
0.426522 0.111593 0.090599
0.533805 0.120252 0.093075
0.596252 0.125901 0.094967
0.652578 0.131472 0.096776
0.701846 0.139166 0.099375
0.755929 0.152288 0.103070
0.783470 0.159180 0.105205
0.808610 0.165298 0.107886
0.833425 0.172849 0.111152
0.855272 0.182193 0.115603
0.869059 0.185393 0.118526
0.880927 0.189468 0.121784
0.890587 0.194377 0.126395
0.899190 0.197007 0.131408
0.905399 0.192737 0.135579
0.909654 0.188604 0.143345
0.913227 0.182136 0.155628
0.918185 0.160673 0.174549
0.919848 0.143307 0.245713
0.925231 0.083730 0.576448
0.923105 0.083491 0.570857
0.920984 0.083456 0.565348
0.918867 0.083492 0.559890
0.920939 0.152725 0.681175
0.074898 0.097856 0.082694
0.076140 0.096928 0.082901
0.080863 0.094932 0.083001
0.088056 0.092584 0.082983
0.109990 0.095332 0.084106
0.137601 0.095972 0.084962
0.198777 0.100536 0.086398
0.290873 0.107920 0.088456
0.342970 0.110650 0.089424
0.413160 0.115771 0.090703
0.521235 0.125076 0.093202
0.579095 0.131609 0.095053
0.632662 0.136368 0.096826
0.685995 0.145018 0.099405
0.741955 0.157902 0.103072
0.773403 0.164371 0.105186
0.799459 0.170146 0.107849
0.825298 0.177489 0.111095
0.850231 0.187109 0.115500
0.864841 0.191000 0.118397
0.877241 0.194951 0.121622
0.887652 0.199796 0.126145
0.896932 0.202419 0.131077
0.903787 0.198124 0.135123
0.908256 0.193943 0.142233
0.912005 0.186537 0.153728
0.917096 0.165009 0.169609
0.918915 0.147516 0.227292
0.924470 0.083755 0.574457
0.922409 0.083497 0.569045
0.920346 0.083462 0.563699
0.918281 0.083540 0.558386
0.920397 0.152293 0.679970
0.077440 0.125407 0.084248
0.078777 0.122886 0.084540
0.084197 0.117382 0.084779
0.092274 0.110216 0.084981
0.104813 0.104661 0.085226
0.118910 0.101099 0.085315
0.163660 0.106259 0.086494
0.243759 0.114195 0.088564
0.303637 0.116373 0.089566
0.378470 0.121086 0.090831
0.490696 0.132692 0.093471
0.553696 0.138806 0.095293
0.606596 0.145003 0.097001
0.665852 0.154696 0.099585
0.720640 0.168121 0.103213
0.758996 0.173569 0.105303
0.785982 0.178553 0.107910
0.813159 0.185394 0.111106
0.839577 0.196995 0.115451
0.858459 0.200424 0.118299
0.871669 0.204048 0.121467
0.883039 0.208715 0.125871
0.893086 0.211274 0.130686
0.901363 0.206907 0.134566
0.906162 0.202623 0.140842
0.910178 0.195202 0.151347
0.915468 0.172046 0.163723
0.917524 0.154374 0.206870
0.923356 0.083795 0.571554
0.921388 0.083507 0.566397
0.919409 0.083471 0.561284
0.917420 0.083762 0.556180
0.919599 0.151659 0.678200
0.079701 0.159408 0.085680
0.080767 0.155829 0.085832
0.085334 0.145837 0.085950
0.092123 0.132351 0.086238
0.102122 0.120659 0.086114
0.114565 0.114368 0.086282
0.143517 0.115891 0.086894
0.203056 0.123448 0.089068
0.257837 0.123973 0.089804
0.330930 0.129747 0.090988
0.438247 0.142779 0.093680
0.519902 0.150255 0.095589
0.575851 0.156109 0.097326
0.639700 0.164974 0.099914
0.697000 0.177782 0.103405
0.737955 0.183926 0.105519
0.769371 0.191067 0.108107
0.796877 0.201609 0.111293
0.824963 0.212954 0.115584
0.848843 0.215387 0.118340
0.863923 0.218305 0.121419
0.876394 0.222533 0.125687
0.887788 0.224879 0.130355
0.897875 0.220343 0.134044
0.903300 0.215853 0.139444
0.907693 0.208398 0.148902
0.913254 0.182759 0.158373
0.915646 0.164883 0.187815
0.921895 0.083858 0.567771
0.920047 0.083538 0.562933
0.918176 0.083486 0.558119
0.920464 0.152305 0.553284
0.918546 0.150824 0.675870
0.083810 0.228008 0.087808
0.084964 0.225713 0.088052
0.088745 0.211515 0.088477
0.096129 0.186769 0.088553
0.105564 0.165067 0.088490
0.118500 0.147705 0.088416
0.138629 0.136577 0.088649
0.177620 0.140238 0.089793
0.221500 0.138041 0.090342
0.286716 0.143163 0.091351
0.383781 0.158128 0.094145
0.467174 0.164606 0.096087
0.536730 0.168635 0.097626
0.602663 0.176952 0.100241
0.671515 0.191673 0.103746
0.712729 0.200227 0.105990
0.752074 0.205599 0.108403
0.780597 0.214741 0.111456
0.809314 0.228024 0.115740
0.833387 0.232637 0.118496
0.853970 0.238142 0.121566
0.867477 0.243640 0.125761
0.880327 0.245438 0.130251
0.891723 0.240539 0.133747
0.899542 0.235648 0.138397
0.904457 0.228142 0.146905
0.910369 0.202768 0.154331
0.913224 0.180790 0.173281
0.920110 0.084025 0.563194
0.918403 0.083588 0.558710
0.916660 0.083509 0.554250
0.919060 0.151229 0.549522
0.917246 0.149799 0.672510
0.087888 0.316204 0.090394
0.088718 0.313654 0.090553
0.093326 0.301861 0.091036
0.100647 0.271111 0.091126
0.110214 0.238541 0.091050
0.123998 0.210254 0.091088
0.145194 0.187942 0.091068
0.171718 0.175327 0.091248
0.197525 0.160296 0.091054
0.251820 0.162315 0.092116
0.337329 0.176419 0.094851
0.413019 0.180922 0.096727
0.487563 0.183719 0.098256
0.562210 0.193021 0.100804
0.640568 0.209715 0.104162
0.685566 0.216594 0.106401
0.725122 0.222713 0.108819
0.762475 0.233292 0.111869
0.792030 0.246788 0.116138
0.817327 0.249557 0.118744
0.840983 0.253750 0.121692
0.858681 0.260237 0.125831
0.871935 0.265849 0.130287
0.884191 0.265439 0.133748
0.893088 0.265648 0.138152
0.900249 0.258049 0.145940
0.906594 0.235222 0.152608
0.910120 0.211394 0.164977
0.918037 0.084553 0.558010
0.916483 0.083696 0.553822
0.914885 0.083583 0.549540
0.917410 0.149928 0.544709
0.915717 0.148600 0.667798
0.089577 0.367358 0.091476
0.090319 0.365072 0.091645
0.094216 0.350357 0.092123
0.100684 0.320392 0.092418
0.109083 0.287076 0.092493
0.120829 0.256887 0.092439
0.139184 0.231403 0.092531
0.160838 0.211112 0.092607
0.190307 0.196505 0.092918
0.229186 0.187003 0.093398
0.301634 0.201197 0.095957
0.367197 0.204576 0.097577
0.436777 0.206247 0.099174
0.520986 0.214443 0.101510
0.599213 0.230672 0.104769
0.656659 0.236479 0.107088
0.697796 0.242143 0.109390
0.740934 0.252051 0.112336
0.774798 0.265672 0.116628
0.799879 0.270253 0.119219
0.823804 0.276697 0.122164
0.847278 0.281462 0.126191
0.863101 0.285830 0.130457
0.876450 0.284272 0.133716
0.886892 0.283721 0.137732
0.894997 0.282529 0.145330
0.902279 0.270902 0.152464
0.906123 0.259662 0.163291
0.915931 0.090227 0.553900
0.914331 0.084376 0.548119
0.912884 0.083813 0.543728
0.915542 0.148464 0.539314
0.913981 0.147248 0.662480
0.093114 0.438113 0.094040
0.093908 0.433887 0.094110
0.096879 0.417511 0.094289
0.102501 0.392706 0.094604
0.110298 0.357900 0.094779
0.121587 0.322268 0.094822
0.138535 0.290542 0.094887
0.158538 0.265816 0.094981
0.185293 0.246146 0.095188
0.220303 0.231527 0.095579
0.279104 0.237353 0.097596
0.332281 0.233588 0.098851
0.393048 0.232599 0.100225
0.472315 0.239113 0.102416
0.558997 0.254966 0.105689
0.618391 0.259488 0.107949
0.669526 0.263947 0.110139
0.713863 0.273005 0.112964
0.757421 0.287710 0.117370
0.782732 0.292170 0.119866
0.807752 0.296363 0.122623
0.831535 0.304511 0.126696
0.852912 0.313179 0.130955
0.867133 0.312318 0.134070
0.879055 0.309974 0.137840
0.888702 0.307414 0.144904
0.898302 0.294345 0.151268
0.902720 0.282079 0.160453
0.907262 0.256715 0.173869
0.910061 0.225559 0.217330
0.912938 0.149686 0.497994
0.913488 0.146867 0.536478
0.912067 0.145768 0.656652
0.098552 0.518270 0.098089
0.099164 0.514568 0.098122
0.101570 0.502492 0.098298
0.107094 0.484730 0.098798
0.115147 0.456413 0.099099
0.126758 0.422508 0.099284
0.144697 0.388542 0.099419
0.165579 0.354315 0.099527
0.192923 0.325515 0.099660
0.228098 0.302515 0.099989
0.268685 0.286432 0.100513
0.311518 0.272805 0.100938
0.357993 0.262691 0.101504
0.429822 0.267387 0.103473
0.522126 0.282740 0.106947
0.579965 0.285480 0.109050
0.637410 0.288340 0.111033
0.686694 0.296946 0.113774
0.734505 0.313351 0.118274
0.765732 0.316652 0.120616
0.790954 0.322696 0.123474
0.815401 0.332441 0.127459
0.839298 0.338819 0.131470
0.858005 0.339130 0.134486
0.870339 0.341666 0.138423
0.880814 0.344754 0.145263
0.891847 0.330038 0.150983
0.898798 0.314997 0.158802
0.903829 0.287841 0.168832
0.907120 0.254784 0.193795
0.910427 0.163498 0.432856
0.911284 0.145169 0.539557
0.910005 0.144192 0.539208
0.101419 0.561739 0.100886
0.101932 0.558534 0.100913
0.103916 0.547863 0.101048
0.108976 0.531632 0.101459
0.116098 0.509494 0.101770
0.127348 0.484571 0.102065
0.144490 0.454159 0.102341
0.163401 0.422351 0.102447
0.188563 0.393515 0.102584
0.220777 0.365680 0.102783
0.258420 0.342990 0.103117
0.300261 0.325633 0.103647
0.338983 0.304502 0.103566
0.394872 0.299627 0.104699
0.481524 0.315510 0.108407
0.544814 0.316230 0.110284
0.601004 0.318143 0.112177
0.660139 0.326651 0.115060
0.708871 0.342526 0.119263
0.747170 0.345092 0.121524
0.774607 0.351912 0.124555
0.800000 0.359820 0.128312
0.824125 0.369015 0.132287
0.846606 0.371594 0.135254
0.861741 0.371720 0.139250
0.873379 0.373052 0.145700
0.885191 0.365540 0.151204
0.892750 0.358884 0.158470
0.899781 0.337313 0.167168
0.903753 0.299139 0.182291
0.907590 0.197252 0.322903
0.908967 0.143405 0.532916
0.907830 0.142545 0.536049
0.103482 0.597254 0.102900
0.103920 0.594476 0.102927
0.105592 0.585088 0.103048
0.110118 0.570205 0.103385
0.116992 0.550713 0.103790
0.127452 0.527687 0.104147
0.142528 0.502777 0.104394
0.159914 0.478060 0.104613
0.182960 0.448867 0.104763
0.212143 0.422041 0.104934
0.246704 0.399260 0.105224
0.284559 0.377756 0.105668
0.327161 0.360689 0.106389
0.376279 0.349394 0.107403
0.446143 0.354277 0.110076
0.513930 0.353032 0.111766
0.567965 0.352945 0.113441
0.629108 0.360421 0.116545
0.684237 0.375526 0.120689
0.722783 0.376756 0.122724
0.758525 0.382005 0.125659
0.784650 0.390864 0.129406
0.809359 0.400694 0.133342
0.832781 0.400879 0.136042
0.852700 0.404295 0.140476
0.864863 0.409026 0.146896
0.877847 0.400570 0.151793
0.886955 0.392520 0.158258
0.894962 0.376754 0.166126
0.900107 0.354663 0.178512
0.903568 0.320152 0.206837
0.906575 0.141679 0.526139
0.905575 0.140887 0.534017
0.106264 0.630674 0.105624
0.106755 0.628985 0.105660
0.108616 0.623193 0.105816
0.112473 0.613676 0.106217
0.119720 0.600601 0.106911
0.129626 0.578680 0.107396
0.143671 0.554727 0.107776
0.160544 0.530402 0.108153
0.182222 0.506797 0.108469
0.209412 0.484525 0.108692
0.242169 0.461446 0.108947
0.278730 0.439477 0.109384
0.318511 0.420864 0.109850
0.363045 0.406064 0.110570
0.428381 0.407873 0.112988
0.481075 0.395201 0.113545
0.539193 0.391163 0.115255
0.597469 0.396676 0.118098
0.660389 0.409192 0.122118
0.699466 0.409720 0.124400
0.738704 0.413187 0.127160
0.769754 0.420605 0.130695
0.795279 0.428458 0.134438
0.818688 0.430452 0.137111
0.840117 0.434653 0.142000
0.857002 0.437404 0.147985
0.870230 0.433713 0.152828
0.879939 0.431445 0.158982
0.889368 0.416628 0.165795
0.896008 0.395661 0.175519
0.900595 0.358705 0.193602
0.903115 0.309431 0.303137
0.904578 0.253736 0.531544
0.110677 0.669441 0.110229
0.111120 0.667977 0.110266
0.112782 0.662914 0.110420
0.116517 0.654402 0.110792
0.123983 0.643667 0.111566
0.134188 0.629365 0.112040
0.148088 0.613668 0.112582
0.164975 0.593733 0.112952
0.186486 0.569854 0.113339
0.213923 0.546817 0.113667
0.246558 0.525542 0.114109
0.281902 0.506336 0.114478
0.321029 0.489579 0.115064
0.363923 0.475306 0.115702
0.413897 0.460212 0.116605
0.463241 0.444186 0.117014
0.516484 0.431000 0.117602
0.569792 0.431872 0.119951
0.633928 0.443177 0.124012
0.677272 0.442273 0.126133
0.716716 0.444971 0.128822
0.755390 0.451837 0.132246
0.781522 0.458948 0.135785
0.805074 0.461679 0.138730
0.827410 0.464665 0.143660
0.847556 0.470279 0.149617
0.862638 0.467294 0.154196
0.873461 0.462922 0.159794
0.883516 0.454880 0.166289
0.890732 0.442734 0.174797
0.896945 0.411115 0.187410
0.900335 0.358425 0.234812
0.902239 0.262765 0.516374
0.112964 0.693596 0.112700
0.113358 0.692313 0.112735
0.114870 0.687848 0.112874
0.118523 0.680215 0.113198
0.124922 0.670240 0.113935
0.135387 0.657673 0.114693
0.149113 0.643543 0.115588
0.163979 0.627454 0.116005
0.183918 0.611230 0.116497
0.209870 0.591817 0.117068
0.240191 0.569926 0.117400
0.273390 0.549954 0.117831
0.310549 0.532113 0.118347
0.351238 0.516268 0.118945
0.397130 0.502911 0.119634
0.448251 0.491753 0.120542
0.498373 0.479356 0.120909
0.548896 0.473351 0.122386
0.606973 0.478992 0.126209
0.656715 0.477415 0.128191
0.695833 0.478223 0.130604
0.736445 0.482905 0.133926
0.768187 0.488018 0.137338
0.792207 0.489352 0.140914
0.814905 0.492262 0.145706
0.835799 0.496836 0.151474
0.855237 0.494834 0.155752
0.866457 0.494610 0.161287
0.877383 0.488747 0.167290
0.885924 0.477824 0.174460
0.892426 0.457884 0.185105
0.896813 0.430096 0.211319
0.899750 0.313416 0.456914
0.115101 0.716490 0.115335
0.115539 0.715360 0.115374
0.117168 0.711403 0.115532
0.120406 0.704550 0.115889
0.126366 0.695351 0.116586
0.136917 0.684215 0.117489
0.148246 0.670751 0.118182
0.162781 0.656198 0.118848
0.181685 0.640937 0.119431
0.205511 0.625527 0.119962
0.234188 0.610538 0.120482
0.265887 0.592961 0.120926
0.301329 0.574124 0.121367
0.339041 0.557509 0.121958
0.382186 0.542661 0.122610
0.430517 0.529998 0.123471
0.482848 0.519469 0.124570
0.535102 0.512460 0.126158
0.587497 0.512662 0.129223
0.632911 0.506041 0.130284
0.676641 0.506206 0.132623
0.716905 0.509941 0.135764
0.755246 0.514661 0.139853
0.779735 0.515352 0.143411
0.802934 0.518470 0.148070
0.824647 0.522361 0.153537
0.846146 0.522141 0.157724
0.859801 0.521430 0.162852
0.871325 0.517645 0.168663
0.880335 0.511444 0.175333
0.888007 0.495590 0.183922
0.893029 0.470880 0.201190
0.896465 0.427664 0.320944
0.118239 0.742301 0.118854
0.118641 0.741306 0.118891
0.120125 0.737806 0.119035
0.123045 0.731677 0.119354
0.129177 0.723275 0.119963
0.140013 0.713382 0.121009
0.149699 0.700781 0.121564
0.164772 0.687480 0.122438
0.182437 0.673086 0.123190
0.204604 0.658307 0.123810
0.232260 0.643799 0.124513
0.263004 0.629635 0.125121
0.297210 0.616331 0.125794
0.333104 0.603941 0.126322
0.374170 0.588263 0.127113
0.420126 0.574313 0.127902
0.470419 0.562196 0.128793
0.522841 0.552180 0.129931
0.573410 0.551147 0.132899
0.615159 0.540990 0.133389
0.658579 0.535254 0.134697
0.698710 0.538357 0.137747
0.738507 0.542420 0.142846
0.767625 0.542495 0.146190
0.791514 0.545492 0.150709
0.813854 0.549105 0.155949
0.835706 0.549257 0.159908
0.853257 0.549160 0.164881
0.865124 0.548091 0.170587
0.875178 0.540472 0.176426
0.883490 0.529558 0.184116
0.889019 0.514093 0.197274
0.893066 0.477589 0.254809
0.122120 0.770657 0.123338
0.122492 0.769787 0.123380
0.123863 0.766713 0.123541
0.127230 0.761281 0.123890
0.133431 0.753711 0.124540
0.143277 0.744580 0.125675
0.153259 0.733356 0.126517
0.168079 0.720947 0.127565
0.184975 0.707582 0.128408
0.207827 0.693781 0.129278
0.235048 0.679662 0.129964
0.265087 0.665963 0.130747
0.297463 0.652706 0.131379
0.332853 0.640305 0.132040
0.372333 0.628714 0.132675
0.418131 0.618423 0.133564
0.466230 0.609288 0.134430
0.518190 0.599922 0.135329
0.560564 0.590390 0.136527
0.601043 0.579088 0.136860
0.645125 0.571261 0.137926
0.681854 0.567915 0.141064
0.721332 0.571294 0.145996
0.756080 0.570870 0.149189
0.780372 0.573017 0.153487
0.803462 0.576607 0.158610
0.825796 0.576556 0.162290
0.844804 0.577765 0.167312
0.859501 0.576044 0.172494
0.869901 0.571692 0.178132
0.878872 0.563108 0.185117
0.885417 0.546205 0.195260
0.889696 0.521535 0.228048
0.123831 0.791431 0.125888
0.124175 0.790649 0.125928
0.125695 0.787879 0.126081
0.129113 0.782947 0.126407
0.134739 0.775976 0.127001
0.143502 0.767362 0.128019
0.153927 0.757183 0.129084
0.166643 0.745409 0.129960
0.183718 0.732945 0.131005
0.205154 0.719836 0.131956
0.229689 0.706345 0.132649
0.257967 0.693023 0.133418
0.289234 0.680066 0.134169
0.323269 0.667725 0.134876
0.360688 0.656218 0.135613
0.403891 0.645490 0.136320
0.450226 0.636024 0.137221
0.500664 0.627607 0.138404
0.545014 0.620039 0.139879
0.588083 0.613808 0.141781
0.630921 0.607394 0.143149
0.670918 0.604371 0.146166
0.705850 0.601820 0.149549
0.741851 0.600293 0.152355
0.769831 0.601837 0.156508
0.793368 0.604506 0.161425
0.816173 0.604485 0.165019
0.835798 0.605577 0.169940
0.853870 0.604935 0.174817
0.864737 0.602673 0.180123
0.874476 0.594806 0.186345
0.881437 0.583194 0.195298
0.886535 0.559183 0.216438
0.126046 0.804120 0.128669
0.126491 0.803758 0.128708
0.128128 0.802473 0.128855
0.131297 0.800164 0.129164
0.136462 0.796855 0.129716
0.144379 0.790170 0.130645
0.155337 0.780903 0.131941
0.166684 0.769935 0.132689
0.184378 0.758304 0.133958
0.202258 0.745794 0.134687
0.227075 0.733075 0.135617
0.255064 0.720252 0.136490
0.284336 0.707645 0.137272
0.316597 0.695426 0.138089
0.352438 0.683997 0.139362
0.393478 0.673297 0.140606
0.437606 0.663474 0.141842
0.485634 0.654685 0.143282
0.533000 0.646953 0.144886
0.573967 0.640001 0.146452
0.617740 0.634205 0.148363
0.660520 0.630141 0.151225
0.695316 0.627751 0.154514
0.727788 0.623435 0.156063
0.759650 0.623082 0.159660
0.783780 0.624835 0.164567
0.806981 0.624719 0.168043
0.827349 0.625486 0.172677
0.847096 0.625687 0.177432
0.859907 0.623887 0.182210
0.870084 0.620525 0.188172
0.877752 0.612752 0.195818
0.883331 0.597133 0.211409
0.129195 0.814731 0.131984
0.129616 0.814416 0.132022
0.131157 0.813297 0.132167
0.134126 0.811279 0.132466
0.138922 0.808360 0.132991
0.146176 0.804616 0.133857
0.156991 0.800215 0.135237
0.168378 0.794647 0.136059
0.183741 0.783762 0.137159
0.202636 0.772192 0.138388
0.227114 0.760114 0.139989
0.251885 0.747996 0.141310
0.280838 0.735911 0.142740
0.312751 0.724017 0.144066
0.347241 0.712601 0.145253
0.386282 0.702054 0.146700
0.429199 0.692168 0.148013
0.475682 0.683142 0.149429
0.523762 0.674943 0.150928
0.564576 0.667832 0.152640
0.606203 0.661481 0.154333
0.650593 0.656098 0.156252
0.685173 0.652873 0.159425
0.717532 0.648314 0.160777
0.750505 0.645290 0.163435
0.774415 0.645328 0.167929
0.798187 0.645255 0.171246
0.819282 0.645827 0.175702
0.839484 0.646241 0.180244
0.855207 0.645070 0.184679
0.865965 0.642437 0.190176
0.874187 0.636389 0.197073
0.880166 0.625593 0.209481
0.132056 0.825094 0.135119
0.132454 0.824819 0.135156
0.133912 0.823837 0.135299
0.136709 0.822057 0.135590
0.141194 0.819464 0.136094
0.147904 0.816097 0.136913
0.157920 0.812059 0.138468
0.170355 0.807404 0.140238
0.184027 0.802170 0.141793
0.204114 0.796552 0.143852
0.225146 0.786186 0.145172
0.250878 0.774641 0.146815
0.279703 0.763137 0.148551
0.309047 0.751708 0.149870
0.342086 0.740571 0.151142
0.379467 0.730053 0.152548
0.421505 0.720255 0.154078
0.466885 0.711155 0.155571
0.515808 0.702825 0.157087
0.555451 0.695254 0.158689
0.596682 0.688740 0.160456
0.639473 0.682970 0.162300
0.675347 0.678011 0.164318
0.707608 0.673129 0.165613
0.740531 0.669614 0.168299
0.766658 0.667558 0.172048
0.789632 0.665873 0.174499
0.811449 0.666230 0.178793
0.832478 0.666689 0.183217
0.850613 0.666147 0.187446
0.862068 0.664002 0.192356
0.870745 0.659761 0.198885
0.877313 0.649610 0.208809
0.133317 0.834888 0.136957
0.133693 0.834641 0.136993
0.135068 0.833757 0.137128
0.137697 0.832148 0.137401
0.141889 0.829785 0.137949
0.148109 0.826677 0.139156
0.157170 0.822877 0.141052
0.170661 0.818514 0.143300
0.182699 0.813682 0.144681
0.201883 0.808395 0.146850
0.222049 0.802836 0.148363
0.247919 0.796998 0.150217
0.272865 0.787448 0.151725
0.302689 0.776445 0.153417
0.335722 0.765588 0.154992
0.370441 0.755226 0.156319
0.410427 0.745508 0.157873
0.454129 0.736404 0.159400
0.501585 0.728033 0.161003
0.543609 0.720379 0.162585
0.584073 0.713513 0.164363
0.625862 0.707527 0.166237
0.664851 0.702360 0.168312
0.697984 0.697914 0.170484
0.730720 0.693832 0.173081
0.760150 0.691228 0.176736
0.782803 0.688525 0.178588
0.803815 0.686761 0.181948
0.825632 0.687167 0.186114
0.844495 0.687053 0.190460
0.858381 0.685605 0.194880
0.867577 0.681926 0.200574
0.874604 0.673963 0.209305
0.135038 0.843086 0.139918
0.135394 0.842871 0.139973
0.136691 0.842101 0.140181
0.139165 0.840694 0.140599
0.143091 0.838616 0.141315
0.148874 0.835860 0.142464
0.157233 0.832442 0.144255
0.171806 0.828416 0.147007
0.182700 0.824083 0.148270
0.199626 0.819265 0.150220
0.221180 0.814127 0.152312
0.243441 0.808772 0.153939
0.269644 0.803308 0.155789
0.298530 0.797837 0.157658
0.328295 0.789770 0.159187
0.362443 0.779738 0.160798
0.402069 0.770131 0.162431
0.444822 0.761081 0.164157
0.490461 0.752725 0.165852
0.534053 0.745076 0.167654
0.573126 0.738132 0.169433
0.614014 0.731953 0.171305
0.655226 0.726449 0.173222
0.687886 0.721837 0.175422
0.721125 0.717855 0.177702
0.753597 0.714643 0.181290
0.776787 0.712109 0.182995
0.797863 0.709364 0.185935
0.819029 0.707791 0.189136
0.838782 0.707699 0.193105
0.854983 0.707012 0.197602
0.864659 0.704185 0.202634
0.872066 0.697584 0.210329
0.136804 0.850485 0.143359
0.137140 0.850299 0.143415
0.138363 0.849633 0.143623
0.140690 0.848412 0.144038
0.144369 0.846599 0.144743
0.149764 0.844175 0.145866
0.157577 0.841134 0.147602
0.170962 0.837488 0.150253
0.183426 0.833545 0.152151
0.198545 0.829226 0.153945
0.221662 0.824461 0.156642
0.241173 0.819635 0.158107
0.268432 0.814476 0.160332
0.293500 0.809469 0.161974
0.324362 0.804369 0.163989
0.357161 0.799381 0.165824
0.393866 0.793845 0.167636
0.434990 0.785047 0.169489
0.479589 0.776751 0.171310
0.525001 0.769124 0.173163
0.563314 0.762165 0.175055
0.603485 0.755909 0.176984
0.645448 0.750302 0.178927
0.678725 0.745333 0.180921
0.711386 0.741244 0.183252
0.744773 0.737712 0.185637
0.770724 0.735482 0.187211
0.792323 0.732400 0.190115
0.814152 0.730518 0.192964
0.833514 0.728586 0.196021
0.851788 0.728062 0.200189
0.861971 0.726214 0.204901
0.869930 0.720672 0.211760
0.136637 0.860158 0.144435
0.136947 0.859991 0.144486
0.138080 0.859388 0.144678
0.140236 0.858279 0.145065
0.143650 0.856615 0.145729
0.148671 0.854357 0.146805
0.155860 0.851463 0.148501
0.168219 0.847889 0.151152
0.182404 0.843948 0.153865
0.195920 0.839947 0.155520
0.216044 0.835436 0.158032
0.237777 0.830788 0.160216
0.261381 0.825986 0.162217
0.288214 0.821094 0.164390
0.317369 0.816203 0.166543
0.348127 0.811481 0.168498
0.384903 0.806821 0.170585
0.424835 0.802366 0.172523
0.467051 0.798157 0.174391
0.513500 0.793097 0.176285
0.551874 0.786175 0.178206
0.591549 0.779900 0.180167
0.633255 0.774293 0.182164
0.669813 0.769350 0.184203
