negative-ektar-100/Ektar100_Modern_Soft.cube
TITLE "Kodak Ektar 100 Modern Soft"
# Adobe RGB in/out. REPLACES AgX. Kodak Ektar 100 Modern Soft.
LUT_3D_SIZE 5
DOMAIN_MIN 0.0 0.0 0.0
DOMAIN_MAX 1.0 1.0 1.0
0.061862 0.068788 0.085817
0.573530 0.090469 0.094742
0.788170 0.139744 0.112735
0.823783 0.182380 0.142507
0.825668 0.435482 0.661719
0.068518 0.305396 0.094759
0.120006 0.180039 0.098276
0.658738 0.253945 0.112912
0.803138 0.321490 0.135429
0.817997 0.414177 0.647297
0.077595 0.628515 0.108211
0.105309 0.592397 0.114470
0.410814 0.531023 0.120921
0.719039 0.539242 0.137846
0.798492 0.546670 0.331589
0.081851 0.729853 0.113334
0.099330 0.720216 0.120450
0.296204 0.694955 0.134708
0.607342 0.674503 0.148505
0.776486 0.673999 0.181993
0.075156 0.760474 0.085817
0.084010 0.774079 0.085817
0.148462 0.769470 0.106093
0.511925 0.751198 0.127779
0.765405 0.746640 0.133917
0.064840 0.101655 0.315437
0.578785 0.261624 0.611754
0.788888 0.256233 0.501003
0.818874 0.303403 0.529438
0.822802 0.427434 0.656326
0.078684 0.237570 0.222151
0.158763 0.161975 0.180396
0.700337 0.287089 0.268980
0.799122 0.357407 0.351517
0.815124 0.406417 0.641944
0.095372 0.601606 0.225137
0.140781 0.565117 0.215286
0.473312 0.509233 0.202713
0.734030 0.536746 0.236914
0.795571 0.560688 0.522453
0.095971 0.722277 0.189707
0.121932 0.712391 0.200109
0.362213 0.687977 0.214074
0.634288 0.670878 0.227756
0.775139 0.673326 0.275518
0.075015 0.765944 0.108584
0.083784 0.777033 0.108181
0.176223 0.767727 0.136240
0.526778 0.750689 0.176626
0.767426 0.746809 0.189848
0.069662 0.287533 0.690226
0.455103 0.490644 0.772242
0.801765 0.522271 0.768050
0.820515 0.477238 0.733216
0.821518 0.459415 0.726896
0.092185 0.463977 0.684729
0.320003 0.490724 0.715467
0.725465 0.485219 0.698574
0.800076 0.496243 0.696772
0.813370 0.437138 0.708818
0.110667 0.578502 0.560115
0.174148 0.553169 0.538879
0.503639 0.503505 0.503196
0.737544 0.558053 0.575763
0.791937 0.589786 0.667886
0.120096 0.710585 0.534733
0.165499 0.701993 0.526703
0.420274 0.680654 0.509460
0.666641 0.668042 0.504919
0.771532 0.680465 0.593779
0.079953 0.774158 0.570304
0.082056 0.774808 0.564716
0.242205 0.763452 0.484623
0.556270 0.750170 0.480310
0.767229 0.749541 0.496714
0.076076 0.542524 0.825830
0.312411 0.596477 0.843020
0.798341 0.621389 0.843861
0.829853 0.582711 0.812701
0.824840 0.496603 0.774956
0.098297 0.614252 0.829844
0.343012 0.645098 0.841161
0.759416 0.631219 0.824611
0.811151 0.590760 0.791011
0.816436 0.475371 0.763329
0.125054 0.634717 0.743827
0.217868 0.631255 0.745766
0.595148 0.620303 0.741685
0.753258 0.623922 0.740878
0.793285 0.626675 0.743584
0.129401 0.708112 0.700596
0.183183 0.702400 0.696957
0.444265 0.687125 0.690520
0.674495 0.674512 0.684051
0.769678 0.693431 0.721256
0.079760 0.770760 0.652293
0.082258 0.772571 0.648565
0.242839 0.764164 0.661017
0.560393 0.753510 0.655102
0.766431 0.759575 0.697092
0.294389 0.659521 0.885853
0.661710 0.663540 0.885854
0.827863 0.675568 0.885932
0.845228 0.653574 0.868609
0.829268 0.554280 0.838846
0.347887 0.683859 0.885328
0.646247 0.687563 0.885379
0.822453 0.695059 0.883419
0.829852 0.654708 0.855540
0.821131 0.545678 0.832356
0.299095 0.703941 0.848596
0.490159 0.698949 0.844955
0.738924 0.687031 0.834439
0.790777 0.671938 0.817793
0.799768 0.652070 0.804832
0.156649 0.730118 0.801809
0.254189 0.725796 0.798192
0.601937 0.715321 0.788499
0.740439 0.708252 0.780836
0.775960 0.707010 0.779106
0.077366 0.764322 0.736980
0.082119 0.772699 0.745665
0.142891 0.775225 0.762689
0.536741 0.770085 0.772118
0.766213 0.771270 0.770652
