negative-ektar-100/Ektar100_Classic_Normal.cube
TITLE "Kodak Ektar 100 Classic Normal"
# Adobe RGB in/out. REPLACES AgX. Kodak Ektar 100 Classic Normal.
LUT_3D_SIZE 33
DOMAIN_MIN 0.0 0.0 0.0
DOMAIN_MAX 1.0 1.0 1.0
0.074251 0.074802 0.087322
0.077665 0.077847 0.087956
0.082926 0.081050 0.088348
0.090244 0.084534 0.088858
0.101471 0.088278 0.089376
0.116497 0.093149 0.089802
0.138130 0.098136 0.090257
0.165750 0.102634 0.090765
0.196365 0.109775 0.091222
0.232399 0.117276 0.091692
0.270502 0.126708 0.092384
0.309052 0.135892 0.093015
0.347152 0.145617 0.093594
0.386336 0.157405 0.094387
0.423410 0.170834 0.095376
0.456185 0.185179 0.096567
0.487674 0.200572 0.097866
0.519230 0.216196 0.099405
0.546029 0.232039 0.101144
0.572219 0.250108 0.102816
0.598227 0.268821 0.104428
0.624061 0.287919 0.107010
0.649731 0.307391 0.109682
0.669025 0.326243 0.112297
0.686220 0.343717 0.114859
0.703129 0.361357 0.118244
0.718545 0.378467 0.121648
0.732762 0.395632 0.125017
0.743934 0.412908 0.128351
0.754875 0.430294 0.132447
0.765598 0.447784 0.137264
0.776114 0.464465 0.142089
0.786434 0.478805 0.146922
0.074975 0.080415 0.087862
0.077795 0.081031 0.088044
0.083004 0.082956 0.088397
0.090310 0.085958 0.088901
0.101540 0.089469 0.089400
0.116569 0.094350 0.089822
0.138207 0.098995 0.090270
0.165831 0.103567 0.090778
0.196437 0.110720 0.091232
0.232473 0.118378 0.091706
0.270571 0.127654 0.092395
0.309110 0.136716 0.093024
0.347207 0.146585 0.093602
0.386387 0.158283 0.094398
0.423452 0.171781 0.095388
0.456219 0.186140 0.096581
0.487705 0.201476 0.097879
0.519259 0.217048 0.099422
0.546052 0.232846 0.101158
0.572241 0.250986 0.102829
0.598246 0.269664 0.104440
0.624079 0.288731 0.107029
0.649749 0.308173 0.109699
0.669036 0.326899 0.112313
0.686231 0.344347 0.114874
0.703139 0.361962 0.118264
0.718554 0.379024 0.121667
0.732768 0.396168 0.125034
0.743939 0.413425 0.128368
0.754880 0.430792 0.132471
0.765603 0.448266 0.137286
0.776119 0.464843 0.142110
0.786438 0.479169 0.146943
0.076002 0.086497 0.088197
0.078209 0.086825 0.088290
0.083276 0.088235 0.088590
0.090543 0.090493 0.089039
0.101788 0.094172 0.089478
0.116828 0.097982 0.089890
0.138483 0.101728 0.090322
0.166122 0.107476 0.090824
0.196694 0.113919 0.091266
0.232740 0.122179 0.091757
0.270817 0.130944 0.092436
0.309322 0.139598 0.093057
0.347403 0.149998 0.093630
0.386570 0.161681 0.094438
0.423605 0.175147 0.095430
0.456341 0.189560 0.096632
0.487819 0.204695 0.097924
0.519365 0.220089 0.099480
0.546134 0.235983 0.101211
0.572317 0.254127 0.102877
0.598318 0.272682 0.104483
0.624146 0.291635 0.107099
0.649811 0.310973 0.109764
0.669076 0.329247 0.112373
0.686269 0.346600 0.114930
0.703175 0.364074 0.118335
0.718583 0.381020 0.121734
0.732790 0.398088 0.125098
0.743960 0.415276 0.128428
0.754899 0.432578 0.132554
0.765621 0.449991 0.137367
0.776136 0.466200 0.142188
0.786454 0.480474 0.147018
0.076932 0.094961 0.088544
0.078817 0.095267 0.088620
0.083748 0.096315 0.088871
0.090962 0.098064 0.089246
0.102238 0.100344 0.089606
0.117302 0.103151 0.090006
0.138988 0.108276 0.090432
0.166656 0.113662 0.090905
0.197166 0.120705 0.091327
0.233230 0.128612 0.091849
0.271270 0.136599 0.092510
0.309711 0.145291 0.093118
0.347764 0.156034 0.093680
0.386907 0.168172 0.094509
0.423886 0.181266 0.095507
0.456566 0.195732 0.096726
0.488027 0.210518 0.098006
0.519559 0.225600 0.099587
0.546284 0.241945 0.101307
0.572457 0.259849 0.102964
0.598449 0.278185 0.104562
0.624269 0.296937 0.107226
0.649927 0.316089 0.109881
0.669150 0.333533 0.112482
0.686338 0.350717 0.115037
0.703239 0.367869 0.118466
0.718637 0.384668 0.121858
0.732830 0.401602 0.125215
0.743997 0.418663 0.128539
0.754934 0.435848 0.132709
0.765654 0.453151 0.137515
0.776167 0.468683 0.142331
0.786484 0.482862 0.147156
0.078225 0.103386 0.088965
0.079529 0.103710 0.089027
0.084395 0.104849 0.089217
0.091567 0.106847 0.089482
0.102900 0.109628 0.089782
0.118005 0.113058 0.090160
0.139741 0.117641 0.090583
0.167453 0.123755 0.091018
0.197871 0.130310 0.091415
0.233962 0.137182 0.091981
0.271946 0.144845 0.092617
0.310292 0.154556 0.093206
0.348303 0.165391 0.093759
0.387410 0.177467 0.094615
0.424305 0.190752 0.095620
0.456902 0.204691 0.096864
0.488338 0.219002 0.098128
0.519849 0.233653 0.099746
0.546510 0.250712 0.101450
0.572667 0.268279 0.103093
0.598645 0.286305 0.104717
0.624453 0.304770 0.107415
0.650100 0.323140 0.110056
0.669261 0.339864 0.112645
0.686442 0.356804 0.115245
0.703337 0.373482 0.118661
0.718718 0.390071 0.122042
0.732889 0.406807 0.125389
0.744053 0.423685 0.128704
0.754987 0.440699 0.132939
0.765703 0.457842 0.137737
0.776213 0.472365 0.142544
0.786528 0.486406 0.147362
0.079316 0.116453 0.089367
0.080662 0.116768 0.089406
0.085177 0.117888 0.089531
0.092345 0.119895 0.089721
0.103773 0.122777 0.090025
0.118942 0.126469 0.090353
0.140851 0.130875 0.090767
0.168525 0.135885 0.091160
0.198937 0.141390 0.091526
0.234949 0.148871 0.092151
0.272858 0.157246 0.092756
0.311076 0.167168 0.093322
0.349031 0.178027 0.093922
0.388090 0.190167 0.094789
0.424872 0.203018 0.095770
0.457355 0.216335 0.097047
0.488759 0.230076 0.098290
0.520241 0.245657 0.099959
0.546815 0.262292 0.101641
0.572951 0.279440 0.103266
0.598910 0.297075 0.104992
0.624701 0.315177 0.107669
0.650333 0.331884 0.110292
0.669411 0.348273 0.112864
0.686582 0.364814 0.115524
0.703468 0.380954 0.118924
0.718828 0.397269 0.122290
0.732970 0.413751 0.125624
0.744128 0.430391 0.128927
0.755058 0.447182 0.133249
0.765770 0.463438 0.138035
0.776276 0.477283 0.142832
0.786587 0.491143 0.147663
0.080734 0.133132 0.089697
0.082329 0.133374 0.089724
0.086053 0.134236 0.089844
0.093616 0.135792 0.090036
0.104850 0.138057 0.090275
0.120114 0.141004 0.090617
0.142279 0.145254 0.090974
0.169882 0.150797 0.091323
0.200291 0.157060 0.091751
0.236202 0.164702 0.092354
0.274017 0.173504 0.092925
0.312071 0.183189 0.093463
0.349955 0.194137 0.094121
0.388953 0.205703 0.095003
0.425591 0.217832 0.096006
0.457931 0.230475 0.097276
0.489294 0.244952 0.098510
0.520739 0.260497 0.100225
0.547202 0.276617 0.101881
0.573311 0.293282 0.103483
0.599246 0.310465 0.105339
0.625016 0.327039 0.107989
0.650630 0.342749 0.110589
0.669602 0.358740 0.113140
0.686760 0.374486 0.115876
0.703634 0.390275 0.119256
0.718967 0.406263 0.122605
0.733072 0.422438 0.125922
0.744224 0.438791 0.129209
0.755148 0.455310 0.133643
0.765855 0.469836 0.138414
0.776356 0.483445 0.143197
0.786663 0.497083 0.148058
0.082698 0.151275 0.090072
0.083904 0.151534 0.090098
0.087659 0.152462 0.090186
0.095267 0.154150 0.090342
0.106119 0.156633 0.090598
0.121518 0.159953 0.090889
0.144005 0.164702 0.091195
0.171529 0.170336 0.091503
0.201939 0.176806 0.092030
0.237727 0.184391 0.092586
0.275428 0.193095 0.093119
0.313284 0.202556 0.093627
0.351082 0.212718 0.094356
0.390005 0.223527 0.095256
0.426469 0.235078 0.096314
0.458633 0.248724 0.097548
0.489946 0.263045 0.098865
0.521347 0.278005 0.100544
0.547674 0.293570 0.102169
0.573751 0.309709 0.103745
0.599657 0.325521 0.105757
0.625401 0.340426 0.108377
0.650992 0.355662 0.110949
0.669834 0.370858 0.113475
0.686977 0.386014 0.116304
0.703838 0.401407 0.119660
0.719137 0.417021 0.122986
0.733197 0.432845 0.126283
0.744342 0.448866 0.129635
0.755258 0.464217 0.134123
0.765958 0.477501 0.138876
0.776454 0.490836 0.143642
0.786755 0.504217 0.148539
0.084438 0.174482 0.090443
0.085377 0.174743 0.090469
0.089488 0.175677 0.090560
0.097092 0.177386 0.090714
0.107565 0.179912 0.090919
0.123319 0.183540 0.091160
0.146030 0.188115 0.091422
0.173469 0.193590 0.091817
0.203902 0.199936 0.092332
0.239532 0.207120 0.092840
0.277099 0.215098 0.093334
0.314720 0.223825 0.093855
0.352416 0.233257 0.094624
0.391253 0.244675 0.095545
0.427508 0.256948 0.096669
0.459466 0.269953 0.097862
0.490718 0.283654 0.099276
0.522022 0.298016 0.100914
0.548234 0.313006 0.102505
0.574272 0.327433 0.104050
0.600144 0.341422 0.106248
0.625858 0.355794 0.108831
0.651421 0.370203 0.111371
0.670110 0.384623 0.113869
0.687235 0.399322 0.116808
0.704079 0.414282 0.120136
0.719338 0.429487 0.123436
0.733345 0.444923 0.126710
0.744481 0.460556 0.130149
0.755388 0.473439 0.134689
0.766081 0.486399 0.139422
0.776570 0.499429 0.144168
0.786865 0.512521 0.149109
0.086004 0.201276 0.090845
0.087220 0.201529 0.090865
0.091347 0.202435 0.090936
0.099060 0.204095 0.091058
0.109377 0.206558 0.091226
0.125796 0.209851 0.091427
0.148352 0.213982 0.091738
0.175704 0.218946 0.092188
0.206172 0.224728 0.092650
0.241620 0.231303 0.093112
0.279033 0.239306 0.093568
0.316384 0.248530 0.094191
0.353963 0.258593 0.094990
0.392699 0.269465 0.095880
0.428714 0.281110 0.097065
0.460431 0.293495 0.098215
0.491614 0.306588 0.099741
0.522722 0.320267 0.101334
0.548883 0.332788 0.102887
0.574877 0.345772 0.104398
0.600709 0.359189 0.106809
0.626388 0.372586 0.109352
0.651919 0.386179 0.111855
0.670430 0.400095 0.114321
0.687534 0.414314 0.117388
0.704360 0.428817 0.120684
0.719572 0.443587 0.123955
0.733517 0.458608 0.127202
0.744642 0.471357 0.130743
0.755540 0.483870 0.135344
0.766224 0.496480 0.140053
0.776705 0.509177 0.144777
0.786992 0.521954 0.149768
0.088502 0.229301 0.091205
0.089670 0.229530 0.091221
0.093511 0.230349 0.091278
0.101234 0.231851 0.091378
0.111981 0.234115 0.091516
0.128560 0.237519 0.091803
0.150965 0.241810 0.092169
0.178232 0.246994 0.092565
0.208751 0.253070 0.092977
0.243993 0.260028 0.093396
0.281235 0.267852 0.093860
0.318278 0.276523 0.094552
0.355725 0.286015 0.095385
0.394347 0.296304 0.096368
0.430088 0.307361 0.097500
0.461531 0.319157 0.098675
0.492636 0.330097 0.100256
0.523520 0.341509 0.101802
0.549624 0.353428 0.103312
0.575567 0.365700 0.104905
0.601354 0.378005 0.107438
0.626993 0.390698 0.109937
0.652488 0.403758 0.112401
0.670795 0.417161 0.114830
0.687875 0.430887 0.118044
0.704680 0.444917 0.121304
0.719839 0.459234 0.124542
0.733714 0.471321 0.127759
0.744826 0.483319 0.131426
0.755713 0.495443 0.136089
0.766387 0.507683 0.140770
0.776858 0.520028 0.145469
0.787137 0.532470 0.150518
0.091012 0.261494 0.091532
0.091994 0.261735 0.091546
0.096383 0.262597 0.091626
0.103711 0.264179 0.091782
0.114789 0.266537 0.092002
0.131598 0.269703 0.092276
0.153863 0.273701 0.092593
0.181051 0.278541 0.092940
0.211639 0.284226 0.093308
0.246656 0.290751 0.093688
0.283707 0.298108 0.094290
0.320405 0.306283 0.095011
0.357705 0.315257 0.095805
0.396200 0.324317 0.096891
0.431633 0.333438 0.097969
0.462767 0.343155 0.099294
0.493785 0.353440 0.100817
0.524418 0.364207 0.102313
0.550457 0.375070 0.103779
0.576343 0.386386 0.105655
0.602080 0.398131 0.108135
0.627673 0.410280 0.110585
0.653128 0.422810 0.113006
0.671207 0.435700 0.115536
0.688259 0.448930 0.118774
0.705040 0.462108 0.121995
0.720140 0.473359 0.125198
0.733935 0.484782 0.128382
0.745033 0.496361 0.132292
0.755908 0.508085 0.136923
0.766571 0.519942 0.141574
0.777032 0.531921 0.146245
0.787301 0.544013 0.151361
0.093756 0.295542 0.092083
0.095057 0.295767 0.092104
0.099239 0.296572 0.092178
0.106265 0.298050 0.092309
0.117776 0.300253 0.092495
0.134894 0.303216 0.092730
0.157232 0.306961 0.093006
0.184158 0.311501 0.093312
0.214835 0.316844 0.093641
0.249607 0.322559 0.094144
0.286450 0.328592 0.094761
0.322766 0.335290 0.095503
0.359905 0.342638 0.096411
0.398182 0.350615 0.097444
0.433350 0.359201 0.098474
0.464142 0.368142 0.099957
0.495063 0.377464 0.101421
0.525417 0.387293 0.102865
0.551384 0.397604 0.104285
0.577207 0.408373 0.106473
0.602888 0.419579 0.108895
0.628431 0.431199 0.111295
0.653841 0.443212 0.113669
0.671664 0.455597 0.116386
0.688687 0.466869 0.119578
0.705441 0.477463 0.122757
0.720475 0.488260 0.125921
0.734181 0.499244 0.129069
0.745264 0.510401 0.133251
0.756125 0.521719 0.137847
0.766775 0.533186 0.142465
0.777225 0.544791 0.147106
0.787484 0.556523 0.152295
0.097218 0.329317 0.092611
0.098354 0.329499 0.092628
0.102296 0.330155 0.092690
0.109004 0.331358 0.092802
0.120922 0.333152 0.092962
0.138434 0.335564 0.093165
0.161030 0.338612 0.093406
0.187548 0.342307 0.093677
0.218338 0.346652 0.094123
0.252847 0.351646 0.094650
0.289466 0.357286 0.095322
0.325362 0.363530 0.096080
0.362326 0.370140 0.097049
0.400212 0.377327 0.098022
0.435012 0.385074 0.099243
0.465656 0.393363 0.100659
0.496472 0.402173 0.102064
0.526517 0.411485 0.103454
0.552406 0.421278 0.104974
0.578159 0.431531 0.107353
0.603779 0.442223 0.109717
0.629267 0.453335 0.112062
0.654628 0.464033 0.114388
0.672169 0.473686 0.117311
0.689159 0.483588 0.120454
0.705884 0.493720 0.123588
0.720844 0.504069 0.126710
0.734453 0.514619 0.129974
0.745519 0.525357 0.134302
0.756365 0.536269 0.138860
0.767001 0.547344 0.143443
0.777438 0.558570 0.148124
0.787685 0.569937 0.153322
0.100547 0.360637 0.093102
0.101693 0.360807 0.093117
0.105498 0.361417 0.093170
0.112891 0.362538 0.093266
0.124740 0.364151 0.093404
0.142478 0.366306 0.093581
0.165121 0.369030 0.093825
0.191214 0.372335 0.094227
0.222147 0.376225 0.094684
0.256376 0.380702 0.095273
0.292754 0.385762 0.095913
0.328194 0.391399 0.096800
0.364969 0.397603 0.097705
0.402428 0.404363 0.098698
0.436797 0.411665 0.100045
0.467309 0.419493 0.101395
0.498011 0.427833 0.102740
0.527719 0.436666 0.104077
0.553523 0.445975 0.105982
0.579201 0.455741 0.108294
0.604753 0.464928 0.110596
0.630182 0.473552 0.112886
0.655488 0.482467 0.115213
0.672722 0.491655 0.118308
0.689676 0.501100 0.121400
0.706368 0.510786 0.124486
0.721249 0.520699 0.127564
0.734751 0.530824 0.131008
0.745799 0.541148 0.135444
0.756627 0.551659 0.139962
0.767248 0.562343 0.144507
0.777671 0.573191 0.149277
0.787906 0.584192 0.154442
0.104205 0.391196 0.093561
0.105228 0.391348 0.093574
0.108742 0.391893 0.093620
0.116923 0.392894 0.093704
0.129335 0.394388 0.093876
0.146951 0.396398 0.094136
0.169495 0.398943 0.094450
0.195150 0.402033 0.094859
0.226257 0.405674 0.095356
0.260191 0.409869 0.095917
0.296092 0.414617 0.096708
0.331262 0.419915 0.097530
0.367835 0.425755 0.098375
0.404831 0.432129 0.099599
0.438733 0.439027 0.100876
0.469104 0.446436 0.102161
0.499681 0.454342 0.103447
0.529025 0.462312 0.104806
0.554736 0.469512 0.107047
0.580332 0.477053 0.109290
0.605812 0.484919 0.111529
0.631176 0.493094 0.113761
0.656135 0.501563 0.116339
0.673322 0.510309 0.119376
0.690238 0.519318 0.122414
0.706895 0.528575 0.125450
0.721689 0.538067 0.128481
0.735075 0.547779 0.132235
0.746102 0.557699 0.136677
0.756913 0.567815 0.141151
0.767517 0.578116 0.145657
0.777925 0.588589 0.150524
0.788146 0.599226 0.155653
0.107748 0.422023 0.094159
0.108751 0.422165 0.094178
0.113284 0.422675 0.094245
0.121019 0.423613 0.094366
0.134112 0.425012 0.094544
0.151661 0.426896 0.094815
0.174141 0.429283 0.095164
0.199533 0.432182 0.095567
0.230666 0.435603 0.096092
0.264291 0.439548 0.096775
0.299641 0.444018 0.097504
0.334565 0.449012 0.098266
0.370923 0.454525 0.099335
0.407421 0.460535 0.100522
0.440819 0.465850 0.101730
0.471039 0.471552 0.102952
0.501484 0.477630 0.104180
0.530433 0.484070 0.105998
0.556046 0.490860 0.108164
0.581554 0.497986 0.110337
0.606956 0.505434 0.112513
0.632250 0.513189 0.114687
0.656831 0.521238 0.117535
0.673971 0.529566 0.120511
0.690845 0.538161 0.123493
0.707464 0.547008 0.126477
0.722164 0.556095 0.129518
0.735425 0.565409 0.133605
0.746431 0.574938 0.137999
0.757222 0.584670 0.142428
0.767808 0.594595 0.146891
0.778199 0.604701 0.151866
0.788405 0.612707 0.156957
0.112391 0.453189 0.094898
0.113642 0.453323 0.094918
0.117939 0.453803 0.094993
0.126028 0.454684 0.095127
0.139054 0.456000 0.095323
0.156743 0.457773 0.095580
0.179050 0.460019 0.095918
0.204578 0.462326 0.096426
0.235369 0.464950 0.096999
0.268674 0.467974 0.097625
0.303435 0.471399 0.098297
0.338101 0.475222 0.099261
0.374233 0.479440 0.100344
0.410197 0.484045 0.101461
0.443055 0.489032 0.102603
0.473115 0.494391 0.103764
0.503419 0.500112 0.105166
0.531945 0.506185 0.107237
0.557452 0.512598 0.109328
0.582867 0.519341 0.111432
0.608186 0.526400 0.113544
0.633405 0.533764 0.115895
0.657578 0.541419 0.118796
0.674669 0.549355 0.121711
0.691498 0.557557 0.124635
0.708077 0.566014 0.127565
0.722676 0.574714 0.130837
0.735801 0.583646 0.135064
0.746784 0.592798 0.139408
0.757554 0.602158 0.143791
0.768121 0.610224 0.148301
0.778495 0.617637 0.153300
0.788685 0.625157 0.158352
0.117443 0.480105 0.095706
0.118597 0.480206 0.095725
0.122582 0.480571 0.095791
0.131693 0.481242 0.095942
0.144659 0.482244 0.096187
0.162416 0.483593 0.096509
0.184210 0.485302 0.096904
0.209945 0.487379 0.097366
0.240361 0.489830 0.097889
0.273335 0.492658 0.098469
0.307474 0.495864 0.099379
0.341869 0.499446 0.100346
0.377764 0.503403 0.101360
0.413158 0.507729 0.102411
0.445440 0.512420 0.103491
0.475331 0.517467 0.104593
0.505486 0.522864 0.106526
0.533559 0.528601 0.108519
0.558955 0.534669 0.110536
0.584271 0.541058 0.112571
0.609501 0.547757 0.114619
0.634641 0.554756 0.117286
0.658378 0.562044 0.120120
0.675415 0.569610 0.122972
0.692197 0.577442 0.125837
0.708731 0.585530 0.128713
0.723223 0.593862 0.132363
0.736204 0.602428 0.136611
0.747162 0.609844 0.140903
0.757909 0.616692 0.145237
0.768456 0.623670 0.149872
0.778811 0.630771 0.154827
0.788984 0.637985 0.159836
0.122430 0.505622 0.096734
0.123792 0.505717 0.096757
0.128792 0.506058 0.096840
0.137457 0.506686 0.096991
0.150543 0.507623 0.097211
0.168324 0.508885 0.097503
0.189611 0.510485 0.097861
0.215604 0.512431 0.098283
0.245638 0.514729 0.098905
0.278271 0.517382 0.099682
0.311753 0.520392 0.100527
0.345868 0.523759 0.101429
0.381515 0.527481 0.102379
0.416304 0.531555 0.103369
0.447974 0.535978 0.104391
0.477687 0.540742 0.106045
0.507685 0.545843 0.107923
0.535277 0.551273 0.109838
0.560555 0.557023 0.111782
0.585766 0.563086 0.113750
0.610902 0.569452 0.115997
0.635957 0.576112 0.118736
0.659230 0.583057 0.121503
0.676211 0.590276 0.124291
0.692941 0.597760 0.127097
0.709354 0.605480 0.130097
0.723807 0.611568 0.134053
0.736634 0.617814 0.138244
0.747566 0.624212 0.142483
0.758289 0.630752 0.146766
0.768814 0.637427 0.151535
0.779149 0.644228 0.156445
0.789304 0.651148 0.161411
0.128995 0.531082 0.097767
0.130346 0.531171 0.097788
0.135072 0.531492 0.097863
0.143721 0.532081 0.097999
0.156739 0.532960 0.098199
0.174455 0.534146 0.098468
0.195243 0.535649 0.098947
0.221547 0.537477 0.099513
0.251193 0.539638 0.100160
0.283479 0.542134 0.100881
0.316269 0.544968 0.101666
0.350094 0.548141 0.102509
0.385484 0.551652 0.103400
0.419633 0.555498 0.104332
0.450655 0.559677 0.105801
0.480182 0.564184 0.107551
0.510016 0.569015 0.109350
0.537098 0.574163 0.111190
0.562251 0.579621 0.113064
0.587351 0.585383 0.114964
0.612389 0.591440 0.117575
0.637355 0.597785 0.120243
0.660134 0.604409 0.122941
0.677055 0.609909 0.125665
0.693732 0.615354 0.128411
0.710014 0.620976 0.131748
0.724428 0.626766 0.135827
0.737090 0.632717 0.139961
0.747994 0.638820 0.144145
0.758692 0.645068 0.148489
0.769194 0.651454 0.153290
0.779508 0.657968 0.158152
0.789643 0.664606 0.163073
0.135641 0.556489 0.098902
0.136918 0.556573 0.098930
0.141574 0.556875 0.099030
0.150399 0.557429 0.099211
0.163579 0.558257 0.099479
0.180796 0.559374 0.099834
0.201499 0.560790 0.100274
0.227766 0.562513 0.100796
0.257023 0.564550 0.101394
0.288955 0.566905 0.102063
0.321020 0.569581 0.102795
0.354546 0.572578 0.103582
0.389670 0.575897 0.104419
0.423144 0.579537 0.105800
0.453483 0.583494 0.107409
0.482816 0.587767 0.109080
0.512478 0.592350 0.110804
0.539020 0.597238 0.112572
0.564043 0.602428 0.114376
0.589028 0.607322 0.116650
0.613961 0.611721 0.119205
0.638834 0.616322 0.121801
0.661090 0.621120 0.124432
0.677949 0.626108 0.127092
0.694570 0.631277 0.129921
0.710714 0.636622 0.133666
0.725085 0.642134 0.137684
0.737574 0.647806 0.141759
0.748448 0.653631 0.145887
0.759120 0.659602 0.150384
0.769597 0.665712 0.155134
0.779889 0.671954 0.159947
0.790003 0.678184 0.165038
0.142584 0.581845 0.100308
0.143942 0.581924 0.100333
0.148728 0.582209 0.100424
0.157397 0.582732 0.100591
0.170601 0.583514 0.100837
0.187336 0.584569 0.101163
0.208403 0.585906 0.101569
0.234255 0.587535 0.102051
0.263120 0.589461 0.102606
0.294589 0.591688 0.103227
0.326001 0.594220 0.103910
0.359221 0.597058 0.104662
0.394071 0.600203 0.106040
0.426834 0.603654 0.107501
0.456455 0.606939 0.109033
0.485587 0.610033 0.110629
0.515070 0.613349 0.112280
0.541045 0.616883 0.113978
0.565932 0.620631 0.115972
0.590795 0.624588 0.118402
0.615619 0.628748 0.120883
0.640395 0.633106 0.123408
0.662099 0.637655 0.125972
0.678892 0.642389 0.128568
0.695453 0.647302 0.131775
0.711452 0.652387 0.135665
0.725778 0.657638 0.139620
0.738084 0.663049 0.143636
0.748928 0.668612 0.147740
0.759571 0.674321 0.152368
0.770022 0.679681 0.157066
0.780291 0.684520 0.161830
0.790384 0.689453 0.167166
0.150084 0.606743 0.101669
0.151381 0.606800 0.101693
0.156044 0.607006 0.101776
0.165009 0.607384 0.101930
0.177792 0.607948 0.102156
0.194067 0.608710 0.102457
0.215573 0.609675 0.102832
0.241007 0.610850 0.103279
0.269479 0.612240 0.103795
0.300143 0.613846 0.104374
0.331208 0.615671 0.105300
0.364115 0.617716 0.106516
0.398562 0.619981 0.107821
0.430703 0.622465 0.109209
0.459570 0.625166 0.110670
0.488494 0.628083 0.112195
0.517791 0.631212 0.113776
0.543170 0.634550 0.115550
0.567915 0.638093 0.117842
0.592652 0.641838 0.120196
0.617363 0.645778 0.122604
0.642036 0.649911 0.125060
0.663160 0.654229 0.127557
0.679884 0.658728 0.130318
0.696383 0.663402 0.133917
0.712230 0.668246 0.137742
0.726508 0.673252 0.141635
0.738622 0.678262 0.145590
0.749433 0.682565 0.149866
0.760046 0.686978 0.154439
0.770471 0.691498 0.159084
0.780714 0.696119 0.163851
0.790785 0.700607 0.169396
0.157889 0.625928 0.102990
0.159258 0.625982 0.103012
0.164105 0.626175 0.103089
0.172760 0.626530 0.103230
0.185146 0.627061 0.103440
0.201366 0.627776 0.103718
0.222993 0.628684 0.104066
0.248014 0.629789 0.104482
0.276094 0.631096 0.105211
0.305924 0.632608 0.106161
0.336637 0.634326 0.107214
0.369226 0.636253 0.108364
0.402875 0.638388 0.109603
0.434585 0.640731 0.110922
0.462827 0.643281 0.112315
0.491535 0.646036 0.113772
0.520641 0.648994 0.115387
0.545395 0.652153 0.117532
0.569994 0.655508 0.119749
0.594599 0.659057 0.122029
0.619192 0.662796 0.124366
0.643758 0.666720 0.126753
0.664272 0.670825 0.129185
0.680924 0.675105 0.132451
0.697358 0.679185 0.136135
0.713046 0.682922 0.139894
0.727275 0.686783 0.143723
0.739186 0.690765 0.147639
0.749963 0.694862 0.152078
0.760545 0.699069 0.156596
0.770942 0.702340 0.161187
0.781160 0.705339 0.166228
0.791206 0.708398 0.171726
0.166286 0.644899 0.104273
0.167604 0.644950 0.104293
0.172277 0.645132 0.104365
0.180642 0.645467 0.104496
0.192652 0.645966 0.104735
0.209432 0.646640 0.105188
0.230656 0.647496 0.105755
0.255270 0.648538 0.106435
0.282959 0.649770 0.107226
0.311925 0.651196 0.108121
0.342284 0.652818 0.109117
0.374550 0.654638 0.110206
0.407369 0.656655 0.111382
0.438228 0.658869 0.112638
0.466223 0.661281 0.113966
0.494710 0.663889 0.115486
0.523320 0.666690 0.117475
0.547719 0.669684 0.119545
0.572166 0.672867 0.121688
0.596636 0.676236 0.123897
0.621106 0.679372 0.126165
0.645561 0.682392 0.128485
0.665436 0.685550 0.131287
0.682014 0.688842 0.134809
0.698380 0.692266 0.138425
0.713900 0.695816 0.142118
0.728078 0.699488 0.145884
0.739777 0.702269 0.149994
0.750519 0.704922 0.154375
0.761069 0.707645 0.158835
0.771436 0.710434 0.163372
0.781626 0.713286 0.168705
0.791648 0.716197 0.174155
0.174774 0.663668 0.106193
0.176045 0.663716 0.106225
0.180557 0.663888 0.106342
0.188650 0.664204 0.106557
0.200606 0.664676 0.106875
0.217730 0.665312 0.107300
0.238555 0.666120 0.107833
0.262767 0.667104 0.108473
0.290068 0.668269 0.109218
0.318143 0.669618 0.110064
0.348144 0.671152 0.111006
0.380083 0.672873 0.112039
0.412038 0.674782 0.113157
0.442014 0.676880 0.114353
0.469756 0.678868 0.115843
0.498017 0.680869 0.117671
0.525917 0.683020 0.119587
0.550141 0.685317 0.121586
0.574432 0.687759 0.123658
0.598761 0.690344 0.125797
0.623104 0.693069 0.127998
0.647445 0.695930 0.130524
0.666652 0.698926 0.133773
0.683151 0.701435 0.137236
