negative-ektar-100/Ektar100_Classic_Normal.cube
TITLE "Kodak Ektar 100 Classic Normal"
# Adobe RGB in/out. REPLACES AgX. Kodak Ektar 100 Classic Normal.
LUT_3D_SIZE 5
DOMAIN_MIN 0.0 0.0 0.0
DOMAIN_MAX 1.0 1.0 1.0
0.074251 0.074802 0.087322
0.196365 0.109775 0.091222
0.487674 0.200572 0.097866
0.686220 0.343717 0.114859
0.786434 0.478805 0.146922
0.084438 0.174482 0.090443
0.203902 0.199936 0.092332
0.490718 0.283654 0.099276
0.687235 0.399322 0.116808
0.786865 0.512521 0.149109
0.107748 0.422023 0.094159
0.230666 0.435603 0.096092
0.501484 0.477630 0.104180
0.690845 0.538161 0.123493
0.788405 0.612707 0.156957
0.157889 0.625928 0.102990
0.276094 0.631096 0.105211
0.520641 0.648994 0.115387
0.697358 0.679185 0.136135
0.791206 0.708398 0.171726
0.231760 0.736070 0.119866
0.334106 0.737856 0.122876
0.543577 0.744120 0.133860
0.706807 0.755066 0.157322
0.795318 0.770227 0.193796
0.074251 0.096658 0.192698
0.196365 0.122398 0.196247
0.487674 0.211938 0.208684
0.686220 0.351729 0.230466
0.786434 0.483450 0.263032
0.084438 0.186600 0.194852
0.203902 0.211329 0.198377
0.490718 0.294059 0.210736
0.687235 0.406102 0.232398
0.786865 0.516777 0.265006
0.107748 0.428489 0.202472
0.230666 0.441895 0.205916
0.501484 0.482289 0.218011
0.690845 0.542158 0.239317
0.788405 0.615267 0.272039
0.157889 0.628381 0.216055
0.276094 0.633509 0.219367
0.520641 0.651277 0.231024
0.697358 0.680871 0.252806
0.791206 0.709401 0.284760
0.231760 0.736917 0.235456
0.334106 0.738694 0.238601
0.543577 0.744926 0.250734
0.706807 0.755822 0.272372
0.795318 0.770920 0.302995
0.074251 0.139324 0.496006
0.196365 0.164185 0.497764
0.487674 0.251576 0.504036
0.686220 0.378688 0.514271
0.786434 0.499677 0.527036
0.084438 0.227330 0.497072
0.203902 0.250961 0.498826
0.490718 0.328527 0.505087
0.687235 0.429686 0.515065
0.786865 0.531705 0.527804
0.107748 0.451047 0.500882
0.230666 0.463249 0.502626
0.501484 0.498565 0.508848
0.690845 0.556214 0.517905
0.788405 0.624292 0.530551
0.157889 0.637040 0.507831
0.276094 0.642031 0.509555
0.520641 0.659347 0.514500
0.697358 0.686834 0.523075
0.791206 0.712955 0.535555
0.231760 0.739923 0.516327
0.334106 0.741669 0.517631
0.543577 0.747793 0.522277
0.706807 0.758511 0.530681
0.795318 0.773385 0.542923
0.074251 0.217301 0.712184
0.196365 0.240297 0.712743
0.487674 0.320612 0.714741
0.686220 0.423655 0.718385
0.786434 0.527871 0.723753
0.084438 0.299048 0.712522
0.203902 0.320144 0.713081
0.490718 0.379914 0.715077
0.687235 0.468519 0.718716
0.786865 0.557838 0.724079
0.107748 0.484536 0.713735
0.230666 0.494148 0.714291
0.501484 0.526835 0.716280
0.690845 0.580937 0.719904
0.788405 0.640246 0.725246
0.157889 0.652382 0.715954
0.276094 0.657142 0.716506
0.520641 0.673698 0.718480
0.697358 0.697453 0.722078
0.791206 0.719296 0.727383
0.231760 0.745318 0.719243
0.334106 0.747008 0.719789
0.543577 0.752944 0.721742
0.706807 0.763352 0.725302
0.795318 0.777830 0.730551
0.074251 0.322079 0.819750
0.196365 0.339708 0.819947
0.487674 0.396314 0.820654
0.686220 0.479609 0.821945
0.786434 0.566726 0.823860
0.084438 0.381139 0.819870
0.203902 0.395937 0.820067
0.490718 0.445539 0.820772
0.687235 0.513256 0.822063
0.786865 0.594202 0.823976
0.107748 0.527545 0.820298
0.230666 0.536173 0.820494
0.501484 0.565782 0.821198
0.690845 0.613149 0.822486
0.788405 0.662718 0.824394
0.157889 0.674063 0.821083
0.276094 0.678349 0.821279
0.520641 0.690925 0.821979
0.697358 0.708571 0.823261
0.791206 0.728340 0.825161
0.231760 0.753076 0.822251
0.334106 0.754691 0.822445
0.543577 0.760368 0.823141
0.706807 0.770347 0.824414
0.795318 0.784277 0.826301
