negative-ektar-100/Ektar100_Modern_Punchy.cube
TITLE "Kodak Ektar 100 Modern Punchy"
# Adobe RGB in/out. REPLACES AgX. Kodak Ektar 100 Modern Punchy.
LUT_3D_SIZE 5
DOMAIN_MIN 0.0 0.0 0.0
DOMAIN_MAX 1.0 1.0 1.0
0.071174 0.083756 0.079619
0.379962 0.151760 0.090385
0.684597 0.337780 0.115610
0.796797 0.498423 0.154739
0.856515 0.601335 0.203455
0.109922 0.326217 0.087358
0.279559 0.255080 0.089552
0.620191 0.395254 0.109518
0.777984 0.525653 0.146439
0.848601 0.616141 0.197447
0.169254 0.613148 0.101531
0.343309 0.577418 0.103185
0.572067 0.547807 0.112035
0.741300 0.605652 0.137472
0.823910 0.659138 0.186645
0.230305 0.721597 0.117659
0.370001 0.712314 0.119840
0.587337 0.696502 0.128439
0.725648 0.696102 0.148012
0.804781 0.716547 0.186146
0.281218 0.783087 0.132609
0.385346 0.780027 0.134827
0.580859 0.773768 0.145296
0.719886 0.772772 0.166801
0.796333 0.781144 0.198433
0.071174 0.118356 0.390928
0.390159 0.187459 0.397607
0.676154 0.349576 0.365711
0.790621 0.497334 0.360424
0.853760 0.599698 0.368000
0.102019 0.277822 0.312564
0.213954 0.203384 0.200506
0.595732 0.383190 0.286267
0.771032 0.520815 0.328964
0.844493 0.614335 0.354210
0.159597 0.592681 0.326370
0.320292 0.555533 0.287107
0.547744 0.527134 0.249732
0.731201 0.596727 0.279602
0.820248 0.656428 0.321309
0.224487 0.716062 0.304789
0.361030 0.707156 0.293880
0.578677 0.691798 0.275714
0.720133 0.692524 0.276581
0.802704 0.715235 0.303917
0.278807 0.781487 0.280873
0.382209 0.778575 0.279413
0.578275 0.772694 0.278508
0.718430 0.772265 0.286400
0.795921 0.781475 0.307033
0.071174 0.238425 0.744947
0.390159 0.302318 0.746330
0.715628 0.463557 0.742988
0.795280 0.533986 0.678924
0.852526 0.612058 0.640063
0.108448 0.419566 0.733074
0.354266 0.418474 0.700381
0.640529 0.469717 0.659084
0.773413 0.548399 0.636148
0.841987 0.622921 0.620073
0.146740 0.565221 0.617466
0.291593 0.539179 0.579072
0.504559 0.500353 0.501236
0.722072 0.598639 0.554943
0.815954 0.658796 0.575347
0.211742 0.705958 0.600346
0.342295 0.698598 0.585642
0.561577 0.684933 0.553191
0.707682 0.687064 0.533211
0.798690 0.714764 0.546615
0.272568 0.778347 0.563269
0.374233 0.775933 0.558751
0.571963 0.771224 0.547224
0.714832 0.772172 0.538461
0.794934 0.783317 0.540705
0.071174 0.415033 0.882163
0.390159 0.455385 0.882395
0.722456 0.554774 0.883225
0.809953 0.608050 0.850805
0.855719 0.641171 0.814817
0.109922 0.530067 0.882303
0.403855 0.554171 0.882535
0.693148 0.588213 0.865132
0.788660 0.613530 0.828220
0.846371 0.649115 0.803752
0.147349 0.605163 0.808302
0.309803 0.599072 0.799166
0.573764 0.603541 0.774731
0.738380 0.634499 0.766704
0.818002 0.676487 0.762724
0.200402 0.701366 0.773469
0.326158 0.696416 0.762626
0.549783 0.686336 0.735308
0.694399 0.685180 0.711505
0.796661 0.720361 0.727047
0.264987 0.776638 0.745340
0.364720 0.774974 0.741322
0.564864 0.772027 0.730752
0.710633 0.774610 0.721591
0.793993 0.787797 0.720247
0.071174 0.556667 0.934029
0.390159 0.579245 0.934088
0.722456 0.636996 0.934298
0.821539 0.670340 0.922293
0.859973 0.680876 0.893971
0.109922 0.623570 0.934065
0.403855 0.636666 0.934124
0.720563 0.674301 0.933340
0.802519 0.672298 0.909154
0.852431 0.685276 0.886861
0.157387 0.673072 0.902717
0.347169 0.671661 0.898876
0.620461 0.672492 0.888770
0.758555 0.683450 0.877858
0.824353 0.701548 0.864372
0.197537 0.712634 0.863192
0.324125 0.710614 0.858874
0.558738 0.708129 0.847915
0.714889 0.715751 0.839582
0.799724 0.736024 0.837074
0.258288 0.778851 0.842145
0.356499 0.778003 0.840082
0.559336 0.777056 0.834425
0.707968 0.781245 0.829056
0.793586 0.795536 0.828105
