negative-ektar-100/Ektar100_Classic_ExtraPunchy.cube
TITLE "Kodak Ektar 100 Classic ExtraPunchy"
# Adobe RGB in/out. REPLACES AgX. Kodak Ektar 100 Classic ExtraPunchy.
LUT_3D_SIZE 5
DOMAIN_MIN 0.0 0.0 0.0
DOMAIN_MAX 1.0 1.0 1.0
0.069662 0.073299 0.081842
0.169757 0.097046 0.079012
0.487030 0.183282 0.083616
0.658744 0.339880 0.095901
0.756644 0.481585 0.124370
0.072231 0.158816 0.078560
0.177747 0.182697 0.079897
0.489718 0.276778 0.084565
0.659551 0.402595 0.097268
0.757083 0.520948 0.126212
0.087346 0.424095 0.081162
0.205641 0.436924 0.082367
0.499210 0.480220 0.087969
0.662420 0.547181 0.102874
0.758649 0.610852 0.132631
0.130931 0.625102 0.087125
0.260434 0.630679 0.088800
0.516040 0.647089 0.096300
0.667591 0.672690 0.114579
0.761498 0.706866 0.146553
0.206795 0.743450 0.099343
0.324511 0.745190 0.102206
0.539866 0.751288 0.112866
0.675077 0.761941 0.132930
0.765683 0.776687 0.167127
0.069662 0.085389 0.166099
0.169757 0.106416 0.169425
0.487030 0.195857 0.183413
0.658744 0.348612 0.209143
0.756644 0.486983 0.247148
0.072231 0.170423 0.168117
0.177747 0.195132 0.171531
0.489718 0.287797 0.185802
0.659551 0.409024 0.211465
0.757083 0.525947 0.249477
0.087346 0.430207 0.176229
0.205641 0.442860 0.180203
0.499210 0.485633 0.194330
0.662420 0.550532 0.219762
0.758649 0.613610 0.257811
0.130931 0.627750 0.192028
0.260434 0.633285 0.195930
0.516040 0.649007 0.209812
0.667591 0.674428 0.235155
0.761498 0.708397 0.273024
0.206795 0.744275 0.215152
0.324511 0.746006 0.218960
0.539866 0.752074 0.232739
0.675077 0.762677 0.258207
0.765683 0.777361 0.295509
0.069662 0.121680 0.497411
0.169757 0.148575 0.499237
0.487030 0.241559 0.505756
0.658744 0.378912 0.514486
0.756644 0.505904 0.526916
0.072231 0.214387 0.498518
0.177747 0.240889 0.500341
0.489718 0.322865 0.506723
0.659551 0.431337 0.515260
0.757083 0.541761 0.527664
0.087346 0.451485 0.502478
0.205641 0.463565 0.504290
0.499210 0.504605 0.509555
0.662420 0.562280 0.518026
0.758649 0.623338 0.530338
0.130931 0.637025 0.508790
0.260434 0.641230 0.510088
0.516040 0.655782 0.514709
0.667591 0.680576 0.523060
0.761498 0.713827 0.535207
0.206795 0.747203 0.516489
0.324511 0.748902 0.517758
0.539866 0.754864 0.522283
0.675077 0.765293 0.530464
0.765683 0.779757 0.542376
0.069662 0.202270 0.690155
0.169757 0.229314 0.690621
0.487030 0.313947 0.692289
0.658744 0.425639 0.695327
0.756644 0.538535 0.699801
0.072231 0.292684 0.690437
0.177747 0.313421 0.690903
0.489718 0.380321 0.692569
0.659551 0.469660 0.695604
0.757083 0.563634 0.700072
0.087346 0.488246 0.691449
0.205641 0.499447 0.691913
0.499210 0.537664 0.693572
0.662420 0.582819 0.696594
0.758649 0.639726 0.701044
0.130931 0.649936 0.693301
0.260434 0.653933 0.693761
0.516040 0.667796 0.695407
0.667591 0.691531 0.698406
0.761498 0.723319 0.702823
0.206795 0.752454 0.696043
0.324511 0.754100 0.696498
0.539866 0.759877 0.698125
0.675077 0.770001 0.701091
0.765683 0.784078 0.705459
0.069662 0.315597 0.798288
0.169757 0.335516 0.798508
0.487030 0.399236 0.799300
0.658744 0.482518 0.800747
0.756644 0.571032 0.802892
0.072231 0.381730 0.798421
0.177747 0.398801 0.798642
0.489718 0.446296 0.799433
0.659551 0.521812 0.800879
0.757083 0.593775 0.803023
0.087346 0.538261 0.798901
0.205641 0.545513 0.799121
0.499210 0.570247 0.799910
0.662420 0.611328 0.801353
0.758649 0.658608 0.803491
0.130931 0.668102 0.799781
0.260434 0.671828 0.800000
0.516040 0.684795 0.800785
0.667591 0.707130 0.802221
0.761498 0.734595 0.804351
0.206795 0.760005 0.801089
0.324511 0.761576 0.801307
0.539866 0.767100 0.802087
0.675077 0.776803 0.803514
0.765683 0.790343 0.805629
