negative-ektar-100/Ektar100_Classic_ExtraPunchy.cube
TITLE "Kodak Ektar 100 Classic ExtraPunchy"
# Adobe RGB in/out. REPLACES AgX. Kodak Ektar 100 Classic ExtraPunchy.
LUT_3D_SIZE 9
DOMAIN_MIN 0.0 0.0 0.0
DOMAIN_MAX 1.0 1.0 1.0
0.069662 0.073299 0.081842
0.082767 0.079278 0.078415
0.169757 0.097046 0.079012
0.338955 0.128202 0.080813
0.487030 0.183282 0.083616
0.586746 0.260422 0.088233
0.658744 0.339880 0.095901
0.710875 0.415472 0.108168
0.756644 0.481585 0.124370
0.068555 0.092155 0.079496
0.083808 0.096926 0.078179
0.171506 0.112034 0.079234
0.340118 0.149771 0.080953
0.487617 0.204314 0.083799
0.587054 0.279713 0.088500
0.658920 0.354154 0.096203
0.711010 0.425668 0.108556
0.756740 0.490423 0.124773
0.072231 0.158816 0.078560
0.087195 0.164241 0.078814
0.177747 0.182697 0.079897
0.344279 0.221621 0.081404
0.489718 0.276778 0.084565
0.588155 0.337381 0.089429
0.659551 0.402595 0.097268
0.711495 0.460456 0.109933
0.757083 0.520948 0.126212
0.077454 0.289250 0.079724
0.095382 0.293865 0.080009
0.189066 0.310118 0.080854
0.351857 0.338704 0.082591
0.493552 0.377506 0.086046
0.590169 0.421785 0.091147
0.660706 0.467751 0.099148
0.712385 0.518462 0.112408
0.757712 0.562537 0.128819
0.087346 0.424095 0.081162
0.109890 0.426921 0.081363
0.205641 0.436924 0.082367
0.363016 0.454761 0.084606
0.499210 0.480220 0.087969
0.593152 0.512640 0.093718
0.662420 0.547181 0.102874
0.713709 0.577849 0.116206
0.758649 0.610852 0.132631
0.105498 0.541237 0.083546
0.129910 0.542815 0.083850
0.229921 0.548420 0.085176
0.377783 0.558473 0.087407
0.506715 0.572934 0.091461
0.597127 0.591498 0.097789
0.664713 0.613703 0.108235
0.715485 0.638525 0.121825
0.759909 0.660189 0.138491
0.130931 0.625102 0.087125
0.157827 0.626324 0.087434
0.260434 0.630679 0.088800
0.396087 0.638161 0.091636
0.516040 0.647089 0.096300
0.602092 0.658673 0.103821
0.667591 0.672690 0.114579
0.717721 0.688857 0.128642
0.761498 0.706866 0.146553
0.164817 0.690242 0.092219
0.192931 0.690992 0.092635
0.291440 0.693672 0.094299
0.417794 0.698534 0.097606
0.527122 0.705648 0.103285
0.608029 0.714979 0.111913
0.671049 0.725636 0.123247
0.720422 0.736437 0.137073
0.763423 0.746824 0.156121
0.206795 0.743450 0.099343
0.236583 0.743831 0.099795
0.324511 0.745190 0.102206
0.439706 0.747661 0.106649
0.539866 0.751288 0.112866
0.614902 0.756063 0.121850
0.675077 0.761941 0.132930
0.723583 0.768847 0.148750
0.765683 0.776687 0.167127
0.069662 0.075714 0.087852
0.082767 0.081714 0.088279
0.169757 0.099150 0.089807
0.338955 0.131089 0.092646
0.487030 0.185599 0.097469
0.586746 0.263009 0.105429
0.658744 0.341793 0.116221
0.710875 0.416837 0.130183
0.756644 0.482766 0.148401
0.068555 0.094357 0.088103
0.083808 0.099039 0.088545
0.171506 0.114084 0.090053
0.340118 0.152469 0.092895
0.487617 0.207148 0.097758
0.587054 0.282231 0.105830
0.658920 0.356019 0.116650
0.711010 0.427001 0.130570
0.756740 0.491582 0.148866
0.072231 0.161398 0.089052
0.087195 0.166758 0.089472
0.177747 0.185019 0.091011
0.344279 0.224370 0.093886
0.489718 0.279306 0.098779
0.588155 0.339304 0.107254
0.659551 0.404004 0.118180
0.711495 0.461689 0.131949
0.757083 0.522041 0.150530
0.077454 0.291437 0.090748
0.095382 0.296032 0.091192
0.189066 0.312221 0.092718
0.351857 0.340622 0.095949
0.493552 0.379298 0.100937
0.590169 0.423130 0.109809
0.660706 0.468966 0.120948
0.712385 0.519559 0.134454
0.757712 0.563235 0.153570
0.087346 0.425434 0.093285
0.109890 0.428251 0.093774
0.205641 0.438224 0.095636
0.363016 0.456010 0.098826
0.499210 0.481404 0.105037
0.593152 0.513750 0.113490
0.662420 0.547914 0.124982
0.713709 0.578514 0.139139
0.758649 0.611454 0.158063
0.105498 0.541984 0.097361
0.129910 0.543559 0.097838
0.229921 0.549150 0.099505
0.377783 0.559179 0.103830
0.506715 0.573609 0.110260
0.597127 0.592136 0.118939
0.664713 0.614300 0.130249
0.715485 0.638959 0.145482
0.759909 0.660587 0.164039
0.130931 0.625681 0.103211
0.157827 0.626901 0.103891
0.260434 0.631249 0.106285
0.396087 0.638595 0.110512
0.516040 0.647508 0.116788
0.602092 0.659073 0.125901
0.667591 0.673069 0.137249
0.717721 0.689214 0.153362
0.761498 0.707200 0.171615
0.164817 0.690597 0.111362
0.192931 0.691346 0.111976
0.291440 0.694022 0.114148
0.417794 0.698878 0.118672
0.527122 0.705984 0.125381
0.608029 0.715303 0.133951
0.671049 0.725888 0.147109
0.720422 0.736677 0.162733
0.763423 0.747000 0.182512
0.206795 0.743630 0.121239
0.236583 0.744010 0.121920
0.324511 0.745368 0.124337
0.439706 0.747836 0.128675
0.539866 0.751459 0.134962
0.614902 0.756230 0.145510
0.675077 0.762101 0.158418
0.723583 0.769001 0.174100
0.765683 0.776834 0.195269
0.069662 0.085389 0.166099
0.082767 0.090351 0.166826
0.169757 0.106416 0.169425
0.338955 0.141577 0.174865
0.487030 0.195857 0.183413
0.586746 0.272225 0.194829
0.658744 0.348612 0.209143
0.710875 0.421706 0.226347
0.756644 0.486983 0.247148
0.068555 0.101893 0.166539
0.083808 0.106305 0.167265
0.171506 0.123633 0.169861
0.340118 0.161876 0.175391
0.487617 0.217211 0.183934
0.587054 0.290342 0.195343
0.658920 0.362668 0.209649
0.711010 0.431757 0.226854
0.756740 0.495726 0.247656
0.072231 0.170423 0.168117
0.087195 0.175571 0.168840
0.177747 0.195132 0.171531
0.344279 0.234142 0.177279
0.489718 0.287797 0.185802
0.588155 0.346153 0.197187
0.659551 0.409024 0.211465
0.711495 0.466095 0.228704
0.757083 0.525947 0.249477
0.077454 0.299216 0.171016
0.095382 0.303745 0.171889
0.189066 0.319711 0.175017
0.351857 0.347455 0.180740
0.493552 0.385690 0.189229
0.590169 0.427929 0.200570
0.660706 0.473305 0.214797
0.712385 0.523484 0.232099
0.757712 0.565728 0.252822
0.087346 0.430207 0.176229
0.109890 0.432993 0.177096
0.205641 0.442860 0.180203
0.363016 0.460470 0.185891
0.499210 0.485633 0.194330
0.593152 0.517718 0.205608
0.662420 0.550532 0.219762
0.713709 0.580892 0.237163
0.758649 0.613610 0.257811
0.105498 0.544653 0.183219
0.129910 0.546214 0.184079
0.229921 0.551757 0.187161
0.377783 0.561705 0.192803
0.506715 0.576023 0.201176
0.597127 0.594418 0.212373
0.664713 0.616438 0.226431
0.715485 0.640510 0.243976
0.759909 0.662012 0.264526
0.130931 0.627750 0.192028
0.157827 0.628962 0.192879
0.260434 0.633285 0.195930
0.396087 0.640149 0.201517
0.516040 0.649007 0.209812
0.602092 0.660507 0.220910
0.667591 0.674428 0.235155
0.717721 0.690492 0.252592
0.761498 0.708397 0.273024
0.164817 0.691869 0.202671
0.192931 0.692615 0.203513
0.291440 0.695278 0.206529
0.417794 0.700112 0.212053
0.527122 0.707186 0.220259
0.608029 0.716466 0.231413
0.671049 0.726791 0.245741
0.720422 0.737536 0.263050
0.763423 0.747632 0.283343
0.206795 0.744275 0.215152
0.236583 0.744654 0.215982
0.324511 0.746006 0.218960
0.439706 0.748464 0.224416
0.539866 0.752074 0.232739
0.614902 0.756826 0.244006
0.675077 0.762677 0.258207
0.723583 0.769552 0.275372
0.765683 0.777361 0.295509
0.069662 0.100119 0.338409
0.082767 0.104344 0.339015
0.169757 0.121235 0.341187
0.338955 0.159467 0.345166
0.487030 0.214608 0.351076
0.586746 0.288293 0.358987
0.658744 0.360944 0.368928
0.710875 0.430523 0.380900
0.756644 0.494650 0.394878
0.068555 0.115435 0.338776
0.083808 0.121093 0.339382
0.171506 0.142063 0.341553
0.340118 0.178175 0.345529
0.487617 0.235281 0.351437
0.587054 0.304598 0.359344
0.658920 0.374705 0.369280
0.711010 0.440375 0.381246
0.756740 0.503261 0.395219
0.072231 0.186142 0.340093
0.087195 0.192261 0.340697
0.177747 0.213907 0.342864
0.344279 0.251732 0.346833
0.489718 0.302121 0.352730
0.588155 0.358539 0.360623
0.659551 0.418105 0.370543
0.711495 0.474096 0.382489
0.757083 0.533060 0.396441
0.077454 0.313241 0.342509
0.095382 0.317656 0.343111
0.189066 0.333240 0.345270
0.351857 0.359812 0.349226
0.493552 0.397281 0.355104
0.590169 0.436621 0.362972
0.660706 0.481187 0.372861
0.712385 0.530629 0.384772
0.757712 0.570265 0.398684
0.087346 0.438855 0.346108
0.109890 0.441587 0.346707
0.205641 0.451269 0.348855
0.363016 0.468565 0.352792
0.499210 0.493321 0.358640
0.593152 0.524941 0.366471
0.662420 0.555292 0.376315
0.713709 0.585222 0.388174
0.758649 0.617540 0.401811
0.105498 0.549504 0.350942
0.129910 0.551041 0.351537
0.229921 0.556499 0.353671
0.377783 0.566299 0.357582
0.506715 0.580418 0.363393
0.597127 0.598575 0.371174
0.664713 0.620337 0.380959
0.715485 0.643339 0.392749
0.759909 0.664613 0.405591
0.130931 0.631525 0.357044
0.157827 0.632725 0.357634
0.260434 0.636949 0.359751
0.396087 0.642982 0.363629
0.516040 0.651743 0.369394
0.602092 0.663123 0.377115
0.667591 0.676908 0.386825
0.717721 0.692828 0.398531
0.761498 0.710586 0.410360
0.164817 0.694193 0.364431
0.192931 0.694933 0.365015
0.291440 0.697574 0.367111
0.417794 0.702367 0.370952
0.527122 0.709384 0.376662
0.608029 0.718592 0.384311
0.671049 0.728443 0.393934
0.720422 0.739108 0.404761
0.763423 0.748787 0.416130
0.206795 0.745455 0.373107
0.236583 0.745830 0.373685
0.324511 0.747173 0.375757
0.439706 0.749614 0.379555
0.539866 0.753197 0.385202
0.614902 0.757918 0.392770
0.675077 0.763730 0.402034
0.723583 0.770563 0.411675
0.765683 0.778325 0.422901
0.069662 0.121680 0.497411
0.082767 0.127000 0.497809
0.169757 0.148575 0.499237
0.338955 0.183682 0.501857
0.487030 0.241559 0.505756
0.586746 0.309560 0.509722
0.658744 0.378912 0.514486
0.710875 0.443389 0.520222
0.756644 0.505904 0.526916
0.068555 0.142549 0.497652
0.083808 0.148425 0.498050
0.171506 0.168217 0.499478
0.340118 0.204803 0.502096
0.487617 0.261378 0.505994
0.587054 0.325251 0.509892
0.658920 0.392271 0.514655
0.711010 0.452964 0.520388
0.756740 0.514329 0.527079
0.072231 0.214387 0.498518
0.087195 0.220259 0.498915
0.177747 0.240889 0.500341
0.344279 0.277213 0.502956
0.489718 0.322865 0.506723
0.588155 0.376580 0.510506
0.659551 0.431337 0.515260
0.711495 0.485822 0.520984
0.757083 0.541761 0.527664
0.077454 0.333588 0.500107
0.095382 0.337755 0.500504
0.189066 0.352187 0.501926
0.351857 0.377815 0.504535
0.493552 0.412003 0.507860
0.590169 0.449314 0.511631
0.660706 0.492746 0.516370
0.712385 0.540062 0.522077
0.757712 0.576934 0.528737
0.087346 0.451485 0.502478
0.109890 0.454143 0.502873
0.205641 0.463565 0.504290
0.363016 0.480424 0.506752
0.499210 0.504605 0.509555
0.593152 0.535566 0.513308
0.662420 0.562280 0.518026
0.713709 0.591595 0.523706
0.758649 0.623338 0.530338
0.105498 0.556621 0.505667
0.129910 0.558123 0.506060
0.229921 0.563460 0.507174
0.377783 0.573050 0.509048
0.506715 0.586884 0.511833
0.597127 0.604700 0.515562
0.664713 0.626089 0.520250
0.715485 0.647513 0.525897
0.759909 0.668456 0.532489
0.130931 0.637025 0.508790
0.157827 0.637946 0.509073
0.260434 0.641230 0.510088
0.396087 0.647161 0.511946
0.516040 0.655782 0.514709
0.602092 0.666987 0.518409
0.667591 0.680576 0.523060
0.717721 0.696286 0.528664
0.761498 0.713827 0.535207
0.164817 0.697633 0.512331
0.192931 0.698363 0.512611
0.291440 0.700971 0.513615
0.417794 0.705706 0.515456
0.527122 0.712640 0.518192
0.608029 0.721743 0.521856
0.671049 0.730890 0.526464
0.720422 0.741255 0.532016
0.763423 0.750499 0.538502
0.206795 0.747203 0.516489
0.236583 0.747574 0.516765
0.324511 0.748902 0.517758
0.439706 0.751318 0.519578
0.539866 0.754864 0.522283
0.614902 0.759537 0.525907
0.675077 0.765293 0.530464
0.723583 0.772063 0.535957
0.765683 0.779757 0.542376
0.069662 0.158297 0.606611
0.082767 0.163736 0.606784
0.169757 0.182231 0.607405
0.338955 0.221071 0.608544
0.487030 0.276272 0.610240
0.586746 0.336997 0.612516
0.658744 0.402314 0.615387
0.710875 0.460209 0.618858
0.756644 0.520730 0.622927
0.068555 0.177100 0.606716
0.083808 0.182103 0.606889
0.171506 0.203033 0.607510
0.340118 0.241528 0.608648
0.487617 0.293812 0.610343
0.587054 0.351346 0.612619
0.658920 0.412831 0.615489
0.711010 0.469445 0.618958
0.756740 0.528921 0.623027
0.072231 0.250548 0.607092
0.087195 0.256089 0.607265
0.177747 0.275636 0.607885
0.344279 0.307082 0.609022
0.489718 0.349162 0.610715
0.588155 0.400129 0.612988
0.659551 0.448605 0.615854
0.711495 0.501235 0.619320
0.757083 0.551579 0.623383
0.077454 0.358978 0.607783
0.095382 0.362883 0.607956
0.189066 0.376697 0.608574
0.351857 0.401318 0.609709
0.493552 0.430039 0.611398
0.590169 0.465923 0.613666
0.660706 0.507951 0.616526
0.712385 0.549934 0.619983
0.757712 0.585733 0.624038
0.087346 0.468018 0.608814
0.109890 0.470583 0.608986
0.205641 0.479686 0.609602
0.363016 0.496004 0.610733
0.499210 0.519467 0.612416
0.593152 0.546079 0.614677
0.662420 0.571483 0.617527
0.713709 0.600016 0.620973
0.758649 0.631023 0.625015
0.105498 0.565988 0.610201
0.129910 0.567446 0.610372
0.229921 0.572629 0.610986
0.377783 0.581954 0.612111
0.506715 0.595424 0.613787
0.597127 0.612805 0.616037
0.664713 0.633715 0.618875
0.715485 0.653045 0.622306
0.759909 0.673560 0.626330
0.130931 0.642790 0.611956
0.157827 0.643691 0.612126
0.260434 0.646900 0.612736
0.396087 0.652701 0.613855
0.516040 0.661139 0.615522
0.602092 0.672120 0.617759
0.667591 0.685453 0.620581
0.717721 0.700889 0.623993
0.761498 0.718149 0.627995
0.164817 0.702214 0.614087
0.192931 0.702932 0.614256
0.291440 0.705497 0.614861
0.417794 0.710155 0.615973
0.527122 0.716979 0.617627
0.608029 0.725257 0.619849
0.671049 0.734154 0.622652
0.720422 0.743675 0.626041
0.763423 0.752785 0.630017
0.206795 0.749536 0.616597
0.236583 0.749902 0.616764
0.324511 0.751211 0.617365
0.439706 0.753592 0.618467
0.539866 0.757090 0.620108
0.614902 0.761700 0.622312
0.675077 0.767382 0.625093
0.723583 0.774069 0.628455
0.765683 0.781673 0.632401
0.069662 0.202270 0.690155
0.082767 0.208271 0.690256
0.169757 0.229314 0.690621
0.338955 0.266256 0.691291
0.487030 0.313947 0.692289
0.586746 0.368810 0.693631
0.658744 0.425639 0.695327
0.710875 0.480762 0.697383
0.756644 0.538535 0.699801
0.068555 0.223382 0.690216
0.083808 0.229166 0.690318
0.171506 0.249506 0.690682
0.340118 0.285218 0.691352
0.487617 0.329519 0.692350
0.587054 0.382391 0.693692
0.658920 0.435599 0.695388
0.711010 0.489614 0.697443
0.756740 0.544178 0.699860
0.072231 0.292684 0.690437
0.087195 0.297269 0.690539
0.177747 0.313421 0.690903
0.344279 0.341717 0.691572
0.489718 0.380321 0.692569
0.588155 0.423898 0.693910
0.659551 0.469660 0.695604
0.711495 0.520187 0.697657
0.757083 0.563634 0.700072
0.077454 0.389633 0.690843
0.095382 0.393343 0.690945
0.189066 0.405685 0.691308
0.351857 0.424820 0.691976
0.493552 0.451950 0.692971
0.590169 0.486237 0.694310
0.660706 0.526664 0.696001
0.712385 0.562051 0.698051
0.757712 0.596595 0.700462
0.087346 0.488246 0.691449
0.109890 0.490707 0.691551
0.205641 0.499447 0.691913
0.363016 0.515146 0.692579
0.499210 0.537664 0.693572
0.593152 0.558344 0.694907
0.662420 0.582819 0.696594
0.713709 0.610432 0.698639
0.758649 0.639726 0.701044
0.105498 0.577516 0.692266
0.129910 0.578923 0.692367
0.229921 0.583926 0.692728
0.377783 0.592938 0.693392
0.506715 0.605980 0.694382
0.597127 0.622845 0.695712
0.664713 0.641768 0.697393
0.715485 0.659912 0.699432
0.759909 0.679912 0.701829
0.130931 0.649936 0.693301
0.157827 0.650812 0.693401
0.260434 0.653933 0.693761
0.396087 0.659577 0.694422
0.516040 0.667796 0.695407
0.602092 0.678506 0.696732
0.667591 0.691531 0.698406
0.717721 0.706634 0.700436
0.761498 0.723319 0.702823
0.164817 0.707931 0.694559
0.192931 0.708634 0.694658
0.291440 0.711147 0.695016
0.417794 0.715712 0.695674
0.527122 0.722390 0.696654
0.608029 0.729509 0.697972
0.671049 0.738235 0.699637
0.720422 0.746701 0.701656
0.763423 0.755646 0.704031
0.206795 0.752454 0.696043
0.236583 0.752814 0.696143
0.324511 0.754100 0.696498
0.439706 0.756439 0.697152
0.539866 0.759877 0.698125
0.614902 0.764410 0.699435
0.675077 0.770001 0.701091
0.723583 0.776585 0.703098
0.765683 0.784078 0.705459
0.069662 0.258662 0.752283
0.082767 0.264138 0.752362
0.169757 0.283468 0.752645
0.338955 0.313618 0.753166
0.487030 0.354981 0.753942
0.586746 0.404852 0.754988
0.658744 0.452523 0.756313
0.710875 0.504749 0.757921
0.756644 0.553816 0.759479
0.068555 0.278000 0.752331
0.083808 0.283331 0.752410
0.171506 0.299971 0.752693
0.340118 0.329199 0.753213
0.487617 0.368883 0.753990
0.587054 0.415306 0.755036
0.658920 0.461910 0.756360
0.711010 0.513192 0.757968
0.756740 0.559188 0.759515
0.072231 0.336074 0.752502
0.087195 0.340143 0.752581
0.177747 0.354513 0.752864
0.344279 0.380040 0.753384
0.489718 0.413714 0.754161
0.588155 0.450885 0.755206
0.659551 0.494180 0.756529
0.711495 0.540994 0.758136
0.757083 0.577763 0.759643
0.077454 0.420870 0.752818
0.095382 0.423718 0.752897
0.189066 0.433793 0.753179
0.351857 0.451752 0.753699
0.493552 0.477370 0.754474
0.590169 0.509969 0.755518
0.660706 0.545417 0.756839
0.712385 0.576249 0.758422
0.757712 0.609403 0.759879
0.087346 0.511886 0.753289
0.109890 0.514235 0.753368
0.205641 0.522586 0.753650
0.363016 0.537545 0.754169
0.499210 0.552987 0.754942
0.593152 0.572705 0.755984
0.662420 0.596156 0.757303
0.713709 0.622742 0.758777
0.758649 0.648534 0.760232
0.105498 0.591065 0.753925
0.129910 0.592415 0.754003
0.229921 0.597219 0.754285
0.377783 0.605884 0.754802
0.506715 0.618447 0.755574
0.597127 0.634732 0.756613
0.664713 0.650507 0.757929
0.715485 0.668060 0.759256
0.759909 0.687471 0.760707
0.130931 0.658401 0.754731
0.157827 0.659248 0.754809
0.260434 0.662269 0.755090
0.396087 0.667736 0.755605
0.516040 0.675705 0.756375
0.602092 0.686105 0.757411
0.667591 0.698774 0.758636
0.717721 0.713493 0.759863
0.761498 0.728548 0.761309
0.164817 0.714759 0.755712
0.192931 0.715445 0.755790
0.291440 0.717897 0.756070
0.417794 0.722350 0.756583
0.527122 0.727641 0.757350
0.608029 0.734591 0.758374
0.671049 0.742563 0.759380
0.720422 0.750323 0.760602
0.763423 0.759075 0.762043
0.206795 0.755950 0.756872
0.236583 0.756302 0.756950
0.324511 0.757561 0.757228
0.439706 0.759851 0.757740
0.539866 0.763219 0.758466
0.614902 0.767662 0.759258
0.675077 0.773146 0.760259
0.723583 0.779609 0.761476
0.765683 0.786972 0.762910
0.069662 0.315597 0.798288
0.082767 0.319994 0.798336
0.169757 0.335516 0.798508
0.338955 0.361892 0.798826
0.487030 0.399236 0.799300
0.586746 0.438086 0.799938
0.658744 0.482518 0.800747
0.710875 0.531838 0.801731
0.756644 0.571032 0.802892
0.068555 0.331125 0.798317
0.083808 0.335406 0.798365
0.171506 0.349904 0.798537
0.340118 0.375631 0.798855
0.487617 0.410324 0.799329
0.587054 0.447773 0.799967
0.658920 0.491339 0.800776
0.711010 0.539147 0.801759
0.756740 0.576122 0.802921
0.072231 0.381730 0.798421
0.087195 0.385488 0.798469
0.177747 0.398801 0.798642
0.344279 0.418804 0.798959
0.489718 0.446296 0.799433
0.588155 0.480982 0.800071
0.659551 0.521812 0.800879
0.711495 0.558913 0.801862
0.757083 0.593775 0.803023
0.077454 0.452943 0.798614
0.095382 0.455592 0.798662
0.189066 0.464985 0.798834
0.351857 0.481795 0.799151
0.493552 0.505911 0.799624
0.590169 0.536798 0.800261
0.660706 0.563089 0.801069
0.712385 0.592334 0.802051
0.757712 0.624011 0.803211
0.087346 0.538261 0.798901
0.109890 0.539855 0.798949
0.205641 0.545513 0.799121
0.363016 0.555660 0.799438
0.499210 0.570247 0.799910
0.593152 0.588961 0.800546
0.662420 0.611328 0.801353
0.713709 0.636802 0.802333
0.758649 0.658608 0.803491
0.105498 0.606463 0.799289
0.129910 0.607752 0.799337
0.229921 0.612345 0.799508
0.377783 0.620638 0.799824
0.506715 0.632688 0.800296
0.597127 0.645786 0.800931
0.664713 0.660504 0.801736
0.715485 0.677413 0.802714
0.759909 0.696176 0.803870
0.130931 0.668102 0.799781
0.157827 0.668918 0.799828
0.260434 0.671828 0.800000
0.396087 0.677100 0.800315
0.516040 0.684795 0.800785
0.602092 0.694854 0.801419
0.667591 0.707130 0.802221
0.717721 0.721423 0.803198
0.761498 0.734595 0.804351
0.164817 0.722592 0.800380
0.192931 0.723133 0.800428
0.291440 0.725063 0.800598
0.417794 0.728571 0.800912
0.527122 0.733713 0.801381
0.608029 0.740472 0.802013
0.671049 0.746963 0.802813
0.720422 0.754519 0.803787
0.763423 0.763054 0.804936
0.206795 0.760005 0.801089
0.236583 0.760349 0.801137
0.324511 0.761576 0.801307
0.439706 0.763812 0.801620
0.539866 0.767100 0.802087
0.614902 0.771441 0.802716
0.675077 0.776803 0.803514
0.723583 0.783129 0.804484
0.765683 0.790343 0.805629
