negative-ektar-100/Ektar100_Classic_Punchy.cube
TITLE "Kodak Ektar 100 Classic Punchy"
# Adobe RGB in/out. REPLACES AgX. Kodak Ektar 100 Classic Punchy.
LUT_3D_SIZE 33
DOMAIN_MIN 0.0 0.0 0.0
DOMAIN_MAX 1.0 1.0 1.0
0.071174 0.083756 0.079619
0.076570 0.084589 0.079619
0.078522 0.084767 0.079619
0.090282 0.085595 0.079724
0.125900 0.087237 0.079948
0.148951 0.087934 0.080234
0.200853 0.089666 0.080693
0.281049 0.092100 0.081303
0.326583 0.093282 0.081832
0.391056 0.095034 0.082561
0.474139 0.097556 0.083764
0.526173 0.100388 0.084669
0.562427 0.102930 0.085376
0.601836 0.106382 0.086238
0.643444 0.111511 0.087441
0.668360 0.114788 0.088335
0.688873 0.117935 0.089348
0.708349 0.121615 0.090538
0.725471 0.127100 0.092292
0.740303 0.130377 0.093936
0.752884 0.133756 0.095737
0.760641 0.137597 0.097857
0.768281 0.140897 0.100701
0.775978 0.141479 0.103255
0.782002 0.142413 0.107064
0.787572 0.142447 0.112910
0.794875 0.136017 0.124033
0.798919 0.139106 0.178161
0.807750 0.164546 0.454322
0.807749 0.164514 0.454296
0.807749 0.164512 0.454295
0.807749 0.164512 0.454294
0.810765 0.305757 0.565314
0.071703 0.086021 0.079619
0.074853 0.086053 0.079619
0.080272 0.085231 0.079619
0.092972 0.086067 0.079758
0.123925 0.087707 0.080045
0.145212 0.088257 0.080297
0.195188 0.090133 0.080736
0.273133 0.092449 0.081370
0.319415 0.093627 0.081896
0.384342 0.095307 0.082607
0.468840 0.097969 0.083816
0.522759 0.100838 0.084709
0.559605 0.103318 0.085409
0.599559 0.106833 0.086265
0.641669 0.111923 0.087470
0.667344 0.115220 0.088366
0.688088 0.118330 0.089374
0.707756 0.121983 0.090559
0.725080 0.127624 0.092324
0.740008 0.130874 0.093962
0.752734 0.134231 0.095757
0.760530 0.138054 0.097874
0.768199 0.141408 0.100708
0.775916 0.141976 0.103249
0.781956 0.142892 0.107027
0.787537 0.142904 0.112822
0.794847 0.136349 0.123647
0.798902 0.139110 0.175886
0.807750 0.164546 0.454322
0.807749 0.164514 0.454296
0.807749 0.164512 0.454295
0.807749 0.164513 0.454294
0.810765 0.305758 0.565314
0.071867 0.086919 0.079619
0.072717 0.087035 0.079619
0.075991 0.086979 0.079619
0.086638 0.087887 0.079864
0.109423 0.089637 0.080260
0.131505 0.089968 0.080449
0.178130 0.091825 0.080873
0.250753 0.094214 0.081707
0.295676 0.094959 0.082135
0.360467 0.096343 0.082778
0.449216 0.099686 0.084006
0.507706 0.102526 0.084856
0.548919 0.104761 0.085528
0.590919 0.108506 0.086363
0.634933 0.113582 0.087579
0.663490 0.116813 0.088479
0.685120 0.119786 0.089469
0.705518 0.123336 0.090639
0.723612 0.129550 0.092442
0.738902 0.132694 0.094058
0.752173 0.135967 0.095831
0.760116 0.139787 0.097938
0.767892 0.143277 0.100738
0.775684 0.143793 0.103233
0.781785 0.144647 0.106906
0.787409 0.144581 0.112521
0.794742 0.137593 0.122395
0.798838 0.139242 0.168108
0.807750 0.164549 0.454324
0.807749 0.164514 0.454297
0.807749 0.164512 0.454295
0.807749 0.164514 0.454294
0.810765 0.305761 0.565313
0.072495 0.090832 0.079633
0.073011 0.090973 0.079725
0.075909 0.091188 0.079858
0.081669 0.091059 0.079987
0.097352 0.093688 0.080543
0.111885 0.093052 0.080681
0.147345 0.094718 0.081146
0.206657 0.096736 0.082127
0.255459 0.097104 0.082493
0.319603 0.099000 0.083074
0.410753 0.103709 0.084370
0.474301 0.106260 0.085138
0.527152 0.108487 0.085756
0.573084 0.111823 0.086549
0.620955 0.117045 0.087784
0.655475 0.119921 0.088693
0.678976 0.122607 0.089649
0.700917 0.127093 0.090789
0.720611 0.133273 0.092666
0.736652 0.136202 0.094241
0.750576 0.139301 0.095974
0.759285 0.143471 0.098066
0.767278 0.147169 0.100804
0.775225 0.147655 0.103220
0.781447 0.148524 0.106716
0.787157 0.148291 0.112031
0.794537 0.140203 0.120565
0.798712 0.140063 0.155955
0.807750 0.164555 0.454328
0.807749 0.164515 0.454297
0.807749 0.164512 0.454295
0.807749 0.164517 0.454294
0.810765 0.305763 0.565313
0.073242 0.098150 0.079899
0.074053 0.098325 0.080016
0.076734 0.098939 0.080288
0.082401 0.099153 0.080573
0.090956 0.098896 0.080844
0.102341 0.097067 0.080925
0.124097 0.099129 0.081577
0.169697 0.102802 0.082575
0.209111 0.102629 0.082909
0.271122 0.104358 0.083584
0.361702 0.109708 0.084887
0.430918 0.111891 0.085557
0.488661 0.113944 0.086100
0.544099 0.117654 0.086836
0.595893 0.122857 0.088107
0.637244 0.125767 0.089029
0.667810 0.129008 0.089931
0.692622 0.133480 0.091025
0.715199 0.139323 0.093020
0.732672 0.142242 0.094533
0.747652 0.145527 0.096206
0.757844 0.150133 0.098281
0.766225 0.153920 0.100932
0.774442 0.154220 0.103238
0.780876 0.154886 0.106512
0.786731 0.154446 0.111438
0.794192 0.145059 0.118381
0.798495 0.142588 0.141859
0.807750 0.164566 0.454337
0.807749 0.164516 0.454298
0.807749 0.164513 0.454296
0.807750 0.164551 0.454294
0.810765 0.305763 0.565313
0.073924 0.104013 0.080145
0.074446 0.104082 0.080248
0.076331 0.104846 0.080440
0.080274 0.105381 0.080744
0.086952 0.105328 0.080924
0.096895 0.105021 0.081383
0.114127 0.108344 0.082172
0.146944 0.112607 0.083134
0.176974 0.110998 0.083429
0.225483 0.112390 0.084165
0.306736 0.117720 0.085398
0.375434 0.119684 0.086032
0.441689 0.121241 0.086541
0.509485 0.124508 0.087325
0.567947 0.131429 0.088605
0.611631 0.134782 0.089474
0.651082 0.138248 0.090319
0.678199 0.143766 0.091364
0.704633 0.150822 0.093536
0.725751 0.153360 0.094962
0.742645 0.156462 0.096553
0.755416 0.160603 0.098617
0.764477 0.164069 0.101158
0.773158 0.164081 0.103334
0.779951 0.164450 0.106375
0.786046 0.163764 0.110875
0.793636 0.154057 0.116293
0.798138 0.148679 0.131880
0.807751 0.164590 0.454353
0.807749 0.164518 0.454300
0.807749 0.164514 0.454297
0.810763 0.274253 0.454295
0.810765 0.305764 0.565312
0.075153 0.118268 0.080633
0.075492 0.118312 0.080697
0.077433 0.119210 0.080897
0.080701 0.120089 0.081271
0.086947 0.120484 0.081832
0.095572 0.120337 0.082322
0.108095 0.119978 0.082832
0.132697 0.125397 0.083974
0.155885 0.122054 0.084221
0.193730 0.122717 0.084845
0.262172 0.129470 0.085989
0.324704 0.131372 0.086570
0.387716 0.132142 0.087014
0.460482 0.135838 0.087859
0.533596 0.143231 0.089228
0.580001 0.147306 0.090049
0.625170 0.150105 0.090800
0.663762 0.155508 0.091966
0.692592 0.163647 0.094178
0.716398 0.167154 0.095529
0.734618 0.171491 0.097043
0.750785 0.176108 0.099123
0.761491 0.178990 0.101534
0.771004 0.178552 0.103570
0.778426 0.178479 0.106414
0.784929 0.177521 0.110504
0.792729 0.167958 0.114770
0.797542 0.160685 0.125248
0.807752 0.164650 0.454393
0.807749 0.164524 0.454305
0.807749 0.164517 0.454299
0.810765 0.274309 0.454296
0.810765 0.305764 0.565312
0.076697 0.140694 0.081229
0.077083 0.140740 0.081321
0.078687 0.142322 0.081784
0.082126 0.143739 0.082329
0.087519 0.144846 0.082833
0.095856 0.145302 0.083469
0.107423 0.144854 0.084114
0.122961 0.144190 0.084764
0.143092 0.138312 0.084958
0.173900 0.138506 0.085536
0.228731 0.146577 0.086608
0.283281 0.147460 0.087194
0.339602 0.147223 0.087691
0.411933 0.151338 0.088542
0.492324 0.159990 0.089897
0.546479 0.162895 0.090634
0.593408 0.165733 0.091347
0.640211 0.171643 0.092883
0.676230 0.179550 0.094987
0.704404 0.181549 0.096222
0.726946 0.184749 0.097637
0.744850 0.190839 0.099773
0.757993 0.197105 0.102079
0.767909 0.199620 0.103998
0.775749 0.203143 0.106764
0.783004 0.201511 0.110510
0.791144 0.190583 0.114263
0.796486 0.181069 0.121565
0.807758 0.164890 0.454531
0.807750 0.164546 0.454320
0.807749 0.164525 0.454306
0.810765 0.274313 0.454299
0.810765 0.305764 0.565312
0.077449 0.156033 0.081717
0.077737 0.156050 0.081808
0.078915 0.157079 0.082153
0.081841 0.159049 0.082646
0.086480 0.160735 0.083132
0.092312 0.161592 0.083808
0.102585 0.161807 0.084504
0.114889 0.161196 0.085080
0.133299 0.160452 0.085647
0.158986 0.160192 0.086184
0.204067 0.169891 0.087339
0.251679 0.169613 0.087940
0.301670 0.168174 0.088448
0.366263 0.171168 0.089328
0.448116 0.179352 0.090630
0.510462 0.181278 0.091300
0.559691 0.183500 0.092293
0.610041 0.189542 0.093873
0.657910 0.199381 0.095885
0.688082 0.202908 0.097047
0.714391 0.208397 0.098548
0.736256 0.213018 0.100597
0.753990 0.218014 0.102771
0.765168 0.219270 0.104551
0.773854 0.221897 0.107319
0.781189 0.224877 0.110850
0.789171 0.221895 0.114624
0.794634 0.220136 0.120923
0.807915 0.171266 0.456101
0.807755 0.164796 0.454480
0.807750 0.164580 0.454349
0.810765 0.274317 0.454312
0.810765 0.305764 0.565312
0.078440 0.179334 0.082424
0.078663 0.179336 0.082493
0.079798 0.179969 0.082750
0.082534 0.182008 0.083176
0.086510 0.183763 0.083877
0.091517 0.185178 0.084546
0.100639 0.185779 0.085187
0.111484 0.185592 0.085768
0.125805 0.184969 0.086302
0.149058 0.184305 0.086810
0.188148 0.197220 0.088113
0.227745 0.195960 0.088820
0.271708 0.192436 0.089299
0.329425 0.195118 0.090140
0.406597 0.205536 0.091385
0.468162 0.206825 0.092371
0.526640 0.208424 0.093464
0.578024 0.214110 0.094948
0.631508 0.224705 0.096897
0.669509 0.227664 0.098010
0.700398 0.230833 0.099564
0.725681 0.237446 0.101534
0.746114 0.244821 0.103626
0.760710 0.246276 0.105340
0.770875 0.247298 0.108087
0.779175 0.249055 0.111360
0.787799 0.245039 0.114817
0.793710 0.242033 0.120290
0.799984 0.233534 0.128712
0.804480 0.227919 0.161859
0.809122 0.244365 0.411480
0.810765 0.274901 0.456646
0.810765 0.305764 0.565312
0.080139 0.223431 0.083493
0.080384 0.223437 0.083576
0.081556 0.224051 0.083884
0.084419 0.227419 0.084467
0.087904 0.229988 0.085092
0.092962 0.231835 0.085723
0.101553 0.233278 0.086339
0.111983 0.233619 0.086909
0.125755 0.233197 0.087591
0.148198 0.232280 0.088266
0.175991 0.231477 0.089059
0.208619 0.229156 0.089702
0.248558 0.224338 0.090165
0.300310 0.226171 0.090943
0.370033 0.236824 0.092654
0.431845 0.236699 0.093685
0.489526 0.236895 0.094660
0.546524 0.241937 0.096055
0.601671 0.252800 0.097997
0.648658 0.254208 0.099243
0.682238 0.258174 0.100725
0.712060 0.265362 0.102603
0.736913 0.270713 0.104548
0.755959 0.272590 0.106465
0.766912 0.276770 0.109072
0.775869 0.282251 0.112134
0.785603 0.276880 0.115392
0.792269 0.272222 0.120146
0.798957 0.262331 0.126768
0.803834 0.251568 0.144102
0.808877 0.243400 0.352522
0.810765 0.276726 0.463892
0.810765 0.277389 0.466497
0.081346 0.255995 0.084332
0.081644 0.255995 0.084400
0.082772 0.256424 0.084649
0.085125 0.259179 0.085133
0.088073 0.261531 0.085683
0.092675 0.264205 0.086285
0.100632 0.266488 0.086895
0.109700 0.267274 0.087613
0.121609 0.267325 0.088316
0.141097 0.266773 0.089099
0.165138 0.265778 0.089848
0.195283 0.265043 0.090589
0.229653 0.258446 0.090973
0.277091 0.260243 0.091925
0.340404 0.270962 0.094034
0.396418 0.269363 0.094972
0.454715 0.268695 0.095916
0.517798 0.273219 0.097248
0.572153 0.283507 0.099340
0.619211 0.284089 0.100524
0.662329 0.288360 0.101975
0.696041 0.294003 0.103722
0.724866 0.301403 0.105780
0.748100 0.304653 0.107798
0.762568 0.306718 0.110219
0.773012 0.310677 0.113089
0.783135 0.310012 0.116307
0.790157 0.311009 0.120592
0.797231 0.304595 0.126347
0.802749 0.289883 0.136235
0.808297 0.254740 0.255571
0.810765 0.276740 0.463929
0.810765 0.278023 0.468959
0.082516 0.285731 0.084961
0.082767 0.285724 0.085018
0.083709 0.286011 0.085228
0.085628 0.287952 0.085631
0.088318 0.290904 0.086151
0.092461 0.293960 0.086713
0.099397 0.296137 0.087390
0.107398 0.297657 0.088110
0.117956 0.298422 0.088918
0.134234 0.298188 0.089689
0.154979 0.297503 0.090419
0.181775 0.296372 0.091098
0.214603 0.295647 0.092000
0.257788 0.296749 0.093289
0.316262 0.308599 0.095411
0.367509 0.305990 0.096289
0.423892 0.304093 0.097142
0.484410 0.308208 0.098619
0.545121 0.318427 0.100854
0.590812 0.317961 0.101882
0.638725 0.321041 0.103196
0.677615 0.327308 0.104914
0.710420 0.335509 0.107351
0.737864 0.336511 0.109175
0.756902 0.341163 0.111509
0.768530 0.347927 0.114472
0.780296 0.344921 0.117454
0.788334 0.343823 0.121305
0.795770 0.340929 0.126548
0.801361 0.336923 0.134597
0.806145 0.334135 0.160334
0.810765 0.276828 0.463974
0.810765 0.278977 0.472515
0.083936 0.325768 0.085719
0.084152 0.325766 0.085768
0.084956 0.326006 0.085949
0.086567 0.327548 0.086293
0.089102 0.331440 0.086795
0.093137 0.334023 0.087442
0.099448 0.336466 0.088135
0.106861 0.338649 0.088995
0.116669 0.339963 0.089823
0.130641 0.340128 0.090574
0.150093 0.339710 0.091276
0.174571 0.338953 0.092329
0.202970 0.337813 0.093479
0.242198 0.337060 0.094661
0.295887 0.349099 0.096702
0.343383 0.346048 0.097589
0.395412 0.342732 0.098535
0.455118 0.345830 0.100077
0.520325 0.355725 0.102272
0.564576 0.354890 0.103304
0.611772 0.356937 0.104538
0.658517 0.362780 0.106538
0.693943 0.369458 0.108919
0.724986 0.371731 0.110682
0.749236 0.376583 0.112903
0.764066 0.381003 0.115982
0.776749 0.381671 0.118810
0.785478 0.384559 0.122363
0.793979 0.379857 0.127109
0.800270 0.373461 0.133701
0.805495 0.366383 0.150191
0.809032 0.372137 0.249159
0.811118 0.409986 0.475695
0.085676 0.377338 0.086641
0.085865 0.377361 0.086684
0.086566 0.377627 0.086843
0.087952 0.378925 0.087229
0.090465 0.383137 0.087869
0.094734 0.385267 0.088554
0.100749 0.388526 0.089414
0.107855 0.390911 0.090236
0.117087 0.392655 0.091051
0.130751 0.393520 0.092037
0.149676 0.393666 0.093363
0.172844 0.393057 0.094557
0.200238 0.392074 0.095748
0.237056 0.391032 0.096855
0.279232 0.390197 0.098024
0.322700 0.386223 0.099057
0.371273 0.382792 0.100089
0.430316 0.385266 0.101593
0.492656 0.394535 0.103708
0.540515 0.392723 0.104659
0.586402 0.394268 0.106164
0.635837 0.399292 0.108319
0.676327 0.404521 0.110574
0.709944 0.406924 0.112256
0.738163 0.409969 0.114535
0.758054 0.415700 0.117686
0.772576 0.416366 0.120323
0.782904 0.416841 0.123702
0.791882 0.417072 0.128114
0.798582 0.416874 0.133786
0.804463 0.408877 0.145437
0.808485 0.401597 0.194291
0.811058 0.416920 0.468175
0.086685 0.412380 0.087265
0.086851 0.412394 0.087316
0.087463 0.412567 0.087502
0.088661 0.413414 0.087854
0.090964 0.416140 0.088462
0.095247 0.418690 0.089219
0.101034 0.422133 0.090082
0.107189 0.423640 0.090834
0.115764 0.425315 0.091681
0.127557 0.426667 0.093094
0.145008 0.426934 0.094344
0.165509 0.426690 0.095561
0.191253 0.426203 0.096734
0.223650 0.425268 0.097858
0.262327 0.424494 0.099212
0.305775 0.423878 0.100585
0.350404 0.420314 0.101549
0.405732 0.422124 0.103054
0.467580 0.430206 0.105169
0.519370 0.428174 0.106431
0.563048 0.428525 0.107963
0.611480 0.432820 0.110084
0.658656 0.437763 0.112275
0.693388 0.439353 0.113931
0.725224 0.442885 0.116437
0.750918 0.448650 0.119466
0.767778 0.449214 0.121908
0.779239 0.452322 0.125373
0.789528 0.452202 0.129397
0.797196 0.449731 0.134321
0.803328 0.447909 0.144051
0.807506 0.448900 0.171857
0.810765 0.439969 0.408961
0.087603 0.445376 0.087907
0.087750 0.445385 0.087952
0.088290 0.445512 0.088116
0.089338 0.446149 0.088486
0.091537 0.448197 0.089092
0.095931 0.451384 0.089846
0.100750 0.453452 0.090590
0.106595 0.455781 0.091365
0.114719 0.457830 0.092623
0.124632 0.459209 0.093970
0.140922 0.459971 0.095271
0.159304 0.460057 0.096482
0.183591 0.459727 0.097623
0.211424 0.459121 0.098998
0.247809 0.458247 0.100353
0.288242 0.457526 0.101661
0.333052 0.457085 0.102985
0.384427 0.458646 0.104450
0.445777 0.466272 0.107066
0.495262 0.463714 0.108268
0.542372 0.463811 0.109801
0.588932 0.467499 0.111844
0.638116 0.472312 0.114117
0.676512 0.473364 0.115978
0.710802 0.476733 0.118410
0.739829 0.480598 0.121284
0.761773 0.482153 0.123748
0.775251 0.483878 0.127084
0.786825 0.484857 0.130854
0.795174 0.485678 0.135324
0.802152 0.483145 0.143729
0.806902 0.480489 0.162951
0.810071 0.488842 0.276970
0.088662 0.481732 0.088759
0.088794 0.481744 0.088809
0.089276 0.481844 0.088993
0.090326 0.482264 0.089340
0.092751 0.483534 0.089879
0.097183 0.486522 0.090637
0.101307 0.487486 0.091291
0.107214 0.489853 0.092541
0.114686 0.491353 0.093886
0.123787 0.492400 0.095179
0.138952 0.493251 0.096481
0.156159 0.493599 0.097705
0.179191 0.493639 0.099189
0.204211 0.493161 0.100547
0.238725 0.492696 0.101945
0.276755 0.492085 0.103249
0.319156 0.491534 0.104512
0.366386 0.491330 0.106069
0.426010 0.497017 0.108910
0.473515 0.494845 0.110081
0.523743 0.494388 0.111556
0.568498 0.497033 0.113599
0.616147 0.500445 0.116269
0.659931 0.500919 0.118047
0.695003 0.503807 0.120419
0.727500 0.507401 0.123238
0.755084 0.509069 0.125768
0.770471 0.510991 0.128916
0.783382 0.513531 0.132513
0.793282 0.512745 0.136525
0.800830 0.512726 0.144538
0.805949 0.513770 0.159474
0.809682 0.513124 0.221719
0.089888 0.515148 0.089825
0.090044 0.515175 0.089871
0.090663 0.515310 0.090038
0.091910 0.515738 0.090352
0.094516 0.516853 0.090838
0.098495 0.519409 0.091533
0.102605 0.521012 0.092735
0.108344 0.523202 0.094115
0.115262 0.524759 0.095433
0.124418 0.526415 0.096788
0.139322 0.527415 0.098122
0.155920 0.528038 0.099736
0.177529 0.528094 0.101221
0.201580 0.527893 0.102650
0.234342 0.527362 0.103991
0.271737 0.526926 0.105471
0.311965 0.526420 0.107231
0.356868 0.525835 0.108913
0.406929 0.525778 0.110687
0.454295 0.523492 0.111815
0.504181 0.523020 0.113282
0.550078 0.525123 0.115734
0.595960 0.528243 0.118357
0.641815 0.528524 0.120094
0.679258 0.530840 0.122381
0.714417 0.534446 0.125436
0.745609 0.535870 0.127807
0.764765 0.538589 0.130852
0.779882 0.540282 0.134153
0.790845 0.541347 0.138045
0.799368 0.542122 0.145988
0.805229 0.540897 0.158203
0.809198 0.543745 0.196696
0.090775 0.542500 0.090353
0.090929 0.542518 0.090395
0.091493 0.542612 0.090550
0.092885 0.542920 0.090839
0.095235 0.543740 0.091286
0.098774 0.545636 0.092238
0.102958 0.547686 0.093501
0.107892 0.549050 0.094743
0.114820 0.550986 0.096111
0.123309 0.552565 0.097455
0.136335 0.553380 0.098915
0.151905 0.554062 0.100495
0.171713 0.554365 0.102020
0.194665 0.554321 0.103465
0.224208 0.554063 0.104856
0.259199 0.553514 0.106559
0.297476 0.553086 0.108372
0.339919 0.552734 0.110114
0.386550 0.552302 0.111756
0.437542 0.552400 0.113478
0.484730 0.551501 0.115262
0.533489 0.553574 0.117787
0.577675 0.556288 0.120419
0.621867 0.556419 0.122085
0.664285 0.558421 0.124565
0.699653 0.561589 0.127589
0.733602 0.563018 0.129853
0.758327 0.565869 0.132798
0.775493 0.567863 0.135894
0.787984 0.569626 0.140398
0.797823 0.570181 0.147610
0.804251 0.571389 0.158386
0.808768 0.572121 0.185059
0.091709 0.570827 0.090887
0.091900 0.570844 0.090927
0.092602 0.570927 0.091071
0.093943 0.571183 0.091341
0.096083 0.571836 0.091943
0.099271 0.573309 0.093008
0.103571 0.575764 0.094347
0.107985 0.576631 0.095480
0.115000 0.578907 0.096917
0.122157 0.579710 0.098192
0.134735 0.580989 0.099850
0.149980 0.581897 0.101462
0.168015 0.582168 0.102976
0.189691 0.582126 0.104401
0.216555 0.581994 0.106089
0.249888 0.581646 0.107943
0.286061 0.581114 0.109698
0.326050 0.580668 0.111444
0.370979 0.580455 0.113167
0.419412 0.580189 0.115109
0.467634 0.580414 0.117219
0.518599 0.581737 0.119714
0.560961 0.584359 0.122328
0.603628 0.584495 0.124203
0.649710 0.586098 0.126727
0.685390 0.589058 0.129732
0.721235 0.590423 0.131885
0.751017 0.592872 0.134688
0.770263 0.595509 0.137675
0.784840 0.596987 0.142742
0.795910 0.598959 0.149549
0.803326 0.599511 0.159078
0.808297 0.601246 0.179778
0.093126 0.600291 0.091482
0.093305 0.600316 0.091519
0.093956 0.600423 0.091760
0.095197 0.600696 0.092221
0.097165 0.601309 0.092930
0.100070 0.602578 0.093931
0.104253 0.604694 0.095282
0.108668 0.605429 0.096411
0.114809 0.606577 0.097729
0.122187 0.607560 0.099346
0.134444 0.608511 0.101025
0.148052 0.608985 0.102567
0.165287 0.609389 0.104127
0.186548 0.609507 0.105808
0.211431 0.609390 0.107722
0.243231 0.609250 0.109658
0.278148 0.608948 0.111459
0.316562 0.608629 0.113216
0.359074 0.608311 0.115283
0.406323 0.608241 0.117433
0.453309 0.608175 0.119475
0.501553 0.608396 0.121542
0.545941 0.609800 0.124342
0.586910 0.609937 0.126217
0.631466 0.610850 0.128762
0.671500 0.612685 0.131767
0.708095 0.613738 0.133858
0.740013 0.615291 0.136584
0.764380 0.617161 0.140441
0.781027 0.618404 0.145211
0.793837 0.619834 0.151537
0.802265 0.620714 0.160222
0.807778 0.622413 0.177379
0.094361 0.622475 0.092322
0.094528 0.622495 0.092388
0.095136 0.622573 0.092624
0.096293 0.622756 0.093066
0.098118 0.623136 0.093746
0.100792 0.623875 0.094703
0.104601 0.625256 0.095989
0.109416 0.626372 0.097241
0.114878 0.627193 0.098645
0.122604 0.628472 0.100445
0.133272 0.629007 0.101980
0.147197 0.629718 0.103623
0.164030 0.630272 0.105322
0.183673 0.630331 0.107331
0.206653 0.630254 0.109278
0.237210 0.630101 0.111207
0.271193 0.629890 0.113106
0.308456 0.629604 0.115269
0.349336 0.629309 0.117455
0.394395 0.629035 0.119593
0.441760 0.629033 0.121711
0.487447 0.629116 0.123928
0.532311 0.629428 0.126272
0.571805 0.629505 0.128119
0.614649 0.630194 0.130633
0.658267 0.631695 0.133644
0.694485 0.632794 0.135687
0.728575 0.634185 0.138710
0.758061 0.636002 0.143175
0.776571 0.637485 0.147732
0.791466 0.638853 0.153487
0.801039 0.640292 0.161648
0.807354 0.641428 0.176333
0.094903 0.643223 0.092523
0.095060 0.643236 0.092586
0.095630 0.643287 0.092817
0.096711 0.643409 0.093248
0.098412 0.643667 0.093912
0.100889 0.644176 0.094844
0.104391 0.645140 0.096094
0.109490 0.646363 0.097507
0.114388 0.646861 0.098897
0.121653 0.647914 0.100734
0.131542 0.648421 0.102321
0.145462 0.649081 0.104047
0.159641 0.649334 0.105762
0.179414 0.649577 0.107940
0.201469 0.649586 0.110023
0.229997 0.649364 0.111921
0.262269 0.649123 0.113915
0.298013 0.648831 0.116222
0.337343 0.648553 0.118476
0.380494 0.648302 0.120630
0.427757 0.648153 0.122753
0.471925 0.648200 0.125109
0.518993 0.648474 0.127487
0.558090 0.648957 0.129837
0.599265 0.649325 0.132351
0.644072 0.650502 0.135346
0.681377 0.651648 0.137331
0.717029 0.652806 0.141285
0.750633 0.654529 0.145574
0.771520 0.656150 0.150234
0.788667 0.657669 0.155483
0.799766 0.658920 0.162802
0.806881 0.660542 0.176109
0.095570 0.662536 0.092757
0.095717 0.662552 0.092820
0.096251 0.662614 0.093046
0.097263 0.662747 0.093468
0.098850 0.663000 0.094117
0.101150 0.663456 0.095027
0.104381 0.664259 0.096247
0.109840 0.665655 0.097845
0.114289 0.666050 0.099258
0.120649 0.666816 0.101001
0.130860 0.667617 0.102808
0.143039 0.667995 0.104428
0.157370 0.668400 0.106478
0.176538 0.668644 0.108736
0.196654 0.668623 0.110778
0.223773 0.668509 0.112812
0.255617 0.668276 0.115111
0.290505 0.667947 0.117516
0.328209 0.667631 0.119786
0.369722 0.667365 0.122016
0.414782 0.667178 0.124352
0.459123 0.667135 0.126751
0.504603 0.667219 0.129086
0.544980 0.667636 0.131484
0.585237 0.668234 0.133852
0.628298 0.669010 0.136853
0.669073 0.670356 0.139378
0.704329 0.671175 0.143484
0.739930 0.672818 0.147762
0.765829 0.674349 0.152117
0.785410 0.676092 0.157368
0.798372 0.677437 0.164033
0.806379 0.678980 0.176112
0.096149 0.681081 0.092786
0.096287 0.681097 0.092849
0.096788 0.681157 0.093074
0.097736 0.681278 0.093495
0.099221 0.681490 0.094142
0.101367 0.681838 0.095049
0.104370 0.682406 0.096263
0.109386 0.683334 0.097855
0.114342 0.683927 0.099548
0.120004 0.684421 0.101225
0.130753 0.685242 0.103289
0.141599 0.685443 0.104829
0.156359 0.685832 0.107253
0.173180 0.685912 0.109383
0.193939 0.685990 0.111651
0.219441 0.685908 0.113798
0.249331 0.685741 0.116313
0.282948 0.685489 0.118781
0.319763 0.685189 0.121150
0.360070 0.684940 0.123538
0.403781 0.684749 0.126087
0.448350 0.684663 0.128559
0.492199 0.684674 0.130949
0.533790 0.684808 0.133282
0.572293 0.685238 0.135707
0.613800 0.685802 0.138302
0.657502 0.687099 0.141245
0.692133 0.687563 0.145399
0.729049 0.688757 0.149459
0.759624 0.689890 0.153787
0.781427 0.691273 0.158773
0.796780 0.692543 0.165090
0.806063 0.693791 0.176290
0.095566 0.699322 0.091348
0.095695 0.699330 0.091385
0.096163 0.699358 0.091519
0.097048 0.699414 0.091969
0.098438 0.699509 0.092668
0.100455 0.699666 0.093653
0.103297 0.699929 0.094977
0.107759 0.700383 0.096718
0.113428 0.700860 0.098625
0.118322 0.701086 0.100318
0.127147 0.701480 0.102403
0.139110 0.701725 0.104304
0.152196 0.701824 0.106473
0.169235 0.701853 0.108933
0.189075 0.701748 0.111284
0.212002 0.701588 0.113455
0.242324 0.701368 0.116174
0.275088 0.701069 0.118733
0.310121 0.700729 0.121154
0.348943 0.700421 0.123611
0.391411 0.700187 0.126222
0.436606 0.700049 0.128757
0.479482 0.700037 0.131215
0.523323 0.700171 0.133605
