negative-ektar-100/Ektar100_Modern_ExtraPunchy.cube
TITLE "Kodak Ektar 100 Modern ExtraPunchy"
# Adobe RGB in/out. REPLACES AgX. Kodak Ektar 100 Modern ExtraPunchy.
LUT_3D_SIZE 5
DOMAIN_MIN 0.0 0.0 0.0
DOMAIN_MAX 1.0 1.0 1.0
0.069662 0.073299 0.081842
0.582746 0.094412 0.080200
0.835957 0.162307 0.090182
0.872454 0.204042 0.125844
0.874374 0.433728 0.680911
0.070340 0.308920 0.080205
0.128206 0.201295 0.081325
0.684782 0.266205 0.090332
0.851718 0.323343 0.117226
0.866560 0.414759 0.663335
0.076564 0.661383 0.086976
0.108983 0.622540 0.091711
0.400446 0.545794 0.098457
0.757123 0.555971 0.120150
0.847414 0.565197 0.336456
0.080686 0.798354 0.090705
0.100597 0.786056 0.098027
0.300139 0.753951 0.116359
0.624357 0.724587 0.133280
0.822636 0.723777 0.174312
0.074538 0.833758 0.081842
0.083151 0.848289 0.081842
0.161742 0.842298 0.085518
0.515891 0.824939 0.107443
0.810792 0.819840 0.115408
0.068250 0.107957 0.320588
0.587383 0.272511 0.622751
0.837011 0.268088 0.508733
0.867453 0.307302 0.536007
0.871455 0.426574 0.674330
0.077419 0.252619 0.225280
0.171931 0.181499 0.172278
0.729911 0.293983 0.276743
0.847998 0.355723 0.357321
0.863633 0.407824 0.656829
0.095528 0.634200 0.228772
0.154005 0.588218 0.217452
0.476327 0.518994 0.201218
0.777266 0.552878 0.242797
0.844706 0.582676 0.528855
0.096121 0.788683 0.184216
0.130776 0.776091 0.197784
0.352314 0.745116 0.216074
0.659258 0.718689 0.231881
0.821197 0.722693 0.283583
0.074430 0.838952 0.087233
0.082902 0.852829 0.086956
0.189936 0.840644 0.118206
0.533116 0.824455 0.168108
0.812952 0.820057 0.184398
0.071333 0.294347 0.710589
0.454442 0.496694 0.815376
0.850446 0.534724 0.809854
0.869125 0.480706 0.763794
0.870147 0.459575 0.754681
0.091838 0.464970 0.704601
0.316825 0.496789 0.738117
0.766771 0.490214 0.719686
0.848881 0.503395 0.717722
0.861846 0.435198 0.730860
0.116259 0.605017 0.568366
0.187800 0.573289 0.545674
0.507397 0.512107 0.510684
0.781020 0.579384 0.586113
0.841336 0.619241 0.687121
0.128327 0.773792 0.541429
0.178887 0.762876 0.533206
0.413506 0.734518 0.516251
0.693226 0.714053 0.512217
0.817340 0.734213 0.603119
0.078664 0.848410 0.579915
0.080904 0.849409 0.573579
0.255164 0.836587 0.489561
0.567474 0.823961 0.484301
0.812741 0.823363 0.504356
0.075238 0.560045 0.867969
0.311546 0.627701 0.885933
0.847274 0.654341 0.887066
0.878636 0.610316 0.856670
0.873531 0.503826 0.818924
0.099059 0.647281 0.871416
0.333023 0.677756 0.883430
0.804391 0.664055 0.866921
0.859585 0.620472 0.837930
0.864969 0.478486 0.803579
0.135057 0.667510 0.777765
0.233945 0.664091 0.780325
0.607860 0.653266 0.774940
0.797811 0.656845 0.773878
0.842587 0.659566 0.777445
0.140877 0.770649 0.721891
0.197169 0.763393 0.717924
0.441998 0.744039 0.710909
0.701770 0.724602 0.703862
0.815359 0.752021 0.745297
0.078459 0.843521 0.669415
0.081119 0.845973 0.664877
0.255716 0.837263 0.680054
0.571128 0.827139 0.672838
0.811889 0.832904 0.718071
0.298850 0.700188 0.927206
0.687884 0.706716 0.927207
0.876609 0.726304 0.927281
0.894286 0.690566 0.910863
0.878039 0.574675 0.880316
0.338279 0.739712 0.926709
0.671742 0.744594 0.926757
0.871100 0.754082 0.924901
0.878634 0.692397 0.898457
0.869753 0.563964 0.873573
0.302187 0.765349 0.891857
0.493582 0.759014 0.888395
0.782495 0.743920 0.875360
0.839782 0.720424 0.861056
0.848597 0.688140 0.849882
0.169745 0.798692 0.847271
0.265553 0.793173 0.844145
0.617031 0.779820 0.835754
0.784113 0.770827 0.826619
0.822073 0.769248 0.824353
0.076349 0.837413 0.768744
0.080971 0.846170 0.780190
0.156202 0.850049 0.802730
0.545483 0.842880 0.815215
0.811655 0.844004 0.813300
