negative-ektar-100/Ektar100_Modern_Normal.cube
TITLE "Kodak Ektar 100 Modern Normal"
# Adobe RGB in/out. REPLACES AgX. Kodak Ektar 100 Modern Normal.
LUT_3D_SIZE 9
DOMAIN_MIN 0.0 0.0 0.0
DOMAIN_MAX 1.0 1.0 1.0
0.076072 0.078059 0.088299
0.107802 0.080971 0.088299
0.357545 0.114865 0.088896
0.618874 0.192732 0.090866
0.765833 0.304185 0.093598
0.849870 0.415846 0.099763
0.898522 0.511114 0.109247
0.924648 0.592023 0.122986
0.941479 0.652536 0.139982
0.076239 0.097696 0.088299
0.088930 0.092576 0.088299
0.269433 0.128131 0.088680
0.564657 0.209740 0.090501
0.746069 0.321814 0.093210
0.839195 0.429658 0.098839
0.893423 0.520445 0.108154
0.922630 0.600168 0.121848
0.940234 0.657914 0.138828
0.080418 0.290119 0.088520
0.112998 0.247966 0.088560
0.232489 0.209415 0.088788
0.463185 0.268957 0.090008
0.689585 0.371053 0.092368
0.809500 0.471511 0.097059
0.878045 0.551360 0.105083
0.916196 0.622426 0.118464
0.935446 0.676337 0.135270
0.092192 0.519256 0.089505
0.135393 0.492091 0.089546
0.281840 0.435757 0.089762
0.443996 0.410425 0.090504
0.633946 0.457940 0.092010
0.769935 0.529608 0.095611
0.855021 0.602911 0.103049
0.903917 0.657511 0.114578
0.928333 0.705252 0.130634
0.112791 0.671244 0.090860
0.160972 0.657751 0.090915
0.312020 0.624344 0.091140
0.477466 0.593805 0.091630
0.627494 0.584766 0.092920
0.742488 0.611684 0.095560
0.831013 0.658550 0.102203
0.888243 0.703980 0.112564
0.920698 0.734378 0.127352
0.140365 0.757280 0.092346
0.189735 0.751658 0.092435
0.331117 0.735768 0.092768
0.498243 0.718258 0.093397
0.644456 0.707702 0.094811
0.741318 0.707611 0.097795
0.815360 0.719222 0.102724
0.876136 0.745028 0.112324
0.913741 0.770511 0.126129
0.174263 0.820162 0.094074
0.217541 0.816742 0.094205
0.345017 0.806422 0.094763
0.507037 0.793409 0.095850
0.651971 0.783144 0.097946
0.744584 0.779203 0.101275
0.814337 0.782557 0.105878
0.868150 0.792364 0.113890
0.907206 0.812680 0.127045
0.206748 0.849490 0.096891
0.243119 0.848443 0.097099
0.355909 0.845158 0.097767
0.507928 0.840472 0.099130
0.650218 0.835975 0.101559
0.743343 0.833583 0.104546
0.812860 0.834115 0.110747
0.866488 0.837619 0.119027
0.901507 0.843491 0.130242
0.234504 0.870461 0.099810
0.265848 0.869901 0.100053
0.364363 0.868115 0.100917
0.503895 0.865612 0.102430
0.641552 0.863306 0.104558
0.737685 0.862085 0.109289
0.808194 0.862539 0.115088
0.861725 0.864876 0.124249
0.898017 0.868972 0.136042
0.076072 0.078712 0.107274
0.112412 0.085183 0.108559
0.357515 0.120862 0.110927
0.605238 0.192853 0.113180
0.757150 0.299862 0.120116
0.844209 0.411100 0.129716
0.895695 0.507971 0.143121
0.923529 0.589589 0.158620
0.940915 0.651217 0.176880
0.076181 0.096655 0.096898
0.083046 0.086949 0.091378
0.253864 0.127142 0.098096
0.546223 0.205689 0.105650
0.736662 0.315463 0.114737
0.833447 0.424077 0.126231
0.890588 0.517010 0.140148
0.921513 0.597594 0.156183
0.939449 0.656548 0.174717
0.079687 0.270247 0.105998
0.105623 0.225480 0.099571
0.204503 0.189359 0.094272
0.435849 0.252875 0.098003
0.676357 0.360222 0.105695
0.803133 0.465463 0.117405
0.875222 0.547114 0.131829
0.914954 0.620172 0.148901
0.934684 0.674839 0.168024
0.090842 0.502037 0.107823
0.129008 0.475860 0.104238
0.265230 0.415649 0.099702
0.422851 0.391778 0.098050
0.618179 0.444764 0.101857
0.763169 0.522306 0.110826
0.851188 0.597903 0.124062
0.902069 0.654989 0.140725
0.927622 0.704151 0.159721
0.110711 0.662534 0.108982
0.156146 0.649290 0.107386
0.303604 0.616162 0.104044
0.465669 0.583213 0.102630
0.616286 0.575181 0.103285
0.737444 0.606534 0.108353
0.827859 0.654820 0.119528
0.886657 0.702271 0.134600
0.920080 0.733310 0.152962
0.138395 0.753647 0.110476
0.186565 0.748087 0.109856
0.326249 0.732309 0.108316
0.491689 0.714848 0.107332
0.637971 0.704412 0.108282
0.737761 0.704734 0.111667
0.813160 0.717261 0.118701
0.874941 0.743640 0.132020
0.913196 0.769628 0.149103
0.172565 0.817986 0.112249
0.215522 0.814599 0.112088
0.342120 0.804361 0.111769
0.503321 0.791428 0.111953
0.648338 0.781250 0.113370
0.742523 0.777480 0.116964
0.812836 0.781138 0.123517
0.867382 0.791473 0.132987
0.906631 0.812116 0.148748
0.205628 0.848850 0.114072
0.241816 0.847812 0.114140
0.354196 0.844555 0.114485
0.505838 0.839834 0.115591
0.648234 0.835384 0.118232
0.742228 0.833058 0.122586
0.812039 0.833689 0.128793
0.865900 0.837324 0.138843
0.901173 0.843358 0.151722
0.233805 0.870152 0.115990
0.265065 0.869597 0.116246
0.363409 0.867830 0.117217
0.502792 0.865357 0.119169
0.640550 0.863088 0.122370
0.737145 0.861913 0.127018
0.807819 0.862428 0.134281
0.861444 0.864839 0.144215
0.897910 0.869018 0.157253
0.076072 0.091665 0.357183
0.112412 0.101772 0.359338
0.370486 0.145350 0.367071
0.626633 0.224938 0.349783
0.755701 0.318715 0.320781
0.839272 0.418211 0.313015
0.891801 0.509523 0.313325
0.921553 0.589335 0.317570
0.939278 0.650603 0.324025
0.076334 0.132430 0.358488
0.113757 0.141524 0.348465
0.313708 0.167208 0.298348
0.558853 0.230046 0.288622
0.732941 0.327918 0.290980
0.827760 0.428610 0.296454
0.886483 0.517463 0.303189
0.919493 0.596748 0.310830
0.937800 0.655699 0.319319
0.078249 0.232840 0.252936
0.096613 0.204793 0.206995
0.155851 0.159599 0.137666
0.411727 0.247865 0.185385
0.662400 0.357109 0.223762
0.792969 0.462591 0.251251
0.870475 0.544142 0.272566
0.912522 0.618125 0.289883
0.933006 0.673262 0.304624
0.087820 0.468575 0.271769
0.117741 0.442127 0.245921
0.234283 0.381917 0.194965
0.377980 0.357161 0.165056
0.588368 0.424112 0.182669
0.750198 0.511471 0.212337
0.843383 0.590470 0.238354
0.898009 0.651138 0.262488
0.925941 0.702441 0.283439
0.106154 0.642323 0.269430
0.145519 0.630174 0.256449
0.283495 0.596552 0.224642
0.438316 0.560402 0.196493
0.588950 0.553574 0.183795
0.723778 0.592681 0.193646
0.820256 0.647096 0.216814
0.882732 0.698168 0.239904
0.918493 0.731186 0.263346
0.133159 0.744256 0.257822
0.178062 0.738974 0.251322
0.313462 0.723766 0.233437
0.474680 0.706552 0.214517
0.620838 0.694441 0.201857
0.727120 0.696170 0.198889
0.807269 0.712535 0.207564
0.871691 0.740335 0.227756
0.911689 0.767598 0.249445
0.167631 0.811963 0.243792
0.209677 0.808709 0.240618
0.333834 0.798810 0.231766
0.492816 0.786192 0.221000
0.638053 0.776249 0.212763
0.736593 0.772872 0.210029
0.808457 0.777311 0.213684
0.864658 0.789209 0.223645
0.904947 0.810739 0.242774
0.202200 0.846997 0.230474
0.237837 0.845994 0.229187
0.349003 0.842838 0.225264
0.499556 0.838053 0.220323
0.642293 0.833754 0.216746
0.738870 0.831611 0.216485
0.809545 0.832517 0.220593
0.863818 0.836531 0.229242
0.900142 0.843038 0.242273
0.231578 0.869235 0.218136
0.262575 0.868701 0.217743
0.360386 0.867000 0.216618
0.499321 0.864627 0.215530
0.637410 0.862480 0.215679
0.735454 0.861451 0.218208
0.806641 0.862150 0.223902
0.860557 0.864788 0.233106
0.897568 0.869226 0.246420
0.076072 0.126850 0.691281
0.112412 0.139193 0.692112
0.370486 0.191324 0.695090
0.658179 0.291968 0.700528
0.774554 0.374257 0.650770
0.844727 0.454854 0.601338
0.892028 0.527409 0.574420
0.920778 0.600541 0.557847
0.938186 0.655965 0.546503
0.076334 0.176141 0.691785
0.116007 0.190937 0.692615
0.374331 0.244039 0.695590
0.624258 0.316201 0.664416
0.750558 0.379391 0.607059
0.832439 0.462035 0.577320
0.886398 0.533850 0.560086
0.918627 0.606650 0.548718
0.936668 0.660633 0.540396
0.078438 0.275771 0.562899
0.103430 0.265500 0.532565
0.243720 0.264143 0.478180
0.464768 0.315223 0.475655
0.675568 0.393882 0.496199
0.794809 0.480803 0.511597
0.869236 0.555492 0.518079
0.911188 0.623592 0.520695
0.931737 0.676799 0.521038
0.085344 0.442118 0.516030
0.109735 0.421325 0.483265
0.214741 0.370733 0.396524
0.330213 0.326716 0.307761
0.574846 0.426886 0.374941
0.744188 0.515387 0.424768
0.838745 0.593715 0.455852
0.895013 0.652974 0.476250
0.924472 0.703431 0.489042
0.101033 0.621520 0.519943
0.134374 0.611276 0.502805
0.261635 0.576404 0.447847
0.409615 0.540084 0.386927
0.555859 0.531837 0.351287
0.708576 0.582738 0.372400
0.813069 0.643096 0.408438
0.878943 0.696267 0.435185
0.916868 0.730750 0.455161
0.126408 0.733181 0.509169
0.167334 0.728447 0.498080
0.297809 0.714489 0.465304
0.454459 0.696959 0.425357
0.600033 0.681724 0.391263
0.711575 0.684387 0.375003
0.798882 0.708247 0.384509
0.867882 0.737724 0.409676
0.909908 0.766357 0.430463
0.160854 0.804370 0.483792
0.201675 0.801375 0.477774
0.322727 0.792169 0.459137
0.479070 0.780214 0.434115
0.624676 0.770637 0.411292
0.727930 0.767615 0.394902
0.801738 0.772940 0.390093
0.860484 0.787104 0.397528
0.902747 0.809713 0.416998
0.197027 0.844560 0.453661
0.232077 0.843623 0.450543
0.341571 0.840455 0.440617
0.490717 0.835895 0.426881
0.634027 0.831851 0.413168
0.734185 0.829958 0.402334
0.806032 0.831206 0.398373
0.860862 0.835721 0.401637
0.898707 0.842876 0.411049
0.228187 0.868020 0.422814
0.258791 0.867523 0.421429
0.355824 0.865942 0.416977
0.494139 0.863745 0.409773
0.632770 0.861800 0.402649
0.732968 0.860992 0.398124
0.804730 0.861952 0.397851
0.859246 0.864914 0.402523
0.897065 0.869724 0.411952
0.076072 0.192539 0.852373
0.112412 0.207315 0.852570
0.370486 0.261613 0.853278
0.658179 0.357611 0.854573
0.803150 0.464658 0.851089
0.858699 0.508022 0.813339
0.896871 0.563856 0.785692
0.921754 0.621157 0.764170
0.938189 0.669392 0.741704
0.076334 0.245335 0.852492
0.116007 0.261205 0.852690
0.374331 0.317196 0.853397
0.659537 0.402929 0.854691
0.779905 0.466529 0.832506
0.846280 0.511984 0.799822
0.891065 0.568877 0.776290
0.919527 0.625310 0.754895
0.936623 0.673533 0.735532
0.080011 0.403888 0.844548
0.121175 0.401169 0.834623
0.325463 0.402387 0.809719
0.550002 0.425349 0.784878
0.712189 0.471485 0.766538
0.809573 0.524427 0.749227
0.873067 0.585665 0.736603
0.911853 0.639531 0.725823
0.931515 0.687924 0.715703
0.084997 0.465778 0.734213
0.110200 0.456364 0.718112
0.236395 0.433412 0.676463
0.414153 0.435844 0.634912
0.612510 0.483393 0.641864
0.753596 0.546642 0.664291
0.841248 0.612868 0.680075
0.894914 0.664401 0.685889
0.923924 0.709040 0.687069
0.097234 0.610006 0.712320
0.126153 0.601151 0.699892
0.247226 0.571686 0.656218
0.393205 0.537782 0.589736
0.523426 0.513937 0.531489
0.703000 0.589325 0.578268
0.810525 0.649354 0.612813
0.877192 0.701324 0.635824
0.915810 0.733975 0.649445
0.120354 0.723677 0.705478
0.156728 0.719675 0.697822
0.282002 0.707550 0.672297
0.435932 0.688615 0.626585
0.579444 0.672418 0.585170
0.695333 0.674337 0.563157
0.791069 0.706622 0.577239
0.864125 0.737938 0.600159
0.907689 0.767520 0.617613
0.153570 0.797046 0.690146
0.192600 0.794414 0.685623
0.310784 0.786219 0.668231
0.464698 0.775296 0.638909
0.610849 0.766212 0.609706
0.717251 0.763288 0.588246
0.793582 0.769325 0.578950
0.856277 0.786322 0.584766
0.900581 0.810043 0.599177
0.191004 0.842072 0.663930
0.225394 0.841129 0.660279
0.333041 0.838138 0.648425
0.480763 0.833997 0.630891
0.624879 0.830315 0.612327
0.728291 0.828702 0.597170
0.801177 0.830274 0.588352
0.857542 0.835311 0.586655
0.897338 0.843351 0.591448
0.224060 0.866825 0.627663
0.254198 0.866382 0.625778
0.350326 0.864971 0.619588
0.487973 0.863021 0.610237
0.627329 0.861348 0.600101
0.729663 0.860817 0.591684
0.802190 0.862078 0.586850
0.857737 0.865402 0.586444
0.896494 0.870638 0.590235
0.076072 0.288651 0.923860
0.112412 0.304182 0.923991
0.370486 0.353795 0.924461
0.658179 0.436818 0.925323
0.810934 0.530514 0.926605
0.872719 0.577573 0.903934
0.904551 0.613916 0.879862
0.924147 0.650766 0.862488
0.939249 0.690940 0.849357
0.076334 0.340394 0.923939
0.116007 0.353460 0.924071
0.374331 0.399251 0.924541
0.659537 0.475346 0.925402
0.808164 0.554168 0.924020
0.863672 0.580080 0.895059
0.898790 0.616835 0.874056
0.921896 0.654170 0.858605
0.937652 0.694535 0.846701
0.080418 0.489800 0.924224
0.130112 0.498632 0.924355
0.388052 0.529515 0.924825
0.617662 0.535711 0.904111
0.748617 0.554478 0.884045
0.827688 0.588162 0.868056
0.880690 0.626615 0.855788
0.914366 0.665875 0.846106
0.932411 0.704853 0.833988
0.086747 0.537550 0.867933
0.119090 0.534648 0.864252
0.281162 0.529966 0.854012
0.486216 0.536153 0.842272
0.666495 0.561433 0.831047
0.775181 0.603655 0.825389
0.850847 0.643860 0.821745
0.898076 0.686503 0.817914
0.924519 0.719895 0.813161
0.095919 0.620071 0.830820
0.124078 0.615198 0.824805
0.250293 0.600381 0.806552
0.415114 0.584122 0.782551
0.580848 0.590956 0.767648
0.722157 0.626902 0.771727
0.816142 0.671695 0.780904
0.878683 0.712191 0.787469
0.915907 0.741970 0.790343
0.116235 0.719401 0.818613
0.149106 0.716260 0.814181
0.270492 0.706547 0.799962
0.425034 0.690695 0.777306
0.568414 0.674663 0.745036
0.679482 0.667084 0.714026
0.788419 0.711515 0.740252
0.862743 0.743300 0.758956
0.906718 0.772382 0.769838
0.147121 0.791695 0.809521
0.184012 0.789488 0.806696
0.299674 0.782527 0.797471
0.451857 0.772974 0.782161
0.598851 0.764545 0.763871
0.707413 0.761135 0.742658
0.785411 0.767091 0.732333
0.852713 0.787691 0.740056
0.898910 0.812545 0.751329
0.184776 0.839832 0.796369
0.218491 0.839022 0.794484
0.324311 0.836437 0.788194
0.470771 0.832828 0.778545
0.615892 0.829602 0.767441
0.721823 0.828266 0.752914
0.796187 0.830053 0.743366
0.854173 0.835551 0.740236
0.896051 0.844488 0.743668
0.219562 0.865910 0.777679
0.249201 0.865531 0.776616
0.344377 0.864328 0.773076
0.481381 0.862685 0.767164
0.621605 0.861343 0.757613
0.725846 0.861127 0.749057
0.799580 0.862698 0.743219
0.856198 0.866387 0.741013
0.895940 0.872061 0.742290
0.076072 0.397667 0.960409
0.112412 0.410141 0.960454
0.370486 0.454043 0.960616
0.658179 0.514747 0.960913
0.810934 0.595392 0.961355
0.883316 0.645729 0.955166
0.911706 0.662601 0.940574
0.927228 0.688301 0.923786
0.940998 0.713233 0.906369
0.076334 0.441643 0.960436
0.116007 0.453732 0.960481
0.374331 0.488135 0.960643
0.659537 0.544780 0.960940
0.811483 0.618557 0.961381
0.875659 0.646640 0.950884
0.907282 0.664696 0.937536
0.925009 0.691044 0.919677
0.939404 0.715311 0.903512
0.080418 0.557968 0.960534
0.130112 0.566054 0.960579
0.388052 0.594469 0.960741
0.663828 0.634383 0.960867
0.776104 0.637055 0.948536
0.845761 0.649915 0.937230
0.889667 0.671892 0.921228
0.917788 0.700424 0.906342
0.934122 0.722578 0.894102
0.089615 0.628975 0.942462
0.131977 0.627849 0.940980
0.322998 0.625846 0.936382
0.544175 0.627860 0.925656
0.704077 0.638207 0.913381
0.799384 0.657879 0.902837
0.864000 0.685231 0.894100
0.903507 0.712022 0.886608
0.926062 0.735528 0.879784
0.097637 0.657724 0.899147
0.129188 0.655482 0.896647
0.270060 0.649864 0.889018
0.455409 0.647224 0.879331
0.630200 0.655142 0.871712
0.747390 0.676476 0.867903
0.827903 0.705390 0.866532
0.883163 0.729851 0.865577
0.917138 0.754827 0.863955
0.114252 0.724664 0.879192
0.145888 0.722530 0.876920
0.267954 0.716013 0.869569
0.429205 0.707950 0.858847
0.584691 0.703435 0.848243
0.707154 0.709666 0.841461
0.798407 0.730118 0.844188
0.866324 0.756037 0.847852
0.907601 0.781845 0.850066
0.141929 0.790286 0.870899
0.177203 0.788547 0.869274
0.291099 0.783016 0.863891
0.443227 0.775302 0.855564
0.592304 0.768262 0.846044
0.702447 0.764686 0.832612
0.777607 0.766572 0.821584
0.851531 0.793337 0.831586
0.898374 0.818330 0.838137
0.178956 0.838655 0.862838
0.212056 0.837990 0.861803
0.316264 0.835861 0.858345
0.461813 0.832871 0.852912
0.608161 0.830194 0.846602
0.716385 0.829136 0.838296
0.791742 0.830892 0.831357
0.850954 0.836590 0.828780
0.894999 0.846437 0.831678
0.215031 0.865512 0.852630
0.244175 0.865205 0.852026
0.338423 0.864234 0.849997
0.474860 0.862935 0.846788
0.616050 0.861967 0.842079
0.722220 0.862086 0.836438
0.797135 0.863954 0.832329
0.854769 0.867968 0.830477
0.895471 0.874068 0.830898
0.076072 0.502722 0.978018
0.112412 0.511400 0.978030
0.370486 0.541776 0.978069
0.658179 0.594815 0.978143
0.810934 0.653095 0.978252
0.891346 0.707037 0.977559
0.916265 0.710815 0.970167
0.930275 0.721083 0.957492
0.942354 0.735834 0.947235
0.076334 0.533223 0.978025
0.116007 0.541561 0.978036
0.374331 0.570816 0.978076
0.659537 0.618133 0.978149
0.811483 0.671859 0.978259
0.884351 0.707044 0.976203
0.912970 0.711735 0.967311
0.928131 0.722524 0.955456
0.941271 0.737562 0.945737
0.080418 0.627261 0.978049
0.130112 0.632852 0.978060
0.388052 0.652459 0.978100
0.664377 0.686786 0.978173
0.796524 0.705842 0.976138
0.860811 0.707456 0.969074
0.898045 0.715048 0.958080
0.921107 0.727601 0.948770
0.936171 0.743657 0.940736
0.091965 0.705724 0.975019
0.144488 0.704910 0.974569
0.356652 0.702821 0.972610
0.585513 0.701563 0.966031
0.733893 0.703614 0.958533
0.817667 0.710348 0.951182
0.873798 0.721771 0.944433
0.909688 0.736976 0.938364
0.928094 0.754707 0.931335
0.100979 0.709198 0.949308
0.137815 0.708516 0.948400
0.295089 0.706931 0.945449
0.494933 0.706735 0.941143
0.666821 0.710632 0.936671
0.768941 0.719954 0.930931
0.840973 0.734233 0.924668
0.889054 0.751964 0.919265
0.918971 0.771521 0.914116
0.114946 0.741837 0.930713
0.147793 0.740670 0.929028
0.275359 0.737303 0.923586
0.446621 0.733964 0.915720
0.612244 0.734257 0.907968
0.731352 0.741315 0.902634
0.811813 0.755620 0.900237
0.871256 0.774671 0.899368
0.909963 0.795521 0.898450
0.139016 0.794947 0.915876
0.173410 0.793716 0.914493
0.286957 0.789837 0.909893
0.441667 0.784627 0.902739
0.595444 0.780579 0.894615
0.709873 0.780765 0.887551
0.790939 0.789225 0.884138
0.855876 0.807209 0.885156
0.899516 0.825222 0.886911
0.174158 0.839139 0.906503
0.206778 0.838626 0.905557
0.309834 0.836987 0.902375
0.455111 0.834703 0.897305
0.603100 0.832731 0.891277
0.713483 0.832149 0.885401
0.789531 0.833874 0.880662
0.848040 0.838530 0.877762
0.894611 0.849599 0.880872
0.210795 0.865871 0.896522
0.239484 0.865638 0.895951
0.332901 0.864908 0.894023
0.468911 0.863974 0.890941
0.611130 0.863402 0.887279
0.719139 0.863870 0.883769
0.795126 0.866000 0.881108
0.853598 0.870246 0.879828
0.895147 0.876716 0.880112
0.076072 0.598288 0.985958
0.112412 0.605863 0.985967
0.370486 0.626494 0.985997
0.658179 0.662447 0.986052
0.810934 0.708324 0.986134
0.895834 0.749235 0.986245
0.919271 0.747578 0.980987
0.932779 0.751462 0.976394
0.943569 0.760296 0.970911
0.076334 0.620687 0.985963
0.116007 0.626349 0.985972
0.374331 0.646194 0.986002
0.659537 0.680901 0.986057
0.811483 0.719761 0.986139
0.890054 0.749593 0.985111
0.916555 0.748037 0.980073
0.930735 0.752512 0.975720
0.942517 0.761700 0.969454
0.080418 0.689036 0.985982
0.130112 0.694031 0.985990
0.388052 0.707937 0.986020
0.664377 0.728844 0.986075
0.808915 0.752249 0.985508
0.870058 0.748420 0.981140
0.904746 0.749887 0.977083
0.923997 0.756311 0.973487
0.938105 0.766714 0.964591
0.094220 0.756876 0.985108
0.154237 0.755860 0.984684
0.381068 0.752826 0.983261
0.614056 0.749276 0.980991
0.751600 0.747403 0.978234
0.831038 0.748884 0.975347
0.881523 0.754385 0.971073
0.913324 0.763681 0.963632
0.930129 0.776010 0.956967
0.104769 0.750800 0.975155
0.147257 0.750334 0.974888
0.316739 0.749135 0.974000
0.527405 0.748489 0.971160
0.689884 0.750115 0.966288
0.786749 0.755211 0.961303
0.852683 0.764049 0.956574
0.894864 0.776129 0.952202
0.920964 0.790555 0.948126
0.117500 0.768140 0.958622
0.153127 0.767577 0.958002
0.288278 0.766056 0.955964
0.468110 0.764977 0.952871
0.638265 0.766418 0.949449
0.747301 0.771999 0.946320
0.822763 0.782097 0.943707
0.876599 0.795855 0.941552
0.911914 0.811857 0.939546
0.138646 0.806895 0.947489
0.173188 0.806156 0.946948
0.288456 0.803911 0.945094
0.447380 0.801264 0.942208
0.606369 0.800245 0.938950
0.722451 0.803126 0.936104
0.802259 0.811502 0.933823
0.862211 0.823260 0.932080
0.901706 0.833027 0.931043
0.170909 0.841852 0.941050
0.203264 0.841494 0.940632
0.305862 0.840367 0.939219
0.451789 0.838874 0.936947
0.602016 0.837819 0.933761
0.714638 0.838164 0.928551
0.792433 0.840883 0.924554
0.852670 0.846476 0.922858
0.895528 0.854582 0.923197
0.207150 0.867212 0.935699
0.235461 0.867051 0.935434
0.328220 0.866561 0.934377
0.464013 0.865994 0.931531
0.607312 0.865834 0.928107
0.716990 0.866666 0.924764
0.793927 0.869049 0.922155
0.852978 0.873420 0.920812
0.895028 0.880054 0.921100
