negative-ektar-100/Ektar100_Classic_ExtraSoft.cube
TITLE "Kodak Ektar 100 Classic ExtraSoft"
# Adobe RGB in/out. REPLACES AgX. Kodak Ektar 100 Classic ExtraSoft.
LUT_3D_SIZE 5
DOMAIN_MIN 0.0 0.0 0.0
DOMAIN_MAX 1.0 1.0 1.0
0.057526 0.063911 0.078815
0.326625 0.073481 0.082750
0.626890 0.094564 0.091044
0.696086 0.113763 0.107078
0.718020 0.306159 0.559442
0.060672 0.123903 0.082650
0.095369 0.127432 0.086859
0.533638 0.151581 0.093618
0.689851 0.193805 0.107266
0.718021 0.306167 0.559440
0.065892 0.447118 0.089631
0.083018 0.457924 0.093872
0.334937 0.457278 0.103484
0.646128 0.474594 0.115243
0.717492 0.488073 0.258526
0.070536 0.639060 0.094002
0.082740 0.641117 0.099955
0.228216 0.642418 0.112707
0.550677 0.642394 0.126055
0.714683 0.648652 0.156041
0.067901 0.698586 0.078832
0.076155 0.711125 0.078968
0.131948 0.715382 0.093589
0.488362 0.712469 0.113831
0.716002 0.715955 0.121292
0.058859 0.077742 0.138565
0.320572 0.113781 0.349751
0.636298 0.126562 0.277296
0.695787 0.165236 0.361887
0.718021 0.306175 0.559465
0.067187 0.130400 0.134870
0.155720 0.158132 0.164637
0.588847 0.185803 0.178053
0.691580 0.234698 0.226681
0.718021 0.306167 0.559441
0.076522 0.446854 0.135837
0.105400 0.454031 0.145624
0.430386 0.461265 0.163885
0.668875 0.484771 0.188663
0.717402 0.513208 0.466861
0.080311 0.638461 0.132302
0.097625 0.639975 0.141637
0.296599 0.641388 0.166174
0.581973 0.643081 0.194300
0.715344 0.649989 0.244806
0.067902 0.703493 0.094716
0.076155 0.715545 0.094713
0.152486 0.715493 0.118379
0.503510 0.712985 0.154875
0.717950 0.716384 0.172452
0.061212 0.119633 0.464194
0.194086 0.223964 0.601804
0.621112 0.262752 0.602591
0.693780 0.307887 0.614114
0.718021 0.341658 0.643197
0.071136 0.212201 0.471536
0.145068 0.278295 0.551351
0.588311 0.326955 0.580431
0.690561 0.374043 0.600949
0.718021 0.338597 0.635616
0.087834 0.469005 0.438967
0.133177 0.477554 0.458210
0.499536 0.504480 0.503264
0.676925 0.523365 0.537889
0.717079 0.548146 0.628621
0.097349 0.641434 0.433628
0.127616 0.642714 0.442174
0.386052 0.644925 0.466618
0.625652 0.648752 0.489365
0.715841 0.659990 0.585250
0.072503 0.713698 0.521148
0.074708 0.717027 0.521146
0.220077 0.715763 0.454235
0.526160 0.714686 0.469576
0.718620 0.718926 0.494840
0.064027 0.280835 0.675208
0.123154 0.352112 0.698664
0.608608 0.385285 0.700002
0.692063 0.407771 0.702315
0.718020 0.376090 0.700936
0.072629 0.375796 0.679684
0.131057 0.409973 0.695377
0.584958 0.431967 0.698825
0.689569 0.451874 0.701706
0.718018 0.374871 0.699572
0.096251 0.528763 0.663324
0.147822 0.539547 0.676144
0.514810 0.555077 0.690237
0.679510 0.569377 0.697271
0.716829 0.581024 0.706356
0.108421 0.651671 0.643824
0.146216 0.653371 0.649669
0.419227 0.657478 0.666327
0.646488 0.663068 0.680031
0.716069 0.673298 0.704611
0.072850 0.715484 0.620288
0.075680 0.719320 0.620537
0.227982 0.719618 0.643901
0.532153 0.719039 0.649451
0.718776 0.726174 0.690974
0.118465 0.431191 0.764991
0.440280 0.437437 0.764992
0.660205 0.456440 0.765081
0.699239 0.466411 0.765635
0.718021 0.428395 0.764229
0.132991 0.469813 0.764397
0.421349 0.475859 0.764455
0.655439 0.494119 0.764674
0.698595 0.503830 0.765314
0.718021 0.436213 0.766528
0.156514 0.586374 0.763182
0.337739 0.588684 0.763410
0.628738 0.596835 0.763887
0.695693 0.603146 0.764669
0.718467 0.599112 0.767022
0.127225 0.673900 0.763051
0.202406 0.674394 0.763410
0.544048 0.676254 0.764068
0.687088 0.679140 0.764878
0.718460 0.682190 0.766697
0.071277 0.715977 0.711899
0.076155 0.723517 0.724258
0.136324 0.730922 0.750786
0.518292 0.731147 0.766359
0.718944 0.734056 0.767227
