negative-ektar-100/Ektar100_Classic_Normal.cube
TITLE "Kodak Ektar 100 Classic Normal"
# Adobe RGB in/out. REPLACES AgX. Kodak Ektar 100 Classic Normal.
LUT_3D_SIZE 9
DOMAIN_MIN 0.0 0.0 0.0
DOMAIN_MAX 1.0 1.0 1.0
0.074251 0.074802 0.087322
0.101471 0.088278 0.089376
0.196365 0.109775 0.091222
0.347152 0.145617 0.093594
0.487674 0.200572 0.097866
0.598227 0.268821 0.104428
0.686220 0.343717 0.114859
0.743934 0.412908 0.128351
0.786434 0.478805 0.146922
0.078225 0.103386 0.088965
0.102900 0.109628 0.089782
0.197871 0.130310 0.091415
0.348303 0.165391 0.093759
0.488338 0.219002 0.098128
0.598645 0.286305 0.104717
0.686442 0.356804 0.115245
0.744053 0.423685 0.128704
0.786528 0.486406 0.147362
0.084438 0.174482 0.090443
0.107565 0.179912 0.090919
0.203902 0.199936 0.092332
0.352416 0.233257 0.094624
0.490718 0.283654 0.099276
0.600144 0.341422 0.106248
0.687235 0.399322 0.116808
0.744481 0.460556 0.130149
0.786865 0.512521 0.149109
0.093756 0.295542 0.092083
0.117776 0.300253 0.092495
0.214835 0.316844 0.093641
0.359905 0.342638 0.096411
0.495063 0.377464 0.101421
0.602888 0.419579 0.108895
0.688687 0.466869 0.119578
0.745264 0.510401 0.133251
0.787484 0.556523 0.152295
0.107748 0.422023 0.094159
0.134112 0.425012 0.094544
0.230666 0.435603 0.096092
0.370923 0.454525 0.099335
0.501484 0.477630 0.104180
0.606956 0.505434 0.112513
0.690845 0.538161 0.123493
0.746431 0.574938 0.137999
0.788405 0.612707 0.156957
0.128995 0.531082 0.097767
0.156739 0.532960 0.098199
0.251193 0.539638 0.100160
0.385484 0.551652 0.103400
0.510016 0.569015 0.109350
0.612389 0.591440 0.117575
0.693732 0.615354 0.128411
0.747994 0.638820 0.144145
0.789643 0.664606 0.163073
0.157889 0.625928 0.102990
0.185146 0.627061 0.103440
0.276094 0.631096 0.105211
0.402875 0.638388 0.109603
0.520641 0.648994 0.115387
0.619192 0.662796 0.124366
0.697358 0.679185 0.136135
0.749963 0.694862 0.152078
0.791206 0.708398 0.171726
0.192012 0.696204 0.110447
0.218545 0.696931 0.111051
0.304128 0.699528 0.113138
0.421895 0.702922 0.117306
0.531414 0.707599 0.123873
0.627351 0.713708 0.132595
0.701721 0.721156 0.145697
0.752338 0.729815 0.161744
0.793098 0.739534 0.182019
0.231760 0.736070 0.119866
0.256695 0.736461 0.120534
0.334106 0.737856 0.122876
0.442209 0.740394 0.126962
0.543577 0.744120 0.133860
0.636830 0.749025 0.144172
0.706807 0.755066 0.157322
0.755117 0.762165 0.174094
0.795318 0.770227 0.193796
0.074251 0.083940 0.104049
0.101471 0.091902 0.104471
0.196365 0.112355 0.106871
0.347152 0.148303 0.111068
0.487674 0.203089 0.117104
0.598227 0.271175 0.125844
0.686220 0.345474 0.138015
0.743934 0.414351 0.153963
0.786434 0.479822 0.173718
0.078225 0.106483 0.104306
0.102900 0.112219 0.104791
0.197871 0.132783 0.107277
0.348303 0.168107 0.111428
0.488338 0.221354 0.117530
0.598645 0.288577 0.126212
0.686442 0.358510 0.138485
0.744053 0.425096 0.154435
0.786528 0.487402 0.174219
0.084438 0.177068 0.105625
0.107565 0.182616 0.106319
0.203902 0.202460 0.108699
0.352416 0.235723 0.112693
0.490718 0.285938 0.119033
0.600144 0.343188 0.127515
0.687235 0.400806 0.140160
0.744481 0.461625 0.156123
0.786865 0.513451 0.176011
0.093756 0.297774 0.108320
0.117776 0.302465 0.108961
0.214835 0.318990 0.111172
0.359905 0.344399 0.114911
0.495063 0.379023 0.121702
0.602888 0.421002 0.130006
0.688687 0.467920 0.143187
0.745264 0.511337 0.159187
0.787484 0.557359 0.179279
0.107748 0.423438 0.111994
0.134112 0.426419 0.112572
0.230666 0.436980 0.114575
0.370923 0.455852 0.119104
0.501484 0.478649 0.125485
0.606956 0.506381 0.134688
0.690845 0.539035 0.147607
0.746431 0.575740 0.163714
0.788405 0.613267 0.184101
0.128995 0.531971 0.116945
0.156739 0.533845 0.117648
0.251193 0.540509 0.120105
0.385484 0.552498 0.124375
0.510016 0.569828 0.130526
0.612389 0.592213 0.140991
0.693732 0.615909 0.154043
0.747994 0.639335 0.170571
0.789643 0.665081 0.190498
0.157889 0.626464 0.123804
0.185146 0.627595 0.124431
0.276094 0.631623 0.126629
0.402875 0.638903 0.130817
0.520641 0.649493 0.138637
0.619192 0.663274 0.148730
0.697358 0.679553 0.161909
0.749963 0.695208 0.179056
0.791206 0.708617 0.198450
0.192012 0.696548 0.131864
0.218545 0.697274 0.132679
0.304128 0.699867 0.135562
0.421895 0.703149 0.140699
0.531414 0.707819 0.148094
0.627351 0.713920 0.158572
0.701721 0.721359 0.172326
0.752338 0.730007 0.189101
0.793098 0.739715 0.207908
0.231760 0.736255 0.143505
0.256695 0.736645 0.144249
0.334106 0.738039 0.146886
0.442209 0.740574 0.152118
0.543577 0.744296 0.159760
0.636830 0.749196 0.170601
0.706807 0.755231 0.184481
0.755117 0.762323 0.200620
0.795318 0.770378 0.218807
0.074251 0.096658 0.192698
0.101471 0.101541 0.193474
0.196365 0.122398 0.196247
0.347152 0.157481 0.201286
0.487674 0.211938 0.208684
0.598227 0.279536 0.218435
0.686220 0.351729 0.230466
0.743934 0.419497 0.245222
0.786434 0.483450 0.263032
0.078225 0.115858 0.193169
0.102900 0.122242 0.193943
0.197871 0.140987 0.196712
0.348303 0.177547 0.201744
0.488338 0.229649 0.209132
0.598645 0.296657 0.218870
0.686442 0.364512 0.230887
0.744053 0.430130 0.245667
0.786528 0.490958 0.263462
0.084438 0.186600 0.194852
0.107565 0.192194 0.195623
0.203902 0.211329 0.198377
0.352416 0.244752 0.203384
0.490718 0.294059 0.210736
0.600144 0.349475 0.220431
0.687235 0.406102 0.232398
0.744481 0.465438 0.247262
0.786865 0.516777 0.265006
0.093756 0.305715 0.197926
0.117776 0.310338 0.198690
0.214835 0.325731 0.201418
0.359905 0.350668 0.206380
0.495063 0.384579 0.213669
0.602888 0.426078 0.223285
0.688687 0.471667 0.235163
0.745264 0.514680 0.250184
0.787484 0.560352 0.267834
0.107748 0.428489 0.202472
0.134112 0.431439 0.203225
0.230666 0.441895 0.205916
0.370923 0.460569 0.210813
0.501484 0.482289 0.218011
0.606956 0.509767 0.227514
0.690845 0.542158 0.239317
0.746431 0.578609 0.254526
0.788405 0.615267 0.272039
0.128995 0.535148 0.208517
0.156739 0.537008 0.209257
0.251193 0.543621 0.211901
0.385484 0.555524 0.216714
0.510016 0.572736 0.223795
0.612389 0.594981 0.233153
0.693732 0.617892 0.245298
0.747994 0.641176 0.260337
0.789643 0.666782 0.277673
0.157889 0.628381 0.216055
0.185146 0.629505 0.216779
0.276094 0.633509 0.219367
0.402875 0.640747 0.224082
0.520641 0.651277 0.231024
0.619192 0.664985 0.240349
0.697358 0.680871 0.252806
0.749963 0.696446 0.267641
0.791206 0.709401 0.284760
0.192012 0.697780 0.225052
0.218545 0.698503 0.225758
0.304128 0.700776 0.228284
0.421895 0.703961 0.232887
0.531414 0.708607 0.239764
0.627351 0.714679 0.249594
0.701721 0.722084 0.261838
0.752338 0.730695 0.276437
0.793098 0.740364 0.293308
0.231760 0.736917 0.235456
0.256695 0.737305 0.236143
0.334106 0.738694 0.238601
0.442209 0.741219 0.243493
0.543577 0.744926 0.250734
0.636830 0.749809 0.260363
0.706807 0.755822 0.272372
0.755117 0.762890 0.286711
0.795318 0.770920 0.302995
0.074251 0.113545 0.342151
0.101471 0.119503 0.342721
0.196365 0.138943 0.344764
0.347152 0.175135 0.348505
0.487674 0.227511 0.354056
0.598227 0.294565 0.361477
0.686220 0.363003 0.370800
0.743934 0.428824 0.382037
0.786434 0.490035 0.395130
0.078225 0.133954 0.342497
0.102900 0.138822 0.343066
0.197871 0.157903 0.345108
0.348303 0.195024 0.348847
0.488338 0.245802 0.354395
0.598645 0.311209 0.361811
0.686442 0.375024 0.371130
0.744053 0.439260 0.382362
0.786528 0.497415 0.395449
0.084438 0.203679 0.343735
0.107565 0.208914 0.344304
0.203902 0.226935 0.346341
0.352416 0.260896 0.350072
0.490718 0.308681 0.355609
0.600144 0.360814 0.363010
0.687235 0.415691 0.372317
0.744481 0.472350 0.383528
0.786865 0.522825 0.396592
0.093756 0.319984 0.346008
0.117776 0.323907 0.346574
0.214835 0.337701 0.348604
0.359905 0.361977 0.352320
0.495063 0.394623 0.357836
0.602888 0.435282 0.365210
0.688687 0.478462 0.374494
0.745264 0.520759 0.385667
0.787484 0.565804 0.398690
0.107748 0.437648 0.349390
0.134112 0.440545 0.349953
0.230666 0.450817 0.351971
0.370923 0.467574 0.355666
0.501484 0.488895 0.361152
0.606956 0.515921 0.368490
0.690845 0.547846 0.377737
0.746431 0.583842 0.388855
0.788405 0.618915 0.401816
0.128995 0.540932 0.353930
0.156739 0.542766 0.354489
0.251193 0.549289 0.356492
0.385484 0.561037 0.360159
0.510016 0.578037 0.365604
0.612389 0.600029 0.372910
0.693732 0.621509 0.382093
0.747994 0.644536 0.393138
0.789643 0.669891 0.406017
0.157889 0.631879 0.359655
0.185146 0.632991 0.360208
0.276094 0.636951 0.362192
0.402875 0.644112 0.365825
0.520641 0.654534 0.371237
0.619192 0.668109 0.378487
0.697358 0.683277 0.387591
0.749963 0.698710 0.398546
0.791206 0.710835 0.411325
0.192012 0.700032 0.366576
0.218545 0.700548 0.367123
0.304128 0.702289 0.369092
0.421895 0.705444 0.372701
0.531414 0.710048 0.378062
0.627351 0.716066 0.385235
0.701721 0.723409 0.394247
0.752338 0.731952 0.405095
0.793098 0.741550 0.417535
0.231760 0.738128 0.374725
0.256695 0.738514 0.375268
0.334106 0.739892 0.377213
0.442209 0.742400 0.380776
0.543577 0.746081 0.386070
0.636830 0.750931 0.393157
0.706807 0.756905 0.402063
0.755117 0.763929 0.412789
0.795318 0.771911 0.424091
0.074251 0.139324 0.496006
0.101471 0.144268 0.496390
0.196365 0.164185 0.497764
0.347152 0.201007 0.500285
0.487674 0.251576 0.504036
0.598227 0.316274 0.509069
0.686220 0.378688 0.514271
0.743934 0.442455 0.520160
0.786434 0.499677 0.527036
0.078225 0.158324 0.496239
0.102900 0.164034 0.496622
0.197871 0.184202 0.497996
0.348303 0.219408 0.500515
0.488338 0.269691 0.504265
0.598645 0.330640 0.509296
0.686442 0.390286 0.514444
0.744053 0.452617 0.520331
0.786528 0.506876 0.527203
0.084438 0.227330 0.497072
0.107565 0.232145 0.497454
0.203902 0.250961 0.498826
0.352416 0.284048 0.501342
0.490718 0.328527 0.505087
0.600144 0.376658 0.510111
0.687235 0.429686 0.515065
0.744481 0.482451 0.520943
0.786865 0.531705 0.527804
0.093756 0.338008 0.498601
0.117776 0.341765 0.498983
0.214835 0.355003 0.500351
0.359905 0.377733 0.502861
0.495063 0.409246 0.506597
0.602888 0.448742 0.511341
0.688687 0.488401 0.516206
0.745264 0.529685 0.522065
0.787484 0.573834 0.528907
0.107748 0.451047 0.500882
0.134112 0.453869 0.501262
0.230666 0.463249 0.502626
0.370923 0.477805 0.505126
0.501484 0.498565 0.508848
0.606956 0.524953 0.513062
0.690845 0.556214 0.517905
0.746431 0.591557 0.523739
0.788405 0.624292 0.530551
0.128995 0.549436 0.503951
0.156739 0.551233 0.504329
0.251193 0.557629 0.505686
0.385484 0.569155 0.508174
0.510016 0.585852 0.511548
0.612389 0.606993 0.515376
0.693732 0.626842 0.520190
0.747994 0.649498 0.525989
0.789643 0.674487 0.532761
0.157889 0.637040 0.507831
0.185146 0.638134 0.508207
0.276094 0.642031 0.509555
0.402875 0.649080 0.511664
0.520641 0.659347 0.514500
0.619192 0.672730 0.518299
0.697358 0.686834 0.523075
0.749963 0.701441 0.528831
0.791206 0.712955 0.535555
0.192012 0.702329 0.512059
0.218545 0.702810 0.512346
0.304128 0.704526 0.513377
0.421895 0.707637 0.515267
0.531414 0.712179 0.518076
0.627351 0.718119 0.521839
0.701721 0.725372 0.526571
0.752338 0.733816 0.532276
0.793098 0.743309 0.538940
0.231760 0.739923 0.516327
0.256695 0.740305 0.516611
0.334106 0.741669 0.517631
0.442209 0.744150 0.519499
0.543577 0.747793 0.522277
0.636830 0.752595 0.525999
0.706807 0.758511 0.530681
0.755117 0.765471 0.536326
0.795318 0.773385 0.542923
0.074251 0.173962 0.614145
0.101471 0.179407 0.614370
0.196365 0.199431 0.615174
0.347152 0.232808 0.616650
0.487674 0.283198 0.618849
0.598227 0.341069 0.621804
0.686220 0.399025 0.625535
0.743934 0.460315 0.630052
0.786434 0.512335 0.635357
0.078225 0.193856 0.614281
0.102900 0.199292 0.614505
0.197871 0.217935 0.615309
0.348303 0.251548 0.616785
0.488338 0.300199 0.618984
0.598645 0.354233 0.621938
0.686442 0.410120 0.625667
0.744053 0.468333 0.630183
0.786528 0.519307 0.635486
0.084438 0.259813 0.614769
0.107565 0.264874 0.614992
0.203902 0.282622 0.615796
0.352416 0.313744 0.617270
0.490718 0.352233 0.619466
0.600144 0.397085 0.622417
0.687235 0.447989 0.626143
0.744481 0.495680 0.630653
0.786865 0.543409 0.635952
0.093756 0.361215 0.615664
0.117776 0.364701 0.615887
0.214835 0.376760 0.616689
0.359905 0.398112 0.618160
0.495063 0.428311 0.620352
0.602888 0.465289 0.623297
0.688687 0.501427 0.627016
0.745264 0.541445 0.631518
0.787484 0.584460 0.636806
0.107748 0.467101 0.617000
0.134112 0.469317 0.617223
0.230666 0.477170 0.618022
0.370923 0.491196 0.619489
0.501484 0.511258 0.621674
0.606956 0.536847 0.624611
0.690845 0.567268 0.628319
0.746431 0.601781 0.632809
0.788405 0.631414 0.638082
0.128995 0.560663 0.618799
0.156739 0.562415 0.619021
0.251193 0.568648 0.619817
0.385484 0.579892 0.621278
0.510016 0.596202 0.623455
0.612389 0.614521 0.626380
0.693732 0.633907 0.630074
0.747994 0.656085 0.634547
0.789643 0.680029 0.639801
0.157889 0.643884 0.621077
0.185146 0.644954 0.621298
0.276094 0.648770 0.622090
0.402875 0.655675 0.623544
0.520641 0.665740 0.625710
0.619192 0.678632 0.628621
0.697358 0.691562 0.632297
0.749963 0.704472 0.636748
0.791206 0.715777 0.641977
0.192012 0.705343 0.623845
0.218545 0.705815 0.624064
0.304128 0.707499 0.624852
0.421895 0.710553 0.626297
0.531414 0.715014 0.628450
0.627351 0.720853 0.631343
0.701721 0.727987 0.634997
0.752338 0.736301 0.639423
0.793098 0.745658 0.644623
0.231760 0.742319 0.627109
0.256695 0.742696 0.627327
0.334106 0.744040 0.628108
0.442209 0.746486 0.629543
0.543577 0.750080 0.631681
0.636830 0.754818 0.634554
0.706807 0.760659 0.638183
0.755117 0.767534 0.642579
0.795318 0.775355 0.647744
0.074251 0.217301 0.712184
0.101471 0.222284 0.712306
0.196365 0.240297 0.712743
0.347152 0.274125 0.713545
0.487674 0.320612 0.714741
0.598227 0.369882 0.716350
0.686220 0.423655 0.718385
0.743934 0.478096 0.720851
0.786434 0.527871 0.723753
0.078225 0.234808 0.712258
0.102900 0.240160 0.712379
0.197871 0.258860 0.712816
0.348303 0.291426 0.713618
0.488338 0.334415 0.714815
0.598645 0.381713 0.716423
0.686442 0.434199 0.718457
0.744053 0.485711 0.720923
0.786528 0.534582 0.723824
0.084438 0.299048 0.712522
0.107565 0.303728 0.712644
0.203902 0.320144 0.713081
0.352416 0.345404 0.713882
0.490718 0.379914 0.715077
0.600144 0.421814 0.716684
0.687235 0.468519 0.718716
0.744481 0.511872 0.721180
0.786865 0.557838 0.724079
0.093756 0.388001 0.713009
0.117776 0.391215 0.713130
0.214835 0.402579 0.713566
0.359905 0.422789 0.714366
0.495063 0.451540 0.715560
0.602888 0.482808 0.717164
0.688687 0.517387 0.719193
0.745264 0.555939 0.721653
0.787484 0.597624 0.724547
0.107748 0.484536 0.713735
0.134112 0.486650 0.713857
0.230666 0.494148 0.714291
0.370923 0.507573 0.715090
0.501484 0.526835 0.716280
0.606956 0.551498 0.717881
0.690845 0.580937 0.719904
0.746431 0.612317 0.722359
0.788405 0.640246 0.725246
0.128995 0.574536 0.714714
0.156739 0.576232 0.714835
0.251193 0.582275 0.715268
0.385484 0.593186 0.716064
0.510016 0.608182 0.717250
0.612389 0.623835 0.718846
0.693732 0.642670 0.720863
0.747994 0.664275 0.723310
0.789643 0.686190 0.726189
0.157889 0.652382 0.715954
0.185146 0.653424 0.716075
0.276094 0.657142 0.716506
0.402875 0.663875 0.717299
0.520641 0.673698 0.718480
0.619192 0.684827 0.720069
0.697358 0.697453 0.722078
0.749963 0.708245 0.724515
0.791206 0.719296 0.727383
0.192012 0.709096 0.717463
0.218545 0.709557 0.717582
0.304128 0.711202 0.718012
0.421895 0.714187 0.718800
0.531414 0.718549 0.719976
0.627351 0.724264 0.721557
0.701721 0.731254 0.723556
0.752338 0.739408 0.725981
0.793098 0.748597 0.728835
0.231760 0.745318 0.719243
0.256695 0.745687 0.719362
0.334106 0.747008 0.719789
0.442209 0.749412 0.720573
0.543577 0.752944 0.721742
0.636830 0.757604 0.723314
0.706807 0.763352 0.725302
0.755117 0.770122 0.727713
0.795318 0.777830 0.730551
0.074251 0.267219 0.779768
0.101471 0.272201 0.779823
0.196365 0.289692 0.780019
0.347152 0.320319 0.780381
0.487674 0.357560 0.780920
0.598227 0.401701 0.781645
0.686220 0.452148 0.782563
0.743934 0.498689 0.783677
0.786434 0.546081 0.784990
0.078225 0.284759 0.779801
0.102900 0.289568 0.779856
0.197871 0.306486 0.780052
0.348303 0.334132 0.780414
0.488338 0.369945 0.780952
0.598645 0.412733 0.781678
0.686442 0.461816 0.782595
0.744053 0.505905 0.783709
0.786528 0.552508 0.785022
0.084438 0.340220 0.779920
0.107565 0.343959 0.779975
0.203902 0.357132 0.780171
0.352416 0.379670 0.780532
0.490718 0.411053 0.781071
0.600144 0.450410 0.781795
0.687235 0.489632 0.782712
0.744481 0.530793 0.783826
0.786865 0.574834 0.785137
0.093756 0.418613 0.780139
0.117776 0.421623 0.780194
0.214835 0.432286 0.780390
0.359905 0.451330 0.780751
0.495063 0.475174 0.781288
0.602888 0.503152 0.782012
0.688687 0.536059 0.782928
0.745264 0.573009 0.784039
0.787484 0.611362 0.785349
0.107748 0.504790 0.780466
0.134112 0.506795 0.780521
0.230666 0.513916 0.780717
0.370923 0.526694 0.781076
0.501484 0.545090 0.781613
0.606956 0.568739 0.782335
0.690845 0.597090 0.783249
0.746431 0.623739 0.784359
0.788405 0.650714 0.785666
0.128995 0.590915 0.780907
0.156739 0.592551 0.780962
0.251193 0.598382 0.781157
0.385484 0.608093 0.781516
0.510016 0.619756 0.782051
0.612389 0.634849 0.782771
0.693732 0.653061 0.783682
0.747994 0.674013 0.784789
0.789643 0.693518 0.786093
0.157889 0.662472 0.781466
0.185146 0.663483 0.781520
0.276094 0.667089 0.781715
0.402875 0.673625 0.782073
0.520641 0.682110 0.782606
0.619192 0.692194 0.783324
0.697358 0.703080 0.784232
0.749963 0.712737 0.785335
0.791206 0.723493 0.786634
0.192012 0.713564 0.782147
0.218545 0.714013 0.782201
0.304128 0.715613 0.782394
0.421895 0.718517 0.782750
0.531414 0.722766 0.783281
0.627351 0.728337 0.783996
0.701721 0.735158 0.784901
0.752338 0.743128 0.785999
0.793098 0.752120 0.787293
0.231760 0.748909 0.782951
0.256695 0.749271 0.783004
0.334106 0.750564 0.783197
0.442209 0.752918 0.783551
0.543577 0.756379 0.784080
0.636830 0.760947 0.784791
0.706807 0.766585 0.785691
0.755117 0.773232 0.786784
0.795318 0.780807 0.788072
0.074251 0.322079 0.819750
0.101471 0.325982 0.819793
0.196365 0.339708 0.819947
0.347152 0.363834 0.820231
0.487674 0.396314 0.820654
0.598227 0.436834 0.821223
0.686220 0.479609 0.821945
0.743934 0.521786 0.822823
0.786434 0.566726 0.823860
0.078225 0.335834 0.819776
0.102900 0.339611 0.819819
0.197871 0.352913 0.819973
0.348303 0.375831 0.820257
0.488338 0.407473 0.820679
0.598645 0.447106 0.821249
0.686442 0.487193 0.821971
0.744053 0.528598 0.822849
0.786528 0.572855 0.823885
0.084438 0.381139 0.819870
0.107565 0.384403 0.819912
0.203902 0.395937 0.820067
0.352416 0.416429 0.820350
0.490718 0.445539 0.820772
0.600144 0.478286 0.821342
0.687235 0.513256 0.822063
0.744481 0.552179 0.822941
0.786865 0.594202 0.823976
0.093756 0.452595 0.820041
0.117776 0.455408 0.820084
0.214835 0.464478 0.820238
0.359905 0.478986 0.820521
0.495063 0.499682 0.820943
0.602888 0.525998 0.821512
0.688687 0.557184 0.822233
0.745264 0.592453 0.823109
0.787484 0.624917 0.824144
0.107748 0.527545 0.820298
0.134112 0.529439 0.820341
0.230666 0.536173 0.820494
0.370923 0.548285 0.820777
0.501484 0.565782 0.821198
0.606956 0.588366 0.821766
0.690845 0.613149 0.822486
0.746431 0.636776 0.823361
0.788405 0.662718 0.824394
0.128995 0.608630 0.820644
0.156739 0.609828 0.820687
0.251193 0.614093 0.820840
0.385484 0.621789 0.821122
0.510016 0.632956 0.821543
0.612389 0.647445 0.822109
0.693732 0.664981 0.822828
0.747994 0.683767 0.823701
0.789643 0.701369 0.824732
0.157889 0.674063 0.821083
0.185146 0.675039 0.821126
0.276094 0.678349 0.821279
0.402875 0.683463 0.821560
0.520641 0.690925 0.821979
0.619192 0.700496 0.822545
0.697358 0.708571 0.823261
0.749963 0.717911 0.824132
0.791206 0.728340 0.825161
0.192012 0.718712 0.821618
0.218545 0.719146 0.821660
0.304128 0.720697 0.821813
0.421895 0.723512 0.822093
0.531414 0.727634 0.822512
0.627351 0.733044 0.823075
0.701721 0.739677 0.823789
0.752338 0.747439 0.824658
0.793098 0.756210 0.825683
0.231760 0.753076 0.822251
0.256695 0.753429 0.822293
0.334106 0.754691 0.822445
0.442209 0.756988 0.822724
0.543577 0.760368 0.823141
0.636830 0.764832 0.823703
0.706807 0.770347 0.824414
0.755117 0.776854 0.825279
0.795318 0.784277 0.826301
