negative-ektar-100/Ektar100_Modern_Punchy.cube
TITLE "Kodak Ektar 100 Modern Punchy"
# Adobe RGB in/out. REPLACES AgX. Kodak Ektar 100 Modern Punchy.
LUT_3D_SIZE 33
DOMAIN_MIN 0.0 0.0 0.0
DOMAIN_MAX 1.0 1.0 1.0
0.071174 0.083756 0.079619
0.084239 0.086177 0.079640
0.102921 0.089807 0.080401
0.126788 0.094450 0.081353
0.162226 0.099780 0.082898
0.209639 0.109827 0.084881
0.267889 0.121245 0.086624
0.323306 0.135039 0.088400
0.379962 0.151760 0.090385
0.436674 0.170658 0.092671
0.486435 0.190416 0.095592
0.530853 0.214434 0.098399
0.566645 0.238616 0.101568
0.601148 0.262958 0.104526
0.634426 0.287340 0.108127
0.662247 0.312528 0.111744
0.684597 0.337780 0.115610
0.705932 0.362404 0.119751
0.725152 0.386323 0.123868
0.742472 0.408127 0.128267
0.756765 0.428222 0.132516
0.767464 0.447969 0.136630
0.777681 0.467402 0.142325
0.787449 0.483989 0.148576
0.796797 0.498423 0.154739
0.805753 0.512490 0.160812
0.814340 0.526198 0.167040
0.822580 0.539555 0.173343
0.830491 0.552569 0.179556
0.838091 0.565248 0.185676
0.845397 0.577597 0.191701
0.851985 0.589624 0.197628
0.856515 0.601335 0.203455
0.073165 0.088156 0.079619
0.080036 0.087798 0.079619
0.096420 0.090691 0.080185
0.120222 0.095060 0.081120
0.155299 0.100666 0.082716
0.202163 0.110582 0.084685
0.260850 0.121823 0.086477
0.317277 0.135757 0.088223
0.374817 0.152646 0.090256
0.432827 0.171478 0.092493
0.483108 0.191391 0.095451
0.528671 0.215356 0.098253
0.564749 0.239486 0.101445
0.599482 0.263783 0.104422
0.632947 0.288120 0.108003
0.661287 0.313295 0.111635
0.683742 0.338508 0.115490
0.705166 0.363067 0.119642
0.724538 0.386952 0.123755
0.741918 0.408641 0.128164
0.756425 0.428708 0.132422
0.767157 0.448432 0.136544
0.777403 0.467844 0.142199
0.787196 0.484314 0.148459
0.796567 0.498732 0.154630
0.805542 0.512784 0.160709
0.814147 0.526479 0.166937
0.822402 0.539823 0.173246
0.830327 0.552826 0.179465
0.837940 0.565494 0.185591
0.845257 0.577833 0.191620
0.851897 0.589851 0.197552
0.856434 0.601553 0.203383
0.076527 0.095379 0.079875
0.083325 0.094966 0.079947
0.092429 0.094202 0.080237
0.109763 0.096436 0.080830
0.139694 0.102830 0.082243
0.184355 0.112636 0.084109
0.239598 0.123537 0.086021
0.298547 0.138108 0.087770
0.358258 0.155626 0.089839
0.418459 0.174275 0.091907
0.471917 0.194763 0.094978
0.521218 0.218565 0.097771
0.558216 0.242530 0.101026
0.593700 0.266682 0.104064
0.627789 0.290898 0.107575
0.657920 0.316007 0.111258
0.680737 0.341088 0.115067
0.702466 0.365418 0.119262
0.722370 0.389187 0.123359
0.739955 0.410472 0.127803
0.755216 0.430440 0.132091
0.766066 0.450083 0.136241
0.776413 0.469420 0.141754
0.786296 0.485477 0.148043
0.795745 0.499837 0.154241
0.804790 0.513836 0.160345
0.813456 0.527482 0.166572
0.821767 0.540783 0.172902
0.829741 0.553744 0.179141
0.837399 0.566374 0.185285
0.844756 0.578679 0.191332
0.851585 0.590664 0.197280
0.856145 0.602336 0.203127
0.079936 0.106843 0.080517
0.085921 0.106222 0.080588
0.097118 0.104542 0.080765
0.108593 0.103347 0.080989
0.125981 0.106561 0.081916
0.164359 0.116054 0.083487
0.213580 0.127620 0.085464
0.273270 0.142388 0.087172
0.334194 0.160611 0.089236
0.395978 0.179006 0.091243
0.454061 0.200562 0.094229
0.506443 0.224136 0.097137
0.547242 0.247869 0.100331
0.583847 0.271791 0.103460
0.618897 0.295956 0.106845
0.652048 0.320839 0.110608
0.675457 0.345703 0.114334
0.697695 0.369635 0.118597
0.718518 0.393207 0.122677
0.736454 0.413769 0.127164
0.753053 0.433571 0.131503
0.764107 0.453071 0.135701
0.774634 0.472279 0.140962
0.784674 0.487587 0.147301
0.794262 0.501845 0.153544
0.803431 0.515751 0.159691
0.812207 0.529311 0.165915
0.820616 0.542531 0.172283
0.828679 0.555420 0.178557
0.836416 0.567982 0.184734
0.843846 0.580223 0.190812
0.850983 0.592150 0.196789
0.855619 0.603767 0.202663
0.084675 0.125901 0.081247
0.088994 0.125137 0.081329
0.101506 0.122995 0.081636
0.114837 0.120776 0.082052
0.129762 0.119386 0.082523
0.153829 0.122401 0.083359
0.195355 0.134501 0.085127
0.249907 0.149696 0.086727
0.309311 0.167684 0.088640
0.370685 0.185630 0.090704
0.432665 0.208666 0.093359
0.486122 0.231935 0.096363
0.533020 0.255399 0.099454
0.570785 0.279015 0.102676
0.606898 0.303151 0.105879
0.641482 0.327746 0.109732
0.668121 0.352242 0.113373
0.691006 0.375713 0.117680
0.712747 0.398649 0.121835
0.731475 0.418547 0.126269
0.748986 0.438127 0.130676
0.761293 0.457435 0.134938
0.772068 0.476215 0.139837
0.782327 0.490677 0.146242
0.792111 0.504792 0.152548
0.801454 0.518565 0.158752
0.810387 0.532003 0.164969
0.818936 0.545110 0.171389
0.827126 0.557894 0.177712
0.834977 0.570358 0.183935
0.842511 0.582509 0.190056
0.849743 0.594350 0.196074
0.854845 0.605275 0.201986
0.090221 0.167922 0.082898
0.095652 0.166720 0.082958
0.108566 0.162542 0.083136
0.123718 0.155487 0.083467
0.142090 0.146976 0.083791
0.160511 0.143092 0.084303
0.187070 0.146150 0.085170
0.233615 0.161108 0.086574
0.288745 0.177421 0.088242
0.347350 0.196853 0.090260
0.408237 0.219200 0.092552
0.464625 0.241946 0.095586
0.517207 0.265020 0.098525
0.555816 0.288240 0.101811
0.592814 0.312365 0.104869
0.628279 0.336617 0.108714
0.659167 0.360423 0.112429
0.682739 0.383566 0.116576
0.705109 0.405157 0.120806
0.725200 0.424751 0.125166
0.743212 0.444078 0.129649
0.757699 0.463152 0.133982
0.768774 0.480471 0.138425
0.779303 0.494740 0.144905
0.789328 0.508675 0.151282
0.798888 0.522282 0.157554
0.808017 0.535565 0.163757
0.816743 0.548530 0.170240
0.825093 0.561179 0.176622
0.833091 0.573518 0.182901
0.840756 0.585551 0.189076
0.848110 0.597283 0.195144
0.853825 0.607256 0.201104
0.097510 0.219127 0.084640
0.102351 0.219866 0.084768
0.115036 0.213701 0.084933
0.132993 0.200873 0.085076
0.152297 0.186124 0.085228
0.173025 0.178135 0.085535
0.195547 0.175075 0.086025
0.224690 0.176512 0.086671
0.274567 0.191785 0.088153
0.328855 0.211538 0.090013
0.386706 0.232573 0.091967
0.444456 0.254428 0.094939
0.496588 0.276812 0.097712
0.540334 0.299827 0.100975
0.577812 0.323545 0.104061
0.613877 0.347370 0.107651
0.648557 0.370334 0.111417
0.673355 0.393098 0.115369
0.696326 0.413051 0.119661
0.717911 0.432318 0.123924
0.736451 0.451363 0.128480
0.753448 0.470173 0.132883
0.764853 0.485698 0.137141
0.775682 0.499743 0.143349
0.785980 0.513470 0.149798
0.795789 0.526883 0.156141
0.805143 0.539985 0.162376
0.814075 0.552779 0.168871
0.822613 0.565269 0.175318
0.830782 0.577459 0.181659
0.838605 0.589352 0.187894
0.846103 0.600952 0.194020
0.852568 0.609732 0.200036
0.103491 0.270501 0.086023
0.107727 0.271154 0.086116
0.120359 0.268519 0.086313
0.140206 0.253405 0.086356
0.161274 0.237594 0.086462
0.184139 0.224624 0.086669
0.207533 0.216346 0.087035
0.236645 0.213224 0.087644
0.268325 0.214678 0.088435
0.315958 0.230099 0.089999
0.369834 0.249237 0.091697
0.426695 0.269709 0.094515
0.477761 0.291036 0.097201
0.525548 0.313707 0.100266
0.562979 0.336748 0.103329
0.599237 0.359593 0.106642
0.634270 0.381935 0.110421
0.663358 0.403158 0.114149
0.686836 0.422267 0.118477
0.709237 0.441196 0.122643
0.728983 0.459929 0.127237
0.747130 0.477751 0.131700
0.760437 0.491850 0.136018
0.771577 0.505646 0.141644
0.782162 0.519141 0.148160
0.792235 0.532337 0.154569
0.801833 0.545235 0.160870
0.810989 0.557837 0.167329
0.819734 0.570147 0.173841
0.828094 0.582166 0.180247
0.836093 0.593899 0.186544
0.843752 0.604896 0.192731
0.851091 0.612698 0.198806
0.109922 0.326217 0.087358
0.113850 0.326828 0.087452
0.125719 0.321682 0.087585
0.146507 0.307056 0.087634
0.169527 0.290634 0.087746
0.193520 0.276023 0.087951
0.219998 0.264702 0.088291
0.249010 0.257678 0.088847
0.279559 0.255080 0.089552
0.312212 0.256423 0.090376
0.357657 0.269414 0.091757
0.411013 0.288030 0.094360
0.461874 0.308538 0.096898
0.510917 0.330025 0.099755
0.549174 0.352041 0.102740
0.585175 0.373564 0.105773
0.620191 0.395254 0.109518
0.653246 0.414148 0.113108
0.677107 0.432817 0.117341
0.699935 0.451360 0.121530
0.721111 0.469741 0.125994
0.739679 0.485080 0.130497
0.755675 0.498887 0.134859
0.767115 0.512411 0.139873
0.777984 0.525653 0.146439
0.788323 0.538611 0.152902
0.798169 0.551285 0.159261
0.807557 0.563677 0.165670
0.816518 0.575788 0.172242
0.825079 0.587620 0.178709
0.833265 0.599174 0.185066
0.841099 0.608470 0.191313
0.848601 0.616141 0.197447
0.116523 0.384191 0.088975
0.119795 0.382636 0.089006
0.132575 0.374557 0.089028
0.152330 0.361751 0.089087
0.176644 0.346329 0.089205
0.201410 0.330457 0.089407
0.230903 0.316720 0.089713
0.260515 0.306430 0.090137
0.290804 0.300163 0.090683
0.322470 0.297898 0.091339
0.356110 0.299215 0.092540
0.399366 0.310175 0.094469
0.449195 0.328976 0.096821
0.496114 0.348969 0.099482
0.536954 0.369003 0.102342
0.572291 0.389520 0.105108
0.606942 0.408459 0.108773
0.640828 0.426594 0.112321
0.667554 0.444740 0.116324
0.690651 0.462825 0.120503
0.712813 0.479571 0.124818
0.732034 0.493300 0.129335
0.750112 0.506783 0.133721
0.762434 0.520010 0.138117
0.773565 0.532976 0.144709
0.784156 0.545676 0.151209
0.794243 0.558108 0.157609
0.803860 0.570272 0.163954
0.813036 0.582168 0.170575
0.821800 0.593796 0.177094
0.830178 0.604764 0.183506
0.838191 0.612517 0.189808
0.845862 0.620046 0.195998
0.122718 0.429605 0.090411
0.126172 0.427817 0.090417
0.139308 0.421735 0.090442
0.158085 0.411784 0.090497
0.183017 0.399361 0.090600
0.209562 0.384628 0.090767
0.240282 0.370425 0.091014
0.270733 0.358574 0.091351
0.301321 0.349860 0.091994
0.332669 0.344406 0.092955
0.365466 0.342492 0.094075
0.399818 0.343775 0.095328
0.439491 0.352222 0.096959
0.484162 0.369744 0.099454
0.526577 0.388286 0.102154
0.560995 0.406082 0.104803
0.595039 0.423216 0.108242
0.628549 0.440598 0.111710
0.658517 0.458104 0.115486
0.681707 0.475576 0.119619
0.704040 0.489083 0.123772
0.724443 0.502410 0.128273
0.742780 0.515531 0.132657
0.757669 0.528429 0.136923
0.769027 0.541091 0.143043
0.779844 0.553511 0.149555
0.790151 0.565681 0.155977
0.799982 0.577600 0.162302
0.809364 0.589265 0.168897
0.818326 0.600675 0.175455
0.826891 0.609430 0.181910
0.835083 0.617022 0.188259
0.842923 0.624398 0.194498
0.130388 0.471643 0.091799
0.134105 0.470099 0.091811
0.145904 0.464796 0.091856
0.164613 0.455937 0.091951
0.188905 0.444525 0.092118
0.216928 0.431913 0.092377
0.248358 0.419445 0.092751
0.279611 0.408237 0.093256
0.310752 0.399082 0.093904
0.342269 0.391853 0.094698
0.374671 0.387301 0.095634
0.408218 0.385774 0.096699
0.441437 0.387002 0.097883
0.474860 0.392969 0.099659
0.518168 0.408156 0.102189
0.551531 0.423670 0.104700
0.584740 0.439759 0.107954
0.617627 0.456247 0.111307
0.650053 0.472989 0.114870
0.673359 0.486571 0.118922
0.695710 0.499555 0.122905
0.717119 0.512422 0.127358
0.735614 0.525134 0.131714
0.752945 0.537664 0.135966
0.764485 0.549993 0.141506
0.775490 0.562105 0.148003
0.785988 0.573991 0.154423
0.796009 0.585645 0.160757
0.805579 0.597062 0.167263
0.814724 0.606920 0.173843
0.823467 0.614548 0.180328
0.831831 0.621968 0.186711
0.839835 0.629182 0.192988
0.138428 0.503982 0.093881
0.141711 0.502956 0.093893
0.152345 0.499401 0.093938
0.171022 0.493349 0.094029
0.194473 0.485331 0.094181
0.223583 0.476138 0.094412
0.255391 0.464132 0.094736
0.287271 0.452570 0.095167
0.319008 0.442470 0.095715
0.350933 0.434377 0.096385
0.383328 0.428612 0.097180
0.416511 0.425278 0.098166
0.448027 0.424307 0.099468
0.478427 0.425510 0.100890
0.509993 0.428940 0.102434
0.543864 0.443176 0.104796
0.576110 0.458117 0.107914
0.608209 0.473595 0.111127
0.640020 0.486255 0.114503
0.665786 0.498623 0.118442
0.688013 0.511013 0.122321
0.709560 0.523358 0.126630
0.728783 0.535608 0.130930
0.746656 0.547726 0.135142
0.760041 0.559682 0.140154
0.771190 0.571456 0.146607
0.781843 0.583032 0.153000
0.792024 0.594398 0.159321
0.801757 0.605036 0.165723
0.811064 0.612669 0.172308
0.819969 0.620103 0.178805
0.828491 0.627340 0.185208
0.836650 0.634382 0.191511
0.146073 0.534077 0.095792
0.148997 0.533192 0.095804
0.158989 0.530106 0.095848
0.177335 0.524791 0.095935
0.199828 0.517620 0.096076
0.229739 0.509201 0.096285
0.261631 0.500232 0.096573
0.293933 0.491390 0.096951
0.326220 0.483260 0.097427
0.358689 0.476296 0.098057
0.391360 0.469502 0.098935
0.424521 0.464583 0.099949
0.454627 0.461861 0.101093
0.484478 0.461262 0.102357
0.515035 0.462626 0.103722
0.538850 0.465743 0.105195
0.569076 0.477593 0.108113
0.600302 0.488704 0.111170
0.631378 0.500122 0.114392
0.659089 0.511741 0.118194
0.681071 0.523470 0.121962
0.702466 0.535232 0.126115
0.722414 0.546966 0.130332
0.740301 0.558624 0.134482
0.755784 0.570167 0.139031
0.767028 0.581568 0.145413
0.777794 0.592803 0.151753
0.788100 0.603851 0.158036
0.797966 0.611444 0.164325
0.807411 0.618855 0.170893
0.816456 0.626083 0.177384
0.825120 0.633127 0.183790
0.833419 0.639988 0.190104
0.153367 0.562907 0.097558
0.155989 0.562138 0.097569
0.166442 0.559448 0.097613
0.183586 0.554770 0.097696
0.205737 0.548368 0.097830
0.235609 0.540710 0.098075
0.267354 0.532358 0.098409
0.299873 0.523889 0.098841
0.332620 0.515824 0.099382
0.365585 0.508596 0.100038
0.398637 0.502533 0.100814
0.431815 0.497855 0.101711
0.460954 0.494675 0.102726
0.490477 0.493019 0.103854
0.519574 0.492833 0.105082
0.542500 0.494012 0.106884
0.565597 0.496417 0.108800
0.593814 0.504533 0.111424
0.624100 0.515078 0.114533
0.653298 0.525904 0.118182
0.674946 0.536921 0.121820
0.696095 0.548048 0.125827
0.716598 0.559214 0.129940
0.734417 0.570365 0.134006
0.751670 0.581454 0.138172
0.763074 0.592444 0.144457
0.773909 0.603306 0.150719
0.784302 0.610958 0.156942
0.794268 0.618295 0.163112
0.803823 0.625470 0.169637
0.812984 0.632479 0.176103
0.821768 0.639319 0.182495
0.830191 0.645988 0.188804
0.161090 0.590586 0.099575
0.163977 0.589915 0.099590
0.173758 0.587559 0.099644
0.189783 0.583431 0.099747
0.212171 0.577718 0.099909
0.241295 0.570777 0.100140
0.272694 0.563064 0.100449
0.305229 0.555062 0.100845
0.338285 0.547229 0.101336
0.371650 0.539965 0.101929
0.405097 0.533593 0.102626
0.437639 0.528350 0.103430
0.466809 0.524391 0.104341
0.496189 0.521790 0.105450
0.523633 0.520553 0.106977
0.546178 0.520629 0.108631
0.568842 0.521927 0.110395
0.591642 0.524331 0.112254
0.618088 0.531039 0.114909
0.647505 0.541058 0.118397
0.669645 0.551334 0.121893
0.690478 0.561787 0.125770
0.710850 0.572346 0.129763
0.729063 0.582949 0.133727
0.746233 0.593543 0.137649
0.759379 0.604013 0.143763
0.770242 0.611324 0.149924
0.780684 0.618519 0.156065
0.790716 0.625583 0.162169
0.800351 0.632507 0.168572
0.809602 0.639284 0.174995
0.818483 0.645907 0.181355
0.827008 0.652374 0.187642
0.169254 0.613148 0.101531
0.171897 0.612738 0.101546
0.180920 0.611294 0.101599
0.195906 0.608746 0.101700
0.218565 0.605179 0.101855
0.246846 0.599476 0.102074
0.277743 0.592395 0.102364
0.310112 0.584909 0.102732
0.343309 0.577418 0.103185
0.376954 0.570282 0.103727
0.410748 0.563807 0.104363
0.442779 0.558234 0.105094
0.472074 0.553736 0.106226
0.501445 0.550423 0.107494
0.527456 0.548341 0.108891
0.549737 0.547485 0.110408
0.572067 0.547807 0.112035
0.594491 0.549228 0.113822
0.617021 0.551649 0.116099
0.641910 0.557120 0.118822
0.665132 0.566649 0.122171
0.685609 0.576411 0.125939
0.705686 0.586335 0.129799
0.724269 0.596359 0.133649
0.741300 0.605652 0.137472
0.755979 0.612682 0.143345
0.766831 0.619647 0.149388
0.777286 0.626525 0.155427
0.787351 0.633300 0.161446
0.797036 0.639958 0.167724
0.806349 0.646488 0.174084
0.815304 0.652884 0.180395
0.823910 0.659138 0.186645
0.177132 0.630809 0.103366
0.179562 0.630453 0.103380
0.187911 0.629195 0.103432
0.202003 0.626966 0.103530
0.224915 0.623820 0.103680
0.252293 0.619901 0.103889
0.282567 0.615407 0.104163
0.314616 0.610566 0.104509
0.347793 0.605616 0.104931
0.381586 0.599480 0.105558
0.415640 0.593056 0.106364
0.447237 0.587338 0.107290
0.476695 0.582505 0.108337
0.506142 0.578686 0.109505
0.530939 0.575957 0.110791
0.553057 0.574344 0.112191
0.575150 0.573838 0.113744
0.597279 0.574392 0.115763
0.619481 0.575937 0.117898
0.641765 0.578391 0.120134
0.661343 0.582786 0.122638
0.681445 0.591857 0.126321
0.701198 0.601136 0.130043
0.720037 0.608545 0.133768
0.736885 0.615181 0.137483
0.752893 0.621815 0.143210
0.763702 0.628417 0.149118
0.774138 0.634964 0.155041
0.784206 0.641435 0.160958
0.793911 0.647812 0.167110
0.803261 0.654084 0.173391
0.812264 0.660239 0.179637
0.820930 0.666271 0.185834
0.184729 0.647563 0.105088
0.186972 0.647252 0.105103
0.194719 0.646154 0.105173
0.209205 0.644198 0.105304
0.231213 0.641421 0.105503
0.257653 0.637932 0.105779
0.287214 0.633889 0.106138
0.318815 0.629480 0.106589
0.351827 0.624902 0.107137
0.385634 0.620351 0.107786
0.419846 0.616007 0.108542
0.451046 0.612025 0.109406
0.480666 0.608533 0.110381
0.510229 0.605632 0.111466
0.534016 0.603198 0.112660
0.556050 0.600998 0.114074
0.577990 0.599815 0.115840
0.599906 0.599631 0.117730
0.621848 0.600405 0.119736
0.643843 0.602076 0.121845
0.661784 0.604354 0.124235
0.677925 0.606787 0.126900
0.697343 0.612819 0.130481
0.716346 0.618954 0.134077
0.732983 0.625154 0.137676
0.749233 0.631385 0.143354
0.760865 0.637616 0.149118
0.771255 0.643819 0.154910
0.781298 0.649973 0.160714
0.790998 0.656058 0.166742
0.800360 0.662060 0.172930
0.809390 0.667964 0.179095
0.818094 0.673762 0.185226
0.192051 0.663465 0.107313
0.194129 0.663194 0.107332
0.201336 0.662231 0.107401
0.216446 0.660512 0.107529
0.237444 0.658059 0.107723
0.262933 0.654954 0.107990
0.291715 0.651324 0.108337
0.322766 0.647322 0.108769
0.355488 0.643115 0.109291
0.389184 0.638872 0.109908
0.423442 0.634749 0.110622
0.454258 0.630891 0.111435
0.484008 0.627418 0.112351
0.513693 0.624429 0.113367
0.536653 0.621997 0.114733
0.558659 0.620174 0.116267
0.580512 0.618985 0.117925
0.602286 0.618437 0.119703
0.624037 0.618517 0.121592
0.645803 0.619200 0.123706
0.663021 0.620447 0.126105
0.678792 0.622213 0.128606
0.694454 0.624452 0.131194
0.712844 0.629761 0.134564
0.729569 0.635531 0.138220
0.745627 0.641358 0.143770
0.758320 0.647212 0.149382
0.768642 0.653066 0.155036
0.778639 0.658895 0.160715
0.788312 0.664680 0.166624
0.797664 0.670401 0.172707
0.806699 0.676046 0.178780
0.815421 0.681265 0.184831
0.199101 0.678566 0.109422
0.201032 0.678328 0.109441
0.209065 0.677483 0.109509
0.223565 0.675969 0.109634
0.243595 0.673800 0.109824
0.268132 0.671038 0.110084
0.296094 0.667784 0.110420
0.326514 0.664164 0.110836
0.358840 0.660318 0.111336
0.392309 0.656390 0.111925
0.426504 0.652518 0.112605
0.456931 0.648832 0.113377
0.486763 0.645444 0.114428
0.516550 0.642448 0.115637
0.538843 0.639919 0.116966
0.560853 0.637914 0.118415
0.582668 0.636467 0.119981
0.604356 0.635597 0.121661
0.625975 0.635304 0.123549
0.647570 0.635577 0.125721
0.664156 0.636389 0.128004
0.679756 0.637709 0.130390
0.695245 0.639497 0.132867
0.710622 0.641712 0.135424
0.726608 0.646262 0.139059
0.742461 0.651693 0.144443
0.756059 0.657173 0.149900
0.766298 0.662676 0.155410
0.776231 0.668177 0.160957
0.785858 0.673655 0.166756
0.795182 0.679091 0.172724
0.804203 0.683585 0.178696
0.812926 0.687876 0.184656
0.206745 0.690405 0.111420
0.208979 0.690236 0.111438
0.216817 0.689637 0.111505
0.230546 0.688559 0.111628
0.249650 0.687009 0.111814
0.273248 0.685024 0.112067
0.300361 0.682668 0.112393
0.330103 0.680024 0.112795
0.361932 0.676569 0.113278
0.395074 0.672955 0.113926
0.429103 0.669351 0.114744
0.459126 0.665869 0.115672
0.488981 0.662613 0.116712
0.518287 0.659672 0.117865
0.540595 0.657120 0.119131
0.562625 0.655014 0.120508
0.584431 0.653396 0.121996
0.606075 0.652290 0.123712
0.627611 0.651709 0.125665
0.649084 0.651649 0.127734
0.665141 0.652098 0.129913
0.680605 0.653032 0.132193
0.695947 0.654423 0.134566
0.711174 0.656238 0.137022
0.725118 0.658440 0.140617
0.739702 0.662345 0.145357
0.754065 0.667460 0.150658
0.764209 0.672615 0.156023
0.774066 0.677789 0.161435
0.783634 0.682363 0.167133
0.792914 0.686527 0.172980
0.801906 0.690652 0.178842
0.810614 0.694728 0.184704
0.214864 0.701381 0.113312
0.216966 0.701233 0.113330
0.224360 0.700707 0.113396
0.237372 0.699761 0.113517
0.255596 0.698395 0.113744
0.278272 0.696638 0.114055
0.304525 0.694541 0.114454
0.333555 0.692173 0.114945
0.364804 0.689611 0.115533
0.397532 0.686941 0.116220
0.431230 0.684247 0.117010
0.460898 0.681611 0.117904
0.490714 0.678940 0.118904
0.519605 0.676101 0.120009
0.541931 0.673582 0.121220
0.563980 0.671443 0.122537
0.585793 0.669725 0.124134
0.607419 0.668459 0.125885
0.628906 0.667664 0.127751
0.650300 0.667345 0.129730
0.665941 0.667498 0.131815
0.681300 0.668110 0.134000
0.696524 0.669159 0.136277
0.711625 0.670621 0.139165
0.725404 0.672465 0.143054
0.738601 0.674663 0.147092
0.752317 0.678028 0.151640
0.762361 0.682272 0.156860
0.772133 0.686197 0.162135
0.781631 0.690128 0.167746
0.790856 0.694048 0.173468
0.799809 0.697944 0.179215
0.808489 0.701803 0.184972
0.222719 0.711767 0.115514
0.224701 0.711638 0.115537
0.231685 0.711177 0.115618
0.244029 0.710346 0.115767
0.261418 0.709142 0.115992
0.283198 0.707589 0.116297
0.308586 0.705726 0.116688
0.336873 0.703609 0.117167
0.367486 0.701305 0.117740
0.399726 0.698884 0.118408
0.432831 0.696420 0.119173
0.462301 0.693985 0.120037
0.492014 0.691645 0.121002
0.520557 0.689463 0.122067
0.542877 0.687492 0.123300
0.564935 0.685778 0.124754
0.586757 0.684356 0.126322
0.608379 0.683255 0.128004
0.629842 0.682492 0.129796
0.651076 0.682078 0.131695
0.666528 0.682014 0.133697
0.681809 0.682296 0.135796
0.696942 0.682914 0.138130
0.711941 0.683851 0.141749
0.725589 0.685089 0.145525
0.738688 0.686608 0.149451
0.751653 0.688384 0.153517
0.760734 0.690746 0.157906
0.770416 0.694409 0.163046
0.779839 0.698088 0.168584
0.789002 0.701769 0.174179
0.797904 0.705438 0.179807
0.806547 0.709083 0.185455
0.230305 0.721597 0.117659
0.232177 0.721483 0.117681
0.238786 0.721079 0.117761
0.250507 0.720349 0.117908
0.267104 0.719290 0.118130
0.288016 0.717918 0.118429
0.312544 0.716266 0.118812
0.340067 0.714380 0.119281
0.370001 0.712314 0.119840
0.401693 0.710130 0.120490
0.434172 0.707889 0.121234
0.463380 0.705656 0.122073
0.492928 0.703489 0.123043
0.521178 0.701444 0.124226
0.543464 0.699570 0.125520
0.565513 0.697911 0.126925
0.587337 0.696502 0.128439
0.608959 0.695371 0.130061
0.630410 0.694539 0.131788
0.651470 0.694018 0.133618
0.666882 0.693815 0.135546
0.682109 0.693930 0.137569
0.697174 0.694357 0.140823
0.712095 0.695085 0.144339
0.725648 0.696102 0.148012
0.738665 0.697390 0.151833
0.751547 0.698932 0.155795
0.760334 0.700706 0.159889
0.768898 0.702778 0.164218
0.778242 0.706216 0.169632
0.787337 0.709665 0.175100
0.796183 0.713113 0.180609
0.804781 0.716547 0.186146
0.237623 0.730897 0.119697
0.239393 0.730798 0.119719
0.245654 0.730444 0.119798
0.256795 0.729803 0.119943
0.272641 0.728872 0.120161
0.292715 0.727663 0.120456
0.316396 0.726201 0.120831
0.343144 0.724525 0.121291
0.372367 0.722681 0.121837
0.403461 0.720719 0.122472
0.435286 0.718693 0.123261
0.464176 0.716659 0.124199
0.493502 0.714669 0.125243
0.521502 0.712773 0.126394
0.543723 0.711015 0.127650
0.565741 0.709437 0.129013
0.587552 0.708071 0.130480
0.609169 0.706945 0.132050
0.630612 0.706082 0.133720
0.651604 0.705496 0.135489
0.666992 0.705196 0.137353
0.682183 0.705186 0.140228
0.697201 0.705464 0.143492
0.712063 0.706024 0.146916
0.725560 0.706857 0.150495
0.738512 0.707949 0.154220
0.751325 0.709286 0.158086
0.760136 0.710851 0.162083
0.768591 0.712628 0.166413
0.776913 0.714600 0.170949
0.785848 0.717709 0.176220
0.794634 0.720943 0.181610
0.803182 0.724171 0.187034
0.244669 0.739695 0.121634
0.246346 0.739608 0.121655
0.252285 0.739298 0.121733
0.262884 0.738737 0.121876
0.278020 0.737920 0.122090
0.297287 0.736856 0.122380
0.320136 0.735567 0.122749
0.346104 0.734083 0.123264
0.374595 0.732443 0.123879
0.405052 0.730689 0.124593
0.436203 0.728869 0.125408
0.464724 0.727030 0.126325
0.493775 0.725217 0.127344
0.521561 0.723476 0.128466
0.543686 0.721846 0.129690
0.565647 0.720366 0.131016
0.587427 0.719067 0.132441
0.609026 0.717976 0.133966
0.630458 0.717114 0.135587
0.651482 0.716498 0.137302
0.666855 0.716139 0.139912
0.682023 0.716042 0.142938
0.697009 0.716209 0.146123
0.711829 0.716637 0.149465
