negative-ektar-100/Ektar100_Classic_ExtraSoft.cube
TITLE "Kodak Ektar 100 Classic ExtraSoft"
# Adobe RGB in/out. REPLACES AgX. Kodak Ektar 100 Classic ExtraSoft.
LUT_3D_SIZE 9
DOMAIN_MIN 0.0 0.0 0.0
DOMAIN_MAX 1.0 1.0 1.0
0.057526 0.063911 0.078815
0.089902 0.067455 0.080277
0.326625 0.073481 0.082750
0.535474 0.082279 0.086557
0.626890 0.094564 0.091044
0.673765 0.107286 0.096869
0.696086 0.113763 0.107078
0.715726 0.130966 0.453392
0.718020 0.306159 0.559442
0.058514 0.079207 0.080179
0.068080 0.079797 0.081565
0.165452 0.082096 0.083694
0.483374 0.091622 0.087365
0.608392 0.103557 0.091588
0.670817 0.116137 0.097319
0.695225 0.123057 0.106671
0.715727 0.130984 0.453410
0.718021 0.306167 0.559440
0.060672 0.123903 0.082650
0.065283 0.127676 0.084030
0.095369 0.127432 0.086859
0.294899 0.134544 0.090202
0.533638 0.151581 0.093618
0.649191 0.177947 0.099421
0.689851 0.193805 0.107266
0.715852 0.137937 0.455563
0.718021 0.306167 0.559440
0.063117 0.280048 0.086094
0.066278 0.287234 0.087422
0.085109 0.297437 0.090642
0.172481 0.293660 0.093431
0.429588 0.304310 0.098219
0.585658 0.323206 0.103697
0.676852 0.345785 0.110331
0.706600 0.345521 0.121161
0.718021 0.270693 0.474124
0.065892 0.447118 0.089631
0.068403 0.449570 0.090804
0.083018 0.457924 0.093872
0.137853 0.459566 0.098682
0.334937 0.457278 0.103484
0.521956 0.463099 0.109086
0.646128 0.474594 0.115243
0.699772 0.483633 0.124021
0.717492 0.488073 0.258526
0.068495 0.561566 0.092480
0.070817 0.562366 0.093394
0.083199 0.567961 0.098003
0.122827 0.570536 0.103474
0.273141 0.569704 0.109010
0.466065 0.569151 0.114314
0.592732 0.573637 0.121280
0.687101 0.581045 0.129741
0.716143 0.585549 0.158752
0.070536 0.639060 0.094002
0.072325 0.639332 0.095310
0.082740 0.641117 0.099955
0.113965 0.642491 0.106647
0.228216 0.642418 0.112707
0.421920 0.641777 0.119690
0.550677 0.642394 0.126055
0.666767 0.645069 0.135857
0.714683 0.648652 0.156041
0.069755 0.687769 0.088729
0.070805 0.687394 0.089817
0.079906 0.685987 0.096172
0.104542 0.685799 0.104574
0.189515 0.684987 0.112457
0.384564 0.683821 0.120726
0.519654 0.683645 0.128258
0.632574 0.685539 0.137250
0.713918 0.688499 0.153412
0.067901 0.698586 0.078832
0.067902 0.698587 0.078837
0.076155 0.711125 0.078968
0.076156 0.712131 0.084750
0.131948 0.715382 0.093589
0.320925 0.713326 0.105888
0.488362 0.712469 0.113831
0.589605 0.713308 0.119545
0.716002 0.715955 0.121292
0.058023 0.068703 0.095111
0.084842 0.081121 0.139400
0.363339 0.079134 0.106835
0.555372 0.087476 0.104125
0.634574 0.097414 0.102475
0.674489 0.110043 0.105817
0.696041 0.116871 0.115809
0.715727 0.130984 0.453412
0.718021 0.306167 0.559443
0.061020 0.080188 0.093864
0.079935 0.085193 0.100764
0.261769 0.087148 0.099991
0.524492 0.096206 0.102483
0.621234 0.107724 0.102715
0.672028 0.119376 0.106018
0.695238 0.126124 0.114525
0.715727 0.131012 0.453442
0.718021 0.306167 0.559441
0.063927 0.123722 0.093754
0.070099 0.126109 0.095908
0.114689 0.128629 0.099063
0.385485 0.141366 0.102866
0.561428 0.158490 0.104917
0.657065 0.183197 0.107943
0.690443 0.198418 0.114186
0.715888 0.140212 0.456504
0.718021 0.306167 0.559440
0.066338 0.277081 0.095277
0.070659 0.282674 0.097174
0.094183 0.292115 0.100969
0.215227 0.293951 0.105350
0.463330 0.308630 0.108651
0.601771 0.327641 0.111603
0.679254 0.348698 0.117541
0.706731 0.348513 0.128996
0.718021 0.306185 0.559437
0.068519 0.443970 0.096364
0.071805 0.446445 0.098055
0.087820 0.454156 0.102801
0.152798 0.456842 0.108082
0.368794 0.456962 0.112641
0.534952 0.464032 0.117100
0.654883 0.475785 0.122626
0.700520 0.484467 0.132147
0.717473 0.493164 0.307160
0.070709 0.559553 0.097866
0.073022 0.560457 0.099233
0.086202 0.565775 0.104529
0.132179 0.568544 0.110364
0.293600 0.568487 0.116363
0.480272 0.568901 0.122548
0.601639 0.573915 0.128967
0.689310 0.581344 0.138150
0.716176 0.586449 0.173027
0.072050 0.638532 0.098510
0.073802 0.638805 0.099744
0.084829 0.640513 0.105314
0.119229 0.641857 0.111880
0.242101 0.641918 0.119392
0.431941 0.641535 0.126205
0.557268 0.642375 0.135151
0.670039 0.645166 0.144811
0.714848 0.648840 0.166689
0.070442 0.687288 0.090955
0.071584 0.686977 0.091993
0.081343 0.685739 0.099768
0.107671 0.685543 0.109012
0.198376 0.684779 0.117974
0.391063 0.683725 0.126208
0.523613 0.683685 0.135986
0.637643 0.685643 0.146331
0.714272 0.688600 0.163099
0.067901 0.703492 0.094712
0.067902 0.703493 0.094712
0.076155 0.715545 0.094712
0.076156 0.715545 0.094711
0.135039 0.715451 0.096742
0.326103 0.713407 0.109813
0.491331 0.712583 0.118901
0.591869 0.713437 0.124515
0.716984 0.716033 0.126439
0.058859 0.077742 0.138565
0.078343 0.114020 0.385555
0.320572 0.113781 0.349751
0.551460 0.117356 0.304636
0.636298 0.126562 0.277296
0.674960 0.145385 0.295379
0.695787 0.165236 0.361887
0.715794 0.137595 0.467389
0.718021 0.306175 0.559465
0.061956 0.089021 0.140550
0.075427 0.097671 0.191717
0.258085 0.108428 0.232427
0.530670 0.117926 0.229843
0.627250 0.131473 0.229630
0.673189 0.151887 0.256113
0.695122 0.171376 0.319970
0.715820 0.139514 0.469310
0.718021 0.306168 0.559445
0.067187 0.130400 0.134870
0.075110 0.133561 0.138842
0.155720 0.158132 0.164637
0.442669 0.160303 0.165503
0.588847 0.185803 0.178053
0.664285 0.216696 0.197061
0.691580 0.234698 0.226681
0.715226 0.185440 0.466429
0.718021 0.306167 0.559441
0.072264 0.284525 0.135701
0.078347 0.288814 0.138288
0.112602 0.298096 0.145869
0.294365 0.305427 0.154663
0.519749 0.326554 0.165250
0.633176 0.350415 0.180423
0.683914 0.368880 0.193531
0.707135 0.373608 0.259150
0.718021 0.306171 0.559444
0.076522 0.446854 0.135837
0.081083 0.448616 0.138119
0.105400 0.454031 0.145624
0.208817 0.457790 0.155076
0.430386 0.461265 0.163885
0.574184 0.472328 0.178193
0.668875 0.484771 0.188663
0.702548 0.492199 0.219585
0.717402 0.513208 0.466861
0.079734 0.560480 0.136843
0.082941 0.561185 0.138816
0.102611 0.564776 0.146966
0.168405 0.567363 0.157429
0.357818 0.568653 0.168011
0.518252 0.570933 0.180420
0.631821 0.577337 0.191203
0.694890 0.584677 0.213945
0.716288 0.592001 0.289561
0.080311 0.638461 0.132302
0.082822 0.638702 0.134296
0.097625 0.639975 0.141637
0.145229 0.641055 0.154021
0.296599 0.641388 0.166174
0.466238 0.641666 0.180504
0.581973 0.643081 0.194300
0.680762 0.646200 0.214592
0.715344 0.649989 0.244806
0.076906 0.684759 0.121998
0.078971 0.684754 0.123776
0.089763 0.684768 0.134179
0.125963 0.684823 0.147648
0.241718 0.684320 0.162815
0.420182 0.683685 0.178969
0.541394 0.684119 0.194253
0.657352 0.686269 0.210671
0.715201 0.689208 0.228865
0.067902 0.703493 0.094716
0.076154 0.715545 0.094715
0.076155 0.715545 0.094713
0.076168 0.715547 0.094715
0.152486 0.715493 0.118379
0.350917 0.713659 0.138504
0.503510 0.712985 0.154875
0.602184 0.713905 0.165314
0.717950 0.716384 0.172452
0.059980 0.093331 0.276704
0.068977 0.139249 0.485847
0.268143 0.161583 0.517279
0.534754 0.172393 0.509601
0.630089 0.192516 0.508240
0.673529 0.218782 0.514669
0.694935 0.242091 0.537167
0.712754 0.229895 0.583891
0.718021 0.316021 0.587553
0.062583 0.106668 0.290490
0.072007 0.130684 0.411976
0.223412 0.163728 0.487346
0.518086 0.177947 0.486221
0.622388 0.201908 0.490117
0.671975 0.229677 0.500961
0.694322 0.253583 0.527431
0.712419 0.240375 0.581436
0.718021 0.316130 0.587778
0.069767 0.158556 0.274791
0.078276 0.167088 0.295519
0.150107 0.191133 0.365715
0.448730 0.215969 0.397074
0.592224 0.249447 0.419018
0.664751 0.283795 0.443740
0.691319 0.310617 0.485126
0.709760 0.322587 0.551124
0.718021 0.316528 0.588597
0.076976 0.305144 0.259744
0.083478 0.309216 0.266532
0.126316 0.320032 0.288720
0.357956 0.354370 0.338466
0.538875 0.359369 0.349373
0.643108 0.385051 0.378804
0.685406 0.403823 0.413670
0.707001 0.416631 0.493748
0.718021 0.316668 0.588843
0.083292 0.454506 0.259185
0.087999 0.456042 0.263359
0.120277 0.461429 0.277623
0.257919 0.466700 0.296293
0.469111 0.472967 0.315779
0.597304 0.486227 0.339800
0.674592 0.500076 0.369150
0.703374 0.510558 0.418415
0.717265 0.531707 0.574848
0.086987 0.563406 0.256387
0.091186 0.564075 0.259871
0.117393 0.567202 0.272546
0.211520 0.569991 0.288912
0.405039 0.572485 0.306644
0.544187 0.576286 0.324740
0.653467 0.583978 0.347239
0.697816 0.591400 0.379997
0.716330 0.607242 0.511965
0.088081 0.639271 0.250760
0.091654 0.639490 0.253909
0.112695 0.640551 0.266091
0.179306 0.641597 0.282967
0.345685 0.642245 0.301041
0.501545 0.643103 0.319151
0.607057 0.645056 0.337447
0.688179 0.648362 0.360627
0.715705 0.653629 0.435572
0.083968 0.684459 0.234884
0.086065 0.684529 0.237982
0.103056 0.684802 0.252077
0.147430 0.684919 0.270383
0.287090 0.684697 0.290341
0.448543 0.684507 0.309466
0.560470 0.685322 0.327652
0.669283 0.687676 0.346210
0.715907 0.691052 0.389032
0.071427 0.710771 0.225202
0.076153 0.717603 0.225202
0.076155 0.717605 0.225200
0.089523 0.719263 0.174716
0.194149 0.715234 0.253413
0.386709 0.713981 0.277470
0.516297 0.713635 0.296897
0.617963 0.714643 0.311236
0.718384 0.717184 0.329831
0.061212 0.119633 0.464194
0.065774 0.160501 0.543867
0.194086 0.223964 0.601804
0.517336 0.241403 0.602261
0.621112 0.262752 0.602591
0.671461 0.289415 0.606514
0.693780 0.307887 0.614114
0.710939 0.296270 0.627972
0.718021 0.341658 0.643197
0.063168 0.135724 0.473640
0.068638 0.171689 0.532234
0.172457 0.234879 0.594329
0.504240 0.254317 0.596792
0.614192 0.277020 0.598080
0.670013 0.303342 0.603080
0.693207 0.319938 0.611736
0.710663 0.308756 0.626748
0.718021 0.340919 0.641385
0.071136 0.212201 0.471536
0.078439 0.229627 0.492152
0.145068 0.278295 0.551351
0.443716 0.305601 0.572364
0.588311 0.326955 0.580431
0.663703 0.353949 0.588574
0.690561 0.374043 0.600949
0.708923 0.378997 0.619453
0.718021 0.338597 0.635616
0.080723 0.347073 0.451780
0.086688 0.352662 0.460772
0.135741 0.371842 0.488660
0.360812 0.392754 0.517244
0.544564 0.407238 0.535117
0.645817 0.425804 0.554455
0.685502 0.442512 0.579666
0.706649 0.453092 0.605203
0.718269 0.426442 0.635667
0.087834 0.469005 0.438967
0.094890 0.470980 0.443010
0.133177 0.477554 0.458210
0.289818 0.485574 0.478079
0.499536 0.504480 0.503264
0.608981 0.510393 0.514413
0.676925 0.523365 0.537889
0.703572 0.533745 0.580218
0.717079 0.548146 0.628621
0.094935 0.570229 0.435661
0.101400 0.570955 0.438004
0.133331 0.574142 0.447512
0.246496 0.577603 0.461867
0.433899 0.581469 0.476653
0.562342 0.586639 0.489593
0.662545 0.595367 0.506918
0.699288 0.604406 0.536264
0.716270 0.619263 0.613046
0.097349 0.641434 0.433628
0.102525 0.641679 0.435279
0.127616 0.642714 0.442174
0.212543 0.643887 0.453154
0.386052 0.644925 0.466618
0.519807 0.646312 0.478054
0.625652 0.648752 0.489365
0.692318 0.652299 0.506307
0.715841 0.659990 0.585250
0.089650 0.685565 0.432204
0.093547 0.685643 0.433146
0.113581 0.685911 0.438402
0.170437 0.686160 0.446671
0.319544 0.686197 0.457450
0.471330 0.686411 0.469372
0.577426 0.687590 0.478523
0.677557 0.690211 0.488648
0.716281 0.694145 0.534411
0.072503 0.713698 0.521148
0.073106 0.714691 0.521148
0.074708 0.717027 0.521146
0.109524 0.716985 0.450173
0.220077 0.715763 0.454235
0.403759 0.714847 0.461629
0.526160 0.714686 0.469576
0.630698 0.715805 0.475451
0.718620 0.718926 0.494840
0.062320 0.175089 0.591599
0.065411 0.218413 0.623186
0.152304 0.292152 0.658182
0.496727 0.309185 0.659567
0.613128 0.327560 0.660321
0.669371 0.346863 0.661966
0.692616 0.361951 0.664979
0.709855 0.352377 0.669870
0.718021 0.355568 0.671145
0.064044 0.196519 0.595452
0.067263 0.235791 0.622059
0.147427 0.305190 0.655634
0.481219 0.321582 0.657939
0.607387 0.340529 0.659291
0.668049 0.360272 0.661101
0.692096 0.374932 0.664402
0.709606 0.365465 0.669552
0.718021 0.355568 0.671145
0.072112 0.293961 0.599554
0.077691 0.311040 0.612835
0.140695 0.355074 0.642572
0.431975 0.374499 0.649880
0.584607 0.393214 0.653044
0.662460 0.406827 0.656746
0.689786 0.417734 0.661722
0.708235 0.418934 0.667817
0.718021 0.355572 0.671145
0.082741 0.400245 0.587992
0.088058 0.405034 0.594112
0.140331 0.424086 0.616751
0.367529 0.439422 0.632696
0.547860 0.452106 0.640214
0.646483 0.465321 0.646382
0.685353 0.479035 0.654676
0.706293 0.485671 0.664374
0.718027 0.461051 0.670997
0.092369 0.496288 0.575887
0.100315 0.498623 0.579909
0.143379 0.508613 0.591848
0.310035 0.518995 0.607352
0.505395 0.527303 0.619995
0.615123 0.536122 0.629364
0.678061 0.546994 0.640733
0.703642 0.555657 0.656831
0.716902 0.564695 0.672154
0.101597 0.581661 0.565509
0.108185 0.582625 0.567715
0.144259 0.586417 0.576876
0.271678 0.591149 0.587345
0.451206 0.596660 0.598671
0.576011 0.606224 0.611080
0.666236 0.612696 0.621516
0.700081 0.619265 0.640251
0.716221 0.628645 0.668747
0.104537 0.645426 0.561521
0.109830 0.645685 0.562579
0.139329 0.646805 0.567531
0.237187 0.648242 0.576433
0.405447 0.649765 0.585205
0.532959 0.651695 0.593696
0.638025 0.654639 0.602711
0.694595 0.658690 0.617408
0.715917 0.666868 0.660883
0.095300 0.688204 0.563088
0.099738 0.688293 0.563286
0.122001 0.688591 0.565145
0.189756 0.688928 0.569307
0.342822 0.689213 0.576228
0.487957 0.689792 0.582937
0.589873 0.691313 0.589139
0.682614 0.693790 0.596701
0.716458 0.698361 0.638509
0.072900 0.714774 0.567493
0.073415 0.715664 0.569989
0.074839 0.717715 0.579399
0.112342 0.718371 0.578216
0.232405 0.717188 0.576412
0.412777 0.716443 0.578589
0.531763 0.716459 0.581329
0.638185 0.717623 0.584131
0.718704 0.721971 0.614748
0.064027 0.280835 0.675208
0.066126 0.310026 0.689134
0.123154 0.352112 0.698664
0.478392 0.367663 0.699396
0.608608 0.385285 0.700002
0.668321 0.400140 0.700848
0.692063 0.407771 0.702315
0.709251 0.401758 0.704032
0.718020 0.376090 0.700936
0.065215 0.301004 0.676788
0.067660 0.323115 0.688603
0.124552 0.364496 0.698205
0.466690 0.379990 0.699168
0.603943 0.396737 0.699834
0.667223 0.408691 0.700718
0.691592 0.416519 0.702231
0.709030 0.410498 0.704063
0.718020 0.375886 0.700691
0.072629 0.375796 0.679684
0.077160 0.387435 0.686061
0.131057 0.409973 0.695377
0.427518 0.420609 0.697645
0.584958 0.431967 0.698825
0.662482 0.443449 0.699945
0.689569 0.451874 0.701706
0.707906 0.451729 0.703954
0.718018 0.374871 0.699572
0.084079 0.448859 0.673437
0.088876 0.453701 0.677784
0.139732 0.469848 0.688332
0.376023 0.481298 0.693575
0.553122 0.491724 0.695958
0.649193 0.502758 0.697983
0.685759 0.511952 0.700358
0.706256 0.515686 0.703459
0.717610 0.506143 0.705006
0.096251 0.528763 0.663324
0.103597 0.530921 0.666228
0.147822 0.539547 0.676144
0.325405 0.547987 0.685065
0.514810 0.555077 0.690237
0.622227 0.562371 0.693621
0.679510 0.569377 0.697271
0.703972 0.575244 0.701877
0.716829 0.581024 0.706356
0.106491 0.600147 0.652403
0.112743 0.601380 0.654639
0.151394 0.606537 0.662448
0.291794 0.613120 0.671868
0.467741 0.617305 0.680152
0.585303 0.621542 0.686011
0.669361 0.626120 0.691244
0.700894 0.631078 0.698189
0.716271 0.637455 0.706285
0.108421 0.651671 0.643824
0.113826 0.652008 0.644927
0.146216 0.653371 0.649669
0.253479 0.655281 0.658149
0.419227 0.657478 0.666327
0.542811 0.659952 0.673803
0.646488 0.663068 0.680031
0.696223 0.667060 0.689601
0.716069 0.673298 0.704611
0.096737 0.692727 0.640159
0.101306 0.692794 0.640463
0.125450 0.693008 0.642254
0.198489 0.693357 0.646106
0.355378 0.693785 0.652270
0.498100 0.694494 0.659624
0.597946 0.695920 0.665545
0.685427 0.698302 0.672639
0.716617 0.703065 0.699209
0.072850 0.715484 0.620288
0.073841 0.717158 0.620297
0.075680 0.719320 0.620537
0.105279 0.721236 0.643859
0.227982 0.719618 0.643901
0.412273 0.718931 0.646399
0.532153 0.719039 0.649451
0.638505 0.720245 0.652249
0.718776 0.726174 0.690974
0.066164 0.387981 0.731853
0.068312 0.391526 0.733416
0.135884 0.403845 0.734257
0.499342 0.413377 0.734462
0.616535 0.424298 0.734845
0.670469 0.434964 0.735439
0.692954 0.440682 0.736346
0.709826 0.431771 0.738456
0.718045 0.405374 0.731684
0.067327 0.397868 0.731692
0.069827 0.400226 0.733168
0.138373 0.411880 0.734219
0.490155 0.421353 0.734455
0.613123 0.432258 0.734841
0.669676 0.442948 0.735439
0.692614 0.448806 0.736367
0.709634 0.440350 0.738470
0.718054 0.407575 0.731684
0.075753 0.439257 0.731043
0.080066 0.440965 0.732079
0.150040 0.450072 0.733565
0.456884 0.458143 0.734069
0.597926 0.467973 0.734547
0.665951 0.478015 0.735215
0.691009 0.484295 0.736249
0.708690 0.479826 0.738282
0.718144 0.431263 0.731684
0.086682 0.500738 0.728859
0.092187 0.502429 0.729943
0.157661 0.510359 0.732137
0.410831 0.516907 0.733196
0.571997 0.523073 0.733925
0.658594 0.529754 0.734759
0.688146 0.534703 0.735988
0.707351 0.534507 0.738057
0.717676 0.527603 0.738635
0.100574 0.562304 0.724518
0.107624 0.563646 0.725894
0.164603 0.569083 0.729264
0.362388 0.573781 0.731433
0.536075 0.578880 0.732797
0.638036 0.584685 0.733937
0.683309 0.589834 0.735367
0.705515 0.592178 0.737617
0.717094 0.595202 0.739478
0.110037 0.622016 0.717205
0.116127 0.622907 0.718894
0.164623 0.626368 0.723901
0.315997 0.629441 0.727998
0.493901 0.632237 0.730612
0.604322 0.635468 0.732447
0.675058 0.638668 0.734230
0.703032 0.640750 0.736795
0.716682 0.644033 0.739660
0.110330 0.661128 0.706639
0.115572 0.661614 0.708066
0.151863 0.663651 0.713541
0.268828 0.666048 0.720388
0.436361 0.668132 0.725820
0.557857 0.670174 0.729340
0.659262 0.672600 0.731922
0.699044 0.675216 0.735225
0.716534 0.679027 0.739355
0.092214 0.698341 0.696988
0.096965 0.698388 0.697635
0.121649 0.698513 0.700567
0.196370 0.699006 0.705804
0.359116 0.699802 0.713025
0.503617 0.700892 0.719888
0.605420 0.702427 0.725144
0.686965 0.703745 0.728091
0.716950 0.707401 0.738211
0.072291 0.715944 0.674781
0.075555 0.720563 0.675603
0.076119 0.721425 0.681226
0.094826 0.724214 0.691198
0.199511 0.723387 0.694123
0.399076 0.722655 0.697922
0.525715 0.722827 0.701451
0.629570 0.723987 0.703665
0.718851 0.730217 0.735264
0.118465 0.431191 0.764991
0.151082 0.432450 0.764991
0.440280 0.437437 0.764992
0.597668 0.446161 0.765017
0.660205 0.456440 0.765081
0.682053 0.464953 0.765223
0.699239 0.466411 0.765635
0.713320 0.443130 0.766519
0.718021 0.428395 0.764229
0.120497 0.437530 0.764891
0.152114 0.438813 0.764893
0.436628 0.443883 0.764900
0.595539 0.452729 0.764934
0.659658 0.463097 0.765007
0.681838 0.471683 0.765161
0.699133 0.473072 0.765576
0.713222 0.448835 0.766470
0.718021 0.436195 0.766528
0.132991 0.469813 0.764397
0.162874 0.471044 0.764410
0.421349 0.475859 0.764455
0.585589 0.484288 0.764547
0.655439 0.494119 0.764674
0.680800 0.502384 0.764882
0.698595 0.503830 0.765314
0.712723 0.481213 0.766201
0.718021 0.436213 0.766528
0.151014 0.529438 0.763677
0.180082 0.530077 0.763710
0.392903 0.532591 0.763824
0.565562 0.537212 0.764000
0.645929 0.542827 0.764199
0.678419 0.547818 0.764471
0.697467 0.549350 0.764937
0.711861 0.540699 0.765739
0.718392 0.541216 0.767067
0.156514 0.586374 0.763182
0.180642 0.586825 0.763235
0.337739 0.588684 0.763410
0.534795 0.592224 0.763625
0.628738 0.596835 0.763887
0.674372 0.601172 0.764205
0.695693 0.603146 0.764669
0.711062 0.598813 0.765446
0.718467 0.599112 0.767022
0.148681 0.637575 0.762973
0.164095 0.637767 0.763044
0.280162 0.638561 0.763275
0.484191 0.639933 0.763548
0.599083 0.641800 0.763831
0.667064 0.643770 0.764168
0.692789 0.644967 0.764613
0.710027 0.644039 0.765318
0.718412 0.647035 0.766723
0.127225 0.673900 0.763051
0.136679 0.673987 0.763140
0.202406 0.674394 0.763410
0.391741 0.675113 0.763738
0.544048 0.676254 0.764068
0.645468 0.677808 0.764413
0.687088 0.679140 0.764878
0.708518 0.678960 0.765491
0.718460 0.682190 0.766697
0.089569 0.706726 0.761916
0.093798 0.706844 0.762482
0.117353 0.706999 0.763521
0.221545 0.706855 0.764138
0.424091 0.706791 0.764619
0.567520 0.707248 0.765020
0.669247 0.708277 0.765437
0.704601 0.708827 0.765978
0.718645 0.710003 0.766894
0.071277 0.715977 0.711899
0.076154 0.723517 0.724258
0.076155 0.723517 0.724258
0.080739 0.724175 0.724287
0.136324 0.730922 0.750786
0.362753 0.731316 0.765329
0.518292 0.731147 0.766359
0.631856 0.732128 0.766885
0.718944 0.734056 0.767227
