negative-ektar-100/Ektar100_Classic_Soft.cube
TITLE "Kodak Ektar 100 Classic Soft"
# Adobe RGB in/out. REPLACES AgX. Kodak Ektar 100 Classic Soft.
LUT_3D_SIZE 9
DOMAIN_MIN 0.0 0.0 0.0
DOMAIN_MAX 1.0 1.0 1.0
0.061862 0.068788 0.085817
0.095480 0.080979 0.089241
0.186050 0.099464 0.094756
0.368565 0.127117 0.101352
0.479035 0.183373 0.108940
0.556100 0.271481 0.117662
0.607764 0.355336 0.127388
0.646595 0.420509 0.139998
0.680001 0.475606 0.155244
0.068689 0.094763 0.088184
0.097035 0.099353 0.090449
0.188219 0.113927 0.095500
0.369790 0.147637 0.101963
0.479499 0.207043 0.109419
0.556374 0.290945 0.117984
0.607896 0.367393 0.127746
0.646695 0.430696 0.140379
0.680070 0.482095 0.155631
0.077287 0.157229 0.092641
0.102165 0.163002 0.093893
0.195981 0.182745 0.097836
0.374171 0.226784 0.103949
0.481157 0.287986 0.111074
0.557355 0.352934 0.119105
0.608369 0.407639 0.129006
0.647054 0.459964 0.141729
0.680321 0.504287 0.157011
0.087730 0.301276 0.097197
0.111636 0.306558 0.098255
0.210151 0.323010 0.101531
0.382147 0.354299 0.106979
0.484178 0.386869 0.113812
0.559148 0.426817 0.121541
0.609235 0.465385 0.131227
0.647712 0.502492 0.144146
0.680781 0.535971 0.159503
0.102395 0.429126 0.102880
0.125803 0.431949 0.103769
0.230951 0.441940 0.106550
0.393882 0.455718 0.111150
0.488628 0.474600 0.117344
0.561803 0.498281 0.125032
0.610521 0.525225 0.134762
0.648691 0.546608 0.147611
0.681466 0.569281 0.163126
0.121588 0.519965 0.108806
0.148209 0.521547 0.109552
0.258086 0.526095 0.112201
0.404068 0.533135 0.116344
0.494515 0.543202 0.121981
0.565340 0.556026 0.129622
0.612239 0.571224 0.140063
0.650003 0.588375 0.152791
0.682385 0.607069 0.168023
0.149458 0.578969 0.115818
0.179441 0.579797 0.116395
0.287987 0.582744 0.118347
0.415297 0.588060 0.122225
0.501807 0.595769 0.127861
0.569757 0.605762 0.135704
0.614393 0.617839 0.146256
0.651655 0.631749 0.159334
0.683546 0.646875 0.175774
0.183368 0.632939 0.123041
0.215015 0.633584 0.123623
0.322193 0.635887 0.125634
0.429330 0.640064 0.129406
0.510439 0.646174 0.135172
0.575035 0.650828 0.143664
0.616980 0.655757 0.154163
0.653648 0.661469 0.166817
0.684951 0.667858 0.184863
0.232379 0.665583 0.131457
0.265476 0.665840 0.131991
0.356417 0.666757 0.134098
0.445225 0.668422 0.138502
0.519814 0.670865 0.144593
0.581141 0.674076 0.152815
0.619989 0.678022 0.163408
0.655979 0.682648 0.177872
0.686599 0.687888 0.195178
0.061862 0.076744 0.117175
0.095480 0.084125 0.117717
0.186050 0.101445 0.119581
0.368565 0.128824 0.123639
0.479035 0.185863 0.129244
0.556100 0.274094 0.137297
0.607764 0.356985 0.147623
0.646595 0.421873 0.160802
0.680001 0.476474 0.177539
0.068689 0.096985 0.117505
0.097035 0.101334 0.118039
0.188219 0.116195 0.119975
0.369790 0.150494 0.123987
0.479499 0.210263 0.129586
0.556374 0.293483 0.137694
0.607896 0.368957 0.147964
0.646695 0.432028 0.161170
0.680070 0.482945 0.177982
0.077287 0.159975 0.118650
0.102165 0.165686 0.119157
0.195981 0.185240 0.121351
0.374171 0.229937 0.125206
0.481157 0.290535 0.130791
0.557355 0.354828 0.139098
0.608369 0.409047 0.149259
0.647054 0.460883 0.162479
0.680321 0.505075 0.179566
0.087730 0.303778 0.120984
0.111636 0.309041 0.121605
0.210151 0.324905 0.123740
0.382147 0.355991 0.127445
0.484178 0.388353 0.132921
0.559148 0.428161 0.141608
0.609235 0.466285 0.151943
0.647712 0.503285 0.164849
0.680781 0.536458 0.182451
0.102395 0.430462 0.124533
0.125803 0.433277 0.125089
0.230951 0.443237 0.127075
0.393882 0.456650 0.130848
0.488628 0.475472 0.136910
0.561803 0.499085 0.145199
0.610521 0.525740 0.155832
0.648691 0.547068 0.168649
0.681466 0.569691 0.186694
0.121588 0.520713 0.129116
0.148209 0.522292 0.129681
0.258086 0.526607 0.131648
0.404068 0.533628 0.135713
0.494515 0.543670 0.142049
0.565340 0.556464 0.149996
0.612239 0.571631 0.160865
0.650003 0.588749 0.174749
0.682385 0.607412 0.192299
0.149458 0.579360 0.135098
0.179441 0.580187 0.135773
0.287987 0.583129 0.138143
0.415297 0.588435 0.142296
0.501807 0.596131 0.148074
0.569757 0.606107 0.156713
0.614393 0.618166 0.166943
0.651655 0.632056 0.182254
0.683546 0.647054 0.199232
0.183368 0.633244 0.143126
0.215015 0.633889 0.143726
0.322193 0.636189 0.145837
0.429330 0.640360 0.149737
0.510439 0.646401 0.156214
0.575035 0.650968 0.164374
0.616980 0.655890 0.176306
0.653648 0.661595 0.191077
0.684951 0.667977 0.207430
0.232379 0.665705 0.152225
0.265476 0.665961 0.152883
0.356417 0.666877 0.155212
0.445225 0.668541 0.159365
0.519814 0.670980 0.165291
0.581141 0.674188 0.174777
0.619989 0.678129 0.187027
0.655979 0.682751 0.201117
0.686599 0.687986 0.217580
0.061862 0.088037 0.194221
0.095480 0.092902 0.194898
0.186050 0.107956 0.197315
0.368565 0.136746 0.201695
0.479035 0.197469 0.208100
0.556100 0.283395 0.217201
0.607764 0.362735 0.229451
0.646595 0.426739 0.244549
0.680001 0.479573 0.263709
0.068689 0.104202 0.194631
0.097035 0.107867 0.195307
0.188219 0.123749 0.197719
0.369790 0.160484 0.202093
0.479499 0.221736 0.208487
0.556374 0.302525 0.217644
0.607896 0.374521 0.229881
0.646695 0.436779 0.245026
0.680070 0.485975 0.264173
0.077287 0.169598 0.196100
0.102165 0.175104 0.196771
0.195981 0.196650 0.199168
0.374171 0.241183 0.203515
0.481157 0.299615 0.209872
0.557355 0.360665 0.219233
0.608369 0.414065 0.231421
0.647054 0.464157 0.246738
0.680321 0.507889 0.265839
0.087730 0.312692 0.198776
0.111636 0.317258 0.199440
0.210151 0.331638 0.201810
0.382147 0.361761 0.206109
0.484178 0.393639 0.212399
0.559148 0.432955 0.222138
0.609235 0.469497 0.234238
0.647712 0.506115 0.249877
0.680781 0.538194 0.268892
0.102395 0.435230 0.202724
0.125803 0.438014 0.203377
0.230951 0.446800 0.205708
0.393882 0.459975 0.209937
0.488628 0.478582 0.216770
0.561803 0.501955 0.226444
0.610521 0.527577 0.238417
0.648691 0.548712 0.254545
0.681466 0.571160 0.273437
0.121588 0.523389 0.207956
0.148209 0.524546 0.208595
0.258086 0.528436 0.210876
0.404068 0.535391 0.215451
0.494515 0.545343 0.222658
0.565340 0.558033 0.232189
0.612239 0.573085 0.244630
0.650003 0.590089 0.260803
0.682385 0.608640 0.279534
0.149458 0.580762 0.214780
0.179441 0.581583 0.215516
0.287987 0.584505 0.218150
0.415297 0.589777 0.222949
0.501807 0.597425 0.230020
0.569757 0.607343 0.239381
0.614393 0.619335 0.252696
0.651655 0.633154 0.268683
0.683546 0.647697 0.287218
0.183368 0.634337 0.223937
0.215015 0.634979 0.224656
0.322193 0.637268 0.227229
0.429330 0.641420 0.231919
0.510439 0.647046 0.238835
0.575035 0.651471 0.249243
0.616980 0.656369 0.262421
0.653648 0.662048 0.278196
0.684951 0.668403 0.296503
0.232379 0.666140 0.234537
0.265476 0.666395 0.235238
0.356417 0.667307 0.237744
0.445225 0.668964 0.242695
0.519814 0.671393 0.250468
0.581141 0.674588 0.260831
0.619989 0.678515 0.273797
0.655979 0.683120 0.289334
0.686599 0.688338 0.307388
0.061862 0.102419 0.347014
0.095480 0.106303 0.347563
0.186050 0.121765 0.349530
0.368565 0.157922 0.353130
0.479035 0.218762 0.358486
0.556100 0.300182 0.365929
0.607764 0.373080 0.375910
0.646595 0.435547 0.387925
0.680001 0.485189 0.400316
0.068689 0.117252 0.347347
0.097035 0.121648 0.347895
0.188219 0.137398 0.349861
0.369790 0.177893 0.353459
0.479499 0.242498 0.358812
0.556374 0.318029 0.366287
0.607896 0.384545 0.376264
0.646695 0.444929 0.388273
0.680070 0.491470 0.400591
0.077287 0.186452 0.348539
0.102165 0.193412 0.349087
0.195981 0.217962 0.351048
0.374171 0.261567 0.354638
0.481157 0.315790 0.359985
0.557355 0.371068 0.367572
0.608369 0.423141 0.377531
0.647054 0.470082 0.389520
0.680321 0.513000 0.401579
0.087730 0.325823 0.350727
0.111636 0.329794 0.351272
0.210151 0.347765 0.353225
0.382147 0.372134 0.356808
0.484178 0.403181 0.362134
0.559148 0.441637 0.369930
0.609235 0.475312 0.379858
0.647712 0.511255 0.391811
0.680781 0.541349 0.403390
0.102395 0.443784 0.353982
0.125803 0.445842 0.354523
0.230951 0.453107 0.356472
0.393882 0.465989 0.360040
0.488628 0.484217 0.365581
0.561803 0.507165 0.373444
0.610521 0.530911 0.383325
0.648691 0.551703 0.394887
0.681466 0.573835 0.406086
0.121588 0.526856 0.358364
0.148209 0.527934 0.358903
0.258086 0.531755 0.360837
0.404068 0.538592 0.364517
0.494515 0.548385 0.370353
0.565340 0.560886 0.378165
0.612239 0.575736 0.387985
0.650003 0.592532 0.398594
0.682385 0.610882 0.409705
0.149458 0.583316 0.363977
0.179441 0.584126 0.364570
0.287987 0.587013 0.366696
0.415297 0.592224 0.370590
0.501807 0.599786 0.376378
0.569757 0.609598 0.384127
0.614393 0.621470 0.393792
0.651655 0.635162 0.403266
0.683546 0.648871 0.414268
0.183368 0.636335 0.371395
0.215015 0.636971 0.371982
0.322193 0.639240 0.374086
0.429330 0.643357 0.377942
0.510439 0.648226 0.383672
0.575035 0.652390 0.391348
0.616980 0.657244 0.399553
0.653648 0.662876 0.408911
0.684951 0.669181 0.419785
0.232379 0.666935 0.380105
0.265476 0.667188 0.380685
0.356417 0.668093 0.382765
0.445225 0.669738 0.386576
0.519814 0.672149 0.392242
0.581141 0.675322 0.398611
0.619989 0.679221 0.406299
0.655979 0.683796 0.415526
0.686599 0.688981 0.426312
0.061862 0.122134 0.486830
0.095480 0.126257 0.487111
0.186050 0.146213 0.488119
0.368565 0.183803 0.489967
0.479035 0.249756 0.492711
0.556100 0.322507 0.496385
0.607764 0.388034 0.501001
0.646595 0.447197 0.506559
0.680001 0.493393 0.513045
0.068689 0.138050 0.487000
0.097035 0.146008 0.487281
0.188219 0.167242 0.488289
0.369790 0.207598 0.490135
0.479499 0.272446 0.492878
0.556374 0.338013 0.496550
0.607896 0.399063 0.501165
0.646695 0.454375 0.506720
0.680070 0.499504 0.513203
0.077287 0.218510 0.487612
0.102165 0.225224 0.487892
0.195981 0.248980 0.488898
0.374171 0.288425 0.490741
0.481157 0.335108 0.493479
0.557355 0.386101 0.497145
0.608369 0.436360 0.501751
0.647054 0.478720 0.507297
0.680321 0.520490 0.513769
0.087730 0.348191 0.488733
0.111636 0.353412 0.489013
0.210151 0.365741 0.490015
0.382147 0.387124 0.491852
0.484178 0.417043 0.494581
0.559148 0.451643 0.498235
0.609235 0.483796 0.502827
0.647712 0.518787 0.508356
0.680781 0.545974 0.514777
0.102395 0.453269 0.490404
0.125803 0.455256 0.490682
0.230951 0.462277 0.491680
0.393882 0.474751 0.493508
0.488628 0.492448 0.496224
0.561803 0.514796 0.499860
0.610521 0.535792 0.504431
0.648691 0.556092 0.509935
0.681466 0.577773 0.516120
0.121588 0.531841 0.492649
0.148209 0.532890 0.492925
0.258086 0.536614 0.493916
0.404068 0.543282 0.495732
0.494515 0.552848 0.498431
0.565340 0.565080 0.502044
0.612239 0.579637 0.506587
0.650003 0.596135 0.512057
0.682385 0.614192 0.517925
0.149458 0.587078 0.495482
0.179441 0.587875 0.495756
0.287987 0.590711 0.496739
0.415297 0.595832 0.498541
0.501807 0.603269 0.501217
0.569757 0.612928 0.504802
0.614393 0.624627 0.509309
0.651655 0.638133 0.514715
0.683546 0.650329 0.520204
0.183368 0.639291 0.498913
0.215015 0.639918 0.499184
0.322193 0.642158 0.500157
0.429330 0.646223 0.501941
0.510439 0.649814 0.504592
0.575035 0.653748 0.508142
0.616980 0.658540 0.512607
0.653648 0.664101 0.517529
0.684951 0.670334 0.522964
0.232379 0.668114 0.502942
0.265476 0.668364 0.503210
0.356417 0.669259 0.504172
0.445225 0.670885 0.505935
0.519814 0.673270 0.508556
0.581141 0.676409 0.512067
0.619989 0.680269 0.516227
0.655979 0.684799 0.520832
0.686599 0.689936 0.526206
0.061862 0.156678 0.580479
0.095480 0.162464 0.580640
0.186050 0.182245 0.581218
0.368565 0.226155 0.582279
0.479035 0.287477 0.583859
0.556100 0.352443 0.585979
0.607764 0.407358 0.588652
0.646595 0.459781 0.591801
0.680001 0.504130 0.594959
0.068689 0.176742 0.580577
0.097035 0.182107 0.580738
0.188219 0.205589 0.581316
0.369790 0.249721 0.582376
0.479499 0.306497 0.583955
0.556374 0.365035 0.586074
0.607896 0.417870 0.588747
0.646695 0.466640 0.591879
0.680070 0.510028 0.595036
0.077287 0.260189 0.580927
0.102165 0.266643 0.581088
0.195981 0.286835 0.581665
0.374171 0.320271 0.582725
0.481157 0.363199 0.584301
0.557355 0.405518 0.586418
0.608369 0.451112 0.589087
0.647054 0.489995 0.592160
0.680321 0.528311 0.595312
0.087730 0.371436 0.581571
0.111636 0.374701 0.581731
0.210151 0.386198 0.582307
0.382147 0.406492 0.583364
0.484178 0.435062 0.584937
0.559148 0.464029 0.587049
0.609235 0.494880 0.589712
0.647712 0.527158 0.592675
0.680781 0.552055 0.595820
0.102395 0.465583 0.582531
0.125803 0.467484 0.582691
0.230951 0.474207 0.583265
0.393882 0.486178 0.584318
0.488628 0.503218 0.585886
0.561803 0.524451 0.587990
0.610521 0.542195 0.590644
0.648691 0.561874 0.593443
0.681466 0.582976 0.596577
0.121588 0.538375 0.583823
0.148209 0.539390 0.583982
0.258086 0.542990 0.584553
0.404068 0.549446 0.585602
0.494515 0.558724 0.587162
0.565340 0.570612 0.589257
0.612239 0.584795 0.591815
0.650003 0.600908 0.594477
0.682385 0.618588 0.597596
0.149458 0.592058 0.585457
0.179441 0.592836 0.585616
0.287987 0.595606 0.586184
0.415297 0.600612 0.587226
0.501807 0.607888 0.588777
0.569757 0.617348 0.590860
0.614393 0.628822 0.593139
0.651655 0.642087 0.595785
0.683546 0.652198 0.598886
0.183368 0.643225 0.587441
0.215015 0.643842 0.587599
0.322193 0.646044 0.588163
0.429330 0.648640 0.589197
0.510439 0.651693 0.590738
0.575035 0.655556 0.592571
0.616980 0.660264 0.594745
0.653648 0.665735 0.597372
0.684951 0.671872 0.600451
0.232379 0.669685 0.589778
0.265476 0.669932 0.589934
0.356417 0.670813 0.590494
0.445225 0.672415 0.591498
0.519814 0.674766 0.592772
0.581141 0.677860 0.594482
0.619989 0.681668 0.596637
0.655979 0.686139 0.599242
0.686599 0.691213 0.602294
0.061862 0.204725 0.646839
0.095480 0.211540 0.646930
0.186050 0.235620 0.647256
0.368565 0.277372 0.647854
0.479035 0.326459 0.648746
0.556100 0.379644 0.649945
0.607764 0.430667 0.651460
0.646595 0.474999 0.653296
0.680001 0.517258 0.655455
0.068689 0.228804 0.646894
0.097035 0.235449 0.646985
0.188219 0.258977 0.647311
0.369790 0.296668 0.647909
0.479499 0.343218 0.648800
0.556374 0.390913 0.649999
0.607896 0.440616 0.651514
0.646695 0.481503 0.653349
0.680070 0.522912 0.655508
0.077287 0.305206 0.647091
0.102165 0.310458 0.647182
0.195981 0.325985 0.647508
0.374171 0.356921 0.648105
0.481157 0.389201 0.648996
0.557355 0.428929 0.650193
0.608369 0.466800 0.651707
0.647054 0.503738 0.653541
0.680321 0.536735 0.655697
0.087730 0.396892 0.647454
0.111636 0.399946 0.647545
0.210151 0.410727 0.647870
0.382147 0.429849 0.648466
0.484178 0.453617 0.649355
0.559148 0.479025 0.650551
0.609235 0.508405 0.652062
0.647712 0.535632 0.653892
0.680781 0.559528 0.656045
0.102395 0.480500 0.647996
0.125803 0.482303 0.648086
0.230951 0.488692 0.648410
0.393882 0.500095 0.649005
0.488628 0.516384 0.649892
0.561803 0.533045 0.651084
0.610521 0.550044 0.652591
0.648691 0.568994 0.654418
0.681466 0.589412 0.656565
0.121588 0.546377 0.648725
0.148209 0.547351 0.648815
0.258086 0.550808 0.649138
0.404068 0.557016 0.649731
0.494515 0.565955 0.650615
0.565340 0.577438 0.651803
0.612239 0.591176 0.653305
0.650003 0.606830 0.655125
0.682385 0.624055 0.657265
0.149458 0.598226 0.649650
0.179441 0.598982 0.649739
0.287987 0.601674 0.650061
0.415297 0.606542 0.650651
0.501807 0.613624 0.651531
0.569757 0.622846 0.652714
0.614393 0.634047 0.654209
0.651655 0.646750 0.656021
0.683546 0.654527 0.658153
0.183368 0.647446 0.650773
0.215015 0.647824 0.650862
0.322193 0.649167 0.651182
0.429330 0.651145 0.651769
0.510439 0.654033 0.652644
0.575035 0.657809 0.653821
0.616980 0.662416 0.655309
0.653648 0.667776 0.657111
0.684951 0.673796 0.659232
0.232379 0.671650 0.652099
0.265476 0.671892 0.652188
0.356417 0.672756 0.652506
0.445225 0.674329 0.653089
0.519814 0.676637 0.653959
0.581141 0.679677 0.655128
0.619989 0.683420 0.656606
0.655979 0.687820 0.658398
0.686599 0.692816 0.660505
0.061862 0.269646 0.698289
0.095480 0.275234 0.698350
0.186050 0.294729 0.698566
0.368565 0.326163 0.698964
0.479035 0.368087 0.699558
0.556100 0.409895 0.700358
0.607764 0.454045 0.701370
0.646595 0.492553 0.702599
0.680001 0.529878 0.704047
0.068689 0.289219 0.698326
0.097035 0.294591 0.698386
0.188219 0.313558 0.698603
0.369790 0.342827 0.699001
0.479499 0.379705 0.699595
0.556374 0.420343 0.700394
0.607896 0.461047 0.701406
0.646695 0.498681 0.702635
0.680070 0.533634 0.704083
0.077287 0.351263 0.698457
0.102165 0.355568 0.698517
0.195981 0.367694 0.698734
0.374171 0.388968 0.699132
0.481157 0.418753 0.699725
0.557355 0.452820 0.700524
0.608369 0.484846 0.701535
0.647054 0.519721 0.702763
0.680321 0.546548 0.704210
0.087730 0.425903 0.698698
0.111636 0.428748 0.698759
0.210151 0.438813 0.698975
0.382147 0.453469 0.699372
0.484178 0.472500 0.699965
0.559148 0.496345 0.700763
0.609235 0.523986 0.701773
0.647712 0.545500 0.702999
0.680781 0.568293 0.704444
0.102395 0.497735 0.699059
0.125803 0.499436 0.699119
0.230951 0.505469 0.699335
0.393882 0.516265 0.699731
0.488628 0.529297 0.700323
0.561803 0.543043 0.701119
0.610521 0.559226 0.702127
0.648691 0.577368 0.703351
0.681466 0.597017 0.704794
0.121588 0.555728 0.699545
0.148209 0.556656 0.699605
0.258086 0.559956 0.699820
0.404068 0.565889 0.700216
0.494515 0.574451 0.700806
0.565340 0.585481 0.701600
0.612239 0.598719 0.702605
0.650003 0.613851 0.703826
0.682385 0.630557 0.705265
0.149458 0.605528 0.700161
0.179441 0.606258 0.700221
0.287987 0.608862 0.700435
0.415297 0.613572 0.700830
0.501807 0.620435 0.701418
0.569757 0.629382 0.702209
0.614393 0.640271 0.703211
0.651655 0.650184 0.704428
0.683546 0.657300 0.705863
0.183368 0.650732 0.700911
0.215015 0.651030 0.700971
0.322193 0.652090 0.701184
0.429330 0.654012 0.701577
0.510439 0.656820 0.702163
0.575035 0.660495 0.702951
0.616980 0.664984 0.703949
0.653648 0.670215 0.705161
0.684951 0.676099 0.706590
0.232379 0.674000 0.701798
0.265476 0.674237 0.701857
0.356417 0.675082 0.702070
0.445225 0.676620 0.702460
0.519814 0.678878 0.703043
0.581141 0.681855 0.703828
0.619989 0.685523 0.704821
0.655979 0.689837 0.706028
0.686599 0.694742 0.707450
0.061862 0.327943 0.733906
0.095480 0.331893 0.733934
0.186050 0.350551 0.734032
0.368565 0.373873 0.734214
0.479035 0.404785 0.734485
0.556100 0.443100 0.734849
0.607764 0.476292 0.735311
0.646595 0.512123 0.735873
0.680001 0.541882 0.736535
0.068689 0.345180 0.733923
0.097035 0.350416 0.733950
0.188219 0.363823 0.734049
0.369790 0.385314 0.734230
0.479499 0.415364 0.734501
0.556374 0.450488 0.734866
0.607896 0.482767 0.735328
0.646695 0.517871 0.735889
0.680070 0.545412 0.736551
0.077287 0.390366 0.733983
0.102165 0.393472 0.734010
0.195981 0.404429 0.734109
0.374171 0.423839 0.734290
0.481157 0.449380 0.734561
0.557355 0.475161 0.734925
0.608369 0.504910 0.735387
0.647054 0.533442 0.735948
0.680321 0.557591 0.736610
0.087730 0.454359 0.734093
0.111636 0.456338 0.734120
0.210151 0.463332 0.734219
0.382147 0.475760 0.734400
0.484178 0.493397 0.734670
0.559148 0.515678 0.735034
0.609235 0.536356 0.735495
0.647712 0.556600 0.736055
0.680781 0.578229 0.736717
0.102395 0.516983 0.734257
0.125803 0.518580 0.734284
0.230951 0.524054 0.734383
0.393882 0.531168 0.734563
0.488628 0.541337 0.734833
0.561803 0.554279 0.735197
0.610521 0.569605 0.735657
0.648691 0.586886 0.736217
0.681466 0.605706 0.736877
0.121588 0.566285 0.734478
0.148209 0.567165 0.734506
0.258086 0.570298 0.734604
0.404068 0.575940 0.734784
0.494515 0.584101 0.735053
0.565340 0.594645 0.735416
0.612239 0.607340 0.735875
0.650003 0.621905 0.736434
0.682385 0.638039 0.737093
0.149458 0.613887 0.734759
0.179441 0.614590 0.734787
0.287987 0.617097 0.734885
0.415297 0.621636 0.735064
0.501807 0.628256 0.735333
0.569757 0.636903 0.735695
0.614393 0.647017 0.736153
0.651655 0.653611 0.736710
0.683546 0.660497 0.737367
0.183368 0.654140 0.735102
0.215015 0.654428 0.735129
0.322193 0.655453 0.735226
0.429330 0.657312 0.735406
0.510439 0.660031 0.735673
0.575035 0.663594 0.736034
0.616980 0.667952 0.736490
0.653648 0.673038 0.737045
0.684951 0.678768 0.737700
0.232379 0.676723 0.735506
0.265476 0.676954 0.735534
0.356417 0.677777 0.735631
0.445225 0.679276 0.735809
0.519814 0.681479 0.736076
0.581141 0.684383 0.736435
0.619989 0.687966 0.736890
0.655979 0.692184 0.737443
0.686599 0.696984 0.738095
