negative-ektar-100/Ektar100_Modern_Soft.cube
TITLE "Kodak Ektar 100 Modern Soft"
# Adobe RGB in/out. REPLACES AgX. Kodak Ektar 100 Modern Soft.
LUT_3D_SIZE 9
DOMAIN_MIN 0.0 0.0 0.0
DOMAIN_MAX 1.0 1.0 1.0
0.061862 0.068788 0.085817
0.157563 0.076197 0.088702
0.573530 0.090469 0.094742
0.724832 0.110332 0.103133
0.788170 0.139744 0.112735
0.812095 0.174437 0.123643
0.823783 0.182380 0.142507
0.832662 0.217763 0.595092
0.825668 0.435482 0.661719
0.063938 0.098716 0.088085
0.076483 0.090972 0.089771
0.313509 0.101705 0.094957
0.648493 0.125075 0.103085
0.761320 0.163131 0.112424
0.803608 0.196268 0.122932
0.819357 0.205258 0.139654
0.830130 0.212607 0.590198
0.823868 0.430410 0.658317
0.068518 0.305396 0.094759
0.076421 0.261599 0.096706
0.120006 0.180039 0.098276
0.413856 0.199315 0.104422
0.658738 0.253945 0.112912
0.762643 0.305162 0.122460
0.803138 0.321490 0.135429
0.822209 0.211834 0.574185
0.817997 0.414177 0.647297
0.073216 0.522876 0.102059
0.078941 0.500530 0.104086
0.109306 0.446786 0.106894
0.248522 0.385605 0.109002
0.511442 0.387251 0.115215
0.685756 0.419390 0.123818
0.770544 0.446606 0.135089
0.802284 0.442886 0.155003
0.809223 0.358344 0.556840
0.077595 0.628515 0.108211
0.081809 0.618377 0.109973
0.105309 0.592397 0.114470
0.193506 0.558079 0.117673
0.410814 0.531023 0.120921
0.593778 0.526760 0.127226
0.719039 0.539242 0.137846
0.782291 0.546525 0.152821
0.798492 0.546670 0.331589
0.080862 0.688170 0.112843
0.083754 0.684049 0.114405
0.103539 0.673901 0.119338
0.170832 0.657514 0.124699
0.355307 0.636920 0.129218
0.523986 0.617070 0.134053
0.655015 0.611126 0.142425
0.752272 0.619035 0.155108
0.787831 0.621487 0.193520
0.081851 0.729853 0.113334
0.084088 0.727265 0.114825
0.099330 0.720216 0.120450
0.147344 0.708692 0.127824
0.296204 0.694955 0.134708
0.470252 0.682572 0.141824
0.607342 0.674503 0.148505
0.716769 0.671284 0.158165
0.776486 0.673999 0.181993
0.078972 0.768130 0.100783
0.080189 0.765806 0.102640
0.091296 0.758005 0.112584
0.123495 0.748598 0.122392
0.235279 0.737319 0.131904
0.418994 0.726247 0.141442
0.564568 0.717920 0.149260
0.677468 0.713725 0.157931
0.768212 0.712138 0.173172
0.075156 0.760474 0.085817
0.075091 0.759374 0.085817
0.084010 0.774079 0.085817
0.083426 0.771387 0.093721
0.148462 0.769470 0.106093
0.352085 0.759020 0.118924
0.511925 0.751198 0.127779
0.627458 0.747041 0.132838
0.765405 0.746640 0.133917
0.063134 0.079505 0.128850
0.140820 0.110665 0.318664
0.597419 0.104004 0.163252
0.736341 0.121569 0.147100
0.788577 0.150310 0.138703
0.809967 0.179291 0.142748
0.821793 0.188314 0.164071
0.831304 0.215008 0.592579
0.824735 0.432852 0.659956
0.067535 0.097134 0.115244
0.083598 0.091137 0.111395
0.412905 0.107215 0.124212
0.680289 0.132300 0.133673
0.765474 0.170455 0.134533
0.801705 0.201510 0.140314
0.817414 0.211219 0.158476
0.828777 0.209945 0.587220
0.822942 0.427816 0.656571
0.074818 0.278185 0.122504
0.083335 0.223760 0.119287
0.139598 0.163246 0.115346
0.471187 0.195948 0.122574
0.680577 0.256731 0.129383
0.764877 0.305691 0.136659
0.801591 0.322221 0.149968
0.820914 0.213801 0.572016
0.817100 0.411740 0.645622
0.079703 0.502766 0.123837
0.085860 0.480098 0.124365
0.122994 0.422066 0.123825
0.287991 0.368708 0.123760
0.537828 0.380345 0.128218
0.697310 0.416073 0.135799
0.771057 0.444762 0.147532
0.801055 0.442429 0.169052
0.808389 0.388703 0.629098
0.082328 0.617943 0.122811
0.087074 0.608084 0.124537
0.114817 0.581968 0.128324
0.220672 0.548981 0.130722
0.428116 0.524807 0.133458
0.603861 0.523214 0.138669
0.723608 0.537150 0.148840
0.781692 0.545085 0.164468
0.797679 0.549167 0.380143
0.083786 0.683902 0.122149
0.087438 0.679909 0.123919
0.109346 0.669681 0.129896
0.183236 0.653537 0.135605
0.370135 0.631607 0.140847
0.534946 0.613373 0.146188
0.662161 0.608976 0.153156
0.753957 0.617532 0.165695
0.787247 0.621139 0.209497
0.083778 0.727459 0.119611
0.086509 0.724898 0.121446
0.103017 0.717819 0.128299
0.156578 0.706339 0.136912
0.311220 0.692862 0.144979
0.478616 0.680938 0.152135
0.612843 0.673353 0.159838
0.720194 0.670615 0.168243
0.776140 0.673653 0.194725
0.079781 0.766486 0.104820
0.081120 0.764257 0.106606
0.093290 0.756710 0.117473
0.127524 0.747352 0.128556
0.245501 0.736203 0.140044
0.424070 0.725356 0.149800
0.569687 0.717308 0.158985
0.681755 0.713337 0.167467
0.768339 0.711907 0.184838
0.075123 0.767789 0.108739
0.075059 0.766686 0.108645
0.083956 0.778124 0.108328
0.083382 0.774442 0.107826
0.152472 0.769116 0.109305
0.356000 0.758750 0.123823
0.514832 0.751059 0.133334
0.629478 0.747020 0.140041
0.766539 0.746642 0.141232
0.064840 0.101655 0.315437
0.114646 0.263017 0.635805
0.578785 0.261624 0.611754
0.741556 0.255639 0.559667
0.788888 0.256233 0.501003
0.807950 0.283053 0.494616
0.818874 0.303403 0.529438
0.828971 0.225433 0.597343
0.822802 0.427434 0.656326
0.071696 0.133071 0.323083
0.104885 0.175044 0.444234
0.469069 0.186306 0.456518
0.694483 0.211437 0.433233
0.767770 0.246853 0.419377
0.799767 0.283170 0.440016
0.814475 0.304226 0.487321
0.826414 0.224067 0.593750
0.820996 0.422408 0.652916
0.078684 0.237570 0.222151
0.087646 0.199946 0.202001
0.158763 0.161975 0.180396
0.517229 0.214068 0.221848
0.700337 0.287089 0.268980
0.767310 0.335528 0.314462
0.799122 0.357407 0.351517
0.817723 0.289095 0.573892
0.815124 0.406417 0.641944
0.088265 0.471700 0.232087
0.096933 0.451329 0.222584
0.143834 0.388763 0.200465
0.337935 0.340018 0.187109
0.585008 0.376275 0.207748
0.714130 0.423943 0.241567
0.771719 0.452110 0.270965
0.798463 0.456523 0.353721
0.806415 0.383615 0.625105
0.095372 0.601606 0.225137
0.102500 0.591900 0.222949
0.140781 0.565117 0.215286
0.282678 0.533581 0.206032
0.473312 0.509233 0.202713
0.635707 0.518120 0.217233
0.734030 0.536746 0.236914
0.780426 0.545843 0.280877
0.795571 0.560688 0.522453
0.098583 0.676727 0.213749
0.103980 0.672782 0.214427
0.134317 0.661763 0.217146
0.237896 0.645416 0.216548
0.415878 0.621092 0.215533
0.572728 0.606088 0.218319
0.686415 0.605901 0.226200
0.757954 0.615981 0.254544
0.785491 0.623239 0.336258
0.095971 0.722277 0.189707
0.100048 0.719766 0.191860
0.121932 0.712391 0.200109
0.190601 0.700863 0.208147
0.362213 0.687977 0.214074
0.512873 0.677201 0.220161
0.634288 0.670878 0.227756
0.731676 0.669545 0.242958
0.775139 0.673326 0.275518
0.087641 0.760139 0.156124
0.090196 0.758344 0.159071
0.106880 0.752498 0.174608
0.155052 0.743659 0.191110
0.291453 0.733052 0.204504
0.454521 0.722963 0.214766
0.590019 0.715814 0.224918
0.699865 0.712501 0.235231
0.768520 0.711532 0.248478
0.075015 0.765944 0.108584
0.084142 0.779304 0.108491
0.083784 0.777033 0.108181
0.083258 0.773438 0.107693
0.176223 0.767727 0.136240
0.377306 0.757901 0.161057
0.526778 0.750689 0.176626
0.638988 0.747044 0.185989
0.767426 0.746809 0.189848
0.067157 0.156806 0.555693
0.088230 0.354183 0.706306
0.531545 0.404272 0.726963
0.739639 0.424157 0.723089
0.794062 0.413913 0.695591
0.809323 0.406507 0.673999
0.818246 0.404379 0.670699
0.825282 0.367568 0.687890
0.821514 0.435254 0.677094
0.073092 0.222208 0.567683
0.096291 0.327808 0.655619
0.488291 0.408243 0.707487
0.711143 0.405546 0.688499
0.775249 0.397663 0.662387
0.801097 0.402284 0.650629
0.813684 0.406503 0.655418
0.822300 0.372294 0.680923
0.819661 0.430127 0.674199
0.083432 0.314759 0.476303
0.097076 0.307365 0.475374
0.239762 0.307044 0.497581
0.562266 0.329264 0.520266
0.710188 0.374411 0.545310
0.769043 0.409967 0.566345
0.797922 0.432348 0.596609
0.811420 0.434992 0.642713
0.813632 0.413823 0.663531
0.093154 0.454252 0.422996
0.102333 0.438072 0.408549
0.155281 0.385240 0.366847
0.354806 0.345598 0.341061
0.598699 0.397330 0.400905
0.717654 0.449587 0.454721
0.770376 0.478013 0.498559
0.796128 0.494198 0.570458
0.804524 0.390105 0.646713
0.105163 0.585551 0.421285
0.113508 0.577067 0.413208
0.162019 0.552949 0.390780
0.310791 0.522638 0.359229
0.494551 0.497147 0.346175
0.649749 0.518558 0.376389
0.736350 0.541263 0.418982
0.777704 0.554628 0.475736
0.793353 0.575243 0.614127
0.111145 0.668330 0.404374
0.118065 0.664728 0.401025
0.160467 0.654260 0.391958
0.282923 0.634482 0.374906
0.444579 0.611863 0.361213
0.593636 0.599578 0.358513
0.701356 0.604749 0.376955
0.757946 0.616920 0.412954
0.782789 0.634297 0.543730
0.109158 0.716098 0.372725
0.114616 0.713735 0.371910
0.144741 0.706578 0.371359
0.238072 0.695524 0.367993
0.401895 0.683391 0.363265
0.541045 0.673689 0.361529
0.654299 0.668698 0.365243
0.738287 0.669084 0.380711
0.773464 0.675337 0.457961
0.097624 0.755012 0.327532
0.101013 0.753402 0.328657
0.121822 0.748153 0.336231
0.183262 0.739757 0.342421
0.337942 0.729847 0.347164
0.480982 0.720643 0.350778
0.606420 0.714386 0.355232
0.712507 0.711901 0.362698
0.768023 0.712143 0.398864
0.078868 0.773456 0.287069
0.083863 0.779585 0.285579
0.083522 0.777409 0.280630
0.100183 0.775582 0.212251
0.215288 0.765161 0.296243
0.404942 0.756573 0.312195
0.543861 0.750235 0.321826
0.653507 0.747151 0.327401
0.767484 0.747487 0.337439
0.069662 0.287533 0.690226
0.080368 0.402262 0.739860
0.455103 0.490644 0.772242
0.724257 0.509565 0.772560
0.801765 0.522271 0.768050
0.814274 0.495733 0.745681
0.820515 0.477238 0.733216
0.824816 0.440207 0.728718
0.821518 0.459415 0.726896
0.074262 0.343311 0.696625
0.087427 0.422873 0.734276
0.425681 0.502438 0.767015
0.712566 0.523403 0.768741
0.786848 0.510449 0.752576
0.806614 0.492655 0.735814
0.815876 0.479113 0.726823
0.821798 0.445809 0.724666
0.819608 0.454472 0.723495
0.092185 0.463977 0.684729
0.109524 0.471471 0.692875
0.320003 0.490724 0.715467
0.605471 0.486114 0.708589
0.725465 0.485219 0.698574
0.777005 0.493305 0.694930
0.800076 0.496243 0.696772
0.811377 0.486158 0.704344
0.813370 0.437138 0.708818
0.099017 0.486497 0.586563
0.109457 0.479421 0.582474
0.183346 0.463996 0.578598
0.424732 0.456398 0.582477
0.623198 0.473013 0.598485
0.725162 0.502726 0.620232
0.772301 0.525367 0.642096
0.795714 0.532510 0.668082
0.804056 0.498752 0.692392
0.110667 0.578502 0.560115
0.119959 0.572175 0.554746
0.174148 0.553169 0.538879
0.331675 0.526926 0.517833
0.503639 0.503505 0.503196
0.657924 0.533827 0.539735
0.737544 0.558053 0.575763
0.776206 0.574590 0.615788
0.791937 0.589786 0.667886
0.120492 0.662006 0.550640
0.128443 0.658931 0.546789
0.178215 0.649749 0.536196
0.304683 0.629487 0.521463
0.462234 0.608042 0.507739
0.602176 0.597142 0.503316
0.705714 0.608984 0.524692
0.756767 0.625056 0.559515
0.780479 0.646124 0.635676
0.120096 0.710585 0.534733
0.126388 0.708496 0.532564
0.165499 0.701993 0.526703
0.272288 0.691850 0.518301
0.420274 0.680654 0.509460
0.560255 0.671828 0.503710
0.666641 0.668042 0.504919
0.740682 0.670596 0.519964
0.771532 0.680465 0.593779
0.105972 0.750697 0.514117
0.110042 0.749225 0.512551
0.135112 0.744364 0.509292
0.206893 0.736647 0.504207
0.363095 0.727531 0.499265
0.501873 0.719215 0.495855
0.620084 0.713836 0.495259
0.720724 0.712308 0.499087
0.767169 0.714850 0.540176
0.079953 0.774158 0.570304
0.080639 0.774536 0.569020
0.082056 0.774808 0.564716
0.120693 0.771522 0.490258
0.242205 0.763452 0.484623
0.417894 0.755794 0.481709
0.556270 0.750170 0.480310
0.664661 0.747751 0.480522
0.767229 0.749541 0.496714
0.072594 0.429066 0.765099
0.079363 0.484650 0.787030
0.400147 0.550310 0.810742
0.707247 0.563009 0.811751
0.801081 0.577633 0.812432
0.820554 0.560287 0.793111
0.824706 0.536884 0.773386
0.826716 0.498390 0.760544
0.822768 0.474088 0.747951
0.076112 0.460212 0.767803
0.083814 0.503439 0.786256
0.387956 0.559766 0.809035
0.696479 0.572927 0.810580
0.795735 0.584139 0.809233
0.813294 0.558022 0.784718
0.820156 0.537947 0.767871
0.823693 0.503067 0.756891
0.820821 0.469551 0.745618
0.096626 0.551536 0.770672
0.112655 0.564507 0.779901
0.367633 0.598701 0.800238
0.629765 0.583633 0.786912
0.742450 0.567831 0.770919
0.788078 0.556860 0.758318
0.805073 0.547699 0.749814
0.813424 0.532689 0.744542
0.814425 0.454880 0.737967
0.108029 0.555416 0.715193
0.120452 0.554834 0.716694
0.236635 0.557890 0.723782
0.485706 0.555444 0.724172
0.655656 0.554998 0.721951
0.738371 0.558916 0.721435
0.778983 0.564162 0.722914
0.797693 0.562768 0.725832
0.804591 0.535239 0.726282
0.116738 0.594139 0.663172
0.126293 0.590271 0.660964
0.187772 0.580575 0.657527
0.372232 0.567175 0.652876
0.552346 0.561651 0.652471
0.676393 0.571718 0.663141
0.743006 0.587990 0.678974
0.777793 0.599215 0.695250
0.791878 0.606955 0.711642
0.125851 0.660491 0.643981
0.134923 0.658147 0.641628
0.183450 0.650980 0.635338
0.324163 0.635551 0.625937
0.474448 0.616151 0.616019
0.605836 0.603310 0.609206
0.708886 0.623423 0.633403
0.756831 0.641501 0.659162
0.779470 0.654097 0.691096
0.126767 0.707345 0.631726
0.133949 0.705557 0.629751
0.177779 0.699987 0.624358
0.288820 0.691132 0.617005
0.433216 0.681084 0.610054
0.571916 0.672803 0.605408
0.672385 0.669787 0.606658
0.741134 0.675315 0.623867
0.770006 0.686642 0.670767
0.110714 0.747867 0.618638
0.115481 0.746562 0.617047
0.144610 0.742210 0.612655
0.225024 0.735237 0.606686
0.379828 0.727002 0.601193
0.515279 0.719534 0.597397
0.629012 0.714919 0.596293
0.724837 0.714320 0.599622
0.766145 0.719905 0.642132
0.080142 0.772778 0.604041
0.080722 0.773104 0.604840
0.081873 0.773260 0.608259
0.122970 0.770664 0.601696
0.252182 0.762995 0.593658
0.423334 0.756061 0.587939
0.562183 0.751166 0.584362
0.670418 0.749334 0.582932
0.766796 0.753616 0.614362
0.076076 0.542524 0.825830
0.081348 0.563689 0.837617
0.312411 0.596477 0.843020
0.694120 0.608056 0.843473
0.798341 0.621389 0.843861
0.827014 0.615610 0.836924
0.829853 0.582711 0.812701
0.829877 0.546198 0.794059
0.824840 0.496603 0.774956
0.078823 0.556343 0.827248
0.084726 0.574138 0.837314
0.317854 0.605705 0.842761
0.684295 0.617418 0.843327
0.795500 0.630710 0.843753
0.820390 0.612721 0.829654
0.825501 0.583373 0.807574
0.826917 0.549107 0.790610
0.822887 0.491674 0.772314
0.098297 0.614252 0.829844
0.111049 0.622994 0.835549
0.343012 0.645098 0.841161
0.650751 0.652333 0.842257
0.759416 0.631219 0.824611
0.797875 0.609977 0.805960
0.811151 0.590760 0.791011
0.816920 0.568486 0.779206
0.816436 0.475371 0.763329
0.119679 0.633150 0.793907
0.133766 0.633585 0.795198
0.282271 0.635573 0.796511
0.533115 0.627616 0.790220
0.686887 0.618111 0.781286
0.754551 0.610889 0.773223
0.788160 0.604044 0.766843
0.801647 0.594059 0.761984
0.806181 0.574350 0.756023
0.125054 0.634717 0.743827
0.136518 0.633344 0.744128
0.217868 0.631255 0.745766
0.416521 0.625269 0.744542
0.595148 0.620303 0.741685
0.702444 0.620695 0.740293
0.753258 0.623922 0.740878
0.782724 0.626095 0.742612
0.793285 0.626675 0.743584
0.131145 0.668091 0.719662
0.141449 0.666583 0.718828
0.194785 0.662394 0.717559
0.350324 0.655536 0.714998
0.505405 0.648267 0.710599
0.632732 0.645241 0.709130
0.718358 0.650341 0.715759
0.760339 0.656870 0.724118
0.780395 0.663161 0.731380
0.129401 0.708112 0.700596
0.137584 0.706727 0.699537
0.183183 0.702400 0.696957
0.297608 0.695365 0.693757
0.444265 0.687125 0.690520
0.582385 0.679560 0.687017
0.674495 0.674512 0.684051
0.742377 0.683961 0.700906
0.769678 0.693431 0.721256
0.110553 0.747570 0.686338
0.115442 0.746430 0.685278
0.145696 0.742585 0.682401
0.229237 0.736490 0.678693
0.386158 0.729270 0.675604
0.521091 0.722654 0.673731
0.633838 0.718610 0.673781
0.726214 0.718721 0.678067
0.765324 0.725950 0.708598
0.079760 0.770760 0.652293
0.080942 0.772123 0.651392
0.082258 0.772571 0.648565
0.113599 0.771741 0.667148
0.242839 0.764164 0.661017
0.420361 0.757810 0.657328
0.560393 0.753510 0.655102
0.669480 0.752237 0.654161
0.766431 0.759575 0.697092
0.081456 0.623401 0.864025
0.086487 0.626033 0.865004
0.355175 0.638455 0.865530
0.708757 0.647847 0.865659
0.803140 0.655047 0.865898
0.834748 0.657596 0.863523
0.835639 0.625126 0.846312
0.834081 0.581190 0.831047
0.827196 0.529806 0.806122
0.083960 0.631946 0.863925
0.090312 0.634517 0.864849
0.361441 0.646836 0.865507
0.703431 0.653123 0.865654
0.801078 0.660210 0.865895
0.828875 0.655592 0.859078
0.831622 0.625079 0.843171
0.831232 0.583743 0.827549
0.825276 0.528262 0.803648
0.107212 0.664705 0.863517
0.120272 0.665795 0.864167
0.395885 0.671570 0.865097
0.675981 0.676631 0.865413
0.782477 0.671292 0.858711
0.809281 0.654251 0.844919
0.818218 0.632122 0.830943
0.821611 0.600814 0.815892
0.818961 0.537146 0.795447
0.138407 0.685708 0.852163
0.159437 0.684193 0.851346
0.362259 0.680559 0.847821
0.592352 0.672055 0.841031
0.720867 0.662518 0.830950
0.774935 0.653403 0.818504
0.797391 0.642569 0.807473
0.807176 0.623706 0.798399
0.808639 0.599568 0.788961
0.140285 0.674801 0.807364
0.156441 0.673996 0.807063
0.281145 0.672174 0.805110
0.475817 0.667269 0.799754
0.637930 0.662123 0.793234
0.726327 0.658254 0.787287
0.767572 0.654949 0.782545
0.789436 0.650377 0.779042
0.795891 0.646161 0.775213
0.138744 0.687029 0.773480
0.150718 0.686245 0.773579
0.224373 0.684240 0.773442
0.391018 0.679315 0.770312
0.551486 0.674000 0.765757
0.667569 0.671189 0.762313
0.733994 0.671017 0.761052
0.768002 0.671420 0.761538
0.783327 0.672948 0.762055
0.130277 0.715383 0.751638
0.138516 0.714509 0.751745
0.183481 0.712071 0.752699
0.314221 0.707268 0.752575
0.465618 0.700888 0.750183
0.601986 0.695305 0.746779
0.698010 0.693628 0.745366
0.748900 0.696432 0.748014
0.771378 0.701137 0.751790
0.104632 0.751562 0.735287
0.108975 0.750560 0.734994
0.138107 0.747125 0.734743
0.221584 0.742062 0.734953
0.385529 0.736246 0.735890
0.525345 0.730835 0.736388
0.639627 0.727091 0.736204
0.726186 0.724743 0.735361
0.765368 0.732149 0.745265
0.078755 0.767635 0.703949
0.082070 0.773128 0.704176
0.082331 0.772496 0.708281
0.102483 0.772817 0.715862
0.207020 0.767701 0.714159
0.406557 0.761783 0.713386
0.548855 0.758007 0.713444
0.659955 0.757067 0.713338
0.766212 0.765460 0.741478
0.294389 0.659521 0.885853
0.397933 0.660334 0.885854
0.661710 0.663540 0.885854
0.791661 0.669098 0.885876
0.827863 0.675568 0.885932
0.849197 0.680862 0.886058
0.845228 0.653574 0.868609
0.840325 0.597788 0.853865
0.829268 0.554280 0.838846
0.302155 0.663600 0.885765
0.399801 0.664421 0.885767
0.658414 0.667654 0.885773
0.790354 0.673242 0.885803
0.827342 0.679713 0.885867
0.844686 0.678948 0.882226
0.841653 0.652777 0.865552
0.837670 0.597840 0.851630
0.827391 0.557589 0.839171
0.347887 0.683859 0.885328
0.414500 0.684616 0.885339
0.646247 0.687563 0.885379
0.783521 0.692682 0.885461
0.822453 0.695059 0.883419
0.828761 0.675843 0.868841
0.829852 0.654708 0.855540
0.828753 0.609283 0.844159
0.821131 0.545678 0.832356
0.388895 0.717246 0.881686
0.424247 0.715330 0.880283
0.606184 0.709211 0.875587
0.740399 0.699943 0.868107
0.789084 0.688688 0.859020
0.805002 0.676233 0.849556
0.812001 0.661945 0.840609
0.815020 0.639089 0.830524
0.811661 0.619480 0.819978
0.299095 0.703941 0.848596
0.342126 0.702731 0.847756
0.490159 0.698949 0.844955
0.663602 0.693414 0.840493
0.738924 0.687031 0.834439
0.773231 0.680094 0.825854
0.790777 0.671938 0.817793
0.799070 0.660264 0.810622
0.799768 0.652070 0.804832
0.215978 0.708620 0.820790
0.243900 0.707567 0.819797
0.380353 0.704318 0.816516
0.569619 0.699736 0.811405
0.682736 0.694979 0.805643
0.736500 0.690796 0.800363
0.764752 0.686639 0.796051
0.782426 0.680687 0.792671
0.787908 0.679449 0.790259
0.156649 0.730118 0.801809
0.170327 0.729091 0.800985
0.254189 0.725796 0.798192
0.433467 0.720738 0.793701
0.601937 0.715321 0.788499
0.697323 0.711039 0.783863
0.740439 0.708252 0.780836
0.765283 0.705410 0.779392
0.775960 0.707010 0.779106
0.100910 0.761435 0.789527
0.105072 0.760716 0.789520
0.131664 0.757895 0.788404
0.249244 0.752713 0.785276
0.444435 0.746604 0.781136
0.609190 0.741306 0.776885
0.709404 0.737975 0.773507
0.751413 0.736104 0.772017
0.768394 0.737117 0.772498
0.077366 0.764322 0.736980
0.082286 0.773974 0.747164
0.082119 0.772699 0.745665
0.086040 0.771223 0.743243
0.142891 0.775225 0.762689
0.368928 0.772971 0.773625
0.536741 0.770085 0.772118
0.661644 0.769155 0.770900
0.766213 0.771270 0.770652
