negative-ektar-100/Ektar100_Modern_Punchy.cube
TITLE "Kodak Ektar 100 Modern Punchy"
# Adobe RGB in/out. REPLACES AgX. Kodak Ektar 100 Modern Punchy.
LUT_3D_SIZE 9
DOMAIN_MIN 0.0 0.0 0.0
DOMAIN_MAX 1.0 1.0 1.0
0.071174 0.083756 0.079619
0.162226 0.099780 0.082898
0.379962 0.151760 0.090385
0.566645 0.238616 0.101568
0.684597 0.337780 0.115610
0.756765 0.428222 0.132516
0.796797 0.498423 0.154739
0.830491 0.552569 0.179556
0.856515 0.601335 0.203455
0.084675 0.125901 0.081247
0.129762 0.119386 0.082523
0.309311 0.167684 0.088640
0.533020 0.255399 0.099454
0.668121 0.352242 0.113373
0.748986 0.438127 0.130676
0.792111 0.504792 0.152548
0.827126 0.557894 0.177712
0.854845 0.605275 0.201986
0.109922 0.326217 0.087358
0.169527 0.290634 0.087746
0.279559 0.255080 0.089552
0.461874 0.308538 0.096898
0.620191 0.395254 0.109518
0.721111 0.469741 0.125994
0.777984 0.525653 0.146439
0.816518 0.575788 0.172242
0.848601 0.616141 0.197447
0.138428 0.503982 0.093881
0.194473 0.485331 0.094181
0.319008 0.442470 0.095715
0.448027 0.424307 0.099468
0.576110 0.458117 0.107914
0.688013 0.511013 0.122321
0.760041 0.559682 0.140154
0.801757 0.605036 0.165723
0.836650 0.634382 0.191511
0.169254 0.613148 0.101531
0.218565 0.605179 0.101855
0.343309 0.577418 0.103185
0.472074 0.553736 0.106226
0.572067 0.547807 0.112035
0.665132 0.566649 0.122171
0.741300 0.605652 0.137472
0.787351 0.633300 0.161446
0.823910 0.659138 0.186645
0.199101 0.678566 0.109422
0.243595 0.673800 0.109824
0.358840 0.660318 0.111336
0.486763 0.645444 0.114428
0.582668 0.636467 0.119981
0.664156 0.636389 0.128004
0.726608 0.646262 0.139059
0.776231 0.668177 0.160957
0.812926 0.687876 0.184656
0.230305 0.721597 0.117659
0.267104 0.719290 0.118130
0.370001 0.712314 0.119840
0.492928 0.703489 0.123043
0.587337 0.696502 0.128439
0.666882 0.693815 0.135546
0.725648 0.696102 0.148012
0.768898 0.702778 0.164218
0.804781 0.716547 0.186146
0.257944 0.755872 0.125580
0.288262 0.754521 0.126091
0.378666 0.750287 0.127922
0.493551 0.744531 0.131254
0.586249 0.739390 0.136118
0.665846 0.736659 0.145254
0.724262 0.737267 0.157763
0.767372 0.741269 0.173150
0.799542 0.748143 0.191009
0.281218 0.783087 0.132609
0.306482 0.782356 0.133095
0.385346 0.780027 0.134827
0.490729 0.776768 0.138073
0.580859 0.773768 0.145296
0.661122 0.772181 0.154822
0.719886 0.772772 0.166801
0.764296 0.775810 0.181604
0.796333 0.781144 0.198433
0.071174 0.094191 0.150789
0.168752 0.108394 0.153358
0.379938 0.159102 0.158125
0.558020 0.238736 0.162702
0.677362 0.334241 0.174910
0.753158 0.424795 0.190333
0.794199 0.496270 0.207402
0.828623 0.550974 0.225333
0.855618 0.600218 0.243340
0.083420 0.124155 0.125599
0.115772 0.111420 0.104610
0.296939 0.166519 0.128872
0.521698 0.251418 0.147561
0.660269 0.346948 0.166073
0.743586 0.434136 0.184822
0.789506 0.502452 0.203666
0.825267 0.556214 0.222618
0.853955 0.604465 0.241324
0.107254 0.309626 0.148251
0.158748 0.270727 0.132132
0.256020 0.235264 0.118371
0.442098 0.294856 0.128605
0.608289 0.385891 0.147649
0.715615 0.464284 0.170533
0.775391 0.522809 0.193044
0.814701 0.573871 0.214452
0.847317 0.615262 0.235032
0.134812 0.492194 0.151884
0.188386 0.473659 0.144196
0.305993 0.428080 0.132394
0.432574 0.410721 0.128741
0.566207 0.448852 0.136742
0.682378 0.506058 0.157922
0.757604 0.556416 0.181301
0.800058 0.603412 0.204398
0.835461 0.633446 0.226556
0.166500 0.608010 0.154206
0.214221 0.598586 0.151012
0.336387 0.570460 0.143531
0.463654 0.546786 0.138743
0.565012 0.541491 0.140950
0.660921 0.562264 0.152946
0.738338 0.603269 0.173959
0.785895 0.631845 0.196592
0.822883 0.658231 0.219017
0.197301 0.675487 0.157215
0.240904 0.670772 0.155964
0.354903 0.657381 0.152871
0.482148 0.642544 0.150905
0.578625 0.633667 0.152803
0.661186 0.633941 0.159625
0.724543 0.644596 0.172624
0.775133 0.666999 0.193289
0.812130 0.687272 0.214680
0.228823 0.720129 0.160807
0.265401 0.717843 0.160479
0.367684 0.710919 0.159830
0.490326 0.702142 0.160204
0.585082 0.695211 0.163088
0.665161 0.692639 0.169822
0.724240 0.695135 0.180416
0.768192 0.702173 0.194528
0.804252 0.716166 0.214280
0.256985 0.755047 0.164615
0.287202 0.753708 0.164765
0.377308 0.749511 0.165521
0.492089 0.743802 0.167610
0.585017 0.738716 0.171866
0.664915 0.736060 0.178908
0.723492 0.736780 0.188992
0.766942 0.740931 0.202006
0.799234 0.747971 0.217626
0.280643 0.782683 0.168252
0.305862 0.781960 0.168664
0.384594 0.779657 0.170229
0.489956 0.776435 0.173380
0.580235 0.773484 0.178557
0.660672 0.771958 0.186102
0.719535 0.772627 0.196184
0.764118 0.775761 0.208770
0.796235 0.781204 0.223812
0.071174 0.118356 0.390928
0.168752 0.132788 0.392389
0.390159 0.187459 0.397607
0.571526 0.270203 0.385884
0.676154 0.349576 0.365711
0.749059 0.429925 0.360204
0.790621 0.497334 0.360424
0.825333 0.550808 0.363435
0.853760 0.599698 0.368000
0.086759 0.172736 0.391814
0.170531 0.183369 0.384981
0.344691 0.211813 0.349737
0.529469 0.275134 0.342102
0.657160 0.357639 0.344011
0.738246 0.437378 0.348426
0.785734 0.502760 0.353178
0.821908 0.555661 0.358649
0.852085 0.603962 0.364675
0.102019 0.277822 0.312564
0.145802 0.250536 0.270636
0.213954 0.203384 0.200506
0.423362 0.290547 0.251192
0.595732 0.383190 0.286267
0.707173 0.461706 0.311138
0.771032 0.520815 0.328964
0.811145 0.572131 0.343123
0.844493 0.614335 0.354210
0.126869 0.467092 0.328305
0.175783 0.446988 0.306607
0.281035 0.403459 0.259898
0.396022 0.383236 0.232217
0.547394 0.434161 0.248697
0.671566 0.498667 0.275340
0.752631 0.551552 0.300096
0.796326 0.600151 0.320593
0.832649 0.631990 0.337886
0.159597 0.592681 0.326370
0.203625 0.582371 0.315528
0.320292 0.555533 0.287107
0.443897 0.531688 0.261273
0.547744 0.527134 0.249732
0.650909 0.553001 0.258707
0.731201 0.596727 0.279602
0.782288 0.628882 0.301455
0.820248 0.656428 0.321309
0.192355 0.667521 0.316683
0.233605 0.663040 0.311199
0.344490 0.650124 0.295461
0.470091 0.635488 0.277386
0.567882 0.626717 0.266075
0.653103 0.627722 0.263423
0.719019 0.640577 0.271139
0.772149 0.664195 0.290074
0.809928 0.685882 0.309606
0.224487 0.716062 0.304789
0.260444 0.713861 0.302069
0.361030 0.707156 0.293880
0.482943 0.698579 0.283623
0.578677 0.691798 0.275714
0.660211 0.689491 0.273313
0.720133 0.692524 0.276581
0.766155 0.700633 0.286155
0.802704 0.715235 0.303917
0.254039 0.752657 0.292656
0.283953 0.751364 0.291434
0.373180 0.747303 0.287701
0.487686 0.741765 0.282975
0.581321 0.736854 0.279536
0.662112 0.734410 0.279284
0.721153 0.735442 0.283234
0.765623 0.740026 0.291486
0.798287 0.747560 0.303488
0.278807 0.781487 0.280873
0.303889 0.780791 0.280496
0.382209 0.778575 0.279413
0.487520 0.775486 0.278364
0.578275 0.772694 0.278508
0.659259 0.771358 0.280943
0.718430 0.772265 0.286400
0.763555 0.775695 0.295148
0.795921 0.781475 0.307033
0.071174 0.166175 0.601223
0.168752 0.180650 0.601866
0.390159 0.237218 0.604168
0.591935 0.327745 0.608369
0.691859 0.397778 0.576077
0.753488 0.455954 0.548039
0.790829 0.509523 0.530191
0.824043 0.558137 0.519087
0.852523 0.604119 0.511434
0.086759 0.221645 0.601613
0.173499 0.236833 0.602255
0.393170 0.287345 0.604555
0.570034 0.347545 0.583560
0.671866 0.401589 0.551696
0.742639 0.461229 0.532125
0.785656 0.513882 0.520593
0.820471 0.562363 0.512932
0.850662 0.606886 0.507296
0.102692 0.314270 0.522482
0.155534 0.305615 0.501970
0.288751 0.304465 0.469391
0.463009 0.346754 0.468007
0.607579 0.412264 0.479179
0.708702 0.477491 0.487603
0.769895 0.528415 0.492061
0.809197 0.576779 0.493856
0.842360 0.616413 0.494091
0.121008 0.446981 0.490654
0.165206 0.432162 0.472170
0.264742 0.394979 0.417107
0.358110 0.356577 0.356458
0.539222 0.436147 0.402874
0.666551 0.501344 0.436138
0.748563 0.553678 0.457034
0.793572 0.601706 0.468334
0.830196 0.632832 0.475311
0.152374 0.575018 0.493341
0.193509 0.566302 0.482728
0.303143 0.542298 0.452538
0.421555 0.518086 0.410815
0.527632 0.512521 0.386912
0.637278 0.546473 0.401177
0.724458 0.593336 0.424837
0.778808 0.627778 0.443748
0.817553 0.656057 0.456647
0.185878 0.658122 0.486128
0.224224 0.654101 0.480192
0.331594 0.642239 0.462297
0.455598 0.628181 0.436570
0.554712 0.619299 0.413665
0.639976 0.620856 0.402915
0.712085 0.636930 0.409220
0.768652 0.661979 0.425635
0.807331 0.685032 0.440305
0.218460 0.710925 0.472457
0.253600 0.708895 0.469169
0.352046 0.702646 0.458868
0.473215 0.694505 0.442968
0.570297 0.687962 0.426677
0.653633 0.685894 0.416047
0.714456 0.689537 0.412897
0.763510 0.699200 0.417761
0.800681 0.714541 0.430427
0.249730 0.749518 0.455807
0.279219 0.748313 0.454056
0.367245 0.744512 0.447565
0.481462 0.739299 0.437686
0.576161 0.734683 0.427883
0.658200 0.732525 0.420887
0.717860 0.733947 0.418312
0.763749 0.739100 0.420435
0.796967 0.747352 0.426520
0.276000 0.779903 0.434705
0.300879 0.779256 0.433688
0.378599 0.777198 0.430412
0.483876 0.774339 0.425698
0.575374 0.771810 0.421092
0.657182 0.770762 0.418150
0.716806 0.772009 0.417972
0.762724 0.775859 0.421010
0.795458 0.782126 0.427101
0.071174 0.238425 0.744947
0.168752 0.253018 0.745248
0.390159 0.302318 0.746330
0.591935 0.383626 0.748310
0.715628 0.463557 0.742988
0.762377 0.496305 0.703773
0.795280 0.533986 0.678924
0.825668 0.574709 0.657273
0.852526 0.612058 0.640063
0.086759 0.288425 0.745129
0.173499 0.301971 0.745431
0.393170 0.348349 0.746512
0.593157 0.418869 0.748490
0.696311 0.465246 0.721757
0.754479 0.499018 0.691112
0.789944 0.537319 0.669773
0.821964 0.578239 0.650175
0.850586 0.614494 0.635325
0.108448 0.419566 0.733074
0.180292 0.417587 0.723745
0.354266 0.418474 0.700381
0.524029 0.435047 0.678243
0.640529 0.469717 0.659084
0.721179 0.507499 0.645833
0.773413 0.548399 0.636148
0.810168 0.590313 0.627863
0.841987 0.622921 0.620073
0.120126 0.464568 0.634312
0.165822 0.457013 0.621929
0.282771 0.440802 0.590119
0.425436 0.442532 0.567306
0.562628 0.479295 0.571161
0.674399 0.522493 0.583492
0.750915 0.567658 0.592550
0.793481 0.609114 0.597052
0.829283 0.637605 0.597966
0.146740 0.565221 0.617466
0.185631 0.558535 0.607878
0.291593 0.539179 0.579072
0.407843 0.516535 0.540374
0.504559 0.500353 0.501236
0.632261 0.550801 0.532756
0.722072 0.598639 0.554943
0.777200 0.631040 0.567812
0.815954 0.658796 0.575347
0.179215 0.650049 0.612190
0.214748 0.646648 0.606279
0.319134 0.636337 0.587856
0.442159 0.623325 0.562667
0.542008 0.613839 0.537346
0.625363 0.614967 0.522655
0.705594 0.635548 0.532071
0.765817 0.662160 0.547262
0.805225 0.685828 0.557642
0.211742 0.705958 0.600346
0.246015 0.704171 0.596846
0.342295 0.698598 0.585642
0.462959 0.691148 0.569524
0.561577 0.684933 0.553191
0.645083 0.682929 0.539387
0.707682 0.687064 0.533211
0.760839 0.698668 0.537078
0.798690 0.714764 0.546615
0.244669 0.746362 0.583295
0.273679 0.745283 0.581298
0.360392 0.741862 0.574785
0.474417 0.737132 0.565069
0.570424 0.732932 0.554669
0.653870 0.731093 0.545291
0.713991 0.732885 0.539457
0.761643 0.738632 0.538332
0.795709 0.747962 0.541508
0.272568 0.778347 0.563269
0.297207 0.777770 0.562216
0.374233 0.775933 0.558751
0.479524 0.773398 0.553491
0.571963 0.771224 0.547224
0.654770 0.770535 0.541664
0.714832 0.772172 0.538461
0.761766 0.776495 0.538192
0.794934 0.783317 0.540705
0.071174 0.325002 0.830594
0.168752 0.337777 0.830713
0.390159 0.380311 0.831137
0.591935 0.443224 0.831914
0.722456 0.511626 0.833071
0.773093 0.543070 0.812621
0.802340 0.568549 0.787432
0.829655 0.599836 0.760462
0.853728 0.624680 0.740348
0.086759 0.368610 0.830666
0.173499 0.380019 0.830784
0.393170 0.416189 0.831208
0.593157 0.473197 0.831986
0.719859 0.527530 0.830739
0.765531 0.544723 0.804616
0.797044 0.571033 0.778376
0.825903 0.602719 0.754491
0.851917 0.626772 0.736307
0.109922 0.483744 0.830923
0.189446 0.489850 0.831041
0.403855 0.510949 0.831465
0.565881 0.515138 0.812780
0.670246 0.527737 0.793791
0.738177 0.550038 0.769062
0.780413 0.579348 0.750170
0.813841 0.609984 0.735403
0.843493 0.634043 0.723149
0.124289 0.516378 0.768873
0.177555 0.514421 0.763183
0.318482 0.511255 0.747451
0.478282 0.515436 0.730934
0.599417 0.532375 0.720387
0.692380 0.560167 0.715075
0.757387 0.593984 0.711656
0.796387 0.622092 0.708062
0.830275 0.646835 0.703606
0.144753 0.573786 0.720174
0.183615 0.569640 0.714527
0.294069 0.558033 0.697413
0.426258 0.547384 0.676294
0.542858 0.551871 0.659932
0.649498 0.579592 0.664426
0.727341 0.613413 0.674913
0.778569 0.640285 0.680413
0.816095 0.665582 0.682819
0.173800 0.646415 0.708718
0.207257 0.643745 0.704563
0.310143 0.635484 0.691243
0.434179 0.624537 0.670966
0.535312 0.615158 0.642619
0.611101 0.610697 0.618782
0.703391 0.639710 0.638949
0.764942 0.666710 0.653284
0.804332 0.689156 0.662216
0.205249 0.702323 0.700196
0.238724 0.700823 0.697549
0.333139 0.696082 0.688912
0.453720 0.689561 0.675967
0.553960 0.683790 0.657045
0.636232 0.681452 0.640796
0.700890 0.685535 0.632868
0.758574 0.699600 0.638799
0.797154 0.716455 0.647444
0.239377 0.743799 0.687881
0.267904 0.742872 0.686287
0.353332 0.739918 0.681020
0.467303 0.735798 0.672421
0.564764 0.732118 0.659774
0.649197 0.730596 0.648658
0.709846 0.732632 0.641338
0.759502 0.738906 0.638937
0.794526 0.749425 0.641570
0.268803 0.777155 0.671405
0.293188 0.776662 0.670156
0.369490 0.775097 0.666005
0.474855 0.772960 0.659563
0.568365 0.771218 0.652256
0.652266 0.770936 0.645703
0.712665 0.772978 0.641226
0.760789 0.777776 0.639533
0.794424 0.785175 0.640513
0.071174 0.415033 0.882163
0.168752 0.424102 0.882213
0.390159 0.455385 0.882395
0.591935 0.500907 0.882728
0.722456 0.554774 0.883225
0.782825 0.595568 0.876278
0.809953 0.608050 0.850805
0.834800 0.623142 0.830528
0.855719 0.641171 0.814817
0.086759 0.446645 0.882193
0.173499 0.455166 0.882244
0.393170 0.482590 0.882425
0.593157 0.521243 0.882759
0.722971 0.572498 0.883255
0.775792 0.596340 0.869491
0.804851 0.609288 0.845402
0.831093 0.624740 0.826821
0.853903 0.642938 0.812240
0.109922 0.530067 0.882303
0.189446 0.535446 0.882354
0.403855 0.554171 0.882535
0.597018 0.585944 0.882677
0.693148 0.588213 0.865132
0.754148 0.599115 0.844859
0.788660 0.613530 0.828220
0.819079 0.630274 0.814792
0.846371 0.649115 0.803752
0.131560 0.581353 0.854171
0.191229 0.580396 0.851528
0.352265 0.578695 0.843355
0.520431 0.580406 0.832215
0.633230 0.589189 0.821142
0.712501 0.605254 0.811631
0.765738 0.621350 0.803750
0.801380 0.640141 0.796993
0.832852 0.660115 0.787310
0.147349 0.605163 0.808302
0.188559 0.603830 0.806047
0.309803 0.599072 0.799166
0.456282 0.596835 0.786602
0.573764 0.603541 0.774731
0.669223 0.616223 0.768826
0.738380 0.634499 0.766704
0.782684 0.655294 0.765228
0.818002 0.676487 0.762724
0.171184 0.650888 0.786386
0.204000 0.649074 0.782838
0.308145 0.643535 0.771406
0.437240 0.636677 0.754862
0.545179 0.632836 0.738652
0.635999 0.638138 0.730171
0.711690 0.655520 0.732735
0.767222 0.677512 0.738057
0.805144 0.695617 0.741427
0.200402 0.701366 0.773469
0.232861 0.700182 0.770949
0.326158 0.696416 0.762626
0.447469 0.691152 0.749827
0.549783 0.686336 0.735308
0.631763 0.683887 0.721857
0.694399 0.685180 0.711505
0.757822 0.703440 0.720893
0.796661 0.720361 0.727047
0.234378 0.742453 0.761003
0.262467 0.741693 0.759408
0.346781 0.739260 0.754091
0.460889 0.735847 0.745771
0.559874 0.732793 0.736156
0.644305 0.731588 0.727196
0.706153 0.733589 0.720678
0.757455 0.740093 0.718258
0.793559 0.751935 0.720980
0.264987 0.776638 0.745340
0.289120 0.776237 0.744417
0.364720 0.774974 0.741322
0.470219 0.773286 0.736438
0.564864 0.772027 0.730752
0.649555 0.772183 0.725450
0.710633 0.774610 0.721591
0.759881 0.779835 0.719852
0.793993 0.787797 0.720247
0.071174 0.492666 0.912291
0.168752 0.498619 0.912328
0.390159 0.519224 0.912462
0.591935 0.554397 0.912708
0.722456 0.601809 0.913075
0.790203 0.635901 0.910752
0.816620 0.639115 0.893134
0.839905 0.647845 0.878887
0.857961 0.660374 0.862722
0.086759 0.513458 0.912314
0.173499 0.519080 0.912351
0.393170 0.538603 0.912485
0.593157 0.572137 0.912731
0.722971 0.613510 0.913097
0.783776 0.635906 0.906214
0.811799 0.639897 0.889920
0.836312 0.649069 0.876603
0.856171 0.661841 0.860025
0.109922 0.579897 0.912395
0.189446 0.584645 0.912432
0.403855 0.601270 0.912566
0.597511 0.622257 0.912811
0.710126 0.634884 0.905995
0.763717 0.636258 0.891903
0.796359 0.642714 0.879548
0.824590 0.653383 0.865566
0.849823 0.667014 0.851094
0.137818 0.634784 0.902264
0.202654 0.634091 0.900769
0.379255 0.632313 0.895884
0.545674 0.631243 0.888481
0.657955 0.632988 0.880056
0.728772 0.638718 0.870044
0.774083 0.648429 0.857692
0.807063 0.661343 0.846873
0.836250 0.676385 0.837337
0.152303 0.637739 0.866564
0.196757 0.637159 0.864880
0.329335 0.635810 0.859509
0.484435 0.635644 0.851819
0.599710 0.638959 0.843867
0.687186 0.646885 0.836973
0.750656 0.659015 0.831323
0.788097 0.674059 0.826449
0.821041 0.688567 0.821805
0.172100 0.665469 0.836777
0.205929 0.664479 0.835256
0.313960 0.661621 0.830347
0.449931 0.658787 0.823252
0.562459 0.659035 0.816259
0.655876 0.665026 0.811448
0.723281 0.677159 0.809285
0.771749 0.690720 0.808502
0.807410 0.704923 0.807674
0.197884 0.704533 0.823392
0.229562 0.703697 0.822145
0.322969 0.701060 0.817996
0.446336 0.697514 0.811543
0.551788 0.694754 0.804215
0.638445 0.694881 0.797843
0.705486 0.700644 0.793918
0.760585 0.712846 0.795328
0.797711 0.727130 0.797266
0.230214 0.743007 0.814937
0.257969 0.742420 0.814084
0.341515 0.740546 0.811214
0.456068 0.737938 0.806641
0.556662 0.735687 0.801204
0.641694 0.735022 0.795668
0.704315 0.736991 0.788684
0.755600 0.742310 0.784151
0.793203 0.756013 0.789012
0.261396 0.777105 0.805935
0.285299 0.776801 0.805420
0.360279 0.775852 0.803681
0.465974 0.774636 0.800901
0.561754 0.773893 0.797598
0.646783 0.774502 0.793409
0.708964 0.777272 0.789381
0.759137 0.782806 0.787380
0.793696 0.791262 0.787824
0.071174 0.556667 0.934029
0.168752 0.561692 0.934042
0.390159 0.579245 0.934088
0.591935 0.607959 0.934172
0.722456 0.636996 0.934298
0.794327 0.671745 0.934468
0.821539 0.670340 0.922293
0.844112 0.673634 0.906851
0.859973 0.680876 0.893971
0.086759 0.574309 0.934037
0.173499 0.579122 0.934050
0.393170 0.595962 0.934096
0.593157 0.618817 0.934180
0.722971 0.646721 0.934306
0.789016 0.672049 0.932733
0.817044 0.670729 0.919206
0.840678 0.674524 0.904601
0.858231 0.681839 0.892332
0.109922 0.623570 0.934065
0.189446 0.626479 0.934078
0.403855 0.636666 0.934124
0.597511 0.654439 0.934208
0.720563 0.674301 0.933340
0.770650 0.671054 0.922812
0.802519 0.672298 0.909154
0.829404 0.677745 0.897175
0.852431 0.685276 0.886861
0.142186 0.678224 0.932729
0.212410 0.677362 0.932079
0.398429 0.674790 0.929903
0.563604 0.671780 0.922308
0.672735 0.670191 0.913015
0.741324 0.671447 0.903356
0.781178 0.676112 0.894154
0.812317 0.683198 0.885784
0.839661 0.691635 0.878298
0.157387 0.673072 0.902717
0.205388 0.672677 0.901829
0.347169 0.671661 0.898876
0.507851 0.671113 0.894252
0.620461 0.672492 0.888770
0.702003 0.676812 0.883166
0.758555 0.683450 0.877858
0.793435 0.691717 0.871943
0.824353 0.701548 0.864372
0.175466 0.686253 0.880156
0.211299 0.685868 0.879460
0.323988 0.684826 0.877173
0.465401 0.684087 0.873187
0.578809 0.685074 0.866826
0.669149 0.688894 0.861070
0.733555 0.695789 0.856394
0.776656 0.705150 0.852547
0.810257 0.715990 0.848976
0.197537 0.712634 0.863192
0.229367 0.712134 0.862195
0.324125 0.710614 0.858874
0.450481 0.708820 0.853719
0.558738 0.708129 0.847915
0.649762 0.710082 0.842862
0.714889 0.715751 0.839582
0.764604 0.724898 0.838010
0.799724 0.736024 0.837074
0.227373 0.746111 0.851653
0.254955 0.745701 0.850908
0.338249 0.744411 0.848393
0.453670 0.742704 0.844357
0.555973 0.741498 0.839526
0.642733 0.741891 0.834826
0.706727 0.745002 0.831221
0.758547 0.751985 0.829690
0.794045 0.762452 0.829996
0.258288 0.778851 0.842145
0.282004 0.778641 0.841674
0.356499 0.778003 0.840082
0.462468 0.777265 0.837514
0.559336 0.777056 0.834425
0.644849 0.778140 0.831410
0.707968 0.781245 0.829056
0.758742 0.786950 0.827845
0.793586 0.795536 0.828105
