negative-ektar-100/Ektar100_Classic_ExtraSoft.cube
TITLE "Kodak Ektar 100 Classic ExtraSoft"
# Adobe RGB in/out. REPLACES AgX. Kodak Ektar 100 Classic ExtraSoft.
LUT_3D_SIZE 33
DOMAIN_MIN 0.0 0.0 0.0
DOMAIN_MAX 1.0 1.0 1.0
0.057526 0.063911 0.078815
0.060224 0.064722 0.079298
0.061215 0.064973 0.079360
0.067705 0.065909 0.079773
0.089902 0.067455 0.080277
0.107478 0.068330 0.080554
0.154996 0.069987 0.081179
0.265539 0.072236 0.082266
0.326625 0.073481 0.082750
0.401810 0.075323 0.083389
0.471434 0.078736 0.084760
0.510929 0.080727 0.085768
0.535474 0.082279 0.086557
0.561630 0.085338 0.087519
0.588701 0.089705 0.089088
0.608875 0.092246 0.090097
0.626890 0.094564 0.091044
0.643977 0.097269 0.092154
0.658771 0.102058 0.093618
0.666964 0.104633 0.095136
0.673765 0.107286 0.096869
0.679723 0.110301 0.098900
0.685583 0.112729 0.101167
0.691478 0.113126 0.103757
0.696086 0.113763 0.107078
0.700342 0.113786 0.111350
0.705917 0.109061 0.119476
0.709000 0.111485 0.157557
0.715726 0.130966 0.453392
0.715726 0.130939 0.453361
0.715726 0.130937 0.453359
0.715726 0.130938 0.453358
0.718020 0.306159 0.559442
0.057771 0.066442 0.079173
0.059387 0.066482 0.079328
0.061944 0.065372 0.079328
0.069108 0.066499 0.079874
0.088839 0.068044 0.080375
0.104576 0.068692 0.080620
0.149295 0.070388 0.081289
0.253695 0.072663 0.082345
0.317423 0.073805 0.082807
0.396082 0.075713 0.083429
0.467062 0.079063 0.084818
0.508592 0.081003 0.085813
0.533581 0.082515 0.086593
0.560132 0.085721 0.087549
0.587557 0.090056 0.089123
0.607982 0.092564 0.090126
0.626202 0.094855 0.091068
0.643457 0.097539 0.092175
0.658429 0.102470 0.093638
0.666809 0.105023 0.095161
0.673649 0.107659 0.096888
0.679637 0.110660 0.098913
0.685519 0.113078 0.101174
0.691430 0.113465 0.103752
0.696050 0.114090 0.107051
0.700316 0.114097 0.111286
0.705895 0.109321 0.119217
0.708987 0.111488 0.155874
0.715726 0.130967 0.453392
0.715726 0.130939 0.453361
0.715726 0.130937 0.453359
0.715726 0.130938 0.453358
0.718020 0.306161 0.559442
0.057854 0.067180 0.079250
0.058263 0.067273 0.079380
0.059929 0.067229 0.079421
0.065369 0.068271 0.080109
0.079584 0.069963 0.080579
0.093988 0.070246 0.080833
0.132540 0.071900 0.081641
0.221321 0.074357 0.082641
0.287376 0.075215 0.083016
0.370585 0.077203 0.083579
0.450795 0.080297 0.085030
0.498942 0.082033 0.085977
0.526385 0.083900 0.086727
0.554436 0.087144 0.087659
0.583207 0.091356 0.089249
0.604595 0.093738 0.090231
0.623596 0.095925 0.091157
0.641495 0.098990 0.092249
0.657143 0.103983 0.093714
0.666227 0.106453 0.095254
0.673218 0.109021 0.096959
0.679319 0.111971 0.098961
0.685284 0.114351 0.101204
0.691253 0.114702 0.103735
0.695920 0.115433 0.106961
0.700218 0.115375 0.111067
0.705815 0.110298 0.118337
0.708939 0.111592 0.150089
0.715726 0.130969 0.453395
0.715726 0.130939 0.453361
0.715726 0.130937 0.453359
0.715726 0.130939 0.453358
0.718020 0.306164 0.559441
0.058152 0.070988 0.079505
0.058410 0.071109 0.079775
0.059887 0.071293 0.080098
0.062650 0.071182 0.080320
0.071510 0.073862 0.080964
0.081183 0.073265 0.081157
0.106231 0.074871 0.082079
0.162348 0.077771 0.083009
0.227991 0.078306 0.083329
0.317663 0.079876 0.083929
0.418519 0.082834 0.085435
0.471568 0.085234 0.086292
0.511598 0.087128 0.086981
0.542599 0.089971 0.087915
0.574136 0.093909 0.089488
0.597549 0.096025 0.090432
0.618201 0.098139 0.091325
0.637459 0.102053 0.092389
0.654514 0.106907 0.093914
0.665043 0.109206 0.095430
0.672346 0.111638 0.097097
0.678681 0.114484 0.099058
0.684814 0.117353 0.101272
0.690901 0.117714 0.103721
0.695662 0.118356 0.106822
0.700025 0.118184 0.110711
0.705659 0.112256 0.116919
0.708842 0.112160 0.140698
0.715726 0.130974 0.453400
0.715726 0.130940 0.453362
0.715726 0.130937 0.453360
0.715726 0.130942 0.453358
0.718021 0.306166 0.559441
0.058514 0.079207 0.080179
0.058975 0.079345 0.080348
0.060308 0.079831 0.080608
0.063053 0.079970 0.081006
0.068080 0.079797 0.081565
0.074365 0.078251 0.081775
0.088950 0.079956 0.082527
0.124431 0.082201 0.083401
0.165452 0.082096 0.083694
0.250718 0.083451 0.084559
0.372210 0.088168 0.086011
0.435503 0.090029 0.086759
0.483374 0.091622 0.087365
0.523126 0.094357 0.088362
0.557719 0.098430 0.089865
0.584701 0.101010 0.090746
0.608392 0.103557 0.091588
0.630181 0.107069 0.092609
0.649821 0.111654 0.094255
0.662945 0.113647 0.095711
0.670817 0.116137 0.097319
0.677575 0.119547 0.099220
0.684007 0.122344 0.101401
0.690302 0.122565 0.103740
0.695225 0.123057 0.106671
0.699700 0.122732 0.110280
0.705395 0.115789 0.115220
0.708677 0.113882 0.132309
0.715727 0.130984 0.453410
0.715726 0.130941 0.453363
0.715726 0.130938 0.453360
0.715726 0.130971 0.453359
0.718021 0.306167 0.559440
0.058909 0.083097 0.080469
0.059178 0.083157 0.080567
0.060102 0.083994 0.080821
0.061945 0.084487 0.081309
0.065540 0.084442 0.081770
0.071261 0.084181 0.082357
0.082635 0.087007 0.083048
0.105920 0.090635 0.084033
0.131421 0.089267 0.084387
0.186728 0.090454 0.085207
0.301292 0.094406 0.086581
0.388456 0.095850 0.087289
0.444523 0.096995 0.087903
0.500391 0.100021 0.088954
0.539170 0.105459 0.090349
0.568051 0.108092 0.091162
0.593686 0.110812 0.091951
0.617519 0.114684 0.092938
0.640719 0.120056 0.094751
0.659016 0.121931 0.096124
0.668193 0.124219 0.097653
0.675710 0.127562 0.099473
0.682666 0.130555 0.101631
0.689319 0.130565 0.103838
0.694517 0.130884 0.106570
0.699177 0.130290 0.109869
0.704972 0.122445 0.113591
0.708405 0.118471 0.124698
0.715727 0.131005 0.453430
0.715726 0.130943 0.453366
0.715726 0.130939 0.453362
0.718019 0.264204 0.453359
0.718021 0.306167 0.559440
0.059541 0.094809 0.081090
0.059715 0.094842 0.081189
0.060663 0.095502 0.081702
0.062182 0.096148 0.082228
0.065537 0.096438 0.082751
0.070537 0.096330 0.083180
0.078720 0.096066 0.083626
0.094905 0.100720 0.084994
0.112875 0.097591 0.085269
0.147845 0.098267 0.085964
0.237632 0.103920 0.087242
0.324208 0.105414 0.087948
0.398964 0.106019 0.088592
0.460147 0.108920 0.089576
0.515994 0.114320 0.090931
0.547203 0.117455 0.091698
0.576878 0.119526 0.092399
0.604834 0.123516 0.093409
0.630155 0.130190 0.095370
0.650822 0.133430 0.096669
0.663972 0.138185 0.098124
0.672455 0.143296 0.099854
0.680375 0.146511 0.102012
0.687669 0.146021 0.104077
0.693351 0.145940 0.106599
0.698323 0.144869 0.109599
0.704279 0.134309 0.112511
0.707950 0.127633 0.120292
0.715728 0.131057 0.453479
0.715726 0.130948 0.453371
0.715726 0.130941 0.453364
0.718020 0.264281 0.453360
0.718021 0.306167 0.559440
0.060289 0.112591 0.082177
0.060486 0.112622 0.082287
0.061298 0.113701 0.082708
0.062902 0.114665 0.083186
0.065846 0.115605 0.083627
0.070693 0.115971 0.084431
0.078283 0.115612 0.085149
0.088222 0.115036 0.085874
0.102934 0.110862 0.086090
0.128457 0.111014 0.086735
0.191062 0.116915 0.088007
0.268914 0.117569 0.088801
0.343382 0.117394 0.089380
0.419516 0.120437 0.090290
0.486376 0.127033 0.091556
0.524736 0.129540 0.092244
0.556080 0.131993 0.092918
0.586617 0.138353 0.094122
0.615789 0.147138 0.096147
0.640518 0.149382 0.097335
0.659919 0.152993 0.098695
0.669350 0.158551 0.100343
0.677689 0.165412 0.102565
0.685297 0.168185 0.104511
0.691302 0.172087 0.106857
0.696852 0.170277 0.109603
0.703070 0.158325 0.112220
0.707145 0.148842 0.117694
0.715732 0.131264 0.453647
0.715726 0.130966 0.453390
0.715726 0.130948 0.453373
0.718021 0.264286 0.453364
0.718021 0.306167 0.559440
0.060672 0.123903 0.082650
0.060818 0.123915 0.082730
0.061397 0.124674 0.083032
0.062745 0.126222 0.083463
0.065283 0.127676 0.084030
0.068743 0.128416 0.084809
0.074569 0.128601 0.085584
0.083128 0.128074 0.086227
0.095369 0.127432 0.086859
0.115003 0.127208 0.087459
0.159095 0.136426 0.088969
0.222627 0.136120 0.089670
0.294899 0.134544 0.090202
0.378222 0.137829 0.091025
0.449879 0.146916 0.092240
0.501180 0.149077 0.092866
0.533638 0.151581 0.093618
0.567011 0.157403 0.095076
0.599690 0.167921 0.097011
0.626196 0.171826 0.098128
0.649191 0.177947 0.099421
0.664834 0.183139 0.101062
0.674614 0.188792 0.103266
0.683195 0.190377 0.105072
0.689851 0.193805 0.107266
0.695464 0.197718 0.109851
0.701564 0.193802 0.112428
0.705733 0.191505 0.117197
0.715852 0.137937 0.455563
0.715730 0.131183 0.453585
0.715727 0.130996 0.453425
0.718021 0.264292 0.453380
0.718021 0.306167 0.559440
0.061174 0.146896 0.083269
0.061286 0.146898 0.083330
0.061721 0.147608 0.083554
0.063127 0.149898 0.084105
0.065300 0.151878 0.084885
0.068392 0.153479 0.085631
0.073294 0.154079 0.086346
0.080922 0.153914 0.086994
0.089858 0.153241 0.087590
0.107562 0.152490 0.088321
0.142324 0.165538 0.089872
0.189743 0.164153 0.090550
0.251585 0.160293 0.090998
0.330279 0.163229 0.091783
0.415005 0.174751 0.092962
0.466501 0.176189 0.093668
0.511249 0.177978 0.094682
0.545888 0.184371 0.096110
0.580990 0.197491 0.097984
0.609884 0.201401 0.099015
0.637004 0.205616 0.100185
0.658955 0.214506 0.102012
0.670012 0.224567 0.104134
0.679775 0.226565 0.105807
0.687570 0.227968 0.107830
0.693924 0.230388 0.110223
0.700516 0.224866 0.112538
0.705028 0.220746 0.116705
0.709812 0.209232 0.122602
0.713237 0.201739 0.145343
0.716771 0.223941 0.410570
0.718021 0.265092 0.456229
0.718021 0.306168 0.559440
0.061871 0.195815 0.084458
0.062006 0.195824 0.084550
0.062588 0.196631 0.084893
0.064160 0.201076 0.085543
0.066055 0.204489 0.086240
0.069102 0.206955 0.086945
0.073787 0.208889 0.087632
0.081246 0.209347 0.088469
0.089836 0.208780 0.089263
0.106894 0.207551 0.090032
0.130471 0.206477 0.090774
0.164829 0.203382 0.091374
0.218235 0.197009 0.091807
0.293189 0.199425 0.092532
0.383208 0.213664 0.093902
0.436293 0.213496 0.094894
0.484083 0.213761 0.095833
0.524766 0.220614 0.097175
0.561522 0.235337 0.099005
0.592056 0.237201 0.099944
0.621066 0.242475 0.101191
0.647232 0.252120 0.103096
0.665181 0.259374 0.105069
0.676127 0.261931 0.106637
0.684533 0.267656 0.108552
0.691394 0.275215 0.110786
0.698838 0.267807 0.112885
0.703928 0.261429 0.116593
0.709029 0.248040 0.121308
0.712745 0.233709 0.133663
0.716584 0.222616 0.342831
0.718021 0.267594 0.465093
0.718021 0.268506 0.468286
0.062472 0.239573 0.085393
0.062637 0.239574 0.085468
0.063258 0.240144 0.085746
0.064546 0.243818 0.086285
0.066146 0.246965 0.086899
0.068944 0.250560 0.087572
0.073290 0.253642 0.088453
0.079765 0.254704 0.089289
0.087355 0.254773 0.090079
0.101389 0.254027 0.090811
0.120096 0.252683 0.091510
0.149390 0.251690 0.092202
0.192300 0.242838 0.092560
0.259592 0.245240 0.093382
0.344419 0.259712 0.095231
0.406373 0.257537 0.096133
0.455365 0.256631 0.097041
0.505189 0.262790 0.098321
0.541978 0.276957 0.100017
0.573000 0.277765 0.100987
0.603574 0.283716 0.102459
0.633181 0.291429 0.104231
0.658241 0.301321 0.106132
0.671052 0.304933 0.107617
0.681201 0.307229 0.109390
0.689207 0.311637 0.111479
0.696952 0.310896 0.113601
0.702316 0.312007 0.116939
0.707714 0.304868 0.121026
0.711919 0.285847 0.128348
0.716142 0.237906 0.233884
0.718021 0.267614 0.465137
0.718021 0.269378 0.470904
0.063117 0.280048 0.086094
0.063255 0.280038 0.086158
0.063772 0.280438 0.086392
0.064820 0.283145 0.086842
0.066278 0.287234 0.087422
0.068826 0.291371 0.088171
0.072621 0.294326 0.089030
0.078267 0.296394 0.089869
0.085109 0.297437 0.090642
0.096090 0.297117 0.091362
0.112169 0.296185 0.092044
0.136081 0.294646 0.092677
0.172481 0.293660 0.093431
0.231320 0.295158 0.094514
0.313394 0.309323 0.096556
0.379868 0.306419 0.097399
0.429588 0.304310 0.098219
0.479885 0.308887 0.099474
0.523818 0.320284 0.101322
0.554366 0.319763 0.102365
0.585658 0.323206 0.103697
0.617006 0.330222 0.105440
0.645794 0.339425 0.107289
0.665681 0.340551 0.108627
0.676852 0.345785 0.110331
0.685773 0.353408 0.112340
0.694781 0.350019 0.114497
0.700924 0.348780 0.117492
0.706600 0.345521 0.121161
0.710861 0.341014 0.126765
0.714505 0.337882 0.144120
0.718020 0.267735 0.465193
0.718021 0.270693 0.474124
0.063896 0.328497 0.086940
0.064014 0.328494 0.086995
0.064454 0.328763 0.087196
0.065330 0.330491 0.087581
0.066857 0.334855 0.088298
0.069199 0.337755 0.089090
0.072649 0.340500 0.089897
0.077917 0.342956 0.090714
0.084278 0.344434 0.091487
0.093323 0.344620 0.092188
0.108366 0.344149 0.092843
0.129103 0.343297 0.093642
0.157667 0.342016 0.094697
0.209386 0.341168 0.095834
0.287640 0.354731 0.097797
0.348278 0.351289 0.098649
0.405518 0.347551 0.099411
0.455699 0.351043 0.100570
0.506924 0.362488 0.102760
0.536914 0.361503 0.103807
0.568143 0.363920 0.105059
0.600223 0.370676 0.106691
0.631341 0.378263 0.108440
0.658347 0.380849 0.109728
0.671646 0.386375 0.111345
0.682350 0.391415 0.113347
0.692068 0.392177 0.115554
0.698743 0.395127 0.118312
0.705233 0.390108 0.121535
0.710030 0.382818 0.125927
0.714010 0.374768 0.137301
0.716702 0.381311 0.226626
0.718289 0.416187 0.477001
0.064846 0.387235 0.088058
0.064949 0.387261 0.088125
0.065330 0.387565 0.088372
0.066080 0.389044 0.088842
0.067807 0.393851 0.089587
0.070078 0.395672 0.090302
0.073354 0.398176 0.091105
0.078564 0.400005 0.091873
0.084548 0.401340 0.092633
0.093407 0.402003 0.093455
0.108042 0.402114 0.094584
0.127442 0.401648 0.095734
0.154342 0.400896 0.096879
0.202332 0.400098 0.097944
0.262802 0.399458 0.099026
0.321632 0.396407 0.099804
0.384851 0.393457 0.100580
0.434979 0.395672 0.102072
0.486648 0.402778 0.104217
0.520697 0.401393 0.105181
0.551448 0.402574 0.106415
0.583791 0.406771 0.108000
0.615874 0.411379 0.109650
0.645376 0.413494 0.110874
0.665838 0.416171 0.112376
0.677737 0.421205 0.114679
0.688873 0.421789 0.116731
0.696775 0.422205 0.119254
0.703633 0.422408 0.122204
0.708743 0.422234 0.125999
0.713224 0.415212 0.134465
0.716285 0.408803 0.170535
0.718243 0.422274 0.470195
0.065394 0.418290 0.088883
0.065484 0.418303 0.088943
0.065816 0.418454 0.089159
0.066508 0.419198 0.089570
0.068085 0.421590 0.090216
0.070359 0.423827 0.090924
0.073508 0.426842 0.091730
0.078130 0.428161 0.092431
0.083693 0.429627 0.093226
0.090953 0.430809 0.094326
0.104418 0.431042 0.095529
0.120448 0.430829 0.096700
0.145388 0.430403 0.097827
0.184298 0.429586 0.098901
0.237857 0.428909 0.099921
0.300077 0.428370 0.101049
0.357410 0.425249 0.102027
0.414274 0.426835 0.103553
0.466020 0.433902 0.105680
0.506268 0.432126 0.106612
0.535890 0.432433 0.107739
0.567952 0.436183 0.109292
0.600345 0.440493 0.110888
0.630853 0.441878 0.112029
0.658555 0.444952 0.113703
0.672524 0.449963 0.116065
0.685197 0.450453 0.117959
0.693973 0.453150 0.120375
0.701836 0.453046 0.123056
0.707686 0.450902 0.126498
0.712360 0.449319 0.133633
0.715541 0.450180 0.152883
0.718020 0.442415 0.408080
0.065892 0.447118 0.089631
0.065971 0.447126 0.089684
0.066263 0.447237 0.089876
0.067044 0.447790 0.090238
0.068403 0.449570 0.090804
0.070734 0.452336 0.091509
0.073354 0.454130 0.092204
0.077743 0.456149 0.092940
0.083018 0.457924 0.093872
0.089293 0.459118 0.095169
0.101254 0.459777 0.096420
0.115208 0.459852 0.097585
0.137853 0.459566 0.098682
0.168400 0.459041 0.099760
0.217186 0.458285 0.100814
0.276473 0.457660 0.102140
0.334937 0.457278 0.103484
0.396155 0.458630 0.104970
0.447931 0.465226 0.107079
0.488781 0.463015 0.107962
0.521956 0.463099 0.109086
0.553123 0.466285 0.110575
0.585264 0.470439 0.112136
0.616037 0.471346 0.113344
0.646128 0.474594 0.115243
0.666715 0.478891 0.117476
0.680592 0.480622 0.119285
0.690921 0.482543 0.121518
0.699772 0.483633 0.124021
0.706145 0.484547 0.127467
0.711464 0.481726 0.133439
0.715081 0.478770 0.146219
0.717492 0.488073 0.258526
0.066510 0.480153 0.090493
0.066613 0.480167 0.090540
0.066995 0.480278 0.090712
0.067730 0.480746 0.091036
0.068986 0.482160 0.091539
0.071418 0.485487 0.092247
0.073655 0.486561 0.092857
0.078147 0.489201 0.093793
0.082996 0.490874 0.095088
0.088751 0.492042 0.096332
0.099730 0.492992 0.097584
0.113089 0.493379 0.098760
0.133568 0.493424 0.099903
0.159275 0.492890 0.101011
0.204611 0.492372 0.102429
0.259090 0.491690 0.103752
0.317092 0.491076 0.105033
0.378384 0.490847 0.106345
0.431367 0.497196 0.108433
0.470919 0.494771 0.109290
0.509266 0.494261 0.110366
0.539538 0.497214 0.111838
0.571002 0.501026 0.113571
0.601466 0.501556 0.114960
0.632271 0.504787 0.116805
0.660212 0.508809 0.118942
0.675455 0.510677 0.120639
0.687261 0.512831 0.122737
0.697141 0.515678 0.125115
0.704701 0.514797 0.128629
0.710456 0.514775 0.133925
0.714355 0.515892 0.143428
0.717197 0.515221 0.196381
0.067479 0.517007 0.091489
0.067573 0.517029 0.091532
0.067917 0.517138 0.091688
0.068578 0.517484 0.091981
0.069958 0.518385 0.092435
0.072132 0.520449 0.093130
0.074585 0.521742 0.093980
0.078882 0.523508 0.095309
0.083369 0.524763 0.096577
0.089155 0.526097 0.097879
0.100017 0.526901 0.099100
0.112902 0.527402 0.100315
0.131958 0.527447 0.101695
0.155963 0.527286 0.103144
0.198639 0.526859 0.104504
0.251628 0.526508 0.105904
0.307922 0.526100 0.107201
0.365861 0.525629 0.108436
0.415286 0.525584 0.109733
0.455016 0.523742 0.110554
0.496068 0.523362 0.111620
0.527168 0.525056 0.113153
0.557763 0.527568 0.115201
0.587651 0.527793 0.116553
0.618449 0.529656 0.118326
0.649211 0.532552 0.120417
0.669747 0.533695 0.122000
0.682886 0.535875 0.124020
0.694465 0.537232 0.126336
0.702842 0.538085 0.129989
0.709342 0.538705 0.134796
0.713807 0.537724 0.142407
0.716828 0.540003 0.172802
0.067980 0.539008 0.091982
0.068065 0.539022 0.092021
0.068378 0.539097 0.092166
0.069060 0.539343 0.092436
0.070352 0.539999 0.092852
0.072283 0.541516 0.093583
0.074880 0.543154 0.094717
0.078589 0.544244 0.095913
0.083083 0.545789 0.097229
0.088445 0.547048 0.098520
0.097709 0.547699 0.099698
0.109775 0.548242 0.100958
0.126358 0.548483 0.102505
0.148775 0.548449 0.103971
0.185036 0.548243 0.105382
0.233344 0.547806 0.106706
0.289631 0.547464 0.108039
0.343792 0.547184 0.109314
0.397968 0.546839 0.110511
0.441060 0.546917 0.111762
0.480148 0.546200 0.112794
0.515921 0.547853 0.114757
0.545656 0.550015 0.116805
0.574730 0.550120 0.118097
0.605294 0.551714 0.119833
0.636350 0.554234 0.121855
0.663436 0.555369 0.123358
0.677946 0.557633 0.125303
0.691107 0.559216 0.128018
0.700657 0.560614 0.131424
0.708165 0.561054 0.135766
0.713063 0.562012 0.142555
0.716501 0.562591 0.162641
0.068495 0.561566 0.092480
0.068574 0.561580 0.092517
0.068903 0.561646 0.092652
0.069643 0.561848 0.092911
0.070817 0.562366 0.093394
0.072553 0.563532 0.094243
0.075390 0.565476 0.095532
0.078649 0.566161 0.096621
0.083199 0.567961 0.098003
0.087706 0.568595 0.099153
0.096475 0.569605 0.100400
0.108278 0.570322 0.101938
0.122827 0.570536 0.103474
0.143846 0.570503 0.104920
0.175005 0.570399 0.106359
0.220103 0.570124 0.107724
0.273141 0.569704 0.109010
0.325938 0.569352 0.110284
0.384460 0.569183 0.111536
0.425821 0.568974 0.112706
0.466065 0.569151 0.114314
0.505739 0.570196 0.116258
0.534490 0.572265 0.118285
0.562807 0.572373 0.119591
0.592732 0.573637 0.121280
0.623833 0.575969 0.123278
0.655061 0.577044 0.124701
0.672576 0.578971 0.126853
0.687101 0.581045 0.129741
0.698255 0.582206 0.132843
0.706706 0.583755 0.136920
0.712358 0.584188 0.143111
0.716143 0.585549 0.158752
0.069193 0.584801 0.093075
0.069291 0.584820 0.093119
0.069650 0.584904 0.093277
0.070331 0.585118 0.093572
0.071408 0.585599 0.094168
0.072986 0.586594 0.095132
0.075960 0.588539 0.096431
0.079093 0.589360 0.097516
0.083076 0.590645 0.098783
0.087725 0.591745 0.100022
0.096251 0.592809 0.101496
0.106780 0.593339 0.103059
0.120238 0.593792 0.104642
0.140750 0.593924 0.106152
0.168409 0.593793 0.107562
0.210813 0.593636 0.108981
0.261174 0.593299 0.110295
0.313777 0.592941 0.111571
0.368756 0.592585 0.112806
0.414774 0.592507 0.114481
0.454197 0.592433 0.116072
0.493923 0.592681 0.117676
0.524372 0.594252 0.119684
0.551785 0.594405 0.120939
0.580963 0.595427 0.122635
0.611634 0.597484 0.124624
0.643755 0.598663 0.126060
0.666811 0.600404 0.128686
0.682591 0.602501 0.131449
0.695340 0.603896 0.134330
0.705125 0.605500 0.138099
0.711550 0.606488 0.144030
0.715748 0.608396 0.156979
0.069872 0.608466 0.093637
0.069964 0.608487 0.093679
0.070298 0.608575 0.093873
0.070931 0.608781 0.094298
0.071927 0.609207 0.094953
0.073377 0.610038 0.095874
0.076250 0.611590 0.097112
0.079580 0.612844 0.098315
0.083121 0.613483 0.099494
0.087993 0.614422 0.100908
0.095348 0.614814 0.102464
0.106116 0.615335 0.104131
0.119049 0.615741 0.105793
0.137933 0.615784 0.107274
0.162343 0.615728 0.108703
0.202541 0.615615 0.110111
0.250824 0.615461 0.111491
0.303469 0.615251 0.112798
0.356017 0.615035 0.114498
0.404653 0.614834 0.116164
0.444582 0.614833 0.117807
0.482378 0.614894 0.119406
0.515119 0.615122 0.120977
0.541746 0.615179 0.122207
0.570024 0.615683 0.123875
0.600004 0.616783 0.125879
0.631816 0.617588 0.127819
0.660781 0.618606 0.130396
0.677742 0.619935 0.133104
0.691932 0.621019 0.135839
0.703315 0.622018 0.139249
0.710616 0.623070 0.145174
0.715425 0.623898 0.156205
0.070170 0.625207 0.093775
0.070256 0.625217 0.093837
0.070569 0.625254 0.094059
0.071160 0.625343 0.094474
0.072087 0.625531 0.095113
0.073429 0.625902 0.096010
0.076074 0.626604 0.097212
0.079628 0.627495 0.098570
0.082804 0.627858 0.099684
0.087382 0.628625 0.101201
0.094016 0.628994 0.102810
0.104770 0.629474 0.104561
0.115425 0.629657 0.106118
0.133784 0.629835 0.107722
0.155829 0.629841 0.109248
0.192762 0.629679 0.110631
0.237773 0.629504 0.112020
0.290304 0.629292 0.113535
0.340465 0.629089 0.115294
0.392792 0.628907 0.116969
0.432834 0.628798 0.118614
0.469608 0.628832 0.120198
0.506009 0.629032 0.121787
0.532563 0.629383 0.123348
0.559940 0.629651 0.125009
0.589106 0.630507 0.127489
0.620309 0.631340 0.129407
0.651375 0.632182 0.131962
0.672376 0.633433 0.134548
0.688064 0.634609 0.137327
0.701179 0.635711 0.140422
0.709646 0.636618 0.146099
0.715065 0.637793 0.156039
0.070536 0.639060 0.094002
0.070616 0.639069 0.094062
0.070909 0.639105 0.094279
0.071461 0.639183 0.094686
0.072325 0.639332 0.095310
0.073570 0.639599 0.096186
0.076066 0.640069 0.097359
0.079855 0.640886 0.098891
0.082740 0.641117 0.099955
0.086738 0.641565 0.101471
0.093491 0.642034 0.103304
0.102892 0.642254 0.104947
0.113965 0.642491 0.106647
0.130999 0.642634 0.108306
0.150757 0.642621 0.109799
0.184460 0.642555 0.111278
0.228216 0.642418 0.112707
0.279948 0.642226 0.114545
0.328721 0.642041 0.116313
0.382796 0.641886 0.118044
0.421920 0.641777 0.119690
0.459021 0.641752 0.121296
0.496413 0.641801 0.122850
0.523723 0.642044 0.124437
0.550677 0.642394 0.126055
0.578909 0.642847 0.128946
0.609502 0.643633 0.130803
0.640452 0.644111 0.133291
0.666767 0.645069 0.135857
0.683703 0.645960 0.138442
0.698691 0.646974 0.141736
0.708583 0.647756 0.147041
0.714683 0.648652 0.156041
0.070853 0.650042 0.094030
0.070928 0.650053 0.094090
0.071202 0.650096 0.094306
0.071719 0.650183 0.094712
0.072526 0.650334 0.095334
0.073687 0.650584 0.096207
0.076057 0.650990 0.097375
0.079560 0.651654 0.098898
0.082774 0.652078 0.100173
0.086323 0.652431 0.101698
0.093409 0.653019 0.103791
0.101778 0.653162 0.105354
0.113245 0.653440 0.107217
0.127765 0.653497 0.108780
0.148052 0.653553 0.110435
0.178763 0.653494 0.111952
0.219320 0.653375 0.113606
0.268410 0.653195 0.115531
0.317869 0.652981 0.117372
0.370065 0.652803 0.119144
0.412621 0.652666 0.120853
0.450074 0.652605 0.122500
0.486274 0.652613 0.124084
0.516126 0.652708 0.125621
0.542071 0.653015 0.127838
0.569469 0.653419 0.130147
0.599331 0.654346 0.131937
0.629752 0.654677 0.134442
0.661031 0.655529 0.136867
0.678942 0.656338 0.139426
0.695646 0.657325 0.142866
0.707369 0.658231 0.147833
0.714442 0.659120 0.156172
0.070534 0.663058 0.092919
0.070604 0.663064 0.092962
0.070860 0.663084 0.093119
0.071344 0.663123 0.093411
0.072101 0.663191 0.093916
0.073195 0.663303 0.094864
0.075161 0.663489 0.096138
0.078501 0.663812 0.097812
0.082182 0.664152 0.099479
0.085345 0.664312 0.100778
0.090638 0.664592 0.102893
0.099853 0.664766 0.104821
0.110002 0.664837 0.106643
0.123990 0.664857 0.108450
0.143237 0.664782 0.110167
0.169139 0.664669 0.111745
0.209559 0.664512 0.113497
0.256601 0.664300 0.115494
0.305580 0.664058 0.117375
0.355505 0.663839 0.119193
0.402113 0.663673 0.120943
0.440277 0.663575 0.122631
0.475834 0.663566 0.124259
0.508978 0.663662 0.125846
