negative-ektar-100/Ektar100_Classic_Soft.cube
TITLE "Kodak Ektar 100 Classic Soft"
# Adobe RGB in/out. REPLACES AgX. Kodak Ektar 100 Classic Soft.
LUT_3D_SIZE 5
DOMAIN_MIN 0.0 0.0 0.0
DOMAIN_MAX 1.0 1.0 1.0
0.061862 0.068788 0.085817
0.186050 0.099464 0.094756
0.479035 0.183373 0.108940
0.607764 0.355336 0.127388
0.680001 0.475606 0.155244
0.077287 0.157229 0.092641
0.195981 0.182745 0.097836
0.481157 0.287986 0.111074
0.608369 0.407639 0.129006
0.680321 0.504287 0.157011
0.102395 0.429126 0.102880
0.230951 0.441940 0.106550
0.488628 0.474600 0.117344
0.610521 0.525225 0.134762
0.681466 0.569281 0.163126
0.149458 0.578969 0.115818
0.287987 0.582744 0.118347
0.501807 0.595769 0.127861
0.614393 0.617839 0.146256
0.683546 0.646875 0.175774
0.232379 0.665583 0.131457
0.356417 0.666757 0.134098
0.519814 0.670865 0.144593
0.619989 0.678022 0.163408
0.686599 0.687888 0.195178
0.061862 0.088037 0.194221
0.186050 0.107956 0.197315
0.479035 0.197469 0.208100
0.607764 0.362735 0.229451
0.680001 0.479573 0.263709
0.077287 0.169598 0.196100
0.195981 0.196650 0.199168
0.481157 0.299615 0.209872
0.608369 0.414065 0.231421
0.680321 0.507889 0.265839
0.102395 0.435230 0.202724
0.230951 0.446800 0.205708
0.488628 0.478582 0.216770
0.610521 0.527577 0.238417
0.681466 0.571160 0.273437
0.149458 0.580762 0.214780
0.287987 0.584505 0.218150
0.501807 0.597425 0.230020
0.614393 0.619335 0.252696
0.683546 0.647697 0.287218
0.232379 0.666140 0.234537
0.356417 0.667307 0.237744
0.519814 0.671393 0.250468
0.619989 0.678515 0.273797
0.686599 0.688338 0.307388
0.061862 0.122134 0.486830
0.186050 0.146213 0.488119
0.479035 0.249756 0.492711
0.607764 0.388034 0.501001
0.680001 0.493393 0.513045
0.077287 0.218510 0.487612
0.195981 0.248980 0.488898
0.481157 0.335108 0.493479
0.608369 0.436360 0.501751
0.680321 0.520490 0.513769
0.102395 0.453269 0.490404
0.230951 0.462277 0.491680
0.488628 0.492448 0.496224
0.610521 0.535792 0.504431
0.681466 0.577773 0.516120
0.149458 0.587078 0.495482
0.287987 0.590711 0.496739
0.501807 0.603269 0.501217
0.614393 0.624627 0.509309
0.683546 0.650329 0.520204
0.232379 0.668114 0.502942
0.356417 0.669259 0.504172
0.519814 0.673270 0.508556
0.619989 0.680269 0.516227
0.686599 0.689936 0.526206
0.061862 0.204725 0.646839
0.186050 0.235620 0.647256
0.479035 0.326459 0.648746
0.607764 0.430667 0.651460
0.680001 0.517258 0.655455
0.077287 0.305206 0.647091
0.195981 0.325985 0.647508
0.481157 0.389201 0.648996
0.608369 0.466800 0.651707
0.680321 0.536735 0.655697
0.102395 0.480500 0.647996
0.230951 0.488692 0.648410
0.488628 0.516384 0.649892
0.610521 0.550044 0.652591
0.681466 0.589412 0.656565
0.149458 0.598226 0.649650
0.287987 0.601674 0.650061
0.501807 0.613624 0.651531
0.614393 0.634047 0.654209
0.683546 0.654527 0.658153
0.232379 0.671650 0.652099
0.356417 0.672756 0.652506
0.519814 0.676637 0.653959
0.619989 0.683420 0.656606
0.686599 0.692816 0.660505
0.061862 0.327943 0.733906
0.186050 0.350551 0.734032
0.479035 0.404785 0.734485
0.607764 0.476292 0.735311
0.680001 0.541882 0.736535
0.077287 0.390366 0.733983
0.195981 0.404429 0.734109
0.481157 0.449380 0.734561
0.608369 0.504910 0.735387
0.680321 0.557591 0.736610
0.102395 0.516983 0.734257
0.230951 0.524054 0.734383
0.488628 0.541337 0.734833
0.610521 0.569605 0.735657
0.681466 0.605706 0.736877
0.149458 0.613887 0.734759
0.287987 0.617097 0.734885
0.501807 0.628256 0.735333
0.614393 0.647017 0.736153
0.683546 0.660497 0.737367
0.232379 0.676723 0.735506
0.356417 0.677777 0.735631
0.519814 0.681479 0.736076
0.619989 0.687966 0.736890
0.686599 0.696984 0.738095
