negative-ektar-100/Ektar100_Modern_Normal.cube
TITLE "Kodak Ektar 100 Modern Normal"
# Adobe RGB in/out. REPLACES AgX. Kodak Ektar 100 Modern Normal.
LUT_3D_SIZE 5
DOMAIN_MIN 0.0 0.0 0.0
DOMAIN_MAX 1.0 1.0 1.0
0.076072 0.078059 0.088299
0.357545 0.114865 0.088896
0.765833 0.304185 0.093598
0.898522 0.511114 0.109247
0.941479 0.652536 0.139982
0.080418 0.290119 0.088520
0.232489 0.209415 0.088788
0.689585 0.371053 0.092368
0.878045 0.551360 0.105083
0.935446 0.676337 0.135270
0.112791 0.671244 0.090860
0.312020 0.624344 0.091140
0.627494 0.584766 0.092920
0.831013 0.658550 0.102203
0.920698 0.734378 0.127352
0.174263 0.820162 0.094074
0.345017 0.806422 0.094763
0.651971 0.783144 0.097946
0.814337 0.782557 0.105878
0.907206 0.812680 0.127045
0.234504 0.870461 0.099810
0.364363 0.868115 0.100917
0.641552 0.863306 0.104558
0.808194 0.862539 0.115088
0.898017 0.868972 0.136042
0.076072 0.091665 0.357183
0.370486 0.145350 0.367071
0.755701 0.318715 0.320781
0.891801 0.509523 0.313325
0.939278 0.650603 0.324025
0.078249 0.232840 0.252936
0.155851 0.159599 0.137666
0.662400 0.357109 0.223762
0.870475 0.544142 0.272566
0.933006 0.673262 0.304624
0.106154 0.642323 0.269430
0.283495 0.596552 0.224642
0.588950 0.553574 0.183795
0.820256 0.647096 0.216814
0.918493 0.731186 0.263346
0.167631 0.811963 0.243792
0.333834 0.798810 0.231766
0.638053 0.776249 0.212763
0.808457 0.777311 0.213684
0.904947 0.810739 0.242774
0.231578 0.869235 0.218136
0.360386 0.867000 0.216618
0.637410 0.862480 0.215679
0.806641 0.862150 0.223902
0.897568 0.869226 0.246420
0.076072 0.192539 0.852373
0.370486 0.261613 0.853278
0.803150 0.464658 0.851089
0.896871 0.563856 0.785692
0.938189 0.669392 0.741704
0.080011 0.403888 0.844548
0.325463 0.402387 0.809719
0.712189 0.471485 0.766538
0.873067 0.585665 0.736603
0.931515 0.687924 0.715703
0.097234 0.610006 0.712320
0.247226 0.571686 0.656218
0.523426 0.513937 0.531489
0.810525 0.649354 0.612813
0.915810 0.733975 0.649445
0.153570 0.797046 0.690146
0.310784 0.786219 0.668231
0.610849 0.766212 0.609706
0.793582 0.769325 0.578950
0.900581 0.810043 0.599177
0.224060 0.866825 0.627663
0.350326 0.864971 0.619588
0.627329 0.861348 0.600101
0.802190 0.862078 0.586850
0.896494 0.870638 0.590235
0.076072 0.397667 0.960409
0.370486 0.454043 0.960616
0.810934 0.595392 0.961355
0.911706 0.662601 0.940574
0.940998 0.713233 0.906369
0.080418 0.557968 0.960534
0.388052 0.594469 0.960741
0.776104 0.637055 0.948536
0.889667 0.671892 0.921228
0.934122 0.722578 0.894102
0.097637 0.657724 0.899147
0.270060 0.649864 0.889018
0.630200 0.655142 0.871712
0.827903 0.705390 0.866532
0.917138 0.754827 0.863955
0.141929 0.790286 0.870899
0.291099 0.783016 0.863891
0.592304 0.768262 0.846044
0.777607 0.766572 0.821584
0.898374 0.818330 0.838137
0.215031 0.865512 0.852630
0.338423 0.864234 0.849997
0.616050 0.861967 0.842079
0.797135 0.863954 0.832329
0.895471 0.874068 0.830898
0.076072 0.598288 0.985958
0.370486 0.626494 0.985997
0.810934 0.708324 0.986134
0.919271 0.747578 0.980987
0.943569 0.760296 0.970911
0.080418 0.689036 0.985982
0.388052 0.707937 0.986020
0.808915 0.752249 0.985508
0.904746 0.749887 0.977083
0.938105 0.766714 0.964591
0.104769 0.750800 0.975155
0.316739 0.749135 0.974000
0.689884 0.750115 0.966288
0.852683 0.764049 0.956574
0.920964 0.790555 0.948126
0.138646 0.806895 0.947489
0.288456 0.803911 0.945094
0.606369 0.800245 0.938950
0.802259 0.811502 0.933823
0.901706 0.833027 0.931043
0.207150 0.867212 0.935699
0.328220 0.866561 0.934377
0.607312 0.865834 0.928107
0.793927 0.869049 0.922155
0.895028 0.880054 0.921100
