negative-ektar-100/Ektar100_Classic_Punchy.cube
TITLE "Kodak Ektar 100 Classic Punchy"
# Adobe RGB in/out. REPLACES AgX. Kodak Ektar 100 Classic Punchy.
LUT_3D_SIZE 5
DOMAIN_MIN 0.0 0.0 0.0
DOMAIN_MAX 1.0 1.0 1.0
0.071174 0.083756 0.079619
0.326583 0.093282 0.081832
0.688873 0.117935 0.089348
0.782002 0.142413 0.107064
0.810765 0.305757 0.565314
0.077449 0.156033 0.081717
0.133299 0.160452 0.085647
0.559691 0.183500 0.092293
0.773854 0.221897 0.107319
0.810765 0.305764 0.565312
0.087603 0.445376 0.087907
0.114719 0.457830 0.092623
0.333052 0.457085 0.102985
0.710802 0.476733 0.118410
0.810071 0.488842 0.276970
0.095570 0.662536 0.092757
0.114289 0.666050 0.099258
0.255617 0.668276 0.115111
0.585237 0.668234 0.133852
0.806379 0.678980 0.176112
0.090634 0.752614 0.079619
0.104487 0.776783 0.079619
0.177519 0.785063 0.092247
0.494749 0.779393 0.116600
0.808112 0.786181 0.126745
0.073829 0.096716 0.152326
0.321873 0.142439 0.357623
0.699593 0.159443 0.294228
0.781611 0.196945 0.366519
0.810765 0.305770 0.565337
0.089519 0.163890 0.146113
0.201385 0.190365 0.187779
0.643671 0.215376 0.202257
0.776111 0.252317 0.249208
0.810765 0.305764 0.565313
0.104927 0.445072 0.147729
0.146274 0.453338 0.162210
0.424842 0.461691 0.186753
0.743944 0.485879 0.213474
0.809952 0.511327 0.465335
0.110542 0.661516 0.141847
0.136226 0.664099 0.157245
0.303019 0.666513 0.189659
0.633026 0.669411 0.219498
0.807248 0.681007 0.265149
0.090635 0.762033 0.093499
0.104487 0.785382 0.093497
0.198385 0.785279 0.122449
0.514943 0.780395 0.174540
0.810673 0.787018 0.196325
0.078515 0.150250 0.463159
0.230980 0.244382 0.618351
0.682291 0.273191 0.619546
0.778987 0.307310 0.637147
0.810765 0.337495 0.679951
0.096668 0.235740 0.469656
0.190928 0.284471 0.557513
0.642838 0.324392 0.586150
0.774780 0.365746 0.617052
0.810765 0.334772 0.670414
0.122357 0.470650 0.440207
0.178788 0.479396 0.458268
0.508435 0.503533 0.504820
0.756997 0.523024 0.543471
0.809528 0.553941 0.659533
0.135868 0.666592 0.434805
0.173024 0.668783 0.443453
0.372633 0.672572 0.465137
0.687462 0.679151 0.489386
0.807900 0.695012 0.593362
0.099179 0.781783 0.524749
0.102752 0.788273 0.524746
0.249870 0.785807 0.455013
0.548585 0.783707 0.467548
0.811554 0.791987 0.495460
0.084175 0.286295 0.722036
0.168359 0.346778 0.758004
0.668057 0.375627 0.760305
0.776742 0.400427 0.764361
0.810765 0.367547 0.761942
0.099411 0.367289 0.728860
0.176598 0.402925 0.752932
0.637641 0.427992 0.758253
0.773485 0.450851 0.763292
0.810761 0.366474 0.759551
0.134444 0.529729 0.704014
0.193707 0.543175 0.723462
0.531858 0.562650 0.745023
0.760364 0.580700 0.755854
0.809199 0.595483 0.771471
0.150164 0.683358 0.680650
0.192089 0.685735 0.687166
0.411591 0.691488 0.708555
0.711211 0.699336 0.729390
0.808200 0.713758 0.768399
0.099819 0.785263 0.646644
0.103918 0.792758 0.647027
0.255453 0.793341 0.680736
0.557481 0.792207 0.686923
0.811758 0.801068 0.746155
0.163412 0.427104 0.843735
0.436609 0.434257 0.843737
0.727488 0.456117 0.843866
0.786128 0.467644 0.844681
0.810765 0.423907 0.842615
0.178596 0.471585 0.842861
0.414105 0.477872 0.842947
0.721667 0.494261 0.843268
0.785285 0.502952 0.844209
0.810765 0.432854 0.845995
0.202034 0.602297 0.841076
0.335230 0.604824 0.841411
0.690977 0.612107 0.842111
0.781488 0.617736 0.843261
0.811352 0.614139 0.846722
0.172617 0.714608 0.840883
0.237110 0.715307 0.841411
0.575259 0.717937 0.842377
0.770246 0.722025 0.843568
0.811343 0.726352 0.846244
0.096925 0.786224 0.781265
0.104487 0.798340 0.800002
0.182025 0.805943 0.827116
0.536973 0.806174 0.845746
0.811979 0.809159 0.847024
