negative-ektar-100/Ektar100_Modern_ExtraSoft.cube
TITLE "Kodak Ektar 100 Modern ExtraSoft"
# Adobe RGB in/out. REPLACES AgX. Kodak Ektar 100 Modern ExtraSoft.
LUT_3D_SIZE 5
DOMAIN_MIN 0.0 0.0 0.0
DOMAIN_MAX 1.0 1.0 1.0
0.059045 0.065518 0.079897
0.360415 0.092822 0.080809
0.690085 0.295303 0.091429
0.802886 0.513105 0.109551
0.854089 0.623011 0.132412
0.063620 0.276972 0.080287
0.199394 0.174185 0.080659
0.630714 0.377610 0.088788
0.785094 0.544007 0.106380
0.847744 0.637538 0.128989
0.088601 0.634445 0.085269
0.303405 0.601661 0.086069
0.581024 0.568633 0.089969
0.740568 0.626699 0.102796
0.827739 0.681968 0.123452
0.136542 0.740359 0.092175
0.344523 0.731545 0.093073
0.596784 0.716512 0.097845
0.725779 0.716132 0.106987
0.810429 0.735565 0.123226
0.201913 0.790114 0.099899
0.369126 0.788021 0.101090
0.590097 0.783731 0.105936
0.720330 0.783047 0.114347
0.802448 0.788785 0.129552
0.059045 0.075089 0.356486
0.376985 0.114456 0.368879
0.682917 0.311867 0.311617
0.797048 0.511438 0.302580
0.851627 0.621823 0.315565
0.061183 0.204315 0.235709
0.120904 0.125495 0.130734
0.605451 0.359801 0.204132
0.777238 0.538639 0.256439
0.844854 0.635672 0.292103
0.084373 0.616719 0.253032
0.266038 0.577238 0.205113
0.555825 0.545651 0.165543
0.731028 0.619664 0.196659
0.824686 0.679167 0.246597
0.130891 0.735105 0.226189
0.330465 0.726644 0.213091
0.587845 0.712035 0.192830
0.720563 0.712726 0.193700
0.808467 0.734319 0.225131
0.198253 0.789019 0.197909
0.364039 0.787027 0.196474
0.587430 0.782994 0.195586
0.718953 0.782699 0.204287
0.802058 0.789012 0.228920
0.059045 0.155400 0.771307
0.376985 0.240789 0.772248
0.716311 0.464547 0.769973
0.801452 0.553261 0.709959
0.850524 0.633319 0.677685
0.063111 0.411636 0.763203
0.320024 0.410336 0.732214
0.651732 0.471670 0.692805
0.780580 0.569292 0.674559
0.842774 0.644545 0.661675
0.077756 0.588042 0.659578
0.218031 0.559034 0.617987
0.511815 0.515976 0.520734
0.722398 0.621054 0.591795
0.820976 0.681614 0.613943
0.118847 0.725505 0.641097
0.301885 0.718506 0.625123
0.570201 0.705497 0.589894
0.709612 0.707527 0.566327
0.804675 0.733872 0.583427
0.188922 0.786870 0.600830
0.351239 0.785216 0.595927
0.580917 0.781985 0.583996
0.715640 0.782635 0.573908
0.801125 0.790271 0.577157
0.059045 0.406240 0.886964
0.376985 0.454712 0.887263
0.722760 0.576393 0.888328
0.815313 0.629177 0.858538
0.853378 0.663403 0.827695
0.063620 0.548908 0.887145
0.394463 0.575720 0.887443
0.697330 0.613460 0.869908
0.795193 0.634839 0.840422
0.846403 0.671611 0.814840
0.078082 0.626193 0.820123
0.247908 0.621368 0.809519
0.582775 0.624610 0.791444
0.737810 0.656509 0.786043
0.822812 0.698050 0.783358
0.110725 0.721139 0.790596
0.276474 0.716430 0.783292
0.558037 0.706834 0.764732
0.698389 0.705732 0.743209
0.802758 0.739186 0.758556
0.177905 0.785699 0.771575
0.336219 0.784559 0.768838
0.573592 0.782536 0.761613
0.712102 0.784309 0.753170
0.800236 0.793330 0.751843
0.059045 0.578502 0.943551
0.376985 0.603703 0.943630
0.722760 0.659089 0.943912
0.825763 0.693291 0.928221
0.857178 0.701631 0.901978
0.063620 0.645215 0.943599
0.394463 0.658748 0.943678
0.720970 0.696359 0.942449
0.808293 0.694808 0.916055
0.850439 0.705824 0.893000
0.083400 0.695408 0.910089
0.309218 0.694315 0.906528
0.630992 0.694958 0.895454
0.759784 0.704084 0.881443
0.828108 0.721312 0.869322
0.108528 0.731849 0.868410
0.272834 0.729930 0.864986
0.567273 0.727569 0.856225
0.715688 0.734809 0.849548
0.805652 0.754040 0.847536
0.168460 0.787216 0.851603
0.323455 0.786635 0.849949
0.567889 0.785986 0.845409
0.709854 0.788854 0.841094
0.799851 0.798669 0.840329
