negative-ektar-100/Ektar100_Modern_Soft.cube
TITLE "Kodak Ektar 100 Modern Soft"
# Adobe RGB in/out. REPLACES AgX. Kodak Ektar 100 Modern Soft.
LUT_3D_SIZE 33
DOMAIN_MIN 0.0 0.0 0.0
DOMAIN_MAX 1.0 1.0 1.0
0.061862 0.068788 0.085817
0.067358 0.070469 0.086484
0.069381 0.070926 0.086813
0.083606 0.072996 0.087616
0.157563 0.076197 0.088702
0.232811 0.078339 0.089733
0.401856 0.082765 0.091725
0.522946 0.088038 0.093799
0.573530 0.090469 0.094742
0.620167 0.094798 0.096470
0.674458 0.102136 0.099378
0.706009 0.106721 0.101276
0.724832 0.110332 0.103133
0.744399 0.117524 0.105462
0.764089 0.126917 0.108429
0.777575 0.131622 0.110564
0.788170 0.139744 0.112735
0.795682 0.151393 0.115368
0.802393 0.164048 0.118593
0.807948 0.169158 0.120823
0.812095 0.174437 0.123643
0.815403 0.180786 0.127136
0.818596 0.185287 0.131343
0.821797 0.183457 0.135703
0.823783 0.182380 0.142507
0.825429 0.179471 0.152425
0.828270 0.162918 0.171826
0.828812 0.167087 0.266162
0.832662 0.217763 0.595092
0.830383 0.212998 0.590724
0.828115 0.208415 0.585691
0.825856 0.203943 0.580708
0.825668 0.435482 0.661719
0.062409 0.073230 0.086138
0.064399 0.072267 0.086245
0.069239 0.071228 0.086331
0.083649 0.073428 0.087551
0.140528 0.076809 0.088733
0.203005 0.078794 0.089747
0.374960 0.083210 0.091727
0.504003 0.088494 0.093800
0.559671 0.090848 0.094741
0.612572 0.095202 0.096464
0.668414 0.102594 0.099360
0.702520 0.107124 0.101250
0.722001 0.110915 0.103111
0.742114 0.118016 0.105442
0.762261 0.127402 0.108409
0.776084 0.132075 0.110538
0.787279 0.140813 0.112710
0.794955 0.152218 0.115342
0.801797 0.164883 0.118566
0.807495 0.169971 0.120785
0.811713 0.175234 0.123601
0.815079 0.181577 0.127081
0.818318 0.186077 0.131278
0.821555 0.184235 0.135591
0.823571 0.183136 0.142350
0.825243 0.180191 0.152119
0.828103 0.163482 0.170853
0.828666 0.166936 0.261692
0.832538 0.217509 0.594863
0.830270 0.212769 0.590473
0.828011 0.208209 0.585463
0.825761 0.203758 0.580500
0.825581 0.435237 0.661554
0.062522 0.074541 0.086255
0.063243 0.074315 0.086534
0.065103 0.073331 0.086385
0.072681 0.074908 0.087412
0.098129 0.078936 0.088641
0.143093 0.080554 0.089654
0.285727 0.084995 0.091732
0.444818 0.090607 0.093886
0.514303 0.092940 0.094802
0.586178 0.097110 0.096479
0.646188 0.104439 0.099324
0.684712 0.108712 0.101184
0.711677 0.113183 0.103050
0.733770 0.120030 0.105383
0.755592 0.129241 0.108348
0.770652 0.134733 0.110456
0.783288 0.144853 0.112628
0.792317 0.155309 0.115257
0.799640 0.167997 0.118474
0.805809 0.172991 0.120655
0.810337 0.178188 0.123458
0.813914 0.184504 0.126893
0.817319 0.189860 0.131052
0.820688 0.187330 0.135202
0.822815 0.185927 0.141803
0.824576 0.182858 0.151060
0.827504 0.165633 0.167557
0.828142 0.166655 0.246534
0.832098 0.216603 0.594044
0.829868 0.211952 0.589580
0.827643 0.207475 0.584649
0.825423 0.203099 0.579758
0.825269 0.434358 0.660964
0.063128 0.082076 0.087016
0.063552 0.081839 0.087302
0.065432 0.080662 0.087534
0.068884 0.078952 0.087590
0.080201 0.082736 0.088702
0.097963 0.083674 0.089657
0.162756 0.088224 0.091650
0.334425 0.094317 0.093875
0.427163 0.096554 0.094864
0.522371 0.100825 0.096553
0.606932 0.108517 0.099362
0.651325 0.113686 0.101173
0.687795 0.118035 0.103016
0.717777 0.124678 0.105330
0.742813 0.133055 0.108278
0.760273 0.143419 0.110349
0.774852 0.151745 0.112513
0.787327 0.161549 0.115130
0.795590 0.174220 0.118330
0.802445 0.178980 0.120446
0.807781 0.184010 0.123222
0.811759 0.191540 0.126582
0.815478 0.197544 0.130670
0.819093 0.194854 0.134542
0.821427 0.193069 0.140873
0.823354 0.188661 0.149277
0.826408 0.170077 0.163519
0.827185 0.167219 0.224482
0.831299 0.214970 0.592561
0.829137 0.210476 0.587958
0.826974 0.206146 0.583171
0.824808 0.201908 0.578408
0.824702 0.432758 0.659892
0.063938 0.098716 0.088085
0.064531 0.098329 0.088436
0.066432 0.097092 0.088893
0.070126 0.094165 0.089356
0.076483 0.090972 0.089771
0.084107 0.088555 0.089954
0.112101 0.093176 0.091704
0.193089 0.099978 0.093890
0.313509 0.101705 0.094957
0.429927 0.105752 0.096644
0.547969 0.115243 0.099522
0.606997 0.120512 0.101309
0.648493 0.125075 0.103085
0.689753 0.131365 0.105360
0.722163 0.149574 0.108272
0.743496 0.156549 0.110295
0.761320 0.163131 0.112424
0.776937 0.172387 0.115009
0.789244 0.184860 0.118173
0.797229 0.189998 0.120201
0.803608 0.196268 0.122932
0.808487 0.204449 0.126232
0.812703 0.210386 0.130174
0.816703 0.207402 0.133680
0.819357 0.205258 0.139654
0.821537 0.200395 0.147315
0.824778 0.177905 0.158658
0.825763 0.170549 0.201503
0.830130 0.212607 0.590198
0.828066 0.208329 0.585588
0.825991 0.204209 0.581007
0.823905 0.200234 0.576429
0.823868 0.430410 0.658317
0.064791 0.115103 0.089355
0.065130 0.114196 0.089619
0.066788 0.112379 0.090001
0.069792 0.108159 0.090621
0.074358 0.103050 0.090674
0.081180 0.099058 0.091135
0.095908 0.101021 0.092218
0.138386 0.107931 0.094251
0.200818 0.108408 0.095153
0.332761 0.112919 0.096752
0.462059 0.124149 0.099609
0.545509 0.128987 0.101477
0.603077 0.132694 0.103296
0.650159 0.146121 0.105513
0.696977 0.162716 0.108320
0.722419 0.170823 0.110312
0.742683 0.178811 0.112411
0.760692 0.191303 0.114968
0.777492 0.207854 0.118070
0.789611 0.212106 0.119997
0.797430 0.217413 0.122660
0.803636 0.225080 0.125874
0.808858 0.230729 0.129642
0.813425 0.227214 0.132855
0.816544 0.224484 0.138309
0.819082 0.219033 0.145262
0.822579 0.192312 0.153745
0.823855 0.179264 0.181340
0.828597 0.209563 0.586812
0.826660 0.205540 0.582484
0.824698 0.201686 0.578169
0.824773 0.390453 0.573828
0.822766 0.427326 0.656241
0.066059 0.164392 0.091500
0.066543 0.164560 0.091822
0.068238 0.160321 0.092530
0.070838 0.148509 0.092948
0.075650 0.131146 0.093182
0.081973 0.123370 0.093320
0.091843 0.117253 0.093677
0.115508 0.121291 0.094909
0.152305 0.120178 0.095729
0.234203 0.124529 0.097196
0.382240 0.136226 0.099908
0.469799 0.146704 0.101830
0.543254 0.151830 0.103464
0.605375 0.162510 0.105646
0.657614 0.180155 0.108465
0.695191 0.190045 0.110510
0.721620 0.197580 0.112488
0.743622 0.210898 0.114951
0.762732 0.230910 0.118002
0.777814 0.238635 0.119870
0.789023 0.248112 0.122484
0.796580 0.257967 0.125603
0.803364 0.262764 0.129186
0.809063 0.258264 0.132232
0.812870 0.254532 0.137052
0.815911 0.248339 0.143345
0.819747 0.220787 0.149620
0.821417 0.200221 0.165947
0.826723 0.205965 0.582709
0.824936 0.202173 0.578698
0.823109 0.198626 0.574695
0.823305 0.386804 0.570638
0.821408 0.423547 0.653687
0.067713 0.254756 0.093763
0.068126 0.254938 0.093979
0.069725 0.253859 0.094730
0.072528 0.231537 0.095303
0.077118 0.205781 0.095621
0.083542 0.182681 0.096004
0.093644 0.167127 0.096220
0.109200 0.155647 0.096635
0.127310 0.136790 0.096519
0.179693 0.141690 0.097867
0.297296 0.161744 0.100387
0.402353 0.168063 0.102313
0.474817 0.171966 0.103859
0.552722 0.182262 0.105954
0.616345 0.204530 0.108662
0.657770 0.214510 0.110669
0.694930 0.223524 0.112644
0.721823 0.239614 0.115091
0.744563 0.260666 0.118062
0.763136 0.265555 0.119843
0.778270 0.272662 0.122367
0.789251 0.282676 0.125412
0.796791 0.292156 0.128870
0.803387 0.294280 0.131797
0.808020 0.297853 0.136142
0.811824 0.291754 0.141906
0.816110 0.268950 0.147382
0.818342 0.243959 0.158435
0.824545 0.202229 0.578045
0.822923 0.198334 0.574308
0.821250 0.195107 0.570651
0.821580 0.382472 0.566910
0.819810 0.419137 0.650689
0.068518 0.305396 0.094759
0.068826 0.305451 0.094989
0.069929 0.299848 0.095623
0.072430 0.283649 0.096249
0.076421 0.261599 0.096706
0.081779 0.235722 0.097056
0.089750 0.212376 0.097478
0.101821 0.192635 0.097800
0.120006 0.180039 0.098276
0.151206 0.172743 0.098857
0.234324 0.189875 0.101213
0.336653 0.196077 0.102987
0.413856 0.199315 0.104422
0.492860 0.211695 0.106359
0.574668 0.236054 0.109012
0.618860 0.245073 0.111026
0.658738 0.253945 0.112912
0.697483 0.269569 0.115283
0.724931 0.288455 0.118190
0.745410 0.295358 0.119971
0.762643 0.305162 0.122460
0.778068 0.312782 0.125377
0.789532 0.319316 0.128687
0.797403 0.319607 0.131459
0.803138 0.321490 0.135429
0.807533 0.323533 0.140896
0.811928 0.316924 0.146347
0.814451 0.311058 0.155485
0.822209 0.211834 0.574185
0.820663 0.194586 0.569532
0.819152 0.191300 0.566143
0.819628 0.377617 0.562720
0.817997 0.414177 0.647297
0.069581 0.371782 0.096545
0.069784 0.369669 0.096659
0.070730 0.361195 0.097074
0.073091 0.348718 0.097812
0.076701 0.328465 0.098433
0.081699 0.309285 0.098896
0.088603 0.285824 0.099298
0.099523 0.263605 0.099648
0.115071 0.243048 0.100017
0.139372 0.227250 0.100465
0.193789 0.239618 0.102642
0.276023 0.236621 0.103852
0.359174 0.237032 0.105072
0.436493 0.248112 0.106909
0.523122 0.273044 0.109620
0.582791 0.279756 0.111500
0.622504 0.286221 0.113308
0.664052 0.299007 0.115591
0.703472 0.318802 0.118457
0.726230 0.324116 0.120246
0.746936 0.329126 0.122575
0.764144 0.340439 0.125445
0.778561 0.353759 0.128702
0.789911 0.354744 0.131331
0.797048 0.354749 0.134958
0.802552 0.355351 0.140058
0.807955 0.345747 0.144968
0.810990 0.336980 0.152443
0.814143 0.321829 0.164395
0.815965 0.310792 0.210491
0.817784 0.330734 0.525685
0.817482 0.373100 0.560274
0.815998 0.408763 0.643568
0.071257 0.452412 0.099241
0.071520 0.450305 0.099326
0.072551 0.443948 0.099661
0.075110 0.434424 0.100352
0.078519 0.418499 0.101130
0.083168 0.399027 0.101884
0.090678 0.378931 0.102538
0.101570 0.358903 0.103074
0.117273 0.336225 0.103544
0.141941 0.319703 0.104099
0.182402 0.305338 0.104750
0.235804 0.290688 0.105279
0.304016 0.279633 0.105886
0.395531 0.287941 0.107560
0.473321 0.310429 0.110373
0.535860 0.315227 0.112145
0.589342 0.319010 0.113803
0.630611 0.328680 0.115985
0.673438 0.350292 0.118816
0.706175 0.354864 0.120605
0.728663 0.361414 0.122887
0.748387 0.371830 0.125677
0.766024 0.379198 0.128787
0.780670 0.381320 0.131311
0.790103 0.386060 0.134774
0.796341 0.392075 0.139585
0.802968 0.383113 0.144027
0.807028 0.374824 0.150148
0.810647 0.359376 0.159520
0.812904 0.339005 0.185035
0.815159 0.324123 0.461852
0.815180 0.369846 0.561949
0.813845 0.367452 0.561428
0.072410 0.491194 0.100662
0.072628 0.489376 0.100764
0.073503 0.483685 0.101161
0.075765 0.476750 0.102008
0.078727 0.465699 0.102840
0.083083 0.452835 0.103679
0.089984 0.437062 0.104459
0.099669 0.416634 0.105011
0.113489 0.397146 0.105516
0.133411 0.379502 0.105999
0.168459 0.364144 0.106530
0.213053 0.351428 0.107167
0.273204 0.329253 0.107291
0.349431 0.326530 0.108328
0.429019 0.347912 0.111264
0.492030 0.350775 0.112875
0.549415 0.354414 0.114474
0.600293 0.363495 0.116568
0.643258 0.379733 0.119214
0.678773 0.382909 0.121073
0.709565 0.390326 0.123347
0.732117 0.398793 0.125988
0.751613 0.408835 0.129075
0.768171 0.413076 0.131522
0.781681 0.415288 0.134816
0.790432 0.419386 0.139368
0.797547 0.417210 0.143489
0.802139 0.416715 0.148778
0.806582 0.406637 0.156825
0.809441 0.386026 0.171240
0.812195 0.333249 0.337548
0.812761 0.364002 0.556784
0.811575 0.362775 0.558745
0.073216 0.522876 0.102059
0.073420 0.521306 0.102150
0.074295 0.516255 0.102494
0.076133 0.509442 0.103209
0.078941 0.500530 0.104086
0.082913 0.489254 0.104952
0.088617 0.475710 0.105692
0.097345 0.461285 0.106353
0.109306 0.446786 0.106894
0.126405 0.429136 0.107382
0.154362 0.412310 0.107877
0.187100 0.397496 0.108374
0.248522 0.385605 0.109002
0.316992 0.377980 0.110028
0.398461 0.384836 0.112293
0.453238 0.385710 0.113772
0.511442 0.387251 0.115215
0.569037 0.395683 0.117251
0.615473 0.411160 0.119984
0.650851 0.413384 0.121723
0.685756 0.419390 0.123818
0.714648 0.428761 0.126439
0.736200 0.439967 0.129541
0.755527 0.441829 0.131791
0.770544 0.446606 0.135089
0.782326 0.452490 0.139521
0.791854 0.449048 0.143232
0.797380 0.447017 0.147989
0.802284 0.442886 0.155003
0.805654 0.435939 0.165756
0.808107 0.430175 0.197377
0.810265 0.358144 0.551495
0.809223 0.358344 0.556840
0.074467 0.551217 0.103842
0.074666 0.550269 0.103924
0.075417 0.547155 0.104232
0.076959 0.542646 0.104856
0.079868 0.537830 0.105793
0.083318 0.530235 0.106615
0.088684 0.520529 0.107371
0.096936 0.507126 0.108088
0.107994 0.493071 0.108707
0.123317 0.478776 0.109305
0.147263 0.465289 0.109944
0.183191 0.453091 0.110659
0.230334 0.441775 0.111336
0.292126 0.429973 0.112165
0.372132 0.434957 0.114242
0.419879 0.423805 0.114871
0.475157 0.422194 0.116087
0.534066 0.429217 0.117956
0.590361 0.444068 0.120822
0.624735 0.445537 0.122554
0.660254 0.449334 0.124535
0.695031 0.456283 0.127063
0.720583 0.463618 0.130047
0.741334 0.466495 0.132246
0.758533 0.471343 0.135555
0.772807 0.475392 0.139703
0.785568 0.475623 0.143249
0.791890 0.477523 0.147649
0.797731 0.472173 0.153693
0.801769 0.464980 0.162394
0.804871 0.456898 0.182216
0.806573 0.460282 0.315424
0.807059 0.493852 0.554476
0.076104 0.586173 0.106132
0.076280 0.585357 0.106208
0.076939 0.582637 0.106490
0.078379 0.578510 0.107055
0.081359 0.574605 0.108011
0.084524 0.567405 0.108784
0.090244 0.559883 0.109888
0.098227 0.551055 0.110877
0.108908 0.541619 0.111808
0.124165 0.531855 0.112597
0.148209 0.521650 0.113354
0.182831 0.508503 0.113991
0.227992 0.496510 0.114704
0.288326 0.485989 0.115394
0.352614 0.477096 0.116204
0.403334 0.466709 0.116681
0.445562 0.457967 0.117238
0.502312 0.460308 0.118816
0.561396 0.470774 0.121800
0.601098 0.471378 0.123392
0.635727 0.474694 0.125331
0.671488 0.481221 0.127892
0.704653 0.487920 0.130718
0.726444 0.491381 0.132828
0.746080 0.495131 0.136122
0.761974 0.501258 0.140170
0.776696 0.501828 0.143495
0.786705 0.501843 0.147535
0.793017 0.501269 0.153023
0.797482 0.499936 0.160449
0.801196 0.490382 0.173735
0.803406 0.481309 0.229387
0.804430 0.494880 0.541913
0.076903 0.607895 0.107247
0.077058 0.607183 0.107316
0.077637 0.604780 0.107570
0.079040 0.601000 0.108073
0.081561 0.596992 0.108908
0.084700 0.591252 0.110051
0.090343 0.585058 0.111356
0.097234 0.576510 0.112290
0.107005 0.567787 0.113239
0.120865 0.558874 0.114172
0.140931 0.549510 0.114886
0.171954 0.540402 0.115590
0.209361 0.531918 0.116288
0.268328 0.523993 0.116983
0.328362 0.514345 0.117683
0.385136 0.505954 0.118478
0.424912 0.495756 0.118921
0.475879 0.491929 0.120155
0.532847 0.498700 0.122902
0.579563 0.498744 0.124411
0.613434 0.500979 0.126176
0.648930 0.506920 0.128790
0.683679 0.513256 0.131519
0.711717 0.515961 0.133611
0.732695 0.520276 0.136900
0.750693 0.525609 0.140787
0.767457 0.526075 0.143875
0.778927 0.528064 0.147758
0.788221 0.527569 0.152776
0.793499 0.525213 0.159176
0.797503 0.522879 0.169365
0.799940 0.522349 0.199679
0.801581 0.511768 0.483141
0.077595 0.628515 0.108211
0.077734 0.627890 0.108274
0.078349 0.625759 0.108505
0.079637 0.622316 0.108956
0.081809 0.618377 0.109973
0.084976 0.613901 0.111227
0.089577 0.607352 0.112343
0.096182 0.600208 0.113448
0.105309 0.592397 0.114470
0.117496 0.583967 0.115396
0.134449 0.575269 0.116247
0.162494 0.566514 0.116989
0.193506 0.558079 0.117673
0.246271 0.550180 0.118384
0.302225 0.542881 0.119074
0.361553 0.536479 0.119872
0.410814 0.531023 0.120921
0.457440 0.527622 0.122248
0.510642 0.528908 0.124497
0.551974 0.525480 0.125422
0.593778 0.526760 0.127226
0.627959 0.530362 0.129773
0.662991 0.534583 0.132425
0.695050 0.536096 0.134671
0.719039 0.539242 0.137846
0.739012 0.542993 0.141522
0.757313 0.544516 0.144479
0.770846 0.545958 0.148075
0.782291 0.546525 0.152821
0.789164 0.546730 0.158602
0.793872 0.543822 0.166599
0.796819 0.540604 0.187365
0.798492 0.546670 0.331589
0.078601 0.649815 0.109560
0.078760 0.649481 0.109640
0.079348 0.648316 0.109933
0.080497 0.646379 0.110501
0.082404 0.642694 0.111421
0.085845 0.639344 0.112775
0.089852 0.632830 0.113757
0.096524 0.626888 0.115011
0.104917 0.619561 0.116060
0.116053 0.611574 0.116989
0.131694 0.603448 0.117908
0.157394 0.595128 0.118720
0.184609 0.586985 0.119508
0.233655 0.578962 0.120372
0.289038 0.571624 0.121352
0.348369 0.564862 0.122272
0.399414 0.558851 0.123211
0.439209 0.553804 0.124270
0.491696 0.554410 0.126459
0.532195 0.548794 0.127101
0.573218 0.545991 0.128339
0.609104 0.549222 0.130823
0.643130 0.553009 0.133481
0.675394 0.554175 0.135855
0.705625 0.557232 0.138925
0.726834 0.560709 0.142433
0.746827 0.562355 0.145208
0.762262 0.564010 0.148585
0.775066 0.565974 0.153205
0.784694 0.564911 0.158365
0.790252 0.564287 0.165401
0.793541 0.564354 0.180803
0.795704 0.562800 0.250912
0.079922 0.665632 0.111559
0.080068 0.665348 0.111634
0.080604 0.664364 0.111909
0.081644 0.662711 0.112437
0.083348 0.660640 0.113285
0.086774 0.658664 0.114544
0.091041 0.655456 0.115634
0.097394 0.652075 0.116880
0.105259 0.647930 0.117968
0.116524 0.641950 0.119054
0.131841 0.634302 0.120156
0.156742 0.626447 0.121384
0.183417 0.618402 0.122432
0.228883 0.610589 0.123426
0.284204 0.603043 0.124341
0.342891 0.596195 0.125366
0.391859 0.589919 0.126315
0.429860 0.584198 0.127339
0.475074 0.579516 0.128584
0.516116 0.573496 0.129160
0.554401 0.569494 0.130190
0.592220 0.568231 0.131907
0.625022 0.571600 0.134831
0.656953 0.572515 0.137113
0.688562 0.574999 0.140040
0.714587 0.578407 0.143451
0.735965 0.579836 0.146033
0.753064 0.582156 0.149380
0.768055 0.583433 0.153645
0.778762 0.583990 0.158480
0.786668 0.584107 0.164816
0.790549 0.582374 0.176891
0.792946 0.583807 0.215956
0.080380 0.676935 0.112194
0.080514 0.676682 0.112266
0.081004 0.675802 0.112528
0.081950 0.674300 0.113030
0.083497 0.672354 0.113827
0.086531 0.670338 0.114998
0.090912 0.667797 0.116237
0.096204 0.664364 0.117362
0.104001 0.660882 0.118594
0.114349 0.656954 0.119815
0.127409 0.652482 0.121074
0.148259 0.647916 0.122330
0.177838 0.641330 0.123501
0.212321 0.633809 0.124569
0.265282 0.626545 0.125590
0.318815 0.619544 0.126532
0.370520 0.613199 0.127674
0.414423 0.607481 0.128803
0.456592 0.602243 0.129880
0.499180 0.597965 0.131110
0.538382 0.593337 0.132063
0.579360 0.591582 0.133915
0.609047 0.590703 0.136347
0.639526 0.590969 0.138397
0.671373 0.593080 0.141233
0.702519 0.596024 0.144506
0.724689 0.597411 0.146941
0.743459 0.599797 0.150333
0.760438 0.601315 0.154305
0.772653 0.602465 0.158779
0.782103 0.602446 0.164456
0.787502 0.602770 0.174731
0.790341 0.602519 0.201170
0.080862 0.688170 0.112843
0.080985 0.687948 0.112912
0.081437 0.687171 0.113165
0.082305 0.685830 0.113646
0.083754 0.684049 0.114405
0.086499 0.682101 0.115510
0.091077 0.680137 0.116912
0.095622 0.676813 0.117946
0.103539 0.673901 0.119338
0.111988 0.669918 0.120622
0.124659 0.666047 0.122101
0.143883 0.661928 0.123478
0.170832 0.657514 0.124699
0.200025 0.653061 0.125793
0.249560 0.648746 0.126936
0.300324 0.643408 0.128116
0.355307 0.636920 0.129218
0.402233 0.631003 0.130355
0.440010 0.625778 0.131516
0.482023 0.620995 0.132610
0.523986 0.617070 0.134053
0.563058 0.614452 0.136229
0.597215 0.613249 0.138604
0.624409 0.610367 0.139919
0.655015 0.611126 0.142425
0.686387 0.613779 0.145629
0.713466 0.615043 0.147914
0.733624 0.617039 0.151308
0.752272 0.619035 0.155108
0.766516 0.619943 0.159147
0.777176 0.621075 0.164436
0.784101 0.620900 0.173264
0.787831 0.621487 0.193520
0.081456 0.699411 0.113642
0.081571 0.699220 0.113709
0.081990 0.698550 0.113955
0.082793 0.697383 0.114421
0.084198 0.695806 0.115152
0.086768 0.694018 0.116208
0.091292 0.692367 0.117672
0.095705 0.689495 0.118754
0.102461 0.686582 0.120217
0.111160 0.683276 0.121807
0.123458 0.679773 0.123390
0.139498 0.675828 0.124736
0.165145 0.671834 0.126086
0.191588 0.667704 0.127431
0.238409 0.663540 0.128701
0.289112 0.659546 0.130009
0.344834 0.655660 0.131184
0.391524 0.652010 0.132343
0.427035 0.648614 0.133596
0.469923 0.645204 0.135208
0.510425 0.640842 0.136746
0.548203 0.637215 0.138376
0.586353 0.635306 0.140703
0.612609 0.632283 0.141916
0.640611 0.630436 0.143875
0.670955 0.631406 0.146717
0.702554 0.632694 0.148920
0.723591 0.634435 0.152382
0.743740 0.636406 0.155981
0.759969 0.637528 0.159694
0.772317 0.638707 0.164539
0.780238 0.639104 0.172413
0.785174 0.640258 0.188940
0.081903 0.710478 0.114154
0.082011 0.710312 0.114221
0.082403 0.709725 0.114464
0.083151 0.708696 0.114923
0.084512 0.707283 0.115639
0.086931 0.705630 0.116668
0.091030 0.703990 0.118083
0.095810 0.701731 0.119384
0.101715 0.698904 0.120956
0.110757 0.696153 0.122840
0.121149 0.692661 0.124284
0.136690 0.689192 0.125843
0.161575 0.685574 0.127478
0.183502 0.681629 0.128919
0.227536 0.677680 0.130276
0.279785 0.673818 0.131614
0.331242 0.670096 0.132932
0.378341 0.666527 0.134521
0.417522 0.663177 0.136130
0.458454 0.660075 0.137725
0.497987 0.657397 0.139347
0.535973 0.655005 0.140962
0.573258 0.652986 0.142593
0.601704 0.651001 0.143751
0.628783 0.649621 0.145650
0.657516 0.648959 0.148095
0.687731 0.648747 0.150039
0.713510 0.649665 0.153382
0.735044 0.650801 0.156870
0.753035 0.651630 0.160358
0.767386 0.652296 0.164694
0.776415 0.652920 0.171982
0.782142 0.653241 0.185867
0.081833 0.720878 0.113720
0.081934 0.720726 0.113787
0.082303 0.720190 0.114031
0.083004 0.719242 0.114492
0.084242 0.717918 0.115209
0.086405 0.716317 0.116233
0.090019 0.714623 0.117633
0.095064 0.712734 0.119197
0.100302 0.709980 0.120645
0.108530 0.707375 0.122645
0.118139 0.704176 0.124229
0.132601 0.700965 0.125971
0.152834 0.697400 0.127526
0.181048 0.693833 0.129232
0.215054 0.690154 0.130806
0.263172 0.686413 0.132156
0.311564 0.682801 0.133659
0.361959 0.679322 0.135420
0.406231 0.676044 0.137142
0.442780 0.672986 0.138776
0.483095 0.670208 0.140414
0.522224 0.667770 0.142011
0.558032 0.665688 0.143670
0.591543 0.663936 0.145339
0.617710 0.662279 0.147218
0.645619 0.661332 0.149809
0.674965 0.660504 0.151535
0.703571 0.660107 0.154276
0.725943 0.661127 0.157566
0.745747 0.662010 0.161077
0.762248 0.662750 0.164965
0.772741 0.663227 0.171392
0.779242 0.663868 0.183749
0.081851 0.729853 0.113334
0.081946 0.729722 0.113401
0.082292 0.729258 0.113647
0.082949 0.728431 0.114109
0.084088 0.727265 0.114825
0.086044 0.725829 0.115845
0.089252 0.724253 0.117233
0.094676 0.722755 0.119081
0.099330 0.720216 0.120450
0.106431 0.717696 0.122368
0.116294 0.715006 0.124326
0.128252 0.711877 0.125974
0.147344 0.708692 0.127824
0.174319 0.705369 0.129682
0.201466 0.701887 0.131262
0.248401 0.698409 0.132819
0.296204 0.694955 0.134708
0.350950 0.691571 0.136635
0.397034 0.688354 0.138410
0.429947 0.685345 0.140162
0.470252 0.682572 0.141824
0.509009 0.680082 0.143467
0.544582 0.677859 0.145078
0.581331 0.676037 0.146790
0.607342 0.674503 0.148505
0.634312 0.673239 0.151383
0.663528 0.672498 0.153013
0.691836 0.671524 0.155504
0.716769 0.671284 0.158165
0.738049 0.672063 0.161388
0.756861 0.672916 0.165226
0.769133 0.673431 0.170942
0.776486 0.673999 0.181993
0.081802 0.738168 0.112666
0.081891 0.738056 0.112735
0.082216 0.737656 0.112986
0.082832 0.736942 0.113458
0.083870 0.735925 0.114188
0.085625 0.734653 0.115224
0.088536 0.733219 0.116630
0.093457 0.731778 0.118495
0.098509 0.729749 0.120116
0.104706 0.727392 0.121988
0.115018 0.725132 0.124361
0.125084 0.722185 0.125948
0.143799 0.719314 0.128118
0.166724 0.716134 0.129880
0.192510 0.712956 0.131776
0.237088 0.709684 0.133542
0.285701 0.706418 0.135655
0.338320 0.703186 0.137705
0.382609 0.700043 0.139640
0.419234 0.697089 0.141494
0.458791 0.694341 0.143281
0.496507 0.691843 0.145011
0.533062 0.689589 0.146682
0.567960 0.687597 0.148324
0.597498 0.686003 0.150385
0.623642 0.684664 0.152555
0.652190 0.684063 0.154090
0.680411 0.682894 0.156592
0.708686 0.682434 0.159022
0.730141 0.682020 0.161656
0.750951 0.682713 0.165195
0.765505 0.683349 0.170413
0.774074 0.683896 0.180534
0.080913 0.748879 0.109810
0.080996 0.748772 0.109887
0.081300 0.748392 0.110168
0.081876 0.747706 0.110695
0.082783 0.746711 0.111511
0.084234 0.745430 0.112671
0.086764 0.743916 0.114248
0.091066 0.742272 0.116348
0.096513 0.740380 0.118398
0.101785 0.738039 0.119976
0.110355 0.735660 0.122421
0.121103 0.733011 0.124567
0.135168 0.730138 0.126533
0.158222 0.727152 0.128729
0.183340 0.724036 0.130776
0.220024 0.720897 0.132592
0.270728 0.717761 0.134835
0.319285 0.714642 0.137055
0.365689 0.711592 0.139103
0.408062 0.708690 0.141072
0.443932 0.705984 0.142960
0.482715 0.703500 0.144782
0.520980 0.701265 0.146545
0.555130 0.699295 0.148260
