negative-ektar-100/Ektar100_Classic_Soft.cube
TITLE "Kodak Ektar 100 Classic Soft"
# Adobe RGB in/out. REPLACES AgX. Kodak Ektar 100 Classic Soft.
LUT_3D_SIZE 33
DOMAIN_MIN 0.0 0.0 0.0
DOMAIN_MAX 1.0 1.0 1.0
0.061862 0.068788 0.085817
0.067863 0.071149 0.086140
0.075295 0.074001 0.087010
0.083872 0.077279 0.087942
0.095480 0.080979 0.089241
0.110365 0.084988 0.090512
0.129490 0.089349 0.092112
0.158032 0.094112 0.093486
0.186050 0.099464 0.094756
0.233215 0.105022 0.096318
0.283305 0.110629 0.097969
0.329238 0.118856 0.099600
0.368565 0.127117 0.101352
0.404604 0.136628 0.103408
0.430594 0.153369 0.105350
0.456730 0.168202 0.107190
0.479035 0.183373 0.108940
0.500842 0.203224 0.111239
0.521465 0.225077 0.113457
0.538960 0.247906 0.115596
0.556100 0.271481 0.117662
0.572909 0.292748 0.119716
0.586884 0.314575 0.122301
0.597460 0.332157 0.124824
0.607764 0.355336 0.127388
0.617814 0.371566 0.130159
0.627627 0.387823 0.132878
0.637216 0.404138 0.136405
0.646595 0.420509 0.139998
0.655776 0.436933 0.143555
0.664485 0.450967 0.147077
0.672323 0.463321 0.150970
0.680001 0.475606 0.155244
0.063371 0.073394 0.086004
0.068054 0.073985 0.086269
0.075397 0.075922 0.087127
0.083943 0.078752 0.088039
0.095556 0.082234 0.089312
0.110437 0.085986 0.090581
0.129560 0.090112 0.092159
0.158121 0.094881 0.093521
0.186153 0.100174 0.094793
0.233312 0.105657 0.096347
0.283362 0.111495 0.097999
0.329323 0.119607 0.099624
0.368623 0.127734 0.101382
0.404636 0.137987 0.103434
0.430629 0.154371 0.105372
0.456758 0.169146 0.107209
0.479057 0.184267 0.108957
0.500862 0.204382 0.111260
0.521480 0.226208 0.113476
0.538974 0.249012 0.115612
0.556113 0.272417 0.117677
0.572921 0.293655 0.119735
0.586892 0.315339 0.122318
0.597467 0.332875 0.124840
0.607770 0.355941 0.127405
0.617820 0.372120 0.130175
0.627632 0.388354 0.132893
0.637221 0.404647 0.136424
0.646600 0.420998 0.140016
0.655780 0.437404 0.143572
0.664489 0.451307 0.147094
0.672327 0.463646 0.150989
0.680004 0.475917 0.155262
0.065017 0.079310 0.086539
0.068665 0.079632 0.086827
0.075755 0.080934 0.087458
0.084194 0.083147 0.088352
0.095825 0.085828 0.089555
0.110694 0.089213 0.090819
0.129813 0.093124 0.092324
0.158440 0.097734 0.093641
0.186523 0.102725 0.094925
0.233660 0.107831 0.096452
0.283569 0.114509 0.098104
0.329626 0.122401 0.099711
0.368832 0.129897 0.101487
0.404751 0.142836 0.103524
0.430756 0.157935 0.105450
0.456858 0.172510 0.107277
0.479136 0.187798 0.109041
0.500934 0.208529 0.111334
0.521535 0.230260 0.113543
0.539025 0.252977 0.115673
0.556159 0.275768 0.117732
0.572964 0.296902 0.119802
0.586918 0.317820 0.122380
0.597491 0.336098 0.124897
0.607793 0.358021 0.127466
0.617841 0.374103 0.130232
0.627652 0.390253 0.132947
0.637239 0.406469 0.136493
0.646617 0.422748 0.140081
0.655796 0.439088 0.143634
0.664502 0.452525 0.147152
0.672339 0.464810 0.151058
0.680016 0.477031 0.155328
0.066819 0.086530 0.087379
0.069566 0.086801 0.087509
0.076376 0.087732 0.087971
0.084645 0.089285 0.088838
0.096315 0.091484 0.089950
0.111165 0.094590 0.091226
0.130277 0.098336 0.092612
0.159025 0.102515 0.093854
0.187203 0.106991 0.095162
0.234302 0.112373 0.096639
0.283948 0.119494 0.098294
0.330184 0.126910 0.099868
0.369216 0.134519 0.101680
0.404962 0.150562 0.103690
0.430990 0.164361 0.105593
0.457043 0.178592 0.107403
0.479282 0.195561 0.109193
0.501067 0.216112 0.111471
0.521637 0.237674 0.113666
0.539118 0.260235 0.115784
0.556245 0.281890 0.117834
0.573044 0.302839 0.119925
0.586966 0.322343 0.122494
0.597536 0.342000 0.125002
0.607834 0.361806 0.127578
0.617879 0.377724 0.130337
0.627687 0.393724 0.133045
0.637273 0.409801 0.136619
0.646648 0.425951 0.140201
0.655826 0.442170 0.143747
0.664527 0.454751 0.147260
0.672363 0.466940 0.151185
0.680038 0.479071 0.155450
0.068689 0.094763 0.088184
0.070793 0.094974 0.088324
0.077229 0.095749 0.088754
0.085327 0.097259 0.089566
0.097035 0.099353 0.090449
0.111863 0.102021 0.091768
0.130968 0.105233 0.093009
0.159898 0.108726 0.094154
0.188219 0.113927 0.095500
0.235260 0.120058 0.096935
0.284515 0.126625 0.098570
0.331019 0.132765 0.100098
0.369790 0.147637 0.101963
0.405278 0.160400 0.103933
0.431340 0.173684 0.105805
0.457318 0.187792 0.107589
0.479499 0.207043 0.109419
0.501266 0.227341 0.111673
0.521788 0.248667 0.113848
0.539257 0.270879 0.115950
0.556374 0.290945 0.117984
0.573162 0.311629 0.120108
0.587039 0.329017 0.122663
0.597603 0.350767 0.125159
0.607896 0.367393 0.127746
0.617937 0.383076 0.130493
0.627741 0.398858 0.133198
0.637323 0.414734 0.136807
0.646695 0.430696 0.140379
0.655870 0.445951 0.143917
0.664564 0.458047 0.147421
0.672397 0.470095 0.151374
0.680070 0.482095 0.155631
0.070436 0.104546 0.089213
0.072534 0.104729 0.089332
0.078373 0.105375 0.089719
0.086364 0.106528 0.090309
0.097987 0.108171 0.091294
0.112795 0.110411 0.092404
0.131894 0.114445 0.093492
0.161074 0.118850 0.094529
0.189591 0.124141 0.095930
0.236555 0.129184 0.097370
0.285280 0.136383 0.098930
0.332146 0.149505 0.100400
0.370565 0.160995 0.102335
0.405704 0.173107 0.104255
0.431812 0.185793 0.106086
0.457690 0.203412 0.107836
0.479792 0.222331 0.109721
0.501534 0.242315 0.111944
0.521993 0.263346 0.114092
0.539445 0.283287 0.116171
0.556547 0.302994 0.118186
0.573323 0.321538 0.120354
0.587136 0.339726 0.122891
0.597693 0.359559 0.125370
0.607980 0.374809 0.127971
0.618014 0.390190 0.130704
0.627813 0.405692 0.133466
0.637390 0.421306 0.137060
0.646758 0.437025 0.140619
0.655929 0.450542 0.144145
0.664614 0.462440 0.147638
0.672444 0.474304 0.151629
0.680115 0.486133 0.155876
0.072610 0.116515 0.090235
0.074513 0.116737 0.090316
0.079859 0.117485 0.090658
0.087610 0.118774 0.091333
0.099163 0.120906 0.092174
0.113961 0.123765 0.093096
0.133061 0.126886 0.094037
0.162564 0.130401 0.095146
0.191334 0.136096 0.096439
0.238200 0.146913 0.097893
0.286250 0.156193 0.099366
0.333579 0.166248 0.100853
0.371549 0.177019 0.102795
0.406245 0.189135 0.104654
0.432346 0.205449 0.106435
0.458104 0.222889 0.108143
0.480165 0.241433 0.110098
0.501875 0.261059 0.112283
0.522253 0.280144 0.114399
0.539684 0.298745 0.116450
0.556767 0.317370 0.118440
0.573527 0.333067 0.120665
0.587261 0.354406 0.123177
0.597807 0.369169 0.125636
0.608086 0.384032 0.128255
0.618113 0.399053 0.130970
0.627905 0.414218 0.133805
0.637476 0.429518 0.137381
0.646839 0.444596 0.140923
0.656005 0.456270 0.144434
0.664677 0.467928 0.147913
0.672504 0.479568 0.151953
0.680171 0.491188 0.156186
0.074996 0.130703 0.091460
0.076580 0.130867 0.091550
0.081456 0.131451 0.091860
0.089074 0.132511 0.092376
0.100550 0.135440 0.093047
0.115358 0.140521 0.093812
0.134699 0.146913 0.094651
0.164375 0.152843 0.095838
0.193461 0.159696 0.097062
0.240206 0.167428 0.098489
0.287430 0.175991 0.099870
0.335327 0.185336 0.101478
0.372749 0.198520 0.103335
0.406904 0.213250 0.105125
0.432978 0.229139 0.106849
0.458603 0.246165 0.108511
0.480619 0.264307 0.110550
0.502291 0.281690 0.112690
0.522571 0.299068 0.114768
0.539975 0.316700 0.116785
0.557036 0.331426 0.118747
0.573776 0.351548 0.121040
0.587412 0.366346 0.123524
0.597947 0.380574 0.125958
0.608215 0.395003 0.128600
0.618234 0.409616 0.131293
0.628018 0.424399 0.134216
0.637581 0.439340 0.137770
0.646937 0.451731 0.141293
0.656097 0.463109 0.144785
0.664754 0.474490 0.148247
0.672577 0.485872 0.152346
0.680240 0.497249 0.156564
0.077287 0.157229 0.092641
0.078711 0.157506 0.092710
0.083114 0.158498 0.092947
0.090977 0.160313 0.093351
0.102165 0.163002 0.093893
0.116980 0.166593 0.094531
0.136829 0.171088 0.095526
0.166511 0.176479 0.096573
0.195981 0.182745 0.097836
0.242585 0.191019 0.099147
0.288826 0.201735 0.100433
0.337399 0.213661 0.102182
0.374171 0.226784 0.103949
0.407685 0.241086 0.105664
0.433726 0.256549 0.107326
0.459194 0.272737 0.108934
0.481157 0.287986 0.111074
0.502784 0.304049 0.113164
0.522947 0.319619 0.115197
0.540321 0.333607 0.117177
0.557355 0.352934 0.119105
0.574071 0.366467 0.121479
0.587592 0.379950 0.123932
0.598113 0.393680 0.126336
0.608369 0.407639 0.129006
0.618377 0.421808 0.131673
0.628151 0.436173 0.134701
0.637706 0.448945 0.138230
0.647054 0.459964 0.141729
0.656207 0.471015 0.145200
0.664846 0.482089 0.148642
0.672663 0.493182 0.152812
0.680321 0.504287 0.157011
0.079775 0.184069 0.093696
0.081057 0.184319 0.093749
0.085060 0.185216 0.093936
0.093032 0.187003 0.094260
0.104183 0.190271 0.094770
0.118976 0.194667 0.095545
0.139276 0.200225 0.096412
0.168976 0.206967 0.097466
0.198903 0.214906 0.098654
0.245343 0.224047 0.099852
0.290440 0.234387 0.101252
0.339804 0.245921 0.102956
0.375818 0.258638 0.104630
0.408588 0.272195 0.106265
0.434593 0.285149 0.107860
0.459878 0.298984 0.109583
0.481781 0.313673 0.111666
0.503355 0.326109 0.113701
0.523383 0.340973 0.115686
0.540722 0.357259 0.117623
0.557724 0.369580 0.119521
0.574413 0.382222 0.121982
0.587800 0.395160 0.124398
0.598306 0.408373 0.126794
0.608547 0.421839 0.129472
0.618542 0.435540 0.132110
0.628305 0.447998 0.135261
0.637850 0.458584 0.138760
0.647189 0.469232 0.142233
0.656334 0.479932 0.145679
0.664952 0.490675 0.149163
0.672763 0.501455 0.153350
0.680416 0.512265 0.157528
0.082219 0.221251 0.094692
0.083279 0.221570 0.094754
0.087519 0.222713 0.094972
0.095223 0.224813 0.095355
0.106387 0.227947 0.095888
0.121233 0.232165 0.096546
0.142035 0.237505 0.097417
0.171770 0.243992 0.098434
0.202235 0.251641 0.099501
0.248489 0.260462 0.100599
0.292275 0.270406 0.102194
0.342189 0.280040 0.103788
0.377695 0.290621 0.105367
0.409616 0.302130 0.106921
0.435580 0.314541 0.108446
0.460658 0.325052 0.110308
0.482491 0.337266 0.112323
0.504007 0.353055 0.114298
0.523881 0.364296 0.116231
0.541179 0.375655 0.118123
0.558146 0.387383 0.120131
0.574803 0.399454 0.122548
0.588038 0.411844 0.124924
0.598525 0.424531 0.127356
0.608751 0.437493 0.129999
0.618732 0.448940 0.132604
0.628482 0.459023 0.135894
0.638015 0.469201 0.139361
0.647344 0.479461 0.142803
0.656479 0.489793 0.146222
0.665074 0.500188 0.149800
0.672878 0.510638 0.153962
0.680524 0.521134 0.158115
0.084698 0.262329 0.095953
0.085897 0.262636 0.096004
0.090237 0.263735 0.096184
0.097919 0.265756 0.096503
0.108757 0.268771 0.096989
0.123706 0.272460 0.097692
0.145102 0.276901 0.098507
0.174893 0.282286 0.099407
0.205983 0.288624 0.100365
0.252028 0.295914 0.101709
0.294592 0.304152 0.103182
0.344107 0.313330 0.104668
0.379804 0.321608 0.106153
0.410769 0.330208 0.107625
0.436689 0.341870 0.109124
0.461534 0.354796 0.111097
0.483290 0.364307 0.113040
0.504739 0.374230 0.114952
0.524440 0.384589 0.116829
0.541693 0.395357 0.118672
0.558620 0.406510 0.120805
0.575243 0.418021 0.123174
0.588305 0.429869 0.125506
0.598772 0.442031 0.127981
0.608980 0.451776 0.130584
0.618945 0.461298 0.133154
0.628681 0.470947 0.136600
0.638201 0.480709 0.140032
0.647518 0.490574 0.143441
0.656642 0.500529 0.146829
0.665211 0.510565 0.150514
0.673007 0.520671 0.154647
0.680645 0.528666 0.158774
0.087730 0.301276 0.097197
0.088856 0.301528 0.097250
0.093220 0.302430 0.097439
0.100709 0.304086 0.097775
0.111636 0.306558 0.098255
0.126520 0.309883 0.098862
0.148745 0.314092 0.099576
0.178343 0.318287 0.100375
0.210151 0.323010 0.101531
0.255964 0.328429 0.102846
0.298118 0.335197 0.104204
0.346235 0.344428 0.105586
0.382147 0.354299 0.106979
0.412049 0.361712 0.108370
0.437920 0.369591 0.110052
0.462507 0.377984 0.111942
0.484178 0.386869 0.113812
0.505553 0.396219 0.115658
0.525062 0.406009 0.117478
0.542264 0.416217 0.119269
0.559148 0.426817 0.121541
0.575732 0.437788 0.123858
0.588603 0.447733 0.126144
0.599047 0.456471 0.128666
0.609235 0.465385 0.131227
0.619182 0.474458 0.133969
0.628902 0.483676 0.137379
0.638408 0.493025 0.140772
0.647712 0.502492 0.144146
0.656825 0.512066 0.147501
0.665363 0.521737 0.151304
0.673150 0.529122 0.155406
0.680781 0.535971 0.159503
0.091108 0.336193 0.098553
0.092295 0.336444 0.098599
0.096378 0.337345 0.098760
0.103810 0.339002 0.099048
0.114765 0.341475 0.099462
0.129769 0.344807 0.099991
0.152877 0.349030 0.100638
0.182116 0.353981 0.101670
0.214743 0.358068 0.102798
0.260302 0.362660 0.103998
0.302004 0.367835 0.105249
0.348571 0.373583 0.106534
0.384725 0.379890 0.107838
0.413455 0.386738 0.109223
0.439274 0.394110 0.111032
0.463578 0.401985 0.112837
0.485155 0.410343 0.114633
0.506450 0.419162 0.116413
0.525747 0.428422 0.118173
0.542894 0.438100 0.120048
0.559730 0.447032 0.122335
0.576271 0.454880 0.124598
0.588931 0.462951 0.126868
0.599351 0.471226 0.129410
0.609517 0.479690 0.131927
0.619444 0.488327 0.134865
0.629146 0.497123 0.138230
0.638636 0.506064 0.141581
0.647926 0.515137 0.144916
0.657026 0.524110 0.148236
0.665532 0.530617 0.152170
0.673309 0.537160 0.156238
0.680930 0.543733 0.160304
0.094579 0.370907 0.099826
0.095722 0.371063 0.099865
0.099870 0.371621 0.100004
0.107155 0.372647 0.100254
0.118112 0.374176 0.100630
0.133224 0.376233 0.101304
0.157344 0.378832 0.102113
0.183325 0.381983 0.103039
0.219764 0.385689 0.104060
0.265046 0.389951 0.105157
0.306251 0.394764 0.106310
0.351116 0.400120 0.107503
0.387541 0.406009 0.108723
0.414988 0.412418 0.110337
0.440752 0.419332 0.112055
0.464746 0.426736 0.113778
0.486222 0.434612 0.115499
0.507430 0.442942 0.117211
0.526496 0.449688 0.118911
0.543583 0.456572 0.120959
0.560366 0.463719 0.123184
0.576861 0.471112 0.125391
0.589290 0.478734 0.127720
0.599683 0.486569 0.130211
0.609824 0.494602 0.132681
0.619730 0.502819 0.135833
0.629413 0.511205 0.139150
0.638886 0.519747 0.142457
0.648160 0.526984 0.145752
0.657246 0.533139 0.149082
0.665716 0.539348 0.153111
0.673483 0.545605 0.157143
0.681094 0.551902 0.161175
0.098458 0.399927 0.101228
0.099576 0.400071 0.101277
0.103542 0.400589 0.101453
0.110789 0.401540 0.101770
0.121865 0.402958 0.102230
0.137799 0.404866 0.102828
0.162138 0.407280 0.103552
0.184307 0.410209 0.104386
0.225215 0.413660 0.105313
0.270197 0.417632 0.106316
0.310864 0.422126 0.107379
0.353869 0.427134 0.108487
0.390593 0.432650 0.109881
0.416647 0.438665 0.111486
0.442353 0.444764 0.113115
0.466012 0.450014 0.114757
0.487380 0.455589 0.116404
0.508493 0.461473 0.118049
0.527308 0.467651 0.119752
0.544331 0.474107 0.121922
0.561057 0.480827 0.124084
0.577502 0.487795 0.126233
0.589680 0.494995 0.128628
0.600043 0.502414 0.131066
0.610159 0.510037 0.133599
0.620042 0.517852 0.136872
0.629704 0.525170 0.140139
0.639158 0.530872 0.143399
0.648415 0.536655 0.146650
0.657485 0.542510 0.150139
0.665917 0.548430 0.154127
0.673672 0.554406 0.158120
0.681273 0.560433 0.162116
0.102395 0.429126 0.102880
0.103552 0.429260 0.102924
0.107487 0.429742 0.103079
0.114861 0.430628 0.103360
0.125803 0.431949 0.103769
0.142771 0.433728 0.104303
0.167251 0.435980 0.104953
0.190358 0.438715 0.105707
0.230951 0.441940 0.106550
0.275759 0.445134 0.107470
0.315842 0.448304 0.108451
0.356828 0.451834 0.109678
0.393882 0.455718 0.111150
0.418431 0.459946 0.112663
0.444077 0.464510 0.114206
0.467376 0.469399 0.115769
0.488628 0.474600 0.117344
0.509640 0.480103 0.118923
0.528185 0.485892 0.120833
0.545138 0.491956 0.122934
0.561803 0.498281 0.125032
0.578194 0.504853 0.127198
0.590101 0.511660 0.129590
0.600433 0.518687 0.131972
0.610521 0.525225 0.134762
0.620378 0.530421 0.137979
0.630018 0.535722 0.141194
0.639452 0.541121 0.144405
0.648691 0.546608 0.147611
0.657744 0.552175 0.151271
0.666134 0.557814 0.155216
0.673876 0.563518 0.159168
0.681466 0.569281 0.163126
0.106733 0.454778 0.104458
0.107790 0.454872 0.104496
0.111798 0.455209 0.104634
0.119165 0.455829 0.104885
0.130337 0.456754 0.105251
0.148213 0.457999 0.105730
0.172675 0.459573 0.106316
0.196850 0.461485 0.107000
0.237106 0.463738 0.107770
0.281732 0.466332 0.108615
0.321204 0.469268 0.109734
0.359991 0.472541 0.111055
0.396951 0.476148 0.112435
0.420339 0.480081 0.113862
0.445923 0.484334 0.115323
0.468838 0.488898 0.116810
0.489966 0.493762 0.118313
0.510871 0.498918 0.119936
0.529125 0.504353 0.121960
0.546005 0.510057 0.123991
0.562605 0.516017 0.126024
0.578938 0.522223 0.128270
0.590553 0.527143 0.130601
0.600852 0.531793 0.132928
0.610909 0.536572 0.135993
0.620740 0.541471 0.139152
0.630356 0.546480 0.142313
0.639768 0.551591 0.145474
0.648987 0.556796 0.148633
0.658023 0.562087 0.152478
0.666367 0.567456 0.156377
0.674096 0.572898 0.160287
0.681673 0.578405 0.164204
0.111305 0.476716 0.105967
0.112452 0.476803 0.106001
0.116417 0.477115 0.106125
0.123783 0.477688 0.106350
0.135386 0.478543 0.106679
0.154389 0.479695 0.107111
0.178400 0.481153 0.107643
0.203783 0.482925 0.108265
0.243680 0.485014 0.108976
0.285679 0.487423 0.110046
0.326976 0.490151 0.111205
0.363356 0.493197 0.112438
0.399194 0.496557 0.113733
0.422370 0.500228 0.115077
0.447890 0.504202 0.116461
0.470396 0.508473 0.117874
0.491393 0.513033 0.119309
0.512184 0.517873 0.121177
0.530129 0.522985 0.123126
0.546930 0.526930 0.125088
0.563461 0.530859 0.127123
0.579733 0.534944 0.129390
0.591037 0.539175 0.131660
0.601299 0.543545 0.134200
0.611325 0.548044 0.137289
0.621127 0.552665 0.140388
0.630717 0.557399 0.143494
0.640106 0.562239 0.146603
0.649304 0.567177 0.149919
0.658321 0.572205 0.153756
0.666617 0.577317 0.157609
0.674331 0.582506 0.161474
0.681896 0.587766 0.165349
0.116266 0.498440 0.107414
0.117336 0.498521 0.107446
0.121422 0.498811 0.107557
0.128872 0.499343 0.107759
0.141589 0.500137 0.108057
0.160853 0.501208 0.108449
0.183239 0.502563 0.108933
0.211157 0.504211 0.109708
0.250673 0.506156 0.110601
0.289805 0.508401 0.111592
0.333121 0.510945 0.112669
0.367197 0.513788 0.113822
0.401567 0.516929 0.115037
0.424659 0.520363 0.116304
0.449978 0.523938 0.117614
0.472050 0.526745 0.118957
0.492910 0.529739 0.120600
0.513581 0.532913 0.122452
0.531198 0.536262 0.124328
0.547916 0.539778 0.126222
0.564373 0.543454 0.128353
0.580580 0.547282 0.130554
0.591552 0.551255 0.132762
0.601777 0.555365 0.135623
0.611768 0.559604 0.138647
0.621540 0.563967 0.141685
0.631103 0.568444 0.144734
0.640467 0.573028 0.147789
0.649643 0.577714 0.151320
0.658640 0.582493 0.155106
0.666884 0.587360 0.158910
0.674583 0.592308 0.162729
0.682133 0.597332 0.166561
0.121588 0.519965 0.108806
0.122688 0.520040 0.108834
0.126684 0.520310 0.108935
0.134401 0.520806 0.109180
0.148209 0.521547 0.109552
0.167597 0.522545 0.110045
0.184439 0.523744 0.110655
0.218971 0.524823 0.111376
0.258086 0.526095 0.112201
0.294300 0.527563 0.113121
0.339638 0.529226 0.114125
0.371698 0.531084 0.115202
0.404068 0.533135 0.116344
0.427442 0.535375 0.117539
0.452186 0.537803 0.118779
0.473799 0.540413 0.120240
0.494515 0.543202 0.121981
0.515061 0.546163 0.123757
0.532329 0.549291 0.125562
0.548960 0.552581 0.127504
0.565340 0.556026 0.129622
0.581479 0.559619 0.131758
0.592099 0.563354 0.134167
0.602283 0.567225 0.137104
0.612239 0.571224 0.140063
0.621978 0.575345 0.143040
0.631512 0.579581 0.146031
0.640850 0.583927 0.149081
0.650003 0.588375 0.152791
0.658978 0.592919 0.156525
0.667167 0.597553 0.160278
0.674850 0.602272 0.164050
0.682385 0.607069 0.168023
0.127206 0.535952 0.110598
0.128377 0.536001 0.110634
0.132485 0.536176 0.110760
0.141436 0.536498 0.110992
0.155658 0.536979 0.111333
0.174609 0.537627 0.111785
0.192892 0.538448 0.112346
0.227175 0.539446 0.113012
0.265918 0.540625 0.113777
0.301345 0.541985 0.114631
0.344662 0.543528 0.115568
0.376439 0.545253 0.116577
0.406695 0.547158 0.117650
0.430372 0.549243 0.118778
0.454511 0.551504 0.120103
0.475643 0.553938 0.121720
0.496209 0.556542 0.123385
0.516623 0.559310 0.125088
0.533524 0.562238 0.126855
0.550063 0.565322 0.128879
0.566362 0.568556 0.130929
0.582300 0.571934 0.133000
0.592677 0.575451 0.135775
0.602818 0.579100 0.138642
0.612736 0.582876 0.141536
0.622442 0.586774 0.144450
0.631945 0.590786 0.147383
0.641256 0.594907 0.150678
0.650384 0.599132 0.154331
0.659336 0.603454 0.158010
0.667468 0.607868 0.161712
0.675133 0.612369 0.165435
0.682653 0.616951 0.169830
0.133311 0.550563 0.112390
0.134633 0.550608 0.112422
0.139672 0.550771 0.112538
0.148924 0.551069 0.112751
0.163353 0.551516 0.113065
0.181881 0.552117 0.113481
0.201785 0.552879 0.114000
0.235645 0.553806 0.114616
0.274167 0.554901 0.115326
0.308761 0.556166 0.116122
0.349145 0.557602 0.116998
0.381418 0.559208 0.117944
0.409444 0.560984 0.118954
0.433241 0.562929 0.120191
0.456952 0.565040 0.121675
0.477579 0.567316 0.123216
0.497989 0.569752 0.124808
0.518107 0.572345 0.126441
0.534782 0.575092 0.128333
0.551225 0.577989 0.130286
0.567439 0.581030 0.132269
0.582959 0.584210 0.134671
0.593286 0.587526 0.137434
0.603383 0.590971 0.140232
0.613261 0.594541 0.143060
0.622931 0.598230 0.145913
0.632403 0.602033 0.148786
0.641685 0.605945 0.152341
0.650786 0.609960 0.155936
0.659715 0.614073 0.159560
0.667785 0.618279 0.163210
0.675432 0.622573 0.166883
0.682935 0.626951 0.171725
0.141104 0.564896 0.114128
0.142474 0.564938 0.114158
0.147455 0.565089 0.114266
0.157222 0.565368 0.114461
0.171284 0.565783 0.114751
0.183477 0.566343 0.115136
0.211116 0.567053 0.115616
0.244533 0.567916 0.116189
0.282445 0.568937 0.116849
0.316549 0.570117 0.117593
0.353820 0.571456 0.118412
0.386631 0.572956 0.119301
0.412312 0.574616 0.120502
0.436022 0.576435 0.121844
0.459268 0.578412 0.123255
0.479607 0.580544 0.124725
0.499856 0.582828 0.126247
0.519540 0.585264 0.127992
0.536101 0.587845 0.129837
0.552445 0.590570 0.131721
0.568571 0.593435 0.133804
0.583651 0.596434 0.136452
0.593926 0.599565 0.139143
0.603977 0.602821 0.141872
0.613814 0.606200 0.144635
0.623446 0.609696 0.147425
0.632884 0.613304 0.150567
0.642136 0.617020 0.154068
0.651210 0.620838 0.157604
0.660113 0.624755 0.161173
0.668119 0.628765 0.164769
0.675748 0.632864 0.168771
0.683233 0.637047 0.173707
0.149458 0.578969 0.115818
0.150947 0.579008 0.115846
0.156233 0.579149 0.115945
0.165730 0.579409 0.116126
0.179441 0.579797 0.116395
0.192721 0.580319 0.116752
0.220884 0.580983 0.117198
0.253838 0.581790 0.117731
0.287987 0.582744 0.118347
0.324758 0.583847 0.119042
0.358682 0.585101 0.119914
0.392075 0.586505 0.121027
0.415297 0.588060 0.122225
0.438921 0.589765 0.123499
0.461576 0.591620 0.124841
0.481726 0.593622 0.126244
0.501807 0.595769 0.127861
0.521038 0.598060 0.129588
0.537483 0.600491 0.131364
0.553723 0.603060 0.133184
0.569757 0.605762 0.135704
0.584377 0.608595 0.138277
0.594597 0.611555 0.140897
0.604599 0.614638 0.143558
0.614393 0.617839 0.146256
0.623987 0.621155 0.149022
0.633390 0.624582 0.152418
0.642610 0.628114 0.155857
0.651655 0.631749 0.159334
0.660532 0.635481 0.162846
0.668470 0.639306 0.166389
0.676079 0.643220 0.170890
0.683546 0.646875 0.175774
0.158619 0.592796 0.117463
0.160063 0.592833 0.117489
0.165198 0.592965 0.117581
0.174440 0.593208 0.117749
0.183402 0.593571 0.117998
0.203117 0.594061 0.118330
0.230939 0.594682 0.118745
0.263557 0.595438 0.119242
0.293710 0.596332 0.119925
0.333369 0.597367 0.120792
0.363726 0.598543 0.121755
0.397153 0.599861 0.122807
0.418395 0.601321 0.123942
0.441935 0.602924 0.125152
0.463978 0.604668 0.126430
0.483933 0.606551 0.127940
0.503843 0.608574 0.129542
0.522601 0.610733 0.131201
0.538925 0.613026 0.132910
0.555058 0.615451 0.135198
0.570997 0.618005 0.137643
0.585135 0.620685 0.140143
0.595299 0.623487 0.142693
0.605251 0.626409 0.145288
0.615000 0.629446 0.147921
0.624553 0.632595 0.150996
0.633919 0.635852 0.154328
0.643106 0.639214 0.157705
0.652121 0.642676 0.161122
0.660971 0.646234 0.164577
0.668838 0.648542 0.168332
0.676426 0.650548 0.173093
0.683874 0.652476 0.177925
0.167949 0.606392 0.119065
0.169352 0.606427 0.119089
0.174345 0.606551 0.119174
0.183187 0.606779 0.119331
0.191740 0.607120 0.119585
0.213944 0.607579 0.119997
0.241296 0.608162 0.120513
0.273688 0.608873 0.121133
0.302781 0.609713 0.121853
0.342067 0.610685 0.122671
0.369621 0.611791 0.123580
0.400662 0.613031 0.124576
0.421603 0.614405 0.125652
0.445064 0.615914 0.126830
0.466472 0.617557 0.128228
0.486227 0.619334 0.129699
0.505961 0.621242 0.131235
0.524228 0.623281 0.132829
0.540427 0.625448 0.134940
0.556449 0.627741 0.137247
0.572290 0.630158 0.139618
0.585926 0.632697 0.142047
0.596031 0.635353 0.144529
0.605931 0.638126 0.147057
