negative-ektar-100/Ektar100_Modern_ExtraPunchy.cube
TITLE "Kodak Ektar 100 Modern ExtraPunchy"
# Adobe RGB in/out. REPLACES AgX. Kodak Ektar 100 Modern ExtraPunchy.
LUT_3D_SIZE 33
DOMAIN_MIN 0.0 0.0 0.0
DOMAIN_MAX 1.0 1.0 1.0
0.069662 0.073299 0.081842
0.069524 0.072271 0.081066
0.071089 0.072399 0.080141
0.082706 0.074255 0.078350
0.170691 0.077942 0.078275
0.246958 0.080153 0.078529
0.388193 0.084860 0.078986
0.528373 0.091202 0.079811
0.582746 0.094412 0.080200
0.641821 0.099722 0.080753
0.701729 0.108531 0.081656
0.737669 0.114467 0.082771
0.765820 0.121407 0.083666
0.788345 0.130858 0.085083
0.809386 0.146193 0.087126
0.823800 0.154656 0.088509
0.835957 0.162307 0.090182
0.844809 0.171718 0.092506
0.851028 0.183402 0.096062
0.856320 0.188547 0.098368
0.860547 0.194727 0.101519
0.863918 0.202171 0.106601
0.867171 0.207457 0.112144
0.870431 0.205308 0.117556
0.872454 0.204042 0.125844
0.874130 0.200629 0.138125
0.877024 0.182365 0.163117
0.877576 0.186184 0.273794
0.881495 0.235914 0.604552
0.879175 0.231847 0.599907
0.876865 0.227917 0.595326
0.874565 0.224065 0.590786
0.874374 0.433728 0.680911
0.068314 0.074576 0.081842
0.068054 0.073446 0.081842
0.070966 0.072677 0.081718
0.082754 0.074849 0.078435
0.153742 0.078577 0.078285
0.221000 0.080603 0.078533
0.363278 0.085342 0.078987
0.507770 0.091753 0.079811
0.570489 0.094987 0.080199
0.631465 0.100208 0.080750
0.695154 0.109076 0.081650
0.732381 0.115259 0.082758
0.761566 0.122129 0.083655
0.785903 0.131722 0.085069
0.807432 0.147057 0.087112
0.822206 0.155479 0.088489
0.834652 0.163093 0.090163
0.844135 0.172485 0.092484
0.850476 0.184167 0.096029
0.855859 0.189498 0.098333
0.860158 0.195661 0.101458
0.863588 0.203100 0.106530
0.866887 0.208385 0.112058
0.870185 0.206221 0.117422
0.872239 0.204930 0.125651
0.873941 0.201474 0.137717
0.876854 0.182883 0.162107
0.877427 0.186045 0.269120
0.881370 0.235697 0.604301
0.879060 0.231651 0.599679
0.876760 0.227740 0.595118
0.874469 0.223905 0.590597
0.874285 0.433510 0.680710
0.068139 0.076136 0.081842
0.067456 0.075821 0.080934
0.068366 0.074716 0.081331
0.073239 0.076652 0.078616
0.098809 0.080743 0.078257
0.156412 0.082466 0.078506
0.289560 0.087456 0.078989
0.442631 0.094631 0.079849
0.518330 0.097492 0.080218
0.595794 0.102229 0.080756
0.671680 0.111280 0.081639
0.712890 0.118406 0.082726
0.746113 0.124945 0.083626
0.776988 0.135058 0.085028
0.800305 0.150351 0.087070
0.816400 0.158590 0.088425
0.829907 0.166047 0.090100
0.841689 0.175352 0.092409
0.848478 0.187189 0.095918
0.854192 0.193033 0.098214
0.858755 0.199124 0.101248
0.862400 0.206537 0.106285
0.865869 0.211813 0.111758
0.869301 0.209592 0.116954
0.871468 0.208209 0.124979
0.873262 0.204604 0.136308
0.876244 0.184853 0.158689
0.876894 0.185788 0.253277
0.880922 0.234926 0.603408
0.878651 0.230952 0.598866
0.876385 0.227109 0.594377
0.874124 0.223336 0.589920
0.873968 0.432730 0.679990
0.067538 0.084113 0.079515
0.067652 0.083857 0.078759
0.068599 0.082583 0.078457
0.070658 0.080760 0.078384
0.078929 0.084829 0.078275
0.098563 0.085845 0.078507
0.176056 0.091426 0.078967
0.326655 0.099144 0.079844
0.422302 0.101655 0.080237
0.527662 0.106960 0.080784
0.623800 0.118017 0.081651
0.677043 0.125571 0.082721
0.716247 0.131757 0.083609
0.755232 0.142226 0.084992
0.786650 0.157266 0.087022
0.805308 0.165002 0.088343
0.820890 0.172046 0.090011
0.834722 0.181108 0.092296
0.844724 0.194473 0.095744
0.851077 0.200052 0.098023
0.856150 0.205957 0.100902
0.860204 0.213285 0.105873
0.863994 0.218521 0.111251
0.867677 0.216179 0.116159
0.870055 0.214621 0.123839
0.872018 0.210761 0.134139
0.875127 0.189623 0.153179
0.875919 0.186304 0.227995
0.880108 0.233533 0.601790
0.877907 0.229687 0.597390
0.875704 0.225965 0.593031
0.873498 0.222306 0.588690
0.873390 0.431308 0.678680
0.067848 0.104220 0.078087
0.068112 0.103720 0.078195
0.069080 0.102210 0.078323
0.071684 0.098961 0.078427
0.075548 0.095136 0.078539
0.083259 0.091826 0.078591
0.118103 0.097775 0.078979
0.212261 0.105858 0.079851
0.312312 0.108017 0.080265
0.425540 0.112851 0.080819
0.559484 0.127509 0.081699
0.623889 0.135792 0.082787
0.674087 0.142926 0.083643
0.718380 0.154190 0.085012
0.761808 0.170025 0.087019
0.787380 0.176499 0.088301
0.806427 0.182561 0.089943
0.823118 0.192326 0.092189
0.837533 0.206955 0.095555
0.846244 0.211934 0.097799
0.852153 0.217411 0.100479
0.856869 0.224502 0.105351
0.861167 0.229610 0.110594
0.865242 0.227047 0.115124
0.867946 0.225200 0.122350
0.870166 0.220996 0.131795
0.873467 0.198792 0.146521
0.874471 0.190174 0.199621
0.878917 0.231512 0.599428
0.876816 0.227843 0.595232
0.874703 0.224295 0.591059
0.872579 0.220857 0.586870
0.872540 0.429221 0.676758
0.068228 0.127335 0.078426
0.068385 0.126206 0.078496
0.069226 0.123947 0.078604
0.071445 0.117306 0.078763
0.074035 0.109621 0.078773
0.079971 0.104665 0.078857
0.096059 0.107202 0.079178
0.151510 0.116854 0.080010
0.219080 0.117801 0.080324
0.325527 0.124618 0.080860
0.463231 0.141355 0.081751
0.556411 0.149895 0.082868
0.618575 0.156608 0.083744
0.675825 0.166968 0.085117
0.726249 0.182180 0.087051
0.762193 0.190495 0.088314
0.786510 0.199854 0.089932
0.805755 0.213077 0.092152
0.823711 0.227435 0.095430
0.838070 0.231084 0.097613
0.846430 0.235615 0.100081
0.852180 0.242121 0.104817
0.857247 0.246885 0.109891
0.861901 0.243924 0.114161
0.865080 0.241617 0.120712
0.867665 0.236995 0.129245
0.871228 0.213960 0.139889
0.872527 0.200386 0.173480
0.877356 0.228904 0.596347
0.875384 0.225443 0.592405
0.873386 0.222114 0.588472
0.873463 0.391655 0.583916
0.871419 0.426479 0.674227
0.068927 0.183717 0.078933
0.069125 0.183871 0.079024
0.070096 0.179979 0.079300
0.072211 0.169031 0.079462
0.074914 0.153792 0.079553
0.080816 0.140157 0.079606
0.091438 0.130381 0.079757
0.122507 0.136977 0.080250
0.165280 0.135282 0.080498
0.248177 0.141963 0.080999
0.369216 0.159703 0.081961
0.472729 0.167390 0.083039
0.553596 0.172125 0.083824
0.621689 0.181991 0.085210
0.683608 0.201431 0.087151
0.724304 0.211975 0.088467
0.760994 0.218552 0.089992
0.787514 0.230049 0.092137
0.807935 0.247036 0.095348
0.824055 0.253508 0.097497
0.837208 0.261387 0.099887
0.845642 0.269513 0.104414
0.851927 0.273443 0.109289
0.857457 0.269756 0.113329
0.861336 0.266688 0.119187
0.864435 0.261576 0.126876
0.868344 0.238484 0.134488
0.870044 0.220846 0.156539
0.875449 0.225810 0.592610
0.873628 0.222535 0.588954
0.871768 0.219462 0.584901
0.871967 0.387674 0.580294
0.870035 0.423115 0.671113
0.069707 0.266872 0.079795
0.069999 0.267022 0.079890
0.071387 0.266134 0.080196
0.073157 0.247564 0.080369
0.076118 0.225651 0.080465
0.082636 0.204396 0.080581
0.093545 0.186219 0.080658
0.114365 0.175665 0.080815
0.138095 0.160121 0.080771
0.193504 0.163737 0.081202
0.300913 0.181287 0.082298
0.388869 0.187266 0.083271
0.477868 0.191833 0.084014
0.564328 0.203904 0.085422
0.636605 0.224572 0.087286
0.683771 0.233140 0.088589
0.724019 0.240805 0.090112
0.761299 0.254326 0.092262
0.788519 0.271727 0.095420
0.808367 0.275723 0.097472
0.824543 0.281836 0.099780
0.837543 0.290353 0.104130
0.845838 0.298135 0.108874
0.851948 0.299872 0.112749
0.856393 0.302788 0.118087
0.860270 0.297806 0.125106
0.864637 0.278490 0.131879
0.866911 0.257943 0.146218
0.873231 0.222584 0.588359
0.871578 0.219208 0.584461
0.869874 0.216400 0.580309
0.870210 0.382952 0.576066
0.868408 0.419184 0.667462
0.070340 0.308920 0.080205
0.070608 0.308964 0.080274
0.071551 0.304412 0.080466
0.073103 0.291155 0.080669
0.075500 0.272490 0.080842
0.080609 0.251073 0.080956
0.088999 0.231315 0.081084
0.104337 0.214243 0.081181
0.128206 0.201295 0.081325
0.164270 0.192743 0.081500
0.248283 0.211826 0.082740
0.328162 0.217245 0.083595
0.404632 0.220060 0.084364
0.496350 0.230732 0.085702
0.583751 0.251351 0.087517
0.640037 0.258868 0.088865
0.684782 0.266205 0.090332
0.726801 0.278994 0.092431
0.765969 0.295104 0.095574
0.789424 0.300752 0.097590
0.807840 0.308730 0.099865
0.824327 0.314896 0.104078
0.837956 0.321119 0.108634
0.846405 0.321417 0.112299
0.851718 0.323343 0.117226
0.855897 0.325433 0.123868
0.860376 0.318672 0.130591
0.862947 0.313503 0.142228
0.870851 0.230851 0.584321
0.869277 0.215946 0.579040
0.867737 0.213075 0.575197
0.868222 0.377665 0.571317
0.866560 0.414759 0.663335
0.071263 0.371319 0.080781
0.071439 0.369023 0.080825
0.072131 0.359828 0.080962
0.073462 0.347551 0.081185
0.075728 0.330480 0.081372
0.080524 0.312070 0.081511
0.087606 0.292943 0.081632
0.100885 0.274131 0.081778
0.121940 0.257185 0.082038
0.152537 0.243954 0.082353
0.212881 0.254329 0.083429
0.281375 0.251825 0.084010
0.349337 0.252169 0.084813
0.433102 0.261387 0.086080
0.528591 0.282194 0.087819
0.591253 0.287946 0.089230
0.645017 0.293270 0.090682
0.690411 0.303728 0.092705
0.733853 0.320593 0.095897
0.767922 0.326029 0.097840
0.791055 0.331156 0.099970
0.809444 0.340955 0.104179
0.824854 0.351618 0.108653
0.838510 0.352749 0.112129
0.846076 0.352755 0.116659
0.851175 0.353446 0.122843
0.856327 0.345187 0.128881
0.859420 0.338190 0.138149
0.862633 0.323690 0.154388
0.864490 0.313288 0.211561
0.866343 0.332802 0.532164
0.866036 0.372752 0.568547
0.864523 0.409923 0.658802
0.072464 0.451313 0.081615
0.072608 0.448832 0.081640
0.073169 0.441359 0.081788
0.074502 0.432788 0.082273
0.077298 0.418615 0.082700
0.082175 0.401023 0.083065
0.090079 0.379095 0.083379
0.103958 0.357344 0.083637
0.124799 0.337586 0.083863
0.155213 0.321515 0.084141
0.196288 0.308872 0.084591
0.249578 0.296934 0.084956
0.305660 0.287845 0.085375
0.380010 0.294682 0.086528
0.476336 0.312995 0.088361
0.544388 0.316936 0.089728
0.600044 0.320806 0.091120
0.655420 0.330699 0.093054
0.700619 0.348801 0.096332
0.737916 0.352887 0.098169
0.771532 0.360065 0.100413
0.792606 0.371372 0.104523
0.811454 0.379386 0.108765
0.827108 0.381696 0.112102
0.838793 0.386863 0.116438
0.845420 0.393426 0.122266
0.851560 0.383650 0.127717
0.855382 0.374626 0.135097
0.859071 0.357856 0.147694
0.861371 0.339810 0.178201
0.863669 0.326036 0.462446
0.863690 0.369215 0.570443
0.862330 0.366615 0.569853
0.073093 0.497351 0.082473
0.073211 0.495179 0.082523
0.073665 0.488384 0.082715
0.075001 0.480125 0.083124
0.077451 0.467009 0.083525
0.082065 0.451812 0.083927
0.089271 0.435130 0.084390
0.101103 0.416952 0.084771
0.119894 0.398967 0.085120
0.146240 0.379716 0.085453
0.181940 0.363025 0.085819
0.229771 0.349703 0.086258
0.279462 0.331286 0.086343
0.339791 0.328500 0.087057
0.424475 0.346910 0.089048
0.495499 0.349184 0.090299
0.561291 0.352370 0.091715
0.614807 0.362322 0.093623
0.668622 0.379968 0.096814
0.706424 0.383428 0.098597
0.742964 0.391516 0.101086
0.775222 0.400767 0.104986
0.796053 0.409987 0.109144
0.813748 0.413776 0.112382
0.828188 0.415751 0.116489
0.839275 0.419406 0.122002
0.846538 0.417466 0.127053
0.850793 0.417025 0.133622
0.854928 0.408021 0.144035
0.857842 0.386826 0.162508
0.860648 0.335221 0.342631
0.861225 0.362872 0.564595
0.860016 0.361540 0.566815
0.073530 0.535456 0.083149
0.073629 0.533557 0.083192
0.074007 0.527457 0.083359
0.075281 0.519245 0.083702
0.077608 0.508535 0.084132
0.081843 0.495032 0.084730
0.087627 0.478888 0.085241
0.097649 0.461785 0.085697
0.114512 0.444692 0.086070
0.136893 0.428088 0.086406
0.167378 0.413092 0.086746
0.206954 0.399349 0.087088
0.260651 0.386366 0.087512
0.314738 0.378060 0.088095
0.383577 0.385528 0.089841
0.452297 0.386481 0.091093
0.515396 0.388162 0.092371
0.578776 0.397367 0.094443
0.635416 0.412064 0.097601
0.676548 0.414051 0.099191
0.714027 0.419410 0.101777
0.750551 0.427755 0.105659
0.779584 0.437708 0.109758
0.800235 0.439359 0.112741
0.816285 0.444481 0.116816
0.828878 0.451405 0.122187
0.841259 0.447352 0.126736
0.846384 0.444964 0.132636
0.850927 0.440296 0.141578
0.854048 0.434134 0.156273
0.856482 0.429012 0.194197
0.858682 0.356522 0.558615
0.857619 0.356738 0.564660
0.074081 0.570857 0.084005
0.074167 0.569677 0.084045
0.074736 0.565800 0.084232
0.075969 0.560196 0.084664
0.078574 0.554220 0.085311
0.082371 0.544820 0.085878
0.087721 0.532618 0.086398
0.097077 0.516459 0.086892
0.112575 0.499596 0.087317
0.132629 0.482536 0.087662
0.160637 0.466523 0.088030
0.197348 0.452113 0.088581
0.244785 0.439311 0.089104
0.296574 0.428832 0.089743
0.360967 0.433262 0.091508
0.412959 0.423344 0.092066
0.478216 0.421909 0.093145
0.542158 0.428160 0.095292
0.601413 0.441499 0.098366
0.648071 0.443224 0.099951
0.686364 0.447689 0.102832
0.724130 0.455878 0.106507
0.759438 0.464545 0.110426
0.785069 0.467952 0.113347
0.803447 0.473701 0.117378
0.818704 0.478510 0.122409
0.832344 0.478785 0.126758
0.841293 0.481044 0.132211
0.846709 0.474686 0.139820
0.850450 0.466157 0.151629
0.853323 0.456603 0.174596
0.854919 0.460600 0.320578
0.855414 0.500531 0.561985
0.075259 0.614680 0.085545
0.075393 0.613651 0.085597
0.075950 0.610222 0.085792
0.077195 0.605026 0.086181
0.080161 0.600117 0.086839
0.083718 0.591084 0.087370
0.089573 0.581670 0.087987
0.098956 0.570656 0.088750
0.113924 0.558921 0.089468
0.133767 0.546822 0.090076
0.161510 0.533972 0.090723
0.196728 0.518115 0.091287
0.242727 0.503714 0.091918
0.292407 0.491133 0.092530
0.342909 0.480536 0.093249
0.390207 0.468205 0.093760
0.443485 0.457866 0.094428
0.506036 0.460631 0.096331
0.572016 0.473025 0.099261
0.615896 0.473742 0.101151
0.660760 0.477680 0.104010
0.698498 0.485447 0.107590
0.735653 0.493439 0.111315
0.768245 0.497575 0.114125
0.790140 0.502062 0.118063
0.807125 0.509408 0.122980
0.822861 0.510092 0.127060
0.833810 0.510111 0.132070
0.842338 0.509422 0.138924
0.846478 0.507822 0.148963
0.849919 0.496380 0.165100
0.851966 0.485552 0.233819
0.852915 0.501762 0.548782
0.075916 0.640989 0.086313
0.076062 0.640284 0.086360
0.076603 0.637904 0.086536
0.077693 0.633432 0.086881
0.080376 0.628353 0.087455
0.083912 0.621092 0.088112
0.089689 0.613274 0.089119
0.097485 0.602511 0.089839
0.111249 0.591562 0.090621
0.129351 0.580409 0.091447
0.154161 0.568731 0.092080
0.185541 0.557411 0.092703
0.226558 0.546901 0.093323
0.276139 0.537013 0.094122
0.322539 0.525152 0.094963
0.371573 0.515050 0.095923
0.419699 0.502811 0.096458
0.478955 0.498230 0.097758
0.540643 0.506339 0.100435
0.588070 0.506392 0.102650
0.632638 0.509074 0.105267
0.674543 0.516211 0.108769
0.711766 0.523839 0.112378
0.746172 0.527102 0.115041
0.775840 0.532311 0.119003
0.795069 0.539107 0.123735
0.812985 0.539682 0.127530
0.825245 0.542138 0.132348
0.836032 0.541526 0.138593
0.842785 0.538619 0.147227
0.846498 0.535459 0.160563
0.848756 0.534818 0.197218
0.850276 0.522046 0.487753
0.076564 0.661383 0.086976
0.076694 0.660766 0.087019
0.077173 0.658661 0.087178
0.078329 0.655257 0.087488
0.080640 0.651362 0.088052
0.084217 0.646934 0.089020
0.088797 0.640452 0.089880
0.096331 0.632427 0.090806
0.108983 0.622540 0.091711
0.125064 0.611899 0.092532
0.147402 0.600952 0.093287
0.175785 0.589968 0.094129
0.212630 0.579416 0.094951
0.258699 0.569565 0.095809
0.304398 0.560488 0.096644
0.351668 0.552547 0.097499
0.400446 0.545794 0.098457
0.457131 0.541592 0.099670
0.514577 0.543180 0.102776
0.563663 0.538948 0.104145
0.606014 0.540527 0.106719
0.652489 0.544977 0.110065
0.689256 0.550198 0.113586
0.724150 0.552072 0.116314
0.757123 0.555971 0.120150
0.782588 0.560626 0.124635
0.802144 0.562519 0.128276
0.816608 0.564312 0.132743
0.828840 0.565016 0.138653
0.837416 0.565271 0.146445
0.843131 0.561656 0.157445
0.845864 0.557661 0.181195
0.847414 0.565197 0.336456
0.077358 0.684508 0.087790
0.077475 0.683970 0.087829
0.078020 0.682120 0.088022
0.079244 0.679067 0.088460
0.081276 0.675384 0.089169
0.085032 0.672078 0.090213
0.089117 0.665647 0.091079
0.096669 0.659776 0.092190
0.108460 0.652533 0.093121
0.123214 0.644631 0.094129
0.143938 0.636537 0.095235
0.170516 0.625994 0.096215
0.204960 0.615705 0.097167
0.247698 0.605595 0.097955
0.293187 0.596374 0.098851
0.338750 0.587898 0.099692
0.384871 0.580381 0.100887
0.436208 0.574081 0.102441
0.495157 0.574837 0.105689
0.539834 0.567839 0.106555
0.582470 0.564353 0.108176
0.626749 0.568373 0.111454
0.668488 0.573090 0.114891
0.702747 0.574544 0.117741
0.737098 0.578359 0.121461
0.768832 0.582702 0.125753
0.790939 0.584761 0.129178
0.807433 0.586832 0.133380
0.821118 0.589291 0.139167
0.831410 0.587959 0.146123
0.839012 0.587178 0.155781
0.842824 0.587262 0.172795
0.844830 0.585317 0.257852
0.078632 0.710122 0.089276
0.078787 0.709659 0.089333
0.079357 0.708056 0.089545
0.080466 0.705368 0.089953
0.082411 0.702002 0.090661
0.085862 0.698798 0.091777
0.090502 0.693605 0.092743
0.097720 0.688147 0.093998
0.108916 0.681512 0.095307
0.123825 0.674650 0.096620
0.144135 0.667100 0.097758
0.169841 0.659341 0.098880
0.202178 0.651386 0.099839
0.243510 0.643656 0.101201
0.287892 0.636023 0.102546
0.332892 0.627345 0.104062
0.377033 0.619408 0.105474
0.425461 0.612190 0.106866
0.478131 0.606293 0.108498
0.520189 0.598724 0.109255
0.565817 0.593703 0.110615
0.603915 0.592119 0.112896
0.648463 0.596344 0.116506
0.682918 0.597493 0.119261
0.717083 0.600613 0.122821
0.750459 0.604898 0.127007
0.779333 0.606695 0.130200
0.797604 0.609617 0.134244
0.813624 0.611226 0.139756
0.825068 0.611928 0.146279
0.833755 0.612076 0.154971
0.839447 0.609891 0.168384
0.842272 0.611698 0.218214
0.079119 0.728509 0.089765
0.079261 0.728101 0.089821
0.079783 0.726681 0.090023
0.080791 0.724261 0.090436
0.082587 0.721106 0.091141
0.085645 0.717805 0.092179
0.090351 0.713654 0.093278
0.096352 0.708056 0.094577
0.107242 0.702396 0.096063
0.121005 0.696028 0.097447
0.138226 0.688804 0.098597
0.161555 0.681491 0.099746
0.191597 0.674038 0.101311
0.229135 0.666613 0.102883
0.274052 0.659437 0.104394
0.316004 0.652516 0.105799
0.359649 0.646239 0.107305
0.405414 0.640579 0.108786
0.456155 0.635008 0.110205
0.502826 0.629586 0.111835
0.547526 0.623729 0.113103
0.587890 0.621510 0.115406
0.626672 0.620400 0.118335
0.664726 0.620736 0.120819
0.698373 0.623404 0.124281
0.732379 0.627128 0.128309
0.765604 0.628883 0.131330
0.787340 0.631907 0.135343
0.805484 0.633831 0.140641
0.818538 0.635289 0.146685
0.828640 0.635265 0.154473
0.834977 0.635676 0.166136
0.839142 0.635358 0.199181
0.079631 0.745361 0.090270
0.079763 0.745080 0.090332
0.080244 0.744097 0.090555
0.081169 0.742402 0.090981
0.082869 0.740020 0.091653
0.085617 0.736862 0.092633
0.090544 0.733683 0.094036
0.095776 0.728313 0.095280
0.106628 0.723618 0.096964
0.117958 0.717119 0.098184
0.134465 0.710799 0.099536
0.157234 0.704094 0.101278
0.184385 0.696934 0.103074
0.218383 0.689737 0.104696
0.261550 0.682799 0.106340
0.303056 0.676088 0.107884
0.345547 0.669685 0.109332
0.388706 0.663842 0.110833
0.437125 0.658679 0.112375
0.485247 0.653951 0.113834
0.529660 0.650069 0.115572
0.573487 0.647479 0.118191
0.610649 0.646288 0.121071
0.647624 0.643437 0.122673
0.680895 0.644188 0.125744
0.714713 0.646814 0.129699
0.748784 0.648064 0.132542
0.776832 0.650038 0.136637
0.796757 0.652012 0.141719
0.811979 0.652911 0.147186
0.823373 0.654030 0.154445
0.830776 0.653857 0.164610
0.835460 0.654437 0.189162
0.080265 0.759600 0.090977
0.080387 0.759358 0.091037
0.080834 0.758508 0.091255
0.081690 0.757028 0.091667
0.083359 0.755030 0.092315
0.085857 0.752764 0.093252
0.090794 0.750673 0.094951
0.095857 0.747038 0.096257
0.105201 0.743353 0.097814
0.116892 0.738767 0.099267
0.132818 0.733093 0.101149
0.152668 0.726723 0.103129
0.178522 0.720254 0.105133
0.210931 0.713501 0.106986
0.251855 0.706715 0.108652
0.293269 0.700228 0.110376
0.334991 0.693935 0.111934
0.376762 0.688043 0.113477
0.422151 0.682590 0.115024
0.472857 0.677860 0.116960
0.514354 0.673556 0.118817
0.559776 0.669976 0.120794
0.596028 0.668092 0.123632
0.631515 0.665106 0.125118
0.665859 0.663282 0.127530
0.697917 0.664240 0.131051
0.732433 0.665512 0.133776
0.763954 0.667232 0.138068
0.787640 0.669177 0.142895
0.804983 0.670285 0.147933
0.818180 0.671449 0.154588
0.826647 0.671841 0.163726
0.831923 0.672980 0.183225
0.080742 0.773657 0.091431
0.080856 0.773445 0.091490
0.081275 0.772699 0.091705
0.082154 0.771390 0.092112
0.083705 0.769595 0.092747
0.086003 0.767495 0.093743
0.090489 0.765411 0.095446
0.095962 0.762544 0.097020
0.104176 0.758958 0.098489
0.116375 0.755470 0.100344
0.129730 0.751045 0.102462
0.149741 0.746654 0.104771
0.174837 0.742079 0.107049
0.204014 0.736098 0.108938
0.242325 0.729712 0.110729
0.283917 0.723485 0.112506
0.324497 0.717410 0.114265
0.366039 0.711581 0.116133
0.409695 0.706125 0.118072
0.458428 0.701086 0.120004
0.501604 0.696746 0.121976
0.544528 0.692877 0.123948
0.582505 0.689616 0.125950
0.616716 0.686417 0.127377
0.653512 0.684195 0.129726
0.683506 0.683136 0.132768
0.716177 0.682801 0.134953
0.748850 0.684267 0.139404
0.778349 0.686095 0.144096
0.797572 0.687430 0.148839
0.812909 0.688503 0.154802
0.822560 0.689510 0.163279
0.828682 0.690029 0.179269
0.080667 0.786899 0.091046
0.080774 0.786706 0.091106
0.081167 0.786023 0.091322
0.081961 0.784814 0.091730
0.083407 0.783126 0.092366
0.085533 0.781088 0.093274
0.089311 0.778930 0.094904
0.095210 0.776527 0.096793
0.102052 0.773024 0.098205
0.113355 0.769712 0.100059
0.125823 0.765648 0.102381
0.145153 0.761572 0.104961
0.165797 0.757051 0.107112
0.194897 0.752529 0.109350
0.231508 0.747871 0.111431
0.272601 0.743139 0.113227
0.310954 0.737995 0.115099
0.352066 0.732364 0.117216
0.394163 0.727071 0.119297
0.440296 0.722142 0.121280
0.486346 0.717593 0.123278
0.527480 0.713610 0.125235
0.569036 0.710213 0.127277
0.603003 0.707360 0.129340
0.638467 0.704665 0.131674
0.671086 0.703127 0.134680
0.702280 0.701782 0.136938
0.734006 0.701137 0.140602
0.767491 0.702793 0.145038
0.789784 0.704228 0.149823
0.807418 0.705430 0.155177
0.818632 0.706206 0.162666
0.825581 0.707250 0.176554
0.080686 0.798354 0.090705
0.080787 0.798186 0.090765
0.081156 0.797593 0.090982
0.081890 0.796537 0.091391
0.083238 0.795048 0.092026
0.085210 0.793214 0.092930
0.088420 0.791204 0.094422
0.094755 0.789293 0.096653
0.100597 0.786056 0.098027
0.110481 0.782844 0.099781
0.123526 0.779419 0.102524
0.139346 0.775436 0.104965
0.160711 0.771385 0.107502
0.187977 0.767164 0.109944
0.219649 0.762741 0.112037
0.260546 0.758330 0.114113
0.300139 0.753951 0.116359
0.341279 0.749665 0.118682
0.381642 0.745594 0.120835
0.425564 0.741789 0.122970
0.473194 0.737625 0.125005
0.512902 0.733593 0.127026
0.555254 0.730001 0.129017
0.589629 0.727061 0.131142
0.624357 0.724587 0.133280
0.659284 0.722552 0.136737
0.689840 0.721342 0.138910
0.720649 0.719746 0.142252
0.753722 0.719354 0.145851
0.781560 0.720629 0.150249
0.801661 0.722028 0.155538
0.814777 0.722861 0.162199
0.822636 0.723777 0.174312
0.080634 0.808987 0.090129
0.080729 0.808842 0.090182
0.081075 0.808331 0.090397
0.081737 0.807417 0.090815
0.082998 0.806116 0.091461
0.084835 0.804489 0.092379
0.087513 0.802656 0.093698
0.093325 0.800813 0.095943
0.099374 0.798221 0.097722
0.108179 0.795211 0.099433
0.121871 0.792325 0.102575
0.135101 0.788566 0.104927
0.157148 0.784906 0.107886
0.180151 0.780855 0.110205
0.211748 0.776809 0.112720
0.250701 0.772647 0.114959
0.289532 0.768496 0.117499
0.329288 0.764391 0.119979
0.369516 0.760402 0.122333
0.412065 0.756656 0.124600
0.458877 0.753173 0.126798
0.500087 0.750009 0.128934
0.540911 0.747156 0.131007
0.577824 0.744636 0.133054
0.611030 0.742620 0.135411
0.646575 0.740928 0.138298
0.677946 0.740043 0.140352
0.708207 0.738146 0.143721
0.741653 0.737401 0.147017
0.773110 0.736730 0.150616
0.795346 0.737854 0.155496
0.810899 0.738885 0.161650
0.820058 0.739772 0.172454
0.079686 0.822712 0.087927
0.079775 0.822576 0.087987
0.080098 0.822088 0.088203
0.080712 0.821208 0.088609
0.081679 0.819932 0.089239
0.083399 0.818289 0.090133
0.085853 0.816349 0.091514
0.090531 0.814242 0.093376
0.096658 0.811818 0.095826
0.104282 0.808821 0.097594
0.115858 0.805777 0.099829
0.129669 0.802389 0.102880
0.148152 0.798718 0.105800
0.171372 0.794903 0.108688
0.200503 0.790927 0.111391
0.235809 0.786924 0.113810
0.277777 0.782927 0.116512
0.316330 0.778955 0.119191
0.355691 0.775073 0.121678
0.396669 0.771383 0.124083
0.441617 0.767945 0.126401
0.485957 0.764789 0.128650
0.525942 0.761952 0.130837
0.566463 0.759452 0.132974
