negative-ektar-100/Ektar100_Classic_ExtraPunchy.cube
TITLE "Kodak Ektar 100 Classic ExtraPunchy"
# Adobe RGB in/out. REPLACES AgX. Kodak Ektar 100 Classic ExtraPunchy.
LUT_3D_SIZE 33
DOMAIN_MIN 0.0 0.0 0.0
DOMAIN_MAX 1.0 1.0 1.0
0.069662 0.073299 0.081842
0.068292 0.072195 0.081842
0.071282 0.073459 0.081842
0.075238 0.076193 0.079933
0.082767 0.079278 0.078415
0.094406 0.082567 0.078190
0.113410 0.086575 0.078451
0.138352 0.091524 0.078732
0.169757 0.097046 0.079012
0.207515 0.102744 0.079478
0.253503 0.109484 0.079933
0.296841 0.117679 0.080368
0.338955 0.128202 0.080813
0.378648 0.141489 0.081282
0.419530 0.155181 0.081736
0.455819 0.169116 0.082702
0.487030 0.183282 0.083616
0.514803 0.200946 0.084655
0.542438 0.220130 0.085855
0.567521 0.239960 0.087005
0.586746 0.260422 0.088233
0.605637 0.281502 0.089891
0.624215 0.300857 0.091690
0.642500 0.320289 0.093517
0.658744 0.339880 0.095901
0.672165 0.359133 0.098243
0.685317 0.378658 0.100879
0.698216 0.398447 0.104528
0.710875 0.415472 0.108168
0.723307 0.431912 0.111802
0.735470 0.448412 0.115536
0.746153 0.464970 0.119943
0.756644 0.481585 0.124370
0.068233 0.073104 0.081842
0.068333 0.073451 0.081842
0.071328 0.075078 0.081842
0.075277 0.077450 0.079757
0.082818 0.080214 0.078375
0.094461 0.083534 0.078201
0.113484 0.087436 0.078461
0.138433 0.092269 0.078739
0.169840 0.097818 0.079023
0.207602 0.103537 0.079487
0.253588 0.110156 0.079940
0.296905 0.118637 0.080375
0.339010 0.129146 0.080820
0.378700 0.142501 0.081287
0.419579 0.156125 0.081747
0.455858 0.170000 0.082712
0.487058 0.184114 0.083625
0.514829 0.201968 0.084666
0.542461 0.221118 0.085865
0.567536 0.240916 0.087015
0.586761 0.261349 0.088246
0.605651 0.282402 0.089903
0.624228 0.301623 0.091702
0.642512 0.321029 0.093533
0.658752 0.340565 0.095915
0.672173 0.359795 0.098257
0.685324 0.379298 0.100900
0.698222 0.399067 0.104547
0.710881 0.415961 0.108187
0.723313 0.432382 0.111819
0.735475 0.448865 0.115556
0.746157 0.465408 0.119963
0.756649 0.482008 0.124389
0.067502 0.077926 0.081842
0.068546 0.078200 0.081842
0.071490 0.079245 0.081209
0.075418 0.080892 0.079196
0.082998 0.083391 0.078240
0.094659 0.086452 0.078240
0.113749 0.090566 0.078495
0.138722 0.095169 0.078763
0.170139 0.100423 0.079063
0.207916 0.106259 0.079518
0.253892 0.112482 0.079969
0.297137 0.122002 0.080398
0.339209 0.133013 0.080844
0.378885 0.146094 0.081308
0.419754 0.159480 0.081789
0.456000 0.173147 0.082748
0.487158 0.187270 0.083656
0.514922 0.205623 0.084707
0.542548 0.224651 0.085901
0.567593 0.244338 0.087047
0.586813 0.264668 0.088291
0.605699 0.285423 0.089944
0.624273 0.304367 0.091747
0.642554 0.323678 0.093588
0.658782 0.343020 0.095967
0.672201 0.362167 0.098305
0.685351 0.381593 0.100972
0.698247 0.401290 0.104616
0.710904 0.417713 0.108253
0.723335 0.434069 0.111882
0.735493 0.450491 0.115630
0.746175 0.466976 0.120034
0.756665 0.483523 0.124458
0.068028 0.084026 0.081447
0.068902 0.084272 0.081055
0.071779 0.085114 0.079881
0.075675 0.086517 0.078640
0.083326 0.088978 0.078053
0.095020 0.091987 0.078306
0.114237 0.095822 0.078554
0.139253 0.100214 0.078806
0.170687 0.105206 0.079133
0.208493 0.110834 0.079573
0.254451 0.118501 0.080020
0.297564 0.127912 0.080440
0.339573 0.139911 0.080888
0.379227 0.152533 0.081345
0.420075 0.165516 0.081864
0.456259 0.178826 0.082813
0.487342 0.194167 0.083714
0.515092 0.212285 0.084781
0.542706 0.231099 0.085967
0.567698 0.250587 0.087107
0.586909 0.270733 0.088375
0.605789 0.290616 0.090021
0.624356 0.309379 0.091828
0.642632 0.328522 0.093690
0.658838 0.347508 0.096061
0.672252 0.366506 0.098394
0.685399 0.385793 0.101105
0.698292 0.404758 0.104743
0.710947 0.420918 0.108375
0.723375 0.437155 0.111999
0.735527 0.453467 0.115765
0.746206 0.469849 0.120164
0.756695 0.486299 0.124584
0.068555 0.092155 0.079496
0.069313 0.092359 0.079246
0.072202 0.093077 0.078690
0.076123 0.094654 0.078233
0.083808 0.096926 0.078179
0.095556 0.099723 0.078394
0.114963 0.103007 0.078635
0.140046 0.107384 0.078867
0.171506 0.112034 0.079234
0.209357 0.119179 0.079654
0.255288 0.127514 0.080094
0.298203 0.138215 0.080501
0.340118 0.149771 0.080953
0.379738 0.161797 0.081400
0.420556 0.174244 0.081975
0.456647 0.187266 0.082911
0.487617 0.204314 0.083799
0.515347 0.222107 0.084891
0.542942 0.240618 0.086066
0.567854 0.259827 0.087195
0.587054 0.279713 0.088500
0.605922 0.298289 0.090136
0.624481 0.316792 0.091949
0.642748 0.335687 0.093841
0.658920 0.354154 0.096203
0.672329 0.372936 0.098526
0.685471 0.392022 0.101304
0.698360 0.409693 0.104933
0.711010 0.425668 0.108556
0.723434 0.441732 0.112172
0.735577 0.457883 0.115967
0.746254 0.474114 0.120360
0.756740 0.490423 0.124773
0.069193 0.102236 0.078430
0.069925 0.102417 0.078364
0.072714 0.103185 0.078149
0.076699 0.104625 0.078144
0.084443 0.106687 0.078317
0.096271 0.109315 0.078511
0.115938 0.112433 0.078733
0.141114 0.117671 0.078957
0.172611 0.124107 0.079363
0.210522 0.131733 0.079771
0.256418 0.141306 0.080190
0.299064 0.151536 0.080580
0.340854 0.162356 0.081038
0.380428 0.173705 0.081473
0.421159 0.185533 0.082123
0.457171 0.201112 0.083040
0.487989 0.217732 0.083913
0.515690 0.235123 0.085037
0.543262 0.253260 0.086197
0.568064 0.272118 0.087314
0.587248 0.290752 0.088667
0.606103 0.308486 0.090298
0.624649 0.326657 0.092111
0.642905 0.344842 0.094044
0.659031 0.363013 0.096393
0.672433 0.381517 0.098705
0.685568 0.400341 0.101573
0.698451 0.416270 0.105189
0.711096 0.432004 0.108800
0.723515 0.447844 0.112406
0.735645 0.463784 0.116240
0.746318 0.479818 0.120623
0.756800 0.495941 0.125028
0.069968 0.114486 0.078125
0.070925 0.114765 0.078145
0.073285 0.115760 0.078214
0.077388 0.117564 0.078324
0.085226 0.120200 0.078464
0.097174 0.123652 0.078652
0.117169 0.127879 0.078844
0.142467 0.133921 0.079129
0.174014 0.141091 0.079514
0.212003 0.149088 0.079912
0.257854 0.157841 0.080306
0.300159 0.167285 0.080698
0.341789 0.177359 0.081143
0.381304 0.188460 0.081562
0.421872 0.202909 0.082306
0.457837 0.218219 0.083201
0.488461 0.234358 0.084055
0.516127 0.251296 0.085221
0.543668 0.269003 0.086362
0.568332 0.287036 0.087463
0.587496 0.303869 0.088878
0.606332 0.321187 0.090520
0.624862 0.338825 0.092316
0.643104 0.356271 0.094301
0.659173 0.374087 0.096633
0.672565 0.392258 0.098930
0.685691 0.409177 0.101912
0.698567 0.424489 0.105513
0.711204 0.439932 0.109110
0.723618 0.455500 0.112703
0.735731 0.471184 0.116586
0.746399 0.486977 0.120957
0.756877 0.502873 0.125351
0.071145 0.134466 0.078344
0.071881 0.134762 0.078359
0.073891 0.135820 0.078409
0.078407 0.137750 0.078505
0.086147 0.140601 0.078642
0.098772 0.144383 0.078798
0.118658 0.149087 0.078980
0.144112 0.154685 0.079335
0.175724 0.161136 0.079688
0.213811 0.168391 0.080072
0.259606 0.176400 0.080440
0.301493 0.185108 0.080842
0.342928 0.196787 0.081265
0.382372 0.209773 0.081668
0.422742 0.223674 0.082524
0.458650 0.238455 0.083392
0.489036 0.254085 0.084281
0.516660 0.270535 0.085441
0.544163 0.287318 0.086561
0.568659 0.303128 0.087643
0.587797 0.319474 0.089132
0.606612 0.336298 0.090788
0.625123 0.352907 0.092564
0.643347 0.369928 0.094613
0.659346 0.387343 0.096925
0.672726 0.404573 0.099204
0.685842 0.419365 0.102325
0.698708 0.434321 0.105908
0.711337 0.449431 0.109487
0.723743 0.464684 0.113064
0.735836 0.480071 0.117007
0.746498 0.495584 0.121364
0.756971 0.511216 0.125745
0.072231 0.158816 0.078560
0.072844 0.159076 0.078574
0.074782 0.160009 0.078622
0.079664 0.161715 0.078704
0.087195 0.164241 0.078814
0.100635 0.167608 0.078957
0.120406 0.171817 0.079242
0.146054 0.176855 0.079554
0.177747 0.182697 0.079897
0.215953 0.190135 0.080248
0.261684 0.199630 0.080589
0.303074 0.210135 0.081003
0.344279 0.221621 0.081404
0.383639 0.234058 0.081901
0.423773 0.247417 0.082773
0.459613 0.261666 0.083613
0.489718 0.276778 0.084565
0.517292 0.291674 0.085697
0.544751 0.306359 0.086792
0.569046 0.321630 0.087852
0.588155 0.337381 0.089429
0.606944 0.353051 0.091102
0.625432 0.369177 0.092855
0.643636 0.385740 0.094979
0.659551 0.402595 0.097268
0.672918 0.416772 0.099526
0.686021 0.431150 0.102812
0.698876 0.445716 0.106373
0.711495 0.460456 0.109933
0.723891 0.475359 0.113491
0.735961 0.490415 0.117505
0.746616 0.505614 0.121846
0.757083 0.520948 0.126212
0.073253 0.183929 0.078774
0.073741 0.184162 0.078785
0.075960 0.184997 0.078823
0.081013 0.186562 0.078889
0.088961 0.189471 0.079016
0.102756 0.193374 0.079248
0.122411 0.198296 0.079506
0.148296 0.204247 0.079797
0.180089 0.211228 0.080116
0.218438 0.219231 0.080435
0.264096 0.228242 0.080790
0.304906 0.238244 0.081179
0.345843 0.249214 0.081557
0.385107 0.261129 0.082217
0.424968 0.273964 0.083052
0.460729 0.287245 0.083861
0.490509 0.300071 0.084887
0.518024 0.313559 0.085986
0.545432 0.327679 0.087054
0.569495 0.342118 0.088201
0.588570 0.356762 0.089769
0.607329 0.371909 0.091462
0.625790 0.387533 0.093189
0.643970 0.403329 0.095399
0.659788 0.416803 0.097662
0.673139 0.430517 0.099896
0.686229 0.444455 0.103375
0.699071 0.458603 0.106911
0.711678 0.472946 0.110447
0.724064 0.487472 0.113984
0.736106 0.502169 0.118082
0.746753 0.517026 0.122404
0.757212 0.532036 0.126751
0.074185 0.216787 0.078992
0.074892 0.217066 0.079011
0.077337 0.218065 0.079076
0.082595 0.219901 0.079191
0.090955 0.222635 0.079350
0.105125 0.226310 0.079546
0.124670 0.230952 0.079784
0.150838 0.236575 0.080057
0.182754 0.243186 0.080342
0.221272 0.250783 0.080640
0.266847 0.259358 0.081006
0.306994 0.268899 0.081368
0.347626 0.279392 0.081745
0.386781 0.289996 0.082561
0.426330 0.300828 0.083358
0.462002 0.312384 0.084149
0.491411 0.324637 0.085242
0.518859 0.337476 0.086308
0.546209 0.350467 0.087346
0.570007 0.364026 0.088615
0.589044 0.378127 0.090150
0.607769 0.392746 0.091866
0.626199 0.406802 0.093614
0.644353 0.419497 0.095874
0.660060 0.432472 0.098108
0.673393 0.445710 0.100508
0.686466 0.459192 0.104012
0.699293 0.472904 0.107520
0.711887 0.486831 0.111031
0.724261 0.500958 0.114544
0.736271 0.515275 0.118737
0.746909 0.529769 0.123038
0.757360 0.542404 0.127366
0.075712 0.252387 0.079370
0.076439 0.252650 0.079385
0.079176 0.253595 0.079438
0.084398 0.255328 0.079533
0.093101 0.257914 0.079668
0.107731 0.261391 0.079858
0.127250 0.265790 0.080077
0.153682 0.271126 0.080317
0.185746 0.277410 0.080571
0.224460 0.284557 0.080895
0.269919 0.291764 0.081231
0.309341 0.299772 0.081566
0.349630 0.308563 0.082158
0.388663 0.318118 0.082930
0.427862 0.328414 0.083688
0.463434 0.339268 0.084578
0.492425 0.350481 0.085630
0.519799 0.362319 0.086660
0.547083 0.374757 0.087666
0.570583 0.387772 0.089070
0.589577 0.401339 0.090620
0.608263 0.412982 0.092314
0.626660 0.424840 0.094176
0.644783 0.437016 0.096401
0.660365 0.449492 0.098603
0.673678 0.462247 0.101254
0.686733 0.475266 0.104725
0.699543 0.488532 0.108202
0.712123 0.502030 0.111685
0.724483 0.515746 0.115225
0.736458 0.529668 0.119472
0.747085 0.541942 0.123749
0.757526 0.552085 0.128055
0.077454 0.289250 0.079724
0.078263 0.289470 0.079739
0.081136 0.290259 0.079790
0.086253 0.291707 0.079880
0.095382 0.293865 0.080009
0.110562 0.296767 0.080172
0.130348 0.300436 0.080362
0.156826 0.304884 0.080574
0.189066 0.310118 0.080854
0.228008 0.316138 0.081154
0.272686 0.322938 0.081461
0.311948 0.330510 0.081860
0.351857 0.338704 0.082591
0.390755 0.347397 0.083319
0.429564 0.356775 0.084038
0.465027 0.366818 0.085036
0.493552 0.377506 0.086046
0.520844 0.388817 0.087039
0.548056 0.400729 0.088081
0.571224 0.411177 0.089566
0.590169 0.421785 0.091147
0.608813 0.432767 0.092803
0.627173 0.444102 0.094793
0.645262 0.455770 0.096980
0.660706 0.467751 0.099148
0.673995 0.480027 0.102077
0.687030 0.492581 0.105512
0.699822 0.505398 0.108956
0.712385 0.518462 0.112408
0.724730 0.531759 0.116067
0.736665 0.543005 0.120287
0.747281 0.552736 0.124539
0.757712 0.562537 0.128819
0.079750 0.323756 0.080089
0.080529 0.323963 0.080101
0.083369 0.324703 0.080144
0.088624 0.326063 0.080221
0.098093 0.328091 0.080332
0.113703 0.330820 0.080472
0.133720 0.334274 0.080649
0.160267 0.338344 0.080886
0.192716 0.343076 0.081143
0.231918 0.348522 0.081415
0.275731 0.354681 0.081696
0.314819 0.361545 0.082358
0.354308 0.369105 0.083041
0.393060 0.377348 0.083725
0.431440 0.386260 0.084542
0.466782 0.395824 0.085520
0.494793 0.405300 0.086488
0.521995 0.414124 0.087444
0.549128 0.423391 0.088657
0.571931 0.433080 0.090098
0.590823 0.443170 0.091714
0.609420 0.453640 0.093332
0.627738 0.464472 0.095462
0.645790 0.475645 0.097610
0.661081 0.487143 0.099741
0.674346 0.498948 0.102976
0.687358 0.511043 0.106373
0.700130 0.523412 0.109781
0.712674 0.536042 0.113199
0.725003 0.545594 0.116992
0.736895 0.554872 0.121182
0.747498 0.564244 0.125405
0.757917 0.573700 0.129659
0.082094 0.358346 0.080429
0.082929 0.358532 0.080439
0.085696 0.359199 0.080476
0.091650 0.360426 0.080542
0.101851 0.362255 0.080647
0.117340 0.364718 0.080802
0.137727 0.367835 0.080987
0.164002 0.371621 0.081198
0.196695 0.376084 0.081429
0.236195 0.381228 0.081675
0.279053 0.387053 0.082240
0.317954 0.393555 0.082866
0.356985 0.400728 0.083503
0.395579 0.407376 0.084165
0.433488 0.414294 0.085097
0.468700 0.421704 0.086028
0.496150 0.429587 0.086953
0.523254 0.437928 0.087871
0.550300 0.446706 0.089269
0.572703 0.455905 0.090730
0.591538 0.465506 0.092321
0.610084 0.475490 0.094065
0.628357 0.485840 0.096181
0.646368 0.496539 0.098287
0.661491 0.507568 0.100612
0.674729 0.518914 0.103951
0.687717 0.530559 0.107307
0.700467 0.541020 0.110677
0.712991 0.549686 0.114059
0.725301 0.558478 0.117998
0.737146 0.567387 0.122156
0.747735 0.576401 0.126349
0.758141 0.585512 0.130575
0.084757 0.393321 0.080784
0.085501 0.393496 0.080796
0.088382 0.394126 0.080836
0.094731 0.395282 0.080909
0.105789 0.397009 0.081014
0.121201 0.399334 0.081150
0.142080 0.402236 0.081314
0.168350 0.405167 0.081502
0.201004 0.408618 0.081716
0.240840 0.412593 0.082244
0.282652 0.417089 0.082801
0.321355 0.422102 0.083380
0.359887 0.427624 0.083973
0.398312 0.433645 0.084789
0.435711 0.440155 0.085670
0.470590 0.447141 0.086555
0.497622 0.454588 0.087439
0.524620 0.462483 0.088554
0.551574 0.470809 0.089913
0.573541 0.479551 0.091419
0.592314 0.488692 0.092964
0.610805 0.498217 0.094879
0.629029 0.508110 0.096949
0.646997 0.518354 0.099011
0.661938 0.528934 0.101706
0.675146 0.539128 0.104999
0.688107 0.547102 0.108312
0.700833 0.555236 0.111641
0.713336 0.563518 0.115000
0.725626 0.571937 0.119086
0.737419 0.580483 0.123210
0.747993 0.589145 0.127370
0.758385 0.597915 0.131566
0.087346 0.424095 0.081162
0.088391 0.424230 0.081172
0.091951 0.424712 0.081207
0.098203 0.425599 0.081271
0.109890 0.426921 0.081363
0.125272 0.428702 0.081484
0.146727 0.430957 0.081629
0.173229 0.433695 0.081924
0.205641 0.436924 0.082367
0.245857 0.440647 0.082848
0.286528 0.444862 0.083361
0.325020 0.449569 0.083897
0.363016 0.454761 0.084606
0.401261 0.460431 0.085426
0.438107 0.466572 0.086259
0.472306 0.473172 0.087099
0.499210 0.480220 0.087969
0.526095 0.487705 0.089278
0.552948 0.495612 0.090640
0.574446 0.503929 0.092143
0.593152 0.512640 0.093718
0.611584 0.521733 0.095740
0.629755 0.531192 0.097762
0.647676 0.539962 0.099780
0.662420 0.547181 0.102874
0.675597 0.554591 0.106119
0.688529 0.562181 0.109386
0.701230 0.569937 0.112674
0.713709 0.577849 0.116206
0.725978 0.585907 0.120253
0.737714 0.594099 0.124341
0.748272 0.602417 0.128468
0.758649 0.610852 0.132631
0.091268 0.453503 0.081518
0.092225 0.453629 0.081527
0.095506 0.454080 0.081558
0.102954 0.454910 0.081614
0.114300 0.456149 0.081696
0.129914 0.457817 0.081936
0.151662 0.459931 0.082244
0.178443 0.462499 0.082603
0.211018 0.465531 0.083006
0.251246 0.469029 0.083446
0.290681 0.472994 0.083918
0.328951 0.477427 0.084555
0.366371 0.482322 0.085303
0.404425 0.487676 0.086073
0.440679 0.493481 0.086859
0.474147 0.499730 0.087656
0.500913 0.506413 0.088773
0.527677 0.513520 0.090028
0.554425 0.521040 0.091446
0.575418 0.528961 0.092898
0.594052 0.537271 0.094677
0.612422 0.543490 0.096646
0.630536 0.549913 0.098618
0.648406 0.556553 0.100947
0.662939 0.563400 0.104113
0.676082 0.570440 0.107308
0.688983 0.577664 0.110529
0.701656 0.585060 0.113773
0.714110 0.592618 0.117493
0.726356 0.600327 0.121500
0.738032 0.608178 0.125551
0.748573 0.616162 0.129642
0.758933 0.624270 0.133771
0.095127 0.483094 0.082060
0.096008 0.483212 0.082079
0.099988 0.483637 0.082143
0.107812 0.484417 0.082261
0.119222 0.485581 0.082434
0.135047 0.487149 0.082661
0.156878 0.489137 0.082939
0.183990 0.491555 0.083264
0.216939 0.494411 0.083632
0.257008 0.497708 0.084036
0.295108 0.501449 0.084636
0.333146 0.505635 0.085304
0.369951 0.510263 0.086003
0.407803 0.515329 0.086727
0.443424 0.520830 0.087469
0.476111 0.526758 0.088408
0.502732 0.533106 0.089598
0.529369 0.539150 0.090886
0.556003 0.544250 0.092280
0.576456 0.549610 0.093773
0.595015 0.555218 0.095677
0.613317 0.561064 0.097592
0.631371 0.567138 0.099515
0.649188 0.573428 0.102309
0.663494 0.579925 0.105421
0.676600 0.586617 0.108565
0.689469 0.593495 0.111738
0.702112 0.600549 0.114940
0.714540 0.607768 0.118859
0.726761 0.615144 0.122825
0.738373 0.622667 0.126836
0.748894 0.630328 0.130890
0.759238 0.637821 0.135043
0.099814 0.512860 0.082819
0.101041 0.512972 0.082836
0.105324 0.513372 0.082894
0.112766 0.514107 0.083000
0.124305 0.515205 0.083155
0.140913 0.516684 0.083360
0.162367 0.518560 0.083612
0.189866 0.520843 0.083908
0.223240 0.523541 0.084308
0.263146 0.526657 0.084846
0.299809 0.530197 0.085430
0.337605 0.534160 0.086051
0.373756 0.538207 0.086705
0.411397 0.541635 0.087385
0.446343 0.545349 0.088193
0.478198 0.549346 0.089306
0.504666 0.553617 0.090473
0.531168 0.558156 0.091798
0.557683 0.562955 0.093139
0.577561 0.568005 0.094868
0.596040 0.573297 0.096716
0.614270 0.578823 0.098577
0.632261 0.584573 0.100722
0.650021 0.590537 0.103739
0.664085 0.596707 0.106796
0.677153 0.603073 0.109888
0.689987 0.609625 0.113012
0.702599 0.616354 0.116430
0.714998 0.623251 0.120304
0.727193 0.630309 0.124227
0.738736 0.637351 0.128198
0.749238 0.643080 0.132213
0.759563 0.648899 0.136718
0.105498 0.541237 0.083546
0.106657 0.541312 0.083561
0.110715 0.541581 0.083613
0.118413 0.542076 0.083709
0.129910 0.542815 0.083850
0.147041 0.543811 0.084035
0.168457 0.545073 0.084338
0.196067 0.546608 0.084729
0.229921 0.548420 0.085176
0.269658 0.550512 0.085673
0.304780 0.552885 0.086215
0.341930 0.555539 0.086794
0.377783 0.558473 0.087407
0.415205 0.561683 0.088131
0.449434 0.565167 0.089159
0.480407 0.568919 0.090218
0.506715 0.572934 0.091461
0.533075 0.577207 0.092731
0.559465 0.581730 0.094230
0.578733 0.586496 0.095998
0.597127 0.591498 0.097789
0.615282 0.596728 0.099598
0.633206 0.602178 0.102276
0.650905 0.607839 0.105234
0.664713 0.613703 0.108235
0.677740 0.619762 0.111274
0.690538 0.626007 0.114347
0.703116 0.632430 0.117998
0.715485 0.638525 0.121825
0.727653 0.643787 0.125704
0.739122 0.649156 0.129633
0.749603 0.654626 0.133608
0.759909 0.660189 0.138491
0.111204 0.562509 0.084307
0.112302 0.562579 0.084326
0.116561 0.562831 0.084395
0.124181 0.563293 0.084521
0.136198 0.563983 0.084706
0.153424 0.564914 0.084951
0.175267 0.566093 0.085255
0.202589 0.567528 0.085615
0.236981 0.569223 0.086027
0.275215 0.571181 0.086488
0.310020 0.573404 0.086991
0.346433 0.575892 0.087532
0.382032 0.578645 0.088223
0.419225 0.581660 0.089158
0.452697 0.584935 0.090132
0.482736 0.588466 0.091275
0.508877 0.592248 0.092465
0.535090 0.596278 0.093773
0.561348 0.600549 0.095451
0.579970 0.605055 0.097160
0.598276 0.609789 0.098895
0.616352 0.614746 0.101044
0.634205 0.619917 0.103892
0.651841 0.625296 0.106791
0.665378 0.630875 0.109735
0.678362 0.636647 0.112720
0.691121 0.641317 0.115919
0.703664 0.646090 0.119641
0.716000 0.650985 0.123421
0.728139 0.655996 0.127255
0.739531 0.661116 0.131141
0.749989 0.666339 0.135161
0.760275 0.671658 0.140362
0.117432 0.583570 0.085278
0.118604 0.583636 0.085296
0.122736 0.583871 0.085359
0.130494 0.584304 0.085474
0.143184 0.584951 0.085643
0.160052 0.585823 0.085868
0.182394 0.586928 0.086147
0.209703 0.588274 0.086479
0.244421 0.589864 0.086861
0.281012 0.591703 0.087288
0.315526 0.593791 0.087756
0.351164 0.596129 0.088467
0.386500 0.598718 0.089304
0.423105 0.601557 0.090187
0.456131 0.604642 0.091242
0.485186 0.607972 0.092344
0.511153 0.611543 0.093502
0.537212 0.615350 0.095081
0.562840 0.619390 0.096699
0.581274 0.623657 0.098351
0.599486 0.628145 0.100054
0.617480 0.632849 0.102782
0.635259 0.637542 0.105568
0.652828 0.641531 0.108407
0.666079 0.645666 0.111294
0.679018 0.649940 0.114225
0.691736 0.654349 0.117687
0.704242 0.658885 0.121359
0.716545 0.663543 0.125091
0.728653 0.668317 0.128879
0.739964 0.673201 0.132720
0.750398 0.678190 0.137165
0.760662 0.683277 0.142330
0.123908 0.604431 0.086217
0.125030 0.604493 0.086233
0.129294 0.604714 0.086291
0.137617 0.605121 0.086396
0.150396 0.605728 0.086552
0.167097 0.606548 0.086759
0.189834 0.607587 0.087017
0.217708 0.608852 0.087324
0.252239 0.610348 0.087677
0.287078 0.612078 0.088175
0.321294 0.614045 0.088855
0.356120 0.616248 0.089592
0.391186 0.618689 0.090403
0.426940 0.621367 0.091364
0.459734 0.624281 0.092372
0.487754 0.627427 0.093423
0.513541 0.630805 0.094893
0.539440 0.634409 0.096411
0.564318 0.637912 0.097971
0.582643 0.641067 0.099566
0.600759 0.644384 0.101912
0.618666 0.647859 0.104575
0.636367 0.651487 0.107299
0.653700 0.655263 0.110079
0.666817 0.659181 0.112910
0.679708 0.663237 0.115972
0.692384 0.667424 0.119527
0.704851 0.671738 0.123148
0.717119 0.676174 0.126831
0.729195 0.680725 0.130573
0.740419 0.685387 0.134369
0.750829 0.690154 0.139265
0.761070 0.695021 0.144394
0.130931 0.625102 0.087125
0.132146 0.625160 0.087140
0.136719 0.625369 0.087193
0.145343 0.625752 0.087290
0.157827 0.626324 0.087434
0.175129 0.627096 0.087625
0.197582 0.628076 0.087863
0.226092 0.629269 0.088290
0.260434 0.630679 0.088800
0.293408 0.632312 0.089377
0.327323 0.634168 0.090014
0.361297 0.636249 0.090779
0.396087 0.638161 0.091636
0.430949 0.640135 0.092546
0.463504 0.642283 0.093534
0.490440 0.644601 0.094889
0.516040 0.647089 0.096300
0.541773 0.649743 0.097760
0.565866 0.652561 0.099264
0.584077 0.655539 0.101290
0.602092 0.658673 0.103821
0.619909 0.661960 0.106421
0.637530 0.665394 0.109084
0.654529 0.668973 0.111805
0.667591 0.672690 0.114579
0.680433 0.676542 0.117937
0.693064 0.680524 0.121439
0.705490 0.684630 0.125008
0.717721 0.688857 0.128642
0.729764 0.693199 0.132336
0.740898 0.697651 0.136480
0.751281 0.702208 0.141462
0.761498 0.706866 0.146553
0.138885 0.643645 0.088068
0.140196 0.643687 0.088089
0.144860 0.643841 0.088166
0.153269 0.644122 0.088305
0.165471 0.644543 0.088511
0.183459 0.645110 0.088786
0.205632 0.645829 0.089131
0.234852 0.646705 0.089543
0.269005 0.647741 0.090021
0.299999 0.648940 0.090611
0.333608 0.650303 0.091300
0.366693 0.651830 0.092052
0.401201 0.653523 0.092863
0.435131 0.655381 0.093834
0.467440 0.657403 0.095069
0.493241 0.659589 0.096367
0.518649 0.661935 0.097721
0.544210 0.664440 0.099126
0.567481 0.667102 0.100923
0.585576 0.669917 0.103312
0.603486 0.672883 0.105778
0.621210 0.675996 0.108316
0.638747 0.679252 0.110919
0.655396 0.682648 0.113581
0.668401 0.686179 0.116595
0.681192 0.689841 0.119970
0.693776 0.693631 0.123418
0.706161 0.697543 0.126936
0.718353 0.701574 0.130520
0.730360 0.705719 0.134166
0.741399 0.709973 0.138811
0.751756 0.714332 0.143754
0.761948 0.718793 0.148806
0.147362 0.659404 0.089396
0.148638 0.659444 0.089416
0.153183 0.659588 0.089487
0.161388 0.659852 0.089617
0.174341 0.660248 0.089809
0.192081 0.660781 0.090066
0.214792 0.661457 0.090411
0.243989 0.662282 0.090855
0.276339 0.663256 0.091370
0.306845 0.664385 0.091954
0.339958 0.665668 0.092604
0.372304 0.667107 0.093316
0.406526 0.668703 0.094317
0.439482 0.670455 0.095430
0.471168 0.672363 0.096611
0.496155 0.674426 0.097854
0.521367 0.676643 0.099154
0.546751 0.679012 0.100812
0.569165 0.681530 0.103053
0.587138 0.684196 0.105378
0.604941 0.687007 0.107782
0.622568 0.689960 0.110258
0.640018 0.693051 0.112801
0.656302 0.696277 0.115510
