negative-ektar-100/Ektar100_Modern_ExtraSoft.cube
TITLE "Kodak Ektar 100 Modern ExtraSoft"
# Adobe RGB in/out. REPLACES AgX. Kodak Ektar 100 Modern ExtraSoft.
LUT_3D_SIZE 9
DOMAIN_MIN 0.0 0.0 0.0
DOMAIN_MAX 1.0 1.0 1.0
0.059045 0.065518 0.079897
0.085529 0.067557 0.079897
0.360415 0.092822 0.080809
0.575429 0.155578 0.085287
0.690085 0.295303 0.091429
0.757290 0.421976 0.099853
0.802886 0.513105 0.109551
0.833219 0.573936 0.120236
0.854089 0.623011 0.132412
0.059232 0.079589 0.079897
0.071011 0.075771 0.079897
0.247073 0.100990 0.080508
0.539690 0.174568 0.084257
0.676083 0.315545 0.090592
0.747824 0.433863 0.098949
0.798457 0.520886 0.108722
0.830417 0.579870 0.119393
0.852597 0.626309 0.131576
0.063620 0.276972 0.080287
0.088720 0.223617 0.080342
0.199394 0.174185 0.080659
0.462791 0.249983 0.083166
0.630714 0.377610 0.088788
0.721488 0.471698 0.096579
0.785094 0.544007 0.106380
0.821509 0.599839 0.116876
0.847744 0.637538 0.128989
0.073641 0.519991 0.082068
0.106191 0.493197 0.082173
0.263783 0.439094 0.082703
0.445204 0.417294 0.084264
0.585196 0.458028 0.088030
0.692981 0.527774 0.094401
0.761858 0.581863 0.103922
0.807572 0.626063 0.113843
0.838341 0.656387 0.125636
0.088601 0.634445 0.085269
0.125238 0.626210 0.085426
0.303405 0.601661 0.086069
0.475840 0.575237 0.087371
0.581024 0.568633 0.089969
0.673538 0.589635 0.094301
0.740568 0.626699 0.102796
0.793956 0.655269 0.112056
0.827739 0.681968 0.123452
0.109726 0.699657 0.088743
0.149799 0.695971 0.088932
0.327069 0.683187 0.089642
0.494765 0.667818 0.090995
0.591964 0.658542 0.093136
0.672706 0.658461 0.097629
0.726686 0.668664 0.103489
0.783434 0.691307 0.111875
0.818119 0.708300 0.122554
0.136542 0.740359 0.092175
0.180946 0.738169 0.092346
0.344523 0.731545 0.093073
0.502184 0.723158 0.094862
0.596784 0.716512 0.097845
0.675028 0.713955 0.101564
0.725779 0.716132 0.106987
0.774245 0.722482 0.113138
0.810429 0.735565 0.123226
0.167982 0.771404 0.096339
0.212786 0.770469 0.096636
0.358331 0.767176 0.097588
0.502701 0.762097 0.099234
0.595661 0.757229 0.101941
0.674146 0.754641 0.105920
0.724469 0.755217 0.110686
0.772107 0.759008 0.117296
0.805480 0.765369 0.125411
0.201913 0.790114 0.099899
0.242307 0.789614 0.100136
0.369126 0.788021 0.101090
0.499902 0.785788 0.103097
0.590097 0.783731 0.105936
0.670119 0.782641 0.109582
0.720330 0.783047 0.114347
0.767802 0.785131 0.121169
0.802448 0.788785 0.129552
0.059045 0.065932 0.108052
0.088383 0.070496 0.109029
0.360376 0.096063 0.110822
0.566532 0.155690 0.112520
0.683943 0.289636 0.118107
0.752270 0.417877 0.125109
0.800431 0.509813 0.134678
0.831665 0.572160 0.146305
0.853287 0.622200 0.160450
0.059167 0.078814 0.096350
0.065614 0.071836 0.086750
0.226592 0.100186 0.098059
0.527306 0.169820 0.106813
0.669391 0.308371 0.114007
0.742726 0.429067 0.122629
0.795993 0.518297 0.132532
0.828869 0.577997 0.144191
0.851801 0.625472 0.158856
0.062697 0.251608 0.107079
0.084000 0.193983 0.099665
0.165325 0.152458 0.092433
0.437717 0.229933 0.097927
0.618419 0.363762 0.106847
0.716300 0.465387 0.116085
0.782639 0.540851 0.126472
0.819794 0.597698 0.138706
0.846973 0.636629 0.153897
0.072553 0.503601 0.108469
0.101593 0.476237 0.105508
0.241489 0.421806 0.099793
0.425750 0.401119 0.097994
0.574978 0.446799 0.102336
0.688202 0.522288 0.110746
0.758458 0.578222 0.121031
0.805968 0.624517 0.132950
0.837353 0.655420 0.147259
0.087400 0.629136 0.109350
0.121154 0.621015 0.108137
0.293095 0.593889 0.105249
0.465062 0.567496 0.103364
0.573745 0.561604 0.104236
0.669948 0.584742 0.108873
0.737771 0.624413 0.117669
0.792578 0.653766 0.128500
0.826883 0.681030 0.141396
0.108348 0.697276 0.110481
0.147075 0.693626 0.110012
0.321002 0.680153 0.108844
0.488802 0.664821 0.108096
0.587791 0.655649 0.108819
0.670174 0.655932 0.111381
0.724734 0.666941 0.117053
0.782395 0.690090 0.126612
0.817368 0.707725 0.138834
0.135094 0.738966 0.111819
0.178498 0.736795 0.111698
0.340869 0.730219 0.111457
0.499380 0.721877 0.111596
0.594456 0.715284 0.112662
0.673563 0.712836 0.115755
0.724448 0.715212 0.120628
0.773256 0.721906 0.127321
0.809929 0.735203 0.138609
0.166655 0.770833 0.113324
0.211130 0.769907 0.113394
0.356152 0.766522 0.113749
0.501487 0.761407 0.114725
0.594389 0.756590 0.116703
0.673353 0.754073 0.119940
0.723740 0.754756 0.124507
0.771504 0.758689 0.131588
0.805189 0.765225 0.140495
0.201039 0.789838 0.115024
0.241271 0.789343 0.115216
0.367903 0.787767 0.115944
0.498900 0.785560 0.117402
0.589453 0.783536 0.119780
0.669735 0.782488 0.123207
0.719998 0.782948 0.128267
0.767553 0.785098 0.135464
0.802355 0.788826 0.145120
0.059045 0.075089 0.356486
0.088383 0.082642 0.359179
0.376985 0.114456 0.368879
0.580466 0.193231 0.347267
0.682917 0.311867 0.311617
0.747893 0.424016 0.302206
0.797048 0.511438 0.302580
0.828924 0.571974 0.307718
0.851627 0.621823 0.315565
0.059338 0.104489 0.358117
0.089157 0.111900 0.345630
0.305481 0.131428 0.284678
0.535804 0.200369 0.273979
0.666738 0.323112 0.276568
0.737683 0.432963 0.282591
0.792427 0.518639 0.290383
0.826070 0.577381 0.299568
0.850130 0.624952 0.309840
0.061183 0.204315 0.235709
0.077255 0.168776 0.187383
0.120904 0.125495 0.130734
0.415483 0.223488 0.167037
0.605451 0.359801 0.204132
0.709183 0.462391 0.233951
0.777238 0.538639 0.256439
0.816438 0.595754 0.275363
0.844854 0.635672 0.292103
0.070116 0.468633 0.255572
0.092257 0.444546 0.228401
0.201636 0.391608 0.176045
0.386051 0.359868 0.151687
0.555441 0.429097 0.164700
0.679015 0.513479 0.192427
0.751537 0.572803 0.220518
0.802441 0.622152 0.245698
0.835015 0.653915 0.268300
0.084373 0.616719 0.253032
0.113012 0.607198 0.239378
0.266038 0.577238 0.205113
0.439986 0.550708 0.177483
0.555825 0.545651 0.165543
0.661398 0.574417 0.174804
0.731028 0.619664 0.196659
0.789167 0.650704 0.222154
0.824686 0.679167 0.246597
0.104585 0.690630 0.240813
0.139788 0.685999 0.234026
0.305178 0.672654 0.214971
0.473296 0.657530 0.194487
0.576706 0.648467 0.182537
0.663273 0.649505 0.179740
0.719510 0.662789 0.187920
0.778805 0.687193 0.208594
0.815290 0.706401 0.232069
0.130891 0.735105 0.226189
0.171470 0.733015 0.222895
0.330465 0.726644 0.213091
0.489828 0.718488 0.201056
0.587845 0.712035 0.192830
0.669342 0.709838 0.190248
0.720563 0.712726 0.193700
0.770402 0.720442 0.204001
0.808467 0.734319 0.225131
0.162612 0.769171 0.211641
0.206099 0.768082 0.210197
0.349562 0.764661 0.205808
0.495959 0.759479 0.200304
0.590574 0.754826 0.196595
0.670963 0.752510 0.196347
0.721528 0.753488 0.200604
0.769657 0.757831 0.210258
0.804294 0.764878 0.224611
0.198253 0.789019 0.197909
0.237983 0.788543 0.197537
0.364039 0.787027 0.196474
0.495745 0.784910 0.195445
0.587430 0.782994 0.195586
0.668530 0.782077 0.197977
0.718953 0.782699 0.204287
0.766766 0.785053 0.214598
0.802058 0.789012 0.228920
0.059045 0.099949 0.642051
0.088383 0.109999 0.642749
0.376985 0.154274 0.645251
0.601530 0.279364 0.649816
0.696238 0.381728 0.614735
0.752729 0.455402 0.584758
0.797245 0.526124 0.561978
0.827850 0.580141 0.546064
0.850521 0.625115 0.535165
0.059338 0.139979 0.642474
0.090592 0.153916 0.643172
0.381938 0.218602 0.645671
0.578926 0.309164 0.622862
0.679270 0.388343 0.588272
0.741833 0.461811 0.564762
0.792353 0.530953 0.548214
0.824872 0.584853 0.537294
0.848982 0.627974 0.529297
0.061342 0.258595 0.550916
0.082458 0.245644 0.521769
0.213551 0.243946 0.476348
0.464239 0.308113 0.474442
0.617685 0.402950 0.489879
0.710473 0.481400 0.501604
0.775643 0.547073 0.507839
0.814599 0.600947 0.510355
0.843084 0.637819 0.510685
0.067819 0.444538 0.505869
0.086834 0.426698 0.480178
0.177554 0.377200 0.397583
0.325940 0.321619 0.295872
0.546482 0.431482 0.378229
0.674746 0.517071 0.423917
0.747425 0.575171 0.455782
0.799838 0.623279 0.474891
0.832974 0.654786 0.484519
0.080768 0.598979 0.509632
0.105459 0.589248 0.494810
0.236746 0.562503 0.447571
0.413531 0.535612 0.388991
0.533794 0.529445 0.349137
0.648372 0.567148 0.375592
0.724654 0.617197 0.408218
0.785874 0.649564 0.434589
0.822438 0.678784 0.455073
0.099715 0.680917 0.499546
0.130639 0.676763 0.491285
0.286040 0.664506 0.465483
0.454801 0.649979 0.424520
0.563120 0.640801 0.392876
0.651160 0.642410 0.378285
0.713325 0.659020 0.386823
0.773899 0.684903 0.409321
0.812837 0.705591 0.429751
0.125138 0.730225 0.480575
0.161989 0.728296 0.476041
0.316627 0.722356 0.459153
0.477303 0.714611 0.433492
0.579197 0.708382 0.410761
0.663727 0.706412 0.396133
0.715324 0.709882 0.391829
0.766702 0.719079 0.398481
0.806556 0.733660 0.415961
0.156515 0.766527 0.453534
0.198878 0.765512 0.450336
0.340178 0.762079 0.440157
0.487917 0.757143 0.426080
0.585248 0.752769 0.412431
0.667626 0.750723 0.402773
0.718413 0.752071 0.399236
0.767036 0.756954 0.402151
0.803047 0.764703 0.410544
0.194026 0.787936 0.421916
0.233014 0.787493 0.420498
0.358223 0.786083 0.415939
0.491032 0.784123 0.409408
0.584436 0.782387 0.403055
0.666758 0.781667 0.399013
0.717416 0.782523 0.398769
0.765604 0.785165 0.402943
0.801620 0.789456 0.411349
0.059045 0.155400 0.771307
0.088383 0.171721 0.771512
0.376985 0.240789 0.772248
0.601530 0.360440 0.773594
0.716311 0.464547 0.769973
0.765118 0.509867 0.735567
0.801452 0.553261 0.709959
0.829203 0.598634 0.691370
0.850524 0.633319 0.677685
0.059338 0.220254 0.771431
0.090592 0.240281 0.771636
0.381938 0.310234 0.772372
0.602791 0.410805 0.773717
0.700006 0.466499 0.753334
0.754107 0.514016 0.723044
0.796408 0.556965 0.701255
0.826117 0.602578 0.685737
0.848937 0.635836 0.673902
0.063111 0.411636 0.763203
0.095568 0.409279 0.755297
0.320024 0.410336 0.732214
0.529854 0.430161 0.709205
0.651732 0.471670 0.692805
0.721553 0.523883 0.682283
0.780580 0.569292 0.674559
0.815516 0.614993 0.667929
0.842774 0.644545 0.661675
0.067433 0.465715 0.673092
0.087104 0.456688 0.663166
0.204284 0.437084 0.629985
0.417724 0.439169 0.605213
0.571285 0.484105 0.609398
0.681425 0.540500 0.622788
0.749644 0.590760 0.632626
0.799752 0.630276 0.637518
0.832213 0.659718 0.638511
0.077756 0.588042 0.659578
0.099531 0.580584 0.649283
0.218031 0.559034 0.617987
0.398752 0.533893 0.576678
0.511815 0.515976 0.520734
0.643186 0.571967 0.565672
0.722398 0.621054 0.591795
0.784352 0.652934 0.605762
0.820976 0.681614 0.613943
0.094774 0.672576 0.653970
0.121646 0.669062 0.647545
0.264004 0.658408 0.627528
0.437794 0.644962 0.600177
0.549536 0.635159 0.572297
0.636058 0.636325 0.551164
0.707850 0.657592 0.564685
0.769930 0.685090 0.584032
0.810848 0.706350 0.594724
0.118847 0.725505 0.641097
0.152265 0.723807 0.637294
0.301885 0.718506 0.625123
0.464175 0.711416 0.607621
0.570201 0.705497 0.589894
0.656440 0.703588 0.575249
0.709612 0.707527 0.566327
0.762971 0.718572 0.571908
0.804675 0.733872 0.583427
0.150891 0.763831 0.622574
0.190567 0.762810 0.620405
0.329474 0.759570 0.613333
0.478847 0.755089 0.602784
0.579329 0.751109 0.591497
0.663929 0.749366 0.582189
0.714931 0.751064 0.575350
0.764093 0.756511 0.573722
0.801858 0.765217 0.578321
0.188922 0.786870 0.600830
0.227027 0.786475 0.599688
0.351239 0.785216 0.595927
0.485419 0.783477 0.590219
0.580917 0.781985 0.583996
0.664697 0.781511 0.578547
0.715640 0.782635 0.573908
0.764265 0.785601 0.573519
0.801125 0.790271 0.577157
0.059045 0.275076 0.842331
0.088383 0.295299 0.842426
0.376985 0.355596 0.842767
0.601530 0.440003 0.843392
0.722760 0.528453 0.844321
0.780132 0.563361 0.825141
0.808123 0.591755 0.799949
0.832523 0.621923 0.781830
0.851598 0.646362 0.768173
0.059338 0.338693 0.842389
0.090592 0.355171 0.842484
0.381938 0.407615 0.842825
0.602791 0.475701 0.843449
0.720304 0.546091 0.842447
0.769528 0.565200 0.815842
0.803119 0.594528 0.793889
0.829399 0.624014 0.777789
0.849979 0.648524 0.765414
0.063620 0.490802 0.842595
0.102389 0.500039 0.842690
0.394463 0.527704 0.843030
0.574641 0.532345 0.825327
0.677893 0.546321 0.804320
0.737619 0.571117 0.787632
0.787392 0.603817 0.774858
0.818982 0.631175 0.764796
0.844024 0.656037 0.754708
0.069251 0.533720 0.787504
0.093554 0.531550 0.783668
0.262861 0.528043 0.773011
0.483818 0.532675 0.761738
0.609256 0.551471 0.751981
0.696680 0.582404 0.746736
0.758157 0.617668 0.743358
0.802499 0.643688 0.739807
0.833039 0.669255 0.735402
0.076695 0.597603 0.751771
0.098029 0.592974 0.746194
0.221974 0.580025 0.729278
0.418611 0.568162 0.707051
0.550467 0.573158 0.693477
0.660487 0.604090 0.697032
0.727379 0.634720 0.705526
0.785648 0.662487 0.711604
0.821110 0.688626 0.714265
0.090811 0.668821 0.740455
0.115286 0.666062 0.736348
0.248485 0.657526 0.723174
0.427762 0.646214 0.702195
0.542198 0.636523 0.679723
0.621323 0.631913 0.660636
0.705991 0.661893 0.676796
0.768704 0.689792 0.688206
0.810005 0.709519 0.695284
0.114028 0.722049 0.732030
0.144884 0.720622 0.729413
0.288307 0.716112 0.720867
0.452416 0.709905 0.706689
0.562344 0.704408 0.691189
0.647290 0.702180 0.678269
0.703878 0.706070 0.671936
0.759811 0.719459 0.676676
0.803224 0.735478 0.683565
0.145539 0.761404 0.719846
0.182102 0.760527 0.718100
0.318593 0.757729 0.712275
0.469726 0.753825 0.703342
0.573489 0.750338 0.693352
0.660299 0.748895 0.684531
0.711438 0.750825 0.678702
0.761105 0.756770 0.676786
0.800740 0.766450 0.678887
0.183407 0.786054 0.702541
0.220567 0.785716 0.701557
0.343715 0.784643 0.698280
0.479410 0.783177 0.693184
0.577204 0.781980 0.687390
0.662558 0.781787 0.682179
0.713814 0.783189 0.678612
0.762901 0.786479 0.677262
0.800644 0.791541 0.678044
0.059045 0.406240 0.886964
0.088383 0.417049 0.887029
0.376985 0.454712 0.887263
0.601530 0.516589 0.887690
0.722760 0.576393 0.888328
0.789675 0.618821 0.879418
0.815313 0.629177 0.858538
0.836804 0.644772 0.842277
0.853378 0.663403 0.827695
0.059338 0.444132 0.887004
0.090592 0.454447 0.887069
0.381938 0.489061 0.887302
0.602791 0.539114 0.887729
0.723247 0.596165 0.888367
0.783019 0.619382 0.873272
0.810495 0.630456 0.854213
0.833720 0.646424 0.839297
0.851755 0.665228 0.824698
0.063620 0.548908 0.887145
0.102389 0.554883 0.887210
0.394463 0.575720 0.887443
0.606778 0.611194 0.887625
0.697330 0.613460 0.869908
0.753646 0.621399 0.853778
0.795193 0.634839 0.840422
0.823711 0.652142 0.827666
0.846403 0.671611 0.814840
0.071563 0.606059 0.861230
0.103733 0.604989 0.859116
0.316962 0.603087 0.852573
0.525922 0.605000 0.843633
0.644187 0.614173 0.834723
0.713676 0.626288 0.823990
0.769819 0.642920 0.814838
0.807217 0.662338 0.806999
0.835183 0.682977 0.799868
0.078082 0.626193 0.820123
0.101722 0.624819 0.817504
0.247908 0.621368 0.809519
0.455671 0.619743 0.799395
0.582775 0.624610 0.791444
0.677022 0.637623 0.787472
0.737810 0.656509 0.786043
0.789541 0.677996 0.785048
0.822812 0.698050 0.783358
0.089441 0.673443 0.799250
0.113246 0.671569 0.796878
0.245104 0.665845 0.789209
0.431604 0.658759 0.778040
0.553012 0.654790 0.767016
0.647049 0.660268 0.761215
0.712993 0.678229 0.762972
0.771896 0.698843 0.766610
0.810772 0.715670 0.768909
0.110725 0.721139 0.790596
0.139054 0.720013 0.788902
0.276474 0.716430 0.783292
0.444498 0.711420 0.774625
0.558037 0.706834 0.764732
0.642671 0.704501 0.753432
0.698389 0.705732 0.743209
0.758763 0.723111 0.752481
0.802758 0.739186 0.758556
0.140553 0.760130 0.782196
0.174320 0.759410 0.781118
0.308631 0.757106 0.777518
0.461535 0.753872 0.771868
0.568444 0.750978 0.765311
0.655635 0.749835 0.758703
0.708323 0.751732 0.752269
0.758251 0.757894 0.749879
0.799826 0.768563 0.752567
0.177905 0.785699 0.771575
0.214130 0.785425 0.770946
0.336219 0.784559 0.768838
0.473461 0.783400 0.765504
0.573592 0.782536 0.761613
0.660523 0.782643 0.756980
0.712102 0.784309 0.753170
0.761634 0.787889 0.751453
0.800236 0.793330 0.751843
0.059045 0.504319 0.918960
0.088383 0.513405 0.918995
0.376985 0.536874 0.919119
0.601530 0.575972 0.919347
0.722760 0.623354 0.919686
0.796652 0.657957 0.917534
0.821606 0.661278 0.901070
0.841046 0.670299 0.882763
0.855381 0.683245 0.868047
0.059338 0.530483 0.918981
0.090592 0.536714 0.919016
0.381938 0.558393 0.919140
0.602791 0.595761 0.919367
0.723247 0.634819 0.919707
0.790574 0.657963 0.913330
0.817056 0.662086 0.896933
0.838060 0.671564 0.879835
0.853781 0.684760 0.865905
0.063620 0.604432 0.919056
0.102389 0.609740 0.919091
0.394463 0.622964 0.919215
0.607288 0.643858 0.919442
0.711674 0.656907 0.913127
0.766991 0.658325 0.899486
0.802472 0.664997 0.883609
0.828305 0.676021 0.870243
0.848479 0.690105 0.858769
0.073458 0.656803 0.909669
0.112356 0.656086 0.908283
0.359276 0.654250 0.903753
0.553555 0.653143 0.895082
0.667418 0.654947 0.884261
0.728732 0.660868 0.873699
0.781402 0.670902 0.864042
0.812584 0.684246 0.855391
0.838009 0.697971 0.847747
0.080730 0.659856 0.871014
0.107931 0.659257 0.869714
0.282199 0.657863 0.865493
0.491755 0.657691 0.859349
0.609559 0.661117 0.852983
0.692280 0.669307 0.847455
0.749400 0.681840 0.842917
0.794661 0.696172 0.838997
0.825347 0.708958 0.835258
0.089840 0.688509 0.847297
0.114454 0.687487 0.846077
0.255012 0.684533 0.842132
0.447613 0.681605 0.836423
0.571111 0.681862 0.829372
0.665643 0.688052 0.823778
0.723540 0.698570 0.821265
0.778245 0.711009 0.820355
0.812912 0.724521 0.819393
0.108793 0.724151 0.836536
0.135815 0.723356 0.835531
0.270775 0.720848 0.831393
0.443065 0.717475 0.823888
0.560105 0.714848 0.815377
0.649578 0.714969 0.807985
0.707759 0.720452 0.804417
0.762616 0.732051 0.805481
0.803750 0.745608 0.807316
0.136452 0.760654 0.827835
0.168018 0.760099 0.826843
0.300719 0.758324 0.823507
0.455399 0.755853 0.818194
0.565132 0.753721 0.811883
0.652935 0.753090 0.805737
0.706771 0.754956 0.800785
0.755668 0.759994 0.797756
0.799489 0.771502 0.801004
0.172808 0.786019 0.817374
0.208176 0.785811 0.816775
0.329298 0.785160 0.814757
0.468027 0.784326 0.811531
0.570384 0.783817 0.807701
0.658196 0.784234 0.804032
0.710694 0.786134 0.801251
0.760596 0.789921 0.799914
0.799955 0.795692 0.800211
0.059045 0.578502 0.943551
0.088383 0.584105 0.943569
0.376985 0.603703 0.943630
0.601530 0.629083 0.943743
0.722760 0.659089 0.943912
0.800552 0.694380 0.944140
0.825763 0.693291 0.928221
0.844538 0.695842 0.913920
0.857178 0.701631 0.901978
0.059338 0.598188 0.943562
0.090592 0.603565 0.943579
0.381938 0.619108 0.943641
0.602791 0.640303 0.943754
0.723247 0.669138 0.943923
0.795530 0.694615 0.941194
0.822006 0.693593 0.925363
0.841687 0.696531 0.911835
0.855622 0.702549 0.900037
0.063620 0.645215 0.943599
0.102389 0.648221 0.943616
0.394463 0.658748 0.943678
0.607288 0.677112 0.943791
0.720970 0.696359 0.942449
0.776702 0.693845 0.928701
0.808293 0.694808 0.916055
0.832314 0.699022 0.904949
0.850439 0.705824 0.893000
0.075323 0.699392 0.941185
0.119467 0.698727 0.939844
0.388634 0.696737 0.935358
0.572293 0.694407 0.928234
0.680010 0.693176 0.919630
0.740590 0.694149 0.910681
0.788116 0.697760 0.902147
0.817545 0.703844 0.891615
0.840843 0.711880 0.882007
0.083400 0.695408 0.910089
0.114115 0.695102 0.909266
0.309218 0.694315 0.906528
0.514533 0.693890 0.902238
0.630992 0.694958 0.895454
0.704818 0.698302 0.888253
0.759784 0.704084 0.881443
0.799709 0.711958 0.875163
0.828108 0.721312 0.869322
0.092025 0.706755 0.884390
0.118436 0.706388 0.883498
0.272588 0.705395 0.880565
0.467294 0.704691 0.876122
0.587981 0.705631 0.871216
0.676959 0.709270 0.866739
0.733252 0.715833 0.863006
0.783837 0.724737 0.859931
0.815599 0.735036 0.857074
0.108528 0.731849 0.868410
0.135625 0.731374 0.867636
0.272834 0.729930 0.864986
0.448310 0.728225 0.860868
0.567273 0.727569 0.856225
0.660652 0.729424 0.852178
0.715688 0.734809 0.849548
0.768232 0.743491 0.848287
0.805652 0.754040 0.847536
0.133683 0.763593 0.859216
0.163863 0.763205 0.858620
0.295854 0.761984 0.856608
0.452353 0.760367 0.853376
0.564421 0.759225 0.849503
0.654010 0.759598 0.845731
0.708807 0.762543 0.842834
0.759773 0.768605 0.841604
0.800285 0.775947 0.841850
0.168460 0.787216 0.851603
0.203112 0.787072 0.851226
0.323455 0.786635 0.849949
0.463548 0.786129 0.847889
0.567889 0.785986 0.845409
0.656197 0.786728 0.842987
0.709854 0.788854 0.841094
0.760046 0.792752 0.840120
0.799851 0.798669 0.840329
