negative-ektar-100/Ektar100_Modern_Normal.cube
TITLE "Kodak Ektar 100 Modern Normal"
# Adobe RGB in/out. REPLACES AgX. Kodak Ektar 100 Modern Normal.
LUT_3D_SIZE 33
DOMAIN_MIN 0.0 0.0 0.0
DOMAIN_MAX 1.0 1.0 1.0
0.076072 0.078059 0.088299
0.076219 0.078059 0.088299
0.078502 0.078146 0.088299
0.087788 0.078781 0.088299
0.107802 0.080971 0.088299
0.151473 0.085977 0.088425
0.218474 0.094224 0.088468
0.287394 0.103093 0.088651
0.357545 0.114865 0.088896
0.428433 0.130661 0.089340
0.497777 0.147982 0.089740
0.561112 0.169584 0.090317
0.618874 0.192732 0.090866
0.668420 0.217474 0.091364
0.705406 0.244033 0.092058
0.739032 0.273695 0.092857
0.765833 0.304185 0.093598
0.791476 0.333326 0.094732
0.813808 0.360720 0.096190
0.832261 0.388246 0.097886
0.849870 0.415846 0.099763
0.866589 0.443515 0.101803
0.877716 0.468919 0.103690
0.888349 0.490153 0.106162
0.898522 0.511114 0.109247
0.908264 0.531791 0.112252
0.914708 0.552174 0.115237
0.919897 0.572254 0.119146
0.924648 0.592023 0.122986
0.929193 0.610037 0.126756
0.933544 0.624555 0.130782
0.937711 0.638719 0.135411
0.941479 0.652536 0.139982
0.076072 0.078059 0.088299
0.076072 0.078059 0.088299
0.077166 0.078192 0.088299
0.085035 0.078944 0.088299
0.103251 0.081253 0.088299
0.143959 0.086394 0.088408
0.210153 0.094738 0.088455
0.279613 0.103634 0.088630
0.351060 0.115411 0.088870
0.423196 0.131359 0.089316
0.493050 0.148852 0.089716
0.557551 0.170420 0.090292
0.615868 0.193609 0.090845
0.666567 0.218322 0.091347
0.703762 0.244968 0.092030
0.737882 0.274609 0.092833
0.764807 0.305077 0.093578
0.790555 0.334079 0.094695
0.813154 0.361446 0.096143
0.831670 0.388946 0.097851
0.849335 0.416521 0.099716
0.866241 0.444170 0.101763
0.877413 0.469408 0.103653
0.888074 0.490623 0.106103
0.898271 0.511566 0.109193
0.908034 0.532226 0.112201
0.914575 0.552594 0.115173
0.919790 0.572659 0.119087
0.924550 0.592414 0.122930
0.929103 0.610326 0.126703
0.933460 0.624832 0.130719
0.937634 0.638987 0.135352
0.941430 0.652794 0.139926
0.076072 0.079093 0.088299
0.076176 0.078919 0.088299
0.076748 0.078715 0.088299
0.080364 0.079621 0.088299
0.092665 0.082125 0.088299
0.124838 0.087767 0.088365
0.185034 0.096262 0.088427
0.255871 0.105584 0.088563
0.330397 0.117930 0.088822
0.406003 0.133743 0.089235
0.477245 0.151864 0.089653
0.545448 0.173336 0.090204
0.605546 0.196684 0.090773
0.660141 0.221305 0.091288
0.698029 0.248272 0.091935
0.733851 0.277846 0.092751
0.761199 0.308242 0.093506
0.787306 0.336755 0.094564
0.810842 0.364027 0.095981
0.829580 0.391438 0.097725
0.847437 0.418928 0.099550
0.864517 0.446508 0.101618
0.876335 0.471156 0.103522
0.887094 0.492302 0.105894
0.897377 0.513182 0.108999
0.907216 0.533783 0.112022
0.914103 0.554096 0.114965
0.919408 0.574110 0.118873
0.924199 0.593817 0.122730
0.928780 0.611360 0.126516
0.933163 0.625827 0.130495
0.937359 0.639945 0.135139
0.941255 0.653718 0.139724
0.076072 0.084320 0.088299
0.076296 0.083973 0.088299
0.077251 0.082971 0.088299
0.080050 0.082381 0.088299
0.087477 0.084162 0.088299
0.109137 0.089765 0.088328
0.155438 0.098718 0.088430
0.224903 0.108811 0.088508
0.300948 0.122137 0.088750
0.377924 0.137785 0.089112
0.452329 0.157061 0.089552
0.525703 0.178414 0.090062
0.588116 0.202090 0.090653
0.646351 0.226582 0.091187
0.688146 0.254158 0.091770
0.725513 0.283636 0.092608
0.754864 0.313925 0.093381
0.781569 0.341564 0.094335
0.806735 0.368680 0.095733
0.825852 0.395938 0.097503
0.844043 0.423288 0.099255
0.861426 0.450751 0.101352
0.874397 0.474328 0.103289
0.885328 0.495354 0.105519
0.895764 0.516122 0.108652
0.905738 0.536619 0.111700
0.913249 0.556834 0.114665
0.918715 0.576757 0.118490
0.923562 0.596379 0.122370
0.928193 0.613249 0.126177
0.932621 0.627645 0.130089
0.936858 0.641697 0.134755
0.940916 0.655408 0.139359
0.076239 0.097696 0.088299
0.076461 0.097241 0.088299
0.078135 0.095779 0.088299
0.082629 0.093809 0.088299
0.088930 0.092576 0.088299
0.102136 0.095251 0.088320
0.136327 0.102778 0.088432
0.197239 0.113600 0.088477
0.269433 0.128131 0.088680
0.345874 0.143724 0.088976
0.422975 0.164362 0.089434
0.497332 0.186022 0.089887
0.564657 0.209740 0.090501
0.625453 0.234113 0.091054
0.674810 0.262594 0.091553
0.713248 0.291969 0.092415
0.746069 0.321814 0.093210
0.773530 0.348517 0.094080
0.799680 0.375429 0.095446
0.820548 0.402487 0.097171
0.839195 0.429658 0.098839
0.856992 0.456966 0.100972
0.871603 0.478974 0.102956
0.882774 0.499833 0.104984
0.893423 0.520445 0.108154
0.903588 0.540796 0.111237
0.912003 0.560874 0.114233
0.917702 0.580668 0.117936
0.922630 0.600168 0.121848
0.927333 0.616041 0.125685
0.931827 0.630336 0.129501
0.936123 0.644292 0.134195
0.940234 0.657914 0.138828
0.076573 0.128333 0.088299
0.077087 0.127313 0.088299
0.080042 0.123771 0.088305
0.086438 0.117813 0.088326
0.094157 0.111927 0.088346
0.106727 0.109321 0.088376
0.127642 0.111417 0.088432
0.178074 0.122557 0.088464
0.243714 0.136430 0.088632
0.316962 0.153735 0.088871
0.393715 0.173914 0.089324
0.467025 0.196094 0.089739
0.538972 0.219594 0.090339
0.601768 0.245113 0.090907
0.659157 0.273502 0.091421
0.698574 0.302763 0.092189
0.735343 0.331075 0.093006
0.763603 0.357541 0.093771
0.790486 0.384215 0.095094
0.813859 0.411039 0.096721
0.833049 0.438020 0.098364
0.851337 0.464209 0.100496
0.868015 0.485085 0.102535
0.879481 0.505740 0.104444
0.890394 0.526159 0.107521
0.900797 0.546328 0.110644
0.910379 0.566234 0.113679
0.916349 0.585865 0.117223
0.921409 0.605210 0.121174
0.926205 0.619756 0.125048
0.930782 0.633920 0.128845
0.935155 0.647753 0.133469
0.939335 0.661259 0.138136
0.077304 0.173848 0.088404
0.078342 0.174521 0.088415
0.082718 0.168919 0.088429
0.090157 0.157341 0.088433
0.100975 0.144163 0.088432
0.115647 0.137040 0.088430
0.136531 0.134425 0.088427
0.167861 0.135653 0.088472
0.226461 0.149204 0.088620
0.294512 0.166960 0.088842
0.366092 0.186661 0.089244
0.439084 0.208750 0.089648
0.512278 0.231789 0.090191
0.576678 0.258688 0.090764
0.636669 0.286893 0.091287
0.682567 0.315984 0.091952
0.721111 0.342362 0.092786
0.752343 0.368553 0.093558
0.779923 0.394957 0.094701
0.806087 0.421542 0.096213
0.825848 0.448325 0.097960
0.844663 0.471991 0.099947
0.862604 0.492621 0.102046
0.875539 0.513043 0.103990
0.886751 0.533241 0.106777
0.897425 0.553199 0.109944
0.907600 0.572904 0.113020
0.914526 0.592343 0.116374
0.919917 0.610063 0.120368
0.924823 0.624392 0.124283
0.929500 0.638398 0.128119
0.933963 0.652083 0.132591
0.938226 0.665449 0.137298
0.078662 0.225246 0.088427
0.079815 0.225922 0.088427
0.085089 0.223200 0.088442
0.092957 0.207709 0.088445
0.107206 0.191702 0.088454
0.124616 0.178859 0.088472
0.149380 0.171319 0.088500
0.181588 0.168486 0.088544
0.218993 0.169805 0.088655
0.277919 0.184187 0.088840
0.344808 0.203476 0.089206
0.415627 0.224428 0.089591
0.485480 0.248432 0.090076
0.552469 0.275100 0.090642
0.613067 0.302922 0.091165
0.666295 0.330134 0.091725
0.705233 0.355663 0.092567
0.740363 0.381511 0.093350
0.768520 0.407609 0.094302
0.795454 0.433965 0.095721
0.817891 0.460518 0.097529
0.837220 0.481176 0.099354
0.855644 0.501536 0.101509
0.871068 0.521701 0.103490
0.882595 0.541653 0.105952
0.893558 0.561376 0.109163
0.904000 0.580857 0.112281
0.912415 0.600081 0.115416
0.918183 0.615793 0.119455
0.923211 0.629933 0.123413
0.928000 0.643760 0.127290
0.932566 0.657275 0.131585
0.936923 0.670480 0.136334
0.080418 0.290119 0.088520
0.082188 0.290858 0.088526
0.087375 0.284650 0.088535
0.097080 0.267202 0.088543
0.112998 0.247966 0.088560
0.134386 0.230970 0.088590
0.162575 0.219267 0.088638
0.196166 0.212066 0.088704
0.232489 0.209415 0.088788
0.273127 0.210785 0.088893
0.329653 0.224123 0.089214
0.397313 0.244861 0.089570
0.463185 0.268957 0.090008
0.531116 0.294732 0.090554
0.591329 0.321588 0.091065
0.648488 0.346056 0.091540
0.689585 0.371053 0.092368
0.727339 0.396457 0.093153
0.756843 0.422237 0.093985
0.784262 0.448319 0.095342
0.809500 0.471511 0.097059
0.829286 0.491729 0.098749
0.848158 0.511791 0.100933
0.866175 0.531675 0.102966
0.878045 0.551360 0.105083
0.889300 0.570828 0.108332
0.900014 0.590063 0.111488
0.910064 0.608193 0.114554
0.916196 0.622426 0.118464
0.921401 0.636357 0.122463
0.926309 0.649985 0.126381
0.930986 0.663311 0.130480
0.935446 0.676337 0.135270
0.083392 0.358262 0.088719
0.084867 0.356470 0.088723
0.089999 0.347193 0.088726
0.101000 0.332583 0.088733
0.118397 0.314698 0.088747
0.143145 0.295257 0.088771
0.174949 0.278698 0.088807
0.209760 0.266462 0.088857
0.246251 0.259082 0.088971
0.286311 0.256428 0.089136
0.327740 0.257970 0.089322
0.382272 0.270899 0.089584
0.445605 0.293459 0.089990
0.511598 0.317963 0.090506
0.571112 0.340842 0.090998
0.627852 0.364412 0.091460
0.674859 0.388698 0.092202
0.712521 0.413590 0.092983
0.745389 0.438954 0.093719
0.773103 0.463847 0.094991
0.799759 0.483790 0.096579
0.821143 0.503645 0.098255
0.840394 0.523373 0.100366
0.858790 0.542945 0.102443
0.873234 0.562337 0.104387
0.884765 0.581526 0.107484
0.895743 0.600496 0.110671
0.906204 0.615940 0.113769
0.913816 0.629935 0.117431
0.919428 0.643639 0.121466
0.924461 0.657052 0.125421
0.929253 0.670173 0.129307
0.933820 0.683002 0.134136
0.086012 0.417766 0.088902
0.087551 0.415284 0.088904
0.092518 0.406875 0.088910
0.105206 0.393228 0.088924
0.123465 0.376386 0.088950
0.151396 0.358765 0.088992
0.185836 0.342466 0.089054
0.221865 0.328977 0.089139
0.259345 0.319068 0.089247
0.299107 0.312324 0.089379
0.339352 0.309968 0.089531
0.382853 0.311547 0.089700
0.432280 0.321792 0.090022
0.494546 0.341688 0.090501
0.554141 0.362986 0.090966
0.609931 0.385470 0.091410
0.661630 0.408918 0.092084
0.698874 0.433124 0.092850
0.734565 0.457921 0.093577
0.762363 0.478057 0.094687
0.789200 0.497521 0.096150
0.813053 0.516949 0.097888
0.832589 0.536293 0.099834
0.851290 0.555513 0.101943
0.868291 0.574577 0.103901
0.880070 0.593460 0.106654
0.891290 0.610547 0.109862
0.901986 0.624558 0.112984
0.911302 0.638296 0.116390
0.917334 0.651756 0.120453
0.922489 0.664937 0.124438
0.927396 0.677838 0.128343
0.932072 0.690457 0.132964
0.089169 0.473622 0.089220
0.090576 0.471909 0.089222
0.096681 0.466031 0.089228
0.109296 0.454829 0.089241
0.129548 0.438651 0.089264
0.159148 0.420978 0.089300
0.195388 0.403722 0.089351
0.232553 0.388396 0.089420
0.271266 0.376011 0.089508
0.310752 0.367111 0.089615
0.350876 0.361849 0.089747
0.393690 0.360086 0.089963
0.434943 0.361503 0.090227
0.481388 0.368404 0.090537
0.540521 0.388287 0.090972
0.595041 0.409545 0.091393
0.647787 0.431946 0.092019
0.686735 0.455271 0.092761
0.722774 0.475115 0.093473
0.752348 0.493883 0.094446
0.779183 0.512769 0.095804
0.805155 0.531691 0.097571
0.824957 0.550585 0.099361
0.843875 0.569399 0.101483
0.862023 0.588093 0.103449
0.875329 0.606347 0.105873
0.886759 0.620313 0.109090
0.897665 0.634030 0.112225
0.908074 0.647491 0.115375
0.914970 0.660691 0.119456
0.920431 0.673624 0.123462
0.925451 0.686289 0.127392
0.930233 0.698684 0.131785
0.092192 0.519256 0.089505
0.093906 0.517751 0.089507
0.101011 0.512544 0.089513
0.114130 0.503716 0.089525
0.135393 0.492091 0.089546
0.166609 0.478863 0.089577
0.203771 0.465295 0.089620
0.241901 0.450038 0.089678
0.281840 0.435757 0.089762
0.321359 0.424413 0.089892
0.361804 0.416388 0.090071
0.403733 0.411768 0.090276
0.443996 0.410425 0.090504
0.486421 0.412089 0.090750
0.529997 0.416844 0.091013
0.582513 0.436750 0.091409
0.633946 0.457940 0.092010
0.676267 0.475788 0.092722
0.711623 0.493426 0.093410
0.743271 0.511406 0.094292
0.769935 0.529608 0.095611
0.795842 0.547932 0.097317
0.817678 0.566298 0.098967
0.836715 0.584642 0.101074
0.855021 0.602911 0.103049
0.870647 0.617332 0.105168
0.882247 0.630952 0.108380
0.893328 0.644349 0.111517
0.903917 0.657511 0.114578
0.912467 0.670430 0.118505
0.918325 0.683098 0.122523
0.923449 0.695512 0.126468
0.928333 0.705252 0.130634
0.096793 0.563994 0.089776
0.098728 0.562662 0.089778
0.105773 0.558028 0.089786
0.118922 0.550071 0.089802
0.141238 0.539392 0.089828
0.173613 0.526934 0.089869
0.211072 0.513758 0.089934
0.250124 0.500868 0.090020
0.291179 0.489102 0.090127
0.330931 0.479089 0.090257
0.372018 0.471247 0.090411
0.413083 0.465794 0.090587
0.453113 0.462772 0.090785
0.494995 0.462073 0.091000
0.536105 0.463627 0.091231
0.574232 0.467079 0.091471
0.622735 0.480949 0.092055
0.667478 0.496971 0.092731
0.702018 0.513598 0.093391
0.735250 0.530685 0.094223
0.761600 0.548100 0.095489
0.787307 0.565732 0.097109
0.810890 0.583487 0.098666
0.829950 0.601287 0.100745
0.848329 0.615817 0.102716
0.866037 0.629228 0.104592
0.877839 0.642467 0.107757
0.889058 0.655513 0.110883
0.899793 0.668351 0.113939
0.909964 0.680966 0.117628
0.916154 0.693350 0.121645
0.921425 0.703777 0.125596
0.926402 0.711841 0.129538
0.101785 0.607289 0.090156
0.103776 0.606387 0.090159
0.110667 0.602552 0.090169
0.124048 0.595385 0.090187
0.147603 0.585619 0.090217
0.180383 0.574000 0.090260
0.217837 0.561409 0.090319
0.257530 0.548725 0.090395
0.299047 0.536728 0.090489
0.339501 0.526043 0.090603
0.381335 0.517130 0.090737
0.421820 0.510283 0.090890
0.461903 0.505646 0.091063
0.503535 0.503235 0.091253
0.542790 0.502965 0.091456
0.580256 0.504680 0.091779
0.617211 0.508185 0.092208
0.660268 0.520066 0.092787
0.693929 0.535621 0.093415
0.727418 0.551735 0.094220
0.754252 0.568278 0.095441
0.779645 0.585131 0.096991
0.804449 0.602193 0.098469
0.823682 0.616050 0.100508
0.842052 0.629094 0.102459
0.859798 0.642044 0.104314
0.873608 0.654864 0.107239
0.884924 0.667527 0.110341
0.895770 0.680010 0.113381
0.906164 0.692298 0.116849
0.913781 0.703016 0.120854
0.919409 0.711055 0.124798
0.924468 0.718899 0.128678
0.107090 0.639853 0.090522
0.108898 0.639062 0.090525
0.116204 0.636285 0.090534
0.130464 0.631422 0.090552
0.153998 0.624696 0.090580
0.187025 0.616534 0.090620
0.224212 0.607473 0.090674
0.264264 0.595831 0.090742
0.305906 0.583886 0.090826
0.347083 0.572874 0.090927
0.389654 0.563265 0.091046
0.429749 0.555395 0.091182
0.470080 0.549474 0.091334
0.511705 0.545595 0.091501
0.549359 0.543753 0.091800
0.586349 0.543866 0.092171
0.622362 0.545799 0.092561
0.657854 0.549385 0.092968
0.687247 0.559427 0.093479
0.719943 0.574527 0.094279
0.747896 0.590138 0.095466
0.772896 0.605974 0.096968
0.797395 0.618378 0.098403
0.817977 0.630854 0.100369
0.836265 0.643341 0.102287
0.853979 0.655786 0.104111
0.869614 0.668148 0.106840
0.880985 0.680392 0.109906
0.891905 0.692492 0.112919
0.902387 0.703049 0.116189
0.911465 0.711014 0.120168
0.917429 0.718804 0.124095
0.922559 0.726414 0.127965
0.112791 0.671244 0.090860
0.114792 0.670548 0.090862
0.121654 0.668097 0.090871
0.136912 0.663780 0.090888
0.160972 0.657751 0.090915
0.193587 0.650341 0.090952
0.230291 0.641986 0.091001
0.270452 0.633163 0.091064
0.312020 0.624344 0.091140
0.353750 0.615952 0.091231
0.396969 0.608345 0.091337
0.436782 0.600689 0.091458
0.477466 0.593805 0.091630
0.519257 0.588749 0.091916
0.555572 0.585578 0.092228
0.592232 0.584276 0.092564
0.627494 0.584766 0.092920
0.661020 0.586928 0.093294
0.686062 0.590618 0.093681
0.713723 0.598982 0.094412
0.742488 0.611684 0.095560
0.767047 0.623159 0.097037
0.791180 0.634843 0.098416
0.812867 0.646662 0.100329
0.831013 0.658550 0.102203
0.848635 0.670452 0.103989
0.865726 0.682318 0.106571
0.877286 0.694111 0.109589
0.888243 0.703980 0.112564
0.898781 0.711806 0.115662
0.908912 0.719487 0.119605
0.915366 0.727014 0.123504
0.920698 0.734378 0.127352
0.118767 0.701053 0.091171
0.120618 0.700635 0.091173
0.128514 0.698708 0.091182
0.143787 0.694868 0.091199
0.168116 0.689465 0.091224
0.200101 0.682754 0.091258
0.236147 0.675086 0.091304
0.276199 0.666862 0.091362
0.317504 0.658488 0.091431
0.359598 0.650345 0.091514
0.402718 0.642766 0.091662
0.442908 0.636024 0.091871
0.483976 0.630332 0.092105
0.525339 0.625836 0.092365
0.561254 0.622624 0.092648
0.597435 0.620728 0.092954
0.632412 0.620132 0.093281
0.664119 0.620784 0.093624
0.688795 0.622602 0.094141
0.713562 0.625488 0.094864
0.737949 0.630663 0.095719
0.762049 0.641352 0.097192
0.785781 0.652301 0.098520
0.808355 0.663439 0.100389
0.826311 0.674701 0.102208
0.843793 0.686028 0.103950
0.860787 0.697367 0.106435
0.873857 0.705936 0.109397
0.884819 0.713543 0.112324
0.895381 0.721045 0.115280
0.905553 0.728427 0.119176
0.913288 0.735675 0.123036
0.918904 0.742781 0.126853
0.125223 0.720751 0.091457
0.127540 0.720386 0.091460
0.135653 0.719094 0.091468
0.151041 0.716793 0.091484
0.175305 0.713527 0.091508
0.206408 0.709425 0.091541
0.241831 0.704673 0.091611
0.281590 0.699197 0.091713
0.322458 0.691321 0.091836
0.364730 0.683523 0.091982
0.407621 0.676108 0.092151
0.448160 0.669336 0.092343
0.489588 0.663419 0.092558
0.530282 0.658516 0.092796
0.566289 0.654736 0.093056
0.602137 0.652138 0.093337
0.636953 0.650741 0.093637
0.667039 0.650524 0.094094
0.691426 0.651438 0.094727
0.715872 0.653412 0.095449
0.738477 0.656361 0.096340
0.757825 0.660467 0.097411
0.781146 0.670686 0.098741
0.804108 0.681136 0.100543
0.822154 0.691755 0.102300
0.839459 0.701730 0.103992
0.856317 0.709052 0.106435
0.870717 0.716347 0.109332
0.881654 0.723588 0.112204
0.892212 0.730751 0.115051
0.902398 0.737820 0.118890
0.911320 0.744778 0.122702
0.917194 0.751614 0.126479
0.132839 0.739476 0.091876
0.135029 0.739156 0.091880
0.143056 0.738022 0.091895
0.158611 0.735996 0.091924
0.182518 0.733107 0.091968
0.212605 0.729451 0.092028
0.247378 0.725177 0.092105
0.286694 0.720468 0.092201
0.326972 0.715519 0.092317
0.369244 0.710529 0.092454
0.411821 0.705684 0.092611
0.452603 0.701150 0.092789
0.494327 0.695647 0.092989
0.534478 0.690509 0.093209
0.570618 0.686340 0.093450
0.606244 0.683219 0.093709
0.640995 0.681187 0.094148
0.669684 0.680252 0.094715
0.693859 0.680389 0.095363
0.718051 0.681555 0.096123
0.739959 0.683686 0.097105
0.758865 0.686710 0.098003
0.777673 0.690549 0.099100
0.799796 0.699683 0.100786
0.818517 0.706602 0.102474
0.835620 0.713453 0.104114
0.852314 0.720339 0.106567
0.867872 0.727228 0.109395
0.878759 0.734092 0.112204
0.889289 0.740906 0.114988
0.899465 0.747651 0.118752
0.909292 0.754307 0.122508
0.915447 0.760862 0.126236
0.140365 0.757280 0.092346
0.142689 0.756999 0.092351
0.150902 0.756002 0.092366
0.166588 0.754216 0.092393
0.189735 0.751658 0.092435
0.218763 0.748401 0.092493
0.252810 0.744565 0.092567
0.291562 0.740299 0.092658
0.331117 0.735768 0.092768
0.373230 0.731141 0.092896
0.415403 0.726584 0.093044
0.456310 0.722245 0.093211
0.498243 0.718258 0.093397
0.537943 0.714734 0.093603
0.574221 0.711761 0.093881
0.609706 0.709403 0.094284
0.644456 0.707702 0.094811
0.671985 0.706679 0.095387
0.696014 0.706336 0.096059
0.720015 0.706656 0.096948
0.741318 0.707611 0.097795
0.760022 0.709162 0.098695
0.778623 0.711264 0.099938
0.797121 0.713870 0.101214
0.815360 0.719222 0.102724
0.832249 0.725613 0.104310
0.848761 0.732064 0.106828
0.864883 0.738546 0.109581
0.876136 0.745028 0.112324
0.886618 0.751487 0.115060
0.896764 0.757899 0.118763
0.906578 0.764245 0.122456
0.913741 0.770511 0.126129
0.148600 0.774210 0.092786
0.150816 0.773963 0.092790
0.159023 0.773085 0.092805
0.174538 0.771510 0.092832
0.196932 0.769244 0.092872
0.224876 0.766345 0.092927
0.258141 0.762907 0.092998
0.296013 0.759054 0.093085
0.334953 0.754924 0.093190
0.376766 0.750662 0.093312
0.418448 0.746412 0.093451
0.459359 0.742308 0.093609
0.501402 0.738472 0.093810
0.540714 0.735007 0.094131
0.577110 0.732002 0.094518
0.612506 0.729522 0.094992
0.647291 0.727617 0.095501
0.673896 0.726315 0.096126
0.697831 0.725631 0.096925
0.721698 0.725561 0.097701
0.742499 0.726088 0.098455
0.761041 0.727188 0.099601
0.779468 0.728826 0.100787
0.797786 0.730962 0.101990
0.813772 0.733556 0.103187
0.829311 0.738156 0.104575
0.845631 0.744183 0.107208
0.861588 0.750261 0.109885
0.873779 0.756363 0.112558
0.884196 0.762464 0.115295
0.894296 0.768540 0.118922
0.904080 0.774571 0.122546
0.912159 0.780541 0.126158
0.156858 0.790309 0.093197
0.159190 0.790091 0.093201
0.167487 0.789319 0.093215
0.182433 0.787928 0.093241
0.204010 0.785922 0.093281
0.230931 0.783343 0.093334
0.263376 0.780268 0.093402
0.300177 0.776797 0.093486
0.338526 0.773048 0.093585
0.379916 0.769145 0.093701
0.421026 0.765211 0.093893
0.461826 0.761366 0.094142
0.503874 0.757721 0.094440
0.542841 0.754371 0.094821
0.579316 0.751401 0.095236
0.614650 0.748878 0.095685
0.649483 0.746853 0.096299
0.675389 0.745361 0.097015
0.699271 0.744424 0.097707
0.723049 0.744048 0.098392
0.743457 0.744228 0.099412
0.761875 0.744949 0.100505
0.780161 0.746186 0.101636
0.798329 0.747909 0.102756
0.814077 0.750084 0.103904
0.828139 0.752675 0.105413
0.842889 0.756645 0.107701
0.858674 0.762331 0.110301
0.871674 0.768059 0.112902
0.882017 0.773804 0.115675
0.892058 0.779544 0.119224
0.901798 0.785259 0.122776
0.910702 0.790930 0.126323
0.165633 0.805615 0.093582
0.167873 0.805423 0.093586
0.175848 0.804742 0.093600
0.190248 0.803515 0.093625
0.210822 0.801740 0.093663
0.236916 0.799448 0.093714
0.268514 0.796703 0.093803
0.304192 0.793587 0.093937
0.341872 0.790197 0.094097
0.382735 0.786640 0.094282
0.423200 0.783023 0.094533
0.463781 0.779452 0.094831
0.505730 0.776025 0.095161
0.544378 0.772831 0.095525
0.580879 0.769950 0.095956
0.616163 0.767445 0.096553
0.651036 0.765370 0.097193
0.676456 0.763763 0.097795
0.700311 0.762651 0.098414
0.724033 0.762047 0.099351
0.744160 0.761954 0.100353
0.762486 0.762366 0.101399
0.780663 0.763266 0.102447
0.798709 0.764633 0.103521
0.814274 0.766441 0.104624
0.828231 0.768658 0.106602
0.842034 0.771254 0.108638
0.856111 0.774709 0.110819
0.869804 0.780073 0.113349
0.880065 0.785471 0.116196
0.890039 0.790880 0.119664
0.899726 0.796280 0.123141
0.909126 0.801653 0.126620
0.174263 0.820162 0.094074
0.176415 0.819994 0.094080
0.184084 0.819394 0.094103
0.197958 0.818312 0.094144
0.217541 0.816742 0.094205
0.242816 0.814710 0.094288
0.273551 0.812265 0.094408
0.308071 0.809475 0.094570
0.345017 0.806422 0.094763
0.385266 0.803197 0.094986
0.425024 0.799892 0.095241
0.465287 0.796600 0.095527
0.507037 0.793409 0.095850
0.545383 0.790401 0.096337
0.581851 0.787648 0.096866
0.617079 0.785211 0.097420
0.651971 0.783144 0.097946
0.677100 0.781485 0.098529
0.700942 0.780264 0.099398
0.724632 0.779501 0.100314
0.744584 0.779203 0.101275
0.762846 0.779371 0.102249
0.780943 0.779997 0.103248
0.798894 0.781065 0.104279
0.814337 0.782557 0.105878
0.828207 0.784447 0.107797
0.841921 0.786709 0.109772
0.855482 0.789317 0.111797
0.868150 0.792364 0.113890
0.878326 0.797425 0.116846
0.888227 0.802511 0.120234
0.897853 0.807602 0.123636
0.907206 0.812680 0.127045
0.182726 0.828530 0.094714
0.184794 0.828443 0.094721
0.192172 0.828132 0.094748
0.205407 0.827570 0.094798
0.224149 0.826752 0.094873
0.248615 0.825690 0.094974
0.278480 0.824405 0.095103
0.311819 0.822932 0.095260
0.347982 0.821309 0.095447
0.387544 0.818860 0.095663
0.426541 0.815859 0.095940
0.466398 0.812847 0.096326
0.507858 0.809903 0.096753
0.545907 0.807099 0.097222
0.582280 0.804504 0.097672
0.617441 0.802174 0.098144
0.652319 0.800159 0.098741
0.677334 0.798500 0.099529
0.701167 0.797228 0.100365
0.724838 0.796365 0.101246
0.744716 0.795923 0.102147
0.762935 0.795909 0.103072
0.780975 0.796318 0.104032
0.798856 0.797143 0.105325
0.814243 0.798370 0.107126
0.828044 0.799980 0.108989
0.841684 0.801951 0.110907
0.855171 0.804262 0.112877
0.867815 0.806886 0.114892
0.876879 0.809801 0.117663
0.886606 0.814401 0.120926
0.896168 0.819192 0.124253
0.905467 0.822620 0.127591
0.191004 0.836242 0.095377
0.192993 0.836166 0.095385
0.200092 0.835894 0.095411
0.212547 0.835403 0.095460
0.230626 0.834688 0.095533
0.254298 0.833756 0.095632
0.283294 0.832626 0.095757
0.315436 0.831325 0.095941
0.350780 0.829886 0.096194
0.389597 0.828348 0.096487
0.427790 0.826750 0.096820
0.467163 0.825133 0.097194
0.508248 0.823540 0.097566
0.546002 0.822009 0.097955
0.582219 0.820532 0.098378
0.617291 0.818338 0.099010
0.652116 0.816413 0.099726
0.677176 0.814796 0.100488
0.700996 0.813520 0.101295
0.724651 0.812608 0.102123
0.744552 0.812076 0.102978
0.762743 0.811933 0.103870
0.780744 0.812180 0.104924
0.798575 0.812814 0.106609
