negative-ektar-100/Ektar100_Modern_ExtraPunchy.cube
TITLE "Kodak Ektar 100 Modern ExtraPunchy"
# Adobe RGB in/out. REPLACES AgX. Kodak Ektar 100 Modern ExtraPunchy.
LUT_3D_SIZE 9
DOMAIN_MIN 0.0 0.0 0.0
DOMAIN_MAX 1.0 1.0 1.0
0.069662 0.073299 0.081842
0.170691 0.077942 0.078275
0.582746 0.094412 0.080200
0.765820 0.121407 0.083666
0.835957 0.162307 0.090182
0.860547 0.194727 0.101519
0.872454 0.204042 0.125844
0.881495 0.235914 0.604552
0.874374 0.433728 0.680911
0.067848 0.104220 0.078087
0.075548 0.095136 0.078539
0.312312 0.108017 0.080265
0.674087 0.142926 0.083643
0.806427 0.182561 0.089943
0.852153 0.217411 0.100479
0.867946 0.225200 0.122350
0.878917 0.231512 0.599428
0.872540 0.429221 0.676758
0.070340 0.308920 0.080205
0.075500 0.272490 0.080842
0.128206 0.201295 0.081325
0.404632 0.220060 0.084364
0.684782 0.266205 0.090332
0.807840 0.308730 0.099865
0.851718 0.323343 0.117226
0.870851 0.230851 0.584321
0.866560 0.414759 0.663335
0.073530 0.535456 0.083149
0.077608 0.508535 0.084132
0.114512 0.444692 0.086070
0.260651 0.386366 0.087512
0.515396 0.388162 0.092371
0.714027 0.419410 0.101777
0.816285 0.444481 0.116816
0.850927 0.440296 0.141578
0.857619 0.356738 0.564660
0.076564 0.661383 0.086976
0.080640 0.651362 0.088052
0.108983 0.622540 0.091711
0.212630 0.579416 0.094951
0.400446 0.545794 0.098457
0.606014 0.540527 0.106719
0.757123 0.555971 0.120150
0.828840 0.565016 0.138653
0.847414 0.565197 0.336456
0.079631 0.745361 0.090270
0.082869 0.740020 0.091653
0.106628 0.723618 0.096964
0.184385 0.696934 0.103074
0.345547 0.669685 0.109332
0.529660 0.650069 0.115572
0.680895 0.644188 0.125744
0.796757 0.652012 0.141719
0.835460 0.654437 0.189162
0.080686 0.798354 0.090705
0.083238 0.795048 0.092026
0.100597 0.786056 0.098027
0.160711 0.771385 0.107502
0.300139 0.753951 0.116359
0.473194 0.737625 0.125005
0.624357 0.724587 0.133280
0.753722 0.719354 0.145851
0.822636 0.723777 0.174312
0.077630 0.841026 0.082532
0.078915 0.838821 0.083429
0.090800 0.831413 0.090066
0.132867 0.822352 0.099803
0.249119 0.807899 0.112892
0.411732 0.793748 0.124536
0.574824 0.783130 0.134122
0.705004 0.777788 0.145533
0.813792 0.775768 0.164515
0.074538 0.833758 0.081842
0.074488 0.832713 0.081842
0.083151 0.848289 0.081842
0.082509 0.844157 0.079776
0.161742 0.842298 0.085518
0.342391 0.832377 0.096462
0.515891 0.824939 0.107443
0.651803 0.820355 0.114138
0.810792 0.819840 0.115408
0.067533 0.081314 0.108848
0.154046 0.121820 0.323733
0.610924 0.110760 0.152810
0.779735 0.137402 0.131527
0.836554 0.170711 0.121191
0.858378 0.200418 0.126141
0.870428 0.210456 0.153941
0.880113 0.233565 0.601809
0.873424 0.431391 0.678758
0.069622 0.102254 0.092397
0.082698 0.095333 0.089149
0.403322 0.115438 0.102356
0.708074 0.155889 0.115115
0.810866 0.190064 0.116147
0.850391 0.221961 0.123155
0.865966 0.230324 0.146274
0.877540 0.229232 0.596718
0.871597 0.426914 0.674629
0.074280 0.286650 0.099905
0.082393 0.241005 0.096902
0.152773 0.182667 0.092487
0.474151 0.217132 0.099969
0.708388 0.268497 0.109550
0.810228 0.309159 0.118712
0.850285 0.324090 0.134859
0.869532 0.232534 0.581858
0.865646 0.412583 0.661298
0.078399 0.511219 0.101805
0.085046 0.484109 0.102582
0.132196 0.421795 0.101786
0.292040 0.367979 0.101691
0.546837 0.380635 0.108017
0.726612 0.416452 0.117673
0.816832 0.442314 0.132065
0.849789 0.439891 0.160239
0.856769 0.389745 0.641734
0.081194 0.650933 0.100301
0.086130 0.641177 0.102835
0.121611 0.609380 0.108157
0.236368 0.568073 0.111321
0.423417 0.538117 0.114869
0.619637 0.535864 0.121150
0.763980 0.553378 0.133694
0.828201 0.563226 0.154490
0.846661 0.568304 0.384365
0.082904 0.739781 0.099580
0.086455 0.733313 0.101925
0.114563 0.716732 0.110226
0.198309 0.690506 0.117438
0.359333 0.664438 0.123808
0.543252 0.646411 0.130393
0.688356 0.642059 0.139101
0.798557 0.650526 0.156190
0.834604 0.654093 0.210232
0.082896 0.795296 0.097260
0.085626 0.792026 0.098937
0.105936 0.783000 0.108124
0.169672 0.768395 0.119018
0.310714 0.751300 0.128894
0.481758 0.734979 0.137738
0.631833 0.722736 0.148128
0.758855 0.718259 0.159399
0.822266 0.723220 0.190731
0.078482 0.839467 0.084639
0.079906 0.837351 0.085871
0.093129 0.830181 0.094710
0.138378 0.820754 0.108461
0.258030 0.806471 0.122826
0.418741 0.792611 0.134671
0.579351 0.782350 0.146966
0.709671 0.777294 0.158595
0.813928 0.775475 0.177949
0.074512 0.840703 0.087339
0.074463 0.839656 0.087274
0.083092 0.854507 0.087057
0.082454 0.848845 0.086711
0.165434 0.841962 0.087663
0.346227 0.832120 0.101784
0.518873 0.824807 0.114746
0.654237 0.820327 0.122822
0.812004 0.819843 0.124279
0.068250 0.107957 0.320588
0.121389 0.273651 0.649382
0.587383 0.272511 0.622751
0.785306 0.267599 0.567859
0.837011 0.268088 0.508733
0.856322 0.290664 0.501784
0.867453 0.307302 0.536007
0.877738 0.242420 0.607008
0.871455 0.426574 0.674330
0.072704 0.157296 0.328085
0.108418 0.195439 0.443657
0.471983 0.208655 0.456160
0.723532 0.230511 0.433626
0.813320 0.260345 0.420953
0.848596 0.290760 0.439813
0.862972 0.307970 0.492856
0.875134 0.241265 0.603087
0.869615 0.422099 0.670174
0.077419 0.252619 0.225280
0.086641 0.220607 0.200277
0.171931 0.181499 0.172278
0.521331 0.232762 0.224934
0.729911 0.293983 0.276743
0.812828 0.337028 0.319795
0.847998 0.355723 0.357321
0.866282 0.295628 0.583988
0.863633 0.407824 0.656829
0.087193 0.474124 0.237034
0.097074 0.450038 0.225776
0.157184 0.389811 0.198252
0.329028 0.340619 0.180865
0.594225 0.376204 0.207898
0.749776 0.423467 0.248090
0.817540 0.450957 0.278819
0.847387 0.456161 0.359646
0.854758 0.384197 0.637361
0.095528 0.634200 0.228772
0.105252 0.621912 0.226193
0.154005 0.588218 0.217452
0.286223 0.548958 0.205616
0.476327 0.518994 0.201218
0.660740 0.529707 0.219669
0.777266 0.552878 0.242797
0.826847 0.564169 0.289192
0.844706 0.582676 0.528855
0.099484 0.728173 0.215704
0.107214 0.721807 0.216475
0.147264 0.703827 0.219571
0.251407 0.678069 0.218889
0.407422 0.654046 0.217734
0.582037 0.639200 0.220907
0.714744 0.639015 0.230033
0.802829 0.648992 0.261647
0.832262 0.656170 0.341291
0.096121 0.788683 0.184216
0.101671 0.785482 0.187005
0.130776 0.776091 0.197784
0.210055 0.761442 0.208430
0.352314 0.745116 0.216074
0.516864 0.728939 0.223009
0.659258 0.718689 0.231881
0.774750 0.716509 0.249543
0.821197 0.722693 0.283583
0.086636 0.833440 0.143089
0.089517 0.831734 0.147083
0.111082 0.826176 0.166008
0.168093 0.816019 0.186032
0.295836 0.802441 0.203588
0.453773 0.789558 0.216860
0.600954 0.780447 0.228513
0.729397 0.776230 0.240784
0.814121 0.774997 0.255308
0.074430 0.838952 0.087233
0.083297 0.856324 0.087169
0.082902 0.852829 0.086956
0.082293 0.847304 0.086620
0.189936 0.840644 0.118206
0.365194 0.831314 0.149795
0.533116 0.824455 0.168108
0.664164 0.820359 0.179426
0.812952 0.820057 0.184398
0.069414 0.176737 0.563361
0.087161 0.352105 0.728119
0.539027 0.405904 0.754792
0.783258 0.423657 0.748342
0.843307 0.414523 0.716435
0.857722 0.407905 0.692922
0.866814 0.406000 0.689767
0.873981 0.366742 0.708043
0.870143 0.433526 0.696290
0.073462 0.239690 0.576943
0.096438 0.329807 0.673469
0.491669 0.409458 0.729407
0.745316 0.407045 0.708707
0.821314 0.399531 0.681727
0.849828 0.404125 0.667389
0.862166 0.407901 0.673224
0.870944 0.371876 0.700457
0.868256 0.428970 0.693139
0.082516 0.316491 0.479538
0.097251 0.310515 0.478437
0.253036 0.310255 0.505420
0.572787 0.331298 0.526617
0.743891 0.374178 0.552261
0.814681 0.410998 0.575425
0.846886 0.430944 0.606206
0.859859 0.433293 0.657764
0.862112 0.414443 0.683021
0.092970 0.453482 0.424270
0.105032 0.436027 0.410940
0.168330 0.385969 0.372442
0.345057 0.345069 0.346298
0.612654 0.399168 0.403859
0.755048 0.447987 0.454047
0.816106 0.481628 0.506558
0.845223 0.500945 0.580090
0.853001 0.391275 0.662625
0.108788 0.613896 0.422705
0.119918 0.603212 0.415250
0.175295 0.573015 0.393868
0.310414 0.535167 0.365207
0.498083 0.504478 0.351688
0.675398 0.530236 0.381003
0.779744 0.558480 0.420588
0.823938 0.575109 0.478866
0.842650 0.600919 0.625346
0.116873 0.714524 0.407073
0.125735 0.708650 0.403970
0.173692 0.691673 0.394919
0.286491 0.667278 0.379674
0.442358 0.644917 0.367189
0.605822 0.631630 0.364492
0.731022 0.637874 0.381510
0.802820 0.649921 0.415015
0.829374 0.667095 0.550643
0.114302 0.780809 0.377719
0.121351 0.777801 0.376987
0.158127 0.768698 0.376493
0.251561 0.754672 0.373471
0.388245 0.738953 0.369221
0.550842 0.723277 0.367504
0.680148 0.715124 0.371000
0.781813 0.715755 0.384873
0.819405 0.725932 0.457859
0.098061 0.828567 0.332464
0.103119 0.827036 0.333571
0.130629 0.821781 0.341263
0.198840 0.811020 0.347732
0.329032 0.798346 0.352730
0.484181 0.786599 0.356541
0.623105 0.778629 0.361216
0.747351 0.775466 0.368671
0.813590 0.775775 0.401965
0.077554 0.847332 0.295676
0.082990 0.856757 0.294116
0.082614 0.853407 0.288934
0.101873 0.850598 0.213919
0.231712 0.838209 0.304869
0.392401 0.830051 0.317946
0.554354 0.824023 0.326847
0.679321 0.820496 0.332335
0.813014 0.820927 0.342518
0.071333 0.294347 0.710589
0.079106 0.404105 0.772536
0.454442 0.496694 0.815376
0.764955 0.519394 0.815792
0.850446 0.534724 0.809854
0.862767 0.502784 0.780212
0.869125 0.480706 0.763794
0.873506 0.437921 0.757751
0.870147 0.459575 0.754681
0.073993 0.343247 0.717562
0.086446 0.422514 0.765188
0.420574 0.510824 0.808479
0.747440 0.536093 0.810775
0.834019 0.520458 0.789325
0.854961 0.499099 0.767210
0.864399 0.482937 0.754560
0.870433 0.443545 0.750966
0.868202 0.453742 0.749016
0.091838 0.464970 0.704601
0.114792 0.473853 0.713475
0.316825 0.496789 0.738117
0.621819 0.491283 0.730609
0.766771 0.490214 0.719686
0.823190 0.499877 0.715715
0.848881 0.503395 0.717722
0.859815 0.491335 0.725979
0.861846 0.435198 0.730860
0.100130 0.491739 0.596120
0.114705 0.483304 0.592396
0.200645 0.464993 0.588863
0.419494 0.456013 0.592398
0.645966 0.475684 0.608254
0.766316 0.511170 0.632025
0.818163 0.538809 0.657014
0.844839 0.547633 0.687305
0.852569 0.506402 0.712948
0.116259 0.605017 0.568366
0.128145 0.597065 0.562290
0.187800 0.573289 0.545674
0.324791 0.540733 0.524126
0.507397 0.512107 0.510684
0.683933 0.549263 0.546552
0.781020 0.579384 0.586113
0.822336 0.600098 0.627162
0.841336 0.619241 0.687121
0.128855 0.704221 0.557721
0.139600 0.699230 0.553776
0.191984 0.684401 0.542927
0.306130 0.662344 0.527843
0.463465 0.641135 0.514722
0.617354 0.628543 0.510791
0.737231 0.642067 0.531148
0.801560 0.657965 0.567687
0.826905 0.678768 0.649225
0.128327 0.773792 0.541429
0.136870 0.771137 0.539208
0.178887 0.762876 0.533206
0.278839 0.750018 0.524605
0.413506 0.734518 0.516251
0.571006 0.720245 0.511141
0.693226 0.714053 0.512217
0.784372 0.718228 0.526308
0.817340 0.734213 0.603119
0.109867 0.824463 0.520385
0.115456 0.823062 0.518995
0.148094 0.816923 0.516102
0.224404 0.807039 0.511584
0.353179 0.795387 0.507187
0.505586 0.784779 0.503303
0.641708 0.777929 0.502572
0.759650 0.775984 0.507028
0.812677 0.779220 0.547003
0.078664 0.848410 0.579915
0.079395 0.848991 0.578459
0.080904 0.849409 0.573579
0.129122 0.844364 0.496446
0.255164 0.836587 0.489561
0.410210 0.829311 0.486007
0.567474 0.823961 0.484301
0.691072 0.821265 0.484561
0.812741 0.823363 0.504356
0.073193 0.428026 0.805932
0.078037 0.489535 0.834480
0.385866 0.569727 0.854981
0.739511 0.585579 0.855851
0.849813 0.603924 0.856438
0.869165 0.582175 0.839748
0.873394 0.553048 0.816871
0.875441 0.505968 0.799883
0.871421 0.476961 0.783210
0.075266 0.460517 0.809526
0.082936 0.512028 0.833724
0.373865 0.581524 0.853510
0.725707 0.598009 0.854841
0.844859 0.612116 0.853680
0.861769 0.579345 0.831707
0.868760 0.554366 0.809617
0.872363 0.511580 0.795038
0.869437 0.471575 0.780129
0.096770 0.571255 0.813325
0.118817 0.587453 0.825394
0.357284 0.630518 0.845914
0.654537 0.611478 0.834379
0.786262 0.591617 0.813648
0.835822 0.577894 0.796930
0.853510 0.566477 0.785671
0.861901 0.547854 0.778709
0.862920 0.454223 0.770043
0.112622 0.576092 0.737818
0.128801 0.575366 0.739456
0.250305 0.579180 0.749494
0.489020 0.576127 0.750142
0.681565 0.575570 0.746451
0.781903 0.580462 0.745594
0.825305 0.587022 0.748051
0.846674 0.585278 0.752906
0.853063 0.551011 0.753657
0.124104 0.624742 0.682683
0.136744 0.619854 0.679989
0.207539 0.607626 0.675794
0.361049 0.590796 0.670125
0.563994 0.583881 0.669633
0.703834 0.596493 0.682648
0.786855 0.616974 0.698335
0.824033 0.631168 0.716063
0.841281 0.640059 0.733941
0.136159 0.701760 0.659305
0.147898 0.697960 0.656446
0.202892 0.686384 0.648817
0.319674 0.668333 0.638271
0.477490 0.649160 0.627416
0.622314 0.636361 0.619965
0.741951 0.656352 0.646472
0.801629 0.674206 0.677790
0.825825 0.691410 0.711537
0.137373 0.769674 0.644614
0.146881 0.767402 0.642450
0.191536 0.760330 0.636543
0.292949 0.749109 0.628494
0.429359 0.735215 0.620892
0.581321 0.721841 0.615815
0.699474 0.716904 0.617181
0.784856 0.725897 0.636004
0.815710 0.743428 0.689831
0.116318 0.821414 0.630281
0.122472 0.819740 0.628540
0.157991 0.814162 0.623736
0.240117 0.805236 0.617211
0.367251 0.794712 0.611211
0.519331 0.785186 0.607067
0.653751 0.779307 0.605862
0.765827 0.778545 0.609496
0.811583 0.785659 0.657058
0.078866 0.846291 0.614321
0.079483 0.846791 0.615194
0.080709 0.847030 0.618931
0.132164 0.843430 0.611760
0.263819 0.836153 0.602987
0.417756 0.829565 0.597372
0.572713 0.824909 0.594116
0.697334 0.823165 0.592813
0.812279 0.827240 0.625603
0.075238 0.560045 0.867969
0.080150 0.586430 0.878664
0.311546 0.627701 0.885933
0.723137 0.641149 0.886543
0.847274 0.654341 0.887066
0.875744 0.648625 0.877733
0.878636 0.610316 0.856670
0.878660 0.564610 0.840569
0.873531 0.503826 0.818924
0.077522 0.577249 0.869187
0.083941 0.599531 0.878258
0.315337 0.638821 0.885584
0.712436 0.650414 0.886346
0.844640 0.663552 0.886921
0.868998 0.645767 0.871253
0.874204 0.611150 0.852249
0.875646 0.568230 0.837583
0.871542 0.497925 0.815470
0.099059 0.647281 0.871416
0.116749 0.655927 0.876312
0.333023 0.677756 0.883430
0.676444 0.688563 0.884906
0.804391 0.664055 0.866921
0.846842 0.643050 0.850856
0.859585 0.620472 0.837930
0.865463 0.592439 0.824485
0.864969 0.478486 0.803579
0.127771 0.665963 0.840438
0.146690 0.666392 0.841555
0.285776 0.668355 0.842691
0.540976 0.660495 0.837245
0.715258 0.651099 0.827208
0.799193 0.643953 0.816658
0.835942 0.637176 0.808250
0.850337 0.624642 0.801793
0.854535 0.599797 0.793889
0.135057 0.667510 0.777765
0.149561 0.666154 0.778163
0.233945 0.664091 0.780325
0.408310 0.658176 0.778709
0.607860 0.653266 0.774940
0.732264 0.653654 0.773106
0.797811 0.656845 0.773878
0.829304 0.658993 0.776163
0.842587 0.659566 0.777445
0.143204 0.714133 0.742698
0.154701 0.711672 0.741786
0.213762 0.704852 0.740401
0.340666 0.693734 0.737605
0.509207 0.682043 0.732803
0.657634 0.677897 0.731200
0.756102 0.685353 0.738435
0.805378 0.695892 0.750053
0.826814 0.706099 0.761381
0.140877 0.770649 0.721891
0.150674 0.768888 0.720736
0.197169 0.763393 0.717924
0.301134 0.754470 0.714435
0.441998 0.744039 0.710909
0.590709 0.732750 0.707093
0.701770 0.724602 0.703862
0.786184 0.739877 0.722229
0.815359 0.752021 0.745297
0.116112 0.821033 0.706353
0.122421 0.819571 0.705198
0.159121 0.814643 0.702066
0.243821 0.806839 0.698030
0.372404 0.797609 0.694667
0.526079 0.789164 0.692630
0.658788 0.784008 0.692684
0.767898 0.784150 0.697349
0.810706 0.793369 0.730619
0.078459 0.843521 0.669415
0.079717 0.845286 0.668318
0.081119 0.845973 0.664877
0.120036 0.844699 0.686427
0.255716 0.837263 0.680054
0.413627 0.831227 0.675552
0.571128 0.827139 0.672838
0.696313 0.825927 0.671691
0.811889 0.832904 0.718071
0.080265 0.656329 0.906514
0.085606 0.658931 0.907443
0.345419 0.671201 0.907942
0.741759 0.681381 0.908064
0.851720 0.692944 0.908291
0.883619 0.697068 0.906037
0.884526 0.658034 0.889685
0.882940 0.608400 0.872449
0.875930 0.544289 0.850996
0.083097 0.664773 0.906418
0.089653 0.667312 0.907295
0.351558 0.679788 0.907920
0.733790 0.689837 0.908060
0.849810 0.701305 0.908289
0.877639 0.693826 0.901817
0.880436 0.657988 0.886137
0.880040 0.611616 0.869446
0.873975 0.542382 0.848860
0.111526 0.708612 0.906032
0.128561 0.710388 0.906648
0.380297 0.719822 0.907531
0.703386 0.728019 0.907830
0.829040 0.719368 0.901468
0.857679 0.691659 0.888360
0.866785 0.664947 0.872360
0.870242 0.633195 0.859419
0.867542 0.553373 0.841770
0.151531 0.742247 0.895247
0.172627 0.740254 0.894471
0.352360 0.734365 0.891121
0.604093 0.720617 0.883256
0.759863 0.705054 0.872366
0.820978 0.690290 0.861668
0.846394 0.675261 0.852161
0.855533 0.656631 0.844324
0.857024 0.631616 0.836154
0.153489 0.725067 0.852067
0.169530 0.723771 0.851808
0.284833 0.720812 0.850122
0.478891 0.712792 0.845495
0.663060 0.704411 0.839856
0.768069 0.698133 0.834704
0.813108 0.692786 0.828858
0.837814 0.685412 0.824269
0.845003 0.678805 0.819259
0.151883 0.743918 0.816994
0.163822 0.742926 0.817123
0.239557 0.740329 0.816945
0.376351 0.732353 0.812855
0.563231 0.723778 0.806805
0.694234 0.719198 0.802231
0.777227 0.718916 0.800557
0.813568 0.719577 0.801202
0.829949 0.722080 0.801888
0.142045 0.779899 0.788083
0.151645 0.778786 0.788225
0.203564 0.775683 0.789487
0.312809 0.769575 0.789324
0.467984 0.761474 0.786159
0.617098 0.754395 0.781662
0.727376 0.752270 0.779796
0.793153 0.755823 0.783293
0.817176 0.761790 0.788285
0.108081 0.825285 0.766516
0.114026 0.824332 0.766131
0.151218 0.820462 0.765800
0.237155 0.813973 0.766078
0.371892 0.806527 0.767309
0.531342 0.799608 0.767965
0.664831 0.794826 0.767723
0.767857 0.791829 0.766613
0.810752 0.801287 0.779662
0.077472 0.840557 0.725548
0.080919 0.846829 0.725796
0.081198 0.845859 0.730274
0.105230 0.846351 0.738548
0.224514 0.840620 0.736689
0.394609 0.835002 0.735845
0.560591 0.831415 0.735908
0.686052 0.830521 0.735793
0.811655 0.838493 0.774668
0.298850 0.700188 0.927206
0.382860 0.701506 0.927206
0.687884 0.706716 0.927207
0.841080 0.715779 0.927228
0.876609 0.726304 0.927281
0.898323 0.734856 0.927400
0.894286 0.690566 0.910863
0.889296 0.629361 0.896865
0.878039 0.574675 0.880316
0.304348 0.706813 0.927122
0.385397 0.708150 0.927124
0.684444 0.713419 0.927130
0.839160 0.722558 0.927158
0.876078 0.732997 0.927219
0.893734 0.731759 0.923771
0.890647 0.689279 0.907963
0.886594 0.629427 0.894741
0.876128 0.578804 0.880754
0.338279 0.739712 0.926709
0.405520 0.740867 0.926719
0.671742 0.744594 0.926757
0.830156 0.751072 0.926834
0.871100 0.754082 0.924901
0.877524 0.726747 0.911083
0.878634 0.692397 0.898457
0.877515 0.642363 0.887467
0.869753 0.563964 0.873573
0.374628 0.782271 0.923259
0.418942 0.779831 0.921930
0.622786 0.772045 0.917480
0.784071 0.760275 0.910387
0.837297 0.746016 0.901762
0.853445 0.727376 0.892770
0.860450 0.704123 0.882688
0.863527 0.671826 0.872000
0.860104 0.652453 0.862936
0.302187 0.765349 0.891857
0.332065 0.763813 0.891058
0.493582 0.759014 0.888395
0.689921 0.751999 0.882532
0.782495 0.743920 0.875360
0.819157 0.733612 0.867990
0.839782 0.720424 0.861056
0.847950 0.701393 0.854878
0.848597 0.688140 0.849882
0.232310 0.771295 0.863636
0.256638 0.769956 0.862781
0.367679 0.765829 0.859956
0.579291 0.760012 0.855553
0.710739 0.753982 0.850582
0.779904 0.748684 0.846021
0.810094 0.743425 0.842293
0.828985 0.734572 0.839368
0.835572 0.732570 0.837279
0.169745 0.798692 0.847271
0.183865 0.797379 0.846559
0.265553 0.793173 0.844145
0.429645 0.786721 0.840259
0.617031 0.779820 0.835754
0.726626 0.774370 0.830585
0.784113 0.770827 0.826619
0.810662 0.767214 0.824728
0.822073 0.769248 0.824353
0.102964 0.834671 0.836644
0.108666 0.833989 0.836639
0.143898 0.831308 0.835672
0.261276 0.826381 0.832438
0.442192 0.819794 0.827011
0.626866 0.813004 0.821446
0.742723 0.808739 0.817030
0.795839 0.806345 0.815082
0.813987 0.807642 0.815711
0.076349 0.837413 0.768744
0.081149 0.848128 0.782170
0.080971 0.846170 0.780190
0.085207 0.843960 0.776995
0.156202 0.850049 0.802730
0.358345 0.846587 0.817183
0.545483 0.842880 0.815215
0.687816 0.841999 0.813623
0.811655 0.844004 0.813300
