negative-ektar-100/Ektar100_Modern_ExtraSoft.cube
TITLE "Kodak Ektar 100 Modern ExtraSoft"
# Adobe RGB in/out. REPLACES AgX. Kodak Ektar 100 Modern ExtraSoft.
LUT_3D_SIZE 33
DOMAIN_MIN 0.0 0.0 0.0
DOMAIN_MAX 1.0 1.0 1.0
0.059045 0.065518 0.079897
0.059209 0.065518 0.079897
0.061396 0.065560 0.079897
0.070091 0.065982 0.079897
0.085529 0.067557 0.079897
0.116904 0.071099 0.080155
0.182081 0.077002 0.080214
0.271374 0.084035 0.080469
0.360415 0.092822 0.080809
0.430893 0.103048 0.081646
0.494341 0.116433 0.082661
0.537318 0.133503 0.083751
0.575429 0.155578 0.085287
0.611044 0.183736 0.086710
0.645424 0.218595 0.088130
0.671079 0.255963 0.089833
0.690085 0.295303 0.091429
0.708136 0.329847 0.093033
0.725310 0.364396 0.095343
0.741674 0.398042 0.097759
0.757290 0.421976 0.099853
0.772236 0.445732 0.102265
0.784807 0.468992 0.104777
0.794048 0.491171 0.107204
0.802886 0.513105 0.109551
0.811347 0.529411 0.111821
0.819454 0.544612 0.114459
0.826630 0.559452 0.117385
0.833219 0.573936 0.120236
0.839539 0.588071 0.123015
0.845605 0.601861 0.125721
0.850040 0.614490 0.129092
0.854089 0.623011 0.132412
0.059045 0.065518 0.079897
0.059045 0.065518 0.079897
0.060269 0.065583 0.079897
0.067475 0.066099 0.079897
0.082332 0.067759 0.079897
0.112020 0.071415 0.080132
0.172040 0.077385 0.080197
0.260758 0.084479 0.080439
0.352169 0.093223 0.080774
0.426067 0.103616 0.081583
0.490041 0.117112 0.082612
0.534930 0.134326 0.083702
0.573473 0.156391 0.085227
0.609322 0.184749 0.086661
0.643895 0.219786 0.088072
0.670260 0.257121 0.089782
0.689360 0.296476 0.091385
0.707489 0.330787 0.092984
0.724730 0.365321 0.095277
0.741151 0.398652 0.097708
0.756815 0.422558 0.099807
0.771805 0.446291 0.102211
0.784544 0.469503 0.104728
0.793809 0.491662 0.107159
0.802668 0.513578 0.109510
0.811148 0.529737 0.111783
0.819271 0.544923 0.114411
0.826482 0.559750 0.117341
0.833082 0.574222 0.120195
0.839413 0.588345 0.122976
0.845488 0.602125 0.125685
0.849962 0.614656 0.129049
0.854016 0.623169 0.132371
0.059045 0.066207 0.079897
0.059162 0.066081 0.079897
0.059801 0.065934 0.079897
0.063565 0.066586 0.079897
0.074068 0.068384 0.079897
0.098579 0.072455 0.080064
0.145761 0.078521 0.080158
0.229201 0.085933 0.080347
0.326170 0.094542 0.080706
0.410190 0.105558 0.081377
0.475637 0.119462 0.082449
0.526782 0.137202 0.083537
0.566734 0.159407 0.085024
0.603353 0.188328 0.086490
0.638564 0.224009 0.087869
0.667387 0.261232 0.089605
0.686809 0.300622 0.091230
0.705209 0.334132 0.092813
0.722679 0.368615 0.095046
0.739297 0.400823 0.097529
0.755132 0.424634 0.099645
0.770277 0.448288 0.102020
0.783607 0.471327 0.104553
0.792958 0.493418 0.106999
0.801892 0.515271 0.109363
0.810438 0.530902 0.111648
0.818620 0.546038 0.114240
0.825952 0.560817 0.117182
0.832595 0.575245 0.120047
0.838963 0.589328 0.122838
0.845073 0.603070 0.125556
0.849683 0.615249 0.128894
0.853758 0.623736 0.132226
0.059045 0.069841 0.079897
0.059296 0.069578 0.079897
0.060349 0.068990 0.079897
0.063161 0.068568 0.079897
0.069840 0.069722 0.079897
0.086463 0.073967 0.079970
0.120556 0.080350 0.080162
0.189961 0.088334 0.080271
0.289858 0.096721 0.080607
0.386003 0.108851 0.081110
0.452849 0.123516 0.082189
0.513372 0.142237 0.083267
0.555275 0.165635 0.084685
0.593181 0.195516 0.086201
0.629376 0.231548 0.087584
0.662372 0.268627 0.089300
0.682324 0.306718 0.090960
0.701177 0.340161 0.092515
0.719036 0.374566 0.094641
0.735991 0.404737 0.097212
0.752123 0.428388 0.099356
0.767537 0.451907 0.101666
0.781922 0.474638 0.104241
0.791423 0.496609 0.106713
0.800490 0.517626 0.109100
0.809154 0.533024 0.111405
0.817441 0.548068 0.113933
0.824993 0.562762 0.116895
0.831711 0.577112 0.119780
0.838147 0.591122 0.122589
0.844317 0.604796 0.125323
0.849176 0.616332 0.128613
0.853288 0.624774 0.131961
0.059232 0.079589 0.079897
0.059480 0.079251 0.079897
0.061088 0.078162 0.079897
0.065298 0.076692 0.079897
0.071011 0.075771 0.079897
0.081546 0.077768 0.079950
0.106863 0.083702 0.080165
0.156763 0.091886 0.080227
0.247073 0.100990 0.080508
0.345606 0.113457 0.080921
0.425864 0.129209 0.081886
0.493936 0.149378 0.082937
0.539690 0.174568 0.084257
0.579701 0.206078 0.085823
0.616981 0.242011 0.087252
0.652717 0.279365 0.088889
0.676083 0.315545 0.090592
0.695516 0.348918 0.092183
0.713884 0.383235 0.094075
0.731287 0.410422 0.096739
0.747824 0.433863 0.098949
0.763605 0.457200 0.101163
0.778692 0.479489 0.103797
0.789204 0.501295 0.106304
0.798457 0.520886 0.108722
0.807287 0.536144 0.111056
0.815722 0.551058 0.113490
0.823592 0.565632 0.116482
0.830417 0.579870 0.119393
0.836951 0.593775 0.122227
0.843209 0.607351 0.124985
0.848430 0.617935 0.128205
0.852597 0.626309 0.131576
0.059605 0.101155 0.079897
0.060180 0.100325 0.079897
0.063152 0.097560 0.079912
0.069003 0.094480 0.079967
0.075272 0.090646 0.080017
0.084776 0.088713 0.080087
0.100606 0.090268 0.080165
0.139798 0.096937 0.080209
0.213542 0.107746 0.080443
0.309492 0.120921 0.080775
0.399176 0.137772 0.081604
0.466303 0.158731 0.082659
0.522400 0.186273 0.083801
0.564259 0.219971 0.085405
0.602438 0.255719 0.086873
0.639070 0.293436 0.088408
0.668451 0.327041 0.090153
0.688509 0.360351 0.091782
0.707441 0.394526 0.093506
0.725355 0.417825 0.096098
0.742373 0.441032 0.098443
0.758591 0.464079 0.100570
0.774071 0.485873 0.103237
0.786342 0.507478 0.105785
0.795826 0.525185 0.108240
0.804862 0.540266 0.110609
0.813485 0.555016 0.112921
0.821721 0.569437 0.115949
0.828724 0.583532 0.118894
0.835382 0.597304 0.121758
0.841753 0.610754 0.124545
0.847449 0.620068 0.127673
0.851685 0.628356 0.131074
0.060394 0.137707 0.080126
0.061262 0.138373 0.080141
0.065365 0.132850 0.080161
0.072001 0.123734 0.080165
0.080727 0.113727 0.080164
0.090248 0.108244 0.080162
0.107009 0.106113 0.080158
0.131088 0.107113 0.080220
0.191886 0.117386 0.080426
0.281336 0.131235 0.080734
0.371340 0.149967 0.081398
0.440692 0.173404 0.082435
0.505219 0.202827 0.083512
0.547700 0.237151 0.084999
0.586952 0.272812 0.086489
0.624191 0.308931 0.087905
0.659899 0.341165 0.089680
0.680537 0.374404 0.091341
0.700019 0.403884 0.092992
0.718462 0.426885 0.095376
0.735988 0.449838 0.097865
0.752672 0.472198 0.100033
0.768581 0.493751 0.102587
0.782915 0.515126 0.105178
0.792660 0.530496 0.107673
0.801933 0.545372 0.110079
0.810771 0.559930 0.112399
0.819204 0.574170 0.115312
0.826658 0.588095 0.118295
0.833461 0.601706 0.121195
0.839966 0.614292 0.124014
0.846190 0.622733 0.127030
0.850561 0.630916 0.130465
0.061529 0.193658 0.080158
0.062861 0.194598 0.080157
0.067535 0.190824 0.080178
0.074303 0.172182 0.080183
0.085111 0.154625 0.080195
0.098419 0.142681 0.080220
0.115460 0.135211 0.080259
0.142806 0.132425 0.080321
0.182713 0.133720 0.080474
0.258465 0.147688 0.080732
0.344259 0.167243 0.081303
0.419085 0.192524 0.082289
0.483147 0.224214 0.083295
0.531515 0.257744 0.084653
0.571648 0.293645 0.086138
0.609070 0.325869 0.087514
0.645262 0.357966 0.089213
0.672026 0.391082 0.090892
0.691983 0.414858 0.092472
0.710924 0.437558 0.094617
0.728931 0.460230 0.097248
0.746072 0.481789 0.099453
0.762410 0.503077 0.101875
0.778003 0.521832 0.104510
0.789048 0.536783 0.107044
0.798574 0.551429 0.109487
0.807644 0.565770 0.111843
0.816291 0.579806 0.114594
0.824257 0.593539 0.117615
0.831224 0.606969 0.120552
0.837878 0.617606 0.123406
0.844240 0.625918 0.126293
0.849241 0.633980 0.129764
0.063620 0.276972 0.080287
0.064963 0.277927 0.080295
0.069758 0.269929 0.080308
0.077632 0.247778 0.080318
0.088720 0.223617 0.080342
0.105467 0.201669 0.080384
0.126597 0.185881 0.080451
0.155507 0.177310 0.080543
0.199394 0.174185 0.080659
0.252013 0.175798 0.080806
0.325241 0.192101 0.081324
0.402164 0.219649 0.082235
0.462791 0.249983 0.083166
0.517063 0.282950 0.084404
0.557395 0.315265 0.085854
0.594552 0.345813 0.087215
0.630714 0.377610 0.088788
0.663396 0.405188 0.090469
0.683726 0.427484 0.092060
0.703071 0.449834 0.093871
0.721488 0.471698 0.096579
0.739037 0.492818 0.098861
0.755772 0.513815 0.101111
0.771747 0.529324 0.103811
0.785094 0.544007 0.106380
0.794875 0.558402 0.108856
0.804183 0.572506 0.111245
0.813051 0.586319 0.113818
0.821509 0.599839 0.116876
0.828713 0.613027 0.119849
0.835527 0.621442 0.122739
0.842037 0.629611 0.125548
0.847744 0.637538 0.128989
0.065876 0.361267 0.080564
0.067287 0.358990 0.080569
0.071873 0.347247 0.080573
0.080745 0.328920 0.080582
0.092887 0.307549 0.080602
0.111501 0.283632 0.080635
0.137128 0.262317 0.080685
0.171570 0.246850 0.080755
0.216782 0.237641 0.080914
0.269888 0.234352 0.081144
0.322857 0.236262 0.081600
0.389640 0.252429 0.082273
0.446681 0.281296 0.083133
0.504826 0.311059 0.084270
0.543997 0.339255 0.085662
0.581255 0.369107 0.086986
0.617027 0.398436 0.088436
0.652040 0.420029 0.090102
0.675600 0.441831 0.091690
0.695215 0.463701 0.093370
0.713939 0.484521 0.095896
0.731815 0.505285 0.098288
0.748887 0.523091 0.100443
0.765199 0.537747 0.103115
0.780795 0.552139 0.105708
0.790934 0.566261 0.108212
0.800472 0.580108 0.110629
0.809559 0.593679 0.113014
0.818223 0.606970 0.116104
0.825980 0.617532 0.119110
0.832958 0.625781 0.122033
0.839622 0.633793 0.124874
0.845990 0.641574 0.128161
0.068566 0.423632 0.080818
0.069899 0.421491 0.080820
0.073904 0.414223 0.080829
0.083708 0.402380 0.080848
0.097585 0.384468 0.080884
0.116833 0.361907 0.080943
0.146448 0.341295 0.081030
0.186224 0.324429 0.081148
0.233740 0.312246 0.081408
0.287617 0.305000 0.081745
0.337386 0.302472 0.082136
0.390126 0.304166 0.082570
0.434435 0.315518 0.083192
0.491403 0.340317 0.084257
0.532640 0.367285 0.085571
0.569601 0.395621 0.086841
0.604735 0.415991 0.088185
0.639349 0.436838 0.089817
0.667897 0.458012 0.091383
0.687632 0.478532 0.092973
0.706539 0.498876 0.095287
0.724640 0.518251 0.097762
0.741965 0.532780 0.099922
0.758549 0.547088 0.102450
0.774426 0.561160 0.105058
0.786854 0.574985 0.107580
0.796604 0.588555 0.110017
0.805896 0.601864 0.112372
0.814757 0.614228 0.115325
0.823083 0.622531 0.118358
0.830222 0.630603 0.121309
0.837038 0.638448 0.124178
0.843551 0.646071 0.127304
0.071204 0.473900 0.081339
0.072339 0.472113 0.081343
0.077310 0.465979 0.081359
0.086575 0.455381 0.081392
0.101982 0.441572 0.081451
0.123693 0.426399 0.081542
0.154667 0.411493 0.081674
0.199473 0.398172 0.081850
0.249521 0.383985 0.082076
0.301846 0.372558 0.082352
0.351937 0.365835 0.082675
0.399155 0.363589 0.083081
0.436884 0.365394 0.083579
0.479417 0.374213 0.084357
0.523449 0.398077 0.085588
0.559840 0.416534 0.086793
0.594102 0.435827 0.088048
0.628065 0.455758 0.089628
0.660834 0.475460 0.091158
0.680541 0.495071 0.092660
0.699498 0.514839 0.094781
0.717713 0.529336 0.097309
0.735198 0.543431 0.099460
0.751974 0.557350 0.101840
0.768066 0.571066 0.104455
0.782733 0.584565 0.106983
0.792667 0.597832 0.109432
0.802142 0.610859 0.111801
0.811183 0.619907 0.114563
0.819816 0.628009 0.117616
0.827370 0.635892 0.120588
0.834334 0.643559 0.123481
0.840987 0.651014 0.126440
0.073641 0.519991 0.082068
0.075069 0.518856 0.082072
0.080753 0.514603 0.082088
0.089371 0.505359 0.082120
0.106191 0.493197 0.082173
0.130022 0.479373 0.082253
0.164461 0.465211 0.082365
0.211238 0.451300 0.082514
0.263783 0.439094 0.082703
0.314930 0.429356 0.082947
0.365850 0.422443 0.083286
0.408089 0.418455 0.083674
0.445204 0.417294 0.084264
0.484005 0.418732 0.084958
0.516301 0.422836 0.085706
0.551570 0.439944 0.086838
0.585196 0.458028 0.088030
0.618335 0.476162 0.089544
0.651205 0.494593 0.091023
0.674095 0.513411 0.092459
0.692981 0.527774 0.094401
0.711197 0.541460 0.096947
0.728742 0.555064 0.099074
0.745624 0.568543 0.101298
0.761858 0.581863 0.103922
0.777459 0.595001 0.106445
0.788745 0.607936 0.108893
0.798374 0.617970 0.111268
0.807572 0.626063 0.113843
0.816362 0.633950 0.116907
0.824453 0.641632 0.119893
0.831554 0.649110 0.122803
0.838341 0.656387 0.125636
0.077400 0.553363 0.082729
0.078963 0.552379 0.082733
0.084106 0.548951 0.082749
0.093393 0.543050 0.082778
0.110284 0.535096 0.082827
0.135988 0.525767 0.082904
0.173139 0.515842 0.083027
0.221757 0.502378 0.083188
0.276585 0.490072 0.083391
0.326836 0.479610 0.083638
0.378957 0.471422 0.084002
0.416735 0.465732 0.084499
0.453568 0.462580 0.085056
0.491811 0.461851 0.085669
0.520455 0.463472 0.086327
0.546074 0.467073 0.087016
0.577938 0.481553 0.088124
0.610169 0.498301 0.089564
0.642273 0.515707 0.090982
0.668385 0.528581 0.092369
0.687093 0.541584 0.094161
0.705209 0.554646 0.096649
0.722721 0.567697 0.098780
0.739625 0.580683 0.100863
0.755923 0.593562 0.103478
0.771625 0.606299 0.105982
0.784914 0.616808 0.108420
0.794664 0.624838 0.110789
0.803990 0.632684 0.113188
0.812913 0.640343 0.116252
0.821451 0.647812 0.119243
0.828747 0.655091 0.122162
0.835655 0.662180 0.125007
0.081299 0.585460 0.083446
0.082701 0.584602 0.083451
0.087374 0.581602 0.083470
0.098007 0.576388 0.083505
0.114334 0.569258 0.083562
0.141774 0.560736 0.083643
0.181306 0.551453 0.083754
0.231365 0.542049 0.083956
0.287545 0.533105 0.084221
0.337573 0.525098 0.084542
0.388857 0.518388 0.084920
0.424799 0.512235 0.085356
0.461618 0.507380 0.085848
0.499575 0.504856 0.086390
0.524986 0.504573 0.086974
0.550074 0.506368 0.087597
0.574348 0.510038 0.088449
0.603470 0.520601 0.089683
0.634752 0.532278 0.091034
0.663440 0.544286 0.092365
0.681890 0.556523 0.094065
0.699823 0.568901 0.096482
0.717220 0.581342 0.098587
0.734066 0.593783 0.100582
0.750357 0.606172 0.103136
0.766093 0.616546 0.105610
0.781237 0.624440 0.108025
0.791072 0.632182 0.110379
0.800496 0.639764 0.112670
0.809524 0.647179 0.115669
0.818174 0.654421 0.118656
0.825953 0.661489 0.121574
0.832969 0.668380 0.124423
0.085030 0.615192 0.084316
0.086296 0.614703 0.084323
0.090781 0.612982 0.084350
0.102643 0.608383 0.084400
0.119245 0.601995 0.084479
0.147469 0.594243 0.084592
0.189109 0.585635 0.084743
0.240212 0.576713 0.084936
0.295907 0.567989 0.085174
0.347133 0.559908 0.085462
0.395798 0.552824 0.085799
0.432105 0.547001 0.086187
0.469095 0.542606 0.086622
0.504888 0.539720 0.087104
0.529421 0.538348 0.087629
0.554107 0.538433 0.088369
0.577696 0.539873 0.089201
0.601228 0.542540 0.090071
0.628540 0.549987 0.091172
0.658944 0.561123 0.092443
0.677381 0.572560 0.094114
0.695070 0.584211 0.096449
0.712284 0.595995 0.098499
0.729007 0.607844 0.100445
0.745225 0.617347 0.102908
0.760934 0.625005 0.105339
0.776129 0.632561 0.107721
0.787649 0.639995 0.110050
0.797138 0.647295 0.112323
0.806244 0.654450 0.115174
0.814981 0.661452 0.118146
0.823214 0.668296 0.121056
0.830319 0.674979 0.123901
0.088601 0.634445 0.085269
0.089751 0.634022 0.085276
0.096031 0.632530 0.085302
0.107283 0.629897 0.085351
0.125238 0.626210 0.085426
0.153115 0.621662 0.085532
0.196646 0.616511 0.085672
0.248432 0.610036 0.085850
0.303405 0.601661 0.086069
0.355585 0.593690 0.086329
0.401878 0.586463 0.086632
0.438576 0.580248 0.086980
0.475840 0.575237 0.087371
0.509241 0.571546 0.087830
0.533602 0.569228 0.088492
0.557990 0.568275 0.089207
0.581024 0.568633 0.089969
0.604169 0.570215 0.090772
0.627439 0.572911 0.091608
0.653159 0.579007 0.092615
0.673538 0.589635 0.094301
0.690942 0.600535 0.096547
0.707928 0.611631 0.098517
0.724475 0.619396 0.100407
0.740568 0.626699 0.102796
0.756195 0.633963 0.105176
0.771349 0.641161 0.107516
0.784433 0.648268 0.109810
0.793956 0.655269 0.112056
0.803112 0.662149 0.114778
0.811910 0.668897 0.117727
0.820363 0.675505 0.120619
0.827739 0.681968 0.123452
0.093244 0.652695 0.086156
0.095030 0.652327 0.086163
0.101236 0.651028 0.086188
0.111910 0.648724 0.086235
0.131305 0.645474 0.086307
0.160129 0.641424 0.086406
0.203973 0.636779 0.086537
0.256143 0.631777 0.086702
0.310161 0.626661 0.086903
0.363032 0.621664 0.087141
0.407150 0.616992 0.087419
0.444204 0.612753 0.087736
0.481776 0.607347 0.088230
0.513123 0.603078 0.088782
0.537412 0.600028 0.089387
0.561414 0.598227 0.090042
0.584205 0.597661 0.090743
0.607048 0.598280 0.091485
0.629979 0.600006 0.092262
0.653009 0.602748 0.093205
0.670307 0.607662 0.094614
0.687410 0.616119 0.096769
0.704138 0.622866 0.098637
0.720473 0.629689 0.100465
0.736398 0.636546 0.102803
0.751901 0.643401 0.105123
0.766970 0.650224 0.107412
0.781453 0.656989 0.109665
0.790981 0.663675 0.111876
0.800158 0.670265 0.114492
0.808993 0.676746 0.117407
0.817494 0.683106 0.120273
0.825255 0.689337 0.123086
0.098858 0.670007 0.086977
0.100533 0.669686 0.086984
0.106378 0.668551 0.087008
0.116509 0.666530 0.087053
0.137432 0.663661 0.087122
0.167579 0.660056 0.087217
0.211148 0.655878 0.087341
0.263444 0.651321 0.087496
0.316293 0.646591 0.087684
0.369595 0.641889 0.087969
0.411686 0.637399 0.088327
0.449026 0.633284 0.088735
0.486890 0.629676 0.089194
0.516495 0.626678 0.089703
0.540780 0.624361 0.090260
0.564500 0.622766 0.090865
0.587136 0.621907 0.091513
0.609760 0.621774 0.092201
0.632425 0.622336 0.093026
0.655158 0.623548 0.094082
0.670684 0.625358 0.095557
0.684422 0.627872 0.097081
0.700879 0.634106 0.098853
0.716981 0.640445 0.100616
0.732712 0.646852 0.102924
0.748058 0.653291 0.105180
0.763007 0.659729 0.107412
0.777550 0.666139 0.109616
0.788230 0.672498 0.111785
0.797405 0.678786 0.114320
0.806253 0.684987 0.117194
0.814781 0.691088 0.120026
0.822889 0.695942 0.122811
0.104354 0.686439 0.087744
0.105930 0.686159 0.087753
0.111444 0.685164 0.087786
0.123239 0.683387 0.087847
0.143603 0.680852 0.087939
0.174979 0.677644 0.088066
0.218226 0.673893 0.088230
0.270414 0.669758 0.088434
0.321901 0.665411 0.088681
0.375388 0.661026 0.088971
0.415569 0.656767 0.089307
0.453100 0.652780 0.089688
0.491203 0.649191 0.090116
0.519350 0.646102 0.090589
0.543668 0.643590 0.091107
0.567191 0.641705 0.091669
0.589739 0.640477 0.092272
0.612218 0.639910 0.093011
0.634687 0.639994 0.093912
0.657184 0.640699 0.095249
0.671739 0.641987 0.096644
0.685157 0.643813 0.097927
0.698435 0.646126 0.099204
0.713965 0.651612 0.100917
0.729485 0.657575 0.103156
0.744653 0.663596 0.105342
0.759457 0.669645 0.107514
0.773886 0.675694 0.109663
0.785714 0.681717 0.111785
0.794865 0.687694 0.114265
0.803706 0.693339 0.117091
0.812240 0.697709 0.119882
0.820474 0.702001 0.122633
0.109726 0.699657 0.088743
0.111210 0.699473 0.088752
0.116421 0.698820 0.088784
0.130005 0.697649 0.088843
0.149799 0.695971 0.088932
0.182433 0.693832 0.089055
0.225227 0.690901 0.089212
0.277114 0.687161 0.089408
0.327069 0.683187 0.089642
0.380519 0.679128 0.089917
0.418878 0.675128 0.090234
0.456496 0.671319 0.090594
0.494765 0.667818 0.090995
0.521702 0.664722 0.091439
0.546067 0.662109 0.091924
0.569455 0.660037 0.092449
0.591964 0.658542 0.093136
0.614356 0.657643 0.093959
0.636690 0.657341 0.095157
0.659011 0.657622 0.096420
0.672706 0.658461 0.097629
0.685977 0.659825 0.098808
0.699104 0.661673 0.100025
0.712092 0.663962 0.101484
0.726686 0.668664 0.103489
0.741664 0.674275 0.105605
0.756306 0.679938 0.107712
0.770602 0.685623 0.109804
0.783434 0.691307 0.111875
0.792544 0.695859 0.114326
0.801359 0.700062 0.117099
0.809883 0.704213 0.119844
0.818119 0.708300 0.122554
0.114966 0.710709 0.089681
0.116367 0.710548 0.089690
0.123588 0.709977 0.089721
0.136777 0.708951 0.089779
0.156403 0.707475 0.089865
0.189927 0.705583 0.089984
0.232164 0.703338 0.090136
0.283587 0.700818 0.090323
0.331867 0.698113 0.090548
0.385033 0.695317 0.090810
0.421688 0.692520 0.091111
0.459289 0.688923 0.091452
0.497637 0.685558 0.091831
0.523580 0.682520 0.092250
0.547987 0.679883 0.092754
0.571282 0.677707 0.093372
0.593784 0.676034 0.094183
0.616132 0.674892 0.095252
0.638380 0.674291 0.096388
0.660229 0.674230 0.097495
0.673546 0.674693 0.098573
0.686697 0.675658 0.099695
0.699699 0.677096 0.100918
0.712558 0.678971 0.102512
0.725278 0.681247 0.104105
0.739059 0.685281 0.105960
0.753531 0.690566 0.108002
0.767680 0.695054 0.110034
0.781385 0.699057 0.112052
0.790440 0.703048 0.114502
0.799215 0.707015 0.117218
0.807714 0.710944 0.119910
0.815937 0.714824 0.122575
0.121755 0.721153 0.090564
0.123729 0.721013 0.090572
0.130769 0.720513 0.090603
0.143530 0.719613 0.090659
0.164742 0.718313 0.090743
0.197445 0.716641 0.090858
0.239039 0.714646 0.091005
0.288918 0.712392 0.091185
0.336349 0.709953 0.091401
0.387670 0.707410 0.091652
0.424067 0.704843 0.091940
0.461547 0.702331 0.092264
0.499883 0.699946 0.092652
0.525020 0.697751 0.093149
0.549451 0.695803 0.093691
0.572680 0.694146 0.094546
0.595190 0.692814 0.095498
0.617520 0.691599 0.096516
0.639719 0.690777 0.097504
0.660988 0.690448 0.098483
0.674227 0.690606 0.099509
0.687287 0.691238 0.100579
0.700187 0.692322 0.102042
0.712938 0.693509 0.103531
0.725548 0.694938 0.105062
0.738019 0.696639 0.106632
0.751100 0.699241 0.108377
0.765097 0.702962 0.110349
0.778783 0.706702 0.112311
0.788545 0.710445 0.114789
0.797271 0.714176 0.117443
0.805732 0.717884 0.120081
0.813931 0.721555 0.122696
0.129193 0.731026 0.091394
0.131098 0.730903 0.091402
0.137896 0.730465 0.091432
0.150240 0.729675 0.091487
0.172839 0.728531 0.091569
0.204939 0.727055 0.091680
0.245848 0.725284 0.091823
0.293813 0.723272 0.091997
0.340557 0.721081 0.092205
0.390027 0.718779 0.092446
0.426072 0.716434 0.092773
0.463336 0.714116 0.093161
0.501425 0.711889 0.093593
0.526059 0.709812 0.094231
0.550487 0.707935 0.095012
0.573665 0.706302 0.095859
0.596185 0.704947 0.096769
0.618511 0.703898 0.097629
0.640686 0.703171 0.098515
0.661541 0.702776 0.099450
0.674727 0.702716 0.100431
0.687719 0.702985 0.101728
0.700540 0.703573 0.103120
0.713204 0.704466 0.104551
0.725723 0.705646 0.106026
0.738101 0.707092 0.107540
0.750341 0.708785 0.109089
0.762824 0.711033 0.110740
0.776374 0.714520 0.112646
0.786849 0.718021 0.115179
0.795517 0.721522 0.117771
0.803932 0.725011 0.120351
0.812096 0.728475 0.122915
0.136542 0.740359 0.092175
0.138380 0.740251 0.092184
0.144946 0.739867 0.092213
0.157606 0.739174 0.092266
0.180946 0.738169 0.092346
0.212400 0.736866 0.092454
0.252581 0.735298 0.092611
0.298558 0.733507 0.092822
0.344523 0.731545 0.093073
0.392140 0.729470 0.093364
0.427752 0.727341 0.093697
0.464713 0.725218 0.094235
0.502184 0.723158 0.094862
0.526738 0.721213 0.095552
0.551131 0.719431 0.096304
0.574262 0.717853 0.097093
0.596784 0.716512 0.097845
0.619110 0.715436 0.098646
0.641273 0.714644 0.099496
0.661877 0.714148 0.100392
0.675028 0.713955 0.101564
0.687974 0.714064 0.102857
0.700736 0.714470 0.104186
0.713334 0.715164 0.105564
0.725779 0.716132 0.106987
0.738079 0.717357 0.108450
0.750241 0.718823 0.109949
0.762266 0.720512 0.111479
0.774245 0.722482 0.113138
0.785338 0.725750 0.115666
0.793942 0.729028 0.118195
0.802306 0.732304 0.120717
0.810429 0.735565 0.123226
0.143781 0.749180 0.093009
0.145555 0.749086 0.093019
0.151896 0.748750 0.093054
0.166393 0.748143 0.093119
0.189031 0.747260 0.093217
0.219814 0.746113 0.093349
0.259225 0.744727 0.093517
0.303157 0.743137 0.093722
0.348271 0.741387 0.094077
0.394039 0.739525 0.094503
0.429151 0.737603 0.094989
0.465729 0.735672 0.095536
0.502660 0.733782 0.096143
0.527092 0.731981 0.096811
0.551416 0.730311 0.097454
0.574497 0.728811 0.098129
0.597006 0.727513 0.098853
0.619327 0.726444 0.099624
0.641482 0.725623 0.100442
0.661993 0.725066 0.101526
0.675122 0.724781 0.102721
0.688037 0.724771 0.103952
0.700759 0.725036 0.105234
0.713307 0.725568 0.106564
0.725696 0.726360 0.107940
0.737935 0.727397 0.109355
0.750031 0.728668 0.110807
0.761990 0.730155 0.112291
0.773814 0.731844 0.114166
0.784080 0.733716 0.116278
0.792534 0.736669 0.118709
0.800842 0.739738 0.121172
0.808919 0.742801 0.123627
0.150891 0.757518 0.093940
0.152603 0.757435 0.093955
0.160118 0.757142 0.094007
0.174910 0.756610 0.094103
0.197063 0.755836 0.094247
0.227156 0.754828 0.094441
0.265764 0.753607 0.094689
0.307610 0.752200 0.094991
0.351815 0.750646 0.095349
0.395750 0.748983 0.095765
0.430301 0.747257 0.096239
0.466429 0.745513 0.096771
0.502886 0.743793 0.097301
0.527156 0.742141 0.097858
0.551375 0.740595 0.098463
0.574400 0.739191 0.099116
0.596876 0.737958 0.099816
0.619180 0.736922 0.100562
0.641323 0.736104 0.101591
0.661888 0.735519 0.102689
0.675005 0.735177 0.103826
0.687901 0.735085 0.105017
0.700596 0.735244 0.106258
0.713110 0.735650 0.107545
