negative-ektar-100/Ektar100_Classic_Punchy.cube
TITLE "Kodak Ektar 100 Classic Punchy"
# Adobe RGB in/out. REPLACES AgX. Kodak Ektar 100 Classic Punchy.
LUT_3D_SIZE 9
DOMAIN_MIN 0.0 0.0 0.0
DOMAIN_MAX 1.0 1.0 1.0
0.071174 0.083756 0.079619
0.125900 0.087237 0.079948
0.326583 0.093282 0.081832
0.562427 0.102930 0.085376
0.688873 0.117935 0.089348
0.752884 0.133756 0.095737
0.782002 0.142413 0.107064
0.807750 0.164546 0.454322
0.810765 0.305757 0.565314
0.073242 0.098150 0.079899
0.090956 0.098896 0.080844
0.209111 0.102629 0.082909
0.488661 0.113944 0.086100
0.667810 0.129008 0.089931
0.747652 0.145527 0.096206
0.780876 0.154886 0.106512
0.807750 0.164566 0.454337
0.810765 0.305763 0.565313
0.077449 0.156033 0.081717
0.086480 0.160735 0.083132
0.133299 0.160452 0.085647
0.301670 0.168174 0.088448
0.559691 0.183500 0.092293
0.714391 0.208397 0.098548
0.773854 0.221897 0.107319
0.807915 0.171266 0.456101
0.810765 0.305764 0.565312
0.082516 0.285731 0.084961
0.088318 0.290904 0.086151
0.117956 0.298422 0.088918
0.214603 0.295647 0.092000
0.423892 0.304093 0.097142
0.638725 0.321041 0.103196
0.756902 0.341163 0.111509
0.795770 0.340929 0.126548
0.810765 0.278977 0.472515
0.087603 0.445376 0.087907
0.091537 0.448197 0.089092
0.114719 0.457830 0.092623
0.183591 0.459727 0.097623
0.333052 0.457085 0.102985
0.542372 0.463811 0.109801
0.710802 0.476733 0.118410
0.786825 0.484857 0.130854
0.810071 0.488842 0.276970
0.091709 0.570827 0.090887
0.096083 0.571836 0.091943
0.115000 0.578907 0.096917
0.168015 0.582168 0.102976
0.286061 0.581114 0.109698
0.467634 0.580414 0.117219
0.649710 0.586098 0.126727
0.770263 0.595509 0.137675
0.808297 0.601246 0.179778
0.095570 0.662536 0.092757
0.098850 0.663000 0.094117
0.114289 0.666050 0.099258
0.157370 0.668400 0.106478
0.255617 0.668276 0.115111
0.414782 0.667178 0.124352
0.585237 0.668234 0.133852
0.739930 0.672818 0.147762
0.806379 0.678980 0.176112
0.094148 0.734282 0.087132
0.096061 0.733747 0.088066
0.109917 0.731746 0.095013
0.145168 0.731479 0.104060
0.227575 0.730325 0.114675
0.371057 0.728667 0.125897
0.538978 0.728417 0.136141
0.695349 0.731109 0.150104
0.805374 0.735320 0.172569
0.090634 0.752614 0.079619
0.090634 0.752616 0.079619
0.104487 0.776783 0.079619
0.104488 0.778735 0.083755
0.177519 0.785063 0.092247
0.322149 0.781059 0.105450
0.494749 0.779393 0.116600
0.644847 0.781024 0.124135
0.808112 0.786181 0.126745
0.072237 0.088272 0.093910
0.117543 0.101032 0.153743
0.354942 0.098058 0.106734
0.592336 0.108895 0.103618
0.697628 0.121812 0.101991
0.753827 0.137268 0.105354
0.781944 0.146518 0.119138
0.807750 0.164566 0.454339
0.810765 0.305764 0.565315
0.078136 0.099509 0.092615
0.109963 0.106212 0.100303
0.278544 0.108510 0.099306
0.546117 0.120168 0.101999
0.682430 0.134314 0.102227
0.749967 0.149903 0.105627
0.780893 0.158935 0.117489
0.807751 0.164599 0.454362
0.810765 0.305764 0.565313
0.083991 0.155788 0.092501
0.094772 0.158917 0.094738
0.158497 0.161840 0.098074
0.371973 0.174370 0.102376
0.601529 0.190770 0.104398
0.723523 0.213069 0.108241
0.774626 0.225408 0.117055
0.807962 0.173328 0.456871
0.810765 0.305764 0.565312
0.088429 0.283596 0.094082
0.095794 0.287614 0.096054
0.131759 0.294510 0.100506
0.246407 0.295861 0.104826
0.464326 0.307977 0.109208
0.660277 0.325005 0.113260
0.760031 0.343750 0.121367
0.795943 0.343585 0.136906
0.810765 0.305779 0.565309
0.091765 0.441756 0.095212
0.097894 0.444602 0.096971
0.122335 0.453483 0.102312
0.198697 0.456581 0.108430
0.359103 0.456719 0.114996
0.561648 0.464891 0.120799
0.721032 0.477806 0.128748
0.787805 0.485606 0.141591
0.810046 0.493406 0.321360
0.095886 0.568287 0.096774
0.100136 0.569427 0.098298
0.119816 0.576143 0.104016
0.177758 0.579646 0.111554
0.300638 0.579574 0.119849
0.484881 0.580097 0.128631
0.660127 0.586451 0.136875
0.773147 0.595889 0.151623
0.808341 0.602392 0.196935
0.098344 0.661637 0.097445
0.101581 0.662102 0.098977
0.117523 0.665018 0.104790
0.164222 0.667315 0.113673
0.265248 0.667420 0.123907
0.426694 0.666765 0.134018
0.595210 0.668202 0.146582
0.746166 0.672986 0.161196
0.806596 0.679304 0.190206
0.095399 0.733597 0.089254
0.097489 0.733154 0.090364
0.112133 0.731394 0.099009
0.149199 0.731114 0.109701
0.234148 0.730028 0.121926
0.378475 0.728531 0.134021
0.544818 0.728473 0.147979
0.701126 0.731257 0.163091
0.805840 0.735464 0.185683
0.090634 0.762030 0.093495
0.090635 0.762032 0.093496
0.104487 0.785381 0.093496
0.104489 0.785381 0.093494
0.180706 0.785197 0.095605
0.326177 0.781216 0.110798
0.498380 0.779615 0.123178
0.648366 0.781275 0.131602
0.809403 0.786333 0.134260
0.073829 0.096716 0.152326
0.107516 0.142790 0.386187
0.321873 0.142439 0.357623
0.586419 0.147172 0.319081
0.699593 0.159443 0.294228
0.754440 0.177983 0.310702
0.781611 0.196945 0.366519
0.807839 0.170955 0.465766
0.810765 0.305770 0.565337
0.080294 0.110709 0.155701
0.103615 0.122163 0.216739
0.276083 0.135211 0.254287
0.555276 0.147942 0.252006
0.689282 0.165132 0.251818
0.752136 0.183772 0.274852
0.780741 0.202502 0.332884
0.807873 0.172696 0.467331
0.810765 0.305765 0.565317
0.089519 0.163890 0.146113
0.103235 0.167274 0.152796
0.201385 0.190365 0.187779
0.439468 0.192446 0.188946
0.643671 0.215376 0.202257
0.735212 0.239061 0.222444
0.776111 0.252317 0.249208
0.807093 0.215056 0.464982
0.810765 0.305764 0.565313
0.098738 0.288939 0.147501
0.107522 0.292072 0.151857
0.155535 0.298906 0.162515
0.301245 0.305098 0.174254
0.539118 0.324034 0.188615
0.696035 0.345273 0.204764
0.766105 0.361197 0.218677
0.796473 0.365362 0.277547
0.810765 0.305767 0.565316
0.104927 0.445072 0.147729
0.111731 0.447100 0.151572
0.146274 0.453338 0.162210
0.241786 0.457676 0.174811
0.424842 0.461691 0.186753
0.621028 0.474502 0.202406
0.743944 0.485879 0.213474
0.790461 0.492541 0.242900
0.809952 0.511327 0.465335
0.109653 0.569457 0.149418
0.114600 0.570346 0.152751
0.142675 0.574880 0.163932
0.211428 0.578152 0.177988
0.350717 0.579784 0.191611
0.536915 0.582671 0.204761
0.694491 0.590795 0.216190
0.780438 0.600134 0.237858
0.808488 0.607789 0.305417
0.110542 0.661516 0.141847
0.114416 0.661925 0.145155
0.136226 0.664099 0.157245
0.191091 0.665943 0.173389
0.303019 0.666513 0.189659
0.467843 0.666988 0.204850
0.633026 0.669411 0.219498
0.761995 0.674761 0.238437
0.807248 0.681007 0.265149
0.105387 0.730000 0.127804
0.108481 0.729993 0.130484
0.125598 0.730012 0.144960
0.171301 0.730091 0.164843
0.264985 0.729377 0.185296
0.412723 0.728474 0.203227
0.571278 0.729090 0.219447
0.723850 0.732147 0.234919
0.807060 0.736330 0.251141
0.090635 0.762033 0.093499
0.104486 0.785381 0.093498
0.104487 0.785382 0.093497
0.104503 0.785385 0.093498
0.198385 0.785279 0.122449
0.345416 0.781706 0.152223
0.514943 0.780395 0.174540
0.660748 0.782186 0.188703
0.810673 0.787018 0.196325
0.076092 0.116261 0.293686
0.092734 0.172456 0.485486
0.282772 0.193617 0.520431
0.561353 0.203418 0.511873
0.692517 0.220911 0.510358
0.752578 0.240594 0.517520
0.780496 0.257886 0.542662
0.803846 0.248698 0.591325
0.810765 0.314609 0.596818
0.081548 0.132969 0.306262
0.098266 0.164219 0.412902
0.252234 0.195573 0.487147
0.536671 0.208396 0.485901
0.683744 0.228046 0.490219
0.749865 0.248540 0.502259
0.779695 0.266445 0.531768
0.803405 0.256598 0.587651
0.810765 0.314707 0.597156
0.094169 0.190845 0.291934
0.107413 0.198627 0.310829
0.196003 0.219851 0.369315
0.446736 0.238525 0.397833
0.648919 0.263378 0.420024
0.736098 0.288417 0.445038
0.775770 0.309761 0.484688
0.799915 0.320488 0.557294
0.810765 0.315063 0.598387
0.105469 0.304843 0.278095
0.115430 0.308503 0.284352
0.171670 0.318201 0.304652
0.350823 0.348779 0.349289
0.567507 0.353081 0.357345
0.707357 0.375421 0.379365
0.768051 0.395902 0.414614
0.796297 0.410492 0.494248
0.810765 0.315189 0.598757
0.115144 0.453886 0.277579
0.122614 0.455658 0.281430
0.165329 0.461879 0.294527
0.275972 0.467979 0.311531
0.471322 0.475244 0.329121
0.655196 0.487186 0.350278
0.753961 0.499595 0.371817
0.791542 0.508962 0.419414
0.809772 0.533393 0.580153
0.121037 0.573149 0.275082
0.127860 0.573995 0.278212
0.162275 0.577948 0.289876
0.243741 0.581478 0.304827
0.394849 0.584638 0.320895
0.575467 0.589460 0.337158
0.719416 0.599243 0.355775
0.784266 0.607252 0.380570
0.808543 0.621385 0.514507
0.122741 0.662897 0.270335
0.128470 0.663270 0.273003
0.155654 0.665082 0.283946
0.219856 0.666870 0.299410
0.341382 0.667978 0.315831
0.511163 0.669448 0.332148
0.666291 0.672797 0.348502
0.771670 0.678480 0.365597
0.807722 0.686096 0.436772
0.116189 0.729574 0.256452
0.119602 0.729673 0.259175
0.143250 0.730061 0.271464
0.193312 0.730227 0.287891
0.295448 0.729912 0.306127
0.446512 0.729641 0.323440
0.600072 0.730801 0.339763
0.744723 0.734148 0.355016
0.807987 0.738958 0.389702
0.097200 0.776096 0.247896
0.104485 0.789400 0.247896
0.104487 0.789403 0.247895
0.125076 0.792646 0.198724
0.231026 0.784775 0.272587
0.373398 0.782333 0.294387
0.534040 0.781660 0.312079
0.678705 0.783624 0.325034
0.811243 0.788580 0.341710
0.078515 0.150250 0.463159
0.087385 0.192627 0.550172
0.230980 0.244382 0.618351
0.535568 0.257370 0.619044
0.682291 0.273191 0.619546
0.748883 0.292517 0.625520
0.778987 0.307310 0.637147
0.801463 0.297566 0.658526
0.810765 0.337495 0.679951
0.082610 0.169252 0.471980
0.092057 0.202784 0.537140
0.214585 0.252454 0.607025
0.516351 0.266987 0.610750
0.674412 0.283552 0.612699
0.746116 0.303222 0.620291
0.778237 0.318117 0.633503
0.801100 0.308091 0.656628
0.810765 0.336838 0.677933
0.096668 0.235740 0.469656
0.107662 0.248504 0.492477
0.190928 0.284471 0.557513
0.440722 0.305255 0.577762
0.642838 0.324392 0.586150
0.734109 0.348406 0.598352
0.774780 0.365746 0.617052
0.798818 0.370104 0.645356
0.810765 0.334772 0.670414
0.111176 0.342307 0.452999
0.120572 0.347266 0.460364
0.181427 0.363807 0.488604
0.353010 0.382176 0.520392
0.576033 0.399822 0.540366
0.710446 0.420947 0.560506
0.768177 0.440081 0.585008
0.795836 0.452255 0.623522
0.811092 0.421676 0.670494
0.122357 0.470650 0.440207
0.132677 0.472940 0.444299
0.178788 0.479396 0.458268
0.297626 0.486600 0.476887
0.508435 0.503533 0.504820
0.668480 0.508815 0.517235
0.756997 0.523024 0.543471
0.791802 0.535932 0.585832
0.809528 0.553941 0.659533
0.132735 0.581779 0.436862
0.141111 0.582698 0.439232
0.178947 0.586739 0.448856
0.268253 0.591134 0.461259
0.429028 0.596048 0.475311
0.602920 0.602634 0.489638
0.731913 0.610796 0.508886
0.786192 0.618859 0.541650
0.808465 0.635083 0.635509
0.135868 0.666592 0.434805
0.142565 0.667011 0.436476
0.173024 0.668783 0.443453
0.244478 0.670792 0.454127
0.372633 0.672572 0.465137
0.539204 0.674953 0.476859
0.687462 0.679151 0.489386
0.777076 0.684235 0.508206
0.807900 0.695012 0.593362
0.125351 0.731146 0.433363
0.130932 0.731256 0.434317
0.156790 0.731638 0.439635
0.213015 0.731992 0.448004
0.321071 0.732044 0.457646
0.474013 0.732349 0.467382
0.626015 0.734027 0.477378
0.757820 0.737759 0.488591
0.808479 0.744134 0.539576
0.099179 0.781783 0.524749
0.100292 0.783716 0.524749
0.102752 0.788273 0.524746
0.151582 0.788192 0.451548
0.249870 0.785807 0.455013
0.393344 0.784021 0.461064
0.548585 0.783707 0.467548
0.693212 0.785889 0.473982
0.811554 0.791987 0.495460
0.081010 0.205839 0.602906
0.086715 0.240323 0.651116
0.198204 0.294537 0.696660
0.504989 0.308476 0.698343
0.673200 0.324932 0.699481
0.744891 0.342121 0.701963
0.777466 0.355269 0.706515
0.800041 0.347013 0.713924
0.810765 0.349840 0.715860
0.084206 0.223966 0.608722
0.089616 0.253143 0.649375
0.193309 0.304885 0.693818
0.486035 0.319589 0.696389
0.666667 0.336491 0.697928
0.742370 0.353847 0.700657
0.776786 0.366528 0.705643
0.799714 0.358244 0.713442
0.810765 0.349841 0.715860
0.098458 0.295868 0.614934
0.106514 0.310141 0.635186
0.186492 0.349403 0.679255
0.426734 0.366147 0.687400
0.637100 0.382579 0.690930
0.731753 0.399355 0.695058
0.773768 0.411746 0.701595
0.797915 0.413114 0.710811
0.810765 0.349844 0.715859
0.114290 0.391224 0.597478
0.122705 0.397323 0.606698
0.186121 0.418987 0.641197
0.358139 0.436534 0.665865
0.580990 0.451119 0.676627
0.711206 0.466382 0.683501
0.767982 0.480727 0.692749
0.795368 0.486687 0.705601
0.810773 0.461443 0.715634
0.129400 0.496204 0.581154
0.139708 0.498294 0.585370
0.189219 0.507225 0.603281
0.313626 0.517608 0.626799
0.518098 0.527914 0.646191
0.675472 0.538896 0.660685
0.758477 0.552497 0.677206
0.791894 0.563380 0.695153
0.809294 0.574778 0.717393
0.141366 0.596293 0.571160
0.149860 0.597520 0.573285
0.190110 0.602352 0.582105
0.285101 0.607027 0.596506
0.449711 0.611950 0.613595
0.623837 0.620479 0.632497
0.738919 0.626240 0.648538
0.787229 0.635086 0.676669
0.808399 0.647942 0.712222
0.145162 0.673431 0.567318
0.151976 0.673877 0.568337
0.185100 0.675802 0.573108
0.261864 0.678274 0.581679
0.395329 0.680694 0.593293
0.558679 0.683391 0.606069
0.701562 0.687510 0.619728
0.780053 0.693187 0.642209
0.808000 0.704684 0.700329
0.133209 0.734900 0.568828
0.138962 0.735027 0.569019
0.167146 0.735451 0.570809
0.227755 0.735931 0.574818
0.339169 0.736336 0.581482
0.494254 0.737162 0.589896
0.645263 0.739330 0.599202
0.764410 0.743459 0.610612
0.808712 0.752183 0.674728
0.099910 0.783878 0.573071
0.100862 0.785612 0.575475
0.102910 0.789617 0.584610
0.155201 0.790901 0.583395
0.258545 0.788588 0.581659
0.403965 0.787134 0.583754
0.556901 0.787164 0.587492
0.701744 0.789438 0.591685
0.811663 0.796751 0.638120
0.084175 0.286295 0.722036
0.088035 0.309231 0.743328
0.168359 0.346778 0.758004
0.482592 0.360124 0.759243
0.668057 0.375627 0.760305
0.742888 0.391088 0.761788
0.776742 0.400427 0.764361
0.799248 0.393201 0.767380
0.810765 0.367547 0.761942
0.086354 0.301118 0.724443
0.090200 0.320960 0.742512
0.169824 0.357424 0.757296
0.468390 0.370976 0.758842
0.662748 0.386652 0.760010
0.740797 0.401470 0.761559
0.776127 0.410364 0.764215
0.798959 0.403520 0.767435
0.810765 0.367367 0.761512
0.099411 0.367289 0.728860
0.105700 0.377513 0.738614
0.176598 0.402925 0.752932
0.421429 0.415021 0.756431
0.637641 0.427992 0.758253
0.731794 0.441157 0.760204
0.773485 0.450851 0.763292
0.797483 0.450685 0.767243
0.810761 0.366474 0.759551
0.116361 0.447379 0.719342
0.123982 0.452958 0.725962
0.185510 0.471626 0.742096
0.364596 0.482760 0.750157
0.588931 0.492115 0.753828
0.714394 0.501994 0.756952
0.768511 0.510207 0.760929
0.795320 0.513538 0.766372
0.810226 0.505019 0.769094
0.134444 0.529729 0.704014
0.143949 0.532414 0.708405
0.193707 0.543175 0.723462
0.325635 0.553742 0.737088
0.531858 0.562650 0.745023
0.683561 0.571843 0.750228
0.760364 0.580700 0.755854
0.792326 0.588138 0.763593
0.809199 0.595483 0.771471
0.147679 0.615062 0.690215
0.155715 0.616161 0.692708
0.197292 0.620757 0.702691
0.299200 0.626698 0.716958
0.469663 0.632407 0.729575
0.638176 0.638201 0.738537
0.744872 0.644475 0.746569
0.788294 0.651288 0.757270
0.808466 0.660076 0.771346
0.150164 0.683358 0.680650
0.157155 0.683829 0.681879
0.192089 0.685735 0.687166
0.272987 0.688409 0.696624
0.411591 0.691488 0.708555
0.573401 0.694958 0.719898
0.711211 0.699336 0.729390
0.782182 0.704955 0.744045
0.808200 0.713758 0.768399
0.135074 0.741436 0.676566
0.140989 0.741563 0.676905
0.170765 0.741971 0.678900
0.234232 0.742635 0.683193
0.348845 0.743449 0.690066
0.506673 0.744800 0.698431
0.655927 0.747520 0.707371
0.768078 0.752072 0.718128
0.808920 0.761209 0.758915
0.099819 0.785263 0.646644
0.101652 0.788529 0.646657
0.103918 0.792758 0.647027
0.146118 0.795997 0.680690
0.255453 0.793341 0.680736
0.403370 0.791997 0.683520
0.557481 0.792207 0.686923
0.702109 0.794570 0.690042
0.811758 0.801068 0.746155
0.088107 0.377993 0.807772
0.091373 0.381101 0.809370
0.181573 0.395931 0.810230
0.508197 0.406791 0.810440
0.677079 0.419228 0.810832
0.746987 0.431423 0.811438
0.777907 0.437980 0.812366
0.800002 0.427767 0.814523
0.810798 0.397709 0.807599
0.089696 0.388125 0.807608
0.094277 0.391199 0.809116
0.184123 0.405090 0.810192
0.496942 0.415870 0.810433
0.673195 0.428325 0.810827
0.745472 0.440582 0.811438
0.777463 0.447318 0.812387
0.799751 0.437599 0.814536
0.810809 0.400203 0.807599
0.104006 0.436345 0.806943
0.110164 0.438304 0.808003
0.195936 0.448775 0.809522
0.456546 0.458083 0.810038
0.655904 0.469454 0.810527
0.738377 0.479810 0.811209
0.775366 0.485451 0.812266
0.798511 0.481438 0.814345
0.810928 0.427186 0.807599
0.120562 0.500187 0.804710
0.129163 0.501699 0.805819
0.202965 0.508785 0.808062
0.401669 0.515025 0.809146
0.617673 0.522661 0.809891
0.725269 0.530962 0.810743
0.771627 0.537127 0.811999
0.796756 0.536882 0.814114
0.810313 0.528287 0.814705
0.140043 0.571758 0.800268
0.149138 0.573453 0.801676
0.208441 0.580328 0.805124
0.354215 0.586281 0.807342
0.563324 0.592755 0.808738
0.701574 0.600144 0.809903
0.765316 0.605852 0.811365
0.794348 0.607948 0.813664
0.809547 0.610648 0.815567
0.152242 0.638849 0.790682
0.160735 0.640070 0.793529
0.208457 0.644816 0.799636
0.318300 0.649037 0.803829
0.501525 0.652882 0.806502
0.663179 0.657334 0.808380
0.754567 0.661868 0.810202
0.791095 0.665423 0.812825
0.809006 0.671041 0.815753
0.152618 0.696610 0.771971
0.159871 0.697293 0.774488
0.197763 0.700156 0.784174
0.283224 0.703529 0.795877
0.431926 0.706465 0.801601
0.596102 0.709345 0.805201
0.726032 0.712770 0.807843
0.785872 0.716468 0.811220
0.808811 0.721865 0.815441
0.129198 0.752145 0.755417
0.135369 0.752235 0.756416
0.166776 0.752475 0.761295
0.232670 0.753419 0.770498
0.351712 0.754942 0.783258
0.515149 0.757034 0.795090
0.664428 0.759983 0.800909
0.770086 0.762517 0.803924
0.809357 0.769570 0.814272
0.098787 0.786160 0.721387
0.103768 0.795194 0.722638
0.104445 0.796191 0.731215
0.132594 0.799056 0.746499
0.234982 0.798206 0.751000
0.387848 0.797454 0.756859
0.547928 0.797631 0.762846
0.691926 0.798822 0.766735
0.811857 0.805220 0.811259
0.163412 0.427104 0.843735
0.196981 0.428544 0.843735
0.436609 0.434257 0.843737
0.655611 0.444275 0.843772
0.727488 0.456117 0.843866
0.763679 0.465957 0.844076
0.786128 0.467644 0.844681
0.804589 0.440791 0.845982
0.810765 0.423907 0.842615
0.165561 0.434364 0.843588
0.198013 0.435835 0.843591
0.432245 0.441657 0.843601
0.653190 0.451837 0.843651
0.726483 0.463809 0.843758
0.763398 0.473755 0.843984
0.785989 0.475364 0.844595
0.804461 0.447352 0.845910
0.810765 0.432833 0.845995
0.178596 0.471585 0.842861
0.207074 0.473014 0.842880
0.414105 0.477872 0.842947
0.638619 0.485445 0.843082
0.721667 0.494261 0.843268
0.762045 0.501659 0.843575
0.785285 0.502952 0.844209
0.803805 0.482684 0.845514
0.810765 0.432854 0.845995
0.196912 0.530569 0.841803
0.220449 0.531364 0.841852
0.380624 0.534495 0.842019
0.607828 0.540258 0.842278
0.710574 0.547277 0.842570
0.758943 0.553530 0.842970
0.783808 0.555453 0.843655
0.802674 0.544615 0.844835
0.811254 0.545261 0.846789
0.202034 0.602297 0.841076
0.220875 0.602872 0.841153
0.335230 0.604824 0.841411
0.561414 0.607988 0.841727
0.690977 0.612107 0.842111
0.753674 0.615976 0.842579
0.781488 0.617736 0.843261
0.801624 0.613872 0.844403
0.811352 0.614139 0.846722
0.194571 0.660242 0.840769
0.208040 0.660506 0.840874
0.290644 0.661686 0.841213
0.489657 0.664026 0.841614
0.657220 0.667217 0.842029
0.740494 0.670591 0.842525
0.777692 0.672644 0.843179
0.800266 0.671052 0.844215
0.811280 0.676197 0.846282
0.172617 0.714608 0.840883
0.182389 0.714732 0.841015
0.237110 0.715307 0.841411
0.379267 0.716324 0.841893
0.575259 0.717937 0.842377
0.710048 0.720138 0.842885
0.770246 0.722025 0.843568
0.798287 0.721770 0.844469
0.811343 0.726352 0.846244
0.125176 0.768266 0.839217
0.131258 0.768493 0.840047
0.162232 0.768793 0.841574
0.250912 0.768514 0.842480
0.417357 0.768391 0.843187
0.610818 0.769275 0.843777
0.744654 0.771264 0.844390
0.793151 0.772328 0.845185
0.811586 0.774607 0.846533
0.096925 0.786224 0.781265
0.104487 0.798339 0.800002
0.104487 0.798340 0.800002
0.111201 0.799016 0.800032
0.182025 0.805943 0.827116
0.354494 0.806347 0.844232
0.536973 0.806174 0.845746
0.694531 0.807180 0.846520
0.811979 0.809159 0.847024
