negative-portra-400/Portra400_Modern_Soft.cube
TITLE "Kodak Portra 400 Modern Soft"
# Adobe RGB in/out. REPLACES AgX. Kodak Portra 400 Modern Soft.
LUT_3D_SIZE 33
DOMAIN_MIN 0.0 0.0 0.0
DOMAIN_MAX 1.0 1.0 1.0
0.060898 0.068150 0.085817
0.066161 0.069509 0.085982
0.068005 0.069957 0.086116
0.079772 0.071792 0.086570
0.125191 0.074883 0.087394
0.170523 0.076947 0.088058
0.314007 0.081418 0.089536
0.455595 0.086702 0.091347
0.512683 0.089215 0.092418
0.581483 0.093459 0.093864
0.640322 0.101041 0.096446
0.677321 0.106004 0.098070
0.705925 0.109798 0.099302
0.728074 0.117514 0.100952
0.750269 0.126574 0.103868
0.765300 0.131208 0.105783
0.777599 0.139368 0.107562
0.788080 0.151758 0.110001
0.795466 0.165309 0.113646
0.801781 0.171033 0.115817
0.806899 0.177018 0.118243
0.811023 0.184232 0.121755
0.814969 0.190799 0.126007
0.818847 0.189522 0.129856
0.821230 0.189432 0.135768
0.823141 0.187137 0.145637
0.826248 0.172159 0.165889
0.826783 0.175585 0.285406
0.830677 0.223935 0.633959
0.828197 0.218772 0.629112
0.825728 0.213827 0.624257
0.823271 0.209008 0.619446
0.823955 0.473547 0.698502
0.061914 0.071841 0.085817
0.063888 0.071071 0.085817
0.068932 0.070271 0.085880
0.082211 0.072337 0.086484
0.126595 0.075544 0.087415
0.168543 0.077450 0.088072
0.300989 0.081934 0.089537
0.443090 0.087112 0.091349
0.502044 0.089612 0.092418
0.572405 0.093902 0.093859
0.634778 0.101545 0.096428
0.672551 0.106449 0.098052
0.703089 0.110309 0.099287
0.725752 0.118059 0.100933
0.748402 0.127031 0.103845
0.763831 0.131689 0.105761
0.776395 0.140503 0.107541
0.787360 0.152638 0.109970
0.794875 0.166203 0.113613
0.801285 0.171904 0.115782
0.806478 0.177874 0.118204
0.810665 0.185085 0.121696
0.814661 0.191946 0.125936
0.818580 0.190653 0.129764
0.820997 0.190539 0.135593
0.822937 0.188204 0.145358
0.826067 0.172829 0.165080
0.826625 0.175681 0.279629
0.830543 0.223660 0.633719
0.828074 0.218525 0.628871
0.825616 0.213605 0.624037
0.823168 0.208809 0.619245
0.823860 0.473340 0.698338
0.062188 0.073134 0.085819
0.062766 0.073016 0.086020
0.064698 0.072173 0.085945
0.073007 0.073759 0.086361
0.099088 0.077660 0.087355
0.141470 0.079316 0.087985
0.259502 0.084008 0.089542
0.413151 0.089419 0.091454
0.470776 0.091519 0.092469
0.543305 0.095783 0.093872
0.615770 0.103579 0.096394
0.655727 0.108204 0.098008
0.688990 0.112816 0.099246
0.717334 0.120150 0.100875
0.741613 0.128765 0.103774
0.758324 0.134054 0.105691
0.772022 0.144799 0.107470
0.784259 0.155935 0.109869
0.792736 0.169536 0.113502
0.799490 0.175142 0.115663
0.804962 0.181047 0.118072
0.809377 0.188847 0.121492
0.813555 0.196195 0.125688
0.817621 0.194838 0.129445
0.820164 0.194638 0.134985
0.822207 0.192158 0.144395
0.825416 0.175347 0.162326
0.826059 0.176251 0.260121
0.830063 0.222683 0.632823
0.827636 0.217644 0.628009
0.825216 0.212813 0.623252
0.822801 0.208100 0.618528
0.823521 0.472595 0.697754
0.063385 0.079713 0.086253
0.063750 0.079634 0.086353
0.065564 0.078964 0.086512
0.069034 0.077473 0.086556
0.081297 0.081382 0.087404
0.099689 0.082519 0.087995
0.164059 0.086949 0.089495
0.322090 0.093079 0.091446
0.412629 0.095309 0.092524
0.494652 0.099857 0.093936
0.585508 0.108078 0.096433
0.626839 0.113473 0.098002
0.662947 0.118186 0.099223
0.701250 0.124566 0.100824
0.728746 0.132758 0.103692
0.747765 0.143275 0.105600
0.763726 0.152119 0.107371
0.777507 0.162597 0.109718
0.788721 0.176201 0.113328
0.796139 0.181566 0.115470
0.802145 0.187597 0.117852
0.806996 0.197175 0.121149
0.811518 0.204564 0.125267
0.815858 0.203068 0.128902
0.818636 0.202693 0.133947
0.820869 0.199957 0.142765
0.824227 0.180445 0.157831
0.825024 0.178221 0.230567
0.829194 0.220922 0.631107
0.826841 0.216051 0.626445
0.824487 0.211381 0.621825
0.822132 0.206820 0.617224
0.822904 0.471236 0.696692
0.065371 0.094971 0.087185
0.065825 0.094824 0.087381
0.067526 0.094229 0.087594
0.071177 0.091909 0.087788
0.077620 0.089404 0.088139
0.085718 0.087098 0.088293
0.115289 0.091791 0.089538
0.196415 0.098983 0.091476
0.310519 0.100788 0.092609
0.421542 0.105149 0.094017
0.531142 0.115293 0.096592
0.590951 0.120778 0.098095
0.628803 0.125023 0.099271
0.669185 0.131080 0.100854
0.708614 0.149869 0.103686
0.730971 0.157246 0.105553
0.750039 0.164271 0.107294
0.766842 0.174189 0.109572
0.781101 0.188013 0.113136
0.790949 0.194482 0.115242
0.797829 0.201733 0.117582
0.803380 0.211195 0.120711
0.808445 0.218560 0.124718
0.813212 0.216790 0.128188
0.816354 0.216105 0.132737
0.818878 0.212997 0.140643
0.822458 0.190160 0.152291
0.823490 0.183309 0.201269
0.827921 0.218375 0.628603
0.825676 0.213736 0.624157
0.823418 0.209294 0.619735
0.821151 0.205042 0.615312
0.821995 0.469242 0.695131
0.067252 0.109669 0.088103
0.067475 0.109263 0.088307
0.068697 0.108658 0.088556
0.071522 0.105790 0.088990
0.076063 0.100943 0.088966
0.082876 0.097313 0.089217
0.098678 0.099750 0.089869
0.145276 0.107316 0.091931
0.206086 0.107966 0.092786
0.333955 0.112774 0.094116
0.456673 0.124227 0.096685
0.533935 0.128724 0.098214
0.591275 0.132543 0.099415
0.634465 0.146447 0.101004
0.679934 0.163858 0.103744
0.710497 0.172485 0.105568
0.731496 0.181050 0.107282
0.750606 0.195468 0.109519
0.768420 0.213449 0.113008
0.782398 0.218426 0.115050
0.791662 0.224677 0.117324
0.798303 0.233641 0.120258
0.804188 0.240755 0.124125
0.809581 0.238456 0.127401
0.813251 0.237227 0.131615
0.816185 0.233614 0.138303
0.820072 0.209427 0.147024
0.821432 0.196514 0.176149
0.826254 0.215103 0.625336
0.824146 0.210731 0.621161
0.822012 0.206578 0.616993
0.822981 0.446035 0.612797
0.820797 0.466618 0.693074
0.069926 0.152167 0.089814
0.070228 0.152759 0.089980
0.071615 0.150148 0.090404
0.074148 0.138560 0.090692
0.078337 0.127990 0.090834
0.084605 0.121384 0.090915
0.094860 0.116062 0.091292
0.120441 0.120731 0.092621
0.159656 0.120074 0.093287
0.241091 0.124377 0.094436
0.384643 0.135803 0.096989
0.466683 0.146975 0.098460
0.535049 0.152414 0.099535
0.596315 0.163726 0.101141
0.644815 0.182447 0.103916
0.680937 0.193992 0.105738
0.711171 0.202153 0.107349
0.733683 0.216618 0.109502
0.753779 0.238445 0.112928
0.769535 0.247244 0.114933
0.782296 0.258096 0.117155
0.791252 0.269525 0.119908
0.798419 0.274996 0.123607
0.804749 0.272115 0.126681
0.809192 0.270190 0.130546
0.812705 0.265907 0.136080
0.816999 0.240919 0.143007
0.818809 0.223252 0.159943
0.824216 0.211252 0.621373
0.822271 0.207107 0.617504
0.820285 0.203287 0.613635
0.821383 0.442549 0.609711
0.819318 0.463397 0.690542
0.073636 0.235598 0.092147
0.073979 0.236382 0.092363
0.075524 0.237761 0.093049
0.077547 0.218900 0.093352
0.081544 0.196436 0.093471
0.087728 0.177614 0.093685
0.098354 0.163509 0.093798
0.114921 0.153144 0.094099
0.133962 0.134243 0.093972
0.183345 0.140270 0.095058
0.305690 0.162055 0.097472
0.404627 0.169100 0.098797
0.473127 0.173492 0.099809
0.546438 0.184579 0.101449
0.608933 0.209405 0.104152
0.647116 0.220278 0.105878
0.682587 0.230132 0.107485
0.712789 0.247714 0.109669
0.735880 0.270690 0.113001
0.755032 0.275650 0.114909
0.770684 0.283181 0.117050
0.783229 0.294672 0.119674
0.791868 0.305882 0.123258
0.798783 0.309571 0.126172
0.803833 0.315070 0.129739
0.808212 0.310655 0.134345
0.813045 0.290407 0.140266
0.815504 0.271489 0.150859
0.821849 0.207347 0.616861
0.820083 0.202985 0.613260
0.818263 0.199506 0.609723
0.819505 0.437430 0.606103
0.817580 0.459630 0.687570
0.075646 0.287977 0.093296
0.075899 0.288505 0.093454
0.076780 0.284753 0.093863
0.078536 0.271380 0.094222
0.081784 0.250812 0.094455
0.086595 0.227895 0.094607
0.095108 0.206970 0.094893
0.107754 0.189112 0.095123
0.127161 0.178456 0.095526
0.160938 0.171985 0.096049
0.245627 0.191109 0.098107
0.344823 0.198614 0.099264
0.416817 0.202751 0.100197
0.491584 0.216489 0.101856
0.569382 0.243020 0.104549
0.612742 0.253072 0.106186
0.649666 0.262949 0.107717
0.686944 0.278781 0.109898
0.717071 0.299390 0.113156
0.737584 0.307288 0.115026
0.755314 0.317702 0.117131
0.771124 0.324690 0.119629
0.784173 0.331954 0.123059
0.792834 0.333563 0.125804
0.798811 0.338050 0.129166
0.803514 0.343326 0.133188
0.808495 0.337916 0.138798
0.811323 0.335327 0.147049
0.819358 0.221477 0.613039
0.817628 0.199072 0.608632
0.815984 0.195439 0.605359
0.817381 0.431694 0.602045
0.815607 0.455383 0.684206
0.078437 0.358178 0.094933
0.078573 0.356491 0.095031
0.079153 0.347866 0.095326
0.080796 0.335323 0.095826
0.083366 0.320842 0.096217
0.087873 0.302327 0.096486
0.095413 0.281166 0.096739
0.106672 0.260448 0.096978
0.123305 0.241722 0.097263
0.151179 0.227365 0.097646
0.207285 0.242190 0.099091
0.286443 0.240447 0.099863
0.366361 0.242025 0.100677
0.440595 0.254771 0.102405
0.521881 0.281075 0.105073
0.578928 0.288812 0.106596
0.617331 0.296196 0.108058
0.656131 0.310379 0.110265
0.694861 0.329350 0.113475
0.719244 0.336416 0.115273
0.739862 0.344333 0.117238
0.757494 0.357140 0.119711
0.772188 0.367814 0.123069
0.785175 0.369835 0.125655
0.792765 0.371004 0.128779
0.798458 0.373171 0.132503
0.804178 0.368248 0.137247
0.807585 0.364898 0.144274
0.811064 0.356930 0.156336
0.813058 0.353703 0.208770
0.815094 0.375534 0.565469
0.815047 0.426060 0.599561
0.813432 0.450735 0.680506
0.082630 0.439231 0.097659
0.082705 0.436758 0.097708
0.083140 0.429539 0.097915
0.084846 0.422214 0.098383
0.087487 0.408930 0.098768
0.092326 0.392686 0.099090
0.100094 0.375708 0.099374
0.111458 0.358463 0.099614
0.128463 0.337801 0.099839
0.156818 0.322079 0.100142
0.190029 0.309608 0.100524
0.251459 0.295782 0.100953
0.318074 0.285365 0.101493
0.401423 0.295388 0.103059
0.476264 0.319299 0.105724
0.535154 0.324037 0.107151
0.587040 0.328598 0.108486
0.626036 0.341835 0.110735
0.666629 0.363081 0.113905
0.699683 0.367295 0.115599
0.722385 0.374437 0.117520
0.742046 0.385473 0.119989
0.760005 0.393560 0.123161
0.774744 0.396620 0.125633
0.785848 0.402500 0.128623
0.792313 0.409969 0.132105
0.799099 0.403480 0.136156
0.803311 0.398118 0.142131
0.807324 0.388222 0.150661
0.809801 0.378797 0.176906
0.812269 0.371376 0.503700
0.812543 0.421303 0.600836
0.811092 0.418158 0.600211
0.085196 0.479398 0.099054
0.085272 0.477780 0.099094
0.085673 0.472828 0.099260
0.087023 0.467392 0.099648
0.089528 0.458080 0.100012
0.094043 0.447137 0.100382
0.101236 0.432063 0.100808
0.111204 0.413857 0.101153
0.126132 0.396941 0.101493
0.150630 0.381689 0.101844
0.183205 0.368349 0.102268
0.231913 0.357683 0.102811
0.287478 0.336427 0.102881
0.359393 0.334028 0.103929
0.436305 0.358525 0.106494
0.494817 0.361436 0.107781
0.549118 0.365066 0.109101
0.598297 0.374904 0.111426
0.639036 0.391804 0.114386
0.672722 0.395478 0.116023
0.704510 0.403446 0.117933
0.726477 0.412611 0.120365
0.745868 0.423838 0.123465
0.762692 0.429204 0.125852
0.776162 0.432613 0.128652
0.786504 0.438299 0.131931
0.793762 0.438383 0.135540
0.798457 0.440571 0.140804
0.802981 0.434873 0.147577
0.806133 0.420368 0.161962
0.809116 0.382676 0.373307
0.809913 0.414422 0.595831
0.808623 0.412354 0.597502
0.087296 0.511420 0.100032
0.087373 0.510019 0.100068
0.087758 0.505600 0.100212
0.088979 0.500049 0.100533
0.091569 0.492814 0.101089
0.095517 0.483396 0.101653
0.101536 0.471653 0.102127
0.110397 0.458942 0.102561
0.123590 0.446061 0.102917
0.144109 0.430087 0.103257
0.172443 0.414923 0.103693
0.208754 0.401849 0.104164
0.269504 0.391588 0.104788
0.336278 0.385300 0.105574
0.406290 0.393287 0.107384
0.460047 0.395168 0.108555
0.514025 0.397564 0.109983
0.569012 0.406765 0.112239
0.613617 0.423541 0.115157
0.646927 0.426505 0.116608
0.680412 0.433409 0.118362
0.710103 0.443763 0.120908
0.731135 0.453129 0.123954
0.750258 0.455247 0.126140
0.765425 0.460541 0.128864
0.777190 0.467583 0.132040
0.788177 0.465618 0.135248
0.793797 0.465376 0.139935
0.798777 0.464386 0.145858
0.802189 0.463169 0.156408
0.804877 0.465050 0.189965
0.807200 0.407598 0.590565
0.806067 0.406834 0.595499
0.090677 0.543738 0.101588
0.090761 0.542886 0.101635
0.091156 0.540134 0.101821
0.092304 0.536355 0.102224
0.094805 0.532676 0.102860
0.098509 0.526231 0.103411
0.104013 0.516563 0.103985
0.112466 0.504923 0.104546
0.124503 0.492507 0.105039
0.143143 0.479705 0.105441
0.169093 0.467593 0.105832
0.200637 0.456621 0.106311
0.254928 0.446795 0.106781
0.313566 0.437232 0.107391
0.388180 0.443782 0.109062
0.428981 0.433370 0.109706
0.481080 0.432755 0.111024
0.536406 0.441051 0.113086
0.590400 0.454131 0.115915
0.623061 0.456223 0.117354
0.656533 0.460701 0.119005
0.690282 0.468434 0.121591
0.716479 0.476587 0.124490
0.736642 0.480205 0.126621
0.753723 0.485946 0.129229
0.768022 0.491013 0.132187
0.780742 0.492643 0.135260
0.788436 0.496176 0.139543
0.794349 0.493348 0.144646
0.798433 0.489660 0.152605
0.801585 0.487196 0.171121
0.803420 0.495162 0.336616
0.804198 0.525311 0.592786
0.095357 0.579568 0.104007
0.095454 0.578835 0.104060
0.095883 0.576426 0.104263
0.097045 0.572923 0.104692
0.099874 0.570094 0.105473
0.103142 0.563891 0.106066
0.108815 0.557570 0.106735
0.117236 0.549930 0.107286
0.129310 0.541636 0.107825
0.148719 0.532974 0.108283
0.173994 0.524387 0.108748
0.205348 0.512887 0.109216
0.257790 0.502053 0.109878
0.312396 0.492542 0.110543
0.369174 0.484518 0.111363
0.413432 0.474738 0.111826
0.455669 0.466511 0.112392
0.507702 0.469749 0.114121
0.563837 0.481369 0.116803
0.601260 0.482652 0.118115
0.634166 0.486696 0.119799
0.668224 0.494041 0.122459
0.701360 0.501558 0.125198
0.722673 0.505770 0.127240
0.741754 0.510332 0.129677
0.757575 0.517464 0.132554
0.772183 0.519282 0.135522
0.782405 0.520723 0.139426
0.789768 0.522357 0.144028
0.794296 0.523843 0.150327
0.798056 0.519106 0.162679
0.800346 0.515511 0.228841
0.801549 0.525607 0.579590
0.098548 0.601852 0.105403
0.098635 0.601213 0.105451
0.099010 0.599078 0.105633
0.099977 0.595831 0.106010
0.102261 0.592727 0.106680
0.105724 0.587982 0.107346
0.111473 0.582984 0.108114
0.118650 0.575490 0.108622
0.129561 0.567882 0.109239
0.147453 0.560072 0.110007
0.170095 0.551741 0.110578
0.195690 0.543586 0.111178
0.243434 0.535999 0.111806
0.293723 0.528872 0.112458
0.352002 0.522273 0.113141
0.401713 0.514712 0.113950
0.437688 0.505087 0.114376
0.484146 0.501958 0.115525
0.537338 0.509781 0.117805
0.582130 0.510570 0.119039
0.613666 0.513566 0.120823
0.647377 0.520355 0.123407
0.680867 0.526351 0.126045
0.708982 0.528752 0.127950
0.729187 0.532324 0.130288
0.746723 0.537287 0.133041
0.763392 0.538521 0.135938
0.774686 0.541397 0.139668
0.784770 0.542221 0.143805
0.790446 0.541646 0.148941
0.794510 0.542238 0.158835
0.797033 0.545032 0.190404
0.798781 0.537728 0.521477
0.101516 0.623049 0.106646
0.101595 0.622487 0.106690
0.101927 0.620589 0.106854
0.102866 0.617604 0.107188
0.104949 0.614434 0.107768
0.108391 0.610957 0.108499
0.113079 0.605381 0.109198
0.120047 0.599304 0.110065
0.130204 0.592596 0.110871
0.146251 0.585234 0.111614
0.166941 0.577561 0.112318
0.188173 0.569783 0.112940
0.231979 0.562283 0.113530
0.282793 0.555202 0.114185
0.335933 0.548656 0.114840
0.384155 0.542921 0.115533
0.423236 0.538043 0.116338
0.468356 0.535188 0.117392
0.518124 0.537089 0.119235
0.556617 0.534074 0.120120
0.595538 0.535910 0.122003
0.628169 0.540090 0.124452
0.661380 0.544878 0.127009
0.692596 0.546882 0.128784
0.716539 0.550554 0.131031
0.735748 0.554871 0.133783
0.753597 0.557086 0.136593
0.766990 0.559299 0.140027
0.778295 0.560999 0.143858
0.786267 0.562673 0.148402
0.791022 0.562058 0.156298
0.794035 0.561768 0.175158
0.795841 0.569497 0.353527
0.105424 0.646880 0.108170
0.105509 0.646572 0.108210
0.105859 0.645062 0.108360
0.106692 0.642361 0.108660
0.108460 0.639286 0.109255
0.112479 0.636945 0.110355
0.116347 0.631233 0.111095
0.123573 0.626372 0.112107
0.133035 0.620063 0.112935
0.148205 0.613084 0.113669
0.167571 0.605977 0.114427
0.187086 0.598647 0.115104
0.228282 0.591452 0.115788
0.275730 0.584271 0.116355
0.324646 0.577719 0.117044
0.372049 0.571651 0.117705
0.414024 0.566262 0.118401
0.454704 0.561760 0.119211
0.501880 0.563007 0.121487
0.538720 0.557751 0.122056
0.577975 0.555350 0.123200
0.610848 0.559176 0.125578
0.643257 0.563536 0.128055
0.674168 0.565195 0.129720
0.704124 0.568774 0.131881
0.724502 0.572785 0.134761
0.743693 0.575057 0.137388
0.758817 0.577391 0.140599
0.771403 0.580319 0.144217
0.780948 0.580528 0.148219
0.787552 0.581801 0.154952
0.790907 0.584264 0.167112
0.793165 0.585318 0.251969
0.110127 0.663627 0.110435
0.110227 0.663366 0.110487
0.110628 0.662469 0.110677
0.111544 0.660993 0.111057
0.113405 0.659226 0.111697
0.117063 0.657753 0.112705
0.121461 0.654982 0.113548
0.128500 0.652148 0.114546
0.138353 0.648531 0.115409
0.153737 0.643939 0.116291
0.172390 0.637299 0.117048
0.192663 0.630421 0.117827
0.231036 0.623292 0.118492
0.277076 0.616343 0.119144
0.322831 0.609596 0.119841
0.369652 0.603484 0.120809
0.410629 0.597837 0.121724
0.448176 0.592680 0.122639
0.487895 0.588500 0.123748
0.524694 0.582865 0.124216
0.561060 0.579246 0.125143
0.595354 0.578389 0.126757
0.626701 0.582339 0.129136
0.656967 0.583753 0.130722
0.687696 0.586742 0.132769
0.713246 0.590669 0.135863
0.733658 0.592670 0.138295
0.750089 0.595600 0.141371
0.764808 0.597712 0.144645
0.775291 0.599342 0.148359
0.783406 0.601062 0.154328
0.788050 0.601481 0.163930
0.790538 0.605456 0.207814
0.113446 0.675574 0.111512
0.113537 0.675341 0.111561
0.113899 0.674535 0.111741
0.114708 0.673182 0.112096
0.116311 0.671492 0.112687
0.119589 0.669892 0.113605
0.124161 0.667815 0.114582
0.130063 0.664813 0.115454
0.140276 0.661858 0.116444
0.154370 0.658461 0.117370
0.170567 0.654480 0.118122
0.187124 0.650455 0.118900
0.222867 0.646317 0.119690
0.265532 0.639695 0.120608
0.308377 0.633263 0.121512
0.356724 0.627025 0.122364
0.400179 0.621349 0.123320
0.433308 0.616234 0.124276
0.472343 0.611524 0.125202
0.511527 0.607725 0.126297
0.546888 0.603490 0.127133
0.584717 0.602147 0.128675
0.612128 0.601660 0.130354
0.641117 0.602409 0.131762
0.671588 0.605019 0.133929
0.702010 0.608458 0.137024
0.723365 0.610380 0.139308
0.741209 0.613318 0.142246
0.757596 0.615561 0.145277
0.769524 0.617617 0.148684
0.778856 0.618978 0.154012
0.784819 0.621117 0.162157
0.788063 0.623345 0.189842
0.116843 0.687498 0.112662
0.116929 0.687292 0.112709
0.117264 0.686578 0.112880
0.118074 0.685364 0.113216
0.119639 0.683799 0.113769
0.122549 0.682197 0.114616
0.127604 0.680716 0.115735
0.132624 0.677737 0.116512
0.143741 0.675367 0.117641
0.155027 0.671793 0.118418
0.171079 0.668435 0.119317
0.186857 0.664838 0.120387
0.219384 0.660901 0.121403
0.258682 0.656920 0.122321
0.298662 0.653070 0.123289
0.348326 0.649319 0.124211
0.389543 0.645332 0.125091
0.421833 0.640035 0.126033
0.460702 0.635378 0.127021
0.497109 0.631083 0.127966
0.534360 0.627607 0.129041
0.571657 0.625397 0.130509
0.601606 0.624593 0.132129
0.627420 0.622043 0.132991
0.656452 0.623244 0.135261
0.686947 0.626381 0.138279
0.713123 0.628150 0.140410
0.732291 0.630648 0.143163
0.749981 0.633276 0.146050
0.763822 0.634964 0.149162
0.774202 0.637250 0.154098
0.781103 0.638674 0.161055
0.785553 0.641514 0.180313
0.120776 0.699290 0.114043
0.120869 0.699119 0.114088
0.121228 0.698520 0.114253
0.121996 0.697491 0.114574
0.123436 0.696137 0.115098
0.126121 0.694682 0.115892
0.131401 0.693519 0.117055
0.136964 0.690997 0.117868
0.146506 0.688516 0.118878
0.158285 0.685651 0.119926
0.173774 0.682644 0.121195
0.186785 0.679139 0.122278
0.218204 0.675628 0.123398
0.256243 0.671975 0.124440
0.293771 0.668262 0.125380
0.343127 0.664692 0.126398
0.381361 0.661189 0.127322
0.415619 0.657885 0.128260
0.451211 0.654808 0.129206
0.487642 0.652146 0.130219
0.523867 0.649702 0.131195
0.558659 0.647692 0.132250
0.592014 0.646744 0.134041
0.616945 0.644326 0.135096
0.643498 0.642795 0.136881
0.672518 0.644162 0.139535
0.703104 0.645939 0.141560
0.723258 0.647453 0.144190
0.742249 0.649032 0.146910
0.757695 0.650148 0.149892
0.769661 0.651493 0.154364
0.777474 0.652595 0.160504
0.782451 0.654559 0.174764
0.124582 0.710784 0.115228
0.124672 0.710634 0.115272
0.125017 0.710108 0.115432
0.125797 0.709197 0.115743
0.127302 0.707973 0.116245
0.129950 0.706602 0.117001
0.134849 0.705374 0.118097
0.141739 0.703524 0.119096
0.149899 0.701113 0.120190
0.162290 0.698895 0.121694
0.175193 0.695877 0.122804
0.189196 0.692959 0.124062
0.220057 0.689835 0.125331
0.254299 0.686319 0.126365
0.290889 0.682807 0.127353
0.336711 0.679365 0.128365
0.374369 0.676032 0.129395
0.410399 0.672812 0.130376
0.443238 0.669773 0.131336
0.478914 0.666948 0.132306
0.515056 0.664518 0.133368
0.548298 0.662344 0.134754
0.583183 0.660530 0.136175
0.607322 0.658732 0.137158
0.633021 0.657525 0.138867
0.660210 0.657042 0.141118
0.689620 0.657071 0.142675
0.714141 0.658260 0.145198
0.734525 0.659717 0.147818
0.751359 0.660907 0.150784
0.765128 0.662088 0.154744
0.773908 0.663429 0.160354
0.779628 0.664876 0.171292
0.127851 0.721574 0.115580
0.127944 0.721436 0.115622
0.128299 0.720951 0.115777
0.129039 0.720101 0.116077
0.130379 0.718934 0.116560
0.132703 0.717570 0.117283
0.137592 0.716221 0.118326
0.144997 0.714751 0.119536
0.151924 0.712340 0.120669
0.163405 0.710222 0.122237
0.175557 0.707466 0.123447
0.189215 0.704798 0.124836
0.214986 0.701720 0.125989
0.248914 0.698695 0.127218
0.286993 0.695561 0.128366
0.326668 0.692311 0.129354
0.364409 0.689080 0.130406
0.402914 0.685955 0.131415
0.432662 0.682994 0.132424
0.468197 0.680217 0.133473
0.502915 0.677688 0.134824
0.536498 0.675468 0.136167
0.570431 0.673586 0.137592
0.598431 0.672023 0.139045
0.623247 0.670523 0.140711
0.649701 0.669735 0.142904
0.677890 0.669093 0.144142
0.705072 0.668876 0.146171
0.726467 0.670186 0.148624
0.744918 0.671379 0.151787
0.760440 0.672548 0.155305
0.770517 0.673622 0.160181
0.776951 0.675240 0.169150
0.130941 0.730951 0.116070
0.131031 0.730832 0.116111
0.131369 0.730410 0.116261
0.132065 0.729665 0.116551
0.133304 0.728631 0.117017
0.135913 0.727393 0.117710
0.140527 0.726107 0.118706
0.148535 0.725032 0.120318
0.154616 0.722780 0.121381
0.164380 0.720662 0.122829
0.177548 0.718436 0.124348
0.187742 0.715756 0.125612
0.214279 0.713078 0.126964
0.246502 0.710277 0.128287
0.282460 0.707285 0.129410
0.318514 0.704312 0.130546
0.358493 0.701339 0.131657
0.397763 0.698396 0.132741
0.424758 0.695574 0.133960
0.459912 0.692920 0.135351
0.492869 0.690400 0.136691
0.526640 0.688122 0.138046
0.558841 0.686088 0.139396
0.589734 0.684443 0.140866
0.614150 0.683075 0.142358
0.639721 0.681949 0.144517
0.667432 0.681387 0.145665
0.695105 0.680547 0.147473
0.718282 0.680492 0.149554
0.738263 0.681541 0.152476
0.755602 0.682750 0.155936
0.767245 0.683756 0.160207
0.774430 0.685143 0.167720
0.133762 0.739676 0.116459
0.133873 0.739573 0.116499
0.134290 0.739209 0.116647
0.135141 0.738563 0.116932
0.136636 0.737656 0.117387
0.139145 0.736549 0.118064
0.143334 0.735357 0.119032
0.150465 0.734272 0.120697
0.157504 0.732553 0.122103
0.165993 0.730531 0.123464
0.180347 0.728751 0.125306
0.188445 0.726180 0.126479
0.215769 0.723826 0.128041
0.243127 0.721088 0.129248
0.280171 0.718421 0.130598
0.313746 0.715634 0.131794
0.352930 0.712819 0.132934
0.389954 0.710019 0.134379
0.418533 0.707268 0.135849
0.451571 0.704665 0.137289
0.484223 0.702226 0.138707
0.518193 0.699999 0.140107
0.549169 0.697983 0.141482
0.582138 0.696202 0.142854
0.605542 0.694800 0.144372
0.630334 0.693637 0.145899
0.657423 0.693220 0.146964
0.684720 0.692183 0.148753
0.711129 0.691876 0.150889
0.731459 0.691624 0.153222
0.750517 0.692599 0.156387
0.764033 0.693605 0.160292
0.772265 0.694812 0.166908
0.136940 0.750861 0.115535
0.137034 0.750761 0.115576
0.137388 0.750407 0.115722
0.138112 0.749771 0.116006
0.139388 0.748858 0.116463
0.141542 0.747702 0.117148
0.145171 0.746378 0.118141
0.151427 0.745021 0.119585
0.159379 0.743454 0.121498
0.166631 0.741383 0.122818
0.178688 0.739399 0.124608
0.187948 0.737157 0.126197
0.210758 0.734717 0.127672
0.239428 0.732205 0.129161
0.273515 0.729570 0.130570
0.304181 0.726891 0.131839
0.346787 0.724223 0.133137
0.380946 0.721529 0.134738
0.411539 0.718855 0.136257
0.441476 0.716296 0.137748
0.474376 0.713895 0.139209
0.507345 0.711676 0.140649
0.539094 0.709673 0.142070
0.571235 0.707906 0.143477
