negative-portra-400/Portra400_Classic_ExtraPunchy.cube
TITLE "Kodak Portra 400 Classic ExtraPunchy"
# Adobe RGB in/out. REPLACES AgX. Kodak Portra 400 Classic ExtraPunchy.
LUT_3D_SIZE 5
DOMAIN_MIN 0.0 0.0 0.0
DOMAIN_MAX 1.0 1.0 1.0
0.069662 0.073299 0.081842
0.161369 0.097828 0.078969
0.483430 0.190145 0.083445
0.679848 0.357011 0.096130
0.794366 0.511823 0.122760
0.073768 0.150617 0.078843
0.172954 0.177123 0.080055
0.488376 0.278439 0.084939
0.681407 0.415635 0.097990
0.795053 0.546882 0.125239
0.101394 0.414228 0.082522
0.215583 0.429593 0.084078
0.505722 0.481248 0.090816
0.686929 0.557312 0.106346
0.797500 0.631978 0.134349
0.171952 0.627540 0.093074
0.291544 0.634407 0.095275
0.536137 0.653386 0.103993
0.696778 0.684469 0.122553
0.801919 0.725561 0.155241
0.287744 0.756014 0.115043
0.376033 0.758693 0.118061
0.573837 0.768069 0.128342
0.710828 0.784393 0.150903
0.808339 0.805916 0.187723
0.069230 0.084334 0.159307
0.161457 0.107261 0.162775
0.483471 0.203205 0.175876
0.679861 0.365929 0.202602
0.794372 0.517395 0.242051
0.073802 0.162424 0.162348
0.173051 0.188049 0.165788
0.488416 0.289206 0.179457
0.681420 0.422296 0.206098
0.795059 0.550589 0.245574
0.101483 0.420908 0.173546
0.215685 0.436068 0.177641
0.505760 0.487122 0.192223
0.686941 0.560909 0.218575
0.797506 0.634919 0.258176
0.172049 0.630514 0.197048
0.291621 0.637204 0.201056
0.536174 0.655520 0.215343
0.696790 0.686383 0.241761
0.801924 0.727231 0.281156
0.287821 0.757172 0.231514
0.376095 0.759838 0.235557
0.573860 0.769168 0.250009
0.710839 0.785419 0.276321
0.808344 0.806776 0.312548
0.067635 0.119585 0.495847
0.161773 0.147367 0.497817
0.483615 0.247935 0.504849
0.679906 0.397066 0.514504
0.794392 0.536997 0.527910
0.073922 0.204664 0.497574
0.173399 0.233845 0.499539
0.488559 0.324162 0.506509
0.681465 0.445507 0.515711
0.795079 0.563585 0.529075
0.101804 0.444183 0.503741
0.216052 0.458671 0.505689
0.505898 0.507738 0.510919
0.686985 0.573532 0.520016
0.797525 0.643419 0.533235
0.172398 0.640078 0.512586
0.291897 0.645246 0.513970
0.536305 0.663053 0.518902
0.696832 0.693158 0.527813
0.801943 0.733157 0.540776
0.288099 0.761286 0.524415
0.376316 0.763905 0.525757
0.573945 0.773076 0.530541
0.710879 0.789069 0.539195
0.808362 0.809835 0.551799
0.067973 0.197290 0.693316
0.162353 0.226814 0.693815
0.483881 0.318763 0.695597
0.679990 0.441901 0.698841
0.794429 0.561559 0.703616
0.074135 0.284612 0.693753
0.174038 0.307617 0.694251
0.488822 0.383784 0.696029
0.681548 0.485681 0.699268
0.795115 0.586308 0.704035
0.102393 0.484452 0.695315
0.216727 0.497918 0.695810
0.506151 0.542016 0.697577
0.687067 0.595653 0.700796
0.797561 0.657721 0.705533
0.173039 0.654549 0.698164
0.292406 0.659456 0.698653
0.536545 0.676412 0.700400
0.696910 0.705232 0.703581
0.801979 0.743075 0.708266
0.288610 0.768668 0.702364
0.376722 0.771205 0.702844
0.574101 0.780100 0.704562
0.710953 0.795563 0.707691
0.808396 0.815356 0.712298
0.068541 0.311373 0.802747
0.163220 0.333365 0.802983
0.484277 0.405953 0.803830
0.680115 0.501333 0.805377
0.794484 0.595221 0.807670
0.074641 0.377097 0.802954
0.174994 0.397057 0.803190
0.489214 0.452765 0.804035
0.681672 0.539888 0.805581
0.795170 0.617858 0.807872
0.103266 0.539090 0.803696
0.217737 0.547828 0.803931
0.506530 0.577504 0.804773
0.687188 0.626459 0.806313
0.797615 0.677840 0.808596
0.173996 0.674887 0.805053
0.293165 0.679457 0.805287
0.536905 0.695308 0.806123
0.697027 0.722435 0.807653
0.802031 0.754915 0.809921
0.289374 0.779292 0.807067
0.377330 0.781718 0.807298
0.574335 0.790233 0.808126
0.711064 0.804311 0.809641
0.808447 0.823217 0.811887
