negative-portra-400/Portra400_Classic_Punchy.cube
TITLE "Kodak Portra 400 Classic Punchy"
# Adobe RGB in/out. REPLACES AgX. Kodak Portra 400 Classic Punchy.
LUT_3D_SIZE 5
DOMAIN_MIN 0.0 0.0 0.0
DOMAIN_MAX 1.0 1.0 1.0
0.068277 0.082999 0.079619
0.275544 0.092654 0.081513
0.706015 0.117957 0.089192
0.827469 0.146282 0.107193
0.862760 0.334026 0.600780
0.082256 0.149178 0.081774
0.137073 0.159091 0.085400
0.566786 0.184812 0.091574
0.815388 0.227403 0.106751
0.862760 0.334035 0.600778
0.105050 0.430036 0.089141
0.130030 0.452189 0.092950
0.342990 0.464872 0.102722
0.751034 0.489517 0.118768
0.862950 0.517247 0.299157
0.134243 0.672056 0.097323
0.153261 0.678541 0.103099
0.288690 0.688063 0.118675
0.624562 0.693049 0.135519
0.860731 0.709559 0.173237
0.151030 0.794816 0.093721
0.179081 0.813436 0.093735
0.255937 0.822540 0.110070
0.533952 0.820160 0.133019
0.865076 0.825279 0.146938
0.072483 0.096001 0.147304
0.250736 0.131963 0.387681
0.719102 0.152256 0.313469
0.826949 0.188391 0.392028
0.862760 0.334041 0.600803
0.092850 0.158342 0.143015
0.202524 0.184911 0.183459
0.652514 0.211762 0.200179
0.818766 0.252687 0.253218
0.862760 0.334036 0.600779
0.119473 0.433656 0.149923
0.161612 0.447773 0.160708
0.429377 0.466213 0.181470
0.778430 0.496622 0.208298
0.862851 0.537405 0.493532
0.148765 0.672186 0.153994
0.175323 0.677258 0.164656
0.331799 0.685713 0.189556
0.672692 0.693365 0.216557
0.861534 0.711967 0.262109
0.151034 0.802239 0.125199
0.179081 0.819859 0.125197
0.272837 0.822839 0.150171
0.552259 0.820927 0.194918
0.866527 0.826050 0.215063
0.078868 0.146889 0.455045
0.207816 0.219479 0.644366
0.697016 0.250582 0.645086
0.823078 0.287861 0.664287
0.862760 0.361364 0.702884
0.100914 0.226248 0.464853
0.192561 0.267919 0.570704
0.651308 0.307033 0.604623
0.816895 0.352295 0.639812
0.862760 0.358724 0.695241
0.138829 0.465590 0.431695
0.193581 0.477902 0.453035
0.516496 0.508017 0.505938
0.792408 0.532858 0.551349
0.862505 0.579068 0.683936
0.173805 0.680444 0.431757
0.208674 0.684405 0.439057
0.396711 0.692574 0.460760
0.728534 0.703242 0.486341
0.862182 0.729300 0.606656
0.166615 0.818403 0.516072
0.174798 0.823237 0.516069
0.311966 0.824043 0.457854
0.592162 0.823713 0.468030
0.867299 0.829932 0.499022
0.086814 0.272297 0.727139
0.168176 0.321623 0.773995
0.679310 0.353283 0.776718
0.819830 0.384373 0.781059
0.862760 0.392211 0.780781
0.104792 0.350018 0.736918
0.180983 0.383355 0.767468
0.645604 0.413255 0.773927
0.815131 0.442833 0.779503
0.862755 0.391035 0.778429
0.151513 0.531001 0.706971
0.209432 0.545553 0.731223
0.537729 0.568902 0.757607
0.797220 0.592519 0.770218
0.862288 0.617963 0.788346
0.188295 0.701447 0.678164
0.227724 0.705746 0.686187
0.433588 0.716186 0.712375
0.753540 0.729298 0.737754
0.862551 0.753901 0.784120
0.168010 0.821206 0.636093
0.177563 0.826773 0.636498
0.317488 0.829975 0.675487
0.603188 0.830146 0.683169
0.867557 0.839516 0.759755
0.141201 0.418596 0.859851
0.366193 0.426436 0.859897
0.756145 0.450740 0.860200
0.834026 0.466021 0.861235
0.862760 0.458426 0.856643
0.168009 0.466197 0.859211
0.352776 0.474100 0.859325
0.750368 0.493078 0.859787
0.832911 0.505311 0.860920
0.862760 0.470190 0.861365
0.215757 0.608185 0.857926
0.326804 0.610992 0.858289
0.713213 0.620269 0.859085
0.828156 0.629072 0.860402
0.864393 0.641901 0.864114
0.210329 0.742430 0.858087
0.270760 0.744369 0.858715
0.593741 0.750142 0.859829
0.813804 0.757832 0.861217
0.865538 0.774541 0.864214
0.161891 0.821953 0.777620
0.179082 0.832736 0.800150
0.263408 0.845568 0.836757
0.579477 0.845976 0.863979
0.867872 0.850478 0.865524
