negative-portra-400/Portra400_Classic_ExtraPunchy.cube
TITLE "Kodak Portra 400 Classic ExtraPunchy"
# Adobe RGB in/out. REPLACES AgX. Kodak Portra 400 Classic ExtraPunchy.
LUT_3D_SIZE 9
DOMAIN_MIN 0.0 0.0 0.0
DOMAIN_MAX 1.0 1.0 1.0
0.069662 0.073299 0.081842
0.081589 0.079090 0.078741
0.161369 0.097828 0.078969
0.325026 0.131276 0.080599
0.483430 0.190145 0.083445
0.598678 0.273491 0.088476
0.679848 0.357011 0.096130
0.743779 0.437363 0.107738
0.794366 0.511823 0.122760
0.068893 0.090181 0.079044
0.083209 0.095254 0.078190
0.163731 0.112251 0.079249
0.327003 0.151170 0.080815
0.484512 0.210431 0.083731
0.599267 0.290575 0.088896
0.680188 0.370901 0.096544
0.744044 0.447296 0.108266
0.794516 0.520510 0.123304
0.073768 0.150617 0.078843
0.088887 0.156665 0.079109
0.172954 0.177123 0.080055
0.334061 0.218272 0.081486
0.488376 0.278439 0.084939
0.601371 0.344241 0.090338
0.681407 0.415635 0.097990
0.744995 0.481503 0.110131
0.795053 0.546882 0.125239
0.083076 0.274665 0.080304
0.102350 0.280515 0.080519
0.189978 0.299105 0.081325
0.346052 0.331144 0.083421
0.495403 0.376230 0.087110
0.605208 0.427196 0.092757
0.683635 0.480561 0.100798
0.746737 0.538876 0.113446
0.796038 0.583399 0.128808
0.101394 0.414228 0.082522
0.125143 0.417615 0.082889
0.215583 0.429593 0.084078
0.363010 0.450905 0.086683
0.505722 0.481248 0.090816
0.610863 0.519789 0.096829
0.686929 0.557312 0.106346
0.749321 0.593338 0.118856
0.797500 0.631978 0.134349
0.131889 0.538310 0.086861
0.155399 0.540237 0.087206
0.251936 0.547069 0.088634
0.385229 0.559291 0.091589
0.519322 0.576807 0.096050
0.618354 0.599193 0.103013
0.691312 0.625848 0.113227
0.752774 0.651813 0.126160
0.799458 0.677439 0.143632
0.171952 0.627540 0.093074
0.198300 0.629046 0.093473
0.291544 0.634407 0.095275
0.412470 0.642470 0.098352
0.536137 0.653386 0.103993
0.627642 0.667488 0.112036
0.696778 0.684469 0.122553
0.757103 0.703958 0.135805
0.801919 0.725561 0.155241
0.226226 0.696610 0.102122
0.254099 0.697540 0.102773
0.333332 0.700857 0.105062
0.444411 0.706864 0.109093
0.556110 0.715632 0.114744
0.638651 0.727094 0.123298
0.703299 0.740980 0.133959
0.762301 0.753637 0.150255
0.804882 0.767805 0.168940
0.287744 0.756014 0.115043
0.308857 0.756600 0.115707
0.376033 0.758693 0.118061
0.478151 0.762495 0.122268
0.573837 0.768069 0.128342
0.651277 0.775394 0.137451
0.710828 0.784393 0.150903
0.768347 0.794920 0.166676
0.808339 0.805916 0.187723
0.069662 0.075004 0.087501
0.081601 0.081506 0.087829
0.161388 0.099883 0.089518
0.325042 0.134175 0.092359
0.483439 0.193015 0.096934
0.598683 0.276020 0.104216
0.679851 0.358963 0.114277
0.743781 0.438758 0.127293
0.794368 0.513041 0.145120
0.068904 0.092297 0.087789
0.083222 0.097489 0.088229
0.163751 0.114235 0.089917
0.327019 0.153791 0.092709
0.484521 0.213202 0.097338
0.599271 0.292751 0.104770
0.680191 0.372814 0.114761
0.744046 0.448664 0.127818
0.794517 0.521711 0.145811
0.073775 0.153244 0.089255
0.088904 0.159219 0.089716
0.172975 0.179461 0.091293
0.334077 0.221008 0.094095
0.488385 0.280953 0.098751
0.601376 0.346231 0.106725
0.681410 0.417093 0.116810
0.744998 0.482787 0.129865
0.795055 0.547693 0.148282
0.083089 0.277191 0.091794
0.102369 0.283022 0.092203
0.189999 0.301248 0.093678
0.346066 0.333175 0.096901
0.495412 0.378128 0.101929
0.605212 0.428620 0.110191
0.683637 0.481847 0.120544
0.746739 0.539706 0.133566
0.796039 0.584129 0.152782
0.101413 0.415690 0.095700
0.125161 0.419068 0.096178
0.215605 0.431010 0.097841
0.363024 0.452264 0.101122
0.505730 0.482532 0.107393
0.610868 0.520991 0.115133
0.686932 0.558099 0.125917
0.749323 0.594049 0.140216
0.797501 0.632621 0.159412
0.131907 0.539142 0.101456
0.155418 0.541064 0.102113
0.251957 0.547879 0.104424
0.385242 0.560073 0.108489
0.519330 0.577551 0.114183
0.618358 0.599893 0.122668
0.691315 0.626500 0.133319
0.752776 0.652282 0.149465
0.799459 0.677867 0.168189
0.171973 0.628190 0.110663
0.198320 0.629693 0.111242
0.291561 0.635045 0.113286
0.412483 0.642955 0.117339
0.536145 0.653852 0.123616
0.627646 0.667931 0.131983
0.696781 0.684887 0.144858
0.757105 0.704349 0.160889
0.801920 0.725925 0.180896
0.226248 0.697011 0.121811
0.254121 0.697940 0.122437
0.333348 0.701252 0.124659
0.444423 0.707251 0.128723
0.556118 0.716009 0.135108
0.638656 0.727457 0.145803
0.703301 0.741250 0.158942
0.762303 0.753892 0.175153
0.804883 0.768045 0.196916
0.287761 0.756267 0.135518
0.308873 0.756852 0.136330
0.376047 0.758943 0.139229
0.478160 0.762741 0.144498
0.573842 0.768309 0.152230
0.651281 0.775627 0.162420
0.710830 0.784617 0.175897
0.768348 0.795118 0.194245
0.808340 0.806104 0.215649
0.069230 0.084334 0.159307
0.081641 0.089578 0.160065
0.161457 0.107261 0.162775
0.325100 0.144234 0.167712
0.483471 0.203205 0.175876
0.598700 0.284907 0.187720
0.679861 0.365929 0.202602
0.743789 0.443739 0.220533
0.794372 0.517395 0.242051
0.068945 0.100106 0.159972
0.083268 0.104829 0.160728
0.163819 0.122606 0.163433
0.327076 0.162948 0.168362
0.484552 0.223054 0.176657
0.599289 0.300497 0.188492
0.680201 0.379644 0.203364
0.744054 0.453551 0.221284
0.794522 0.526003 0.242819
0.073802 0.162424 0.162348
0.088962 0.168158 0.163100
0.173051 0.188049 0.165788
0.334134 0.230740 0.170687
0.488416 0.289206 0.179457
0.601393 0.353329 0.191262
0.681420 0.422296 0.206098
0.745005 0.487375 0.223979
0.795059 0.550589 0.245574
0.083136 0.285928 0.166681
0.102439 0.291007 0.167425
0.190073 0.308880 0.170084
0.346116 0.340417 0.175812
0.495442 0.384908 0.184590
0.605229 0.433703 0.196340
0.683647 0.486443 0.211112
0.746746 0.542671 0.229008
0.796043 0.586741 0.250633
0.101483 0.420908 0.173546
0.125226 0.424249 0.174439
0.215685 0.436068 0.177641
0.363073 0.457117 0.183507
0.505760 0.487122 0.192223
0.610884 0.525288 0.203894
0.686941 0.560909 0.218575
0.749330 0.596591 0.236639
0.797506 0.634919 0.258176
0.131969 0.542112 0.183954
0.155488 0.544017 0.184838
0.252035 0.550774 0.188009
0.385290 0.562867 0.193819
0.519359 0.580211 0.202456
0.618374 0.602396 0.214027
0.691324 0.628834 0.228663
0.752783 0.653959 0.246900
0.799463 0.679400 0.268323
0.172049 0.630514 0.197048
0.198393 0.632008 0.197921
0.291621 0.637204 0.201056
0.412528 0.644689 0.206800
0.536174 0.655520 0.215343
0.627662 0.669518 0.226805
0.696790 0.686383 0.241761
0.757113 0.705750 0.259871
0.801924 0.727231 0.281156
0.226327 0.698447 0.212845
0.254199 0.699372 0.213707
0.333405 0.702668 0.216801
0.444467 0.708639 0.222473
0.556145 0.717357 0.231068
0.638671 0.728756 0.242810
0.703310 0.742218 0.257638
0.762310 0.754807 0.275602
0.804887 0.768906 0.296731
0.287821 0.757172 0.231514
0.308932 0.757755 0.232395
0.376095 0.759838 0.235557
0.478192 0.763622 0.241361
0.573860 0.769168 0.250009
0.651296 0.776460 0.261633
0.710839 0.785419 0.276321
0.768356 0.795824 0.294127
0.808344 0.806776 0.312548
0.068081 0.098963 0.332276
0.081718 0.103583 0.332920
0.161584 0.121336 0.335228
0.325205 0.161523 0.339456
0.483528 0.221504 0.345739
0.598732 0.299278 0.354150
0.679879 0.378567 0.364724
0.743803 0.452780 0.377463
0.794380 0.525325 0.392347
0.069018 0.113234 0.332840
0.083352 0.118689 0.333483
0.163945 0.139955 0.335790
0.327181 0.178887 0.340015
0.484610 0.240796 0.346293
0.599320 0.314482 0.354698
0.680219 0.392044 0.365265
0.744068 0.462425 0.377996
0.794530 0.533821 0.392872
0.073850 0.178398 0.334863
0.089069 0.183764 0.335504
0.173190 0.206821 0.337805
0.334238 0.248284 0.342019
0.488473 0.303467 0.348281
0.601424 0.366197 0.356666
0.681438 0.431726 0.367208
0.745019 0.495720 0.379910
0.795067 0.555855 0.394754
0.083220 0.300272 0.338571
0.102566 0.305223 0.339209
0.190209 0.322669 0.341498
0.346209 0.353535 0.345693
0.495499 0.397220 0.351926
0.605260 0.442921 0.360274
0.683665 0.494802 0.370770
0.746761 0.548060 0.383421
0.796051 0.591499 0.398206
0.101612 0.430364 0.344084
0.125345 0.433642 0.344718
0.215832 0.445244 0.346992
0.363163 0.465932 0.351157
0.505816 0.495472 0.357349
0.610915 0.533116 0.365642
0.686959 0.566021 0.376072
0.749344 0.601224 0.388646
0.797513 0.638595 0.402919
0.132084 0.547510 0.351474
0.155617 0.549385 0.352103
0.252179 0.556037 0.354355
0.385377 0.567951 0.358483
0.519413 0.585054 0.364619
0.618404 0.606957 0.372841
0.691342 0.633093 0.383185
0.752797 0.657019 0.395659
0.799471 0.682199 0.408713
0.172189 0.634754 0.360777
0.198527 0.636232 0.361398
0.291732 0.640455 0.363625
0.412612 0.647853 0.367707
0.536226 0.658562 0.373776
0.627691 0.672414 0.381911
0.696807 0.689117 0.392149
0.757126 0.708311 0.403888
0.801932 0.729619 0.415999
0.226473 0.701072 0.372001
0.254343 0.701988 0.372614
0.333509 0.705255 0.374812
0.444547 0.711176 0.378840
0.556196 0.719823 0.384833
0.638699 0.731133 0.392865
0.703327 0.743987 0.402610
0.762323 0.756481 0.412852
0.804894 0.770481 0.424781
0.287933 0.758829 0.385138
0.309040 0.759408 0.385741
0.376183 0.761476 0.387906
0.478251 0.765233 0.391875
0.573894 0.770742 0.397780
0.651323 0.777986 0.404896
0.710855 0.786888 0.413259
0.768369 0.797118 0.423317
0.808351 0.808006 0.435042
0.067635 0.119585 0.495847
0.081853 0.124751 0.496277
0.161773 0.147367 0.497817
0.325363 0.185127 0.500643
0.483615 0.247935 0.504849
0.598779 0.320118 0.509364
0.679906 0.397066 0.514504
0.743824 0.466019 0.520691
0.794392 0.536997 0.527910
0.069130 0.137794 0.496224
0.083478 0.144231 0.496653
0.164133 0.165819 0.498193
0.327339 0.205251 0.501017
0.484696 0.266519 0.505221
0.599367 0.334808 0.509630
0.680246 0.408723 0.514767
0.744089 0.475430 0.520950
0.794542 0.543047 0.528164
0.073922 0.204664 0.497574
0.089229 0.211137 0.498002
0.173399 0.233845 0.499539
0.334394 0.273750 0.502358
0.488559 0.324162 0.506509
0.601471 0.385013 0.510587
0.681465 0.445507 0.515711
0.745040 0.507981 0.521879
0.795079 0.563585 0.529075
0.083347 0.321078 0.500051
0.102757 0.325858 0.500478
0.190412 0.342733 0.502010
0.346348 0.372690 0.504819
0.495583 0.412842 0.508282
0.605306 0.456408 0.512341
0.683692 0.507083 0.517442
0.746782 0.555965 0.523582
0.796063 0.598502 0.530747
0.101804 0.444183 0.503741
0.125524 0.447372 0.504166
0.216052 0.458671 0.505689
0.363298 0.478854 0.507908
0.505898 0.507738 0.510919
0.610960 0.542554 0.514950
0.686985 0.573532 0.520016
0.749365 0.608048 0.526116
0.797525 0.643419 0.533235
0.132256 0.555427 0.508063
0.155809 0.557260 0.508368
0.252394 0.563763 0.509463
0.385508 0.575421 0.511471
0.519493 0.592181 0.514453
0.618448 0.613679 0.518447
0.691368 0.638803 0.523468
0.752818 0.661534 0.529514
0.799483 0.686337 0.536572
0.172398 0.640078 0.512586
0.198728 0.641212 0.512888
0.291897 0.645246 0.513970
0.412738 0.652518 0.515954
0.536305 0.663053 0.518902
0.627734 0.676693 0.522850
0.696832 0.693158 0.527813
0.757146 0.712103 0.533793
0.801943 0.733157 0.540776
0.226692 0.704955 0.518040
0.254558 0.705859 0.518337
0.333666 0.709085 0.519404
0.444668 0.714932 0.521360
0.556271 0.723474 0.524267
0.638740 0.734654 0.528161
0.703351 0.746608 0.533058
0.762343 0.758963 0.538959
0.804906 0.772818 0.545853
0.288099 0.761286 0.524415
0.309201 0.761859 0.524708
0.376316 0.763905 0.525757
0.478338 0.767623 0.527681
0.573945 0.773076 0.530541
0.651363 0.780249 0.534374
0.710879 0.789069 0.539195
0.768388 0.799040 0.545006
0.808362 0.809835 0.551799
0.067664 0.154503 0.608858
0.082034 0.160443 0.609046
0.162029 0.180584 0.609720
0.325577 0.222326 0.610948
0.483732 0.282165 0.612758
0.598842 0.347190 0.615188
0.679943 0.417797 0.618250
0.743853 0.483406 0.621951
0.794408 0.548084 0.626288
0.069295 0.172387 0.609022
0.083647 0.177885 0.609210
0.164387 0.199681 0.609884
0.327552 0.241595 0.611109
0.484813 0.298030 0.612918
0.599430 0.361281 0.615346
0.680283 0.428123 0.618407
0.744118 0.492528 0.622106
0.794558 0.553841 0.626441
0.074017 0.241040 0.609613
0.089445 0.247159 0.609801
0.173680 0.268721 0.610473
0.334606 0.304109 0.611686
0.488675 0.351066 0.613492
0.601534 0.408295 0.615915
0.681502 0.463563 0.618971
0.745069 0.524153 0.622663
0.795095 0.573766 0.626991
0.083517 0.348110 0.610694
0.103014 0.352692 0.610877
0.190686 0.368898 0.611536
0.346536 0.397777 0.612745
0.495697 0.432082 0.614545
0.605368 0.474102 0.616960
0.683728 0.523279 0.620005
0.746810 0.566367 0.623685
0.796079 0.607761 0.627999
0.102064 0.462283 0.612282
0.125765 0.465365 0.612464
0.216349 0.476292 0.613120
0.363481 0.495850 0.614323
0.506009 0.523916 0.616113
0.611021 0.553363 0.618516
0.687021 0.583436 0.621546
0.749393 0.617078 0.625209
0.797541 0.649805 0.629502
0.132487 0.565845 0.614414
0.156069 0.567623 0.614596
0.252685 0.573939 0.615247
0.385685 0.585274 0.616441
0.519601 0.601597 0.618220
0.618508 0.622578 0.620607
0.691403 0.645296 0.623617
0.752845 0.667524 0.627255
0.799499 0.691836 0.631521
0.172680 0.646541 0.617106
0.198999 0.647649 0.617286
0.292121 0.651591 0.617931
0.412908 0.658700 0.619115
0.536410 0.669011 0.620879
0.627792 0.682376 0.623246
0.696867 0.698533 0.626230
0.757174 0.717152 0.629839
0.801959 0.737876 0.634071
0.226987 0.710124 0.620363
0.254848 0.711012 0.620541
0.333877 0.714184 0.621180
0.444831 0.719935 0.622352
0.556373 0.728341 0.624097
0.638797 0.739350 0.626440
0.703385 0.750102 0.629395
0.762370 0.762274 0.632968
0.804921 0.775939 0.637159
0.288324 0.764564 0.624186
0.309420 0.765129 0.624362
0.376495 0.767146 0.624993
0.478456 0.770814 0.626151
0.574014 0.776194 0.627875
0.651417 0.783274 0.630190
0.710912 0.791985 0.633111
0.768414 0.801609 0.636643
0.808377 0.812282 0.640786
0.067973 0.197290 0.693316
0.082263 0.203844 0.693425
0.162353 0.226814 0.693815
0.325849 0.267103 0.694530
0.483881 0.318763 0.695597
0.598923 0.380088 0.697030
0.679990 0.441901 0.698841
0.743889 0.504766 0.701036
0.794429 0.561559 0.703616
0.069485 0.217332 0.693411
0.083860 0.223673 0.693520
0.164709 0.245956 0.693910
0.327823 0.285074 0.694625
0.484961 0.333485 0.695691
0.599511 0.393538 0.697124
0.680330 0.451748 0.698934
0.744154 0.513557 0.701128
0.794579 0.567097 0.703707
0.074135 0.284612 0.693753
0.089717 0.289704 0.693861
0.174038 0.307617 0.694251
0.334874 0.339218 0.694965
0.488822 0.383784 0.696029
0.601614 0.432860 0.697460
0.681548 0.485681 0.699268
0.745105 0.542179 0.701459
0.795115 0.586308 0.704035
0.083731 0.380965 0.694380
0.103340 0.385335 0.694488
0.191035 0.400822 0.694876
0.346774 0.423603 0.695589
0.495842 0.455527 0.696651
0.605448 0.495811 0.698078
0.683774 0.541577 0.699881
0.746846 0.579166 0.702067
0.796099 0.619217 0.704636
0.102393 0.484452 0.695315
0.126072 0.487412 0.695423
0.216727 0.497918 0.695810
0.363713 0.516762 0.696519
0.506151 0.542016 0.697577
0.611099 0.566638 0.698999
0.687067 0.595653 0.700796
0.749429 0.628263 0.702973
0.797561 0.657721 0.705533
0.132781 0.578663 0.696573
0.156399 0.580379 0.696681
0.253054 0.586475 0.697065
0.385909 0.597431 0.697771
0.519739 0.613238 0.698823
0.618584 0.633608 0.700238
0.691447 0.653339 0.702026
0.752881 0.674963 0.704192
0.799519 0.698686 0.706739
0.173039 0.654549 0.698164
0.199344 0.655625 0.698271
0.292406 0.659456 0.698653
0.413124 0.666372 0.699354
0.536545 0.676412 0.700400
0.627866 0.689447 0.701805
0.696910 0.705232 0.703581
0.757208 0.723455 0.705734
0.801979 0.743075 0.708266
0.227362 0.716572 0.700093
0.255217 0.717442 0.700199
0.334146 0.720548 0.700578
0.445037 0.726182 0.701274
0.556503 0.734422 0.702311
0.638868 0.744201 0.703706
0.703428 0.754469 0.705469
0.762404 0.766418 0.707605
0.804940 0.779850 0.710117
0.288610 0.768668 0.702364
0.309697 0.769223 0.702469
0.376722 0.771205 0.702844
0.478607 0.774810 0.703534
0.574101 0.780100 0.704562
0.651486 0.787067 0.705944
0.710953 0.795563 0.707691
0.768447 0.804835 0.709808
0.808396 0.815356 0.712298
0.068234 0.253603 0.756808
0.082539 0.259616 0.756892
0.162750 0.280829 0.757196
0.326180 0.314208 0.757753
0.484062 0.360440 0.758529
0.599022 0.415342 0.759390
0.680047 0.469884 0.760480
0.743934 0.529842 0.761804
0.794454 0.577343 0.763363
0.069695 0.272047 0.756882
0.084117 0.277916 0.756966
0.165103 0.296883 0.757269
0.328154 0.329039 0.757826
0.485142 0.374263 0.758585
0.599610 0.425721 0.759447
0.680387 0.479229 0.760537
0.744199 0.538016 0.761860
0.794604 0.582642 0.763418
0.074355 0.328611 0.757148
0.090047 0.333333 0.757232
0.174476 0.350014 0.757535
0.335202 0.379659 0.758091
0.489001 0.418197 0.758789
0.601712 0.461321 0.759649
0.681605 0.511570 0.760738
0.745150 0.558850 0.762059
0.795141 0.601065 0.763616
0.083990 0.416020 0.757636
0.103737 0.419395 0.757720
0.191461 0.431329 0.758022
0.347066 0.452570 0.758524
0.496019 0.482822 0.759162
0.605544 0.521262 0.760021
0.683830 0.558276 0.761107
0.746890 0.594209 0.762426
0.796124 0.632765 0.763981
0.102793 0.510396 0.758360
0.126445 0.513225 0.758424
0.217189 0.523279 0.758657
0.363997 0.540211 0.759083
0.506324 0.558694 0.759719
0.611194 0.582202 0.760575
0.687122 0.610050 0.761659
0.749473 0.640462 0.762974
0.797586 0.667097 0.764524
0.133140 0.593727 0.759116
0.156802 0.595373 0.759180
0.253506 0.601226 0.759411
0.386183 0.611761 0.759836
0.519907 0.626994 0.760470
0.618677 0.644486 0.761323
0.691502 0.662860 0.762402
0.752924 0.683798 0.763712
0.799543 0.706846 0.765255
0.173476 0.664030 0.760073
0.199765 0.665070 0.760137
0.292753 0.668776 0.760367
0.413387 0.675471 0.760789
0.536710 0.685204 0.761420
0.627956 0.697861 0.762268
0.696964 0.713219 0.763342
0.757251 0.730985 0.764646
0.802003 0.748565 0.766182
0.227821 0.724270 0.761235
0.255667 0.725119 0.761299
0.334474 0.728148 0.761528
0.445290 0.733647 0.761948
0.556661 0.741455 0.762574
0.638956 0.749664 0.763418
0.703480 0.759694 0.764485
0.762446 0.771383 0.765781
0.804964 0.784541 0.767308
0.288959 0.773585 0.762606
0.310036 0.774129 0.762669
0.377000 0.776070 0.762896
0.478790 0.779601 0.763313
0.574208 0.784787 0.763936
0.651571 0.791619 0.764773
0.711004 0.799607 0.765833
0.768488 0.808712 0.767120
0.808420 0.819054 0.768636
0.068541 0.311373 0.802747
0.082862 0.316231 0.802799
0.163220 0.333365 0.802983
0.326574 0.363737 0.803323
0.484277 0.405953 0.803830
0.599139 0.450101 0.804512
0.680115 0.501333 0.805377
0.743987 0.552265 0.806429
0.794484 0.595221 0.807670
0.070047 0.326273 0.802792
0.084419 0.331013 0.802844
0.165577 0.347753 0.803028
0.328546 0.377494 0.803368
0.485357 0.416534 0.803874
0.599727 0.459795 0.804557
0.680455 0.510175 0.805422
0.744252 0.557953 0.806473
0.794633 0.600268 0.807714
0.074641 0.377097 0.802954
0.090437 0.381490 0.803006
0.174994 0.397057 0.803190
0.335591 0.420659 0.803529
0.489214 0.452765 0.804035
0.601828 0.493245 0.804717
0.681672 0.539888 0.805581
0.745202 0.577652 0.806632
0.795170 0.617858 0.807872
0.084293 0.450733 0.803252
0.104206 0.453883 0.803303
0.191966 0.465044 0.803487
0.347412 0.484996 0.803826
0.496229 0.513579 0.804331
0.605659 0.546462 0.805012
0.683897 0.577108 0.805875
0.746942 0.611305 0.806924
0.796154 0.645722 0.808162
0.103266 0.539090 0.803696
0.126887 0.541012 0.803747
0.217737 0.547828 0.803931
0.364333 0.560024 0.804269
0.506530 0.577504 0.804773
0.611307 0.599849 0.805453
0.687188 0.626459 0.806313
0.749524 0.652252 0.807360
0.797615 0.677840 0.808596
0.133564 0.610844 0.804295
0.157280 0.612416 0.804346
0.254041 0.618012 0.804529
0.386508 0.628098 0.804866
0.520107 0.641405 0.805369
0.618787 0.656110 0.806046
0.691567 0.673762 0.806904
0.752975 0.693950 0.807948
0.799572 0.716254 0.809180
0.173996 0.674887 0.805053
0.200265 0.675888 0.805104
0.293165 0.679457 0.805287
0.413700 0.685912 0.805622
0.536905 0.695308 0.806123
0.628064 0.707550 0.806798
0.697027 0.722435 0.807653
0.757301 0.739694 0.808693
0.802031 0.754915 0.809921
0.228365 0.733166 0.805977
0.256202 0.733991 0.806027
0.334863 0.736936 0.806209
0.445590 0.741913 0.806543
0.556849 0.748004 0.807042
0.639060 0.755983 0.807714
0.703541 0.765747 0.808565
0.762495 0.777143 0.809600
0.804992 0.789993 0.810822
0.289374 0.779292 0.807067
0.310438 0.779823 0.807118
0.377330 0.781718 0.807298
0.479008 0.785166 0.807631
0.574335 0.790233 0.808126
0.651671 0.796733 0.808795
0.711064 0.804311 0.809641
0.768536 0.813228 0.810671
0.808447 0.823217 0.811887
