negative-portra-400/Portra400_Modern_ExtraSoft.cube
TITLE "Kodak Portra 400 Modern ExtraSoft"
# Adobe RGB in/out. REPLACES AgX. Kodak Portra 400 Modern ExtraSoft.
LUT_3D_SIZE 5
DOMAIN_MIN 0.0 0.0 0.0
DOMAIN_MAX 1.0 1.0 1.0
0.055943 0.062712 0.078815
0.390616 0.139953 0.096277
0.623377 0.376202 0.122312
0.717724 0.518782 0.155289
0.772053 0.597732 0.197350
0.096519 0.331438 0.095356
0.283313 0.255674 0.096703
0.573259 0.415198 0.117969
0.701118 0.534539 0.150502
0.763241 0.609053 0.193067
0.186641 0.582925 0.117043
0.380170 0.555894 0.117118
0.544235 0.538313 0.123683
0.672334 0.586247 0.147360
0.742877 0.634763 0.186971
0.301780 0.671670 0.138477
0.419934 0.664676 0.139232
0.561047 0.653453 0.145119
0.664763 0.655447 0.160590
0.727162 0.674675 0.192476
0.379276 0.711587 0.159508
0.446213 0.710122 0.161080
0.563929 0.707378 0.167877
0.664014 0.707921 0.184712
0.721326 0.713851 0.213939
0.058808 0.102368 0.393866
0.398447 0.182527 0.400209
0.615706 0.387238 0.370014
0.712157 0.517343 0.364832
0.768555 0.596140 0.376280
0.086749 0.279063 0.310936
0.193913 0.189740 0.190452
0.556663 0.405950 0.284182
0.694849 0.530520 0.330443
0.759742 0.606878 0.359870
0.170260 0.565644 0.332605
0.351397 0.540105 0.290385
0.527238 0.522971 0.247948
0.666097 0.579125 0.282637
0.739750 0.632875 0.327736
0.293209 0.667280 0.319508
0.412474 0.660572 0.307197
0.555007 0.649671 0.286477
0.661329 0.652544 0.286564
0.725286 0.673601 0.315591
0.375652 0.710748 0.303800
0.443582 0.709360 0.301737
0.562112 0.706815 0.299432
0.663107 0.707660 0.306452
0.720956 0.714040 0.327491
0.061773 0.237676 0.672107
0.398927 0.323469 0.672927
0.651823 0.478787 0.671158
0.716393 0.544005 0.625916
0.767003 0.606818 0.603327
0.095676 0.423806 0.665596
0.372525 0.426475 0.642531
0.587072 0.476053 0.613768
0.697027 0.550608 0.601008
0.757620 0.614394 0.592109
0.148567 0.546527 0.590855
0.316009 0.528648 0.562420
0.497475 0.498137 0.496441
0.660454 0.580418 0.540500
0.735985 0.634301 0.559856
0.272291 0.659379 0.582642
0.396821 0.653877 0.571110
0.543040 0.644239 0.541066
0.650472 0.648151 0.524881
0.721667 0.673210 0.535940
0.366380 0.709147 0.553958
0.436916 0.708022 0.549726
0.557684 0.706095 0.539429
0.660929 0.707667 0.532379
0.720075 0.715077 0.534267
0.065399 0.425729 0.780306
0.399810 0.462074 0.780577
0.659022 0.553960 0.781548
0.729694 0.598676 0.754010
0.771092 0.627915 0.719322
0.099696 0.524624 0.780544
0.415873 0.544574 0.780815
0.632854 0.574626 0.765574
0.710851 0.600841 0.732238
0.761390 0.631554 0.708738
0.150385 0.576997 0.713198
0.339496 0.573304 0.704394
0.545679 0.579773 0.689402
0.670616 0.614961 0.684992
0.737866 0.645928 0.682881
0.252029 0.656104 0.689291
0.382479 0.652507 0.683214
0.534812 0.645658 0.667773
0.638317 0.646727 0.652422
0.719859 0.677770 0.663226
0.355335 0.708406 0.674363
0.429017 0.707680 0.672085
0.552733 0.706685 0.666078
0.657914 0.709107 0.660875
0.719247 0.717576 0.660183
0.069205 0.547756 0.840314
0.401126 0.566004 0.840415
0.659330 0.619360 0.840777
0.740118 0.644597 0.825208
0.776555 0.653703 0.793668
0.102365 0.600514 0.840402
0.417122 0.614660 0.840503
0.658777 0.642626 0.839230
0.723452 0.644096 0.810730
0.767163 0.655870 0.785738
0.170872 0.635838 0.803566
0.386883 0.635524 0.799252
0.578058 0.637969 0.787929
0.685010 0.648355 0.775756
0.743346 0.665713 0.765246
0.247170 0.665810 0.764603
0.380680 0.664549 0.761697
0.541373 0.663765 0.751721
0.657299 0.671847 0.743690
0.722674 0.690013 0.741332
0.345932 0.709877 0.746654
0.422328 0.709584 0.744659
0.548950 0.709643 0.739198
0.655549 0.712880 0.734038
0.718919 0.721917 0.733181
