negative-portra-400/Portra400_Classic_Normal.cube
TITLE "Kodak Portra 400 Classic Normal"
# Adobe RGB in/out. REPLACES AgX. Kodak Portra 400 Classic Normal.
LUT_3D_SIZE 5
DOMAIN_MIN 0.0 0.0 0.0
DOMAIN_MAX 1.0 1.0 1.0
0.071730 0.071698 0.087030
0.276144 0.089060 0.090086
0.702940 0.120553 0.094577
0.821578 0.151640 0.110971
0.856704 0.342728 0.599456
0.079787 0.154845 0.090240
0.123618 0.165845 0.092034
0.563370 0.194454 0.096876
0.811152 0.234871 0.110556
0.856704 0.342736 0.599454
0.095417 0.430251 0.094533
0.117755 0.452238 0.097773
0.347004 0.464013 0.105946
0.742608 0.487142 0.122942
0.856948 0.515950 0.306009
0.121117 0.684462 0.101306
0.141188 0.691969 0.106430
0.290739 0.702086 0.122848
0.621576 0.706019 0.143050
0.854100 0.718995 0.180439
0.138628 0.784491 0.098274
0.169647 0.811339 0.098283
0.254512 0.823095 0.113668
0.530325 0.821007 0.139760
0.859679 0.825495 0.154401
0.075016 0.094820 0.154742
0.248803 0.136583 0.389788
0.715374 0.158255 0.318606
0.821130 0.198030 0.394314
0.856704 0.342741 0.599478
0.086226 0.165012 0.150746
0.196688 0.194575 0.190565
0.650410 0.220107 0.206645
0.814070 0.261706 0.260155
0.856704 0.342736 0.599454
0.108144 0.433846 0.157175
0.150419 0.447856 0.167734
0.431898 0.465095 0.188658
0.772161 0.494517 0.214679
0.856820 0.536934 0.497519
0.136174 0.684613 0.160948
0.165377 0.690483 0.171856
0.335488 0.700231 0.196114
0.671228 0.706268 0.222779
0.855130 0.720882 0.269587
0.138632 0.794902 0.129569
0.169648 0.820744 0.129565
0.273147 0.823357 0.157405
0.548747 0.821680 0.201432
0.861544 0.826172 0.221326
0.078308 0.152311 0.454665
0.202422 0.227344 0.642729
0.694383 0.259476 0.643444
0.817791 0.299008 0.662503
0.856704 0.366662 0.702037
0.091670 0.233671 0.465550
0.185114 0.277846 0.569491
0.648742 0.318699 0.603272
0.812454 0.358752 0.638208
0.856704 0.364362 0.694581
0.125491 0.464592 0.433065
0.186294 0.475094 0.452438
0.511045 0.506353 0.511188
0.787456 0.532198 0.550268
0.856376 0.580411 0.683549
0.163657 0.694173 0.433121
0.203346 0.698766 0.439702
0.401864 0.705644 0.461004
0.724330 0.714038 0.489483
0.855962 0.734422 0.605291
0.155552 0.818665 0.519942
0.164781 0.823706 0.519940
0.314980 0.824413 0.457781
0.588925 0.824123 0.469080
0.862537 0.829573 0.503662
0.082664 0.282489 0.725687
0.157305 0.331779 0.770287
0.677531 0.359615 0.772016
0.814988 0.386607 0.774769
0.856703 0.393362 0.774592
0.095149 0.356761 0.735217
0.171816 0.385728 0.764970
0.642792 0.413592 0.770243
0.810930 0.442954 0.773783
0.856698 0.392349 0.773102
0.139152 0.530264 0.706024
0.204162 0.545426 0.729667
0.534125 0.569789 0.755369
0.792728 0.594476 0.767646
0.856097 0.622238 0.779376
0.180195 0.712628 0.677858
0.223914 0.716004 0.685746
0.435755 0.724184 0.711294
0.744993 0.734420 0.736032
0.856435 0.753064 0.776706
0.157118 0.821925 0.634517
0.167920 0.826805 0.634919
0.320694 0.829610 0.674126
0.600034 0.829759 0.682801
0.862869 0.837960 0.757460
0.128029 0.418894 0.845313
0.370902 0.426678 0.845341
0.747832 0.450800 0.845522
0.827228 0.464940 0.846141
0.856704 0.458427 0.842650
0.157118 0.465082 0.844931
0.357081 0.471447 0.844999
0.742115 0.490837 0.845276
0.826268 0.503542 0.845952
0.856704 0.468301 0.846219
0.210987 0.611067 0.843888
0.330340 0.614272 0.844239
0.709780 0.624876 0.844856
0.822170 0.634958 0.845643
0.858802 0.649686 0.847860
0.205129 0.744408 0.844044
0.270851 0.745869 0.844634
0.590516 0.750212 0.845300
0.809784 0.756100 0.846130
0.860273 0.768965 0.847920
0.150702 0.822580 0.772588
0.169648 0.832027 0.788095
0.262734 0.843250 0.823454
0.576149 0.843607 0.847780
0.863275 0.847539 0.848701
