negative-portra-400/Portra400_Modern_ExtraPunchy.cube
TITLE "Kodak Portra 400 Modern ExtraPunchy"
# Adobe RGB in/out. REPLACES AgX. Kodak Portra 400 Modern ExtraPunchy.
LUT_3D_SIZE 33
DOMAIN_MIN 0.0 0.0 0.0
DOMAIN_MAX 1.0 1.0 1.0
0.069330 0.073299 0.081842
0.069114 0.073299 0.081842
0.067632 0.073265 0.081842
0.070776 0.072711 0.081842
0.077444 0.072345 0.081842
0.096867 0.075053 0.081842
0.145657 0.080047 0.081842
0.216313 0.085731 0.081842
0.308804 0.093521 0.081842
0.400252 0.104145 0.081842
0.492796 0.118198 0.080675
0.570241 0.138454 0.079028
0.629092 0.162826 0.078277
0.679260 0.189155 0.078207
0.722692 0.224642 0.078456
0.764928 0.263030 0.078745
0.795789 0.301789 0.079035
0.823561 0.339961 0.079465
0.846884 0.379692 0.079895
0.863172 0.417086 0.080325
0.878665 0.450776 0.080763
0.893450 0.484846 0.081246
0.907605 0.519299 0.081704
0.917542 0.549305 0.082734
0.925906 0.573947 0.083723
0.933897 0.598302 0.084925
0.941493 0.622355 0.086246
0.948716 0.643938 0.087522
0.952206 0.661927 0.089232
0.955500 0.679515 0.091091
0.958649 0.696707 0.092898
0.961661 0.713504 0.095089
0.964593 0.729912 0.097411
0.069330 0.073299 0.081842
0.069326 0.073299 0.081842
0.067922 0.073232 0.081842
0.069643 0.072622 0.081842
0.075906 0.072376 0.081842
0.093409 0.075218 0.081842
0.138489 0.080216 0.081842
0.206865 0.085898 0.081842
0.300888 0.093818 0.081842
0.393146 0.104496 0.081842
0.487568 0.118667 0.080749
0.566798 0.139048 0.079085
0.625981 0.163423 0.078297
0.677132 0.189922 0.078199
0.720788 0.225441 0.078448
0.763212 0.263850 0.078738
0.794698 0.302525 0.079025
0.822581 0.340698 0.079456
0.846316 0.380428 0.079886
0.862661 0.417673 0.080317
0.878203 0.451350 0.080754
0.893033 0.485410 0.081238
0.907226 0.519857 0.081696
0.917319 0.549694 0.082719
0.925704 0.574323 0.083709
0.933713 0.598667 0.084907
0.941326 0.622710 0.086229
0.948563 0.644204 0.087506
0.952136 0.662184 0.089210
0.955436 0.679763 0.091070
0.958590 0.696946 0.092879
0.961607 0.713737 0.095065
0.964542 0.730137 0.097389
0.069330 0.072706 0.081842
0.069114 0.072785 0.081842
0.068244 0.072921 0.081842
0.068275 0.072431 0.081842
0.072827 0.072565 0.081842
0.084834 0.075678 0.081842
0.119461 0.080737 0.081842
0.181728 0.086473 0.081842
0.276109 0.094852 0.081842
0.370126 0.105724 0.081842
0.470144 0.120322 0.081031
0.552519 0.141154 0.079279
0.615304 0.165541 0.078367
0.669766 0.192656 0.078173
0.714156 0.228289 0.078425
0.757209 0.266777 0.078714
0.790865 0.305155 0.078988
0.819124 0.343333 0.079424
0.844309 0.383060 0.079855
0.860853 0.419774 0.080289
0.876567 0.453403 0.080722
0.891551 0.487433 0.081209
0.905879 0.521855 0.081671
0.916528 0.551087 0.082665
0.924984 0.575673 0.083660
0.933056 0.599976 0.084843
0.940733 0.623981 0.086170
0.948018 0.645157 0.087452
0.951886 0.663104 0.089132
0.955206 0.680652 0.090998
0.958379 0.697807 0.092812
0.961412 0.714570 0.094982
0.964358 0.730945 0.097311
0.069176 0.073196 0.081842
0.068908 0.073079 0.081842
0.067754 0.072740 0.081842
0.068219 0.072483 0.081842
0.070790 0.073383 0.081842
0.078276 0.076699 0.081842
0.100119 0.081723 0.081842
0.152266 0.087845 0.081842
0.235675 0.096720 0.081842
0.335932 0.107924 0.081842
0.434879 0.123296 0.081458
0.526066 0.144952 0.079590
0.597528 0.169365 0.078482
0.657293 0.197633 0.078128
0.702751 0.233465 0.078387
0.746788 0.272103 0.078672
0.784141 0.309937 0.078949
0.813026 0.348129 0.079369
0.840627 0.387857 0.079799
0.857627 0.423598 0.080239
0.873640 0.457152 0.080666
0.888894 0.491128 0.081159
0.903460 0.525508 0.081626
0.915102 0.553634 0.082568
0.923684 0.578142 0.083572
0.931868 0.602372 0.084727
0.939657 0.626309 0.086064
0.947030 0.646903 0.087354
0.951434 0.664789 0.088992
0.954790 0.682282 0.090869
0.957995 0.699384 0.092692
0.961058 0.716098 0.094830
0.964025 0.732427 0.097169
0.068844 0.079875 0.081842
0.068329 0.079647 0.081842
0.067702 0.078918 0.081842
0.069129 0.078056 0.081842
0.071470 0.077651 0.081842
0.075821 0.079192 0.081842
0.090271 0.083919 0.081842
0.129408 0.090461 0.081842
0.197553 0.099629 0.081842
0.296365 0.111244 0.081842
0.394661 0.127724 0.081842
0.493807 0.150554 0.079961
0.574795 0.175000 0.078625
0.636997 0.205025 0.078072
0.687421 0.241116 0.078338
0.732570 0.279972 0.078617
0.774818 0.316986 0.078900
0.804491 0.355204 0.079294
0.832792 0.394932 0.079722
0.853037 0.429236 0.080170
0.869459 0.462696 0.080590
0.885082 0.496599 0.081088
0.899975 0.530924 0.081562
0.913040 0.557404 0.082431
0.921799 0.581801 0.083447
0.930140 0.605928 0.084561
0.938091 0.629766 0.085912
0.945589 0.649494 0.087214
0.950771 0.667293 0.088791
0.954180 0.684704 0.090682
0.957433 0.701729 0.092518
0.960538 0.718372 0.094611
0.963535 0.734644 0.096964
0.067855 0.096277 0.081842
0.067500 0.095711 0.081842
0.068600 0.093735 0.081842
0.070902 0.091034 0.081842
0.073576 0.087859 0.081842
0.077616 0.086561 0.081842
0.086431 0.088160 0.081842
0.115883 0.095008 0.081842
0.171220 0.104335 0.081842
0.260644 0.116946 0.081842
0.356544 0.135313 0.081842
0.457791 0.158261 0.080313
0.545518 0.182634 0.078770
0.612604 0.215042 0.078112
0.669529 0.251417 0.078283
0.715637 0.289768 0.078554
0.760247 0.326390 0.078843
0.793971 0.364637 0.079204
0.823033 0.403846 0.079632
0.847249 0.436729 0.080085
0.864158 0.470093 0.080513
0.880221 0.503909 0.081000
0.895508 0.537938 0.081482
0.910081 0.562436 0.082259
0.919360 0.586690 0.083289
0.927898 0.610683 0.084352
0.936029 0.634370 0.085718
0.943707 0.652961 0.087034
0.949904 0.670646 0.088533
0.953380 0.687950 0.090441
0.956693 0.704875 0.092294
0.959853 0.721423 0.094328
0.962888 0.737625 0.096698
0.067925 0.125857 0.081842
0.068285 0.126446 0.081842
0.069749 0.122457 0.081842
0.072712 0.114096 0.081842
0.076244 0.107057 0.081842
0.081932 0.102513 0.081842
0.091382 0.101340 0.081842
0.109549 0.102489 0.081842
0.155860 0.112010 0.081842
0.229967 0.126179 0.081842
0.323680 0.146115 0.081842
0.419085 0.168544 0.080569
0.512276 0.194378 0.078936
0.587809 0.228081 0.078232
0.649890 0.264667 0.078230
0.697273 0.301651 0.078490
0.742573 0.338280 0.078783
0.782069 0.376528 0.079108
0.811845 0.413410 0.079543
0.840290 0.446138 0.079991
0.857950 0.479395 0.080427
0.874484 0.513106 0.080901
0.890202 0.544436 0.081391
0.905168 0.568750 0.082059
0.916426 0.592832 0.083106
0.925189 0.616661 0.084106
0.933525 0.639402 0.085490
0.941417 0.657320 0.086822
0.948844 0.674866 0.088227
0.952400 0.692039 0.090155
0.955785 0.708841 0.092026
0.959011 0.725273 0.093988
0.962092 0.741216 0.096378
0.068808 0.172134 0.081842
0.069318 0.172857 0.081842
0.071387 0.170665 0.081842
0.074155 0.156933 0.081842
0.079364 0.143052 0.081842
0.086694 0.132121 0.081842
0.099094 0.126285 0.081842
0.120504 0.124819 0.081842
0.150287 0.126598 0.081842
0.210363 0.141132 0.081842
0.298351 0.160453 0.081842
0.387830 0.181969 0.080673
0.483088 0.211102 0.079102
0.564637 0.244725 0.078322
0.625722 0.281332 0.078186
0.678737 0.316347 0.078436
0.724307 0.352872 0.078727
0.768645 0.391043 0.079014
0.799802 0.424990 0.079454
0.828889 0.457558 0.079896
0.851093 0.490672 0.080338
0.868090 0.524274 0.080795
0.884241 0.552269 0.081293
0.899611 0.576366 0.081845
0.913081 0.600245 0.082905
0.922085 0.623882 0.083918
0.930641 0.644838 0.085238
0.938770 0.662581 0.086586
0.946428 0.679962 0.087887
0.951258 0.696981 0.089832
0.954724 0.713638 0.091723
0.958024 0.729932 0.093604
0.961169 0.744762 0.096015
0.070059 0.239904 0.081842
0.070800 0.240872 0.081842
0.072873 0.234274 0.081842
0.076423 0.215480 0.081842
0.082853 0.195376 0.081842
0.092829 0.179771 0.081842
0.109371 0.169703 0.081842
0.132968 0.163953 0.081842
0.164058 0.162509 0.081842
0.206304 0.164882 0.081842
0.281264 0.178804 0.081842
0.364430 0.202755 0.080601
0.455995 0.232521 0.079136
0.537682 0.265688 0.078367
0.603653 0.299907 0.078157
0.661135 0.334242 0.078402
0.706440 0.370478 0.078680
0.750820 0.407125 0.078952
0.787515 0.438783 0.079373
0.817085 0.471121 0.079806
0.843869 0.504036 0.080251
0.861281 0.537459 0.080692
0.877834 0.561470 0.081195
0.893589 0.585310 0.081672
0.908601 0.608950 0.082699
0.918669 0.632356 0.083724
0.927451 0.651208 0.084974
0.935802 0.668750 0.086337
0.943677 0.685943 0.087651
0.949976 0.702784 0.089487
0.953529 0.719273 0.091396
0.956909 0.735425 0.093248
0.960128 0.748928 0.095620
0.072008 0.322822 0.081842
0.072593 0.320683 0.081842
0.074367 0.309466 0.081842
0.078928 0.292078 0.081842
0.086442 0.270528 0.081842
0.099333 0.249019 0.081842
0.120233 0.231349 0.081842
0.146745 0.218917 0.081842
0.180491 0.212111 0.081842
0.225234 0.210677 0.081842
0.280758 0.214027 0.081528
0.347997 0.230644 0.080361
0.432364 0.259375 0.079028
0.514677 0.290805 0.078361
0.584529 0.322145 0.078146
0.642724 0.355787 0.078382
0.689777 0.391519 0.078648
0.733870 0.423777 0.078916
0.775522 0.455018 0.079306
0.805364 0.487014 0.079728
0.834121 0.519650 0.080174
0.854301 0.548417 0.080597
0.871196 0.572090 0.081103
0.887292 0.595623 0.081583
0.902638 0.618982 0.082498
0.915034 0.640883 0.083532
0.924034 0.658524 0.084709
0.932592 0.675836 0.086085
0.940700 0.692814 0.087411
0.948362 0.709454 0.089133
0.952223 0.725754 0.091059
0.955686 0.741510 0.092928
0.958982 0.753715 0.095207
0.073695 0.400188 0.081491
0.074156 0.397023 0.081512
0.076741 0.386253 0.081579
0.081932 0.368932 0.081676
0.091112 0.347952 0.081767
0.107335 0.326512 0.081809
0.130814 0.307238 0.081765
0.160164 0.291845 0.081605
0.197324 0.280858 0.081309
0.245540 0.274477 0.080832
0.297373 0.273447 0.080285
0.350653 0.277236 0.079656
0.415311 0.291263 0.078823
0.496746 0.318657 0.078303
0.568687 0.348805 0.078156
0.624749 0.381533 0.078379
0.674980 0.413695 0.078634
0.718412 0.443315 0.078894
0.761354 0.473961 0.079260
0.794146 0.505465 0.079670
0.823053 0.537634 0.080112
0.847383 0.560937 0.080534
0.864537 0.584197 0.081022
0.880908 0.607361 0.081503
0.896538 0.630385 0.082313
0.911277 0.649441 0.083352
0.920478 0.666800 0.084457
0.929229 0.683851 0.085842
0.937561 0.700586 0.087177
0.945401 0.717000 0.088784
0.950831 0.733088 0.090723
0.954378 0.747092 0.092606
0.957753 0.759125 0.094790
0.076031 0.465750 0.079905
0.076729 0.463377 0.079920
0.079611 0.455268 0.079968
0.085417 0.441868 0.080040
0.096015 0.424894 0.080111
0.115437 0.406533 0.080153
0.141514 0.385878 0.080137
0.173824 0.367028 0.080039
0.214510 0.352353 0.079844
0.266116 0.342418 0.079545
0.314538 0.337315 0.079146
0.366108 0.336822 0.078765
0.421284 0.340533 0.078512
0.483390 0.351583 0.078198
0.554237 0.380475 0.078186
0.610065 0.410083 0.078395
0.662409 0.437361 0.078640
0.704832 0.466034 0.078890
0.747062 0.495886 0.079240
0.783759 0.526753 0.079638
0.812618 0.552382 0.080070
0.840603 0.575114 0.080486
0.858045 0.597873 0.080958
0.874611 0.620593 0.081437
0.890458 0.641720 0.082155
0.905616 0.659021 0.083194
0.916865 0.676057 0.084231
0.925790 0.692811 0.085619
0.934291 0.709273 0.086959
0.942336 0.725432 0.088455
0.949381 0.741173 0.090404
0.953009 0.753317 0.092297
0.956460 0.765159 0.094387
0.078932 0.532875 0.078732
0.079827 0.530695 0.078736
0.083041 0.523180 0.078752
0.089624 0.510553 0.078776
0.102613 0.494148 0.078800
0.124008 0.475773 0.078816
0.152051 0.457283 0.078815
0.187429 0.440249 0.078788
0.232144 0.425824 0.078729
0.282965 0.414739 0.078631
0.331765 0.407381 0.078495
0.381979 0.403831 0.078323
0.436789 0.403947 0.078117
0.490961 0.407445 0.078116
0.541383 0.414444 0.078235
0.598545 0.438661 0.078429
0.651765 0.464645 0.078667
0.693306 0.492177 0.078904
0.734590 0.521054 0.079247
0.774431 0.547163 0.079631
0.803058 0.568998 0.080051
0.830930 0.591044 0.080458
0.851877 0.613203 0.080915
0.868553 0.635361 0.081389
0.884542 0.652760 0.082032
0.899868 0.669654 0.083065
0.913276 0.686321 0.084060
0.922346 0.702739 0.085427
0.930994 0.718891 0.086767
0.939226 0.734776 0.088161
0.947000 0.748268 0.090113
0.951603 0.760188 0.092012
0.955126 0.771820 0.094011
0.082560 0.582476 0.078202
0.083526 0.581090 0.078205
0.086786 0.576270 0.078217
0.094748 0.568012 0.078235
0.109796 0.556964 0.078255
0.132444 0.544139 0.078269
0.162181 0.528017 0.078270
0.200396 0.509949 0.078251
0.249059 0.493871 0.078207
0.298416 0.480602 0.078133
0.347763 0.470669 0.078050
0.397969 0.464321 0.078113
0.452921 0.461584 0.078190
0.502825 0.462316 0.078279
0.551783 0.466264 0.078379
0.591546 0.473120 0.078499
0.641053 0.495653 0.078713
0.683835 0.521919 0.078936
0.724027 0.546156 0.079281
0.764204 0.566632 0.079650
0.794530 0.587561 0.080057
0.822140 0.608811 0.080453
0.846158 0.630268 0.080897
0.862855 0.648367 0.081362
0.878910 0.664941 0.081952
0.894337 0.681370 0.082974
0.909153 0.697619 0.083961
0.918964 0.713657 0.085276
0.927732 0.729462 0.086610
0.936107 0.744098 0.087914
0.944027 0.756037 0.089864
0.950183 0.767709 0.091763
0.953774 0.779112 0.093678
0.086587 0.630046 0.078190
0.087543 0.628812 0.078188
0.092120 0.624503 0.078184
0.101182 0.617044 0.078178
0.117859 0.606911 0.078171
0.141662 0.594905 0.078166
0.172990 0.581972 0.078166
0.213652 0.569052 0.078172
0.265385 0.556971 0.078188
0.313145 0.546393 0.078214
0.362543 0.537804 0.078253
0.413600 0.529193 0.078304
0.469081 0.523846 0.078367
0.514905 0.521932 0.078442
0.562775 0.523313 0.078549
0.598995 0.527763 0.078669
0.636478 0.535010 0.078799
0.676289 0.550175 0.078988
0.715329 0.568827 0.079343
0.754496 0.588190 0.079698
0.787110 0.608116 0.080089
0.814335 0.628469 0.080470
0.840986 0.646279 0.080904
0.857610 0.662299 0.081358
0.873656 0.678290 0.081921
0.889116 0.694197 0.082926
0.903998 0.709975 0.083900
0.915702 0.725586 0.085173
0.924561 0.740955 0.086497
0.933033 0.752838 0.087785
0.941096 0.764484 0.089667
0.948749 0.775886 0.091560
0.952423 0.787037 0.093406
0.092170 0.667555 0.078390
0.093393 0.666714 0.078389
0.097877 0.663764 0.078386
0.108902 0.658606 0.078381
0.126459 0.651491 0.078376
0.151182 0.642891 0.078373
0.184187 0.632455 0.078373
0.227423 0.619897 0.078378
0.278869 0.607790 0.078390
0.327179 0.596780 0.078412
0.376514 0.587369 0.078443
0.428539 0.579912 0.078496
0.481262 0.574629 0.078564
0.526807 0.571618 0.078644
0.570968 0.570873 0.078737
0.606638 0.572306 0.078842
0.643408 0.575770 0.078956
0.674459 0.581085 0.079149
0.708359 0.593595 0.079430
0.746480 0.611800 0.079775
0.780805 0.630658 0.080146
0.807558 0.646980 0.080511
0.833835 0.662169 0.080939
0.852877 0.677475 0.081378
0.868847 0.692824 0.081942
0.884277 0.708153 0.082925
0.899168 0.723408 0.083880
0.912609 0.738581 0.085125
0.921527 0.750755 0.086432
0.930070 0.762289 0.087707
0.938249 0.773615 0.089531
0.945988 0.784721 0.091413
0.951094 0.795599 0.093251
0.098387 0.702399 0.078608
0.100090 0.701658 0.078608
0.106094 0.699050 0.078605
0.117523 0.694462 0.078601
0.135352 0.688072 0.078597
0.160818 0.680247 0.078594
0.195394 0.671466 0.078594
0.240996 0.662254 0.078601
0.290918 0.653126 0.078614
0.340302 0.644544 0.078637
0.389600 0.636895 0.078671
0.442598 0.628707 0.078716
0.492568 0.622325 0.078773
0.538228 0.617990 0.078842
0.579001 0.615762 0.078923
0.614231 0.615622 0.079038
0.650438 0.617487 0.079213
0.679283 0.621227 0.079401
0.707968 0.626686 0.079602
0.740017 0.637201 0.079875
0.775565 0.650905 0.080227
0.801794 0.664982 0.080575
0.827630 0.679337 0.081000
0.848687 0.693882 0.081423
0.864525 0.708540 0.082016
0.879868 0.723241 0.082972
0.894714 0.737958 0.083906
0.909063 0.749986 0.085136
0.918668 0.761297 0.086421
0.927254 0.772452 0.087679
0.935494 0.783431 0.089465
0.943326 0.794217 0.091329
0.949802 0.804799 0.093153
0.106985 0.736088 0.078824
0.108613 0.735429 0.078824
0.114779 0.733104 0.078822
0.126787 0.729018 0.078819
0.145305 0.723283 0.078817
0.171237 0.716181 0.078815
0.206639 0.708104 0.078817
0.254412 0.699492 0.078823
0.302463 0.690791 0.078835
0.351683 0.682417 0.078856
0.401800 0.674733 0.078885
0.455738 0.668036 0.078924
0.503078 0.662556 0.078973
0.548963 0.658449 0.079071
0.586622 0.655809 0.079192
0.621563 0.654668 0.079331
0.656351 0.655007 0.079486
0.684111 0.656765 0.079654
0.712298 0.659851 0.079861
0.740839 0.664156 0.080080
0.771267 0.671058 0.080329
0.796988 0.684225 0.080674
0.822345 0.697729 0.081086
0.845043 0.711484 0.081492
0.860704 0.725415 0.082143
0.875915 0.739490 0.083070
0.890670 0.750750 0.083977
0.904965 0.761708 0.085208
0.916012 0.772575 0.086467
0.924615 0.783324 0.087702
0.932885 0.793930 0.089474
0.940793 0.804372 0.091314
0.948328 0.814637 0.093118
0.116201 0.762479 0.079057
0.118020 0.762028 0.079056
0.124497 0.760433 0.079054
0.136421 0.757599 0.079052
0.155442 0.753589 0.079049
0.182457 0.748569 0.079049
0.219232 0.742783 0.079053
0.267713 0.735357 0.079064
0.313570 0.727133 0.079085
0.362408 0.719081 0.079116
0.413150 0.711518 0.079161
0.467888 0.704729 0.079221
0.512737 0.698943 0.079296
0.558888 0.694333 0.079387
0.593706 0.691015 0.079494
0.628475 0.689052 0.079617
0.661378 0.688461 0.079769
0.688803 0.689219 0.079941
0.716580 0.691269 0.080129
0.744678 0.694531 0.080329
0.772598 0.698910 0.080539
0.793058 0.704611 0.080805
0.817923 0.717266 0.081196
0.841957 0.730223 0.081583
0.857379 0.742838 0.082322
0.872425 0.753265 0.083215
0.887052 0.763725 0.084095
0.901254 0.774175 0.085342
0.913579 0.784575 0.086571
0.922174 0.794894 0.087781
0.930452 0.805104 0.089561
0.938411 0.815181 0.091373
0.945978 0.824507 0.093152
0.126265 0.786759 0.079378
0.128028 0.786363 0.079378
0.134335 0.784959 0.079377
0.147042 0.782454 0.079376
0.165754 0.778890 0.079376
0.193863 0.774396 0.079377
0.232050 0.769167 0.079383
0.278717 0.763439 0.079395
0.324356 0.757465 0.079415
0.372547 0.751498 0.079444
0.423712 0.745773 0.079485
0.476917 0.740471 0.079539
0.521542 0.734518 0.079606
0.566109 0.729586 0.079692
0.600182 0.725789 0.079801
0.634857 0.723200 0.079927
0.666068 0.721863 0.080068
0.693245 0.721784 0.080225
0.720697 0.722937 0.080395
0.748426 0.725268 0.080578
0.774973 0.728708 0.080817
0.794899 0.733175 0.081073
0.814799 0.738611 0.081339
0.838389 0.748011 0.081696
0.854531 0.757712 0.082549
0.869386 0.767535 0.083408
0.883858 0.777432 0.084326
0.897938 0.787358 0.085538
0.911377 0.797274 0.086733
0.919943 0.807144 0.087926
0.928208 0.816938 0.089729
0.936177 0.825642 0.091507
0.943778 0.832756 0.093258
0.136636 0.809973 0.079681
0.138541 0.809624 0.079681
0.145359 0.808386 0.079681
0.157790 0.806171 0.079681
0.177533 0.803004 0.079683
0.205426 0.798985 0.079687
0.244995 0.794272 0.079695
0.289159 0.789059 0.079710
0.334910 0.783561 0.079732
0.382161 0.777996 0.079764
0.433554 0.772574 0.079808
0.484724 0.767486 0.079864
0.529520 0.762899 0.079934
0.571920 0.758952 0.080018
0.606018 0.755754 0.080117
0.640642 0.753384 0.080231
0.670349 0.751893 0.080360
0.697348 0.751304 0.080502
0.724549 0.751616 0.080672
0.751981 0.752806 0.080885
0.777253 0.754837 0.081110
0.796908 0.757657 0.081348
0.816535 0.761208 0.081595
0.836124 0.765427 0.082051
0.852125 0.773262 0.082820
0.866776 0.782487 0.083644
0.881074 0.791820 0.084621
0.895010 0.801217 0.085793
0.908577 0.810638 0.086953
0.917928 0.820046 0.088217
0.926163 0.827711 0.089977
0.934115 0.834614 0.091718
0.941739 0.841427 0.093441
0.147963 0.829757 0.080000
0.149822 0.829528 0.080001
0.156473 0.828715 0.080001
0.169030 0.827257 0.080003
0.189493 0.825163 0.080006
0.218303 0.822399 0.080011
0.258045 0.818161 0.080021
0.299458 0.813436 0.080037
0.344497 0.808403 0.080060
0.391307 0.803253 0.080091
0.442744 0.798168 0.080132
0.491857 0.793322 0.080185
0.536719 0.788869 0.080250
0.577131 0.784941 0.080328
0.611210 0.781646 0.080418
0.645800 0.779069 0.080523
0.674193 0.777268 0.080651
0.701051 0.776278 0.080816
0.728062 0.776114 0.080997
0.755260 0.776770 0.081192
0.779380 0.778224 0.081401
0.798803 0.780441 0.081621
0.818191 0.783375 0.082054
0.837540 0.786975 0.082624
0.851129 0.791186 0.083214
0.864563 0.798055 0.083919
0.878677 0.806833 0.084974
0.892455 0.815703 0.086104
0.905890 0.824151 0.087228
0.916127 0.830801 0.088590
0.924316 0.837423 0.090305
0.932239 0.843996 0.092005
0.939869 0.850499 0.093780
0.159328 0.845463 0.080300
0.161141 0.845262 0.080300
0.167908 0.844549 0.080301
0.181391 0.843268 0.080304
0.201585 0.841422 0.080308
0.231587 0.839054 0.080316
0.270906 0.836238 0.080327
0.309617 0.833072 0.080343
0.353504 0.829668 0.080367
0.400029 0.826146 0.080397
0.451374 0.822580 0.080437
0.498377 0.818016 0.080487
0.543194 0.813756 0.080548
0.581746 0.809924 0.080626
0.615777 0.806624 0.080732
0.650326 0.803942 0.080854
0.677570 0.801940 0.080992
0.704315 0.800663 0.081144
0.731181 0.800135 0.081311
0.758197 0.800363 0.081492
0.781301 0.801338 0.081686
0.800532 0.803039 0.082147
0.819716 0.805433 0.082661
0.838855 0.808481 0.083198
0.851833 0.812136 0.083756
0.863931 0.816351 0.084434
0.876638 0.822406 0.085379
0.890250 0.828714 0.086467
0.903541 0.834975 0.087554
0.914533 0.841251 0.089042
0.922667 0.847520 0.090710
0.930547 0.853760 0.092367
0.938169 0.859951 0.094217
0.171375 0.860369 0.080580
0.173378 0.860193 0.080580
0.180582 0.859568 0.080582
0.193860 0.858443 0.080585
0.214547 0.856816 0.080591
0.245003 0.854722 0.080600
0.281434 0.852219 0.080615
0.319629 0.849389 0.080637
0.362253 0.846324 0.080667
0.408366 0.843128 0.080706
0.459463 0.839903 0.080755
0.504340 0.836750 0.080816
0.549002 0.833766 0.080889
0.585807 0.831035 0.080976
0.619750 0.828633 0.081076
0.653979 0.826622 0.081190
0.680473 0.825051 0.081318
0.707124 0.823961 0.081460
0.733874 0.823373 0.081615
0.760747 0.823298 0.081892
0.782978 0.823736 0.082321
0.802052 0.824681 0.082779
0.821066 0.826120 0.083262
0.840024 0.828029 0.083769
0.852462 0.830378 0.084385
0.864437 0.833138 0.085177
0.876280 0.836275 0.085994
0.888367 0.840262 0.086879
0.901509 0.846138 0.087947
0.913137 0.852048 0.089569
0.921206 0.857967 0.091188
0.929034 0.863876 0.092801
0.936622 0.869754 0.094748
0.184269 0.874513 0.080907
0.186239 0.874359 0.080908
0.193323 0.873811 0.080910
0.206384 0.872823 0.080915
0.228298 0.871392 0.080924
0.258498 0.869544 0.080936
0.291870 0.867325 0.080953
0.329624 0.864803 0.080977
0.370752 0.862057 0.081007
0.416343 0.859172 0.081046
0.467057 0.856238 0.081095
0.509796 0.853344 0.081153
0.554201 0.850576 0.081224
0.589359 0.848009 0.081306
0.623163 0.845715 0.081400
0.656498 0.843752 0.081508
0.682912 0.842170 0.081628
0.709473 0.841006 0.081839
0.736123 0.840289 0.082185
0.762880 0.840035 0.082561
0.784383 0.840252 0.082966
0.803330 0.840939 0.083397
0.822203 0.842087 0.083854
0.841010 0.843679 0.084438
0.852989 0.845695 0.085164
0.864858 0.848110 0.085919
0.876596 0.850897 0.086700
0.888203 0.854028 0.087507
0.899766 0.857594 0.088594
0.911924 0.863148 0.090164
0.919924 0.868727 0.091735
0.927694 0.874310 0.093302
0.935235 0.879187 0.095372
0.197182 0.884875 0.081218
0.199118 0.884780 0.081219
0.206078 0.884442 0.081222
0.220332 0.883831 0.081228
0.242133 0.882943 0.081238
0.271588 0.881793 0.081251
0.302185 0.880408 0.081270
0.339334 0.878824 0.081294
0.379004 0.876916 0.081325
0.423980 0.874326 0.081365
0.473195 0.871676 0.081412
0.514792 0.869041 0.081470
0.558842 0.866498 0.081538
0.592442 0.864116 0.081617
0.626058 0.861959 0.081711
0.658589 0.860083 0.081953
0.684904 0.858534 0.082224
0.711371 0.857352 0.082523
0.737927 0.856564 0.082852
0.764582 0.856192 0.083208
0.785500 0.856248 0.083591
0.804342 0.856734 0.083999
0.823099 0.857648 0.084581
0.841522 0.858980 0.085242
0.853395 0.860715 0.085934
0.865172 0.862833 0.086656
0.876819 0.865314 0.087406
0.888336 0.868132 0.088339
0.899723 0.871262 0.089576
0.910961 0.874680 0.090847
0.918808 0.879102 0.092345
0.926516 0.882825 0.094024
0.934004 0.886541 0.096082
0.210412 0.893831 0.081511
0.212536 0.893749 0.081512
0.220199 0.893455 0.081515
0.234440 0.892923 0.081522
0.255985 0.892149 0.081532
0.282372 0.891144 0.081547
0.312350 0.889929 0.081566
0.348054 0.888536 0.081592
0.387006 0.887003 0.081623
0.431291 0.885374 0.081663
0.478305 0.883696 0.081718
0.519364 0.882016 0.081853
0.562585 0.880381 0.082010
0.595096 0.878836 0.082191
0.628472 0.877384 0.082398
0.660280 0.875622 0.082631
0.686474 0.874144 0.082891
0.712833 0.872984 0.083177
0.739292 0.872174 0.083490
0.765849 0.871736 0.083829
0.786319 0.871683 0.084236
0.805073 0.872023 0.084799
0.823734 0.872757 0.085397
0.841857 0.873881 0.086029
