negative-portra-400/Portra400_Modern_Soft.cube
TITLE "Kodak Portra 400 Modern Soft"
# Adobe RGB in/out. REPLACES AgX. Kodak Portra 400 Modern Soft.
LUT_3D_SIZE 5
DOMAIN_MIN 0.0 0.0 0.0
DOMAIN_MAX 1.0 1.0 1.0
0.060898 0.068150 0.085817
0.512683 0.089215 0.092418
0.777599 0.139368 0.107562
0.821230 0.189432 0.135768
0.823955 0.473547 0.698502
0.075646 0.287977 0.093296
0.127161 0.178456 0.095526
0.649666 0.262949 0.107717
0.798811 0.338050 0.129166
0.815607 0.455383 0.684206
0.101516 0.623049 0.106646
0.130204 0.592596 0.110871
0.423236 0.538043 0.116338
0.716539 0.550554 0.131031
0.795841 0.569497 0.353527
0.130941 0.730951 0.116070
0.154616 0.722780 0.121381
0.358493 0.701339 0.131657
0.614150 0.683075 0.142358
0.774430 0.685143 0.167720
0.130500 0.763448 0.105566
0.163765 0.776676 0.105110
0.270875 0.774884 0.119196
0.536074 0.760211 0.135476
0.766309 0.755690 0.142925
0.065052 0.099090 0.291923
0.487564 0.219440 0.649312
0.778561 0.237554 0.528079
0.815910 0.293988 0.560565
0.820835 0.466708 0.693157
0.083187 0.226362 0.203820
0.162942 0.156081 0.166107
0.682594 0.286939 0.257300
0.794959 0.365927 0.357109
0.812482 0.448715 0.678894
0.119702 0.598552 0.216025
0.171198 0.564764 0.202212
0.479904 0.514680 0.187382
0.728933 0.545345 0.220664
0.792965 0.579821 0.553300
0.150640 0.724049 0.193623
0.183222 0.715352 0.198508
0.404353 0.693922 0.204696
0.638677 0.678565 0.213698
0.773101 0.684269 0.261361
0.129404 0.769349 0.136251
0.162093 0.779843 0.134784
0.291628 0.773875 0.153340
0.549509 0.759727 0.184771
0.767372 0.756047 0.195925
0.072170 0.279782 0.698505
0.415690 0.462828 0.801172
0.792789 0.501112 0.796080
0.817605 0.463921 0.756242
0.819438 0.490538 0.749596
0.101004 0.459271 0.695015
0.325830 0.479012 0.734153
0.712906 0.475307 0.723396
0.795901 0.491362 0.722898
0.810575 0.467996 0.734368
0.133145 0.577833 0.559642
0.195866 0.553134 0.538613
0.501664 0.505064 0.506193
0.732062 0.563304 0.588218
0.789411 0.604960 0.694095
0.178067 0.713745 0.537349
0.228924 0.705884 0.527515
0.447806 0.686178 0.507943
0.666302 0.674768 0.504148
0.769585 0.690275 0.609131
0.145075 0.777721 0.568370
0.152475 0.778481 0.562443
0.346693 0.771730 0.489428
0.577727 0.759610 0.481996
0.767135 0.759177 0.501930
0.081550 0.537560 0.844966
0.312944 0.585204 0.862871
0.789243 0.613487 0.863877
0.827718 0.578428 0.838992
0.823054 0.527430 0.798638
0.111454 0.610630 0.848915
0.353831 0.639207 0.860449
0.747451 0.627263 0.847421
0.807328 0.589605 0.815417
0.813907 0.505753 0.785497
0.156021 0.635360 0.756214
0.256376 0.631496 0.760600
0.590204 0.621532 0.757986
0.748203 0.627901 0.757674
0.790808 0.641804 0.761541
0.183347 0.711936 0.709386
0.247003 0.706672 0.706455
0.467760 0.692384 0.702564
0.671510 0.680223 0.698182
0.767849 0.702463 0.735924
0.141675 0.774648 0.653375
0.150983 0.776390 0.649330
0.345672 0.772510 0.664325
0.581632 0.763346 0.659056
0.766416 0.768743 0.716013
0.214888 0.661374 0.901093
0.612780 0.665668 0.901111
0.822143 0.678661 0.901230
0.844981 0.656757 0.887396
0.827875 0.584505 0.854343
0.312341 0.686689 0.900843
0.603101 0.690727 0.900888
0.816429 0.698916 0.899384
0.828267 0.658019 0.873476
0.819017 0.575869 0.849292
0.337288 0.706407 0.866416
0.482589 0.701649 0.862482
0.729947 0.690152 0.851931
0.787673 0.675933 0.839996
0.797309 0.666204 0.826894
0.217536 0.732675 0.824276
0.317007 0.728820 0.820154
0.598759 0.719289 0.809094
0.737009 0.713207 0.800355
0.774153 0.718306 0.798210
0.130855 0.770138 0.743062
0.148524 0.776533 0.753645
0.256186 0.780751 0.776179
0.559429 0.776003 0.790571
0.766314 0.777002 0.788910
