negative-portra-400/Portra400_Modern_Normal.cube
TITLE "Kodak Portra 400 Modern Normal"
# Adobe RGB in/out. REPLACES AgX. Kodak Portra 400 Modern Normal.
LUT_3D_SIZE 5
DOMAIN_MIN 0.0 0.0 0.0
DOMAIN_MAX 1.0 1.0 1.0
0.071730 0.071698 0.087030
0.526032 0.104475 0.091327
0.880005 0.178696 0.101661
0.922805 0.226257 0.139182
0.924890 0.474262 0.750149
0.086279 0.303158 0.091688
0.153544 0.216236 0.092924
0.724397 0.282685 0.101817
0.903102 0.344650 0.128769
0.918495 0.454584 0.731160
0.118722 0.659533 0.100741
0.157460 0.623745 0.104459
0.420478 0.546855 0.111341
0.808616 0.565490 0.131925
0.899476 0.594076 0.361112
0.158449 0.801796 0.110994
0.183792 0.790954 0.118134
0.350789 0.762631 0.133035
0.673113 0.738996 0.148074
0.877176 0.741629 0.184827
0.157857 0.835103 0.099724
0.193130 0.848078 0.099337
0.281555 0.845804 0.115063
0.555153 0.832558 0.138794
0.869917 0.828997 0.148931
0.076703 0.120203 0.306739
0.494786 0.249390 0.689469
0.880863 0.263478 0.535583
0.918727 0.308216 0.571196
0.922503 0.467259 0.743038
0.095765 0.254815 0.224308
0.192293 0.193903 0.182561
0.763638 0.302283 0.277207
0.898399 0.366651 0.364502
0.916096 0.446248 0.724129
0.143596 0.630728 0.237378
0.200665 0.586893 0.222510
0.485169 0.516429 0.205939
0.824623 0.557708 0.242039
0.895965 0.608794 0.562643
0.179710 0.792637 0.212910
0.212716 0.781122 0.218369
0.395839 0.752874 0.225287
0.708435 0.733154 0.235177
0.875990 0.740517 0.280780
0.156387 0.839737 0.139824
0.191429 0.852099 0.137875
0.299744 0.844524 0.163648
0.572589 0.832177 0.203023
0.870869 0.829278 0.215483
0.083346 0.296230 0.750153
0.410660 0.463287 0.868973
0.895750 0.502511 0.864756
0.920027 0.464406 0.823632
0.921432 0.491670 0.814734
0.118044 0.459460 0.745509
0.323340 0.479860 0.794127
0.803490 0.476064 0.779832
0.899549 0.492515 0.779172
0.914630 0.468578 0.794413
0.161407 0.606471 0.570108
0.226722 0.569357 0.546787
0.512582 0.506564 0.513518
0.828648 0.584682 0.604056
0.891628 0.638251 0.744285
0.207255 0.778997 0.545441
0.251311 0.768619 0.534983
0.446900 0.742947 0.515130
0.744984 0.728189 0.511633
0.872848 0.748169 0.633256
0.173972 0.849405 0.580434
0.181596 0.850370 0.573410
0.338694 0.841804 0.494440
0.609557 0.832084 0.485616
0.870656 0.831744 0.509338
0.093151 0.546140 0.908494
0.314884 0.615089 0.931289
0.891423 0.648274 0.932588
0.927766 0.607166 0.901194
0.924201 0.531202 0.866876
0.132446 0.644914 0.913323
0.346008 0.678602 0.928165
0.847824 0.664501 0.911496
0.912133 0.620242 0.880736
0.917191 0.507271 0.855973
0.185231 0.674057 0.823595
0.271287 0.669495 0.829476
0.631722 0.657745 0.825970
0.848761 0.665253 0.825552
0.893333 0.681672 0.830740
0.215046 0.776607 0.764668
0.264548 0.769658 0.760753
0.469998 0.750859 0.755561
0.750945 0.735323 0.749722
0.871295 0.764110 0.796485
0.170451 0.845505 0.694094
0.180063 0.847715 0.689490
0.337649 0.842793 0.706568
0.614709 0.835024 0.700564
0.870013 0.839262 0.771731
0.240990 0.710721 0.960982
0.671153 0.716312 0.960998
0.923503 0.733279 0.961103
0.940906 0.704717 0.949025
0.927886 0.614271 0.920297
0.314484 0.743598 0.960760
0.657341 0.748745 0.960799
0.919126 0.759440 0.959460
0.928185 0.706357 0.939928
0.921110 0.603791 0.913795
0.330723 0.769310 0.935293
0.488536 0.763039 0.930787
0.825934 0.748012 0.917191
0.889508 0.729711 0.902420
0.901268 0.717012 0.890178
0.242941 0.804086 0.888027
0.317576 0.798966 0.884636
0.649214 0.786330 0.875521
0.834808 0.778286 0.868297
0.876930 0.785030 0.866522
0.158333 0.840356 0.806003
0.177532 0.847897 0.820153
0.271151 0.853252 0.848216
0.585532 0.847224 0.860187
0.869922 0.848492 0.858808
