negative-portra-400/Portra400_Modern_Normal.cube
TITLE "Kodak Portra 400 Modern Normal"
# Adobe RGB in/out. REPLACES AgX. Kodak Portra 400 Modern Normal.
LUT_3D_SIZE 9
DOMAIN_MIN 0.0 0.0 0.0
DOMAIN_MAX 1.0 1.0 1.0
0.071730 0.071698 0.087030
0.151126 0.084835 0.089152
0.526032 0.104475 0.091327
0.792099 0.138605 0.095119
0.880005 0.178696 0.101661
0.911802 0.214817 0.113809
0.922805 0.226257 0.139182
0.930024 0.252919 0.669438
0.924890 0.474262 0.750149
0.076937 0.113446 0.088992
0.088855 0.104775 0.089580
0.313272 0.123292 0.091392
0.694165 0.160296 0.095097
0.851052 0.202143 0.101391
0.901903 0.235270 0.112951
0.919068 0.246759 0.134962
0.927921 0.248552 0.661499
0.923391 0.469853 0.745663
0.086279 0.303158 0.091688
0.093523 0.273580 0.092431
0.153544 0.216236 0.092924
0.412122 0.236092 0.095766
0.724397 0.282685 0.101817
0.857636 0.327432 0.112367
0.903102 0.344650 0.128769
0.921371 0.250992 0.638896
0.918495 0.454584 0.731160
0.101457 0.513083 0.095647
0.106437 0.494003 0.096478
0.148925 0.442939 0.097741
0.280592 0.390962 0.099064
0.527484 0.396611 0.103812
0.761139 0.430274 0.113964
0.869126 0.460946 0.128351
0.903060 0.464882 0.153392
0.911161 0.405366 0.613690
0.118722 0.659533 0.100741
0.122801 0.649388 0.101868
0.157460 0.623745 0.104459
0.253571 0.583137 0.107727
0.420478 0.546855 0.111341
0.642601 0.543697 0.118974
0.808616 0.565490 0.131925
0.880626 0.581198 0.150346
0.899476 0.594076 0.361112
0.139661 0.744629 0.106616
0.143511 0.739918 0.108032
0.172592 0.728971 0.113028
0.244298 0.710106 0.118163
0.378559 0.685845 0.123170
0.552937 0.664906 0.128596
0.733711 0.659763 0.138509
0.850980 0.671596 0.153686
0.887093 0.681330 0.198048
0.158449 0.801796 0.110994
0.161621 0.798715 0.112219
0.183792 0.790954 0.118134
0.240540 0.778115 0.125734
0.350789 0.762631 0.133035
0.501467 0.748329 0.140411
0.673113 0.738996 0.148074
0.810864 0.735676 0.158860
0.877176 0.741629 0.184827
0.170774 0.841137 0.105798
0.171865 0.839336 0.106775
0.189312 0.833629 0.114614
0.233230 0.827229 0.124979
0.325467 0.819095 0.135348
0.457418 0.806191 0.144811
0.615668 0.796138 0.153556
0.765475 0.791170 0.162585
0.870762 0.789881 0.179344
0.157857 0.835103 0.099724
0.157181 0.834216 0.099632
0.193130 0.848078 0.099337
0.188758 0.844614 0.105011
0.281555 0.845804 0.115063
0.408314 0.838515 0.128198
0.555153 0.832558 0.138794
0.709917 0.829318 0.145710
0.869917 0.828997 0.148931
0.074288 0.088626 0.119214
0.115276 0.127273 0.361256
0.527538 0.123311 0.170430
0.810142 0.151798 0.145506
0.880532 0.186061 0.133499
0.910049 0.218505 0.138745
0.921153 0.230658 0.167820
0.928897 0.250592 0.665185
0.924113 0.471977 0.747823
0.079566 0.112370 0.103393
0.097863 0.104284 0.100646
0.350326 0.131151 0.114742
0.727845 0.169926 0.127370
0.856131 0.207620 0.128049
0.899658 0.238187 0.135238
0.917456 0.250548 0.159351
0.926797 0.246293 0.657309
0.922619 0.467593 0.743363
0.092177 0.283429 0.113699
0.102571 0.244256 0.109174
0.177132 0.197023 0.103744
0.464958 0.230325 0.112419
0.744238 0.281878 0.121259
0.860087 0.326096 0.130035
0.901274 0.344246 0.147271
0.920304 0.253484 0.635801
0.917746 0.451967 0.728959
0.107957 0.494380 0.117518
0.115375 0.473561 0.116988
0.167419 0.417073 0.114539
0.307735 0.372958 0.113964
0.556103 0.387738 0.119833
0.771537 0.425048 0.129026
0.869452 0.457382 0.143967
0.901586 0.463861 0.171262
0.910463 0.427205 0.707810
0.124655 0.647831 0.118161
0.131311 0.637651 0.119631
0.170896 0.611086 0.122723
0.271744 0.568108 0.124423
0.440394 0.535987 0.127301
0.659220 0.537183 0.133018
0.813349 0.561284 0.145889
0.880084 0.578444 0.164404
0.898498 0.596622 0.413737
0.144193 0.739269 0.119906
0.148832 0.734608 0.121563
0.180605 0.723266 0.127350
0.255738 0.704545 0.132737
0.391598 0.678827 0.137726
0.566004 0.659732 0.143667
0.740857 0.656579 0.151627
0.852677 0.669417 0.166690
0.886392 0.680702 0.217424
0.161551 0.798707 0.120970
0.165166 0.795658 0.122607
0.188760 0.787819 0.129330
0.248044 0.774965 0.138377
0.359420 0.759701 0.145965
0.510844 0.745930 0.153410
0.680340 0.737235 0.161466
0.814686 0.734590 0.171667
0.876870 0.741132 0.198377
0.171578 0.839825 0.110690
0.173054 0.838110 0.111954
0.191949 0.832638 0.122735
0.237764 0.826273 0.134610
0.330981 0.817569 0.146008
0.463278 0.804907 0.156126
0.622062 0.795223 0.165202
0.770124 0.790578 0.175488
0.870846 0.789579 0.191271
0.157506 0.841222 0.140589
0.156837 0.840334 0.140128
0.192723 0.853520 0.138590
0.188387 0.848723 0.136175
0.284053 0.845530 0.120868
0.411167 0.838288 0.136286
0.558166 0.832444 0.147400
0.712662 0.829309 0.155153
0.870364 0.829021 0.158114
0.076703 0.120203 0.306739
0.131677 0.244519 0.719498
0.494786 0.249390 0.689469
0.816296 0.254864 0.610394
0.880863 0.263478 0.535583
0.907549 0.289329 0.528366
0.918727 0.308216 0.571196
0.926980 0.259935 0.672390
0.922503 0.467259 0.743038
0.084737 0.167564 0.317622
0.126656 0.198732 0.461426
0.401721 0.208939 0.483223
0.744210 0.230815 0.454705
0.859082 0.262246 0.438354
0.897379 0.293972 0.460246
0.915020 0.313535 0.522223
0.924863 0.259313 0.666192
0.920997 0.462874 0.738550
0.095765 0.254815 0.224308
0.107065 0.226730 0.203332
0.192293 0.193903 0.182561
0.499425 0.241083 0.229752
0.763638 0.302283 0.277207
0.863124 0.346829 0.320262
0.898399 0.366651 0.364502
0.917809 0.320029 0.636062
0.916096 0.446248 0.724129
0.117901 0.465421 0.238603
0.129231 0.442333 0.227863
0.189656 0.385469 0.202663
0.337715 0.346711 0.188309
0.606301 0.380193 0.212003
0.792329 0.428130 0.247575
0.869978 0.462245 0.276821
0.898486 0.474204 0.367089
0.908238 0.421733 0.703080
0.143596 0.630728 0.237378
0.153169 0.620112 0.233498
0.200665 0.586893 0.222510
0.310971 0.543147 0.210317
0.485169 0.516429 0.205939
0.697773 0.528660 0.222028
0.824623 0.557708 0.242039
0.878965 0.577384 0.285744
0.895965 0.608794 0.562643
0.166212 0.730941 0.232244
0.173379 0.726082 0.231280
0.210742 0.712994 0.229593
0.296444 0.690939 0.225335
0.433720 0.664807 0.222268
0.610986 0.649202 0.224067
0.765359 0.651141 0.231496
0.856976 0.666232 0.259244
0.884477 0.682052 0.346991
0.179710 0.792637 0.212910
0.184874 0.789612 0.213798
0.212716 0.781122 0.218369
0.280980 0.767816 0.222426
0.395839 0.752874 0.225287
0.546137 0.740342 0.229003
0.708435 0.733154 0.235177
0.827079 0.732525 0.249803
0.875990 0.740517 0.280780
0.182795 0.835041 0.188047
0.186258 0.833715 0.190240
0.209862 0.829646 0.202855
0.263073 0.823588 0.213993
0.359287 0.813372 0.223186
0.492336 0.801460 0.230522
0.652703 0.792934 0.237923
0.789559 0.789236 0.247131
0.870952 0.789119 0.257457
0.156387 0.839737 0.139824
0.194129 0.855059 0.139373
0.191429 0.852099 0.137875
0.187241 0.847417 0.135532
0.299744 0.844524 0.163648
0.425781 0.837613 0.189303
0.572589 0.832177 0.203023
0.725471 0.829395 0.211747
0.870869 0.829278 0.215483
0.079507 0.187565 0.561846
0.105417 0.324551 0.793607
0.458561 0.368162 0.819371
0.811766 0.390717 0.812971
0.886839 0.388128 0.783212
0.909225 0.386481 0.757864
0.918175 0.387905 0.754191
0.924090 0.363951 0.777606
0.921429 0.471490 0.768026
0.086754 0.242304 0.581431
0.116975 0.316370 0.726443
0.440908 0.379023 0.794824
0.765853 0.380728 0.775723
0.867683 0.378468 0.741517
0.898873 0.386266 0.726217
0.914337 0.392748 0.733607
0.921636 0.369561 0.770497
0.919884 0.467028 0.763577
0.103470 0.319305 0.471753
0.120781 0.312085 0.475836
0.261062 0.310071 0.515904
0.553218 0.330758 0.543725
0.778521 0.369147 0.574324
0.865333 0.403880 0.603250
0.896969 0.426996 0.649830
0.912730 0.435960 0.717550
0.914849 0.451028 0.749319
0.122221 0.447030 0.416271
0.135761 0.428943 0.401110
0.198764 0.381643 0.364245
0.349194 0.348455 0.342124
0.626194 0.396607 0.402760
0.797595 0.450704 0.459235
0.868847 0.485012 0.517476
0.895703 0.506663 0.611909
0.905952 0.425681 0.727235
0.155106 0.613555 0.418595
0.166890 0.603588 0.409409
0.217447 0.568799 0.384577
0.330626 0.526266 0.356908
0.505473 0.501862 0.344867
0.712893 0.526860 0.375189
0.827162 0.562048 0.419933
0.876598 0.587747 0.487614
0.893309 0.622809 0.682305
0.181776 0.720774 0.406984
0.190320 0.716251 0.402187
0.231911 0.703437 0.389695
0.322523 0.677676 0.372593
0.462292 0.652855 0.359619
0.641542 0.640083 0.357116
0.779399 0.648340 0.374492
0.856794 0.666131 0.412529
0.882121 0.692337 0.575654
0.196057 0.785432 0.385322
0.202467 0.782545 0.383297
0.235049 0.774081 0.378790
0.309460 0.761009 0.371668
0.426060 0.746636 0.364714
0.578278 0.735184 0.361592
0.733343 0.729587 0.364448
0.833851 0.731406 0.378111
0.874526 0.742543 0.463582
0.194990 0.831505 0.355249
0.199624 0.830322 0.354779
0.226516 0.826656 0.356513
0.286460 0.820790 0.356439
0.385937 0.809238 0.356124
0.521187 0.798262 0.356417
0.674978 0.790845 0.358963
0.806637 0.788279 0.365068
0.870497 0.789939 0.397936
0.170931 0.847947 0.358591
0.192030 0.856212 0.357009
0.189473 0.853372 0.351744
0.219775 0.851925 0.283234
0.325202 0.842855 0.329436
0.447429 0.836708 0.334490
0.594022 0.831959 0.339058
0.741949 0.829654 0.342801
0.870875 0.830029 0.350683
0.083346 0.296230 0.750153
0.095966 0.376213 0.828546
0.410660 0.463287 0.868973
0.786718 0.485579 0.869204
0.895750 0.502511 0.864756
0.913455 0.479630 0.842514
0.920027 0.464406 0.823632
0.923788 0.429852 0.817789
0.921432 0.491670 0.814734
0.089163 0.341796 0.762378
0.107010 0.399241 0.818394
0.400685 0.479262 0.863443
0.768005 0.503213 0.865159
0.877788 0.493551 0.849682
0.905388 0.478811 0.826971
0.916132 0.468256 0.813623
0.921300 0.437443 0.811543
0.919840 0.486159 0.809913
0.118044 0.459460 0.745509
0.144049 0.464698 0.762953
0.323340 0.479860 0.794127
0.623712 0.475286 0.789212
0.803490 0.476064 0.779832
0.872578 0.486808 0.776573
0.899549 0.492515 0.779172
0.912734 0.489032 0.788014
0.914630 0.468578 0.794413
0.132250 0.484093 0.603743
0.147855 0.476606 0.600213
0.228639 0.460487 0.601422
0.421374 0.451153 0.612681
0.667348 0.471084 0.639008
0.809063 0.503715 0.676629
0.870574 0.530523 0.705536
0.895244 0.546424 0.742356
0.905836 0.526749 0.778179
0.161407 0.606471 0.570108
0.174107 0.597329 0.563662
0.226722 0.569357 0.546787
0.342224 0.531228 0.525731
0.512582 0.506564 0.513518
0.722357 0.545073 0.555840
0.828648 0.584682 0.604056
0.875315 0.612392 0.670619
0.891628 0.638251 0.744285
0.191361 0.713205 0.560299
0.200728 0.709295 0.555751
0.245983 0.696788 0.543521
0.338368 0.671623 0.527360
0.478415 0.647542 0.514078
0.654498 0.635952 0.511159
0.784582 0.652065 0.535456
0.855278 0.674234 0.580514
0.880118 0.703013 0.699763
0.207255 0.778997 0.545441
0.214582 0.776426 0.542643
0.251311 0.768619 0.534983
0.328334 0.756431 0.524600
0.446900 0.742947 0.515130
0.600351 0.732303 0.509608
0.744984 0.728189 0.511633
0.836279 0.732951 0.528689
0.872848 0.748169 0.633256
0.204317 0.828602 0.527013
0.209752 0.827517 0.525084
0.240376 0.824082 0.520323
0.303535 0.817239 0.513561
0.405720 0.806366 0.506338
0.541306 0.796367 0.500923
0.692593 0.790022 0.499735
0.815467 0.788720 0.504658
0.869755 0.793279 0.555629
0.173972 0.849405 0.580434
0.176485 0.849933 0.578795
0.181596 0.850370 0.573410
0.242279 0.847315 0.503626
0.338694 0.841804 0.494440
0.461833 0.836291 0.488740
0.609557 0.832084 0.485616
0.753630 0.830321 0.485233
0.870656 0.831744 0.509338
0.087591 0.418922 0.850567
0.096127 0.468757 0.876041
0.373219 0.541373 0.902062
0.758760 0.562760 0.903043
0.894743 0.588233 0.903614
0.918598 0.565288 0.885622
0.923483 0.534065 0.867041
0.925433 0.496835 0.855103
0.922475 0.506864 0.842501
0.092334 0.452390 0.853859
0.103792 0.489634 0.875205
0.368788 0.558000 0.900278
0.745579 0.580075 0.901817
0.888258 0.600356 0.900605
0.912517 0.563608 0.877576
0.919675 0.537116 0.861726
0.922941 0.502718 0.851587
0.920851 0.501741 0.838923
0.127424 0.562056 0.857612
0.152136 0.578508 0.868206
0.367033 0.621820 0.890709
0.668945 0.604264 0.878827
0.826224 0.581770 0.863881
0.882896 0.567352 0.852066
0.905560 0.556677 0.843925
0.914485 0.541638 0.836467
0.915511 0.485195 0.827218
0.149799 0.570731 0.782809
0.167824 0.569074 0.785575
0.274423 0.572010 0.798621
0.488138 0.568191 0.801679
0.712158 0.568596 0.799321
0.826443 0.576313 0.799125
0.876489 0.587180 0.801922
0.897678 0.591061 0.807186
0.906535 0.568570 0.809587
0.170715 0.625759 0.714186
0.183365 0.621178 0.712154
0.246264 0.609897 0.710752
0.378583 0.591058 0.708534
0.570306 0.583487 0.710629
0.744854 0.600613 0.725825
0.835624 0.622997 0.748708
0.876761 0.639840 0.772857
0.891593 0.657892 0.790863
0.196488 0.711760 0.689437
0.206581 0.708755 0.686748
0.254594 0.699509 0.679977
0.349732 0.678579 0.668003
0.491078 0.656294 0.655196
0.657784 0.641832 0.646933
0.789210 0.667764 0.685546
0.855406 0.692134 0.721180
0.879270 0.712766 0.769778
0.213248 0.775316 0.672855
0.221097 0.773106 0.669760
0.260451 0.766374 0.661516
0.339393 0.755624 0.650756
0.459593 0.743351 0.641269
0.613237 0.733169 0.635744
0.749842 0.729899 0.639685
0.836655 0.738546 0.670648
0.871539 0.755435 0.738779
0.208755 0.826729 0.652066
0.214664 0.825769 0.649590
0.247700 0.822688 0.642769
0.313014 0.815733 0.633565
0.416910 0.805831 0.625363
0.554064 0.796788 0.620118
0.703853 0.791343 0.619298
0.819518 0.791224 0.625863
0.868880 0.799398 0.698560
0.173397 0.847711 0.624619
0.175527 0.848170 0.625744
0.179587 0.848456 0.630633
0.243943 0.846848 0.622673
0.343294 0.841679 0.611771
0.467870 0.836683 0.604436
0.616943 0.833039 0.600151
0.759839 0.831744 0.598499
0.870297 0.834833 0.658753
0.093151 0.546140 0.908494
0.100727 0.571502 0.921766
0.314884 0.615089 0.931289
0.742323 0.630339 0.932053
0.891423 0.648274 0.932588
0.923958 0.643665 0.922942
0.927766 0.607166 0.901194
0.928112 0.560191 0.883940
0.924201 0.531202 0.866876
0.098274 0.566662 0.910141
0.106753 0.588395 0.921376
0.320955 0.627194 0.930827
0.732898 0.642599 0.931778
0.887973 0.660484 0.932378
0.918432 0.641092 0.916199
0.924134 0.608766 0.896444
0.925674 0.565364 0.880656
0.922574 0.525642 0.864396
0.132446 0.644914 0.913323
0.152222 0.653574 0.919342
0.346008 0.678602 0.928165
0.698442 0.693026 0.930003
0.847824 0.664501 0.911496
0.894710 0.640732 0.894718
0.912133 0.620242 0.880736
0.917445 0.597886 0.869754
0.917191 0.507271 0.855973
0.172577 0.670400 0.879857
0.190846 0.670180 0.881747
0.309248 0.671565 0.884535
0.544645 0.662626 0.879291
0.751485 0.652316 0.871095
0.847159 0.645086 0.863611
0.885293 0.639076 0.857709
0.902499 0.632019 0.853279
0.908506 0.622304 0.848222
0.185231 0.674057 0.823595
0.198423 0.672239 0.824741
0.271287 0.669495 0.829476
0.425080 0.662745 0.829456
0.631722 0.657745 0.825970
0.774719 0.659481 0.824288
0.848761 0.665253 0.825552
0.881159 0.671683 0.828616
0.893333 0.681672 0.830740
0.202970 0.722154 0.785792
0.213082 0.720179 0.785360
0.264533 0.714814 0.785574
0.369768 0.706019 0.785058
0.526512 0.695284 0.782338
0.693656 0.691243 0.781833
0.804654 0.701362 0.788958
0.859964 0.712053 0.800077
0.880130 0.724861 0.811861
0.215046 0.776607 0.764668
0.223308 0.774896 0.763395
0.264548 0.769658 0.760753
0.346173 0.761053 0.758008
0.469998 0.750859 0.755561
0.625277 0.741456 0.752456
0.750945 0.735323 0.749722
0.838176 0.749083 0.773879
0.871295 0.764110 0.796485
0.207175 0.826714 0.741647
0.213315 0.825877 0.740243
0.247580 0.823161 0.736696
0.314818 0.817581 0.732336
0.420962 0.808858 0.729247
0.560291 0.800761 0.728096
0.709695 0.795921 0.729722
0.820562 0.796629 0.737861
0.868196 0.806959 0.782792
0.170451 0.845505 0.694094
0.175147 0.847060 0.692980
0.180063 0.847715 0.689490
0.231930 0.848082 0.713200
0.337649 0.842793 0.706568
0.464195 0.838221 0.702719
0.614709 0.835024 0.700564
0.758792 0.834166 0.699749
0.870013 0.839262 0.771731
0.102922 0.654135 0.946204
0.109643 0.656446 0.946994
0.343527 0.670972 0.947537
0.762184 0.684668 0.947642
0.897576 0.700312 0.947809
0.930525 0.705081 0.946128
0.932647 0.661895 0.933240
0.931628 0.616132 0.914556
0.926191 0.570587 0.893454
0.107497 0.664701 0.946164
0.116163 0.667060 0.946905
0.352282 0.682090 0.947526
0.754440 0.695668 0.947644
0.895075 0.707732 0.947813
0.925642 0.702700 0.943007
0.929305 0.662324 0.928894
0.929286 0.619509 0.911475
0.924603 0.567757 0.891137
0.149246 0.713495 0.946005
0.168673 0.714788 0.946516
0.391178 0.722946 0.947275
0.729179 0.730705 0.947510
0.874022 0.724282 0.942796
0.909029 0.702106 0.931454
0.918134 0.672556 0.914772
0.921386 0.641059 0.901232
0.919442 0.578880 0.883451
0.201063 0.743281 0.938018
0.219684 0.741200 0.937499
0.373206 0.736731 0.935128
0.619027 0.725856 0.926174
0.798475 0.713631 0.914960
0.871186 0.702217 0.903917
0.896573 0.686933 0.893792
0.909322 0.669437 0.885121
0.911059 0.654234 0.876021
0.206740 0.729357 0.893032
0.220955 0.728259 0.892920
0.316368 0.726173 0.891502
0.488560 0.720276 0.886662
0.694102 0.714128 0.880603
0.812025 0.709800 0.875030
0.866940 0.706695 0.870551
0.888227 0.703419 0.867136
0.896518 0.704715 0.863172
0.212971 0.746744 0.860311
0.223575 0.745728 0.860644
0.287614 0.743391 0.861226
0.405894 0.737525 0.858761
0.579264 0.731163 0.854685
0.738329 0.728218 0.851521
0.825258 0.729128 0.850369
0.868765 0.731843 0.850805
0.882755 0.738824 0.851003
0.216191 0.785887 0.833940
0.224365 0.784792 0.834462
0.270746 0.781889 0.837317
0.357169 0.776016 0.838770
0.492368 0.768216 0.836263
0.659621 0.761510 0.831654
0.776589 0.760089 0.829805
0.846468 0.765220 0.834062
0.872838 0.774751 0.839730
0.198653 0.829909 0.805658
0.204768 0.829165 0.805435
0.239997 0.826708 0.806087
0.310274 0.823084 0.807960
0.420760 0.817656 0.811243
0.565431 0.810951 0.813612
0.716829 0.806395 0.814418
0.819872 0.803759 0.813958
0.868278 0.815268 0.830244
0.165174 0.843099 0.764847
0.178976 0.848574 0.765123
0.179436 0.847779 0.769918
0.217646 0.849523 0.776783
0.317919 0.845752 0.776023
0.448179 0.841467 0.776360
0.600339 0.838616 0.777287
0.748547 0.837992 0.777585
0.869867 0.843820 0.825139
0.240990 0.710721 0.960982
0.293994 0.711847 0.960985
0.671153 0.716312 0.960998
0.881503 0.724103 0.961037
0.923503 0.733279 0.961103
0.942625 0.741005 0.961208
0.940906 0.704717 0.949025
0.936587 0.643217 0.938607
0.927886 0.614271 0.920297
0.254066 0.716243 0.960948
0.305677 0.717385 0.960952
0.667261 0.721904 0.960966
0.879892 0.729764 0.961009
0.923088 0.738916 0.961079
0.939634 0.738409 0.958559
0.937950 0.703645 0.946899
0.934411 0.643109 0.937044
0.926324 0.619370 0.921173
0.314484 0.743598 0.960760
0.361269 0.744645 0.960768
0.657341 0.748745 0.960799
0.872366 0.755886 0.960867
0.919126 0.759440 0.959460
0.926395 0.734069 0.949283
0.928185 0.706357 0.939928
0.927138 0.656317 0.929071
0.921110 0.603791 0.913795
0.382676 0.788080 0.958390
0.416539 0.785536 0.957410
0.609258 0.777478 0.954124
0.820391 0.765294 0.948885
0.882957 0.750543 0.942503
0.904886 0.734433 0.935826
0.913390 0.716241 0.924484
0.915965 0.691326 0.913390
0.913626 0.685861 0.903642
0.330723 0.769310 0.935293
0.355223 0.767768 0.934693
0.488536 0.763039 0.930787
0.717015 0.756078 0.924584
0.825934 0.748012 0.917191
0.871060 0.739445 0.909589
0.889508 0.729711 0.902420
0.899823 0.717916 0.895813
0.901268 0.717012 0.890178
0.284144 0.775046 0.905349
0.301769 0.773750 0.904464
0.395893 0.769880 0.901534
0.586692 0.764368 0.896855
0.749936 0.758556 0.891457
0.826974 0.753654 0.886503
0.865093 0.749279 0.882442
0.881563 0.744395 0.879217
0.887431 0.750635 0.876790
0.242941 0.804086 0.888027
0.255013 0.802834 0.887256
0.317576 0.798966 0.884636
0.457437 0.792964 0.880413
0.649214 0.786330 0.875521
0.771802 0.781175 0.871157
0.834808 0.778286 0.868297
0.867140 0.776517 0.866904
0.876930 0.785030 0.866522
0.192629 0.836604 0.876148
0.198476 0.836066 0.876262
0.232622 0.834095 0.875420
0.327005 0.830526 0.872554
0.479717 0.826159 0.868670
0.670143 0.822266 0.864666
0.793216 0.819382 0.861481
0.850893 0.817757 0.860063
0.870990 0.822375 0.860452
0.158333 0.840356 0.806003
0.178942 0.849559 0.822401
0.177532 0.847897 0.820153
0.185261 0.846345 0.816533
0.271151 0.853252 0.848216
0.418502 0.850232 0.861479
0.585532 0.847224 0.860187
0.749515 0.846607 0.859044
0.869922 0.848492 0.858808
