negative-portra-400/Portra400_Classic_ExtraSoft.cube
TITLE "Kodak Portra 400 Classic ExtraSoft"
# Adobe RGB in/out. REPLACES AgX. Kodak Portra 400 Classic ExtraSoft.
LUT_3D_SIZE 33
DOMAIN_MIN 0.0 0.0 0.0
DOMAIN_MAX 1.0 1.0 1.0
0.055943 0.062712 0.078815
0.058198 0.063680 0.079171
0.059106 0.064033 0.079254
0.064054 0.065198 0.079686
0.079632 0.066949 0.080296
0.087712 0.067958 0.080631
0.117584 0.069738 0.081474
0.187557 0.072267 0.082706
0.246647 0.073608 0.083255
0.332866 0.075710 0.084079
0.430319 0.079406 0.085554
0.487466 0.081569 0.086634
0.525199 0.083558 0.087479
0.561210 0.086658 0.088812
0.598864 0.091188 0.090599
0.627004 0.093838 0.091689
0.652331 0.096264 0.092714
0.669878 0.099894 0.094004
0.683628 0.105275 0.096161
0.696073 0.108077 0.097557
0.706979 0.110985 0.099084
0.716568 0.114297 0.101117
0.725975 0.117701 0.104172
0.735362 0.118655 0.106984
0.742420 0.119975 0.110627
0.748741 0.120615 0.116392
0.756836 0.115604 0.127355
0.761230 0.118414 0.178242
0.770579 0.137115 0.487900
0.770578 0.137078 0.487878
0.770578 0.137075 0.487877
0.770578 0.137077 0.487876
0.775246 0.342422 0.583969
0.056386 0.065526 0.079035
0.057942 0.065664 0.079213
0.060493 0.064607 0.079210
0.065979 0.065718 0.079807
0.081955 0.067636 0.080414
0.088945 0.068379 0.080710
0.117961 0.070206 0.081598
0.184473 0.072731 0.082795
0.241475 0.073961 0.083319
0.327108 0.076137 0.084147
0.425985 0.079764 0.085616
0.483413 0.081872 0.086682
0.522881 0.083928 0.087518
0.559308 0.087058 0.088857
0.597379 0.091555 0.090636
0.625830 0.094170 0.091720
0.651416 0.096568 0.092740
0.669459 0.100347 0.094036
0.683318 0.105710 0.096187
0.695836 0.108490 0.097577
0.706799 0.111379 0.099099
0.716432 0.114677 0.101131
0.725872 0.118174 0.104175
0.735284 0.119116 0.106972
0.742365 0.120423 0.110590
0.748701 0.121046 0.116280
0.756805 0.115980 0.126943
0.761213 0.118534 0.175811
0.770579 0.137116 0.487900
0.770578 0.137078 0.487878
0.770578 0.137075 0.487877
0.770578 0.137077 0.487876
0.775246 0.342424 0.583969
0.056498 0.066389 0.079136
0.056956 0.066562 0.079308
0.058415 0.066601 0.079360
0.063773 0.067882 0.080096
0.076577 0.069747 0.080663
0.088010 0.070072 0.080951
0.116586 0.071934 0.081999
0.179265 0.074578 0.083132
0.227733 0.075623 0.083557
0.309012 0.077768 0.084400
0.410931 0.081119 0.085843
0.468778 0.083194 0.086857
0.514286 0.085305 0.087660
0.552175 0.088545 0.089020
0.591776 0.092912 0.090771
0.621392 0.095397 0.091832
0.647959 0.097686 0.092834
0.667881 0.102012 0.094153
0.682153 0.107309 0.096283
0.694948 0.110001 0.097653
0.706126 0.112820 0.099155
0.715927 0.116430 0.101186
0.725491 0.119905 0.104190
0.734996 0.120803 0.106932
0.742162 0.122061 0.110464
0.748553 0.122627 0.115896
0.756692 0.117380 0.125598
0.761148 0.119064 0.167901
0.770579 0.137119 0.487902
0.770578 0.137078 0.487878
0.770578 0.137076 0.487877
0.770578 0.137078 0.487876
0.775247 0.342428 0.583969
0.057202 0.070394 0.079491
0.057508 0.070603 0.079777
0.058634 0.070983 0.080116
0.061275 0.071011 0.080362
0.069682 0.074008 0.081108
0.078693 0.073411 0.081448
0.100606 0.075296 0.082499
0.148995 0.078433 0.083552
0.197395 0.079004 0.083981
0.278838 0.080698 0.084838
0.387077 0.084357 0.086278
0.442958 0.086609 0.087194
0.496451 0.088560 0.088007
0.537941 0.091500 0.089331
0.580351 0.095581 0.091027
0.612272 0.097804 0.092046
0.640853 0.101101 0.093012
0.664643 0.105247 0.094376
0.679780 0.110398 0.096465
0.693150 0.112910 0.097798
0.704773 0.115818 0.099264
0.714917 0.119835 0.101300
0.724734 0.123229 0.104232
0.734424 0.124041 0.106878
0.741762 0.125206 0.110261
0.748261 0.125674 0.115262
0.756470 0.120151 0.123826
0.761019 0.120442 0.157218
0.770579 0.137126 0.487906
0.770578 0.137079 0.487879
0.770578 0.137076 0.487877
0.770578 0.137083 0.487876
0.775247 0.342430 0.583968
0.058168 0.078735 0.080329
0.058331 0.078991 0.080503
0.059597 0.079796 0.080790
0.061932 0.080250 0.081211
0.066595 0.080319 0.081954
0.072642 0.078819 0.082172
0.086565 0.080767 0.083016
0.117790 0.083534 0.084113
0.153838 0.083380 0.084600
0.226504 0.085009 0.085372
0.342717 0.089696 0.086897
0.411182 0.091609 0.087697
0.463437 0.093254 0.088582
0.516368 0.096086 0.089814
0.560753 0.101418 0.091434
0.596144 0.104132 0.092384
0.628154 0.106826 0.093294
0.658278 0.110549 0.094729
0.675566 0.115601 0.096755
0.689985 0.118398 0.098033
0.702419 0.121508 0.099444
0.713181 0.125315 0.101497
0.723445 0.128562 0.104329
0.733457 0.129231 0.106843
0.741087 0.130250 0.110025
0.747770 0.130580 0.114476
0.756095 0.124771 0.121667
0.760798 0.123438 0.144811
0.770579 0.137140 0.487913
0.770578 0.137081 0.487879
0.770578 0.137077 0.487877
0.770579 0.137126 0.487876
0.775247 0.342431 0.583968
0.058677 0.082798 0.080682
0.058874 0.082958 0.080817
0.059722 0.083978 0.081060
0.061273 0.084755 0.081752
0.064621 0.085073 0.082220
0.069851 0.085155 0.082853
0.080859 0.088199 0.083622
0.102172 0.092111 0.084951
0.125593 0.090795 0.085239
0.174352 0.092068 0.086047
0.284265 0.096168 0.087514
0.367598 0.097666 0.088476
0.427555 0.099499 0.089324
0.489689 0.103132 0.090454
0.540051 0.108832 0.091957
0.576305 0.111608 0.092834
0.609784 0.114492 0.093685
0.641944 0.119675 0.095242
0.668244 0.125446 0.097181
0.684534 0.127549 0.098382
0.698428 0.130127 0.099720
0.710289 0.133848 0.101819
0.721326 0.137622 0.104522
0.731884 0.138187 0.106879
0.740000 0.139199 0.109826
0.746980 0.139402 0.113690
0.755489 0.131954 0.119524
0.760430 0.129100 0.134910
0.770580 0.137168 0.487928
0.770578 0.137084 0.487881
0.770578 0.137078 0.487878
0.775244 0.315151 0.487877
0.775247 0.342432 0.583968
0.059947 0.093976 0.081690
0.060070 0.094093 0.081846
0.060670 0.095071 0.082334
0.062013 0.096139 0.082841
0.065042 0.096860 0.083368
0.069615 0.097154 0.083832
0.077204 0.097226 0.084546
0.091767 0.103202 0.085861
0.109538 0.100138 0.086138
0.142884 0.101132 0.086870
0.224074 0.107150 0.088422
0.310128 0.108773 0.089386
0.387419 0.109441 0.090074
0.450175 0.112497 0.091131
0.515703 0.119124 0.092590
0.553209 0.122595 0.093416
0.589888 0.124816 0.094387
0.626164 0.129091 0.095861
0.660044 0.136323 0.097719
0.677276 0.139946 0.098851
0.692118 0.144985 0.100118
0.705326 0.150494 0.102320
0.717764 0.154185 0.104872
0.729276 0.154316 0.107059
0.738223 0.154990 0.109755
0.745697 0.154926 0.113090
0.754494 0.146336 0.117825
0.759811 0.140460 0.127701
0.770582 0.137239 0.487963
0.770578 0.137091 0.487885
0.770578 0.137081 0.487880
0.775247 0.315232 0.487878
0.775247 0.342432 0.583968
0.061123 0.111413 0.083006
0.061221 0.111555 0.083108
0.061864 0.113085 0.083510
0.063504 0.114678 0.084063
0.065878 0.116523 0.084704
0.070444 0.117776 0.085409
0.077481 0.118232 0.086100
0.086979 0.118347 0.086836
0.100161 0.113720 0.087040
0.124328 0.114191 0.087713
0.182058 0.121587 0.089475
0.256546 0.122460 0.090318
0.331465 0.122395 0.090935
0.410558 0.125692 0.091910
0.484614 0.132515 0.093272
0.529034 0.135427 0.094146
0.566610 0.138280 0.095225
0.604671 0.144713 0.096636
0.642465 0.153784 0.098398
0.669105 0.156242 0.099429
0.686195 0.160525 0.100692
0.700687 0.167909 0.102989
0.713665 0.175497 0.105418
0.725587 0.179155 0.107457
0.735027 0.184148 0.109928
0.743497 0.183598 0.112888
0.752745 0.173866 0.116979
0.758701 0.164783 0.123697
0.770591 0.137526 0.488083
0.770579 0.137115 0.487899
0.770578 0.137091 0.487886
0.775247 0.315237 0.487880
0.775247 0.342432 0.583968
0.061784 0.122474 0.083548
0.061906 0.122600 0.083623
0.062532 0.123807 0.083972
0.063822 0.126000 0.084584
0.065708 0.128102 0.085198
0.069075 0.129607 0.085857
0.074334 0.130615 0.086613
0.082620 0.130930 0.087250
0.093381 0.131043 0.087951
0.112789 0.131399 0.088814
0.155098 0.141271 0.090537
0.213353 0.141424 0.091276
0.286055 0.140172 0.091837
0.368468 0.143724 0.092716
0.445679 0.153137 0.094160
0.503515 0.155469 0.095171
0.542104 0.158130 0.096153
0.582618 0.165492 0.097475
0.623448 0.176701 0.099155
0.657519 0.180945 0.100121
0.676831 0.187523 0.101702
0.694085 0.193802 0.103848
0.709064 0.201069 0.106131
0.722377 0.203697 0.108013
0.732789 0.208391 0.110313
0.741439 0.213975 0.113129
0.750556 0.212822 0.116992
0.756723 0.213744 0.122503
0.770840 0.146050 0.489444
0.770588 0.137413 0.488038
0.770580 0.137155 0.487924
0.775247 0.315241 0.487891
0.775247 0.342432 0.583968
0.063131 0.141811 0.084496
0.063230 0.141954 0.084578
0.063680 0.143171 0.084890
0.064699 0.146338 0.085414
0.066193 0.149422 0.086108
0.069320 0.152263 0.086798
0.073689 0.154118 0.087481
0.081018 0.155189 0.088262
0.089276 0.155674 0.089092
0.106096 0.155937 0.089899
0.140372 0.170954 0.091541
0.183574 0.170420 0.092249
0.243273 0.167158 0.092715
0.323018 0.170642 0.093550
0.410579 0.182775 0.095328
0.467038 0.184547 0.096242
0.517202 0.186612 0.097151
0.559114 0.193960 0.098387
0.602236 0.208361 0.100009
0.638188 0.212690 0.101153
0.667717 0.217383 0.102773
0.686158 0.226966 0.104833
0.702332 0.237581 0.107023
0.717244 0.240450 0.108758
0.729317 0.242950 0.110866
0.739176 0.246808 0.113584
0.749037 0.244181 0.117017
0.755735 0.243333 0.121754
0.762759 0.238216 0.129551
0.767761 0.237885 0.159112
0.772999 0.262860 0.451394
0.775247 0.315750 0.489935
0.775247 0.342432 0.583968
0.064934 0.185750 0.086046
0.065014 0.185934 0.086125
0.065358 0.187260 0.086422
0.066230 0.192695 0.086999
0.067976 0.197785 0.087623
0.071029 0.202161 0.088478
0.075445 0.206195 0.089381
0.082264 0.208786 0.090232
0.090128 0.210312 0.091017
0.106669 0.211011 0.091792
0.129663 0.211613 0.092551
0.162892 0.209909 0.093169
0.212126 0.204578 0.093614
0.287693 0.207916 0.094701
0.378316 0.223108 0.096518
0.433570 0.223509 0.097368
0.489486 0.224241 0.098172
0.535246 0.231577 0.099328
0.580338 0.246420 0.101169
0.617727 0.248677 0.102462
0.654007 0.254451 0.104004
0.676558 0.264735 0.105963
0.695481 0.272739 0.107995
0.711898 0.276271 0.109613
0.724772 0.283218 0.111597
0.735402 0.292367 0.114329
0.746608 0.287538 0.117375
0.754184 0.284217 0.121429
0.761708 0.276483 0.127191
0.767151 0.269477 0.143163
0.772770 0.264740 0.392975
0.775247 0.317339 0.496272
0.775247 0.317918 0.498548
0.066002 0.226314 0.087074
0.066067 0.226511 0.087138
0.066338 0.227802 0.087376
0.067321 0.232796 0.087891
0.068974 0.237539 0.088650
0.071632 0.243060 0.089503
0.075672 0.248292 0.090391
0.081606 0.251546 0.091188
0.088484 0.253857 0.091957
0.102314 0.255276 0.092684
0.120632 0.255922 0.093390
0.149684 0.256660 0.094278
0.188614 0.249269 0.094817
0.254903 0.252870 0.095962
0.341169 0.268428 0.097709
0.404619 0.267053 0.098473
0.457304 0.266801 0.099245
0.512727 0.273584 0.100372
0.557997 0.288401 0.102603
0.596007 0.289684 0.103827
0.633817 0.296186 0.105334
0.666517 0.303745 0.107152
0.686766 0.312497 0.109106
0.704659 0.316860 0.110634
0.719895 0.320070 0.112463
0.732157 0.325649 0.115296
0.743896 0.326943 0.118062
0.751899 0.330403 0.121639
0.759907 0.327503 0.126310
0.766091 0.317330 0.136302
0.772231 0.283401 0.275173
0.775247 0.317352 0.496304
0.775247 0.318472 0.500698
0.067082 0.264062 0.087898
0.067162 0.264231 0.087973
0.067484 0.265265 0.088250
0.068325 0.269109 0.088796
0.069944 0.274772 0.089512
0.072219 0.280849 0.090304
0.075661 0.285965 0.091096
0.080959 0.290335 0.091888
0.087084 0.293782 0.092630
0.098233 0.295846 0.093334
0.113535 0.297174 0.094149
0.137526 0.297700 0.095113
0.172738 0.298541 0.096112
0.228817 0.301399 0.097155
0.311744 0.315556 0.098901
0.378638 0.313583 0.099607
0.429365 0.312238 0.100317
0.487909 0.317431 0.101905
0.536925 0.329331 0.104224
0.574523 0.329327 0.105281
0.613215 0.333244 0.106640
0.652214 0.340709 0.108426
0.677060 0.350427 0.110323
0.697269 0.352292 0.111693
0.713686 0.358369 0.113674
0.727141 0.367032 0.116521
0.740805 0.365588 0.118970
0.749935 0.366602 0.122151
0.758376 0.367126 0.126254
0.764703 0.367742 0.134036
0.770152 0.372404 0.155467
0.775247 0.317440 0.496342
0.775247 0.319314 0.503803
0.068733 0.312434 0.089212
0.068821 0.312573 0.089276
0.069170 0.313346 0.089515
0.069972 0.315994 0.089980
0.071464 0.321685 0.090672
0.073340 0.326172 0.091382
0.076812 0.330724 0.092118
0.081593 0.335148 0.092878
0.087097 0.338661 0.093613
0.096972 0.340908 0.094565
0.111046 0.342473 0.095535
0.132201 0.343543 0.096514
0.161491 0.344019 0.097418
0.209238 0.344723 0.098358
0.287730 0.359448 0.100025
0.348600 0.357197 0.100886
0.406195 0.354475 0.101901
0.460555 0.358760 0.103482
0.517173 0.370802 0.105753
0.554154 0.370471 0.106808
0.592894 0.373461 0.108081
0.632846 0.380873 0.109748
0.666975 0.389312 0.111538
0.688241 0.392727 0.112866
0.706493 0.397688 0.115136
0.722270 0.401885 0.117770
0.736953 0.403571 0.120070
0.746859 0.407155 0.122966
0.756488 0.405758 0.126604
0.763609 0.403909 0.132864
0.769544 0.403323 0.146189
0.773678 0.411734 0.259306
0.776377 0.440797 0.506268
0.071021 0.368242 0.090820
0.071099 0.368405 0.090877
0.071406 0.369206 0.091087
0.072086 0.371639 0.091493
0.073448 0.377992 0.092151
0.075594 0.382082 0.092787
0.079095 0.387839 0.093514
0.083366 0.392742 0.094456
0.088487 0.396139 0.095534
0.098871 0.398338 0.096554
0.112358 0.399963 0.097556
0.132753 0.400926 0.098468
0.160753 0.401497 0.099391
0.205320 0.401896 0.100268
0.265341 0.402317 0.101550
0.323653 0.400120 0.102568
0.386553 0.398218 0.103596
0.437498 0.400858 0.105130
0.499096 0.408730 0.107310
0.535110 0.407842 0.108275
0.573316 0.409528 0.109524
0.613731 0.414263 0.111138
0.653866 0.419487 0.112822
0.678375 0.422265 0.114530
0.698760 0.425692 0.116639
0.715880 0.431729 0.119191
0.732377 0.433434 0.121315
0.744127 0.435147 0.123945
0.754274 0.437359 0.127425
0.761879 0.439851 0.132664
0.768548 0.436921 0.141364
0.773180 0.435354 0.187352
0.776336 0.447054 0.499433
0.072504 0.405111 0.091776
0.072572 0.405209 0.091825
0.072835 0.405675 0.092008
0.073405 0.407024 0.092359
0.074820 0.410401 0.092923
0.077080 0.413788 0.093547
0.080342 0.418230 0.094538
0.083936 0.421046 0.095495
0.088545 0.424141 0.096511
0.098051 0.426989 0.097553
0.110225 0.428826 0.098481
0.127639 0.430133 0.099399
0.151911 0.431162 0.100313
0.190038 0.431664 0.101565
0.242843 0.432172 0.102895
0.304061 0.432689 0.104258
0.361658 0.430302 0.105205
0.417752 0.432834 0.106730
0.475785 0.441118 0.108886
0.518224 0.439866 0.109810
0.554974 0.440772 0.110943
0.595104 0.445306 0.112519
0.635772 0.450418 0.114632
0.668310 0.452437 0.116221
0.689942 0.456279 0.118242
0.708916 0.462258 0.120680
0.727243 0.463758 0.122630
0.740274 0.467728 0.125133
0.751799 0.469368 0.128547
0.760465 0.469506 0.133027
0.767438 0.471473 0.140001
0.772259 0.476632 0.162459
0.776078 0.468798 0.447161
0.073905 0.434524 0.092657
0.073983 0.434615 0.092701
0.074336 0.435028 0.092861
0.075088 0.436179 0.093166
0.076501 0.438964 0.093653
0.078662 0.443070 0.094534
0.081237 0.446228 0.095463
0.084592 0.449790 0.096447
0.088868 0.453209 0.097436
0.097505 0.456051 0.098411
0.108668 0.458336 0.099368
0.123825 0.459994 0.100281
0.146223 0.461246 0.101514
0.178168 0.462108 0.102890
0.224810 0.462641 0.104205
0.283894 0.463183 0.105488
0.341118 0.463840 0.106803
0.400753 0.466229 0.108278
0.455637 0.474130 0.110406
0.503208 0.472497 0.111273
0.538587 0.473242 0.112395
0.577566 0.477244 0.114298
0.618020 0.482250 0.116475
0.656723 0.483791 0.117960
0.680569 0.487827 0.119908
0.701411 0.493031 0.122207
0.721003 0.495746 0.124061
0.736098 0.498787 0.126525
0.748981 0.501470 0.129862
0.758377 0.504447 0.133861
0.766280 0.504652 0.139559
0.771715 0.505598 0.154920
0.775476 0.517203 0.293143
0.076312 0.469092 0.093674
0.076395 0.469182 0.093713
0.076712 0.469570 0.093909
0.077375 0.470584 0.094314
0.078587 0.472904 0.094958
0.080707 0.477634 0.095887
0.082820 0.479895 0.096692
0.086035 0.484144 0.097695
0.090049 0.487393 0.098641
0.098544 0.490168 0.099561
0.108953 0.492776 0.100561
0.123133 0.494804 0.101956
0.144183 0.496450 0.103378
0.172810 0.497371 0.104663
0.215446 0.498233 0.106008
0.269597 0.498797 0.107275
0.325588 0.499317 0.108513
0.386601 0.500115 0.109795
0.438188 0.507858 0.111894
0.484314 0.506078 0.112725
0.523768 0.506262 0.114147
0.561526 0.510086 0.116181
0.601129 0.514784 0.118318
0.639563 0.515902 0.119724
0.670981 0.518815 0.121611
0.693181 0.522339 0.123804
0.714297 0.524345 0.125537
0.731122 0.526629 0.128230
0.745432 0.529724 0.131390
0.756446 0.530351 0.134930
0.764973 0.532256 0.139869
0.770824 0.535566 0.151367
0.775162 0.537695 0.216578
0.079009 0.508473 0.095412
0.079087 0.508573 0.095465
0.079380 0.508983 0.095656
0.079982 0.509964 0.096021
0.081056 0.512041 0.096595
0.082910 0.516073 0.097432
0.084985 0.518266 0.098244
0.087885 0.521139 0.099190
0.092875 0.523481 0.100104
0.101317 0.526026 0.101405
0.111221 0.528041 0.102852
0.125630 0.529737 0.104329
0.145236 0.530927 0.105702
0.173118 0.531861 0.107042
0.213332 0.532463 0.108312
0.265967 0.533079 0.109640
0.319410 0.533524 0.110883
0.377712 0.533827 0.112073
0.423364 0.534494 0.113530
0.466794 0.533167 0.114606
0.510677 0.533335 0.116045
0.547016 0.535653 0.118038
0.585452 0.538801 0.120121
0.623197 0.539498 0.121481
0.661226 0.541905 0.123286
0.684512 0.545407 0.125425
0.707055 0.547152 0.127387
0.725371 0.550021 0.130048
0.741921 0.552274 0.132922
0.753964 0.554255 0.136222
0.763526 0.556542 0.140620
0.770176 0.557736 0.150014
0.774775 0.562727 0.184519
0.080933 0.533847 0.096410
0.081002 0.533906 0.096458
0.081263 0.534148 0.096632
0.081794 0.534719 0.096963
0.082725 0.535904 0.097482
0.084297 0.538234 0.098235
0.086351 0.540807 0.099076
0.088905 0.542831 0.099910
0.094401 0.545492 0.101067
0.102149 0.547909 0.102558
0.110878 0.549674 0.103939
0.123698 0.551387 0.105360
0.142055 0.552789 0.106753
0.166658 0.553874 0.108089
0.203105 0.554736 0.109394
0.250877 0.555292 0.110629
0.303656 0.555851 0.111893
0.357863 0.556399 0.113219
0.407361 0.556794 0.114799
0.451810 0.557564 0.116475
0.498269 0.557408 0.117859
0.533974 0.559716 0.119845
0.571192 0.562520 0.121917
0.607869 0.563110 0.123206
0.646680 0.565245 0.124965
0.675558 0.568346 0.127376
0.699137 0.570056 0.129332
0.719094 0.572963 0.131893
0.737613 0.575350 0.134571
0.751088 0.577741 0.137618
0.762004 0.579627 0.141739
0.769270 0.582512 0.149908
0.774450 0.585698 0.171465
0.082894 0.557918 0.097450
0.082957 0.557971 0.097494
0.083194 0.558187 0.097654
0.083670 0.558678 0.097957
0.084492 0.559663 0.098431
0.085853 0.561543 0.099116
0.087933 0.564454 0.099995
0.090395 0.565937 0.100897
0.096740 0.568881 0.102447
0.103143 0.570480 0.103752
0.111692 0.572641 0.105200
0.124302 0.574539 0.106628
0.141169 0.575868 0.107993
0.163321 0.576940 0.109290
0.196754 0.577916 0.110604
0.241255 0.578664 0.111864
0.292363 0.579167 0.113154
0.342636 0.579665 0.114804
0.395672 0.580292 0.116449
0.437045 0.580784 0.118002
0.482958 0.581626 0.119625
0.522333 0.583313 0.121566
0.558154 0.586044 0.123607
0.593782 0.586656 0.124900
0.631771 0.588452 0.126831
0.666758 0.591358 0.129441
0.690907 0.592985 0.131288
0.712425 0.595503 0.133711
0.732471 0.598316 0.136282
0.748007 0.600340 0.139029
0.760117 0.603166 0.143296
0.768428 0.605299 0.150356
0.774097 0.609090 0.165656
0.084939 0.582857 0.098617
0.084998 0.582913 0.098657
0.085217 0.583131 0.098805
0.085655 0.583604 0.099085
0.086399 0.584502 0.099523
0.087606 0.586127 0.100152
0.089908 0.589000 0.101352
0.093484 0.590584 0.102521
0.098898 0.592841 0.103918
0.105407 0.594959 0.105308
0.113596 0.597151 0.106749
0.125250 0.598735 0.108096
0.141532 0.600318 0.109480
0.162930 0.601574 0.110817
0.194274 0.602521 0.112080
0.236072 0.603391 0.113581
0.285982 0.604003 0.115242
0.333610 0.604519 0.116882
0.387381 0.604962 0.118490
0.427692 0.605630 0.120114
0.470526 0.606214 0.121660
0.512009 0.607088 0.123234
0.546495 0.609309 0.125240
0.580856 0.609987 0.126664
0.617825 0.611533 0.128846
0.656965 0.613731 0.131440
0.682584 0.614859 0.133220
0.705297 0.616354 0.135561
0.726884 0.618155 0.138007
0.744380 0.619559 0.140538
0.758107 0.621318 0.144950
0.767458 0.622933 0.151252
0.773708 0.625599 0.163485
0.086932 0.608363 0.099684
0.086986 0.608418 0.099722
0.087190 0.608625 0.099861
0.087592 0.609061 0.100122
0.088359 0.609857 0.100593
0.089653 0.611240 0.101503
0.092721 0.613375 0.102800
0.096739 0.614725 0.104081
0.101452 0.615868 0.105356
0.108130 0.617495 0.106857
0.115065 0.618503 0.108143
0.127530 0.619734 0.109553
0.143454 0.620875 0.110988
0.163232 0.621599 0.112277
0.192654 0.622231 0.113799
0.232226 0.622786 0.115532
0.280234 0.623261 0.117266
0.326750 0.623631 0.118929
0.379130 0.623945 0.120542
0.419470 0.624226 0.122128
0.460989 0.624668 0.123711
0.504145 0.625130 0.125263
0.536017 0.625736 0.127085
0.569229 0.626137 0.128619
0.604946 0.626969 0.130754
0.643168 0.628402 0.133335
0.674235 0.629551 0.135060
0.697767 0.630895 0.137333
0.721011 0.632610 0.139715
0.740309 0.634123 0.142534
0.755860 0.635724 0.146637
0.766334 0.637605 0.152460
0.773431 0.639714 0.162589
0.088825 0.626343 0.100342
0.088884 0.626371 0.100384
0.089103 0.626475 0.100537
0.089534 0.626692 0.100880
0.090270 0.627085 0.101492
0.092188 0.627763 0.102373
0.095238 0.628910 0.103590
0.099422 0.630343 0.105002
0.103511 0.631158 0.106171
0.109719 0.632556 0.107666
0.116236 0.633504 0.108967
0.128989 0.634681 0.110412
0.142668 0.635497 0.111725
0.161890 0.636372 0.113201
0.190495 0.637077 0.115015
0.226947 0.637556 0.116686
0.271567 0.637999 0.118405
0.317129 0.638367 0.120068
0.366791 0.638700 0.121706
0.409620 0.639006 0.123280
0.449492 0.639342 0.124842
0.492243 0.639780 0.126525
0.525816 0.640357 0.128502
0.558758 0.641065 0.130464
0.593191 0.641644 0.132576
0.630293 0.642815 0.135123
0.666085 0.643985 0.136783
0.690016 0.645128 0.139016
0.714484 0.646734 0.141391
0.735785 0.648291 0.144730
0.753296 0.649909 0.148430
0.765192 0.651518 0.153559
0.773121 0.653824 0.162437
0.091199 0.641565 0.101361
0.091291 0.641593 0.101415
0.091633 0.641695 0.101610
0.092303 0.641903 0.101979
0.093418 0.642264 0.102557
0.095175 0.642858 0.103387
0.097926 0.643820 0.104534
0.102328 0.645383 0.106090
0.105971 0.646055 0.107173
0.111355 0.647139 0.108548
0.118933 0.648326 0.110004
0.129982 0.649184 0.111324
0.143969 0.650132 0.112722
0.162611 0.650981 0.114593
0.188235 0.651602 0.116338
0.223470 0.652169 0.118101
0.266741 0.652625 0.119838
0.311572 0.652965 0.121541
0.358578 0.653263 0.123160
0.402604 0.653553 0.124766
0.440476 0.653855 0.126456
0.481470 0.654222 0.128410
0.517230 0.654647 0.130323
0.548774 0.655295 0.132306
0.582535 0.656055 0.134271
0.618330 0.656907 0.136797
0.657531 0.658214 0.138389
0.682196 0.659077 0.140542
0.707566 0.660590 0.143452
0.730682 0.662034 0.146542
0.750452 0.663733 0.150221
0.763980 0.665294 0.154780
0.772794 0.667367 0.162611
0.094417 0.656361 0.102422
0.094505 0.656389 0.102474
0.094828 0.656493 0.102660
0.095459 0.656697 0.103013
0.096501 0.657038 0.103565
0.098127 0.657575 0.104358
0.100640 0.658407 0.105456
0.104603 0.659703 0.106947
0.108620 0.660650 0.108216
0.113376 0.661540 0.109495
0.122432 0.662899 0.111121
0.132143 0.663576 0.112340
0.146454 0.664588 0.114208
0.163057 0.665238 0.115964
0.189152 0.665966 0.117868
0.222865 0.666520 0.119645
0.262893 0.666962 0.121372
0.306345 0.667303 0.123083
0.351557 0.667558 0.124739
0.396721 0.667812 0.126516
0.433267 0.668072 0.128545
0.472828 0.668385 0.130529
0.510421 0.668748 0.132460
0.540424 0.669191 0.134356
0.572746 0.669885 0.136348
0.607373 0.670682 0.138317
0.645585 0.672169 0.139839
0.674707 0.672827 0.142370
0.700375 0.674184 0.145250
0.725078 0.675491 0.148295
0.747131 0.677093 0.151762
0.762642 0.678719 0.155984
0.772696 0.680659 0.163062
0.097513 0.673967 0.102364
0.097590 0.673984 0.102413
0.097873 0.674048 0.102593
0.098427 0.674172 0.102933
0.099341 0.674375 0.103470
0.100770 0.674691 0.104250
0.102988 0.675181 0.105344
0.106519 0.675963 0.106856
0.110909 0.676816 0.108424
0.115060 0.677384 0.109642
0.123491 0.678252 0.111198
0.133935 0.679001 0.112651
0.146241 0.679650 0.114503
0.163567 0.680284 0.116462
0.187943 0.680805 0.118371
0.219028 0.681257 0.120168
0.258802 0.681665 0.121997
0.301348 0.681954 0.123728
0.343621 0.682151 0.125383
0.389907 0.682340 0.127351
0.425164 0.682554 0.129390
0.463473 0.682812 0.131388
0.503638 0.683146 0.133344
0.532782 0.683581 0.135260
