negative-portra-400/Portra400_Classic_Normal.cube
TITLE "Kodak Portra 400 Classic Normal"
# Adobe RGB in/out. REPLACES AgX. Kodak Portra 400 Classic Normal.
LUT_3D_SIZE 9
DOMAIN_MIN 0.0 0.0 0.0
DOMAIN_MAX 1.0 1.0 1.0
0.071730 0.071698 0.087030
0.102704 0.079979 0.088547
0.276144 0.089060 0.090086
0.539494 0.102336 0.091763
0.702940 0.120553 0.094577
0.777896 0.139729 0.099138
0.821578 0.151640 0.110971
0.851748 0.172390 0.493406
0.856704 0.342728 0.599456
0.075592 0.096223 0.088571
0.085443 0.098359 0.089485
0.201641 0.102167 0.090652
0.463654 0.114952 0.092330
0.678407 0.134619 0.095020
0.771781 0.153606 0.099505
0.820105 0.164827 0.110176
0.851749 0.172414 0.493424
0.856704 0.342736 0.599454
0.079787 0.154845 0.090240
0.084400 0.162070 0.090862
0.123618 0.165845 0.092034
0.303754 0.175481 0.093905
0.563370 0.194454 0.096876
0.737637 0.219646 0.101563
0.811152 0.234871 0.110556
0.852026 0.181364 0.495462
0.856704 0.342736 0.599454
0.085971 0.279085 0.092009
0.089635 0.287459 0.092765
0.114442 0.302119 0.094512
0.217853 0.305751 0.096847
0.428124 0.318211 0.100425
0.663220 0.335377 0.105733
0.786903 0.355408 0.114710
0.838787 0.362321 0.132030
0.856705 0.324142 0.513697
0.095417 0.430251 0.094533
0.098605 0.435460 0.095294
0.117755 0.452238 0.097773
0.192854 0.461510 0.101421
0.347004 0.464013 0.105946
0.558380 0.473084 0.113313
0.742608 0.487142 0.122942
0.828801 0.500278 0.136965
0.856948 0.515950 0.306009
0.107264 0.570974 0.097783
0.109541 0.573365 0.098473
0.128260 0.586027 0.102124
0.186991 0.595673 0.107503
0.308806 0.600240 0.114204
0.484064 0.603651 0.122561
0.682081 0.611311 0.132817
0.810814 0.621777 0.145846
0.855484 0.633214 0.184532
0.121117 0.684462 0.101306
0.123669 0.685628 0.102206
0.141188 0.691969 0.106430
0.190241 0.698812 0.113748
0.290739 0.702086 0.122848
0.439697 0.703496 0.132306
0.621576 0.706019 0.143050
0.778682 0.711219 0.155877
0.854100 0.718995 0.180439
0.137336 0.764728 0.100864
0.138815 0.764264 0.101545
0.154251 0.763025 0.107268
0.194780 0.764619 0.116052
0.279275 0.765999 0.126991
0.411062 0.766393 0.138690
0.571873 0.767443 0.149888
0.740580 0.771112 0.161707
0.854149 0.776529 0.180845
0.138628 0.784491 0.098274
0.138630 0.784494 0.098274
0.169647 0.811339 0.098283
0.169650 0.813491 0.103713
0.254512 0.823095 0.113668
0.379870 0.821679 0.127441
0.530325 0.821007 0.139760
0.692348 0.822195 0.148840
0.859679 0.825495 0.154401
0.073426 0.081727 0.097556
0.090050 0.097067 0.176502
0.277237 0.096499 0.112122
0.574771 0.107932 0.107072
0.713173 0.125438 0.104481
0.779390 0.142788 0.108922
0.821517 0.155542 0.125267
0.851749 0.172414 0.493426
0.856704 0.342736 0.599457
0.077717 0.098153 0.096894
0.099623 0.104561 0.103032
0.235034 0.107452 0.102379
0.517446 0.122509 0.104427
0.695058 0.139069 0.104548
0.774236 0.157258 0.109032
0.820142 0.168281 0.122922
0.851750 0.172452 0.493454
0.856704 0.342736 0.599454
0.083013 0.155860 0.097335
0.089902 0.160356 0.098399
0.150555 0.165961 0.101145
0.366039 0.180239 0.104529
0.604282 0.200156 0.107252
0.746475 0.222951 0.111406
0.812136 0.237849 0.121449
0.852106 0.184443 0.496350
0.856704 0.342736 0.599454
0.089724 0.278528 0.098828
0.094622 0.284797 0.100150
0.127502 0.297465 0.103433
0.249949 0.304184 0.108028
0.466353 0.320092 0.112415
0.681323 0.337540 0.116969
0.791487 0.356853 0.125924
0.838997 0.364189 0.145012
0.856704 0.342750 0.599451
0.098748 0.427521 0.100506
0.102640 0.432372 0.101891
0.126076 0.447482 0.106130
0.209402 0.457527 0.112422
0.372593 0.462603 0.119480
0.580391 0.473026 0.125602
0.751221 0.487619 0.134457
0.829932 0.500780 0.148506
0.856921 0.520156 0.349888
0.109386 0.568588 0.103068
0.112592 0.571039 0.104139
0.134197 0.582972 0.109995
0.196838 0.592554 0.117297
0.322908 0.597903 0.125875
0.501564 0.602562 0.135401
0.693048 0.611156 0.145080
0.813892 0.621844 0.157612
0.855540 0.634099 0.201225
0.123149 0.683510 0.106254
0.126499 0.684673 0.107790
0.145428 0.690788 0.113656
0.196646 0.697453 0.122849
0.299817 0.701235 0.132953
0.450085 0.702949 0.143936
0.633492 0.705791 0.155364
0.784362 0.711223 0.167785
0.854355 0.719262 0.193206
0.138289 0.764015 0.103471
0.140028 0.763665 0.104291
0.156845 0.762734 0.112779
0.198779 0.764315 0.123773
0.285328 0.765688 0.136167
0.417387 0.766190 0.148550
0.578883 0.767432 0.160791
0.745622 0.771214 0.174051
0.854662 0.776700 0.192501
0.138629 0.794898 0.129562
0.138632 0.794901 0.129563
0.169647 0.820744 0.129563
0.169650 0.820743 0.129558
0.257209 0.823192 0.118713
0.383357 0.821772 0.134982
0.533647 0.821148 0.148184
0.695281 0.822364 0.158305
0.860430 0.825615 0.163486
0.075016 0.094820 0.154742
0.094905 0.135139 0.423116
0.248803 0.136583 0.389788
0.566898 0.143296 0.346459
0.715374 0.158255 0.318606
0.780352 0.178015 0.333831
0.821130 0.198030 0.394314
0.851899 0.179428 0.506750
0.856704 0.342741 0.599478
0.079055 0.109124 0.158789
0.094069 0.121089 0.228671
0.227643 0.134120 0.275416
0.528005 0.147903 0.270137
0.703043 0.166310 0.268061
0.776611 0.187175 0.295275
0.819994 0.205801 0.356235
0.851956 0.181825 0.508574
0.856704 0.342737 0.599458
0.086226 0.165012 0.150746
0.096287 0.168822 0.156766
0.196688 0.194575 0.190565
0.414631 0.197567 0.192929
0.650410 0.220107 0.206645
0.758465 0.244886 0.228048
0.814070 0.261706 0.260155
0.851424 0.229919 0.504108
0.856704 0.342736 0.599454
0.096769 0.286659 0.154156
0.104291 0.291050 0.157258
0.152812 0.301510 0.166005
0.305125 0.311377 0.177008
0.538285 0.331392 0.190507
0.718120 0.352027 0.206610
0.800722 0.369523 0.221506
0.839649 0.380128 0.291630
0.856704 0.342739 0.599457
0.108144 0.433846 0.157175
0.114124 0.437219 0.159714
0.150419 0.447856 0.167734
0.252397 0.457563 0.178170
0.431898 0.465095 0.188658
0.646308 0.479038 0.203476
0.772161 0.494517 0.214679
0.833049 0.507032 0.245615
0.856820 0.536934 0.497519
0.121462 0.572140 0.162055
0.127114 0.574024 0.164268
0.157647 0.582453 0.172797
0.231825 0.590651 0.183481
0.371740 0.596935 0.194497
0.555359 0.603787 0.206654
0.729264 0.613606 0.217620
0.822007 0.624566 0.238675
0.855728 0.639441 0.316981
0.136174 0.684613 0.160948
0.140605 0.685647 0.162986
0.165377 0.690483 0.171856
0.223413 0.696043 0.183773
0.335488 0.700231 0.196114
0.491047 0.702641 0.209441
0.671228 0.706268 0.222779
0.802509 0.712271 0.240603
0.855130 0.720882 0.269587
0.147677 0.760685 0.155958
0.151079 0.760865 0.158351
0.173007 0.761900 0.170642
0.219577 0.763713 0.184795
0.312980 0.765113 0.199406
0.446713 0.765976 0.213928
0.610557 0.767869 0.227801
0.766020 0.771985 0.241737
0.856032 0.777690 0.256524
0.138632 0.794902 0.129569
0.169646 0.820743 0.129567
0.169648 0.820744 0.129565
0.169673 0.820747 0.129567
0.273147 0.823357 0.157405
0.399879 0.822099 0.184312
0.548747 0.821680 0.201432
0.708497 0.823012 0.214065
0.861544 0.826172 0.221326
0.076699 0.115298 0.289537
0.086365 0.162828 0.514743
0.227587 0.181124 0.549309
0.534743 0.192278 0.540615
0.706770 0.210796 0.538060
0.777291 0.230866 0.544229
0.819712 0.250122 0.568032
0.847565 0.248084 0.622477
0.856704 0.349111 0.630655
0.079930 0.134478 0.304650
0.090556 0.159632 0.430180
0.218190 0.186495 0.516350
0.502430 0.199807 0.514795
0.696303 0.219737 0.517971
0.774043 0.240907 0.529089
0.818673 0.260958 0.557396
0.847105 0.257231 0.618173
0.856704 0.349182 0.630992
0.089801 0.193148 0.289855
0.100328 0.199851 0.310897
0.189605 0.218262 0.376927
0.418544 0.235545 0.412327
0.656133 0.262343 0.435178
0.759379 0.289845 0.460667
0.813674 0.312828 0.509943
0.843360 0.327725 0.582261
0.856704 0.349439 0.632216
0.102600 0.304484 0.277263
0.110912 0.308734 0.283523
0.170152 0.320315 0.304725
0.351924 0.348851 0.347555
0.566441 0.354087 0.358528
0.730736 0.375862 0.384282
0.803808 0.396569 0.425333
0.839480 0.416200 0.518058
0.856704 0.349532 0.632584
0.117529 0.445754 0.279863
0.125768 0.448466 0.283048
0.171776 0.457925 0.294865
0.287680 0.466740 0.310631
0.475496 0.475724 0.327248
0.675568 0.491462 0.347384
0.782892 0.508146 0.372073
0.834358 0.523265 0.427804
0.856631 0.558771 0.606403
0.134745 0.578515 0.281935
0.141950 0.580154 0.284308
0.179524 0.587196 0.293555
0.264340 0.594771 0.305848
0.412650 0.601964 0.319544
0.598982 0.609307 0.334002
0.750153 0.620000 0.352118
0.826518 0.631207 0.380177
0.855821 0.653989 0.535331
0.150486 0.687962 0.283539
0.156453 0.688871 0.285532
0.186273 0.692901 0.293643
0.253061 0.697848 0.305065
0.372257 0.701515 0.317627
0.532957 0.704500 0.330909
0.702055 0.708802 0.344784
0.813287 0.715159 0.362730
0.855712 0.725846 0.442380
0.159345 0.761160 0.281576
0.164090 0.761451 0.283331
0.189347 0.762775 0.291977
0.242006 0.764452 0.303108
0.340613 0.765939 0.315491
0.477873 0.767218 0.328148
0.644906 0.769585 0.340861
0.785465 0.774014 0.354299
0.857109 0.780512 0.390629
0.151271 0.811697 0.308986
0.169643 0.824046 0.308986
0.169647 0.824048 0.308985
0.199968 0.827007 0.255199
0.299754 0.823430 0.305055
0.422387 0.822670 0.317991
0.571308 0.822639 0.329923
0.728496 0.824100 0.339879
0.862158 0.827363 0.352504
0.078308 0.152311 0.454665
0.083535 0.185105 0.561894
0.202422 0.227344 0.642729
0.500548 0.241225 0.643301
0.694383 0.259476 0.643444
0.772928 0.281630 0.649555
0.817791 0.299008 0.662503
0.844936 0.296948 0.684571
0.856704 0.366662 0.702037
0.080805 0.169880 0.467513
0.087082 0.196494 0.547978
0.197282 0.237019 0.629142
0.476034 0.253068 0.633338
0.685025 0.271939 0.635217
0.769949 0.293835 0.643283
0.816825 0.311220 0.658112
0.844564 0.308613 0.682954
0.856704 0.366107 0.700252
0.091670 0.233671 0.465550
0.101067 0.244842 0.497448
0.185114 0.277846 0.569491
0.414100 0.298488 0.593607
0.648742 0.318699 0.603272
0.757262 0.341193 0.616846
0.812454 0.358752 0.638208
0.842150 0.368878 0.671088
0.856704 0.364362 0.694581
0.107558 0.339585 0.444624
0.117055 0.343817 0.454433
0.181419 0.358592 0.492329
0.352228 0.375313 0.529561
0.574743 0.392267 0.549899
0.733683 0.415503 0.571028
0.804056 0.438253 0.599392
0.838989 0.456649 0.644515
0.857687 0.444195 0.694632
0.125491 0.464592 0.433065
0.135913 0.466999 0.437030
0.186294 0.475094 0.452438
0.308895 0.485188 0.476385
0.511045 0.506353 0.511188
0.689154 0.513896 0.524315
0.787456 0.532198 0.550268
0.834714 0.550549 0.598757
0.856376 0.580411 0.683549
0.146605 0.590312 0.431895
0.155113 0.591878 0.433882
0.196760 0.598448 0.442392
0.289586 0.606051 0.456062
0.441780 0.612517 0.473179
0.629384 0.620153 0.491065
0.761683 0.631757 0.514051
0.828838 0.644455 0.546711
0.855771 0.669429 0.656283
0.163657 0.694173 0.433121
0.170884 0.695074 0.434328
0.203346 0.698766 0.439702
0.277462 0.702454 0.448917
0.401864 0.705644 0.461004
0.563477 0.709160 0.474544
0.724330 0.714038 0.489483
0.819272 0.720717 0.512176
0.855962 0.734422 0.605291
0.170402 0.763752 0.436805
0.175826 0.764039 0.437304
0.203369 0.765246 0.440633
0.261926 0.766918 0.446488
0.364501 0.768521 0.454915
0.505400 0.770194 0.464959
0.669369 0.772995 0.475868
0.799602 0.777798 0.488645
0.857710 0.785737 0.543430
0.155552 0.818665 0.519942
0.158313 0.820731 0.519942
0.164781 0.823706 0.519940
0.220795 0.824846 0.455671
0.314980 0.824413 0.457781
0.438927 0.823959 0.462919
0.588925 0.824123 0.469080
0.741814 0.825723 0.475806
0.862537 0.829573 0.503662
0.080176 0.206064 0.598295
0.083585 0.230519 0.660389
0.184434 0.279181 0.713109
0.464160 0.294098 0.715019
0.683540 0.312121 0.716132
0.768588 0.329796 0.718672
0.815866 0.343962 0.723530
0.843394 0.343831 0.731734
0.856704 0.377074 0.734105
0.082354 0.221896 0.606078
0.085818 0.243936 0.658283
0.182384 0.290761 0.709645
0.447499 0.306319 0.712633
0.675838 0.324084 0.714220
0.765907 0.340985 0.717071
0.815000 0.354966 0.722442
0.843058 0.354583 0.731138
0.856704 0.377074 0.734105
0.093539 0.293604 0.615037
0.100797 0.305208 0.640832
0.181571 0.337362 0.692026
0.403282 0.352580 0.701716
0.641929 0.368373 0.705697
0.754786 0.385352 0.710237
0.811219 0.400707 0.717433
0.841172 0.408968 0.727811
0.856704 0.377077 0.734104
0.110825 0.382192 0.594200
0.119812 0.387138 0.605833
0.187373 0.407820 0.648671
0.357104 0.426373 0.678680
0.580218 0.443036 0.688499
0.734385 0.460982 0.696343
0.803819 0.477177 0.706720
0.838506 0.488987 0.721294
0.857384 0.480727 0.734021
0.133492 0.492878 0.575210
0.143643 0.495374 0.580282
0.198367 0.506082 0.602061
0.324700 0.518801 0.630823
0.519237 0.531685 0.654348
0.696483 0.545613 0.671671
0.789752 0.563272 0.688060
0.834887 0.579775 0.708632
0.856150 0.603485 0.734416
0.155706 0.607641 0.564313
0.165602 0.609005 0.566715
0.209028 0.614318 0.576784
0.306303 0.621127 0.593800
0.461710 0.628861 0.614196
0.652733 0.641103 0.636292
0.768361 0.649799 0.655547
0.830103 0.663284 0.686480
0.855751 0.684843 0.727715
0.173866 0.702820 0.560489
0.181585 0.703418 0.561569
0.215945 0.705905 0.566664
0.295148 0.709297 0.576063
0.421538 0.712920 0.589277
0.585677 0.716997 0.604091
0.737303 0.722455 0.620036
0.822712 0.729737 0.646560
0.856135 0.743829 0.713513
0.178051 0.768427 0.562079
0.183908 0.768719 0.562307
0.213225 0.769893 0.564214
0.276156 0.771548 0.568416
0.381787 0.773318 0.575479
0.525393 0.775360 0.584677
0.684828 0.778555 0.595081
0.807579 0.783698 0.608096
0.858030 0.793617 0.683558
0.157356 0.820901 0.562642
0.159768 0.822037 0.564944
0.165212 0.824662 0.573700
0.224812 0.826886 0.574423
0.322544 0.826424 0.574061
0.448032 0.826117 0.576729
0.599101 0.826471 0.580823
0.749288 0.828118 0.585304
0.862702 0.833137 0.645474
0.082664 0.282489 0.725687
0.084962 0.300253 0.752058
0.157305 0.331779 0.770287
0.443433 0.344474 0.771305
0.677531 0.359615 0.772016
0.766496 0.375092 0.773010
0.814988 0.386607 0.774769
0.842563 0.386905 0.776996
0.856703 0.393362 0.774592
0.084237 0.296841 0.728931
0.086966 0.312236 0.751274
0.160142 0.341843 0.769672
0.431771 0.354799 0.770938
0.671320 0.370052 0.771737
0.764293 0.385657 0.772789
0.814212 0.397488 0.774614
0.842269 0.397683 0.776977
0.856703 0.393196 0.774324
0.095149 0.356761 0.735217
0.100822 0.364132 0.747199
0.171816 0.385728 0.764970
0.399256 0.398899 0.768922
0.642792 0.413592 0.770243
0.754927 0.429562 0.771622
0.810930 0.442954 0.773783
0.840745 0.450242 0.776626
0.856698 0.392349 0.773102
0.114013 0.437865 0.724187
0.121856 0.443054 0.732303
0.187542 0.461675 0.751984
0.362899 0.473948 0.761643
0.589025 0.485715 0.765866
0.737439 0.498491 0.768991
0.804757 0.510278 0.771844
0.838525 0.519548 0.775744
0.856810 0.525372 0.778397
0.139152 0.530264 0.706024
0.149229 0.533212 0.711377
0.204162 0.545426 0.729667
0.336594 0.558256 0.746063
0.534125 0.569789 0.755369
0.705429 0.581962 0.761321
0.792728 0.594476 0.767646
0.835475 0.607150 0.773495
0.856097 0.622238 0.779376
0.163921 0.628665 0.689581
0.173514 0.630204 0.692592
0.217661 0.636619 0.704628
0.320503 0.645098 0.721808
0.481253 0.653492 0.736844
0.664078 0.662085 0.747340
0.774208 0.671568 0.756592
0.831419 0.682868 0.768618
0.855891 0.700194 0.778965
0.180195 0.712628 0.677858
0.188235 0.713306 0.679400
0.223914 0.716004 0.685746
0.306215 0.719846 0.697067
0.435755 0.724184 0.711294
0.602363 0.728838 0.724771
0.744993 0.734420 0.736032
0.825251 0.741459 0.753065
0.856435 0.753064 0.776706
0.180752 0.775781 0.669311
0.186812 0.776059 0.669970
0.217418 0.777147 0.673632
0.283120 0.778866 0.680205
0.391501 0.780882 0.688427
0.536392 0.783289 0.698355
0.694789 0.786910 0.708896
0.811319 0.792366 0.721628
0.858337 0.802619 0.769724
0.157118 0.821925 0.634517
0.161812 0.824054 0.634531
0.167920 0.826805 0.634919
0.217693 0.830597 0.672781
0.320694 0.829610 0.674126
0.447971 0.829329 0.678792
0.600034 0.829759 0.682801
0.749706 0.831440 0.686290
0.862869 0.837960 0.757460
0.085532 0.364612 0.805351
0.088233 0.366588 0.807477
0.170662 0.379099 0.808939
0.468539 0.391027 0.809224
0.688692 0.404888 0.809673
0.771097 0.419337 0.810341
0.816563 0.429105 0.811322
0.843497 0.426379 0.813493
0.856803 0.422174 0.807338
0.087300 0.373680 0.805243
0.090314 0.375715 0.807238
0.174731 0.388772 0.808909
0.458664 0.400701 0.809229
0.684143 0.414769 0.809683
0.769504 0.429606 0.810358
0.816009 0.439649 0.811362
0.843251 0.437420 0.813525
0.856835 0.424774 0.807338
0.099997 0.422747 0.804817
0.105233 0.424548 0.806190
0.192729 0.436019 0.808234
0.427851 0.447091 0.808867
0.664246 0.460597 0.809430
0.762136 0.472295 0.810188
0.813428 0.481141 0.811318
0.842013 0.483108 0.813426
0.857193 0.453060 0.807338
0.119306 0.492991 0.802261
0.127765 0.494641 0.803699
0.206943 0.503238 0.806624
0.393629 0.511473 0.807954
0.621895 0.521436 0.808823
0.748821 0.532535 0.809785
0.808955 0.542165 0.811157
0.840295 0.547896 0.813354
0.856985 0.553770 0.813675
0.146080 0.576413 0.796678
0.155975 0.578395 0.798536
0.219947 0.587034 0.803081
0.362982 0.595314 0.805888
0.566767 0.604380 0.807573
0.725871 0.612489 0.808932
0.800566 0.620214 0.810589
0.837957 0.626815 0.813079
0.856569 0.639517 0.814761
0.170505 0.657608 0.786688
0.179939 0.659237 0.789017
0.229979 0.665853 0.795930
0.339251 0.672355 0.801457
0.511260 0.678660 0.804861
0.686394 0.685759 0.807155
0.785243 0.693289 0.809322
0.834808 0.700704 0.812327
0.856588 0.710458 0.815300
0.184145 0.726627 0.771741
0.191979 0.727466 0.773732
0.231480 0.731008 0.781416
0.316691 0.735353 0.790947
0.453433 0.739360 0.798378
0.627640 0.743284 0.803048
0.758104 0.747795 0.806377
0.829656 0.753066 0.810508
0.857214 0.761936 0.815336
0.176883 0.787183 0.751686
0.182914 0.787389 0.752990
0.215042 0.788178 0.759341
0.282866 0.789988 0.769979
0.395098 0.792480 0.780165
0.544046 0.795440 0.789732
0.703830 0.799188 0.796938
0.813149 0.802499 0.801178
0.858915 0.811417 0.814379
0.154651 0.822606 0.715057
0.167600 0.828476 0.716270
0.169524 0.829574 0.724598
0.207458 0.834333 0.739501
0.305264 0.834393 0.745251
0.435718 0.833986 0.752690
0.588843 0.834414 0.759992
0.741009 0.835998 0.764508
0.863053 0.842784 0.811477
0.128029 0.418894 0.845313
0.148194 0.420455 0.845319
0.370902 0.426678 0.845341
0.659761 0.437659 0.845407
0.747832 0.450800 0.845522
0.796332 0.461892 0.845703
0.827228 0.464940 0.846141
0.848449 0.448180 0.846983
0.856704 0.458427 0.842650
0.132882 0.426581 0.845254
0.153188 0.428181 0.845261
0.366984 0.434544 0.845287
0.656901 0.445741 0.845360
0.746839 0.459070 0.845481
0.795865 0.468763 0.845670
0.827067 0.471815 0.846109
0.848347 0.455294 0.846954
0.856704 0.468283 0.846218
0.157118 0.465082 0.844931
0.178900 0.466373 0.844946
0.357081 0.471447 0.844999
0.638329 0.480348 0.845116
0.742115 0.490837 0.845276
0.793692 0.500129 0.845510
0.826268 0.503542 0.845952
0.847846 0.489262 0.846783
0.856704 0.468301 0.846219
0.192705 0.530581 0.844362
0.211843 0.531577 0.844413
0.345991 0.535528 0.844589
0.601272 0.542701 0.844778
0.731753 0.551483 0.844990
0.788961 0.559835 0.845272
0.824650 0.564372 0.845742
0.847076 0.560013 0.846503
0.858173 0.581557 0.847517
0.210987 0.611067 0.843888
0.227296 0.611694 0.843970
0.330340 0.614272 0.844239
0.549802 0.618935 0.844576
0.709780 0.624876 0.844856
0.781245 0.630824 0.845179
0.822170 0.634958 0.845643
0.846516 0.635568 0.846396
0.858802 0.649686 0.847860
0.214837 0.684184 0.843786
0.228319 0.684701 0.843900
0.308142 0.686942 0.844264
0.483525 0.690918 0.844663
0.672605 0.695933 0.844948
0.767530 0.700987 0.845290
0.818084 0.704009 0.845737
0.845726 0.705646 0.846431
0.859343 0.718022 0.847768
0.205129 0.744408 0.844044
0.215002 0.744678 0.844197
0.270851 0.745869 0.844634
0.403878 0.747786 0.844966
0.590516 0.750212 0.845300
0.738358 0.753208 0.845654
0.809784 0.756100 0.846130
0.844352 0.757864 0.846746
0.860273 0.768965 0.847920
0.173937 0.802366 0.841551
0.179689 0.802678 0.842694
0.211389 0.803496 0.844710
0.300480 0.804213 0.845427
0.449996 0.805046 0.845939
0.646776 0.806681 0.846356
0.777322 0.809384 0.846789
0.839398 0.811462 0.847348
0.861599 0.818284 0.848261
0.150702 0.822580 0.772588
0.169647 0.832027 0.788094
0.169648 0.832027 0.788095
0.179072 0.833164 0.788133
0.262734 0.843250 0.823454
0.409458 0.843670 0.846571
0.576149 0.843607 0.847780
0.742555 0.844963 0.848340
0.863275 0.847539 0.848701
