negative-portra-400/Portra400_Classic_Punchy.cube
TITLE "Kodak Portra 400 Classic Punchy"
# Adobe RGB in/out. REPLACES AgX. Kodak Portra 400 Classic Punchy.
LUT_3D_SIZE 33
DOMAIN_MIN 0.0 0.0 0.0
DOMAIN_MAX 1.0 1.0 1.0
0.068277 0.082999 0.079619
0.073538 0.083839 0.079619
0.075689 0.084017 0.079619
0.086285 0.085017 0.079619
0.113567 0.086530 0.079786
0.127502 0.087358 0.079940
0.169924 0.089019 0.080478
0.233852 0.091513 0.081023
0.275544 0.092654 0.081513
0.336803 0.094589 0.082159
0.426343 0.097209 0.083192
0.491846 0.099995 0.084211
0.543066 0.102338 0.085009
0.593908 0.105805 0.085983
0.648302 0.111192 0.087288
0.679002 0.114617 0.088270
0.706015 0.117957 0.089192
0.731906 0.121873 0.090274
0.755087 0.127921 0.091583
0.770310 0.131518 0.093079
0.783674 0.135255 0.094840
0.795442 0.139548 0.097127
0.807003 0.143643 0.100043
0.818556 0.144750 0.102907
0.827469 0.146282 0.107193
0.835577 0.147024 0.114139
0.845738 0.141207 0.128254
0.851145 0.144470 0.191420
0.858898 0.165555 0.489854
0.858897 0.165516 0.489827
0.858897 0.165514 0.489826
0.858897 0.165515 0.489825
0.862760 0.334026 0.600780
0.069561 0.085256 0.079619
0.072769 0.085350 0.079619
0.078333 0.084583 0.079619
0.089727 0.085376 0.079619
0.117091 0.087094 0.079833
0.130196 0.087703 0.080001
0.170322 0.089414 0.080529
0.231316 0.091902 0.081102
0.272091 0.093039 0.081570
0.332464 0.094894 0.082200
0.421425 0.097666 0.083250
0.487162 0.100386 0.084257
0.539833 0.102747 0.085046
0.591193 0.106281 0.086013
0.646134 0.111629 0.087321
0.677749 0.115074 0.088297
0.705039 0.118377 0.089215
0.731161 0.122264 0.090293
0.754708 0.128479 0.091611
0.770020 0.132047 0.093102
0.783453 0.135762 0.094859
0.795275 0.140110 0.097139
0.806877 0.144192 0.100046
0.818460 0.145284 0.102894
0.827399 0.146801 0.107140
0.835526 0.147524 0.113992
0.845700 0.141644 0.127822
0.851131 0.144610 0.188713
0.858898 0.165556 0.489854
0.858897 0.165516 0.489827
0.858897 0.165514 0.489826
0.858897 0.165515 0.489825
0.862760 0.334028 0.600780
0.069844 0.085924 0.079619
0.070748 0.086127 0.079619
0.074328 0.086173 0.079619
0.085784 0.087297 0.079713
0.108939 0.089026 0.079959
0.128179 0.089301 0.080185
0.168871 0.091233 0.080695
0.227033 0.093711 0.081403
0.262767 0.094527 0.081782
0.318762 0.096054 0.082352
0.404399 0.099414 0.083464
0.470295 0.101934 0.084422
0.527894 0.104274 0.085181
0.581040 0.108050 0.086124
0.637969 0.113346 0.087443
0.673014 0.116762 0.088399
0.701353 0.119921 0.089300
0.728355 0.123740 0.090363
0.753285 0.130531 0.091713
0.768933 0.133989 0.093183
0.782628 0.137616 0.094930
0.794655 0.142167 0.097183
0.806409 0.146201 0.100062
0.818105 0.147241 0.102853
0.827139 0.148700 0.106963
0.835336 0.149356 0.113496
0.845561 0.143270 0.126356
0.851071 0.145225 0.179729
0.858898 0.165559 0.489856
0.858897 0.165516 0.489828
0.858897 0.165514 0.489826
0.858897 0.165516 0.489825
0.862760 0.334032 0.600780
0.071358 0.089573 0.079619
0.071939 0.089788 0.079619
0.074804 0.090211 0.079720
0.080898 0.090242 0.079810
0.097425 0.093090 0.080305
0.112142 0.092471 0.080467
0.146392 0.094292 0.080901
0.201985 0.096524 0.081777
0.241346 0.096926 0.082100
0.296410 0.098871 0.082653
0.377609 0.103223 0.083876
0.440726 0.105746 0.084741
0.502251 0.108068 0.085438
0.560921 0.111563 0.086334
0.621404 0.117016 0.087674
0.663282 0.120059 0.088591
0.693775 0.122916 0.089460
0.722610 0.127885 0.090496
0.749616 0.134500 0.091908
0.766731 0.137732 0.093339
0.780969 0.141456 0.095069
0.793415 0.146119 0.097274
0.805478 0.150053 0.100104
0.817401 0.150993 0.102798
0.826625 0.152343 0.106678
0.834961 0.152884 0.112836
0.845286 0.146486 0.123980
0.850912 0.146823 0.165923
0.858898 0.165566 0.489861
0.858897 0.165517 0.489828
0.858897 0.165514 0.489826
0.858897 0.165521 0.489825
0.862760 0.334034 0.600779
0.073411 0.096737 0.079798
0.074090 0.096917 0.079876
0.076613 0.097707 0.080062
0.082529 0.098293 0.080368
0.091231 0.098382 0.080676
0.102757 0.096796 0.080767
0.124630 0.098960 0.081300
0.170142 0.102311 0.082179
0.207085 0.102140 0.082472
0.261923 0.103946 0.083060
0.344183 0.109419 0.084460
0.404682 0.111693 0.085215
0.464159 0.113815 0.085827
0.530780 0.117713 0.086659
0.593255 0.123189 0.088040
0.644331 0.126455 0.088895
0.680229 0.129911 0.089714
0.712356 0.134693 0.090707
0.742060 0.141204 0.092219
0.762860 0.144452 0.093591
0.778083 0.148059 0.095299
0.791284 0.152469 0.097432
0.803892 0.156224 0.100203
0.816211 0.156998 0.102762
0.825761 0.158175 0.106347
0.834330 0.158556 0.112018
0.844822 0.151839 0.121100
0.850638 0.150296 0.150211
0.858899 0.165580 0.489869
0.858897 0.165519 0.489829
0.858897 0.165515 0.489827
0.858899 0.165566 0.489825
0.862760 0.334035 0.600779
0.074884 0.101495 0.079978
0.075253 0.101671 0.080083
0.076847 0.102803 0.080268
0.080894 0.103665 0.080593
0.087296 0.104017 0.080787
0.097728 0.104108 0.081154
0.115427 0.107639 0.081839
0.148401 0.112290 0.082739
0.178298 0.110726 0.082959
0.223328 0.112238 0.083657
0.299830 0.117825 0.085042
0.362586 0.119893 0.085756
0.423206 0.121531 0.086329
0.494418 0.125174 0.087158
0.563892 0.132487 0.088511
0.615565 0.136057 0.089300
0.660626 0.139836 0.090066
0.694938 0.145934 0.091012
0.729000 0.152620 0.092677
0.756194 0.155053 0.093966
0.773193 0.158033 0.095651
0.787735 0.162185 0.097688
0.801288 0.166076 0.100399
0.814274 0.166657 0.102799
0.824368 0.167697 0.106066
0.833317 0.167905 0.111200
0.844074 0.160143 0.118261
0.850183 0.156846 0.136191
0.858899 0.165609 0.489887
0.858897 0.165522 0.489831
0.858897 0.165516 0.489828
0.862758 0.309215 0.489826
0.862760 0.334035 0.600779
0.077272 0.114807 0.080567
0.077505 0.114968 0.080632
0.078798 0.116314 0.080834
0.082672 0.117785 0.081143
0.088048 0.118780 0.081613
0.097307 0.119185 0.082011
0.109887 0.119285 0.082439
0.134980 0.125263 0.083482
0.158006 0.122084 0.083743
0.195903 0.122943 0.084435
0.260247 0.130327 0.085719
0.319611 0.132411 0.086371
0.377991 0.133269 0.086835
0.448966 0.137200 0.087767
0.529858 0.145294 0.089081
0.582510 0.149319 0.089824
0.635224 0.151891 0.090503
0.678106 0.156836 0.091379
0.714480 0.164739 0.093253
0.745121 0.168464 0.094543
0.765469 0.173080 0.096159
0.781647 0.178027 0.098160
0.796911 0.181317 0.100756
0.811064 0.181434 0.102982
0.822092 0.182033 0.105967
0.831671 0.181975 0.110576
0.842844 0.174297 0.116019
0.849417 0.168982 0.128618
0.858901 0.165682 0.489928
0.858897 0.165529 0.489836
0.858897 0.165519 0.489830
0.862760 0.309289 0.489827
0.862760 0.334035 0.600778
0.080447 0.135805 0.081290
0.080756 0.135987 0.081382
0.082409 0.137958 0.081740
0.085307 0.140111 0.082149
0.089546 0.142275 0.082551
0.098793 0.143729 0.083088
0.110307 0.144259 0.083707
0.125628 0.144393 0.084402
0.145821 0.138775 0.084595
0.176985 0.139390 0.085231
0.229320 0.148151 0.086431
0.282072 0.149163 0.087035
0.335749 0.149087 0.087590
0.403979 0.152905 0.088469
0.488550 0.160808 0.089694
0.548424 0.163816 0.090359
0.601632 0.166753 0.091001
0.655169 0.172834 0.092092
0.695494 0.180961 0.093983
0.730531 0.183143 0.095280
0.758225 0.186920 0.096788
0.775961 0.193661 0.098840
0.791878 0.200524 0.101312
0.806527 0.203809 0.103388
0.818144 0.208271 0.106210
0.828850 0.207780 0.110365
0.840682 0.199054 0.114908
0.848044 0.190816 0.123807
0.858908 0.165977 0.490072
0.858898 0.165555 0.489852
0.858897 0.165529 0.489837
0.862760 0.309294 0.489830
0.862760 0.334035 0.600778
0.082256 0.149178 0.081774
0.082483 0.149325 0.081840
0.083587 0.150722 0.082095
0.085873 0.153261 0.082462
0.089240 0.155693 0.082927
0.096341 0.157433 0.083478
0.105572 0.158597 0.084191
0.118103 0.158962 0.084793
0.137073 0.159091 0.085400
0.163026 0.159503 0.085984
0.208376 0.169719 0.087232
0.252764 0.169857 0.087897
0.301110 0.168696 0.088403
0.363223 0.171941 0.089193
0.443831 0.180385 0.090367
0.511991 0.182457 0.090969
0.566786 0.184812 0.091574
0.624682 0.191462 0.092992
0.675208 0.201607 0.094930
0.711547 0.205412 0.096162
0.744324 0.211272 0.097595
0.767877 0.216305 0.099713
0.786231 0.221864 0.102037
0.802580 0.223859 0.103955
0.815388 0.227403 0.106751
0.826212 0.231587 0.110616
0.837906 0.230726 0.114925
0.845599 0.231414 0.122214
0.859115 0.174040 0.491693
0.858905 0.165861 0.490018
0.858899 0.165596 0.489882
0.862760 0.309297 0.489843
0.862760 0.334035 0.600778
0.084646 0.170209 0.082409
0.084822 0.170339 0.082458
0.085620 0.171441 0.082692
0.087435 0.174300 0.083092
0.090193 0.177068 0.083715
0.096780 0.179607 0.084367
0.104657 0.181258 0.085011
0.115669 0.182209 0.085610
0.130911 0.182639 0.086172
0.153422 0.182872 0.086717
0.193382 0.196423 0.088137
0.230574 0.195940 0.088774
0.273295 0.192978 0.089193
0.329369 0.196141 0.089944
0.404002 0.207047 0.091063
0.468295 0.208627 0.091670
0.531936 0.210463 0.092645
0.590916 0.216426 0.093972
0.652569 0.227380 0.096019
0.690932 0.230627 0.097157
0.728063 0.234123 0.098620
0.758179 0.241191 0.100715
0.777977 0.249182 0.102946
0.796273 0.251367 0.104714
0.811114 0.253265 0.107529
0.823313 0.256184 0.111089
0.835957 0.254198 0.114958
0.844378 0.253556 0.121216
0.852415 0.249667 0.130559
0.856564 0.249414 0.168484
0.860901 0.268196 0.452281
0.862760 0.309761 0.492276
0.862760 0.334036 0.600778
0.087855 0.209697 0.083656
0.087998 0.209861 0.083731
0.088614 0.211038 0.084011
0.090289 0.215452 0.084556
0.094367 0.219360 0.085145
0.099844 0.222695 0.085757
0.107228 0.225749 0.086367
0.117561 0.227700 0.086957
0.132761 0.228846 0.087664
0.154153 0.229370 0.088362
0.182498 0.229821 0.089045
0.214515 0.228544 0.089601
0.251898 0.224526 0.090001
0.302381 0.227046 0.090690
0.370413 0.238357 0.091965
0.430036 0.238653 0.092877
0.494183 0.239191 0.093741
0.557131 0.244592 0.095151
0.621385 0.255891 0.097169
0.669104 0.257593 0.098305
0.707802 0.261929 0.099873
0.743834 0.269586 0.101867
0.769585 0.275490 0.103937
0.789709 0.278079 0.105768
0.805524 0.283148 0.108562
0.818605 0.289770 0.111864
0.832840 0.286281 0.115428
0.842460 0.283873 0.120785
0.851542 0.278234 0.128082
0.856058 0.273090 0.148167
0.860712 0.269590 0.389466
0.862760 0.311211 0.499835
0.862760 0.311739 0.502553
0.089769 0.240713 0.084627
0.089886 0.240857 0.084687
0.090623 0.241803 0.084912
0.092876 0.245523 0.085359
0.096160 0.249150 0.085874
0.100931 0.253348 0.086450
0.107571 0.257303 0.087101
0.116561 0.259751 0.087819
0.129200 0.261484 0.088511
0.148584 0.262546 0.089165
0.173130 0.263030 0.089800
0.202666 0.263581 0.090437
0.234718 0.258039 0.090759
0.280996 0.260744 0.091439
0.343028 0.272316 0.093243
0.397287 0.271301 0.094064
0.457125 0.271114 0.095045
0.525735 0.276110 0.096447
0.589324 0.286906 0.098448
0.644131 0.287834 0.099692
0.686270 0.292613 0.101226
0.725932 0.298794 0.103078
0.758922 0.306792 0.105070
0.780830 0.310774 0.107203
0.799530 0.313701 0.109787
0.814609 0.318783 0.112871
0.829361 0.319961 0.116332
0.839631 0.323109 0.121064
0.849536 0.320471 0.127158
0.855180 0.311203 0.137655
0.860266 0.283281 0.282206
0.862760 0.311223 0.499872
0.862760 0.312245 0.505124
0.092334 0.269088 0.085364
0.092513 0.269213 0.085415
0.093245 0.269978 0.085603
0.095003 0.272818 0.085972
0.097896 0.276982 0.086456
0.101992 0.281423 0.087022
0.107553 0.285142 0.087736
0.115580 0.288304 0.088449
0.125895 0.290818 0.089116
0.143341 0.292359 0.089749
0.164180 0.293349 0.090361
0.190513 0.293741 0.090935
0.222101 0.294368 0.091530
0.263511 0.296647 0.092648
0.320840 0.309585 0.094607
0.370648 0.307784 0.095507
0.425260 0.306556 0.096388
0.492359 0.311295 0.097758
0.559491 0.322134 0.100096
0.612998 0.322131 0.101171
0.664288 0.325692 0.102556
0.705890 0.332472 0.104376
0.744735 0.341283 0.106765
0.771774 0.342972 0.108697
0.791903 0.348471 0.111183
0.808438 0.356298 0.114308
0.825399 0.354995 0.117528
0.837110 0.355910 0.121745
0.847643 0.356383 0.127099
0.854028 0.356939 0.135272
0.858545 0.361146 0.163563
0.862760 0.311303 0.499919
0.862761 0.313012 0.508840
0.095731 0.306735 0.086253
0.095887 0.306862 0.086297
0.096510 0.307568 0.086458
0.097946 0.309984 0.086771
0.100628 0.315173 0.087354
0.104022 0.319259 0.087994
0.109294 0.323401 0.088656
0.116542 0.327423 0.089340
0.125928 0.330614 0.090001
0.141715 0.332653 0.090609
0.160333 0.334072 0.091186
0.185099 0.335043 0.091961
0.213420 0.335475 0.092931
0.249851 0.336114 0.093941
0.302411 0.349446 0.096040
0.348565 0.347410 0.096943
0.399062 0.344948 0.097754
0.460852 0.348824 0.099341
0.531896 0.359701 0.101652
0.583854 0.359402 0.102727
0.639596 0.362099 0.104024
0.685235 0.368778 0.105957
0.726745 0.376371 0.108478
0.760726 0.379441 0.110343
0.783078 0.385327 0.112705
0.802449 0.390949 0.115948
0.820516 0.393213 0.118982
0.833162 0.397799 0.122832
0.845309 0.396156 0.127467
0.853121 0.393667 0.134039
0.858041 0.392880 0.151924
0.861463 0.403143 0.267983
0.863695 0.437453 0.511792
0.099830 0.357390 0.087487
0.099971 0.357537 0.087538
0.100523 0.358261 0.087728
0.101751 0.360456 0.088093
0.104219 0.366183 0.088685
0.107453 0.369867 0.089258
0.112753 0.375046 0.089911
0.119237 0.379454 0.090544
0.129206 0.383258 0.091185
0.144162 0.386197 0.092003
0.162360 0.388372 0.093079
0.185663 0.389662 0.094059
0.212842 0.390428 0.095231
0.247057 0.390964 0.096335
0.287787 0.391528 0.097474
0.329851 0.388582 0.098412
0.377024 0.386036 0.099457
0.434505 0.389571 0.101018
0.505320 0.399636 0.103238
0.556940 0.398600 0.104222
0.611260 0.400567 0.105643
0.664839 0.406099 0.107913
0.707652 0.412339 0.110297
0.747093 0.415600 0.112073
0.773600 0.419627 0.114462
0.794597 0.426737 0.117820
0.814880 0.428749 0.120633
0.829657 0.430771 0.124140
0.842571 0.433385 0.128328
0.851684 0.436333 0.133830
0.857216 0.432868 0.145941
0.861051 0.431016 0.201164
0.863660 0.444871 0.503611
0.102506 0.395284 0.088348
0.102630 0.395417 0.088392
0.103107 0.396044 0.088557
0.104141 0.397647 0.088873
0.106284 0.401587 0.089380
0.109700 0.405543 0.089941
0.114643 0.410866 0.090593
0.120104 0.414168 0.091162
0.129332 0.417803 0.091958
0.143107 0.421153 0.093076
0.159065 0.423315 0.094072
0.180414 0.424856 0.095241
0.205003 0.426068 0.096383
0.235882 0.426661 0.097486
0.273007 0.427259 0.098744
0.314985 0.427870 0.100131
0.358222 0.425055 0.101095
0.412103 0.428041 0.102648
0.478362 0.437833 0.104845
0.533356 0.436350 0.106045
0.585019 0.437423 0.107638
0.642815 0.442796 0.109868
0.688356 0.448869 0.112180
0.729116 0.451270 0.113915
0.762807 0.455846 0.116568
0.786050 0.462982 0.119791
0.808563 0.464774 0.122382
0.824719 0.469525 0.125732
0.839503 0.471491 0.129505
0.850226 0.471655 0.134211
0.856296 0.474014 0.143813
0.860289 0.479116 0.173029
0.863447 0.470807 0.447714
0.105050 0.430036 0.089141
0.105159 0.430142 0.089180
0.105575 0.430631 0.089324
0.106687 0.431991 0.089599
0.108824 0.435283 0.090037
0.112096 0.440145 0.090591
0.116002 0.443891 0.091143
0.121103 0.448122 0.091889
0.130030 0.452189 0.092950
0.142403 0.455574 0.093998
0.156699 0.458299 0.095201
0.176463 0.460277 0.096349
0.199234 0.461772 0.097445
0.226209 0.462803 0.098739
0.260755 0.463439 0.100077
0.299597 0.464087 0.101383
0.342990 0.464872 0.102722
0.392940 0.467730 0.104225
0.455216 0.476788 0.106882
0.511432 0.475242 0.108104
0.561830 0.475962 0.109691
0.617384 0.479685 0.111832
0.669416 0.484338 0.114247
0.710698 0.485770 0.116197
0.751034 0.489517 0.118768
0.776848 0.494347 0.121819
0.800891 0.496865 0.124295
0.819463 0.499684 0.127384
0.835885 0.502170 0.130886
0.847644 0.504927 0.135088
0.855336 0.505118 0.143066
0.859839 0.505993 0.162850
0.862950 0.517247 0.299157
0.108538 0.471160 0.090055
0.108664 0.471267 0.090090
0.109144 0.471733 0.090217
0.110146 0.472948 0.090459
0.111982 0.475648 0.090843
0.115197 0.480047 0.091394
0.118406 0.482150 0.092152
0.123662 0.486097 0.093228
0.132588 0.489115 0.094276
0.143741 0.491690 0.095447
0.157103 0.494110 0.096651
0.175742 0.495992 0.097798
0.197201 0.497518 0.099235
0.222156 0.498372 0.100543
0.254236 0.499171 0.101912
0.290525 0.499693 0.103202
0.331315 0.500175 0.104465
0.377077 0.500914 0.106024
0.435291 0.508086 0.108981
0.488203 0.506438 0.110160
0.541070 0.506608 0.111675
0.594358 0.510147 0.113863
0.651388 0.514493 0.116669
0.692399 0.515579 0.118524
0.733871 0.519315 0.121027
0.766770 0.523844 0.123951
0.792654 0.526426 0.126274
0.813336 0.529367 0.129172
0.831331 0.533360 0.132490
0.845256 0.534170 0.136212
0.854252 0.536632 0.143591
0.859101 0.540917 0.158389
0.862690 0.543675 0.229649
0.112621 0.508655 0.091113
0.112739 0.508747 0.091144
0.113184 0.509127 0.091258
0.114097 0.510035 0.091474
0.115727 0.511957 0.092048
0.118543 0.515798 0.092946
0.121747 0.518611 0.093818
0.127911 0.522301 0.094974
0.136418 0.525314 0.096141
0.147306 0.528591 0.097358
0.160604 0.531188 0.098701
0.178337 0.533378 0.100203
0.198251 0.534914 0.101601
0.222390 0.536122 0.102965
0.252749 0.536901 0.104260
0.288191 0.537697 0.105806
0.326643 0.538273 0.107553
0.369974 0.538665 0.109235
0.418454 0.539528 0.111033
0.468014 0.537811 0.112153
0.522904 0.538028 0.113684
0.573727 0.541029 0.116300
0.628785 0.545109 0.119050
0.674940 0.546015 0.120854
0.716566 0.549141 0.123259
0.756167 0.553696 0.126124
0.783767 0.555969 0.128288
0.806261 0.559710 0.131081
0.826830 0.562652 0.134101
0.842189 0.565241 0.137571
0.853051 0.568235 0.144863
0.858564 0.569798 0.156695
0.862370 0.576346 0.198134
0.115539 0.538690 0.091850
0.115645 0.538767 0.091901
0.116042 0.539080 0.092088
0.116848 0.539819 0.092442
0.118263 0.541354 0.092999
0.120654 0.544374 0.093808
0.124239 0.547714 0.094830
0.130109 0.550345 0.095893
0.138394 0.553807 0.097088
0.148373 0.556955 0.098402
0.160073 0.559257 0.099806
0.176330 0.561493 0.101252
0.195072 0.563325 0.102671
0.217438 0.564743 0.104033
0.245467 0.565871 0.105460
0.278346 0.566599 0.107196
0.314676 0.567330 0.108980
0.355425 0.568047 0.110710
0.400376 0.568565 0.112353
0.450836 0.569573 0.114248
0.504360 0.569368 0.116064
0.555346 0.572394 0.118684
0.608207 0.576073 0.121433
0.658583 0.576850 0.123151
0.699989 0.579656 0.125505
0.742044 0.583736 0.128277
0.774062 0.585989 0.130330
0.798545 0.589826 0.133020
0.821329 0.592978 0.135834
0.838589 0.596140 0.139802
0.851788 0.598637 0.146404
0.857815 0.602461 0.156563
0.862101 0.605837 0.183619
0.118518 0.570037 0.092966
0.118615 0.570107 0.093013
0.118975 0.570389 0.093184
0.119699 0.571033 0.093509
0.120950 0.572325 0.094019
0.123329 0.574791 0.094881
0.128015 0.578615 0.096001
0.133197 0.580566 0.096952
0.141417 0.584441 0.098290
0.149646 0.586549 0.099616
0.161331 0.589399 0.101089
0.176958 0.591906 0.102544
0.194183 0.593663 0.103934
0.214849 0.595081 0.105315
0.240881 0.596373 0.107161
0.271943 0.597362 0.108939
0.305997 0.598028 0.110642
0.344123 0.598688 0.112359
0.387235 0.599518 0.114213
0.433990 0.600170 0.116253
0.486637 0.601286 0.118394
0.539070 0.603524 0.120967
0.589548 0.606159 0.123688
0.640888 0.606728 0.125419
0.684088 0.608398 0.127705
0.726360 0.611099 0.130444
0.763987 0.612610 0.132384
0.790356 0.614948 0.134929
0.814997 0.617559 0.137634
0.834635 0.619438 0.142172
0.849795 0.622059 0.148332
0.857117 0.624036 0.157123
0.861810 0.627550 0.177335
0.121663 0.602919 0.094245
0.121770 0.602993 0.094297
0.122170 0.603283 0.094485
0.122967 0.603890 0.094842
0.124327 0.604725 0.095399
0.127231 0.606236 0.096203
0.132281 0.608907 0.097316
0.137206 0.610380 0.098364
0.144197 0.612476 0.099785
0.152541 0.614443 0.101200
0.164274 0.616479 0.102667
0.177943 0.617948 0.104039
0.194548 0.619417 0.105582
0.214545 0.620582 0.107461
0.239079 0.621461 0.109245
0.268451 0.622268 0.111087
0.301054 0.622835 0.112815
0.337363 0.623313 0.114781
0.377949 0.623724 0.116895
0.423361 0.624343 0.119040
0.472306 0.624885 0.121092
0.524741 0.625694 0.123188
0.572990 0.627752 0.125875
0.622134 0.628380 0.127530
0.669208 0.629812 0.129820
0.710956 0.632233 0.132544
0.753811 0.633833 0.134414
0.781612 0.635956 0.136875
0.808121 0.638517 0.140453
0.829983 0.640516 0.144723
0.847309 0.643022 0.150384
0.856313 0.645324 0.158245
0.861487 0.649131 0.174429
0.125507 0.626876 0.095605
0.125646 0.626927 0.095654
0.126165 0.627119 0.095831
0.127193 0.627523 0.096164
0.128931 0.628260 0.096686
0.131728 0.629541 0.097436
0.136219 0.631727 0.098648
0.141415 0.633642 0.099951
0.147478 0.635266 0.101248
0.156014 0.637578 0.102777
0.166548 0.639012 0.104088
0.180301 0.640765 0.105684
0.196473 0.642390 0.107701
0.214780 0.643421 0.109524
0.237896 0.644322 0.111313
0.265840 0.645114 0.113117
0.297292 0.645792 0.115284
0.332194 0.646321 0.117475
0.371005 0.646768 0.119607
0.414046 0.647170 0.121714
0.461350 0.647801 0.123827
0.513139 0.648460 0.125906
0.558215 0.649327 0.127971
0.605387 0.649899 0.129581
0.655462 0.651089 0.131823
0.696244 0.653139 0.134535
0.739678 0.654784 0.136349
0.772385 0.656711 0.139325
0.800901 0.659171 0.143329
0.824764 0.661343 0.147388
0.844532 0.663644 0.152482
0.855381 0.666350 0.159759
0.861259 0.669386 0.173207
0.129936 0.650195 0.096414
0.130063 0.650234 0.096459
0.130536 0.650383 0.096625
0.131470 0.650693 0.096938
0.133035 0.651255 0.097428
0.135527 0.652225 0.098214
0.139476 0.653867 0.099451
0.144871 0.655920 0.100888
0.150118 0.657089 0.102078
0.158285 0.659093 0.103601
0.168361 0.660454 0.104928
0.181805 0.662145 0.106891
0.195686 0.663317 0.108743
0.213733 0.664576 0.110691
0.236256 0.665589 0.112578
0.262227 0.666279 0.114524
0.291786 0.666916 0.116784
0.324920 0.667446 0.118979
0.361994 0.667926 0.121153
0.402921 0.668366 0.123250
0.448186 0.668851 0.125341
0.497375 0.669482 0.127383
0.543926 0.670314 0.129459
0.590409 0.671335 0.131519
0.640028 0.672170 0.133737
0.682511 0.673860 0.136414
0.725165 0.675549 0.138406
0.762897 0.677200 0.142150
0.792884 0.679524 0.145975
0.819077 0.681778 0.150111
0.841362 0.684122 0.154717
0.854434 0.686456 0.161139
0.861002 0.689805 0.173000
0.134243 0.672056 0.097323
0.134363 0.672095 0.097366
0.134806 0.672243 0.097522
0.135676 0.672544 0.097817
0.137121 0.673064 0.098401
0.139396 0.673921 0.099245
0.142945 0.675311 0.100412
0.148602 0.677569 0.101996
0.153261 0.678541 0.103099
0.160810 0.680111 0.104500
0.171346 0.681828 0.106317
0.182826 0.683072 0.108176
0.196987 0.684446 0.110155
0.214296 0.685677 0.112139
0.234408 0.686578 0.114068
0.259829 0.687401 0.116384
0.288690 0.688063 0.118675
0.320709 0.688556 0.120933
0.355952 0.688989 0.123090
0.395021 0.689411 0.125239
0.437897 0.689850 0.127311
0.484919 0.690383 0.129361
0.531975 0.691001 0.131370
0.576217 0.691943 0.133453
0.624562 0.693049 0.135519
0.669747 0.694288 0.138431
0.711559 0.696192 0.141095
0.753337 0.697449 0.144731
0.784393 0.699655 0.148525
0.812795 0.701762 0.152363
0.837773 0.704243 0.156954
0.853428 0.706525 0.162673
0.860731 0.709559 0.173237
0.138415 0.693493 0.098264
0.138529 0.693534 0.098316
0.138946 0.693685 0.098506
0.139762 0.693983 0.098865
0.141107 0.694479 0.099425
0.143204 0.695261 0.100233
0.146436 0.696472 0.101350
0.151514 0.698361 0.102868
0.156638 0.699742 0.104162
0.163935 0.701041 0.105603
0.175012 0.703025 0.107889
0.185039 0.704015 0.109614
0.199464 0.705492 0.111739
0.214644 0.706444 0.113579
0.235158 0.707508 0.116077
0.259410 0.708318 0.118420
0.286204 0.708966 0.120709
0.316729 0.709466 0.122988
0.350760 0.709838 0.125203
0.388412 0.710211 0.127375
0.429693 0.710591 0.129503
0.474955 0.711050 0.131587
0.522562 0.711582 0.133615
0.564417 0.712232 0.135608
0.610441 0.713249 0.137704
0.658053 0.714418 0.140974
0.698822 0.716599 0.143540
0.740522 0.717566 0.147185
0.775579 0.719561 0.150757
0.805901 0.721482 0.154548
0.833510 0.723840 0.158884
0.852318 0.726235 0.164260
0.860650 0.729094 0.173851
0.142413 0.719241 0.098205
0.142512 0.719267 0.098255
0.142877 0.719360 0.098437
0.143590 0.719543 0.098784
0.144766 0.719841 0.099329
0.146603 0.720305 0.100123
0.149448 0.721026 0.101236
0.153960 0.722177 0.102775
0.160122 0.723432 0.104374
0.166540 0.724269 0.105808
0.176115 0.725546 0.107998
0.186868 0.726651 0.110054
0.199252 0.727607 0.112046
0.215041 0.728542 0.114230
0.234168 0.729311 0.116738
0.256743 0.729977 0.119112
0.283546 0.730579 0.121541
0.312908 0.731006 0.123849
0.344858 0.731297 0.126067
0.380776 0.731576 0.128251
0.420494 0.731892 0.130390
0.464200 0.732273 0.132489
0.512214 0.732767 0.134544
0.553674 0.733409 0.136558
