negative-portra-400/Portra400_Classic_Soft.cube
TITLE "Kodak Portra 400 Classic Soft"
# Adobe RGB in/out. REPLACES AgX. Kodak Portra 400 Classic Soft.
LUT_3D_SIZE 9
DOMAIN_MIN 0.0 0.0 0.0
DOMAIN_MAX 1.0 1.0 1.0
0.060898 0.068150 0.085817
0.086137 0.071526 0.086227
0.254242 0.077871 0.088257
0.526213 0.087257 0.091872
0.638644 0.098812 0.096584
0.700403 0.110012 0.102078
0.731120 0.118999 0.112327
0.755771 0.131452 0.490556
0.759847 0.336025 0.591801
0.063552 0.082685 0.086241
0.073268 0.084280 0.087317
0.165690 0.087111 0.089376
0.462833 0.095577 0.092800
0.621177 0.107017 0.097224
0.694920 0.120264 0.102457
0.729951 0.127046 0.111692
0.755771 0.131468 0.490571
0.759848 0.336037 0.591799
0.067907 0.121060 0.088562
0.072102 0.125518 0.089794
0.101973 0.127608 0.092315
0.290313 0.133699 0.095616
0.545141 0.155791 0.099485
0.664298 0.181261 0.104538
0.722839 0.200513 0.111996
0.755999 0.141702 0.492405
0.759848 0.336038 0.591799
0.073849 0.257927 0.092274
0.076810 0.269302 0.093514
0.095152 0.286873 0.096491
0.182612 0.291235 0.099454
0.429102 0.306304 0.103364
0.610294 0.326946 0.108350
0.706662 0.354868 0.115303
0.745101 0.362243 0.126611
0.759848 0.314345 0.509653
0.081278 0.434296 0.096521
0.083302 0.439673 0.097621
0.097686 0.453665 0.100418
0.157005 0.461011 0.104393
0.350653 0.463380 0.108475
0.541197 0.471957 0.114194
0.668757 0.485232 0.120276
0.736873 0.497619 0.129457
0.760048 0.512375 0.280625
0.089639 0.551620 0.100428
0.091734 0.553154 0.101391
0.104975 0.561242 0.105117
0.151256 0.567364 0.109548
0.296017 0.570251 0.114901
0.479897 0.572402 0.119989
0.623801 0.578368 0.127067
0.722571 0.586975 0.134948
0.758844 0.596359 0.160915
0.100251 0.638144 0.104274
0.102007 0.639090 0.105201
0.113836 0.644230 0.108759
0.154439 0.648470 0.114539
0.275264 0.650588 0.120204
0.440357 0.651634 0.126771
0.587721 0.653502 0.132912
0.701109 0.657350 0.141829
0.757705 0.663093 0.158127
0.111052 0.696854 0.103817
0.112161 0.696534 0.104519
0.123042 0.695678 0.109360
0.158902 0.696779 0.116146
0.258701 0.697731 0.123308
0.414557 0.698004 0.130442
0.551847 0.698728 0.137812
0.666938 0.701258 0.145700
0.757746 0.704989 0.158405
0.112021 0.710460 0.101100
0.112022 0.710462 0.101101
0.134472 0.728812 0.101114
0.134474 0.730277 0.106755
0.224153 0.737946 0.114476
0.387287 0.736326 0.123643
0.518902 0.735557 0.131051
0.631120 0.736916 0.137105
0.762294 0.740697 0.140844
0.061790 0.072688 0.100192
0.077133 0.083315 0.155433
0.255795 0.082891 0.113246
0.554128 0.090773 0.109202
0.645891 0.101562 0.107548
0.701743 0.112861 0.110688
0.731072 0.121507 0.122019
0.755771 0.131467 0.490574
0.759848 0.336037 0.591801
0.065720 0.084126 0.099504
0.084045 0.088914 0.106053
0.197625 0.090525 0.105380
0.507564 0.099895 0.107492
0.633047 0.109627 0.107616
0.697122 0.122606 0.110776
0.729981 0.128950 0.120261
0.755772 0.131491 0.490599
0.759848 0.336038 0.591800
0.070556 0.121710 0.099962
0.077018 0.124565 0.101290
0.120344 0.127672 0.104108
0.370599 0.140288 0.107598
0.577239 0.161489 0.109347
0.672225 0.184656 0.112674
0.723621 0.204236 0.119237
0.756065 0.145586 0.493205
0.759848 0.336038 0.591799
0.076879 0.257175 0.101758
0.080770 0.265669 0.103115
0.104486 0.281303 0.106467
0.217829 0.289351 0.109971
0.465096 0.308670 0.113479
0.623260 0.329355 0.116675
0.709552 0.356409 0.122511
0.745274 0.364238 0.134313
0.759848 0.336058 0.591797
0.083392 0.431477 0.103449
0.086096 0.436485 0.104877
0.103566 0.449977 0.108583
0.173359 0.457755 0.113485
0.378493 0.462046 0.118116
0.558545 0.471902 0.122270
0.676482 0.485682 0.128015
0.737805 0.498092 0.136879
0.760026 0.516330 0.334805
0.091614 0.550087 0.106091
0.093952 0.551661 0.107195
0.108780 0.559296 0.111547
0.160934 0.565388 0.116864
0.317637 0.568774 0.122474
0.494438 0.571716 0.128559
0.631618 0.578241 0.134365
0.725016 0.587031 0.142986
0.758890 0.597085 0.173781
0.101700 0.637372 0.108656
0.103839 0.638315 0.109780
0.116659 0.643273 0.114466
0.160743 0.647783 0.120206
0.286464 0.649958 0.127146
0.450452 0.651228 0.133494
0.593747 0.653334 0.141487
0.705057 0.657353 0.149419
0.757916 0.663290 0.166778
0.111766 0.696361 0.106506
0.113060 0.696120 0.107351
0.124816 0.695476 0.113769
0.162853 0.696569 0.120899
0.267402 0.697517 0.128999
0.419609 0.697863 0.136909
0.557361 0.698721 0.145095
0.671460 0.701329 0.153749
0.758168 0.705107 0.166304
0.112021 0.717592 0.125172
0.112023 0.717594 0.125172
0.134472 0.735255 0.125172
0.134475 0.735255 0.125169
0.227856 0.738058 0.117677
0.391512 0.736432 0.128318
0.521553 0.735718 0.136662
0.633206 0.737110 0.143446
0.762895 0.740833 0.146872
0.063013 0.081635 0.141071
0.080951 0.107323 0.418278
0.216250 0.108172 0.380942
0.547926 0.113226 0.330986
0.647447 0.123244 0.297050
0.702522 0.137277 0.316977
0.730765 0.159361 0.386595
0.755895 0.139186 0.502550
0.759848 0.336045 0.591817
0.067161 0.091589 0.143767
0.080417 0.099109 0.198716
0.187882 0.106723 0.244062
0.516993 0.116531 0.238214
0.638718 0.127865 0.236137
0.699251 0.148577 0.267232
0.729863 0.167169 0.341865
0.755942 0.142281 0.504188
0.759848 0.336039 0.591802
0.074126 0.127148 0.138390
0.081831 0.129247 0.142422
0.160785 0.155912 0.164999
0.417410 0.158898 0.166592
0.602213 0.181733 0.178693
0.682978 0.213116 0.198149
0.725158 0.234818 0.228248
0.755504 0.193713 0.500179
0.759848 0.336038 0.591800
0.082138 0.268208 0.140680
0.087200 0.273663 0.142750
0.121992 0.286143 0.148301
0.291654 0.298019 0.155780
0.525249 0.322512 0.164961
0.649386 0.350235 0.178661
0.715359 0.369937 0.192192
0.745811 0.381283 0.262942
0.759848 0.336042 0.591802
0.090460 0.438007 0.142694
0.094943 0.441490 0.144381
0.120245 0.450268 0.149383
0.221213 0.457783 0.156576
0.432773 0.464404 0.163711
0.600171 0.477582 0.175820
0.695260 0.492188 0.185985
0.740374 0.503981 0.213824
0.759943 0.529542 0.494256
0.100514 0.552368 0.145930
0.104236 0.553576 0.147316
0.125348 0.558965 0.152885
0.193372 0.564181 0.160201
0.377463 0.568162 0.167766
0.538807 0.572488 0.178701
0.657239 0.580258 0.188657
0.731461 0.589266 0.207841
0.759045 0.601459 0.294916
0.110180 0.638266 0.145198
0.113446 0.639105 0.146544
0.131115 0.643026 0.152236
0.183450 0.647069 0.160400
0.337579 0.649213 0.169204
0.485709 0.651000 0.181229
0.616040 0.653687 0.193350
0.716481 0.658128 0.209453
0.758553 0.664485 0.237664
0.118240 0.694060 0.141883
0.120727 0.694185 0.143476
0.137697 0.694900 0.151398
0.183244 0.696153 0.161094
0.302358 0.697120 0.172134
0.447176 0.697716 0.185303
0.582101 0.699022 0.197924
0.689753 0.701860 0.210402
0.759295 0.705788 0.224635
0.112023 0.717595 0.125175
0.134471 0.735255 0.125174
0.134472 0.735255 0.125173
0.134496 0.735259 0.125175
0.249998 0.738246 0.142848
0.405585 0.736806 0.160766
0.533566 0.736327 0.173969
0.642582 0.737852 0.185427
0.763761 0.741472 0.192028
0.064531 0.095851 0.260487
0.074259 0.125939 0.510869
0.187808 0.141402 0.546287
0.522428 0.153628 0.537499
0.641359 0.172228 0.534917
0.699861 0.195038 0.541152
0.729639 0.219801 0.563903
0.752328 0.217192 0.608551
0.759848 0.345757 0.614463
0.068071 0.106934 0.278869
0.077526 0.124124 0.426650
0.182987 0.147906 0.512741
0.495155 0.161140 0.510930
0.633932 0.181354 0.514622
0.696949 0.208080 0.525852
0.728814 0.233839 0.554168
0.751951 0.228980 0.605432
0.759848 0.345865 0.614706
0.076939 0.154492 0.260860
0.084572 0.161184 0.286967
0.153815 0.179842 0.364978
0.420531 0.201353 0.406206
0.605197 0.235654 0.432603
0.683798 0.272233 0.460514
0.724843 0.299775 0.505416
0.748867 0.318439 0.576780
0.759848 0.346259 0.615590
0.086069 0.289711 0.246197
0.092799 0.294829 0.253461
0.134955 0.308981 0.278966
0.355593 0.345358 0.332205
0.547565 0.353411 0.344396
0.658275 0.376716 0.374089
0.717295 0.398916 0.420892
0.745672 0.419795 0.514710
0.759848 0.346402 0.615855
0.097513 0.448635 0.249208
0.103367 0.450741 0.252909
0.136514 0.458063 0.266749
0.270809 0.465959 0.286620
0.472748 0.474452 0.308474
0.619147 0.489308 0.332016
0.704128 0.505030 0.359396
0.741453 0.519254 0.423826
0.759787 0.543757 0.596873
0.109130 0.556450 0.251615
0.114344 0.557498 0.254376
0.143988 0.561985 0.265206
0.237673 0.566793 0.280416
0.415827 0.571338 0.298284
0.573105 0.576719 0.317166
0.675524 0.585515 0.337291
0.735040 0.594715 0.368999
0.759121 0.613349 0.532159
0.120294 0.640982 0.253480
0.124556 0.641719 0.255804
0.150555 0.644985 0.265310
0.222135 0.647983 0.279405
0.378087 0.650166 0.295763
0.521003 0.652378 0.313352
0.638017 0.655563 0.329123
0.724536 0.660262 0.349041
0.759032 0.668143 0.441203
0.126616 0.694388 0.251196
0.130157 0.694590 0.253238
0.153562 0.695505 0.263351
0.206979 0.696663 0.276881
0.344235 0.697690 0.292963
0.474734 0.698573 0.309672
0.599471 0.700206 0.324766
0.705754 0.703258 0.339726
0.760180 0.707728 0.381991
0.120868 0.729056 0.284482
0.134468 0.739036 0.284482
0.134472 0.739038 0.284480
0.164031 0.742429 0.223319
0.286403 0.738330 0.279391
0.423591 0.737460 0.296242
0.551402 0.737425 0.312036
0.656699 0.739098 0.323676
0.764239 0.742837 0.337722
0.066460 0.119431 0.454941
0.071137 0.146427 0.558287
0.166464 0.190124 0.623156
0.493596 0.208481 0.623566
0.632567 0.231904 0.623669
0.695949 0.261368 0.628050
0.728113 0.283147 0.636913
0.750165 0.280685 0.652856
0.759848 0.366879 0.668812
0.068879 0.129902 0.466865
0.074819 0.157826 0.544941
0.161372 0.203195 0.613371
0.473198 0.223590 0.616399
0.625902 0.248343 0.617753
0.693277 0.276975 0.623553
0.727347 0.297829 0.634080
0.749858 0.294682 0.651378
0.759848 0.366286 0.667182
0.078535 0.198987 0.465045
0.085069 0.213060 0.494192
0.149424 0.256257 0.565237
0.416985 0.282526 0.586752
0.601383 0.306897 0.594589
0.681899 0.333700 0.604470
0.723874 0.358434 0.619906
0.747871 0.369247 0.642433
0.759848 0.364422 0.662003
0.089913 0.331635 0.443887
0.097151 0.337678 0.454724
0.145828 0.358264 0.489586
0.355898 0.376129 0.526329
0.554106 0.394298 0.546883
0.660752 0.419077 0.566643
0.717451 0.442558 0.591754
0.745268 0.457077 0.624437
0.760656 0.447423 0.662049
0.103188 0.463928 0.430085
0.109985 0.466204 0.434811
0.150575 0.473856 0.452870
0.296151 0.483388 0.475086
0.502282 0.503342 0.506734
0.628845 0.510442 0.521029
0.707011 0.526433 0.547256
0.741746 0.538427 0.591269
0.759578 0.557662 0.651922
0.117455 0.563965 0.428691
0.123670 0.564959 0.431057
0.160856 0.569119 0.441217
0.273582 0.574036 0.456238
0.442382 0.579361 0.472116
0.591676 0.585641 0.488448
0.685864 0.595165 0.510064
0.736903 0.605562 0.543661
0.759080 0.625930 0.632862
0.129834 0.646015 0.430152
0.135657 0.646577 0.431589
0.167374 0.648446 0.438002
0.256116 0.650861 0.449033
0.407181 0.653225 0.460827
0.545226 0.655827 0.473381
0.653766 0.659434 0.487023
0.729290 0.664363 0.507882
0.759237 0.674450 0.596062
0.135195 0.696180 0.434543
0.140412 0.696378 0.435138
0.167397 0.697212 0.439114
0.234333 0.698366 0.446121
0.368751 0.699472 0.455172
0.497614 0.700626 0.464496
0.614707 0.702556 0.474608
0.714656 0.705862 0.486268
0.760675 0.711315 0.540345
0.123961 0.733795 0.516612
0.125846 0.735241 0.516612
0.130671 0.738646 0.516610
0.183310 0.739952 0.455875
0.305413 0.739456 0.457834
0.439609 0.738936 0.462604
0.565239 0.739124 0.468318
0.668045 0.740957 0.474550
0.764533 0.745372 0.499778
0.068353 0.167436 0.590864
0.071192 0.194552 0.635550
0.148761 0.258056 0.678202
0.463257 0.277288 0.679706
0.624843 0.298919 0.680582
0.692057 0.320738 0.682581
0.726585 0.337899 0.686402
0.748895 0.337699 0.692842
0.759848 0.378014 0.694702
0.069942 0.183571 0.596636
0.073683 0.211910 0.634190
0.146764 0.273320 0.675471
0.447940 0.291919 0.677827
0.619339 0.314265 0.679077
0.689653 0.333385 0.681322
0.725897 0.354397 0.685546
0.748619 0.353989 0.692375
0.759848 0.378014 0.694701
0.080077 0.276700 0.603156
0.084893 0.290583 0.621792
0.145975 0.329157 0.659669
0.408321 0.351086 0.668518
0.597983 0.368708 0.672153
0.679679 0.386881 0.675938
0.722892 0.403362 0.681606
0.747066 0.412247 0.689764
0.759848 0.378017 0.694701
0.092732 0.383494 0.587271
0.099256 0.388796 0.596457
0.151629 0.411012 0.627418
0.360793 0.430292 0.647472
0.558410 0.446521 0.656446
0.661382 0.460512 0.663612
0.717303 0.475825 0.673086
0.744870 0.486973 0.684644
0.760406 0.479177 0.694636
0.108330 0.490643 0.570465
0.115472 0.492997 0.575039
0.162445 0.503087 0.593704
0.320434 0.515056 0.614585
0.509004 0.526096 0.631480
0.634060 0.535214 0.642808
0.708459 0.546664 0.656045
0.741888 0.557255 0.674673
0.759392 0.572297 0.694945
0.124063 0.575346 0.560501
0.131283 0.576470 0.562699
0.172989 0.580843 0.571902
0.292806 0.586442 0.586920
0.461201 0.592791 0.602545
0.603368 0.602819 0.618527
0.691853 0.609928 0.632337
0.737946 0.620928 0.654601
0.759063 0.638453 0.689689
0.138523 0.651133 0.557001
0.145989 0.651576 0.557989
0.180489 0.653418 0.562652
0.281902 0.655929 0.571244
0.422916 0.658607 0.582949
0.562694 0.661619 0.595187
0.663999 0.665644 0.606784
0.732021 0.671007 0.625904
0.759380 0.681502 0.678519
0.142562 0.699407 0.558456
0.148248 0.699609 0.558665
0.177472 0.700418 0.560410
0.254259 0.701559 0.564254
0.389608 0.702778 0.570711
0.514482 0.704184 0.578905
0.625762 0.706382 0.588044
0.719998 0.709916 0.598107
0.760938 0.716715 0.651930
0.125153 0.735435 0.558971
0.126932 0.736736 0.561079
0.130993 0.739741 0.569084
0.184040 0.742290 0.569746
0.317072 0.741760 0.569414
0.448458 0.741409 0.571852
0.573197 0.741815 0.575515
0.674748 0.743703 0.579457
0.764662 0.749464 0.625125
0.070210 0.262531 0.688096
0.072729 0.284636 0.708746
0.125120 0.322942 0.722382
0.443989 0.338677 0.723178
0.620551 0.359355 0.723735
0.690181 0.375893 0.724513
0.725887 0.388226 0.725888
0.748211 0.388546 0.727629
0.759847 0.395473 0.725750
0.071919 0.280558 0.690643
0.074729 0.299059 0.708134
0.127212 0.334683 0.721900
0.432650 0.354219 0.722892
0.616105 0.370502 0.723517
0.688205 0.387208 0.724339
0.725271 0.399903 0.725767
0.747969 0.400113 0.727615
0.759847 0.395295 0.725540
0.081107 0.356311 0.695574
0.084909 0.364177 0.704951
0.136552 0.387284 0.718812
0.405084 0.401420 0.721314
0.598414 0.417105 0.722348
0.679805 0.433584 0.723427
0.722663 0.446458 0.725117
0.746714 0.452118 0.727340
0.759842 0.394386 0.724584
0.094871 0.442157 0.686918
0.100813 0.446535 0.693289
0.151795 0.461168 0.708689
0.366827 0.472773 0.716222
0.565318 0.483885 0.719509
0.664121 0.495935 0.721368
0.717891 0.507037 0.723600
0.744886 0.515759 0.726651
0.759934 0.521234 0.728724
0.112413 0.525161 0.672451
0.119375 0.527100 0.676836
0.168179 0.535093 0.691221
0.339355 0.543424 0.704063
0.521934 0.550859 0.711331
0.640409 0.558651 0.715971
0.710333 0.566606 0.720501
0.742373 0.574941 0.724892
0.759349 0.587354 0.729489
0.130031 0.592629 0.657434
0.138184 0.593892 0.660186
0.182397 0.599149 0.671177
0.313910 0.606087 0.685047
0.477554 0.612944 0.696848
0.610910 0.619951 0.705061
0.697096 0.627670 0.712284
0.739031 0.636851 0.721075
0.759179 0.649186 0.729168
0.144639 0.658391 0.646771
0.152474 0.658893 0.648129
0.183477 0.660885 0.653931
0.292719 0.663721 0.664273
0.436524 0.666919 0.676771
0.575743 0.670345 0.687376
0.670896 0.674449 0.696212
0.734035 0.679714 0.709533
0.759627 0.688462 0.727403
0.145180 0.704474 0.641293
0.151081 0.704665 0.641716
0.182127 0.705414 0.644065
0.264217 0.706596 0.648865
0.399336 0.707982 0.656380
0.523741 0.709635 0.665450
0.632856 0.712120 0.674881
0.722972 0.715859 0.684906
0.761190 0.722868 0.721942
0.124996 0.736608 0.617248
0.128458 0.739045 0.617259
0.133009 0.742197 0.617538
0.182433 0.746548 0.643519
0.314207 0.745415 0.644382
0.448399 0.745092 0.647573
0.573926 0.745586 0.651238
0.675123 0.747516 0.654427
0.764792 0.755011 0.712961
0.073373 0.364689 0.749725
0.075717 0.366801 0.751376
0.135445 0.380181 0.752512
0.466927 0.392967 0.752733
0.628516 0.407858 0.753082
0.694306 0.423032 0.753601
0.727138 0.433113 0.754362
0.748980 0.430299 0.756046
0.759929 0.425959 0.751269
0.074989 0.374382 0.749641
0.077339 0.376559 0.751191
0.139356 0.390548 0.752489
0.458642 0.403356 0.752737
0.625273 0.418319 0.753090
0.692878 0.433629 0.753614
0.726698 0.443884 0.754393
0.748777 0.441698 0.756071
0.759955 0.428643 0.751269
0.084325 0.426550 0.749310
0.087930 0.428409 0.750377
0.156883 0.440251 0.751965
0.428836 0.449674 0.752456
0.611031 0.460148 0.752893
0.686270 0.471212 0.753481
0.724648 0.479568 0.754358
0.747758 0.481425 0.755994
0.760250 0.454301 0.751269
0.098870 0.490750 0.747323
0.104656 0.492306 0.748442
0.170925 0.500408 0.750714
0.400876 0.508162 0.751747
0.587883 0.517534 0.752422
0.674329 0.526654 0.753169
0.721092 0.532964 0.754234
0.746344 0.536702 0.755938
0.760078 0.540518 0.756187
0.117092 0.555106 0.742981
0.124241 0.556374 0.744427
0.183264 0.561883 0.747961
0.366926 0.567136 0.750143
0.547823 0.572862 0.751451
0.654851 0.579339 0.752507
0.715262 0.585691 0.753792
0.744417 0.591112 0.755725
0.759736 0.601522 0.757030
0.135294 0.616302 0.735197
0.144390 0.617630 0.737013
0.190941 0.623020 0.742398
0.342867 0.628311 0.746699
0.502459 0.633434 0.749344
0.626879 0.639197 0.751127
0.705613 0.645299 0.752809
0.741823 0.649564 0.755142
0.759752 0.656787 0.757447
0.148479 0.668717 0.723520
0.156145 0.669335 0.725078
0.192917 0.671941 0.731083
0.308037 0.675134 0.738517
0.453705 0.678129 0.744303
0.590794 0.681091 0.747936
0.682655 0.684493 0.750522
0.737578 0.688463 0.753730
0.760267 0.694925 0.757475
0.141433 0.712307 0.708456
0.147280 0.712449 0.709474
0.179485 0.712990 0.714427
0.263851 0.714230 0.722141
0.401937 0.715937 0.730106
0.529833 0.717963 0.737570
0.639276 0.720525 0.743183
0.724426 0.722786 0.746481
0.761666 0.728866 0.756733
0.123334 0.737387 0.679736
0.132771 0.744114 0.680691
0.134354 0.745374 0.687240
0.171434 0.750839 0.698929
0.291789 0.750909 0.703429
0.436489 0.750441 0.709240
0.565175 0.750932 0.714935
0.667323 0.752753 0.718453
0.764935 0.760566 0.754482
0.104826 0.422575 0.780982
0.118619 0.424186 0.780990
0.376454 0.430607 0.781017
0.607808 0.441945 0.781099
0.673442 0.452551 0.781243
0.712601 0.461373 0.781467
0.735603 0.464257 0.782012
0.753057 0.450518 0.783060
0.759848 0.458450 0.778596
0.107941 0.430508 0.780909
0.122267 0.432159 0.780918
0.371736 0.438728 0.780949
0.605750 0.448625 0.781040
0.672552 0.458947 0.781191
0.712307 0.467872 0.781426
0.735476 0.470758 0.781972
0.752972 0.456029 0.783024
0.759848 0.467418 0.782108
0.124996 0.464391 0.780507
0.143384 0.465612 0.780525
0.360770 0.470410 0.780591
0.596179 0.478819 0.780737
0.668315 0.488718 0.780935
0.710940 0.497479 0.781227
0.734842 0.500694 0.781777
0.752560 0.487232 0.782811
0.759848 0.467435 0.782109
0.156859 0.525369 0.779916
0.175944 0.526025 0.779955
0.349636 0.528620 0.780091
0.574892 0.533314 0.780316
0.659021 0.539034 0.780580
0.707960 0.544445 0.780931
0.733558 0.547373 0.781516
0.751926 0.544560 0.782463
0.761055 0.558393 0.783725
0.174998 0.578168 0.779551
0.187429 0.578684 0.779614
0.329355 0.580806 0.779821
0.534403 0.584641 0.780081
0.643491 0.589520 0.780413
0.703087 0.594400 0.780816
0.731590 0.597789 0.781393
0.751465 0.598288 0.782330
0.761572 0.609836 0.784152
0.179258 0.637918 0.779472
0.188765 0.638338 0.779560
0.295013 0.640155 0.779841
0.479448 0.643378 0.780174
0.617026 0.647013 0.780527
0.691108 0.649774 0.780954
0.728347 0.652014 0.781510
0.750815 0.653226 0.782373
0.762018 0.662375 0.784037
0.169132 0.681939 0.779671
0.179441 0.682143 0.779789
0.246763 0.683041 0.780138
0.408799 0.684486 0.780551
0.566485 0.686314 0.780966
0.664945 0.688570 0.781407
0.721751 0.690746 0.781999
0.749684 0.692073 0.782765
0.762772 0.699778 0.784226
0.138591 0.722695 0.777748
0.144148 0.722908 0.778630
0.175442 0.723466 0.780232
0.287113 0.723956 0.781123
0.450366 0.724524 0.781761
0.600404 0.725639 0.782279
0.699889 0.727481 0.782819
0.745604 0.728896 0.783514
0.763804 0.733536 0.784651
0.120452 0.737357 0.724183
0.134472 0.748190 0.736293
0.134473 0.748190 0.736294
0.143550 0.749496 0.736324
0.235450 0.761104 0.763764
0.413274 0.761588 0.782547
0.555212 0.761515 0.784052
0.668709 0.763079 0.784749
0.765107 0.766052 0.785199
