negative-portra-400/Portra400_Modern_ExtraPunchy.cube
TITLE "Kodak Portra 400 Modern ExtraPunchy"
# Adobe RGB in/out. REPLACES AgX. Kodak Portra 400 Modern ExtraPunchy.
LUT_3D_SIZE 5
DOMAIN_MIN 0.0 0.0 0.0
DOMAIN_MAX 1.0 1.0 1.0
0.069330 0.073299 0.081842
0.308804 0.093521 0.081842
0.795789 0.301789 0.079035
0.925906 0.573947 0.083723
0.964593 0.729912 0.097411
0.070059 0.239904 0.081842
0.164058 0.162509 0.081842
0.706440 0.370478 0.078680
0.908601 0.608950 0.082699
0.960128 0.748928 0.095620
0.098387 0.702399 0.078608
0.290918 0.653126 0.078614
0.650438 0.617487 0.079213
0.864525 0.708540 0.082016
0.949802 0.804799 0.093153
0.184269 0.874513 0.080907
0.370752 0.862057 0.081007
0.682912 0.842170 0.081628
0.852989 0.845695 0.085164
0.935235 0.879187 0.095372
0.289754 0.934587 0.084837
0.429284 0.932219 0.085311
0.688438 0.927790 0.087181
0.851849 0.928666 0.092446
0.929470 0.938247 0.105221
0.069330 0.077429 0.323062
0.325405 0.113537 0.336070
0.784868 0.316635 0.274888
0.920390 0.570801 0.266465
0.962811 0.726937 0.285265
0.068528 0.180211 0.188496
0.102686 0.118062 0.094523
0.674536 0.350476 0.158108
0.898971 0.599925 0.214588
0.958365 0.745720 0.258533
0.091207 0.670755 0.217590
0.250813 0.621561 0.164237
0.609313 0.583152 0.126598
0.855019 0.695397 0.156597
0.947605 0.800404 0.210860
0.174491 0.866689 0.199741
0.355047 0.854769 0.183698
0.671382 0.835497 0.160364
0.847764 0.840565 0.160450
0.933383 0.877829 0.194561
0.285055 0.933231 0.179371
0.423197 0.930989 0.176770
0.684951 0.926881 0.173889
0.850468 0.928244 0.182745
0.929104 0.938554 0.210524
0.069330 0.149085 0.885082
0.326453 0.229213 0.886565
0.836419 0.499773 0.883367
0.924588 0.630472 0.809430
0.962019 0.745632 0.764895
0.069888 0.389698 0.873333
0.281026 0.395754 0.839721
0.733399 0.494103 0.785381
0.902316 0.643637 0.760371
0.957295 0.757957 0.738607
0.083180 0.636227 0.735483
0.201056 0.595743 0.680166
0.536457 0.539879 0.547052
0.846434 0.697777 0.637421
0.943852 0.803724 0.675111
0.155480 0.852656 0.715178
0.321878 0.842918 0.694132
0.647501 0.825938 0.638511
0.834484 0.832818 0.607624
0.929807 0.877263 0.628664
0.273178 0.930645 0.663536
0.408002 0.928828 0.655281
0.676483 0.925719 0.635360
0.847156 0.928256 0.621858
0.928232 0.940232 0.625464
0.069148 0.394070 0.979484
0.328383 0.465618 0.979631
0.844663 0.649650 0.980155
0.937733 0.731678 0.966130
0.964104 0.788909 0.941699
0.070695 0.586805 0.979613
0.362155 0.631774 0.979759
0.809302 0.687139 0.971587
0.919095 0.735752 0.950853
0.959196 0.797334 0.932715
0.083879 0.691487 0.937333
0.233162 0.684718 0.927180
0.653797 0.696588 0.908044
0.861904 0.759243 0.902413
0.945679 0.828907 0.899716
0.140014 0.846856 0.907902
0.293933 0.840500 0.900143
0.627467 0.828432 0.877254
0.817102 0.830313 0.852851
0.928019 0.883101 0.869070
0.256802 0.929449 0.888835
0.390416 0.928277 0.885042
0.667080 0.926671 0.874200
0.843646 0.930581 0.864848
0.927414 0.943544 0.863605
0.068829 0.638539 0.995081
0.331272 0.671408 0.995094
0.844946 0.769259 0.995140
0.947982 0.826566 0.993490
0.966879 0.842612 0.986664
0.071218 0.735135 0.995092
0.364786 0.758562 0.995105
0.844438 0.823111 0.994943
0.931571 0.825686 0.992236
0.962101 0.846443 0.982412
0.091463 0.807308 0.991618
0.301114 0.806573 0.989644
0.715765 0.812288 0.983589
0.883892 0.833178 0.977044
0.950042 0.863900 0.971410
0.136366 0.864072 0.971064
0.291582 0.861831 0.969498
0.643416 0.860438 0.964532
0.843090 0.874828 0.958907
0.930802 0.899217 0.957253
0.242624 0.931824 0.960986
0.375878 0.931351 0.959587
0.659944 0.931447 0.955755
0.841507 0.936678 0.952123
0.927088 0.947787 0.951518
