negative-portra-400/Portra400_Modern_ExtraSoft.cube
TITLE "Kodak Portra 400 Modern ExtraSoft"
# Adobe RGB in/out. REPLACES AgX. Kodak Portra 400 Modern ExtraSoft.
LUT_3D_SIZE 33
DOMAIN_MIN 0.0 0.0 0.0
DOMAIN_MAX 1.0 1.0 1.0
0.055943 0.062712 0.078815
0.065786 0.067078 0.079812
0.080186 0.072162 0.081538
0.100108 0.078787 0.083597
0.131267 0.085887 0.085778
0.183935 0.095913 0.088443
0.259482 0.109034 0.091261
0.327679 0.123200 0.093483
0.390616 0.139953 0.096277
0.433460 0.162304 0.098910
0.475214 0.189983 0.101792
0.510534 0.222935 0.105312
0.535484 0.256096 0.108582
0.559138 0.289953 0.111632
0.581608 0.320009 0.115104
0.602993 0.348130 0.118802
0.623377 0.376202 0.122312
0.642837 0.400962 0.125650
0.660750 0.419358 0.129700
0.671447 0.437237 0.133626
0.681593 0.454621 0.137401
0.691249 0.471555 0.141066
0.700470 0.488083 0.145925
0.709286 0.504214 0.150666
0.717724 0.518782 0.155289
0.725807 0.529794 0.159799
0.733558 0.540454 0.164197
0.740834 0.550776 0.169357
0.747587 0.560773 0.174774
0.754073 0.570456 0.180411
0.760304 0.579837 0.186155
0.766294 0.588926 0.191802
0.772053 0.597732 0.197350
0.058700 0.069405 0.079481
0.063392 0.068971 0.079775
0.074917 0.072909 0.081107
0.093871 0.079382 0.083349
0.124530 0.086528 0.085505
0.175552 0.096315 0.088178
0.250002 0.109429 0.091056
0.320802 0.123636 0.093335
0.386773 0.140509 0.096115
0.430257 0.163047 0.098787
0.472488 0.190828 0.101638
0.509025 0.223780 0.105187
0.534196 0.256890 0.108478
0.558024 0.290731 0.111544
0.580634 0.320616 0.115000
0.602132 0.348709 0.118712
0.622612 0.376755 0.122232
0.642151 0.401315 0.125579
0.660377 0.419687 0.129618
0.671112 0.437546 0.133552
0.681291 0.454911 0.137333
0.690977 0.471831 0.140982
0.700224 0.488345 0.145848
0.709062 0.504464 0.150595
0.717520 0.518954 0.155224
0.725620 0.529958 0.159739
0.733387 0.540610 0.164141
0.740685 0.550924 0.169291
0.747450 0.560915 0.174712
0.753946 0.570592 0.180348
0.760187 0.579967 0.186095
0.766185 0.589051 0.191746
0.771953 0.597852 0.197298
0.061602 0.078815 0.080905
0.065796 0.078292 0.081028
0.072653 0.077402 0.081440
0.085332 0.080951 0.082928
0.110285 0.088207 0.084960
0.152878 0.097444 0.087508
0.222049 0.110652 0.090432
0.299574 0.125150 0.092879
0.368684 0.142640 0.095601
0.419640 0.165658 0.098388
0.463306 0.193809 0.101126
0.503906 0.226773 0.104764
0.529750 0.259707 0.108123
0.554154 0.293493 0.111242
0.577232 0.322772 0.114643
0.599117 0.350769 0.118397
0.619920 0.378723 0.121954
0.639733 0.402571 0.125331
0.658636 0.420863 0.129331
0.669926 0.438649 0.133292
0.680221 0.455949 0.137096
0.690010 0.472816 0.140761
0.699347 0.489284 0.145576
0.708265 0.505359 0.150344
0.716792 0.519570 0.154993
0.724955 0.530543 0.159525
0.732776 0.541167 0.163944
0.740153 0.551456 0.169054
0.746960 0.561423 0.174491
0.753494 0.571079 0.180120
0.759768 0.580434 0.185882
0.765797 0.589500 0.191546
0.771593 0.598284 0.197110
0.065081 0.090634 0.082715
0.068292 0.090183 0.082818
0.076431 0.088876 0.083099
0.084879 0.087876 0.083491
0.100176 0.091365 0.084680
0.134127 0.100288 0.086966
0.189466 0.113003 0.089716
0.268121 0.127976 0.092294
0.341219 0.146511 0.094882
0.403232 0.170363 0.097794
0.448612 0.199178 0.100424
0.492255 0.232087 0.104090
0.522260 0.264776 0.107543
0.547541 0.298473 0.110738
0.571355 0.326659 0.114038
0.593862 0.354491 0.117860
0.615195 0.382285 0.121474
0.635463 0.404844 0.124900
0.654761 0.422993 0.128829
0.667809 0.440650 0.132834
0.678306 0.457837 0.136678
0.688276 0.474612 0.140380
0.697772 0.490995 0.145093
0.706829 0.506994 0.149898
0.715480 0.520695 0.154580
0.723752 0.531613 0.159143
0.731671 0.542187 0.163589
0.739190 0.552430 0.168630
0.746072 0.562354 0.174093
0.752673 0.571971 0.179711
0.759008 0.581291 0.185498
0.765092 0.590322 0.191185
0.770937 0.599076 0.196771
0.069030 0.108631 0.084599
0.072165 0.108101 0.084679
0.080828 0.106408 0.084921
0.089639 0.104183 0.085265
0.103668 0.103009 0.085805
0.124167 0.107044 0.087017
0.168019 0.118498 0.089399
0.237104 0.132894 0.091867
0.313088 0.152633 0.094232
0.384334 0.177527 0.097185
0.430942 0.207201 0.099836
0.475739 0.239658 0.103295
0.512511 0.272216 0.106829
0.538743 0.304772 0.110099
0.563399 0.332331 0.113254
0.586650 0.359927 0.117149
0.608637 0.387496 0.120828
0.629482 0.408164 0.124312
0.649290 0.426110 0.128138
0.664795 0.443584 0.132198
0.675568 0.460616 0.136093
0.685787 0.477259 0.139844
0.695502 0.493522 0.144410
0.704754 0.509411 0.149265
0.713578 0.522358 0.153992
0.722004 0.533196 0.158596
0.730061 0.543697 0.163081
0.737773 0.553873 0.168020
0.744774 0.563736 0.173521
0.751471 0.573296 0.179121
0.757894 0.582563 0.184943
0.764057 0.591546 0.190662
0.769975 0.600253 0.196279
0.075545 0.145590 0.087476
0.078983 0.144417 0.087520
0.087055 0.140343 0.087650
0.100747 0.134231 0.087817
0.113994 0.128001 0.087989
0.132034 0.125382 0.088527
0.157864 0.128554 0.089707
0.216581 0.142962 0.091823
0.290292 0.162707 0.093910
0.357835 0.187907 0.096753
0.413193 0.218459 0.099370
0.458225 0.250004 0.102550
0.501693 0.282237 0.106110
0.528620 0.312634 0.109421
0.554028 0.339837 0.112505
0.577993 0.367108 0.116342
0.600644 0.394377 0.120078
0.622101 0.412528 0.123615
0.642468 0.430214 0.127308
0.660990 0.447454 0.131424
0.672094 0.464298 0.135376
0.682611 0.480772 0.139181
0.692591 0.496881 0.143561
0.702081 0.512628 0.148471
0.711118 0.524572 0.153251
0.719737 0.535307 0.157904
0.727967 0.545713 0.162434
0.735835 0.555802 0.167242
0.743075 0.565584 0.172789
0.749895 0.575069 0.178364
0.756430 0.584266 0.184228
0.762695 0.593185 0.189988
0.768706 0.601833 0.195643
0.082552 0.203813 0.090488
0.085411 0.204881 0.090634
0.094859 0.197662 0.090701
0.109722 0.183420 0.090637
0.125995 0.168504 0.090566
0.145340 0.158826 0.090776
0.170678 0.156268 0.091332
0.206235 0.158763 0.092192
0.272783 0.179191 0.094046
0.337291 0.204398 0.096635
0.397653 0.233661 0.099109
0.441792 0.263690 0.102013
0.485253 0.295226 0.105515
0.518116 0.322615 0.108808
0.544013 0.349285 0.111898
0.568519 0.376099 0.115533
0.591729 0.400156 0.119299
0.613738 0.417936 0.122873
0.634636 0.435299 0.126405
0.654526 0.452268 0.130570
0.668021 0.468886 0.134575
0.678858 0.485156 0.138431
0.689130 0.501078 0.142593
0.698885 0.516403 0.147559
0.708162 0.527341 0.152392
0.717000 0.537949 0.157096
0.725430 0.548240 0.161675
0.733480 0.558221 0.166324
0.741004 0.567905 0.171921
0.747969 0.577298 0.177463
0.754636 0.586410 0.183374
0.761023 0.595249 0.189180
0.767145 0.603823 0.194879
0.087977 0.268437 0.092781
0.090904 0.269392 0.092888
0.103238 0.266496 0.093059
0.117073 0.248226 0.092888
0.137485 0.229466 0.092784
0.158812 0.213898 0.092850
0.187795 0.204589 0.093146
0.223639 0.201934 0.093683
0.265542 0.205157 0.094760
0.323378 0.226742 0.096874
0.385528 0.252932 0.099121
0.427838 0.281366 0.101796
0.470142 0.309562 0.105150
0.508074 0.334978 0.108354
0.534089 0.360860 0.111397
0.558865 0.387025 0.114816
0.582434 0.407074 0.118572
0.604853 0.424399 0.122153
0.626193 0.441376 0.125567
0.646562 0.458041 0.129703
0.663517 0.474391 0.133747
0.674671 0.490418 0.137643
0.685238 0.506118 0.141564
0.695265 0.519886 0.146578
0.704796 0.530663 0.151459
0.713866 0.541124 0.156212
0.722511 0.551278 0.160837
0.730759 0.561134 0.165339
0.738603 0.570701 0.170952
0.745727 0.579986 0.176487
0.752542 0.588998 0.182413
0.759065 0.597743 0.188266
0.765313 0.606229 0.194011
0.096519 0.331438 0.095356
0.100228 0.332152 0.095480
0.110509 0.327263 0.095545
0.126772 0.312973 0.095340
0.147720 0.296226 0.095188
0.174153 0.278486 0.095191
0.205929 0.265224 0.095426
0.242441 0.257595 0.095931
0.283313 0.255674 0.096703
0.320342 0.258831 0.097695
0.372711 0.277218 0.099410
0.416953 0.302966 0.101946
0.457482 0.325953 0.105076
0.498087 0.350004 0.108125
0.524853 0.374789 0.111065
0.549582 0.398211 0.114271
0.573259 0.415198 0.117969
0.595899 0.431964 0.121520
0.617566 0.448509 0.124929
0.638305 0.464807 0.128890
0.658158 0.480833 0.132950
0.670207 0.496571 0.136869
0.681050 0.512012 0.140653
0.691340 0.523948 0.145584
0.701118 0.534539 0.150502
0.710422 0.544830 0.155293
0.719285 0.554828 0.159959
0.727736 0.564540 0.164502
0.735805 0.573973 0.169923
0.743216 0.583134 0.175502
0.750188 0.592030 0.181378
0.756857 0.600668 0.187277
0.763241 0.609053 0.193067
0.106324 0.391776 0.098137
0.109141 0.390210 0.098140
0.118007 0.381935 0.098026
0.136149 0.368867 0.097868
0.157905 0.353393 0.097733
0.188185 0.338103 0.097695
0.223227 0.325075 0.097814
0.260909 0.315629 0.098132
0.298495 0.310351 0.098663
0.333995 0.309229 0.099396
0.372316 0.311844 0.100319
0.409063 0.324546 0.102447
0.447536 0.345539 0.105312
0.486479 0.367899 0.108156
0.516709 0.391281 0.110944
0.541090 0.408435 0.113957
0.564627 0.424609 0.117551
0.587311 0.440743 0.121039
0.609132 0.456764 0.124410
0.630094 0.472612 0.128196
0.650218 0.488248 0.132242
0.665625 0.503643 0.136161
0.676706 0.517934 0.139954
0.687231 0.528594 0.144635
0.697237 0.538971 0.149573
0.706761 0.549068 0.154389
0.715834 0.558889 0.159084
0.724485 0.568438 0.163658
0.732743 0.577720 0.168876
0.740489 0.586741 0.174493
0.747621 0.595507 0.180310
0.754440 0.604023 0.186250
0.760966 0.612294 0.192082
0.114593 0.428433 0.100375
0.117082 0.427037 0.100343
0.128164 0.422283 0.100243
0.145340 0.414494 0.100112
0.170030 0.404761 0.099999
0.202289 0.394447 0.099945
0.239216 0.380277 0.100001
0.278329 0.368690 0.100205
0.312896 0.360535 0.100639
0.347890 0.356139 0.101489
0.385046 0.355424 0.102608
0.410352 0.358045 0.103948
0.440140 0.368247 0.105835
0.477264 0.388724 0.108448
0.509857 0.405163 0.111052
0.533685 0.420182 0.113915
0.556896 0.435449 0.117371
0.579417 0.450829 0.120756
0.601200 0.466211 0.124054
0.622224 0.481517 0.127674
0.642482 0.496684 0.131675
0.661078 0.511671 0.135566
0.672343 0.523445 0.139344
0.683060 0.533834 0.143785
0.693262 0.543967 0.148721
0.702981 0.553844 0.153544
0.712245 0.563464 0.158253
0.721083 0.572829 0.162846
0.729520 0.581943 0.167859
0.737580 0.590808 0.173501
0.744891 0.599428 0.179252
0.751860 0.607808 0.185224
0.758527 0.614909 0.191090
0.125072 0.462140 0.103414
0.128108 0.460956 0.103382
0.138245 0.456889 0.103279
0.154405 0.450090 0.103127
0.181860 0.441326 0.102976
0.215896 0.431649 0.102887
0.254018 0.422116 0.102921
0.292617 0.413624 0.103128
0.326383 0.406831 0.103544
0.361362 0.402136 0.104186
0.393362 0.399693 0.105055
0.417747 0.399455 0.106133
0.442750 0.401236 0.107393
0.470301 0.406470 0.108984
0.504446 0.419708 0.111395
0.527554 0.433536 0.114168
0.550259 0.447779 0.117452
0.572430 0.462281 0.120701
0.594001 0.476914 0.123894
0.614926 0.491577 0.127365
0.635178 0.506191 0.131289
0.654744 0.519315 0.135124
0.668083 0.529602 0.138863
0.678941 0.539680 0.143085
0.689297 0.549537 0.147995
0.699176 0.559164 0.152803
0.708604 0.568559 0.157507
0.717606 0.577719 0.162103
0.726206 0.586643 0.166915
0.734425 0.595334 0.172569
0.742053 0.603794 0.178246
0.749165 0.612025 0.184238
0.755969 0.617562 0.190129
0.136161 0.494429 0.106301
0.138911 0.493415 0.106277
0.148206 0.489905 0.106198
0.166476 0.483943 0.106079
0.193782 0.476075 0.105955
0.228959 0.467105 0.105872
0.267841 0.457903 0.105878
0.304504 0.449261 0.106015
0.338795 0.441811 0.106315
0.374032 0.436000 0.106799
0.401349 0.432100 0.107478
0.425153 0.430206 0.108349
0.449427 0.430268 0.109397
0.474259 0.432134 0.110600
0.499933 0.435844 0.111957
0.522691 0.448447 0.114707
0.544774 0.461589 0.117797
0.566461 0.475121 0.120885
0.587677 0.488908 0.123947
0.608364 0.502835 0.127298
0.628477 0.516517 0.131114
0.647989 0.526536 0.134865
0.664033 0.536423 0.138541
0.674974 0.546147 0.142575
0.685434 0.555690 0.147433
0.695433 0.565038 0.152204
0.704991 0.574179 0.156884
0.714129 0.583110 0.161465
0.722868 0.591825 0.166087
0.731227 0.600324 0.171735
0.739160 0.608606 0.177333
0.746404 0.615377 0.183332
0.753336 0.620481 0.189235
0.146960 0.522665 0.108964
0.149465 0.522036 0.108945
0.159144 0.519843 0.108885
0.178787 0.516064 0.108792
0.206662 0.509129 0.108692
0.241657 0.500887 0.108621
0.280915 0.492167 0.108615
0.315461 0.483656 0.108711
0.350234 0.475941 0.108936
0.385560 0.469479 0.109313
0.408949 0.464583 0.109854
0.432434 0.461428 0.110564
0.456208 0.460060 0.111437
0.480405 0.460426 0.112461
0.503674 0.462396 0.113909
0.519713 0.465796 0.115647
0.540406 0.476802 0.118394
0.561529 0.489314 0.121306
0.582291 0.502187 0.124217
0.602630 0.515305 0.127485
0.622493 0.524966 0.131169
0.641843 0.534477 0.134813
0.660273 0.543916 0.138401
0.671239 0.553246 0.142287
0.681753 0.562438 0.147068
0.691827 0.571472 0.151780
0.701477 0.580332 0.156414
0.710719 0.589008 0.160963
0.719569 0.597491 0.165421
0.728046 0.605778 0.171037
0.736165 0.613547 0.176577
0.743623 0.618681 0.182541
0.750671 0.623662 0.188442
0.158427 0.543819 0.111435
0.161558 0.543281 0.111421
0.172449 0.541396 0.111375
0.191198 0.538118 0.111304
0.219605 0.533633 0.111227
0.254213 0.528272 0.111170
0.291873 0.522436 0.111164
0.325763 0.516541 0.111237
0.360893 0.509133 0.111414
0.392697 0.502340 0.111716
0.416058 0.496794 0.112156
0.439388 0.492716 0.112742
0.462852 0.490217 0.113715
0.486595 0.489320 0.114911
0.507259 0.489968 0.116289
0.522882 0.492049 0.117828
0.538529 0.495419 0.119504
0.557582 0.504773 0.121947
0.577835 0.516438 0.124699
0.597752 0.525250 0.127926
0.617282 0.534169 0.131460
0.636380 0.543131 0.134976
0.655011 0.552082 0.138458
0.667798 0.560979 0.142245
0.678316 0.569784 0.146926
0.688421 0.578473 0.151556
0.698123 0.587022 0.156124
0.707433 0.595417 0.160621
0.716365 0.603646 0.165040
0.724932 0.611700 0.170505
0.733149 0.617266 0.176014
0.740866 0.622256 0.181898
0.748015 0.627104 0.187783
0.172568 0.563881 0.114078
0.175514 0.563417 0.114064
0.185808 0.561788 0.114018
0.205099 0.558934 0.113945
0.232664 0.554985 0.113866
0.266710 0.550191 0.113809
0.301709 0.544873 0.113807
0.335524 0.539374 0.113892
0.370844 0.534024 0.114093
0.399260 0.529113 0.114436
0.422624 0.524879 0.114939
0.445892 0.521500 0.115615
0.469183 0.519094 0.116470
0.492628 0.517717 0.117503
0.510850 0.517376 0.118707
0.526113 0.518032 0.120068
0.541370 0.519615 0.121570
0.556623 0.522033 0.123193
0.574249 0.527684 0.125376
0.593707 0.535802 0.128611
0.612849 0.544086 0.131983
0.631632 0.552473 0.135357
0.650018 0.560906 0.138717
0.664690 0.569337 0.142459
0.675167 0.577725 0.147020
0.685261 0.586038 0.151550
0.694977 0.594250 0.156033
0.704321 0.602339 0.160461
0.713303 0.610290 0.164823
0.721933 0.616301 0.170167
0.730223 0.621265 0.175628
0.738174 0.626100 0.181432
0.745406 0.630806 0.187284
0.186641 0.582925 0.117043
0.189419 0.582524 0.117032
0.200063 0.581109 0.116998
0.219092 0.578617 0.116946
0.245814 0.575136 0.116890
0.279169 0.570857 0.116853
0.311275 0.566035 0.116861
0.344834 0.560954 0.116941
0.380170 0.555894 0.117118
0.405292 0.551114 0.117414
0.428646 0.546836 0.117847
0.451891 0.543235 0.118430
0.475095 0.540441 0.119170
0.498360 0.538535 0.120071
0.514329 0.537553 0.121129
0.529301 0.537491 0.122336
0.544235 0.538313 0.123683
0.559151 0.539959 0.125153
0.574047 0.542352 0.126997
0.590434 0.547007 0.129519
0.609162 0.554659 0.132725
0.627591 0.562461 0.135950
0.645682 0.570358 0.139177
0.661936 0.578301 0.142934
0.672334 0.586247 0.147360
0.682380 0.594160 0.151771
0.692073 0.602009 0.156154
0.701419 0.609769 0.160496
0.710420 0.615865 0.164786
0.719086 0.620757 0.170042
0.727424 0.625540 0.175439
0.735444 0.630210 0.181165
0.742877 0.634763 0.186971
0.201663 0.601019 0.119839
0.204582 0.600670 0.119832
0.214886 0.599437 0.119808
0.233158 0.597254 0.119773
0.259019 0.594182 0.119737
0.290307 0.590367 0.119719
0.320617 0.586012 0.119739
0.353769 0.581349 0.119820
0.387542 0.576618 0.119983
0.410851 0.572045 0.120248
0.434153 0.567832 0.120630
0.457376 0.564146 0.121143
0.480536 0.561120 0.121794
0.502784 0.558847 0.122589
0.517607 0.557384 0.123526
0.532361 0.556750 0.124604
0.547040 0.556938 0.125822
0.561673 0.557914 0.127533
0.576277 0.559624 0.129390
0.590851 0.562004 0.131376
0.606163 0.565811 0.133668
0.624219 0.573034 0.136740
0.641986 0.580392 0.139829
0.659435 0.587837 0.143664
0.669828 0.595325 0.147943
0.679795 0.602820 0.152224
0.689436 0.610287 0.156493
0.698752 0.616046 0.160735
0.707746 0.620811 0.164940
0.716421 0.625494 0.170146
0.724783 0.630086 0.175463
0.732838 0.634580 0.181118
0.740455 0.638971 0.186861
0.217067 0.616385 0.122479
0.219851 0.616186 0.122474
0.229699 0.615485 0.122460
0.247244 0.614236 0.122438
0.272242 0.612208 0.122420
0.300208 0.608809 0.122419
0.329763 0.604887 0.122452
0.362385 0.600631 0.122538
0.392901 0.596246 0.122695
0.415994 0.591927 0.122939
0.439190 0.587855 0.123285
0.462366 0.584187 0.123746
0.485489 0.581051 0.124328
0.505903 0.578547 0.125039
0.520634 0.576740 0.125905
0.535229 0.575670 0.127149
0.549711 0.575348 0.128556
0.564119 0.575761 0.130118
0.578477 0.576879 0.131825
0.592795 0.578654 0.133663
0.607074 0.581033 0.135617
0.621460 0.584123 0.137712
0.638892 0.590951 0.140661
0.656046 0.597899 0.144638
0.667647 0.604924 0.148763
0.677510 0.611989 0.152906
0.687074 0.616933 0.157050
0.696336 0.621509 0.161182
0.705296 0.626037 0.165289
0.713956 0.630502 0.170488
0.722320 0.634894 0.175711
0.730390 0.639203 0.181303
0.738165 0.643425 0.186970
0.232371 0.626984 0.124974
0.235029 0.626812 0.124972
0.244450 0.626203 0.124964
0.261299 0.625116 0.124955
0.285357 0.623565 0.124953
0.309984 0.621606 0.124967
0.338730 0.619320 0.125013
0.370725 0.616807 0.125106
0.397964 0.614177 0.125261
0.420774 0.610793 0.125492
0.443805 0.606914 0.125821
0.466894 0.603338 0.126361
0.489967 0.600187 0.127041
0.508721 0.597558 0.127870
0.523385 0.595526 0.128850
0.537862 0.594138 0.129985
0.552197 0.593421 0.131272
0.566429 0.593379 0.132705
0.580587 0.593997 0.134278
0.594690 0.595247 0.135981
0.608745 0.597088 0.137802
0.622753 0.599474 0.139727
0.636705 0.602355 0.142041
0.653198 0.608431 0.145840
0.665776 0.614286 0.149809
0.675520 0.618604 0.153807
0.684987 0.622930 0.157820
0.694175 0.627244 0.161833
0.703082 0.631528 0.165942
0.711706 0.635768 0.171071
0.720051 0.639952 0.176190
0.728117 0.644071 0.181728
0.735909 0.648115 0.187307
0.247531 0.636979 0.127775
0.250071 0.636830 0.127774
0.259090 0.636300 0.127772
0.275274 0.635351 0.127774
0.295900 0.633992 0.127787
0.319621 0.632265 0.127824
0.347525 0.630233 0.127899
0.378818 0.627980 0.128028
0.402772 0.625597 0.128230
0.425237 0.623176 0.128519
0.448045 0.620810 0.128910
0.471000 0.618583 0.129416
0.493995 0.616570 0.130048
0.511264 0.614832 0.130813
0.525851 0.613422 0.131717
0.540238 0.612070 0.132762
0.554462 0.611061 0.133947
0.568558 0.610662 0.135271
0.582558 0.610873 0.136727
0.596484 0.611679 0.138310
0.610350 0.613017 0.140009
0.624163 0.614262 0.142135
0.637920 0.615826 0.144764
0.651617 0.617680 0.147522
0.664195 0.621111 0.151064
0.673810 0.625130 0.154916
0.683168 0.629175 0.158794
0.692267 0.633225 0.162683
0.701103 0.637263 0.166891
0.709675 0.641276 0.171894
0.717983 0.645248 0.176906
0.726028 0.649170 0.182397
0.733811 0.653032 0.187878
0.262504 0.646411 0.130655
0.264935 0.646281 0.130657
0.273576 0.645819 0.130662
0.288324 0.644990 0.130675
0.306272 0.643798 0.130703
0.329102 0.642276 0.130756
0.356146 0.640474 0.130846
0.386072 0.638459 0.130987
0.407354 0.636307 0.131194
0.429422 0.634099 0.131480
0.451952 0.631913 0.131858
0.474726 0.629823 0.132340
0.497605 0.627898 0.132936
0.513522 0.626196 0.133652
0.528035 0.624765 0.134493
0.542347 0.623643 0.135465
0.556483 0.622859 0.136566
0.570475 0.622427 0.137796
0.584352 0.622356 0.139152
0.598136 0.622642 0.140629
0.611846 0.623276 0.142695
0.625493 0.624240 0.145041
0.639080 0.625516 0.147533
0.652606 0.627077 0.150156
0.663541 0.628900 0.152900
0.672359 0.631864 0.156218
0.681601 0.635635 0.159960
0.690600 0.639426 0.163723
0.699354 0.643221 0.168079
0.707861 0.647005 0.172952
0.716119 0.650764 0.177936
0.724128 0.654486 0.183310
0.731888 0.658162 0.188685
0.277255 0.655316 0.133395
0.279582 0.655203 0.133398
0.287311 0.654800 0.133409
0.299280 0.654075 0.133432
0.316449 0.653030 0.133473
0.338411 0.651688 0.133541
0.364588 0.650092 0.133645
0.391007 0.648295 0.133798
0.411731 0.646361 0.134012
0.433360 0.644358 0.134298
0.455565 0.642353 0.134669
0.478109 0.640412 0.135134
0.500834 0.638596 0.135702
0.515512 0.636958 0.136379
0.529948 0.635545 0.137172
0.544190 0.634395 0.138084
0.558254 0.633535 0.139115
0.572163 0.632986 0.140268
0.585942 0.632759 0.141754
0.599614 0.632857 0.143667
0.613198 0.633277 0.145738
0.626706 0.634008 0.147961
0.640147 0.635035 0.150326
0.653524 0.636341 0.152825
0.664004 0.637904 0.155446
0.671945 0.639702 0.158177
0.680267 0.642279 0.161304
0.689161 0.645819 0.164940
0.697825 0.649375 0.169497
0.706257 0.652933 0.174236
0.714454 0.656479 0.179210
0.722415 0.660002 0.184462
0.730141 0.663491 0.189724
0.290430 0.663726 0.136000
0.292220 0.663627 0.136005
0.298574 0.663275 0.136021
0.309981 0.662642 0.136052
0.326409 0.661725 0.136105
0.347530 0.660545 0.136185
0.372843 0.659133 0.136303
0.395774 0.657535 0.136467
0.415920 0.655803 0.136689
0.437077 0.653995 0.136978
0.458914 0.652169 0.137345
0.481185 0.650382 0.137798
0.502797 0.648689 0.138346
0.517258 0.647138 0.138994
0.531606 0.645772 0.139748
0.545776 0.644628 0.140611
0.559773 0.643734 0.141821
0.573612 0.643112 0.143321
0.587313 0.642776 0.144979
0.600895 0.642733 0.146793
0.614377 0.642984 0.148759
0.627772 0.643524 0.150872
0.641091 0.644343 0.153125
0.654340 0.645429 0.155509
0.664417 0.646765 0.158015
0.672277 0.648332 0.160634
0.680033 0.650112 0.163355
0.687932 0.652373 0.166569
0.696502 0.655698 0.171130
0.704852 0.659036 0.175734
0.712980 0.662374 0.180720
0.720886 0.665699 0.185845
0.728568 0.669001 0.190990
0.301780 0.671670 0.138477
0.303481 0.671584 0.138482
0.309527 0.671277 0.138503
0.320408 0.670723 0.138542
0.336133 0.669920 0.138604
0.356440 0.668883 0.138697
0.380900 0.667638 0.138826
0.400376 0.666221 0.139002
0.419934 0.664676 0.139232
0.440593 0.663052 0.139525
0.462027 0.661400 0.139891
0.483986 0.659768 0.140337
0.504435 0.658205 0.140870
0.518779 0.656756 0.141696
0.533027 0.655459 0.142694
0.547118 0.654348 0.143834
0.561047 0.653453 0.145119
0.574823 0.652794 0.146553
0.588457 0.652388 0.148135
0.601966 0.652244 0.149865
0.615365 0.652367 0.151741
0.628668 0.652756 0.153757
0.641887 0.653406 0.155908
0.655028 0.654307 0.158189
0.664763 0.655447 0.160590
0.672553 0.656813 0.163104
0.680240 0.658387 0.165799
0.687825 0.660154 0.169293
0.695367 0.662164 0.172963
0.703632 0.665290 0.177493
0.711687 0.668425 0.182451
0.719531 0.671556 0.187450
0.727162 0.674675 0.192476
0.312777 0.679173 0.140830
0.314396 0.679098 0.140837
0.320156 0.678830 0.140861
0.330543 0.678347 0.140906
0.345602 0.677646 0.140983
0.365126 0.676736 0.141124
0.387407 0.675640 0.141318
0.404815 0.674388 0.141574
0.423779 0.673016 0.141903
0.443922 0.671565 0.142315
0.464926 0.670079 0.142821
0.486537 0.668601 0.143431
0.505889 0.667173 0.144154
0.520095 0.665834 0.144997
0.534228 0.664621 0.145968
0.548230 0.663565 0.147072
0.562088 0.662693 0.148312
0.575800 0.662027 0.149691
0.589373 0.661583 0.151210
0.602819 0.661374 0.152869
0.616150 0.661405 0.154666
0.629378 0.661679 0.156598
0.642514 0.662194 0.158660
0.655566 0.662944 0.160848
0.665030 0.663921 0.163155
0.672759 0.665113 0.165607
0.680386 0.666507 0.168855
0.687912 0.668090 0.172240
0.695338 0.669847 0.175755
0.702664 0.671764 0.179642
0.710562 0.674608 0.184392
0.718340 0.677552 0.189265
0.725915 0.680491 0.194171
0.323414 0.686092 0.143863
0.324956 0.686032 0.143874
0.330449 0.685818 0.143911
0.340373 0.685430 0.143982
0.354800 0.684867 0.144092
0.373572 0.684133 0.144247
0.392318 0.683172 0.144456
0.409090 0.682069 0.144727
0.427461 0.680857 0.145069
0.447075 0.679568 0.145491
0.467626 0.678241 0.146004
0.488863 0.676912 0.146615
0.507176 0.675619 0.147332
0.521226 0.674397 0.148163
0.535228 0.673278 0.149114
0.549129 0.672292 0.150189
0.562906 0.671463 0.151393
0.576552 0.670813 0.152727
0.590066 0.670359 0.154194
0.603454 0.670113 0.155792
0.616726 0.670083 0.157522
0.629890 0.670274 0.159381
0.642958 0.670686 0.161366
0.655936 0.671316 0.163472
