negative-portra-400/Portra400_Modern_ExtraSoft.cube
TITLE "Kodak Portra 400 Modern ExtraSoft"
# Adobe RGB in/out. REPLACES AgX. Kodak Portra 400 Modern ExtraSoft.
LUT_3D_SIZE 9
DOMAIN_MIN 0.0 0.0 0.0
DOMAIN_MAX 1.0 1.0 1.0
0.055943 0.062712 0.078815
0.131267 0.085887 0.085778
0.390616 0.139953 0.096277
0.535484 0.256096 0.108582
0.623377 0.376202 0.122312
0.681593 0.454621 0.137401
0.717724 0.518782 0.155289
0.747587 0.560773 0.174774
0.772053 0.597732 0.197350
0.069030 0.108631 0.084599
0.103668 0.103009 0.085805
0.313088 0.152633 0.094232
0.512511 0.272216 0.106829
0.608637 0.387496 0.120828
0.675568 0.460616 0.136093
0.713578 0.522358 0.153992
0.744774 0.563736 0.173521
0.769975 0.600253 0.196279
0.096519 0.331438 0.095356
0.147720 0.296226 0.095188
0.283313 0.255674 0.096703
0.457482 0.325953 0.105076
0.573259 0.415198 0.117969
0.658158 0.480833 0.132950
0.701118 0.534539 0.150502
0.735805 0.573973 0.169923
0.763241 0.609053 0.193067
0.136161 0.494429 0.106301
0.193782 0.476075 0.105955
0.338795 0.441811 0.106315
0.449427 0.430268 0.109397
0.544774 0.461589 0.117797
0.628477 0.516517 0.131114
0.685434 0.555690 0.147433
0.722868 0.591825 0.166087
0.753336 0.620481 0.189235
0.186641 0.582925 0.117043
0.245814 0.575136 0.116890
0.380170 0.555894 0.117118
0.475095 0.540441 0.119170
0.544235 0.538313 0.123683
0.609162 0.554659 0.132725
0.672334 0.586247 0.147360
0.710420 0.615865 0.164786
0.742877 0.634763 0.186971
0.247531 0.636979 0.127775
0.295900 0.633992 0.127787
0.402772 0.625597 0.128230
0.493995 0.616570 0.130048
0.554462 0.611061 0.133947
0.610350 0.613017 0.140009
0.664195 0.621111 0.151064
0.701103 0.637263 0.166891
0.733811 0.653032 0.187878
0.301780 0.671670 0.138477
0.336133 0.669920 0.138604
0.419934 0.664676 0.139232
0.504435 0.658205 0.140870
0.561047 0.653453 0.145119
0.615365 0.652367 0.151741
0.664763 0.655447 0.160590
0.695367 0.662164 0.172963
0.727162 0.674675 0.192476
0.343573 0.696666 0.149611
0.372327 0.695978 0.149882
0.434348 0.693841 0.150962
0.509318 0.690498 0.153268
0.563934 0.687357 0.157199
0.617250 0.686154 0.162987
0.665249 0.687548 0.172143
0.695041 0.691543 0.185048
0.723266 0.696416 0.201080
0.379276 0.711587 0.159508
0.396931 0.711233 0.159841
0.446213 0.710122 0.161080
0.512141 0.708622 0.163499
0.563929 0.707378 0.167877
0.615944 0.707011 0.174867
0.664014 0.707921 0.184712
0.693445 0.710237 0.197070
0.721326 0.713851 0.213939
0.057391 0.077542 0.149404
0.137534 0.094116 0.151380
0.390626 0.147530 0.155146
0.529522 0.255531 0.158880
0.616785 0.371803 0.168156
0.678340 0.451432 0.182401
0.715380 0.516959 0.199128
0.745995 0.559449 0.219391
0.770913 0.596813 0.239834
0.067803 0.107466 0.129775
0.089861 0.095143 0.111023
0.298832 0.151174 0.132840
0.504576 0.266428 0.148165
0.601478 0.381262 0.161983
0.672252 0.457022 0.177668
0.711227 0.520418 0.195852
0.743188 0.562364 0.216803
0.768844 0.599315 0.237942
0.092725 0.314904 0.149985
0.136818 0.270841 0.136780
0.250097 0.230603 0.124359
0.440749 0.311491 0.133713
0.565199 0.408199 0.149692
0.652531 0.476206 0.166583
0.698778 0.532288 0.187119
0.734165 0.572468 0.209171
0.762147 0.608061 0.232146
0.131191 0.482463 0.155633
0.184059 0.464604 0.149678
0.323053 0.430187 0.138741
0.436194 0.419087 0.135283
0.537916 0.453999 0.142709
0.623325 0.511544 0.159042
0.683233 0.553212 0.178019
0.721335 0.590216 0.200191
0.752322 0.619814 0.224736
0.181899 0.577727 0.160775
0.238960 0.570048 0.158173
0.371501 0.550874 0.151930
0.467876 0.535341 0.147586
0.539324 0.533636 0.148687
0.605303 0.551418 0.157338
0.670507 0.583936 0.173884
0.709104 0.614861 0.194882
0.742000 0.634137 0.219021
0.243669 0.634972 0.166720
0.292196 0.632013 0.165292
0.399529 0.623662 0.162321
0.490012 0.614638 0.159952
0.551650 0.608185 0.160477
0.607621 0.610525 0.164769
0.662913 0.619986 0.175478
0.700111 0.636472 0.194586
0.733092 0.652531 0.217382
0.299589 0.670503 0.174259
0.333711 0.668769 0.173686
0.418009 0.663562 0.172230
0.502988 0.657126 0.171355
0.559476 0.652413 0.172741
0.613778 0.651415 0.177484
0.663887 0.654662 0.186486
0.694728 0.661670 0.199168
0.726684 0.674363 0.220579
0.342137 0.696220 0.181938
0.370784 0.695538 0.181835
0.433212 0.693419 0.181747
0.508492 0.689969 0.182496
0.563072 0.686865 0.185116
0.616389 0.685715 0.190396
0.664769 0.687190 0.198791
0.694651 0.691294 0.212024
0.722988 0.696321 0.228412
0.378409 0.711374 0.189002
0.396348 0.711025 0.189198
0.445581 0.709926 0.190023
0.511702 0.708446 0.191953
0.563490 0.707228 0.195563
0.615526 0.706893 0.201906
0.663795 0.707845 0.211603
0.693284 0.710214 0.224312
0.721237 0.713885 0.239865
0.058808 0.102368 0.393866
0.137746 0.117708 0.395255
0.398447 0.182527 0.400209
0.538902 0.296757 0.389916
0.615706 0.387238 0.370014
0.675506 0.455046 0.363724
0.712157 0.517343 0.364832
0.743190 0.558969 0.369557
0.768555 0.596140 0.376280
0.071600 0.152453 0.395084
0.141996 0.167707 0.388923
0.354442 0.207423 0.349022
0.510057 0.297567 0.341158
0.598663 0.392226 0.343757
0.668973 0.459145 0.349133
0.707829 0.520271 0.355911
0.740324 0.561626 0.363732
0.766471 0.598517 0.372301
0.086749 0.279063 0.310936
0.121741 0.246020 0.266382
0.193913 0.189740 0.190452
0.425675 0.306832 0.244730
0.556663 0.405950 0.284182
0.644835 0.473747 0.310933
0.694849 0.530520 0.330443
0.730959 0.570938 0.346172
0.759742 0.606878 0.359870
0.120524 0.459044 0.330534
0.165082 0.443619 0.307454
0.293177 0.410224 0.256437
0.408566 0.397729 0.225700
0.524805 0.441899 0.244160
0.613446 0.503642 0.275083
0.678746 0.549458 0.301791
0.717968 0.587689 0.324070
0.749924 0.618733 0.343030
0.170260 0.565644 0.332605
0.222529 0.558540 0.320913
0.351397 0.540105 0.290385
0.450873 0.524243 0.261229
0.527238 0.522971 0.247948
0.596131 0.544555 0.258367
0.666097 0.579125 0.282637
0.705849 0.612724 0.306208
0.739750 0.632875 0.327736
0.233222 0.629790 0.327101
0.281541 0.626970 0.321080
0.390917 0.618890 0.303831
0.479590 0.608354 0.284065
0.544159 0.601069 0.270578
0.600192 0.604114 0.267267
0.659330 0.617274 0.276276
0.697414 0.634584 0.297149
0.731104 0.651370 0.318191
0.293209 0.667280 0.319508
0.326688 0.665612 0.316439
0.412474 0.660572 0.307197
0.497576 0.654281 0.295583
0.555007 0.649671 0.286477
0.609215 0.648873 0.283141
0.661329 0.652544 0.286564
0.692886 0.660418 0.296581
0.725286 0.673601 0.315591
0.337742 0.694932 0.311609
0.366073 0.694274 0.310160
0.429758 0.692121 0.305712
0.506026 0.688496 0.299982
0.560483 0.685514 0.295560
0.613797 0.684512 0.294597
0.663311 0.686211 0.298243
0.693458 0.690631 0.306625
0.722133 0.696096 0.319147
0.375652 0.710748 0.303800
0.394495 0.710412 0.303280
0.443582 0.709360 0.301737
0.510318 0.707949 0.300006
0.562112 0.706815 0.299432
0.614219 0.706580 0.301295
0.663107 0.707660 0.306452
0.692776 0.710187 0.315234
0.720956 0.714040 0.327491
0.060429 0.148039 0.580122
0.138136 0.167185 0.580515
0.398639 0.244555 0.581918
0.552979 0.358324 0.584474
0.630073 0.424898 0.558177
0.678665 0.475902 0.532906
0.712357 0.526107 0.518953
0.742097 0.563958 0.510384
0.766989 0.599044 0.504589
0.072036 0.212229 0.580466
0.145270 0.234194 0.580858
0.402224 0.305369 0.582259
0.538417 0.375231 0.565023
0.612124 0.425591 0.535775
0.671696 0.478252 0.520320
0.707771 0.528264 0.511370
0.739106 0.566178 0.505543
0.764848 0.601176 0.501358
0.087545 0.321888 0.512397
0.133700 0.314276 0.495848
0.294678 0.316730 0.469199
0.458589 0.365847 0.467833
0.564775 0.428767 0.477683
0.646258 0.486815 0.484806
0.693833 0.535945 0.488729
0.729209 0.574051 0.490514
0.757929 0.608738 0.491051
0.112789 0.443586 0.487625
0.151169 0.432211 0.472513
0.271387 0.403721 0.419647
0.376482 0.370680 0.359361
0.519098 0.443522 0.407026
0.608882 0.506315 0.437470
0.676082 0.550879 0.457656
0.715488 0.588629 0.470397
0.747836 0.619170 0.476432
0.156959 0.553208 0.491262
0.204252 0.547182 0.482585
0.330121 0.530615 0.453511
0.432611 0.513674 0.415672
0.513043 0.510660 0.393936
0.586968 0.539710 0.407195
0.661922 0.576596 0.429020
0.702710 0.611480 0.446473
0.737420 0.632551 0.459390
0.219912 0.623700 0.487211
0.265891 0.621168 0.482331
0.377630 0.613737 0.466775
0.467032 0.600985 0.441307
0.534933 0.593521 0.420466
0.590800 0.597064 0.410717
0.652606 0.614815 0.416652
0.694257 0.633085 0.431861
0.728761 0.650641 0.445446
0.284271 0.663239 0.478118
0.317064 0.661704 0.475388
0.404979 0.657017 0.465770
0.489089 0.651055 0.449837
0.549148 0.646613 0.434924
0.603157 0.645984 0.425184
0.656684 0.650131 0.422331
0.690497 0.659259 0.426873
0.723461 0.673032 0.438592
0.331356 0.693253 0.465576
0.359250 0.692641 0.463584
0.424793 0.690129 0.457205
0.502534 0.686733 0.448070
0.556869 0.683937 0.438975
0.610186 0.683065 0.432455
0.661259 0.685129 0.430018
0.691765 0.689961 0.431927
0.720942 0.695988 0.437498
0.371463 0.709930 0.448823
0.391676 0.709620 0.447864
0.440561 0.708650 0.444771
0.508250 0.707361 0.440304
0.560075 0.706365 0.435902
0.612301 0.706282 0.433023
0.662095 0.707543 0.432699
0.692028 0.710295 0.435357
0.720541 0.714408 0.440836
0.061773 0.237676 0.672107
0.138717 0.258248 0.672286
0.398927 0.323469 0.672927
0.553085 0.409647 0.674100
0.651823 0.478787 0.671158
0.686713 0.513150 0.645148
0.716393 0.544005 0.625916
0.743497 0.575695 0.612897
0.767003 0.606818 0.603327
0.072655 0.300021 0.672264
0.145828 0.315799 0.672443
0.402509 0.368974 0.673083
0.554407 0.435739 0.674255
0.634497 0.477884 0.659050
0.679703 0.514159 0.635349
0.711660 0.545433 0.619809
0.740393 0.577429 0.608943
0.764793 0.608642 0.600677
0.095676 0.423806 0.665596
0.161531 0.423064 0.660269
0.372525 0.426475 0.642531
0.507939 0.443798 0.625315
0.587072 0.476053 0.613768
0.658315 0.517454 0.606387
0.697027 0.550608 0.601008
0.730099 0.583648 0.596420
0.757620 0.614394 0.592109
0.111979 0.458527 0.599940
0.152138 0.453015 0.592836
0.295694 0.441674 0.571642
0.430908 0.445736 0.550708
0.535532 0.479703 0.554395
0.616101 0.524889 0.565964
0.677543 0.561096 0.574394
0.715419 0.595459 0.578707
0.747065 0.622246 0.579598
0.148567 0.546527 0.590855
0.190347 0.541928 0.585296
0.316009 0.528648 0.562420
0.422303 0.512377 0.527944
0.497475 0.498137 0.496441
0.583619 0.542951 0.522052
0.660454 0.580418 0.540500
0.701269 0.614142 0.552644
0.735985 0.634301 0.559856
0.206672 0.618531 0.588589
0.250450 0.616396 0.585151
0.361699 0.608364 0.571669
0.455370 0.596206 0.548423
0.525993 0.588042 0.526697
0.580937 0.591055 0.514953
0.646672 0.613894 0.522685
0.691704 0.633192 0.535058
0.726866 0.651257 0.544415
0.272291 0.659379 0.582642
0.306496 0.658035 0.580590
0.396821 0.653877 0.571110
0.480140 0.648448 0.556231
0.543040 0.644239 0.541066
0.596704 0.643630 0.529766
0.650472 0.648151 0.524881
0.688088 0.658841 0.528121
0.721667 0.673210 0.535940
0.323918 0.691273 0.570657
0.351329 0.690548 0.568829
0.419058 0.688273 0.562808
0.497111 0.685219 0.553756
0.552852 0.682609 0.544070
0.606197 0.681975 0.536093
0.658486 0.684384 0.531447
0.689865 0.689643 0.530614
0.719811 0.696339 0.533269
0.366380 0.709147 0.553958
0.388247 0.708874 0.552972
0.436916 0.708022 0.549726
0.505805 0.706904 0.544799
0.557684 0.706095 0.539429
0.610079 0.706201 0.534949
0.660929 0.707667 0.532379
0.691168 0.710669 0.532192
0.720075 0.715077 0.534267
0.063737 0.340992 0.734253
0.139499 0.355652 0.734372
0.399316 0.402063 0.734802
0.553228 0.456681 0.735589
0.658906 0.522634 0.736759
0.696421 0.548502 0.717055
0.722790 0.569117 0.696193
0.746918 0.593543 0.681205
0.768543 0.617166 0.669929
0.073435 0.385319 0.734358
0.146578 0.397535 0.734477
0.402893 0.428752 0.734906
0.554550 0.479532 0.735693
0.656550 0.533413 0.734537
0.689715 0.548542 0.709361
0.718093 0.569969 0.691183
0.743774 0.594836 0.677869
0.766287 0.618146 0.667658
0.098666 0.478885 0.734734
0.175657 0.485990 0.734853
0.415405 0.510464 0.735281
0.537425 0.517700 0.717251
0.611806 0.529944 0.699837
0.669422 0.549209 0.686012
0.703373 0.573207 0.675448
0.733433 0.599544 0.667149
0.758918 0.621676 0.660240
0.118173 0.510406 0.685962
0.169121 0.508909 0.682773
0.339219 0.507363 0.673910
0.475611 0.514416 0.664542
0.560995 0.529845 0.658308
0.632607 0.553009 0.654262
0.683095 0.580312 0.651699
0.718061 0.608753 0.649015
0.747925 0.628306 0.645672
0.146124 0.553301 0.658436
0.187553 0.550548 0.654058
0.319414 0.542954 0.640759
0.436419 0.536570 0.624289
0.523942 0.541741 0.614699
0.595259 0.564258 0.617294
0.663751 0.594116 0.623408
0.702523 0.620350 0.627816
0.736126 0.638752 0.629813
0.196334 0.616368 0.650086
0.238611 0.614709 0.646855
0.350366 0.607837 0.636480
0.448496 0.597730 0.621364
0.521294 0.589593 0.605394
0.571262 0.586746 0.591767
0.644685 0.616739 0.603433
0.690927 0.636227 0.611673
0.726071 0.653944 0.616819
0.260964 0.656638 0.644124
0.296465 0.655520 0.642062
0.389154 0.652018 0.635324
0.472093 0.647314 0.625206
0.537704 0.643432 0.614213
0.590749 0.642511 0.605031
0.644252 0.646953 0.600555
0.686051 0.659626 0.604028
0.720289 0.674587 0.609047
0.316224 0.689523 0.635295
0.343153 0.688908 0.634049
0.413153 0.686969 0.629930
0.490872 0.684351 0.623602
0.548891 0.682065 0.616514
0.602296 0.681663 0.610253
0.654691 0.684256 0.606131
0.687937 0.689886 0.604820
0.718751 0.697169 0.606398
0.360860 0.708583 0.623898
0.384273 0.708355 0.623198
0.432967 0.707647 0.620870
0.503183 0.706740 0.617247
0.555169 0.706159 0.613127
0.607783 0.706478 0.609426
0.659734 0.708156 0.606907
0.690294 0.711406 0.605986
0.719624 0.716116 0.606602
0.065399 0.425729 0.780306
0.140489 0.433982 0.780365
0.399810 0.462074 0.780577
0.553410 0.508657 0.780967
0.659022 0.553960 0.781548
0.705251 0.586498 0.773818
0.729694 0.598676 0.754010
0.751332 0.614871 0.734434
0.771092 0.627915 0.719322
0.074576 0.450627 0.780357
0.147529 0.458304 0.780417
0.403381 0.484598 0.780629
0.554731 0.525032 0.781019
0.659796 0.566101 0.781599
0.699024 0.586018 0.768478
0.725173 0.599078 0.748795
0.748226 0.615471 0.730871
0.768828 0.628699 0.716854
0.099696 0.524624 0.780544
0.176835 0.529110 0.780603
0.415873 0.544574 0.780815
0.559070 0.570362 0.780990
0.632854 0.574626 0.765574
0.679903 0.585081 0.748295
0.710851 0.600841 0.732238
0.738176 0.617714 0.719322
0.761390 0.631554 0.708738
0.129224 0.560571 0.757367
0.191125 0.560227 0.754806
0.381077 0.560164 0.746894
0.508322 0.563280 0.736125
0.584062 0.571961 0.725445
0.651089 0.586494 0.716297
0.690671 0.605561 0.708742
0.722595 0.622310 0.702286
0.750142 0.637041 0.696424
0.150385 0.576997 0.713198
0.196819 0.575882 0.711024
0.339496 0.573304 0.704394
0.462120 0.573096 0.695991
0.545679 0.579773 0.689402
0.613103 0.594869 0.686134
0.670616 0.614961 0.684992
0.706265 0.630413 0.684221
0.737866 0.645928 0.682881
0.191780 0.619673 0.696132
0.233890 0.618582 0.694159
0.348169 0.615290 0.687782
0.451365 0.610572 0.678494
0.528384 0.608080 0.669328
0.588248 0.614486 0.664524
0.652348 0.627439 0.666034
0.693011 0.643430 0.669123
0.726821 0.659196 0.671103
0.252029 0.656104 0.689291
0.288568 0.655238 0.687881
0.382479 0.652507 0.683214
0.466709 0.648797 0.676003
0.534812 0.645658 0.667773
0.587767 0.644609 0.660102
0.638317 0.646727 0.652422
0.685390 0.662793 0.659637
0.719859 0.677770 0.663226
0.309065 0.688704 0.682725
0.335563 0.688209 0.681828
0.407695 0.686646 0.678832
0.485276 0.684535 0.674131
0.545483 0.682747 0.668678
0.599026 0.682574 0.663581
0.651320 0.685043 0.659873
0.686099 0.690818 0.658281
0.717890 0.698585 0.660140
0.355335 0.708406 0.674363
0.378497 0.708228 0.673839
0.429017 0.707680 0.672085
0.500259 0.707011 0.669312
0.552733 0.706685 0.666078
0.605612 0.707232 0.663063
0.657914 0.709107 0.660875
0.689488 0.712576 0.659911
0.719247 0.717576 0.660183
0.067058 0.493393 0.814151
0.141691 0.500232 0.814195
0.400412 0.521584 0.814353
0.553632 0.550145 0.814643
0.659162 0.587628 0.815076
0.711967 0.620827 0.812480
0.735752 0.624193 0.792691
0.755714 0.631092 0.776775
0.773967 0.640364 0.763991
0.076153 0.514166 0.814189
0.148683 0.519284 0.814233
0.403976 0.535365 0.814391
0.554952 0.562464 0.814682
0.659880 0.598343 0.815114
0.706288 0.620246 0.807378
0.731485 0.624212 0.789099
0.752708 0.631478 0.774235
0.771732 0.640972 0.762185
0.100931 0.562113 0.814328
0.178271 0.565977 0.814372
0.416445 0.579404 0.814530
0.559624 0.602470 0.814820
0.648517 0.616295 0.807153
0.688602 0.618779 0.791337
0.717843 0.624564 0.777532
0.742910 0.633004 0.765918
0.764354 0.643225 0.754427
0.139124 0.609528 0.802998
0.212700 0.609133 0.801317
0.404304 0.608378 0.795834
0.526429 0.609010 0.787540
0.602559 0.612962 0.778127
0.664439 0.618339 0.768945
0.698250 0.626365 0.760656
0.727757 0.636412 0.750385
0.753063 0.647698 0.741200
0.159515 0.611154 0.766665
0.212994 0.610791 0.765533
0.364677 0.610203 0.761920
0.486565 0.611380 0.755204
0.563726 0.615314 0.747516
0.629665 0.621971 0.740866
0.678217 0.631495 0.735434
0.711185 0.642910 0.730763
0.740491 0.655209 0.726324
0.194359 0.629737 0.740820
0.237757 0.629193 0.739350
0.356177 0.627687 0.734603
0.462728 0.626479 0.727751
0.540679 0.627568 0.721010
0.602980 0.632668 0.716389
0.662239 0.641955 0.714337
0.697135 0.653903 0.713623
0.728891 0.666765 0.712874
0.247157 0.658946 0.728140
0.284254 0.658356 0.726936
0.378624 0.656527 0.722929
0.465901 0.654187 0.716704
0.536330 0.652692 0.709644
0.592374 0.653711 0.703520
0.648577 0.659446 0.700584
0.687917 0.670506 0.701510
0.720829 0.683284 0.703085
0.303250 0.689317 0.720295
0.329430 0.688948 0.719472
0.403366 0.687788 0.716703
0.481131 0.686257 0.712296
0.543280 0.685156 0.707061
0.597315 0.685375 0.701969
0.649672 0.687664 0.697875
0.684439 0.692526 0.695389
0.717586 0.700873 0.698139
0.350228 0.708785 0.711977
0.373163 0.708657 0.711480
0.425372 0.708277 0.709806
0.496575 0.707858 0.707131
0.550588 0.707804 0.703957
0.603783 0.708585 0.700922
0.656415 0.710632 0.698633
0.688834 0.714250 0.697553
0.718996 0.719499 0.697840
0.069205 0.547756 0.840314
0.143107 0.551843 0.840336
0.401126 0.566004 0.840415
0.553896 0.590203 0.840560
0.659330 0.619360 0.840777
0.715759 0.644324 0.841069
0.740118 0.644597 0.825208
0.759334 0.647831 0.808119
0.776555 0.653703 0.793668
0.077857 0.560189 0.840333
0.150044 0.564082 0.840355
0.404681 0.577604 0.840434
0.555213 0.600818 0.840579
0.659981 0.625491 0.840796
0.711086 0.644041 0.838221
0.736267 0.644415 0.821939
0.756465 0.648035 0.805595
0.774380 0.654154 0.791838
0.102365 0.600514 0.840402
0.179970 0.603863 0.840424
0.417122 0.614660 0.840503
0.559881 0.627854 0.840649
0.658777 0.642626 0.839230
0.694930 0.641910 0.825778
0.723452 0.644096 0.810730
0.747053 0.648943 0.797275
0.767163 0.655870 0.785738
0.146767 0.640272 0.838247
0.229181 0.639886 0.837180
0.419873 0.638804 0.833448
0.539257 0.637825 0.825272
0.616265 0.638048 0.815106
0.672265 0.640279 0.804238
0.704706 0.644774 0.793917
0.732536 0.651321 0.784559
0.755999 0.659435 0.776217
0.170872 0.635838 0.803566
0.229638 0.635716 0.802568
0.386883 0.635524 0.799252
0.504799 0.635976 0.794065
0.578058 0.637969 0.787929
0.643359 0.642078 0.781670
0.685010 0.648355 0.775756
0.716044 0.656425 0.770308
0.743346 0.665713 0.765246
0.202033 0.644854 0.778381
0.247491 0.644646 0.777605
0.369817 0.644169 0.775053
0.476523 0.644210 0.771188
0.552249 0.645893 0.766923
0.615290 0.650064 0.763063
0.668665 0.656856 0.759788
0.701606 0.665707 0.756090
0.731490 0.675756 0.752666
0.247170 0.665810 0.764603
0.284656 0.665488 0.763932
0.380680 0.664549 0.761697
0.469826 0.663609 0.757337
0.541373 0.663765 0.751721
0.600116 0.666234 0.746842
0.657299 0.671847 0.743690
0.691589 0.680365 0.742199
0.722674 0.690013 0.741332
0.299512 0.691840 0.755575
0.325543 0.691598 0.754854
0.400805 0.690861 0.752418
0.479192 0.689983 0.748513
0.542892 0.689635 0.743842
0.598100 0.690614 0.739307
0.651960 0.693425 0.735840
0.687141 0.697969 0.734389
0.718372 0.704466 0.734722
0.345932 0.709877 0.746654
0.368683 0.709799 0.746199
0.422328 0.709584 0.744659
0.493587 0.709418 0.742179
0.548950 0.709643 0.739198
0.602535 0.710670 0.736295
0.655549 0.712880 0.734038
0.688503 0.716570 0.732894
0.718919 0.721917 0.733181
