negative-portra-400/Portra400_Modern_Normal.cube
TITLE "Kodak Portra 400 Modern Normal"
# Adobe RGB in/out. REPLACES AgX. Kodak Portra 400 Modern Normal.
LUT_3D_SIZE 33
DOMAIN_MIN 0.0 0.0 0.0
DOMAIN_MAX 1.0 1.0 1.0
0.071730 0.071698 0.087030
0.077478 0.075978 0.088048
0.079131 0.076966 0.088179
0.091146 0.080217 0.088601
0.151126 0.084835 0.089152
0.199982 0.087537 0.089548
0.315590 0.094068 0.090276
0.455249 0.101202 0.090961
0.526032 0.104475 0.091327
0.614513 0.111214 0.092053
0.710820 0.123734 0.093327
0.757599 0.132107 0.094228
0.792099 0.138605 0.095119
0.823512 0.148392 0.096383
0.851339 0.163107 0.098336
0.869014 0.171179 0.099909
0.880005 0.178696 0.101661
0.890004 0.189522 0.103825
0.899018 0.203182 0.107875
0.906730 0.208888 0.110667
0.911802 0.214817 0.113809
0.914975 0.221914 0.118638
0.918005 0.227251 0.124422
0.920980 0.226323 0.129851
0.922805 0.226257 0.139182
0.924267 0.224583 0.153054
0.926643 0.210007 0.182234
0.927051 0.213400 0.301551
0.930024 0.252919 0.669438
0.928131 0.248865 0.662242
0.926246 0.244953 0.655165
0.924367 0.241116 0.648174
0.924890 0.474262 0.750149
0.073333 0.080288 0.087787
0.075519 0.079196 0.087860
0.079965 0.077755 0.087949
0.094204 0.081007 0.088553
0.152855 0.085691 0.089167
0.197978 0.088200 0.089553
0.306894 0.094762 0.090276
0.441852 0.101758 0.090962
0.513064 0.105104 0.091327
0.602550 0.111868 0.092049
0.702792 0.124578 0.093320
0.752137 0.132865 0.094215
0.787486 0.139287 0.095108
0.820511 0.149240 0.096370
0.849010 0.163939 0.098322
0.867699 0.171964 0.099891
0.878931 0.179537 0.101639
0.889126 0.190416 0.103803
0.898296 0.204075 0.107833
0.906123 0.209753 0.110622
0.911478 0.215662 0.113759
0.914699 0.222749 0.118559
0.917769 0.228082 0.124325
0.920775 0.227145 0.129690
0.922627 0.227062 0.138949
0.924111 0.225362 0.152629
0.926504 0.210671 0.181020
0.926931 0.213496 0.296733
0.929922 0.252704 0.669050
0.928038 0.248670 0.661890
0.926160 0.244777 0.654845
0.924288 0.240957 0.647883
0.924818 0.474050 0.749931
0.073635 0.082168 0.087896
0.074418 0.081996 0.088085
0.076412 0.080769 0.088012
0.084116 0.083054 0.088454
0.115514 0.088465 0.089122
0.170238 0.090823 0.089519
0.273516 0.097556 0.090278
0.407369 0.104798 0.090998
0.473757 0.108365 0.091344
0.564524 0.114590 0.092058
0.675432 0.127998 0.093304
0.732881 0.135864 0.094183
0.770964 0.141941 0.095079
0.809640 0.152503 0.096330
0.840544 0.167104 0.098281
0.861395 0.174926 0.099831
0.875026 0.182907 0.101569
0.885941 0.193756 0.103729
0.895685 0.207399 0.107691
0.903932 0.212962 0.110469
0.910310 0.218787 0.113587
0.913709 0.225831 0.118283
0.916920 0.231146 0.123986
0.920040 0.230170 0.129155
0.921989 0.230026 0.138141
0.923553 0.228236 0.151162
0.926007 0.213165 0.176903
0.926498 0.214059 0.279690
0.929556 0.251938 0.667664
0.927704 0.247975 0.660632
0.925854 0.244148 0.653702
0.924007 0.240389 0.646842
0.924558 0.473287 0.749153
0.075010 0.091587 0.088312
0.075363 0.091434 0.088440
0.077052 0.090150 0.088568
0.080058 0.088228 0.088593
0.092749 0.094021 0.089159
0.116307 0.095549 0.089523
0.193429 0.101537 0.090253
0.320910 0.110655 0.090995
0.406694 0.113945 0.091363
0.503717 0.121595 0.092099
0.622215 0.135649 0.093321
0.691334 0.142666 0.094179
0.741143 0.149438 0.095062
0.785011 0.159469 0.096294
0.824381 0.173711 0.098234
0.848215 0.181693 0.099753
0.867605 0.189889 0.101469
0.879923 0.200465 0.103619
0.890787 0.214009 0.107467
0.899840 0.219297 0.110219
0.907174 0.224919 0.113302
0.911876 0.231849 0.117820
0.915355 0.237552 0.123410
0.918687 0.236347 0.128404
0.920818 0.236045 0.136767
0.922529 0.233836 0.148690
0.925098 0.218195 0.170238
0.925708 0.216004 0.252222
0.928893 0.250556 0.665156
0.927096 0.246716 0.658352
0.925297 0.243009 0.651629
0.923495 0.239364 0.644952
0.924086 0.471896 0.747739
0.076937 0.113446 0.088992
0.077210 0.113229 0.089142
0.078689 0.112349 0.089304
0.082432 0.108936 0.089442
0.088855 0.104775 0.089580
0.099249 0.101739 0.089640
0.137576 0.108763 0.090276
0.227140 0.120009 0.091005
0.313272 0.123292 0.091392
0.418269 0.130654 0.092151
0.548779 0.145213 0.093391
0.633239 0.153486 0.094246
0.694165 0.160296 0.095097
0.748284 0.170970 0.096315
0.796480 0.187599 0.098230
0.827259 0.195081 0.099714
0.851052 0.202143 0.101391
0.870394 0.212020 0.103512
0.883128 0.225223 0.107222
0.893505 0.229914 0.109926
0.901903 0.235270 0.112951
0.908683 0.242860 0.117230
0.912992 0.248697 0.122661
0.916656 0.247300 0.127418
0.919068 0.246759 0.134962
0.921003 0.244294 0.145697
0.923745 0.226787 0.162300
0.924534 0.221009 0.221455
0.927921 0.248552 0.661499
0.926206 0.244881 0.655020
0.924480 0.241345 0.648594
0.922744 0.237937 0.642183
0.923391 0.469853 0.745663
0.078387 0.138383 0.089566
0.078633 0.137684 0.089646
0.079755 0.136643 0.089751
0.082749 0.131743 0.089984
0.086815 0.123569 0.089970
0.095265 0.116997 0.090105
0.114973 0.121401 0.090453
0.174180 0.134344 0.091161
0.234444 0.135457 0.091452
0.328584 0.141896 0.092214
0.456404 0.158903 0.093432
0.552387 0.167028 0.094333
0.633899 0.173359 0.095202
0.702340 0.184215 0.096419
0.760591 0.201729 0.098263
0.799553 0.210330 0.099726
0.827938 0.218790 0.101379
0.851760 0.230624 0.103474
0.871806 0.244654 0.107058
0.884284 0.248591 0.109679
0.894375 0.253499 0.112616
0.902482 0.260464 0.116621
0.909670 0.265933 0.121852
0.913866 0.264171 0.126335
0.916686 0.263227 0.132961
0.918938 0.260443 0.142561
0.921918 0.241450 0.155177
0.922960 0.231375 0.193615
0.926647 0.245965 0.656736
0.925036 0.242491 0.650664
0.923404 0.239170 0.644617
0.924145 0.442906 0.638547
0.922473 0.467167 0.742929
0.081163 0.189938 0.090424
0.081522 0.190538 0.090512
0.082836 0.187885 0.090692
0.085012 0.178096 0.090778
0.089666 0.165688 0.090816
0.097740 0.154436 0.090838
0.110135 0.146291 0.090943
0.144608 0.153413 0.091396
0.188945 0.152384 0.091683
0.260256 0.159139 0.092419
0.374378 0.176094 0.093565
0.468657 0.184647 0.094511
0.553827 0.190188 0.095288
0.644193 0.201597 0.096514
0.717341 0.220162 0.098364
0.761740 0.229561 0.099871
0.800653 0.235609 0.101447
0.830666 0.247164 0.103462
0.855720 0.264163 0.106956
0.872803 0.270878 0.109529
0.884193 0.279060 0.112398
0.893875 0.287564 0.116150
0.902624 0.292166 0.121149
0.910146 0.289712 0.125346
0.913567 0.288069 0.131068
0.916267 0.284884 0.139597
0.919562 0.266058 0.149055
0.920950 0.252384 0.173360
0.925090 0.242906 0.650972
0.923602 0.239594 0.645357
0.922081 0.236524 0.639758
0.922922 0.438865 0.634092
0.921341 0.463870 0.739565
0.084636 0.261973 0.091235
0.084888 0.262577 0.091308
0.086165 0.263637 0.091541
0.088759 0.248965 0.091724
0.093141 0.231318 0.091801
0.102021 0.215405 0.091938
0.114546 0.201379 0.092010
0.137084 0.190929 0.092203
0.162420 0.175053 0.092122
0.215009 0.179365 0.092717
0.310049 0.199921 0.093795
0.396232 0.206965 0.094754
0.476692 0.211329 0.095486
0.568594 0.222253 0.096727
0.665654 0.241433 0.098522
0.720685 0.250050 0.099990
0.763629 0.257747 0.101583
0.803298 0.271235 0.103583
0.833402 0.288496 0.107049
0.857284 0.292721 0.109498
0.873830 0.299108 0.112262
0.885024 0.308789 0.115837
0.894627 0.318161 0.120674
0.903068 0.321029 0.124649
0.909237 0.325028 0.129647
0.912813 0.321812 0.137293
0.916528 0.305205 0.145191
0.918416 0.289177 0.160498
0.923279 0.239786 0.644427
0.921926 0.236280 0.639216
0.920532 0.233515 0.634110
0.921484 0.434055 0.628895
0.920008 0.459910 0.735620
0.086279 0.303158 0.091688
0.086600 0.303603 0.091790
0.087753 0.300437 0.092052
0.089872 0.289085 0.092282
0.093523 0.273580 0.092431
0.100443 0.256009 0.092518
0.110458 0.239484 0.092645
0.127164 0.226024 0.092746
0.153544 0.216236 0.092924
0.190253 0.209833 0.093153
0.263552 0.227475 0.094255
0.336779 0.232878 0.095092
0.412122 0.236092 0.095766
0.499847 0.247063 0.097009
0.598577 0.267663 0.098860
0.671099 0.275286 0.100279
0.724397 0.282685 0.101817
0.768620 0.295381 0.103750
0.809301 0.312742 0.107247
0.835525 0.319332 0.109648
0.857636 0.327432 0.112367
0.874223 0.333800 0.115775
0.885865 0.340404 0.120404
0.895805 0.341653 0.124145
0.903102 0.344650 0.128769
0.908847 0.348156 0.135762
0.913031 0.344560 0.143223
0.915205 0.342832 0.155216
0.921371 0.250992 0.638896
0.920045 0.233205 0.632536
0.918784 0.230603 0.627824
0.919856 0.428661 0.623063
0.918495 0.454584 0.731160
0.089769 0.359292 0.092662
0.089909 0.357689 0.092705
0.090508 0.351159 0.092836
0.092200 0.342830 0.093055
0.096051 0.330295 0.093227
0.102211 0.315197 0.093345
0.110798 0.297403 0.093455
0.125476 0.280819 0.093560
0.148534 0.266672 0.093684
0.180264 0.255596 0.093921
0.235341 0.267029 0.094967
0.294317 0.265697 0.095525
0.358721 0.266904 0.096193
0.439182 0.276565 0.097389
0.536851 0.297326 0.099306
0.611140 0.303862 0.100690
0.677670 0.310068 0.102160
0.733344 0.321613 0.104018
0.777690 0.338039 0.107656
0.812105 0.343560 0.109966
0.838362 0.348824 0.112505
0.860358 0.358306 0.115886
0.875174 0.368442 0.120417
0.886757 0.370359 0.123941
0.895721 0.371468 0.128234
0.902671 0.373523 0.134544
0.909658 0.368853 0.141151
0.912330 0.365674 0.150978
0.915006 0.358106 0.168036
0.916538 0.355039 0.229844
0.918102 0.375763 0.576979
0.918065 0.423361 0.619501
0.916826 0.448770 0.726262
0.094872 0.435748 0.093930
0.094993 0.433423 0.093966
0.095689 0.426634 0.094115
0.098066 0.419740 0.094455
0.101707 0.407344 0.094734
0.107257 0.392000 0.094967
0.116842 0.375928 0.095171
0.132452 0.359564 0.095345
0.155128 0.344483 0.095508
0.186046 0.331422 0.095726
0.222614 0.321055 0.096069
0.267762 0.309720 0.096384
0.318281 0.300954 0.096758
0.391639 0.309390 0.097840
0.480612 0.328888 0.099859
0.553963 0.333206 0.101248
0.625309 0.337356 0.102589
0.690178 0.347167 0.104361
0.745357 0.363949 0.108207
0.783216 0.367949 0.110386
0.816161 0.374723 0.112870
0.841085 0.385177 0.116260
0.863494 0.392826 0.120543
0.877457 0.395720 0.123910
0.887357 0.401275 0.128019
0.895170 0.408316 0.133833
0.903454 0.402200 0.139698
0.908598 0.397135 0.147731
0.912129 0.387778 0.160250
0.914035 0.378855 0.194385
0.915932 0.371820 0.511220
0.916143 0.418882 0.621329
0.915027 0.415919 0.620433
0.098541 0.480255 0.094940
0.098644 0.478597 0.094970
0.099188 0.473526 0.095089
0.101101 0.467959 0.095369
0.104224 0.457965 0.095632
0.109114 0.444279 0.095927
0.118351 0.429009 0.096283
0.132113 0.411866 0.096523
0.152292 0.396023 0.096758
0.179699 0.381594 0.097001
0.212389 0.368949 0.097293
0.253522 0.358822 0.097669
0.295400 0.343567 0.097717
0.351713 0.341964 0.098371
0.434595 0.359622 0.100588
0.503925 0.362388 0.101881
0.572081 0.365833 0.103169
0.648263 0.375166 0.105039
0.708955 0.391166 0.108825
0.752333 0.394640 0.110933
0.789797 0.402167 0.113407
0.821448 0.410703 0.116764
0.845850 0.421269 0.120955
0.866678 0.426319 0.124210
0.878723 0.429526 0.128059
0.888082 0.434871 0.133523
0.896938 0.434950 0.138879
0.902670 0.437007 0.145914
0.908196 0.431651 0.156026
0.911212 0.418001 0.176360
0.913508 0.382528 0.378835
0.914121 0.412398 0.614164
0.913129 0.410471 0.616553
0.101457 0.513083 0.095647
0.101558 0.511647 0.095673
0.102060 0.507114 0.095776
0.103628 0.501421 0.096078
0.106437 0.494003 0.096478
0.110911 0.484352 0.096868
0.118748 0.472323 0.097196
0.131037 0.459047 0.097496
0.148925 0.442939 0.097741
0.172973 0.427150 0.097976
0.201922 0.412871 0.098234
0.236438 0.400659 0.098533
0.280592 0.390962 0.099064
0.330076 0.385013 0.099732
0.398508 0.392569 0.101482
0.460411 0.394346 0.102660
0.527484 0.396611 0.103812
0.598091 0.405300 0.106075
0.672351 0.420989 0.109816
0.720411 0.423779 0.111690
0.761139 0.430274 0.113964
0.798910 0.440077 0.117495
0.827471 0.451763 0.121620
0.851325 0.454414 0.124604
0.869126 0.460946 0.128351
0.879640 0.468155 0.133717
0.890123 0.466143 0.138491
0.896981 0.465896 0.144747
0.903060 0.464882 0.153392
0.907228 0.463636 0.168142
0.910245 0.465561 0.208823
0.912034 0.406087 0.606845
0.911161 0.405366 0.613690
0.105470 0.555313 0.096823
0.105561 0.554046 0.096856
0.105989 0.549955 0.096985
0.107233 0.544356 0.097263
0.110063 0.538921 0.097702
0.114751 0.529442 0.098070
0.121677 0.518361 0.098404
0.133798 0.506419 0.098857
0.150180 0.493688 0.099277
0.171972 0.480569 0.099618
0.198536 0.468165 0.099951
0.230344 0.456136 0.100404
0.270251 0.443853 0.100876
0.315297 0.433868 0.101489
0.377396 0.440101 0.103140
0.426769 0.430238 0.103611
0.486643 0.429659 0.104571
0.555582 0.437458 0.107158
0.632119 0.453017 0.110794
0.685897 0.455637 0.112655
0.733803 0.461110 0.114801
0.772444 0.469026 0.118417
0.808538 0.477375 0.122349
0.834352 0.481082 0.125264
0.855650 0.486964 0.128856
0.871450 0.492158 0.133979
0.882808 0.493828 0.138507
0.890438 0.497449 0.144221
0.897654 0.494551 0.151545
0.902640 0.490771 0.162696
0.906490 0.488245 0.188494
0.908732 0.496410 0.345116
0.909683 0.528093 0.609816
0.110736 0.608498 0.098416
0.110842 0.607642 0.098447
0.111315 0.604643 0.098617
0.112823 0.599293 0.098982
0.116551 0.594985 0.099646
0.120670 0.585571 0.100158
0.128826 0.576026 0.100830
0.140222 0.564556 0.101383
0.156262 0.552187 0.101925
0.177732 0.539360 0.102386
0.203498 0.526739 0.102853
0.233890 0.514589 0.103253
0.272296 0.503476 0.103736
0.314520 0.493725 0.104220
0.361136 0.485501 0.104958
0.407733 0.475482 0.105548
0.455328 0.467057 0.106270
0.520318 0.470373 0.108484
0.591302 0.482274 0.111941
0.654369 0.483588 0.113643
0.701907 0.487733 0.116003
0.747184 0.495261 0.119591
0.785137 0.502968 0.123316
0.816532 0.507288 0.126113
0.840721 0.511968 0.129537
0.860460 0.519286 0.134635
0.875170 0.521151 0.138855
0.884290 0.522630 0.144064
0.892064 0.524308 0.150603
0.897589 0.525944 0.159830
0.902180 0.520970 0.177430
0.904977 0.517281 0.250450
0.906447 0.528527 0.593820
0.114802 0.634602 0.099586
0.114917 0.633851 0.099627
0.115411 0.631346 0.099782
0.116688 0.627538 0.100102
0.119649 0.623899 0.100774
0.124003 0.618341 0.101444
0.132471 0.612492 0.102216
0.142159 0.603212 0.102726
0.156597 0.591622 0.103269
0.176427 0.579798 0.103830
0.199549 0.567268 0.104246
0.226588 0.555087 0.104724
0.261960 0.543828 0.105523
0.301937 0.533320 0.106355
0.344133 0.524221 0.107228
0.392053 0.516462 0.108265
0.436073 0.506588 0.108812
0.490490 0.503379 0.110291
0.556788 0.511402 0.113240
0.615420 0.512211 0.114845
0.672421 0.515286 0.117381
0.721066 0.522252 0.120876
0.761659 0.529617 0.124475
0.797080 0.533144 0.127091
0.824952 0.538402 0.130612
0.846915 0.545735 0.135505
0.867306 0.547563 0.139408
0.877405 0.551831 0.144388
0.886396 0.553056 0.150266
0.892891 0.552201 0.158090
0.897851 0.553082 0.171720
0.900932 0.557241 0.209314
0.903065 0.546388 0.528566
0.118722 0.659533 0.100741
0.118826 0.658871 0.100784
0.119264 0.656635 0.100949
0.120350 0.653120 0.101285
0.122801 0.649388 0.101868
0.128161 0.645299 0.102603
0.134617 0.638746 0.103239
0.144068 0.631611 0.103872
0.157460 0.623745 0.104459
0.175187 0.615125 0.105279
0.196356 0.606152 0.106176
0.221322 0.594511 0.106971
0.253571 0.583137 0.107727
0.290282 0.572463 0.108566
0.329855 0.562650 0.109408
0.373961 0.554098 0.110302
0.420478 0.546855 0.111341
0.470741 0.542630 0.112704
0.532027 0.545442 0.115133
0.581858 0.540984 0.116435
0.642601 0.543697 0.118974
0.693250 0.549891 0.122298
0.739350 0.557012 0.125796
0.775095 0.560001 0.128241
0.808616 0.565490 0.131925
0.833238 0.571966 0.136549
0.855492 0.575298 0.140280
0.870527 0.578632 0.144870
0.880626 0.581198 0.150346
0.887793 0.583728 0.157294
0.893594 0.582798 0.167981
0.897271 0.582360 0.192606
0.899476 0.594076 0.361112
0.123537 0.688088 0.102273
0.123669 0.687507 0.102313
0.124212 0.685526 0.102463
0.125507 0.682332 0.102765
0.128269 0.678696 0.103281
0.133815 0.675930 0.104084
0.138995 0.669185 0.104623
0.148902 0.663450 0.105906
0.161260 0.656015 0.106965
0.177203 0.647800 0.107904
0.196994 0.639446 0.108878
0.220563 0.630840 0.109749
0.250835 0.622406 0.110630
0.284953 0.613998 0.111363
0.322572 0.606337 0.112254
0.363602 0.597354 0.113111
0.408500 0.589164 0.114014
0.454293 0.582348 0.115089
0.512856 0.584233 0.118276
0.558578 0.576299 0.119045
0.609884 0.572685 0.120595
0.668391 0.578446 0.123835
0.715077 0.585033 0.127235
0.753989 0.587546 0.129613
0.789169 0.592978 0.133434
0.818896 0.599083 0.137845
0.843137 0.602550 0.141340
0.862011 0.605954 0.145638
0.874473 0.609376 0.150891
0.882992 0.609621 0.157013
0.889360 0.611110 0.166005
0.893453 0.613990 0.184075
0.896209 0.615223 0.272500
0.130676 0.713654 0.104142
0.130809 0.713314 0.104179
0.131344 0.712146 0.104318
0.132566 0.710225 0.104595
0.135054 0.707927 0.105384
0.139962 0.706011 0.106671
0.146004 0.702411 0.107749
0.155176 0.698084 0.109030
0.167000 0.691214 0.110141
0.182891 0.684197 0.111280
0.201869 0.676348 0.112259
0.224437 0.668226 0.113269
0.252875 0.659820 0.114134
0.285893 0.651634 0.114982
0.321392 0.643698 0.116060
0.361546 0.636517 0.117362
0.404107 0.629889 0.118596
0.447297 0.623844 0.119835
0.495202 0.618948 0.121341
0.540468 0.612353 0.121977
0.587666 0.608122 0.123241
0.642225 0.607121 0.125450
0.691136 0.611739 0.128726
0.734300 0.613392 0.131380
0.769481 0.616889 0.135019
0.804045 0.621488 0.139309
0.830636 0.623832 0.142551
0.851115 0.627267 0.146676
0.868573 0.629743 0.151543
0.877946 0.631655 0.157228
0.885182 0.633675 0.165091
0.889969 0.634166 0.179297
0.893003 0.638833 0.228774
0.135108 0.729242 0.105149
0.135230 0.728937 0.105210
0.135714 0.727883 0.105440
0.136799 0.726117 0.105893
0.138947 0.723909 0.106648
0.143441 0.721821 0.107822
0.149710 0.719111 0.109077
0.157271 0.715198 0.110199
0.168999 0.711350 0.111478
0.183540 0.706932 0.112676
0.200027 0.701759 0.113652
0.220589 0.694865 0.114665
0.246845 0.687025 0.115858
0.277792 0.679179 0.117091
0.311844 0.671580 0.118311
0.348975 0.664220 0.119463
0.389859 0.657530 0.120759
0.431391 0.651506 0.122059
0.475712 0.645965 0.123322
0.524761 0.641500 0.124819
0.569179 0.636524 0.125967
0.620620 0.634947 0.128091
0.670221 0.634376 0.130730
0.711972 0.635256 0.133222
0.751035 0.638320 0.136742
0.785882 0.642361 0.140854
0.817426 0.644620 0.143906
0.840042 0.648075 0.147905
0.860486 0.650714 0.152505
0.872793 0.653135 0.157730
0.881126 0.654736 0.164629
0.886440 0.657256 0.176651
0.889984 0.659882 0.208686
0.139661 0.744629 0.106616
0.139777 0.744367 0.106675
0.140265 0.743458 0.106894
0.141372 0.741911 0.107324
0.143511 0.739918 0.108032
0.147495 0.737879 0.109121
0.154083 0.735969 0.110561
0.160708 0.732069 0.111565
0.172592 0.728971 0.113028
0.184213 0.724302 0.114036
0.200545 0.719919 0.115278
0.220403 0.715231 0.116794
0.244298 0.710106 0.118163
0.272933 0.704929 0.119404
0.305326 0.699840 0.120716
0.340367 0.692708 0.121969
0.378559 0.685845 0.123170
0.418648 0.679581 0.124458
0.461223 0.674078 0.125813
0.506819 0.669008 0.127112
0.552937 0.664906 0.128596
0.601565 0.662301 0.131002
0.655085 0.661352 0.133875
0.692172 0.658348 0.135417
0.733711 0.659763 0.138509
0.768623 0.663461 0.142530
0.803845 0.665548 0.145385
0.828934 0.668494 0.149292
0.850980 0.671596 0.153686
0.867690 0.673589 0.158368
0.876973 0.676290 0.164755
0.883130 0.677972 0.175011
0.887093 0.681330 0.198048
0.145066 0.759933 0.108385
0.145194 0.759708 0.108442
0.145685 0.758920 0.108654
0.146738 0.757566 0.109066
0.148713 0.755785 0.109740
0.152279 0.753873 0.110764
0.159066 0.752344 0.112268
0.165553 0.749090 0.113322
0.175450 0.745926 0.114636
0.187546 0.742277 0.116174
0.203275 0.738448 0.117883
0.220353 0.733904 0.119346
0.243432 0.729312 0.120864
0.271192 0.724540 0.122282
0.301987 0.719695 0.123565
0.335043 0.715041 0.124958
0.371574 0.710481 0.126226
0.410567 0.706183 0.127517
0.450549 0.702185 0.128825
0.494883 0.698081 0.130490
0.539404 0.693435 0.132217
0.584526 0.689625 0.134092
0.635402 0.687831 0.136890
0.677117 0.684655 0.138289
0.715427 0.682844 0.140664
0.752099 0.684461 0.144211
0.787509 0.686563 0.146930
0.817289 0.689172 0.150850
0.841337 0.692163 0.155002
0.860609 0.694283 0.159284
0.872916 0.696837 0.165145
0.879894 0.698935 0.174193
0.884331 0.701861 0.192205
0.150288 0.775085 0.109908
0.150412 0.774887 0.109965
0.150886 0.774193 0.110171
0.151885 0.772990 0.110572
0.153715 0.771375 0.111221
0.157119 0.769567 0.112198
0.163346 0.767946 0.113620
0.170517 0.765508 0.114919
0.178948 0.762332 0.116529
0.191630 0.759413 0.118556
0.204630 0.755444 0.120058
0.222034 0.751609 0.121767
0.244791 0.747609 0.123498
0.269801 0.743127 0.124912
0.298970 0.738655 0.126269
0.330354 0.734200 0.127663
0.365591 0.729840 0.129085
0.403809 0.725633 0.130767
0.442010 0.721666 0.132465
0.483929 0.717981 0.134193
0.528583 0.714815 0.136000
0.571013 0.711983 0.137835
0.617535 0.709622 0.139724
0.663356 0.707284 0.141033
0.700252 0.705716 0.143316
0.738011 0.705088 0.146336
0.771686 0.705126 0.148553
0.805509 0.706670 0.152384
0.831716 0.708566 0.156396
0.852699 0.710113 0.160405
0.868860 0.711650 0.165701
0.876710 0.713395 0.173970
0.881815 0.715281 0.188668
0.154383 0.789356 0.110362
0.154496 0.789174 0.110416
0.154927 0.788531 0.110616
0.155899 0.787405 0.111003
0.157695 0.785861 0.111627
0.160814 0.784055 0.112563
0.166207 0.782271 0.113918
0.173891 0.780326 0.115651
0.181030 0.777141 0.117173
0.192765 0.774343 0.119290
0.204963 0.770706 0.120931
0.222048 0.767188 0.122821
0.241062 0.763131 0.124397
0.265929 0.759150 0.126084
0.294893 0.755028 0.127664
0.323883 0.750765 0.129029
0.356860 0.746646 0.130822
0.393775 0.742663 0.132606
0.430702 0.738893 0.134402
0.470543 0.735316 0.136139
0.514167 0.732005 0.137929
0.555701 0.729103 0.139713
0.599954 0.726644 0.141611
0.648539 0.724603 0.143554
0.686165 0.722644 0.145789
0.724448 0.721616 0.148900
0.758250 0.720778 0.150777
0.790710 0.720495 0.153871
0.821435 0.722204 0.157637
0.844664 0.723762 0.161666
0.864039 0.725288 0.166523
0.873680 0.726691 0.173713
0.879427 0.728805 0.186428
0.158449 0.801796 0.110994
0.158568 0.801637 0.111047
0.159022 0.801077 0.111241
0.159957 0.800088 0.111616
0.161621 0.798715 0.112219
0.164457 0.797072 0.113117
0.169259 0.795366 0.114412
0.177543 0.793940 0.116702
0.183792 0.790954 0.118134
0.193756 0.788148 0.120093
0.206782 0.785202 0.122157
0.221021 0.781656 0.123882
0.240540 0.778115 0.125734
0.264186 0.774416 0.127555
0.289906 0.770468 0.129106
0.318571 0.766546 0.131069
0.350789 0.762631 0.133035
0.386412 0.758757 0.134968
0.422263 0.755045 0.136783
0.460244 0.751558 0.138627
0.501467 0.748329 0.140411
0.542973 0.745424 0.142218
0.584764 0.742833 0.144024
0.630766 0.740738 0.145998
0.673113 0.738996 0.148074
0.709948 0.737563 0.151347
0.746277 0.736847 0.153098
0.777970 0.735748 0.155867
0.810864 0.735676 0.158860
0.836371 0.737044 0.162533
0.857996 0.738582 0.167448
0.870755 0.739864 0.173753
0.877176 0.741629 0.184827
0.162211 0.813400 0.111497
0.162327 0.813263 0.111549
0.162763 0.812778 0.111740
0.163652 0.811918 0.112108
0.165212 0.810711 0.112699
0.167824 0.809238 0.113577
0.172170 0.807652 0.114837
0.179530 0.806209 0.117211
0.186748 0.803925 0.119109
0.195394 0.801237 0.120954
0.209332 0.798874 0.123463
0.221512 0.795462 0.125069
0.241640 0.792341 0.127216
0.261737 0.788713 0.128882
0.288045 0.785182 0.131160
0.315416 0.781494 0.133280
0.345085 0.777774 0.135314
0.378909 0.774074 0.137338
0.414353 0.770445 0.139289
0.450935 0.767012 0.141207
0.490586 0.763798 0.143102
0.532114 0.760866 0.144978
0.572147 0.758213 0.146825
0.615436 0.755871 0.148824
0.660818 0.754028 0.151127
0.696373 0.752500 0.153455
0.734822 0.751952 0.155085
0.766072 0.750603 0.157836
0.800585 0.750211 0.160536
0.827890 0.749890 0.163475
0.851649 0.751136 0.168112
0.867880 0.752458 0.173878
0.875243 0.754044 0.183767
0.165528 0.825187 0.110304
0.165626 0.825108 0.110356
0.165995 0.824828 0.110545
0.166748 0.824326 0.110911
0.168076 0.823605 0.111502
0.170313 0.822691 0.112389
0.174071 0.821643 0.113677
0.180519 0.820524 0.115716
0.188663 0.818434 0.118291
0.196041 0.815674 0.120077
0.207821 0.813031 0.122511
0.221165 0.810047 0.124683
0.237930 0.806801 0.126708
0.259041 0.803462 0.128762
0.283406 0.799962 0.131111
0.309038 0.796405 0.133360
0.338790 0.792868 0.135677
0.371219 0.789297 0.137815
0.405284 0.785756 0.139832
0.440124 0.782370 0.141820
0.478252 0.779195 0.143774
0.519850 0.776264 0.145705
0.559063 0.773619 0.147639
0.601011 0.771287 0.149768
