negative-portra-400/Portra400_Classic_Normal.cube
TITLE "Kodak Portra 400 Classic Normal"
# Adobe RGB in/out. REPLACES AgX. Kodak Portra 400 Classic Normal.
LUT_3D_SIZE 33
DOMAIN_MIN 0.0 0.0 0.0
DOMAIN_MAX 1.0 1.0 1.0
0.071730 0.071698 0.087030
0.075652 0.074253 0.087836
0.076648 0.074964 0.087926
0.082284 0.077293 0.088228
0.102704 0.079979 0.088547
0.115732 0.081391 0.088787
0.159273 0.083991 0.089298
0.230355 0.087282 0.089795
0.276144 0.089060 0.090086
0.340637 0.092158 0.090468
0.429117 0.097127 0.090995
0.488781 0.100047 0.091371
0.539494 0.102336 0.091763
0.590684 0.106043 0.092438
0.645514 0.112154 0.093270
0.677239 0.115883 0.093791
0.702940 0.120553 0.094577
0.727531 0.126091 0.095496
0.746679 0.132712 0.096881
0.763288 0.136157 0.097857
0.777896 0.139729 0.099138
0.790780 0.144206 0.101122
0.803457 0.148724 0.103417
0.813888 0.149947 0.106182
0.821578 0.151640 0.110971
0.828547 0.152461 0.118219
0.837149 0.146035 0.133531
0.841818 0.149638 0.197964
0.851748 0.172390 0.493406
0.851747 0.172352 0.493377
0.851747 0.172349 0.493375
0.851747 0.172350 0.493374
0.856704 0.342728 0.599456
0.072932 0.077967 0.087683
0.075213 0.078233 0.087880
0.078062 0.076128 0.087877
0.084747 0.078306 0.088276
0.105950 0.080940 0.088632
0.117888 0.081981 0.088851
0.159722 0.084609 0.089347
0.227595 0.087897 0.089843
0.272322 0.089529 0.090119
0.336173 0.092730 0.090492
0.424606 0.097610 0.091016
0.484539 0.100456 0.091388
0.536242 0.102688 0.091789
0.587949 0.106582 0.092459
0.643326 0.112651 0.093287
0.676045 0.116520 0.093815
0.702012 0.121144 0.094596
0.726824 0.126648 0.095512
0.746266 0.133247 0.096900
0.762971 0.136664 0.097871
0.777654 0.140213 0.099153
0.790597 0.144825 0.101133
0.803319 0.149330 0.103419
0.813806 0.150538 0.106166
0.821517 0.152214 0.110922
0.828504 0.153014 0.118069
0.837117 0.146517 0.132970
0.841800 0.149792 0.195325
0.851748 0.172391 0.493407
0.851747 0.172352 0.493377
0.851747 0.172349 0.493375
0.851747 0.172351 0.493374
0.856704 0.342730 0.599456
0.073227 0.079241 0.087800
0.073859 0.079482 0.087982
0.076020 0.079537 0.088035
0.081924 0.081285 0.088403
0.098698 0.084003 0.088811
0.116274 0.084433 0.089024
0.158087 0.086858 0.089502
0.223205 0.090519 0.090021
0.262029 0.092041 0.090245
0.322013 0.094922 0.090581
0.408952 0.099439 0.091096
0.469235 0.101989 0.091449
0.524230 0.104316 0.091882
0.577723 0.108585 0.092536
0.635093 0.114489 0.093350
0.671535 0.118877 0.093901
0.698507 0.123322 0.094668
0.724161 0.128698 0.095571
0.744716 0.135212 0.096966
0.761784 0.138520 0.097924
0.776751 0.141982 0.099210
0.789917 0.147094 0.101175
0.802805 0.151550 0.103431
0.813499 0.152702 0.106114
0.821293 0.154316 0.110755
0.828347 0.155043 0.117556
0.836997 0.148312 0.131066
0.841732 0.150472 0.186920
0.851748 0.172394 0.493409
0.851747 0.172352 0.493377
0.851747 0.172349 0.493376
0.851747 0.172352 0.493374
0.856704 0.342733 0.599455
0.074237 0.084858 0.088151
0.074639 0.085135 0.088264
0.076240 0.085638 0.088418
0.079198 0.085675 0.088595
0.089316 0.089592 0.089136
0.101393 0.088799 0.089288
0.133610 0.091602 0.089696
0.196058 0.095816 0.090242
0.238526 0.096585 0.090433
0.298897 0.098870 0.090736
0.382670 0.103095 0.091248
0.442284 0.105976 0.091576
0.498192 0.108606 0.092061
0.557465 0.112576 0.092681
0.618392 0.119232 0.093468
0.662261 0.123518 0.094065
0.691299 0.127577 0.094805
0.718706 0.132678 0.095684
0.741558 0.139008 0.097094
0.759380 0.142093 0.098026
0.774936 0.146310 0.099322
0.788559 0.151461 0.101260
0.801783 0.155815 0.103462
0.812891 0.156856 0.106043
0.820850 0.158352 0.110488
0.828033 0.158952 0.116710
0.836761 0.151866 0.128257
0.841595 0.152239 0.173125
0.851748 0.172401 0.493414
0.851747 0.172353 0.493378
0.851747 0.172350 0.493376
0.851747 0.172357 0.493375
0.856704 0.342735 0.599455
0.075592 0.096223 0.088571
0.075909 0.096568 0.088695
0.077071 0.097653 0.088908
0.079905 0.098265 0.089196
0.085443 0.098359 0.089485
0.093043 0.096336 0.089569
0.113381 0.098964 0.089960
0.159518 0.102313 0.090480
0.201641 0.102167 0.090652
0.261098 0.103918 0.090923
0.348233 0.110138 0.091463
0.409213 0.112724 0.091906
0.463654 0.114952 0.092330
0.527134 0.120210 0.092906
0.590026 0.127968 0.093656
0.641508 0.131306 0.094324
0.678407 0.134619 0.095020
0.708966 0.139193 0.095875
0.735957 0.146031 0.097297
0.755155 0.149617 0.098189
0.771781 0.153606 0.099505
0.786225 0.158492 0.101409
0.800044 0.162659 0.103534
0.811863 0.163519 0.105997
0.820105 0.164827 0.110176
0.827490 0.165251 0.115664
0.836362 0.157793 0.125321
0.841359 0.156083 0.157442
0.851749 0.172414 0.493424
0.851747 0.172354 0.493379
0.851747 0.172350 0.493377
0.851748 0.172401 0.493375
0.856704 0.342736 0.599454
0.076277 0.101613 0.088829
0.076448 0.101764 0.088928
0.077178 0.102735 0.089102
0.079197 0.103577 0.089406
0.083010 0.104004 0.089588
0.089522 0.104114 0.089873
0.104417 0.108119 0.090279
0.135781 0.113404 0.090775
0.168756 0.111623 0.090877
0.219183 0.113345 0.091167
0.302431 0.120368 0.091786
0.367186 0.123282 0.092281
0.426240 0.125605 0.092678
0.491109 0.130077 0.093203
0.560456 0.137084 0.093997
0.612507 0.140494 0.094668
0.659729 0.144523 0.095319
0.692406 0.151256 0.096236
0.724773 0.158659 0.097595
0.747886 0.161358 0.098432
0.766437 0.164669 0.099787
0.782339 0.169070 0.101651
0.797188 0.172903 0.103679
0.810190 0.173475 0.106044
0.818904 0.174498 0.109913
0.826617 0.174703 0.114725
0.835719 0.167016 0.122424
0.840969 0.163350 0.143938
0.851750 0.172443 0.493443
0.851747 0.172357 0.493381
0.851747 0.172352 0.493378
0.856701 0.320765 0.493375
0.856704 0.342736 0.599454
0.077431 0.116147 0.089382
0.077573 0.116372 0.089443
0.078278 0.118249 0.089632
0.079966 0.120311 0.089867
0.083549 0.121712 0.090145
0.089236 0.122282 0.090380
0.099462 0.122423 0.090633
0.121705 0.130162 0.091102
0.146757 0.126392 0.091199
0.188983 0.127616 0.091453
0.259253 0.135017 0.092256
0.322892 0.137012 0.092707
0.383065 0.137832 0.093027
0.449810 0.141585 0.093516
0.526206 0.150549 0.094482
0.579203 0.155001 0.095113
0.632325 0.157851 0.095690
0.676385 0.163338 0.096671
0.710984 0.171586 0.097970
0.738228 0.175253 0.098901
0.758003 0.180210 0.100209
0.775679 0.186194 0.102028
0.792389 0.190193 0.103941
0.807416 0.190335 0.106279
0.816940 0.191064 0.109820
0.825199 0.190994 0.114141
0.834661 0.181675 0.120138
0.840311 0.175763 0.134005
0.851752 0.172515 0.493490
0.851747 0.172365 0.493387
0.851747 0.172355 0.493380
0.856704 0.320831 0.493377
0.856704 0.342736 0.599454
0.079001 0.140254 0.089954
0.079136 0.140428 0.090008
0.079853 0.142307 0.090220
0.081580 0.144826 0.090462
0.084619 0.147214 0.090689
0.090242 0.148819 0.090938
0.099800 0.149404 0.091186
0.114229 0.149552 0.091441
0.132995 0.143265 0.091512
0.167263 0.144032 0.091917
0.225475 0.153708 0.092748
0.283383 0.154828 0.093140
0.339553 0.154744 0.093425
0.408565 0.158975 0.093961
0.485796 0.167712 0.095003
0.544887 0.170677 0.095568
0.598466 0.173569 0.096224
0.654084 0.179937 0.097214
0.692935 0.189759 0.098443
0.726226 0.192417 0.099490
0.750101 0.196632 0.100802
0.769461 0.203030 0.102531
0.786875 0.209522 0.104348
0.802934 0.212622 0.106801
0.813532 0.216824 0.110048
0.822768 0.216363 0.113945
0.832802 0.208133 0.119004
0.839131 0.200332 0.128081
0.851761 0.172805 0.493650
0.851748 0.172390 0.493405
0.851747 0.172364 0.493388
0.856704 0.320835 0.493380
0.856704 0.342736 0.599454
0.079787 0.154845 0.090240
0.079885 0.155007 0.090279
0.080358 0.156556 0.090430
0.081988 0.159370 0.090646
0.084400 0.162070 0.090862
0.088580 0.164002 0.091101
0.095959 0.165295 0.091364
0.106882 0.165701 0.091613
0.123618 0.165845 0.092034
0.151857 0.166303 0.092439
0.203025 0.176487 0.093241
0.251027 0.176633 0.093583
0.303754 0.175481 0.093905
0.367843 0.178946 0.094578
0.445122 0.189059 0.095575
0.506984 0.191581 0.096186
0.563370 0.194454 0.096876
0.621697 0.200945 0.097800
0.673625 0.210544 0.099210
0.708197 0.214132 0.100212
0.737637 0.219646 0.101563
0.760631 0.224370 0.103174
0.780693 0.229575 0.105067
0.798604 0.231440 0.107530
0.811152 0.234871 0.110556
0.820494 0.239312 0.114179
0.830475 0.238398 0.119021
0.837030 0.239129 0.126457
0.852026 0.181364 0.495462
0.851757 0.172691 0.493590
0.851749 0.172430 0.493438
0.856704 0.320838 0.493395
0.856704 0.342736 0.599454
0.081103 0.177023 0.090615
0.081230 0.177167 0.090644
0.081806 0.178391 0.090754
0.083110 0.181678 0.090940
0.085022 0.185031 0.091188
0.088878 0.188113 0.091428
0.095009 0.190121 0.091764
0.104640 0.191279 0.092180
0.118460 0.191803 0.092569
0.141384 0.192086 0.092946
0.186064 0.205645 0.093705
0.226789 0.205188 0.094221
0.273654 0.202383 0.094578
0.332989 0.205378 0.095215
0.408586 0.215672 0.096296
0.467417 0.217159 0.096938
0.528297 0.218886 0.097574
0.587671 0.224483 0.098436
0.650486 0.234846 0.100081
0.688595 0.238293 0.101150
0.723883 0.242005 0.102368
0.750050 0.249516 0.103911
0.771666 0.257995 0.106233
0.791690 0.260308 0.108507
0.807459 0.262318 0.111286
0.817993 0.265409 0.114622
0.828861 0.263305 0.119055
0.835980 0.262625 0.125439
0.843442 0.258508 0.136538
0.848756 0.258240 0.175687
0.854318 0.278140 0.451603
0.856704 0.321251 0.496114
0.856704 0.342737 0.599454
0.083411 0.218166 0.091167
0.083513 0.218320 0.091194
0.083954 0.219427 0.091298
0.085070 0.223570 0.091498
0.087235 0.227231 0.091858
0.090951 0.230351 0.092282
0.097316 0.233205 0.092704
0.106382 0.235186 0.093100
0.119936 0.236402 0.093463
0.142276 0.236959 0.093870
0.173546 0.237437 0.094452
0.209645 0.236082 0.094925
0.250077 0.232063 0.095264
0.305068 0.234491 0.095855
0.375252 0.246503 0.097131
0.432502 0.246817 0.097725
0.490897 0.247390 0.098286
0.553650 0.253131 0.099387
0.618373 0.265099 0.101161
0.667810 0.266902 0.102135
0.704638 0.271496 0.103292
0.737273 0.279614 0.104849
0.762496 0.285876 0.107506
0.784501 0.288624 0.109633
0.801834 0.294004 0.112255
0.813930 0.301036 0.115468
0.826206 0.297331 0.119534
0.834331 0.294774 0.124999
0.842326 0.288789 0.133308
0.848107 0.283330 0.155544
0.854075 0.279618 0.391647
0.856704 0.322541 0.504572
0.856704 0.323010 0.507617
0.084777 0.249007 0.091524
0.084861 0.249161 0.091546
0.085208 0.250166 0.091695
0.086239 0.254121 0.092006
0.088457 0.257961 0.092363
0.091682 0.262406 0.092761
0.097593 0.266594 0.093174
0.105461 0.269188 0.093543
0.117091 0.271025 0.093997
0.135979 0.272151 0.094554
0.162892 0.272663 0.095093
0.196854 0.273247 0.095634
0.231298 0.267374 0.095937
0.282188 0.270241 0.096742
0.347043 0.282509 0.097964
0.402396 0.281432 0.098516
0.457250 0.281235 0.099303
0.522059 0.286534 0.100480
0.586067 0.297994 0.102241
0.641307 0.298980 0.103159
0.684158 0.303955 0.104286
0.721860 0.310276 0.106402
0.750860 0.318452 0.108966
0.774784 0.322152 0.110980
0.795260 0.324754 0.113403
0.810480 0.329263 0.116756
0.823209 0.330307 0.120457
0.831902 0.333094 0.125284
0.840413 0.330758 0.132107
0.846982 0.322533 0.145874
0.853502 0.294145 0.290307
0.856704 0.322551 0.504614
0.856704 0.323460 0.510485
0.085971 0.279085 0.092009
0.086059 0.279218 0.092044
0.086466 0.280030 0.092175
0.087669 0.283042 0.092431
0.089635 0.287459 0.092765
0.092394 0.292173 0.093133
0.097579 0.296121 0.093500
0.104558 0.299479 0.093944
0.114442 0.302119 0.094512
0.130326 0.303696 0.095050
0.153032 0.304709 0.095569
0.182749 0.305109 0.096145
0.217853 0.305751 0.096847
0.262848 0.308081 0.097577
0.324163 0.321094 0.098951
0.375494 0.319466 0.099672
0.428124 0.318211 0.100425
0.489246 0.322615 0.101716
0.556026 0.332231 0.103456
0.609920 0.332228 0.104246
0.663220 0.335377 0.105733
0.702821 0.341359 0.108071
0.737942 0.349108 0.110569
0.764886 0.350590 0.112382
0.786903 0.355408 0.114710
0.805031 0.362247 0.118391
0.819793 0.361109 0.121677
0.829815 0.361908 0.125978
0.838787 0.362321 0.132030
0.845507 0.362806 0.142724
0.851295 0.366472 0.170762
0.856704 0.322623 0.504666
0.856705 0.324142 0.513697
0.088165 0.318394 0.092625
0.088271 0.318523 0.092655
0.088695 0.319245 0.092767
0.089669 0.321449 0.092983
0.091478 0.326061 0.093304
0.094351 0.329685 0.093632
0.098984 0.333352 0.094120
0.105444 0.336906 0.094702
0.114469 0.339721 0.095264
0.128580 0.341519 0.095780
0.149119 0.342769 0.096442
0.176525 0.343623 0.097128
0.208463 0.344004 0.097760
0.247832 0.344565 0.098416
0.305099 0.356261 0.100098
0.352744 0.354479 0.100948
0.404032 0.352322 0.101713
0.460644 0.355717 0.102900
0.528257 0.365213 0.104598
0.580557 0.364953 0.105952
0.636733 0.367302 0.107618
0.683172 0.373107 0.109811
0.722632 0.379690 0.112177
0.752827 0.382346 0.113923
0.777244 0.387430 0.116542
0.798460 0.392275 0.120065
0.815580 0.394224 0.123160
0.826484 0.398371 0.127086
0.836780 0.396754 0.132508
0.844346 0.394615 0.141101
0.850649 0.393937 0.159031
0.855038 0.403681 0.275824
0.857904 0.437614 0.516248
0.090942 0.363199 0.093372
0.091036 0.363328 0.093399
0.091408 0.363958 0.093496
0.092232 0.365871 0.093683
0.094556 0.370854 0.094146
0.097498 0.374053 0.094632
0.101955 0.378543 0.095188
0.107926 0.382358 0.095724
0.117096 0.385644 0.096441
0.131208 0.388180 0.097156
0.151180 0.390056 0.097857
0.177170 0.391167 0.098510
0.207839 0.391826 0.099451
0.244771 0.392288 0.100375
0.289735 0.392774 0.101448
0.333484 0.390236 0.102214
0.382067 0.388041 0.102986
0.436594 0.391089 0.104133
0.500963 0.400196 0.106608
0.553458 0.399167 0.107873
0.608168 0.401121 0.109515
0.663745 0.406618 0.111647
0.704495 0.412682 0.113881
0.739689 0.415919 0.115735
0.766882 0.419918 0.118548
0.789854 0.426977 0.121975
0.810714 0.428974 0.124844
0.823464 0.430982 0.128420
0.834427 0.433577 0.133627
0.842508 0.436502 0.140826
0.849591 0.433063 0.153473
0.854510 0.431225 0.207620
0.857860 0.444976 0.508803
0.092784 0.396005 0.093858
0.092911 0.396119 0.093896
0.093404 0.396658 0.094036
0.094475 0.398220 0.094305
0.096553 0.402135 0.094736
0.099311 0.406066 0.095213
0.103695 0.411219 0.095766
0.108725 0.414498 0.096414
0.117197 0.418107 0.097126
0.130074 0.421433 0.097855
0.147832 0.423580 0.098523
0.171166 0.425109 0.099459
0.199422 0.426313 0.100420
0.232566 0.426901 0.101460
0.273335 0.427495 0.102460
0.318104 0.428101 0.103482
0.362690 0.425307 0.104189
0.416042 0.428271 0.105850
0.476560 0.437991 0.108676
0.529725 0.436519 0.109893
0.581730 0.437585 0.111388
0.639980 0.442917 0.113478
0.686143 0.448943 0.115871
0.724883 0.451326 0.117990
0.755097 0.455867 0.120698
0.780495 0.462487 0.123985
0.805168 0.463934 0.126628
0.819206 0.467765 0.130257
0.831797 0.469348 0.135162
0.841005 0.469480 0.141328
0.848413 0.471378 0.151490
0.853532 0.476353 0.180231
0.857587 0.468797 0.447492
0.095417 0.430251 0.094533
0.095530 0.430357 0.094566
0.095961 0.430842 0.094689
0.096879 0.432192 0.094922
0.098605 0.435460 0.095294
0.101350 0.440286 0.095764
0.104947 0.444003 0.096391
0.109710 0.448202 0.097082
0.117755 0.452238 0.097773
0.129318 0.455597 0.098453
0.145395 0.458300 0.099427
0.166670 0.460264 0.100388
0.192854 0.461510 0.101421
0.222311 0.462342 0.102456
0.259812 0.462856 0.103442
0.302190 0.463379 0.104401
0.347004 0.464013 0.105946
0.398383 0.466319 0.107876
0.455510 0.473940 0.110679
0.506480 0.472365 0.111825
0.558380 0.473084 0.113313
0.614340 0.476943 0.115427
0.668107 0.481768 0.118329
0.707390 0.483253 0.120319
0.742608 0.487142 0.122942
0.770431 0.492154 0.126054
0.796752 0.494769 0.128578
0.814671 0.497696 0.132400
0.828801 0.500278 0.136965
0.838787 0.503143 0.142482
0.847183 0.503341 0.150793
0.852955 0.504250 0.170026
0.856948 0.515950 0.306009
0.098374 0.469081 0.095310
0.098475 0.469167 0.095339
0.098863 0.469543 0.095447
0.099671 0.470520 0.095653
0.101246 0.472758 0.096036
0.104206 0.477319 0.096689
0.107161 0.479499 0.097253
0.112303 0.483593 0.097954
0.119799 0.486724 0.098686
0.130756 0.489397 0.099624
0.145841 0.491908 0.100673
0.165852 0.493862 0.101754
0.190490 0.495446 0.102822
0.217912 0.496333 0.103784
0.252644 0.497163 0.104908
0.292782 0.497706 0.106562
0.334990 0.498206 0.108185
0.382122 0.498974 0.109873
0.437313 0.506425 0.112648
0.485483 0.504712 0.113752
0.537486 0.504890 0.115226
0.591138 0.508568 0.117937
0.648853 0.513086 0.120801
0.689990 0.514215 0.122694
0.729396 0.518102 0.125246
0.759422 0.522814 0.128227
0.787725 0.525501 0.130960
0.809379 0.528563 0.134727
0.824906 0.532721 0.139066
0.836735 0.533565 0.143965
0.845794 0.536129 0.151283
0.852008 0.540593 0.165254
0.856615 0.543469 0.235491
0.101834 0.507017 0.096356
0.101942 0.507113 0.096393
0.102352 0.507507 0.096527
0.103193 0.508451 0.096783
0.104693 0.510449 0.097185
0.107287 0.514443 0.097770
0.110375 0.517369 0.098336
0.116059 0.521208 0.099246
0.122920 0.524343 0.100192
0.134597 0.527754 0.101340
0.149394 0.530459 0.102428
0.168800 0.532740 0.103535
0.191710 0.534340 0.104560
0.218167 0.535598 0.106257
0.251011 0.536409 0.107921
0.290184 0.537239 0.109668
0.330173 0.537838 0.111309
0.374800 0.538247 0.112886
0.421879 0.539146 0.114569
0.467161 0.537357 0.115837
0.518711 0.537583 0.117754
0.570359 0.540710 0.120424
0.625833 0.544964 0.123230
0.673370 0.545908 0.125069
0.712965 0.549167 0.127521
0.747857 0.553917 0.130766
0.777997 0.556289 0.133576
0.802643 0.560193 0.137220
0.821027 0.563263 0.141182
0.834098 0.565966 0.145763
0.844257 0.569092 0.152469
0.851320 0.570725 0.163444
0.856203 0.577566 0.204620
0.104520 0.538274 0.097056
0.104618 0.538354 0.097089
0.104983 0.538680 0.097211
0.105726 0.539449 0.097442
0.107029 0.541049 0.097805
0.109232 0.544197 0.098330
0.112945 0.547679 0.099130
0.117818 0.550422 0.099980
0.125027 0.554034 0.101085
0.135750 0.557318 0.102207
0.148855 0.559720 0.103242
0.166519 0.562054 0.104305
0.188020 0.563966 0.105880
0.212804 0.565446 0.107630
0.243031 0.566624 0.109344
0.279249 0.567384 0.110974
0.317784 0.568148 0.112647
0.359808 0.568897 0.114267
0.405244 0.569437 0.116093
0.451516 0.570490 0.118330
0.500096 0.570276 0.120183
0.551853 0.573437 0.122857
0.605091 0.577281 0.125660
0.657780 0.578092 0.127412
0.697210 0.581025 0.129964
0.735945 0.585290 0.133561
0.767386 0.587646 0.136237
0.794181 0.591658 0.139761
0.816282 0.594956 0.143466
0.831040 0.598265 0.147743
0.842640 0.600878 0.153904
0.850359 0.604880 0.163323
0.855858 0.608389 0.190710
0.107264 0.570974 0.097783
0.107353 0.571048 0.097814
0.107685 0.571342 0.097925
0.108352 0.572015 0.098136
0.109541 0.573365 0.098473
0.111931 0.575941 0.099171
0.116143 0.579937 0.100066
0.120284 0.581976 0.100957
0.128260 0.586027 0.102124
0.137128 0.588231 0.103103
0.150133 0.591213 0.104185
0.167232 0.593835 0.105717
0.186991 0.595673 0.107503
0.210006 0.597156 0.109207
0.238019 0.598508 0.110941
0.272159 0.599544 0.112609
0.308806 0.600240 0.114204
0.348171 0.600931 0.116101
0.392599 0.601800 0.118295
0.436122 0.602483 0.120376
0.484064 0.603651 0.122561
0.535474 0.605859 0.125185
0.586292 0.608756 0.127959
0.638037 0.609405 0.129853
0.682081 0.611311 0.132817
0.722267 0.614393 0.136387
0.756386 0.616120 0.138926
0.785209 0.618791 0.142273
0.810814 0.621777 0.145846
0.827752 0.623926 0.149959
0.840635 0.626924 0.155697
0.849464 0.629188 0.163900
0.855484 0.633214 0.184532
0.110296 0.605360 0.098661
0.110396 0.605434 0.098703
0.110768 0.605666 0.098854
0.111529 0.606168 0.099139
0.113043 0.607120 0.099586
0.115514 0.608844 0.100250
0.119553 0.611892 0.101300
0.123759 0.613572 0.102179
0.131246 0.615967 0.103227
0.140311 0.618214 0.104266
0.153127 0.620541 0.105875
0.168352 0.622221 0.107638
0.187413 0.623902 0.109458
0.209677 0.625235 0.111222
0.236051 0.626240 0.112895
0.268300 0.627164 0.114619
0.303696 0.627813 0.116684
0.341213 0.628361 0.118874
0.383021 0.628831 0.121031
0.426383 0.629540 0.123219
0.471062 0.630161 0.125312
0.520920 0.631088 0.127450
0.569616 0.633446 0.130442
0.619129 0.634165 0.132590
0.667909 0.635808 0.135572
0.707635 0.638583 0.139136
0.745289 0.640420 0.141595
0.775640 0.642857 0.144842
0.804684 0.645798 0.148353
0.823744 0.648095 0.152338
0.838500 0.650975 0.157603
0.848434 0.653623 0.165100
0.855070 0.658004 0.181629
0.114131 0.632442 0.099750
0.114243 0.632500 0.099789
0.114659 0.632720 0.099930
0.115484 0.633183 0.100214
0.116876 0.634028 0.100706
0.119112 0.635497 0.101413
0.122707 0.638004 0.102388
0.128259 0.640201 0.103349
0.134783 0.642064 0.104302
0.144555 0.644720 0.106016
0.155477 0.646367 0.107700
0.171038 0.648381 0.109554
0.189645 0.650249 0.111448
0.209931 0.651435 0.113157
0.234761 0.652471 0.114831
0.265417 0.653381 0.117071
0.299808 0.654162 0.119388
0.335894 0.654770 0.121623
0.375863 0.655285 0.123798
0.417829 0.655748 0.125947
0.461098 0.656473 0.128101
0.508019 0.657233 0.130483
0.554741 0.658230 0.133163
0.602250 0.658889 0.135261
0.654490 0.660260 0.138191
0.693648 0.662621 0.141754
0.734188 0.664517 0.144146
0.765554 0.666739 0.147312
0.796763 0.669576 0.151039
0.819245 0.672082 0.154820
0.836113 0.674740 0.159548
0.847240 0.677865 0.166718
0.854777 0.681375 0.180409
0.117680 0.659230 0.100449
0.117782 0.659275 0.100492
0.118160 0.659446 0.100648
0.118906 0.659804 0.100944
0.120155 0.660451 0.101405
0.122140 0.661568 0.102068
0.126183 0.663460 0.102981
0.131972 0.665826 0.104038
0.137639 0.667174 0.105120
0.147039 0.669487 0.107074
0.157513 0.671056 0.108783
0.172755 0.673009 0.110687
0.188732 0.674362 0.112425
0.208800 0.675816 0.114250
0.232973 0.676986 0.116381
0.261434 0.677783 0.118612
0.294120 0.678520 0.120918
0.328389 0.679132 0.123157
0.366576 0.679687 0.125374
0.407590 0.680195 0.127512
0.449098 0.680756 0.129752
0.493784 0.681485 0.132399
0.540360 0.682447 0.135101
0.587159 0.683628 0.137793
0.637169 0.684594 0.140704
0.680580 0.686549 0.144233
0.721132 0.688504 0.146544
0.755196 0.690416 0.149938
0.787977 0.693108 0.153504
0.814338 0.695720 0.157350
0.833387 0.698437 0.161616
0.846027 0.700817 0.168194
0.854447 0.703460 0.180202
0.121117 0.684462 0.101306
0.121213 0.684508 0.101347
0.121566 0.684679 0.101494
0.122258 0.685026 0.101772
0.123669 0.685628 0.102206
0.126097 0.686620 0.102829
0.129900 0.688229 0.103688
0.135998 0.690843 0.105015
0.141188 0.691969 0.106430
0.149604 0.693787 0.108231
0.160877 0.695777 0.110149
0.173921 0.697219 0.111893
0.190241 0.698812 0.113748
0.209408 0.700202 0.115819
0.230960 0.700913 0.118147
0.258793 0.701564 0.120509
0.290739 0.702086 0.122848
0.324028 0.702475 0.125150
0.360352 0.702817 0.127350
0.400304 0.703150 0.129619
0.439697 0.703496 0.132306
0.482507 0.703917 0.134974
0.528336 0.704404 0.137598
0.572866 0.705147 0.140330
0.621576 0.706019 0.143050
0.668422 0.706994 0.146565
0.708209 0.708494 0.148953
0.744772 0.709484 0.152346
0.778682 0.711219 0.155877
0.808912 0.712875 0.159438
0.830365 0.714824 0.163720
0.844739 0.716616 0.169836
0.854100 0.718995 0.180439
0.125049 0.706369 0.102105
0.125170 0.706401 0.102144
0.125616 0.706520 0.102284
0.126488 0.706754 0.102549
0.127929 0.707146 0.102962
0.130178 0.707761 0.103557
0.133658 0.708715 0.104376
0.139153 0.710201 0.106133
0.145320 0.711287 0.107795
0.152782 0.712309 0.109477
0.165023 0.713868 0.111624
0.176456 0.714645 0.113241
0.193121 0.715805 0.115307
0.209784 0.716552 0.117647
0.231777 0.717386 0.120196
0.258331 0.718022 0.122587
0.287974 0.718530 0.124922
0.319909 0.718922 0.127246
0.355004 0.719214 0.129573
0.393813 0.719506 0.132388
0.432187 0.719804 0.135159
0.473468 0.720163 0.137882
0.518288 0.720580 0.140543
0.560985 0.721089 0.143169
0.607343 0.721886 0.145939
0.657275 0.722801 0.148839
0.696100 0.724508 0.151235
0.734815 0.725264 0.154631
0.769043 0.726823 0.157949
0.802247 0.728324 0.161461
0.826784 0.730164 0.165783
0.843318 0.732033 0.171460
0.853996 0.734261 0.181053
0.129329 0.726573 0.102061
0.129435 0.726593 0.102098
0.129827 0.726666 0.102233
0.130593 0.726809 0.102489
0.131859 0.727042 0.102891
0.133838 0.727405 0.103476
0.136913 0.727968 0.104293
0.142041 0.728866 0.106014
0.148905 0.729846 0.108069
0.155467 0.730499 0.109671
0.166275 0.731495 0.111727
0.178555 0.732357 0.113653
0.192874 0.733102 0.115700
0.210213 0.733831 0.118312
0.230699 0.734430 0.120871
0.255398 0.734949 0.123293
0.285019 0.735418 0.125770
0.315955 0.735750 0.128123
0.348928 0.735977 0.130692
0.385936 0.736194 0.133527
0.423751 0.736440 0.136317
0.463692 0.736736 0.139064
0.507185 0.737114 0.141765
0.550170 0.737600 0.144423
