negative-portra-400/Portra400_Modern_ExtraPunchy.cube
TITLE "Kodak Portra 400 Modern ExtraPunchy"
# Adobe RGB in/out. REPLACES AgX. Kodak Portra 400 Modern ExtraPunchy.
LUT_3D_SIZE 9
DOMAIN_MIN 0.0 0.0 0.0
DOMAIN_MAX 1.0 1.0 1.0
0.069330 0.073299 0.081842
0.077444 0.072345 0.081842
0.308804 0.093521 0.081842
0.629092 0.162826 0.078277
0.795789 0.301789 0.079035
0.878665 0.450776 0.080763
0.925906 0.573947 0.083723
0.952206 0.661927 0.089232
0.964593 0.729912 0.097411
0.068844 0.079875 0.081842
0.071470 0.077651 0.081842
0.197553 0.099629 0.081842
0.574795 0.175000 0.078625
0.774818 0.316986 0.078900
0.869459 0.462696 0.080590
0.921799 0.581801 0.083447
0.950771 0.667293 0.088791
0.963535 0.734644 0.096964
0.070059 0.239904 0.081842
0.082853 0.195376 0.081842
0.164058 0.162509 0.081842
0.455995 0.232521 0.079136
0.706440 0.370478 0.078680
0.843869 0.504036 0.080251
0.908601 0.608950 0.082699
0.943677 0.685943 0.087651
0.960128 0.748928 0.095620
0.078932 0.532875 0.078732
0.102613 0.494148 0.078800
0.232144 0.425824 0.078729
0.436789 0.403947 0.078117
0.651765 0.464645 0.078667
0.803058 0.568998 0.080051
0.884542 0.652760 0.082032
0.930994 0.718891 0.086767
0.955126 0.771820 0.094011
0.098387 0.702399 0.078608
0.135352 0.688072 0.078597
0.290918 0.653126 0.078614
0.492568 0.622325 0.078773
0.650438 0.617487 0.079213
0.775565 0.650905 0.080227
0.864525 0.708540 0.082016
0.918668 0.761297 0.086421
0.949802 0.804799 0.093153
0.136636 0.809973 0.079681
0.177533 0.803004 0.079683
0.334910 0.783561 0.079732
0.529520 0.762899 0.079934
0.670349 0.751893 0.080360
0.777253 0.754837 0.081110
0.852125 0.773262 0.082820
0.908577 0.810638 0.086953
0.941739 0.841427 0.093441
0.184269 0.874513 0.080907
0.228298 0.871392 0.080924
0.370752 0.862057 0.081007
0.554201 0.850576 0.081224
0.682912 0.842170 0.081628
0.784383 0.840252 0.082966
0.852989 0.845695 0.085164
0.899766 0.857594 0.088594
0.935235 0.879187 0.095372
0.239132 0.910257 0.082506
0.280772 0.908995 0.082565
0.402234 0.905075 0.082798
0.567463 0.899885 0.083293
0.688447 0.895570 0.084138
0.787065 0.893917 0.085884
0.853728 0.895831 0.088305
0.899266 0.901320 0.092551
0.931387 0.909797 0.098771
0.289754 0.934587 0.084837
0.322114 0.934016 0.084938
0.429284 0.932219 0.085311
0.573942 0.929797 0.086037
0.688438 0.927790 0.087181
0.785206 0.927196 0.089264
0.851849 0.928666 0.092446
0.896817 0.932407 0.097294
0.929470 0.938247 0.105221
0.069330 0.072899 0.082461
0.079380 0.074314 0.082888
0.308825 0.097209 0.083693
0.614759 0.162402 0.084647
0.786403 0.295949 0.087245
0.873693 0.444499 0.091719
0.923585 0.569963 0.098085
0.951394 0.659536 0.108278
0.964013 0.728194 0.120900
0.068955 0.079375 0.079904
0.069171 0.074737 0.078153
0.180877 0.098939 0.080240
0.554649 0.170614 0.082192
0.761907 0.308560 0.085583
0.864400 0.455530 0.090220
0.919468 0.577532 0.096785
0.949961 0.664806 0.106826
0.962958 0.732874 0.119585
0.069520 0.217976 0.082587
0.079146 0.173956 0.080680
0.138561 0.143853 0.079300
0.416699 0.213572 0.080334
0.690878 0.355280 0.082524
0.837433 0.494419 0.086882
0.905005 0.603886 0.093199
0.942083 0.683190 0.102557
0.959577 0.747464 0.115585
0.077427 0.507445 0.083796
0.096918 0.470711 0.082521
0.209917 0.403795 0.080942
0.406376 0.379087 0.080503
0.634987 0.449548 0.081402
0.795715 0.560739 0.084697
0.881173 0.648306 0.090332
0.929478 0.715900 0.098459
0.954612 0.770297 0.111284
0.096031 0.692827 0.085220
0.130644 0.678772 0.084433
0.279712 0.644113 0.083006
0.478779 0.610760 0.082065
0.638414 0.606917 0.082305
0.769545 0.645088 0.084180
0.861738 0.704264 0.088919
0.917362 0.759018 0.096379
0.949354 0.803342 0.108070
0.133789 0.805286 0.086914
0.173352 0.798400 0.086572
0.327767 0.779111 0.085684
0.521631 0.758511 0.084971
0.665035 0.747648 0.085130
0.773375 0.751102 0.086416
0.850173 0.770690 0.089479
0.907053 0.808788 0.096256
0.941040 0.840541 0.107150
0.181745 0.872430 0.089051
0.224828 0.869340 0.088849
0.366662 0.860078 0.088336
0.549606 0.848665 0.088027
0.679905 0.840333 0.088516
0.782127 0.838573 0.090161
0.851656 0.844306 0.093001
0.898787 0.856719 0.098100
0.934763 0.878793 0.108945
0.237020 0.909438 0.091573
0.278793 0.908187 0.091540
0.399698 0.904302 0.091513
0.565592 0.899157 0.091749
0.686791 0.894894 0.092573
0.785839 0.893314 0.094499
0.852998 0.895340 0.097967
0.898668 0.900979 0.104151
0.931113 0.909624 0.113357
0.288627 0.934244 0.093913
0.320855 0.933679 0.093995
0.427819 0.931903 0.094342
0.572930 0.929514 0.095152
0.687594 0.927548 0.096665
0.784613 0.927006 0.099061
0.851515 0.928544 0.103915
0.896570 0.932368 0.111045
0.929382 0.938303 0.120922
0.069330 0.077429 0.323062
0.079449 0.083612 0.325884
0.325405 0.113537 0.336070
0.637385 0.195907 0.315115
0.784868 0.316635 0.274888
0.869365 0.451615 0.264682
0.920390 0.570801 0.266465
0.949963 0.658669 0.274139
0.962811 0.726937 0.285265
0.068442 0.099544 0.325535
0.080823 0.106684 0.313134
0.255438 0.127846 0.241650
0.569144 0.196721 0.229798
0.756306 0.323439 0.233679
0.859400 0.459756 0.241819
0.916096 0.577210 0.252300
0.948194 0.663470 0.264695
0.961750 0.731380 0.278651
0.068528 0.180211 0.188496
0.075254 0.155286 0.141082
0.102686 0.118062 0.094523
0.383113 0.207628 0.124319
0.674536 0.350476 0.158108
0.826418 0.489346 0.188493
0.898971 0.599925 0.214588
0.938965 0.680395 0.237316
0.958365 0.745720 0.258533
0.074966 0.459554 0.214714
0.089039 0.429303 0.184027
0.174454 0.359637 0.132589
0.346978 0.333246 0.111827
0.603539 0.425993 0.123919
0.781653 0.548416 0.149300
0.874313 0.641580 0.176838
0.926147 0.711211 0.205867
0.953395 0.767828 0.232589
0.091207 0.670755 0.217590
0.119775 0.657895 0.201617
0.250813 0.621561 0.164237
0.440192 0.585962 0.136309
0.609313 0.583152 0.126598
0.751280 0.631732 0.133942
0.855019 0.695397 0.156597
0.914128 0.754351 0.182433
0.947605 0.800404 0.210860
0.126829 0.793244 0.209991
0.162670 0.786727 0.201841
0.309429 0.768186 0.179411
0.501244 0.747898 0.157993
0.650251 0.736183 0.145019
0.759347 0.741645 0.141908
0.844946 0.764503 0.150442
0.902910 0.804383 0.171058
0.939106 0.838493 0.197991
0.174491 0.866689 0.199741
0.214934 0.863721 0.195676
0.355047 0.854769 0.183698
0.536660 0.843632 0.169451
0.671382 0.835497 0.160364
0.775640 0.834090 0.157089
0.847764 0.840565 0.160450
0.895960 0.854497 0.170460
0.933383 0.877829 0.194561
0.230619 0.907074 0.189367
0.272787 0.905868 0.187497
0.392048 0.902115 0.181800
0.559282 0.897134 0.174574
0.681831 0.893037 0.169428
0.782153 0.891662 0.168457
0.850779 0.893996 0.172411
0.896838 0.900067 0.182966
0.930267 0.909211 0.199261
0.285055 0.933231 0.179371
0.316923 0.932689 0.178714
0.423197 0.930989 0.176770
0.569745 0.928711 0.174603
0.684951 0.926881 0.173889
0.782754 0.926502 0.176216
0.850468 0.928244 0.182745
0.895791 0.932326 0.194092
0.929104 0.938554 0.210524
0.069330 0.097451 0.709006
0.079576 0.106440 0.709966
0.325825 0.154195 0.713403
0.667544 0.277640 0.719683
0.805334 0.392177 0.671807
0.874189 0.493791 0.622864
0.920589 0.590092 0.596460
0.949404 0.667695 0.578881
0.962012 0.732367 0.565540
0.068355 0.130955 0.709847
0.081905 0.146508 0.710806
0.333696 0.205778 0.714239
0.636204 0.300495 0.684708
0.779774 0.393755 0.628348
0.863552 0.498660 0.599027
0.916038 0.594888 0.581158
0.946944 0.671725 0.567725
0.960936 0.736384 0.558172
0.068714 0.227118 0.583535
0.078138 0.217163 0.545718
0.176148 0.220351 0.480970
0.458673 0.288116 0.478066
0.690062 0.400946 0.505405
0.828454 0.516608 0.521191
0.897413 0.612124 0.529839
0.937254 0.686086 0.533797
0.957451 0.748463 0.534992
0.073335 0.429239 0.527399
0.084181 0.407590 0.490157
0.154782 0.345753 0.377858
0.286128 0.294466 0.257728
0.590106 0.429116 0.350395
0.775167 0.552575 0.415840
0.870244 0.644123 0.456716
0.923692 0.712954 0.484004
0.952332 0.768826 0.501688
0.086178 0.648298 0.535460
0.108429 0.637513 0.516327
0.219736 0.600137 0.448166
0.398361 0.564075 0.369074
0.576023 0.559355 0.323203
0.733195 0.620661 0.350753
0.848666 0.690750 0.399057
0.911007 0.752513 0.433835
0.945246 0.799651 0.460319
0.118060 0.779199 0.526483
0.150555 0.773394 0.515773
0.287616 0.756467 0.475823
0.477178 0.736024 0.423460
0.627759 0.722050 0.379682
0.740739 0.728663 0.358299
0.837540 0.758912 0.371228
0.898064 0.800892 0.404828
0.936813 0.837208 0.431762
0.164809 0.859503 0.506616
0.202327 0.856778 0.498599
0.339667 0.848471 0.473698
0.519809 0.837938 0.440657
0.660318 0.830111 0.410822
0.765257 0.829004 0.390297
0.842534 0.836308 0.383857
0.892296 0.852442 0.394139
0.931580 0.876944 0.418060
0.221481 0.903997 0.473289
0.262832 0.902877 0.469092
0.381198 0.899378 0.455783
0.548170 0.894712 0.437068
0.674928 0.890897 0.418821
0.777019 0.889794 0.405986
0.847657 0.892509 0.401242
0.894241 0.899147 0.404957
0.929090 0.909011 0.415895
0.279663 0.931909 0.438596
0.311009 0.931410 0.436651
0.416272 0.929843 0.430403
0.565039 0.927762 0.421462
0.681050 0.926155 0.412746
0.780026 0.926021 0.407096
0.848930 0.928055 0.406464
0.894644 0.932499 0.411672
0.928694 0.939149 0.422522
0.069330 0.149085 0.885082
0.079764 0.164444 0.885405
0.326453 0.229213 0.886565
0.667744 0.358394 0.888499
0.836419 0.499773 0.883367
0.886499 0.563253 0.843195
0.924588 0.630472 0.809430
0.950119 0.689098 0.783664
0.962019 0.745632 0.764895
0.068244 0.199194 0.885365
0.082121 0.219138 0.885689
0.334326 0.292218 0.886847
0.670247 0.414244 0.888697
0.811647 0.497896 0.861650
0.875775 0.564834 0.828254
0.919897 0.633731 0.797321
0.948264 0.692280 0.775890
0.960908 0.748322 0.759726
0.069888 0.389698 0.873333
0.087532 0.388018 0.863760
0.281026 0.395754 0.839721
0.564328 0.429649 0.808236
0.733399 0.494103 0.785381
0.844013 0.571043 0.770880
0.902316 0.643637 0.760371
0.938128 0.703732 0.749402
0.957295 0.757957 0.738607
0.073171 0.458524 0.758273
0.084551 0.447608 0.740423
0.177300 0.425562 0.694961
0.394586 0.433395 0.657194
0.629208 0.501679 0.664392
0.785430 0.587392 0.686143
0.872475 0.662511 0.699246
0.923623 0.725664 0.706027
0.951939 0.775862 0.707725
0.083180 0.636227 0.735483
0.100660 0.625718 0.721708
0.201056 0.595743 0.680166
0.375825 0.562042 0.613423
0.536457 0.539879 0.547052
0.726626 0.628057 0.602285
0.846434 0.697777 0.637421
0.908832 0.757386 0.660970
0.943852 0.803724 0.675111
0.109801 0.767368 0.729853
0.138826 0.762503 0.721351
0.266641 0.747913 0.695003
0.450906 0.727059 0.652747
0.606354 0.711864 0.611059
0.721380 0.717459 0.588971
0.829046 0.756824 0.603479
0.894147 0.801140 0.626977
0.934942 0.838293 0.644976
0.155480 0.852656 0.715178
0.189756 0.850274 0.710149
0.321878 0.842918 0.694132
0.502310 0.833342 0.667989
0.647501 0.825938 0.638511
0.752416 0.824867 0.616883
0.834484 0.832818 0.607624
0.888606 0.851701 0.613759
0.929807 0.877263 0.628664
0.211106 0.900949 0.693428
0.250710 0.899953 0.690586
0.368888 0.896827 0.680932
0.535730 0.892633 0.663143
0.667304 0.889219 0.644310
0.771334 0.888417 0.628958
0.844171 0.891485 0.620083
0.891328 0.898709 0.618496
0.927972 0.909656 0.623557
0.273178 0.930645 0.663536
0.303909 0.930205 0.661610
0.408002 0.928828 0.655281
0.558573 0.927024 0.645720
0.676483 0.925719 0.635360
0.776868 0.925890 0.626768
0.847156 0.928256 0.621858
0.893325 0.933104 0.621503
0.928232 0.940232 0.625464
0.069295 0.253019 0.952274
0.080018 0.273776 0.952358
0.327302 0.342264 0.952661
0.668015 0.454854 0.953215
0.844557 0.582409 0.954039
0.901384 0.639870 0.940085
0.930917 0.677073 0.916714
0.951865 0.722090 0.897575
0.962805 0.764256 0.881146
0.068113 0.314033 0.952348
0.082412 0.332847 0.952432
0.335178 0.400913 0.952735
0.670516 0.501324 0.953289
0.842412 0.606415 0.952474
0.891098 0.639941 0.933510
0.926272 0.678628 0.910318
0.950261 0.724501 0.893314
0.961658 0.766490 0.877048
0.070490 0.499977 0.952613
0.093453 0.514863 0.952697
0.361170 0.559050 0.952999
0.633795 0.571579 0.940225
0.779322 0.598637 0.921366
0.860084 0.641134 0.903715
0.911666 0.684542 0.890221
0.941371 0.733307 0.876129
0.957950 0.774557 0.863709
0.074406 0.558960 0.903652
0.090732 0.556620 0.899579
0.232759 0.554209 0.888257
0.493561 0.565237 0.871436
0.682810 0.598415 0.860665
0.808948 0.647942 0.855293
0.880962 0.697582 0.851891
0.926240 0.748486 0.848328
0.952378 0.789811 0.843891
0.082236 0.648466 0.860836
0.098946 0.643529 0.855023
0.205175 0.628064 0.837371
0.406882 0.613536 0.806199
0.601497 0.625290 0.787217
0.749553 0.668239 0.792342
0.851448 0.723159 0.804452
0.910761 0.771521 0.813209
0.943989 0.814122 0.817189
0.104027 0.762441 0.849750
0.130411 0.758673 0.845461
0.249256 0.747134 0.830520
0.434608 0.729907 0.800401
0.595257 0.714743 0.768936
0.702573 0.709463 0.737755
0.826203 0.763285 0.765101
0.892956 0.808215 0.781255
0.934158 0.843037 0.791402
0.146787 0.847802 0.841836
0.178175 0.845824 0.839099
0.305778 0.839636 0.828203
0.486811 0.831345 0.808019
0.634472 0.824520 0.786257
0.740639 0.822911 0.768224
0.825585 0.830710 0.759487
0.885487 0.853093 0.766265
0.928445 0.879076 0.776094
0.201315 0.898545 0.828146
0.238514 0.897700 0.825651
0.356460 0.895036 0.817421
0.523329 0.891440 0.804836
0.659833 0.888530 0.790801
0.763538 0.888023 0.778462
0.840526 0.891310 0.770378
0.888374 0.899043 0.767811
0.926922 0.911181 0.770900
0.265333 0.929734 0.805422
0.296285 0.929366 0.804035
0.399153 0.928223 0.799423
0.550225 0.926759 0.792249
0.671691 0.925822 0.784117
0.773606 0.926337 0.776838
0.845339 0.929044 0.771898
0.891986 0.934294 0.770093
0.927786 0.941913 0.771300
0.069148 0.394070 0.979484
0.080338 0.410922 0.979516
0.328383 0.465618 0.979631
0.668360 0.556227 0.979841
0.844663 0.649650 0.980155
0.913534 0.709004 0.976009
0.937733 0.731678 0.966130
0.954110 0.759040 0.952402
0.964104 0.788909 0.941699
0.067959 0.442920 0.979512
0.082780 0.458081 0.979544
0.336262 0.511931 0.979659
0.670859 0.587709 0.979869
0.845433 0.671585 0.980182
0.905383 0.708115 0.973148
0.933271 0.732430 0.962486
0.952531 0.760401 0.949888
0.962950 0.790720 0.939941
0.070695 0.586805 0.979613
0.093941 0.596773 0.979645
0.362155 0.631774 0.979759
0.679130 0.679344 0.979854
0.809302 0.687139 0.971587
0.876082 0.706382 0.962136
0.919095 0.735752 0.950853
0.945990 0.765505 0.941699
0.959196 0.797334 0.932715
0.076982 0.661562 0.967633
0.101137 0.660941 0.966667
0.292101 0.660827 0.961154
0.565204 0.666466 0.953593
0.727494 0.682263 0.946048
0.835368 0.708996 0.939544
0.892564 0.743777 0.932721
0.930724 0.776009 0.924490
0.953505 0.810117 0.917009
0.083879 0.691487 0.937333
0.104295 0.689441 0.935628
0.233162 0.684718 0.927180
0.467285 0.684339 0.916457
0.653797 0.696588 0.908044
0.781166 0.724563 0.903871
0.861904 0.759243 0.902413
0.914542 0.794687 0.901428
0.945679 0.828907 0.899716
0.101505 0.769974 0.916636
0.127272 0.767483 0.914118
0.245957 0.759991 0.905976
0.441353 0.751172 0.894113
0.612041 0.747493 0.880060
0.735713 0.758166 0.871402
0.837170 0.787809 0.874119
0.896152 0.824517 0.879690
0.934899 0.852330 0.883267
0.140014 0.846856 0.907902
0.169301 0.845324 0.906103
0.293933 0.840500 0.900143
0.476567 0.833957 0.890931
0.627467 0.828432 0.877254
0.734766 0.826588 0.863461
0.817102 0.830313 0.852851
0.884474 0.858711 0.862626
0.928019 0.883101 0.869070
0.192777 0.897420 0.899517
0.227479 0.896740 0.898372
0.345194 0.894592 0.894545
0.512321 0.891693 0.888539
0.653429 0.889392 0.878887
0.757029 0.889174 0.869708
0.835699 0.892390 0.863051
0.885559 0.900324 0.860630
0.926070 0.913617 0.863530
0.256802 0.929449 0.888835
0.288741 0.929161 0.888166
0.390416 0.928277 0.885042
0.542038 0.927197 0.880032
0.667080 0.926671 0.874200
0.770163 0.927554 0.868777
0.843646 0.930581 0.864848
0.890750 0.936186 0.863118
0.927414 0.943544 0.863605
0.069013 0.530647 0.992528
0.080725 0.543123 0.992531
0.329704 0.580096 0.992545
0.668780 0.642809 0.992569
0.844792 0.711098 0.992606
0.920202 0.772611 0.992385
0.943625 0.780332 0.986142
0.956331 0.796263 0.977588
0.965565 0.817904 0.970734
0.067790 0.564846 0.992531
0.083225 0.575046 0.992535
0.337586 0.610814 0.992548
0.671277 0.664988 0.992573
0.845562 0.731054 0.992610
0.914565 0.771284 0.991948
0.939477 0.780375 0.984217
0.954808 0.797158 0.976232
0.964430 0.819331 0.969761
0.070938 0.664352 0.992543
0.094535 0.671361 0.992546
0.363358 0.695911 0.992560
0.680189 0.738829 0.992584
0.831686 0.762274 0.991928
0.889393 0.767932 0.985417
0.926024 0.781186 0.977992
0.949819 0.800703 0.971772
0.960687 0.824158 0.966421
0.079896 0.749630 0.991568
0.113357 0.749047 0.990743
0.338302 0.747932 0.987822
0.607388 0.748866 0.983380
0.764063 0.754711 0.978310
0.852496 0.766930 0.973398
0.904194 0.785331 0.968935
0.935821 0.808647 0.963598
0.954988 0.832021 0.957161
0.086889 0.752032 0.972173
0.113548 0.751494 0.971564
0.271019 0.750626 0.969618
0.514847 0.752365 0.966818
0.688048 0.760046 0.961590
0.804751 0.775233 0.956926
0.873505 0.797199 0.953106
0.919426 0.823608 0.949811
0.948365 0.845273 0.946671
0.102933 0.793121 0.956894
0.129843 0.791863 0.955861
0.258094 0.788382 0.952521
0.468777 0.785595 0.947681
0.641719 0.788108 0.942900
0.764902 0.799922 0.939610
0.849149 0.821644 0.938146
0.902481 0.842965 0.937637
0.936941 0.865773 0.937101
0.136356 0.851888 0.947957
0.164796 0.850843 0.947104
0.288906 0.847604 0.944263
0.475039 0.843467 0.939835
0.631140 0.840825 0.933871
0.743846 0.842625 0.926066
0.831773 0.852773 0.922318
0.888344 0.872437 0.923500
0.928978 0.890072 0.925510
0.185971 0.898262 0.942391
0.218763 0.897754 0.941806
0.336228 0.896161 0.939834
0.504236 0.894059 0.936688
0.648091 0.892547 0.930579
0.753630 0.892846 0.924086
0.833339 0.895991 0.918861
0.883018 0.902670 0.915688
0.925770 0.917301 0.919197
0.249048 0.930060 0.936461
0.281846 0.929855 0.936105
0.382454 0.929240 0.934077
0.534661 0.928564 0.930667
0.663030 0.928476 0.926623
0.766505 0.929738 0.922750
0.842290 0.933044 0.919828
0.889748 0.938894 0.918450
0.927165 0.945424 0.918816
0.068829 0.638539 0.995081
0.081179 0.645850 0.995083
0.331272 0.671408 0.995094
0.669278 0.715875 0.995112
0.844946 0.769259 0.995140
0.923960 0.826088 0.995177
0.947982 0.826566 0.993490
0.958160 0.832256 0.992012
0.966879 0.842612 0.986664
0.067549 0.660872 0.995083
0.083749 0.667920 0.995086
0.339064 0.692602 0.995096
0.671775 0.735709 0.995114
0.845715 0.783317 0.995142
0.919328 0.825590 0.994814
0.944126 0.826247 0.993197
0.956711 0.832615 0.991794
0.965775 0.843409 0.985685
0.071218 0.735135 0.995092
0.095236 0.741275 0.995095
0.364786 0.758562 0.995105
0.680679 0.788768 0.995123
0.844438 0.823111 0.994943
0.899096 0.821537 0.993541
0.931571 0.825686 0.992236
0.951933 0.834214 0.988591
0.962101 0.846443 0.982412
0.082485 0.817689 0.994817
0.124155 0.816781 0.994681
0.370622 0.814245 0.994224
0.638249 0.811951 0.993496
0.785664 0.812474 0.992609
0.864419 0.817704 0.991676
0.912992 0.826877 0.986797
0.940499 0.838406 0.981777
0.956475 0.852753 0.977291
0.091463 0.807308 0.991618
0.124457 0.807022 0.991408
0.301114 0.806573 0.989644
0.555362 0.807628 0.986876
0.715765 0.812288 0.983589
0.824307 0.821935 0.980221
0.883892 0.833178 0.977044
0.924242 0.847424 0.974129
0.950042 0.863900 0.971410
0.107192 0.827018 0.978445
0.136607 0.826653 0.978031
0.277556 0.825815 0.976669
0.495315 0.825886 0.974601
0.666165 0.828845 0.972312
0.784276 0.836189 0.970234
0.858931 0.848186 0.968543
0.909350 0.863889 0.967152
0.939481 0.880554 0.965192
0.136366 0.864072 0.971064
0.165111 0.863500 0.970702
0.291582 0.861831 0.969498
0.482486 0.860161 0.967621
0.643416 0.860438 0.964532
0.759195 0.864827 0.961118
0.843090 0.874828 0.958907
0.893972 0.886381 0.957862
0.930802 0.899217 0.957253
0.181657 0.901728 0.966958
0.213346 0.901396 0.966685
0.330565 0.900383 0.965019
0.500473 0.899177 0.962288
0.647137 0.898699 0.959014
0.755187 0.900043 0.955832
0.836615 0.904313 0.953392
0.887156 0.912627 0.952370
0.926547 0.923092 0.952605
0.242624 0.931824 0.960986
0.276109 0.931699 0.960667
0.375878 0.931351 0.959587
0.528709 0.931082 0.957848
0.659944 0.931447 0.955755
0.764016 0.933105 0.953712
0.841507 0.936678 0.952123
0.889241 0.942539 0.951316
0.927088 0.947787 0.951518
