negative-portra-400/Portra400_Classic_Soft.cube
TITLE "Kodak Portra 400 Classic Soft"
# Adobe RGB in/out. REPLACES AgX. Kodak Portra 400 Classic Soft.
LUT_3D_SIZE 5
DOMAIN_MIN 0.0 0.0 0.0
DOMAIN_MAX 1.0 1.0 1.0
0.060898 0.068150 0.085817
0.254242 0.077871 0.088257
0.638644 0.098812 0.096584
0.731120 0.118999 0.112327
0.759847 0.336025 0.591801
0.067907 0.121060 0.088562
0.101973 0.127608 0.092315
0.545141 0.155791 0.099485
0.722839 0.200513 0.111996
0.759848 0.336038 0.591799
0.081278 0.434296 0.096521
0.097686 0.453665 0.100418
0.350653 0.463380 0.108475
0.668757 0.485232 0.120276
0.760048 0.512375 0.280625
0.100251 0.638144 0.104274
0.113836 0.644230 0.108759
0.275264 0.650588 0.120204
0.587721 0.653502 0.132912
0.757705 0.663093 0.158127
0.112021 0.710460 0.101100
0.134472 0.728812 0.101114
0.224153 0.737946 0.114476
0.518902 0.735557 0.131051
0.762294 0.740697 0.140844
0.063013 0.081635 0.141071
0.216250 0.108172 0.380942
0.647447 0.123244 0.297050
0.730765 0.159361 0.386595
0.759848 0.336045 0.591817
0.074126 0.127148 0.138390
0.160785 0.155912 0.164999
0.602213 0.181733 0.178693
0.725158 0.234818 0.228248
0.759848 0.336038 0.591800
0.090460 0.438007 0.142694
0.120245 0.450268 0.149383
0.432773 0.464404 0.163711
0.695260 0.492188 0.185985
0.759943 0.529542 0.494256
0.110180 0.638266 0.145198
0.131115 0.643026 0.152236
0.337579 0.649213 0.169204
0.616040 0.653687 0.193350
0.758553 0.664485 0.237664
0.112023 0.717595 0.125175
0.134472 0.735255 0.125173
0.249998 0.738246 0.142848
0.533566 0.736327 0.173969
0.763761 0.741472 0.192028
0.066460 0.119431 0.454941
0.166464 0.190124 0.623156
0.632567 0.231904 0.623669
0.728113 0.283147 0.636913
0.759848 0.366879 0.668812
0.078535 0.198987 0.465045
0.149424 0.256257 0.565237
0.601383 0.306897 0.594589
0.723874 0.358434 0.619906
0.759848 0.364422 0.662003
0.103188 0.463928 0.430085
0.150575 0.473856 0.452870
0.502282 0.503342 0.506734
0.707011 0.526433 0.547256
0.759578 0.557662 0.651922
0.129834 0.646015 0.430152
0.167374 0.648446 0.438002
0.407181 0.653225 0.460827
0.653766 0.659434 0.487023
0.759237 0.674450 0.596062
0.123961 0.733795 0.516612
0.130671 0.738646 0.516610
0.305413 0.739456 0.457834
0.565239 0.739124 0.468318
0.764533 0.745372 0.499778
0.070210 0.262531 0.688096
0.125120 0.322942 0.722382
0.620551 0.359355 0.723735
0.725887 0.388226 0.725888
0.759847 0.395473 0.725750
0.081107 0.356311 0.695574
0.136552 0.387284 0.718812
0.598414 0.417105 0.722348
0.722663 0.446458 0.725117
0.759842 0.394386 0.724584
0.112413 0.525161 0.672451
0.168179 0.535093 0.691221
0.521934 0.550859 0.711331
0.710333 0.566606 0.720501
0.759349 0.587354 0.729489
0.144639 0.658391 0.646771
0.183477 0.660885 0.653931
0.436524 0.666919 0.676771
0.670896 0.674449 0.696212
0.759627 0.688462 0.727403
0.124996 0.736608 0.617248
0.133009 0.742197 0.617538
0.314207 0.745415 0.644382
0.573926 0.745586 0.651238
0.764792 0.755011 0.712961
0.104826 0.422575 0.780982
0.376454 0.430607 0.781017
0.673442 0.452551 0.781243
0.735603 0.464257 0.782012
0.759848 0.458450 0.778596
0.124996 0.464391 0.780507
0.360770 0.470410 0.780591
0.668315 0.488718 0.780935
0.734842 0.500694 0.781777
0.759848 0.467435 0.782109
0.174998 0.578168 0.779551
0.329355 0.580806 0.779821
0.643491 0.589520 0.780413
0.731590 0.597789 0.781393
0.761572 0.609836 0.784152
0.169132 0.681939 0.779671
0.246763 0.683041 0.780138
0.566485 0.686314 0.780966
0.721751 0.690746 0.781999
0.762772 0.699778 0.784226
0.120452 0.737357 0.724183
0.134473 0.748190 0.736294
0.235450 0.761104 0.763764
0.555212 0.761515 0.784052
0.765107 0.766052 0.785199
