negative-portra-400/Portra400_Modern_Soft.cube
TITLE "Kodak Portra 400 Modern Soft"
# Adobe RGB in/out. REPLACES AgX. Kodak Portra 400 Modern Soft.
LUT_3D_SIZE 9
DOMAIN_MIN 0.0 0.0 0.0
DOMAIN_MAX 1.0 1.0 1.0
0.060898 0.068150 0.085817
0.125191 0.074883 0.087394
0.512683 0.089215 0.092418
0.705925 0.109798 0.099302
0.777599 0.139368 0.107562
0.806899 0.177018 0.118243
0.821230 0.189432 0.135768
0.830677 0.223935 0.633959
0.823955 0.473547 0.698502
0.065371 0.094971 0.087185
0.077620 0.089404 0.088139
0.310519 0.100788 0.092609
0.628803 0.125023 0.099271
0.750039 0.164271 0.107294
0.797829 0.201733 0.117582
0.816354 0.216105 0.132737
0.827921 0.218375 0.628603
0.821995 0.469242 0.695131
0.075646 0.287977 0.093296
0.081784 0.250812 0.094455
0.127161 0.178456 0.095526
0.416817 0.202751 0.100197
0.649666 0.262949 0.107717
0.755314 0.317702 0.117131
0.798811 0.338050 0.129166
0.819358 0.221477 0.613039
0.815607 0.455383 0.684206
0.087296 0.511420 0.100032
0.091569 0.492814 0.101089
0.123590 0.446061 0.102917
0.269504 0.391588 0.104788
0.514025 0.397564 0.109983
0.680412 0.433409 0.118362
0.765425 0.460541 0.128864
0.798777 0.464386 0.145858
0.806067 0.406834 0.595499
0.101516 0.623049 0.106646
0.104949 0.614434 0.107768
0.130204 0.592596 0.110871
0.231979 0.562283 0.113530
0.423236 0.538043 0.116338
0.595538 0.535910 0.122003
0.716539 0.550554 0.131031
0.778295 0.560999 0.143858
0.795841 0.569497 0.353527
0.116843 0.687498 0.112662
0.119639 0.683799 0.113769
0.143741 0.675367 0.117641
0.219384 0.660901 0.121403
0.389543 0.645332 0.125091
0.534360 0.627607 0.129041
0.656452 0.623244 0.135261
0.749981 0.633276 0.146050
0.785553 0.641514 0.180313
0.130941 0.730951 0.116070
0.133304 0.728631 0.117017
0.154616 0.722780 0.121381
0.214279 0.713078 0.126964
0.358493 0.701339 0.131657
0.492869 0.690400 0.136691
0.614150 0.683075 0.142358
0.718282 0.680492 0.149554
0.774430 0.685143 0.167720
0.141987 0.771135 0.112022
0.143039 0.768838 0.112787
0.160015 0.761573 0.118862
0.204467 0.753448 0.126413
0.329118 0.743950 0.132953
0.457618 0.734258 0.139983
0.582254 0.726689 0.145965
0.684198 0.722943 0.152517
0.767253 0.721970 0.163961
0.130500 0.763448 0.105566
0.129996 0.762318 0.105457
0.163765 0.776676 0.105110
0.159472 0.773946 0.111404
0.270875 0.774884 0.119196
0.413880 0.767792 0.128753
0.536074 0.760211 0.135476
0.639700 0.756097 0.140652
0.766309 0.755690 0.142925
0.062629 0.077789 0.122181
0.098908 0.103149 0.353679
0.514076 0.100798 0.157962
0.717723 0.119699 0.140500
0.778190 0.148359 0.131917
0.804623 0.180761 0.135439
0.819073 0.195516 0.156189
0.829200 0.220968 0.631127
0.822939 0.471316 0.696755
0.068488 0.094242 0.109408
0.084697 0.089093 0.106552
0.358042 0.105442 0.118960
0.652032 0.130439 0.128153
0.754109 0.169758 0.128645
0.795990 0.205353 0.132891
0.814253 0.220912 0.149945
0.826450 0.215517 0.625729
0.820987 0.467035 0.693401
0.080774 0.263949 0.118158
0.088149 0.212949 0.114658
0.148136 0.159173 0.109889
0.463709 0.195053 0.117172
0.665651 0.261867 0.123688
0.757277 0.316239 0.129960
0.797313 0.337444 0.141813
0.817966 0.224658 0.610896
0.814631 0.453292 0.682544
0.092973 0.493182 0.120925
0.098983 0.472863 0.120531
0.138757 0.419383 0.118804
0.302240 0.372575 0.118362
0.536808 0.388180 0.122638
0.689491 0.427854 0.129352
0.765790 0.457615 0.139353
0.797569 0.463389 0.158525
0.805160 0.430145 0.665415
0.106144 0.613110 0.121401
0.110603 0.604449 0.122489
0.142104 0.581782 0.124764
0.257016 0.552301 0.126008
0.441728 0.530685 0.128103
0.604421 0.531497 0.131647
0.720208 0.547742 0.140786
0.777687 0.559174 0.153858
0.795040 0.571170 0.410691
0.120138 0.683289 0.122691
0.123522 0.679676 0.123912
0.151511 0.671000 0.128138
0.234920 0.656624 0.131488
0.401394 0.639397 0.134672
0.544445 0.623218 0.139129
0.662697 0.620542 0.144701
0.751341 0.631430 0.155419
0.784765 0.640983 0.197663
0.133252 0.728625 0.123476
0.136593 0.726328 0.124679
0.159474 0.720413 0.129559
0.224513 0.710693 0.135162
0.367174 0.699114 0.140842
0.500291 0.688519 0.145869
0.619192 0.681691 0.151628
0.721243 0.679663 0.158799
0.774086 0.684753 0.180608
0.142762 0.769462 0.115835
0.144188 0.767275 0.116813
0.162603 0.760313 0.124773
0.210535 0.752237 0.132540
0.337691 0.742805 0.140874
0.462356 0.733292 0.147642
0.585432 0.725999 0.154403
0.688258 0.722496 0.161376
0.767347 0.721742 0.173847
0.130238 0.771243 0.136825
0.129740 0.770110 0.136479
0.163364 0.780962 0.135322
0.159109 0.777184 0.133500
0.274440 0.774668 0.123401
0.416081 0.767502 0.133585
0.538401 0.760067 0.141909
0.641592 0.756085 0.147008
0.766808 0.755721 0.148959
0.065052 0.099090 0.291923
0.110877 0.213279 0.675390
0.487564 0.219440 0.649312
0.722490 0.226426 0.593191
0.778561 0.237554 0.528079
0.802452 0.271667 0.521288
0.815910 0.293988 0.560565
0.826690 0.232958 0.635782
0.820835 0.466708 0.693157
0.073773 0.129016 0.305708
0.107428 0.160871 0.461053
0.408782 0.171084 0.479975
0.665626 0.195735 0.455194
0.756472 0.235953 0.437841
0.794124 0.277121 0.460025
0.811082 0.300338 0.515504
0.823919 0.232152 0.631816
0.818870 0.462424 0.689778
0.083187 0.226362 0.203820
0.092149 0.190082 0.185047
0.162942 0.156081 0.166107
0.491249 0.208967 0.208688
0.682594 0.286939 0.257300
0.759708 0.341325 0.309075
0.794959 0.365927 0.357109
0.814713 0.308191 0.611077
0.812482 0.448715 0.678894
0.100896 0.464913 0.217323
0.109074 0.445575 0.207000
0.160352 0.385782 0.184448
0.345738 0.341147 0.170940
0.575256 0.380210 0.192811
0.706066 0.431129 0.226044
0.766377 0.461810 0.256863
0.795030 0.473490 0.359845
0.803016 0.424332 0.661265
0.119702 0.598552 0.216025
0.126854 0.589494 0.212036
0.171198 0.564764 0.202212
0.307070 0.535538 0.191302
0.479904 0.514680 0.187382
0.631304 0.525698 0.201781
0.728933 0.545345 0.220664
0.776433 0.558471 0.267021
0.792965 0.579821 0.553300
0.137597 0.676874 0.210916
0.144501 0.673156 0.210054
0.181899 0.663120 0.208546
0.288476 0.648385 0.204739
0.435487 0.627523 0.201996
0.578811 0.614276 0.203605
0.684097 0.615923 0.210247
0.754785 0.628731 0.237411
0.782615 0.642125 0.338615
0.150640 0.724049 0.193623
0.155672 0.721767 0.194418
0.183222 0.715352 0.198508
0.270056 0.705275 0.202138
0.404353 0.693922 0.204696
0.529094 0.684132 0.208019
0.638677 0.678565 0.213698
0.730833 0.678085 0.228212
0.773101 0.684269 0.261361
0.153643 0.763369 0.170683
0.157024 0.761682 0.172834
0.180930 0.756514 0.184620
0.244965 0.748837 0.194592
0.367020 0.739655 0.202817
0.485616 0.730698 0.209377
0.600453 0.724274 0.216602
0.704364 0.721483 0.225612
0.767466 0.721394 0.235668
0.129404 0.769349 0.136251
0.164748 0.782173 0.135912
0.162093 0.779843 0.134784
0.157986 0.776155 0.133056
0.291628 0.773875 0.153340
0.428054 0.766642 0.171914
0.549509 0.759727 0.184771
0.650403 0.756195 0.192582
0.767372 0.756047 0.195925
0.068423 0.149834 0.552623
0.090628 0.314450 0.733762
0.458555 0.367519 0.753061
0.718981 0.391329 0.748278
0.785267 0.388592 0.725942
0.803824 0.386851 0.704290
0.815190 0.388356 0.701536
0.822909 0.363083 0.721717
0.819434 0.470840 0.711898
0.076017 0.210496 0.569197
0.100195 0.303732 0.680643
0.442208 0.378975 0.734677
0.684528 0.380774 0.720297
0.763813 0.378389 0.692012
0.795347 0.386624 0.680472
0.810193 0.393476 0.686052
0.819703 0.368993 0.714601
0.817418 0.466482 0.708570
0.088837 0.307255 0.470032
0.103239 0.298604 0.473575
0.242199 0.296200 0.508783
0.534578 0.321350 0.535736
0.695586 0.368557 0.563218
0.761476 0.405260 0.587540
0.793788 0.429923 0.620587
0.808104 0.439457 0.673915
0.810859 0.452542 0.697879
0.104483 0.449342 0.413156
0.113934 0.431993 0.398537
0.169318 0.381741 0.356837
0.356938 0.343776 0.333427
0.587478 0.397559 0.400126
0.709297 0.452282 0.459145
0.765114 0.484041 0.510490
0.792750 0.505161 0.594253
0.801144 0.428525 0.681242
0.128446 0.583893 0.415730
0.138248 0.575736 0.406527
0.183473 0.552762 0.380092
0.337136 0.524064 0.349088
0.496043 0.500480 0.336350
0.641752 0.524470 0.369008
0.730896 0.548253 0.417212
0.773782 0.565328 0.483681
0.790788 0.591796 0.643014
0.152651 0.669090 0.404192
0.161004 0.665621 0.399574
0.202714 0.655772 0.386158
0.324571 0.638423 0.365953
0.461563 0.617380 0.351950
0.595021 0.606519 0.349307
0.696352 0.613543 0.368188
0.754639 0.628645 0.409529
0.779971 0.649123 0.564346
0.166646 0.718611 0.380975
0.172981 0.716428 0.378578
0.206895 0.710023 0.373254
0.304811 0.700108 0.364866
0.428316 0.689072 0.357334
0.553875 0.680117 0.354034
0.656131 0.675838 0.357052
0.736240 0.677229 0.372453
0.771462 0.685860 0.462930
0.165595 0.758873 0.347338
0.170169 0.757372 0.346842
0.195595 0.752722 0.348671
0.277891 0.745299 0.348593
0.397430 0.736549 0.348261
0.508365 0.728290 0.348570
0.615452 0.722697 0.351258
0.715006 0.720761 0.357708
0.766957 0.722014 0.395480
0.142138 0.776572 0.350865
0.162683 0.783080 0.349195
0.160173 0.780845 0.343642
0.185960 0.779706 0.264156
0.328708 0.772559 0.319933
0.448299 0.765490 0.325302
0.565912 0.759450 0.330161
0.663651 0.756523 0.334148
0.767380 0.756999 0.342523
0.072170 0.279782 0.698505
0.083313 0.376009 0.759906
0.415690 0.462828 0.801172
0.702617 0.484594 0.801451
0.792789 0.501112 0.796080
0.809046 0.478787 0.770300
0.817605 0.463921 0.756242
0.822514 0.432960 0.751880
0.819438 0.490538 0.749596
0.077854 0.333777 0.707672
0.092099 0.400347 0.752332
0.407979 0.478428 0.794494
0.686407 0.501797 0.796566
0.775115 0.492373 0.777939
0.800683 0.477988 0.758732
0.812530 0.467682 0.748765
0.819266 0.441036 0.747210
0.817360 0.485160 0.745990
0.101004 0.459271 0.695015
0.120032 0.464206 0.708102
0.325830 0.479012 0.734153
0.586250 0.474546 0.730458
0.712906 0.475307 0.723396
0.769284 0.485794 0.720939
0.795901 0.491362 0.722898
0.808109 0.487964 0.729557
0.810575 0.467996 0.734368
0.111307 0.483144 0.587954
0.122811 0.475835 0.584981
0.198386 0.460092 0.585999
0.423925 0.452642 0.594793
0.610118 0.470444 0.613117
0.716886 0.502286 0.638396
0.767043 0.526968 0.663420
0.792374 0.537752 0.692644
0.801050 0.524393 0.722149
0.133145 0.577833 0.559642
0.145206 0.571634 0.554166
0.195866 0.553134 0.538613
0.350139 0.527448 0.518807
0.501664 0.505064 0.506193
0.648265 0.536840 0.547118
0.732062 0.563304 0.588218
0.772346 0.582898 0.634688
0.789411 0.604960 0.694095
0.162026 0.663283 0.551304
0.171261 0.660278 0.547034
0.221686 0.651467 0.535543
0.346375 0.633299 0.520341
0.474507 0.612865 0.506801
0.601322 0.603003 0.503634
0.700875 0.616708 0.527960
0.753425 0.635509 0.568436
0.777725 0.655445 0.658353
0.178067 0.713745 0.537349
0.183322 0.711799 0.534718
0.228924 0.705884 0.527515
0.333566 0.696628 0.517742
0.447806 0.686178 0.507943
0.570733 0.677915 0.502156
0.666302 0.674768 0.504148
0.738190 0.678411 0.521592
0.769585 0.690275 0.609131
0.174851 0.755189 0.520014
0.180809 0.753813 0.518199
0.214057 0.749462 0.513583
0.296011 0.742557 0.506240
0.411877 0.734390 0.499417
0.525345 0.726862 0.494876
0.627713 0.722076 0.493878
0.721848 0.721094 0.498009
0.766128 0.724533 0.546919
0.145075 0.777721 0.568370
0.147509 0.778137 0.567007
0.152475 0.778481 0.562443
0.216637 0.776074 0.497144
0.346693 0.771730 0.489428
0.461193 0.764958 0.484630
0.577727 0.759610 0.481996
0.673855 0.757370 0.481674
0.767135 0.759177 0.501930
0.076656 0.421345 0.779001
0.083415 0.468172 0.809724
0.383286 0.534338 0.839703
0.678335 0.548729 0.840505
0.791963 0.565648 0.840973
0.815741 0.550419 0.821351
0.822116 0.529379 0.798837
0.824665 0.495576 0.784451
0.820799 0.505357 0.770291
0.080927 0.453630 0.782955
0.089130 0.488551 0.808711
0.378104 0.545541 0.838242
0.666822 0.560255 0.839502
0.786648 0.573620 0.838510
0.807828 0.549296 0.811585
0.817145 0.531451 0.792425
0.821407 0.501314 0.780226
0.818680 0.500361 0.767632
0.107920 0.548258 0.787469
0.126003 0.559217 0.800245
0.376053 0.590953 0.827541
0.611236 0.576178 0.813101
0.730171 0.561378 0.795023
0.780841 0.551797 0.780801
0.800824 0.544654 0.771349
0.810387 0.534517 0.765805
0.811722 0.484220 0.758917
0.124226 0.554049 0.725639
0.139145 0.552945 0.727722
0.260777 0.554900 0.737527
0.482272 0.552357 0.739821
0.641245 0.552626 0.738053
0.730340 0.557760 0.737906
0.773660 0.564954 0.740004
0.794368 0.567512 0.743949
0.801621 0.552609 0.745746
0.141930 0.594314 0.671006
0.154199 0.590404 0.669224
0.222071 0.580765 0.667995
0.389572 0.567510 0.666050
0.547754 0.562514 0.667887
0.666189 0.573788 0.680176
0.737664 0.591957 0.697420
0.773965 0.606313 0.717302
0.789382 0.621657 0.731700
0.167072 0.662172 0.649284
0.177328 0.659863 0.646920
0.233366 0.652896 0.640967
0.357463 0.639187 0.633054
0.484614 0.620300 0.624278
0.603412 0.608008 0.618591
0.704150 0.630030 0.645864
0.753527 0.649016 0.676663
0.776775 0.662945 0.713779
0.183251 0.710959 0.636069
0.187850 0.709285 0.634158
0.241359 0.704181 0.628615
0.347376 0.696015 0.621225
0.459387 0.686495 0.614680
0.580517 0.678577 0.610857
0.670546 0.676077 0.613585
0.738491 0.682722 0.634707
0.768122 0.695870 0.689950
0.179713 0.752814 0.622126
0.183326 0.751598 0.620421
0.224041 0.747698 0.615716
0.310131 0.741427 0.609346
0.420499 0.733988 0.603647
0.535233 0.727179 0.599991
0.635512 0.723073 0.599419
0.724984 0.722983 0.603995
0.765150 0.729145 0.657297
0.144519 0.776387 0.603129
0.146581 0.776748 0.603912
0.150521 0.776974 0.607311
0.218901 0.775707 0.601773
0.351183 0.771632 0.594156
0.466051 0.765458 0.588538
0.582889 0.760823 0.584928
0.679277 0.759178 0.583536
0.766734 0.763104 0.626720
0.081550 0.537560 0.844966
0.086780 0.554562 0.855485
0.312944 0.585204 0.862871
0.663978 0.598220 0.863463
0.789243 0.613487 0.863877
0.822736 0.609567 0.856397
0.827718 0.578428 0.838992
0.828172 0.547009 0.819308
0.823054 0.527430 0.798638
0.084999 0.551336 0.846313
0.091861 0.565755 0.855181
0.322158 0.595538 0.862512
0.655742 0.608660 0.863250
0.786414 0.623856 0.863715
0.815525 0.607378 0.851160
0.822966 0.579797 0.834532
0.824980 0.550470 0.815320
0.820928 0.523637 0.795644
0.111454 0.610630 0.848915
0.126074 0.617990 0.853602
0.353831 0.639207 0.860449
0.631767 0.649487 0.861874
0.747451 0.627263 0.847421
0.791937 0.607072 0.832426
0.807328 0.589605 0.815417
0.814238 0.572000 0.802115
0.813907 0.505753 0.785497
0.143727 0.632263 0.814350
0.161520 0.632076 0.816644
0.304495 0.633250 0.820030
0.527937 0.625673 0.813664
0.671981 0.616922 0.803736
0.746918 0.610777 0.794698
0.783531 0.605663 0.787586
0.798317 0.599652 0.782259
0.803235 0.591365 0.776187
0.156021 0.635360 0.756214
0.168982 0.633820 0.757070
0.256376 0.631496 0.760600
0.427398 0.625774 0.760585
0.590204 0.621532 0.757986
0.692268 0.623005 0.756732
0.748203 0.627901 0.757674
0.778892 0.633350 0.759959
0.790808 0.641804 0.761541
0.173474 0.670147 0.727885
0.183242 0.668634 0.727560
0.246982 0.664518 0.727721
0.379249 0.657759 0.727333
0.513119 0.650676 0.725284
0.628450 0.648546 0.724903
0.713618 0.654174 0.730268
0.757179 0.662397 0.738620
0.777739 0.672221 0.747448
0.183347 0.711936 0.709386
0.191030 0.710641 0.708434
0.247003 0.706672 0.706455
0.353991 0.700141 0.704398
0.467760 0.692384 0.702564
0.587024 0.685007 0.700234
0.671510 0.680223 0.698182
0.739712 0.690992 0.718473
0.767849 0.702463 0.735924
0.177979 0.752795 0.692110
0.183254 0.751735 0.691053
0.223876 0.748296 0.688381
0.312844 0.742814 0.685093
0.423607 0.736263 0.682761
0.540042 0.730172 0.681892
0.639547 0.726526 0.683120
0.725792 0.727059 0.689259
0.764386 0.734836 0.725626
0.141675 0.774648 0.653375
0.146213 0.775874 0.652396
0.150983 0.776390 0.649330
0.202740 0.776679 0.670142
0.345672 0.772510 0.664325
0.463095 0.767417 0.660948
0.581632 0.763346 0.659056
0.678363 0.762256 0.658340
0.766416 0.768743 0.716013
0.088418 0.618467 0.883070
0.094483 0.620429 0.884281
0.351410 0.632747 0.885113
0.681325 0.644337 0.885275
0.794285 0.653365 0.885530
0.831333 0.657037 0.882953
0.834117 0.625053 0.864382
0.832780 0.586094 0.849884
0.825657 0.553953 0.830886
0.092548 0.627433 0.883008
0.099580 0.629433 0.884144
0.359948 0.642157 0.885096
0.674562 0.650878 0.885277
0.792236 0.659077 0.885536
0.824938 0.655205 0.878178
0.829735 0.625417 0.861014
0.829709 0.588979 0.847404
0.823579 0.552067 0.828063
0.123823 0.663505 0.882765
0.139962 0.664498 0.883548
0.401101 0.670755 0.884712
0.652947 0.676693 0.885072
0.770899 0.671778 0.877855
0.803663 0.654747 0.862998
0.815137 0.634089 0.850051
0.819378 0.607350 0.839023
0.816841 0.559463 0.818714
0.171592 0.686440 0.870564
0.185831 0.684806 0.869773
0.383271 0.681298 0.866166
0.583925 0.672983 0.858905
0.709837 0.663609 0.850197
0.767727 0.654832 0.841221
0.793463 0.646251 0.831298
0.803903 0.631446 0.820743
0.805935 0.618551 0.809700
0.177502 0.675662 0.830372
0.187647 0.674822 0.830235
0.315182 0.673226 0.828507
0.482608 0.668708 0.822616
0.628759 0.663991 0.815256
0.719181 0.660667 0.808500
0.762984 0.658279 0.803079
0.786623 0.655758 0.798952
0.793418 0.656756 0.794169
0.183236 0.689157 0.790720
0.191416 0.688361 0.791121
0.279550 0.686526 0.791823
0.412011 0.681919 0.788852
0.554631 0.677044 0.783949
0.660488 0.674791 0.780147
0.729424 0.675487 0.778764
0.765022 0.677564 0.779287
0.780682 0.682939 0.779525
0.183407 0.718954 0.763924
0.192558 0.718126 0.764312
0.255620 0.715932 0.766437
0.364709 0.711488 0.767517
0.485641 0.705578 0.765653
0.604702 0.700488 0.762222
0.693900 0.699408 0.760845
0.746364 0.703305 0.764015
0.769574 0.710531 0.768231
0.169209 0.756848 0.742804
0.175343 0.755903 0.742637
0.213546 0.752788 0.743125
0.306027 0.748200 0.744528
0.423452 0.742871 0.746985
0.544003 0.737836 0.748758
0.644463 0.734412 0.749360
0.725258 0.732428 0.749016
0.764478 0.741078 0.761172
0.136600 0.772751 0.709520
0.149926 0.777067 0.709726
0.150373 0.776440 0.713939
0.183484 0.777814 0.721097
0.317526 0.774843 0.720523
0.448999 0.771465 0.720778
0.570723 0.767920 0.721477
0.669415 0.767126 0.721702
0.766253 0.773320 0.757366
0.214888 0.661374 0.901093
0.286134 0.662239 0.901097
0.612780 0.665668 0.901111
0.779278 0.671640 0.901155
0.822143 0.678661 0.901230
0.848238 0.684653 0.901347
0.844981 0.656757 0.887396
0.839295 0.609187 0.871462
0.827875 0.584505 0.854343
0.232650 0.665615 0.901055
0.299182 0.666491 0.901059
0.610058 0.669956 0.901076
0.777472 0.675974 0.901124
0.821600 0.683012 0.901203
0.843305 0.682614 0.898371
0.841088 0.655932 0.884135
0.836433 0.609095 0.869080
0.825831 0.588860 0.855024
0.312341 0.686689 0.900843
0.369328 0.687510 0.900853
0.603101 0.690727 0.900888
0.769047 0.696213 0.900964
0.816429 0.698916 0.899384
0.825924 0.679265 0.887792
0.828267 0.658019 0.873476
0.826896 0.620319 0.861152
0.819017 0.575869 0.849292
0.394376 0.720610 0.898181
0.420213 0.718689 0.897080
0.577500 0.712596 0.893391
0.725660 0.703361 0.887180
0.780909 0.692136 0.877407
0.800272 0.679543 0.867228
0.808962 0.665613 0.857594
0.812312 0.648590 0.848969
0.809269 0.645345 0.840996
0.337288 0.706407 0.866416
0.362813 0.705238 0.865508
0.482589 0.701649 0.862482
0.644591 0.696360 0.857671
0.729947 0.690152 0.851931
0.767587 0.683428 0.845862
0.787673 0.675933 0.839996
0.796125 0.666898 0.833762
0.797309 0.666204 0.826894
0.274571 0.710754 0.842393
0.293563 0.709773 0.841668
0.404390 0.706840 0.839271
0.560315 0.702658 0.835035
0.670628 0.698244 0.828453
0.730751 0.694516 0.822423
0.761284 0.691145 0.817488
0.779345 0.687314 0.813574
0.785932 0.692208 0.810632
0.217536 0.732675 0.824276
0.233935 0.731733 0.823338
0.317007 0.728820 0.820154
0.457635 0.724296 0.815025
0.598759 0.719289 0.809094
0.689722 0.715392 0.803812
0.737009 0.713207 0.800355
0.763208 0.711868 0.798673
0.774153 0.718306 0.798210
0.163272 0.765357 0.809854
0.169034 0.764673 0.809992
0.203658 0.762164 0.808972
0.331500 0.757631 0.805502
0.475548 0.752093 0.800805
0.612074 0.747165 0.795971
0.706611 0.744165 0.792129
0.749912 0.742946 0.790421
0.767508 0.747303 0.790890
0.130855 0.770138 0.743062
0.149893 0.777843 0.755323
0.148524 0.776533 0.753645
0.156050 0.775310 0.750941
0.256186 0.780751 0.776179
0.421721 0.778373 0.792127
0.559429 0.776003 0.790571
0.670261 0.775517 0.789193
0.766314 0.777002 0.788910
