negative-portra-400/Portra400_Classic_ExtraSoft.cube
TITLE "Kodak Portra 400 Classic ExtraSoft"
# Adobe RGB in/out. REPLACES AgX. Kodak Portra 400 Classic ExtraSoft.
LUT_3D_SIZE 5
DOMAIN_MIN 0.0 0.0 0.0
DOMAIN_MAX 1.0 1.0 1.0
0.055943 0.062712 0.078815
0.246647 0.073608 0.083255
0.652331 0.096264 0.092714
0.742420 0.119975 0.110627
0.775246 0.342422 0.583969
0.061784 0.122474 0.083548
0.093381 0.131043 0.087951
0.542104 0.158130 0.096153
0.732789 0.208391 0.110313
0.775247 0.342432 0.583968
0.073905 0.434524 0.092657
0.088868 0.453209 0.097436
0.341118 0.463840 0.106803
0.680569 0.487827 0.119908
0.775476 0.517203 0.293143
0.091199 0.641565 0.101361
0.105971 0.646055 0.107173
0.266741 0.652625 0.119838
0.582535 0.656055 0.134271
0.772794 0.667367 0.162611
0.104225 0.716244 0.098154
0.126349 0.733421 0.098167
0.217873 0.741960 0.112662
0.518654 0.739727 0.131893
0.778049 0.744529 0.142171
0.057793 0.077692 0.142466
0.210485 0.108424 0.391305
0.662661 0.125131 0.308382
0.742015 0.162130 0.395370
0.775247 0.342438 0.583983
0.067310 0.130394 0.139529
0.149540 0.158242 0.171329
0.602184 0.188075 0.186431
0.735533 0.242188 0.242573
0.775247 0.342432 0.583968
0.083521 0.437589 0.144578
0.111874 0.449497 0.153216
0.432989 0.464961 0.169535
0.702702 0.495484 0.194024
0.775356 0.532853 0.490989
0.102455 0.641656 0.147851
0.122731 0.645167 0.156278
0.326228 0.651006 0.176529
0.621090 0.656273 0.202320
0.773764 0.669011 0.252513
0.104227 0.722925 0.124737
0.126349 0.739445 0.124735
0.242589 0.742240 0.144779
0.531774 0.740447 0.181512
0.779806 0.745253 0.200701
0.060690 0.120498 0.454549
0.154516 0.197941 0.610414
0.643892 0.239418 0.610845
0.738993 0.289721 0.622281
0.775247 0.372647 0.651785
0.071623 0.206857 0.465765
0.139556 0.262487 0.557672
0.601054 0.312761 0.586328
0.734013 0.362600 0.607682
0.775247 0.369719 0.645494
0.094737 0.464440 0.432314
0.140569 0.475327 0.452254
0.505984 0.507784 0.501378
0.714097 0.529335 0.539121
0.774938 0.564799 0.636173
0.121278 0.647369 0.432372
0.155473 0.650104 0.439143
0.404106 0.655729 0.461080
0.667982 0.663048 0.484947
0.774548 0.680798 0.587575
0.115109 0.738080 0.509836
0.122227 0.742613 0.509834
0.300118 0.743370 0.457758
0.559987 0.743060 0.469405
0.780741 0.748895 0.495592
0.064351 0.268402 0.668439
0.116116 0.328770 0.696433
0.627292 0.363693 0.698041
0.736396 0.396974 0.700602
0.775246 0.402825 0.700438
0.073763 0.360080 0.674331
0.128191 0.396212 0.692569
0.597016 0.420268 0.696392
0.732580 0.445337 0.699684
0.775241 0.401949 0.699051
0.104603 0.527895 0.655147
0.156428 0.539143 0.670902
0.521370 0.557052 0.686710
0.718015 0.575003 0.694198
0.774675 0.598750 0.704889
0.135338 0.661818 0.631407
0.180136 0.664761 0.638031
0.436692 0.671887 0.659491
0.682362 0.680797 0.674834
0.774994 0.695914 0.702404
0.116009 0.740709 0.605447
0.124884 0.745931 0.605690
0.307340 0.748935 0.629196
0.567696 0.749095 0.635540
0.781055 0.757890 0.687988
0.096573 0.424815 0.764739
0.372527 0.431474 0.764768
0.684493 0.451991 0.764958
0.747532 0.464800 0.765603
0.775247 0.458443 0.762737
0.116009 0.464947 0.764340
0.354279 0.471545 0.764411
0.680199 0.491663 0.764700
0.746664 0.504861 0.765406
0.775247 0.468283 0.765684
0.164488 0.588223 0.763538
0.319624 0.591243 0.763765
0.659082 0.601236 0.764262
0.742956 0.610733 0.765084
0.777223 0.620532 0.767397
0.157560 0.689519 0.763639
0.239494 0.690788 0.764031
0.561094 0.694057 0.764726
0.731502 0.697889 0.765592
0.778608 0.706231 0.767460
0.112054 0.741409 0.698574
0.126349 0.751526 0.713002
0.228666 0.763573 0.745934
0.551073 0.763956 0.767313
0.781343 0.768184 0.768275
