negative-portra-400/Portra400_Classic_ExtraSoft.cube
TITLE "Kodak Portra 400 Classic ExtraSoft"
# Adobe RGB in/out. REPLACES AgX. Kodak Portra 400 Classic ExtraSoft.
LUT_3D_SIZE 9
DOMAIN_MIN 0.0 0.0 0.0
DOMAIN_MAX 1.0 1.0 1.0
0.055943 0.062712 0.078815
0.079632 0.066949 0.080296
0.246647 0.073608 0.083255
0.525199 0.083558 0.087479
0.652331 0.096264 0.092714
0.706979 0.110985 0.099084
0.742420 0.119975 0.110627
0.770579 0.137115 0.487900
0.775246 0.342422 0.583969
0.058168 0.078735 0.080329
0.066595 0.080319 0.081954
0.153838 0.083380 0.084600
0.463437 0.093254 0.088582
0.628154 0.106826 0.093294
0.702419 0.121508 0.099444
0.741087 0.130250 0.110025
0.770579 0.137140 0.487913
0.775247 0.342431 0.583968
0.061784 0.122474 0.083548
0.065708 0.128102 0.085198
0.093381 0.131043 0.087951
0.286055 0.140172 0.091837
0.542104 0.158130 0.096153
0.676831 0.187523 0.101702
0.732789 0.208391 0.110313
0.770840 0.146050 0.489444
0.775247 0.342432 0.583968
0.067082 0.264062 0.087898
0.069944 0.274772 0.089512
0.087084 0.293782 0.092630
0.172738 0.298541 0.096112
0.429365 0.312238 0.100317
0.613215 0.333244 0.106640
0.713686 0.358369 0.113674
0.758376 0.367126 0.126254
0.775247 0.319314 0.503803
0.073905 0.434524 0.092657
0.076501 0.438964 0.093653
0.088868 0.453209 0.097436
0.146223 0.461246 0.101514
0.341118 0.463840 0.106803
0.538587 0.473242 0.112395
0.680569 0.487827 0.119908
0.748981 0.501470 0.129862
0.775476 0.517203 0.293143
0.082894 0.557918 0.097450
0.084492 0.559663 0.098431
0.096740 0.568881 0.102447
0.141169 0.575868 0.107993
0.292363 0.579167 0.113154
0.482958 0.581626 0.119625
0.631771 0.588452 0.126831
0.732471 0.598316 0.136282
0.774097 0.609090 0.165656
0.091199 0.641565 0.101361
0.093418 0.642264 0.102557
0.105971 0.646055 0.107173
0.143969 0.650132 0.112722
0.266741 0.652625 0.119838
0.440476 0.653855 0.126456
0.582535 0.656055 0.134271
0.707566 0.660590 0.143452
0.772794 0.667367 0.162611
0.103294 0.703488 0.100774
0.104360 0.703188 0.101677
0.114309 0.702385 0.107814
0.147889 0.703418 0.114768
0.250912 0.704311 0.122897
0.412961 0.704567 0.131116
0.548078 0.705247 0.138984
0.679045 0.707619 0.148508
0.772841 0.711117 0.162909
0.104225 0.716244 0.098154
0.104226 0.716246 0.098155
0.126349 0.733421 0.098167
0.126351 0.734791 0.104567
0.217873 0.741960 0.112662
0.384485 0.740446 0.123227
0.518654 0.739727 0.131893
0.641886 0.740997 0.138318
0.778049 0.744529 0.142171
0.056635 0.068198 0.097125
0.070286 0.079361 0.159713
0.248133 0.078940 0.111497
0.550109 0.088060 0.107665
0.661350 0.099364 0.105597
0.708093 0.113427 0.109073
0.742365 0.123017 0.121627
0.770579 0.137139 0.487915
0.775247 0.342432 0.583970
0.060194 0.080167 0.096180
0.077336 0.085487 0.103657
0.192997 0.087705 0.102787
0.509906 0.097270 0.105524
0.644558 0.110448 0.105686
0.704251 0.124354 0.109157
0.741121 0.133073 0.119893
0.770581 0.137177 0.487936
0.775247 0.342432 0.583968
0.064624 0.123264 0.096809
0.070164 0.126768 0.098334
0.111960 0.131133 0.101147
0.366081 0.145014 0.105661
0.570633 0.164579 0.107802
0.683474 0.191839 0.110956
0.733714 0.212132 0.118800
0.770916 0.148881 0.490112
0.775247 0.342432 0.583968
0.070018 0.263353 0.098780
0.073483 0.271356 0.100070
0.096192 0.287712 0.104193
0.211962 0.296485 0.108393
0.466020 0.314323 0.111718
0.631025 0.335939 0.115456
0.717094 0.360197 0.122111
0.758574 0.369500 0.135683
0.775247 0.342448 0.583966
0.076618 0.432193 0.100397
0.079587 0.436333 0.102137
0.095160 0.449180 0.106944
0.162604 0.457682 0.111724
0.374775 0.462378 0.117334
0.554038 0.473182 0.121874
0.687036 0.488322 0.128032
0.750045 0.501991 0.138104
0.775451 0.520352 0.346896
0.084401 0.556173 0.103706
0.086177 0.557965 0.105137
0.101029 0.566662 0.109888
0.149671 0.573612 0.115702
0.310149 0.577479 0.122075
0.499670 0.580841 0.128722
0.642577 0.588307 0.135732
0.735366 0.598379 0.144958
0.774150 0.609924 0.181316
0.093041 0.640995 0.107039
0.095467 0.641692 0.108212
0.108689 0.645350 0.112653
0.149504 0.649323 0.119839
0.280246 0.651883 0.126931
0.450438 0.653378 0.134909
0.590685 0.655857 0.143007
0.711795 0.660594 0.153254
0.773035 0.667599 0.173815
0.103980 0.703026 0.104244
0.105225 0.702799 0.105341
0.115852 0.702196 0.111992
0.151354 0.703221 0.120523
0.259228 0.704110 0.129280
0.419045 0.704435 0.138132
0.552985 0.705239 0.147715
0.682834 0.707685 0.157904
0.773323 0.711227 0.173152
0.104225 0.722923 0.124733
0.104227 0.722925 0.124733
0.126349 0.739445 0.124734
0.126352 0.739444 0.124730
0.221394 0.742063 0.116761
0.387672 0.740544 0.128416
0.521029 0.739877 0.137899
0.644778 0.741178 0.145559
0.778757 0.744656 0.150046
0.057793 0.077692 0.142466
0.073634 0.107249 0.422083
0.210485 0.108424 0.391305
0.544586 0.113739 0.342629
0.662661 0.125131 0.308382
0.708809 0.142797 0.327011
0.742015 0.162130 0.395370
0.770721 0.144204 0.497900
0.775247 0.342438 0.583983
0.061157 0.088944 0.145979
0.073189 0.096540 0.208906
0.184526 0.106420 0.258860
0.516993 0.117061 0.253111
0.652433 0.131405 0.250876
0.706022 0.151398 0.280645
0.740987 0.171135 0.354820
0.770775 0.146473 0.499262
0.775247 0.342433 0.583970
0.067310 0.130394 0.139529
0.074603 0.133604 0.144224
0.149540 0.158242 0.171329
0.416395 0.161598 0.173554
0.602184 0.188075 0.186431
0.692464 0.221044 0.208208
0.735533 0.242188 0.242573
0.770273 0.201553 0.495926
0.775247 0.342432 0.583968
0.074998 0.273744 0.141958
0.080769 0.279398 0.144651
0.113396 0.292986 0.151928
0.287764 0.304922 0.160087
0.524337 0.328289 0.171275
0.664295 0.354103 0.186398
0.723947 0.376294 0.200902
0.759188 0.389875 0.276628
0.775247 0.342435 0.583970
0.083521 0.437589 0.144578
0.086928 0.440461 0.146781
0.111874 0.449497 0.153216
0.215126 0.457713 0.160942
0.432989 0.464961 0.169535
0.599404 0.479417 0.183440
0.702702 0.495484 0.194024
0.752978 0.508489 0.227386
0.775356 0.532853 0.490989
0.091532 0.558769 0.148810
0.095911 0.560145 0.150631
0.116313 0.566284 0.156976
0.189205 0.572234 0.164842
0.373640 0.576780 0.175031
0.536454 0.581724 0.186440
0.670903 0.590616 0.196807
0.742808 0.600944 0.220175
0.774327 0.614258 0.306408
0.102455 0.641656 0.147851
0.105596 0.642275 0.149616
0.122731 0.645167 0.156278
0.179520 0.648484 0.165056
0.326228 0.651006 0.176529
0.489630 0.653109 0.189072
0.621090 0.656273 0.202320
0.725272 0.661508 0.222176
0.773764 0.669011 0.252513
0.110126 0.700867 0.143522
0.112294 0.700984 0.145599
0.129204 0.701655 0.155378
0.174831 0.702830 0.165903
0.297601 0.703738 0.179601
0.447205 0.704297 0.193314
0.574962 0.705522 0.207931
0.698115 0.708184 0.223353
0.774614 0.711865 0.238770
0.104227 0.722925 0.124737
0.126348 0.739444 0.124736
0.126349 0.739445 0.124735
0.126371 0.739448 0.124736
0.242589 0.742240 0.144779
0.402194 0.740894 0.165451
0.531774 0.740447 0.181512
0.657815 0.741871 0.193443
0.779806 0.745253 0.200701
0.059165 0.093509 0.274326
0.067419 0.128693 0.504813
0.184463 0.145830 0.538196
0.521811 0.156114 0.529803
0.656111 0.176998 0.527335
0.706529 0.202887 0.533291
0.740732 0.227746 0.556265
0.766640 0.225131 0.598121
0.775247 0.350432 0.603102
0.061966 0.106712 0.291508
0.070703 0.126204 0.429346
0.173146 0.150771 0.506366
0.500496 0.164177 0.504863
0.645785 0.187632 0.507932
0.704107 0.215991 0.518672
0.739791 0.241257 0.546001
0.766207 0.236635 0.595490
0.775247 0.350521 0.603307
0.070081 0.156920 0.274675
0.077914 0.164228 0.299038
0.143420 0.185866 0.379725
0.420158 0.209236 0.411502
0.606251 0.242982 0.434488
0.693149 0.277844 0.460732
0.735160 0.306475 0.500284
0.762681 0.323743 0.569999
0.775247 0.350844 0.604051
0.079558 0.296879 0.260876
0.085302 0.302097 0.267724
0.126777 0.314597 0.291598
0.347529 0.350104 0.343991
0.544265 0.356702 0.357692
0.671774 0.384400 0.386352
0.726235 0.405598 0.424363
0.759029 0.422505 0.508017
0.775247 0.350961 0.604274
0.088737 0.447714 0.263717
0.094938 0.450014 0.267204
0.128157 0.458019 0.280193
0.262485 0.466665 0.298716
0.474768 0.475980 0.318928
0.625360 0.492312 0.343779
0.710701 0.509647 0.374754
0.754209 0.522676 0.426904
0.775178 0.548977 0.588260
0.101424 0.563418 0.265985
0.106460 0.564612 0.268585
0.134764 0.569729 0.278749
0.230794 0.575216 0.292949
0.414490 0.580410 0.309523
0.566967 0.586564 0.327221
0.686235 0.596641 0.349676
0.746890 0.607200 0.382656
0.774414 0.623156 0.524700
0.111917 0.643660 0.267742
0.115626 0.644204 0.269927
0.140551 0.646611 0.278846
0.215987 0.649559 0.292007
0.374327 0.652127 0.307192
0.520535 0.654731 0.323418
0.651458 0.658483 0.340549
0.734797 0.664024 0.362969
0.774313 0.673334 0.441898
0.117644 0.701175 0.265591
0.121644 0.701364 0.267514
0.143198 0.702222 0.277011
0.201804 0.703309 0.289656
0.332835 0.704273 0.304599
0.477041 0.705101 0.320031
0.598452 0.706632 0.335688
0.712616 0.709494 0.352400
0.775628 0.713684 0.392061
0.112416 0.733649 0.296730
0.126345 0.742977 0.296730
0.126349 0.742980 0.296728
0.152385 0.746147 0.237385
0.280150 0.742318 0.291995
0.423852 0.741505 0.307635
0.547682 0.741472 0.322208
0.670449 0.743036 0.334472
0.780385 0.746528 0.350157
0.060690 0.120498 0.454549
0.065032 0.149491 0.550342
0.154516 0.197941 0.610414
0.498700 0.216394 0.610759
0.643892 0.239418 0.610845
0.703275 0.267306 0.614525
0.738993 0.289721 0.622281
0.764165 0.287039 0.637037
0.775247 0.372647 0.651785
0.062898 0.134643 0.467788
0.067878 0.160366 0.536911
0.150055 0.211086 0.602183
0.475283 0.231499 0.604732
0.634671 0.255010 0.605871
0.701051 0.283000 0.610748
0.738120 0.304754 0.619657
0.763814 0.301967 0.635670
0.775247 0.371939 0.650279
0.071623 0.206857 0.465765
0.078459 0.220989 0.490936
0.139556 0.262487 0.557672
0.415884 0.289044 0.580342
0.601054 0.312761 0.586328
0.691563 0.340501 0.594678
0.734013 0.362600 0.607682
0.761543 0.375471 0.627393
0.775247 0.369719 0.645494
0.083103 0.338491 0.444208
0.088463 0.343785 0.454309
0.136386 0.362398 0.487090
0.347926 0.383696 0.519127
0.550089 0.401878 0.538765
0.673855 0.421908 0.559155
0.726419 0.441341 0.583930
0.758567 0.456940 0.611491
0.776173 0.446390 0.645537
0.094737 0.464440 0.432314
0.102267 0.466934 0.436393
0.140569 0.475327 0.452254
0.292475 0.485798 0.475048
0.505984 0.507784 0.501378
0.638739 0.515626 0.514061
0.714097 0.529335 0.539121
0.754543 0.542925 0.583536
0.774938 0.564799 0.636173
0.109441 0.571988 0.431110
0.114856 0.573122 0.433154
0.149603 0.577873 0.441911
0.265134 0.583495 0.455987
0.442474 0.589589 0.472616
0.587880 0.596785 0.486139
0.694873 0.607718 0.504145
0.749016 0.617333 0.535688
0.774367 0.632521 0.618562
0.121278 0.647369 0.432372
0.127399 0.647906 0.433613
0.155473 0.650104 0.439143
0.248440 0.652946 0.448628
0.404106 0.655729 0.461080
0.542180 0.658795 0.473652
0.667982 0.663048 0.484947
0.740334 0.668867 0.502333
0.774548 0.680798 0.587575
0.126989 0.702856 0.436161
0.131606 0.703042 0.436675
0.155500 0.703824 0.440100
0.227597 0.704907 0.446127
0.364049 0.705944 0.454805
0.502550 0.707026 0.465156
0.619261 0.708836 0.474657
0.723117 0.711935 0.484316
0.776194 0.717045 0.532521
0.115109 0.738080 0.509836
0.116776 0.739432 0.509836
0.122227 0.742613 0.509834
0.176316 0.743833 0.455585
0.300118 0.743370 0.457758
0.439737 0.742884 0.463053
0.559987 0.743060 0.469405
0.679972 0.744772 0.474610
0.780741 0.748895 0.495592
0.062291 0.171443 0.583250
0.065070 0.202398 0.621019
0.138972 0.264184 0.660623
0.463921 0.283341 0.661812
0.633208 0.305718 0.662505
0.700035 0.326309 0.664085
0.737222 0.343967 0.667102
0.762713 0.343803 0.672180
0.775247 0.385954 0.673645
0.064109 0.190384 0.588060
0.066946 0.219835 0.619760
0.137213 0.279026 0.658198
0.447959 0.299288 0.660326
0.625625 0.319243 0.661315
0.698032 0.340241 0.663089
0.736408 0.357811 0.666426
0.762397 0.357327 0.671812
0.775247 0.385954 0.673645
0.072907 0.282701 0.593569
0.078265 0.297829 0.609268
0.136516 0.335717 0.643337
0.405472 0.354800 0.651514
0.596430 0.374827 0.654872
0.689708 0.395885 0.658697
0.732852 0.409170 0.663315
0.760622 0.416285 0.669754
0.775247 0.385958 0.673644
0.085251 0.392529 0.580710
0.090057 0.397435 0.587909
0.141498 0.415298 0.613994
0.354310 0.431213 0.632056
0.553918 0.445406 0.640357
0.674383 0.460699 0.646981
0.726243 0.477487 0.655733
0.758112 0.489742 0.665714
0.775887 0.481170 0.673593
0.100520 0.493783 0.563190
0.107546 0.496375 0.568091
0.150995 0.507502 0.585580
0.312427 0.519338 0.603205
0.510994 0.528953 0.617403
0.645963 0.539281 0.627739
0.715804 0.552280 0.639986
0.754706 0.564336 0.657345
0.774725 0.581506 0.673836
0.115197 0.584993 0.552676
0.122922 0.586280 0.554994
0.162160 0.591287 0.564707
0.289234 0.597704 0.580462
0.461576 0.604990 0.593053
0.603757 0.615278 0.606522
0.699865 0.620600 0.618121
0.750205 0.628803 0.638651
0.774349 0.641794 0.669695
0.129935 0.653265 0.548986
0.136528 0.653787 0.550028
0.170432 0.655957 0.554944
0.273125 0.658915 0.564012
0.423036 0.662073 0.576766
0.557726 0.665626 0.586834
0.676580 0.670381 0.596630
0.743446 0.676721 0.612723
0.774711 0.689016 0.660874
0.133504 0.705883 0.550520
0.138520 0.706072 0.550741
0.167162 0.706831 0.552580
0.246664 0.707901 0.556635
0.386310 0.709044 0.563449
0.515120 0.710362 0.572330
0.634476 0.712423 0.581257
0.729429 0.715734 0.589303
0.776495 0.722102 0.636181
0.116145 0.739613 0.551063
0.118000 0.740828 0.553285
0.122592 0.743636 0.561732
0.181240 0.746017 0.562430
0.309686 0.745522 0.562080
0.448470 0.745194 0.564654
0.567050 0.745573 0.568612
0.685586 0.747337 0.572935
0.780897 0.752715 0.612069
0.064351 0.268402 0.668439
0.066146 0.291344 0.684683
0.116116 0.328770 0.696433
0.444060 0.344609 0.697379
0.627292 0.363693 0.698041
0.698472 0.383414 0.698966
0.736396 0.396974 0.700602
0.761931 0.397232 0.702674
0.775246 0.402825 0.700438
0.065580 0.286901 0.670447
0.067804 0.305841 0.684203
0.118315 0.341313 0.695860
0.432868 0.357601 0.697038
0.621180 0.376968 0.697782
0.696825 0.396150 0.698760
0.735667 0.406392 0.700458
0.761654 0.406560 0.702657
0.775246 0.402682 0.700188
0.073763 0.360080 0.674331
0.078284 0.369427 0.681704
0.128191 0.396212 0.692569
0.401594 0.407610 0.695163
0.597016 0.420268 0.696392
0.689814 0.433936 0.697674
0.732580 0.445337 0.699684
0.760220 0.451519 0.702329
0.775241 0.401949 0.699051
0.086874 0.441011 0.667509
0.091913 0.445422 0.672532
0.141643 0.461418 0.684638
0.361933 0.474138 0.690542
0.560057 0.486345 0.693115
0.676682 0.499613 0.695227
0.726938 0.511863 0.697881
0.758130 0.519897 0.701509
0.775346 0.524249 0.703977
0.104603 0.527895 0.655147
0.111116 0.530089 0.659542
0.156428 0.539143 0.670902
0.327651 0.548598 0.681007
0.521370 0.557052 0.686710
0.654787 0.565927 0.690345
0.718015 0.575003 0.694198
0.755260 0.584530 0.699417
0.774675 0.598750 0.704889
0.121501 0.604805 0.641271
0.129635 0.606256 0.643814
0.172505 0.612298 0.653970
0.307097 0.617727 0.666033
0.480272 0.622853 0.675335
0.614058 0.628077 0.681791
0.704229 0.633812 0.687457
0.751444 0.640610 0.694880
0.774481 0.650975 0.704506
0.135338 0.661818 0.631407
0.142240 0.662409 0.632664
0.180136 0.664761 0.638031
0.289123 0.668108 0.647592
0.436692 0.671887 0.659491
0.569306 0.675939 0.667871
0.682362 0.680797 0.674834
0.745744 0.686954 0.685300
0.774994 0.695914 0.702404
0.135815 0.710634 0.626337
0.141015 0.710813 0.626729
0.172211 0.711515 0.628903
0.256185 0.712623 0.633345
0.394724 0.713922 0.640296
0.522987 0.715471 0.648679
0.644293 0.717799 0.657568
0.732946 0.721300 0.665921
0.776785 0.727861 0.695909
0.116009 0.740709 0.605447
0.119721 0.742986 0.605455
0.124884 0.745931 0.605690
0.172544 0.749993 0.628398
0.307340 0.748935 0.629196
0.448411 0.748634 0.632150
0.567696 0.749095 0.635540
0.685900 0.750897 0.638490
0.781055 0.757890 0.687988
0.066692 0.370037 0.729069
0.068789 0.372553 0.731049
0.127211 0.388552 0.732411
0.468112 0.400805 0.732676
0.638283 0.412774 0.733095
0.701908 0.425195 0.733717
0.737877 0.433546 0.734631
0.762810 0.431218 0.736653
0.775340 0.427623 0.730919
0.068021 0.381606 0.728968
0.070504 0.384212 0.730826
0.130672 0.398851 0.732383
0.458658 0.409165 0.732681
0.633802 0.421278 0.733104
0.700718 0.433973 0.733733
0.737357 0.442529 0.734668
0.762578 0.440633 0.736683
0.775370 0.429847 0.730919
0.077642 0.428113 0.728571
0.081442 0.429653 0.729850
0.146116 0.439440 0.731754
0.429102 0.448848 0.732344
0.614224 0.460301 0.732868
0.695211 0.472424 0.733574
0.734929 0.481600 0.734626
0.761413 0.483640 0.736591
0.775707 0.453905 0.730919
0.089765 0.493900 0.726191
0.096382 0.495614 0.727531
0.159695 0.504545 0.730255
0.396563 0.513107 0.731493
0.582754 0.521309 0.732303
0.685235 0.529585 0.733199
0.730723 0.536730 0.734477
0.759796 0.540967 0.736523
0.775511 0.545298 0.736822
0.109106 0.561887 0.720992
0.115352 0.563331 0.722723
0.175281 0.569611 0.726955
0.362043 0.575608 0.729569
0.544494 0.582151 0.731138
0.668895 0.589563 0.732404
0.723832 0.596843 0.733947
0.757595 0.603062 0.736268
0.775119 0.614305 0.737835
0.127077 0.625358 0.711693
0.135119 0.626348 0.713860
0.187135 0.630359 0.720296
0.331075 0.634287 0.725443
0.506114 0.638083 0.728612
0.636020 0.642342 0.730749
0.712450 0.646842 0.732767
0.754632 0.651419 0.735567
0.775137 0.659926 0.738336
0.138723 0.674014 0.697785
0.145467 0.674744 0.699638
0.188819 0.677827 0.706787
0.302276 0.681608 0.715657
0.453647 0.685129 0.722575
0.586688 0.688542 0.726924
0.692194 0.692463 0.730024
0.749786 0.695916 0.733872
0.775727 0.701678 0.738370
0.132507 0.717974 0.684455
0.137667 0.718107 0.685254
0.169344 0.718613 0.689137
0.255835 0.719775 0.696146
0.397831 0.721373 0.705623
0.528437 0.723270 0.714526
0.653210 0.725668 0.721235
0.734667 0.727785 0.725182
0.777330 0.733471 0.737478
0.114563 0.741437 0.661836
0.124613 0.747721 0.662591
0.126245 0.748897 0.667763
0.160302 0.753999 0.676972
0.287937 0.754063 0.680508
0.436657 0.753627 0.685070
0.559930 0.754085 0.689534
0.679367 0.755785 0.692288
0.781203 0.763072 0.734775
0.096573 0.424815 0.764739
0.110456 0.426152 0.764746
0.372527 0.431474 0.764768
0.609815 0.440836 0.764838
0.684493 0.451991 0.764958
0.720691 0.461642 0.765146
0.747532 0.464800 0.765603
0.767473 0.449771 0.766482
0.775247 0.458443 0.762737
0.100080 0.431391 0.764678
0.113635 0.432757 0.764685
0.367331 0.438184 0.764711
0.607006 0.447703 0.764788
0.683748 0.458986 0.764914
0.720344 0.468762 0.765112
0.747387 0.471926 0.765570
0.767376 0.455795 0.766452
0.775247 0.468265 0.765684
0.116009 0.464947 0.764340
0.134230 0.466285 0.764356
0.354279 0.471545 0.764411
0.593981 0.480776 0.764534
0.680199 0.491663 0.764700
0.718731 0.501315 0.764944
0.746664 0.504861 0.765406
0.766905 0.490028 0.766273
0.775247 0.468283 0.765684
0.146094 0.528131 0.763844
0.165509 0.528872 0.763878
0.339802 0.531809 0.763992
0.568552 0.537127 0.764181
0.672400 0.543614 0.764401
0.715216 0.549758 0.764696
0.745200 0.553086 0.765187
0.766180 0.549889 0.765981
0.776630 0.565633 0.767040
0.164488 0.588223 0.763538
0.184139 0.588813 0.763591
0.319624 0.591243 0.763765
0.532522 0.595638 0.763983
0.659082 0.601236 0.764262
0.709475 0.606839 0.764599
0.742956 0.610733 0.765084
0.765652 0.611308 0.765870
0.777223 0.620532 0.767397
0.169097 0.641398 0.763472
0.185280 0.641709 0.763546
0.291532 0.643050 0.763782
0.482443 0.645427 0.764061
0.622445 0.648418 0.764358
0.699244 0.651666 0.764715
0.739259 0.654302 0.765182
0.764908 0.655731 0.765906
0.777733 0.666519 0.767301
0.157560 0.689519 0.763639
0.169296 0.689753 0.763738
0.239494 0.690788 0.764031
0.406046 0.692455 0.764377
0.561094 0.694057 0.764726
0.677374 0.696008 0.765095
0.731502 0.697889 0.765592
0.763615 0.699035 0.766234
0.778608 0.706231 0.767460
0.129995 0.727699 0.762025
0.134905 0.727899 0.762765
0.164968 0.728421 0.764110
0.281263 0.728879 0.764858
0.450352 0.729411 0.765393
0.599721 0.730454 0.765827
0.706552 0.732177 0.766280
0.758952 0.733500 0.766863
0.779858 0.737838 0.767816
0.112054 0.741409 0.698574
0.126349 0.751526 0.713002
0.126349 0.751526 0.713002
0.134377 0.752745 0.713038
0.228666 0.763573 0.745934
0.411418 0.764024 0.766051
0.551073 0.763956 0.767313
0.680529 0.765414 0.767898
0.781343 0.768184 0.768275
