negative-portra-400/Portra400_Classic_ExtraPunchy.cube
TITLE "Kodak Portra 400 Classic ExtraPunchy"
# Adobe RGB in/out. REPLACES AgX. Kodak Portra 400 Classic ExtraPunchy.
LUT_3D_SIZE 33
DOMAIN_MIN 0.0 0.0 0.0
DOMAIN_MAX 1.0 1.0 1.0
0.069662 0.073299 0.081842
0.068096 0.072457 0.081842
0.070881 0.073145 0.081842
0.074765 0.075747 0.080544
0.081589 0.079090 0.078741
0.092605 0.082421 0.078087
0.110631 0.086571 0.078384
0.133525 0.091824 0.078689
0.161369 0.097828 0.078969
0.196971 0.104215 0.079389
0.239713 0.111465 0.079791
0.284196 0.120454 0.080190
0.325026 0.131276 0.080599
0.364847 0.145354 0.081106
0.404651 0.159730 0.081579
0.445601 0.174389 0.082455
0.483430 0.190145 0.083445
0.515783 0.209881 0.084514
0.548438 0.230360 0.085815
0.575599 0.251568 0.087065
0.598678 0.273491 0.088476
0.621490 0.294653 0.090284
0.644049 0.315032 0.092041
0.663186 0.335822 0.093869
0.679848 0.357011 0.096130
0.696223 0.378590 0.098351
0.712327 0.400550 0.100855
0.728174 0.419031 0.104304
0.743779 0.437363 0.107738
0.759153 0.455811 0.111159
0.773459 0.474373 0.114567
0.784012 0.493044 0.118621
0.794366 0.511823 0.122760
0.068859 0.072482 0.081842
0.068167 0.072951 0.081842
0.070958 0.074415 0.081842
0.074831 0.076947 0.080317
0.081656 0.080005 0.078675
0.092693 0.083225 0.078106
0.110736 0.087353 0.078397
0.133626 0.092512 0.078701
0.161482 0.098543 0.078977
0.197090 0.104954 0.079400
0.239841 0.112093 0.079801
0.284296 0.121224 0.080199
0.325120 0.132268 0.080609
0.364927 0.146275 0.081115
0.404726 0.160591 0.081587
0.445672 0.175197 0.082470
0.483482 0.191124 0.083459
0.515830 0.210826 0.084531
0.548484 0.231276 0.085831
0.575629 0.252456 0.087080
0.598706 0.274353 0.088496
0.621516 0.295389 0.090302
0.644073 0.315743 0.092058
0.663204 0.336509 0.093890
0.679864 0.357676 0.096150
0.696238 0.379234 0.098370
0.712341 0.401176 0.100883
0.728188 0.419524 0.104330
0.743791 0.437838 0.107763
0.759165 0.456270 0.111183
0.773467 0.474816 0.114590
0.784019 0.493473 0.118647
0.794374 0.512238 0.122786
0.067476 0.076914 0.081842
0.068392 0.077262 0.081842
0.071223 0.078354 0.081426
0.075063 0.080337 0.079621
0.081933 0.082626 0.078458
0.093008 0.085969 0.078169
0.111112 0.090282 0.078440
0.133988 0.095276 0.078741
0.161885 0.100981 0.079028
0.197519 0.107509 0.079441
0.240303 0.114570 0.079839
0.284652 0.123933 0.080229
0.325457 0.135788 0.080647
0.365214 0.149551 0.081147
0.404997 0.163655 0.081615
0.445928 0.178076 0.082527
0.483666 0.194625 0.083508
0.516003 0.214210 0.084595
0.548647 0.234553 0.085888
0.575737 0.255635 0.087131
0.598807 0.277441 0.088568
0.621609 0.298025 0.090368
0.644161 0.318289 0.092119
0.663266 0.338970 0.093966
0.679922 0.360060 0.096221
0.696292 0.381546 0.098436
0.712392 0.403169 0.100982
0.728236 0.421293 0.104424
0.743837 0.439542 0.107853
0.759207 0.457914 0.111269
0.773495 0.476404 0.114672
0.784046 0.495009 0.118744
0.794399 0.513726 0.122878
0.068162 0.082470 0.080973
0.068920 0.082711 0.080651
0.071669 0.083687 0.079786
0.075474 0.085333 0.078747
0.082453 0.087693 0.078122
0.093581 0.091109 0.078273
0.111801 0.095195 0.078533
0.134713 0.100082 0.078811
0.162626 0.105640 0.079120
0.198307 0.111857 0.079514
0.241152 0.119891 0.079905
0.285308 0.129176 0.080284
0.326077 0.142096 0.080715
0.365742 0.155446 0.081205
0.405495 0.169187 0.081664
0.446399 0.183286 0.082629
0.484005 0.201010 0.083598
0.516319 0.220389 0.084710
0.548947 0.240542 0.085992
0.575935 0.261449 0.087224
0.598991 0.283093 0.088700
0.621781 0.302844 0.090489
0.644321 0.322944 0.092230
0.663380 0.343475 0.094105
0.680029 0.364424 0.096351
0.696392 0.385779 0.098557
0.712486 0.406531 0.101164
0.728324 0.424529 0.104598
0.743920 0.442663 0.108019
0.759286 0.460927 0.111427
0.773548 0.479316 0.114824
0.784096 0.497826 0.118920
0.794446 0.516453 0.123049
0.068893 0.090181 0.079044
0.069578 0.090425 0.078887
0.072310 0.091279 0.078595
0.076054 0.092759 0.078187
0.083209 0.095254 0.078190
0.094427 0.098484 0.078406
0.112827 0.102143 0.078659
0.135814 0.107003 0.078906
0.163731 0.112251 0.079249
0.199484 0.119351 0.079617
0.242421 0.127455 0.080001
0.286288 0.138864 0.080370
0.327003 0.151170 0.080815
0.366532 0.163973 0.081290
0.406239 0.177224 0.081781
0.447103 0.192162 0.082780
0.484512 0.210431 0.083731
0.516793 0.229520 0.084881
0.549395 0.249404 0.086146
0.576232 0.270062 0.087363
0.599267 0.290575 0.088896
0.622038 0.309978 0.090669
0.644562 0.329843 0.092396
0.663551 0.350156 0.094312
0.680188 0.370901 0.096544
0.696542 0.392066 0.098738
0.712626 0.411515 0.101436
0.728456 0.429332 0.104857
0.744044 0.447296 0.108266
0.759403 0.465401 0.111663
0.773627 0.483642 0.115077
0.784170 0.502013 0.119184
0.794516 0.520510 0.123304
0.069753 0.100019 0.078160
0.070681 0.100235 0.078107
0.073052 0.101002 0.078094
0.076801 0.102363 0.078223
0.084193 0.104733 0.078382
0.095546 0.107804 0.078584
0.114357 0.111423 0.078806
0.137293 0.116262 0.079052
0.165220 0.122507 0.079409
0.201071 0.129922 0.079760
0.244135 0.140228 0.080124
0.287610 0.151223 0.080491
0.328252 0.162837 0.080945
0.367597 0.175007 0.081401
0.407243 0.188045 0.082008
0.448054 0.205051 0.082979
0.485196 0.222933 0.083907
0.517431 0.241661 0.085109
0.550001 0.261208 0.086350
0.576633 0.281551 0.087548
0.599639 0.300402 0.089158
0.622386 0.319482 0.090909
0.644887 0.339047 0.092618
0.663782 0.359078 0.094590
0.680404 0.379560 0.096804
0.696743 0.400479 0.098982
0.712815 0.418169 0.101802
0.728634 0.435748 0.105205
0.744212 0.453491 0.108598
0.759562 0.471389 0.111981
0.773733 0.489436 0.115446
0.784270 0.507624 0.119540
0.794611 0.525950 0.123648
0.071196 0.111652 0.078286
0.071891 0.111855 0.078303
0.073847 0.112578 0.078358
0.077884 0.114007 0.078453
0.085387 0.116643 0.078606
0.096933 0.120072 0.078781
0.116281 0.124235 0.078966
0.139160 0.129689 0.079277
0.167308 0.137513 0.079593
0.203085 0.146216 0.079934
0.246311 0.155721 0.080269
0.289288 0.165954 0.080646
0.329838 0.176850 0.081102
0.368949 0.188901 0.081537
0.408518 0.204507 0.082286
0.449261 0.221047 0.083224
0.486064 0.238488 0.084136
0.518243 0.256801 0.085392
0.550770 0.275957 0.086605
0.577141 0.294493 0.087779
0.600112 0.312660 0.089486
0.622826 0.331358 0.091211
0.645299 0.350564 0.092897
0.664075 0.370259 0.094940
0.680678 0.390424 0.097131
0.696999 0.409399 0.099288
0.713056 0.426500 0.102264
0.728860 0.443792 0.105646
0.744426 0.461265 0.109018
0.759764 0.478910 0.112383
0.773869 0.496719 0.115913
0.784398 0.514684 0.119991
0.794732 0.532798 0.124083
0.072539 0.127429 0.078564
0.073093 0.127690 0.078579
0.075039 0.128620 0.078630
0.079513 0.130728 0.078719
0.086768 0.133890 0.078837
0.099286 0.138077 0.078977
0.118598 0.143273 0.079240
0.141421 0.149441 0.079516
0.169896 0.156531 0.079814
0.205538 0.164486 0.080127
0.248967 0.173245 0.080452
0.291332 0.182750 0.080856
0.331772 0.194818 0.081284
0.370597 0.208919 0.081695
0.410073 0.224010 0.082614
0.450734 0.240056 0.083514
0.487123 0.257024 0.084510
0.519232 0.274885 0.085728
0.551708 0.292453 0.086909
0.577761 0.309586 0.088147
0.600688 0.327300 0.089879
0.623364 0.345568 0.091574
0.645803 0.364369 0.093233
0.664432 0.383680 0.095362
0.681012 0.403222 0.097527
0.697312 0.419743 0.099659
0.713349 0.436491 0.102825
0.729137 0.453451 0.106180
0.744686 0.470612 0.109529
0.760010 0.487963 0.112871
0.774034 0.505494 0.116482
0.784554 0.523196 0.120540
0.794879 0.540003 0.124613
0.073768 0.150617 0.078843
0.074214 0.150908 0.078854
0.076485 0.151949 0.078893
0.081265 0.153851 0.078961
0.088887 0.156665 0.079109
0.102126 0.160410 0.079305
0.121304 0.165083 0.079526
0.144078 0.170664 0.079777
0.172954 0.177123 0.080055
0.208598 0.184418 0.080336
0.252114 0.194252 0.080680
0.293751 0.205730 0.081088
0.334061 0.218272 0.081486
0.372548 0.231846 0.082099
0.411914 0.246419 0.082984
0.452478 0.261960 0.083845
0.488376 0.278439 0.084939
0.520404 0.294401 0.086116
0.552819 0.310391 0.087261
0.578496 0.327014 0.088644
0.601371 0.344241 0.090338
0.624002 0.362046 0.091997
0.646400 0.380406 0.093695
0.664856 0.399298 0.095857
0.681407 0.415635 0.097990
0.697683 0.431743 0.100155
0.713697 0.448100 0.103484
0.729464 0.464691 0.106810
0.744995 0.481503 0.110131
0.760302 0.498523 0.113447
0.774229 0.515742 0.117153
0.784738 0.533148 0.121188
0.795053 0.546882 0.125239
0.075417 0.174974 0.079170
0.076024 0.175235 0.079185
0.078376 0.176169 0.079238
0.083411 0.177879 0.079331
0.091542 0.180414 0.079461
0.105331 0.183800 0.079622
0.124390 0.188506 0.079829
0.147128 0.195060 0.080059
0.176488 0.202742 0.080302
0.212349 0.211542 0.080591
0.255764 0.221443 0.080964
0.296550 0.232424 0.081337
0.336713 0.244461 0.081705
0.374808 0.257526 0.082557
0.414047 0.271593 0.083394
0.454500 0.286311 0.084261
0.489829 0.300360 0.085419
0.521762 0.315122 0.086551
0.554107 0.330567 0.087657
0.579347 0.346665 0.089208
0.602163 0.363386 0.090858
0.624741 0.380706 0.092479
0.647092 0.398601 0.094299
0.665348 0.414289 0.096422
0.681867 0.429666 0.098520
0.698113 0.445331 0.100951
0.714101 0.461268 0.104243
0.729844 0.477461 0.107534
0.745354 0.493894 0.110824
0.760641 0.510555 0.114111
0.774457 0.527432 0.117928
0.784953 0.542462 0.121936
0.795256 0.554703 0.125963
0.077321 0.204091 0.079554
0.078034 0.204400 0.079566
0.080811 0.205508 0.079608
0.085731 0.207542 0.079688
0.094401 0.210570 0.079809
0.108878 0.214639 0.079962
0.127844 0.219775 0.080140
0.150567 0.225993 0.080341
0.180502 0.233298 0.080591
0.216624 0.241687 0.080920
0.259925 0.251149 0.081258
0.299736 0.261671 0.081598
0.339582 0.273233 0.082253
0.377380 0.285589 0.083049
0.416478 0.297531 0.083836
0.456804 0.310260 0.084839
0.491482 0.323742 0.085944
0.523309 0.337950 0.087029
0.555576 0.352852 0.088207
0.580317 0.368420 0.089833
0.603066 0.384629 0.091436
0.625584 0.401453 0.093016
0.647881 0.415770 0.094976
0.665908 0.430333 0.097057
0.682390 0.445226 0.099116
0.698604 0.460431 0.101849
0.714562 0.475927 0.105100
0.730278 0.491699 0.108354
0.745763 0.507731 0.111608
0.761028 0.524009 0.114862
0.774716 0.539616 0.118807
0.785197 0.551499 0.122786
0.795487 0.563427 0.126784
0.080078 0.238369 0.079938
0.080807 0.238661 0.079949
0.083533 0.239711 0.079989
0.088557 0.241638 0.080059
0.097574 0.244511 0.080160
0.112744 0.248375 0.080289
0.131653 0.253259 0.080462
0.154747 0.259181 0.080681
0.184999 0.266150 0.080960
0.221428 0.274169 0.081254
0.264605 0.283232 0.081558
0.303310 0.292207 0.082089
0.342649 0.301963 0.082828
0.380268 0.312554 0.083569
0.419208 0.323954 0.084398
0.459394 0.336138 0.085459
0.493340 0.349077 0.086509
0.525048 0.362745 0.087547
0.557226 0.377115 0.088945
0.581407 0.392162 0.090517
0.604080 0.406799 0.092071
0.626531 0.420087 0.093670
0.648768 0.433768 0.095722
0.666538 0.447821 0.097758
0.682979 0.462224 0.099776
0.699156 0.476956 0.102848
0.715081 0.491999 0.106055
0.730766 0.507335 0.109267
0.746224 0.522950 0.112482
0.761464 0.538409 0.115868
0.775008 0.549873 0.119790
0.785473 0.561410 0.123736
0.795748 0.573009 0.127704
0.083076 0.274665 0.080304
0.083842 0.274944 0.080313
0.086400 0.275943 0.080349
0.092351 0.277778 0.080419
0.102350 0.280515 0.080519
0.117404 0.284164 0.080661
0.135994 0.288273 0.080857
0.159426 0.293252 0.081080
0.189978 0.299105 0.081325
0.226769 0.305831 0.081587
0.269809 0.313421 0.082073
0.307275 0.321864 0.082740
0.346052 0.331144 0.083421
0.383475 0.341242 0.084113
0.422241 0.352137 0.085113
0.462272 0.363807 0.086113
0.495403 0.376230 0.087110
0.526980 0.389380 0.088214
0.559061 0.403019 0.089739
0.582618 0.414879 0.091254
0.605208 0.427196 0.092757
0.627585 0.439946 0.094535
0.649755 0.453105 0.096535
0.667239 0.466651 0.098523
0.683635 0.480561 0.100798
0.699770 0.494818 0.103946
0.715658 0.509401 0.107104
0.731310 0.524294 0.110272
0.746737 0.538876 0.113446
0.761949 0.549868 0.116992
0.775333 0.560960 0.120877
0.785780 0.572140 0.124787
0.796038 0.583399 0.128808
0.086284 0.309361 0.080725
0.086953 0.309593 0.080736
0.090314 0.310426 0.080778
0.096216 0.311955 0.080853
0.107384 0.314235 0.080961
0.122397 0.317302 0.081102
0.140985 0.321181 0.081272
0.164527 0.325886 0.081467
0.195439 0.331425 0.081684
0.232650 0.337800 0.082206
0.274413 0.345008 0.082791
0.311632 0.353040 0.083400
0.349790 0.361885 0.084027
0.387001 0.371528 0.084918
0.425578 0.381954 0.085854
0.465442 0.393144 0.086797
0.497673 0.404526 0.087741
0.529106 0.414850 0.089120
0.561082 0.425685 0.090582
0.583951 0.437009 0.092040
0.606449 0.448797 0.093514
0.628745 0.461026 0.095465
0.650843 0.473675 0.097410
0.668012 0.486721 0.099348
0.684357 0.500145 0.102046
0.700447 0.513928 0.105139
0.716294 0.528052 0.108247
0.731909 0.541028 0.111367
0.747302 0.551501 0.114497
0.762484 0.562100 0.118222
0.775691 0.572814 0.122066
0.786118 0.583632 0.125938
0.796357 0.594544 0.130034
0.090557 0.344140 0.081196
0.091494 0.344359 0.081205
0.094713 0.345147 0.081241
0.101627 0.346593 0.081305
0.112647 0.348750 0.081399
0.127697 0.351653 0.081521
0.146340 0.355328 0.081669
0.170628 0.359790 0.082026
0.201380 0.365050 0.082481
0.239074 0.371111 0.082977
0.279423 0.377973 0.083507
0.316381 0.385632 0.084064
0.353863 0.394080 0.084883
0.390846 0.403076 0.085742
0.429221 0.411235 0.086618
0.468903 0.419968 0.087505
0.500149 0.429253 0.088676
0.531428 0.439069 0.090070
0.562810 0.449396 0.091469
0.585406 0.460211 0.092869
0.607806 0.471493 0.094564
0.630013 0.483222 0.096455
0.652032 0.495376 0.098344
0.668856 0.507937 0.100373
0.685146 0.520885 0.103389
0.701187 0.534202 0.106425
0.716990 0.544849 0.109480
0.732565 0.554763 0.112551
0.747921 0.564831 0.115787
0.763069 0.575039 0.119556
0.776083 0.585375 0.123357
0.786488 0.595829 0.127188
0.796708 0.606391 0.131366
0.095307 0.380024 0.081636
0.096155 0.380232 0.081645
0.100055 0.380979 0.081676
0.107653 0.382352 0.081767
0.118765 0.384400 0.081959
0.133282 0.387158 0.082211
0.152136 0.390652 0.082520
0.177341 0.394898 0.082881
0.207880 0.399907 0.083289
0.246045 0.405023 0.083737
0.284837 0.410370 0.084271
0.321520 0.416328 0.085009
0.358270 0.422887 0.085781
0.395011 0.430034 0.086580
0.433170 0.437755 0.087398
0.472023 0.446034 0.088419
0.502832 0.454855 0.089731
0.533968 0.464200 0.091058
0.564508 0.474049 0.092396
0.586984 0.484384 0.093849
0.609277 0.495186 0.095671
0.631389 0.506437 0.097500
0.653286 0.518117 0.099333
0.669772 0.530208 0.101870
0.686004 0.541166 0.104823
0.701991 0.550299 0.107801
0.717746 0.559624 0.110801
0.733277 0.569129 0.113820
0.748594 0.578798 0.117270
0.763705 0.588620 0.120991
0.776510 0.598583 0.124747
0.786891 0.608675 0.128604
0.797088 0.618887 0.132805
0.101394 0.414228 0.082522
0.102564 0.414389 0.082540
0.106664 0.414968 0.082604
0.113948 0.416030 0.082719
0.125143 0.417615 0.082889
0.139707 0.419749 0.083113
0.158859 0.422450 0.083388
0.184534 0.425728 0.083711
0.215583 0.429593 0.084078
0.253563 0.434045 0.084654
0.290653 0.439084 0.085290
0.327048 0.444707 0.085969
0.363010 0.450905 0.086683
0.399495 0.457670 0.087425
0.437424 0.464991 0.088355
0.475111 0.472855 0.089573
0.505722 0.481248 0.090816
0.536709 0.490153 0.092079
0.566336 0.499557 0.093356
0.588684 0.509441 0.095073
0.610863 0.519789 0.096829
0.632874 0.530585 0.098597
0.654345 0.540538 0.100600
0.670761 0.548810 0.103457
0.686929 0.557312 0.106346
0.702860 0.566030 0.109263
0.718563 0.574949 0.112206
0.734047 0.584056 0.115225
0.749321 0.593338 0.118856
0.764393 0.602782 0.122527
0.776971 0.612378 0.126235
0.787326 0.622113 0.130190
0.797500 0.631978 0.134349
0.108413 0.444875 0.083453
0.109509 0.445027 0.083469
0.113427 0.445571 0.083525
0.121026 0.446570 0.083628
0.131745 0.448061 0.083779
0.146534 0.450069 0.083978
0.166024 0.452611 0.084279
0.192201 0.455701 0.084700
0.223840 0.459345 0.085181
0.261631 0.463548 0.085715
0.296867 0.468311 0.086299
0.332962 0.473631 0.086924
0.368079 0.479503 0.087584
0.404295 0.485921 0.088487
0.441983 0.492877 0.089600
0.478416 0.500358 0.090749
0.508817 0.508355 0.091927
0.539647 0.516854 0.093127
0.568295 0.525841 0.094670
0.590507 0.535302 0.096342
0.612565 0.542967 0.098034
0.634466 0.550322 0.099741
0.655482 0.557941 0.102340
0.671822 0.565808 0.105127
0.687922 0.573909 0.107951
0.703792 0.582232 0.110808
0.719440 0.590761 0.113692
0.734874 0.599486 0.116963
0.750102 0.608392 0.120540
0.765132 0.617469 0.124160
0.777466 0.626706 0.127819
0.787794 0.636092 0.131882
0.797943 0.643662 0.136361
0.115797 0.475844 0.084447
0.116953 0.475987 0.084468
0.121035 0.476500 0.084540
0.128278 0.477443 0.084673
0.139060 0.478850 0.084869
0.153928 0.480746 0.085128
0.174486 0.483148 0.085450
0.200334 0.486068 0.085831
0.232652 0.489515 0.086269
0.270164 0.493494 0.086758
0.303475 0.498007 0.087293
0.339154 0.503053 0.087870
0.373474 0.508630 0.088809
0.409411 0.514732 0.089812
0.446846 0.521352 0.090858
0.481936 0.528482 0.091942
0.512117 0.536113 0.093057
0.542782 0.542263 0.094471
0.570383 0.548371 0.096047
0.592451 0.554781 0.097651
0.614380 0.561480 0.099280
0.636167 0.568454 0.101485
0.656695 0.575690 0.104159
0.672956 0.583176 0.106878
0.688984 0.590899 0.109636
0.704789 0.598845 0.112430
0.720378 0.607002 0.115328
0.735758 0.615360 0.118800
0.750938 0.623905 0.122321
0.765924 0.632627 0.125888
0.777996 0.640469 0.129660
0.788294 0.647506 0.133676
0.798416 0.654636 0.138645
0.123794 0.507120 0.085677
0.124891 0.507255 0.085696
0.128775 0.507741 0.085761
0.135870 0.508633 0.085881
0.146896 0.509965 0.086058
0.162180 0.511761 0.086292
0.183407 0.514036 0.086584
0.209143 0.516804 0.086932
0.242018 0.520074 0.087332
0.277508 0.523851 0.087780
0.310471 0.528138 0.088484
0.345193 0.532935 0.089314
0.379192 0.537991 0.090201
0.414838 0.542135 0.091140
0.452010 0.546622 0.092125
0.485669 0.551444 0.093148
0.515619 0.556592 0.094479
0.546112 0.562055 0.095949
0.572599 0.567825 0.097457
0.594516 0.573889 0.098996
0.616310 0.580236 0.100902
0.637976 0.586855 0.103452
0.657985 0.593734 0.106054
0.674161 0.600862 0.108704
0.690114 0.608227 0.111396
0.705850 0.615816 0.114128
0.721377 0.623620 0.117318
0.736701 0.631627 0.120731
0.751828 0.639152 0.124195
0.766767 0.645677 0.127708
0.778561 0.652317 0.131605
0.788828 0.659063 0.135809
0.798922 0.665907 0.141069
0.131889 0.538310 0.086861
0.132935 0.538402 0.086877
0.136924 0.538731 0.086937
0.144319 0.539335 0.087045
0.155399 0.540237 0.087206
0.171452 0.541452 0.087419
0.192778 0.542991 0.087686
0.219269 0.544862 0.088065
0.251936 0.547069 0.088634
0.285241 0.549615 0.089276
0.317849 0.552502 0.089986
0.351559 0.555728 0.090759
0.385229 0.559291 0.091589
0.420575 0.563186 0.092470
0.457474 0.567408 0.093396
0.489612 0.571951 0.094693
0.519322 0.576807 0.096050
0.549635 0.581969 0.097453
0.574942 0.587426 0.098896
0.596701 0.593171 0.100599
0.618354 0.599193 0.103013
0.639892 0.605482 0.105488
0.659352 0.612028 0.108019
0.675439 0.618820 0.110600
0.691312 0.625848 0.113227
0.706976 0.633101 0.116105
0.722437 0.639731 0.119400
0.737701 0.645704 0.122753
0.752774 0.651813 0.126160
0.767662 0.658049 0.129793
0.779161 0.664404 0.133651
0.789395 0.670870 0.138413
0.799458 0.677439 0.143632
0.140767 0.560864 0.088063
0.141882 0.560950 0.088086
0.145846 0.561258 0.088170
0.153174 0.561823 0.088323
0.164680 0.562668 0.088551
0.181580 0.563806 0.088854
0.202591 0.565248 0.089233
0.229948 0.567001 0.089688
0.262404 0.569072 0.090214
0.293355 0.571462 0.090810
0.325605 0.574174 0.091471
0.358248 0.577207 0.092193
0.391580 0.580560 0.092969
0.426618 0.584229 0.093928
0.463235 0.588210 0.095109
0.493762 0.592499 0.096348
0.523223 0.597089 0.097641
0.553352 0.601974 0.098979
0.577410 0.607145 0.100578
0.599004 0.612595 0.102847
0.620509 0.618316 0.105186
0.641915 0.624298 0.107588
0.660794 0.630532 0.110049
0.676789 0.636955 0.112563
0.692578 0.642186 0.115169
0.708166 0.647581 0.118338
0.723558 0.653129 0.121571
0.738759 0.658822 0.124864
0.753774 0.664653 0.128250
0.768610 0.670614 0.131990
0.779795 0.676697 0.136097
0.789995 0.682894 0.141155
0.800026 0.689199 0.146332
0.150055 0.583248 0.089777
0.151128 0.583328 0.089799
0.155369 0.583617 0.089876
0.163054 0.584148 0.090017
0.175409 0.584941 0.090227
0.192134 0.586010 0.090507
0.213515 0.587365 0.090858
0.241175 0.589014 0.091278
0.272712 0.590962 0.091767
0.301844 0.593212 0.092322
0.333732 0.595766 0.092938
0.365252 0.598624 0.093679
0.398241 0.601787 0.094664
0.432962 0.605251 0.095719
0.469290 0.609013 0.096838
0.498117 0.613070 0.098015
0.527320 0.617416 0.099246
0.557258 0.622046 0.100840
0.580002 0.626954 0.102957
0.601425 0.632132 0.105152
0.622777 0.637394 0.107417
0.644043 0.641835 0.109749
0.662312 0.646459 0.112141
0.678210 0.651260 0.114588
0.693911 0.656229 0.117551
0.709420 0.661360 0.120656
0.724739 0.666643 0.123826
0.739874 0.672073 0.127058
0.754829 0.677642 0.130597
0.769609 0.683341 0.134281
0.780465 0.689165 0.139021
0.790628 0.695106 0.144034
0.800625 0.701157 0.149168
0.160449 0.605470 0.091447
0.161606 0.605546 0.091466
0.165759 0.605818 0.091538
0.174214 0.606318 0.091668
0.186654 0.607065 0.091862
0.203107 0.608072 0.092122
0.225494 0.609349 0.092447
0.252949 0.610903 0.092838
0.281950 0.612740 0.093293
0.310699 0.614862 0.093945
0.341837 0.617274 0.094725
0.372566 0.619974 0.095582
0.405206 0.622964 0.096511
0.439605 0.626241 0.097509
0.474295 0.629804 0.098570
0.502672 0.633648 0.099690
0.531611 0.637549 0.101381
0.561353 0.640976 0.103340
0.582716 0.644607 0.105385
0.603962 0.648436 0.107507
0.625155 0.652456 0.109702
0.646277 0.656663 0.111965
0.663905 0.661048 0.114289
0.679701 0.665606 0.117046
0.695311 0.670331 0.120014
0.710737 0.675214 0.123054
0.725981 0.680250 0.126162
0.741047 0.685431 0.129482
0.755939 0.690751 0.133038
0.770661 0.696203 0.137236
0.781169 0.701780 0.142080
0.791294 0.707477 0.147048
0.801256 0.713286 0.152138
0.171952 0.627540 0.093074
0.173226 0.627612 0.093092
0.177780 0.627868 0.093159
0.186077 0.628341 0.093280
0.198300 0.629046 0.093473
0.215366 0.629997 0.093798
0.238015 0.631203 0.094207
0.265267 0.632671 0.094700
0.291544 0.634407 0.095275
0.319914 0.636414 0.095931
0.349834 0.638271 0.096665
0.380184 0.640264 0.097473
0.412470 0.642470 0.098352
0.446542 0.644888 0.099297
0.479345 0.647515 0.100490
0.507424 0.650348 0.102193
0.536137 0.653386 0.103993
0.564472 0.656623 0.105882
0.585550 0.660055 0.107856
0.606614 0.663679 0.109909
0.627642 0.667488 0.112036
0.648615 0.671477 0.114231
0.665571 0.675641 0.116826
0.681263 0.679974 0.119651
0.696778 0.684469 0.122553
0.712117 0.689122 0.125530
0.727283 0.693925 0.128649
0.742277 0.698872 0.132071
0.757103 0.703958 0.135805
0.771658 0.709175 0.140475
0.781908 0.714519 0.145273
0.791993 0.719983 0.150195
0.801919 0.725561 0.155241
0.184461 0.646655 0.095100
0.185710 0.646707 0.095123
0.190178 0.646896 0.095206
0.198325 0.647243 0.095359
0.210722 0.647762 0.095587
0.228611 0.648461 0.095891
0.251075 0.649347 0.096275
0.276479 0.650426 0.096738
0.301488 0.651702 0.097279
0.329480 0.653177 0.097896
0.358129 0.654853 0.098588
0.388099 0.656730 0.099352
0.420028 0.658809 0.100298
0.453768 0.661089 0.101730
0.484594 0.663568 0.103268
0.512369 0.666244 0.104906
0.540854 0.669116 0.106638
0.567632 0.672178 0.108461
0.588502 0.675428 0.110368
0.609378 0.678863 0.112354
0.630236 0.682476 0.114415
0.651056 0.686265 0.116894
0.667310 0.690223 0.119568
0.682894 0.694346 0.122327
0.698311 0.698628 0.125165
0.713561 0.703064 0.128103
0.728644 0.707649 0.131384
0.743564 0.712376 0.134747
0.758322 0.717241 0.139225
0.772477 0.722237 0.143847
0.782682 0.727359 0.148597
0.792725 0.732602 0.153474
0.802613 0.737959 0.158474
0.197335 0.663524 0.097209
0.198561 0.663574 0.097231
0.202948 0.663752 0.097309
0.211405 0.664078 0.097453
0.224658 0.664567 0.097666
0.242388 0.665225 0.097953
0.264670 0.666060 0.098313
0.287139 0.667077 0.098749
0.311772 0.668279 0.099258
0.339274 0.669670 0.099841
0.366714 0.671250 0.100794
0.396304 0.673022 0.101950
0.427875 0.674985 0.103217
0.461279 0.677140 0.104591
0.490037 0.679484 0.106069
0.517504 0.682016 0.107645
0.545758 0.684735 0.109314
0.570912 0.687637 0.111073
0.591569 0.690719 0.112916
0.612253 0.693979 0.114838
0.632937 0.697412 0.117247
0.653496 0.701014 0.119767
0.669122 0.704781 0.122376
0.684594 0.708709 0.125071
