negative-portra-400/Portra400_Modern_Punchy.cube
TITLE "Kodak Portra 400 Modern Punchy"
# Adobe RGB in/out. REPLACES AgX. Kodak Portra 400 Modern Punchy.
LUT_3D_SIZE 33
DOMAIN_MIN 0.0 0.0 0.0
DOMAIN_MAX 1.0 1.0 1.0
0.073063 0.084693 0.079636
0.073360 0.084693 0.079636
0.080322 0.084796 0.079636
0.099294 0.085243 0.079636
0.123696 0.087213 0.079636
0.166115 0.091521 0.079664
0.221784 0.097036 0.079733
0.281751 0.105747 0.079865
0.345935 0.117138 0.080181
0.415296 0.131977 0.080655
0.488414 0.151661 0.081340
0.552381 0.172830 0.082355
0.610049 0.196883 0.083386
0.662958 0.225558 0.084784
0.704051 0.255523 0.086074
0.743942 0.286617 0.087401
0.772716 0.319813 0.088905
0.797751 0.354158 0.090320
0.821786 0.389322 0.091757
0.845147 0.420893 0.094059
0.862115 0.451514 0.096263
0.876445 0.480699 0.098529
0.890162 0.504400 0.101132
0.901931 0.527900 0.103665
0.910959 0.551127 0.106500
0.919593 0.574065 0.109786
0.927806 0.596701 0.112996
0.935257 0.614366 0.116820
0.940067 0.629467 0.120715
0.944669 0.644185 0.124544
0.949073 0.658527 0.128305
0.953293 0.672500 0.131996
0.957404 0.686110 0.135618
0.073063 0.084693 0.079636
0.073068 0.084693 0.079636
0.076626 0.084822 0.079636
0.094404 0.085316 0.079636
0.119210 0.087382 0.079636
0.159496 0.091729 0.079661
0.214490 0.097191 0.079726
0.275182 0.106056 0.079855
0.340059 0.117486 0.080156
0.409912 0.132471 0.080631
0.483477 0.152212 0.081296
0.549010 0.173366 0.082319
0.606998 0.197552 0.083338
0.660943 0.226220 0.084744
0.702251 0.256184 0.086040
0.742323 0.287267 0.087362
0.771732 0.320481 0.088871
0.796868 0.354816 0.090290
0.820976 0.389969 0.091709
0.844411 0.421429 0.094015
0.861667 0.452033 0.096224
0.876041 0.481092 0.098484
0.889795 0.504780 0.101091
0.901691 0.528267 0.103628
0.910741 0.551482 0.106452
0.919394 0.574409 0.109742
0.927626 0.597035 0.112955
0.935151 0.614590 0.116772
0.939970 0.629682 0.120671
0.944579 0.644392 0.124502
0.948991 0.658727 0.128266
0.953216 0.672693 0.131960
0.957332 0.686297 0.135584
0.073063 0.085247 0.079636
0.073361 0.085183 0.079636
0.075165 0.085073 0.079636
0.085873 0.085618 0.079636
0.107602 0.087830 0.079636
0.143355 0.092312 0.079652
0.193742 0.098055 0.079705
0.255010 0.107125 0.079825
0.321360 0.118698 0.080078
0.392283 0.134203 0.080554
0.467002 0.154152 0.081146
0.537602 0.175257 0.082198
0.596532 0.199925 0.083174
0.653966 0.228574 0.084606
0.695981 0.258536 0.085923
0.736657 0.289583 0.087227
0.768272 0.322866 0.088753
0.793756 0.357164 0.090186
0.818112 0.392279 0.091541
0.841808 0.423344 0.093863
0.860081 0.453893 0.096086
0.874605 0.482496 0.098325
0.888490 0.506139 0.100945
0.900837 0.529581 0.103494
0.909963 0.552753 0.106284
0.918683 0.575641 0.109586
0.926983 0.598231 0.112811
0.934771 0.615392 0.116602
0.939621 0.630453 0.120512
0.944258 0.645135 0.124353
0.948695 0.659443 0.128126
0.952943 0.673385 0.131829
0.957075 0.686966 0.135461
0.073275 0.088839 0.079636
0.073758 0.088612 0.079636
0.077402 0.088036 0.079636
0.085373 0.087733 0.079636
0.099347 0.089206 0.079636
0.125893 0.093504 0.079645
0.170461 0.099732 0.079681
0.228401 0.109135 0.079786
0.294767 0.120884 0.079969
0.365699 0.137312 0.080438
0.441176 0.157631 0.080940
0.518999 0.178650 0.082005
0.579112 0.204202 0.083003
0.638982 0.232836 0.084376
0.685194 0.262790 0.085725
0.726817 0.293924 0.086995
0.762199 0.327194 0.088548
0.788262 0.361433 0.090004
0.813105 0.396454 0.091371
0.837171 0.426830 0.093595
0.857244 0.457284 0.095842
0.872030 0.485057 0.098043
0.886145 0.508620 0.100686
0.899299 0.531982 0.103256
0.908560 0.555079 0.105983
0.917400 0.577897 0.109307
0.925821 0.600421 0.112552
0.933797 0.616858 0.116297
0.938990 0.631865 0.120226
0.943677 0.646496 0.124085
0.948159 0.660757 0.127875
0.952447 0.674654 0.131593
0.956607 0.688194 0.135240
0.073889 0.096877 0.079636
0.074962 0.096667 0.079636
0.080917 0.095994 0.079636
0.090678 0.095099 0.079636
0.102060 0.094623 0.079636
0.118966 0.096247 0.079646
0.154095 0.103019 0.079676
0.204522 0.112570 0.079758
0.267835 0.124608 0.079913
0.336677 0.142419 0.080319
0.411062 0.162800 0.080834
0.489369 0.183609 0.081776
0.556841 0.210494 0.082794
0.617800 0.239112 0.084083
0.670685 0.269031 0.085466
0.713387 0.300326 0.086740
0.753773 0.333557 0.088271
0.780567 0.367715 0.089755
0.806059 0.401797 0.091147
0.830586 0.431963 0.093221
0.853190 0.462294 0.095501
0.868335 0.488840 0.097686
0.882768 0.512289 0.100322
0.896545 0.535536 0.102919
0.906525 0.558526 0.105555
0.915533 0.581243 0.108909
0.924127 0.603672 0.112180
0.932237 0.619035 0.115858
0.938066 0.633962 0.119814
0.942825 0.648518 0.123699
0.947371 0.662709 0.127511
0.951719 0.676541 0.131252
0.955919 0.690029 0.134920
0.076935 0.120365 0.079652
0.079225 0.119704 0.079652
0.087836 0.117389 0.079654
0.099791 0.113439 0.079657
0.111267 0.109153 0.079659
0.124203 0.107288 0.079665
0.147268 0.109548 0.079680
0.189829 0.118880 0.079755
0.246239 0.132244 0.079890
0.310828 0.150193 0.080252
0.381741 0.169991 0.080744
0.457991 0.191761 0.081561
0.532704 0.218993 0.082582
0.593886 0.247528 0.083772
0.653741 0.277349 0.085181
0.697381 0.308871 0.086478
0.739524 0.342015 0.087949
0.771076 0.376063 0.089460
0.797276 0.408795 0.090876
0.822308 0.438774 0.092767
0.846568 0.468971 0.095082
0.863623 0.493873 0.097300
0.878440 0.517179 0.099867
0.892561 0.540279 0.102495
0.903893 0.563131 0.105039
0.913111 0.585718 0.108404
0.921897 0.606755 0.111708
0.930200 0.621947 0.115299
0.936856 0.636769 0.119287
0.941707 0.651227 0.123202
0.946337 0.665327 0.127044
0.950760 0.679074 0.130811
0.955013 0.692496 0.134505
0.082810 0.160622 0.079707
0.085959 0.161309 0.079712
0.095183 0.156650 0.079714
0.107046 0.146843 0.079712
0.120192 0.136085 0.079710
0.136324 0.129659 0.079717
0.155845 0.127598 0.079736
0.182377 0.129617 0.079779
0.231959 0.143672 0.079900
0.290985 0.160998 0.080235
0.356843 0.179684 0.080694
0.429443 0.203285 0.081405
0.506791 0.230052 0.082413
0.569590 0.258364 0.083490
0.630443 0.287914 0.084905
0.680011 0.319688 0.086214
0.722837 0.352658 0.087615
0.760327 0.386542 0.089144
0.787198 0.417538 0.090581
0.812802 0.447312 0.092266
0.837635 0.476904 0.094614
0.858062 0.500175 0.096864
0.873297 0.523308 0.099349
0.887801 0.546230 0.102007
0.900727 0.568915 0.104583
0.910186 0.591344 0.107816
0.919190 0.610550 0.111154
0.927724 0.625605 0.114640
0.935379 0.640299 0.118663
0.940339 0.654637 0.122611
0.945067 0.668625 0.126485
0.949580 0.682266 0.130283
0.953896 0.695609 0.134006
0.088860 0.207295 0.079818
0.092035 0.208103 0.079826
0.101726 0.205655 0.079837
0.114158 0.190268 0.079826
0.128994 0.176956 0.079819
0.147918 0.167085 0.079823
0.169150 0.161121 0.079843
0.194876 0.159411 0.079878
0.226430 0.161486 0.079952
0.277641 0.175238 0.080271
0.338164 0.194221 0.080696
0.405866 0.218254 0.081342
0.479243 0.244224 0.082309
0.546893 0.271956 0.083280
0.606745 0.301429 0.084677
0.662464 0.332981 0.085980
0.705578 0.365647 0.087302
0.747449 0.398863 0.088837
0.776338 0.428097 0.090285
0.802547 0.457651 0.091759
0.827803 0.484742 0.094129
0.851863 0.507783 0.096405
0.867520 0.530695 0.098797
0.882416 0.553406 0.101482
0.896608 0.575894 0.104088
0.906834 0.598137 0.107171
0.916074 0.615123 0.110543
0.924861 0.630015 0.113910
0.933145 0.644559 0.117966
0.938744 0.658756 0.121949
0.943584 0.672611 0.125855
0.948199 0.686127 0.129685
0.952603 0.699376 0.133439
0.096489 0.268045 0.080041
0.099387 0.268833 0.080060
0.107824 0.263452 0.080070
0.120711 0.247894 0.080038
0.138543 0.230907 0.080015
0.158388 0.215808 0.080016
0.182155 0.204580 0.080051
0.208653 0.198146 0.080128
0.239972 0.196528 0.080245
0.274744 0.199187 0.080419
0.325279 0.214732 0.080752
0.387875 0.237191 0.081385
0.456681 0.262016 0.082288
0.527200 0.288722 0.083175
0.585114 0.318104 0.084525
0.643951 0.349049 0.085801
0.688683 0.381217 0.087042
0.730625 0.411795 0.088567
0.765247 0.440639 0.090016
0.791919 0.469898 0.091391
0.817485 0.493960 0.093662
0.842424 0.516728 0.095954
0.861309 0.539369 0.098245
0.876580 0.561832 0.100949
0.891127 0.584088 0.103578
0.903147 0.605429 0.106503
0.912628 0.620475 0.109902
0.921651 0.635182 0.113219
0.930168 0.649552 0.117226
0.936956 0.663587 0.121239
0.941914 0.677290 0.125177
0.946639 0.690676 0.129039
0.951144 0.703804 0.132823
0.104120 0.338810 0.080505
0.106473 0.336886 0.080506
0.114796 0.326768 0.080483
0.127747 0.310978 0.080452
0.147297 0.292637 0.080426
0.169456 0.275421 0.080419
0.194582 0.261054 0.080442
0.222880 0.250766 0.080504
0.253989 0.245069 0.080607
0.287814 0.243868 0.080749
0.324895 0.246676 0.080923
0.375053 0.260474 0.081531
0.439315 0.283712 0.082355
0.509054 0.309818 0.083189
0.566376 0.338201 0.084470
0.623415 0.368232 0.085698
0.672916 0.399223 0.086870
0.714615 0.426992 0.088361
0.754409 0.455354 0.089796
0.781355 0.482205 0.091166
0.807254 0.504639 0.093247
0.832399 0.527063 0.095541
0.854875 0.549378 0.097749
0.870477 0.571543 0.100441
0.885350 0.593527 0.103083
0.899226 0.611796 0.105844
0.908939 0.626614 0.109264
0.918182 0.641110 0.112602
0.926948 0.655283 0.116474
0.935011 0.669134 0.120513
0.940091 0.682665 0.124478
0.944929 0.695921 0.128367
0.949540 0.708897 0.132179
0.111859 0.405752 0.080932
0.114165 0.403373 0.080927
0.121639 0.395077 0.080911
0.136324 0.379854 0.080887
0.155419 0.361276 0.080865
0.179603 0.342124 0.080855
0.206158 0.324752 0.080866
0.236183 0.310766 0.080905
0.267652 0.301045 0.081000
0.301204 0.295861 0.081252
0.337432 0.295020 0.081578
0.377136 0.298106 0.081964
0.426623 0.310235 0.082504
0.492144 0.335062 0.083324
0.550859 0.362035 0.084519
0.605791 0.390939 0.085684
0.658905 0.417798 0.086811
0.700006 0.444752 0.088240
0.740569 0.472459 0.089646
0.771234 0.494942 0.090996
0.797294 0.516893 0.092914
0.822499 0.538867 0.095193
0.847115 0.560783 0.097395
0.864289 0.582592 0.099987
0.879437 0.604131 0.102629
0.893903 0.618991 0.105230
0.905099 0.633549 0.108658
0.914549 0.647806 0.112009
0.923553 0.661758 0.115743
0.932034 0.675402 0.119799
0.938149 0.688741 0.123784
0.943101 0.701852 0.127696
0.947819 0.714657 0.131531
0.119573 0.465052 0.081811
0.121602 0.462910 0.081801
0.129703 0.455580 0.081772
0.144780 0.443440 0.081728
0.164480 0.428010 0.081684
0.189338 0.411253 0.081658
0.217584 0.394748 0.081668
0.248433 0.378174 0.081728
0.280512 0.365186 0.081848
0.314248 0.356349 0.082033
0.350161 0.351796 0.082281
0.389175 0.351355 0.082588
0.431084 0.354668 0.082959
0.479529 0.364502 0.083571
0.538802 0.390010 0.084676
0.591398 0.414499 0.085767
0.645601 0.439348 0.086837
0.687163 0.465309 0.088216
0.727076 0.488347 0.089578
0.761853 0.509465 0.090895
0.787894 0.530802 0.092688
0.813083 0.552226 0.094934
0.837771 0.573661 0.097115
0.858185 0.595043 0.099613
0.873545 0.612501 0.102240
0.888235 0.627031 0.104802
0.901201 0.641295 0.108115
0.910834 0.655281 0.111467
0.920018 0.668984 0.115065
0.928718 0.682398 0.119129
0.936127 0.695563 0.123125
0.941188 0.708473 0.127051
0.946011 0.721089 0.130904
0.127759 0.513608 0.082638
0.130325 0.512134 0.082631
0.138997 0.507039 0.082607
0.153075 0.498429 0.082573
0.173639 0.487147 0.082538
0.198661 0.474091 0.082514
0.228187 0.457402 0.082516
0.259681 0.441970 0.082555
0.292433 0.428857 0.082642
0.326566 0.418751 0.082785
0.362700 0.412029 0.082984
0.401395 0.408781 0.083278
0.442586 0.408887 0.083761
0.486682 0.412087 0.084313
0.529802 0.418482 0.084932
0.580108 0.440529 0.085944
0.632282 0.464055 0.086968
0.676257 0.485784 0.088295
0.715295 0.505594 0.089600
0.753422 0.525880 0.090873
0.779275 0.546464 0.092585
0.804384 0.567231 0.094784
0.828926 0.588091 0.096928
0.852312 0.607407 0.099339
0.867811 0.621778 0.101940
0.882665 0.635939 0.104484
0.896899 0.649868 0.107661
0.907115 0.663549 0.111001
0.916456 0.676973 0.114470
0.925354 0.690139 0.118529
0.933764 0.703103 0.122526
0.939225 0.715790 0.126457
0.944147 0.728197 0.130319
0.137835 0.559162 0.083561
0.140171 0.557856 0.083553
0.148145 0.553316 0.083525
0.162055 0.545534 0.083482
0.182686 0.535122 0.083436
0.208047 0.523029 0.083403
0.238150 0.510322 0.083401
0.270093 0.498015 0.083445
0.303471 0.486955 0.083549
0.338213 0.477746 0.083722
0.374869 0.469491 0.083971
0.413569 0.463763 0.084296
0.454437 0.461290 0.084695
0.497880 0.461951 0.085160
0.537088 0.465517 0.085682
0.573251 0.471701 0.086251
0.621776 0.488186 0.087226
0.667291 0.506182 0.088475
0.705313 0.524930 0.089715
0.743259 0.544234 0.090934
0.771580 0.563951 0.092617
0.796471 0.583957 0.094753
0.820750 0.604054 0.096846
0.844690 0.618089 0.099185
0.862352 0.631993 0.101745
0.877304 0.645735 0.104258
0.891662 0.659287 0.107318
0.903465 0.672626 0.110635
0.912932 0.685738 0.113985
0.921981 0.698670 0.118027
0.930547 0.711369 0.122013
0.937246 0.723809 0.125939
0.942257 0.735986 0.129801
0.147654 0.603907 0.084694
0.149793 0.602775 0.084688
0.157036 0.598722 0.084667
0.171819 0.591704 0.084634
0.191995 0.582168 0.084599
0.217734 0.570866 0.084573
0.247731 0.558688 0.084570
0.279919 0.546515 0.084604
0.313793 0.535128 0.084685
0.349137 0.525155 0.084822
0.386411 0.517053 0.085023
0.425341 0.511118 0.085288
0.466193 0.507492 0.085618
0.509268 0.506192 0.086011
0.545070 0.507130 0.086460
0.580549 0.510149 0.086981
0.617290 0.515050 0.087703
0.660145 0.528721 0.088750
0.697090 0.546303 0.089919
0.734096 0.564543 0.091078
0.764881 0.583303 0.092788
0.789441 0.602452 0.094848
0.813427 0.616335 0.096879
0.837146 0.629779 0.099162
0.857259 0.643162 0.101669
0.872244 0.656436 0.104139
0.886667 0.669567 0.107107
0.899946 0.682526 0.110385
0.909507 0.695332 0.113635
0.918659 0.707963 0.117645
0.927376 0.720369 0.121608
0.935280 0.732538 0.125518
0.940371 0.744463 0.129370
0.157130 0.634182 0.085738
0.159466 0.633478 0.085733
0.167588 0.631006 0.085718
0.181567 0.626683 0.085694
0.201287 0.620713 0.085668
0.227323 0.613486 0.085649
0.257032 0.605495 0.085649
0.289284 0.594389 0.085677
0.323461 0.582996 0.085743
0.359384 0.572632 0.085855
0.397203 0.563770 0.086020
0.436481 0.556746 0.086241
0.477518 0.551769 0.086519
0.519523 0.548933 0.086854
0.553093 0.548231 0.087360
0.588039 0.549581 0.087945
0.624086 0.552845 0.088589
0.658411 0.557852 0.089280
0.690499 0.569633 0.090205
0.726526 0.586770 0.091300
0.759184 0.604311 0.093095
0.783333 0.616924 0.095071
0.806997 0.629670 0.097030
0.830358 0.642480 0.099277
0.852597 0.655292 0.101719
0.867554 0.668052 0.104136
0.881986 0.680720 0.107041
0.895900 0.693288 0.110268
0.906231 0.705748 0.113453
0.915457 0.718029 0.117402
0.924297 0.730113 0.121330
0.932669 0.741985 0.125213
0.938516 0.753634 0.129044
0.168243 0.663266 0.086705
0.170424 0.662649 0.086702
0.178042 0.660478 0.086691
0.191627 0.656657 0.086674
0.211259 0.651329 0.086656
0.236822 0.644796 0.086644
0.266110 0.637455 0.086646
0.298255 0.629742 0.086672
0.332582 0.622086 0.086729
0.368992 0.614876 0.086825
0.407215 0.608440 0.086989
0.446867 0.602676 0.087241
0.488200 0.596673 0.087560
0.527584 0.592594 0.087946
0.560961 0.590498 0.088400
0.595481 0.590366 0.088916
0.630981 0.592121 0.089488
0.662981 0.595640 0.090110
0.690129 0.600775 0.090775
0.720423 0.608698 0.091651
0.754448 0.620221 0.093530
0.778135 0.632027 0.095417
0.801414 0.644036 0.097298
0.824363 0.656173 0.099532
0.847097 0.668374 0.101901
0.863281 0.680581 0.104254
0.877670 0.692772 0.107129
0.891575 0.704930 0.110294
0.903146 0.716972 0.113426
0.912416 0.728871 0.117312
0.921319 0.740604 0.121194
0.929789 0.752153 0.125038
0.936714 0.763503 0.128838
0.179164 0.691224 0.087847
0.181206 0.690679 0.087844
0.188613 0.688755 0.087834
0.201637 0.685370 0.087818
0.221428 0.680616 0.087803
0.246253 0.674723 0.087795
0.275006 0.668012 0.087804
0.306890 0.660846 0.087839
0.341232 0.653597 0.087909
0.377943 0.646609 0.088022
0.416465 0.640188 0.088186
0.456494 0.634585 0.088406
0.498119 0.629994 0.088684
0.535116 0.626552 0.089023
0.568426 0.624337 0.089422
0.602668 0.623380 0.089879
0.637766 0.623664 0.090390
0.667552 0.625139 0.090950
0.694224 0.627727 0.091576
0.721199 0.631335 0.092739
0.749923 0.637114 0.094083
0.773798 0.648119 0.095878
0.796656 0.659378 0.097677
0.819159 0.670822 0.099923
0.841594 0.682384 0.102213
0.859449 0.694039 0.104494
0.873751 0.705742 0.107376
0.887604 0.717409 0.110469
0.900281 0.729003 0.113543
0.909566 0.740490 0.117387
0.918499 0.751845 0.121211
0.927049 0.763045 0.125007
0.934987 0.774073 0.128767
0.190178 0.718231 0.088976
0.192171 0.717751 0.088974
0.199186 0.716051 0.088968
0.212363 0.713033 0.088959
0.231546 0.708762 0.088951
0.255610 0.703423 0.088951
0.283748 0.697273 0.088965
0.315241 0.690619 0.089002
0.349450 0.683808 0.089068
0.386306 0.677130 0.089172
0.425004 0.670850 0.089319
0.465329 0.665205 0.089515
0.507226 0.660390 0.089762
0.542043 0.656549 0.090062
0.575367 0.653783 0.090417
0.609444 0.652146 0.090824
0.644266 0.651654 0.091283
0.671994 0.652286 0.092002
0.698274 0.653995 0.093003
0.724825 0.656714 0.094080
0.751645 0.660362 0.095223
0.770252 0.665107 0.096445
0.792674 0.675624 0.098251
0.814761 0.686368 0.100443
0.836815 0.697332 0.102651
0.856065 0.708418 0.104856
0.870244 0.719560 0.107782
0.884008 0.730711 0.110794
0.897354 0.741829 0.113864
0.906930 0.752879 0.117632
0.915870 0.763830 0.121390
0.924473 0.774658 0.125128
0.932658 0.785340 0.128838
0.201080 0.744166 0.090035
0.202960 0.743742 0.090034
0.210206 0.742239 0.090031
0.223178 0.739560 0.090027
0.241588 0.735749 0.090026
0.264883 0.730947 0.090032
0.292370 0.725365 0.090051
0.323346 0.719255 0.090091
0.357335 0.712889 0.090156
0.394150 0.706537 0.090254
0.432893 0.700450 0.090389
0.473410 0.694850 0.090566
0.515520 0.689925 0.090789
0.548335 0.685841 0.091060
0.581713 0.682694 0.091378
0.615701 0.680547 0.091924
0.650344 0.679438 0.092678
0.676199 0.679373 0.093519
0.702165 0.680329 0.094440
0.728364 0.682262 0.095435
0.753912 0.685113 0.096497
0.771914 0.688813 0.097618
0.789860 0.693312 0.099053
0.811093 0.702829 0.101087
0.832727 0.713152 0.103209
0.853119 0.723623 0.105421
0.867148 0.734190 0.108343
0.880794 0.744807 0.111270
0.894052 0.755430 0.114366
0.904522 0.766021 0.118051
0.913446 0.776548 0.121735
0.922057 0.786989 0.125407
0.930278 0.796437 0.129058
0.212584 0.769061 0.091029
0.214543 0.768685 0.091028
0.221483 0.767355 0.091028
0.233858 0.764976 0.091028
0.251534 0.761576 0.091033
0.274056 0.757265 0.091045
0.300852 0.752212 0.091069
0.331253 0.746628 0.091111
0.364965 0.740744 0.091177
0.401535 0.734793 0.091271
0.440195 0.729001 0.091398
0.480790 0.723571 0.091591
0.521443 0.718679 0.091961
0.554026 0.714473 0.092409
0.587431 0.711067 0.092939
0.621374 0.708545 0.093552
0.654518 0.706958 0.094246
0.680082 0.706332 0.095020
0.705807 0.706663 0.095871
0.731721 0.707930 0.096793
0.755974 0.710091 0.097781
0.773727 0.713094 0.099104
0.791423 0.716877 0.100510
0.809056 0.721375 0.101988
0.829280 0.729736 0.103877
0.850344 0.739595 0.106228
0.864450 0.749585 0.109053
0.877957 0.759659 0.111890
0.891104 0.769774 0.115047
0.902347 0.779892 0.118643
0.911237 0.789999 0.122246
0.919828 0.797857 0.125845
0.928072 0.803057 0.129432
0.224103 0.792978 0.092317
0.225965 0.792645 0.092317
0.232563 0.791461 0.092320
0.244383 0.789338 0.092328
0.261358 0.786293 0.092344
0.283113 0.782424 0.092375
0.309191 0.777864 0.092428
0.338992 0.772782 0.092511
0.372301 0.767374 0.092632
0.408513 0.761843 0.092800
0.446974 0.756389 0.093022
0.487528 0.751194 0.093305
0.526522 0.746424 0.093654
0.559129 0.742220 0.094073
0.592520 0.738696 0.094566
0.626432 0.735940 0.095134
0.658160 0.734015 0.095777
0.683585 0.732958 0.096494
0.709126 0.732783 0.097283
0.734817 0.733484 0.098227
0.757896 0.735037 0.099404
0.775437 0.737407 0.100659
0.792915 0.740544 0.101993
0.810329 0.744396 0.103394
0.827854 0.748906 0.104853
0.847152 0.756268 0.107176
0.862126 0.765687 0.109903
0.875481 0.775219 0.112650
0.888500 0.784822 0.115901
0.900404 0.794501 0.119404
0.909243 0.800002 0.122922
0.917800 0.805016 0.126443
0.926050 0.809969 0.129959
0.235366 0.806134 0.093923
0.237137 0.805981 0.093925
0.243429 0.805438 0.093931
0.254732 0.804461 0.093945
0.271033 0.803054 0.093969
0.292063 0.801247 0.094008
0.317379 0.799097 0.094070
0.346536 0.796679 0.094159
0.379368 0.792850 0.094284
0.415128 0.787721 0.094452
0.453305 0.782619 0.094669
0.493683 0.777707 0.094940
0.531073 0.773126 0.095272
0.563650 0.769007 0.095668
0.596997 0.765463 0.096130
0.630871 0.762583 0.096661
0.661358 0.760435 0.097262
0.686674 0.759064 0.097960
0.712074 0.758498 0.098899
0.737590 0.758743 0.099924
0.759633 0.759789 0.101032
0.776997 0.761614 0.102222
0.794289 0.764184 0.103485
0.811512 0.767457 0.104813
0.828862 0.771384 0.106613
0.846241 0.775917 0.108603
0.860150 0.782432 0.110884
0.873344 0.791459 0.113544
0.886224 0.798132 0.116920
0.898685 0.802923 0.120328
0.907462 0.807701 0.123757
0.915972 0.812450 0.127197
0.924211 0.817154 0.130638
0.246369 0.817471 0.095447
0.248058 0.817338 0.095449
0.254064 0.816863 0.095458
0.264881 0.816009 0.095477
0.280537 0.814773 0.095507
0.300857 0.813181 0.095555
0.325408 0.811278 0.095623
0.353890 0.809124 0.095719
0.386186 0.806790 0.095849
0.421413 0.804354 0.096017
0.459210 0.801894 0.096231
0.499308 0.799489 0.096495
0.535144 0.797209 0.096814
0.567628 0.794843 0.097191
0.600890 0.791341 0.097630
0.634704 0.788413 0.098214
0.664107 0.786129 0.098935
0.689330 0.784546 0.099739
0.714619 0.783693 0.100625
0.739996 0.783583 0.101598
0.761148 0.784220 0.102649
0.778368 0.785591 0.103775
0.795504 0.787684 0.104972
0.812563 0.790462 0.106659
0.829762 0.793885 0.108485
0.846970 0.796729 0.110394
0.859803 0.799125 0.112381
0.871518 0.802169 0.114816
0.884255 0.806649 0.118094
0.896691 0.811147 0.121407
0.905886 0.815648 0.124746
0.914339 0.820133 0.128102
0.922538 0.824590 0.131466
0.257099 0.828193 0.096890
0.258711 0.828077 0.096894
0.264449 0.827662 0.096905
0.274807 0.826914 0.096928
0.289870 0.825831 0.096964
0.309476 0.824430 0.097018
0.333299 0.822749 0.097094
0.361153 0.820837 0.097196
0.392766 0.818753 0.097330
0.427395 0.816562 0.097500
0.464727 0.814333 0.097713
0.504454 0.812134 0.098011
0.538777 0.810027 0.098405
0.571108 0.808074 0.098868
0.604236 0.806326 0.099403
0.637955 0.804830 0.100013
0.666417 0.803624 0.100700
0.691552 0.802736 0.101469
0.716744 0.802189 0.102316
0.742010 0.801995 0.103239
0.762417 0.802161 0.104237
0.779521 0.802685 0.105384
0.796528 0.803560 0.106950
0.813449 0.804774 0.108611
0.830518 0.806311 0.110363
0.847577 0.808150 0.112198
0.860109 0.810272 0.114263
0.871360 0.812653 0.116774
0.882566 0.815364 0.119412
0.894873 0.819581 0.122631
0.904502 0.823811 0.125880
0.912891 0.828040 0.129152
0.921039 0.832252 0.132437
0.267539 0.838331 0.098376
0.269079 0.838230 0.098381
0.274567 0.837868 0.098398
0.284496 0.837215 0.098432
0.298996 0.836266 0.098485
0.317903 0.835037 0.098561
0.341025 0.833556 0.098665
0.368228 0.831864 0.098802
0.399116 0.830011 0.098979
0.433092 0.828052 0.099200
0.469889 0.826045 0.099471
0.509162 0.824050 0.099798
0.542011 0.822122 0.100184
0.574128 0.820316 0.100635
0.607074 0.818679 0.101156
0.640657 0.817254 0.101747
0.668303 0.816078 0.102410
0.693347 0.815180 0.103146
0.718448 0.814581 0.103955
0.743616 0.814299 0.104837
0.763426 0.814341 0.106046
0.780433 0.814711 0.107452
0.797335 0.815405 0.108955
0.814142 0.816417 0.110551
0.831099 0.817734 0.112235
0.848031 0.819342 0.114125
0.860325 0.821224 0.116458
0.871489 0.823360 0.118892
0.882524 0.825732 0.121422
0.893430 0.828320 0.124040
0.903297 0.832162 0.127151
0.911618 0.836140 0.130339
0.919708 0.840114 0.133544
0.277675 0.847915 0.100029
0.279148 0.847827 0.100035
0.284406 0.847512 0.100055
0.293952 0.846943 0.100093
0.307888 0.846114 0.100151
0.326118 0.845038 0.100234
0.348552 0.843738 0.100346
0.375097 0.842247 0.100491
0.405237 0.840608 0.100673
0.438521 0.838865 0.100900
0.474723 0.837071 0.101175
0.513470 0.835275 0.101502
0.544884 0.833528 0.101886
0.576729 0.831876 0.102330
0.609441 0.830365 0.102838
0.642845 0.829033 0.103412
0.669789 0.827914 0.104052
0.694730 0.827036 0.104761
0.719737 0.826423 0.105702
0.744811 0.826091 0.106866
0.764166 0.826051 0.108126
0.781092 0.826308 0.109481
0.797907 0.826864 0.110929
0.814619 0.827715 0.112466
