negative-portra-400/Portra400_Classic_Punchy.cube
TITLE "Kodak Portra 400 Classic Punchy"
# Adobe RGB in/out. REPLACES AgX. Kodak Portra 400 Classic Punchy.
LUT_3D_SIZE 9
DOMAIN_MIN 0.0 0.0 0.0
DOMAIN_MAX 1.0 1.0 1.0
0.068277 0.082999 0.079619
0.113567 0.086530 0.079786
0.275544 0.092654 0.081513
0.543066 0.102338 0.085009
0.706015 0.117957 0.089192
0.783674 0.135255 0.094840
0.827469 0.146282 0.107193
0.858898 0.165555 0.489854
0.862760 0.334026 0.600780
0.073411 0.096737 0.079798
0.091231 0.098382 0.080676
0.207085 0.102140 0.082472
0.464159 0.113815 0.085827
0.680229 0.129911 0.089714
0.778083 0.148059 0.095299
0.825761 0.158175 0.106347
0.858899 0.165580 0.489869
0.862760 0.334035 0.600779
0.082256 0.149178 0.081774
0.089240 0.155693 0.082927
0.137073 0.159091 0.085400
0.301110 0.168696 0.088403
0.566786 0.184812 0.091574
0.744324 0.211272 0.097595
0.815388 0.227403 0.106751
0.859115 0.174040 0.491693
0.862760 0.334035 0.600778
0.092334 0.269088 0.085364
0.097896 0.276982 0.086456
0.125895 0.290818 0.089116
0.222101 0.294368 0.091530
0.425260 0.306556 0.096388
0.664288 0.325692 0.102556
0.791903 0.348471 0.111183
0.847643 0.356383 0.127099
0.862761 0.313012 0.508840
0.105050 0.430036 0.089141
0.108824 0.435283 0.090037
0.130030 0.452189 0.092950
0.199234 0.461772 0.097445
0.342990 0.464872 0.102722
0.561830 0.475962 0.109691
0.751034 0.489517 0.118768
0.835885 0.502170 0.130886
0.862950 0.517247 0.299157
0.118518 0.570037 0.092966
0.120950 0.572325 0.094019
0.141417 0.584441 0.098290
0.194183 0.593663 0.103934
0.305997 0.598028 0.110642
0.486637 0.601286 0.118394
0.684088 0.608398 0.127705
0.814997 0.617559 0.137634
0.861810 0.627550 0.177335
0.134243 0.672056 0.097323
0.137121 0.673064 0.098401
0.153261 0.678541 0.103099
0.196987 0.684446 0.110155
0.288690 0.688063 0.118675
0.437897 0.689850 0.127311
0.624562 0.693049 0.135519
0.784393 0.699655 0.148525
0.860731 0.709559 0.173237
0.149839 0.769029 0.096853
0.151203 0.768427 0.097576
0.165378 0.766816 0.103752
0.200888 0.768888 0.112321
0.278369 0.770681 0.122739
0.406690 0.771195 0.132203
0.575231 0.772561 0.142096
0.748295 0.777338 0.154814
0.860770 0.784404 0.173644
0.151030 0.794816 0.093721
0.151032 0.794820 0.093722
0.179081 0.813436 0.093735
0.179083 0.814897 0.100445
0.255937 0.822540 0.110070
0.374893 0.820926 0.123180
0.533952 0.820160 0.133019
0.694877 0.821514 0.140975
0.865076 0.825279 0.146938
0.070033 0.087555 0.092617
0.098509 0.097177 0.169298
0.276530 0.096881 0.108420
0.578109 0.107474 0.103600
0.716785 0.121414 0.101493
0.785040 0.138397 0.105036
0.827399 0.149808 0.121047
0.858899 0.165579 0.489871
0.862760 0.334035 0.600781
0.077741 0.098185 0.091603
0.110088 0.104475 0.099519
0.238147 0.107051 0.098635
0.521872 0.119346 0.101419
0.697726 0.134564 0.101584
0.780329 0.151356 0.105129
0.825804 0.161385 0.118749
0.858900 0.165618 0.489896
0.862760 0.334035 0.600779
0.087300 0.150094 0.092277
0.098290 0.154150 0.093915
0.161746 0.159196 0.097152
0.361473 0.173106 0.101559
0.607404 0.190629 0.103739
0.754900 0.214792 0.107656
0.816527 0.230209 0.117305
0.859177 0.176583 0.492487
0.862760 0.334035 0.600778
0.098028 0.268562 0.094453
0.104283 0.274473 0.096097
0.140708 0.286407 0.100065
0.251782 0.292836 0.104342
0.467125 0.308459 0.108733
0.683292 0.328141 0.113038
0.796088 0.350123 0.121692
0.847888 0.358526 0.137003
0.862760 0.334050 0.600775
0.109002 0.427285 0.096474
0.113497 0.432172 0.097975
0.139376 0.447396 0.102866
0.214290 0.457519 0.108740
0.367833 0.463125 0.115375
0.583689 0.475906 0.121376
0.759253 0.489977 0.128965
0.837251 0.502654 0.140617
0.862929 0.521290 0.349275
0.120811 0.567752 0.099569
0.123922 0.570098 0.101025
0.146936 0.581519 0.106154
0.202653 0.590682 0.113293
0.319627 0.595794 0.121644
0.505986 0.600246 0.129689
0.695613 0.608263 0.137055
0.818561 0.617618 0.150394
0.861853 0.628322 0.194708
0.136633 0.671233 0.102962
0.139772 0.672239 0.104158
0.156726 0.677521 0.110057
0.202488 0.683274 0.118677
0.297300 0.686985 0.127810
0.449267 0.689157 0.136190
0.636381 0.692760 0.147974
0.789582 0.699661 0.160756
0.860931 0.709899 0.186373
0.150717 0.768102 0.100116
0.152309 0.767647 0.101233
0.167767 0.766438 0.109121
0.204400 0.768493 0.119582
0.283823 0.770278 0.130275
0.413565 0.770930 0.140664
0.582192 0.772546 0.153825
0.754117 0.777471 0.166849
0.861169 0.784628 0.185595
0.151031 0.802236 0.125195
0.151034 0.802238 0.125195
0.179081 0.819859 0.125195
0.179084 0.819858 0.125191
0.258390 0.822651 0.114623
0.378275 0.821031 0.129367
0.537254 0.820320 0.140273
0.697961 0.821707 0.151141
0.865660 0.825415 0.156736
0.072483 0.096001 0.147304
0.104556 0.130454 0.420682
0.250736 0.131963 0.387681
0.570291 0.138799 0.345430
0.719102 0.152256 0.313469
0.785919 0.171102 0.330887
0.826949 0.188391 0.392028
0.859016 0.172375 0.501779
0.862760 0.334041 0.600803
0.080570 0.108525 0.151663
0.103749 0.118338 0.222620
0.231360 0.129390 0.267598
0.531646 0.142899 0.262627
0.706124 0.159509 0.260671
0.782500 0.178835 0.287377
0.825632 0.196587 0.355393
0.859061 0.174421 0.503407
0.862760 0.334036 0.600783
0.092850 0.158342 0.143015
0.105955 0.161933 0.149482
0.202524 0.184911 0.183459
0.410569 0.187904 0.186067
0.652514 0.211762 0.200179
0.765893 0.236835 0.221978
0.818766 0.252687 0.253218
0.858645 0.222233 0.499421
0.862760 0.334036 0.600779
0.106551 0.276227 0.146675
0.115290 0.280365 0.150012
0.163964 0.290222 0.159092
0.302437 0.299870 0.169805
0.541863 0.321186 0.183397
0.721993 0.344611 0.200144
0.804510 0.364653 0.215248
0.848647 0.376877 0.283581
0.862760 0.334038 0.600782
0.119473 0.433656 0.149923
0.125498 0.437055 0.152661
0.161612 0.447773 0.160708
0.254011 0.457555 0.170967
0.429377 0.466213 0.181470
0.649091 0.481705 0.196980
0.778430 0.496622 0.208298
0.840969 0.508670 0.239493
0.862851 0.537405 0.493532
0.134676 0.571153 0.155191
0.140346 0.572956 0.157467
0.168480 0.581022 0.165596
0.235202 0.588863 0.176282
0.367005 0.594869 0.187798
0.558829 0.601416 0.200188
0.733732 0.610409 0.211274
0.827967 0.619998 0.232933
0.862000 0.632980 0.311618
0.148765 0.672186 0.153994
0.152783 0.673080 0.156198
0.175323 0.677258 0.164656
0.227225 0.682058 0.176575
0.331799 0.685713 0.189556
0.494349 0.688766 0.203003
0.672692 0.693365 0.216557
0.806139 0.700993 0.234755
0.861534 0.711967 0.262109
0.158913 0.763778 0.148612
0.162261 0.764012 0.151190
0.182026 0.765355 0.163443
0.223691 0.767710 0.177599
0.310033 0.769530 0.192874
0.445573 0.770652 0.207539
0.613630 0.773114 0.221724
0.772811 0.778476 0.235828
0.862237 0.785921 0.249793
0.151034 0.802239 0.125199
0.179080 0.819859 0.125198
0.179081 0.819859 0.125197
0.179103 0.819863 0.125198
0.272837 0.822839 0.150171
0.394560 0.821404 0.177115
0.552259 0.820927 0.194918
0.711862 0.822446 0.207677
0.866527 0.826050 0.215063
0.075800 0.114165 0.281404
0.093097 0.156376 0.510049
0.231308 0.173842 0.550278
0.538344 0.183029 0.540119
0.710045 0.201874 0.537138
0.783122 0.223245 0.544338
0.825306 0.241762 0.569235
0.855634 0.239845 0.623965
0.862760 0.341287 0.632203
0.082589 0.129764 0.297618
0.099258 0.153497 0.428498
0.222411 0.178275 0.511910
0.506944 0.190262 0.510109
0.699035 0.211369 0.513788
0.780152 0.233089 0.526692
0.824100 0.251981 0.558526
0.855276 0.248461 0.619630
0.862760 0.341368 0.632542
0.098142 0.183742 0.281735
0.110963 0.190309 0.304700
0.196439 0.209800 0.375316
0.414824 0.228038 0.409315
0.656855 0.253289 0.434038
0.766730 0.279230 0.460455
0.818308 0.301290 0.504628
0.852350 0.317048 0.583497
0.862760 0.341661 0.633775
0.113454 0.293129 0.269337
0.122324 0.297286 0.275227
0.179524 0.308709 0.297703
0.347769 0.340990 0.346695
0.569836 0.346963 0.357603
0.735284 0.371953 0.382388
0.807323 0.395940 0.423134
0.848450 0.415882 0.513889
0.862760 0.341766 0.634146
0.129747 0.445655 0.271784
0.139088 0.448388 0.274780
0.180948 0.457921 0.286950
0.285940 0.468253 0.304398
0.477190 0.478509 0.323340
0.677248 0.493680 0.346499
0.788240 0.509741 0.370646
0.842491 0.524278 0.425869
0.862703 0.558348 0.607776
0.147443 0.577254 0.273734
0.153886 0.578823 0.275969
0.187712 0.585559 0.285586
0.264863 0.592802 0.298974
0.408416 0.599675 0.314538
0.602144 0.606642 0.331083
0.758274 0.616005 0.351425
0.833202 0.625799 0.378442
0.862072 0.645642 0.533957
0.161678 0.675080 0.275242
0.167417 0.675866 0.277241
0.193563 0.679346 0.285677
0.254616 0.683615 0.298088
0.367507 0.687340 0.312353
0.536568 0.691123 0.327534
0.705085 0.696583 0.343495
0.817860 0.704669 0.361651
0.861988 0.718311 0.442031
0.169988 0.764394 0.273395
0.174188 0.764772 0.275047
0.196217 0.766491 0.283943
0.244530 0.768670 0.295874
0.336780 0.770604 0.309921
0.479809 0.772268 0.324370
0.647700 0.775349 0.338973
0.790590 0.781122 0.353528
0.863075 0.789610 0.388488
0.162450 0.813679 0.302531
0.179077 0.823625 0.302531
0.179081 0.823627 0.302529
0.205516 0.827004 0.248543
0.297240 0.822922 0.298076
0.419007 0.822055 0.312768
0.574670 0.822020 0.326404
0.732923 0.823687 0.337841
0.867004 0.827410 0.351797
0.078868 0.146889 0.455045
0.088029 0.177130 0.563055
0.207816 0.219479 0.644366
0.504860 0.233389 0.644941
0.697016 0.250582 0.645086
0.779132 0.271487 0.651242
0.823078 0.287861 0.664287
0.853582 0.285920 0.684983
0.862760 0.361364 0.702884
0.084234 0.163006 0.466619
0.094144 0.186774 0.548720
0.203033 0.229427 0.630679
0.477782 0.244533 0.634906
0.687181 0.262347 0.636799
0.776407 0.282989 0.644923
0.821959 0.299717 0.659863
0.853291 0.297167 0.683326
0.862760 0.360727 0.701054
0.100914 0.226248 0.464853
0.111788 0.236794 0.493469
0.192561 0.267919 0.570704
0.409991 0.287371 0.594891
0.651308 0.307033 0.604623
0.764790 0.332283 0.618294
0.816895 0.352295 0.639812
0.851405 0.363911 0.672936
0.862760 0.358724 0.695241
0.118837 0.330459 0.444524
0.129155 0.335263 0.454835
0.189359 0.352113 0.488890
0.348064 0.371319 0.527240
0.578081 0.390940 0.550968
0.738999 0.415180 0.572252
0.807549 0.438097 0.600716
0.847879 0.456634 0.646165
0.863526 0.444084 0.695293
0.138829 0.465590 0.431695
0.148524 0.468575 0.436092
0.193581 0.477902 0.453035
0.306083 0.487634 0.474594
0.516496 0.508017 0.505938
0.691520 0.515272 0.521145
0.792408 0.532858 0.551349
0.842904 0.550467 0.600076
0.862505 0.579068 0.683936
0.157856 0.588538 0.430398
0.166224 0.590036 0.432600
0.202586 0.596315 0.442044
0.287654 0.603765 0.456305
0.440174 0.609455 0.471714
0.632307 0.616139 0.487758
0.768840 0.626278 0.509249
0.835929 0.637348 0.547239
0.862033 0.659043 0.658020
0.173805 0.680444 0.431757
0.180166 0.681221 0.433095
0.208674 0.684405 0.439057
0.276734 0.688529 0.449299
0.396711 0.692574 0.460760
0.566893 0.697037 0.472940
0.728534 0.703242 0.486341
0.824795 0.711757 0.507080
0.862182 0.729300 0.606656
0.179743 0.767761 0.435842
0.184490 0.768134 0.436396
0.208695 0.769702 0.440090
0.262674 0.771877 0.446597
0.359980 0.773963 0.455270
0.510235 0.776142 0.464321
0.670740 0.779793 0.474130
0.803490 0.786061 0.485591
0.863543 0.795963 0.543405
0.166615 0.818403 0.516072
0.169072 0.819845 0.516072
0.174798 0.823237 0.516069
0.224814 0.824538 0.455952
0.311966 0.824043 0.457854
0.437055 0.823525 0.462484
0.592162 0.823713 0.468030
0.749962 0.825538 0.474074
0.867299 0.829932 0.499022
0.083162 0.196866 0.599611
0.088098 0.222874 0.662157
0.191972 0.269178 0.714237
0.464715 0.283237 0.716195
0.685621 0.300598 0.717337
0.775162 0.319384 0.719942
0.820848 0.335428 0.724926
0.852377 0.335279 0.733343
0.862760 0.373351 0.735777
0.086383 0.213667 0.607449
0.092025 0.235941 0.660035
0.190195 0.280093 0.710684
0.446435 0.294924 0.713749
0.677531 0.312947 0.715376
0.772708 0.332048 0.718300
0.819844 0.347966 0.723809
0.852115 0.347529 0.732732
0.862760 0.373351 0.735777
0.103236 0.282772 0.616472
0.111494 0.293838 0.642454
0.189490 0.327939 0.692623
0.398248 0.345242 0.702554
0.644748 0.363330 0.706636
0.762521 0.382920 0.711291
0.815465 0.400150 0.718672
0.850420 0.408511 0.729318
0.862760 0.373354 0.735776
0.122232 0.379262 0.595487
0.132606 0.384989 0.607202
0.194513 0.407310 0.650352
0.352799 0.426128 0.678948
0.583518 0.442916 0.689008
0.739943 0.461119 0.697047
0.807334 0.479911 0.707685
0.847316 0.491296 0.722632
0.863289 0.483334 0.735690
0.146282 0.495044 0.576464
0.155270 0.497448 0.581543
0.204012 0.507756 0.603404
0.321358 0.519987 0.632372
0.523339 0.532365 0.656071
0.699224 0.545732 0.673524
0.794504 0.562660 0.688558
0.843106 0.578460 0.709646
0.862329 0.601128 0.736096
0.166753 0.605181 0.565491
0.175522 0.606378 0.567909
0.213944 0.611032 0.578048
0.303576 0.616991 0.595085
0.462023 0.623750 0.615625
0.654193 0.634428 0.637881
0.774954 0.641998 0.657279
0.837457 0.653714 0.686939
0.862018 0.672385 0.729220
0.182777 0.688993 0.561640
0.189503 0.689751 0.562727
0.220340 0.692905 0.567857
0.292781 0.697212 0.577322
0.418083 0.701819 0.590531
0.588937 0.707012 0.605448
0.743874 0.713976 0.621508
0.828785 0.723293 0.648225
0.862317 0.741662 0.714651
0.186429 0.773841 0.563241
0.191517 0.774222 0.563471
0.217827 0.775750 0.565390
0.275555 0.777906 0.569622
0.376752 0.780213 0.576734
0.529049 0.782878 0.585898
0.686974 0.787051 0.596374
0.811252 0.793778 0.609481
0.863792 0.801360 0.683945
0.168221 0.820038 0.563808
0.170363 0.821334 0.566126
0.175178 0.824327 0.574942
0.228642 0.826865 0.575671
0.319275 0.826338 0.575306
0.447018 0.825988 0.577993
0.602262 0.826392 0.582077
0.757480 0.828272 0.586530
0.867427 0.834003 0.647130
0.086814 0.272297 0.727139
0.090073 0.289032 0.754207
0.168176 0.321623 0.773995
0.441984 0.336010 0.775597
0.679310 0.353283 0.776718
0.773247 0.371065 0.778285
0.819830 0.384373 0.781059
0.851727 0.384719 0.784578
0.862760 0.392211 0.780781
0.089011 0.285820 0.730467
0.093975 0.300711 0.753402
0.170695 0.333021 0.773027
0.429238 0.347776 0.775020
0.672788 0.365260 0.776279
0.771231 0.383274 0.777935
0.818931 0.396910 0.780814
0.851498 0.397107 0.784549
0.862759 0.392018 0.780357
0.104792 0.350018 0.736918
0.111522 0.358460 0.749217
0.180983 0.383355 0.767468
0.393886 0.398330 0.771849
0.645604 0.413255 0.773927
0.762650 0.429341 0.776097
0.815131 0.442833 0.779503
0.849923 0.450178 0.783993
0.862755 0.391035 0.778429
0.125360 0.437706 0.725600
0.135170 0.442934 0.733927
0.194660 0.461977 0.754131
0.358425 0.476796 0.764052
0.592261 0.488142 0.768389
0.744057 0.500450 0.771957
0.808188 0.511792 0.776446
0.847339 0.520705 0.782599
0.862842 0.526302 0.786794
0.151513 0.531001 0.706971
0.160441 0.533832 0.712460
0.209432 0.545553 0.731223
0.332874 0.557854 0.748051
0.537729 0.568902 0.757607
0.708634 0.580552 0.763721
0.797220 0.592519 0.770218
0.843791 0.604751 0.779049
0.862288 0.617963 0.788346
0.174039 0.623579 0.690116
0.182470 0.624923 0.693202
0.221924 0.630520 0.705540
0.317303 0.637908 0.723159
0.483535 0.645210 0.738588
0.665188 0.652674 0.749363
0.780302 0.660897 0.758863
0.839047 0.670678 0.771371
0.862127 0.685668 0.787693
0.188295 0.701447 0.678164
0.195258 0.702310 0.679685
0.227724 0.705746 0.686187
0.303490 0.710644 0.697789
0.433588 0.716186 0.712375
0.605499 0.722140 0.726199
0.753540 0.729298 0.737754
0.831731 0.738519 0.755241
0.862551 0.753901 0.784120
0.188779 0.783427 0.671147
0.194029 0.783790 0.671810
0.221699 0.785211 0.675133
0.281836 0.787457 0.680510
0.386172 0.790092 0.688934
0.539982 0.793242 0.699109
0.697443 0.796767 0.709916
0.815581 0.800504 0.722975
0.864031 0.807505 0.773110
0.168010 0.821206 0.636093
0.172174 0.823634 0.636108
0.177563 0.826773 0.636498
0.221953 0.831102 0.674522
0.317488 0.829975 0.675487
0.446951 0.829654 0.679063
0.603188 0.830146 0.683169
0.757864 0.832065 0.686744
0.867557 0.839516 0.759755
0.091449 0.359010 0.818011
0.095831 0.361280 0.820212
0.179972 0.375688 0.821727
0.469530 0.389500 0.822021
0.691034 0.404358 0.822487
0.777457 0.419042 0.823178
0.821654 0.428881 0.824194
0.852457 0.426135 0.826442
0.862837 0.421899 0.820068
0.094463 0.369437 0.817899
0.098901 0.371783 0.819965
0.183534 0.386883 0.821695
0.458677 0.400144 0.822026
0.686254 0.414441 0.822497
0.776000 0.429385 0.823196
0.821013 0.439504 0.824235
0.852265 0.437258 0.826475
0.862862 0.424518 0.820068
0.110551 0.422476 0.817458
0.116313 0.424290 0.818880
0.199128 0.435846 0.820996
0.424962 0.447002 0.821652
0.665365 0.460643 0.822235
0.769255 0.475156 0.823019
0.818023 0.483734 0.824189
0.851297 0.485630 0.826372
0.863141 0.453017 0.820068
0.131972 0.495153 0.814812
0.140954 0.496742 0.816302
0.212012 0.505019 0.819330
0.388235 0.512942 0.820707
0.624879 0.522520 0.821606
0.757052 0.533182 0.822602
0.812845 0.542424 0.824023
0.849399 0.547922 0.826297
0.862979 0.553554 0.826630
0.157339 0.575243 0.809033
0.166992 0.577140 0.810957
0.224031 0.585404 0.815662
0.358505 0.593320 0.818568
0.570161 0.601983 0.820312
0.730157 0.609431 0.821719
0.804368 0.616193 0.823434
0.846677 0.621963 0.826013
0.862655 0.633046 0.827755
0.179834 0.648786 0.798694
0.188072 0.650201 0.801104
0.233506 0.655943 0.808259
0.335456 0.661579 0.813981
0.516706 0.667038 0.817504
0.688620 0.673177 0.819879
0.790387 0.679681 0.822122
0.843014 0.686312 0.825235
0.862670 0.698687 0.828312
0.191722 0.719310 0.776285
0.198482 0.720384 0.779424
0.234886 0.724921 0.791579
0.313620 0.730496 0.803102
0.452938 0.735739 0.810793
0.630577 0.740939 0.815627
0.765562 0.746928 0.819073
0.836918 0.753904 0.823351
0.863157 0.765401 0.828350
0.185412 0.796954 0.753825
0.190655 0.797096 0.755164
0.219506 0.797637 0.761687
0.281607 0.798876 0.773511
0.389658 0.800582 0.789596
0.547589 0.802606 0.801845
0.706952 0.805166 0.809303
0.817700 0.807423 0.813691
0.864482 0.813489 0.827358
0.165771 0.821983 0.716234
0.177282 0.828681 0.717479
0.178973 0.829934 0.726021
0.212489 0.835370 0.741316
0.302571 0.835439 0.747218
0.433548 0.834974 0.754856
0.592080 0.835463 0.762355
0.748874 0.837273 0.766995
0.867701 0.845034 0.824354
0.141201 0.418596 0.859851
0.159423 0.420168 0.859860
0.366193 0.426436 0.859897
0.660660 0.437499 0.860008
0.756145 0.450740 0.860200
0.800507 0.462245 0.860502
0.834026 0.466021 0.861235
0.856325 0.448099 0.862645
0.862760 0.458426 0.856643
0.145717 0.426338 0.859752
0.164334 0.427950 0.859764
0.362390 0.434360 0.859806
0.657661 0.445642 0.859928
0.755234 0.459074 0.860131
0.800081 0.470764 0.860448
0.833839 0.474558 0.861182
0.856245 0.455268 0.862596
0.862760 0.470168 0.861365
0.168009 0.466197 0.859211
0.187169 0.467797 0.859236
0.352776 0.474100 0.859325
0.641179 0.482969 0.859521
0.750368 0.493078 0.859787
0.798099 0.502027 0.860179
0.832911 0.505311 0.860920
0.855854 0.491560 0.862309
0.862760 0.470190 0.861365
0.199106 0.531305 0.858417
0.216549 0.532262 0.858470
0.342006 0.536055 0.858652
0.604416 0.542939 0.858955
0.736401 0.551362 0.859309
0.793782 0.559367 0.859782
0.831033 0.563714 0.860568
0.855253 0.559538 0.861842
0.863904 0.580165 0.863540
0.215757 0.608185 0.857926
0.231040 0.608734 0.858010
0.326804 0.610992 0.858289
0.553308 0.615074 0.858639
0.713213 0.620269 0.859085
0.786735 0.625464 0.859626
0.828156 0.629072 0.860402
0.854816 0.629604 0.861663
0.864393 0.641901 0.864114
0.219317 0.671815 0.857820
0.231981 0.672263 0.857939
0.305355 0.674199 0.858316
0.486042 0.677634 0.858763
0.674138 0.681962 0.859239
0.774194 0.686671 0.859812
0.823418 0.690500 0.860559
0.854198 0.692577 0.861720
0.864815 0.708318 0.863959
0.210329 0.742430 0.858087
0.219469 0.742789 0.858247
0.270760 0.744369 0.858715
0.398894 0.746916 0.859270
0.593741 0.750142 0.859829
0.745297 0.754088 0.860421
0.813804 0.757832 0.861217
0.853126 0.760118 0.862248
0.865538 0.774541 0.864214
0.182839 0.807332 0.855504
0.187855 0.807545 0.856689
0.216129 0.808102 0.858841
0.297942 0.808591 0.860040
0.449169 0.809158 0.860898
0.649554 0.810271 0.861595
0.783150 0.812108 0.862320
0.848354 0.813520 0.863256
0.866570 0.818145 0.864785
0.161891 0.821953 0.777620
0.179081 0.832735 0.800150
0.179082 0.832736 0.800150
0.187318 0.834034 0.800190
0.263408 0.845568 0.836757
0.404949 0.846049 0.861954
0.579477 0.845976 0.863979
0.750963 0.847528 0.864918
0.867872 0.850478 0.865524
