negative-portra-400/Portra400_Classic_Soft.cube
TITLE "Kodak Portra 400 Classic Soft"
# Adobe RGB in/out. REPLACES AgX. Kodak Portra 400 Classic Soft.
LUT_3D_SIZE 33
DOMAIN_MIN 0.0 0.0 0.0
DOMAIN_MAX 1.0 1.0 1.0
0.060898 0.068150 0.085817
0.063596 0.068840 0.085817
0.064483 0.069053 0.085817
0.069882 0.070017 0.085965
0.086137 0.071526 0.086227
0.096139 0.072455 0.086370
0.126563 0.074171 0.087057
0.191436 0.076572 0.087722
0.254242 0.077871 0.088257
0.344259 0.079762 0.089011
0.430068 0.083360 0.090037
0.483825 0.085537 0.090967
0.526213 0.087257 0.091872
0.566617 0.089793 0.092977
0.599774 0.093662 0.094345
0.620341 0.096204 0.095453
0.638644 0.098812 0.096584
0.656020 0.101953 0.097913
0.672408 0.105892 0.099490
0.687303 0.107921 0.100505
0.700403 0.110012 0.102078
0.709106 0.113880 0.104084
0.717076 0.117117 0.106450
0.725014 0.117907 0.108614
0.731120 0.118999 0.112327
0.736663 0.119527 0.117394
0.743752 0.115192 0.127481
0.747598 0.117707 0.170829
0.755771 0.131452 0.490556
0.755770 0.131429 0.490529
0.755770 0.131427 0.490528
0.755770 0.131428 0.490527
0.759847 0.336025 0.591801
0.061511 0.070288 0.085817
0.063228 0.070397 0.085817
0.066166 0.069526 0.085817
0.072489 0.070437 0.086017
0.088486 0.072142 0.086277
0.097787 0.072864 0.086435
0.126898 0.074564 0.087125
0.187820 0.076960 0.087778
0.248834 0.078247 0.088323
0.338678 0.080067 0.089059
0.425679 0.083721 0.090080
0.480293 0.085841 0.091018
0.523622 0.087575 0.091914
0.564475 0.090073 0.093011
0.598681 0.094001 0.094373
0.619488 0.096562 0.095487
0.637986 0.099140 0.096613
0.655522 0.102287 0.097936
0.672038 0.106208 0.099509
0.687019 0.108219 0.100520
0.700186 0.110471 0.102094
0.708991 0.114324 0.104095
0.716989 0.117509 0.106453
0.724948 0.118288 0.108604
0.731072 0.119368 0.112288
0.736628 0.119883 0.117308
0.743726 0.115538 0.127156
0.747583 0.117807 0.168515
0.755771 0.131453 0.490556
0.755770 0.131429 0.490529
0.755770 0.131427 0.490528
0.755770 0.131428 0.490527
0.759847 0.336028 0.591801
0.061657 0.070982 0.085817
0.062137 0.071165 0.085817
0.063893 0.071206 0.085817
0.069634 0.072382 0.086141
0.083360 0.074178 0.086393
0.096554 0.074451 0.086676
0.125677 0.076293 0.087341
0.183439 0.078903 0.088129
0.234475 0.079701 0.088571
0.316248 0.081711 0.089236
0.412868 0.085084 0.090238
0.467510 0.086980 0.091206
0.513364 0.088758 0.092066
0.556450 0.091219 0.093136
0.594553 0.095253 0.094476
0.616259 0.097880 0.095612
0.635498 0.100343 0.096716
0.653646 0.103511 0.098022
0.670647 0.107366 0.099579
0.685955 0.109306 0.100575
0.699377 0.112152 0.102152
0.708562 0.115952 0.104138
0.716666 0.118941 0.106464
0.724704 0.119682 0.108574
0.730894 0.120720 0.112155
0.736498 0.121186 0.117013
0.743627 0.116825 0.126050
0.747526 0.118246 0.162536
0.755771 0.131455 0.490558
0.755770 0.131429 0.490530
0.755770 0.131427 0.490528
0.755770 0.131429 0.490527
0.759847 0.336033 0.591800
0.062359 0.074722 0.085881
0.062609 0.074897 0.086004
0.064099 0.075274 0.086149
0.067296 0.075305 0.086255
0.076562 0.078297 0.086832
0.085282 0.077662 0.087043
0.108406 0.079471 0.087611
0.160163 0.082381 0.088566
0.202289 0.082956 0.088943
0.285566 0.084661 0.089543
0.390679 0.087944 0.090586
0.442872 0.089759 0.091567
0.491642 0.091233 0.092358
0.540474 0.093950 0.093375
0.586102 0.098078 0.094724
0.609605 0.100451 0.095847
0.630373 0.102842 0.096913
0.649799 0.105872 0.098186
0.667815 0.109591 0.099711
0.683799 0.112258 0.100726
0.697749 0.115389 0.102267
0.707706 0.118883 0.104226
0.716026 0.121682 0.106497
0.724221 0.122349 0.108532
0.730543 0.123306 0.111941
0.736242 0.123689 0.116526
0.743432 0.119144 0.124251
0.747414 0.119385 0.153111
0.755771 0.131459 0.490563
0.755770 0.131430 0.490530
0.755770 0.131428 0.490528
0.755770 0.131432 0.490527
0.759848 0.336036 0.591800
0.063552 0.082685 0.086241
0.063789 0.082943 0.086315
0.064938 0.083753 0.086515
0.068042 0.084210 0.086914
0.073268 0.084280 0.087317
0.079759 0.082770 0.087435
0.094463 0.084730 0.088009
0.126746 0.087236 0.089035
0.165690 0.087111 0.089376
0.233192 0.088504 0.089916
0.351887 0.092284 0.091249
0.413077 0.094051 0.092106
0.462833 0.095577 0.092800
0.516156 0.098621 0.093745
0.566102 0.103075 0.095172
0.597772 0.105060 0.096220
0.621177 0.107017 0.097224
0.642915 0.109698 0.098444
0.662791 0.115190 0.099923
0.680010 0.117694 0.100972
0.694920 0.120264 0.102457
0.706233 0.123395 0.104380
0.714934 0.125846 0.106571
0.723404 0.126322 0.108505
0.729951 0.127046 0.111692
0.735811 0.127280 0.115921
0.743104 0.122949 0.122060
0.747220 0.121854 0.142872
0.755771 0.131468 0.490571
0.755770 0.131430 0.490531
0.755770 0.131428 0.490529
0.755771 0.131459 0.490527
0.759848 0.336037 0.591799
0.064134 0.086700 0.086411
0.064294 0.086813 0.086542
0.065078 0.087618 0.086784
0.067294 0.088286 0.087208
0.070552 0.088559 0.087461
0.076722 0.088630 0.087839
0.087298 0.090899 0.088638
0.109885 0.094514 0.089621
0.133632 0.093300 0.089823
0.183223 0.094474 0.090381
0.289020 0.098709 0.091909
0.371978 0.100321 0.092719
0.427269 0.101662 0.093369
0.485761 0.104331 0.094234
0.542839 0.108465 0.095749
0.583099 0.110738 0.096716
0.607785 0.114107 0.097656
0.631161 0.118751 0.098819
0.654077 0.123502 0.100233
0.673491 0.125123 0.101340
0.690128 0.126959 0.102747
0.703779 0.129401 0.104629
0.713139 0.131769 0.106720
0.722074 0.132122 0.108533
0.728997 0.132752 0.111482
0.735119 0.132878 0.115315
0.742574 0.128254 0.119886
0.746898 0.126229 0.133495
0.755772 0.131485 0.490589
0.755770 0.131432 0.490533
0.755770 0.131429 0.490530
0.759845 0.309611 0.490528
0.759848 0.336037 0.591799
0.065350 0.096352 0.087174
0.065534 0.096478 0.087259
0.066431 0.097529 0.087522
0.068112 0.098678 0.087826
0.071152 0.099454 0.088374
0.076499 0.099770 0.088838
0.083924 0.099847 0.089338
0.100698 0.104381 0.090251
0.117567 0.102133 0.090444
0.153206 0.102865 0.091220
0.230654 0.107252 0.092677
0.317612 0.108423 0.093417
0.391157 0.108903 0.093944
0.450186 0.111775 0.094838
0.515264 0.118295 0.096448
0.557613 0.121160 0.097359
0.593160 0.122985 0.098194
0.619731 0.126222 0.099271
0.644343 0.130957 0.100642
0.664828 0.133358 0.101833
0.682564 0.140248 0.103166
0.698415 0.147609 0.105018
0.710120 0.151560 0.106990
0.719869 0.151701 0.108671
0.727438 0.152423 0.111407
0.733994 0.152354 0.114852
0.741703 0.142093 0.118491
0.746357 0.134123 0.127755
0.755774 0.131530 0.490631
0.755770 0.131437 0.490538
0.755770 0.131431 0.490532
0.759847 0.309703 0.490529
0.759848 0.336038 0.591799
0.067111 0.110510 0.087998
0.067237 0.110676 0.088104
0.067982 0.112462 0.088523
0.069402 0.114325 0.089000
0.072346 0.116038 0.089449
0.077282 0.117179 0.089941
0.084177 0.117556 0.090417
0.095011 0.117652 0.091183
0.108013 0.113204 0.091402
0.132520 0.113755 0.092123
0.184995 0.120329 0.093485
0.264595 0.121049 0.094131
0.343170 0.120995 0.094622
0.412558 0.123704 0.095698
0.481340 0.128637 0.097200
0.530501 0.130395 0.098017
0.572702 0.132179 0.098807
0.604039 0.139878 0.099836
0.631537 0.151131 0.101356
0.655101 0.153765 0.102441
0.675477 0.157963 0.103753
0.692840 0.164377 0.105536
0.706644 0.170935 0.107411
0.716748 0.174084 0.108984
0.724730 0.178371 0.111589
0.732065 0.177899 0.114695
0.740171 0.169528 0.117844
0.745385 0.161667 0.124120
0.755782 0.131709 0.490775
0.755771 0.131452 0.490555
0.755770 0.131437 0.490539
0.759848 0.309709 0.490532
0.759848 0.336038 0.591799
0.067907 0.121060 0.088562
0.068019 0.121164 0.088639
0.068562 0.122157 0.088936
0.069677 0.123956 0.089365
0.072102 0.125518 0.089794
0.075988 0.126590 0.090248
0.081623 0.127305 0.090944
0.089281 0.127529 0.091627
0.101973 0.127608 0.092315
0.121295 0.127861 0.092978
0.167058 0.135214 0.094297
0.219317 0.135420 0.094998
0.290313 0.133699 0.095616
0.372769 0.138534 0.096586
0.445630 0.150438 0.098027
0.498924 0.152936 0.098767
0.545141 0.155791 0.099485
0.587783 0.162282 0.100446
0.617756 0.171972 0.102152
0.642370 0.175622 0.103168
0.664298 0.181261 0.104538
0.684920 0.186118 0.106200
0.702738 0.193231 0.107959
0.714030 0.195843 0.109570
0.722839 0.200513 0.111996
0.730260 0.206071 0.114882
0.738253 0.204924 0.117854
0.743654 0.205841 0.122909
0.755999 0.141702 0.492405
0.755779 0.131638 0.490721
0.755772 0.131477 0.490584
0.759848 0.309714 0.490545
0.759848 0.336038 0.591799
0.069080 0.135943 0.089303
0.069166 0.136137 0.089361
0.069554 0.137784 0.089579
0.070663 0.142096 0.089945
0.072796 0.146332 0.090423
0.076220 0.149502 0.091143
0.081017 0.151488 0.091874
0.087470 0.152636 0.092554
0.098223 0.153156 0.093191
0.113966 0.153437 0.093810
0.150350 0.167013 0.095290
0.186767 0.166551 0.096071
0.250714 0.163726 0.096586
0.333577 0.166743 0.097507
0.412575 0.177193 0.098882
0.465988 0.178713 0.099549
0.517274 0.180481 0.100211
0.564257 0.186235 0.101345
0.602252 0.200482 0.103050
0.628447 0.204791 0.104112
0.653451 0.209466 0.105369
0.675432 0.219023 0.106960
0.694816 0.229973 0.108643
0.709680 0.232989 0.110355
0.719903 0.235621 0.112579
0.728274 0.239685 0.115233
0.736922 0.236917 0.117873
0.742789 0.236024 0.122148
0.748935 0.230641 0.129212
0.753309 0.230293 0.154874
0.757885 0.256653 0.452094
0.759848 0.310291 0.492992
0.759848 0.336038 0.591799
0.070998 0.179743 0.090380
0.071112 0.179901 0.090435
0.071603 0.181035 0.090740
0.072850 0.185294 0.091358
0.074938 0.189968 0.092026
0.077834 0.194317 0.092720
0.082485 0.198328 0.093413
0.088822 0.200905 0.094065
0.099350 0.202424 0.094712
0.114561 0.203120 0.095567
0.138215 0.203719 0.096404
0.173600 0.202024 0.097087
0.218005 0.196719 0.097577
0.291598 0.200040 0.098424
0.381702 0.215174 0.099750
0.433361 0.215574 0.100368
0.485584 0.216304 0.101119
0.537453 0.223672 0.102335
0.586092 0.239276 0.104124
0.613589 0.241656 0.105128
0.639848 0.247752 0.106321
0.663972 0.258640 0.107830
0.686593 0.267140 0.109551
0.705145 0.270785 0.111258
0.716057 0.277175 0.113352
0.725047 0.285575 0.115807
0.734793 0.281143 0.118147
0.741431 0.278093 0.121819
0.748016 0.270980 0.127352
0.752775 0.263673 0.141607
0.757685 0.258645 0.383261
0.759848 0.312098 0.500595
0.759848 0.312757 0.503329
0.072523 0.218372 0.091438
0.072616 0.218569 0.091507
0.073005 0.219857 0.091762
0.074140 0.224950 0.092269
0.075892 0.229929 0.092853
0.078547 0.235736 0.093507
0.082661 0.241249 0.094186
0.088108 0.244683 0.094901
0.097178 0.247125 0.095749
0.110034 0.248624 0.096551
0.129263 0.249308 0.097330
0.160949 0.250088 0.098113
0.192677 0.242280 0.098509
0.262876 0.246081 0.099345
0.350692 0.262559 0.100632
0.407609 0.261099 0.101436
0.457411 0.260832 0.102248
0.511298 0.268038 0.103422
0.562999 0.281935 0.105237
0.597671 0.283114 0.106184
0.625284 0.289076 0.107346
0.652025 0.296689 0.108743
0.676158 0.306597 0.110723
0.697613 0.311554 0.112335
0.711927 0.315143 0.114266
0.722305 0.320147 0.116552
0.732415 0.321306 0.118673
0.739429 0.324405 0.122032
0.746440 0.321807 0.126655
0.751849 0.312088 0.134969
0.757214 0.277343 0.261391
0.759848 0.312113 0.500633
0.759848 0.313387 0.505915
0.073849 0.257927 0.092274
0.073946 0.258106 0.092332
0.074338 0.259202 0.092545
0.075277 0.263282 0.092965
0.076810 0.269302 0.093514
0.079252 0.274997 0.094119
0.082652 0.279698 0.094800
0.087407 0.283710 0.095673
0.095152 0.286873 0.096491
0.106303 0.288765 0.097268
0.122153 0.289982 0.098019
0.147120 0.290464 0.098725
0.182612 0.291235 0.099454
0.235607 0.294040 0.100213
0.319589 0.310072 0.101885
0.381994 0.307831 0.102628
0.429102 0.306304 0.103364
0.484211 0.312203 0.104697
0.539335 0.323444 0.106490
0.581631 0.323441 0.107305
0.610294 0.326946 0.108350
0.638560 0.333951 0.110005
0.664572 0.345752 0.112007
0.688737 0.348025 0.113452
0.706662 0.354868 0.115303
0.718063 0.362164 0.117493
0.729704 0.360950 0.119366
0.737709 0.361803 0.122551
0.745101 0.362243 0.126611
0.750635 0.362761 0.132728
0.755398 0.366676 0.151480
0.759848 0.312213 0.500679
0.759848 0.314345 0.509653
0.075664 0.306526 0.093283
0.075747 0.306684 0.093333
0.076077 0.307561 0.093516
0.076836 0.310569 0.093872
0.078345 0.316592 0.094401
0.080597 0.320615 0.095115
0.083566 0.324692 0.095927
0.088094 0.328648 0.096766
0.095173 0.331787 0.097577
0.105181 0.334193 0.098324
0.119295 0.336087 0.099034
0.141087 0.337384 0.099747
0.172429 0.337962 0.100405
0.214918 0.338816 0.101315
0.291628 0.355778 0.103068
0.356416 0.353878 0.103904
0.408923 0.350689 0.104693
0.460306 0.355198 0.105917
0.517235 0.365331 0.107668
0.558676 0.365053 0.108479
0.595378 0.367562 0.109641
0.624581 0.373769 0.111400
0.652569 0.380814 0.113289
0.677922 0.383659 0.114679
0.699818 0.389108 0.116429
0.713939 0.394307 0.118450
0.726357 0.396398 0.120439
0.735013 0.400852 0.123379
0.743448 0.399115 0.126888
0.749679 0.396818 0.131811
0.754867 0.396090 0.143928
0.758477 0.406559 0.244533
0.760835 0.441898 0.512623
0.077827 0.363181 0.094513
0.077908 0.363318 0.094558
0.078275 0.363991 0.094790
0.079092 0.366034 0.095237
0.080728 0.371359 0.095963
0.082601 0.374780 0.096665
0.085649 0.379586 0.097467
0.090257 0.383672 0.098244
0.097182 0.387194 0.099033
0.106869 0.389913 0.099776
0.120801 0.391925 0.100505
0.141711 0.393117 0.101431
0.171812 0.393825 0.102401
0.210733 0.394320 0.103313
0.273799 0.394842 0.104420
0.334368 0.392119 0.105210
0.389948 0.389764 0.106006
0.437340 0.393033 0.107189
0.493940 0.402814 0.108863
0.537301 0.401708 0.109846
0.580267 0.403808 0.111163
0.610671 0.409719 0.112867
0.639747 0.416167 0.114645
0.666139 0.419506 0.115962
0.690527 0.423632 0.117583
0.708523 0.430916 0.119548
0.722491 0.432977 0.121703
0.732617 0.435050 0.124372
0.741510 0.437729 0.127536
0.748166 0.440750 0.131656
0.753996 0.437198 0.140222
0.758043 0.435301 0.179577
0.760798 0.448030 0.504394
0.079593 0.398311 0.095549
0.079675 0.398433 0.095604
0.079991 0.399012 0.095805
0.080676 0.400690 0.096192
0.082001 0.404897 0.096814
0.083811 0.409124 0.097504
0.086782 0.414658 0.098304
0.091004 0.418040 0.099004
0.097259 0.421763 0.099745
0.106142 0.425194 0.100503
0.118353 0.427410 0.101444
0.135928 0.428988 0.102409
0.163490 0.430230 0.103360
0.194351 0.430838 0.104432
0.250264 0.431451 0.105463
0.310209 0.432076 0.106517
0.366577 0.429193 0.107247
0.418536 0.432252 0.108419
0.473637 0.442288 0.110491
0.518423 0.440767 0.111466
0.559597 0.441868 0.112661
0.597006 0.446429 0.114325
0.626700 0.451111 0.116041
0.654155 0.452958 0.117263
0.679958 0.456472 0.118810
0.702613 0.461936 0.121059
0.718148 0.463305 0.123037
0.729238 0.466928 0.125578
0.739342 0.468425 0.128422
0.746928 0.468550 0.131940
0.753027 0.470344 0.138891
0.757239 0.475045 0.157986
0.760574 0.467904 0.447324
0.081278 0.434296 0.096521
0.081350 0.434405 0.096569
0.081624 0.434906 0.096746
0.082208 0.436299 0.097083
0.083302 0.439673 0.097621
0.085254 0.444380 0.098301
0.087708 0.447274 0.098981
0.091866 0.450536 0.099699
0.097686 0.453665 0.100418
0.105656 0.456264 0.101371
0.116637 0.458353 0.102376
0.132079 0.459868 0.103327
0.157005 0.461011 0.104393
0.183392 0.461799 0.105459
0.231423 0.462286 0.106476
0.288784 0.462780 0.107465
0.350653 0.463380 0.108475
0.404381 0.465561 0.109849
0.455722 0.472766 0.112094
0.498507 0.471277 0.113009
0.541197 0.471957 0.114194
0.584036 0.475603 0.115784
0.613802 0.480160 0.117457
0.641799 0.481562 0.118595
0.668757 0.485232 0.120276
0.693710 0.489960 0.122608
0.712865 0.492426 0.124490
0.725636 0.495186 0.126825
0.736873 0.497619 0.129457
0.745101 0.500318 0.132591
0.752014 0.500505 0.138422
0.756764 0.501361 0.150971
0.760048 0.512375 0.280625
0.083155 0.468173 0.097644
0.083220 0.468255 0.097687
0.083475 0.468609 0.097843
0.084081 0.469534 0.098140
0.085186 0.471649 0.098611
0.087134 0.475958 0.099290
0.089542 0.478017 0.099877
0.093765 0.481883 0.100618
0.099245 0.484838 0.101612
0.106579 0.487360 0.102579
0.116933 0.489729 0.103621
0.131469 0.491571 0.104736
0.154683 0.493065 0.105837
0.182678 0.493901 0.106829
0.221556 0.494683 0.107865
0.278254 0.495195 0.108836
0.336780 0.495667 0.110097
0.390014 0.496390 0.111450
0.438040 0.503410 0.113665
0.481079 0.501797 0.114542
0.524613 0.501964 0.115667
0.566972 0.505427 0.117232
0.601439 0.509680 0.118869
0.629441 0.510742 0.120089
0.657332 0.514399 0.122004
0.683837 0.518830 0.124229
0.707180 0.521355 0.125988
0.721430 0.524041 0.128171
0.733762 0.526777 0.130657
0.743411 0.527331 0.133516
0.750871 0.529014 0.138752
0.755985 0.531937 0.147876
0.759774 0.533815 0.204936
0.085570 0.503967 0.098944
0.085641 0.504057 0.098982
0.085908 0.504428 0.099122
0.086455 0.505317 0.099388
0.087512 0.507198 0.099806
0.089660 0.510957 0.100415
0.092382 0.513710 0.101195
0.096389 0.517320 0.102189
0.101570 0.520267 0.103151
0.109035 0.523473 0.104308
0.119496 0.525289 0.105430
0.133664 0.526789 0.106572
0.155881 0.527840 0.107629
0.182961 0.528666 0.108658
0.219295 0.529197 0.109885
0.274454 0.529741 0.111286
0.329090 0.530134 0.112597
0.381155 0.530401 0.113854
0.423187 0.530990 0.115191
0.465773 0.529819 0.116021
0.508584 0.529967 0.117127
0.550654 0.532013 0.118655
0.589880 0.534791 0.120492
0.617573 0.535406 0.121871
0.645744 0.537528 0.123703
0.673465 0.540614 0.125875
0.700494 0.542151 0.127507
0.716565 0.544676 0.129603
0.730683 0.546658 0.131857
0.741238 0.548400 0.134885
0.749606 0.550411 0.139549
0.755419 0.551460 0.146847
0.759435 0.555844 0.176857
0.087378 0.530419 0.099672
0.087453 0.530471 0.099707
0.087737 0.530685 0.099833
0.088312 0.531189 0.100074
0.089418 0.532235 0.100451
0.091478 0.534291 0.101185
0.094181 0.536560 0.102070
0.097734 0.538345 0.102946
0.102887 0.540689 0.104045
0.109862 0.542817 0.105203
0.119102 0.544371 0.106270
0.131966 0.545878 0.107366
0.152263 0.547111 0.108436
0.177006 0.548065 0.109651
0.208368 0.548823 0.111026
0.258665 0.549313 0.112330
0.309717 0.549804 0.113664
0.363508 0.550285 0.114952
0.409896 0.550633 0.116170
0.451843 0.551309 0.117458
0.493221 0.551172 0.118517
0.536030 0.553200 0.120211
0.577870 0.555661 0.122314
0.606383 0.556180 0.123622
0.634577 0.558054 0.125407
0.662781 0.560773 0.127498
0.690979 0.562272 0.129040
0.711248 0.564820 0.131052
0.726915 0.566910 0.133146
0.738719 0.569003 0.136363
0.748275 0.570654 0.140511
0.754628 0.573177 0.146767
0.759152 0.575962 0.165097
0.089639 0.551620 0.100428
0.089721 0.551667 0.100460
0.090031 0.551856 0.100576
0.090655 0.552288 0.100893
0.091734 0.553154 0.101391
0.093524 0.554804 0.102112
0.096453 0.557359 0.103036
0.099616 0.558661 0.103913
0.104975 0.561242 0.105117
0.110896 0.562644 0.106126
0.120036 0.564537 0.107243
0.132497 0.566200 0.108341
0.151256 0.567364 0.109548
0.173958 0.568302 0.110917
0.201609 0.569157 0.112303
0.248604 0.569811 0.113633
0.296017 0.570251 0.114901
0.351825 0.570687 0.116174
0.400130 0.571235 0.117437
0.436882 0.571666 0.118627
0.479897 0.572402 0.119989
0.523010 0.573877 0.121958
0.563176 0.576265 0.124029
0.596032 0.576799 0.125342
0.623801 0.578368 0.127067
0.652311 0.580906 0.129126
0.681113 0.582326 0.130577
0.705592 0.584522 0.132474
0.722571 0.586975 0.134948
0.736019 0.588740 0.137860
0.746624 0.591202 0.141709
0.753892 0.593059 0.147107
0.758844 0.596359 0.160915
0.092321 0.573479 0.101586
0.092399 0.573528 0.101629
0.092687 0.573718 0.101785
0.093263 0.574132 0.102079
0.094244 0.574917 0.102540
0.095972 0.576337 0.103202
0.099058 0.578847 0.104267
0.102066 0.580230 0.105173
0.106894 0.582200 0.106254
0.113249 0.584048 0.107326
0.122222 0.585960 0.108433
0.133331 0.587340 0.109657
0.151669 0.588721 0.111118
0.173632 0.589815 0.112528
0.198978 0.590640 0.113861
0.243187 0.591398 0.115231
0.290256 0.591931 0.116511
0.344837 0.592380 0.117770
0.391105 0.592766 0.119000
0.427408 0.593348 0.120484
0.469040 0.593856 0.122053
0.510346 0.594617 0.123650
0.550069 0.596549 0.125686
0.586477 0.597139 0.126936
0.613660 0.598484 0.128657
0.641972 0.600757 0.130696
0.671161 0.602261 0.132091
0.698380 0.604254 0.134184
0.717845 0.606659 0.136776
0.732840 0.608536 0.139461
0.744865 0.610889 0.142979
0.753044 0.613051 0.147789
0.758504 0.616625 0.158940
0.094948 0.595727 0.102709
0.095020 0.595774 0.102750
0.095318 0.595954 0.102895
0.095949 0.596334 0.103170
0.097014 0.597026 0.103655
0.098721 0.598230 0.104384
0.101449 0.600283 0.105390
0.104975 0.602081 0.106380
0.109154 0.603606 0.107363
0.116078 0.605778 0.108516
0.123911 0.607124 0.109707
0.135805 0.608770 0.111194
0.153854 0.610296 0.112708
0.173884 0.611264 0.114070
0.197261 0.612110 0.115399
0.239168 0.612853 0.116734
0.286456 0.613491 0.118063
0.338231 0.613986 0.119335
0.382440 0.614407 0.120918
0.419961 0.614784 0.122528
0.460687 0.615376 0.124135
0.499781 0.615996 0.125710
0.538318 0.616809 0.127268
0.575655 0.617346 0.128479
0.604240 0.618463 0.130158
0.632045 0.620388 0.132180
0.661205 0.621932 0.133654
0.689335 0.623741 0.136061
0.712872 0.626050 0.138588
0.729269 0.628089 0.141123
0.742898 0.630249 0.144271
0.752061 0.632789 0.148705
0.758263 0.635639 0.158107
0.097628 0.617624 0.103390
0.097706 0.617660 0.103434
0.097995 0.617800 0.103595
0.098564 0.618092 0.103900
0.099517 0.618620 0.104376
0.101030 0.619530 0.105059
0.103635 0.621071 0.106001
0.107358 0.622998 0.107091
0.111279 0.624096 0.107990
0.117774 0.625978 0.109204
0.125257 0.627254 0.110576
0.137454 0.628842 0.112101
0.152960 0.629942 0.113487
0.172763 0.631124 0.114938
0.194889 0.632075 0.116336
0.233654 0.632722 0.117619
0.280317 0.633320 0.118935
0.326258 0.633818 0.120437
0.371244 0.634268 0.122100
0.411777 0.634681 0.123696
0.449494 0.635136 0.125282
0.487983 0.635728 0.126825
0.526902 0.636509 0.128386
0.563856 0.637467 0.129930
0.595596 0.638251 0.131587
0.622729 0.639837 0.133720
0.651511 0.641422 0.135478
0.680046 0.642972 0.137846
0.707339 0.645152 0.140243
0.725371 0.646905 0.142811
0.740653 0.648280 0.145640
0.751063 0.649648 0.149703
0.757991 0.651607 0.157966
0.100251 0.638144 0.104274
0.100324 0.638181 0.104315
0.100593 0.638320 0.104467
0.101120 0.638602 0.104754
0.102007 0.639090 0.105201
0.103579 0.639894 0.105844
0.106030 0.641199 0.106730
0.110048 0.643318 0.107928
0.113836 0.644230 0.108759
0.119650 0.645703 0.110134
0.127760 0.646934 0.111670
0.138576 0.647664 0.113063
0.154439 0.648470 0.114539
0.173365 0.649192 0.116011
0.192231 0.649719 0.117353
0.230024 0.650201 0.118703
0.275264 0.650588 0.120204
0.319378 0.650877 0.121932
0.364054 0.651130 0.123575
0.405927 0.651377 0.125205
0.440357 0.651634 0.126771
0.478599 0.651945 0.128313
0.517311 0.652306 0.129819
0.552629 0.652857 0.131375
0.587721 0.653502 0.132912
0.614028 0.654225 0.135494
0.642378 0.655335 0.137181
0.670698 0.656067 0.139466
0.701109 0.657350 0.141829
0.721058 0.658574 0.144198
0.738162 0.660014 0.147005
0.750003 0.661337 0.150840
0.757705 0.663093 0.158127
0.102902 0.653761 0.105097
0.102980 0.653785 0.105137
0.103269 0.653873 0.105282
0.103832 0.654047 0.105555
0.104762 0.654337 0.105981
0.106208 0.654792 0.106594
0.108436 0.655498 0.107440
0.112414 0.656598 0.108585
0.116587 0.657401 0.109784
0.121970 0.658156 0.111133
0.130852 0.659308 0.112848
0.141020 0.659882 0.114136
0.157268 0.660739 0.115714
0.173738 0.661290 0.117066
0.193308 0.661906 0.118525
0.229391 0.662375 0.120008
0.271237 0.662750 0.121761
0.312992 0.663039 0.123498
0.358685 0.663254 0.125178
0.401008 0.663470 0.126818
0.433055 0.663690 0.128420
0.471052 0.663955 0.129981
0.508246 0.664262 0.131495
0.543257 0.664638 0.132978
0.579624 0.665225 0.135018
0.606019 0.665900 0.137105
0.633788 0.667157 0.138720
0.661767 0.667714 0.140997
0.692465 0.668862 0.143209
0.716317 0.669967 0.145538
0.735251 0.671321 0.148176
0.748833 0.672695 0.151962
0.757620 0.674332 0.158547
0.105663 0.668678 0.105052
0.105731 0.668693 0.105090
0.105983 0.668747 0.105229
0.106475 0.668851 0.105493
0.107286 0.669023 0.105908
0.108551 0.669290 0.106511
0.110735 0.669705 0.107354
0.114405 0.670366 0.108515
0.119138 0.671086 0.110003
0.123905 0.671567 0.111288
0.131784 0.672299 0.112931
0.143050 0.672933 0.114464
0.157026 0.673480 0.115942
0.174163 0.674016 0.117447
0.191888 0.674456 0.118909
0.225386 0.674837 0.120539
0.266956 0.675182 0.122395
0.306908 0.675426 0.124151
0.352584 0.675592 0.125832
0.394641 0.675752 0.127478
0.424847 0.675932 0.129085
0.462865 0.676150 0.130655
0.499091 0.676432 0.132187
0.534695 0.676799 0.133865
