negative-portra-400/Portra400_Modern_Punchy.cube
TITLE "Kodak Portra 400 Modern Punchy"
# Adobe RGB in/out. REPLACES AgX. Kodak Portra 400 Modern Punchy.
LUT_3D_SIZE 5
DOMAIN_MIN 0.0 0.0 0.0
DOMAIN_MAX 1.0 1.0 1.0
0.073063 0.084693 0.079636
0.345935 0.117138 0.080181
0.772716 0.319813 0.088905
0.910959 0.551127 0.106500
0.957404 0.686110 0.135618
0.096489 0.268045 0.080041
0.239972 0.196528 0.080245
0.688683 0.381217 0.087042
0.891127 0.584088 0.103578
0.951144 0.703804 0.132823
0.168243 0.663266 0.086705
0.332582 0.622086 0.086729
0.630981 0.592121 0.089488
0.847097 0.668374 0.101901
0.936714 0.763503 0.128838
0.257099 0.828193 0.096890
0.392766 0.818753 0.097330
0.666417 0.803624 0.100700
0.830518 0.806311 0.110363
0.921039 0.832252 0.132437
0.331703 0.887798 0.109573
0.437033 0.885798 0.110720
0.671648 0.882054 0.115755
0.828884 0.882795 0.127360
0.914809 0.890890 0.149010
0.073063 0.094362 0.352253
0.358097 0.146175 0.362275
0.762855 0.333241 0.313120
0.905005 0.548163 0.306648
0.954904 0.683645 0.321005
0.087485 0.216298 0.245024
0.173732 0.151503 0.131115
0.658485 0.363519 0.217034
0.881796 0.575593 0.265855
0.948677 0.700394 0.300491
0.155570 0.636860 0.268191
0.304595 0.595954 0.223450
0.590661 0.559798 0.180868
0.833427 0.657436 0.215444
0.934419 0.758787 0.262939
0.248993 0.822267 0.254125
0.380574 0.813217 0.241079
0.655497 0.798531 0.219403
0.823042 0.802400 0.219493
0.919037 0.830801 0.249957
0.328145 0.886652 0.237489
0.432509 0.884758 0.235316
0.668347 0.881285 0.232894
0.826908 0.882438 0.240292
0.914413 0.891149 0.262676
0.073063 0.182314 0.870113
0.358858 0.259297 0.871858
0.809321 0.491028 0.868097
0.909536 0.604188 0.788848
0.953794 0.700300 0.736461
0.095826 0.397846 0.856316
0.325098 0.402417 0.817049
0.714170 0.487116 0.760480
0.885037 0.614113 0.731175
0.947178 0.713413 0.711053
0.139334 0.607977 0.708239
0.270615 0.571656 0.652704
0.526338 0.519011 0.527891
0.821143 0.659418 0.611232
0.930357 0.762349 0.647798
0.231584 0.811610 0.689935
0.355531 0.804194 0.669604
0.628100 0.787419 0.612289
0.807581 0.796485 0.582342
0.915173 0.830274 0.602740
0.319121 0.884468 0.636566
0.421139 0.882931 0.628556
0.660329 0.880303 0.609234
0.822175 0.882448 0.596141
0.913472 0.892565 0.599637
0.073314 0.401148 0.970098
0.360256 0.464934 0.970317
0.818617 0.619167 0.971099
0.923739 0.687574 0.950586
0.956718 0.746468 0.930938
0.098973 0.563239 0.970290
0.386109 0.605046 0.970508
0.784905 0.650550 0.958335
0.903607 0.690946 0.938310
0.949839 0.755495 0.918774
0.141030 0.654177 0.924479
0.293107 0.648530 0.913218
0.634470 0.658428 0.894013
0.843322 0.714784 0.888363
0.932334 0.791741 0.885658
0.216052 0.807195 0.893871
0.334851 0.802350 0.886085
0.608456 0.791049 0.860917
0.791934 0.793789 0.832351
0.913241 0.836435 0.851320
0.308405 0.883456 0.874743
0.407836 0.882465 0.870066
0.651421 0.881107 0.857333
0.817167 0.884413 0.846375
0.912588 0.895972 0.844921
0.073920 0.609824 0.991608
0.362344 0.637407 0.991624
0.819020 0.725463 0.991684
0.934746 0.788333 0.987563
0.959922 0.803961 0.978087
0.101048 0.690436 0.991622
0.388151 0.714057 0.991639
0.818297 0.783312 0.991429
0.917079 0.787053 0.983211
0.953909 0.806880 0.974471
0.155972 0.766197 0.981071
0.340228 0.765409 0.979774
0.697502 0.771547 0.976231
0.867181 0.796760 0.966459
0.937048 0.820151 0.958072
0.212306 0.820282 0.957557
0.333082 0.818582 0.955231
0.624094 0.817524 0.949304
0.816374 0.828432 0.944787
0.916248 0.853684 0.943458
0.299314 0.885463 0.946457
0.396714 0.885064 0.945333
0.642409 0.885145 0.942253
0.814120 0.889565 0.939332
0.912237 0.901751 0.938846
