negative-portra-400/Portra400_Modern_Punchy.cube
TITLE "Kodak Portra 400 Modern Punchy"
# Adobe RGB in/out. REPLACES AgX. Kodak Portra 400 Modern Punchy.
LUT_3D_SIZE 9
DOMAIN_MIN 0.0 0.0 0.0
DOMAIN_MAX 1.0 1.0 1.0
0.073063 0.084693 0.079636
0.123696 0.087213 0.079636
0.345935 0.117138 0.080181
0.610049 0.196883 0.083386
0.772716 0.319813 0.088905
0.862115 0.451514 0.096263
0.910959 0.551127 0.106500
0.940067 0.629467 0.120715
0.957404 0.686110 0.135618
0.073889 0.096877 0.079636
0.102060 0.094623 0.079636
0.267835 0.124608 0.079913
0.556841 0.210494 0.082794
0.753773 0.333557 0.088271
0.853190 0.462294 0.095501
0.906525 0.558526 0.105555
0.938066 0.633962 0.119814
0.955919 0.690029 0.134920
0.096489 0.268045 0.080041
0.138543 0.230907 0.080015
0.239972 0.196528 0.080245
0.456681 0.262016 0.082288
0.688683 0.381217 0.087042
0.817485 0.493960 0.093662
0.891127 0.584088 0.103578
0.930168 0.649552 0.117226
0.951144 0.703804 0.132823
0.127759 0.513608 0.082638
0.173639 0.487147 0.082538
0.292433 0.428857 0.082642
0.442586 0.408887 0.083761
0.632282 0.464055 0.086968
0.779275 0.546464 0.092585
0.867811 0.621778 0.101940
0.916456 0.676973 0.114470
0.944147 0.728197 0.130319
0.168243 0.663266 0.086705
0.211259 0.651329 0.086656
0.332582 0.622086 0.086729
0.488200 0.596673 0.087560
0.630981 0.592121 0.089488
0.754448 0.620221 0.093530
0.847097 0.668374 0.101901
0.903146 0.716972 0.113426
0.936714 0.763503 0.128838
0.212584 0.769061 0.091029
0.251534 0.761576 0.091033
0.364965 0.740744 0.091177
0.521443 0.718679 0.091961
0.654518 0.706958 0.094246
0.755974 0.710091 0.097781
0.829280 0.729736 0.103877
0.891104 0.769774 0.115047
0.928072 0.803057 0.129432
0.257099 0.828193 0.096890
0.289870 0.825831 0.096964
0.392766 0.818753 0.097330
0.538777 0.810027 0.098405
0.666417 0.803624 0.100700
0.762417 0.802161 0.104237
0.830518 0.806311 0.110363
0.882566 0.815364 0.119412
0.921039 0.832252 0.132437
0.297037 0.865523 0.103104
0.324906 0.864168 0.103248
0.416794 0.859964 0.103823
0.549661 0.854399 0.105048
0.671657 0.849776 0.107891
0.764840 0.848007 0.112112
0.831577 0.850057 0.118822
0.882081 0.855937 0.127580
0.916880 0.865030 0.137747
0.331703 0.887798 0.109573
0.355703 0.887316 0.109816
0.437033 0.885798 0.110720
0.556006 0.883751 0.112486
0.671648 0.882054 0.115755
0.763161 0.881552 0.120783
0.828884 0.882795 0.127360
0.879708 0.885956 0.135435
0.914809 0.890890 0.149010
0.073063 0.085090 0.102993
0.129039 0.090585 0.104045
0.345952 0.121455 0.106395
0.595998 0.196408 0.109115
0.764242 0.314505 0.115956
0.857295 0.445826 0.125848
0.908454 0.547373 0.136671
0.938935 0.627463 0.153841
0.956590 0.684687 0.172873
0.073660 0.096415 0.091802
0.090981 0.091121 0.084506
0.254308 0.123478 0.093598
0.539089 0.205598 0.102331
0.741091 0.325948 0.111379
0.846916 0.455817 0.122746
0.904010 0.554505 0.134641
0.936936 0.631880 0.151544
0.955111 0.688564 0.171028
0.093497 0.249981 0.103303
0.128372 0.209330 0.095901
0.214564 0.177671 0.089775
0.427661 0.246295 0.094109
0.673958 0.367782 0.103146
0.810233 0.487334 0.114826
0.887643 0.579321 0.128935
0.928445 0.647254 0.144812
0.950373 0.702248 0.165410
0.123646 0.496300 0.106750
0.166212 0.469528 0.103139
0.277331 0.408748 0.097044
0.419916 0.388791 0.095028
0.615828 0.450402 0.099411
0.772650 0.538680 0.109234
0.864546 0.618038 0.122976
0.914818 0.674490 0.137256
0.943428 0.726570 0.158608
0.164511 0.655294 0.110498
0.205960 0.643564 0.108600
0.324102 0.614514 0.104338
0.475170 0.585791 0.102022
0.619189 0.582174 0.102610
0.748298 0.615334 0.107992
0.843083 0.664819 0.120075
0.901736 0.714543 0.134007
0.936089 0.761939 0.153512
0.209602 0.764027 0.114924
0.248036 0.756638 0.113867
0.359810 0.735985 0.111626
0.515604 0.714004 0.109897
0.649004 0.702444 0.110280
0.752467 0.706117 0.113414
0.826486 0.726990 0.121222
0.889627 0.767787 0.133815
0.927316 0.802381 0.152057
0.255024 0.826617 0.120345
0.287540 0.824276 0.119932
0.389604 0.817250 0.118885
0.535566 0.808572 0.118256
0.663570 0.802222 0.119253
0.760379 0.800880 0.122625
0.828608 0.805253 0.128521
0.881617 0.814699 0.136694
0.920529 0.831831 0.154898
0.295653 0.864644 0.125545
0.323404 0.863302 0.125477
0.414878 0.859135 0.125419
0.547828 0.853620 0.125910
0.670090 0.849053 0.127625
0.763733 0.847361 0.131078
0.830530 0.849530 0.136486
0.881502 0.855572 0.147321
0.916584 0.864844 0.161904
0.330851 0.887508 0.130167
0.354785 0.887031 0.130295
0.435946 0.885531 0.130834
0.555015 0.883511 0.132095
0.670850 0.881849 0.134452
0.762625 0.881391 0.138465
0.828407 0.882691 0.146950
0.879469 0.885923 0.158228
0.914714 0.890937 0.172904
0.073063 0.094362 0.352253
0.129238 0.102587 0.354438
0.358097 0.146175 0.362275
0.618180 0.231362 0.345556
0.762855 0.333241 0.313120
0.853099 0.452274 0.305269
0.905005 0.548163 0.306648
0.936938 0.626736 0.312547
0.954904 0.683645 0.321005
0.074725 0.124460 0.354167
0.133203 0.135559 0.343704
0.307541 0.162942 0.287173
0.551307 0.232057 0.277642
0.735805 0.339364 0.280780
0.839719 0.459638 0.287308
0.900371 0.554201 0.295608
0.934893 0.630761 0.305279
0.953417 0.687327 0.315990
0.087485 0.216298 0.245024
0.117331 0.188417 0.199087
0.173732 0.151503 0.131115
0.402264 0.241307 0.177670
0.658485 0.363519 0.217034
0.800323 0.483823 0.245021
0.881796 0.575593 0.265855
0.925071 0.644920 0.283707
0.948677 0.700394 0.300491
0.116508 0.459456 0.265954
0.152153 0.432023 0.241351
0.248962 0.371643 0.189265
0.374252 0.348158 0.159471
0.585001 0.429011 0.177110
0.759951 0.527062 0.207781
0.857896 0.612383 0.235373
0.911220 0.670595 0.259003
0.941727 0.723935 0.279901
0.155570 0.636860 0.268191
0.194084 0.626087 0.255624
0.304595 0.595954 0.223450
0.445096 0.562445 0.193982
0.590661 0.559798 0.180868
0.731059 0.605018 0.191161
0.833427 0.657436 0.215444
0.898178 0.709574 0.240033
0.934419 0.758787 0.262939
0.201682 0.751111 0.262256
0.238626 0.744132 0.255803
0.346397 0.724318 0.237522
0.496389 0.702709 0.216914
0.630797 0.691303 0.203268
0.738674 0.696064 0.199967
0.819021 0.720390 0.208980
0.885613 0.763057 0.230501
0.925225 0.800819 0.252721
0.248993 0.822267 0.254125
0.280803 0.820016 0.250857
0.380574 0.813217 0.241079
0.526481 0.804739 0.228864
0.655497 0.798531 0.219403
0.754516 0.797456 0.215963
0.823042 0.802400 0.219493
0.878878 0.813010 0.229907
0.919037 0.830801 0.249957
0.291419 0.862108 0.245736
0.318822 0.860814 0.244205
0.409077 0.856789 0.239509
0.542318 0.851452 0.233471
0.665394 0.847065 0.228840
0.760403 0.845592 0.227835
0.827354 0.848091 0.231647
0.879728 0.854595 0.240474
0.915670 0.864400 0.253741
0.328145 0.886652 0.237489
0.351911 0.886195 0.236941
0.432509 0.884758 0.235316
0.551895 0.882833 0.233496
0.668347 0.881285 0.232894
0.760945 0.880964 0.234851
0.826908 0.882438 0.240292
0.878714 0.885887 0.249577
0.914413 0.891149 0.262676
0.073063 0.121738 0.684364
0.129601 0.135214 0.685231
0.358402 0.187189 0.688333
0.651861 0.298434 0.693999
0.781328 0.399720 0.644592
0.857776 0.486900 0.597116
0.905219 0.566334 0.571521
0.936159 0.634299 0.556021
0.953784 0.688144 0.544714
0.074908 0.166020 0.685124
0.136258 0.180033 0.685989
0.364091 0.239748 0.689088
0.617022 0.318638 0.657700
0.758253 0.400910 0.602433
0.845694 0.490261 0.574009
0.900308 0.570850 0.557796
0.933703 0.637672 0.546701
0.952276 0.691470 0.538013
0.088397 0.257570 0.559647
0.125503 0.249302 0.526676
0.250379 0.251960 0.473776
0.458634 0.307362 0.471816
0.673186 0.406321 0.490125
0.802155 0.502566 0.504306
0.880286 0.587075 0.512200
0.923222 0.649672 0.515811
0.947396 0.703310 0.516901
0.110076 0.431965 0.509974
0.141762 0.412220 0.479953
0.230894 0.359319 0.393738
0.328958 0.313154 0.299862
0.571839 0.431854 0.373181
0.754088 0.530983 0.423574
0.853951 0.614522 0.457287
0.908569 0.672043 0.475820
0.940244 0.725001 0.487654
0.146647 0.618031 0.517328
0.180976 0.608961 0.499863
0.284091 0.575792 0.451214
0.413865 0.541824 0.387212
0.558044 0.537376 0.352363
0.713977 0.595108 0.373453
0.824331 0.653563 0.409312
0.893499 0.707618 0.438999
0.931866 0.757980 0.459754
0.192214 0.736080 0.509138
0.226697 0.729877 0.499357
0.330086 0.711826 0.470299
0.473656 0.691171 0.430119
0.608742 0.679594 0.395088
0.721104 0.685076 0.379144
0.810329 0.714430 0.388817
0.880916 0.759311 0.414083
0.922744 0.799838 0.437228
0.240700 0.816814 0.490985
0.271619 0.814744 0.485597
0.368491 0.808425 0.468860
0.513888 0.800395 0.444822
0.642893 0.793495 0.419254
0.744252 0.791882 0.402907
0.815582 0.799151 0.398170
0.875327 0.811447 0.405721
0.917088 0.830032 0.425483
0.285277 0.858807 0.468583
0.312199 0.857606 0.465734
0.400798 0.853856 0.456647
0.534561 0.848858 0.441761
0.658856 0.844774 0.426136
0.755762 0.843594 0.415084
0.822891 0.846499 0.410984
0.877212 0.853609 0.414195
0.914399 0.864186 0.423621
0.324064 0.885536 0.443064
0.347564 0.885113 0.441405
0.427341 0.883789 0.436066
0.547287 0.882030 0.428404
0.664654 0.880671 0.420911
0.758481 0.880558 0.416041
0.824708 0.882278 0.415496
0.877602 0.886034 0.419987
0.913971 0.891651 0.429314
0.073063 0.182314 0.870113
0.130144 0.198696 0.870494
0.358858 0.259297 0.871858
0.652051 0.370542 0.874354
0.809321 0.491028 0.868097
0.869708 0.541049 0.821093
0.909536 0.604188 0.788848
0.937156 0.652185 0.758462
0.953794 0.700300 0.736461
0.075166 0.234167 0.870446
0.136778 0.250950 0.870827
0.364545 0.311106 0.872189
0.654421 0.418299 0.874604
0.787019 0.489734 0.842633
0.859313 0.542540 0.805970
0.904473 0.606335 0.774542
0.934943 0.654838 0.749335
0.952237 0.703160 0.730422
0.095826 0.397846 0.856316
0.149774 0.396575 0.845102
0.325098 0.402417 0.817049
0.546591 0.432338 0.787436
0.714170 0.487116 0.760480
0.817691 0.548391 0.743464
0.885037 0.614113 0.731175
0.924166 0.664376 0.720768
0.947178 0.713413 0.711053
0.109276 0.458525 0.728745
0.142665 0.448645 0.712688
0.251340 0.428618 0.670653
0.411005 0.435745 0.630412
0.610163 0.492340 0.637395
0.763363 0.563792 0.659510
0.856114 0.629957 0.675549
0.908495 0.682590 0.681675
0.939696 0.732514 0.683208
0.139334 0.607977 0.708239
0.171152 0.599865 0.695825
0.270615 0.571656 0.652704
0.396674 0.539909 0.587963
0.526338 0.519011 0.527891
0.707770 0.602065 0.577166
0.821143 0.659418 0.611232
0.891351 0.712805 0.634076
0.930357 0.762349 0.647798
0.182692 0.723445 0.703167
0.214836 0.718258 0.695504
0.314574 0.702725 0.670707
0.452963 0.683746 0.626098
0.587761 0.671137 0.585671
0.702811 0.675784 0.564264
0.802688 0.712207 0.578324
0.877121 0.759577 0.601104
0.920722 0.800666 0.618560
0.231584 0.811610 0.689935
0.261571 0.809798 0.685396
0.355531 0.804194 0.669604
0.497394 0.796885 0.640886
0.628100 0.787419 0.612289
0.732132 0.785863 0.591317
0.807581 0.796485 0.582342
0.871750 0.810883 0.588289
0.915173 0.830274 0.602740
0.278157 0.855539 0.668713
0.304529 0.854472 0.665118
0.391326 0.851124 0.653447
0.525825 0.846632 0.636184
0.651633 0.842978 0.617914
0.749987 0.842120 0.603024
0.817915 0.845403 0.594419
0.874388 0.853139 0.592881
0.913190 0.864878 0.597787
0.319121 0.884468 0.636566
0.342308 0.884095 0.634696
0.421139 0.882931 0.628556
0.541824 0.881406 0.619282
0.660329 0.880303 0.609234
0.755626 0.880447 0.600901
0.822175 0.882448 0.596141
0.876324 0.886545 0.595796
0.913472 0.892565 0.599637
0.073111 0.278635 0.939454
0.130874 0.295289 0.939522
0.359473 0.356212 0.939765
0.652307 0.455205 0.940211
0.818466 0.559099 0.940874
0.884134 0.610945 0.929413
0.916372 0.642144 0.902714
0.939592 0.679627 0.883510
0.954896 0.720126 0.865487
0.075757 0.330894 0.939513
0.137479 0.347801 0.939581
0.365158 0.406296 0.939824
0.654677 0.492095 0.940270
0.815409 0.581702 0.939615
0.874166 0.611004 0.919572
0.911354 0.643443 0.896295
0.937354 0.681626 0.879235
0.953288 0.722508 0.860675
0.098169 0.491168 0.939727
0.159579 0.501375 0.939794
0.385344 0.537088 0.940037
0.614659 0.548896 0.929664
0.757844 0.574380 0.907382
0.840702 0.612008 0.889670
0.894486 0.648383 0.876133
0.927674 0.688922 0.859597
0.948095 0.731119 0.845042
0.114909 0.537003 0.889606
0.154821 0.534797 0.885520
0.292840 0.532524 0.873950
0.489137 0.542919 0.854092
0.666321 0.574172 0.841481
0.784587 0.617732 0.835203
0.864341 0.659256 0.831231
0.911320 0.703334 0.827075
0.940307 0.747433 0.821903
0.137055 0.618172 0.841681
0.168960 0.614023 0.834888
0.273859 0.602071 0.814314
0.420297 0.588403 0.785026
0.583001 0.599462 0.762640
0.729429 0.634755 0.768673
0.828310 0.680513 0.782961
0.893221 0.727877 0.793322
0.930506 0.773520 0.797448
0.175432 0.718191 0.828733
0.205689 0.714176 0.823733
0.303598 0.701897 0.807712
0.440975 0.686107 0.778177
0.576887 0.673528 0.741188
0.685025 0.669142 0.710286
0.800130 0.719091 0.736701
0.875967 0.767172 0.755631
0.919875 0.804285 0.767566
0.222922 0.807915 0.819511
0.252068 0.806409 0.816325
0.343696 0.801691 0.805931
0.482762 0.795296 0.787179
0.615323 0.785357 0.761511
0.721010 0.783021 0.740355
0.799573 0.794369 0.730143
0.868727 0.811942 0.738063
0.913701 0.832133 0.749574
0.270820 0.852964 0.805886
0.296633 0.852059 0.803967
0.381676 0.849205 0.797627
0.517059 0.845355 0.783416
0.642266 0.842241 0.766857
0.742630 0.841698 0.752353
0.813014 0.845216 0.742876
0.871526 0.853498 0.739872
0.912057 0.866514 0.743488
0.313761 0.883697 0.784108
0.336617 0.883386 0.782469
0.414465 0.882419 0.777022
0.535999 0.881182 0.768563
0.655789 0.880389 0.758994
0.752676 0.880825 0.750447
0.819582 0.883114 0.744656
0.875027 0.887551 0.742542
0.912990 0.893985 0.743956
0.073314 0.401148 0.970098
0.131798 0.415266 0.970146
0.360256 0.464934 0.970317
0.652633 0.534426 0.970631
0.818617 0.619167 0.971099
0.897287 0.668760 0.964915
0.923739 0.687574 0.950586
0.942726 0.714567 0.939557
0.956718 0.746468 0.930938
0.076457 0.444394 0.970140
0.138366 0.458124 0.970188
0.365936 0.499372 0.970359
0.655001 0.564090 0.970673
0.819715 0.637555 0.971140
0.888009 0.668021 0.960656
0.918916 0.688196 0.947661
0.940521 0.716017 0.937533
0.955100 0.748407 0.929156
0.098973 0.563239 0.970290
0.160512 0.572625 0.970338
0.386109 0.605046 0.970508
0.662835 0.644042 0.970650
0.784905 0.650550 0.958335
0.859611 0.666580 0.947380
0.903607 0.690946 0.938310
0.932671 0.721458 0.930938
0.949839 0.755495 0.918774
0.122343 0.629161 0.952463
0.171761 0.628641 0.951032
0.333473 0.628546 0.946592
0.547448 0.633270 0.940515
0.708590 0.646480 0.934442
0.808376 0.668754 0.928443
0.875587 0.698330 0.918780
0.916164 0.732670 0.910518
0.941882 0.769215 0.903009
0.141030 0.654177 0.924479
0.175771 0.652471 0.921699
0.293107 0.648530 0.913218
0.464892 0.648214 0.902455
0.634470 0.658428 0.894013
0.759511 0.681678 0.889826
0.843322 0.714784 0.888363
0.898694 0.752657 0.887375
0.932334 0.791741 0.885658
0.172230 0.726226 0.902635
0.202154 0.723567 0.900108
0.301474 0.715580 0.891938
0.445951 0.706191 0.880036
0.593334 0.702278 0.864212
0.716357 0.713636 0.854053
0.809997 0.745290 0.857239
0.879064 0.785354 0.863777
0.920675 0.811362 0.867980
0.216052 0.807195 0.893871
0.244613 0.806028 0.892065
0.334851 0.802350 0.886085
0.473079 0.797355 0.876845
0.608456 0.791049 0.860917
0.715462 0.788364 0.844752
0.791934 0.793789 0.832351
0.867745 0.816212 0.843775
0.913241 0.836435 0.851320
0.264010 0.851759 0.885458
0.289321 0.851030 0.884309
0.372849 0.848730 0.880470
0.506833 0.845626 0.874420
0.633995 0.843163 0.862834
0.736486 0.842930 0.852067
0.808673 0.846372 0.844272
0.868797 0.854870 0.841440
0.911137 0.869306 0.844832
0.308405 0.883456 0.874743
0.330937 0.883213 0.873799
0.407836 0.882465 0.870066
0.530262 0.881552 0.864178
0.651421 0.881107 0.857333
0.748881 0.881854 0.850976
0.817167 0.884413 0.846375
0.873828 0.889149 0.844351
0.912588 0.895972 0.844921
0.073541 0.512102 0.984222
0.132919 0.522070 0.984235
0.361211 0.556920 0.984282
0.653032 0.613417 0.984367
0.818801 0.670501 0.984495
0.904802 0.729041 0.983729
0.930113 0.737290 0.977790
0.945830 0.754346 0.967269
0.958625 0.777587 0.957068
0.077233 0.542551 0.984234
0.139442 0.552163 0.984247
0.366887 0.585842 0.984293
0.655397 0.632032 0.984379
0.819899 0.687057 0.984506
0.898719 0.727624 0.982214
0.925625 0.737336 0.976699
0.943702 0.755306 0.965248
0.957175 0.779123 0.955622
0.099935 0.631499 0.984274
0.161647 0.637367 0.984287
0.387043 0.657864 0.984334
0.663838 0.693493 0.984419
0.805064 0.718013 0.982146
0.872513 0.724047 0.977379
0.911087 0.738204 0.967872
0.936738 0.759107 0.958609
0.951928 0.784833 0.950820
0.130523 0.704551 0.980901
0.187041 0.703931 0.980396
0.367411 0.702745 0.978742
0.588774 0.703738 0.975919
0.743126 0.709957 0.968345
0.829811 0.722978 0.961028
0.886857 0.742637 0.954396
0.921673 0.767635 0.948554
0.943954 0.795875 0.943383
0.148398 0.707106 0.959207
0.187253 0.706534 0.958302
0.317466 0.705611 0.955410
0.509214 0.707460 0.951254
0.671280 0.715639 0.946942
0.780802 0.731841 0.943195
0.857112 0.755349 0.940123
0.903965 0.784033 0.937472
0.935012 0.805989 0.934943
0.174045 0.750979 0.943169
0.205028 0.749631 0.942339
0.309222 0.745903 0.939653
0.465973 0.742920 0.935757
0.622430 0.745609 0.931906
0.743918 0.758270 0.928562
0.825022 0.781612 0.925936
0.885197 0.804230 0.925024
0.922883 0.821572 0.924065
0.212296 0.811026 0.935979
0.240687 0.810231 0.935293
0.331062 0.807765 0.933004
0.471633 0.804613 0.928964
0.612056 0.802598 0.919934
0.724039 0.803971 0.912099
0.805142 0.811699 0.908337
0.871497 0.826622 0.909524
0.914277 0.843891 0.911541
0.258492 0.852661 0.931496
0.283427 0.852117 0.931024
0.365912 0.850409 0.928964
0.499210 0.848159 0.923326
0.628679 0.846540 0.916630
0.733278 0.846860 0.910112
0.806551 0.850227 0.904868
0.866334 0.857385 0.901683
0.910812 0.873180 0.905205
0.303464 0.883973 0.922918
0.325719 0.883799 0.922283
0.401759 0.883279 0.920141
0.525072 0.882708 0.916718
0.646406 0.882634 0.912659
0.745431 0.883701 0.908771
0.815236 0.886494 0.905839
0.872857 0.891436 0.904455
0.912320 0.898531 0.904822
0.073920 0.609824 0.991608
0.134240 0.615974 0.991611
0.362344 0.637407 0.991624
0.653504 0.674469 0.991648
0.819020 0.725463 0.991684
0.908858 0.787637 0.991732
0.934746 0.788333 0.987563
0.948389 0.796055 0.982435
0.959922 0.803961 0.978087
0.078358 0.628583 0.991611
0.140712 0.634488 0.991615
0.368014 0.655107 0.991628
0.655869 0.690911 0.991652
0.820118 0.740483 0.991687
0.903858 0.786913 0.991262
0.930654 0.787868 0.986544
0.946361 0.796329 0.981680
0.958832 0.804568 0.977531
0.101048 0.690436 0.991622
0.162989 0.695672 0.991626
0.388151 0.714057 0.991639
0.664302 0.746316 0.991663
0.818297 0.783312 0.991429
0.881917 0.781497 0.987740
0.917079 0.787053 0.983211
0.939687 0.797552 0.979178
0.953909 0.806880 0.974471
0.137655 0.777355 0.991267
0.198818 0.776379 0.991090
0.392665 0.773651 0.990118
0.619027 0.771185 0.987583
0.763574 0.771748 0.984504
0.846945 0.777372 0.981273
0.896474 0.788785 0.978162
0.926731 0.800752 0.973523
0.946032 0.811684 0.966826
0.155972 0.766197 0.981071
0.199142 0.765890 0.980772
0.340228 0.765409 0.979774
0.539586 0.766541 0.978207
0.697502 0.771547 0.976231
0.798423 0.781924 0.971198
0.867181 0.796760 0.966459
0.909163 0.807628 0.962117
0.937048 0.820151 0.958072
0.179423 0.788990 0.968547
0.212554 0.788459 0.967930
0.322462 0.787240 0.965899
0.490793 0.787344 0.962819
0.650470 0.791650 0.959413
0.762321 0.799060 0.956325
0.839044 0.808208 0.953814
0.891853 0.820143 0.951750
0.925630 0.833712 0.949833
0.212306 0.820282 0.957557
0.240992 0.819848 0.957021
0.333082 0.818582 0.955231
0.478675 0.817313 0.952446
0.624094 0.817524 0.949304
0.738532 0.820855 0.946562
0.816374 0.828432 0.944787
0.876951 0.839942 0.943947
0.916248 0.853684 0.943458
0.254951 0.856375 0.951462
0.279709 0.856019 0.951058
0.361834 0.854933 0.949694
0.495661 0.853640 0.947502
0.627743 0.853128 0.944873
0.734748 0.854569 0.942315
0.809498 0.859147 0.940353
0.870345 0.868092 0.939531
0.911652 0.878080 0.939720
0.299314 0.885463 0.946457
0.321360 0.885358 0.946201
0.396714 0.885064 0.945333
0.520870 0.884837 0.943935
0.642409 0.885145 0.942253
0.743081 0.886546 0.940611
0.814120 0.889565 0.939332
0.872366 0.894604 0.938683
0.912237 0.901751 0.938846
