LUTs/negative-superia-reala/SuperiaReala_Classic_ExtraPunchy.cube
TITLE "Fuji Superia Reala Classic ExtraPunchy"
# Adobe RGB in/out. REPLACES AgX. Fuji Superia Reala Classic ExtraPunchy.
LUT_3D_SIZE 9
DOMAIN_MIN 0.0 0.0 0.0
DOMAIN_MAX 1.0 1.0 1.0
0.069662 0.073299 0.081842
0.077578 0.073501 0.078271
0.161342 0.080232 0.079269
0.388880 0.090230 0.080713
0.591040 0.102241 0.083249
0.696201 0.114458 0.087481
0.761919 0.119049 0.096157
0.801768 0.073299 0.421219
0.808466 0.109962 0.540441
0.067738 0.091540 0.078392
0.075148 0.086825 0.078856
0.170902 0.089499 0.079827
0.378241 0.099005 0.081140
0.577580 0.111236 0.083759
0.690578 0.125546 0.087854
0.759708 0.129297 0.096011
0.801769 0.073299 0.421237
0.808466 0.109964 0.540440
0.069252 0.170198 0.079757
0.073519 0.159541 0.080253
0.117120 0.142631 0.081121
0.314257 0.146646 0.082989
0.535173 0.161493 0.086041
0.666330 0.180475 0.090324
0.747590 0.187503 0.097714
0.802148 0.075155 0.423293
0.808466 0.109964 0.540439
0.072020 0.340010 0.081564
0.075019 0.327534 0.082298
0.103967 0.298828 0.084141
0.238008 0.274939 0.086560
0.465706 0.275674 0.089973
0.631295 0.289262 0.095307
0.727024 0.303978 0.103544
0.787393 0.285814 0.117651
0.808467 0.109991 0.442356
0.074780 0.518162 0.085515
0.078312 0.509002 0.086318
0.102436 0.485811 0.088703
0.202473 0.458264 0.092306
0.392870 0.439221 0.096863
0.586783 0.437941 0.103900
0.702523 0.445768 0.113219
0.778511 0.444582 0.125869
0.809468 0.360156 0.257916
0.079350 0.645394 0.090894
0.082723 0.641418 0.091815
0.106476 0.628511 0.095613
0.188269 0.608930 0.100623
0.351862 0.591038 0.108039
0.542221 0.580240 0.115598
0.676307 0.579622 0.126035
0.766165 0.582146 0.137942
0.807580 0.554309 0.166592
0.084141 0.736629 0.098469
0.087064 0.733997 0.099366
0.110644 0.724958 0.104866
0.182745 0.711703 0.112363
0.326269 0.698097 0.121052
0.504464 0.687767 0.130067
0.650240 0.683019 0.140431
0.751223 0.683543 0.154008
0.805872 0.676259 0.173563
0.087839 0.806999 0.105671
0.090463 0.805496 0.106492
0.114736 0.796815 0.113364
0.178086 0.787510 0.122809
0.306139 0.777778 0.132777
0.475038 0.769905 0.144577
0.621628 0.765725 0.156433
0.735950 0.766017 0.168551
0.806051 0.766003 0.188207
0.085401 0.825001 0.104545
0.085402 0.825002 0.104546
0.135945 0.833234 0.104585
0.135949 0.834448 0.121120
0.271195 0.834245 0.134641
0.429990 0.829408 0.150283
0.591416 0.827039 0.163346
0.714394 0.827896 0.175507
0.811370 0.832148 0.188129
0.067942 0.073766 0.085813
0.073525 0.076823 0.132892
0.130022 0.084286 0.094685
0.388300 0.095152 0.092813
0.595662 0.106419 0.091922
0.697236 0.118415 0.095107
0.761752 0.121744 0.107254
0.801769 0.073299 0.421239
0.808466 0.109964 0.540442
0.069128 0.091976 0.086199
0.083199 0.095006 0.090539
0.156615 0.095936 0.089669
0.371866 0.105775 0.092007
0.583643 0.117644 0.092413
0.692257 0.129985 0.095626
0.759671 0.132796 0.106099
0.801771 0.073299 0.421267
0.808466 0.109964 0.540440
0.072020 0.170256 0.087594
0.077495 0.163177 0.088313
0.138539 0.152542 0.090158
0.341154 0.160255 0.093339
0.543883 0.172787 0.095480
0.670638 0.187164 0.098693
0.748618 0.192399 0.107491
0.802258 0.076191 0.424192
0.808466 0.109964 0.540440
0.074453 0.339311 0.090492
0.079599 0.329438 0.091572
0.118423 0.305988 0.094181
0.270340 0.287431 0.097709
0.484977 0.289197 0.101292
0.637958 0.299168 0.106104
0.729761 0.309920 0.113985
0.787564 0.289105 0.128625
0.808466 0.109973 0.540436
0.077875 0.515489 0.093440
0.082343 0.507851 0.094888
0.112111 0.487651 0.098777
0.222894 0.463459 0.104515
0.414346 0.447143 0.111047
0.595487 0.445165 0.116500
0.706207 0.451339 0.124884
0.779323 0.447506 0.136376
0.809428 0.363049 0.304715
0.082017 0.643780 0.098607
0.085738 0.640215 0.099743
0.113376 0.628175 0.105890
0.200366 0.610155 0.112897
0.365826 0.593745 0.120840
0.554310 0.583980 0.129366
0.680687 0.583040 0.138332
0.768284 0.584385 0.150843
0.807626 0.555407 0.183129
0.086197 0.735639 0.107331
0.090053 0.733129 0.108793
0.116010 0.724562 0.114672
0.191141 0.711967 0.123538
0.336657 0.699052 0.132541
0.513161 0.689295 0.143306
0.655428 0.684826 0.154946
0.753703 0.685060 0.166776
0.806094 0.676801 0.189242
0.089123 0.806254 0.111413
0.091965 0.804782 0.112611
0.118251 0.796451 0.122104
0.183593 0.787468 0.132453
0.312857 0.778076 0.144897
0.481065 0.770474 0.157372
0.626102 0.766477 0.169252
0.738639 0.766756 0.184610
0.806411 0.766222 0.203728
0.085402 0.830594 0.184583
0.085405 0.830595 0.184585
0.135946 0.838589 0.184586
0.135950 0.838589 0.184573
0.274291 0.834320 0.144074
0.434452 0.829534 0.161069
0.594092 0.827214 0.175481
0.716322 0.828062 0.191034
0.811676 0.832148 0.202489
0.067746 0.081220 0.136445
0.077395 0.084267 0.361499
0.131644 0.090529 0.333778
0.379424 0.101923 0.301208
0.594899 0.116175 0.276643
0.697405 0.131088 0.295052
0.760938 0.132705 0.345679
0.801974 0.073380 0.434512
0.808466 0.109964 0.540461
0.069827 0.098466 0.142088
0.079461 0.098627 0.191833
0.149766 0.102504 0.231615
0.367774 0.114498 0.230571
0.585930 0.131295 0.231702
0.693543 0.146163 0.258536
0.759185 0.146080 0.315474
0.802054 0.074303 0.436332
0.808466 0.109964 0.540443
0.074117 0.173134 0.141857
0.082206 0.169683 0.144614
0.173184 0.180914 0.170655
0.349830 0.177124 0.170203
0.556587 0.194086 0.184054
0.677296 0.211847 0.205738
0.750631 0.211285 0.233179
0.801654 0.099704 0.435873
0.808466 0.109964 0.540440
0.080639 0.340258 0.152017
0.087318 0.333973 0.153390
0.142738 0.318219 0.158056
0.307605 0.307027 0.164777
0.513678 0.316189 0.176636
0.653213 0.329240 0.193660
0.735773 0.333070 0.207274
0.788094 0.303378 0.267955
0.808466 0.109966 0.540443
0.086990 0.516889 0.160854
0.094079 0.511295 0.162294
0.139013 0.495634 0.166861
0.272044 0.477352 0.173543
0.461624 0.465801 0.183178
0.618996 0.468573 0.199012
0.715855 0.472907 0.209867
0.781662 0.461058 0.238810
0.809278 0.374448 0.441771
0.094347 0.643753 0.172452
0.100865 0.640996 0.174042
0.141320 0.631563 0.180680
0.246636 0.617083 0.189682
0.411994 0.603996 0.199935
0.582675 0.596427 0.211571
0.694433 0.596176 0.222419
0.773436 0.594666 0.244605
0.807782 0.559738 0.303540
0.099442 0.734078 0.180643
0.105819 0.732022 0.182539
0.140701 0.724988 0.190237
0.228548 0.714427 0.200886
0.374836 0.703543 0.212680
0.545848 0.695395 0.225373
0.670987 0.691647 0.239496
0.761540 0.691644 0.259418
0.806781 0.679074 0.276788
0.100993 0.800984 0.192030
0.106134 0.799834 0.194341
0.139544 0.794426 0.206308
0.213287 0.787314 0.219047
0.345536 0.779398 0.232830
0.508405 0.772839 0.246889
0.645300 0.769495 0.261737
0.748676 0.769666 0.277299
0.807434 0.767161 0.284291
0.085405 0.830595 0.184595
0.135943 0.838589 0.184593
0.135946 0.838589 0.184590
0.135984 0.838590 0.184592
0.292867 0.834273 0.207920
0.455819 0.829885 0.237722
0.605996 0.827771 0.257419
0.724548 0.828597 0.273941
0.812274 0.832113 0.283336
0.068400 0.093051 0.286015
0.074308 0.098052 0.463564
0.144028 0.102947 0.500332
0.361333 0.113359 0.491804
0.586412 0.131731 0.491117
0.693575 0.148569 0.499249
0.758540 0.150907 0.520419
0.797016 0.103858 0.563398
0.808466 0.109964 0.568563
0.070474 0.110430 0.302433
0.077299 0.112652 0.397206
0.155415 0.117489 0.466191
0.355226 0.129682 0.465364
0.579403 0.149252 0.470743
0.690285 0.163461 0.483796
0.756955 0.164202 0.512361
0.796487 0.110626 0.560004
0.808466 0.109964 0.568866
0.076526 0.192816 0.299147
0.084944 0.190827 0.311914
0.162347 0.187573 0.358911
0.346308 0.195368 0.386336
0.556551 0.215419 0.407750
0.677192 0.232689 0.428906
0.749751 0.232336 0.467676
0.792116 0.187517 0.532821
0.808466 0.109965 0.569965
0.085364 0.346988 0.299833
0.094206 0.343088 0.302668
0.156922 0.332607 0.313709
0.342794 0.345325 0.348768
0.522906 0.338425 0.354372
0.657805 0.350999 0.375697
0.737970 0.353831 0.407914
0.787802 0.322617 0.479265
0.808467 0.109973 0.570295
0.096386 0.519380 0.313949
0.106485 0.515201 0.314750
0.160474 0.503714 0.319612
0.300654 0.490127 0.328244
0.486954 0.482666 0.339542
0.630959 0.487391 0.355955
0.721963 0.491089 0.375722
0.782680 0.475410 0.415584
0.809003 0.394832 0.554480
0.108420 0.643678 0.326339
0.118209 0.641545 0.327052
0.165450 0.634559 0.330855
0.282624 0.623039 0.336944
0.448403 0.612961 0.345446
0.601746 0.607633 0.355830
0.703927 0.608558 0.370509
0.776269 0.604086 0.391256
0.807814 0.567780 0.504378
0.117454 0.733022 0.339822
0.125951 0.731344 0.340486
0.166272 0.725612 0.343949
0.268264 0.717011 0.349595
0.412190 0.708147 0.357036
0.572624 0.701679 0.366122
0.684663 0.698911 0.376613
0.768004 0.698135 0.390388
0.807292 0.683186 0.438522
0.117195 0.798630 0.355835
0.124237 0.797685 0.356306
0.161572 0.793524 0.359728
0.246202 0.787571 0.364636
0.376957 0.780961 0.371484
0.535922 0.775523 0.379620
0.661402 0.772816 0.389016
0.757404 0.773021 0.399644
0.808319 0.768971 0.416946
0.103053 0.836359 0.416336
0.135936 0.840972 0.416335
0.135945 0.840973 0.416334
0.182726 0.841464 0.359550
0.324972 0.833693 0.390061
0.483159 0.830205 0.396645
0.622953 0.828532 0.404419
0.735667 0.829339 0.412159
0.812766 0.832256 0.417034
0.069231 0.110554 0.452597
0.072788 0.114454 0.529691
0.146624 0.124499 0.589408
0.352229 0.138416 0.590154
0.575439 0.155788 0.590842
0.688369 0.171671 0.595432
0.755354 0.174458 0.603601
0.793890 0.132709 0.617339
0.808466 0.109965 0.631254
0.070947 0.130531 0.463239
0.074884 0.135096 0.521262
0.151897 0.143630 0.580574
0.349601 0.156536 0.584106
0.569937 0.172344 0.586203
0.685502 0.186066 0.592041
0.753918 0.187814 0.601297
0.793456 0.145097 0.616250
0.808466 0.109965 0.629385
0.077673 0.221600 0.467415
0.085145 0.221177 0.487718
0.159634 0.220860 0.539659
0.346356 0.227776 0.557070
0.549982 0.242248 0.564583
0.674629 0.259495 0.575641
0.747741 0.259912 0.590895
0.790659 0.221285 0.609712
0.808466 0.109967 0.623446
0.089595 0.371693 0.460700
0.099185 0.368990 0.465660
0.166047 0.362186 0.489111
0.336288 0.357727 0.515234
0.523949 0.362836 0.529307
0.658665 0.375692 0.545605
0.737745 0.378349 0.566591
0.787166 0.348237 0.596378
0.810178 0.169447 0.623500
0.104993 0.527433 0.461653
0.116913 0.524446 0.462984
0.174928 0.515723 0.470295
0.316903 0.505457 0.484268
0.507552 0.511973 0.509731
0.636877 0.506485 0.517326
0.724695 0.509591 0.535878
0.782851 0.493334 0.569678
0.808636 0.418296 0.620176
0.122408 0.646271 0.471849
0.133053 0.644554 0.472195
0.185991 0.639284 0.475113
0.305505 0.630671 0.481441
0.472779 0.622871 0.491334
0.613399 0.619156 0.503070
0.709636 0.620321 0.516860
0.777855 0.614586 0.538496
0.807678 0.579033 0.606979
0.133339 0.734012 0.484664
0.143179 0.732624 0.484714
0.188863 0.727808 0.485910
0.293839 0.720617 0.489155
0.440912 0.713321 0.494988
0.588667 0.708194 0.502901
0.693676 0.706258 0.511021
0.772123 0.704768 0.522373
0.807476 0.689092 0.581677
0.131762 0.798361 0.502640
0.139760 0.797515 0.502259
0.181416 0.793866 0.501879
0.273481 0.788755 0.502645
0.403259 0.783100 0.505459
0.558636 0.778572 0.509272
0.672750 0.776462 0.514042
0.763588 0.776830 0.520145
0.808839 0.771722 0.547541
0.110424 0.838463 0.572989
0.115330 0.839133 0.572989
0.127137 0.840721 0.572987
0.212754 0.837954 0.525469
0.344588 0.833996 0.523419
0.500226 0.831038 0.524032
0.635461 0.829612 0.526214
0.743669 0.830493 0.530083
0.813123 0.833372 0.537728
0.070314 0.142031 0.586974
0.072623 0.143940 0.619004
0.144375 0.158676 0.655036
0.341263 0.170670 0.656696
0.567825 0.185891 0.658054
0.683383 0.202238 0.660606
0.752194 0.206257 0.664707
0.792033 0.167748 0.669847
0.808466 0.109965 0.664758
0.071623 0.161354 0.591778
0.073888 0.163306 0.618579
0.147290 0.175623 0.652962
0.340346 0.186161 0.655362
0.563766 0.204582 0.657052
0.680955 0.220417 0.659795
0.750945 0.223076 0.664272
0.791643 0.180041 0.669785
0.808466 0.109965 0.664758
0.078930 0.259026 0.599067
0.084574 0.258242 0.611850
0.157696 0.260638 0.641532
0.342178 0.266241 0.648779
0.546501 0.279757 0.652134
0.671857 0.292058 0.656059
0.745736 0.293224 0.661950
0.789469 0.258380 0.669143
0.808466 0.109967 0.664757
0.092506 0.401644 0.591716
0.101493 0.399411 0.596958
0.171091 0.395281 0.618188
0.338738 0.392176 0.633695
0.526425 0.397412 0.641205
0.658328 0.404709 0.647509
0.737123 0.406830 0.655923
0.786534 0.379364 0.666689
0.809841 0.212629 0.667402
0.112229 0.544246 0.586285
0.124469 0.542537 0.588353
0.187248 0.537934 0.597972
0.329242 0.530085 0.611779
0.507338 0.526623 0.623747
0.639762 0.528441 0.632945
0.725949 0.531074 0.644385
0.782870 0.515019 0.659947
0.808295 0.443820 0.675870
0.132027 0.652067 0.586142
0.143950 0.650679 0.586944
0.199743 0.646259 0.590440
0.320341 0.640176 0.597463
0.484599 0.634852 0.606990
0.622798 0.635935 0.618826
0.713027 0.633280 0.628541
0.778731 0.627073 0.646528
0.807568 0.592705 0.675111
0.145303 0.737802 0.591156
0.155596 0.736561 0.591221
0.204606 0.732334 0.592279
0.311191 0.726100 0.595202
0.460375 0.719904 0.600436
0.599085 0.715693 0.607119
0.699094 0.714342 0.614955
0.774074 0.712385 0.628340
0.807575 0.696656 0.668600
0.141559 0.800109 0.600760
0.150183 0.799340 0.600459
0.194890 0.796015 0.599811
0.289034 0.791380 0.599895
0.421388 0.786377 0.601583
0.570559 0.782494 0.604891
0.680209 0.780837 0.609428
0.767338 0.781289 0.615576
0.809092 0.775756 0.651336
0.113543 0.838900 0.607943
0.118025 0.839488 0.609675
0.127909 0.840828 0.616255
0.219447 0.838804 0.615583
0.353715 0.835109 0.613016
0.509290 0.832486 0.612774
0.642357 0.831335 0.614025
0.748128 0.832251 0.616393
0.813263 0.835304 0.640304
0.071623 0.182006 0.688218
0.073246 0.181670 0.703256
0.129207 0.197352 0.712187
0.335134 0.209608 0.712845
0.564145 0.227935 0.713752
0.681176 0.243446 0.714896
0.750729 0.244585 0.716541
0.791014 0.203393 0.717666
0.808465 0.109960 0.710858
0.072584 0.201033 0.690399
0.074150 0.200909 0.703046
0.133054 0.216684 0.712115
0.335092 0.227928 0.712927
0.560892 0.245648 0.713873
0.679251 0.260704 0.715034
0.749618 0.261606 0.716712
0.790673 0.219407 0.717931
0.808465 0.109958 0.710471
0.079603 0.297235 0.695252
0.084130 0.295917 0.701805
0.149058 0.299740 0.710729
0.339206 0.304632 0.712663
0.546825 0.317260 0.713910
0.671765 0.328658 0.715238
0.745114 0.328548 0.717137
0.788915 0.296097 0.718872
0.808458 0.109918 0.708708
0.094462 0.431009 0.690921
0.102868 0.429210 0.695219
0.169628 0.426678 0.705552
0.340822 0.424585 0.710455
0.530281 0.429163 0.712767
0.660249 0.435276 0.714805
0.737729 0.434247 0.717239
0.786457 0.411000 0.719990
0.809101 0.285263 0.718097
0.117580 0.561891 0.683137
0.128958 0.560447 0.685836
0.191871 0.556690 0.695339
0.337850 0.551734 0.703951
0.514731 0.550071 0.708998
0.644644 0.551502 0.712360
0.727925 0.550497 0.715913
0.783321 0.538694 0.720356
0.808159 0.469325 0.722270
0.139780 0.662027 0.675449
0.151394 0.660886 0.677213
0.208580 0.657285 0.684259
0.332710 0.652162 0.693008
0.496112 0.648041 0.701010
0.626966 0.646589 0.706811
0.716189 0.645819 0.712028
0.779698 0.640357 0.718653
0.807638 0.606848 0.724998
0.151699 0.743792 0.672500
0.162264 0.742924 0.673144
0.214264 0.739698 0.676340
0.321671 0.734013 0.682865
0.472355 0.728583 0.689938
0.605949 0.725030 0.697024
0.702298 0.723907 0.703071
0.775563 0.721412 0.712610
0.807810 0.705141 0.726263
0.144014 0.804301 0.675983
0.152857 0.803562 0.675903
0.199582 0.800293 0.676083
0.295674 0.795894 0.677854
0.430548 0.791242 0.681971
0.576635 0.787706 0.686699
0.684362 0.786347 0.692099
0.769257 0.786759 0.698906
0.809329 0.780808 0.723874
0.113095 0.838838 0.660844
0.121767 0.839983 0.660854
0.132689 0.841465 0.661114
0.208507 0.841108 0.685273
0.351195 0.837107 0.683212
0.508896 0.834676 0.683741
0.642789 0.833690 0.685220
0.748408 0.834681 0.687149
0.813390 0.837987 0.722607
0.073304 0.232989 0.762379
0.074768 0.231618 0.763602
0.136933 0.239141 0.763273
0.348031 0.252875 0.763385
0.573477 0.270528 0.763855
0.686294 0.285304 0.764500
0.753107 0.284425 0.765256
0.792104 0.235855 0.766750
0.808638 0.114954 0.759080
0.073994 0.251296 0.762445
0.076239 0.250067 0.763592
0.141992 0.257401 0.763501
0.347836 0.270343 0.763608
0.571099 0.287466 0.764059
0.684841 0.301052 0.764692
0.752298 0.299970 0.765454
0.791812 0.252426 0.766912
0.808694 0.116954 0.759080
0.082741 0.342026 0.762728
0.086752 0.340268 0.763485
0.163987 0.340730 0.763991
0.352464 0.347149 0.764205
0.562374 0.359336 0.764641
0.678601 0.370034 0.765264
0.748641 0.367973 0.766080
0.790349 0.327570 0.767417
0.809318 0.139172 0.759080
0.098247 0.461891 0.762046
0.106995 0.460040 0.762890
0.186637 0.456723 0.764224
0.355698 0.456205 0.764800
0.546735 0.461416 0.765340
0.668998 0.467134 0.766039
0.742848 0.464805 0.766999
0.788374 0.436833 0.768331
0.809313 0.313132 0.766315
0.123316 0.581213 0.759538
0.134118 0.579814 0.760702
0.206825 0.576025 0.763310
0.354711 0.572220 0.764853
0.530909 0.571777 0.765864
0.656436 0.573353 0.766780
0.734604 0.571537 0.767897
0.785818 0.556147 0.769412
0.808681 0.487516 0.768700
0.145199 0.674497 0.753117
0.156466 0.673474 0.755039
0.222022 0.670117 0.760069
0.347405 0.665588 0.763433
0.511702 0.662329 0.765511
0.638787 0.661637 0.767027
0.723546 0.660458 0.768481
0.782732 0.652480 0.770356
0.808379 0.618227 0.770722
0.154494 0.751146 0.742710
0.164703 0.750389 0.744288
0.222087 0.747515 0.750364
0.330525 0.743538 0.758081
0.483495 0.739413 0.762830
0.615884 0.736552 0.765858
0.708749 0.735567 0.768084
0.778652 0.731928 0.770808
0.808592 0.712700 0.772492
0.136605 0.811776 0.734742
0.145554 0.810969 0.735255
0.194100 0.807179 0.737860
0.293469 0.802499 0.743318
0.432256 0.797844 0.751319
0.579866 0.794573 0.758992
0.687368 0.793409 0.763732
0.768927 0.792111 0.766095
0.809850 0.786132 0.773907
0.108809 0.838234 0.716572
0.132157 0.841422 0.717336
0.135705 0.841903 0.722592
0.194566 0.843125 0.731902
0.331456 0.840268 0.733415
0.495942 0.837826 0.736537
0.634800 0.836882 0.740221
0.743238 0.837821 0.742881
0.813526 0.841212 0.775611
0.092116 0.257952 0.804361
0.098146 0.260784 0.804385
0.185038 0.271830 0.804470
0.476957 0.290687 0.804688
0.638648 0.311377 0.805013
0.717154 0.326309 0.805419
0.770758 0.321842 0.806251
0.797934 0.246721 0.807656
0.808466 0.149101 0.798239
0.094961 0.273644 0.804363
0.102391 0.276508 0.804387
0.189617 0.287578 0.804472
0.475881 0.305762 0.804694
0.637463 0.326439 0.805020
0.716583 0.341245 0.805435
0.770448 0.336243 0.806258
0.797806 0.258871 0.807650
0.808466 0.161569 0.804130
0.113859 0.350463 0.804236
0.125214 0.352835 0.804265
0.215111 0.361916 0.804369
0.472674 0.378034 0.804627
0.632425 0.396411 0.804978
0.714032 0.407899 0.805442
0.768950 0.402505 0.806236
0.797158 0.326452 0.807570
0.808467 0.161586 0.804130
0.150762 0.482614 0.804072
0.164187 0.483452 0.804118
0.258449 0.486734 0.804275
0.467755 0.494218 0.804582
0.622930 0.503731 0.804965
0.708852 0.510010 0.805465
0.766064 0.504061 0.806272
0.796075 0.457072 0.807489
0.811020 0.311993 0.808594
0.177790 0.599165 0.804192
0.193351 0.599075 0.804258
0.283618 0.598929 0.804479
0.457160 0.600823 0.804786
0.609301 0.604706 0.805226
0.701239 0.607146 0.805765
0.761950 0.603120 0.806531
0.795160 0.577597 0.807741
0.811772 0.459847 0.810099
0.187894 0.687865 0.804663
0.203071 0.687381 0.804752
0.287488 0.685734 0.805033
0.439019 0.685003 0.805396
0.589346 0.686097 0.805833
0.689259 0.687154 0.806382
0.755782 0.684934 0.807101
0.793887 0.671077 0.808203
0.811935 0.610947 0.810333
0.175423 0.759889 0.805525
0.188653 0.759339 0.805634
0.261486 0.757299 0.805945
0.397879 0.755020 0.806349
0.558551 0.754326 0.806825
0.668054 0.754785 0.807375
0.744778 0.754482 0.808139
0.791898 0.748379 0.809115
0.812309 0.712754 0.810987
0.130336 0.816674 0.804749
0.138354 0.816113 0.805528
0.184355 0.813568 0.806893
0.307194 0.809565 0.807631
0.478002 0.806660 0.808270
0.620572 0.805875 0.808872
0.718235 0.806738 0.809553
0.786323 0.805971 0.810448
0.812912 0.788285 0.811902
0.102073 0.837195 0.754447
0.135945 0.841934 0.766900
0.135946 0.841934 0.766900
0.150008 0.842300 0.766931
0.281568 0.844557 0.793872
0.466820 0.841863 0.810002
0.623853 0.841177 0.811473
0.739035 0.842356 0.812313
0.813694 0.844826 0.812901
