LUTs/negative-superia-reala/SuperiaReala_Modern_Soft.cube
TITLE "Fuji Superia Reala Modern Soft"
# Adobe RGB in/out. REPLACES AgX. Fuji Superia Reala Modern Soft.
LUT_3D_SIZE 33
DOMAIN_MIN 0.0 0.0 0.0
DOMAIN_MAX 1.0 1.0 1.0
0.061901 0.068453 0.087572
0.065744 0.070107 0.089295
0.067176 0.070526 0.089584
0.075144 0.072512 0.090580
0.098992 0.075446 0.091953
0.116641 0.077415 0.093024
0.182421 0.081476 0.094613
0.304481 0.086566 0.097127
0.367868 0.088945 0.098286
0.439627 0.092663 0.099850
0.531788 0.099324 0.102654
0.584162 0.103595 0.104549
0.614717 0.106938 0.106257
0.649619 0.111865 0.108391
0.688321 0.121660 0.111918
0.711947 0.126361 0.114044
0.729579 0.130182 0.116006
0.746862 0.137214 0.118377
0.763417 0.150409 0.121862
0.777725 0.154354 0.124072
0.788965 0.158274 0.126550
0.796587 0.162930 0.130089
0.803908 0.165409 0.134032
0.810544 0.161378 0.138253
0.815018 0.157500 0.144045
0.818780 0.150542 0.152541
0.824090 0.127489 0.167304
0.825788 0.115608 0.245657
0.831545 0.068727 0.566057
0.829171 0.068539 0.561188
0.826808 0.068510 0.556393
0.824456 0.068529 0.551647
0.826684 0.124557 0.643943
0.062675 0.073549 0.088917
0.065035 0.071721 0.088998
0.068741 0.070810 0.089156
0.077527 0.072932 0.090489
0.102596 0.076023 0.092013
0.119308 0.077842 0.093048
0.183233 0.081893 0.094625
0.303125 0.086981 0.097141
0.365508 0.089276 0.098295
0.436768 0.093029 0.099852
0.528837 0.099702 0.102646
0.582074 0.103960 0.104537
0.612673 0.107263 0.106247
0.647698 0.112353 0.108383
0.686539 0.122159 0.111906
0.710807 0.126772 0.114031
0.728567 0.130570 0.115994
0.745975 0.138141 0.118365
0.762650 0.151149 0.121843
0.777046 0.155077 0.124051
0.788531 0.158987 0.126522
0.796211 0.163643 0.130054
0.803581 0.166125 0.133973
0.810279 0.162091 0.138173
0.814787 0.158208 0.143925
0.818578 0.151247 0.152295
0.823909 0.127861 0.166697
0.825633 0.116073 0.241525
0.831417 0.068732 0.565795
0.829054 0.068539 0.560950
0.826701 0.068511 0.556176
0.824358 0.068532 0.551449
0.826593 0.124517 0.643782
0.062891 0.075251 0.089214
0.063719 0.074420 0.089534
0.065907 0.072857 0.089321
0.073800 0.074253 0.090368
0.096288 0.077802 0.091955
0.120590 0.079322 0.093000
0.183412 0.083557 0.094674
0.308887 0.088909 0.097301
0.363388 0.090709 0.098387
0.429756 0.094553 0.099897
0.519937 0.101255 0.102649
0.571778 0.105396 0.104522
0.605746 0.108522 0.106231
0.641026 0.114506 0.108364
0.680256 0.124058 0.111875
0.706746 0.128317 0.113999
0.724944 0.132020 0.115960
0.742798 0.141622 0.118326
0.759897 0.153906 0.121782
0.774605 0.157763 0.123983
0.786971 0.161627 0.126427
0.794862 0.166272 0.129937
0.802405 0.168765 0.133771
0.809326 0.164718 0.137899
0.813959 0.160810 0.143513
0.817852 0.153836 0.151452
0.823261 0.129224 0.164644
0.825077 0.117714 0.229077
0.830958 0.068748 0.564859
0.828635 0.068542 0.560098
0.826318 0.068513 0.555401
0.824006 0.068543 0.550681
0.826268 0.124365 0.643206
0.063686 0.084300 0.090322
0.064439 0.083396 0.090604
0.066827 0.080584 0.090777
0.070434 0.078146 0.090745
0.083002 0.081144 0.092138
0.100749 0.082045 0.093069
0.154595 0.086354 0.094669
0.274727 0.091719 0.097363
0.348546 0.093827 0.098506
0.418770 0.097756 0.100019
0.507807 0.104930 0.102769
0.557615 0.108598 0.104604
0.594878 0.112007 0.106278
0.629739 0.118926 0.108387
0.669223 0.127539 0.111878
0.698223 0.131461 0.113985
0.718333 0.137577 0.115933
0.736962 0.148284 0.118285
0.754831 0.159399 0.121705
0.770101 0.163075 0.123887
0.783356 0.166815 0.126297
0.792374 0.171414 0.129753
0.800240 0.173908 0.133442
0.807573 0.169825 0.137448
0.812437 0.165860 0.142828
0.816520 0.158859 0.150052
0.822072 0.131846 0.161332
0.824058 0.120693 0.210378
0.830126 0.068781 0.563164
0.827874 0.068547 0.558554
0.825620 0.068518 0.553994
0.823366 0.068582 0.549263
0.825676 0.124061 0.642160
0.065015 0.105117 0.092292
0.065697 0.103483 0.092610
0.068417 0.099005 0.092871
0.073098 0.093491 0.093091
0.080192 0.089527 0.093358
0.089014 0.086788 0.093455
0.119466 0.090520 0.094820
0.201666 0.096534 0.097491
0.290439 0.098223 0.098674
0.390201 0.101960 0.100171
0.483389 0.109200 0.103024
0.536538 0.114180 0.104830
0.580289 0.118916 0.106443
0.615268 0.125581 0.108519
0.654282 0.134582 0.112020
0.683406 0.142708 0.114071
0.708570 0.149550 0.115977
0.728225 0.157765 0.118294
0.747208 0.168754 0.121668
0.763293 0.172011 0.123813
0.777394 0.175460 0.126182
0.788621 0.179910 0.129551
0.796980 0.182355 0.133087
0.804937 0.178185 0.136897
0.810157 0.174103 0.141967
0.814530 0.167053 0.148389
0.820296 0.140415 0.157348
0.822540 0.125384 0.192505
0.828908 0.068836 0.560692
0.826759 0.068556 0.556295
0.824597 0.068526 0.551932
0.822426 0.068791 0.547184
0.824804 0.123615 0.640623
0.066134 0.128455 0.093851
0.066770 0.126274 0.094017
0.068977 0.119506 0.094146
0.073033 0.109011 0.094459
0.078400 0.101599 0.094325
0.086350 0.096668 0.094507
0.104668 0.097849 0.095519
0.159537 0.103958 0.098086
0.222843 0.104304 0.098956
0.332611 0.107559 0.100357
0.440367 0.117339 0.103222
0.506466 0.122626 0.105110
0.554930 0.126445 0.106749
0.598611 0.131825 0.108761
0.637594 0.148633 0.112213
0.666427 0.155991 0.114230
0.694073 0.163138 0.116120
0.716465 0.173137 0.118428
0.736721 0.183961 0.121768
0.753839 0.186291 0.123844
0.769121 0.189989 0.126146
0.782450 0.195458 0.129416
0.792490 0.198513 0.132844
0.801039 0.192618 0.136380
0.807043 0.186841 0.141099
0.811824 0.179608 0.146910
0.817883 0.154586 0.153468
0.820490 0.131770 0.175571
0.827312 0.068922 0.557468
0.825294 0.068580 0.553339
0.823251 0.068538 0.549012
0.825749 0.124069 0.544453
0.823655 0.123027 0.638597
0.068226 0.202611 0.096598
0.068795 0.199603 0.096886
0.070902 0.182585 0.097387
0.075116 0.159078 0.097477
0.080691 0.131880 0.097403
0.088740 0.120827 0.097315
0.101371 0.112195 0.097590
0.131147 0.115367 0.098943
0.179382 0.113490 0.099592
0.267954 0.117611 0.100878
0.396672 0.127677 0.103662
0.465247 0.131603 0.105580
0.522384 0.135341 0.107032
0.577055 0.147647 0.109018
0.619318 0.163711 0.112557
0.648712 0.171823 0.114575
0.676300 0.176938 0.116336
0.704660 0.185673 0.118546
0.725452 0.202633 0.121886
0.742771 0.208726 0.123960
0.758511 0.216073 0.126256
0.772915 0.223492 0.129470
0.786501 0.225936 0.132769
0.795825 0.219297 0.136086
0.802821 0.212734 0.140446
0.808301 0.202788 0.145695
0.814737 0.174240 0.150497
0.817850 0.152222 0.163797
0.825362 0.069110 0.553563
0.823499 0.068621 0.549569
0.821597 0.068557 0.545364
0.824217 0.123312 0.541105
0.822236 0.122305 0.636105
0.070329 0.317524 0.099654
0.070879 0.315049 0.099842
0.073612 0.300640 0.100413
0.077512 0.261564 0.100520
0.083143 0.216609 0.100430
0.092698 0.181380 0.100474
0.105825 0.160185 0.100451
0.125455 0.145376 0.100702
0.153158 0.128995 0.100435
0.213679 0.130219 0.101739
0.342653 0.147015 0.104412
0.418665 0.152380 0.106185
0.480983 0.155741 0.107538
0.543618 0.164987 0.109587
0.599070 0.180865 0.112977
0.629429 0.187790 0.114876
0.657432 0.195692 0.116638
0.686980 0.209595 0.118843
0.712955 0.227769 0.122187
0.731228 0.231540 0.124147
0.748216 0.237289 0.126350
0.763530 0.246270 0.129522
0.777679 0.254127 0.132795
0.789521 0.253550 0.136087
0.796982 0.253844 0.140293
0.803654 0.243229 0.145106
0.810627 0.212166 0.149224
0.814467 0.182469 0.158200
0.823099 0.069594 0.548908
0.821404 0.068710 0.544960
0.819661 0.068617 0.541120
0.822416 0.122395 0.537195
0.820568 0.121459 0.633173
0.071593 0.371647 0.101094
0.072112 0.369557 0.101292
0.074091 0.356073 0.101746
0.077531 0.321588 0.102026
0.082518 0.282551 0.102097
0.090404 0.241618 0.102046
0.101707 0.207091 0.102133
0.117375 0.182200 0.102205
0.144961 0.168289 0.102500
0.183402 0.159299 0.102955
0.288396 0.172746 0.105457
0.375967 0.175962 0.106986
0.439038 0.177555 0.108217
0.507558 0.185387 0.110301
0.574216 0.206123 0.113588
0.608678 0.213845 0.115378
0.638159 0.221464 0.117053
0.668509 0.234953 0.119179
0.699660 0.253878 0.122556
0.718637 0.260347 0.124502
0.735889 0.269535 0.126763
0.752720 0.275533 0.129787
0.768243 0.280989 0.132919
0.782509 0.279040 0.136055
0.791730 0.278352 0.140028
0.798600 0.276864 0.144733
0.805933 0.261268 0.149117
0.810114 0.245470 0.157053
0.820801 0.075583 0.545034
0.819056 0.069396 0.539965
0.817478 0.068860 0.536397
0.820378 0.121362 0.532805
0.818675 0.120504 0.629517
0.073498 0.441972 0.103563
0.073926 0.437520 0.103629
0.075516 0.420285 0.103799
0.078652 0.394740 0.104146
0.083196 0.362992 0.104345
0.090953 0.323408 0.104385
0.101314 0.286879 0.104446
0.115822 0.254081 0.104535
0.139352 0.226897 0.104731
0.178079 0.207254 0.105100
0.255740 0.215015 0.107004
0.334854 0.209989 0.107978
0.403689 0.208675 0.109003
0.469229 0.217377 0.111215
0.540948 0.238964 0.114354
0.587252 0.245227 0.116006
0.617896 0.251456 0.117594
0.649511 0.264258 0.119674
0.681788 0.283345 0.123114
0.706211 0.288851 0.124987
0.724325 0.293942 0.127144
0.741442 0.303862 0.130159
0.757384 0.314502 0.133322
0.772548 0.313442 0.136406
0.785298 0.310560 0.140098
0.793264 0.307418 0.144472
0.801400 0.291490 0.148341
0.806412 0.276302 0.154989
0.811355 0.241381 0.164190
0.814402 0.199401 0.201707
0.817538 0.122225 0.496566
0.818138 0.120235 0.530494
0.816588 0.119457 0.625500
0.076405 0.515088 0.107415
0.076729 0.511347 0.107439
0.078031 0.499145 0.107569
0.081495 0.481209 0.107939
0.086716 0.456859 0.108161
0.094293 0.425541 0.108298
0.105483 0.390956 0.108397
0.120888 0.359706 0.108476
0.147914 0.326556 0.108574
0.183344 0.301422 0.108816
0.239414 0.281743 0.109293
0.301028 0.263973 0.109722
0.364377 0.249696 0.110294
0.432745 0.256294 0.112282
0.508705 0.277127 0.115275
0.558334 0.280551 0.116805
0.597398 0.284135 0.118241
0.630244 0.294651 0.120398
0.664012 0.314713 0.123794
0.690329 0.317959 0.125547
0.712175 0.323823 0.127777
0.729841 0.333483 0.130721
0.747009 0.341882 0.133832
0.762809 0.342294 0.136817
0.775973 0.345648 0.140463
0.786882 0.349743 0.144692
0.795930 0.330941 0.148170
0.801943 0.316352 0.153782
0.807619 0.283509 0.160808
0.811200 0.238713 0.180894
0.814801 0.130934 0.432829
0.815735 0.119033 0.533003
0.814342 0.118341 0.532718
0.077930 0.548221 0.109670
0.078273 0.545988 0.109698
0.079595 0.538526 0.109834
0.082463 0.527096 0.110249
0.087291 0.506219 0.110563
0.094598 0.481048 0.110861
0.105339 0.455080 0.111140
0.119273 0.425376 0.111246
0.143002 0.395474 0.111385
0.178595 0.370114 0.111585
0.223741 0.347402 0.111923
0.286997 0.326671 0.112458
0.344381 0.303851 0.112375
0.405066 0.297917 0.113518
0.476338 0.316851 0.116339
0.529136 0.317549 0.117700
0.575690 0.319406 0.119065
0.611175 0.327658 0.121372
0.645990 0.346788 0.124536
0.672864 0.350192 0.126224
0.699463 0.357501 0.128578
0.718724 0.364751 0.131348
0.736119 0.373161 0.134641
0.752240 0.375517 0.137577
0.766792 0.375632 0.140978
0.779224 0.376847 0.144959
0.790302 0.369985 0.148303
0.796696 0.363894 0.153539
0.803102 0.339895 0.159685
0.807536 0.297322 0.170648
0.811711 0.168997 0.316075
0.813210 0.117783 0.527589
0.811972 0.117173 0.530145
0.079306 0.572728 0.111704
0.079598 0.570826 0.111731
0.080709 0.564381 0.111853
0.083083 0.554102 0.112193
0.087831 0.540523 0.112602
0.094652 0.524303 0.112961
0.103986 0.499433 0.113210
0.116746 0.474476 0.113431
0.136768 0.450893 0.113582
0.169260 0.425050 0.113755
0.206020 0.401112 0.114013
0.264469 0.381138 0.114339
0.326368 0.365547 0.114867
0.387426 0.355190 0.115608
0.447496 0.359671 0.117549
0.501120 0.358529 0.118769
0.548395 0.358449 0.120130
0.592986 0.365301 0.122494
0.628468 0.379105 0.125602
0.655789 0.380226 0.127220
0.682921 0.385009 0.129394
0.707603 0.393067 0.132150
0.725484 0.402617 0.135685
0.742336 0.402811 0.138357
0.757159 0.406398 0.141740
0.770124 0.411367 0.145690
0.784005 0.402487 0.148658
0.791783 0.394571 0.153383
0.798570 0.380224 0.158979
0.803486 0.360025 0.167282
0.807335 0.321356 0.192476
0.810606 0.116501 0.522052
0.809518 0.115878 0.528488
0.081066 0.603336 0.114307
0.081320 0.601691 0.114333
0.082278 0.596054 0.114447
0.084785 0.586794 0.114741
0.089601 0.575016 0.115249
0.095895 0.559965 0.115602
0.104775 0.543331 0.115880
0.117169 0.526226 0.116154
0.135954 0.503494 0.116383
0.166335 0.481001 0.116546
0.199334 0.460828 0.116731
0.255147 0.443409 0.117048
0.312227 0.423811 0.117386
0.370750 0.408255 0.117907
0.431440 0.410155 0.119697
0.475992 0.397005 0.120224
0.524443 0.393338 0.121519
0.572780 0.398400 0.123662
0.611354 0.411541 0.126722
0.639341 0.412096 0.128464
0.666951 0.415738 0.130501
0.694467 0.423538 0.133093
0.715309 0.431803 0.136770
0.732208 0.433902 0.139414
0.747595 0.438327 0.142684
0.761740 0.441225 0.146353
0.775857 0.437336 0.149387
0.786198 0.434948 0.153914
0.793829 0.419356 0.158755
0.799457 0.397423 0.165291
0.804063 0.363730 0.180723
0.806842 0.309892 0.293960
0.808433 0.237268 0.526469
0.083441 0.641089 0.117660
0.083772 0.639663 0.117687
0.085016 0.634729 0.117798
0.087544 0.626439 0.118066
0.092688 0.615985 0.118625
0.098678 0.602062 0.118966
0.107820 0.586786 0.119356
0.120440 0.570317 0.119662
0.140680 0.553859 0.120032
0.171174 0.537793 0.120316
0.205804 0.522439 0.120652
0.260202 0.503029 0.120932
0.316299 0.486104 0.121375
0.371851 0.471708 0.121858
0.419319 0.459856 0.122539
0.462194 0.447181 0.122847
0.503058 0.434479 0.123289
0.549910 0.435397 0.125050
0.595551 0.446380 0.128176
0.623428 0.445661 0.129745
0.651521 0.447804 0.131722
0.679703 0.453244 0.134600
0.705331 0.458859 0.138102
0.722391 0.461011 0.140654
0.738480 0.463361 0.143707
0.752919 0.467770 0.147343
0.767750 0.465427 0.150397
0.779310 0.461990 0.154508
0.788994 0.455650 0.159090
0.794985 0.446028 0.164810
0.800251 0.413562 0.175211
0.803756 0.363473 0.217828
0.805889 0.249800 0.513972
0.085152 0.657718 0.119441
0.085447 0.656943 0.119465
0.086548 0.654240 0.119588
0.088754 0.649605 0.119898
0.093338 0.641868 0.120520
0.099407 0.629624 0.121094
0.108525 0.615864 0.121771
0.119702 0.600201 0.122086
0.137827 0.584414 0.122457
0.166824 0.569003 0.122887
0.196448 0.553909 0.123137
0.246731 0.539991 0.123461
0.299488 0.527436 0.123849
0.357190 0.513065 0.124297
0.406766 0.499569 0.124813
0.449397 0.488299 0.125492
0.489267 0.475784 0.125766
0.532540 0.470177 0.126960
0.580599 0.475417 0.129800
0.608718 0.473824 0.131259
0.636767 0.474640 0.133027
0.665370 0.479366 0.136264
0.692854 0.484528 0.139639
0.713084 0.485875 0.142012
0.729483 0.488813 0.144963
0.744501 0.493432 0.148466
0.759860 0.491411 0.151543
0.771826 0.491185 0.155599
0.783507 0.485264 0.159767
0.790909 0.474237 0.164585
0.796421 0.458020 0.173157
0.800139 0.433527 0.196448
0.803066 0.314794 0.456953
0.086688 0.671467 0.121580
0.086953 0.670792 0.121610
0.087937 0.668426 0.121729
0.090098 0.664316 0.121998
0.094089 0.658777 0.122524
0.100335 0.652036 0.123204
0.107928 0.642366 0.123725
0.118814 0.628188 0.124225
0.135362 0.613326 0.124661
0.162178 0.598326 0.125059
0.187801 0.583742 0.125447
0.235108 0.569788 0.125779
0.288086 0.556817 0.126108
0.344441 0.545273 0.126581
0.394915 0.534874 0.127135
0.433375 0.525940 0.127774
0.477358 0.516300 0.128589
0.521022 0.509217 0.129763
0.564558 0.509421 0.132016
0.595010 0.502731 0.132792
0.622976 0.502897 0.134974
0.651654 0.506671 0.138081
0.679555 0.511440 0.141354
0.704033 0.512139 0.143554
0.720845 0.515290 0.146405
0.736495 0.519223 0.149910
0.751911 0.519000 0.152992
0.764723 0.518282 0.156739
0.777027 0.514456 0.160694
0.786508 0.508190 0.165167
0.792675 0.492174 0.172102
0.796932 0.468241 0.187466
0.799844 0.430967 0.313958
0.088583 0.686779 0.124229
0.088825 0.686192 0.124257
0.089894 0.684126 0.124365
0.092009 0.680500 0.124604
0.095621 0.675511 0.125059
0.102249 0.669610 0.125841
0.108929 0.662050 0.126254
0.120290 0.654017 0.127006
0.136190 0.644641 0.127566
0.161216 0.630242 0.128026
0.185059 0.616114 0.128547
0.230706 0.602324 0.128997
0.283889 0.589377 0.129494
0.336225 0.577324 0.129884
0.384760 0.566564 0.130466
0.423956 0.556947 0.131047
0.467762 0.548539 0.131701
0.509425 0.541550 0.132534
0.552909 0.540827 0.135247
0.585514 0.533698 0.135732
0.610056 0.529656 0.137027
0.638806 0.531844 0.140040
0.666813 0.534704 0.143206
0.692276 0.534757 0.145259
0.712581 0.536863 0.148004
0.728726 0.539397 0.151688
0.744434 0.539504 0.154591
0.757751 0.539436 0.158134
0.770403 0.538686 0.161990
0.781147 0.533334 0.165895
0.788974 0.525628 0.172275
0.793533 0.510866 0.183988
0.796964 0.474000 0.238505
0.091339 0.703379 0.127676
0.091608 0.702872 0.127707
0.092601 0.701083 0.127827
0.094537 0.697915 0.128085
0.098218 0.693485 0.128567
0.104503 0.688121 0.129406
0.111761 0.681494 0.130028
0.122742 0.674125 0.130799
0.138999 0.666137 0.131418
0.164643 0.657829 0.132057
0.189029 0.649269 0.132559
0.233882 0.637700 0.133131
0.284147 0.624786 0.133742
0.335807 0.612711 0.134396
0.382440 0.601428 0.135025
0.422468 0.591413 0.135905
0.464515 0.582525 0.136762
0.504742 0.574552 0.137651
0.542250 0.568024 0.138837
0.575722 0.560246 0.139166
0.601476 0.554834 0.140153
0.626745 0.552514 0.142105
0.654769 0.554857 0.145140
0.680411 0.554563 0.147084
0.704496 0.556050 0.149874
0.721227 0.558533 0.153641
0.737320 0.558498 0.156330
0.750950 0.559333 0.159781
0.764403 0.558144 0.163269
0.775505 0.555133 0.167030
0.785102 0.549174 0.173167
0.790480 0.537363 0.182197
0.794107 0.518388 0.211035
0.092578 0.715400 0.129564
0.092827 0.714949 0.129593
0.093741 0.713352 0.129706
0.095581 0.710504 0.129946
0.099013 0.706467 0.130384
0.104658 0.701461 0.131133
0.112304 0.695519 0.131915
0.121677 0.688609 0.132556
0.137606 0.681251 0.133372
0.161800 0.673463 0.134314
0.183428 0.665394 0.135000
0.223043 0.657371 0.135761
0.272049 0.649515 0.136503
0.319941 0.639417 0.137203
0.367728 0.628207 0.137933
0.411845 0.617759 0.138632
0.451178 0.608543 0.139523
0.491018 0.600350 0.140451
0.529303 0.592985 0.141370
0.565041 0.586922 0.142548
0.593951 0.580683 0.143393
0.618891 0.577743 0.145244
0.643857 0.575848 0.147302
0.669150 0.574805 0.149037
0.694546 0.575859 0.152099
0.713924 0.577874 0.155699
0.730397 0.577853 0.158228
0.744500 0.578915 0.161554
0.758404 0.578291 0.164823
0.769990 0.576430 0.168714
0.780397 0.571052 0.174262
0.787370 0.563078 0.182231
0.791427 0.546440 0.200929
0.093923 0.727247 0.131610
0.094154 0.726849 0.131638
0.095002 0.725436 0.131747
0.096917 0.722899 0.131973
0.100059 0.719264 0.132378
0.105263 0.714673 0.133057
0.113451 0.709322 0.134298
0.121707 0.702958 0.135039
0.138337 0.696174 0.136295
0.158611 0.688835 0.137017
0.183290 0.681328 0.137936
0.218600 0.673711 0.138800
0.264109 0.666174 0.139573
0.309145 0.658823 0.140254
0.358445 0.651904 0.141048
0.404014 0.644846 0.141821
0.439788 0.635276 0.142586
0.479501 0.626714 0.143475
0.519263 0.619184 0.144460
0.553370 0.612415 0.145419
0.586902 0.606773 0.146583
0.611448 0.602816 0.148316
0.636401 0.600491 0.150631
0.659304 0.596290 0.151772
0.684078 0.595946 0.154410
0.706971 0.597652 0.157921
0.723768 0.597540 0.160275
0.738436 0.598286 0.163392
0.752590 0.598481 0.166565
0.764836 0.596730 0.170576
0.775701 0.593458 0.175890
0.783903 0.585895 0.182693
0.788849 0.572645 0.196528
0.095632 0.738932 0.134341
0.095889 0.738586 0.134379
0.096831 0.737352 0.134522
0.098640 0.735127 0.134818
0.101548 0.731912 0.135338
0.106502 0.727793 0.136195
0.114782 0.722955 0.137561
0.122963 0.717250 0.138373
0.137632 0.710976 0.139462
0.159050 0.704271 0.140441
0.183292 0.697233 0.141438
0.213777 0.690131 0.142257
0.258501 0.683006 0.143141
0.302991 0.675952 0.143957
0.353011 0.669143 0.144685
0.398570 0.662816 0.145571
0.432181 0.656855 0.146370
0.471832 0.651385 0.147230
0.510352 0.646393 0.148136
0.545583 0.639521 0.149247
0.579966 0.633334 0.150498
0.604354 0.628090 0.151911
0.629145 0.624949 0.154238
0.652095 0.620509 0.155226
0.675189 0.617565 0.157152
0.699265 0.617601 0.160199
0.717413 0.617531 0.162433
0.732635 0.618087 0.165414
0.747142 0.618490 0.168822
0.759828 0.617351 0.172777
0.771301 0.614787 0.177674
0.780087 0.608899 0.183808
0.786376 0.598390 0.194819
0.097380 0.750378 0.137443
0.097622 0.750073 0.137481
0.098510 0.748987 0.137622
0.100209 0.747021 0.137910
0.103065 0.744156 0.138408
0.107693 0.740440 0.139218
0.115406 0.735987 0.140491
0.124429 0.730860 0.141592
0.137948 0.725103 0.142556
0.160697 0.718933 0.143826
0.183188 0.712375 0.144636
0.212259 0.705693 0.145641
0.256692 0.698998 0.146697
0.297110 0.692311 0.147497
0.347622 0.685758 0.148266
0.391465 0.679537 0.149180
0.425207 0.673713 0.150309
0.465023 0.668278 0.151410
0.502546 0.663280 0.152524
0.537999 0.658719 0.153700
0.572132 0.654781 0.154992
0.598491 0.651280 0.156337
0.622053 0.648263 0.157753
0.645099 0.644683 0.158632
0.668228 0.641257 0.160449
0.691281 0.639254 0.162971
0.711217 0.637612 0.164610
0.726992 0.637961 0.167527
0.742119 0.638408 0.171474
0.755104 0.637879 0.175243
0.767141 0.635789 0.179614
0.776407 0.631658 0.185418
0.783433 0.621771 0.194224
0.098148 0.761222 0.139262
0.098377 0.760948 0.139297
0.099213 0.759969 0.139431
0.100807 0.758186 0.139701
0.103545 0.755568 0.140166
0.107834 0.752129 0.140919
0.114902 0.747926 0.142098
0.124656 0.743107 0.143486
0.136479 0.737776 0.144335
0.158177 0.731951 0.145662
0.179981 0.725835 0.146583
0.207828 0.719421 0.147707
0.245909 0.713103 0.148617
0.289472 0.706740 0.149822
0.340597 0.700428 0.150983
0.380053 0.694373 0.151960
0.416733 0.688667 0.153101
0.454693 0.683297 0.154220
0.491721 0.678339 0.155392
0.528130 0.673787 0.156545
0.561730 0.669688 0.157783
0.591254 0.666103 0.159054
0.614552 0.663000 0.160457
0.638292 0.660324 0.161920
0.661360 0.657861 0.163663
0.684591 0.656286 0.166102
0.706262 0.654650 0.167343
0.721482 0.653581 0.170342
0.737203 0.653827 0.174056
0.750729 0.653758 0.177927
0.763209 0.652880 0.181859
0.773022 0.650646 0.186918
0.780534 0.645495 0.194664
0.099195 0.770322 0.141394
0.099411 0.770083 0.141428
0.100198 0.769227 0.141557
0.101695 0.767665 0.141816
0.104374 0.765358 0.142260
0.108361 0.762300 0.142970
0.114945 0.758512 0.144073
0.125535 0.754053 0.145758
0.136481 0.749260 0.146527
0.155571 0.743936 0.147708
0.179034 0.738267 0.149005
0.201198 0.732366 0.150207
0.240898 0.726353 0.151570
0.285234 0.720343 0.152944
0.328251 0.714442 0.154064
0.369994 0.708648 0.155242
0.410478 0.703073 0.156433
0.446304 0.697798 0.157643
0.483208 0.692907 0.158793
0.520144 0.688413 0.160013
0.552673 0.684319 0.161213
0.584898 0.680664 0.162472
0.607649 0.677398 0.163757
0.631105 0.674655 0.165227
0.654623 0.672282 0.166744
0.677862 0.670364 0.169755
0.701710 0.668848 0.171276
0.717178 0.667205 0.173896
0.732453 0.666262 0.176748
0.746639 0.666207 0.180281
0.759589 0.665794 0.184279
0.769906 0.664097 0.188747
0.777819 0.660124 0.195571
0.100266 0.775780 0.143522
0.100470 0.775653 0.143557
0.101210 0.775196 0.143685
0.102717 0.774358 0.143940
0.105256 0.773114 0.144373
0.108973 0.771449 0.145061
0.115176 0.768153 0.146120
0.124879 0.764106 0.147728
0.137283 0.759734 0.148886
0.154328 0.754949 0.150211
0.179559 0.749678 0.152197
0.197878 0.744345 0.153273
0.239023 0.738651 0.154901
0.279044 0.733134 0.156100
0.321741 0.727521 0.157529
0.363454 0.722038 0.158774
0.404307 0.716789 0.160000
0.437422 0.711718 0.161250
0.474847 0.706917 0.162476
0.511600 0.702487 0.163718
0.544535 0.698431 0.164982
0.577731 0.694773 0.166267
0.601647 0.691485 0.167646
0.624480 0.688564 0.169426
0.647765 0.686156 0.171505
0.671191 0.684071 0.173631
0.695465 0.682753 0.175033
0.713167 0.680928 0.177620
0.728941 0.679813 0.180155
0.742862 0.678667 0.182873
0.756188 0.678356 0.186577
0.767038 0.677259 0.190759
0.775536 0.673962 0.196839
0.100165 0.782404 0.144184
0.100353 0.782290 0.144215
0.101039 0.781878 0.144333
0.102403 0.781119 0.144570
0.104760 0.779980 0.144977
0.108221 0.778434 0.145634
0.113878 0.776451 0.146667
0.122845 0.774000 0.148271
0.136154 0.771279 0.150153
0.151323 0.766835 0.151372
0.173462 0.761830 0.153218
0.192949 0.756679 0.154816
0.228242 0.751365 0.156277
0.270388 0.745957 0.157801
0.310387 0.740557 0.159262
0.353937 0.735351 0.160583
0.397524 0.730219 0.161988
0.428227 0.725318 0.163289
0.465152 0.720694 0.164539
0.500794 0.716358 0.165802
0.535021 0.712369 0.167079
0.567901 0.708741 0.168752
0.595193 0.705491 0.170535
0.618101 0.702618 0.172352
