LUTs/negative-superia-reala/SuperiaReala_Modern_Soft.cube
TITLE "Fuji Superia Reala Modern Soft"
# Adobe RGB in/out. REPLACES AgX. Fuji Superia Reala Modern Soft.
LUT_3D_SIZE 5
DOMAIN_MIN 0.0 0.0 0.0
DOMAIN_MAX 1.0 1.0 1.0
0.061901 0.068453 0.087572
0.367868 0.088945 0.098286
0.729579 0.130182 0.116006
0.815018 0.157500 0.144045
0.826684 0.124557 0.643943
0.071593 0.371647 0.101094
0.144961 0.168289 0.102500
0.638159 0.221464 0.117053
0.791730 0.278352 0.140028
0.818675 0.120504 0.629517
0.086688 0.671467 0.121580
0.135362 0.613326 0.124661
0.477358 0.516300 0.128589
0.720845 0.515290 0.146405
0.799844 0.430967 0.313958
0.099195 0.770322 0.141394
0.136481 0.749260 0.146527
0.410478 0.703073 0.156433
0.654623 0.672282 0.166744
0.777819 0.660124 0.195571
0.092960 0.787699 0.136194
0.148147 0.790171 0.134865
0.303695 0.782486 0.162211
0.596213 0.767463 0.182593
0.769868 0.762602 0.196393
0.065529 0.091600 0.305770
0.297550 0.111048 0.591397
0.725932 0.167357 0.480904
0.809744 0.178430 0.507787
0.823692 0.123046 0.638679
0.082730 0.283209 0.235550
0.160602 0.161764 0.181322
0.633369 0.266227 0.264562
0.787557 0.303964 0.343037
0.815677 0.119002 0.623751
0.111709 0.652987 0.279305
0.183397 0.595624 0.245296
0.509145 0.512943 0.213722
0.722819 0.526066 0.247244
0.796790 0.438989 0.499329
0.122163 0.761259 0.270972
0.180313 0.742517 0.267565
0.448450 0.700797 0.258341
0.668828 0.673434 0.260181
0.776428 0.659755 0.290349
0.092588 0.789940 0.225061
0.146486 0.792310 0.220317
0.335211 0.781282 0.231231
0.605963 0.766891 0.265689
0.770268 0.762056 0.278122
0.071508 0.181370 0.682496
0.346203 0.234661 0.760586
0.741393 0.321582 0.756864
0.810524 0.281941 0.722394
0.822351 0.122363 0.709590
0.100100 0.455798 0.681932
0.316112 0.411784 0.703933
0.662305 0.388889 0.685784
0.787991 0.380310 0.682850
0.813846 0.118095 0.688992
0.129639 0.618714 0.576952
0.215507 0.576662 0.548176
0.503791 0.503394 0.502125
0.722117 0.540361 0.569241
0.792909 0.470817 0.650324
0.165887 0.744838 0.574851
0.240006 0.729928 0.561196
0.488527 0.695347 0.532176
0.678972 0.673301 0.519595
0.772722 0.661947 0.586654
0.117433 0.791142 0.610756
0.131227 0.789933 0.605748
0.388859 0.778097 0.545738
0.624784 0.765588 0.532315
0.769991 0.762171 0.533720
0.079255 0.400491 0.817592
0.290537 0.432230 0.834439
0.739036 0.478167 0.835531
0.819426 0.433159 0.801095
0.825819 0.124129 0.762268
0.107771 0.555778 0.822560
0.351423 0.558052 0.833421
0.707403 0.541623 0.814090
0.799276 0.490285 0.781105
0.817042 0.119621 0.750911
0.153069 0.649585 0.744239
0.272412 0.630861 0.743757
0.583882 0.597514 0.737353
0.736836 0.587015 0.735383
0.794203 0.522849 0.734247
0.178569 0.736210 0.711854
0.259910 0.724799 0.705691
0.501008 0.696795 0.693774
0.674934 0.674474 0.683578
0.770832 0.669995 0.713752
0.117134 0.786277 0.678096
0.133350 0.785796 0.674708
0.387611 0.776758 0.681105
0.626610 0.766418 0.672676
0.769217 0.765878 0.702047
0.157692 0.518665 0.879546
0.421773 0.532848 0.879598
0.788106 0.568492 0.879860
0.838639 0.539443 0.864252
0.830444 0.193524 0.829967
0.239066 0.602164 0.879485
0.468363 0.611661 0.879550
0.781292 0.634083 0.877971
0.822437 0.572146 0.851785
0.821947 0.204192 0.824150
0.306431 0.696483 0.845721
0.441355 0.689728 0.842131
0.687370 0.675663 0.830389
0.779124 0.655622 0.814219
0.801844 0.525064 0.801444
0.203211 0.744886 0.799855
0.317307 0.737650 0.796207
0.585875 0.722188 0.786615
0.725857 0.711676 0.779147
0.778439 0.678146 0.777410
0.105765 0.780567 0.742451
0.133206 0.782026 0.749317
0.291731 0.778994 0.764110
0.610329 0.771807 0.771343
0.769058 0.772102 0.769936
