LUTs/negative-superia-reala/SuperiaReala_Classic_Normal.cube
TITLE "Fuji Superia Reala Classic Normal"
# Adobe RGB in/out. REPLACES AgX. Fuji Superia Reala Classic Normal.
LUT_3D_SIZE 9
DOMAIN_MIN 0.0 0.0 0.0
DOMAIN_MAX 1.0 1.0 1.0
0.074318 0.073381 0.089635
0.092580 0.080402 0.090599
0.184660 0.088596 0.091768
0.396082 0.100309 0.093766
0.607957 0.114766 0.097420
0.737303 0.130254 0.102782
0.804708 0.134273 0.113895
0.847063 0.073864 0.421147
0.854693 0.125048 0.544329
0.076363 0.101552 0.090766
0.089257 0.097188 0.091315
0.194569 0.099643 0.092602
0.385352 0.110737 0.094594
0.589100 0.126611 0.098007
0.731584 0.139899 0.103343
0.802443 0.143178 0.113740
0.847065 0.074045 0.421165
0.854694 0.125051 0.544328
0.079216 0.184119 0.092506
0.086043 0.173012 0.093183
0.139476 0.155788 0.094556
0.324481 0.159889 0.097120
0.541013 0.174993 0.100643
0.700426 0.195444 0.106536
0.790026 0.202927 0.115745
0.847496 0.082354 0.423225
0.854694 0.125051 0.544327
0.083643 0.342083 0.095417
0.089081 0.330851 0.096323
0.125778 0.304012 0.098433
0.256004 0.281347 0.101401
0.464884 0.282027 0.106007
0.662219 0.294714 0.112990
0.768940 0.309013 0.122306
0.830705 0.291359 0.136947
0.854695 0.125083 0.442324
0.088754 0.511535 0.100029
0.093662 0.503493 0.101039
0.123968 0.483062 0.104186
0.225304 0.458240 0.109377
0.399834 0.437523 0.114646
0.601976 0.436133 0.122630
0.743795 0.444637 0.131601
0.820609 0.443347 0.146099
0.855835 0.360129 0.266154
0.095181 0.651581 0.107352
0.099879 0.646717 0.108672
0.128746 0.633138 0.113316
0.211530 0.614394 0.119641
0.359217 0.594731 0.126375
0.547931 0.581252 0.134657
0.713217 0.580482 0.146283
0.808316 0.583627 0.160092
0.853684 0.549133 0.191095
0.101756 0.743767 0.116843
0.106051 0.741564 0.118149
0.133308 0.733990 0.123507
0.206136 0.722854 0.130524
0.335580 0.711386 0.140738
0.508751 0.702653 0.151169
0.680777 0.697937 0.162473
0.793749 0.698588 0.177280
0.851738 0.689560 0.198211
0.107049 0.818535 0.124236
0.110057 0.816914 0.124979
0.137300 0.807551 0.131797
0.201576 0.797523 0.142693
0.316955 0.787043 0.154551
0.474519 0.778570 0.166893
0.651394 0.774075 0.179946
0.778094 0.774389 0.193242
0.851942 0.774373 0.210051
0.103503 0.831371 0.123216
0.103505 0.831372 0.123217
0.158530 0.838424 0.123252
0.158533 0.839463 0.140814
0.283625 0.839290 0.156881
0.433143 0.835147 0.173181
0.608486 0.833117 0.187536
0.755981 0.833852 0.199878
0.858003 0.837495 0.209989
0.075238 0.080777 0.100377
0.086057 0.084377 0.154695
0.152472 0.093889 0.112328
0.395497 0.105960 0.110105
0.614468 0.120503 0.108825
0.738366 0.133719 0.112777
0.804537 0.136615 0.125667
0.847065 0.074040 0.421167
0.854694 0.125051 0.544330
0.079014 0.102046 0.100861
0.100455 0.105779 0.106844
0.179415 0.106931 0.105490
0.378922 0.119592 0.108947
0.597574 0.133046 0.109530
0.733284 0.143793 0.113330
0.802405 0.146301 0.124624
0.847066 0.074221 0.421195
0.854694 0.125051 0.544328
0.083644 0.184183 0.102951
0.092466 0.176700 0.103808
0.161089 0.165898 0.106299
0.348983 0.173737 0.110861
0.549562 0.186971 0.113174
0.705945 0.202635 0.117169
0.791080 0.207132 0.125881
0.847621 0.083612 0.424126
0.854694 0.125051 0.544327
0.088309 0.341455 0.106777
0.095547 0.332568 0.108322
0.140750 0.310963 0.111791
0.282761 0.292933 0.115739
0.486045 0.294651 0.120253
0.668795 0.304342 0.124628
0.771747 0.314776 0.132636
0.830899 0.294561 0.149370
0.854694 0.125061 0.544324
0.093022 0.509190 0.111000
0.099419 0.502482 0.112544
0.134818 0.484687 0.117291
0.243272 0.463267 0.123188
0.419146 0.446132 0.129076
0.614222 0.443981 0.135664
0.747578 0.450698 0.145003
0.821532 0.446526 0.158590
0.855790 0.362711 0.305339
0.099025 0.649606 0.117044
0.103971 0.645246 0.118699
0.136055 0.632817 0.124435
0.223269 0.615567 0.131166
0.372829 0.598119 0.140502
0.559790 0.585914 0.150294
0.718845 0.584742 0.160466
0.810023 0.586419 0.173798
0.853737 0.550486 0.206008
0.104609 0.742938 0.125737
0.109515 0.740837 0.127054
0.138464 0.733658 0.133564
0.214325 0.723076 0.143505
0.344813 0.712192 0.154256
0.518930 0.703946 0.165491
0.686497 0.700163 0.178312
0.796291 0.700362 0.191297
0.851991 0.690230 0.210871
0.108462 0.817731 0.129446
0.112049 0.816143 0.130805
0.140574 0.807159 0.141909
0.206966 0.797478 0.154146
0.323185 0.787364 0.167246
0.481503 0.779183 0.180978
0.657091 0.774883 0.194009
0.780851 0.775183 0.207190
0.852352 0.774609 0.222217
0.103504 0.836163 0.207169
0.103508 0.836164 0.207170
0.158530 0.843007 0.207172
0.158535 0.843006 0.207161
0.286757 0.839354 0.166339
0.437124 0.835255 0.185037
0.612255 0.833268 0.199857
0.757960 0.833995 0.212288
0.858351 0.837494 0.221256
0.076379 0.089739 0.158657
0.092329 0.093864 0.360421
0.154100 0.100581 0.333566
0.386546 0.114370 0.302364
0.613392 0.131761 0.282048
0.738540 0.144778 0.297493
0.803703 0.146220 0.345102
0.847298 0.080225 0.434465
0.854694 0.125051 0.544351
0.080106 0.110067 0.164148
0.095344 0.110268 0.212918
0.172085 0.115094 0.243722
0.374794 0.130290 0.242899
0.600779 0.144963 0.243791
0.734584 0.159396 0.266684
0.801908 0.159312 0.315798
0.847389 0.081386 0.436288
0.854694 0.125051 0.544331
0.087716 0.187353 0.163892
0.099253 0.183552 0.166934
0.196799 0.195929 0.195545
0.357277 0.191751 0.195050
0.562023 0.208574 0.206747
0.714487 0.223621 0.223772
0.793143 0.223149 0.244954
0.846933 0.111607 0.435829
0.854694 0.125051 0.544328
0.097076 0.342307 0.175090
0.106474 0.336654 0.176601
0.165217 0.322435 0.181729
0.318315 0.311971 0.189105
0.519536 0.320700 0.200791
0.683674 0.332390 0.214357
0.777913 0.335841 0.224958
0.831502 0.308430 0.274699
0.854694 0.125053 0.544331
0.105924 0.510418 0.184802
0.114855 0.505508 0.186382
0.161556 0.491729 0.191390
0.284485 0.475584 0.198193
0.461271 0.465346 0.206047
0.647625 0.467806 0.218549
0.757481 0.471647 0.226954
0.824190 0.461135 0.249732
0.855619 0.372865 0.441738
0.115211 0.649573 0.197214
0.122243 0.646201 0.198640
0.163825 0.636056 0.204047
0.263192 0.622202 0.211219
0.417037 0.609666 0.219269
0.596219 0.601480 0.228262
0.735488 0.601165 0.236518
0.814845 0.599273 0.254735
0.853914 0.555828 0.304197
0.120981 0.741632 0.204017
0.127969 0.739910 0.205536
0.163216 0.734016 0.211658
0.248057 0.725145 0.220010
0.381919 0.715980 0.229111
0.551489 0.709104 0.238753
0.706392 0.705936 0.250325
0.804319 0.705933 0.267436
0.852773 0.693043 0.282170
0.122356 0.812046 0.213073
0.128342 0.810806 0.214892
0.162079 0.804976 0.224213
0.235080 0.797312 0.233964
0.353173 0.788787 0.244679
0.513360 0.781728 0.256702
0.675986 0.778130 0.269413
0.791139 0.778313 0.282601
0.853517 0.775619 0.288485
0.103508 0.836164 0.207178
0.158528 0.843007 0.207177
0.158530 0.843007 0.207174
0.158568 0.843008 0.207176
0.304607 0.839313 0.225456
0.456127 0.835556 0.248789
0.629095 0.833745 0.265730
0.766400 0.834452 0.279766
0.859033 0.837464 0.287683
0.077706 0.103282 0.289932
0.088108 0.109553 0.463574
0.166481 0.115614 0.500420
0.368295 0.129218 0.491874
0.601454 0.145352 0.491185
0.734617 0.161851 0.499334
0.801247 0.164234 0.522608
0.841653 0.116892 0.569014
0.854694 0.125051 0.574577
0.081020 0.125622 0.303304
0.092197 0.128349 0.394924
0.178083 0.132911 0.466207
0.362428 0.143522 0.465377
0.591645 0.162547 0.470768
0.731207 0.176988 0.483849
0.799622 0.177739 0.513770
0.841052 0.125862 0.565361
0.854694 0.125051 0.574903
0.091139 0.207488 0.300781
0.102869 0.205784 0.312338
0.185775 0.202988 0.357916
0.353911 0.209670 0.384431
0.561987 0.226615 0.406397
0.714354 0.241940 0.428849
0.792241 0.241608 0.467694
0.836077 0.202939 0.536151
0.854694 0.125051 0.576088
0.103452 0.348346 0.301308
0.115023 0.344848 0.303484
0.179756 0.335424 0.314083
0.350551 0.346855 0.348095
0.528968 0.340659 0.353523
0.689530 0.351940 0.374151
0.780165 0.354475 0.406585
0.831171 0.326412 0.479308
0.854694 0.125062 0.576444
0.117923 0.512602 0.314316
0.128756 0.508937 0.315094
0.183698 0.498844 0.319817
0.311859 0.486873 0.328197
0.488342 0.480283 0.339155
0.661888 0.484458 0.355055
0.763748 0.487721 0.374176
0.825347 0.473864 0.415413
0.855305 0.390941 0.559417
0.131014 0.649481 0.326348
0.140532 0.646872 0.327040
0.189214 0.638921 0.330730
0.295037 0.627902 0.336636
0.449543 0.618255 0.344877
0.623068 0.613151 0.354934
0.745237 0.614038 0.369136
0.818062 0.609753 0.389181
0.853951 0.565774 0.504475
0.139779 0.740748 0.339426
0.148376 0.739342 0.340070
0.190030 0.734539 0.343426
0.280968 0.727318 0.348896
0.417213 0.719860 0.356102
0.582197 0.714409 0.364894
0.723962 0.712073 0.375037
0.809797 0.711418 0.388343
0.853356 0.698144 0.438482
0.139545 0.809508 0.354939
0.146646 0.808489 0.355394
0.184916 0.804003 0.358707
0.262832 0.797589 0.363456
0.384057 0.790470 0.370079
0.541749 0.784615 0.377943
0.694124 0.781702 0.387019
0.800082 0.781923 0.397277
0.854526 0.777566 0.416866
0.124698 0.841099 0.416255
0.158521 0.845044 0.416255
0.158530 0.845045 0.416253
0.206117 0.845465 0.358535
0.334384 0.838817 0.388027
0.483933 0.835830 0.394383
0.653295 0.834397 0.402570
0.777804 0.835088 0.411468
0.859594 0.837587 0.416955
0.079188 0.125775 0.452585
0.084858 0.130251 0.532794
0.169020 0.138997 0.597716
0.359567 0.151476 0.598722
0.586115 0.169201 0.599649
0.728736 0.185742 0.605843
0.797982 0.188812 0.616906
0.838096 0.146223 0.635621
0.854694 0.125051 0.654718
0.081835 0.144281 0.463249
0.088897 0.148346 0.523534
0.174177 0.156809 0.587526
0.357058 0.169960 0.591338
0.578464 0.186483 0.593602
0.725042 0.201611 0.601266
0.796511 0.203195 0.613781
0.837602 0.158308 0.634133
0.854694 0.125051 0.652146
0.092728 0.231773 0.467433
0.103147 0.231421 0.487778
0.182766 0.231157 0.543489
0.353957 0.237315 0.562203
0.555545 0.250912 0.570291
0.711063 0.267014 0.582207
0.790181 0.267402 0.599720
0.834420 0.231511 0.625214
0.854694 0.125054 0.643986
0.108981 0.370414 0.460704
0.120752 0.368007 0.465674
0.189810 0.361941 0.489174
0.344493 0.357959 0.516912
0.529991 0.362521 0.532381
0.690628 0.373971 0.549876
0.779935 0.376332 0.572453
0.830447 0.349466 0.607122
0.856644 0.183292 0.644059
0.126993 0.519657 0.461660
0.139288 0.517042 0.462993
0.198501 0.509395 0.470319
0.326929 0.500378 0.484322
0.512362 0.506103 0.510959
0.667729 0.501281 0.519209
0.766550 0.504011 0.539431
0.825541 0.489702 0.575779
0.854887 0.414851 0.639503
0.144795 0.652655 0.471876
0.155550 0.650554 0.472223
0.209308 0.644108 0.475147
0.316366 0.635204 0.481488
0.471905 0.627742 0.491403
0.639630 0.624186 0.503164
0.751098 0.625302 0.518697
0.819864 0.619811 0.542240
0.853796 0.579749 0.621496
0.155865 0.741577 0.484718
0.165649 0.740415 0.484769
0.212108 0.736380 0.485967
0.305514 0.730347 0.489218
0.442880 0.724215 0.495065
0.604621 0.719900 0.502995
0.734719 0.718269 0.512337
0.813353 0.717014 0.524756
0.853565 0.703774 0.588716
0.154218 0.809218 0.502733
0.162292 0.808306 0.502352
0.204836 0.804372 0.501970
0.285937 0.798864 0.502738
0.409191 0.792773 0.505558
0.564031 0.787897 0.510468
0.708652 0.785626 0.515602
0.806237 0.786023 0.522307
0.855119 0.780526 0.551956
0.133082 0.842899 0.579347
0.137844 0.843472 0.579347
0.149571 0.844830 0.579345
0.234623 0.842463 0.528161
0.352267 0.839076 0.525906
0.503800 0.836544 0.526580
0.666331 0.835322 0.528980
0.786007 0.836077 0.533213
0.860001 0.838543 0.541416
0.080745 0.155175 0.594442
0.084597 0.157127 0.637900
0.166821 0.172135 0.684767
0.349088 0.184639 0.686378
0.575534 0.201418 0.687697
0.722314 0.215514 0.690174
0.794745 0.218914 0.694154
0.835983 0.181421 0.699138
0.854694 0.125051 0.694202
0.083007 0.174852 0.600910
0.087034 0.176831 0.637318
0.169671 0.190096 0.682752
0.348210 0.201716 0.685083
0.569915 0.217499 0.686725
0.719191 0.230788 0.689387
0.793465 0.233000 0.693731
0.835539 0.194966 0.699078
0.854694 0.125051 0.694202
0.094566 0.266578 0.610760
0.102356 0.265848 0.628128
0.180615 0.268078 0.668912
0.349963 0.273284 0.678689
0.552130 0.285802 0.681948
0.707508 0.297433 0.685760
0.788127 0.298566 0.691479
0.833066 0.265976 0.698456
0.854694 0.125054 0.694201
0.112766 0.396958 0.600827
0.122852 0.394987 0.607906
0.194753 0.391337 0.636782
0.346671 0.388591 0.658083
0.532424 0.393221 0.668460
0.690198 0.400184 0.677201
0.779296 0.402471 0.685629
0.829729 0.377233 0.696076
0.856260 0.224278 0.696768
0.134939 0.536766 0.593691
0.146880 0.534671 0.596296
0.210534 0.529037 0.609277
0.338320 0.521977 0.628031
0.512112 0.518947 0.644399
0.670575 0.520539 0.657049
0.767837 0.522842 0.672866
0.825562 0.508777 0.689535
0.854498 0.442519 0.704976
0.154483 0.659760 0.593536
0.166405 0.658058 0.594402
0.222667 0.652641 0.599107
0.330108 0.645198 0.608588
0.485606 0.639201 0.621509
0.653072 0.640237 0.637656
0.754578 0.637698 0.650984
0.820859 0.631762 0.675840
0.853670 0.596817 0.704240
0.167730 0.744748 0.600072
0.178285 0.743710 0.600159
0.227362 0.740172 0.601586
0.321641 0.734948 0.605533
0.460165 0.729748 0.612613
0.619302 0.726209 0.621686
0.740274 0.725074 0.632364
0.815569 0.723428 0.650708
0.853678 0.710169 0.697928
0.164059 0.811102 0.613053
0.172491 0.810273 0.612644
0.217968 0.806688 0.611767
0.301030 0.801693 0.611881
0.425454 0.796302 0.614168
0.579327 0.792120 0.618658
0.718231 0.790336 0.624827
0.809261 0.790822 0.633212
0.855407 0.784867 0.681174
0.136208 0.843273 0.622806
0.140345 0.843775 0.625164
0.150349 0.844921 0.634139
0.240342 0.843191 0.633222
0.360986 0.840029 0.629717
0.514397 0.837784 0.629388
0.673130 0.836798 0.631094
0.790578 0.837582 0.634329
0.860160 0.840196 0.667213
0.083006 0.197133 0.718535
0.085583 0.196763 0.737499
0.151653 0.211362 0.748801
0.343492 0.221739 0.749635
0.570438 0.237465 0.750784
0.719475 0.252034 0.752235
0.793243 0.253100 0.754322
0.834824 0.216493 0.755749
0.854693 0.125045 0.747117
0.084534 0.214492 0.721281
0.087814 0.214387 0.737233
0.155551 0.227674 0.748710
0.343455 0.237459 0.749739
0.566243 0.254094 0.750938
0.717000 0.268139 0.752410
0.792105 0.268978 0.754538
0.834435 0.229946 0.756085
0.854692 0.125043 0.746627
0.095553 0.302465 0.727395
0.101740 0.301184 0.735666
0.171395 0.304898 0.746953
0.347119 0.309647 0.749404
0.552447 0.321603 0.750985
0.707390 0.331865 0.752669
0.787489 0.331766 0.755077
0.832436 0.301359 0.757280
0.854684 0.124994 0.744395
0.115363 0.428613 0.721938
0.124478 0.426663 0.727353
0.193322 0.423920 0.740401
0.348666 0.421655 0.746607
0.536210 0.426612 0.749536
0.692651 0.433241 0.752119
0.779918 0.432125 0.755207
0.829641 0.406970 0.758700
0.855417 0.290823 0.756296
0.139894 0.558488 0.712147
0.151403 0.556703 0.715540
0.215036 0.552067 0.727504
0.345848 0.545964 0.738377
0.520771 0.543918 0.744761
0.675349 0.545677 0.749020
0.769864 0.544441 0.753525
0.826076 0.529966 0.759164
0.854344 0.468472 0.761596
0.162311 0.672002 0.704568
0.173668 0.670597 0.706277
0.231036 0.666168 0.713557
0.341386 0.659878 0.724567
0.499002 0.654823 0.734661
0.657945 0.653044 0.741994
0.757824 0.652102 0.748600
0.821957 0.645420 0.757002
0.853750 0.612400 0.765064
0.173965 0.750510 0.701709
0.185683 0.749579 0.702334
0.235916 0.746333 0.705431
0.331336 0.741577 0.711805
0.471415 0.737029 0.720701
0.629028 0.734051 0.729630
0.743565 0.733108 0.737265
0.817260 0.731014 0.749337
0.853945 0.717328 0.766673
0.166467 0.815624 0.705085
0.175243 0.814827 0.705008
0.222512 0.811301 0.705182
0.307223 0.806558 0.706898
0.433641 0.801544 0.710885
0.587781 0.797734 0.716625
0.723575 0.796270 0.723421
0.810807 0.796714 0.732005
0.855676 0.790304 0.763634
0.135797 0.843220 0.690405
0.144145 0.844199 0.690415
0.155149 0.845466 0.690667
0.230973 0.845160 0.714831
0.358580 0.841739 0.712241
0.513935 0.839659 0.712905
0.673548 0.838815 0.714765
0.790865 0.839663 0.717191
0.860306 0.842492 0.762024
0.085676 0.242223 0.797656
0.088738 0.240933 0.798909
0.159506 0.248000 0.798572
0.355558 0.260846 0.798686
0.583384 0.277262 0.799168
0.726062 0.290863 0.799829
0.795680 0.290007 0.800604
0.836063 0.244915 0.802133
0.854890 0.130690 0.794276
0.087351 0.259373 0.797724
0.090747 0.258225 0.798898
0.164485 0.265065 0.798806
0.355372 0.277090 0.798915
0.580078 0.292967 0.799377
0.724191 0.306172 0.800026
0.794851 0.305121 0.800806
0.835731 0.260427 0.802300
0.854954 0.132443 0.794276
0.099900 0.343894 0.798013
0.105515 0.342315 0.798789
0.187593 0.342731 0.799307
0.359792 0.348491 0.799527
0.567990 0.359397 0.799973
0.716164 0.368937 0.800612
0.791104 0.367101 0.801447
0.834067 0.330884 0.802817
0.855664 0.152250 0.794276
0.119917 0.461875 0.797315
0.129359 0.460176 0.798180
0.209939 0.456560 0.799546
0.362877 0.455996 0.800136
0.552360 0.461453 0.800690
0.703844 0.466529 0.801406
0.785166 0.464462 0.802389
0.831820 0.434931 0.803753
0.855658 0.317890 0.801688
0.145714 0.582463 0.794746
0.156722 0.580721 0.795939
0.229499 0.576007 0.798609
0.361936 0.571279 0.800190
0.536827 0.570731 0.801226
0.687783 0.572687 0.802164
0.776714 0.570433 0.803308
0.828915 0.551398 0.804860
0.854939 0.484568 0.804131
0.167628 0.687383 0.789394
0.179250 0.686119 0.790913
0.242532 0.681973 0.795290
0.354959 0.676387 0.798736
0.517220 0.672373 0.800865
0.669613 0.671521 0.802417
0.765373 0.670070 0.803907
0.825406 0.660267 0.805827
0.854595 0.623297 0.806202
0.177062 0.758406 0.780907
0.188386 0.757594 0.782214
0.242587 0.754507 0.787217
0.339487 0.750237 0.793315
0.484323 0.746095 0.798118
0.643177 0.743702 0.801220
0.750187 0.742878 0.803500
0.820769 0.739832 0.806290
0.854837 0.723693 0.808015
0.159181 0.822447 0.774297
0.167974 0.821931 0.774724
0.217200 0.818729 0.776886
0.305168 0.813681 0.781410
0.435165 0.808660 0.787972
0.592292 0.805134 0.794186
0.727447 0.803880 0.799042
0.810541 0.802481 0.801462
0.856270 0.796039 0.809463
0.131415 0.842703 0.754361
0.154613 0.845429 0.755330
0.158293 0.845840 0.762005
0.217652 0.846885 0.771938
0.340296 0.844442 0.773196
0.498803 0.842354 0.775788
0.665680 0.841546 0.778844
0.785566 0.842350 0.781048
0.860461 0.845250 0.811209
0.112249 0.265578 0.840639
0.119827 0.268214 0.840663
0.208377 0.278468 0.840750
0.476741 0.296100 0.840973
0.669476 0.316189 0.841306
0.758814 0.329746 0.841721
0.812015 0.325711 0.842573
0.842698 0.255098 0.844010
0.854694 0.162394 0.834374
0.116026 0.280148 0.840641
0.123914 0.282799 0.840665
0.212843 0.293076 0.840753
0.475495 0.310743 0.840979
0.668307 0.329863 0.841313
0.758228 0.343193 0.841738
0.811766 0.338697 0.842580
0.842553 0.266434 0.844004
0.854694 0.175070 0.840402
0.136497 0.351460 0.840511
0.147632 0.353584 0.840541
0.236642 0.361700 0.840647
0.471783 0.376052 0.840911
0.663335 0.392337 0.841270
0.755610 0.403624 0.841745
0.810559 0.397809 0.842557
0.841814 0.329875 0.843923
0.854694 0.175087 0.840402
0.173054 0.480237 0.840343
0.187815 0.480978 0.840390
0.272943 0.483878 0.840551
0.466697 0.490481 0.840865
0.653261 0.498860 0.841257
0.750293 0.504379 0.841769
0.808234 0.499149 0.842594
0.840582 0.456941 0.843840
0.857604 0.316787 0.844833
0.201289 0.604915 0.840465
0.216474 0.604802 0.840534
0.295968 0.604619 0.840759
0.457316 0.606625 0.841073
0.633792 0.610346 0.841524
0.742477 0.612685 0.842076
0.804739 0.608826 0.842859
0.839541 0.577962 0.844097
0.858462 0.459965 0.845787
0.211164 0.702736 0.840948
0.225881 0.702326 0.841039
0.299586 0.700932 0.841326
0.441195 0.700313 0.841698
0.605574 0.701239 0.842145
0.729884 0.702134 0.842707
0.798421 0.700254 0.843442
0.838093 0.683158 0.844570
0.858647 0.616326 0.845935
0.198984 0.767801 0.841829
0.211904 0.767209 0.841941
0.275433 0.765017 0.842260
0.404348 0.762568 0.842672
0.563948 0.761823 0.843160
0.702634 0.762316 0.843722
0.787144 0.761990 0.844504
0.835829 0.755434 0.845163
0.859074 0.723738 0.846349
0.152787 0.825576 0.841036
0.160907 0.825219 0.841833
0.207711 0.823593 0.843229
0.317934 0.821033 0.843985
0.477952 0.818169 0.844627
0.649882 0.817322 0.845009
0.759923 0.818253 0.845440
0.829489 0.817426 0.846008
0.859761 0.798358 0.846929
0.123538 0.841814 0.790445
0.158530 0.845867 0.802287
0.158531 0.845867 0.802287
0.172320 0.846180 0.802319
0.294048 0.848109 0.829904
0.465870 0.845806 0.845726
0.654585 0.845220 0.846657
0.781257 0.846227 0.847189
0.860652 0.848339 0.847562
