LUTs/negative-superia-reala/SuperiaReala_Classic_Normal.cube
TITLE "Fuji Superia Reala Classic Normal"
# Adobe RGB in/out. REPLACES AgX. Fuji Superia Reala Classic Normal.
LUT_3D_SIZE 33
DOMAIN_MIN 0.0 0.0 0.0
DOMAIN_MAX 1.0 1.0 1.0
0.074318 0.073381 0.089635
0.076559 0.075552 0.090000
0.077115 0.076168 0.090078
0.081065 0.078117 0.090340
0.092580 0.080402 0.090599
0.100117 0.081634 0.090785
0.120293 0.083995 0.091132
0.158808 0.086970 0.091458
0.184660 0.088596 0.091768
0.228069 0.091134 0.092289
0.297492 0.095639 0.092990
0.347187 0.098265 0.093393
0.396082 0.100309 0.093766
0.451931 0.103184 0.094640
0.519198 0.108694 0.095717
0.564437 0.111879 0.096576
0.607957 0.114766 0.097420
0.653186 0.119263 0.098406
0.685065 0.124909 0.100092
0.713232 0.127573 0.101291
0.737303 0.130254 0.102782
0.755372 0.133254 0.104523
0.773181 0.135373 0.107607
0.790945 0.134812 0.110348
0.804708 0.134273 0.113895
0.814703 0.132343 0.119722
0.827107 0.121800 0.128824
0.833728 0.113738 0.176761
0.847063 0.073864 0.421147
0.847062 0.073507 0.421118
0.847062 0.073456 0.421116
0.847062 0.073490 0.421115
0.854693 0.125048 0.544329
0.074875 0.079716 0.089937
0.076883 0.078991 0.090068
0.078936 0.077087 0.090050
0.083640 0.078980 0.090396
0.096583 0.081188 0.090650
0.102773 0.082140 0.090835
0.122910 0.084524 0.091166
0.161470 0.087507 0.091494
0.186594 0.089005 0.091817
0.229080 0.091629 0.092325
0.297585 0.096055 0.093015
0.346751 0.098618 0.093413
0.395258 0.100611 0.093804
0.450991 0.103639 0.094671
0.518174 0.109130 0.095743
0.563576 0.112276 0.096607
0.607145 0.115130 0.097446
0.652461 0.119746 0.098428
0.684657 0.125374 0.100119
0.712873 0.128015 0.101321
0.737067 0.130677 0.102807
0.755183 0.133663 0.104541
0.773029 0.135773 0.107629
0.790821 0.135205 0.110355
0.804613 0.134660 0.113879
0.814647 0.132729 0.119641
0.827062 0.122199 0.128545
0.833703 0.114018 0.174819
0.847063 0.073872 0.421148
0.847062 0.073508 0.421118
0.847062 0.073457 0.421116
0.847062 0.073496 0.421115
0.854693 0.125048 0.544329
0.075011 0.081071 0.090033
0.075702 0.080805 0.090157
0.077668 0.080147 0.090174
0.083679 0.081517 0.090531
0.098413 0.083780 0.090825
0.109181 0.084203 0.090961
0.133456 0.086432 0.091277
0.173772 0.089634 0.091699
0.195524 0.090872 0.092000
0.234119 0.093517 0.092457
0.298821 0.097623 0.093110
0.345719 0.099932 0.093486
0.392599 0.101843 0.093941
0.447712 0.105393 0.094785
0.514485 0.110741 0.095841
0.560430 0.113737 0.096719
0.604157 0.116906 0.097541
0.649787 0.121522 0.098535
0.683145 0.127079 0.100220
0.711544 0.129630 0.101430
0.736194 0.132221 0.102896
0.754483 0.135155 0.104610
0.772466 0.137232 0.107710
0.790362 0.136641 0.110385
0.804264 0.136072 0.113827
0.814440 0.134136 0.119372
0.826896 0.123658 0.127606
0.833608 0.115041 0.168168
0.847064 0.073900 0.421150
0.847062 0.073515 0.421118
0.847062 0.073460 0.421116
0.847062 0.073522 0.421115
0.854693 0.125050 0.544328
0.075604 0.087878 0.090369
0.076091 0.087569 0.090470
0.077901 0.086586 0.090578
0.081335 0.085752 0.090662
0.092518 0.088860 0.091062
0.103710 0.088042 0.091152
0.131153 0.090152 0.091417
0.175740 0.094016 0.092025
0.202929 0.094782 0.092277
0.241713 0.096904 0.092686
0.304295 0.100737 0.093290
0.346580 0.102901 0.093650
0.389348 0.105223 0.094204
0.442310 0.108867 0.095002
0.507775 0.113901 0.096093
0.554460 0.117063 0.096932
0.598374 0.120575 0.097723
0.644560 0.124960 0.098761
0.680174 0.130364 0.100412
0.708925 0.132731 0.101638
0.734472 0.135177 0.103068
0.753107 0.138004 0.104831
0.771360 0.140013 0.107876
0.789461 0.139375 0.110462
0.803580 0.138761 0.113764
0.814034 0.136818 0.118951
0.826571 0.126450 0.126115
0.833419 0.117647 0.158147
0.847064 0.073955 0.421155
0.847062 0.073527 0.421119
0.847062 0.073465 0.421117
0.847062 0.073581 0.421115
0.854694 0.125050 0.544328
0.076363 0.101552 0.090766
0.076781 0.101043 0.090861
0.078611 0.099890 0.090990
0.082484 0.098369 0.091146
0.089257 0.097188 0.091315
0.098077 0.094709 0.091355
0.120086 0.096759 0.091689
0.162551 0.099724 0.092381
0.194569 0.099643 0.092602
0.238566 0.101089 0.092964
0.304331 0.106204 0.093540
0.344632 0.108658 0.094053
0.385352 0.110737 0.094594
0.436159 0.114254 0.095335
0.498603 0.120740 0.096491
0.545341 0.123721 0.097267
0.589100 0.126611 0.098007
0.635977 0.130558 0.099117
0.675229 0.135671 0.100716
0.704538 0.137710 0.101967
0.731584 0.139899 0.103343
0.750807 0.142538 0.105216
0.769516 0.145044 0.108162
0.787959 0.144093 0.110626
0.802443 0.143178 0.113740
0.813357 0.141067 0.118488
0.826026 0.130909 0.124388
0.833096 0.122062 0.146967
0.847065 0.074045 0.421165
0.847062 0.073547 0.421120
0.847062 0.073483 0.421117
0.847064 0.074000 0.421116
0.854694 0.125051 0.544328
0.076736 0.110206 0.091000
0.076979 0.109583 0.091054
0.078437 0.108168 0.091138
0.081079 0.106042 0.091307
0.085646 0.103667 0.091404
0.093947 0.102382 0.091643
0.111672 0.104812 0.092165
0.147395 0.109154 0.092820
0.176646 0.107302 0.092939
0.223063 0.108820 0.093253
0.291031 0.113935 0.093961
0.336780 0.116040 0.094586
0.378947 0.118198 0.095087
0.429004 0.122255 0.095760
0.489225 0.128551 0.096982
0.535456 0.131571 0.097699
0.577456 0.134645 0.098393
0.623210 0.138988 0.099629
0.667406 0.144086 0.101280
0.697566 0.146044 0.102450
0.725708 0.148380 0.103751
0.747144 0.151707 0.105801
0.766586 0.154338 0.108622
0.785575 0.153025 0.110942
0.800643 0.151761 0.113835
0.812284 0.148897 0.118149
0.825155 0.137543 0.122845
0.832566 0.128677 0.137490
0.847066 0.074186 0.421184
0.847062 0.073577 0.421122
0.847062 0.073511 0.421118
0.854689 0.125025 0.421116
0.854694 0.125051 0.544327
0.077593 0.131557 0.091371
0.077923 0.130821 0.091403
0.079138 0.129154 0.091537
0.081767 0.126451 0.091808
0.085958 0.123279 0.092117
0.093713 0.120255 0.092384
0.106111 0.118054 0.092688
0.135409 0.123502 0.093252
0.161065 0.119238 0.093331
0.203487 0.119865 0.093595
0.270670 0.126282 0.094629
0.320981 0.128011 0.095191
0.364371 0.128751 0.095588
0.417557 0.132134 0.096362
0.478739 0.138358 0.097571
0.525798 0.141266 0.098245
0.566356 0.143328 0.099040
0.612249 0.147979 0.100203
0.659621 0.155681 0.101944
0.689289 0.158913 0.103061
0.717266 0.162870 0.104311
0.741297 0.167010 0.106660
0.761917 0.169158 0.109331
0.781775 0.167491 0.111495
0.797787 0.165886 0.114157
0.810580 0.162734 0.118140
0.823745 0.148724 0.121940
0.831682 0.138387 0.130521
0.847069 0.074525 0.421230
0.847062 0.073674 0.421128
0.847062 0.073554 0.421121
0.854693 0.125049 0.421117
0.854694 0.125051 0.544327
0.078748 0.164036 0.092109
0.078979 0.163031 0.092168
0.080056 0.160925 0.092402
0.082979 0.156904 0.092664
0.087027 0.151946 0.092908
0.094888 0.147513 0.093190
0.106861 0.143560 0.093412
0.126593 0.141052 0.093684
0.148824 0.135246 0.093753
0.185736 0.134806 0.094280
0.249129 0.140679 0.095330
0.300152 0.141117 0.095811
0.345004 0.140903 0.096287
0.401442 0.143943 0.097081
0.464880 0.151686 0.098203
0.512636 0.154633 0.098959
0.554149 0.157506 0.099804
0.599217 0.163391 0.100979
0.648491 0.171279 0.102764
0.681112 0.173084 0.103771
0.710282 0.175973 0.105151
0.736393 0.180443 0.107629
0.756985 0.184964 0.110223
0.776732 0.185826 0.112311
0.793060 0.187248 0.114841
0.807756 0.183706 0.118709
0.821324 0.170861 0.122136
0.830123 0.157292 0.127941
0.847084 0.075422 0.421391
0.847063 0.073865 0.421146
0.847062 0.073671 0.421129
0.854694 0.125051 0.421121
0.854694 0.125051 0.544327
0.079216 0.184119 0.092506
0.079388 0.183172 0.092549
0.080255 0.180755 0.092713
0.082861 0.177422 0.092949
0.086043 0.173012 0.093183
0.092116 0.168009 0.093404
0.102014 0.163358 0.093667
0.116853 0.159063 0.094076
0.139476 0.155788 0.094556
0.171358 0.153853 0.095029
0.229966 0.162643 0.096119
0.278934 0.161705 0.096691
0.324481 0.159889 0.097120
0.379872 0.162698 0.097825
0.446433 0.170887 0.099096
0.495782 0.172785 0.099880
0.541013 0.174993 0.100643
0.586518 0.180136 0.101956
0.635930 0.188446 0.103656
0.671610 0.191181 0.104607
0.700426 0.195444 0.106536
0.729638 0.198908 0.108840
0.751956 0.202381 0.111273
0.772737 0.202227 0.113195
0.790026 0.202927 0.115745
0.805184 0.203378 0.119546
0.818409 0.197007 0.123128
0.827420 0.190898 0.128292
0.847496 0.082354 0.423225
0.847078 0.075162 0.421331
0.847065 0.074127 0.421179
0.854694 0.125051 0.421136
0.854694 0.125051 0.544327
0.079914 0.215711 0.093028
0.080104 0.214840 0.093059
0.081157 0.212368 0.093177
0.083436 0.209124 0.093377
0.086235 0.204427 0.093595
0.091861 0.199009 0.093964
0.100458 0.193446 0.094443
0.113384 0.188237 0.094895
0.133079 0.183719 0.095329
0.160935 0.180224 0.095759
0.213458 0.189817 0.097056
0.259813 0.187421 0.097593
0.304457 0.183512 0.097935
0.357823 0.185287 0.098660
0.425940 0.193848 0.100146
0.476180 0.194703 0.100881
0.525674 0.195916 0.101773
0.572229 0.200622 0.103011
0.622781 0.209440 0.104672
0.662226 0.211661 0.106204
0.691975 0.214002 0.107945
0.721003 0.219074 0.110187
0.745262 0.224505 0.112561
0.766790 0.224567 0.114348
0.785563 0.223988 0.117048
0.801911 0.223486 0.120554
0.816518 0.216465 0.123746
0.826144 0.209552 0.128181
0.836330 0.193478 0.136264
0.843586 0.173563 0.164721
0.851191 0.126112 0.382128
0.854694 0.125052 0.423851
0.854694 0.125051 0.544327
0.081601 0.268659 0.093811
0.081859 0.267695 0.093863
0.082847 0.264779 0.094060
0.084865 0.261481 0.094450
0.088249 0.255936 0.094870
0.093480 0.249285 0.095310
0.102248 0.242343 0.095755
0.115364 0.235463 0.096319
0.135067 0.229703 0.096874
0.162750 0.224949 0.097436
0.200235 0.221360 0.097998
0.243082 0.217254 0.098452
0.286432 0.211690 0.098914
0.337914 0.212249 0.099789
0.405298 0.220589 0.101359
0.455443 0.219989 0.102175
0.505977 0.219794 0.102952
0.556269 0.223766 0.104102
0.608798 0.232616 0.106507
0.651189 0.233500 0.107889
0.682311 0.236764 0.109558
0.711730 0.243004 0.111703
0.739241 0.247299 0.113893
0.761246 0.247795 0.115779
0.780176 0.250148 0.118632
0.796888 0.253189 0.121983
0.813603 0.244178 0.124833
0.824188 0.235043 0.128632
0.834941 0.218618 0.134951
0.842791 0.196659 0.151168
0.850900 0.135478 0.326119
0.854694 0.125053 0.432284
0.854694 0.125054 0.435316
0.082755 0.308015 0.094721
0.082968 0.307118 0.094763
0.083770 0.304288 0.094919
0.085427 0.300795 0.095235
0.088627 0.295349 0.095599
0.093516 0.289058 0.096081
0.101658 0.282200 0.096687
0.113110 0.274892 0.097234
0.130449 0.267868 0.097770
0.154823 0.261563 0.098285
0.188131 0.256113 0.098953
0.229506 0.252071 0.099723
0.269715 0.243166 0.100071
0.320256 0.243126 0.100991
0.384631 0.252108 0.102737
0.434672 0.249594 0.103456
0.485216 0.248230 0.104191
0.539432 0.251978 0.105762
0.593010 0.261297 0.108352
0.636021 0.261408 0.109651
0.672592 0.264948 0.111288
0.702921 0.269639 0.113268
0.732320 0.275612 0.115539
0.754451 0.277326 0.117746
0.774966 0.277689 0.120370
0.793036 0.279239 0.123491
0.810550 0.274869 0.126193
0.821418 0.271342 0.129830
0.832602 0.257353 0.135737
0.841403 0.231499 0.145667
0.850209 0.160409 0.241908
0.854694 0.125056 0.432326
0.854694 0.125058 0.438183
0.083643 0.342083 0.095417
0.083821 0.341310 0.095452
0.084489 0.338795 0.095582
0.085838 0.335316 0.095846
0.089081 0.330851 0.096323
0.093565 0.325207 0.096852
0.100606 0.318695 0.097384
0.110660 0.311346 0.097924
0.125778 0.304012 0.098433
0.147571 0.296982 0.099143
0.175869 0.290815 0.099853
0.212968 0.285393 0.100532
0.256004 0.281347 0.101401
0.304440 0.279784 0.102384
0.365396 0.288942 0.104121
0.415829 0.284967 0.104879
0.464884 0.282027 0.106007
0.522251 0.284954 0.107857
0.576573 0.293710 0.110420
0.620124 0.292557 0.111526
0.662219 0.294714 0.112990
0.693513 0.299852 0.114942
0.723662 0.306551 0.117765
0.748300 0.306246 0.119733
0.768940 0.309013 0.122306
0.787473 0.313248 0.125370
0.807315 0.306872 0.127746
0.819191 0.301551 0.131363
0.830705 0.291359 0.136947
0.839600 0.276667 0.145208
0.847450 0.252777 0.165522
0.854694 0.125109 0.432379
0.854695 0.125083 0.442324
0.084717 0.385171 0.096426
0.084869 0.384453 0.096468
0.085437 0.382070 0.096622
0.086962 0.378526 0.096927
0.090259 0.374676 0.097388
0.094557 0.368867 0.097859
0.101077 0.362236 0.098347
0.110666 0.355291 0.099048
0.124523 0.348254 0.099785
0.144543 0.341149 0.100469
0.170575 0.334538 0.101245
0.205426 0.328762 0.102117
0.245514 0.323628 0.102929
0.291081 0.319896 0.103794
0.348799 0.327842 0.106054
0.398582 0.323150 0.107185
0.446246 0.318770 0.108203
0.502041 0.320242 0.109894
0.559524 0.327969 0.112400
0.603791 0.326286 0.113499
0.649731 0.327290 0.114858
0.683855 0.331789 0.117293
0.714985 0.336968 0.119987
0.741420 0.337827 0.121910
0.762681 0.340814 0.124372
0.782675 0.343006 0.127196
0.803106 0.340416 0.129577
0.815860 0.339282 0.133768
0.828459 0.328401 0.138625
0.838234 0.312578 0.145215
0.846670 0.286465 0.158281
0.852777 0.250759 0.238261
0.857124 0.209080 0.446221
0.086058 0.440702 0.097855
0.086235 0.440044 0.097891
0.087124 0.437823 0.098027
0.088936 0.434353 0.098291
0.092015 0.430828 0.098855
0.096553 0.424988 0.099470
0.103070 0.418747 0.100177
0.112856 0.411531 0.100905
0.126603 0.404221 0.101817
0.146378 0.396756 0.102685
0.172121 0.389616 0.103553
0.205876 0.382889 0.104348
0.245136 0.376900 0.105575
0.289053 0.371771 0.106944
0.334787 0.367684 0.108387
0.380989 0.361356 0.109381
0.429143 0.356077 0.110403
0.483468 0.356639 0.112033
0.543081 0.363755 0.114430
0.587123 0.360836 0.115564
0.633702 0.361151 0.117382
0.673960 0.365165 0.119803
0.705918 0.369673 0.122346
0.734459 0.370932 0.124188
0.756623 0.372755 0.126469
0.776906 0.377075 0.129255
0.798203 0.374752 0.132194
0.813182 0.371639 0.136236
0.825962 0.365844 0.140834
0.836111 0.356964 0.146641
0.845383 0.332319 0.156062
0.852121 0.292938 0.194355
0.857083 0.219108 0.438090
0.087410 0.477838 0.098844
0.087628 0.477339 0.098891
0.088431 0.475629 0.099061
0.090003 0.472850 0.099393
0.092622 0.469680 0.099936
0.097355 0.465447 0.100539
0.103763 0.460745 0.101397
0.112537 0.453291 0.102181
0.125039 0.445782 0.103028
0.143510 0.438436 0.103915
0.166941 0.430732 0.104755
0.197513 0.423588 0.106149
0.234324 0.417095 0.107534
0.275814 0.411099 0.108890
0.319439 0.406189 0.110218
0.366111 0.402215 0.111604
0.413373 0.395644 0.112522
0.466263 0.395396 0.114133
0.527472 0.402325 0.117046
0.571276 0.398484 0.118327
0.617488 0.397436 0.119962
0.663473 0.400821 0.122332
0.696541 0.404933 0.124794
0.726547 0.405245 0.126498
0.750228 0.407599 0.128699
0.771277 0.412105 0.132145
0.793246 0.409830 0.135175
0.809640 0.409833 0.139164
0.823356 0.404061 0.143359
0.834476 0.393154 0.148395
0.843972 0.377057 0.156530
0.850870 0.355153 0.178001
0.856730 0.264028 0.381653
0.088754 0.511535 0.100029
0.088948 0.511071 0.100069
0.089659 0.509468 0.100217
0.091040 0.506787 0.100503
0.093662 0.503493 0.101039
0.098347 0.499726 0.101800
0.103767 0.494617 0.102561
0.112299 0.489070 0.103370
0.123968 0.483062 0.104186
0.140854 0.476833 0.105282
0.162516 0.470653 0.106710
0.190669 0.464511 0.108067
0.225304 0.458240 0.109377
0.263615 0.451965 0.110725
0.306061 0.446146 0.112023
0.350253 0.441304 0.113306
0.399834 0.437523 0.114646
0.450459 0.436516 0.116624
0.511116 0.442682 0.119825
0.555879 0.437792 0.121011
0.601976 0.436133 0.122630
0.651560 0.438658 0.124894
0.686815 0.442495 0.127303
0.717559 0.442055 0.128885
0.743795 0.444637 0.131601
0.765753 0.448407 0.135443
0.787775 0.447894 0.138407
0.806242 0.447175 0.142106
0.820609 0.443347 0.146099
0.832144 0.437144 0.151095
0.842545 0.420504 0.157750
0.850153 0.395598 0.172034
0.855835 0.360129 0.266154
0.090316 0.550002 0.101593
0.090490 0.549580 0.101638
0.091128 0.548107 0.101804
0.092358 0.545589 0.102125
0.095285 0.542338 0.102641
0.099979 0.539000 0.103399
0.104825 0.533819 0.104049
0.113832 0.528706 0.105055
0.124902 0.522789 0.106418
0.140608 0.516505 0.107757
0.161255 0.510308 0.109163
0.188063 0.504053 0.110514
0.221174 0.498117 0.111873
0.257474 0.492431 0.113107
0.298618 0.487441 0.114429
0.340681 0.482944 0.115929
0.388024 0.479061 0.117629
0.436601 0.476139 0.119431
0.495034 0.480708 0.122600
0.541633 0.476083 0.123723
0.586974 0.473807 0.125247
0.636423 0.475456 0.127479
0.676930 0.478126 0.130000
0.708259 0.477214 0.132070
0.737340 0.479247 0.135216
0.760061 0.482084 0.138921
0.782527 0.481930 0.141731
0.801888 0.481806 0.145249
0.817411 0.481041 0.149367
0.830164 0.474409 0.153916
0.840995 0.464941 0.159924
0.848971 0.449413 0.171138
0.855355 0.409443 0.219128
0.092136 0.593219 0.103635
0.092294 0.592845 0.103675
0.092992 0.591535 0.103823
0.094712 0.589258 0.104107
0.097491 0.586212 0.104562
0.101894 0.582889 0.105694
0.107311 0.578356 0.106842
0.116174 0.573351 0.108200
0.127114 0.567780 0.109529
0.143152 0.561919 0.110928
0.163540 0.555590 0.112259
0.189877 0.549436 0.113652
0.221230 0.543271 0.114950
0.256785 0.537485 0.116682
0.296495 0.531926 0.118364
0.338214 0.527148 0.120172
0.383405 0.522971 0.121885
0.430891 0.519143 0.123541
0.480641 0.516448 0.125350
0.528315 0.511293 0.126394
0.573012 0.508691 0.127888
0.621867 0.509525 0.130283
0.667051 0.511719 0.133641
0.698958 0.510404 0.135821
0.730320 0.511708 0.138844
0.754247 0.514580 0.142501
0.777329 0.514206 0.145127
0.797169 0.515272 0.148722
0.814627 0.513802 0.152726
0.827775 0.510085 0.157141
0.839367 0.502590 0.162643
0.848148 0.487409 0.171745
0.854749 0.465046 0.200791
0.093471 0.623535 0.105056
0.093695 0.623266 0.105119
0.094513 0.622316 0.105351
0.096081 0.620638 0.105797
0.098593 0.618316 0.106508
0.102631 0.615601 0.107564
0.108378 0.612379 0.108755
0.116220 0.608389 0.109940
0.127278 0.603877 0.111295
0.142392 0.597989 0.112657
0.160682 0.591677 0.113917
0.184865 0.585383 0.115318
0.214775 0.579148 0.117109
0.248667 0.573131 0.118851
0.286833 0.567503 0.120580
0.326675 0.562122 0.122234
0.369365 0.557636 0.123974
0.416550 0.553735 0.125673
0.463893 0.550182 0.127292
0.515239 0.547695 0.129046
0.559877 0.544279 0.130791
0.608055 0.544892 0.134048
0.657405 0.546476 0.137534
0.689721 0.544778 0.139598
0.721834 0.545613 0.142560
0.748223 0.547971 0.146107
0.771941 0.547637 0.148751
0.792525 0.549052 0.152535
0.811524 0.548308 0.156334
0.825244 0.546054 0.160519
0.837768 0.539077 0.165787
0.847018 0.528714 0.174042
0.854238 0.506577 0.193210
0.095181 0.651581 0.107352
0.095388 0.651336 0.107410
0.096143 0.650468 0.107621
0.097585 0.648915 0.108026
0.099879 0.646717 0.108672
0.103685 0.644028 0.109624
0.110016 0.641035 0.110871
0.117115 0.637141 0.111918
0.128746 0.633138 0.113316
0.141628 0.628600 0.114486
0.159950 0.623978 0.116092
0.183571 0.619189 0.117891
0.211530 0.614394 0.119641
0.243537 0.609639 0.121317
0.279942 0.605180 0.123056
0.318653 0.599724 0.124743
0.359217 0.594731 0.126375
0.404947 0.590400 0.128045
0.451321 0.586781 0.129859
0.500102 0.583546 0.132073
0.547931 0.581252 0.134657
0.595042 0.580767 0.137870
0.644648 0.582101 0.141329
0.680703 0.580238 0.143411
0.713217 0.580482 0.146283
0.742243 0.582563 0.150089
0.766535 0.582156 0.152750
0.788023 0.583189 0.156353
0.808316 0.583627 0.160092
0.822842 0.581452 0.163970
0.835912 0.577299 0.169517
0.846023 0.567167 0.176673
0.853684 0.549133 0.191095
0.097124 0.680215 0.109944
0.097317 0.680001 0.109998
0.098020 0.679239 0.110194
0.099356 0.677864 0.110567
0.101613 0.675885 0.111160
0.105253 0.673386 0.112031
0.112069 0.670577 0.113265
0.118952 0.667058 0.114287
0.129581 0.663169 0.115717
0.143157 0.658972 0.117418
0.161277 0.654458 0.119198
0.182392 0.649922 0.120893
0.209844 0.645292 0.122663
0.241288 0.640597 0.124389
0.276243 0.636022 0.126037
0.313641 0.631914 0.127782
0.353017 0.628013 0.129471
0.397683 0.624501 0.131676
0.442112 0.621342 0.134148
0.490452 0.618830 0.136699
0.537783 0.616640 0.139159
0.583023 0.615037 0.141707
0.631843 0.615374 0.145115
0.671911 0.613866 0.147092
0.704695 0.613712 0.150279
0.736054 0.614977 0.154225
0.761111 0.614785 0.156805
0.783504 0.615432 0.160314
0.805132 0.616046 0.164000
0.820320 0.615056 0.168145
0.834135 0.612614 0.173330
0.844940 0.606560 0.179876
0.853083 0.592363 0.191542
0.098962 0.706401 0.112460
0.099143 0.706272 0.112509
0.099800 0.705810 0.112691
0.101129 0.704970 0.113037
0.103377 0.703740 0.113585
0.107097 0.702144 0.114388
0.113643 0.700256 0.115708
0.121025 0.697111 0.117242
0.131103 0.693400 0.118774
0.145584 0.689412 0.120617
0.161456 0.685041 0.122186
0.183252 0.680596 0.123949
0.210492 0.676141 0.125786
0.239573 0.671589 0.127444
0.273043 0.667065 0.129077
0.309383 0.662832 0.131207
0.347862 0.658947 0.133800
0.391091 0.655352 0.136327
0.434917 0.652107 0.138814
0.481554 0.649203 0.141300
0.529806 0.646979 0.143836
0.573549 0.645121 0.146357
0.619836 0.643737 0.149057
0.663452 0.642054 0.151198
0.696390 0.641537 0.154361
0.729338 0.642346 0.158306
0.755542 0.642230 0.160819
0.778842 0.642718 0.164373
0.801475 0.643444 0.168506
0.817853 0.643185 0.172519
0.832379 0.641277 0.177227
0.843772 0.637164 0.183501
0.852655 0.626564 0.192994
0.100182 0.725954 0.114313
0.100352 0.725833 0.114358
0.101040 0.725399 0.114524
0.102376 0.724603 0.114840
0.104473 0.723418 0.115461
0.108164 0.721835 0.116465
0.114383 0.719878 0.117890
0.122301 0.717653 0.119571
0.131745 0.715204 0.120948
0.145702 0.712459 0.122760
0.161034 0.709576 0.124337
0.182808 0.706451 0.126117
0.206663 0.703481 0.127773
0.235922 0.700418 0.129610
0.269183 0.696005 0.131946
0.303782 0.691690 0.134363
0.340434 0.687717 0.136924
0.381568 0.684013 0.139439
0.425117 0.680685 0.141966
0.470267 0.677705 0.144425
0.518926 0.675156 0.146913
0.562127 0.673155 0.149610
0.607511 0.671662 0.152458
0.655439 0.670600 0.155315
0.688393 0.669600 0.158441
0.721542 0.669951 0.162344
0.749940 0.669919 0.164976
0.774039 0.670145 0.168908
0.797640 0.670890 0.172869
0.815537 0.671169 0.177051
0.830643 0.670069 0.181364
0.842718 0.666580 0.186931
0.852193 0.658379 0.195407
0.101756 0.743767 0.116843
0.101938 0.743663 0.116900
0.102601 0.743291 0.117111
0.103854 0.742602 0.117513
0.106051 0.741564 0.118149
0.109615 0.740153 0.119082
0.115601 0.738356 0.120404
0.124579 0.736189 0.122251
0.133308 0.733990 0.123507
0.145871 0.731446 0.125146
0.162337 0.728699 0.126910
0.181335 0.725812 0.128513
0.206136 0.722854 0.130524
0.234486 0.719897 0.133132
0.264730 0.717012 0.135615
0.299351 0.714142 0.138170
0.335580 0.711386 0.140738
0.375466 0.708808 0.143310
0.418128 0.706494 0.145795
0.461861 0.704443 0.148418
0.508751 0.702653 0.151169
0.552667 0.701174 0.153934
0.596693 0.699869 0.156673
0.643529 0.698715 0.159572
0.680777 0.697937 0.162473
0.713890 0.697726 0.166809
0.744492 0.698009 0.169523
0.769104 0.697806 0.173325
0.793749 0.698588 0.177280
0.813318 0.698961 0.181172
0.829044 0.698774 0.185614
0.841761 0.696266 0.190624
0.851738 0.689560 0.198211
0.103408 0.760833 0.119671
0.103580 0.760746 0.119726
0.104202 0.760433 0.119925
0.105510 0.759851 0.120304
0.107783 0.758963 0.120905
0.111431 0.757734 0.121786
0.117017 0.756127 0.123033
0.125637 0.754115 0.124777
0.135427 0.752059 0.126258
0.146973 0.749790 0.127759
0.164776 0.747145 0.129856
0.181864 0.744581 0.131860
0.207578 0.741658 0.134659
0.232561 0.738981 0.137114
0.263686 0.736155 0.139831
0.297216 0.733412 0.142398
0.331209 0.730839 0.144955
0.369324 0.728335 0.147542
0.411717 0.725988 0.150385
0.454434 0.723909 0.153221
0.500261 0.722092 0.156047
0.544772 0.720564 0.158855
0.587905 0.719290 0.161621
0.633253 0.718275 0.164516
0.673237 0.717717 0.167948
0.706526 0.717386 0.171377
0.739145 0.717877 0.174003
0.764317 0.717544 0.177810
0.789791 0.717992 0.181527
0.811140 0.718269 0.185404
0.827492 0.718445 0.189671
0.840894 0.717537 0.194437
0.851600 0.713824 0.201308
0.104198 0.781329 0.121453
0.104357 0.781248 0.121503
0.104963 0.780952 0.121684
0.106315 0.780395 0.122031
0.108436 0.779528 0.122586
0.111965 0.778288 0.123410
0.117223 0.776597 0.124598
0.125361 0.774355 0.126295
0.136524 0.771947 0.128089
0.147063 0.769745 0.129526
0.162953 0.767067 0.132012
0.181622 0.764370 0.134627
0.204186 0.761573 0.137189
0.230637 0.758705 0.139874
0.260148 0.755845 0.142547
0.292031 0.753178 0.145117
0.326530 0.750514 0.147830
0.363502 0.748020 0.150715
0.404331 0.745728 0.153540
0.445650 0.743633 0.156365
0.490444 0.741797 0.159180
0.535925 0.740231 0.161988
0.578748 0.738957 0.164990
0.623853 0.737977 0.168213
