LUTs/negative-superia-reala/SuperiaReala_Classic_ExtraPunchy.cube
TITLE "Fuji Superia Reala Classic ExtraPunchy"
# Adobe RGB in/out. REPLACES AgX. Fuji Superia Reala Classic ExtraPunchy.
LUT_3D_SIZE 5
DOMAIN_MIN 0.0 0.0 0.0
DOMAIN_MAX 1.0 1.0 1.0
0.069662 0.073299 0.081842
0.161342 0.080232 0.079269
0.591040 0.102241 0.083249
0.761919 0.119049 0.096157
0.808466 0.109962 0.540441
0.069252 0.170198 0.079757
0.117120 0.142631 0.081121
0.535173 0.161493 0.086041
0.747590 0.187503 0.097714
0.808466 0.109964 0.540439
0.074780 0.518162 0.085515
0.102436 0.485811 0.088703
0.392870 0.439221 0.096863
0.702523 0.445768 0.113219
0.809468 0.360156 0.257916
0.084141 0.736629 0.098469
0.110644 0.724958 0.104866
0.326269 0.698097 0.121052
0.650240 0.683019 0.140431
0.805872 0.676259 0.173563
0.085401 0.825001 0.104545
0.135945 0.833234 0.104585
0.271195 0.834245 0.134641
0.591416 0.827039 0.163346
0.811370 0.832148 0.188129
0.067746 0.081220 0.136445
0.131644 0.090529 0.333778
0.594899 0.116175 0.276643
0.760938 0.132705 0.345679
0.808466 0.109964 0.540461
0.074117 0.173134 0.141857
0.173184 0.180914 0.170655
0.556587 0.194086 0.184054
0.750631 0.211285 0.233179
0.808466 0.109964 0.540440
0.086990 0.516889 0.160854
0.139013 0.495634 0.166861
0.461624 0.465801 0.183178
0.715855 0.472907 0.209867
0.809278 0.374448 0.441771
0.099442 0.734078 0.180643
0.140701 0.724988 0.190237
0.374836 0.703543 0.212680
0.670987 0.691647 0.239496
0.806781 0.679074 0.276788
0.085405 0.830595 0.184595
0.135946 0.838589 0.184590
0.292867 0.834273 0.207920
0.605996 0.827771 0.257419
0.812274 0.832113 0.283336
0.069231 0.110554 0.452597
0.146624 0.124499 0.589408
0.575439 0.155788 0.590842
0.755354 0.174458 0.603601
0.808466 0.109965 0.631254
0.077673 0.221600 0.467415
0.159634 0.220860 0.539659
0.549982 0.242248 0.564583
0.747741 0.259912 0.590895
0.808466 0.109967 0.623446
0.104993 0.527433 0.461653
0.174928 0.515723 0.470295
0.507552 0.511973 0.509731
0.724695 0.509591 0.535878
0.808636 0.418296 0.620176
0.133339 0.734012 0.484664
0.188863 0.727808 0.485910
0.440912 0.713321 0.494988
0.693676 0.706258 0.511021
0.807476 0.689092 0.581677
0.110424 0.838463 0.572989
0.127137 0.840721 0.572987
0.344588 0.833996 0.523419
0.635461 0.829612 0.526214
0.813123 0.833372 0.537728
0.071623 0.182006 0.688218
0.129207 0.197352 0.712187
0.564145 0.227935 0.713752
0.750729 0.244585 0.716541
0.808465 0.109960 0.710858
0.079603 0.297235 0.695252
0.149058 0.299740 0.710729
0.546825 0.317260 0.713910
0.745114 0.328548 0.717137
0.808458 0.109918 0.708708
0.117580 0.561891 0.683137
0.191871 0.556690 0.695339
0.514731 0.550071 0.708998
0.727925 0.550497 0.715913
0.808159 0.469325 0.722270
0.151699 0.743792 0.672500
0.214264 0.739698 0.676340
0.472355 0.728583 0.689938
0.702298 0.723907 0.703071
0.807810 0.705141 0.726263
0.113095 0.838838 0.660844
0.132689 0.841465 0.661114
0.351195 0.837107 0.683212
0.642789 0.833690 0.685220
0.813390 0.837987 0.722607
0.092116 0.257952 0.804361
0.185038 0.271830 0.804470
0.638648 0.311377 0.805013
0.770758 0.321842 0.806251
0.808466 0.149101 0.798239
0.113859 0.350463 0.804236
0.215111 0.361916 0.804369
0.632425 0.396411 0.804978
0.768950 0.402505 0.806236
0.808467 0.161586 0.804130
0.177790 0.599165 0.804192
0.283618 0.598929 0.804479
0.609301 0.604706 0.805226
0.761950 0.603120 0.806531
0.811772 0.459847 0.810099
0.175423 0.759889 0.805525
0.261486 0.757299 0.805945
0.558551 0.754326 0.806825
0.744778 0.754482 0.808139
0.812309 0.712754 0.810987
0.102073 0.837195 0.754447
0.135946 0.841934 0.766900
0.281568 0.844557 0.793872
0.623853 0.841177 0.811473
0.813694 0.844826 0.812901
