LUTs/negative-superia-reala/SuperiaReala_Modern_Soft.cube
TITLE "Fuji Superia Reala Modern Soft"
# Adobe RGB in/out. REPLACES AgX. Fuji Superia Reala Modern Soft.
LUT_3D_SIZE 9
DOMAIN_MIN 0.0 0.0 0.0
DOMAIN_MAX 1.0 1.0 1.0
0.061901 0.068453 0.087572
0.098992 0.075446 0.091953
0.367868 0.088945 0.098286
0.614717 0.106938 0.106257
0.729579 0.130182 0.116006
0.788965 0.158274 0.126550
0.815018 0.157500 0.144045
0.831545 0.068727 0.566057
0.826684 0.124557 0.643943
0.065015 0.105117 0.092292
0.080192 0.089527 0.093358
0.290439 0.098223 0.098674
0.580289 0.118916 0.106443
0.708570 0.149550 0.115977
0.777394 0.175460 0.126182
0.810157 0.174103 0.141967
0.828908 0.068836 0.560692
0.824804 0.123615 0.640623
0.071593 0.371647 0.101094
0.082518 0.282551 0.102097
0.144961 0.168289 0.102500
0.439038 0.177555 0.108217
0.638159 0.221464 0.117053
0.735889 0.269535 0.126763
0.791730 0.278352 0.140028
0.820801 0.075583 0.545034
0.818675 0.120504 0.629517
0.079306 0.572728 0.111704
0.087831 0.540523 0.112602
0.136768 0.450893 0.113582
0.326368 0.365547 0.114867
0.548395 0.358449 0.120130
0.682921 0.385009 0.129394
0.757159 0.406398 0.141740
0.798570 0.380224 0.158979
0.809518 0.115878 0.528488
0.086688 0.671467 0.121580
0.094089 0.658777 0.122524
0.135362 0.613326 0.124661
0.288086 0.556817 0.126108
0.477358 0.516300 0.128589
0.622976 0.502897 0.134974
0.720845 0.515290 0.146405
0.777027 0.514456 0.160694
0.799844 0.430967 0.313958
0.093923 0.727247 0.131610
0.100059 0.719264 0.132378
0.138337 0.696174 0.136295
0.264109 0.666174 0.139573
0.439788 0.635276 0.142586
0.586902 0.606773 0.146583
0.684078 0.595946 0.154410
0.752590 0.598481 0.166565
0.788849 0.572645 0.196528
0.099195 0.770322 0.141394
0.104374 0.765358 0.142260
0.136481 0.749260 0.146527
0.240898 0.726353 0.151570
0.410478 0.703073 0.156433
0.552673 0.684319 0.161213
0.654623 0.672282 0.166744
0.732453 0.666262 0.176748
0.777819 0.660124 0.195571
0.101035 0.793175 0.144374
0.103961 0.791190 0.144785
0.131781 0.782747 0.151437
0.213403 0.771981 0.159066
0.374242 0.753548 0.165810
0.517859 0.737055 0.173205
0.627789 0.725316 0.180659
0.718090 0.719023 0.188875
0.770467 0.713934 0.200796
0.092960 0.787699 0.136194
0.092789 0.786985 0.135879
0.148147 0.790171 0.134865
0.143888 0.787176 0.150467
0.303695 0.782486 0.162211
0.464514 0.774658 0.173105
0.596213 0.767463 0.182593
0.695527 0.762731 0.190351
0.769868 0.762602 0.196393
0.063482 0.076405 0.129602
0.086833 0.082279 0.293205
0.284085 0.097124 0.160336
0.607643 0.116412 0.147669
0.727303 0.138851 0.141057
0.786476 0.163446 0.144979
0.812924 0.160789 0.163405
0.830132 0.068835 0.563186
0.825710 0.124079 0.642222
0.068976 0.101547 0.119159
0.084140 0.090935 0.113911
0.242213 0.105450 0.126096
0.560931 0.129301 0.136490
0.706769 0.160184 0.137917
0.774410 0.180743 0.143288
0.808122 0.177360 0.159060
0.827500 0.068944 0.557857
0.823837 0.123120 0.638919
0.079231 0.343155 0.132863
0.090564 0.258299 0.126264
0.159274 0.163898 0.119236
0.446938 0.185972 0.126527
0.634923 0.235512 0.133636
0.734878 0.276297 0.141659
0.790120 0.281702 0.153890
0.819494 0.076877 0.542845
0.817739 0.120033 0.627712
0.087457 0.558802 0.140083
0.097535 0.529508 0.137737
0.156429 0.442061 0.132179
0.348812 0.363167 0.130061
0.555323 0.362922 0.134230
0.682856 0.389508 0.142694
0.756423 0.408556 0.154107
0.797306 0.381090 0.172426
0.808648 0.115380 0.610357
0.093819 0.665147 0.143166
0.102035 0.653327 0.143405
0.152025 0.607339 0.143509
0.308187 0.553693 0.142630
0.488853 0.515817 0.143797
0.626059 0.504200 0.147652
0.721291 0.516600 0.158413
0.776212 0.514516 0.172671
0.798998 0.432046 0.358081
0.099121 0.723014 0.147714
0.105719 0.715404 0.148448
0.149811 0.693151 0.152082
0.281701 0.664160 0.154344
0.450146 0.633676 0.156477
0.591304 0.606630 0.160244
0.686303 0.596489 0.165951
0.752853 0.598648 0.179615
0.788248 0.572432 0.210481
0.102796 0.767784 0.154028
0.108273 0.762937 0.155046
0.144422 0.747250 0.159949
0.253187 0.724892 0.164777
0.417035 0.702180 0.169260
0.558296 0.683959 0.174692
0.657662 0.672327 0.181413
0.733394 0.666461 0.189508
0.777456 0.659918 0.207047
0.102372 0.792109 0.151322
0.105711 0.790148 0.152338
0.135876 0.781916 0.161698
0.221206 0.771355 0.170442
0.381936 0.752896 0.179215
0.522133 0.736721 0.186633
0.630470 0.725252 0.193674
0.719478 0.719097 0.201518
0.770475 0.713756 0.211635
0.092871 0.791132 0.226939
0.092703 0.790419 0.225808
0.147748 0.793437 0.222056
0.143528 0.789633 0.216205
0.307801 0.782240 0.170511
0.467562 0.774488 0.184171
0.597935 0.767324 0.193838
0.697136 0.762679 0.201485
0.770048 0.762480 0.206377
0.065529 0.091600 0.305770
0.101065 0.098117 0.613917
0.297550 0.111048 0.591397
0.612267 0.137271 0.538187
0.725932 0.167357 0.480904
0.783059 0.186874 0.475198
0.809744 0.178430 0.507787
0.827779 0.073529 0.569789
0.823692 0.123046 0.638679
0.074009 0.131837 0.321888
0.105888 0.130368 0.425301
0.290045 0.129389 0.435209
0.566082 0.157234 0.414370
0.705956 0.186306 0.403222
0.771148 0.210591 0.421834
0.804958 0.198249 0.467629
0.825146 0.074604 0.565822
0.821806 0.122086 0.635352
0.082730 0.283209 0.235550
0.093982 0.224402 0.207142
0.160602 0.161764 0.181322
0.436013 0.202430 0.218025
0.633369 0.266227 0.264562
0.733970 0.306049 0.308752
0.787557 0.303964 0.343037
0.816378 0.106401 0.547768
0.815677 0.119002 0.623751
0.098637 0.530053 0.268544
0.109660 0.499471 0.248707
0.176180 0.416422 0.210944
0.356458 0.347466 0.193605
0.561064 0.371747 0.211382
0.684390 0.409678 0.245503
0.755183 0.425485 0.272575
0.794639 0.391171 0.345929
0.806589 0.114261 0.606473
0.111709 0.652987 0.279305
0.122142 0.640593 0.269900
0.183397 0.595624 0.245296
0.351178 0.546944 0.223302
0.509145 0.512943 0.213722
0.635087 0.512491 0.227861
0.722819 0.526066 0.247244
0.774505 0.520603 0.285913
0.796790 0.438989 0.499329
0.120553 0.714607 0.283888
0.129946 0.707835 0.279411
0.184435 0.687482 0.267869
0.334350 0.660872 0.252678
0.481384 0.631913 0.241375
0.604985 0.607980 0.238741
0.694112 0.601173 0.244422
0.753696 0.602585 0.271507
0.786603 0.572930 0.332095
0.122163 0.761259 0.270972
0.129982 0.756840 0.269647
0.180313 0.742517 0.267565
0.299819 0.721866 0.263065
0.448450 0.700797 0.258341
0.580697 0.684009 0.256856
0.668828 0.673434 0.260181
0.736540 0.668440 0.273334
0.776428 0.659755 0.290349
0.116897 0.787273 0.259574
0.122208 0.785515 0.260300
0.165476 0.778903 0.268213
0.264889 0.768293 0.271884
0.411397 0.751286 0.273847
0.542830 0.736237 0.275644
0.642603 0.725644 0.279822
0.724928 0.719840 0.286755
0.770416 0.713416 0.286818
0.092588 0.789940 0.225061
0.149122 0.794656 0.223961
0.146486 0.792310 0.220317
0.142433 0.788595 0.214692
0.335211 0.781282 0.231231
0.482890 0.773926 0.253808
0.605963 0.766891 0.265689
0.703703 0.762525 0.274933
0.770268 0.762056 0.278122
0.068421 0.119253 0.545542
0.090927 0.130919 0.689648
0.340039 0.153262 0.712951
0.615325 0.193139 0.707635
0.731798 0.224093 0.679587
0.784117 0.235244 0.656316
0.808699 0.217095 0.652526
0.823390 0.116955 0.670660
0.822347 0.122361 0.658514
0.075770 0.180930 0.559732
0.100713 0.189691 0.640810
0.365186 0.208226 0.691347
0.593908 0.230314 0.672973
0.712447 0.247635 0.645661
0.772133 0.258523 0.634173
0.803713 0.239707 0.638047
0.820240 0.126214 0.662803
0.820413 0.121380 0.655239
0.088892 0.334267 0.480266
0.104611 0.309922 0.473175
0.232023 0.267313 0.485695
0.474550 0.274622 0.505650
0.642179 0.313101 0.530649
0.734970 0.339710 0.551753
0.786130 0.332524 0.579944
0.808422 0.253897 0.624455
0.814119 0.118227 0.644727
0.103359 0.500937 0.447466
0.114770 0.476806 0.427343
0.181354 0.405496 0.376968
0.352876 0.345233 0.342773
0.560065 0.385624 0.398925
0.684147 0.426907 0.449314
0.753419 0.442956 0.488597
0.792171 0.408372 0.554399
0.804792 0.113312 0.627819
0.123228 0.633995 0.461691
0.136824 0.620445 0.451700
0.204267 0.581968 0.417980
0.361904 0.537369 0.379461
0.508892 0.503624 0.357987
0.634665 0.515490 0.385951
0.722020 0.531064 0.422391
0.771626 0.526222 0.469731
0.794445 0.452191 0.595962
0.140631 0.703394 0.462842
0.154902 0.697520 0.457163
0.220047 0.679526 0.438361
0.360843 0.655346 0.412554
0.497536 0.626225 0.392297
0.610419 0.605451 0.382438
0.696640 0.603776 0.396111
0.752580 0.604830 0.422305
0.783993 0.575942 0.529051
0.146649 0.752866 0.456906
0.158518 0.748916 0.453718
0.212110 0.736058 0.442806
0.344734 0.717341 0.426840
0.473849 0.698053 0.411954
0.593023 0.682793 0.402564
0.676507 0.673588 0.400290
0.738050 0.669633 0.407570
0.774715 0.660268 0.459035
0.134195 0.782961 0.447453
0.143660 0.781369 0.445044
0.186655 0.775590 0.439267
0.298728 0.764302 0.430017
0.434830 0.748780 0.420875
0.561745 0.735033 0.414054
0.653199 0.725420 0.411192
0.728844 0.720254 0.412595
0.769819 0.713339 0.425545
0.111535 0.792002 0.475735
0.147066 0.794446 0.474276
0.144581 0.792197 0.469406
0.192377 0.788956 0.403406
0.368481 0.779519 0.423808
0.504883 0.772967 0.419525
0.617224 0.766189 0.418225
0.710402 0.762245 0.419271
0.770227 0.761638 0.418773
0.071508 0.181370 0.682496
0.083189 0.197288 0.730610
0.346203 0.234661 0.760586
0.608901 0.281188 0.761028
0.741393 0.321582 0.756864
0.789227 0.312007 0.735232
0.810524 0.281941 0.722394
0.822461 0.168654 0.715155
0.822351 0.122363 0.709590
0.077072 0.257183 0.689437
0.092608 0.271732 0.725997
0.357503 0.296225 0.756077
0.607029 0.332200 0.757770
0.723668 0.339809 0.742304
0.778684 0.329118 0.725587
0.805564 0.301691 0.714378
0.819284 0.184372 0.709341
0.820357 0.121352 0.704697
0.100100 0.455798 0.681932
0.120243 0.445061 0.686792
0.316112 0.411784 0.703933
0.534909 0.390968 0.695910
0.662305 0.388889 0.685784
0.742268 0.394898 0.681921
0.787991 0.380310 0.682850
0.808163 0.309636 0.688404
0.813846 0.118095 0.688992
0.109946 0.518675 0.592612
0.122942 0.503461 0.585788
0.212594 0.465060 0.574956
0.416825 0.435544 0.574045
0.585606 0.442203 0.589189
0.692792 0.461212 0.609808
0.755064 0.467087 0.630412
0.791633 0.437886 0.653166
0.805256 0.187098 0.672870
0.129639 0.618714 0.576952
0.145842 0.608151 0.569286
0.215507 0.576662 0.548176
0.366809 0.536683 0.520698
0.503791 0.503394 0.502125
0.635553 0.526061 0.535887
0.722117 0.540361 0.569241
0.770001 0.535632 0.605464
0.792909 0.470817 0.650324
0.155881 0.693544 0.578244
0.170412 0.688542 0.572955
0.240822 0.672901 0.557760
0.375292 0.651117 0.536734
0.502993 0.621427 0.518340
0.609213 0.602210 0.510102
0.696097 0.606511 0.527505
0.750978 0.608908 0.556958
0.781563 0.582275 0.621737
0.165887 0.744838 0.574851
0.178296 0.741367 0.571434
0.240006 0.729928 0.561196
0.363936 0.713038 0.546773
0.488527 0.695347 0.532176
0.599201 0.681278 0.522249
0.678972 0.673301 0.519595
0.738116 0.670842 0.528986
0.772722 0.661947 0.586654
0.152135 0.779143 0.569531
0.162198 0.777688 0.567117
0.212636 0.772436 0.559822
0.328820 0.760480 0.549452
0.454143 0.746289 0.538232
0.575445 0.733736 0.529529
0.660496 0.725090 0.524714
0.730747 0.720729 0.524407
0.768943 0.714073 0.548064
0.117433 0.791142 0.610756
0.121427 0.790968 0.609606
0.131227 0.789933 0.605748
0.231931 0.784732 0.556307
0.388859 0.778097 0.545738
0.518700 0.772155 0.537608
0.624784 0.765588 0.532315
0.714811 0.762237 0.530424
0.769991 0.762171 0.533720
0.075332 0.291588 0.759142
0.082580 0.297127 0.777892
0.341236 0.339395 0.798366
0.601032 0.372797 0.799295
0.741567 0.410027 0.800054
0.795398 0.397380 0.781423
0.814345 0.359965 0.762082
0.824176 0.245482 0.748407
0.823657 0.123028 0.732452
0.079257 0.348690 0.761989
0.088695 0.354919 0.777646
0.347632 0.384872 0.797205
0.600368 0.410690 0.798549
0.736345 0.440932 0.797307
0.787399 0.411765 0.773621
0.809520 0.375301 0.757009
0.820998 0.268227 0.745111
0.821623 0.121994 0.730117
0.105769 0.520083 0.766285
0.124552 0.519048 0.773750
0.371294 0.522207 0.790766
0.577052 0.493538 0.777215
0.686720 0.474838 0.761590
0.753443 0.460316 0.749221
0.792749 0.437961 0.740542
0.810118 0.370481 0.734076
0.814946 0.118642 0.722457
0.121569 0.563406 0.714679
0.139241 0.556733 0.714532
0.274257 0.539687 0.719332
0.473704 0.521880 0.717422
0.614279 0.511670 0.713092
0.707887 0.509363 0.711633
0.761531 0.503953 0.712894
0.793551 0.471168 0.715239
0.805760 0.260143 0.708426
0.138651 0.624601 0.669584
0.155409 0.616957 0.666022
0.240112 0.594423 0.658444
0.402358 0.566684 0.649868
0.544243 0.550623 0.647019
0.649876 0.552834 0.656120
0.727020 0.559435 0.671067
0.771545 0.551489 0.685126
0.792780 0.495285 0.695858
0.163341 0.687906 0.657529
0.178205 0.683791 0.654121
0.251944 0.670605 0.644417
0.385040 0.651612 0.631489
0.507050 0.624248 0.617826
0.606193 0.602974 0.608454
0.697306 0.614629 0.630338
0.750849 0.617717 0.652930
0.780483 0.592329 0.679078
0.175971 0.738790 0.652525
0.183442 0.735739 0.649963
0.254822 0.725647 0.642331
0.376185 0.710505 0.631744
0.495727 0.694222 0.620710
0.601250 0.680725 0.612762
0.677917 0.673367 0.611394
0.737488 0.673084 0.625072
0.771146 0.665137 0.662122
0.161007 0.776132 0.647860
0.171427 0.774819 0.645932
0.226460 0.769276 0.639847
0.344141 0.757738 0.631142
0.463818 0.744737 0.621805
0.582592 0.733179 0.614562
0.663938 0.725299 0.610698
0.730949 0.721654 0.611419
0.767895 0.715897 0.641701
0.118895 0.788909 0.637221
0.122264 0.788733 0.637754
0.130247 0.787706 0.640165
0.235996 0.783273 0.634179
0.395923 0.777117 0.624708
0.523376 0.771694 0.617428
0.628044 0.765616 0.612595
0.716785 0.762840 0.610365
0.769567 0.763581 0.629350
0.079255 0.400491 0.817592
0.085423 0.399667 0.828189
0.290537 0.432230 0.834439
0.596777 0.452540 0.834899
0.739036 0.478167 0.835531
0.802296 0.478383 0.824998
0.819426 0.433159 0.801095
0.827327 0.326272 0.782285
0.825819 0.124129 0.762268
0.082449 0.439240 0.819135
0.090304 0.439005 0.828042
0.302685 0.462523 0.834389
0.596748 0.478158 0.834956
0.736941 0.502271 0.835615
0.795046 0.486902 0.817932
0.814827 0.446743 0.796340
0.824222 0.347435 0.779103
0.823780 0.123082 0.759695
0.107771 0.555778 0.822560
0.123019 0.554577 0.827171
0.351423 0.558052 0.833421
0.599185 0.562044 0.834487
0.707403 0.541623 0.814090
0.766568 0.522769 0.795918
0.799276 0.490285 0.781105
0.813677 0.428363 0.768802
0.817042 0.119621 0.750911
0.139122 0.618861 0.789980
0.161755 0.613225 0.790505
0.314864 0.598463 0.789967
0.518186 0.579617 0.782825
0.641218 0.566128 0.773756
0.723262 0.555729 0.765646
0.771426 0.541968 0.758995
0.797576 0.509025 0.753299
0.807159 0.364227 0.745027
0.153069 0.649585 0.744239
0.170404 0.646269 0.743948
0.272412 0.630861 0.743757
0.437832 0.611222 0.741021
0.583882 0.597514 0.737353
0.672336 0.591795 0.735407
0.736836 0.587015 0.735383
0.776576 0.572927 0.736025
0.794203 0.522849 0.734247
0.170597 0.690048 0.723512
0.183268 0.686843 0.722489
0.263767 0.676560 0.720029
0.402185 0.661681 0.714685
0.529009 0.647497 0.708072
0.626901 0.636162 0.705208
0.706566 0.635954 0.710606
0.754293 0.633224 0.719300
0.781436 0.605310 0.723685
0.178569 0.736210 0.711854
0.185446 0.733591 0.710246
0.259910 0.724799 0.705691
0.382299 0.711429 0.699720
0.501008 0.696795 0.693774
0.603414 0.683895 0.688143
0.674934 0.674474 0.683578
0.738070 0.677895 0.698246
0.770832 0.669995 0.713752
0.159564 0.774513 0.703334
0.170123 0.773327 0.701903
0.226201 0.767490 0.697440
0.345331 0.756955 0.691468
0.466053 0.744998 0.685839
0.584118 0.734202 0.681658
0.664562 0.726729 0.679821
0.730015 0.723464 0.682228
0.767066 0.718760 0.705218
0.117134 0.786277 0.678096
0.123861 0.786533 0.677284
0.133350 0.785796 0.674708
0.217208 0.782776 0.688572
0.387611 0.776758 0.681105
0.520208 0.771785 0.676093
0.626610 0.766418 0.672676
0.716011 0.764237 0.670956
0.769217 0.765878 0.702047
0.085714 0.485109 0.857579
0.092268 0.483230 0.858258
0.315918 0.493488 0.858075
0.605906 0.511933 0.858137
0.745441 0.531670 0.858398
0.811003 0.538999 0.856092
0.825754 0.492686 0.839263
0.831913 0.387801 0.819991
0.828374 0.131267 0.795696
0.089326 0.509831 0.857616
0.096893 0.508190 0.858252
0.333050 0.517937 0.858202
0.605767 0.531502 0.858261
0.743813 0.546813 0.858511
0.805037 0.543720 0.851885
0.821524 0.502112 0.836245
0.828928 0.404392 0.816736
0.826400 0.132170 0.793306
0.118289 0.595066 0.857772
0.134508 0.593576 0.858192
0.388381 0.593968 0.858473
0.609068 0.599387 0.858592
0.726849 0.593054 0.852037
0.782978 0.568653 0.838585
0.807386 0.539022 0.821335
0.818803 0.472602 0.806053
0.820142 0.163655 0.785384
0.167504 0.662242 0.847676
0.184380 0.658826 0.846690
0.383208 0.649159 0.842673
0.560284 0.631434 0.835370
0.671379 0.614214 0.822843
0.742289 0.597712 0.810604
0.784691 0.577043 0.799600
0.803629 0.540057 0.790061
0.809789 0.403135 0.778839
0.174549 0.673368 0.803679
0.187364 0.670764 0.803097
0.325861 0.662870 0.800297
0.484567 0.652520 0.794408
0.612744 0.642272 0.787680
0.699914 0.631662 0.781635
0.750977 0.619723 0.776672
0.785091 0.596723 0.772527
0.796997 0.539119 0.766686
0.180079 0.700379 0.772911
0.189801 0.697954 0.772702
0.289345 0.690097 0.771574
0.425750 0.678956 0.767614
0.561245 0.668683 0.762551
0.651011 0.662319 0.758807
0.720151 0.658271 0.757190
0.762230 0.650990 0.756941
0.784623 0.618295 0.755332
0.178547 0.738136 0.754400
0.184907 0.735979 0.754221
0.266706 0.728513 0.754082
0.392716 0.717330 0.752698
0.515061 0.705140 0.749348
0.615503 0.695260 0.745370
0.691579 0.690139 0.743521
0.744022 0.687677 0.745415
0.772715 0.675919 0.746950
0.146226 0.775112 0.741672
0.156755 0.774009 0.741197
0.211681 0.768782 0.740108
0.336824 0.758912 0.739081
0.463943 0.747873 0.738594
0.584897 0.737978 0.737892
0.665749 0.730833 0.736851
0.727785 0.725387 0.735287
0.767169 0.722539 0.742588
0.112428 0.783411 0.721642
0.132265 0.785088 0.721615
0.134739 0.783891 0.723180
0.193817 0.782239 0.726152
0.359866 0.777344 0.723647
0.504935 0.772703 0.722081
0.619276 0.768400 0.721365
0.711747 0.766591 0.720972
0.769021 0.768911 0.742569
0.157692 0.518665 0.879546
0.183183 0.522400 0.879557
0.421773 0.532848 0.879598
0.690068 0.549786 0.879704
0.788106 0.568492 0.879860
0.831224 0.581599 0.880056
0.838639 0.539443 0.864252
0.839152 0.411220 0.849891
0.830444 0.193524 0.829967
0.170166 0.534484 0.879547
0.192216 0.537056 0.879558
0.429055 0.546917 0.879599
0.689244 0.563480 0.879706
0.787544 0.581711 0.879864
0.826522 0.585892 0.876779
0.834884 0.544646 0.861329
0.836391 0.421820 0.847752
0.828484 0.216681 0.832264
0.239066 0.602164 0.879485
0.280805 0.604145 0.879499
0.468363 0.611661 0.879550
0.686782 0.624747 0.879674
0.781292 0.634083 0.877971
0.809917 0.608403 0.864685
0.822437 0.572146 0.851785
0.827130 0.479606 0.840653
0.821947 0.204192 0.824150
0.347834 0.684906 0.876791
0.374233 0.683003 0.875567
0.495057 0.676881 0.871466
0.649866 0.668276 0.864259
0.736729 0.657981 0.855441
0.782912 0.644843 0.846252
0.803544 0.616993 0.837562
0.812904 0.562243 0.826026
0.813427 0.408198 0.814969
0.306431 0.696483 0.845721
0.337983 0.694898 0.844893
0.441355 0.689728 0.842131
0.591658 0.682883 0.837761
0.687370 0.675663 0.830389
0.744142 0.667278 0.822053
0.779124 0.655622 0.814219
0.796500 0.624391 0.807208
0.801844 0.525064 0.801444
0.260254 0.715934 0.817799
0.284730 0.714325 0.816810
0.391866 0.709003 0.813542
0.527783 0.702137 0.808503
0.632465 0.695766 0.802874
0.708662 0.689858 0.797732
0.750587 0.682750 0.793533
0.778525 0.668692 0.790217
0.789789 0.616692 0.787775
0.203211 0.744886 0.799855
0.222996 0.743254 0.799024
0.317307 0.737650 0.796207
0.459229 0.729681 0.791730
0.585875 0.722188 0.786615
0.665890 0.716334 0.782085
0.725857 0.711676 0.779147
0.761063 0.704079 0.777734
0.778439 0.678146 0.777410
0.135454 0.775366 0.788649
0.145247 0.774507 0.788547
0.193689 0.771247 0.787232
0.350543 0.762910 0.783989
0.501535 0.754413 0.779847
0.616452 0.747642 0.775664
0.697699 0.743304 0.772374
0.746675 0.739933 0.770939
0.770964 0.725221 0.771399
0.105765 0.780567 0.742451
0.134420 0.783333 0.750791
0.133206 0.782026 0.749317
0.147034 0.780134 0.746934
0.291731 0.778994 0.764110
0.474658 0.774544 0.772947
0.610329 0.771807 0.771343
0.708503 0.770866 0.770149
0.769058 0.772102 0.769936
