LUTs/negative-superia-reala/SuperiaReala_Classic_Soft.cube
TITLE "Fuji Superia Reala Classic Soft"
# Adobe RGB in/out. REPLACES AgX. Fuji Superia Reala Classic Soft.
LUT_3D_SIZE 33
DOMAIN_MIN 0.0 0.0 0.0
DOMAIN_MAX 1.0 1.0 1.0
0.061901 0.068453 0.087572
0.063984 0.069346 0.088512
0.064766 0.069571 0.088755
0.068738 0.070606 0.089349
0.078773 0.072201 0.090036
0.083828 0.073054 0.090439
0.098609 0.074709 0.091457
0.124514 0.077070 0.092806
0.148607 0.078340 0.093405
0.186042 0.080022 0.094195
0.282661 0.083314 0.095742
0.349480 0.085422 0.096978
0.402230 0.087285 0.097944
0.452188 0.089560 0.099121
0.509485 0.092903 0.100577
0.547621 0.095040 0.101850
0.582632 0.097211 0.103043
0.606252 0.099826 0.104589
0.629543 0.103072 0.106719
0.650340 0.104637 0.108058
0.669099 0.106202 0.109721
0.685940 0.107943 0.112063
0.702482 0.109165 0.114496
0.714138 0.108842 0.116588
0.723118 0.108531 0.119274
0.731220 0.107415 0.123753
0.741451 0.101235 0.131031
0.746907 0.096411 0.165306
0.757886 0.068649 0.419665
0.757884 0.068513 0.419634
0.757884 0.068493 0.419632
0.757884 0.068505 0.419631
0.764160 0.103154 0.534105
0.062400 0.071567 0.088395
0.064461 0.071060 0.088724
0.066490 0.070090 0.088668
0.070654 0.071054 0.089451
0.081359 0.072754 0.090185
0.086020 0.073393 0.090570
0.100548 0.075132 0.091600
0.126513 0.077490 0.092909
0.150507 0.078659 0.093479
0.187360 0.080375 0.094249
0.282752 0.083618 0.095821
0.349040 0.085743 0.097040
0.401630 0.087560 0.097994
0.451267 0.089803 0.099163
0.508632 0.093196 0.100627
0.546919 0.095306 0.101894
0.582201 0.097494 0.103080
0.605879 0.100090 0.104630
0.629236 0.103346 0.106753
0.650076 0.104896 0.108087
0.668879 0.106448 0.109753
0.685764 0.108179 0.112088
0.702382 0.109395 0.114513
0.714057 0.109069 0.116594
0.723057 0.108754 0.119261
0.731174 0.107639 0.123695
0.741414 0.101471 0.130794
0.746886 0.096629 0.164013
0.757886 0.068650 0.419666
0.757884 0.068514 0.419634
0.757884 0.068493 0.419632
0.757884 0.068508 0.419631
0.764160 0.103155 0.534105
0.062530 0.072675 0.088616
0.063202 0.072496 0.089000
0.065175 0.071951 0.089049
0.070688 0.072975 0.089838
0.082520 0.074576 0.090541
0.090865 0.074865 0.090925
0.107131 0.076719 0.092067
0.137959 0.079150 0.093301
0.159334 0.079887 0.093757
0.193982 0.081762 0.094450
0.283965 0.084838 0.096109
0.347999 0.086941 0.097265
0.399693 0.088583 0.098179
0.448054 0.090700 0.099317
0.505560 0.094278 0.100814
0.544349 0.096410 0.102052
0.579866 0.098534 0.103216
0.604503 0.101070 0.104778
0.628099 0.104348 0.106879
0.649101 0.105839 0.108193
0.668066 0.107344 0.109873
0.685112 0.109039 0.112181
0.701882 0.110373 0.114575
0.713756 0.109894 0.116616
0.722830 0.109567 0.119223
0.731004 0.108452 0.123500
0.741278 0.102335 0.129997
0.746808 0.097424 0.159552
0.757886 0.068656 0.419668
0.757884 0.068517 0.419634
0.757884 0.068495 0.419632
0.757884 0.068520 0.419631
0.764161 0.103156 0.534104
0.063082 0.077780 0.089403
0.063539 0.077538 0.089661
0.065362 0.076827 0.089976
0.068920 0.076154 0.090215
0.078712 0.078546 0.091210
0.086779 0.077908 0.091539
0.105661 0.079519 0.092660
0.139902 0.082127 0.093795
0.166714 0.082688 0.094177
0.204122 0.084237 0.094907
0.289334 0.087674 0.096662
0.348868 0.089354 0.097700
0.397318 0.090613 0.098534
0.442759 0.093019 0.099610
0.499963 0.096537 0.101169
0.539466 0.098620 0.102353
0.575193 0.100541 0.103472
0.601805 0.103103 0.105059
0.625865 0.106266 0.107119
0.647177 0.107640 0.108395
0.666462 0.109052 0.110104
0.683829 0.111094 0.112362
0.700851 0.113053 0.114702
0.713167 0.112376 0.116675
0.722384 0.111802 0.119175
0.730668 0.109995 0.123195
0.741009 0.103979 0.128729
0.746653 0.098941 0.152170
0.757886 0.068668 0.419674
0.757884 0.068522 0.419635
0.757884 0.068497 0.419632
0.757884 0.068547 0.419631
0.764161 0.103156 0.534104
0.063737 0.088371 0.090404
0.064310 0.087954 0.090642
0.066051 0.086902 0.091007
0.069699 0.085517 0.091516
0.075990 0.084445 0.092227
0.082307 0.082635 0.092400
0.098451 0.084132 0.093285
0.127431 0.086751 0.094335
0.158385 0.086678 0.094722
0.199896 0.087996 0.095662
0.289370 0.091223 0.097429
0.346902 0.092879 0.098330
0.393134 0.094275 0.099059
0.436727 0.096812 0.100060
0.492294 0.100631 0.101731
0.531993 0.102372 0.102828
0.567684 0.104074 0.103876
0.597354 0.106379 0.105502
0.622141 0.109336 0.107497
0.643952 0.110820 0.108717
0.663773 0.112929 0.110474
0.681684 0.115802 0.112659
0.699130 0.117793 0.114921
0.712183 0.117085 0.116800
0.721643 0.116330 0.119157
0.730110 0.114198 0.122858
0.740560 0.106583 0.127257
0.746387 0.101390 0.144247
0.757887 0.068699 0.419684
0.757884 0.068531 0.419636
0.757884 0.068502 0.419633
0.757886 0.068681 0.419631
0.764161 0.103156 0.534103
0.064244 0.093919 0.091033
0.064603 0.093500 0.091186
0.065863 0.092549 0.091481
0.068747 0.091113 0.092194
0.072950 0.089817 0.092604
0.079676 0.088976 0.093216
0.092506 0.090404 0.094007
0.116547 0.093212 0.095224
0.140781 0.091965 0.095588
0.183358 0.092988 0.096547
0.273191 0.096564 0.098205
0.337403 0.098058 0.099049
0.385318 0.099244 0.099725
0.429710 0.101505 0.100661
0.484431 0.105209 0.102423
0.523868 0.106968 0.103439
0.558229 0.108745 0.104567
0.590683 0.112014 0.106141
0.616305 0.117079 0.108047
0.638819 0.118537 0.109275
0.659479 0.120273 0.111023
0.678270 0.122577 0.113110
0.696397 0.124256 0.115272
0.710622 0.123419 0.117039
0.720470 0.122612 0.119229
0.729224 0.120657 0.122612
0.739842 0.110663 0.126008
0.745950 0.105283 0.137216
0.757888 0.068774 0.419705
0.757884 0.068545 0.419638
0.757884 0.068515 0.419634
0.764157 0.103141 0.419632
0.764161 0.103156 0.534103
0.065122 0.106959 0.092465
0.065383 0.106532 0.092603
0.066763 0.105561 0.093032
0.069213 0.103980 0.093466
0.073308 0.102111 0.093935
0.079526 0.100367 0.094340
0.088521 0.099165 0.094911
0.108374 0.102243 0.096543
0.126169 0.099812 0.096788
0.167269 0.100154 0.097578
0.244029 0.103880 0.099106
0.312372 0.104894 0.099866
0.367407 0.105326 0.100403
0.419465 0.107294 0.101548
0.475611 0.111425 0.103257
0.515620 0.114415 0.104297
0.549187 0.116454 0.105407
0.584906 0.119975 0.106858
0.610512 0.125023 0.108694
0.632711 0.126811 0.110095
0.653298 0.128985 0.111778
0.672820 0.131242 0.113770
0.692043 0.132407 0.115813
0.708130 0.131504 0.117459
0.718607 0.130631 0.119471
0.727817 0.128911 0.122605
0.738680 0.120529 0.125356
0.745222 0.111452 0.132240
0.757891 0.068917 0.419755
0.757885 0.068575 0.419644
0.757884 0.068534 0.419637
0.764161 0.103155 0.419633
0.764161 0.103156 0.534103
0.066236 0.129623 0.093922
0.066548 0.129074 0.094011
0.067895 0.127919 0.094367
0.070082 0.125701 0.094859
0.074247 0.122730 0.095493
0.080278 0.119629 0.096354
0.089043 0.116645 0.097036
0.102733 0.114183 0.097777
0.117510 0.109092 0.097925
0.149663 0.108839 0.098636
0.214211 0.113777 0.100054
0.285270 0.114253 0.100761
0.347277 0.114020 0.101442
0.406458 0.116961 0.102564
0.463909 0.122563 0.104219
0.504018 0.124441 0.105306
0.539212 0.126035 0.106359
0.575875 0.129271 0.107753
0.603835 0.134179 0.109696
0.626570 0.136568 0.111050
0.648174 0.140428 0.112609
0.668251 0.146471 0.114513
0.687444 0.150981 0.116493
0.704818 0.151825 0.118078
0.715520 0.153217 0.120148
0.725485 0.149752 0.123018
0.736683 0.133628 0.125498
0.743937 0.125916 0.130282
0.757902 0.069305 0.419929
0.757886 0.068649 0.419664
0.757885 0.068574 0.419646
0.764161 0.103156 0.419637
0.764161 0.103156 0.534103
0.066870 0.150155 0.094526
0.067102 0.149231 0.094605
0.068123 0.146863 0.094966
0.069980 0.142382 0.095617
0.073398 0.136473 0.096333
0.078314 0.131784 0.097011
0.085405 0.129252 0.097739
0.095986 0.126894 0.098361
0.111256 0.125083 0.099008
0.135295 0.123946 0.099647
0.188517 0.128861 0.101205
0.255724 0.128347 0.102012
0.317816 0.127349 0.102619
0.386444 0.128891 0.103617
0.446801 0.133662 0.105477
0.489931 0.136171 0.106455
0.528438 0.139114 0.107407
0.565590 0.146068 0.108706
0.597329 0.154393 0.110895
0.619427 0.157080 0.112177
0.640926 0.161285 0.113675
0.662351 0.164715 0.115439
0.682755 0.168166 0.117291
0.702135 0.168012 0.118746
0.713537 0.168710 0.120857
0.723428 0.169159 0.123626
0.734279 0.162831 0.126212
0.741709 0.156801 0.130579
0.758241 0.073537 0.421928
0.757898 0.069178 0.419864
0.757887 0.068736 0.419700
0.764161 0.103156 0.419653
0.764161 0.103156 0.534103
0.067731 0.181519 0.095858
0.067950 0.180641 0.095952
0.068800 0.178155 0.096314
0.070478 0.174899 0.096929
0.073606 0.170204 0.097578
0.078061 0.164815 0.098210
0.084143 0.159312 0.098855
0.093616 0.154187 0.099466
0.106891 0.149765 0.100052
0.126059 0.146189 0.100659
0.177218 0.155739 0.102529
0.228966 0.153387 0.103290
0.289494 0.149562 0.103774
0.360215 0.151297 0.104934
0.426703 0.159709 0.106786
0.473454 0.160552 0.107658
0.515497 0.161751 0.108527
0.553975 0.166416 0.110027
0.590457 0.175216 0.112240
0.612452 0.177444 0.113419
0.634695 0.179798 0.114755
0.656036 0.184914 0.116465
0.676516 0.191775 0.118266
0.696588 0.191860 0.119654
0.710614 0.191070 0.121809
0.721297 0.190386 0.124356
0.732718 0.182279 0.126709
0.740657 0.175329 0.130485
0.749050 0.159344 0.136297
0.755024 0.137206 0.157220
0.761281 0.103780 0.379682
0.764161 0.103157 0.422611
0.764161 0.103156 0.534103
0.069101 0.248836 0.098004
0.069276 0.247582 0.098074
0.069967 0.243796 0.098339
0.072042 0.239533 0.098865
0.075203 0.232418 0.099432
0.079377 0.223966 0.100027
0.085595 0.215240 0.100651
0.094893 0.206693 0.101488
0.108156 0.198927 0.102271
0.127601 0.192383 0.103066
0.164026 0.187497 0.103863
0.205972 0.183075 0.104673
0.266502 0.177473 0.105250
0.339233 0.178035 0.106341
0.409579 0.186453 0.108124
0.455630 0.185840 0.108920
0.498461 0.185642 0.109948
0.540947 0.190766 0.111496
0.583078 0.202978 0.113653
0.605225 0.204213 0.114712
0.627472 0.208302 0.115987
0.649237 0.216067 0.117617
0.670904 0.221460 0.119272
0.691417 0.222085 0.120882
0.707080 0.225058 0.122963
0.718021 0.228917 0.125387
0.730313 0.217537 0.127637
0.739045 0.206176 0.130868
0.747907 0.184453 0.135312
0.754370 0.162487 0.147031
0.761041 0.109226 0.319856
0.764161 0.103158 0.431820
0.764161 0.103158 0.435135
0.069888 0.297149 0.099231
0.070072 0.296097 0.099287
0.070774 0.292778 0.099498
0.072696 0.288693 0.099925
0.075498 0.282344 0.100417
0.079400 0.275041 0.101152
0.085117 0.266662 0.102007
0.093438 0.256997 0.102781
0.105210 0.247807 0.103540
0.121872 0.239639 0.104369
0.152019 0.232645 0.105299
0.187917 0.227496 0.106259
0.242691 0.216270 0.106693
0.311249 0.216221 0.107765
0.392252 0.227542 0.109659
0.435269 0.224356 0.110625
0.481062 0.222633 0.111615
0.527138 0.227378 0.113079
0.570852 0.239297 0.115066
0.597377 0.239440 0.116058
0.620155 0.244015 0.117302
0.642762 0.250115 0.118801
0.664456 0.257945 0.120706
0.685081 0.260205 0.122319
0.703657 0.260684 0.124223
0.715505 0.262733 0.126492
0.727793 0.256967 0.128796
0.736760 0.252340 0.131779
0.745980 0.234231 0.135903
0.753227 0.201421 0.143289
0.760473 0.127635 0.224696
0.764161 0.103159 0.431866
0.764161 0.103160 0.438272
0.070657 0.338174 0.100172
0.070833 0.337035 0.100219
0.071606 0.333339 0.100395
0.073175 0.329399 0.100821
0.075853 0.324574 0.101493
0.079431 0.318484 0.102240
0.084266 0.310397 0.102993
0.091849 0.301079 0.103759
0.102208 0.292456 0.104639
0.116662 0.284245 0.105536
0.140027 0.277077 0.106421
0.176728 0.270802 0.107268
0.223725 0.265528 0.108165
0.289477 0.263455 0.109186
0.368718 0.274907 0.111522
0.418075 0.270310 0.112399
0.463913 0.266431 0.113268
0.512100 0.270296 0.114688
0.557510 0.280438 0.116643
0.589061 0.279098 0.117483
0.612447 0.281605 0.118591
0.635830 0.287592 0.120249
0.657982 0.295432 0.122332
0.679347 0.295073 0.123761
0.698593 0.298321 0.125620
0.711865 0.303485 0.128094
0.725121 0.295808 0.130116
0.734923 0.289576 0.132755
0.744417 0.277708 0.136809
0.751743 0.259335 0.142950
0.758203 0.228392 0.157764
0.764161 0.103190 0.431924
0.764162 0.103175 0.442807
0.071870 0.387390 0.101638
0.072047 0.386647 0.101697
0.072707 0.384181 0.101915
0.074197 0.380514 0.102347
0.076772 0.376533 0.102999
0.080066 0.370527 0.103666
0.084647 0.363675 0.104483
0.091853 0.356502 0.105417
0.101462 0.347311 0.106335
0.114659 0.336798 0.107189
0.134434 0.328558 0.108013
0.169196 0.322318 0.108862
0.209271 0.316783 0.109918
0.273264 0.311970 0.111081
0.351107 0.321326 0.113304
0.404138 0.316267 0.114173
0.446617 0.310492 0.114952
0.495171 0.312476 0.116243
0.543608 0.321463 0.118144
0.579571 0.319648 0.118975
0.604474 0.320730 0.120165
0.628633 0.325587 0.121988
0.651625 0.331186 0.123946
0.672936 0.332116 0.125335
0.692755 0.336304 0.127244
0.708721 0.339535 0.129649
0.722075 0.335720 0.131610
0.732175 0.334053 0.134422
0.742566 0.321929 0.138064
0.750618 0.302637 0.142956
0.757562 0.272041 0.152276
0.762585 0.225831 0.220785
0.766158 0.174856 0.447077
0.073414 0.444620 0.103660
0.073607 0.444105 0.103712
0.074324 0.441986 0.103904
0.075739 0.438381 0.104380
0.078214 0.434721 0.105177
0.081340 0.428658 0.105942
0.086260 0.422182 0.106825
0.093274 0.414698 0.107681
0.102740 0.407120 0.108571
0.115874 0.399386 0.109589
0.136135 0.391991 0.110756
0.169643 0.385029 0.111827
0.208757 0.378833 0.112936
0.270306 0.373529 0.113988
0.334196 0.369304 0.115093
0.387807 0.362766 0.115852
0.429846 0.357314 0.116630
0.479592 0.357893 0.117866
0.530137 0.365244 0.119736
0.566080 0.362229 0.120725
0.596169 0.362554 0.122053
0.621185 0.366702 0.123813
0.644967 0.371360 0.125649
0.666450 0.372662 0.127086
0.687107 0.374546 0.129030
0.704933 0.379014 0.131395
0.718879 0.376611 0.133234
0.729965 0.373392 0.136277
0.740508 0.367403 0.139711
0.748870 0.358229 0.144007
0.756503 0.326160 0.150517
0.762046 0.279541 0.180266
0.766125 0.184948 0.438171
0.074547 0.476561 0.105163
0.074717 0.476087 0.105221
0.075345 0.474461 0.105434
0.076572 0.471819 0.105847
0.078815 0.468803 0.106524
0.081849 0.464775 0.107277
0.086822 0.460298 0.108161
0.093067 0.454455 0.108925
0.101754 0.448597 0.110050
0.113974 0.442622 0.111244
0.131167 0.434621 0.112304
0.161312 0.427205 0.113377
0.194254 0.420468 0.114440
0.251286 0.414249 0.115477
0.309985 0.409160 0.116489
0.369634 0.405040 0.117542
0.416098 0.398233 0.118237
0.465079 0.397977 0.119453
0.517281 0.405155 0.121808
0.553198 0.401176 0.122741
0.587673 0.400089 0.123928
0.613380 0.403596 0.125639
0.638063 0.407857 0.127604
0.660092 0.408181 0.129055
0.681144 0.410621 0.130925
0.700773 0.415293 0.133198
0.715642 0.412934 0.135480
0.727041 0.412937 0.138466
0.738359 0.406954 0.141584
0.747523 0.395655 0.145221
0.755342 0.378995 0.150888
0.761017 0.356359 0.166129
0.765835 0.242823 0.379132
0.075598 0.508542 0.106640
0.075749 0.508103 0.106690
0.076304 0.506583 0.106875
0.077381 0.504042 0.107232
0.079493 0.500919 0.107812
0.082478 0.497346 0.108554
0.086825 0.492499 0.109423
0.092913 0.487233 0.110510
0.101148 0.481526 0.111609
0.112209 0.475606 0.112710
0.127402 0.469728 0.113808
0.154524 0.463884 0.114848
0.183466 0.458305 0.115848
0.234202 0.453423 0.116874
0.291067 0.448881 0.117859
0.352574 0.445092 0.118830
0.405154 0.441674 0.119953
0.450746 0.440628 0.121500
0.502751 0.446172 0.123829
0.540628 0.441953 0.124687
0.578105 0.440230 0.125854
0.605416 0.442852 0.127689
0.630857 0.446025 0.129740
0.653513 0.445680 0.131083
0.675149 0.447701 0.132887
0.695620 0.450647 0.135681
0.712063 0.450247 0.137901
0.724235 0.449685 0.140655
0.736093 0.446692 0.143607
0.745602 0.441280 0.146983
0.754167 0.424005 0.151855
0.760427 0.398186 0.162151
0.765099 0.361498 0.249825
0.076816 0.538471 0.108352
0.076952 0.538194 0.108396
0.077449 0.537229 0.108558
0.078553 0.535577 0.108870
0.080532 0.533441 0.109530
0.083699 0.531244 0.110550
0.087680 0.527824 0.111425
0.093905 0.524439 0.112535
0.101676 0.519201 0.113584
0.112046 0.513251 0.114611
0.126330 0.507380 0.115686
0.151953 0.501450 0.116714
0.183266 0.495820 0.117746
0.225765 0.490424 0.118679
0.283765 0.485686 0.119736
0.342915 0.481413 0.120992
0.396349 0.477724 0.122233
0.437160 0.474946 0.123543
0.489304 0.479289 0.125832
0.528947 0.474892 0.126689
0.565960 0.472729 0.127990
0.597586 0.474296 0.129889
0.623423 0.476835 0.131892
0.646688 0.475968 0.133149
0.669133 0.477901 0.135511
0.690312 0.480597 0.138286
0.708623 0.480450 0.140377
0.721281 0.480332 0.142981
0.733455 0.479605 0.145856
0.743971 0.473301 0.148813
0.752891 0.464293 0.153576
0.759455 0.451432 0.161550
0.764704 0.412533 0.202192
0.078333 0.566404 0.110866
0.078490 0.566165 0.110921
0.079064 0.565328 0.111120
0.080165 0.563872 0.111503
0.081936 0.561922 0.112116
0.085309 0.559790 0.113027
0.089396 0.556876 0.113909
0.095468 0.553649 0.114950
0.103069 0.550046 0.115964
0.113737 0.546243 0.117029
0.128272 0.542122 0.118038
0.153741 0.538099 0.119090
0.183269 0.534055 0.120257
0.224816 0.530245 0.121543
0.281592 0.526572 0.122768
0.339717 0.523326 0.124080
0.390755 0.519373 0.125317
0.431561 0.515749 0.126534
0.477213 0.513197 0.128078
0.517984 0.508313 0.128966
0.554612 0.505847 0.130237
0.589977 0.506638 0.132081
0.616041 0.508716 0.134326
0.639844 0.507470 0.135965
0.662850 0.508707 0.138228
0.684891 0.511427 0.140948
0.705211 0.511073 0.142891
0.718204 0.512082 0.145435
0.731158 0.510690 0.148043
0.742002 0.507168 0.151373
0.751551 0.500062 0.155721
0.758778 0.485655 0.161957
0.764206 0.464393 0.185974
0.079371 0.589180 0.112536
0.079515 0.588958 0.112585
0.080038 0.588171 0.112763
0.081039 0.586782 0.113106
0.082634 0.584860 0.113653
0.085905 0.582611 0.114463
0.090235 0.579940 0.115374
0.095503 0.576631 0.116278
0.103174 0.573188 0.117307
0.113232 0.569445 0.118339
0.125844 0.565419 0.119291
0.148808 0.561391 0.120544
0.178540 0.557385 0.121854
0.213577 0.553507 0.123122
0.267083 0.549867 0.124375
0.321263 0.546375 0.125568
0.373673 0.543456 0.126904
0.418655 0.540911 0.128353
0.463074 0.538588 0.129730
0.506189 0.536959 0.131219
0.543897 0.534717 0.132419
0.582684 0.535120 0.134633
0.608861 0.536160 0.137249
0.633030 0.535045 0.138790
0.656644 0.535593 0.140992
0.679276 0.537140 0.143613
0.701392 0.536921 0.145454
0.715171 0.537848 0.147919
0.728596 0.537360 0.150733
0.739916 0.535883 0.154046
0.750234 0.531295 0.157943
0.757848 0.524444 0.163494
0.763786 0.503843 0.179249
0.080465 0.612344 0.114300
0.080597 0.612142 0.114345
0.081079 0.611425 0.114507
0.081995 0.610144 0.114817
0.083607 0.608328 0.115311
0.086759 0.606106 0.116037
0.091430 0.603632 0.116986
0.096186 0.600421 0.117780
0.104118 0.597117 0.118837
0.112724 0.593368 0.119792
0.125263 0.589547 0.121111
0.147539 0.585583 0.122424
0.175287 0.581611 0.123695
0.206587 0.577668 0.124907
0.257164 0.574015 0.126160
0.308773 0.570549 0.127560
0.361621 0.567369 0.128950
0.409295 0.564603 0.130370
0.451591 0.562287 0.131798
0.493549 0.560212 0.133151
0.534117 0.558739 0.135091
0.572497 0.558427 0.137500
0.601850 0.559284 0.140078
0.626263 0.558087 0.141622
0.650329 0.558244 0.143743
0.673703 0.559581 0.146328
0.696350 0.559319 0.148058
0.712226 0.559983 0.150748
0.725947 0.560264 0.153708
0.737935 0.558867 0.156710
0.748706 0.556195 0.160461
0.757030 0.549649 0.165247
0.763331 0.537901 0.177372
0.081702 0.635857 0.116281
0.081825 0.635682 0.116322
0.082271 0.635058 0.116471
0.083168 0.633932 0.116755
0.085081 0.632311 0.117205
0.087960 0.630265 0.117865
0.092764 0.627962 0.118798
0.097587 0.625076 0.119593
0.104654 0.621884 0.120837
0.113740 0.618437 0.122079
0.126349 0.614718 0.123374
0.146384 0.610975 0.124601
0.173601 0.607151 0.125877
0.203550 0.603271 0.127258
0.251894 0.599498 0.128663
0.301072 0.596106 0.130146
0.355364 0.592883 0.131539
0.403408 0.589979 0.132930
0.442564 0.587365 0.134708
0.485461 0.585285 0.136624
0.525782 0.583472 0.138463
0.562753 0.582144 0.140359
0.595200 0.582423 0.142882
0.619650 0.581173 0.144339
0.644068 0.581045 0.146451
0.667936 0.582094 0.149058
0.691291 0.581935 0.151107
0.709264 0.582471 0.153884
0.723395 0.582980 0.156731
0.735855 0.582160 0.159537
0.747243 0.580135 0.163019
0.756138 0.575113 0.167396
0.762837 0.565858 0.177769
0.082867 0.654625 0.118190
0.083001 0.654529 0.118227
0.083534 0.654184 0.118365
0.084689 0.653558 0.118626
0.086509 0.652640 0.119040
0.089228 0.651448 0.119695
0.093783 0.650038 0.120830
0.099166 0.648403 0.121951
0.105629 0.646509 0.123066
0.115349 0.643378 0.124401
0.126501 0.639804 0.125534
0.147227 0.636169 0.126883
0.174248 0.632521 0.128449
0.201246 0.628792 0.129859
0.247366 0.625081 0.131245
0.294588 0.621608 0.132667
0.350162 0.618416 0.134446
0.398592 0.615455 0.136345
0.435509 0.612778 0.138205
0.477982 0.610381 0.140056
0.519213 0.608545 0.141937
0.555050 0.607010 0.143798
0.588909 0.605866 0.145654
0.613364 0.604474 0.147050
0.637952 0.604047 0.149166
0.662132 0.604716 0.152296
0.686099 0.604620 0.154282
0.706205 0.605024 0.156984
0.721013 0.605623 0.159780
0.733820 0.605409 0.162476
0.745796 0.603832 0.165615
0.755177 0.600440 0.170622
0.762484 0.591685 0.179058
0.083888 0.669170 0.119619
0.084045 0.669081 0.119665
0.084616 0.668759 0.119831
0.085698 0.668168 0.120147
0.087396 0.667288 0.120649
0.090067 0.666113 0.121384
0.094261 0.664659 0.122423
0.100137 0.663005 0.123644
0.106039 0.661183 0.124641
0.115426 0.659140 0.125947
0.126143 0.656992 0.127213
0.146792 0.654663 0.128731
0.170427 0.652447 0.130139
0.196372 0.650159 0.131632
0.241947 0.647839 0.133080
0.288831 0.645239 0.134870
0.342666 0.641992 0.136793
0.388512 0.638964 0.138671
0.425895 0.636241 0.140551
0.468464 0.633803 0.142373
0.509258 0.631715 0.144207
0.545736 0.630075 0.146015
0.582395 0.628852 0.147869
0.607409 0.627980 0.149924
0.632042 0.627161 0.152403
0.656431 0.627449 0.155485
0.680876 0.627422 0.157393
0.703047 0.627608 0.160051
0.718512 0.628218 0.162710
0.731909 0.628447 0.165498
0.744366 0.627545 0.168720
0.754310 0.624684 0.173672
0.762105 0.617949 0.181199
0.085196 0.682355 0.121660
0.085344 0.682279 0.121702
0.085881 0.682003 0.121855
0.086895 0.681495 0.122148
0.088482 0.680728 0.122612
0.091169 0.679685 0.123290
0.095046 0.678357 0.124248
0.101494 0.676754 0.125581
0.107036 0.675127 0.126505
0.115539 0.673242 0.127903
0.127250 0.671207 0.129406
0.145351 0.669065 0.130767
0.169903 0.666870 0.132242
0.194468 0.664673 0.133943
0.235746 0.662529 0.135811
0.284484 0.660393 0.137724
0.335470 0.658341 0.139639
0.381080 0.656420 0.141547
0.419924 0.654695 0.143384
0.461354 0.653165 0.145235
0.500778 0.651828 0.147031
0.537998 0.650723 0.148827
0.573834 0.649809 0.151002
0.601272 0.649221 0.153297
0.626319 0.648824 0.155586
0.650822 0.648717 0.158634
0.675798 0.648861 0.160465
0.698746 0.648758 0.163015
0.715971 0.649156 0.165651
0.730077 0.649346 0.168549
0.743048 0.649251 0.172502
0.753522 0.647972 0.176954
0.761731 0.643499 0.183686
0.086534 0.694929 0.123717
0.086673 0.694865 0.123756
0.087177 0.694635 0.123900
0.088128 0.694207 0.124175
0.089768 0.693554 0.124610
0.092350 0.692650 0.125245
0.096111 0.691468 0.126143
0.102117 0.689986 0.127589
0.108385 0.688472 0.128851
0.116267 0.686799 0.130127
0.129324 0.684849 0.131796
0.145868 0.682956 0.133032
0.171339 0.680797 0.135093
0.191926 0.678819 0.136935
0.234300 0.676729 0.138964
0.282390 0.674698 0.140872
0.328467 0.672793 0.142764
0.373624 0.670937 0.144662
0.414763 0.669196 0.146521
0.454642 0.667653 0.148364
0.493682 0.666304 0.150506
0.531525 0.665169 0.152730
0.566715 0.664222 0.154915
0.595935 0.663468 0.157081
0.620640 0.663052 0.159403
0.645414 0.662806 0.161710
0.670815 0.663171 0.163468
0.694281 0.662924 0.166002
0.713383 0.663257 0.168866
0.728279 0.663463 0.172315
0.741769 0.663594 0.176107
0.752808 0.662919 0.180339
0.761617 0.660157 0.186431
0.087174 0.709958 0.125006
0.087302 0.709898 0.125041
0.087770 0.709682 0.125172
0.088654 0.709275 0.125422
0.090280 0.708640 0.125822
0.092696 0.707733 0.126423
0.096268 0.706495 0.127436
0.101939 0.704853 0.128882
0.109082 0.703088 0.130407
0.116327 0.701473 0.131576
0.127773 0.699509 0.133117
0.145631 0.697528 0.135068
0.167962 0.695473 0.136990
0.189397 0.693365 0.138996
0.229426 0.691260 0.140983
0.274653 0.689296 0.142884
0.321033 0.687333 0.144850
0.366295 0.685494 0.146736
0.408797 0.683803 0.148571
0.446033 0.682256 0.150758
0.485454 0.680900 0.152988
0.524254 0.679743 0.155204
0.559279 0.678801 0.157403
0.591020 0.678076 0.159582
