LUTs/negative-superia-reala/SuperiaReala_Classic_Soft.cube
TITLE "Fuji Superia Reala Classic Soft"
# Adobe RGB in/out. REPLACES AgX. Fuji Superia Reala Classic Soft.
LUT_3D_SIZE 9
DOMAIN_MIN 0.0 0.0 0.0
DOMAIN_MAX 1.0 1.0 1.0
0.061901 0.068453 0.087572
0.078773 0.072201 0.090036
0.148607 0.078340 0.093405
0.402230 0.087285 0.097944
0.582632 0.097211 0.103043
0.669099 0.106202 0.109721
0.723118 0.108531 0.119274
0.757886 0.068649 0.419665
0.764160 0.103154 0.534105
0.063737 0.088371 0.090404
0.075990 0.084445 0.092227
0.158385 0.086678 0.094722
0.393134 0.094275 0.099059
0.567684 0.104074 0.103876
0.663773 0.112929 0.110474
0.721643 0.116330 0.119157
0.757887 0.068699 0.419684
0.764161 0.103156 0.534103
0.066870 0.150155 0.094526
0.073398 0.136473 0.096333
0.111256 0.125083 0.099008
0.317816 0.127349 0.102619
0.528438 0.139114 0.107407
0.640926 0.161285 0.113675
0.713537 0.168710 0.120857
0.758241 0.073537 0.421928
0.764161 0.103156 0.534103
0.070657 0.338174 0.100172
0.075853 0.324574 0.101493
0.102208 0.292456 0.104639
0.223725 0.265528 0.108165
0.463913 0.266431 0.113268
0.612447 0.281605 0.118591
0.698593 0.298321 0.125620
0.744417 0.277708 0.136809
0.764162 0.103175 0.442807
0.075598 0.508542 0.106640
0.079493 0.500919 0.107812
0.101148 0.481526 0.111609
0.183466 0.458305 0.115848
0.405154 0.441674 0.119953
0.578105 0.440230 0.125854
0.675149 0.447701 0.132887
0.736093 0.446692 0.143607
0.765099 0.361498 0.249825
0.080465 0.612344 0.114300
0.083607 0.608328 0.115311
0.104118 0.597117 0.118837
0.175287 0.581611 0.123695
0.361621 0.567369 0.128950
0.534117 0.558739 0.135091
0.650329 0.558244 0.143743
0.725947 0.560264 0.153708
0.763331 0.537901 0.177372
0.085196 0.682355 0.121660
0.088482 0.680728 0.122612
0.107036 0.675127 0.126505
0.169903 0.666870 0.132242
0.335470 0.658341 0.139639
0.500778 0.651828 0.147031
0.626319 0.648824 0.155586
0.715971 0.649156 0.165651
0.761731 0.643499 0.183686
0.089191 0.737045 0.127128
0.091457 0.735870 0.127761
0.109631 0.729073 0.132997
0.165367 0.721778 0.141091
0.306156 0.714134 0.149318
0.472053 0.707940 0.158691
0.605330 0.704647 0.167458
0.705713 0.704878 0.179278
0.761898 0.704866 0.194171
0.086611 0.751701 0.126275
0.086613 0.751703 0.126276
0.124331 0.760365 0.126300
0.124333 0.761644 0.139695
0.262448 0.761430 0.151167
0.433769 0.756337 0.162919
0.582913 0.753845 0.174210
0.686508 0.754746 0.185165
0.766881 0.759222 0.194116
0.062701 0.072477 0.107075
0.073412 0.075010 0.149432
0.120164 0.082034 0.118090
0.401804 0.091058 0.116403
0.586079 0.100502 0.115428
0.670090 0.108212 0.118430
0.723007 0.109879 0.128348
0.757887 0.068696 0.419687
0.764161 0.103156 0.534105
0.066595 0.088731 0.107638
0.084140 0.090935 0.113911
0.143477 0.091714 0.112870
0.385287 0.100006 0.115520
0.574546 0.107822 0.115965
0.665355 0.116837 0.118848
0.721618 0.118728 0.127458
0.757888 0.068796 0.419717
0.764161 0.103156 0.534103
0.070658 0.150218 0.109948
0.078661 0.141407 0.111100
0.126189 0.130638 0.113493
0.351293 0.137438 0.116978
0.535454 0.152946 0.118730
0.644987 0.168419 0.121898
0.714226 0.172905 0.128530
0.758344 0.074472 0.422911
0.764161 0.103156 0.534103
0.075250 0.337249 0.113859
0.080699 0.326429 0.115043
0.112140 0.300614 0.117683
0.261205 0.279535 0.120853
0.481759 0.281531 0.124138
0.617337 0.292842 0.127462
0.701212 0.305420 0.133568
0.744576 0.281427 0.145858
0.764161 0.103162 0.534100
0.079083 0.506320 0.117084
0.083217 0.499960 0.118254
0.107998 0.483070 0.121987
0.206229 0.462700 0.126255
0.420742 0.448870 0.131245
0.585949 0.447188 0.135848
0.678675 0.452434 0.142799
0.736854 0.449178 0.152521
0.765062 0.364165 0.294701
0.082909 0.610714 0.121806
0.086990 0.607113 0.123012
0.108784 0.596851 0.127297
0.183368 0.582583 0.132645
0.377875 0.569528 0.139463
0.543826 0.561731 0.146461
0.654456 0.560979 0.154003
0.727357 0.562055 0.163331
0.763374 0.538787 0.190594
0.087506 0.681743 0.128407
0.091103 0.680191 0.129528
0.110501 0.674880 0.134268
0.178089 0.667035 0.141692
0.347085 0.658941 0.149083
0.509261 0.652793 0.157742
0.630618 0.649968 0.166335
0.717631 0.650117 0.177551
0.761939 0.644046 0.194896
0.090301 0.736462 0.131522
0.092750 0.735311 0.132429
0.112023 0.728789 0.140509
0.170729 0.721745 0.148995
0.315796 0.714368 0.158930
0.477939 0.708388 0.168377
0.608627 0.705240 0.179959
0.707524 0.705459 0.191640
0.762236 0.705039 0.204918
0.086612 0.757585 0.191622
0.086615 0.757586 0.191623
0.124331 0.766008 0.191624
0.124334 0.766007 0.191614
0.266972 0.761509 0.158316
0.437673 0.756470 0.171988
0.584909 0.754029 0.185146
0.688353 0.754921 0.196149
0.767167 0.759221 0.204070
0.063749 0.079231 0.152574
0.078525 0.082016 0.355516
0.121346 0.087533 0.327623
0.394593 0.096902 0.291013
0.585511 0.107078 0.267655
0.670251 0.117595 0.285163
0.722464 0.118668 0.339678
0.758079 0.072027 0.434205
0.764161 0.103156 0.534124
0.067952 0.093826 0.156831
0.080569 0.093961 0.196706
0.136096 0.097466 0.226625
0.380263 0.106223 0.225750
0.577137 0.117733 0.226698
0.666566 0.127078 0.250416
0.721295 0.127031 0.307752
0.758153 0.072887 0.436199
0.764161 0.103156 0.534107
0.074787 0.153320 0.156658
0.083087 0.149601 0.158719
0.160602 0.161764 0.181322
0.359663 0.157641 0.180883
0.545650 0.174349 0.191248
0.651261 0.190569 0.206290
0.715575 0.189926 0.227936
0.757778 0.094858 0.435696
0.764161 0.103156 0.534103
0.081672 0.338504 0.164193
0.088758 0.330847 0.165199
0.129699 0.315497 0.169046
0.308251 0.301869 0.175604
0.509766 0.313146 0.185973
0.628497 0.326237 0.197978
0.705594 0.329967 0.207336
0.745073 0.297637 0.259386
0.764161 0.103157 0.534106
0.088399 0.507484 0.171779
0.094565 0.502830 0.173184
0.126586 0.489757 0.177634
0.263687 0.474418 0.183671
0.460853 0.464679 0.190629
0.603388 0.467020 0.201681
0.687906 0.470674 0.209096
0.739046 0.460669 0.232645
0.764921 0.374660 0.442164
0.094794 0.610686 0.182803
0.100093 0.607902 0.184067
0.128515 0.599526 0.188858
0.233617 0.588077 0.195205
0.419047 0.577690 0.202317
0.573450 0.571666 0.210249
0.667408 0.571466 0.218769
0.731337 0.570262 0.237474
0.763520 0.542277 0.293284
0.099133 0.680778 0.188831
0.103619 0.679506 0.190177
0.127997 0.675145 0.195592
0.212742 0.668571 0.202971
0.388940 0.661761 0.210997
0.537033 0.656640 0.221345
0.645315 0.654278 0.233218
0.722865 0.654276 0.251255
0.762582 0.646326 0.267792
0.100179 0.732338 0.196844
0.103858 0.731438 0.198451
0.127031 0.727202 0.206679
0.195254 0.721624 0.215822
0.355522 0.715407 0.227643
0.504622 0.710249 0.239374
0.622711 0.707617 0.253464
0.714265 0.707752 0.268278
0.763194 0.705779 0.274931
0.086616 0.757587 0.191630
0.124330 0.766008 0.191628
0.124331 0.766008 0.191626
0.124356 0.766009 0.191628
0.289641 0.761459 0.207775
0.456300 0.756840 0.231736
0.593765 0.754615 0.249352
0.696224 0.755484 0.265083
0.767728 0.759184 0.274022
0.065202 0.089620 0.276570
0.075093 0.093481 0.462800
0.130775 0.097822 0.493431
0.372377 0.105599 0.486460
0.577683 0.118022 0.485898
0.666597 0.128427 0.492547
0.720864 0.129731 0.514268
0.753433 0.098527 0.556043
0.764161 0.103156 0.560609
0.068708 0.103492 0.292177
0.078394 0.105091 0.394321
0.142180 0.107744 0.465025
0.365018 0.116614 0.464324
0.569746 0.128808 0.468877
0.663498 0.141796 0.479891
0.719805 0.142810 0.505082
0.752938 0.103634 0.553040
0.764161 0.103156 0.560876
0.077458 0.173262 0.289054
0.086098 0.171558 0.303421
0.149701 0.168770 0.352924
0.356266 0.175446 0.382347
0.545621 0.194667 0.405105
0.651163 0.214738 0.428066
0.714985 0.214323 0.466282
0.748842 0.168722 0.526658
0.764161 0.103156 0.561847
0.086570 0.347447 0.289706
0.094674 0.342257 0.292400
0.143810 0.329516 0.305603
0.352876 0.345233 0.342773
0.518522 0.336077 0.348381
0.632890 0.352805 0.370471
0.707073 0.355659 0.405282
0.744800 0.319784 0.476073
0.764161 0.103163 0.562139
0.096802 0.509554 0.305895
0.104124 0.506080 0.306870
0.147663 0.496509 0.312800
0.298352 0.485146 0.322022
0.483689 0.478885 0.333460
0.612201 0.482852 0.349965
0.693750 0.485952 0.370500
0.740001 0.472783 0.413568
0.764663 0.393363 0.547822
0.105571 0.610611 0.320095
0.111995 0.608456 0.320816
0.153087 0.601889 0.324664
0.279272 0.592791 0.330829
0.449849 0.584810 0.339442
0.590608 0.580581 0.349840
0.676493 0.581315 0.364697
0.733992 0.577762 0.387853
0.763550 0.548746 0.496732
0.111483 0.680125 0.333743
0.117194 0.679086 0.334416
0.153892 0.675533 0.337925
0.258632 0.670182 0.343601
0.419188 0.664646 0.351048
0.562083 0.660592 0.360145
0.658202 0.658853 0.371492
0.727170 0.658365 0.386881
0.763061 0.648930 0.438600
0.111307 0.730495 0.349845
0.116051 0.729755 0.350317
0.148858 0.726495 0.353742
0.233119 0.721826 0.358657
0.391551 0.716635 0.365781
0.529043 0.712360 0.374846
0.636281 0.710231 0.385345
0.720105 0.710393 0.396533
0.764023 0.707205 0.415041
0.101561 0.763658 0.414381
0.124325 0.768520 0.414381
0.124331 0.768522 0.414380
0.169884 0.769039 0.353564
0.333548 0.760848 0.386514
0.479983 0.757176 0.393811
0.606308 0.755415 0.401510
0.705523 0.756264 0.409866
0.768189 0.759335 0.415137
0.066831 0.103582 0.453488
0.072034 0.106200 0.523599
0.132939 0.112022 0.579526
0.361975 0.122429 0.580346
0.565263 0.132430 0.581101
0.661693 0.151742 0.586142
0.718735 0.154751 0.594504
0.750505 0.118670 0.607092
0.764161 0.103157 0.619822
0.069260 0.117225 0.462525
0.075709 0.120248 0.515154
0.138386 0.125649 0.571210
0.359442 0.132840 0.574324
0.559049 0.152468 0.576171
0.658992 0.167400 0.582417
0.717775 0.168976 0.592391
0.750098 0.126478 0.606095
0.764161 0.103157 0.618114
0.078894 0.201802 0.466061
0.086323 0.201312 0.483112
0.146751 0.200945 0.533340
0.356312 0.208985 0.550351
0.540354 0.226025 0.557091
0.648747 0.246696 0.566859
0.713638 0.247201 0.581158
0.747477 0.201437 0.600106
0.764161 0.103158 0.612682
0.090709 0.372126 0.460371
0.098959 0.369638 0.464575
0.153675 0.363370 0.484254
0.346762 0.359257 0.508315
0.519366 0.363969 0.523223
0.633700 0.375803 0.539151
0.706922 0.378245 0.558866
0.744204 0.349115 0.587182
0.765764 0.149348 0.612730
0.102991 0.516236 0.461180
0.111116 0.513759 0.462308
0.162296 0.506514 0.468498
0.321665 0.497964 0.480282
0.503791 0.503394 0.502125
0.616544 0.498821 0.510690
0.696364 0.501410 0.529645
0.740161 0.487832 0.561594
0.764320 0.418140 0.609689
0.114826 0.613231 0.469812
0.122370 0.611496 0.470104
0.173065 0.606172 0.472569
0.305250 0.598822 0.477906
0.469847 0.592659 0.486075
0.599251 0.589719 0.495665
0.681955 0.590641 0.510151
0.735479 0.586098 0.532204
0.763423 0.557772 0.597601
0.122578 0.680737 0.480607
0.130067 0.679879 0.480649
0.175866 0.676895 0.481630
0.290530 0.672428 0.484290
0.443318 0.667880 0.489066
0.580241 0.664675 0.495527
0.666691 0.663463 0.503575
0.730106 0.662529 0.516269
0.763233 0.652665 0.572182
0.121432 0.730284 0.495314
0.127211 0.729622 0.495004
0.168609 0.726763 0.494694
0.265786 0.722755 0.495319
0.412725 0.718316 0.497612
0.547290 0.714758 0.501608
0.646977 0.713099 0.506973
0.724231 0.713389 0.513951
0.764510 0.709370 0.541042
0.106892 0.765875 0.564518
0.110037 0.766581 0.564518
0.118054 0.768256 0.564516
0.194648 0.765338 0.519375
0.354607 0.761167 0.517318
0.496642 0.758053 0.517932
0.615506 0.756552 0.520122
0.710905 0.757479 0.523981
0.768523 0.760511 0.531453
0.068521 0.124742 0.576856
0.071731 0.125825 0.608616
0.131065 0.135309 0.640742
0.351398 0.150663 0.642110
0.556665 0.167208 0.643229
0.656996 0.181320 0.645330
0.716622 0.184752 0.648705
0.748765 0.147524 0.652928
0.764161 0.103156 0.648746
0.070106 0.138926 0.582128
0.074253 0.141584 0.608227
0.133494 0.156013 0.639032
0.350513 0.167504 0.641011
0.552089 0.183322 0.642404
0.654709 0.200432 0.644663
0.715785 0.203514 0.648346
0.748399 0.160813 0.652878
0.764161 0.103157 0.648746
0.080072 0.246129 0.590138
0.085682 0.245182 0.602065
0.144648 0.248079 0.629213
0.352281 0.254885 0.635581
0.537558 0.271275 0.638349
0.646136 0.284770 0.641585
0.712293 0.286092 0.646437
0.746362 0.245348 0.652351
0.764161 0.103158 0.648745
0.093215 0.399595 0.582060
0.100515 0.397553 0.587819
0.158568 0.393773 0.607869
0.348960 0.390930 0.622054
0.521371 0.395724 0.628914
0.633383 0.402937 0.634533
0.706503 0.405306 0.641474
0.743612 0.379178 0.650334
0.765448 0.191465 0.650920
0.108075 0.529771 0.576243
0.116206 0.528387 0.578368
0.174291 0.524658 0.588934
0.339889 0.518432 0.602000
0.503582 0.515564 0.612957
0.618659 0.517071 0.621368
0.697564 0.519251 0.631818
0.740178 0.505928 0.644788
0.764000 0.446044 0.657873
0.121624 0.619085 0.576117
0.130710 0.617686 0.576823
0.183339 0.613219 0.580659
0.326712 0.607073 0.588374
0.481390 0.602120 0.597611
0.606193 0.602974 0.608454
0.685200 0.600880 0.617342
0.736299 0.595981 0.633723
0.763319 0.568699 0.657249
0.131839 0.683079 0.581445
0.142376 0.682313 0.581516
0.185121 0.679699 0.582678
0.313396 0.675836 0.585890
0.459916 0.671984 0.591601
0.588629 0.669360 0.597730
0.671868 0.668518 0.604909
0.731935 0.667296 0.617158
0.763326 0.657434 0.651904
0.128714 0.731653 0.591898
0.136544 0.731051 0.591622
0.181751 0.728447 0.590956
0.286131 0.724814 0.591048
0.426227 0.720888 0.592653
0.559750 0.717840 0.595687
0.654006 0.716538 0.599845
0.726728 0.716893 0.605477
0.764747 0.712544 0.637692
0.108881 0.766336 0.598485
0.111870 0.766955 0.600072
0.118620 0.768368 0.606099
0.202278 0.766235 0.605484
0.363477 0.762340 0.603133
0.505486 0.759577 0.602911
0.620559 0.758366 0.604057
0.713898 0.759330 0.606226
0.768654 0.762546 0.628091
0.070105 0.162956 0.669340
0.072878 0.162589 0.683749
0.119569 0.177144 0.691951
0.345751 0.188010 0.692555
0.552516 0.209171 0.693387
0.654917 0.227448 0.694438
0.715640 0.228803 0.695948
0.747810 0.182307 0.696980
0.764160 0.103153 0.690730
0.071659 0.180291 0.671660
0.074863 0.180185 0.683555
0.122371 0.196123 0.691885
0.345714 0.209163 0.692630
0.549096 0.230069 0.693499
0.653103 0.248159 0.694564
0.714896 0.249253 0.696104
0.747490 0.199264 0.697223
0.764160 0.103152 0.690375
0.080702 0.290645 0.676392
0.085184 0.289148 0.682415
0.135336 0.293494 0.690612
0.349412 0.299067 0.692388
0.537819 0.314470 0.693533
0.646049 0.325670 0.694752
0.711876 0.325562 0.696494
0.745843 0.289353 0.698087
0.764153 0.103123 0.688757
0.094893 0.432421 0.672215
0.101437 0.430397 0.676362
0.157149 0.427550 0.685858
0.350972 0.425199 0.690361
0.524488 0.430344 0.692484
0.635194 0.437226 0.694354
0.706911 0.436067 0.696588
0.743540 0.409969 0.699113
0.764755 0.277086 0.697376
0.111568 0.544011 0.663940
0.119387 0.542848 0.666809
0.178802 0.539821 0.676472
0.348129 0.535823 0.684387
0.510793 0.534480 0.689022
0.622232 0.535636 0.692110
0.699454 0.534824 0.695372
0.740601 0.525274 0.699448
0.763873 0.467654 0.701205
0.127228 0.629130 0.657527
0.137845 0.627978 0.658974
0.189920 0.624346 0.665132
0.343626 0.619181 0.674330
0.492628 0.615020 0.681684
0.609263 0.613552 0.687014
0.688226 0.612774 0.691805
0.737205 0.607257 0.697886
0.763385 0.579957 0.703707
0.138173 0.687330 0.655107
0.149611 0.686644 0.655636
0.196364 0.684250 0.658257
0.328670 0.680738 0.663651
0.469433 0.677376 0.671170
0.593730 0.675171 0.678022
0.674934 0.674474 0.683578
0.733331 0.672923 0.692339
0.763546 0.662763 0.704867
0.130764 0.734935 0.657965
0.139420 0.734356 0.657899
0.183331 0.731798 0.658047
0.292208 0.728352 0.659499
0.434258 0.724705 0.662873
0.566615 0.721931 0.667726
0.657919 0.720865 0.673468
0.728004 0.721188 0.679751
0.764969 0.716515 0.702676
0.108620 0.766271 0.645527
0.114396 0.767478 0.645534
0.122106 0.769040 0.645749
0.189837 0.768664 0.666210
0.360979 0.764446 0.664020
0.505102 0.761884 0.664581
0.620875 0.760846 0.666154
0.714086 0.761889 0.668204
0.768774 0.765373 0.701513
0.072985 0.215091 0.732403
0.075585 0.213481 0.733353
0.124972 0.222343 0.733098
0.357928 0.238716 0.733184
0.563046 0.260120 0.733550
0.659738 0.277133 0.734050
0.717232 0.276141 0.734637
0.748831 0.218462 0.735796
0.764322 0.106456 0.729841
0.074501 0.236821 0.732455
0.077152 0.235348 0.733345
0.129076 0.244166 0.733275
0.357741 0.259893 0.733358
0.560360 0.279575 0.733708
0.658369 0.294987 0.734199
0.716691 0.293755 0.734790
0.748557 0.238177 0.735922
0.764375 0.107473 0.729841
0.083627 0.340847 0.732674
0.088131 0.338517 0.733262
0.151489 0.339129 0.733655
0.362202 0.347662 0.733821
0.550520 0.360742 0.734159
0.652490 0.370599 0.734643
0.714241 0.368702 0.735276
0.747187 0.324609 0.736313
0.764959 0.122924 0.729841
0.098322 0.461374 0.732145
0.104511 0.459808 0.732801
0.173696 0.456999 0.733836
0.365499 0.456560 0.734283
0.537747 0.460973 0.734702
0.643441 0.465804 0.735244
0.710354 0.463838 0.735989
0.745335 0.438981 0.737021
0.764954 0.309374 0.735458
0.115435 0.559517 0.730197
0.123142 0.558397 0.731102
0.187907 0.555362 0.733126
0.364492 0.552311 0.734324
0.524996 0.551956 0.735109
0.631584 0.553220 0.735819
0.704806 0.551763 0.736685
0.742941 0.539383 0.737860
0.764362 0.482957 0.737308
0.131752 0.641719 0.726136
0.143316 0.640686 0.727289
0.205228 0.637296 0.730610
0.357324 0.632723 0.733222
0.507838 0.629434 0.734835
0.617944 0.628736 0.736010
0.695266 0.627546 0.737138
0.740049 0.619501 0.738579
0.764080 0.588983 0.738850
0.141186 0.693145 0.719873
0.152270 0.692547 0.720825
0.205302 0.690275 0.724483
0.341709 0.687129 0.729112
0.480311 0.684074 0.732754
0.601089 0.682308 0.735103
0.681106 0.681699 0.736830
0.736225 0.679448 0.738914
0.764279 0.667493 0.740162
0.124759 0.740778 0.712641
0.132047 0.740148 0.713111
0.180978 0.737186 0.715499
0.290191 0.733525 0.720240
0.435753 0.729880 0.725056
0.570270 0.727317 0.729773
0.660750 0.726405 0.733454
0.727785 0.725387 0.735287
0.765457 0.720696 0.741210
0.105828 0.765634 0.695976
0.121719 0.768995 0.696677
0.124175 0.769502 0.701500
0.181433 0.770792 0.710038
0.342526 0.767778 0.711425
0.492462 0.765204 0.714286
0.615021 0.764208 0.717662
0.710616 0.765199 0.719976
0.768901 0.768774 0.742473
0.092880 0.244832 0.763672
0.098254 0.248257 0.763689
0.172136 0.261713 0.763752
0.473927 0.283218 0.763912
0.617842 0.307213 0.764150
0.689149 0.323381 0.764449
0.729002 0.319028 0.765059
0.754294 0.231349 0.766090
0.764161 0.128725 0.759172
0.095355 0.263938 0.763673
0.101118 0.267458 0.763691
0.176602 0.279701 0.763753
0.472877 0.300356 0.763916
0.616974 0.323507 0.764156
0.688603 0.339811 0.764460
0.728796 0.333195 0.765064
0.754174 0.245942 0.766086
0.764161 0.139217 0.763502
0.109065 0.352088 0.763580
0.116703 0.354740 0.763601
0.197329 0.363121 0.763678
0.469744 0.377956 0.763867
0.613278 0.394808 0.764125
0.686162 0.406500 0.764465
0.727800 0.400476 0.765048
0.753566 0.323520 0.766027
0.764161 0.139241 0.763502
0.137166 0.478841 0.763459
0.151708 0.479545 0.763493
0.247226 0.482301 0.763609
0.465446 0.488573 0.763834
0.606290 0.496524 0.764115
0.681205 0.501760 0.764482
0.725880 0.496799 0.765075
0.752551 0.457295 0.765968
0.766553 0.307972 0.766778
0.165079 0.573847 0.763547
0.180247 0.573775 0.763596
0.280752 0.573659 0.763758
0.457465 0.575167 0.763984
0.596216 0.578255 0.764307
0.673920 0.580194 0.764703
0.723139 0.576993 0.765264
0.751694 0.556622 0.766152
0.767258 0.459645 0.767882
0.174921 0.651890 0.763894
0.183494 0.651584 0.763959
0.284714 0.650543 0.764165
0.441665 0.650080 0.764431
0.581010 0.650772 0.764752
0.662531 0.651441 0.765155
0.719021 0.650037 0.765683
0.750502 0.638264 0.766491
0.767410 0.583212 0.768053
0.162778 0.700047 0.764526
0.175661 0.699613 0.764606
0.250745 0.698003 0.764835
0.408811 0.696204 0.765131
0.547223 0.695657 0.765481
0.642551 0.696019 0.765884
0.711650 0.695780 0.766444
0.748638 0.690958 0.767160
0.767761 0.667526 0.768533
0.120393 0.744604 0.763957
0.126035 0.744166 0.764528
0.171471 0.742179 0.765530
0.307664 0.739051 0.766072
0.474948 0.736780 0.766541
0.604552 0.736166 0.766982
0.690184 0.736841 0.767481
0.743414 0.736241 0.768138
0.768326 0.722386 0.769203
0.100905 0.764538 0.726934
0.124331 0.769535 0.735912
0.124332 0.769535 0.735912
0.136355 0.769921 0.735936
0.277702 0.771926 0.755958
0.464747 0.769461 0.767811
0.606970 0.768736 0.768889
0.707790 0.769980 0.769504
0.769058 0.772102 0.769936
