LUTs/negative-superia-reala/SuperiaReala_Classic_Normal.cube
TITLE "Fuji Superia Reala Classic Normal"
# Adobe RGB in/out. REPLACES AgX. Fuji Superia Reala Classic Normal.
LUT_3D_SIZE 5
DOMAIN_MIN 0.0 0.0 0.0
DOMAIN_MAX 1.0 1.0 1.0
0.074318 0.073381 0.089635
0.184660 0.088596 0.091768
0.607957 0.114766 0.097420
0.804708 0.134273 0.113895
0.854693 0.125048 0.544329
0.079216 0.184119 0.092506
0.139476 0.155788 0.094556
0.541013 0.174993 0.100643
0.790026 0.202927 0.115745
0.854694 0.125051 0.544327
0.088754 0.511535 0.100029
0.123968 0.483062 0.104186
0.399834 0.437523 0.114646
0.743795 0.444637 0.131601
0.855835 0.360129 0.266154
0.101756 0.743767 0.116843
0.133308 0.733990 0.123507
0.335580 0.711386 0.140738
0.680777 0.697937 0.162473
0.851738 0.689560 0.198211
0.103503 0.831371 0.123216
0.158530 0.838424 0.123252
0.283625 0.839290 0.156881
0.608486 0.833117 0.187536
0.858003 0.837495 0.209989
0.076379 0.089739 0.158657
0.154100 0.100581 0.333566
0.613392 0.131761 0.282048
0.803703 0.146220 0.345102
0.854694 0.125051 0.544351
0.087716 0.187353 0.163892
0.196799 0.195929 0.195545
0.562023 0.208574 0.206747
0.793143 0.223149 0.244954
0.854694 0.125051 0.544328
0.105924 0.510418 0.184802
0.161556 0.491729 0.191390
0.461271 0.465346 0.206047
0.757481 0.471647 0.226954
0.855619 0.372865 0.441738
0.120981 0.741632 0.204017
0.163216 0.734016 0.211658
0.381919 0.715980 0.229111
0.706392 0.705936 0.250325
0.852773 0.693043 0.282170
0.103508 0.836164 0.207178
0.158530 0.843007 0.207174
0.304607 0.839313 0.225456
0.629095 0.833745 0.265730
0.859033 0.837464 0.287683
0.079188 0.125775 0.452585
0.169020 0.138997 0.597716
0.586115 0.169201 0.599649
0.797982 0.188812 0.616906
0.854694 0.125051 0.654718
0.092728 0.231773 0.467433
0.182766 0.231157 0.543489
0.555545 0.250912 0.570291
0.790181 0.267402 0.599720
0.854694 0.125054 0.643986
0.126993 0.519657 0.461660
0.198501 0.509395 0.470319
0.512362 0.506103 0.510959
0.766550 0.504011 0.539431
0.854887 0.414851 0.639503
0.155865 0.741577 0.484718
0.212108 0.736380 0.485967
0.442880 0.724215 0.495065
0.734719 0.718269 0.512337
0.853565 0.703774 0.588716
0.133082 0.842899 0.579347
0.149571 0.844830 0.579345
0.352267 0.839076 0.525906
0.666331 0.835322 0.528980
0.860001 0.838543 0.541416
0.083006 0.197133 0.718535
0.151653 0.211362 0.748801
0.570438 0.237465 0.750784
0.793243 0.253100 0.754322
0.854693 0.125045 0.747117
0.095553 0.302465 0.727395
0.171395 0.304898 0.746953
0.552447 0.321603 0.750985
0.787489 0.331766 0.755077
0.854684 0.124994 0.744395
0.139894 0.558488 0.712147
0.215036 0.552067 0.727504
0.520771 0.543918 0.744761
0.769864 0.544441 0.753525
0.854344 0.468472 0.761596
0.173965 0.750510 0.701709
0.235916 0.746333 0.705431
0.471415 0.737029 0.720701
0.743565 0.733108 0.737265
0.853945 0.717328 0.766673
0.135797 0.843220 0.690405
0.155149 0.845466 0.690667
0.358580 0.841739 0.712241
0.673548 0.838815 0.714765
0.860306 0.842492 0.762024
0.112249 0.265578 0.840639
0.208377 0.278468 0.840750
0.669476 0.316189 0.841306
0.812015 0.325711 0.842573
0.854694 0.162394 0.834374
0.136497 0.351460 0.840511
0.236642 0.361700 0.840647
0.663335 0.392337 0.841270
0.810559 0.397809 0.842557
0.854694 0.175087 0.840402
0.201289 0.604915 0.840465
0.295968 0.604619 0.840759
0.633792 0.610346 0.841524
0.804739 0.608826 0.842859
0.858462 0.459965 0.845787
0.198984 0.767801 0.841829
0.275433 0.765017 0.842260
0.563948 0.761823 0.843160
0.787144 0.761990 0.844504
0.859074 0.723738 0.846349
0.123538 0.841814 0.790445
0.158531 0.845867 0.802287
0.294048 0.848109 0.829904
0.654585 0.845220 0.846657
0.860652 0.848339 0.847562
