LUTs/negative-superia-reala/SuperiaReala_Classic_Soft.cube
TITLE "Fuji Superia Reala Classic Soft"
# Adobe RGB in/out. REPLACES AgX. Fuji Superia Reala Classic Soft.
LUT_3D_SIZE 5
DOMAIN_MIN 0.0 0.0 0.0
DOMAIN_MAX 1.0 1.0 1.0
0.061901 0.068453 0.087572
0.148607 0.078340 0.093405
0.582632 0.097211 0.103043
0.723118 0.108531 0.119274
0.764160 0.103154 0.534105
0.066870 0.150155 0.094526
0.111256 0.125083 0.099008
0.528438 0.139114 0.107407
0.713537 0.168710 0.120857
0.764161 0.103156 0.534103
0.075598 0.508542 0.106640
0.101148 0.481526 0.111609
0.405154 0.441674 0.119953
0.675149 0.447701 0.132887
0.765099 0.361498 0.249825
0.085196 0.682355 0.121660
0.107036 0.675127 0.126505
0.335470 0.658341 0.139639
0.626319 0.648824 0.155586
0.761731 0.643499 0.183686
0.086611 0.751701 0.126275
0.124331 0.760365 0.126300
0.262448 0.761430 0.151167
0.582913 0.753845 0.174210
0.766881 0.759222 0.194116
0.063749 0.079231 0.152574
0.121346 0.087533 0.327623
0.585511 0.107078 0.267655
0.722464 0.118668 0.339678
0.764161 0.103156 0.534124
0.074787 0.153320 0.156658
0.160602 0.161764 0.181322
0.545650 0.174349 0.191248
0.715575 0.189926 0.227936
0.764161 0.103156 0.534103
0.088399 0.507484 0.171779
0.126586 0.489757 0.177634
0.460853 0.464679 0.190629
0.687906 0.470674 0.209096
0.764921 0.374660 0.442164
0.099133 0.680778 0.188831
0.127997 0.675145 0.195592
0.388940 0.661761 0.210997
0.645315 0.654278 0.233218
0.762582 0.646326 0.267792
0.086616 0.757587 0.191630
0.124331 0.766008 0.191626
0.289641 0.761459 0.207775
0.593765 0.754615 0.249352
0.767728 0.759184 0.274022
0.066831 0.103582 0.453488
0.132939 0.112022 0.579526
0.565263 0.132430 0.581101
0.718735 0.154751 0.594504
0.764161 0.103157 0.619822
0.078894 0.201802 0.466061
0.146751 0.200945 0.533340
0.540354 0.226025 0.557091
0.713638 0.247201 0.581158
0.764161 0.103158 0.612682
0.102991 0.516236 0.461180
0.162296 0.506514 0.468498
0.503791 0.503394 0.502125
0.696364 0.501410 0.529645
0.764320 0.418140 0.609689
0.122578 0.680737 0.480607
0.175866 0.676895 0.481630
0.443318 0.667880 0.489066
0.666691 0.663463 0.503575
0.763233 0.652665 0.572182
0.106892 0.765875 0.564518
0.118054 0.768256 0.564516
0.354607 0.761167 0.517318
0.615506 0.756552 0.520122
0.768523 0.760511 0.531453
0.070105 0.162956 0.669340
0.119569 0.177144 0.691951
0.552516 0.209171 0.693387
0.715640 0.228803 0.695948
0.764160 0.103153 0.690730
0.080702 0.290645 0.676392
0.135336 0.293494 0.690612
0.537819 0.314470 0.693533
0.711876 0.325562 0.696494
0.764153 0.103123 0.688757
0.111568 0.544011 0.663940
0.178802 0.539821 0.676472
0.510793 0.534480 0.689022
0.699454 0.534824 0.695372
0.763873 0.467654 0.701205
0.138173 0.687330 0.655107
0.196364 0.684250 0.658257
0.469433 0.677376 0.671170
0.674934 0.674474 0.683578
0.763546 0.662763 0.704867
0.108620 0.766271 0.645527
0.122106 0.769040 0.645749
0.360979 0.764446 0.664020
0.620875 0.760846 0.666154
0.768774 0.765373 0.701513
0.092880 0.244832 0.763672
0.172136 0.261713 0.763752
0.617842 0.307213 0.764150
0.729002 0.319028 0.765059
0.764161 0.128725 0.759172
0.109065 0.352088 0.763580
0.197329 0.363121 0.763678
0.613278 0.394808 0.764125
0.727800 0.400476 0.765048
0.764161 0.139241 0.763502
0.165079 0.573847 0.763547
0.280752 0.573659 0.763758
0.596216 0.578255 0.764307
0.723139 0.576993 0.765264
0.767258 0.459645 0.767882
0.162778 0.700047 0.764526
0.250745 0.698003 0.764835
0.547223 0.695657 0.765481
0.711650 0.695780 0.766444
0.767761 0.667526 0.768533
0.100905 0.764538 0.726934
0.124332 0.769535 0.735912
0.277702 0.771926 0.755958
0.606970 0.768736 0.768889
0.769058 0.772102 0.769936
