LUTs/negative-superia-reala/SuperiaReala_Classic_ExtraPunchy.cube
TITLE "Fuji Superia Reala Classic ExtraPunchy"
# Adobe RGB in/out. REPLACES AgX. Fuji Superia Reala Classic ExtraPunchy.
LUT_3D_SIZE 33
DOMAIN_MIN 0.0 0.0 0.0
DOMAIN_MAX 1.0 1.0 1.0
0.069662 0.073299 0.081842
0.067860 0.072750 0.078787
0.068198 0.072480 0.078596
0.070500 0.072353 0.078085
0.077578 0.073501 0.078271
0.082920 0.074521 0.078404
0.098669 0.076507 0.078665
0.136227 0.078973 0.079014
0.161342 0.080232 0.079269
0.205340 0.082201 0.079604
0.285248 0.085635 0.080112
0.339277 0.087989 0.080407
0.388880 0.090230 0.080713
0.451091 0.092978 0.081164
0.513390 0.097359 0.081734
0.559049 0.099923 0.082518
0.591040 0.102241 0.083249
0.622877 0.105541 0.084106
0.654305 0.109848 0.085569
0.676318 0.112020 0.086487
0.696201 0.114458 0.087481
0.713800 0.117882 0.089051
0.731159 0.120314 0.091073
0.748487 0.119669 0.092982
0.761919 0.119049 0.096157
0.773311 0.116840 0.100711
0.784228 0.107336 0.110765
0.790051 0.101416 0.153536
0.801768 0.073299 0.421219
0.801767 0.073299 0.421190
0.801766 0.073299 0.421188
0.801766 0.073299 0.421187
0.808466 0.109962 0.540441
0.068348 0.073067 0.079066
0.068067 0.072621 0.078620
0.069085 0.072190 0.078665
0.072018 0.072614 0.078077
0.080305 0.074128 0.078321
0.084875 0.074966 0.078434
0.101542 0.076944 0.078701
0.138926 0.079389 0.079058
0.163086 0.080548 0.079301
0.206391 0.082540 0.079627
0.285348 0.085955 0.080131
0.338821 0.088374 0.080422
0.388063 0.090562 0.080733
0.450033 0.093274 0.081180
0.512515 0.097711 0.081766
0.558171 0.100242 0.082545
0.590463 0.102533 0.083272
0.622372 0.105884 0.084134
0.653984 0.110228 0.085593
0.676039 0.112379 0.086507
0.695971 0.114939 0.087497
0.713616 0.118350 0.089070
0.731010 0.120774 0.091088
0.748365 0.120121 0.092987
0.761827 0.119494 0.096142
0.773262 0.117281 0.100624
0.784189 0.107637 0.110454
0.790029 0.101641 0.151772
0.801768 0.073299 0.421220
0.801767 0.073299 0.421190
0.801766 0.073299 0.421188
0.801766 0.073299 0.421187
0.808466 0.109962 0.540441
0.068145 0.074025 0.078706
0.067500 0.073791 0.078404
0.068379 0.073332 0.078367
0.072042 0.074418 0.078207
0.081547 0.076330 0.078427
0.089777 0.076679 0.078526
0.110788 0.078539 0.078817
0.151500 0.081119 0.079225
0.171879 0.082034 0.079419
0.212167 0.084000 0.079721
0.286670 0.087287 0.080200
0.337702 0.089816 0.080484
0.385426 0.091797 0.080804
0.446343 0.094694 0.081239
0.509366 0.099008 0.081881
0.554963 0.101415 0.082642
0.588337 0.103868 0.083355
0.620506 0.107140 0.084236
0.652682 0.111617 0.085679
0.675004 0.113749 0.086579
0.695121 0.116700 0.087557
0.712934 0.120063 0.089141
0.730462 0.122456 0.091145
0.747917 0.121774 0.093008
0.761486 0.121118 0.096093
0.773080 0.118893 0.100330
0.784043 0.108828 0.109407
0.789946 0.102461 0.145732
0.801768 0.073299 0.421222
0.801767 0.073299 0.421190
0.801766 0.073299 0.421188
0.801767 0.073299 0.421187
0.808466 0.109963 0.540441
0.067593 0.079676 0.078052
0.067618 0.079437 0.078148
0.068509 0.078675 0.078252
0.070656 0.077958 0.078330
0.077532 0.080436 0.078603
0.085550 0.079803 0.078685
0.108555 0.081576 0.078963
0.153304 0.084384 0.079435
0.179471 0.084975 0.079597
0.221058 0.086607 0.079889
0.292532 0.090700 0.080332
0.338643 0.092730 0.080620
0.382202 0.094556 0.080940
0.440272 0.097499 0.081350
0.503629 0.101546 0.082099
0.548876 0.103979 0.082826
0.584214 0.106471 0.083512
0.616853 0.109890 0.084430
0.649618 0.114583 0.085844
0.672962 0.117283 0.086718
0.693432 0.120088 0.087671
0.711594 0.123350 0.089280
0.729384 0.125678 0.091260
0.747038 0.124938 0.093061
0.760818 0.124226 0.096034
0.772722 0.121978 0.099916
0.783757 0.111105 0.107751
0.789780 0.104395 0.135915
0.801769 0.073299 0.421227
0.801767 0.073299 0.421191
0.801766 0.073299 0.421189
0.801767 0.073299 0.421187
0.808466 0.109964 0.540440
0.067738 0.091540 0.078392
0.068001 0.091037 0.078450
0.068905 0.089769 0.078548
0.071322 0.088103 0.078680
0.075148 0.086825 0.078856
0.081319 0.084919 0.078899
0.098436 0.086496 0.079218
0.140024 0.089587 0.079665
0.170902 0.089499 0.079827
0.217363 0.091088 0.080093
0.292572 0.095349 0.080534
0.336448 0.097330 0.080861
0.378241 0.099005 0.081140
0.433369 0.101830 0.081521
0.495770 0.106587 0.082444
0.539583 0.108879 0.083117
0.577580 0.111236 0.083759
0.610836 0.114803 0.084734
0.644520 0.120656 0.086103
0.669541 0.123009 0.086938
0.690578 0.125546 0.087854
0.709352 0.128620 0.089507
0.727585 0.131385 0.091460
0.745573 0.130321 0.093176
0.759708 0.129297 0.096011
0.772126 0.126904 0.099598
0.783278 0.115203 0.105838
0.789496 0.107525 0.126650
0.801769 0.073299 0.421237
0.801767 0.073299 0.421192
0.801766 0.073299 0.421189
0.801769 0.073299 0.421188
0.808466 0.109964 0.540440
0.067973 0.098577 0.078555
0.068128 0.098075 0.078597
0.068807 0.096935 0.078671
0.070508 0.095218 0.078848
0.073285 0.093297 0.078950
0.078507 0.092272 0.079188
0.091681 0.094224 0.079525
0.124979 0.097730 0.079987
0.154120 0.096236 0.080075
0.200153 0.097461 0.080305
0.278520 0.101574 0.080814
0.327571 0.103252 0.081136
0.371891 0.104786 0.081394
0.425357 0.107683 0.081787
0.487714 0.112816 0.082870
0.529513 0.115958 0.083491
0.569211 0.119477 0.084094
0.601846 0.124488 0.085173
0.636550 0.130313 0.086480
0.664094 0.132508 0.087260
0.686019 0.135135 0.088254
0.705784 0.138642 0.089852
0.724729 0.141212 0.091781
0.743247 0.139930 0.093395
0.757951 0.138695 0.096101
0.771093 0.135718 0.099366
0.782511 0.122816 0.104136
0.789029 0.112918 0.118138
0.801770 0.073299 0.421256
0.801767 0.073299 0.421194
0.801767 0.073299 0.421191
0.808462 0.109943 0.421188
0.808466 0.109964 0.540440
0.068352 0.115942 0.078915
0.068521 0.115104 0.078949
0.069197 0.113307 0.079110
0.070907 0.111106 0.079295
0.073479 0.108518 0.079494
0.078347 0.106244 0.079668
0.087099 0.104684 0.079890
0.112686 0.108701 0.080304
0.138514 0.105524 0.080362
0.180040 0.105968 0.080579
0.255685 0.110968 0.081158
0.310478 0.112377 0.081448
0.357263 0.112979 0.081652
0.412574 0.116601 0.082332
0.478681 0.123759 0.083381
0.519680 0.127136 0.083965
0.561007 0.129465 0.084668
0.594088 0.134683 0.085665
0.628663 0.142526 0.086922
0.657616 0.145689 0.087667
0.679458 0.149568 0.088832
0.700090 0.153634 0.090411
0.720179 0.155747 0.092274
0.739540 0.154107 0.093904
0.755163 0.152529 0.096403
0.768976 0.149435 0.099360
0.781271 0.135523 0.103141
0.788252 0.123793 0.112361
0.801773 0.073299 0.421302
0.801767 0.073299 0.421200
0.801767 0.073299 0.421193
0.808466 0.109963 0.421189
0.808466 0.109964 0.540440
0.068981 0.150713 0.079489
0.069109 0.149727 0.079526
0.069778 0.147661 0.079681
0.071607 0.143722 0.079873
0.073885 0.138876 0.080052
0.079150 0.134159 0.080258
0.087668 0.129725 0.080421
0.104655 0.126887 0.080649
0.126396 0.120167 0.080706
0.162312 0.119662 0.080979
0.229819 0.126453 0.081519
0.288094 0.126962 0.081848
0.336876 0.126713 0.082267
0.394654 0.130153 0.082956
0.465701 0.138621 0.083928
0.507786 0.141501 0.084599
0.548559 0.144312 0.085322
0.584816 0.150080 0.086279
0.619601 0.157834 0.087469
0.650585 0.159611 0.088275
0.674020 0.162459 0.089469
0.695315 0.166860 0.091088
0.715372 0.170965 0.092895
0.734622 0.171748 0.094669
0.750550 0.173038 0.097047
0.765471 0.169823 0.099749
0.779140 0.157422 0.103357
0.786882 0.144102 0.109781
0.801786 0.072834 0.421462
0.801768 0.073299 0.421218
0.801767 0.073299 0.421201
0.808466 0.109964 0.421193
0.808466 0.109964 0.540440
0.069252 0.170198 0.079757
0.069379 0.169338 0.079788
0.069973 0.167143 0.079909
0.071540 0.163889 0.080082
0.073519 0.159541 0.080253
0.077239 0.154616 0.080415
0.084327 0.150047 0.080635
0.095582 0.145836 0.080873
0.117120 0.142631 0.081121
0.149020 0.140738 0.081365
0.207338 0.149346 0.082121
0.265769 0.148426 0.082617
0.314257 0.146646 0.082989
0.372807 0.149399 0.083601
0.444905 0.157447 0.084717
0.493349 0.159317 0.085388
0.535173 0.161493 0.086041
0.575728 0.166569 0.086930
0.610803 0.174126 0.088156
0.640810 0.176607 0.089138
0.666330 0.180475 0.090324
0.689068 0.183615 0.091932
0.710472 0.186869 0.093695
0.730726 0.186689 0.095499
0.747590 0.187503 0.097714
0.762384 0.188027 0.100519
0.776575 0.181892 0.104449
0.784504 0.176350 0.110172
0.802148 0.075155 0.423293
0.801781 0.073092 0.421403
0.801770 0.073299 0.421251
0.808466 0.109965 0.421208
0.808466 0.109964 0.540439
0.069705 0.202470 0.080140
0.069825 0.201443 0.080162
0.070553 0.198534 0.080249
0.071889 0.194728 0.080396
0.073609 0.189246 0.080579
0.077053 0.183707 0.080816
0.083202 0.178662 0.081063
0.092972 0.173936 0.081296
0.110421 0.169835 0.081518
0.138383 0.166656 0.081786
0.190249 0.175370 0.082934
0.242572 0.173196 0.083400
0.292707 0.169647 0.083697
0.350403 0.171258 0.084344
0.421931 0.179027 0.085616
0.476472 0.179802 0.086213
0.519554 0.180902 0.086809
0.565439 0.185169 0.087633
0.601543 0.195099 0.089186
0.631301 0.197703 0.090092
0.659720 0.200456 0.091308
0.682364 0.206447 0.092870
0.703951 0.212900 0.094903
0.724928 0.212974 0.096583
0.743235 0.212284 0.098610
0.759189 0.211687 0.101621
0.774909 0.203360 0.105130
0.783381 0.195230 0.110048
0.792338 0.178691 0.117038
0.798714 0.160083 0.142607
0.805392 0.110830 0.383952
0.808466 0.109965 0.423918
0.808466 0.109965 0.540439
0.070811 0.261262 0.080736
0.070961 0.260227 0.080763
0.071531 0.257094 0.080865
0.072793 0.253555 0.081066
0.074409 0.247617 0.081282
0.078188 0.240512 0.081509
0.084496 0.233117 0.081780
0.094462 0.225810 0.082295
0.112353 0.219116 0.082776
0.140226 0.213430 0.083263
0.176707 0.209158 0.083751
0.222670 0.204293 0.084164
0.273970 0.197737 0.084561
0.328802 0.198394 0.085310
0.398933 0.208242 0.086532
0.455048 0.207531 0.087077
0.502090 0.207299 0.087594
0.550720 0.212019 0.088617
0.591638 0.222614 0.090304
0.621485 0.223678 0.091269
0.651822 0.227191 0.092433
0.675148 0.233820 0.094098
0.698087 0.238394 0.096155
0.719524 0.238923 0.097737
0.737980 0.241433 0.099697
0.754286 0.244681 0.103189
0.772343 0.235070 0.106331
0.781661 0.225366 0.110552
0.791118 0.205906 0.115861
0.798016 0.181576 0.130067
0.805136 0.120435 0.326103
0.808466 0.109966 0.432335
0.808466 0.109967 0.435361
0.071479 0.302950 0.081206
0.071601 0.302027 0.081227
0.072100 0.299112 0.081308
0.073147 0.295517 0.081470
0.074686 0.289915 0.081657
0.078213 0.283390 0.082089
0.084070 0.275861 0.082614
0.092765 0.267973 0.083089
0.107917 0.260413 0.083553
0.132367 0.253643 0.084000
0.164472 0.247806 0.084594
0.206833 0.243486 0.085254
0.254526 0.233992 0.085552
0.309697 0.233951 0.086287
0.377525 0.243525 0.087451
0.431703 0.240842 0.087950
0.484264 0.239387 0.088708
0.533562 0.243387 0.089829
0.580381 0.253359 0.091592
0.610867 0.253478 0.092498
0.641806 0.257276 0.093709
0.668278 0.262317 0.095568
0.691303 0.268750 0.097572
0.712903 0.270598 0.099090
0.732900 0.270990 0.101420
0.750526 0.272662 0.104849
0.768939 0.267948 0.107837
0.779223 0.264149 0.111752
0.789061 0.249133 0.116566
0.796796 0.221272 0.125481
0.804530 0.147155 0.229316
0.808466 0.109969 0.432377
0.808466 0.109970 0.438223
0.072020 0.340010 0.081564
0.072133 0.339149 0.081582
0.072555 0.336353 0.081648
0.073406 0.332487 0.081885
0.075019 0.327534 0.082298
0.078246 0.321284 0.082757
0.083311 0.313962 0.083219
0.090918 0.306382 0.083687
0.103967 0.298828 0.084141
0.125153 0.291594 0.084757
0.153420 0.285255 0.085365
0.189746 0.279314 0.085946
0.238008 0.274939 0.086560
0.292688 0.273251 0.087216
0.358338 0.283255 0.088637
0.410648 0.278853 0.089308
0.465706 0.275674 0.089973
0.516071 0.278840 0.091247
0.568574 0.288230 0.093032
0.599666 0.287044 0.093932
0.631295 0.289262 0.095307
0.660924 0.294546 0.097142
0.684430 0.301443 0.099102
0.706910 0.301128 0.100723
0.727024 0.303978 0.103544
0.745099 0.308344 0.106925
0.764925 0.301773 0.109563
0.777262 0.296294 0.113043
0.787393 0.285814 0.117651
0.795212 0.269887 0.125068
0.802107 0.244240 0.143334
0.808467 0.110012 0.432430
0.808467 0.109991 0.442356
0.072699 0.388313 0.082388
0.072796 0.387503 0.082424
0.073154 0.384815 0.082558
0.073864 0.380819 0.082823
0.075882 0.376485 0.083222
0.078924 0.369955 0.083630
0.083651 0.362517 0.084054
0.090922 0.354743 0.084676
0.102905 0.346885 0.085306
0.122159 0.338970 0.085892
0.148217 0.331623 0.086456
0.182019 0.325219 0.087038
0.225540 0.319538 0.087579
0.278569 0.315237 0.088299
0.340961 0.324200 0.090001
0.391483 0.319009 0.090778
0.444694 0.314039 0.091488
0.498718 0.315647 0.092666
0.554039 0.324341 0.094752
0.588077 0.322478 0.095784
0.620467 0.323589 0.097063
0.653355 0.328574 0.098778
0.677683 0.334322 0.101002
0.700210 0.335277 0.103109
0.720923 0.338597 0.105821
0.740418 0.341037 0.108952
0.760355 0.338155 0.111528
0.774330 0.336893 0.114822
0.785418 0.324819 0.119156
0.794012 0.307653 0.125075
0.801423 0.280475 0.136054
0.806784 0.242085 0.224731
0.810599 0.194677 0.446246
0.073526 0.442148 0.083627
0.073609 0.441542 0.083658
0.073918 0.439498 0.083776
0.074913 0.436301 0.084005
0.077166 0.433052 0.084510
0.080284 0.427663 0.085036
0.085089 0.421898 0.085642
0.092574 0.415224 0.086229
0.104664 0.408453 0.086838
0.123973 0.401415 0.087416
0.149803 0.393334 0.088050
0.182479 0.385738 0.088870
0.225093 0.378988 0.089719
0.276563 0.373218 0.090609
0.325410 0.368627 0.091617
0.373915 0.361531 0.092309
0.425513 0.355622 0.093020
0.482758 0.356250 0.094408
0.537280 0.364219 0.096660
0.576162 0.360949 0.097589
0.609238 0.361301 0.098839
0.643213 0.365801 0.100801
0.670618 0.370861 0.103588
0.693419 0.372275 0.105617
0.715019 0.374324 0.108143
0.734792 0.379185 0.111245
0.755569 0.376571 0.113658
0.771972 0.373070 0.117013
0.783222 0.366562 0.121139
0.792146 0.356614 0.126357
0.800292 0.329162 0.133986
0.806209 0.287437 0.169568
0.810563 0.206486 0.438130
0.074014 0.479901 0.084501
0.074087 0.479336 0.084541
0.074542 0.477404 0.084687
0.075695 0.474265 0.084971
0.077609 0.470687 0.085436
0.080829 0.465915 0.085952
0.085588 0.460619 0.086558
0.092334 0.453721 0.087081
0.103341 0.446822 0.087645
0.121140 0.440062 0.088424
0.144498 0.432963 0.089235
0.173915 0.426371 0.090057
0.212406 0.420371 0.091021
0.261952 0.414824 0.091968
0.308815 0.410277 0.092892
0.359088 0.406592 0.094006
0.407913 0.400155 0.094868
0.467265 0.399874 0.096381
0.521384 0.406695 0.098608
0.564750 0.403132 0.099488
0.597801 0.402158 0.100974
0.632565 0.405299 0.103572
0.663293 0.409112 0.106288
0.686670 0.409402 0.108176
0.708788 0.411583 0.110626
0.729302 0.415755 0.113622
0.750731 0.413649 0.116062
0.767809 0.413652 0.119639
0.780928 0.408304 0.123407
0.790708 0.397336 0.127843
0.799053 0.379165 0.134360
0.805111 0.354588 0.154663
0.810253 0.256288 0.383460
0.074780 0.518162 0.085515
0.074922 0.517634 0.085550
0.075443 0.515806 0.085677
0.076454 0.512751 0.085922
0.078312 0.509002 0.086318
0.081501 0.504716 0.086827
0.085591 0.498912 0.087334
0.092154 0.492618 0.087872
0.102436 0.485811 0.088703
0.118525 0.478765 0.089546
0.139988 0.471785 0.090446
0.166923 0.464860 0.091393
0.202473 0.458264 0.092306
0.247147 0.452504 0.093244
0.294426 0.447156 0.094398
0.342482 0.442702 0.095604
0.392870 0.439221 0.096863
0.449434 0.438294 0.098318
0.506486 0.443970 0.100825
0.550323 0.439469 0.102123
0.586783 0.437941 0.103900
0.621744 0.440266 0.106398
0.655677 0.443798 0.109071
0.679686 0.443393 0.110834
0.702523 0.445768 0.113219
0.723917 0.449234 0.116302
0.745394 0.448763 0.118960
0.763594 0.448102 0.122281
0.778511 0.444582 0.125869
0.788658 0.438872 0.130009
0.797799 0.423522 0.135501
0.804481 0.400103 0.149241
0.809468 0.360156 0.257916
0.075924 0.555015 0.086688
0.076051 0.554672 0.086719
0.076517 0.553476 0.086830
0.077416 0.551430 0.087043
0.079421 0.548785 0.087387
0.082806 0.546067 0.087892
0.086351 0.541842 0.088562
0.093310 0.537663 0.089412
0.103225 0.531013 0.090241
0.118284 0.523833 0.091177
0.138707 0.516764 0.092158
0.164412 0.509639 0.093097
0.198200 0.502888 0.094258
0.239766 0.496431 0.095417
0.286452 0.490771 0.096660
0.331899 0.485676 0.097840
0.380889 0.481284 0.099009
0.433865 0.477980 0.100394
0.492707 0.483146 0.103867
0.535805 0.477916 0.105104
0.576056 0.475346 0.106789
0.611150 0.477208 0.109266
0.646274 0.480226 0.111901
0.672443 0.479195 0.113566
0.696236 0.481494 0.116099
0.718369 0.484704 0.119422
0.740273 0.484529 0.121944
0.759166 0.484389 0.125106
0.775696 0.483523 0.128623
0.786917 0.476026 0.132268
0.796438 0.465345 0.137767
0.803443 0.450159 0.148428
0.809046 0.413291 0.199754
0.077254 0.589829 0.088135
0.077369 0.589530 0.088176
0.077854 0.588482 0.088329
0.079030 0.586659 0.088622
0.080921 0.584219 0.089091
0.084241 0.581554 0.089789
0.088077 0.577914 0.090538
0.095072 0.573888 0.091486
0.105096 0.569399 0.092412
0.120787 0.564666 0.093385
0.141030 0.559545 0.094621
0.166116 0.554555 0.095929
0.198257 0.549545 0.097150
0.238942 0.544832 0.098359
0.284182 0.540295 0.099513
0.329127 0.536000 0.101204
0.376310 0.531221 0.103081
0.427469 0.526846 0.104904
0.480322 0.523768 0.106903
0.522242 0.517887 0.108060
0.566005 0.514920 0.109722
0.600898 0.515871 0.112151
0.636190 0.518372 0.114728
0.665182 0.516873 0.116641
0.689597 0.518360 0.119353
0.712704 0.521636 0.122635
0.735204 0.521209 0.124995
0.754560 0.522425 0.128105
0.773244 0.520748 0.131316
0.784816 0.516509 0.134868
0.795007 0.507974 0.140610
0.802720 0.490734 0.148979
0.808515 0.465463 0.176637
0.078182 0.618476 0.089413
0.078335 0.618195 0.089450
0.078894 0.617202 0.089587
0.079963 0.615449 0.089849
0.081669 0.613025 0.090305
0.084773 0.610190 0.091042
0.089047 0.606826 0.091873
0.095107 0.602664 0.092699
0.105234 0.598338 0.093716
0.120039 0.593641 0.094993
0.138126 0.588596 0.096178
0.161526 0.583555 0.097419
0.191603 0.578550 0.098652
0.229271 0.573711 0.099847
0.274367 0.569176 0.101650
0.316628 0.564830 0.103464
0.362393 0.561202 0.105381
0.411452 0.558042 0.107260
0.464585 0.555161 0.109058
0.510010 0.553141 0.111014
0.554399 0.550365 0.112599
0.591110 0.550863 0.115052
0.626419 0.552151 0.118177
0.657954 0.550770 0.120029
0.683010 0.551449 0.122689
0.706835 0.553366 0.125877
0.729950 0.553094 0.128129
0.750028 0.554243 0.131163
0.770147 0.553639 0.134203
0.782590 0.551808 0.138388
0.793602 0.546130 0.143574
0.801728 0.537670 0.151065
0.808066 0.512512 0.168522
0.079350 0.645394 0.090894
0.079491 0.645194 0.090935
0.080005 0.644484 0.091083
0.080985 0.643215 0.091365
0.082723 0.641418 0.091815
0.085532 0.639218 0.092479
0.090431 0.636768 0.093346
0.095779 0.632697 0.094301
0.106476 0.628511 0.095613
0.119287 0.623768 0.096713
0.137383 0.618939 0.097953
0.160359 0.613936 0.099189
0.188269 0.608930 0.100623
0.223206 0.603967 0.102457
0.267005 0.599376 0.104369
0.307969 0.595026 0.106231
0.351862 0.591038 0.108039
0.398543 0.587574 0.109897
0.450405 0.584675 0.111778
0.497056 0.582082 0.113568
0.542221 0.580240 0.115598
0.581834 0.579851 0.118478
0.616914 0.580922 0.121583
0.650164 0.579426 0.123453
0.676307 0.579622 0.126035
0.701012 0.581293 0.129202
0.724679 0.580966 0.131335
0.745636 0.581795 0.134219
0.766165 0.582146 0.137942
0.780476 0.580401 0.141927
0.791971 0.577064 0.146956
0.800855 0.568904 0.153457
0.807580 0.554309 0.166592
0.080672 0.668692 0.092701
0.080803 0.668519 0.092739
0.081280 0.667901 0.092875
0.082291 0.666786 0.093134
0.084038 0.665180 0.093589
0.086600 0.663152 0.094406
0.091981 0.660869 0.095565
0.097166 0.658009 0.096526
0.107183 0.654844 0.097695
0.120792 0.651424 0.098864
0.138729 0.647742 0.100140
0.159297 0.644039 0.101993
0.186540 0.640252 0.103936
0.220558 0.636312 0.105839
0.262476 0.631527 0.107664
0.302571 0.627232 0.109604
0.345373 0.623154 0.111435
0.390487 0.619485 0.113275
0.440049 0.616184 0.115142
0.488769 0.613561 0.117429
0.531883 0.611275 0.119635
0.573217 0.609602 0.121922
0.607931 0.609953 0.124985
0.641115 0.608379 0.126763
0.669663 0.608218 0.129354
0.694985 0.609538 0.132516
0.719392 0.609338 0.134581
0.741227 0.610014 0.138174
0.762334 0.610655 0.141955
0.778256 0.609622 0.145712
0.790409 0.607072 0.150419
0.799903 0.600755 0.156369
0.807053 0.589145 0.167000
0.081965 0.692197 0.094809
0.082115 0.692044 0.094855
0.082658 0.691498 0.095026
0.083689 0.690505 0.095351
0.085310 0.689052 0.095866
0.087882 0.687165 0.096621
0.093167 0.684936 0.097688
0.099491 0.682355 0.098743
0.108507 0.679362 0.099794
0.123187 0.676139 0.101690
0.138912 0.672602 0.103411
0.160073 0.669001 0.105354
0.187204 0.665388 0.107386
0.218545 0.661692 0.109227
0.258571 0.658014 0.111048
0.297993 0.654569 0.112927
0.339983 0.651404 0.114846
0.383931 0.648472 0.117094
0.431977 0.645823 0.119325
0.481109 0.643451 0.121557
0.523760 0.641633 0.123835
0.566392 0.640113 0.126102
0.599462 0.638980 0.128374
0.632543 0.637602 0.130091
0.663174 0.637179 0.132625
0.688836 0.637841 0.136080
0.713966 0.637746 0.138701
0.736680 0.638146 0.142292
0.758763 0.638740 0.146039
0.776085 0.638528 0.149682
0.788865 0.636966 0.153960
0.798877 0.632721 0.159669
0.806677 0.621640 0.168325
0.082974 0.715388 0.096550
0.083114 0.715245 0.096593
0.083624 0.714729 0.096749
0.084588 0.713782 0.097046
0.086099 0.712373 0.097518
0.088852 0.710493 0.098209
0.093724 0.708169 0.099188
0.100931 0.705527 0.100547
0.109128 0.702621 0.102054
0.123303 0.699369 0.104043
0.138483 0.695953 0.105782
0.159672 0.692256 0.107753
0.183283 0.688746 0.109594
0.214270 0.685128 0.111558
0.253881 0.681465 0.113474
0.291982 0.677981 0.115334
0.331615 0.674768 0.117630
0.374489 0.671770 0.119886
0.421011 0.669073 0.122155
0.471363 0.666657 0.124365
0.513157 0.664589 0.126602
0.556694 0.662964 0.128818
0.590723 0.661752 0.131101
0.624448 0.660888 0.133388
0.656914 0.660076 0.136220
0.682783 0.660361 0.140296
0.708508 0.660335 0.142839
0.731995 0.660519 0.146404
0.755020 0.661124 0.150000
0.774046 0.661350 0.153800
0.787339 0.660457 0.157723
0.797952 0.657620 0.162794
0.806271 0.650941 0.170529
0.084141 0.736629 0.098469
0.084273 0.736505 0.098508
0.084751 0.736060 0.098653
0.085654 0.735237 0.098929
0.087064 0.733997 0.099366
0.090128 0.732311 0.100014
0.094641 0.730166 0.101458
0.102953 0.727580 0.103483
0.110644 0.724958 0.104866
0.123471 0.721926 0.106676
0.139807 0.718656 0.108634
0.158344 0.715220 0.110418
0.182745 0.711703 0.112363
0.212595 0.708190 0.114352
0.248492 0.704767 0.116457
0.287237 0.701363 0.118748
0.326269 0.698097 0.121052
0.368440 0.695045 0.123362
0.413210 0.692308 0.125597
0.462291 0.689883 0.127861
0.504464 0.687767 0.130067
0.547048 0.686019 0.132283
0.583014 0.684574 0.134475
0.616131 0.683645 0.137399
0.650240 0.683019 0.140431
0.676831 0.682849 0.144500
0.703202 0.683077 0.146962
0.727184 0.682914 0.150414
0.751223 0.683543 0.154008
0.772091 0.683843 0.157549
0.785932 0.683693 0.161594
0.797111 0.681674 0.166162
0.805872 0.676259 0.173563
0.085333 0.753405 0.100656
0.085456 0.753324 0.100716
0.085904 0.753033 0.100933
0.086750 0.752491 0.101348
0.088506 0.751664 0.102006
0.091500 0.750520 0.102972
0.095705 0.749024 0.104344
0.103847 0.747149 0.106269
0.112704 0.745235 0.107909
0.124561 0.743121 0.109578
0.142289 0.740657 0.111774
0.158821 0.737603 0.113411
0.184220 0.734109 0.115600
0.210353 0.730912 0.117801
0.247232 0.727540 0.120238
0.284953 0.724268 0.122543
0.321533 0.721204 0.124841
0.362353 0.718222 0.127158
0.406069 0.715429 0.129439
0.453912 0.712957 0.131712
0.497192 0.710797 0.133974
0.539002 0.708983 0.136652
0.576723 0.707470 0.139540
0.608922 0.706265 0.142422
0.642468 0.705603 0.145533
0.671091 0.705210 0.148645
0.697994 0.705793 0.151029
0.722518 0.705397 0.154490
0.747360 0.705929 0.157872
0.769671 0.706259 0.161403
0.784567 0.706467 0.165293
0.796349 0.705390 0.169643
0.805751 0.700987 0.177276
0.085901 0.772469 0.102607
0.086016 0.772393 0.102662
0.086432 0.772119 0.102860
0.087217 0.771601 0.103241
0.089099 0.770795 0.103852
0.091902 0.769642 0.104759
0.095860 0.768070 0.106070
0.103614 0.765985 0.107951
0.113888 0.763746 0.109946
0.124650 0.761698 0.111484
0.140433 0.759207 0.113523
0.158603 0.756697 0.115571
0.180753 0.754094 0.117867
0.208117 0.751424 0.120277
0.242974 0.748761 0.122677
0.279510 0.746277 0.124987
0.316471 0.743796 0.127389
0.356352 0.741472 0.129704
0.397860 0.738975 0.131968
0.444024 0.736469 0.134228
0.488762 0.734275 0.136991
0.529991 0.732405 0.139924
0.570141 0.730883 0.142852
0.602300 0.729713 0.145774
