LUTs/trix_classic/TriX_Red25_Soft.cube
TITLE "Tri-X Red25 Soft"
# Adobe RGB in/out. REPLACES AgX. Tri-X Red25 Soft.
LUT_3D_SIZE 33
DOMAIN_MIN 0.0 0.0 0.0
DOMAIN_MAX 1.0 1.0 1.0
0.093873 0.093873 0.093873
0.093873 0.093873 0.093873
0.093873 0.093873 0.093873
0.093856 0.093856 0.093856
0.094198 0.094198 0.094198
0.096010 0.096010 0.096010
0.108618 0.108618 0.108618
0.149392 0.149392 0.149392
0.173769 0.173769 0.173769
0.212596 0.212596 0.212596
0.269041 0.269041 0.269041
0.304459 0.304459 0.304459
0.338754 0.338754 0.338754
0.381185 0.381185 0.381185
0.433652 0.433652 0.433652
0.473791 0.473791 0.473791
0.514852 0.514852 0.514852
0.559862 0.559862 0.559862
0.608371 0.608371 0.608371
0.653931 0.653931 0.653931
0.696903 0.696903 0.696903
0.736152 0.736152 0.736152
0.774903 0.774903 0.774903
0.809885 0.809885 0.809885
0.836721 0.836721 0.836721
0.860824 0.860824 0.860824
0.888073 0.888073 0.888073
0.897552 0.897552 0.897552
0.912373 0.912373 0.912373
0.912373 0.912373 0.912373
0.912373 0.912373 0.912373
0.912373 0.912373 0.912373
0.912373 0.912373 0.912373
0.093873 0.093873 0.093873
0.093873 0.093873 0.093873
0.093873 0.093873 0.093873
0.093925 0.093925 0.093925
0.095067 0.095067 0.095067
0.097222 0.097222 0.097222
0.113646 0.113646 0.113646
0.154997 0.154997 0.154997
0.178302 0.178302 0.178302
0.216444 0.216444 0.216444
0.271512 0.271512 0.271512
0.306382 0.306382 0.306382
0.340107 0.340107 0.340107
0.382117 0.382117 0.382117
0.434158 0.434158 0.434158
0.474014 0.474014 0.474014
0.514861 0.514861 0.514861
0.559720 0.559720 0.559720
0.608139 0.608139 0.608139
0.653612 0.653612 0.653612
0.696552 0.696552 0.696552
0.735832 0.735832 0.735832
0.774598 0.774598 0.774598
0.809634 0.809634 0.809634
0.836509 0.836509 0.836509
0.860647 0.860647 0.860647
0.887976 0.887976 0.887976
0.897488 0.897488 0.897488
0.912373 0.912373 0.912373
0.912373 0.912373 0.912373
0.912373 0.912373 0.912373
0.912373 0.912373 0.912373
0.912373 0.912373 0.912373
0.093873 0.093873 0.093873
0.093873 0.093873 0.093873
0.093873 0.093873 0.093873
0.093970 0.093970 0.093970
0.097773 0.097773 0.097773
0.105779 0.105779 0.105779
0.133352 0.133352 0.133352
0.179363 0.179363 0.179363
0.196973 0.196973 0.196973
0.230217 0.230217 0.230217
0.280939 0.280939 0.280939
0.313782 0.313782 0.313782
0.345273 0.345273 0.345273
0.385672 0.385672 0.385672
0.436095 0.436095 0.436095
0.474892 0.474892 0.474892
0.514930 0.514930 0.514930
0.559225 0.559225 0.559225
0.607299 0.607299 0.607299
0.652450 0.652450 0.652450
0.695268 0.695268 0.695268
0.734657 0.734657 0.734657
0.773479 0.773479 0.773479
0.808710 0.808710 0.808710
0.835728 0.835728 0.835728
0.859996 0.859996 0.859996
0.887618 0.887618 0.887618
0.897250 0.897250 0.897250
0.912373 0.912373 0.912373
0.912373 0.912373 0.912373
0.912373 0.912373 0.912373
0.912373 0.912373 0.912373
0.912373 0.912373 0.912373
0.093873 0.093873 0.093873
0.093873 0.093873 0.093873
0.093873 0.093873 0.093873
0.093891 0.093891 0.093891
0.095919 0.095919 0.095919
0.105201 0.105201 0.105201
0.145616 0.145616 0.145616
0.199681 0.199681 0.199681
0.222173 0.222173 0.222173
0.253018 0.253018 0.253018
0.300299 0.300299 0.300299
0.329675 0.329675 0.329675
0.356180 0.356180 0.356180
0.393138 0.393138 0.393138
0.440198 0.440198 0.440198
0.476837 0.476837 0.476837
0.515233 0.515233 0.515233
0.558377 0.558377 0.558377
0.605741 0.605741 0.605741
0.650236 0.650236 0.650236
0.692798 0.692798 0.692798
0.732389 0.732389 0.732389
0.771312 0.771312 0.771312
0.806915 0.806915 0.806915
0.834210 0.834210 0.834210
0.858728 0.858728 0.858728
0.886920 0.886920 0.886920
0.896782 0.896782 0.896782
0.912373 0.912373 0.912373
0.912373 0.912373 0.912373
0.912373 0.912373 0.912373
0.912373 0.912373 0.912373
0.912373 0.912373 0.912373
0.093873 0.093873 0.093873
0.093873 0.093873 0.093873
0.093873 0.093873 0.093873
0.093893 0.093893 0.093893
0.094199 0.094199 0.094199
0.098793 0.098793 0.098793
0.135172 0.135172 0.135172
0.198340 0.198340 0.198340
0.230699 0.230699 0.230699
0.268117 0.268117 0.268117
0.316492 0.316492 0.316492
0.343936 0.343936 0.343936
0.369399 0.369399 0.369399
0.404794 0.404794 0.404794
0.447871 0.447871 0.447871
0.480694 0.480694 0.480694
0.516202 0.516202 0.516202
0.557317 0.557317 0.557317
0.603404 0.603404 0.603404
0.646746 0.646746 0.646746
0.688834 0.688834 0.688834
0.728719 0.728719 0.728719
0.767784 0.767784 0.767784
0.803980 0.803980 0.803980
0.831726 0.831726 0.831726
0.856647 0.856647 0.856647
0.885768 0.885768 0.885768
0.896002 0.896002 0.896002
0.912373 0.912373 0.912373
0.912373 0.912373 0.912373
0.912373 0.912373 0.912373
0.912373 0.912373 0.912373
0.912373 0.912373 0.912373
0.093873 0.093873 0.093873
0.093873 0.093873 0.093873
0.093873 0.093873 0.093873
0.093861 0.093861 0.093861
0.094000 0.094000 0.094000
0.095855 0.095855 0.095855
0.118628 0.118628 0.118628
0.180765 0.180765 0.180765
0.221341 0.221341 0.221341
0.267326 0.267326 0.267326
0.320362 0.320362 0.320362
0.353194 0.353194 0.353194
0.380455 0.380455 0.380455
0.413903 0.413903 0.413903
0.453921 0.453921 0.453921
0.484899 0.484899 0.484899
0.517977 0.517977 0.517977
0.556458 0.556458 0.556458
0.600319 0.600319 0.600319
0.641603 0.641603 0.641603
0.682926 0.682926 0.682926
0.723170 0.723170 0.723170
0.762402 0.762402 0.762402
0.799464 0.799464 0.799464
0.827898 0.827898 0.827898
0.853429 0.853429 0.853429
0.883960 0.883960 0.883960
0.894760 0.894760 0.894760
0.912373 0.912373 0.912373
0.912373 0.912373 0.912373
0.912373 0.912373 0.912373
0.912373 0.912373 0.912373
0.912373 0.912373 0.912373
0.093873 0.093873 0.093873
0.093873 0.093873 0.093873
0.093873 0.093873 0.093873
0.093859 0.093859 0.093859
0.093984 0.093984 0.093984
0.094921 0.094921 0.094921
0.106122 0.106122 0.106122
0.158944 0.158944 0.158944
0.201053 0.201053 0.201053
0.252842 0.252842 0.252842
0.313105 0.313105 0.313105
0.352498 0.352498 0.352498
0.383164 0.383164 0.383164
0.418679 0.418679 0.418679
0.459740 0.459740 0.459740
0.490071 0.490071 0.490071
0.519780 0.519780 0.519780
0.555861 0.555861 0.555861
0.597775 0.597775 0.597775
0.636241 0.636241 0.636241
0.675263 0.675263 0.675263
0.714969 0.714969 0.714969
0.754340 0.754340 0.754340
0.792600 0.792600 0.792600
0.822062 0.822062 0.822062
0.848495 0.848495 0.848495
0.879979 0.879979 0.879979
0.892778 0.892778 0.892778
0.912373 0.912373 0.912373
0.912373 0.912373 0.912373
0.912373 0.912373 0.912373
0.912373 0.912373 0.912373
0.912373 0.912373 0.912373
0.093873 0.093873 0.093873
0.093873 0.093873 0.093873
0.093873 0.093873 0.093873
0.093867 0.093867 0.093867
0.093989 0.093989 0.093989
0.094677 0.094677 0.094677
0.103824 0.103824 0.103824
0.139097 0.139097 0.139097
0.179171 0.179171 0.179171
0.232859 0.232859 0.232859
0.297635 0.297635 0.297635
0.341462 0.341462 0.341462
0.376977 0.376977 0.376977
0.417243 0.417243 0.417243
0.461131 0.461131 0.461131
0.491373 0.491373 0.491373
0.520877 0.520877 0.520877
0.555686 0.555686 0.555686
0.595475 0.595475 0.595475
0.631745 0.631745 0.631745
0.669800 0.669800 0.669800
0.708523 0.708523 0.708523
0.746540 0.746540 0.746540
0.784094 0.784094 0.784094
0.812983 0.812983 0.812983
0.840757 0.840757 0.840757
0.872695 0.872695 0.872695
0.889464 0.889464 0.889464
0.912373 0.912373 0.912373
0.912373 0.912373 0.912373
0.912373 0.912373 0.912373
0.912373 0.912373 0.912373
0.912373 0.912373 0.912373
0.093873 0.093873 0.093873
0.093873 0.093873 0.093873
0.093873 0.093873 0.093873
0.093859 0.093859 0.093859
0.093960 0.093960 0.093960
0.094177 0.094177 0.094177
0.097807 0.097807 0.097807
0.117941 0.117941 0.117941
0.159372 0.159372 0.159372
0.211748 0.211748 0.211748
0.279407 0.279407 0.279407
0.324854 0.324854 0.324854
0.364469 0.364469 0.364469
0.408829 0.408829 0.408829
0.456221 0.456221 0.456221
0.489035 0.489035 0.489035
0.520063 0.520063 0.520063
0.554635 0.554635 0.554635
0.593240 0.593240 0.593240
0.627108 0.627108 0.627108
0.662855 0.662855 0.662855
0.700978 0.700978 0.700978
0.739316 0.739316 0.739316
0.777709 0.777709 0.777709
0.807487 0.807487 0.807487
0.834256 0.834256 0.834256
0.864313 0.864313 0.864313
0.884078 0.884078 0.884078
0.912360 0.912360 0.912360
0.912373 0.912373 0.912373
0.912373 0.912373 0.912373
0.912373 0.912373 0.912373
0.912373 0.912373 0.912373
0.093873 0.093873 0.093873
0.093873 0.093873 0.093873
0.093873 0.093873 0.093873
0.093870 0.093870 0.093870
0.093956 0.093956 0.093956
0.094133 0.094133 0.094133
0.096544 0.096544 0.096544
0.108677 0.108677 0.108677
0.143149 0.143149 0.143149
0.190233 0.190233 0.190233
0.258840 0.258840 0.258840
0.305856 0.305856 0.305856
0.347678 0.347678 0.347678
0.394450 0.394450 0.394450
0.446143 0.446143 0.446143
0.481951 0.481951 0.481951
0.515395 0.515395 0.515395
0.551177 0.551177 0.551177
0.590503 0.590503 0.590503
0.622982 0.622982 0.622982
0.657542 0.657542 0.657542
0.693743 0.693743 0.693743
0.730553 0.730553 0.730553
0.767919 0.767919 0.767919
0.799910 0.799910 0.799910
0.827872 0.827872 0.827872
0.858920 0.858920 0.858920
0.880538 0.880538 0.880538
0.895466 0.895466 0.895466
0.904272 0.904272 0.904272
0.911511 0.911511 0.911511
0.912373 0.912373 0.912373
0.912373 0.912373 0.912373
0.093873 0.093873 0.093873
0.093870 0.093870 0.093870
0.093857 0.093857 0.093857
0.093904 0.093904 0.093904
0.093983 0.093983 0.093983
0.094166 0.094166 0.094166
0.096676 0.096676 0.096676
0.107935 0.107935 0.107935
0.140314 0.140314 0.140314
0.185993 0.185993 0.185993
0.238441 0.238441 0.238441
0.286941 0.286941 0.286941
0.329470 0.329470 0.329470
0.377399 0.377399 0.377399
0.432291 0.432291 0.432291
0.470663 0.470663 0.470663
0.506643 0.506643 0.506643
0.544740 0.544740 0.544740
0.586037 0.586037 0.586037
0.618029 0.618029 0.618029
0.651742 0.651742 0.651742
0.686717 0.686717 0.686717
0.723536 0.723536 0.723536
0.759673 0.759673 0.759673
0.791485 0.791485 0.791485
0.818801 0.818801 0.818801
0.851151 0.851151 0.851151
0.874671 0.874671 0.874671
0.892655 0.892655 0.892655
0.902565 0.902565 0.902565
0.911047 0.911047 0.911047
0.912373 0.912373 0.912373
0.912373 0.912373 0.912373
0.093860 0.093860 0.093860
0.093857 0.093857 0.093857
0.093869 0.093869 0.093869
0.093916 0.093916 0.093916
0.093984 0.093984 0.093984
0.094145 0.094145 0.094145
0.096073 0.096073 0.096073
0.103557 0.103557 0.103557
0.128401 0.128401 0.128401
0.169101 0.169101 0.169101
0.218897 0.218897 0.218897
0.269719 0.269719 0.269719
0.310357 0.310357 0.310357
0.359494 0.359494 0.359494
0.416402 0.416402 0.416402
0.456230 0.456230 0.456230
0.494669 0.494669 0.494669
0.535370 0.535370 0.535370
0.578639 0.578639 0.578639
0.611621 0.611621 0.611621
0.645823 0.645823 0.645823
0.680411 0.680411 0.680411
0.716133 0.716133 0.716133
0.750472 0.750472 0.750472
0.784046 0.784046 0.784046
0.812334 0.812334 0.812334
0.843503 0.843503 0.843503
0.866931 0.866931 0.866931
0.888226 0.888226 0.888226
0.899776 0.899776 0.899776
0.909892 0.909892 0.909892
0.912373 0.912373 0.912373
0.912373 0.912373 0.912373
0.093862 0.093862 0.093862
0.093867 0.093867 0.093867
0.093886 0.093886 0.093886
0.093925 0.093925 0.093925
0.093987 0.093987 0.093987
0.094129 0.094129 0.094129
0.095357 0.095357 0.095357
0.100463 0.100463 0.100463
0.119403 0.119403 0.119403
0.153433 0.153433 0.153433
0.197064 0.197064 0.197064
0.245668 0.245668 0.245668
0.293106 0.293106 0.293106
0.341424 0.341424 0.341424
0.398959 0.398959 0.398959
0.440726 0.440726 0.440726
0.480370 0.480370 0.480370
0.523406 0.523406 0.523406
0.568838 0.568838 0.568838
0.603396 0.603396 0.603396
0.638469 0.638469 0.638469
0.673666 0.673666 0.673666
0.708915 0.708915 0.708915
0.742969 0.742969 0.742969
0.775775 0.775775 0.775775
0.803748 0.803748 0.803748
0.835936 0.835936 0.835936
0.860968 0.860968 0.860968
0.884674 0.884674 0.884674
0.896306 0.896306 0.896306
0.905316 0.905316 0.905316
0.912373 0.912373 0.912373
0.912373 0.912373 0.912373
0.093888 0.093888 0.093888
0.093892 0.093892 0.093892
0.093908 0.093908 0.093908
0.093944 0.093944 0.093944
0.094013 0.094013 0.094013
0.094141 0.094141 0.094141
0.095214 0.095214 0.095214
0.099515 0.099515 0.099515
0.114927 0.114927 0.114927
0.144368 0.144368 0.144368
0.184180 0.184180 0.184180
0.231392 0.231392 0.231392
0.278460 0.278460 0.278460
0.324143 0.324143 0.324143
0.380705 0.380705 0.380705
0.424531 0.424531 0.424531
0.465103 0.465103 0.465103
0.509358 0.509358 0.509358
0.556686 0.556686 0.556686
0.593283 0.593283 0.593283
0.629871 0.629871 0.629871
0.666350 0.666350 0.666350
0.701934 0.701934 0.701934
0.735159 0.735159 0.735159
0.767293 0.767293 0.767293
0.797004 0.797004 0.797004
0.827974 0.827974 0.827974
0.852771 0.852771 0.852771
0.879274 0.879274 0.879274
0.893634 0.893634 0.893634
0.903764 0.903764 0.903764
0.909592 0.909592 0.909592
0.912267 0.912267 0.912267
0.093920 0.093920 0.093920
0.093924 0.093924 0.093924
0.093940 0.093940 0.093940
0.093972 0.093972 0.093972
0.094056 0.094056 0.094056
0.094181 0.094181 0.094181
0.095615 0.095615 0.095615
0.099855 0.099855 0.099855
0.114357 0.114357 0.114357
0.142193 0.142193 0.142193
0.180496 0.180496 0.180496
0.225766 0.225766 0.225766
0.272712 0.272712 0.272712
0.316851 0.316851 0.316851
0.363730 0.363730 0.363730
0.407925 0.407925 0.407925
0.449321 0.449321 0.449321
0.494442 0.494442 0.494442
0.543256 0.543256 0.543256
0.581299 0.581299 0.581299
0.619709 0.619709 0.619709
0.658134 0.658134 0.658134
0.694513 0.694513 0.694513
0.727690 0.727690 0.727690
0.759789 0.759789 0.759789
0.789570 0.789570 0.789570
0.820315 0.820315 0.820315
0.846540 0.846540 0.846540
0.872682 0.872682 0.872682
0.889787 0.889787 0.889787
0.901371 0.901371 0.901371
0.908466 0.908466 0.908466
0.912159 0.912159 0.912159
0.093940 0.093940 0.093940
0.093944 0.093944 0.093944
0.093958 0.093958 0.093958
0.093985 0.093985 0.093985
0.094065 0.094065 0.094065
0.094188 0.094188 0.094188
0.095597 0.095597 0.095597
0.098877 0.098877 0.098877
0.110313 0.110313 0.110313
0.134524 0.134524 0.134524
0.168742 0.168742 0.168742
0.210688 0.210688 0.210688
0.255695 0.255695 0.255695
0.299554 0.299554 0.299554
0.344911 0.344911 0.344911
0.391234 0.391234 0.391234
0.433327 0.433327 0.433327
0.479019 0.479019 0.479019
0.528951 0.528951 0.528951
0.568426 0.568426 0.568426
0.608049 0.608049 0.608049
0.648575 0.648575 0.648575
0.686405 0.686405 0.686405
0.720497 0.720497 0.720497
0.752367 0.752367 0.752367
0.782967 0.782967 0.782967
0.813239 0.813239 0.813239
0.839001 0.839001 0.839001
0.866196 0.866196 0.866196
0.886841 0.886841 0.886841
0.898791 0.898791 0.898791
0.906417 0.906417 0.906417
0.911637 0.911637 0.911637
0.093958 0.093958 0.093958
0.093961 0.093961 0.093961
0.093973 0.093973 0.093973
0.094005 0.094005 0.094005
0.094076 0.094076 0.094076
0.094200 0.094200 0.094200
0.095326 0.095326 0.095326
0.098030 0.098030 0.098030
0.107310 0.107310 0.107310
0.127612 0.127612 0.127612
0.158558 0.158558 0.158558
0.196378 0.196378 0.196378
0.240333 0.240333 0.240333
0.283539 0.283539 0.283539
0.327171 0.327171 0.327171
0.372325 0.372325 0.372325
0.418295 0.418295 0.418295
0.463497 0.463497 0.463497
0.514199 0.514199 0.514199
0.554527 0.554527 0.554527
0.595610 0.595610 0.595610
0.637615 0.637615 0.637615
0.677311 0.677311 0.677311
0.712752 0.712752 0.712752
0.745224 0.745224 0.745224
0.776711 0.776711 0.776711
0.806113 0.806113 0.806113
0.832369 0.832369 0.832369
0.859819 0.859819 0.859819
0.882865 0.882865 0.882865
0.896216 0.896216 0.896216
0.905073 0.905073 0.905073
0.910299 0.910299 0.910299
0.093978 0.093978 0.093978
0.093981 0.093981 0.093981
0.093995 0.093995 0.093995
0.094034 0.094034 0.094034
0.094096 0.094096 0.094096
0.094229 0.094229 0.094229
0.095410 0.095410 0.095410
0.098072 0.098072 0.098072
0.106434 0.106434 0.106434
0.124454 0.124454 0.124454
0.152593 0.152593 0.152593
0.188045 0.188045 0.188045
0.230371 0.230371 0.230371
0.272910 0.272910 0.272910
0.314466 0.314466 0.314466
0.358626 0.358626 0.358626
0.404492 0.404492 0.404492
0.448679 0.448679 0.448679
0.499221 0.499221 0.499221
0.540445 0.540445 0.540445
0.582376 0.582376 0.582376
0.625795 0.625795 0.625795
0.667306 0.667306 0.667306
0.703998 0.703998 0.703998
0.738132 0.738132 0.738132
0.770088 0.770088 0.770088
0.799906 0.799906 0.799906
0.826010 0.826010 0.826010
0.853009 0.853009 0.853009
0.877870 0.877870 0.877870
0.893497 0.893497 0.893497
0.903025 0.903025 0.903025
0.909499 0.909499 0.909499
0.094013 0.094013 0.094013
0.094018 0.094018 0.094018
0.094036 0.094036 0.094036
0.094070 0.094070 0.094070
0.094132 0.094132 0.094132
0.094257 0.094257 0.094257
0.095797 0.095797 0.095797
0.098533 0.098533 0.098533
0.106377 0.106377 0.106377
0.124100 0.124100 0.124100
0.150959 0.150959 0.150959
0.184807 0.184807 0.184807
0.224805 0.224805 0.224805
0.266738 0.266738 0.266738
0.306857 0.306857 0.306857
0.351277 0.351277 0.351277
0.395782 0.395782 0.395782
0.440032 0.440032 0.440032
0.484608 0.484608 0.484608
0.526197 0.526197 0.526197
0.568952 0.568952 0.568952
0.613387 0.613387 0.613387
0.656625 0.656625 0.656625
0.694744 0.694744 0.694744
0.730511 0.730511 0.730511
0.763552 0.763552 0.763552
0.794257 0.794257 0.794257
0.820008 0.820008 0.820008
0.847542 0.847542 0.847542
0.872308 0.872308 0.872308
0.890739 0.890739 0.890739
0.901479 0.901479 0.901479
0.908494 0.908494 0.908494
0.094031 0.094031 0.094031
0.094035 0.094035 0.094035
0.094051 0.094051 0.094051
0.094082 0.094082 0.094082
0.094142 0.094142 0.094142
0.094253 0.094253 0.094253
0.095765 0.095765 0.095765
0.097888 0.097888 0.097888
0.104857 0.104857 0.104857
0.120463 0.120463 0.120463
0.143295 0.143295 0.143295
0.174088 0.174088 0.174088
0.212236 0.212236 0.212236
0.252173 0.252173 0.252173
0.292688 0.292688 0.292688
0.335358 0.335358 0.335358
0.378756 0.378756 0.378756
0.423605 0.423605 0.423605
0.467228 0.467228 0.467228
0.512324 0.512324 0.512324
0.555322 0.555322 0.555322
0.600631 0.600631 0.600631
0.645478 0.645478 0.645478
0.684948 0.684948 0.684948
0.722768 0.722768 0.722768
0.756815 0.756815 0.756815
0.788759 0.788759 0.788759
0.814663 0.814663 0.814663
0.842018 0.842018 0.842018
0.866878 0.866878 0.866878
0.888135 0.888135 0.888135
0.899505 0.899505 0.899505
0.907580 0.907580 0.907580
0.094048 0.094048 0.094048
0.094052 0.094052 0.094052
0.094067 0.094067 0.094067
0.094095 0.094095 0.094095
0.094154 0.094154 0.094154
0.094254 0.094254 0.094254
0.095823 0.095823 0.095823
0.097672 0.097672 0.097672
0.104169 0.104169 0.104169
0.116684 0.116684 0.116684
0.138183 0.138183 0.138183
0.167667 0.167667 0.167667
0.202057 0.202057 0.202057
0.240864 0.240864 0.240864
0.281296 0.281296 0.281296
0.321911 0.321911 0.321911
0.364317 0.364317 0.364317
0.408988 0.408988 0.408988
0.452705 0.452705 0.452705
0.496832 0.496832 0.496832
0.541959 0.541959 0.541959
0.587691 0.587691 0.587691
0.633524 0.633524 0.633524
0.674740 0.674740 0.674740
0.714419 0.714419 0.714419
0.750094 0.750094 0.750094
0.783510 0.783510 0.783510
0.809969 0.809969 0.809969
0.836886 0.836886 0.836886
0.862145 0.862145 0.862145
0.885327 0.885327 0.885327
0.897757 0.897757 0.897757
0.906595 0.906595 0.906595
0.094066 0.094066 0.094066
0.094070 0.094070 0.094070
0.094084 0.094084 0.094084
0.094110 0.094110 0.094110
0.094171 0.094171 0.094171
0.094262 0.094262 0.094262
0.095882 0.095882 0.095882
0.097660 0.097660 0.097660
0.102839 0.102839 0.102839
0.115067 0.115067 0.115067
0.135288 0.135288 0.135288
0.161142 0.161142 0.161142
0.193960 0.193960 0.193960
0.232517 0.232517 0.232517
0.272598 0.272598 0.272598
0.311230 0.311230 0.311230
0.353203 0.353203 0.353203
0.396932 0.396932 0.396932
0.440565 0.440565 0.440565
0.485257 0.485257 0.485257
0.529601 0.529601 0.529601
0.574847 0.574847 0.574847
0.621444 0.621444 0.621444
0.664147 0.664147 0.664147
0.705244 0.705244 0.705244
0.742888 0.742888 0.742888
0.778290 0.778290 0.778290
0.805648 0.805648 0.805648
0.832506 0.832506 0.832506
0.857680 0.857680 0.857680
0.882617 0.882617 0.882617
0.895937 0.895937 0.895937
0.905544 0.905544 0.905544
0.094078 0.094078 0.094078
0.094082 0.094082 0.094082
0.094095 0.094095 0.094095
0.094122 0.094122 0.094122
0.094180 0.094180 0.094180
0.094264 0.094264 0.094264
0.095747 0.095747 0.095747
0.097621 0.097621 0.097621
0.101852 0.101852 0.101852
0.113954 0.113954 0.113954
0.130603 0.130603 0.130603
0.156535 0.156535 0.156535
0.188464 0.188464 0.188464
0.224417 0.224417 0.224417
0.263043 0.263043 0.263043
0.300996 0.300996 0.300996
0.342729 0.342729 0.342729
0.385808 0.385808 0.385808
0.429747 0.429747 0.429747
0.473784 0.473784 0.473784
0.518802 0.518802 0.518802
0.563697 0.563697 0.563697
0.609303 0.609303 0.609303
0.653447 0.653447 0.653447
0.695787 0.695787 0.695787
0.735348 0.735348 0.735348
0.772255 0.772255 0.772255
0.801459 0.801459 0.801459
0.828961 0.828961 0.828961
0.853838 0.853838 0.853838
0.879037 0.879037 0.879037
0.894086 0.894086 0.894086
0.904701 0.904701 0.904701
0.094071 0.094071 0.094071
0.094074 0.094074 0.094074
0.094086 0.094086 0.094086
0.094109 0.094109 0.094109
0.094162 0.094162 0.094162
0.094241 0.094241 0.094241
0.095290 0.095290 0.095290
0.097233 0.097233 0.097233
0.100564 0.100564 0.100564
0.110129 0.110129 0.110129
0.125289 0.125289 0.125289
0.149976 0.149976 0.149976
0.177348 0.177348 0.177348
0.213543 0.213543 0.213543
0.251755 0.251755 0.251755
0.289346 0.289346 0.289346
0.329260 0.329260 0.329260
0.371491 0.371491 0.371491
0.415999 0.415999 0.415999
0.459554 0.459554 0.459554
0.504873 0.504873 0.504873
0.549978 0.549978 0.549978
0.596088 0.596088 0.596088
0.642606 0.642606 0.642606
0.686132 0.686132 0.686132
0.727615 0.727615 0.727615
0.766107 0.766107 0.766107
0.797312 0.797312 0.797312
0.825659 0.825659 0.825659
0.850779 0.850779 0.850779
0.875888 0.875888 0.875888
0.892485 0.892485 0.892485
0.903826 0.903826 0.903826
0.094063 0.094063 0.094063
0.094067 0.094067 0.094067
0.094078 0.094078 0.094078
0.094100 0.094100 0.094100
0.094144 0.094144 0.094144
0.094219 0.094219 0.094219
0.094869 0.094869 0.094869
0.096914 0.096914 0.096914
0.099504 0.099504 0.099504
0.106649 0.106649 0.106649
0.121692 0.121692 0.121692
0.141988 0.141988 0.141988
0.169685 0.169685 0.169685
0.203495 0.203495 0.203495
0.239433 0.239433 0.239433
0.278515 0.278515 0.278515
0.317701 0.317701 0.317701
0.359973 0.359973 0.359973
0.403995 0.403995 0.403995
0.447451 0.447451 0.447451
0.492142 0.492142 0.492142
0.537574 0.537574 0.537574
0.583586 0.583586 0.583586
0.630516 0.630516 0.630516
0.676382 0.676382 0.676382
0.719614 0.719614 0.719614
0.760034 0.760034 0.760034
0.793147 0.793147 0.793147
0.822700 0.822700 0.822700
0.848425 0.848425 0.848425
0.873429 0.873429 0.873429
0.891128 0.891128 0.891128
0.902987 0.902987 0.902987
0.094048 0.094048 0.094048
0.094051 0.094051 0.094051
0.094062 0.094062 0.094062
0.094083 0.094083 0.094083
0.094117 0.094117 0.094117
0.094188 0.094188 0.094188
0.094362 0.094362 0.094362
0.096281 0.096281 0.096281
0.098401 0.098401 0.098401
0.103953 0.103953 0.103953
0.118541 0.118541 0.118541
0.135481 0.135481 0.135481
0.163554 0.163554 0.163554
0.192617 0.192617 0.192617
0.230366 0.230366 0.230366
0.269525 0.269525 0.269525
0.306090 0.306090 0.306090
0.347796 0.347796 0.347796
0.391432 0.391432 0.391432
0.435680 0.435680 0.435680
0.480345 0.480345 0.480345
0.526200 0.526200 0.526200
0.572476 0.572476 0.572476
0.619301 0.619301 0.619301
0.666071 0.666071 0.666071
0.711274 0.711274 0.711274
0.753893 0.753893 0.753893
0.789229 0.789229 0.789229
0.820043 0.820043 0.820043
0.846677 0.846677 0.846677
0.871562 0.871562 0.871562
0.890044 0.890044 0.890044
0.902557 0.902557 0.902557
0.093986 0.093986 0.093986
0.093987 0.093987 0.093987
0.093998 0.093998 0.093998
0.094019 0.094019 0.094019
0.094052 0.094052 0.094052
0.094098 0.094098 0.094098
0.094190 0.094190 0.094190
0.094923 0.094923 0.094923
0.097016 0.097016 0.097016
0.100269 0.100269 0.100269
0.109757 0.109757 0.109757
0.126215 0.126215 0.126215
0.149798 0.149798 0.149798
0.179719 0.179719 0.179719
0.216369 0.216369 0.216369
0.253073 0.253073 0.253073
0.292699 0.292699 0.292699
0.334048 0.334048 0.334048
0.376279 0.376279 0.376279
0.421242 0.421242 0.421242
0.466061 0.466061 0.466061
0.512743 0.512743 0.512743
0.560072 0.560072 0.560072
0.608196 0.608196 0.608196
0.656501 0.656501 0.656501
