LUTs/trix_classic/TriX_Yellow8_ExtraPunchy.cube
TITLE "Tri-X Yellow8 ExtraPunchy"
# Adobe RGB in/out. REPLACES AgX. Tri-X Yellow8 ExtraPunchy.
LUT_3D_SIZE 5
DOMAIN_MIN 0.0 0.0 0.0
DOMAIN_MAX 1.0 1.0 1.0
0.092237 0.092237 0.092237
0.092454 0.092454 0.092454
0.203291 0.203291 0.203291
0.585687 0.585687 0.585687
0.846131 0.846131 0.846131
0.094263 0.094263 0.094263
0.107315 0.107315 0.107315
0.288400 0.288400 0.288400
0.618137 0.618137 0.618137
0.846135 0.846135 0.846135
0.277563 0.277563 0.277563
0.316371 0.316371 0.316371
0.482080 0.482080 0.482080
0.754225 0.754225 0.754225
0.898919 0.898919 0.898919
0.660281 0.660281 0.660281
0.685730 0.685730 0.685730
0.777557 0.777557 0.777557
0.883293 0.883293 0.883293
0.950427 0.950427 0.950427
0.853043 0.853043 0.853043
0.897960 0.897960 0.897960
0.927371 0.927371 0.927371
0.959764 0.959764 0.959764
0.981815 0.981815 0.981815
0.092237 0.092237 0.092237
0.092526 0.092526 0.092526
0.201198 0.201198 0.201198
0.588387 0.588387 0.588387
0.846135 0.846135 0.846135
0.096847 0.096847 0.096847
0.128236 0.128236 0.128236
0.275756 0.275756 0.275756
0.625703 0.625703 0.625703
0.846135 0.846135 0.846135
0.303081 0.303081 0.303081
0.338669 0.338669 0.338669
0.500777 0.500777 0.500777
0.756547 0.756547 0.756547
0.899962 0.899962 0.899962
0.681682 0.681682 0.681682
0.706263 0.706263 0.706263
0.790279 0.790279 0.790279
0.887461 0.887461 0.887461
0.951676 0.951676 0.951676
0.872812 0.872812 0.872812
0.910885 0.910885 0.910885
0.930455 0.930455 0.930455
0.961328 0.961328 0.961328
0.982000 0.982000 0.982000
0.092512 0.092512 0.092512
0.097459 0.097459 0.097459
0.222736 0.222736 0.222736
0.599485 0.599485 0.599485
0.846135 0.846135 0.846135
0.110071 0.110071 0.110071
0.142203 0.142203 0.142203
0.295836 0.295836 0.295836
0.641466 0.641466 0.641466
0.846137 0.846137 0.846137
0.339816 0.339816 0.339816
0.374559 0.374559 0.374559
0.545947 0.545947 0.545947
0.770354 0.770354 0.770354
0.903769 0.903769 0.903769
0.717962 0.717962 0.717962
0.737858 0.737858 0.737858
0.811366 0.811366 0.811366
0.894682 0.894682 0.894682
0.954841 0.954841 0.954841
0.905012 0.905012 0.905012
0.915253 0.915253 0.915253
0.936345 0.936345 0.936345
0.964599 0.964599 0.964599
0.982487 0.982487 0.982487
0.101305 0.101305 0.101305
0.120852 0.120852 0.120852
0.273965 0.273965 0.273965
0.628072 0.628072 0.628072
0.846128 0.846128 0.846128
0.151233 0.151233 0.151233
0.186690 0.186690 0.186690
0.344397 0.344397 0.344397
0.669521 0.669521 0.669521
0.846063 0.846063 0.846063
0.396879 0.396879 0.396879
0.431309 0.431309 0.431309
0.579902 0.579902 0.579902
0.792787 0.792787 0.792787
0.910583 0.910583 0.910583
0.746773 0.746773 0.746773
0.765053 0.765053 0.765053
0.828391 0.828391 0.828391
0.903272 0.903272 0.903272
0.958262 0.958262 0.958262
0.906879 0.906879 0.906879
0.917982 0.917982 0.917982
0.940944 0.940944 0.940944
0.967221 0.967221 0.967221
0.983235 0.983235 0.983235
0.165228 0.165228 0.165228
0.186305 0.186305 0.186305
0.376780 0.376780 0.376780
0.719764 0.719764 0.719764
0.858414 0.858414 0.858414
0.228890 0.228890 0.228890
0.255475 0.255475 0.255475
0.435917 0.435917 0.435917
0.749554 0.749554 0.749554
0.862428 0.862428 0.862428
0.483631 0.483631 0.483631
0.515610 0.515610 0.515610
0.657091 0.657091 0.657091
0.838586 0.838586 0.838586
0.926371 0.926371 0.926371
0.782212 0.782212 0.782212
0.801346 0.801346 0.801346
0.853562 0.853562 0.853562
0.919787 0.919787 0.919787
0.965282 0.965282 0.965282
0.899315 0.899315 0.899315
0.919482 0.919482 0.919482
0.945827 0.945827 0.945827
0.969698 0.969698 0.969698
0.984304 0.984304 0.984304
