LUTs/trix_classic/TriX_Blue47_ExtraPunchy.cube
TITLE "Tri-X Blue47 ExtraPunchy"
# Adobe RGB in/out. REPLACES AgX. Tri-X Blue47 ExtraPunchy.
LUT_3D_SIZE 33
DOMAIN_MIN 0.0 0.0 0.0
DOMAIN_MAX 1.0 1.0 1.0
0.092237 0.092237 0.092237
0.092237 0.092237 0.092237
0.092237 0.092237 0.092237
0.092237 0.092237 0.092237
0.092237 0.092237 0.092237
0.092237 0.092237 0.092237
0.092237 0.092237 0.092237
0.092237 0.092237 0.092237
0.092237 0.092237 0.092237
0.092237 0.092237 0.092237
0.092237 0.092237 0.092237
0.092237 0.092237 0.092237
0.092237 0.092237 0.092237
0.092237 0.092237 0.092237
0.092237 0.092237 0.092237
0.092237 0.092237 0.092237
0.092237 0.092237 0.092237
0.092237 0.092237 0.092237
0.092237 0.092237 0.092237
0.092237 0.092237 0.092237
0.092237 0.092237 0.092237
0.092237 0.092237 0.092237
0.092345 0.092345 0.092345
0.092506 0.092506 0.092506
0.092703 0.092703 0.092703
0.093124 0.093124 0.093124
0.093983 0.093983 0.093983
0.100540 0.100540 0.100540
0.268797 0.268797 0.268797
0.268732 0.268732 0.268732
0.268728 0.268728 0.268728
0.268726 0.268726 0.268726
0.566851 0.566851 0.566851
0.092237 0.092237 0.092237
0.092237 0.092237 0.092237
0.092237 0.092237 0.092237
0.092237 0.092237 0.092237
0.092237 0.092237 0.092237
0.092237 0.092237 0.092237
0.092237 0.092237 0.092237
0.092237 0.092237 0.092237
0.092237 0.092237 0.092237
0.092237 0.092237 0.092237
0.092237 0.092237 0.092237
0.092237 0.092237 0.092237
0.092237 0.092237 0.092237
0.092237 0.092237 0.092237
0.092237 0.092237 0.092237
0.092237 0.092237 0.092237
0.092237 0.092237 0.092237
0.092237 0.092237 0.092237
0.092237 0.092237 0.092237
0.092237 0.092237 0.092237
0.092237 0.092237 0.092237
0.092237 0.092237 0.092237
0.092346 0.092346 0.092346
0.092506 0.092506 0.092506
0.092702 0.092702 0.092702
0.093116 0.093116 0.093116
0.093961 0.093961 0.093961
0.100180 0.100180 0.100180
0.268798 0.268798 0.268798
0.268732 0.268732 0.268732
0.268728 0.268728 0.268728
0.268726 0.268726 0.268726
0.566850 0.566850 0.566850
0.092237 0.092237 0.092237
0.092237 0.092237 0.092237
0.092237 0.092237 0.092237
0.092237 0.092237 0.092237
0.092237 0.092237 0.092237
0.092237 0.092237 0.092237
0.092237 0.092237 0.092237
0.092237 0.092237 0.092237
0.092237 0.092237 0.092237
0.092237 0.092237 0.092237
0.092237 0.092237 0.092237
0.092237 0.092237 0.092237
0.092237 0.092237 0.092237
0.092237 0.092237 0.092237
0.092237 0.092237 0.092237
0.092237 0.092237 0.092237
0.092237 0.092237 0.092237
0.092237 0.092237 0.092237
0.092237 0.092237 0.092237
0.092237 0.092237 0.092237
0.092237 0.092237 0.092237
0.092237 0.092237 0.092237
0.092349 0.092349 0.092349
0.092508 0.092508 0.092508
0.092700 0.092700 0.092700
0.093090 0.093090 0.093090
0.093886 0.093886 0.093886
0.098943 0.098943 0.098943
0.268804 0.268804 0.268804
0.268733 0.268733 0.268733
0.268729 0.268729 0.268729
0.268726 0.268726 0.268726
0.566848 0.566848 0.566848
0.092237 0.092237 0.092237
0.092237 0.092237 0.092237
0.092237 0.092237 0.092237
0.092237 0.092237 0.092237
0.092237 0.092237 0.092237
0.092237 0.092237 0.092237
0.092237 0.092237 0.092237
0.092237 0.092237 0.092237
0.092237 0.092237 0.092237
0.092237 0.092237 0.092237
0.092237 0.092237 0.092237
0.092237 0.092237 0.092237
0.092237 0.092237 0.092237
0.092237 0.092237 0.092237
0.092237 0.092237 0.092237
0.092237 0.092237 0.092237
0.092237 0.092237 0.092237
0.092237 0.092237 0.092237
0.092237 0.092237 0.092237
0.092237 0.092237 0.092237
0.092237 0.092237 0.092237
0.092237 0.092237 0.092237
0.092357 0.092357 0.092357
0.092511 0.092511 0.092511
0.092697 0.092697 0.092697
0.093047 0.093047 0.093047
0.093767 0.093767 0.093767
0.097277 0.097277 0.097277
0.268815 0.268815 0.268815
0.268734 0.268734 0.268734
0.268729 0.268729 0.268729
0.268726 0.268726 0.268726
0.566846 0.566846 0.566846
0.092237 0.092237 0.092237
0.092237 0.092237 0.092237
0.092237 0.092237 0.092237
0.092237 0.092237 0.092237
0.092237 0.092237 0.092237
0.092237 0.092237 0.092237
0.092237 0.092237 0.092237
0.092237 0.092237 0.092237
0.092237 0.092237 0.092237
0.092237 0.092237 0.092237
0.092237 0.092237 0.092237
0.092237 0.092237 0.092237
0.092237 0.092237 0.092237
0.092237 0.092237 0.092237
0.092237 0.092237 0.092237
0.092237 0.092237 0.092237
0.092237 0.092237 0.092237
0.092237 0.092237 0.092237
0.092237 0.092237 0.092237
0.092237 0.092237 0.092237
0.092237 0.092237 0.092237
0.092237 0.092237 0.092237
0.092369 0.092369 0.092369
0.092517 0.092517 0.092517
0.092695 0.092695 0.092695
0.093000 0.093000 0.093000
0.093631 0.093631 0.093631
0.096049 0.096049 0.096049
0.268836 0.268836 0.268836
0.268737 0.268737 0.268737
0.268731 0.268731 0.268731
0.268727 0.268727 0.268727
0.566845 0.566845 0.566845
0.092237 0.092237 0.092237
0.092237 0.092237 0.092237
0.092237 0.092237 0.092237
0.092237 0.092237 0.092237
0.092237 0.092237 0.092237
0.092237 0.092237 0.092237
0.092237 0.092237 0.092237
0.092237 0.092237 0.092237
0.092237 0.092237 0.092237
0.092237 0.092237 0.092237
0.092237 0.092237 0.092237
0.092237 0.092237 0.092237
0.092237 0.092237 0.092237
0.092237 0.092237 0.092237
0.092237 0.092237 0.092237
0.092237 0.092237 0.092237
0.092237 0.092237 0.092237
0.092237 0.092237 0.092237
0.092237 0.092237 0.092237
0.092237 0.092237 0.092237
0.092237 0.092237 0.092237
0.092237 0.092237 0.092237
0.092390 0.092390 0.092390
0.092530 0.092530 0.092530
0.092698 0.092698 0.092698
0.092963 0.092963 0.092963
0.093515 0.093515 0.093515
0.094885 0.094885 0.094885
0.268880 0.268880 0.268880
0.268742 0.268742 0.268742
0.268733 0.268733 0.268733
0.268728 0.268728 0.268728
0.566844 0.566844 0.566844
0.092237 0.092237 0.092237
0.092237 0.092237 0.092237
0.092237 0.092237 0.092237
0.092237 0.092237 0.092237
0.092237 0.092237 0.092237
0.092237 0.092237 0.092237
0.092237 0.092237 0.092237
0.092237 0.092237 0.092237
0.092237 0.092237 0.092237
0.092237 0.092237 0.092237
0.092237 0.092237 0.092237
0.092237 0.092237 0.092237
0.092237 0.092237 0.092237
0.092237 0.092237 0.092237
0.092237 0.092237 0.092237
0.092237 0.092237 0.092237
0.092237 0.092237 0.092237
0.092237 0.092237 0.092237
0.092237 0.092237 0.092237
0.092237 0.092237 0.092237
0.092237 0.092237 0.092237
0.092259 0.092259 0.092259
0.092421 0.092421 0.092421
0.092553 0.092553 0.092553
0.092710 0.092710 0.092710
0.092958 0.092958 0.092958
0.093459 0.093459 0.093459
0.094346 0.094346 0.094346
0.268983 0.268983 0.268983
0.268754 0.268754 0.268754
0.268739 0.268739 0.268739
0.268731 0.268731 0.268731
0.566844 0.566844 0.566844
0.092237 0.092237 0.092237
0.092237 0.092237 0.092237
0.092237 0.092237 0.092237
0.092237 0.092237 0.092237
0.092237 0.092237 0.092237
0.092237 0.092237 0.092237
0.092237 0.092237 0.092237
0.092237 0.092237 0.092237
0.092237 0.092237 0.092237
0.092237 0.092237 0.092237
0.092237 0.092237 0.092237
0.092237 0.092237 0.092237
0.092237 0.092237 0.092237
0.092237 0.092237 0.092237
0.092237 0.092237 0.092237
0.092237 0.092237 0.092237
0.092237 0.092237 0.092237
0.092237 0.092237 0.092237
0.092237 0.092237 0.092237
0.092237 0.092237 0.092237
0.092237 0.092237 0.092237
0.092308 0.092308 0.092308
0.092463 0.092463 0.092463
0.092588 0.092588 0.092588
0.092736 0.092736 0.092736
0.093011 0.093011 0.093011
0.093513 0.093513 0.093513
0.094225 0.094225 0.094225
0.269341 0.269341 0.269341
0.268794 0.268794 0.268794
0.268757 0.268757 0.268757
0.268738 0.268738 0.268738
0.566844 0.566844 0.566844
0.092237 0.092237 0.092237
0.092237 0.092237 0.092237
0.092237 0.092237 0.092237
0.092237 0.092237 0.092237
0.092237 0.092237 0.092237
0.092237 0.092237 0.092237
0.092237 0.092237 0.092237
0.092237 0.092237 0.092237
0.092237 0.092237 0.092237
0.092237 0.092237 0.092237
0.092237 0.092237 0.092237
0.092237 0.092237 0.092237
0.092237 0.092237 0.092237
0.092237 0.092237 0.092237
0.092237 0.092237 0.092237
0.092237 0.092237 0.092237
0.092237 0.092237 0.092237
0.092237 0.092237 0.092237
0.092237 0.092237 0.092237
0.092237 0.092237 0.092237
0.092237 0.092237 0.092237
0.092370 0.092370 0.092370
0.092514 0.092514 0.092514
0.092630 0.092630 0.092630
0.092767 0.092767 0.092767
0.093097 0.093097 0.093097
0.093631 0.093631 0.093631
0.094336 0.094336 0.094336
0.273541 0.273541 0.273541
0.269208 0.269208 0.269208
0.268868 0.268868 0.268868
0.268771 0.268771 0.268771
0.566844 0.566844 0.566844
0.092237 0.092237 0.092237
0.092237 0.092237 0.092237
0.092237 0.092237 0.092237
0.092237 0.092237 0.092237
0.092237 0.092237 0.092237
0.092237 0.092237 0.092237
0.092237 0.092237 0.092237
0.092237 0.092237 0.092237
0.092237 0.092237 0.092237
0.092237 0.092237 0.092237
0.092237 0.092237 0.092237
0.092237 0.092237 0.092237
0.092237 0.092237 0.092237
0.092237 0.092237 0.092237
0.092237 0.092237 0.092237
0.092237 0.092237 0.092237
0.092237 0.092237 0.092237
0.092237 0.092237 0.092237
0.092237 0.092237 0.092237
0.092237 0.092237 0.092237
0.092305 0.092305 0.092305
0.092438 0.092438 0.092438
0.092577 0.092577 0.092577
0.092683 0.092683 0.092683
0.092809 0.092809 0.092809
0.093205 0.093205 0.093205
0.093690 0.093690 0.093690
0.094317 0.094317 0.094317
0.095833 0.095833 0.095833
0.101918 0.101918 0.101918
0.236946 0.236946 0.236946
0.274812 0.274812 0.274812
0.566843 0.566843 0.566843
0.092237 0.092237 0.092237
0.092237 0.092237 0.092237
0.092237 0.092237 0.092237
0.092237 0.092237 0.092237
0.092237 0.092237 0.092237
0.092237 0.092237 0.092237
0.092237 0.092237 0.092237
0.092237 0.092237 0.092237
0.092237 0.092237 0.092237
0.092237 0.092237 0.092237
0.092237 0.092237 0.092237
0.092237 0.092237 0.092237
0.092237 0.092237 0.092237
0.092237 0.092237 0.092237
0.092237 0.092237 0.092237
0.092237 0.092237 0.092237
0.092237 0.092237 0.092237
0.092237 0.092237 0.092237
0.092237 0.092237 0.092237
0.092291 0.092291 0.092291
0.092391 0.092391 0.092391
0.092516 0.092516 0.092516
0.092643 0.092643 0.092643
0.092742 0.092742 0.092742
0.092870 0.092870 0.092870
0.093358 0.093358 0.093358
0.093797 0.093797 0.093797
0.094350 0.094350 0.094350
0.095652 0.095652 0.095652
0.099072 0.099072 0.099072
0.180182 0.180182 0.180182
0.293205 0.293205 0.293205
0.299671 0.299671 0.299671
0.092237 0.092237 0.092237
0.092237 0.092237 0.092237
0.092237 0.092237 0.092237
0.092237 0.092237 0.092237
0.092237 0.092237 0.092237
0.092237 0.092237 0.092237
0.092237 0.092237 0.092237
0.092237 0.092237 0.092237
0.092237 0.092237 0.092237
0.092237 0.092237 0.092237
0.092237 0.092237 0.092237
0.092237 0.092237 0.092237
0.092237 0.092237 0.092237
0.092237 0.092237 0.092237
0.092237 0.092237 0.092237
0.092237 0.092237 0.092237
0.092237 0.092237 0.092237
0.092237 0.092237 0.092237
0.092306 0.092306 0.092306
0.092385 0.092385 0.092385
0.092481 0.092481 0.092481
0.092596 0.092596 0.092596
0.092718 0.092718 0.092718
0.092810 0.092810 0.092810
0.093074 0.093074 0.093074
0.093533 0.093533 0.093533
0.093939 0.093939 0.093939
0.094447 0.094447 0.094447
0.095791 0.095791 0.095791
0.097958 0.097958 0.097958
0.126479 0.126479 0.126479
0.293295 0.293295 0.293295
0.305809 0.305809 0.305809
0.092237 0.092237 0.092237
0.092237 0.092237 0.092237
0.092237 0.092237 0.092237
0.092237 0.092237 0.092237
0.092237 0.092237 0.092237
0.092237 0.092237 0.092237
0.092237 0.092237 0.092237
0.092237 0.092237 0.092237
0.092237 0.092237 0.092237
0.092237 0.092237 0.092237
0.092237 0.092237 0.092237
0.092237 0.092237 0.092237
0.092237 0.092237 0.092237
0.092237 0.092237 0.092237
0.092237 0.092237 0.092237
0.092237 0.092237 0.092237
0.092237 0.092237 0.092237
0.092267 0.092267 0.092267
0.092418 0.092418 0.092418
0.092484 0.092484 0.092484
0.092570 0.092570 0.092570
0.092681 0.092681 0.092681
0.092798 0.092798 0.092798
0.092934 0.092934 0.092934
0.093308 0.093308 0.093308
0.093748 0.093748 0.093748
0.094107 0.094107 0.094107
0.094601 0.094601 0.094601
0.095966 0.095966 0.095966
0.097966 0.097966 0.097966
0.104082 0.104082 0.104082
0.293415 0.293415 0.293415
0.314718 0.314718 0.314718
0.092237 0.092237 0.092237
0.092237 0.092237 0.092237
0.092237 0.092237 0.092237
0.092237 0.092237 0.092237
0.092237 0.092237 0.092237
0.092237 0.092237 0.092237
0.092237 0.092237 0.092237
0.092237 0.092237 0.092237
0.092237 0.092237 0.092237
0.092237 0.092237 0.092237
0.092237 0.092237 0.092237
0.092237 0.092237 0.092237
0.092237 0.092237 0.092237
0.092237 0.092237 0.092237
0.092237 0.092237 0.092237
0.092237 0.092237 0.092237
0.092275 0.092275 0.092275
0.092377 0.092377 0.092377
0.092522 0.092522 0.092522
0.092587 0.092587 0.092587
0.092666 0.092666 0.092666
0.092768 0.092768 0.092768
0.092925 0.092925 0.092925
0.093204 0.093204 0.093204
0.093559 0.093559 0.093559
0.093961 0.093961 0.093961
0.094299 0.094299 0.094299
0.095006 0.095006 0.095006
0.096210 0.096210 0.096210
0.097871 0.097871 0.097871
0.102470 0.102470 0.102470
0.138575 0.138575 0.138575
0.325895 0.325895 0.325895
0.092237 0.092237 0.092237
0.092237 0.092237 0.092237
0.092237 0.092237 0.092237
0.092237 0.092237 0.092237
0.092237 0.092237 0.092237
0.092237 0.092237 0.092237
0.092237 0.092237 0.092237
0.092237 0.092237 0.092237
0.092237 0.092237 0.092237
0.092237 0.092237 0.092237
0.092237 0.092237 0.092237
0.092237 0.092237 0.092237
0.092237 0.092237 0.092237
0.092237 0.092237 0.092237
0.092270 0.092270 0.092270
0.092332 0.092332 0.092332
0.092394 0.092394 0.092394
0.092490 0.092490 0.092490
0.092627 0.092627 0.092627
0.092685 0.092685 0.092685
0.092761 0.092761 0.092761
0.092863 0.092863 0.092863
0.093222 0.093222 0.093222
0.093487 0.093487 0.093487
0.093812 0.093812 0.093812
0.094199 0.094199 0.094199
0.094510 0.094510 0.094510
0.095444 0.095444 0.095444
0.096556 0.096556 0.096556
0.098213 0.098213 0.098213
0.101952 0.101952 0.101952
0.116423 0.116423 0.116423
0.313177 0.313177 0.313177
0.092237 0.092237 0.092237
0.092237 0.092237 0.092237
0.092237 0.092237 0.092237
0.092237 0.092237 0.092237
0.092237 0.092237 0.092237
0.092237 0.092237 0.092237
0.092237 0.092237 0.092237
0.092237 0.092237 0.092237
0.092237 0.092237 0.092237
0.092237 0.092237 0.092237
0.092237 0.092237 0.092237
0.092237 0.092237 0.092237
0.092237 0.092237 0.092237
0.092289 0.092289 0.092289
0.092369 0.092369 0.092369
0.092451 0.092451 0.092451
0.092507 0.092507 0.092507
0.092600 0.092600 0.092600
0.092733 0.092733 0.092733
0.092787 0.092787 0.092787
0.092854 0.092854 0.092854
0.093181 0.093181 0.093181
0.093529 0.093529 0.093529
0.093772 0.093772 0.093772
0.094079 0.094079 0.094079
0.094445 0.094445 0.094445
0.095033 0.095033 0.095033
0.095962 0.095962 0.095962
0.096966 0.096966 0.096966
0.098662 0.098662 0.098662
0.102014 0.102014 0.102014
0.111541 0.111541 0.111541
0.250659 0.250659 0.250659
0.092237 0.092237 0.092237
0.092237 0.092237 0.092237
0.092237 0.092237 0.092237
0.092237 0.092237 0.092237
0.092237 0.092237 0.092237
0.092237 0.092237 0.092237
0.092237 0.092237 0.092237
0.092237 0.092237 0.092237
0.092237 0.092237 0.092237
0.092237 0.092237 0.092237
0.092237 0.092237 0.092237
0.092237 0.092237 0.092237
0.092310 0.092310 0.092310
0.092389 0.092389 0.092389
0.092465 0.092465 0.092465
0.092540 0.092540 0.092540
0.092618 0.092618 0.092618
0.092706 0.092706 0.092706
0.092834 0.092834 0.092834
0.092949 0.092949 0.092949
0.093183 0.093183 0.093183
0.093504 0.093504 0.093504
0.093839 0.093839 0.093839
0.094062 0.094062 0.094062
0.094354 0.094354 0.094354
0.094947 0.094947 0.094947
0.095637 0.095637 0.095637
0.096487 0.096487 0.096487
0.097419 0.097419 0.097419
0.099361 0.099361 0.099361
0.102212 0.102212 0.102212
0.108846 0.108846 0.108846
0.166492 0.166492 0.166492
0.092237 0.092237 0.092237
0.092237 0.092237 0.092237
0.092237 0.092237 0.092237
0.092237 0.092237 0.092237
0.092237 0.092237 0.092237
0.092237 0.092237 0.092237
0.092237 0.092237 0.092237
0.092237 0.092237 0.092237
0.092237 0.092237 0.092237
0.092237 0.092237 0.092237
0.092296 0.092296 0.092296
0.092371 0.092371 0.092371
0.092448 0.092448 0.092448
0.092519 0.092519 0.092519
0.092594 0.092594 0.092594
0.092665 0.092665 0.092665
0.092736 0.092736 0.092736
0.092810 0.092810 0.092810
0.093127 0.093127 0.093127
0.093294 0.093294 0.093294
0.093514 0.093514 0.093514
0.093824 0.093824 0.093824
0.094147 0.094147 0.094147
0.094354 0.094354 0.094354
0.094787 0.094787 0.094787
0.095615 0.095615 0.095615
0.096256 0.096256 0.096256
0.097046 0.097046 0.097046
0.098218 0.098218 0.098218
0.100135 0.100135 0.100135
0.102695 0.102695 0.102695
0.108316 0.108316 0.108316
0.138384 0.138384 0.138384
0.092237 0.092237 0.092237
0.092237 0.092237 0.092237
0.092237 0.092237 0.092237
0.092237 0.092237 0.092237
0.092237 0.092237 0.092237
0.092237 0.092237 0.092237
0.092237 0.092237 0.092237
0.092264 0.092264 0.092264
0.092330 0.092330 0.092330
0.092402 0.092402 0.092402
0.092472 0.092472 0.092472
0.092546 0.092546 0.092546
0.092616 0.092616 0.092616
0.092686 0.092686 0.092686
0.092754 0.092754 0.092754
0.092826 0.092826 0.092826
0.092984 0.092984 0.092984
0.093221 0.093221 0.093221
0.093478 0.093478 0.093478
0.093630 0.093630 0.093630
0.093841 0.093841 0.093841
0.094139 0.094139 0.094139
0.094448 0.094448 0.094448
0.094815 0.094815 0.094815
0.095492 0.095492 0.095492
0.096293 0.096293 0.096293
0.096880 0.096880 0.096880
0.097636 0.097636 0.097636
0.099229 0.099229 0.099229
0.101032 0.101032 0.101032
0.103354 0.103354 0.103354
0.108251 0.108251 0.108251
0.129005 0.129005 0.129005
0.092237 0.092237 0.092237
0.092237 0.092237 0.092237
0.092237 0.092237 0.092237
0.092237 0.092237 0.092237
0.092237 0.092237 0.092237
0.092263 0.092263 0.092263
0.092317 0.092317 0.092317
0.092371 0.092371 0.092371
0.092436 0.092436 0.092436
0.092503 0.092503 0.092503
0.092566 0.092566 0.092566
0.092634 0.092634 0.092634
0.092702 0.092702 0.092702
0.092770 0.092770 0.092770
0.092837 0.092837 0.092837
0.093008 0.093008 0.093008
0.093253 0.093253 0.093253
0.093490 0.093490 0.093490
0.093716 0.093716 0.093716
0.093959 0.093959 0.093959
0.094155 0.094155 0.094155
0.094446 0.094446 0.094446
0.095082 0.095082 0.095082
0.095550 0.095550 0.095550
0.096201 0.096201 0.096201
0.096963 0.096963 0.096963
0.097512 0.097512 0.097512
0.098827 0.098827 0.098827
0.100313 0.100313 0.100313
0.101982 0.101982 0.101982
0.104056 0.104056 0.104056
0.108866 0.108866 0.108866
0.124014 0.124014 0.124014
0.092297 0.092297 0.092297
0.092300 0.092300 0.092300
0.092308 0.092308 0.092308
0.092324 0.092324 0.092324
0.092350 0.092350 0.092350
0.092390 0.092390 0.092390
0.092444 0.092444 0.092444
0.092490 0.092490 0.092490
0.092555 0.092555 0.092555
0.092609 0.092609 0.092609
0.092673 0.092673 0.092673
0.092737 0.092737 0.092737
0.092801 0.092801 0.092801
0.092879 0.092879 0.092879
0.093108 0.093108 0.093108
0.093338 0.093338 0.093338
0.093561 0.093561 0.093561
0.093789 0.093789 0.093789
0.094018 0.094018 0.094018
0.094235 0.094235 0.094235
0.094463 0.094463 0.094463
0.095063 0.095063 0.095063
0.095816 0.095816 0.095816
0.096278 0.096278 0.096278
0.096897 0.096897 0.096897
0.097638 0.097638 0.097638
0.098658 0.098658 0.098658
0.100015 0.100015 0.100015
0.101441 0.101441 0.101441
0.102938 0.102938 0.102938
0.105307 0.105307 0.105307
0.109651 0.109651 0.109651
0.122070 0.122070 0.122070
0.092451 0.092451 0.092451
0.092453 0.092453 0.092453
0.092461 0.092461 0.092461
0.092475 0.092475 0.092475
0.092498 0.092498 0.092498
0.092533 0.092533 0.092533
0.092585 0.092585 0.092585
0.092628 0.092628 0.092628
0.092682 0.092682 0.092682
0.092738 0.092738 0.092738
0.092798 0.092798 0.092798
0.092856 0.092856 0.092856
0.093069 0.093069 0.093069
0.093290 0.093290 0.093290
0.093505 0.093505 0.093505
0.093734 0.093734 0.093734
0.093950 0.093950 0.093950
0.094168 0.094168 0.094168
0.094383 0.094383 0.094383
0.094711 0.094711 0.094711
0.095253 0.095253 0.095253
0.095809 0.095809 0.095809
0.096534 0.096534 0.096534
0.096965 0.096965 0.096965
0.097573 0.097573 0.097573
0.098958 0.098958 0.098958
0.099936 0.099936 0.099936
0.101237 0.101237 0.101237
0.102587 0.102587 0.102587
0.103960 0.103960 0.103960
0.106691 0.106691 0.106691
0.110942 0.110942 0.110942
0.121608 0.121608 0.121608
0.092599 0.092599 0.092599
0.092601 0.092601 0.092601
0.092608 0.092608 0.092608
0.092620 0.092620 0.092620
0.092641 0.092641 0.092641
0.092672 0.092672 0.092672
0.092717 0.092717 0.092717
0.092763 0.092763 0.092763
0.092810 0.092810 0.092810
0.092892 0.092892 0.092892
0.093066 0.093066 0.093066
0.093275 0.093275 0.093275
0.093497 0.093497 0.093497
0.093700 0.093700 0.093700
0.093904 0.093904 0.093904
0.094116 0.094116 0.094116
0.094333 0.094333 0.094333
0.094561 0.094561 0.094561
0.095096 0.095096 0.095096
0.095629 0.095629 0.095629
0.096170 0.096170 0.096170
0.096705 0.096705 0.096705
0.097237 0.097237 0.097237
0.097645 0.097645 0.097645
0.098813 0.098813 0.098813
0.100245 0.100245 0.100245
0.101182 0.101182 0.101182
0.102432 0.102432 0.102432
0.103738 0.103738 0.103738
0.105553 0.105553 0.105553
0.108115 0.108115 0.108115
0.112494 0.112494 0.112494
0.121822 0.121822 0.121822
0.092715 0.092715 0.092715
0.092717 0.092717 0.092717
0.092722 0.092722 0.092722
0.092733 0.092733 0.092733
0.092751 0.092751 0.092751
0.092778 0.092778 0.092778
0.092817 0.092817 0.092817
0.092884 0.092884 0.092884
0.093021 0.093021 0.093021
0.093215 0.093215 0.093215
0.093388 0.093388 0.093388
0.093588 0.093588 0.093588
0.093779 0.093779 0.093779
0.093986 0.093986 0.093986
0.094191 0.094191 0.094191
0.094384 0.094384 0.094384
0.094677 0.094677 0.094677
0.095198 0.095198 0.095198
0.095724 0.095724 0.095724
0.096237 0.096237 0.096237
0.096754 0.096754 0.096754
0.097263 0.097263 0.097263
0.097927 0.097927 0.097927
0.098972 0.098972 0.098972
0.100106 0.100106 0.100106
0.101499 0.101499 0.101499
0.102389 0.102389 0.102389
0.103603 0.103603 0.103603
0.105229 0.105229 0.105229
0.107346 0.107346 0.107346
0.109769 0.109769 0.109769
0.113955 0.113955 0.113955
0.122708 0.122708 0.122708
0.092837 0.092837 0.092837
0.092838 0.092838 0.092838
0.092843 0.092843 0.092843
0.092853 0.092853 0.092853
0.092896 0.092896 0.092896
0.092977 0.092977 0.092977
0.093102 0.093102 0.093102
0.093285 0.093285 0.093285
0.093408 0.093408 0.093408
0.093575 0.093575 0.093575
0.093759 0.093759 0.093759
0.093930 0.093930 0.093930
0.094122 0.094122 0.094122
0.094321 0.094321 0.094321
0.094508 0.094508 0.094508
0.094965 0.094965 0.094965
0.095473 0.095473 0.095473
0.095986 0.095986 0.095986
0.096485 0.096485 0.096485
0.096991 0.096991 0.096991
0.097484 0.097484 0.097484
0.098316 0.098316 0.098316
0.099298 0.099298 0.099298
0.100334 0.100334 0.100334
0.101369 0.101369 0.101369
0.102727 0.102727 0.102727
0.103569 0.103569 0.103569
0.105053 0.105053 0.105053
0.106995 0.106995 0.106995
0.108993 0.108993 0.108993
0.111874 0.111874 0.111874
0.115585 0.115585 0.115585
0.123885 0.123885 0.123885
0.093219 0.093219 0.093219
0.093224 0.093224 0.093224
0.093240 0.093240 0.093240
0.093271 0.093271 0.093271
0.093322 0.093322 0.093322
0.093399 0.093399 0.093399
0.093512 0.093512 0.093512
0.093676 0.093676 0.093676
0.093816 0.093816 0.093816
0.093960 0.093960 0.093960
0.094158 0.094158 0.094158
0.094305 0.094305 0.094305
0.094498 0.094498 0.094498
0.094883 0.094883 0.094883
0.095382 0.095382 0.095382
0.095860 0.095860 0.095860
0.096344 0.096344 0.096344
0.096836 0.096836 0.096836
0.097324 0.097324 0.097324
0.097982 0.097982 0.097982
0.098962 0.098962 0.098962
0.099939 0.099939 0.099939
0.100903 0.100903 0.100903
0.101864 0.101864 0.101864
0.102893 0.102893 0.102893
0.103917 0.103917 0.103917
0.105040 0.105040 0.105040
0.106869 0.106869 0.106869
0.108707 0.108707 0.108707
0.110996 0.110996 0.110996
0.113863 0.113863 0.113863
0.117714 0.117714 0.117714
0.125388 0.125388 0.125388
0.093585 0.093585 0.093585
0.093588 0.093588 0.093588
0.093601 0.093601 0.093601
0.093627 0.093627 0.093627
0.093669 0.093669 0.093669
0.093733 0.093733 0.093733
0.093830 0.093830 0.093830
0.093976 0.093976 0.093976
0.094135 0.094135 0.094135
0.094257 0.094257 0.094257
0.094427 0.094427 0.094427
0.094679 0.094679 0.094679
0.095101 0.095101 0.095101
0.095556 0.095556 0.095556
0.096019 0.096019 0.096019
0.096474 0.096474 0.096474
0.096954 0.096954 0.096954
0.097423 0.097423 0.097423
0.098131 0.098131 0.098131
0.099070 0.099070 0.099070
0.100015 0.100015 0.100015
0.100962 0.100962 0.100962
0.101909 0.101909 0.101909
0.102853 0.102853 0.102853
0.103801 0.103801 0.103801
