LUTs/trix_classic/TriX_NoFilter_Normal.cube
TITLE "Tri-X NoFilter Normal"
# Adobe RGB in/out. REPLACES AgX. Tri-X NoFilter Normal.
LUT_3D_SIZE 5
DOMAIN_MIN 0.0 0.0 0.0
DOMAIN_MAX 1.0 1.0 1.0
0.093230 0.093230 0.093230
0.093829 0.093829 0.093829
0.175721 0.175721 0.175721
0.363213 0.363213 0.363213
0.682841 0.682841 0.682841
0.097163 0.097163 0.097163
0.110761 0.110761 0.110761
0.228968 0.228968 0.228968
0.375310 0.375310 0.375310
0.682842 0.682842 0.682842
0.226601 0.226601 0.226601
0.250704 0.250704 0.250704
0.324221 0.324221 0.324221
0.441242 0.441242 0.441242
0.603196 0.603196 0.603196
0.398755 0.398755 0.398755
0.410882 0.410882 0.410882
0.458542 0.458542 0.458542
0.544554 0.544554 0.544554
0.645255 0.645255 0.645255
0.515832 0.515832 0.515832
0.560261 0.560261 0.560261
0.605827 0.605827 0.605827
0.667298 0.667298 0.667298
0.746624 0.746624 0.746624
0.108116 0.108116 0.108116
0.306850 0.306850 0.306850
0.320403 0.320403 0.320403
0.477580 0.477580 0.477580
0.682854 0.682854 0.682854
0.137944 0.137944 0.137944
0.204394 0.204394 0.204394
0.288687 0.288687 0.288687
0.433364 0.433364 0.433364
0.682842 0.682842 0.682842
0.280121 0.280121 0.280121
0.296732 0.296732 0.296732
0.362281 0.362281 0.362281
0.468980 0.468980 0.468980
0.668514 0.668514 0.668514
0.430099 0.430099 0.430099
0.440798 0.440798 0.440798
0.485482 0.485482 0.485482
0.566954 0.566954 0.566954
0.665370 0.665370 0.665370
0.550882 0.550882 0.550882
0.592781 0.592781 0.592781
0.621813 0.621813 0.621813
0.681765 0.681765 0.681765
0.756897 0.756897 0.756897
0.321143 0.321143 0.321143
0.512236 0.512236 0.512236
0.544514 0.544514 0.544514
0.637063 0.637063 0.637063
0.742615 0.742615 0.742615
0.351724 0.351724 0.351724
0.457769 0.457769 0.457769
0.524235 0.524235 0.524235
0.626541 0.626541 0.626541
0.736825 0.736825 0.736825
0.404051 0.404051 0.404051
0.427526 0.427526 0.427526
0.508013 0.508013 0.508013
0.601512 0.601512 0.601512
0.760026 0.760026 0.760026
0.519726 0.519726 0.519726
0.530019 0.530019 0.530019
0.572159 0.572159 0.572159
0.646622 0.646622 0.646622
0.767781 0.767781 0.767781
0.658710 0.658710 0.658710
0.669127 0.669127 0.669127
0.684506 0.684506 0.684506
0.734150 0.734150 0.734150
0.798352 0.798352 0.798352
0.577153 0.577153 0.577153
0.657285 0.657285 0.657285
0.685338 0.685338 0.685338
0.743400 0.743400 0.743400
0.796133 0.796133 0.796133
0.604979 0.604979 0.604979
0.657868 0.657868 0.657868
0.691082 0.691082 0.691082
0.747840 0.747840 0.747840
0.794758 0.794758 0.794758
0.611387 0.611387 0.611387
0.650210 0.650210 0.650210
0.706931 0.706931 0.706931
0.764103 0.764103 0.764103
0.820696 0.820696 0.820696
0.655789 0.655789 0.655789
0.671299 0.671299 0.671299
0.720187 0.720187 0.720187
0.782937 0.782937 0.782937
0.847619 0.847619 0.847619
0.705043 0.705043 0.705043
0.715180 0.715180 0.715180
0.763659 0.763659 0.763659
0.801540 0.801540 0.801540
0.879372 0.879372 0.879372
0.781117 0.781117 0.781117
0.783084 0.783084 0.783084
0.799531 0.799531 0.799531
0.831937 0.831937 0.831937
0.850455 0.850455 0.850455
0.786712 0.786712 0.786712
0.789038 0.789038 0.789038
0.804851 0.804851 0.804851
0.836406 0.836406 0.836406
0.855355 0.855355 0.855355
0.808824 0.808824 0.808824
0.811874 0.811874 0.811874
0.825576 0.825576 0.825576
0.853978 0.853978 0.853978
0.884512 0.884512 0.884512
0.841824 0.841824 0.841824
0.845386 0.845386 0.845386
0.858798 0.858798 0.858798
0.881938 0.881938 0.881938
0.905437 0.905437 0.905437
0.792794 0.792794 0.792794
0.817991 0.817991 0.817991
0.871013 0.871013 0.871013
0.910229 0.910229 0.910229
0.932292 0.932292 0.932292
