LUTs/trix_classic/TriX_Blue47_ExtraPunchy.cube
TITLE "Tri-X Blue47 ExtraPunchy"
# Adobe RGB in/out. REPLACES AgX. Tri-X Blue47 ExtraPunchy.
LUT_3D_SIZE 5
DOMAIN_MIN 0.0 0.0 0.0
DOMAIN_MAX 1.0 1.0 1.0
0.092237 0.092237 0.092237
0.092237 0.092237 0.092237
0.092237 0.092237 0.092237
0.092703 0.092703 0.092703
0.566851 0.566851 0.566851
0.092237 0.092237 0.092237
0.092237 0.092237 0.092237
0.092237 0.092237 0.092237
0.092767 0.092767 0.092767
0.566844 0.566844 0.566844
0.092237 0.092237 0.092237
0.092237 0.092237 0.092237
0.092618 0.092618 0.092618
0.094354 0.094354 0.094354
0.166492 0.166492 0.166492
0.092837 0.092837 0.092837
0.093408 0.093408 0.093408
0.095473 0.095473 0.095473
0.101369 0.101369 0.101369
0.123885 0.123885 0.123885
0.095038 0.095038 0.095038
0.095047 0.095047 0.095047
0.103142 0.103142 0.103142
0.113178 0.113178 0.113178
0.128843 0.128843 0.128843
0.107026 0.107026 0.107026
0.220190 0.220190 0.220190
0.193891 0.193891 0.193891
0.251311 0.251311 0.251311
0.566928 0.566928 0.566928
0.102449 0.102449 0.102449
0.128236 0.128236 0.128236
0.138194 0.138194 0.138194
0.176847 0.176847 0.176847
0.566845 0.566845 0.566845
0.107641 0.107641 0.107641
0.113374 0.113374 0.113374
0.130215 0.130215 0.130215
0.154786 0.154786 0.154786
0.370452 0.370452 0.370452
0.119169 0.119169 0.119169
0.125080 0.125080 0.125080
0.142375 0.142375 0.142375
0.168167 0.168167 0.168167
0.213065 0.213065 0.213065
0.136131 0.136131 0.136131
0.136130 0.136130 0.136130
0.140480 0.140480 0.140480
0.169771 0.169771 0.169771
0.189874 0.189874 0.189874
0.488016 0.488016 0.488016
0.734231 0.734231 0.734231
0.735785 0.735785 0.735785
0.767656 0.767656 0.767656
0.847614 0.847614 0.847614
0.485249 0.485249 0.485249
0.621822 0.621822 0.621822
0.672263 0.672263 0.672263
0.732832 0.732832 0.732832
0.832217 0.832217 0.832217
0.427848 0.427848 0.427848
0.461457 0.461457 0.461457
0.545947 0.545947 0.545947
0.608158 0.608158 0.608158
0.808165 0.808165 0.808165
0.420260 0.420260 0.420260
0.434623 0.434623 0.434623
0.475935 0.475935 0.475935
0.524227 0.524227 0.524227
0.701377 0.701377 0.701377
0.483609 0.483609 0.483609
0.483605 0.483605 0.483605
0.437854 0.437854 0.437854
0.468954 0.468954 0.468954
0.545267 0.545267 0.545267
0.899614 0.899614 0.899614
0.931101 0.931101 0.931101
0.933699 0.933699 0.933699
0.938042 0.938042 0.938042
0.947730 0.947730 0.947730
0.902820 0.902820 0.902820
0.924319 0.924319 0.924319
0.929820 0.929820 0.929820
0.935120 0.935120 0.935120
0.945577 0.945577 0.945577
0.878833 0.878833 0.878833
0.896771 0.896771 0.896771
0.916746 0.916746 0.916746
0.925642 0.925642 0.925642
0.944607 0.944607 0.944607
0.845087 0.845087 0.845087
0.856912 0.856912 0.856912
0.884092 0.884092 0.884092
0.903272 0.903272 0.903272
0.936419 0.936419 0.936419
0.733141 0.733141 0.733141
0.734074 0.734074 0.734074
0.825985 0.825985 0.825985
0.845806 0.845806 0.845806
0.915326 0.915326 0.915326
0.982506 0.982506 0.982506
0.982531 0.982531 0.982531
0.982640 0.982640 0.982640
0.982859 0.982859 0.982859
0.981545 0.981545 0.981545
0.982507 0.982507 0.982507
0.982536 0.982536 0.982536
0.982657 0.982657 0.982657
0.982884 0.982884 0.982884
0.982294 0.982294 0.982294
0.982489 0.982489 0.982489
0.982560 0.982560 0.982560
0.982722 0.982722 0.982722
0.982986 0.982986 0.982986
0.983551 0.983551 0.983551
0.982667 0.982667 0.982667
0.982788 0.982788 0.982788
0.983015 0.983015 0.983015
0.983307 0.983307 0.983307
0.983854 0.983854 0.983854
0.952333 0.952333 0.952333
0.966526 0.966526 0.966526
0.981603 0.981603 0.981603
0.983976 0.983976 0.983976
0.984304 0.984304 0.984304
