LUTs/trix_classic/TriX_Yellow8_ExtraSoft.cube
TITLE "Tri-X Yellow8 ExtraSoft"
# Adobe RGB in/out. REPLACES AgX. Tri-X Yellow8 ExtraSoft.
LUT_3D_SIZE 9
DOMAIN_MIN 0.0 0.0 0.0
DOMAIN_MAX 1.0 1.0 1.0
0.099726 0.099726 0.099726
0.100711 0.100711 0.100711
0.134179 0.134179 0.134179
0.220601 0.220601 0.220601
0.317366 0.317366 0.317366
0.415059 0.415059 0.415059
0.524125 0.524125 0.524125
0.634107 0.634107 0.634107
0.699308 0.699308 0.699308
0.103186 0.103186 0.103186
0.112161 0.112161 0.112161
0.180041 0.180041 0.180041
0.249203 0.249203 0.249203
0.329097 0.329097 0.329097
0.419025 0.419025 0.419025
0.526582 0.526582 0.526582
0.634118 0.634118 0.634118
0.699311 0.699311 0.699311
0.175489 0.175489 0.175489
0.187108 0.187108 0.187108
0.227637 0.227637 0.227637
0.298113 0.298113 0.298113
0.367947 0.367947 0.367947
0.442935 0.442935 0.442935
0.539623 0.539623 0.539623
0.638271 0.638271 0.638271
0.699312 0.699312 0.699312
0.270277 0.270277 0.270277
0.276406 0.276406 0.276406
0.302665 0.302665 0.302665
0.348116 0.348116 0.348116
0.409785 0.409785 0.409785
0.489508 0.489508 0.489508
0.568410 0.568410 0.568410
0.659381 0.659381 0.659381
0.699327 0.699327 0.699327
0.362114 0.362114 0.362114
0.365481 0.365481 0.365481
0.382756 0.382756 0.382756
0.414060 0.414060 0.414060
0.471272 0.471272 0.471272
0.543205 0.543205 0.543205
0.617613 0.617613 0.617613
0.695596 0.695596 0.695596
0.759391 0.759391 0.759391
0.456397 0.456397 0.456397
0.458879 0.458879 0.458879
0.476058 0.476058 0.476058
0.505419 0.505419 0.505419
0.548138 0.548138 0.548138
0.606802 0.606802 0.606802
0.679831 0.679831 0.679831
0.740542 0.740542 0.740542
0.795361 0.795361 0.795361
0.560690 0.560690 0.560690
0.562542 0.562542 0.562542
0.574226 0.574226 0.574226
0.597948 0.597948 0.597948
0.635116 0.635116 0.635116
0.684848 0.684848 0.684848
0.739175 0.739175 0.739175
0.791715 0.791715 0.791715
0.830922 0.830922 0.830922
0.678979 0.678979 0.678979
0.678956 0.678956 0.678956
0.683044 0.683044 0.683044
0.697790 0.697790 0.697790
0.722775 0.722775 0.722775
0.757315 0.757315 0.757315
0.797739 0.797739 0.797739
0.839181 0.839181 0.839181
0.868146 0.868146 0.868146
0.706047 0.706047 0.706047
0.706051 0.706051 0.706051
0.758144 0.758144 0.758144
0.761973 0.761973 0.761973
0.798359 0.798359 0.798359
0.819794 0.819794 0.819794
0.848275 0.848275 0.848275
0.879402 0.879402 0.879402
0.903880 0.903880 0.903880
0.099726 0.099726 0.099726
0.100738 0.100738 0.100738
0.119834 0.119834 0.119834
0.209757 0.209757 0.209757
0.314797 0.314797 0.314797
0.415422 0.415422 0.415422
0.524308 0.524308 0.524308
0.634118 0.634118 0.634118
0.699311 0.699311 0.699311
0.105313 0.105313 0.105313
0.127675 0.127675 0.127675
0.166744 0.166744 0.166744
0.235993 0.235993 0.235993
0.325354 0.325354 0.325354
0.419388 0.419388 0.419388
0.526866 0.526866 0.526866
0.634135 0.634135 0.634135
0.699311 0.699311 0.699311
0.183394 0.183394 0.183394
0.193299 0.193299 0.193299
0.232246 0.232246 0.232246
0.296975 0.296975 0.296975
0.363084 0.363084 0.363084
0.442318 0.442318 0.442318
0.540352 0.540352 0.540352
0.639504 0.639504 0.639504
0.699312 0.699312 0.699312
0.275905 0.275905 0.275905
0.281663 0.281663 0.281663
0.306544 0.306544 0.306544
0.351204 0.351204 0.351204
0.410208 0.410208 0.410208
0.487771 0.487771 0.487771
0.568969 0.568969 0.568969
0.659801 0.659801 0.659801
0.699316 0.699316 0.699316
0.364720 0.364720 0.364720
0.368218 0.368218 0.368218
0.385085 0.385085 0.385085
0.416631 0.416631 0.416631
0.473744 0.473744 0.473744
0.543500 0.543500 0.543500
0.617468 0.617468 0.617468
0.696213 0.696213 0.696213
0.759658 0.759658 0.759658
0.457916 0.457916 0.457916
0.460664 0.460664 0.460664
0.477733 0.477733 0.477733
0.506927 0.506927 0.506927
0.549705 0.549705 0.549705
0.608380 0.608380 0.608380
0.680164 0.680164 0.680164
0.741120 0.741120 0.741120
0.795610 0.795610 0.795610
0.561972 0.561972 0.561972
0.563912 0.563912 0.563912
0.575621 0.575621 0.575621
0.599376 0.599376 0.599376
0.636541 0.636541 0.636541
0.686129 0.686129 0.686129
0.740191 0.740191 0.740191
0.792010 0.792010 0.792010
0.831288 0.831288 0.831288
0.679000 0.679000 0.679000
0.679237 0.679237 0.679237
0.684030 0.684030 0.684030
0.698902 0.698902 0.698902
0.723912 0.723912 0.723912
0.758419 0.758419 0.758419
0.798653 0.798653 0.798653
0.839684 0.839684 0.839684
0.868437 0.868437 0.868437
0.725716 0.725716 0.725716
0.725721 0.725721 0.725721
0.775000 0.775000 0.775000
0.774999 0.774999 0.774999
0.799138 0.799138 0.799138
0.820546 0.820546 0.820546
0.849078 0.849078 0.849078
0.879927 0.879927 0.879927
0.904103 0.904103 0.904103
0.100853 0.100853 0.100853
0.105652 0.105652 0.105652
0.137748 0.137748 0.137748
0.215208 0.215208 0.215208
0.315905 0.315905 0.315905
0.417321 0.417321 0.417321
0.525429 0.525429 0.525429
0.636382 0.636382 0.636382
0.699312 0.699312 0.699312
0.112641 0.112641 0.112641
0.128003 0.128003 0.128003
0.172590 0.172590 0.172590
0.237121 0.237121 0.237121
0.325935 0.325935 0.325935
0.421665 0.421665 0.421665
0.528330 0.528330 0.528330
0.637269 0.637269 0.637269
0.699312 0.699312 0.699312
0.194389 0.194389 0.194389
0.203135 0.203135 0.203135
0.255950 0.255950 0.255950
0.295655 0.295655 0.295655
0.361137 0.361137 0.361137
0.444282 0.444282 0.444282
0.543183 0.543183 0.543183
0.649065 0.649065 0.649065
0.699312 0.699312 0.699312
0.286988 0.286988 0.286988
0.292243 0.292243 0.292243
0.315270 0.315270 0.315270
0.357179 0.357179 0.357179
0.412010 0.412010 0.412010
0.488169 0.488169 0.488169
0.572051 0.572051 0.572051
0.661807 0.661807 0.661807
0.699312 0.699312 0.699312
0.375818 0.375818 0.375818
0.379047 0.379047 0.379047
0.394032 0.394032 0.394032
0.426207 0.426207 0.426207
0.481188 0.481188 0.481188
0.546928 0.546928 0.546928
0.619356 0.619356 0.619356
0.698922 0.698922 0.698922
0.760747 0.760747 0.760747
0.471435 0.471435 0.471435
0.474196 0.474196 0.474196
0.489291 0.489291 0.489291
0.516371 0.516371 0.516371
0.558138 0.558138 0.558138
0.615291 0.615291 0.615291
0.682757 0.682757 0.682757
0.743709 0.743709 0.743709
0.796612 0.796612 0.796612
0.572086 0.572086 0.572086
0.574131 0.574131 0.574131
0.585256 0.585256 0.585256
0.608260 0.608260 0.608260
0.644641 0.644641 0.644641
0.692482 0.692482 0.692482
0.744548 0.744548 0.744548
0.793441 0.793441 0.793441
0.832699 0.832699 0.832699
0.681628 0.681628 0.681628
0.682852 0.682852 0.682852
0.690274 0.690274 0.690274
0.705358 0.705358 0.705358
0.730103 0.730103 0.730103
0.764005 0.764005 0.764005
0.802774 0.802774 0.802774
0.841645 0.841645 0.841645
0.869519 0.869519 0.869519
0.725723 0.725723 0.725723
0.774999 0.774999 0.774999
0.775000 0.775000 0.775000
0.775015 0.775015 0.775015
0.802685 0.802685 0.802685
0.823821 0.823821 0.823821
0.852392 0.852392 0.852392
0.881928 0.881928 0.881928
0.904915 0.904915 0.904915
0.107706 0.107706 0.107706
0.119514 0.119514 0.119514
0.169313 0.169313 0.169313
0.229280 0.229280 0.229280
0.321578 0.321578 0.321578
0.419744 0.419744 0.419744
0.527452 0.527452 0.527452
0.625318 0.625318 0.625318
0.699311 0.699311 0.699311
0.134332 0.134332 0.134332
0.149953 0.149953 0.149953
0.194793 0.194793 0.194793
0.248157 0.248157 0.248157
0.331592 0.331592 0.331592
0.424791 0.424791 0.424791
0.530659 0.530659 0.530659
0.626404 0.626404 0.626404
0.699312 0.699312 0.699312
0.213540 0.213540 0.213540
0.221160 0.221160 0.221160
0.254478 0.254478 0.254478
0.300946 0.300946 0.300946
0.365075 0.365075 0.365075
0.448371 0.448371 0.448371
0.546213 0.546213 0.546213
0.637149 0.637149 0.637149
0.699312 0.699312 0.699312
0.297515 0.297515 0.297515
0.302484 0.302484 0.302484
0.324442 0.324442 0.324442
0.375333 0.375333 0.375333
0.415093 0.415093 0.415093
0.492002 0.492002 0.492002
0.576296 0.576296 0.576296
0.664666 0.664666 0.664666
0.699317 0.699317 0.699317
0.385284 0.385284 0.385284
0.388349 0.388349 0.388349
0.402622 0.402622 0.402622
0.435591 0.435591 0.435591
0.488171 0.488171 0.488171
0.550424 0.550424 0.550424
0.623867 0.623867 0.623867
0.702183 0.702183 0.702183
0.762799 0.762799 0.762799
0.482530 0.482530 0.482530
0.485383 0.485383 0.485383
0.499368 0.499368 0.499368
0.525399 0.525399 0.525399
0.566186 0.566186 0.566186
0.621645 0.621645 0.621645
0.686176 0.686176 0.686176
0.747204 0.747204 0.747204
0.798317 0.798317 0.798317
0.582086 0.582086 0.582086
0.584343 0.584343 0.584343
0.595570 0.595570 0.595570
0.618112 0.618112 0.618112
0.653965 0.653965 0.653965
0.699593 0.699593 0.699593
0.749147 0.749147 0.749147
0.795994 0.795994 0.795994
0.834747 0.834747 0.834747
0.688002 0.688002 0.688002
0.689500 0.689500 0.689500
0.697396 0.697396 0.697396
0.712401 0.712401 0.712401
0.737118 0.737118 0.737118
0.770579 0.770579 0.770579
0.807247 0.807247 0.807247
0.844028 0.844028 0.844028
0.871161 0.871161 0.871161
0.757160 0.757160 0.757160
0.784565 0.784565 0.784565
0.784571 0.784571 0.784571
0.796742 0.796742 0.796742
0.807401 0.807401 0.807401
0.828267 0.828267 0.828267
0.856831 0.856831 0.856831
0.884407 0.884407 0.884407
0.906108 0.906108 0.906108
0.137036 0.137036 0.137036
0.145190 0.145190 0.145190
0.198318 0.198318 0.198318
0.251849 0.251849 0.251849
0.330561 0.330561 0.330561
0.424432 0.424432 0.424432
0.530762 0.530762 0.530762
0.622733 0.622733 0.622733
0.699312 0.699312 0.699312
0.161605 0.161605 0.161605
0.169842 0.169842 0.169842
0.216583 0.216583 0.216583
0.267477 0.267477 0.267477
0.339895 0.339895 0.339895
0.430023 0.430023 0.430023
0.534316 0.534316 0.534316
0.625320 0.625320 0.625320
0.699312 0.699312 0.699312
0.233083 0.233083 0.233083
0.239011 0.239011 0.239011
0.270280 0.270280 0.270280
0.315516 0.315516 0.315516
0.371962 0.371962 0.371962
0.454505 0.454505 0.454505
0.550558 0.550558 0.550558
0.640664 0.640664 0.640664
0.699313 0.699313 0.699313
0.314080 0.314080 0.314080
0.318564 0.318564 0.318564
0.339474 0.339474 0.339474
0.375821 0.375821 0.375821
0.421909 0.421909 0.421909
0.498001 0.498001 0.498001
0.581329 0.581329 0.581329
0.668936 0.668936 0.668936
0.726790 0.726790 0.726790
0.394601 0.394601 0.394601
0.397695 0.397695 0.397695
0.411320 0.411320 0.411320
0.445345 0.445345 0.445345
0.504596 0.504596 0.504596
0.555810 0.555810 0.555810
0.629717 0.629717 0.629717
0.706174 0.706174 0.706174
0.765703 0.765703 0.765703
0.493527 0.493527 0.493527
0.496223 0.496223 0.496223
0.509342 0.509342 0.509342
0.534680 0.534680 0.534680
0.574478 0.574478 0.574478
0.628308 0.628308 0.628308
0.690824 0.690824 0.690824
0.751506 0.751506 0.751506
0.800630 0.800630 0.800630
0.591735 0.591735 0.591735
0.594128 0.594128 0.594128
0.605307 0.605307 0.605307
0.627661 0.627661 0.627661
0.663171 0.663171 0.663171
0.706464 0.706464 0.706464
0.753890 0.753890 0.753890
0.799297 0.799297 0.799297
0.837212 0.837212 0.837212
0.694502 0.694502 0.694502
0.696102 0.696102 0.696102
0.704069 0.704069 0.704069
0.719269 0.719269 0.719269
0.743949 0.743949 0.743949
0.777033 0.777033 0.777033
0.811589 0.811589 0.811589
0.846894 0.846894 0.846894
0.873056 0.873056 0.873056
0.767324 0.767324 0.767324
0.771319 0.771319 0.771319
0.780725 0.780725 0.780725
0.795514 0.795514 0.795514
0.810973 0.810973 0.810973
0.832211 0.832211 0.832211
0.859808 0.859808 0.859808
0.886578 0.886578 0.886578
0.907637 0.907637 0.907637
0.174875 0.174875 0.174875
0.176157 0.176157 0.176157
0.225212 0.225212 0.225212
0.274148 0.274148 0.274148
0.344486 0.344486 0.344486
0.432029 0.432029 0.432029
0.535941 0.535941 0.535941
0.626578 0.626578 0.626578
0.699312 0.699312 0.699312
0.191257 0.191257 0.191257
0.193769 0.193769 0.193769
0.239088 0.239088 0.239088
0.286640 0.286640 0.286640
0.352813 0.352813 0.352813
0.438081 0.438081 0.438081
0.539877 0.539877 0.539877
0.629744 0.629744 0.629744
0.699312 0.699312 0.699312
0.255696 0.255696 0.255696
0.259153 0.259153 0.259153
0.289143 0.289143 0.289143
0.332107 0.332107 0.332107
0.384301 0.384301 0.384301
0.463125 0.463125 0.463125
0.556848 0.556848 0.556848
0.646082 0.646082 0.646082
0.699313 0.699313 0.699313
0.331418 0.331418 0.331418
0.334604 0.334604 0.334604
0.354323 0.354323 0.354323
0.388107 0.388107 0.388107
0.435648 0.435648 0.435648
0.506060 0.506060 0.506060
0.588457 0.588457 0.588457
0.674925 0.674925 0.674925
0.733085 0.733085 0.733085
0.407624 0.407624 0.407624
0.410299 0.410299 0.410299
0.427006 0.427006 0.427006
0.460502 0.460502 0.460502
0.507937 0.507937 0.507937
0.563210 0.563210 0.563210
0.637028 0.637028 0.637028
0.711505 0.711505 0.711505
0.769614 0.769614 0.769614
0.504298 0.504298 0.504298
0.507098 0.507098 0.507098
0.519949 0.519949 0.519949
0.544703 0.544703 0.544703
0.583546 0.583546 0.583546
0.640439 0.640439 0.640439
0.696695 0.696695 0.696695
0.756687 0.756687 0.756687
0.803811 0.803811 0.803811
0.601442 0.601442 0.601442
0.603872 0.603872 0.603872
0.615073 0.615073 0.615073
0.637296 0.637296 0.637296
0.672429 0.672429 0.672429
0.713358 0.713358 0.713358
0.759122 0.759122 0.759122
0.803260 0.803260 0.803260
0.840347 0.840347 0.840347
0.700856 0.700856 0.700856
0.702549 0.702549 0.702549
0.710713 0.710713 0.710713
0.726061 0.726061 0.726061
0.750401 0.750401 0.750401
0.783337 0.783337 0.783337
0.815852 0.815852 0.815852
0.850224 0.850224 0.850224
0.875296 0.875296 0.875296
0.769996 0.769996 0.769996
0.773496 0.773496 0.773496
0.781434 0.781434 0.781434
0.798461 0.798461 0.798461
0.814242 0.814242 0.814242
0.835732 0.835732 0.835732
0.862535 0.862535 0.862535
0.888773 0.888773 0.888773
0.909480 0.909480 0.909480
0.211504 0.211504 0.211504
0.210848 0.210848 0.210848
0.247786 0.247786 0.247786
0.295982 0.295982 0.295982
0.360164 0.360164 0.360164
0.444956 0.444956 0.444956
0.544293 0.544293 0.544293
0.633197 0.633197 0.633197
0.699304 0.699304 0.699304
0.223678 0.223678 0.223678
0.223906 0.223906 0.223906
0.259608 0.259608 0.259608
0.306445 0.306445 0.306445
0.367613 0.367613 0.367613
0.450920 0.450920 0.450920
0.548424 0.548424 0.548424
0.636729 0.636729 0.636729
0.699302 0.699302 0.699302
0.277932 0.277932 0.277932
0.279856 0.279856 0.279856
0.305537 0.305537 0.305537
0.347026 0.347026 0.347026
0.396859 0.396859 0.396859
0.475912 0.475912 0.475912
0.565626 0.565626 0.565626
0.653641 0.653641 0.653641
0.699241 0.699241 0.699241
0.349119 0.349119 0.349119
0.351506 0.351506 0.351506
0.369057 0.369057 0.369057
0.401313 0.401313 0.401313
0.450779 0.450779 0.450779
0.518562 0.518562 0.518562
0.598144 0.598144 0.598144
0.682309 0.682309 0.682309
0.741368 0.741368 0.741368
0.423721 0.423721 0.423721
0.426703 0.426703 0.426703
0.443427 0.443427 0.443427
0.476425 0.476425 0.476425
0.521320 0.521320 0.521320
0.575163 0.575163 0.575163
0.646518 0.646518 0.646518
0.718437 0.718437 0.718437
0.774604 0.774604 0.774604
0.517775 0.517775 0.517775
0.520397 0.520397 0.520397
0.533081 0.533081 0.533081
0.558096 0.558096 0.558096
0.597009 0.597009 0.597009
0.647803 0.647803 0.647803
0.704144 0.704144 0.704144
0.763029 0.763029 0.763029
0.807778 0.807778 0.807778
0.612013 0.612013 0.612013
0.614520 0.614520 0.614520
0.625741 0.625741 0.625741
0.647824 0.647824 0.647824
0.682056 0.682056 0.682056
0.721097 0.721097 0.721097
0.765056 0.765056 0.765056
0.807958 0.807958 0.807958
0.844333 0.844333 0.844333
0.707950 0.707950 0.707950
0.709664 0.709664 0.709664
0.717877 0.717877 0.717877
0.733305 0.733305 0.733305
0.757229 0.757229 0.757229
0.788792 0.788792 0.788792
0.820385 0.820385 0.820385
0.854064 0.854064 0.854064
0.878056 0.878056 0.878056
0.769762 0.769762 0.769762
0.776565 0.776565 0.776565
0.785244 0.785244 0.785244
0.801801 0.801801 0.801801
0.817469 0.817469 0.817469
0.839048 0.839048 0.839048
0.864998 0.864998 0.864998
0.891112 0.891112 0.891112
0.911838 0.911838 0.911838
0.247447 0.247447 0.247447
0.247175 0.247175 0.247175
0.274317 0.274317 0.274317
0.317649 0.317649 0.317649
0.377409 0.377409 0.377409
0.463745 0.463745 0.463745
0.557609 0.557609 0.557609
0.644846 0.644846 0.644846
0.702351 0.702351 0.702351
0.257392 0.257392 0.257392
0.257554 0.257554 0.257554
0.284877 0.284877 0.284877
0.327207 0.327207 0.327207
0.383969 0.383969 0.383969
0.469434 0.469434 0.469434
0.561754 0.561754 0.561754
0.648551 0.648551 0.648551
0.703268 0.703268 0.703268
0.305686 0.305686 0.305686
0.307086 0.307086 0.307086
0.330682 0.330682 0.330682
0.365617 0.365617 0.365617
0.412633 0.412633 0.412633
0.494738 0.494738 0.494738
0.580063 0.580063 0.580063
0.665763 0.665763 0.665763
0.713348 0.713348 0.713348
0.368612 0.368612 0.368612
0.370486 0.370486 0.370486
0.387572 0.387572 0.387572
0.417070 0.417070 0.417070
0.467721 0.467721 0.467721
0.534302 0.534302 0.534302
0.613375 0.613375 0.613375
0.692943 0.692943 0.692943
0.747970 0.747970 0.747970
0.443003 0.443003 0.443003
0.445619 0.445619 0.445619
0.463093 0.463093 0.463093
0.494333 0.494333 0.494333
0.536000 0.536000 0.536000
0.589952 0.589952 0.589952
0.661506 0.661506 0.661506
0.729021 0.729021 0.729021
0.781383 0.781383 0.781383
0.532447 0.532447 0.532447
0.534895 0.534895 0.534895
0.548433 0.548433 0.548433
0.572707 0.572707 0.572707
0.611597 0.611597 0.611597
0.661206 0.661206 0.661206
0.715247 0.715247 0.715247
0.772497 0.772497 0.772497
0.813296 0.813296 0.813296
0.623798 0.623798 0.623798
0.626208 0.626208 0.626208
0.638199 0.638199 0.638199
0.660159 0.660159 0.660159
0.692306 0.692306 0.692306
0.730658 0.730658 0.730658
0.773028 0.773028 0.773028
0.814358 0.814358 0.814358
0.849542 0.849542 0.849542
0.717054 0.717054 0.717054
0.718613 0.718613 0.718613
0.726393 0.726393 0.726393
0.741474 0.741474 0.741474
0.764741 0.764741 0.764741
0.794603 0.794603 0.794603
0.825574 0.825574 0.825574
0.856334 0.856334 0.856334
0.881493 0.881493 0.881493
0.766144 0.766144 0.766144
0.784970 0.784970 0.784970
0.787190 0.787190 0.787190
0.804143 0.804143 0.804143
0.821045 0.821045 0.821045
0.842462 0.842462 0.842462
0.867351 0.867351 0.867351
0.893626 0.893626 0.893626
0.914660 0.914660 0.914660
0.289281 0.289281 0.289281
0.291853 0.291853 0.291853
0.305256 0.305256 0.305256
0.344894 0.344894 0.344894
0.412357 0.412357 0.412357
0.509221 0.509221 0.509221
0.592730 0.592730 0.592730
0.671728 0.671728 0.671728
0.711290 0.711290 0.711290
0.296995 0.296995 0.296995
0.299620 0.299620 0.299620
0.313171 0.313171 0.313171
0.351800 0.351800 0.351800
0.417950 0.417950 0.417950
0.513447 0.513447 0.513447
0.596537 0.596537 0.596537
0.674081 0.674081 0.674081
0.715205 0.715205 0.715205
0.334340 0.334340 0.334340
0.336929 0.336929 0.336929
0.349897 0.349897 0.349897
0.382846 0.382846 0.382846
0.446013 0.446013 0.446013
0.532899 0.532899 0.532899
0.614103 0.614103 0.614103
0.686694 0.686694 0.686694
0.715213 0.715213 0.715213
0.395541 0.395541 0.395541
0.397861 0.397861 0.397861
0.409258 0.409258 0.409258
0.441675 0.441675 0.441675
0.498218 0.498218 0.498218
0.570045 0.570045 0.570045
0.648397 0.648397 0.648397
0.714727 0.714727 0.714727
0.767119 0.767119 0.767119
0.472101 0.472101 0.472101
0.474954 0.474954 0.474954
0.488990 0.488990 0.488990
0.516578 0.516578 0.516578
0.558979 0.558979 0.558979
0.621731 0.621731 0.621731
0.691962 0.691962 0.691962
0.750934 0.750934 0.750934
0.796959 0.796959 0.796959
0.552958 0.552958 0.552958
0.555475 0.555475 0.555475
0.567946 0.567946 0.567946
0.593655 0.593655 0.593655
0.630924 0.630924 0.630924
0.683442 0.683442 0.683442
0.738599 0.738599 0.738599
0.790467 0.790467 0.790467
0.828061 0.828061 0.828061
0.638602 0.638602 0.638602
0.641004 0.641004 0.641004
0.652917 0.652917 0.652917
0.677825 0.677825 0.677825
0.706553 0.706553 0.706553
0.743163 0.743163 0.743163
0.787758 0.787758 0.787758
0.827126 0.827126 0.827126
0.861158 0.861158 0.861158
0.721421 0.721421 0.721421
0.722957 0.722957 0.722957
0.730922 0.730922 0.730922
0.748388 0.748388 0.748388
0.773876 0.773876 0.773876
0.801114 0.801114 0.801114
0.830228 0.830228 0.830228
0.863681 0.863681 0.863681
0.888933 0.888933 0.888933
0.759905 0.759905 0.759905
0.787333 0.787333 0.787333
0.787334 0.787334 0.787334
0.791669 0.791669 0.791669
0.824385 0.824385 0.824385
0.845796 0.845796 0.845796
0.869918 0.869918 0.869918
0.895662 0.895662 0.895662
0.917860 0.917860 0.917860
