LUTs/trix_classic/TriX_Blue47_Soft.cube
TITLE "Tri-X Blue47 Soft"
# Adobe RGB in/out. REPLACES AgX. Tri-X Blue47 Soft.
LUT_3D_SIZE 33
DOMAIN_MIN 0.0 0.0 0.0
DOMAIN_MAX 1.0 1.0 1.0
0.093873 0.093873 0.093873
0.093873 0.093873 0.093873
0.093873 0.093873 0.093873
0.093873 0.093873 0.093873
0.093873 0.093873 0.093873
0.093873 0.093873 0.093873
0.093873 0.093873 0.093873
0.093873 0.093873 0.093873
0.093873 0.093873 0.093873
0.093873 0.093873 0.093873
0.093867 0.093867 0.093867
0.093899 0.093899 0.093899
0.093926 0.093926 0.093926
0.093962 0.093962 0.093962
0.094022 0.094022 0.094022
0.094072 0.094072 0.094072
0.094121 0.094121 0.094121
0.094204 0.094204 0.094204
0.094569 0.094569 0.094569
0.095451 0.095451 0.095451
0.096405 0.096405 0.096405
0.097616 0.097616 0.097616
0.099986 0.099986 0.099986
0.102791 0.102791 0.102791
0.108175 0.108175 0.108175
0.117778 0.117778 0.117778
0.129196 0.129196 0.129196
0.173017 0.173017 0.173017
0.351592 0.351592 0.351592
0.351550 0.351550 0.351550
0.351548 0.351548 0.351548
0.351546 0.351546 0.351546
0.509242 0.509242 0.509242
0.093873 0.093873 0.093873
0.093873 0.093873 0.093873
0.093873 0.093873 0.093873
0.093873 0.093873 0.093873
0.093873 0.093873 0.093873
0.093873 0.093873 0.093873
0.093873 0.093873 0.093873
0.093873 0.093873 0.093873
0.093873 0.093873 0.093873
0.093872 0.093872 0.093872
0.093869 0.093869 0.093869
0.093901 0.093901 0.093901
0.093927 0.093927 0.093927
0.093963 0.093963 0.093963
0.094024 0.094024 0.094024
0.094074 0.094074 0.094074
0.094123 0.094123 0.094123
0.094205 0.094205 0.094205
0.094588 0.094588 0.094588
0.095467 0.095467 0.095467
0.096418 0.096418 0.096418
0.097627 0.097627 0.097627
0.100001 0.100001 0.100001
0.102798 0.102798 0.102798
0.108146 0.108146 0.108146
0.117678 0.117678 0.117678
0.128826 0.128826 0.128826
0.171558 0.171558 0.171558
0.351593 0.351593 0.351593
0.351550 0.351550 0.351550
0.351548 0.351548 0.351548
0.351546 0.351546 0.351546
0.509242 0.509242 0.509242
0.093873 0.093873 0.093873
0.093873 0.093873 0.093873
0.093873 0.093873 0.093873
0.093873 0.093873 0.093873
0.093873 0.093873 0.093873
0.093873 0.093873 0.093873
0.093873 0.093873 0.093873
0.093873 0.093873 0.093873
0.093873 0.093873 0.093873
0.093868 0.093868 0.093868
0.093876 0.093876 0.093876
0.093906 0.093906 0.093906
0.093932 0.093932 0.093932
0.093967 0.093967 0.093967
0.094031 0.094031 0.094031
0.094079 0.094079 0.094079
0.094130 0.094130 0.094130
0.094211 0.094211 0.094211
0.094658 0.094658 0.094658
0.095525 0.095525 0.095525
0.096464 0.096464 0.096464
0.097668 0.097668 0.097668
0.100056 0.100056 0.100056
0.102829 0.102829 0.102829
0.108066 0.108066 0.108066
0.117344 0.117344 0.117344
0.127697 0.127697 0.127697
0.166599 0.166599 0.166599
0.351596 0.351596 0.351596
0.351551 0.351551 0.351551
0.351548 0.351548 0.351548
0.351547 0.351547 0.351547
0.509241 0.509241 0.509241
0.093873 0.093873 0.093873
0.093873 0.093873 0.093873
0.093873 0.093873 0.093873
0.093873 0.093873 0.093873
0.093873 0.093873 0.093873
0.093873 0.093873 0.093873
0.093873 0.093873 0.093873
0.093873 0.093873 0.093873
0.093873 0.093873 0.093873
0.093860 0.093860 0.093860
0.093889 0.093889 0.093889
0.093917 0.093917 0.093917
0.093942 0.093942 0.093942
0.093976 0.093976 0.093976
0.094043 0.094043 0.094043
0.094089 0.094089 0.094089
0.094144 0.094144 0.094144
0.094222 0.094222 0.094222
0.094792 0.094792 0.094792
0.095635 0.095635 0.095635
0.096553 0.096553 0.096553
0.097748 0.097748 0.097748
0.100168 0.100168 0.100168
0.102909 0.102909 0.102909
0.107982 0.107982 0.107982
0.116815 0.116815 0.116815
0.126103 0.126103 0.126103
0.158642 0.158642 0.158642
0.351603 0.351603 0.351603
0.351552 0.351552 0.351552
0.351549 0.351549 0.351549
0.351547 0.351547 0.351547
0.509240 0.509240 0.509240
0.093873 0.093873 0.093873
0.093873 0.093873 0.093873
0.093873 0.093873 0.093873
0.093873 0.093873 0.093873
0.093873 0.093873 0.093873
0.093873 0.093873 0.093873
0.093873 0.093873 0.093873
0.093872 0.093872 0.093872
0.093864 0.093864 0.093864
0.093862 0.093862 0.093862
0.093909 0.093909 0.093909
0.093935 0.093935 0.093935
0.093958 0.093958 0.093958
0.093989 0.093989 0.093989
0.094063 0.094063 0.094063
0.094106 0.094106 0.094106
0.094165 0.094165 0.094165
0.094240 0.094240 0.094240
0.095002 0.095002 0.095002
0.095810 0.095810 0.095810
0.096695 0.096695 0.096695
0.097878 0.097878 0.097878
0.100362 0.100362 0.100362
0.103084 0.103084 0.103084
0.107933 0.107933 0.107933
0.116221 0.116221 0.116221
0.124299 0.124299 0.124299
0.149433 0.149433 0.149433
0.351617 0.351617 0.351617
0.351553 0.351553 0.351553
0.351550 0.351550 0.351550
0.351547 0.351547 0.351547
0.509240 0.509240 0.509240
0.093873 0.093873 0.093873
0.093873 0.093873 0.093873
0.093873 0.093873 0.093873
0.093873 0.093873 0.093873
0.093873 0.093873 0.093873
0.093873 0.093873 0.093873
0.093873 0.093873 0.093873
0.093857 0.093857 0.093857
0.093858 0.093858 0.093858
0.093884 0.093884 0.093884
0.093929 0.093929 0.093929
0.093956 0.093956 0.093956
0.093977 0.093977 0.093977
0.094019 0.094019 0.094019
0.094088 0.094088 0.094088
0.094135 0.094135 0.094135
0.094193 0.094193 0.094193
0.094265 0.094265 0.094265
0.095307 0.095307 0.095307
0.096065 0.096065 0.096065
0.096905 0.096905 0.096905
0.098075 0.098075 0.098075
0.100676 0.100676 0.100676
0.103427 0.103427 0.103427
0.108009 0.108009 0.108009
0.115774 0.115774 0.115774
0.122770 0.122770 0.122770
0.141108 0.141108 0.141108
0.351645 0.351645 0.351645
0.351557 0.351557 0.351557
0.351551 0.351551 0.351551
0.351548 0.351548 0.351548
0.509239 0.509239 0.509239
0.093873 0.093873 0.093873
0.093873 0.093873 0.093873
0.093873 0.093873 0.093873
0.093873 0.093873 0.093873
0.093873 0.093873 0.093873
0.093873 0.093873 0.093873
0.093863 0.093863 0.093863
0.093880 0.093880 0.093880
0.093888 0.093888 0.093888
0.093909 0.093909 0.093909
0.093955 0.093955 0.093955
0.093979 0.093979 0.093979
0.094003 0.094003 0.094003
0.094051 0.094051 0.094051
0.094120 0.094120 0.094120
0.094177 0.094177 0.094177
0.094228 0.094228 0.094228
0.094483 0.094483 0.094483
0.095678 0.095678 0.095678
0.096396 0.096396 0.096396
0.097240 0.097240 0.097240
0.098680 0.098680 0.098680
0.101162 0.101162 0.101162
0.104043 0.104043 0.104043
0.108436 0.108436 0.108436
0.115712 0.115712 0.115712
0.122055 0.122055 0.122055
0.135369 0.135369 0.135369
0.351710 0.351710 0.351710
0.351564 0.351564 0.351564
0.351555 0.351555 0.351555
0.351550 0.351550 0.351550
0.509239 0.509239 0.509239
0.093873 0.093873 0.093873
0.093873 0.093873 0.093873
0.093872 0.093872 0.093872
0.093864 0.093864 0.093864
0.093856 0.093856 0.093856
0.093872 0.093872 0.093872
0.093891 0.093891 0.093891
0.093911 0.093911 0.093911
0.093916 0.093916 0.093916
0.093939 0.093939 0.093939
0.093983 0.093983 0.093983
0.094017 0.094017 0.094017
0.094044 0.094044 0.094044
0.094088 0.094088 0.094088
0.094169 0.094169 0.094169
0.094220 0.094220 0.094220
0.094268 0.094268 0.094268
0.095011 0.095011 0.095011
0.096142 0.096142 0.096142
0.096793 0.096793 0.096793
0.097644 0.097644 0.097644
0.099426 0.099426 0.099426
0.101814 0.101814 0.101814
0.104998 0.104998 0.104998
0.109497 0.109497 0.109497
0.116357 0.116357 0.116357
0.122749 0.122749 0.122749
0.133269 0.133269 0.133269
0.351939 0.351939 0.351939
0.351590 0.351590 0.351590
0.351566 0.351566 0.351566
0.351554 0.351554 0.351554
0.509239 0.509239 0.509239
0.093867 0.093867 0.093867
0.093866 0.093866 0.093866
0.093861 0.093861 0.093861
0.093855 0.093855 0.093855
0.093872 0.093872 0.093872
0.093889 0.093889 0.093889
0.093908 0.093908 0.093908
0.093927 0.093927 0.093927
0.093948 0.093948 0.093948
0.093968 0.093968 0.093968
0.094030 0.094030 0.094030
0.094062 0.094062 0.094062
0.094087 0.094087 0.094087
0.094133 0.094133 0.094133
0.094223 0.094223 0.094223
0.094268 0.094268 0.094268
0.094729 0.094729 0.094729
0.095577 0.095577 0.095577
0.096652 0.096652 0.096652
0.097318 0.097318 0.097318
0.098247 0.098247 0.098247
0.100366 0.100366 0.100366
0.103011 0.103011 0.103011
0.106123 0.106123 0.106123
0.110758 0.110758 0.110758
0.117437 0.117437 0.117437
0.124300 0.124300 0.124300
0.135190 0.135190 0.135190
0.354604 0.354604 0.354604
0.351854 0.351854 0.351854
0.351637 0.351637 0.351637
0.351576 0.351576 0.351576
0.509239 0.509239 0.509239
0.093867 0.093867 0.093867
0.093869 0.093869 0.093869
0.093876 0.093876 0.093876
0.093890 0.093890 0.093890
0.093905 0.093905 0.093905
0.093921 0.093921 0.093921
0.093940 0.093940 0.093940
0.093959 0.093959 0.093959
0.093978 0.093978 0.093978
0.094004 0.094004 0.094004
0.094078 0.094078 0.094078
0.094108 0.094108 0.094108
0.094137 0.094137 0.094137
0.094193 0.094193 0.094193
0.094280 0.094280 0.094280
0.094824 0.094824 0.094824
0.095401 0.095401 0.095401
0.096190 0.096190 0.096190
0.097273 0.097273 0.097273
0.097941 0.097941 0.097941
0.099383 0.099383 0.099383
0.101429 0.101429 0.101429
0.104692 0.104692 0.104692
0.107597 0.107597 0.107597
0.112468 0.112468 0.112468
0.118791 0.118791 0.118791
0.125075 0.125075 0.125075
0.134853 0.134853 0.134853
0.147861 0.147861 0.147861
0.178670 0.178670 0.178670
0.330386 0.330386 0.330386
0.355407 0.355407 0.355407
0.509239 0.509239 0.509239
0.093924 0.093924 0.093924
0.093925 0.093925 0.093925
0.093932 0.093932 0.093932
0.093945 0.093945 0.093945
0.093960 0.093960 0.093960
0.093976 0.093976 0.093976
0.093999 0.093999 0.093999
0.094032 0.094032 0.094032
0.094063 0.094063 0.094063
0.094094 0.094094 0.094094
0.094134 0.094134 0.094134
0.094174 0.094174 0.094174
0.094202 0.094202 0.094202
0.094253 0.094253 0.094253
0.095049 0.095049 0.095049
0.095583 0.095583 0.095583
0.096089 0.096089 0.096089
0.096822 0.096822 0.096822
0.097990 0.097990 0.097990
0.099161 0.099161 0.099161
0.100689 0.100689 0.100689
0.103052 0.103052 0.103052
0.106492 0.106492 0.106492
0.109720 0.109720 0.109720
0.114620 0.114620 0.114620
0.120749 0.120749 0.120749
0.126500 0.126500 0.126500
0.135439 0.135439 0.135439
0.146552 0.146552 0.146552
0.167111 0.167111 0.167111
0.286977 0.286977 0.286977
0.367152 0.367152 0.367152
0.371321 0.371321 0.371321
0.093961 0.093961 0.093961
0.093963 0.093963 0.093963
0.093968 0.093968 0.093968
0.093978 0.093978 0.093978
0.093992 0.093992 0.093992
0.094020 0.094020 0.094020
0.094051 0.094051 0.094051
0.094080 0.094080 0.094080
0.094110 0.094110 0.094110
0.094152 0.094152 0.094152
0.094196 0.094196 0.094196
0.094241 0.094241 0.094241
0.094263 0.094263 0.094263
0.094747 0.094747 0.094747
0.095857 0.095857 0.095857
0.096330 0.096330 0.096330
0.096810 0.096810 0.096810
0.097603 0.097603 0.097603
0.099399 0.099399 0.099399
0.100602 0.100602 0.100602
0.102132 0.102132 0.102132
0.105207 0.105207 0.105207
0.108754 0.108754 0.108754
0.112512 0.112512 0.112512
0.117147 0.117147 0.117147
0.123008 0.123008 0.123008
0.128467 0.128467 0.128467
0.137132 0.137132 0.137132
0.147557 0.147557 0.147557
0.162709 0.162709 0.162709
0.230878 0.230878 0.230878
0.367210 0.367210 0.367210
0.375240 0.375240 0.375240
0.093993 0.093993 0.093993
0.093994 0.093994 0.093994
0.094002 0.094002 0.094002
0.094017 0.094017 0.094017
0.094038 0.094038 0.094038
0.094063 0.094063 0.094063
0.094089 0.094089 0.094089
0.094120 0.094120 0.094120
0.094162 0.094162 0.094162
0.094203 0.094203 0.094203
0.094244 0.094244 0.094244
0.094342 0.094342 0.094342
0.094927 0.094927 0.094927
0.095567 0.095567 0.095567
0.096667 0.096667 0.096667
0.097120 0.097120 0.097120
0.097624 0.097624 0.097624
0.098800 0.098800 0.098800
0.101106 0.101106 0.101106
0.102204 0.102204 0.102204
0.104488 0.104488 0.104488
0.107536 0.107536 0.107536
0.112000 0.112000 0.112000
0.115412 0.115412 0.115412
0.120109 0.120109 0.120109
0.125852 0.125852 0.125852
0.131266 0.131266 0.131266
0.139129 0.139129 0.139129
0.148829 0.148829 0.148829
0.162738 0.162738 0.162738
0.187754 0.187754 0.187754
0.367288 0.367288 0.367288
0.380860 0.380860 0.380860
0.094057 0.094057 0.094057
0.094058 0.094058 0.094058
0.094064 0.094064 0.094064
0.094077 0.094077 0.094077
0.094097 0.094097 0.094097
0.094122 0.094122 0.094122
0.094158 0.094158 0.094158
0.094197 0.094197 0.094197
0.094237 0.094237 0.094237
0.094275 0.094275 0.094275
0.094743 0.094743 0.094743
0.095306 0.095306 0.095306
0.095835 0.095835 0.095835
0.096397 0.096397 0.096397
0.097525 0.097525 0.097525
0.098029 0.098029 0.098029
0.098930 0.098930 0.098930
0.100476 0.100476 0.100476
0.103209 0.103209 0.103209
0.104960 0.104960 0.104960
0.107110 0.107110 0.107110
0.110793 0.110793 0.110793
0.115297 0.115297 0.115297
0.118788 0.118788 0.118788
0.123346 0.123346 0.123346
0.128831 0.128831 0.128831
0.134555 0.134555 0.134555
0.141955 0.141955 0.141955
0.150621 0.150621 0.150621
0.162368 0.162368 0.162368
0.180961 0.180961 0.180961
0.247042 0.247042 0.247042
0.387804 0.387804 0.387804
0.094145 0.094145 0.094145
0.094147 0.094147 0.094147
0.094156 0.094156 0.094156
0.094172 0.094172 0.094172
0.094201 0.094201 0.094201
0.094230 0.094230 0.094230
0.094264 0.094264 0.094264
0.094536 0.094536 0.094536
0.095076 0.095076 0.095076
0.095604 0.095604 0.095604
0.096145 0.096145 0.096145
0.096650 0.096650 0.096650
0.097216 0.097216 0.097216
0.097815 0.097815 0.097815
0.098845 0.098845 0.098845
0.099784 0.099784 0.099784
0.100748 0.100748 0.100748
0.102374 0.102374 0.102374
0.106054 0.106054 0.106054
0.107656 0.107656 0.107656
0.110503 0.110503 0.110503
0.114539 0.114539 0.114539
0.119006 0.119006 0.119006
0.122417 0.122417 0.122417
0.126700 0.126700 0.126700
0.132840 0.132840 0.132840
0.138237 0.138237 0.138237
0.145060 0.145060 0.145060
0.153184 0.153184 0.153184
0.163709 0.163709 0.163709
0.178811 0.178811 0.178811
0.217133 0.217133 0.217133
0.379893 0.379893 0.379893
0.094218 0.094218 0.094218
0.094220 0.094220 0.094220
0.094226 0.094226 0.094226
0.094240 0.094240 0.094240
0.094264 0.094264 0.094264
0.094434 0.094434 0.094434
0.094916 0.094916 0.094916
0.095347 0.095347 0.095347
0.095832 0.095832 0.095832
0.096359 0.096359 0.096359
0.096839 0.096839 0.096839
0.097404 0.097404 0.097404
0.097996 0.097996 0.097996
0.099134 0.099134 0.099134
0.100353 0.100353 0.100353
0.101627 0.101627 0.101627
0.102811 0.102811 0.102811
0.105319 0.105319 0.105319
0.109368 0.109368 0.109368
0.111567 0.111567 0.111567
0.114350 0.114350 0.114350
0.118488 0.118488 0.118488
0.122955 0.122955 0.122955
0.126164 0.126164 0.126164
0.130799 0.130799 0.130799
0.137096 0.137096 0.137096
0.142140 0.142140 0.142140
0.148803 0.148803 0.148803
0.156270 0.156270 0.156270
0.165482 0.165482 0.165482
0.179065 0.179065 0.179065
0.206960 0.206960 0.206960
0.339816 0.339816 0.339816
0.094358 0.094358 0.094358
0.094375 0.094375 0.094375
0.094452 0.094452 0.094452
0.094619 0.094619 0.094619
0.094902 0.094902 0.094902
0.095282 0.095282 0.095282
0.095673 0.095673 0.095673
0.096106 0.096106 0.096106
0.096561 0.096561 0.096561
0.097044 0.097044 0.097044
0.097621 0.097621 0.097621
0.098288 0.098288 0.098288
0.099452 0.099452 0.099452
0.100664 0.100664 0.100664
0.101846 0.101846 0.101846
0.103704 0.103704 0.103704
0.105805 0.105805 0.105805
0.108294 0.108294 0.108294
0.113519 0.113519 0.113519
0.115596 0.115596 0.115596
0.118523 0.118523 0.118523
0.122628 0.122628 0.122628
0.127061 0.127061 0.127061
0.130508 0.130508 0.130508
0.135498 0.135498 0.135498
0.141539 0.141539 0.141539
0.146446 0.146446 0.146446
0.152666 0.152666 0.152666
0.159735 0.159735 0.159735
0.168265 0.168265 0.168265
0.179887 0.179887 0.179887
0.200640 0.200640 0.200640
0.275498 0.275498 0.275498
0.095456 0.095456 0.095456
0.095476 0.095476 0.095476
0.095547 0.095547 0.095547
0.095690 0.095690 0.095690
0.095930 0.095930 0.095930
0.096301 0.096301 0.096301
0.096625 0.096625 0.096625
0.097072 0.097072 0.097072
0.097573 0.097573 0.097573
0.098081 0.098081 0.098081
0.099244 0.099244 0.099244
0.100396 0.100396 0.100396
0.101581 0.101581 0.101581
0.103120 0.103120 0.103120
0.105147 0.105147 0.105147
0.107106 0.107106 0.107106
0.109488 0.109488 0.109488
0.112488 0.112488 0.112488
0.117817 0.117817 0.117817
0.119931 0.119931 0.119931
0.122759 0.122759 0.122759
0.126863 0.126863 0.126863
0.131947 0.131947 0.131947
0.135495 0.135495 0.135495
0.140420 0.140420 0.140420
0.146288 0.146288 0.146288
0.150953 0.150953 0.150953
0.156872 0.156872 0.156872
0.163730 0.163730 0.163730
0.171376 0.171376 0.171376
0.181903 0.181903 0.181903
0.199210 0.199210 0.199210
0.246790 0.246790 0.246790
0.096727 0.096727 0.096727
0.096744 0.096744 0.096744
0.096807 0.096807 0.096807
0.096932 0.096932 0.096932
0.097171 0.097171 0.097171
0.097556 0.097556 0.097556
0.097937 0.097937 0.097937
0.098763 0.098763 0.098763
0.099768 0.099768 0.099768
0.100865 0.100865 0.100865
0.101943 0.101943 0.101943
0.103849 0.103849 0.103849
0.105751 0.105751 0.105751
0.107684 0.107684 0.107684
0.110207 0.110207 0.110207
0.113165 0.113165 0.113165
0.116027 0.116027 0.116027
0.119002 0.119002 0.119002
0.122289 0.122289 0.122289
0.124288 0.124288 0.124288
0.127098 0.127098 0.127098
0.131810 0.131810 0.131810
0.137138 0.137138 0.137138
0.140619 0.140619 0.140619
0.145401 0.145401 0.145401
0.151227 0.151227 0.151227
0.155619 0.155619 0.155619
0.161421 0.161421 0.161421
0.167736 0.167736 0.167736
0.175024 0.175024 0.175024
0.184668 0.184668 0.184668
0.199037 0.199037 0.199037
0.234285 0.234285 0.234285
0.097638 0.097638 0.097638
0.097655 0.097655 0.097655
0.097721 0.097721 0.097721
0.097850 0.097850 0.097850
0.098064 0.098064 0.098064
0.098742 0.098742 0.098742
0.099559 0.099559 0.099559
0.100396 0.100396 0.100396
0.101394 0.101394 0.101394
0.102705 0.102705 0.102705
0.104397 0.104397 0.104397
0.106239 0.106239 0.106239
0.108146 0.108146 0.108146
0.110846 0.110846 0.110846
0.113605 0.113605 0.113605
0.116331 0.116331 0.116331
0.119398 0.119398 0.119398
0.122456 0.122456 0.122456
0.125428 0.125428 0.125428
0.128791 0.128791 0.128791
0.132092 0.132092 0.132092
0.137103 0.137103 0.137103
0.142486 0.142486 0.142486
0.145821 0.145821 0.145821
0.150548 0.150548 0.150548
0.156243 0.156243 0.156243
0.160455 0.160455 0.160455
0.166137 0.166137 0.166137
0.172097 0.172097 0.172097
0.178934 0.178934 0.178934
0.187645 0.187645 0.187645
0.200693 0.200693 0.200693
0.227535 0.227535 0.227535
0.099266 0.099266 0.099266
0.099299 0.099299 0.099299
0.099423 0.099423 0.099423
0.099666 0.099666 0.099666
0.100065 0.100065 0.100065
0.100680 0.100680 0.100680
0.101522 0.101522 0.101522
0.102374 0.102374 0.102374
0.104085 0.104085 0.104085
0.105564 0.105564 0.105564
0.107307 0.107307 0.107307
0.109549 0.109549 0.109549
0.112150 0.112150 0.112150
0.114731 0.114731 0.114731
0.117577 0.117577 0.117577
0.120490 0.120490 0.120490
0.123378 0.123378 0.123378
0.126395 0.126395 0.126395
0.129781 0.129781 0.129781
0.133448 0.133448 0.133448
0.137413 0.137413 0.137413
0.142357 0.142357 0.142357
0.147735 0.147735 0.147735
0.151120 0.151120 0.151120
0.155743 0.155743 0.155743
0.161437 0.161437 0.161437
0.165467 0.165467 0.165467
0.170892 0.170892 0.170892
0.176701 0.176701 0.176701
0.182919 0.182919 0.182919
0.191162 0.191162 0.191162
0.202815 0.202815 0.202815
0.224887 0.224887 0.224887
0.101628 0.101628 0.101628
0.101659 0.101659 0.101659
0.101773 0.101773 0.101773
0.101994 0.101994 0.101994
0.102571 0.102571 0.102571
0.103507 0.103507 0.103507
0.104904 0.104904 0.104904
0.106081 0.106081 0.106081
0.107578 0.107578 0.107578
0.109577 0.109577 0.109577
0.112002 0.112002 0.112002
0.114410 0.114410 0.114410
0.117083 0.117083 0.117083
0.119879 0.119879 0.119879
0.122643 0.122643 0.122643
0.125656 0.125656 0.125656
0.128654 0.128654 0.128654
0.132300 0.132300 0.132300
0.136005 0.136005 0.136005
0.139890 0.139890 0.139890
0.143695 0.143695 0.143695
0.147687 0.147687 0.147687
0.153022 0.153022 0.153022
0.156262 0.156262 0.156262
0.160926 0.160926 0.160926
0.166659 0.166659 0.166659
0.170574 0.170574 0.170574
0.175861 0.175861 0.175861
0.181448 0.181448 0.181448
0.187238 0.187238 0.187238
0.194851 0.194851 0.194851
0.205648 0.205648 0.205648
0.224257 0.224257 0.224257
0.105292 0.105292 0.105292
0.105340 0.105340 0.105340
0.105518 0.105518 0.105518
0.105863 0.105863 0.105863
0.106426 0.106426 0.106426
0.107283 0.107283 0.107283
0.108746 0.108746 0.108746
0.110591 0.110591 0.110591
0.112490 0.112490 0.112490
0.114890 0.114890 0.114890
0.117054 0.117054 0.117054
0.119680 0.119680 0.119680
0.122539 0.122539 0.122539
0.125213 0.125213 0.125213
0.127942 0.127942 0.127942
0.131423 0.131423 0.131423
0.135142 0.135142 0.135142
0.138853 0.138853 0.138853
0.142586 0.142586 0.142586
0.146387 0.146387 0.146387
0.150324 0.150324 0.150324
0.154296 0.154296 0.154296
0.158331 0.158331 0.158331
0.161482 0.161482 0.161482
0.166081 0.166081 0.166081
0.171820 0.171820 0.171820
0.175637 0.175637 0.175637
0.180805 0.180805 0.180805
0.186293 0.186293 0.186293
0.191817 0.191817 0.191817
0.198668 0.198668 0.198668
0.209047 0.209047 0.209047
0.224549 0.224549 0.224549
0.108651 0.108651 0.108651
0.108713 0.108713 0.108713
0.108938 0.108938 0.108938
0.109375 0.109375 0.109375
0.110089 0.110089 0.110089
0.111177 0.111177 0.111177
0.112797 0.112797 0.112797
0.114795 0.114795 0.114795
0.116485 0.116485 0.116485
0.118928 0.118928 0.118928
0.121125 0.121125 0.121125
0.123727 0.123727 0.123727
0.126256 0.126256 0.126256
0.129242 0.129242 0.129242
0.132691 0.132691 0.132691
0.136020 0.136020 0.136020
0.139653 0.139653 0.139653
0.143312 0.143312 0.143312
0.147074 0.147074 0.147074
0.150814 0.150814 0.150814
0.154664 0.154664 0.154664
0.158534 0.158534 0.158534
0.162588 0.162588 0.162588
0.166712 0.166712 0.166712
0.171259 0.171259 0.171259
0.176939 0.176939 0.176939
0.180622 0.180622 0.180622
0.185723 0.185723 0.185723
0.190954 0.190954 0.190954
0.196605 0.196605 0.196605
0.203086 0.203086 0.203086
0.212254 0.212254 0.212254
0.225758 0.225758 0.225758
0.113618 0.113618 0.113618
0.113675 0.113675 0.113675
0.113883 0.113883 0.113883
0.114287 0.114287 0.114287
0.114944 0.114944 0.114944
0.115943 0.115943 0.115943
0.117503 0.117503 0.117503
0.119813 0.119813 0.119813
0.121389 0.121389 0.121389
0.123557 0.123557 0.123557
0.126001 0.126001 0.126001
0.128322 0.128322 0.128322
0.131517 0.131517 0.131517
0.134930 0.134930 0.134930
0.138194 0.138194 0.138194
0.141667 0.141667 0.141667
0.145269 0.145269 0.145269
0.148978 0.148978 0.148978
0.152655 0.152655 0.152655
0.156458 0.156458 0.156458
0.160239 0.160239 0.160239
0.164117 0.164117 0.164117
0.168014 0.168014 0.168014
0.172180 0.172180 0.172180
0.176403 0.176403 0.176403
0.182035 0.182035 0.182035
0.185576 0.185576 0.185576
0.190486 0.190486 0.190486
0.195663 0.195663 0.195663
0.201036 0.201036 0.201036
0.207689 0.207689 0.207689
0.215726 0.215726 0.215726
0.227360 0.227360 0.227360
0.118975 0.118975 0.118975
0.119031 0.119031 0.119031
0.119238 0.119238 0.119238
0.119638 0.119638 0.119638
0.120288 0.120288 0.120288
0.121275 0.121275 0.121275
0.122733 0.122733 0.122733
0.124885 0.124885 0.124885
0.126752 0.126752 0.126752
0.128818 0.128818 0.128818
0.132129 0.132129 0.132129
0.134657 0.134657 0.134657
0.138021 0.138021 0.138021
0.141089 0.141089 0.141089
0.144614 0.144614 0.144614
0.148059 0.148059 0.148059
0.151605 0.151605 0.151605
0.155282 0.155282 0.155282
0.158997 0.158997 0.158997
0.162802 0.162802 0.162802
0.166672 0.166672 0.166672
0.170583 0.170583 0.170583
0.174497 0.174497 0.174497
0.178444 0.178444 0.178444
0.182729 0.182729 0.182729
0.187055 0.187055 0.187055
0.190452 0.190452 0.190452
0.195327 0.195327 0.195327
0.200263 0.200263 0.200263
0.205768 0.205768 0.205768
0.212052 0.212052 0.212052
0.218915 0.218915 0.218915
0.229400 0.229400 0.229400
0.123690 0.123690 0.123690
0.123736 0.123736 0.123736
0.123908 0.123908 0.123908
0.124243 0.124243 0.124243
0.124796 0.124796 0.124796
0.125652 0.125652 0.125652
0.126949 0.126949 0.126949
0.129080 0.129080 0.129080
0.131747 0.131747 0.131747
0.133833 0.133833 0.133833
0.136770 0.136770 0.136770
0.139672 0.139672 0.139672
0.142624 0.142624 0.142624
0.145862 0.145862 0.145862
0.149217 0.149217 0.149217
0.152569 0.152569 0.152569
0.156176 0.156176 0.156176
0.159764 0.159764 0.159764
0.163389 0.163389 0.163389
0.167105 0.167105 0.167105
0.170889 0.170889 0.170889
0.174737 0.174737 0.174737
0.178630 0.178630 0.178630
0.182561 0.182561 0.182561
0.186563 0.186563 0.186563
