LUTs/trix_classic/TriX_Red25_ExtraPunchy.cube
TITLE "Tri-X Red25 ExtraPunchy"
# Adobe RGB in/out. REPLACES AgX. Tri-X Red25 ExtraPunchy.
LUT_3D_SIZE 9
DOMAIN_MIN 0.0 0.0 0.0
DOMAIN_MAX 1.0 1.0 1.0
0.092237 0.092237 0.092237
0.092237 0.092237 0.092237
0.100725 0.100725 0.100725
0.249056 0.249056 0.249056
0.579291 0.579291 0.579291
0.870998 0.870998 0.870998
0.962624 0.962624 0.962624
0.984304 0.984304 0.984304
0.984304 0.984304 0.984304
0.092237 0.092237 0.092237
0.092237 0.092237 0.092237
0.126347 0.126347 0.126347
0.296681 0.296681 0.296681
0.582304 0.582304 0.582304
0.862529 0.862529 0.862529
0.960896 0.960896 0.960896
0.984304 0.984304 0.984304
0.984304 0.984304 0.984304
0.092237 0.092237 0.092237
0.092237 0.092237 0.092237
0.097372 0.097372 0.097372
0.289081 0.289081 0.289081
0.590967 0.590967 0.590967
0.835149 0.835149 0.835149
0.949130 0.949130 0.949130
0.984301 0.984301 0.984301
0.984304 0.984304 0.984304
0.092237 0.092237 0.092237
0.092237 0.092237 0.092237
0.093253 0.093253 0.093253
0.187726 0.187726 0.187726
0.505131 0.505131 0.505131
0.809493 0.809493 0.809493
0.928776 0.928776 0.928776
0.979102 0.979102 0.979102
0.984304 0.984304 0.984304
0.092237 0.092237 0.092237
0.092237 0.092237 0.092237
0.092673 0.092673 0.092673
0.133520 0.133520 0.133520
0.378557 0.378557 0.378557
0.745141 0.745141 0.745141
0.909517 0.909517 0.909517
0.970525 0.970525 0.970525
0.983919 0.983919 0.983919
0.092237 0.092237 0.092237
0.092237 0.092237 0.092237
0.092558 0.092558 0.092558
0.109371 0.109371 0.109371
0.288848 0.288848 0.288848
0.641270 0.641270 0.641270
0.885165 0.885165 0.885165
0.962681 0.962681 0.962681
0.983229 0.983229 0.983229
0.092237 0.092237 0.092237
0.092237 0.092237 0.092237
0.092313 0.092313 0.092313
0.099715 0.099715 0.099715
0.219573 0.219573 0.219573
0.530185 0.530185 0.530185
0.849427 0.849427 0.849427
0.957754 0.957754 0.957754
0.982556 0.982556 0.982556
0.092237 0.092237 0.092237
0.092237 0.092237 0.092237
0.092237 0.092237 0.092237
0.093596 0.093596 0.093596
0.151641 0.151641 0.151641
0.417864 0.417864 0.417864
0.805372 0.805372 0.805372
0.953536 0.953536 0.953536
0.982463 0.982463 0.982463
0.092237 0.092237 0.092237
0.092237 0.092237 0.092237
0.092237 0.092237 0.092237
0.092237 0.092237 0.092237
0.092492 0.092492 0.092492
0.242800 0.242800 0.242800
0.705262 0.705262 0.705262
0.946260 0.946260 0.946260
0.983796 0.983796 0.983796
0.092237 0.092237 0.092237
0.092237 0.092237 0.092237
0.093848 0.093848 0.093848
0.207871 0.207871 0.207871
0.567016 0.567016 0.567016
0.871393 0.871393 0.871393
0.962479 0.962479 0.962479
0.984304 0.984304 0.984304
0.984304 0.984304 0.984304
0.092237 0.092237 0.092237
0.092317 0.092317 0.092317
0.103801 0.103801 0.103801
0.243051 0.243051 0.243051
0.565818 0.565818 0.565818
0.863345 0.863345 0.863345
0.960835 0.960835 0.960835
0.984304 0.984304 0.984304
0.984304 0.984304 0.984304
0.092237 0.092237 0.092237
0.092237 0.092237 0.092237
0.106490 0.106490 0.106490
0.295927 0.295927 0.295927
0.570753 0.570753 0.570753
0.836311 0.836311 0.836311
0.950067 0.950067 0.950067
0.984300 0.984300 0.984300
0.984304 0.984304 0.984304
0.092237 0.092237 0.092237
0.092237 0.092237 0.092237
0.096148 0.096148 0.096148
0.223569 0.223569 0.223569
0.526254 0.526254 0.526254
0.810290 0.810290 0.810290
0.930509 0.930509 0.930509
0.979166 0.979166 0.979166
0.984304 0.984304 0.984304
0.092237 0.092237 0.092237
0.092237 0.092237 0.092237
0.093710 0.093710 0.093710
0.157841 0.157841 0.157841
0.413637 0.413637 0.413637
0.756466 0.756466 0.756466
0.911665 0.911665 0.911665
0.971130 0.971130 0.971130
0.983911 0.983911 0.983911
0.092237 0.092237 0.092237
0.092237 0.092237 0.092237
0.092854 0.092854 0.092854
0.120551 0.120551 0.120551
0.314633 0.314633 0.314633
0.664444 0.664444 0.664444
0.888617 0.888617 0.888617
0.963466 0.963466 0.963466
0.983245 0.983245 0.983245
0.092237 0.092237 0.092237
0.092237 0.092237 0.092237
0.092543 0.092543 0.092543
0.103201 0.103201 0.103201
0.238373 0.238373 0.238373
0.552941 0.552941 0.552941
0.856430 0.856430 0.856430
0.958416 0.958416 0.958416
0.982618 0.982618 0.982618
0.092237 0.092237 0.092237
0.092237 0.092237 0.092237
0.092237 0.092237 0.092237
0.094186 0.094186 0.094186
0.163383 0.163383 0.163383
0.435923 0.435923 0.435923
0.812383 0.812383 0.812383
0.954954 0.954954 0.954954
0.982550 0.982550 0.982550
0.092237 0.092237 0.092237
0.092237 0.092237 0.092237
0.092237 0.092237 0.092237
0.092237 0.092237 0.092237
0.092684 0.092684 0.092684
0.254846 0.254846 0.254846
0.716418 0.716418 0.716418
0.947791 0.947791 0.947791
0.983844 0.983844 0.983844
0.092237 0.092237 0.092237
0.092237 0.092237 0.092237
0.094783 0.094783 0.094783
0.202238 0.202238 0.202238
0.552389 0.552389 0.552389
0.869187 0.869187 0.869187
0.961806 0.961806 0.961806
0.984302 0.984302 0.984302
0.984304 0.984304 0.984304
0.092237 0.092237 0.092237
0.092237 0.092237 0.092237
0.101783 0.101783 0.101783
0.226337 0.226337 0.226337
0.550544 0.550544 0.550544
0.862361 0.862361 0.862361
0.960389 0.960389 0.960389
0.984301 0.984301 0.984301
0.984304 0.984304 0.984304
0.092237 0.092237 0.092237
0.092237 0.092237 0.092237
0.128236 0.128236 0.128236
0.280646 0.280646 0.280646
0.551186 0.551186 0.551186
0.838631 0.838631 0.838631
0.951935 0.951935 0.951935
0.983891 0.983891 0.983891
0.984304 0.984304 0.984304
0.092237 0.092237 0.092237
0.092474 0.092474 0.092474
0.106016 0.106016 0.106016
0.265770 0.265770 0.265770
0.546604 0.546604 0.546604
0.813554 0.813554 0.813554
0.934735 0.934735 0.934735
0.979376 0.979376 0.979376
0.984304 0.984304 0.984304
0.092254 0.092254 0.092254
0.092641 0.092641 0.092641
0.100970 0.100970 0.100970
0.214512 0.214512 0.214512
0.480356 0.480356 0.480356
0.782753 0.782753 0.782753
0.917247 0.917247 0.917247
0.973008 0.973008 0.973008
0.983883 0.983883 0.983883
0.092428 0.092428 0.092428
0.092696 0.092696 0.092696
0.097696 0.097696 0.097696
0.170998 0.170998 0.170998
0.394716 0.394716 0.394716
0.727442 0.727442 0.727442
0.898718 0.898718 0.898718
0.965893 0.965893 0.965893
0.983297 0.983297 0.983297
0.092296 0.092296 0.092296
0.092512 0.092512 0.092512
0.094616 0.094616 0.094616
0.132690 0.132690 0.132690
0.310089 0.310089 0.310089
0.633698 0.633698 0.633698
0.877063 0.877063 0.877063
0.960551 0.960551 0.960551
0.982814 0.982814 0.982814
0.092237 0.092237 0.092237
0.092237 0.092237 0.092237
0.092660 0.092660 0.092660
0.102622 0.102622 0.102622
0.221309 0.221309 0.221309
0.515836 0.515836 0.515836
0.840325 0.840325 0.840325
0.958290 0.958290 0.958290
0.982810 0.982810 0.982810
0.092237 0.092237 0.092237
0.092237 0.092237 0.092237
0.092237 0.092237 0.092237
0.092237 0.092237 0.092237
0.096264 0.096264 0.096264
0.310390 0.310390 0.310390
0.754016 0.754016 0.754016
0.953836 0.953836 0.953836
0.983959 0.983959 0.983959
0.092237 0.092237 0.092237
0.092237 0.092237 0.092237
0.099423 0.099423 0.099423
0.207271 0.207271 0.207271
0.538101 0.538101 0.538101
0.860627 0.860627 0.860627
0.959934 0.959934 0.959934
0.983077 0.983077 0.983077
0.984304 0.984304 0.984304
0.092237 0.092237 0.092237
0.092237 0.092237 0.092237
0.105740 0.105740 0.105740
0.226367 0.226367 0.226367
0.538349 0.538349 0.538349
0.855170 0.855170 0.855170
0.958661 0.958661 0.958661
0.982877 0.982877 0.982877
0.984304 0.984304 0.984304
0.092237 0.092237 0.092237
0.092427 0.092427 0.092427
0.118254 0.118254 0.118254
0.271194 0.271194 0.271194
0.542125 0.542125 0.542125
0.836325 0.836325 0.836325
0.950598 0.950598 0.950598
0.981182 0.981182 0.981182
0.984304 0.984304 0.984304
0.092355 0.092355 0.092355
0.092922 0.092922 0.092922
0.115098 0.115098 0.115098
0.302165 0.302165 0.302165
0.545523 0.545523 0.545523
0.815230 0.815230 0.815230
0.936426 0.936426 0.936426
0.979286 0.979286 0.979286
0.984304 0.984304 0.984304
0.092842 0.092842 0.092842
0.094009 0.094009 0.094009
0.113098 0.113098 0.113098
0.253000 0.253000 0.253000
0.515634 0.515634 0.515634
0.792848 0.792848 0.792848
0.921076 0.921076 0.921076
0.973883 0.973883 0.973883
0.983827 0.983827 0.983827
0.093554 0.093554 0.093554
0.094419 0.094419 0.094419
0.109394 0.109394 0.109394
0.215986 0.215986 0.215986
0.452531 0.452531 0.452531
0.756573 0.756573 0.756573
0.905560 0.905560 0.905560
0.967812 0.967812 0.967812
0.983319 0.983319 0.983319
0.093343 0.093343 0.093343
0.094037 0.094037 0.094037
0.102631 0.102631 0.102631
0.176449 0.176449 0.176449
0.376856 0.376856 0.376856
0.695612 0.695612 0.695612
0.889944 0.889944 0.889944
0.962742 0.962742 0.962742
0.982965 0.982965 0.982965
0.092339 0.092339 0.092339
0.092526 0.092526 0.092526
0.094535 0.094535 0.094535
0.125107 0.125107 0.125107
0.282763 0.282763 0.282763
0.588966 0.588966 0.588966
0.864387 0.864387 0.864387
0.960509 0.960509 0.960509
0.983049 0.983049 0.983049
0.092237 0.092237 0.092237
0.092237 0.092237 0.092237
0.092237 0.092237 0.092237
0.092237 0.092237 0.092237
0.122669 0.122669 0.122669
0.388004 0.388004 0.388004
0.801068 0.801068 0.801068
0.958829 0.958829 0.958829
0.984080 0.984080 0.984080
0.092237 0.092237 0.092237
0.092237 0.092237 0.092237
0.103185 0.103185 0.103185
0.222704 0.222704 0.222704
0.522946 0.522946 0.522946
0.849978 0.849978 0.849978
0.957481 0.957481 0.957481
0.982123 0.982123 0.982123
0.984304 0.984304 0.984304
0.092237 0.092237 0.092237
0.092237 0.092237 0.092237
0.107132 0.107132 0.107132
0.237130 0.237130 0.237130
0.524899 0.524899 0.524899
0.845581 0.845581 0.845581
0.956320 0.956320 0.956320
0.981915 0.981915 0.981915
0.984304 0.984304 0.984304
0.092237 0.092237 0.092237
0.092436 0.092436 0.092436
0.116166 0.116166 0.116166
0.274149 0.274149 0.274149
0.532006 0.532006 0.532006
0.830957 0.830957 0.830957
0.947883 0.947883 0.947883
0.980659 0.980659 0.980659
0.984304 0.984304 0.984304
0.092652 0.092652 0.092652
0.093706 0.093706 0.093706
0.122581 0.122581 0.122581
0.290461 0.290461 0.290461
0.539967 0.539967 0.539967
0.814145 0.814145 0.814145
0.935796 0.935796 0.935796
0.979050 0.979050 0.979050
0.984304 0.984304 0.984304
0.093972 0.093972 0.093972
0.095949 0.095949 0.095949
0.125622 0.125622 0.125622
0.273282 0.273282 0.273282
0.545947 0.545947 0.545947
0.796732 0.796732 0.796732
0.922831 0.922831 0.922831
0.974027 0.974027 0.974027
0.983750 0.983750 0.983750
0.095641 0.095641 0.095641
0.097795 0.097795 0.097795
0.126338 0.126338 0.126338
0.249000 0.249000 0.249000
0.489265 0.489265 0.489265
0.771933 0.771933 0.771933
0.909892 0.909892 0.909892
0.968965 0.968965 0.968965
0.983293 0.983293 0.983293
0.095545 0.095545 0.095545
0.097232 0.097232 0.097232
0.115591 0.115591 0.115591
0.213275 0.213275 0.213275
0.426215 0.426215 0.426215
0.733014 0.733014 0.733014
0.897315 0.897315 0.897315
0.964481 0.964481 0.964481
0.983023 0.983023 0.983023
0.092856 0.092856 0.092856
0.093470 0.093470 0.093470
0.099611 0.099611 0.099611
0.154141 0.154141 0.154141
0.331826 0.331826 0.331826
0.645830 0.645830 0.645830
0.879216 0.879216 0.879216
0.962126 0.962126 0.962126
0.983191 0.983191 0.983191
0.092237 0.092237 0.092237
0.092237 0.092237 0.092237
0.092237 0.092237 0.092237
0.092471 0.092471 0.092471
0.153482 0.153482 0.153482
0.441287 0.441287 0.441287
0.823255 0.823255 0.823255
0.961241 0.961241 0.961241
0.984170 0.984170 0.984170
0.092237 0.092237 0.092237
0.092237 0.092237 0.092237
0.104327 0.104327 0.104327
0.230911 0.230911 0.230911
0.518598 0.518598 0.518598
0.840247 0.840247 0.840247
0.953977 0.953977 0.953977
0.981437 0.981437 0.981437
0.984304 0.984304 0.984304
0.092237 0.092237 0.092237
0.092237 0.092237 0.092237
0.106707 0.106707 0.106707
0.240911 0.240911 0.240911
0.520806 0.520806 0.520806
0.836865 0.836865 0.836865
0.952202 0.952202 0.952202
0.981240 0.981240 0.981240
0.984304 0.984304 0.984304
0.092237 0.092237 0.092237
0.092378 0.092378 0.092378
0.115048 0.115048 0.115048
0.273202 0.273202 0.273202
0.530499 0.530499 0.530499
0.825550 0.825550 0.825550
0.945173 0.945173 0.945173
0.980212 0.980212 0.980212
0.984304 0.984304 0.984304
0.092802 0.092802 0.092802
0.093966 0.093966 0.093966
0.126197 0.126197 0.126197
0.291562 0.291562 0.291562
0.541241 0.541241 0.541241
0.812026 0.812026 0.812026
0.934775 0.934775 0.934775
0.978421 0.978421 0.978421
0.984213 0.984213 0.984213
0.095082 0.095082 0.095082
0.097569 0.097569 0.097569
0.135924 0.135924 0.135924
0.287643 0.287643 0.287643
0.539525 0.539525 0.539525
0.797532 0.797532 0.797532
0.923476 0.923476 0.923476
0.974020 0.974020 0.974020
0.983673 0.983673 0.983673
0.097976 0.097976 0.097976
0.102038 0.102038 0.102038
0.139036 0.139036 0.139036
0.269886 0.269886 0.269886
0.509866 0.509866 0.509866
0.784665 0.784665 0.784665
0.912443 0.912443 0.912443
0.969608 0.969608 0.969608
0.983271 0.983271 0.983271
0.098417 0.098417 0.098417
0.101740 0.101740 0.101740
0.130401 0.130401 0.130401
0.239484 0.239484 0.239484
0.458137 0.458137 0.458137
0.750423 0.750423 0.750423
0.901400 0.901400 0.901400
0.965649 0.965649 0.965649
0.983055 0.983055 0.983055
0.093840 0.093840 0.093840
0.094449 0.094449 0.094449
0.104607 0.104607 0.104607
0.176436 0.176436 0.176436
0.365198 0.365198 0.365198
0.677909 0.677909 0.677909
0.886858 0.886858 0.886858
0.963134 0.963134 0.963134
0.983260 0.983260 0.983260
0.092237 0.092237 0.092237
0.092237 0.092237 0.092237
0.092237 0.092237 0.092237
0.092631 0.092631 0.092631
0.168851 0.168851 0.168851
0.468182 0.468182 0.468182
0.834010 0.834010 0.834010
0.962529 0.962529 0.962529
0.984204 0.984204 0.984204
0.092237 0.092237 0.092237
0.092237 0.092237 0.092237
0.100495 0.100495 0.100495
0.234993 0.234993 0.234993
0.518058 0.518058 0.518058
0.836264 0.836264 0.836264
0.951787 0.951787 0.951787
0.981021 0.981021 0.981021
0.984304 0.984304 0.984304
0.092237 0.092237 0.092237
0.092237 0.092237 0.092237
0.102041 0.102041 0.102041
0.242594 0.242594 0.242594
0.520255 0.520255 0.520255
0.833722 0.833722 0.833722
0.950219 0.950219 0.950219
0.980843 0.980843 0.980843
0.984304 0.984304 0.984304
0.092237 0.092237 0.092237
0.092334 0.092334 0.092334
0.109504 0.109504 0.109504
0.270086 0.270086 0.270086
0.530326 0.530326 0.530326
0.824782 0.824782 0.824782
0.944142 0.944142 0.944142
0.979982 0.979982 0.979982
0.984304 0.984304 0.984304
0.092995 0.092995 0.092995
0.094111 0.094111 0.094111
0.124650 0.124650 0.124650
0.291959 0.291959 0.291959
0.543172 0.543172 0.543172
0.813648 0.813648 0.813648
0.935105 0.935105 0.935105
0.978300 0.978300 0.978300
0.984054 0.984054 0.984054
0.096251 0.096251 0.096251
0.099310 0.099310 0.099310
0.139770 0.139770 0.139770
0.296029 0.296029 0.296029
0.547345 0.547345 0.547345
0.802429 0.802429 0.802429
0.924885 0.924885 0.924885
0.974396 0.974396 0.974396
0.983641 0.983641 0.983641
0.100949 0.100949 0.100949
0.105034 0.105034 0.105034
0.148457 0.148457 0.148457
0.286180 0.286180 0.286180
0.528295 0.528295 0.528295
0.787451 0.787451 0.787451
0.914977 0.914977 0.914977
0.970350 0.970350 0.970350
0.983295 0.983295 0.983295
0.100973 0.100973 0.100973
0.104391 0.104391 0.104391
0.138995 0.138995 0.138995
0.255342 0.255342 0.255342
0.477838 0.477838 0.477838
0.760494 0.760494 0.760494
0.903272 0.903272 0.903272
0.966573 0.966573 0.966573
0.983122 0.983122 0.983122
0.094059 0.094059 0.094059
0.094910 0.094910 0.094910
0.107221 0.107221 0.107221
0.186141 0.186141 0.186141
0.381621 0.381621 0.381621
0.694175 0.694175 0.694175
0.890209 0.890209 0.890209
0.963557 0.963557 0.963557
0.983323 0.983323 0.983323
0.092237 0.092237 0.092237
0.092237 0.092237 0.092237
0.092237 0.092237 0.092237
0.092237 0.092237 0.092237
0.160849 0.160849 0.160849
0.464572 0.464572 0.464572
0.834117 0.834117 0.834117
0.962640 0.962640 0.962640
0.984234 0.984234 0.984234
0.092237 0.092237 0.092237
0.092237 0.092237 0.092237
0.102601 0.102601 0.102601
0.240688 0.240688 0.240688
0.533034 0.533034 0.533034
0.845617 0.845617 0.845617
0.954639 0.954639 0.954639
0.981324 0.981324 0.981324
0.984304 0.984304 0.984304
0.092237 0.092237 0.092237
0.092237 0.092237 0.092237
0.104390 0.104390 0.104390
0.247334 0.247334 0.247334
0.534802 0.534802 0.534802
0.843554 0.843554 0.843554
0.953433 0.953433 0.953433
0.981169 0.981169 0.981169
0.984304 0.984304 0.984304
0.092237 0.092237 0.092237
0.092549 0.092549 0.092549
0.118653 0.118653 0.118653
0.276503 0.276503 0.276503
0.544456 0.544456 0.544456
0.835408 0.835408 0.835408
0.948218 0.948218 0.948218
0.980439 0.980439 0.980439
0.984304 0.984304 0.984304
0.093603 0.093603 0.093603
0.094616 0.094616 0.094616
0.137333 0.137333 0.137333
0.302459 0.302459 0.302459
0.556145 0.556145 0.556145
0.824882 0.824882 0.824882
0.940596 0.940596 0.940596
0.979427 0.979427 0.979427
0.984069 0.984069 0.984069
0.097464 0.097464 0.097464
0.101394 0.101394 0.101394
0.154571 0.154571 0.154571
0.313840 0.313840 0.313840
0.564012 0.564012 0.564012
0.813622 0.813622 0.813622
0.931136 0.931136 0.931136
0.976630 0.976630 0.976630
0.983753 0.983753 0.983753
0.102971 0.102971 0.102971
0.108025 0.108025 0.108025
0.161392 0.161392 0.161392
0.304505 0.304505 0.304505
0.550909 0.550909 0.550909
0.801368 0.801368 0.801368
0.920745 0.920745 0.920745
0.972873 0.972873 0.972873
0.983483 0.983483 0.983483
0.102172 0.102172 0.102172
0.106118 0.106118 0.106118
0.147078 0.147078 0.147078
0.268617 0.268617 0.268617
0.499275 0.499275 0.499275
0.774303 0.774303 0.774303
0.908209 0.908209 0.908209
0.968747 0.968747 0.968747
0.983334 0.983334 0.983334
0.093316 0.093316 0.093316
0.094004 0.094004 0.094004
0.104253 0.104253 0.104253
0.183244 0.183244 0.183244
0.384342 0.384342 0.384342
0.701071 0.701071 0.701071
0.891737 0.891737 0.891737
0.962840 0.962840 0.962840
0.983464 0.983464 0.983464
0.092237 0.092237 0.092237
0.092237 0.092237 0.092237
0.092237 0.092237 0.092237
0.092237 0.092237 0.092237
0.122470 0.122470 0.122470
0.420000 0.420000 0.420000
0.820339 0.820339 0.820339
0.961201 0.961201 0.961201
0.984265 0.984265 0.984265
0.092660 0.092660 0.092660
0.092876 0.092876 0.092876
0.101107 0.101107 0.101107
0.259026 0.259026 0.259026
0.660684 0.660684 0.660684
0.902645 0.902645 0.902645
0.969016 0.969016 0.969016
0.983405 0.983405 0.983405
0.984304 0.984304 0.984304
0.092803 0.092803 0.092803
0.093374 0.093374 0.093374
0.103274 0.103274 0.103274
0.265977 0.265977 0.265977
0.660682 0.660682 0.660682
0.901686 0.901686 0.901686
0.968666 0.968666 0.968666
0.983339 0.983339 0.983339
0.984304 0.984304 0.984304
0.095203 0.095203 0.095203
0.096919 0.096919 0.096919
0.123156 0.123156 0.123156
0.298495 0.298495 0.298495
0.662731 0.662731 0.662731
0.897561 0.897561 0.897561
0.967023 0.967023 0.967023
0.982975 0.982975 0.982975
0.984304 0.984304 0.984304
0.107565 0.107565 0.107565
0.114379 0.114379 0.114379
0.171917 0.171917 0.171917
0.347690 0.347690 0.347690
0.666262 0.666262 0.666262
0.889733 0.889733 0.889733
0.964005 0.964005 0.964005
0.982261 0.982261 0.982261
0.984304 0.984304 0.984304
0.127952 0.127952 0.127952
0.139307 0.139307 0.139307
0.212624 0.212624 0.212624
0.385976 0.385976 0.385976
0.664921 0.664921 0.664921
0.878921 0.878921 0.878921
0.960070 0.960070 0.960070
0.981538 0.981538 0.981538
0.984270 0.984270 0.984270
0.134107 0.134107 0.134107
0.147546 0.147546 0.147546
0.225699 0.225699 0.225699
0.400239 0.400239 0.400239
0.652186 0.652186 0.652186
0.861093 0.861093 0.861093
0.953636 0.953636 0.953636
0.980684 0.980684 0.980684
0.984199 0.984199 0.984199
0.115187 0.115187 0.115187
0.125538 0.125538 0.125538
0.190057 0.190057 0.190057
0.360818 0.360818 0.360818
0.612422 0.612422 0.612422
0.830831 0.830831 0.830831
0.939330 0.939330 0.939330
0.979573 0.979573 0.979573
0.984172 0.984172 0.984172
0.092911 0.092911 0.092911
0.093617 0.093617 0.093617
0.102797 0.102797 0.102797
0.209448 0.209448 0.209448
0.465385 0.465385 0.465385
0.767470 0.767470 0.767470
0.911916 0.911916 0.911916
0.973933 0.973933 0.973933
0.984209 0.984209 0.984209
0.092237 0.092237 0.092237
0.092237 0.092237 0.092237
0.092237 0.092237 0.092237
0.092237 0.092237 0.092237
0.092237 0.092237 0.092237
0.323639 0.323639 0.323639
0.795025 0.795025 0.795025
0.956943 0.956943 0.956943
0.984304 0.984304 0.984304
