LUTs/trix_classic/TriX_Red25_ExtraPunchy.cube
TITLE "Tri-X Red25 ExtraPunchy"
# Adobe RGB in/out. REPLACES AgX. Tri-X Red25 ExtraPunchy.
LUT_3D_SIZE 5
DOMAIN_MIN 0.0 0.0 0.0
DOMAIN_MAX 1.0 1.0 1.0
0.092237 0.092237 0.092237
0.100725 0.100725 0.100725
0.579291 0.579291 0.579291
0.962624 0.962624 0.962624
0.984304 0.984304 0.984304
0.092237 0.092237 0.092237
0.097372 0.097372 0.097372
0.590967 0.590967 0.590967
0.949130 0.949130 0.949130
0.984304 0.984304 0.984304
0.092237 0.092237 0.092237
0.092673 0.092673 0.092673
0.378557 0.378557 0.378557
0.909517 0.909517 0.909517
0.983919 0.983919 0.983919
0.092237 0.092237 0.092237
0.092313 0.092313 0.092313
0.219573 0.219573 0.219573
0.849427 0.849427 0.849427
0.982556 0.982556 0.982556
0.092237 0.092237 0.092237
0.092237 0.092237 0.092237
0.092492 0.092492 0.092492
0.705262 0.705262 0.705262
0.983796 0.983796 0.983796
0.092237 0.092237 0.092237
0.094783 0.094783 0.094783
0.552389 0.552389 0.552389
0.961806 0.961806 0.961806
0.984304 0.984304 0.984304
0.092237 0.092237 0.092237
0.128236 0.128236 0.128236
0.551186 0.551186 0.551186
0.951935 0.951935 0.951935
0.984304 0.984304 0.984304
0.092254 0.092254 0.092254
0.100970 0.100970 0.100970
0.480356 0.480356 0.480356
0.917247 0.917247 0.917247
0.983883 0.983883 0.983883
0.092296 0.092296 0.092296
0.094616 0.094616 0.094616
0.310089 0.310089 0.310089
0.877063 0.877063 0.877063
0.982814 0.982814 0.982814
0.092237 0.092237 0.092237
0.092237 0.092237 0.092237
0.096264 0.096264 0.096264
0.754016 0.754016 0.754016
0.983959 0.983959 0.983959
0.092237 0.092237 0.092237
0.103185 0.103185 0.103185
0.522946 0.522946 0.522946
0.957481 0.957481 0.957481
0.984304 0.984304 0.984304
0.092237 0.092237 0.092237
0.116166 0.116166 0.116166
0.532006 0.532006 0.532006
0.947883 0.947883 0.947883
0.984304 0.984304 0.984304
0.093972 0.093972 0.093972
0.125622 0.125622 0.125622
0.545947 0.545947 0.545947
0.922831 0.922831 0.922831
0.983750 0.983750 0.983750
0.095545 0.095545 0.095545
0.115591 0.115591 0.115591
0.426215 0.426215 0.426215
0.897315 0.897315 0.897315
0.983023 0.983023 0.983023
0.092237 0.092237 0.092237
0.092237 0.092237 0.092237
0.153482 0.153482 0.153482
0.823255 0.823255 0.823255
0.984170 0.984170 0.984170
0.092237 0.092237 0.092237
0.100495 0.100495 0.100495
0.518058 0.518058 0.518058
0.951787 0.951787 0.951787
0.984304 0.984304 0.984304
0.092237 0.092237 0.092237
0.109504 0.109504 0.109504
0.530326 0.530326 0.530326
0.944142 0.944142 0.944142
0.984304 0.984304 0.984304
0.096251 0.096251 0.096251
0.139770 0.139770 0.139770
0.547345 0.547345 0.547345
0.924885 0.924885 0.924885
0.983641 0.983641 0.983641
0.100973 0.100973 0.100973
0.138995 0.138995 0.138995
0.477838 0.477838 0.477838
0.903272 0.903272 0.903272
0.983122 0.983122 0.983122
0.092237 0.092237 0.092237
0.092237 0.092237 0.092237
0.160849 0.160849 0.160849
0.834117 0.834117 0.834117
0.984234 0.984234 0.984234
0.092660 0.092660 0.092660
0.101107 0.101107 0.101107
0.660684 0.660684 0.660684
0.969016 0.969016 0.969016
0.984304 0.984304 0.984304
0.095203 0.095203 0.095203
0.123156 0.123156 0.123156
0.662731 0.662731 0.662731
0.967023 0.967023 0.967023
0.984304 0.984304 0.984304
0.127952 0.127952 0.127952
0.212624 0.212624 0.212624
0.664921 0.664921 0.664921
0.960070 0.960070 0.960070
0.984270 0.984270 0.984270
0.115187 0.115187 0.115187
0.190057 0.190057 0.190057
0.612422 0.612422 0.612422
0.939330 0.939330 0.939330
0.984172 0.984172 0.984172
0.092237 0.092237 0.092237
0.092237 0.092237 0.092237
0.092237 0.092237 0.092237
0.795025 0.795025 0.795025
0.984304 0.984304 0.984304
