LUTs/trix_classic/TriX_Blue47_Normal.cube
TITLE "Tri-X Blue47 Normal"
# Adobe RGB in/out. REPLACES AgX. Tri-X Blue47 Normal.
LUT_3D_SIZE 5
DOMAIN_MIN 0.0 0.0 0.0
DOMAIN_MAX 1.0 1.0 1.0
0.093230 0.093230 0.093230
0.093230 0.093230 0.093230
0.093556 0.093556 0.093556
0.100956 0.100956 0.100956
0.519700 0.519700 0.519700
0.093233 0.093233 0.093233
0.093265 0.093265 0.093265
0.093969 0.093969 0.093969
0.102033 0.102033 0.102033
0.519696 0.519696 0.519696
0.093897 0.093897 0.093897
0.095120 0.095120 0.095120
0.100076 0.100076 0.100076
0.115750 0.115750 0.115750
0.252034 0.252034 0.252034
0.103317 0.103317 0.103317
0.106725 0.106725 0.106725
0.122454 0.122454 0.122454
0.148608 0.148608 0.148608
0.197832 0.197832 0.197832
0.119967 0.119967 0.119967
0.120017 0.120017 0.120017
0.155148 0.155148 0.155148
0.179732 0.179732 0.179732
0.205274 0.205274 0.205274
0.165845 0.165845 0.165845
0.299437 0.299437 0.299437
0.279349 0.279349 0.279349
0.321847 0.321847 0.321847
0.519741 0.519741 0.519741
0.152572 0.152572 0.152572
0.204394 0.204394 0.204394
0.218773 0.218773 0.218773
0.263766 0.263766 0.263766
0.519697 0.519697 0.519697
0.167386 0.167386 0.167386
0.180138 0.180138 0.180138
0.207260 0.207260 0.207260
0.238552 0.238552 0.238552
0.404615 0.404615 0.404615
0.190545 0.190545 0.190545
0.199677 0.199677 0.199677
0.223980 0.223980 0.223980
0.253944 0.253944 0.253944
0.294107 0.294107 0.294107
0.215803 0.215803 0.215803
0.215800 0.215800 0.215800
0.221729 0.221729 0.221729
0.255769 0.255769 0.255769
0.276175 0.276175 0.276175
0.475254 0.475254 0.475254
0.615263 0.615263 0.615263
0.616487 0.616487 0.616487
0.641557 0.641557 0.641557
0.715165 0.715165 0.715165
0.473703 0.473703 0.473703
0.548790 0.548790 0.548790
0.577247 0.577247 0.577247
0.614161 0.614161 0.614161
0.699053 0.699053 0.699053
0.440635 0.440635 0.440635
0.460210 0.460210 0.460210
0.508013 0.508013 0.508013
0.541662 0.541662 0.541662
0.674029 0.674029 0.674029
0.436126 0.436126 0.436126
0.444632 0.444632 0.444632
0.468455 0.468455 0.468455
0.495568 0.495568 0.495568
0.594304 0.594304 0.594304
0.472782 0.472782 0.472782
0.472780 0.472780 0.472780
0.446529 0.446529 0.446529
0.464493 0.464493 0.464493
0.507627 0.507627 0.507627
0.779178 0.779178 0.779178
0.817168 0.817168 0.817168
0.820800 0.820800 0.820800
0.826885 0.826885 0.826885
0.840518 0.840518 0.840518
0.782472 0.782472 0.782472
0.807716 0.807716 0.807716
0.815380 0.815380 0.815380
0.822790 0.822790 0.822790
0.837481 0.837481 0.837481
0.750385 0.750385 0.750385
0.775391 0.775391 0.775391
0.797210 0.797210 0.797210
0.809556 0.809556 0.809556
0.836115 0.836115 0.836115
0.712516 0.712516 0.712516
0.724930 0.724930 0.724930
0.757683 0.757683 0.757683
0.782937 0.782937 0.782937
0.824609 0.824609 0.824609
0.614404 0.614404 0.614404
0.615139 0.615139 0.615139
0.692551 0.692551 0.692551
0.713270 0.713270 0.713270
0.795347 0.795347 0.795347
0.922427 0.922427 0.922427
0.922564 0.922564 0.922564
0.923163 0.923163 0.923163
0.924358 0.924358 0.924358
0.917189 0.917189 0.917189
0.922432 0.922432 0.922432
0.922594 0.922594 0.922594
0.923252 0.923252 0.923252
0.924499 0.924499 0.924499
0.921273 0.921273 0.921273
0.922338 0.922338 0.922338
0.922722 0.922722 0.922722
0.923612 0.923612 0.923612
0.925053 0.925053 0.925053
0.928154 0.928154 0.928154
0.923308 0.923308 0.923308
0.923972 0.923972 0.923972
0.925211 0.925211 0.925211
0.926815 0.926815 0.926815
0.929818 0.929818 0.929818
0.847025 0.847025 0.847025
0.879331 0.879331 0.879331
0.917510 0.917510 0.917510
0.930486 0.930486 0.930486
0.932292 0.932292 0.932292
