LUTs/trix_classic/TriX_Blue47_Soft.cube
TITLE "Tri-X Blue47 Soft"
# Adobe RGB in/out. REPLACES AgX. Tri-X Blue47 Soft.
LUT_3D_SIZE 5
DOMAIN_MIN 0.0 0.0 0.0
DOMAIN_MAX 1.0 1.0 1.0
0.093873 0.093873 0.093873
0.093873 0.093873 0.093873
0.094121 0.094121 0.094121
0.108175 0.108175 0.108175
0.509242 0.509242 0.509242
0.093867 0.093867 0.093867
0.093948 0.093948 0.093948
0.094729 0.094729 0.094729
0.110758 0.110758 0.110758
0.509239 0.509239 0.509239
0.094358 0.094358 0.094358
0.096561 0.096561 0.096561
0.105805 0.105805 0.105805
0.135498 0.135498 0.135498
0.275498 0.275498 0.275498
0.113618 0.113618 0.113618
0.121389 0.121389 0.121389
0.145269 0.145269 0.145269
0.176403 0.176403 0.176403
0.227360 0.227360 0.227360
0.142180 0.142180 0.142180
0.142243 0.142243 0.142243
0.183778 0.183778 0.183778
0.210547 0.210547 0.210547
0.234068 0.234068 0.234068
0.195748 0.195748 0.195748
0.318159 0.318159 0.318159
0.298017 0.298017 0.298017
0.340246 0.340246 0.340246
0.509277 0.509277 0.509277
0.180875 0.180875 0.180875
0.233250 0.233250 0.233250
0.246539 0.246539 0.246539
0.284220 0.284220 0.284220
0.509240 0.509240 0.509240
0.197396 0.197396 0.197396
0.210979 0.210979 0.210979
0.235911 0.235911 0.235911
0.264559 0.264559 0.264559
0.414010 0.414010 0.414010
0.220915 0.220915 0.220915
0.228983 0.228983 0.228983
0.251311 0.251311 0.251311
0.276927 0.276927 0.276927
0.312823 0.312823 0.312823
0.243807 0.243807 0.243807
0.243805 0.243805 0.243805
0.249251 0.249251 0.249251
0.278288 0.278288 0.278288
0.294826 0.294826 0.294826
0.472476 0.472476 0.472476
0.588569 0.588569 0.588569
0.589573 0.589573 0.589573
0.610077 0.610077 0.610077
0.674662 0.674662 0.674662
0.471186 0.471186 0.471186
0.533594 0.533594 0.533594
0.557239 0.557239 0.557239
0.587665 0.587665 0.587665
0.660083 0.660083 0.660083
0.443515 0.443515 0.443515
0.459934 0.459934 0.459934
0.499564 0.499564 0.499564
0.527644 0.527644 0.527644
0.637185 0.637185 0.637185
0.439716 0.439716 0.439716
0.446877 0.446877 0.446877
0.466816 0.466816 0.466816
0.489308 0.489308 0.489308
0.571331 0.571331 0.571331
0.470419 0.470419 0.470419
0.470418 0.470418 0.470418
0.448471 0.448471 0.448471
0.463512 0.463512 0.463512
0.499246 0.499246 0.499246
0.732642 0.732642 0.732642
0.779731 0.779731 0.779731
0.783704 0.783704 0.783704
0.790365 0.790365 0.790365
0.805317 0.805317 0.805317
0.736706 0.736706 0.736706
0.768026 0.768026 0.768026
0.777596 0.777596 0.777596
0.785881 0.785881 0.785881
0.801983 0.801983 0.801983
0.706486 0.706486 0.706486
0.729043 0.729043 0.729043
0.754953 0.754953 0.754953
0.770321 0.770321 0.770321
0.800483 0.800483 0.800483
0.672266 0.672266 0.672266
0.683492 0.683492 0.683492
0.713072 0.713072 0.713072
0.737280 0.737280 0.737280
0.787873 0.787873 0.787873
0.587864 0.587864 0.587864
0.588467 0.588467 0.588467
0.654195 0.654195 0.654195
0.672948 0.672948 0.672948
0.752641 0.752641 0.752641
0.902719 0.902719 0.902719
0.902854 0.902854 0.902854
0.903439 0.903439 0.903439
0.904609 0.904609 0.904609
0.897594 0.897594 0.897594
0.902725 0.902725 0.902725
0.902883 0.902883 0.902883
0.903527 0.903527 0.903527
0.904747 0.904747 0.904747
0.901590 0.901590 0.901590
0.902632 0.902632 0.902632
0.903008 0.903008 0.903008
0.903879 0.903879 0.903879
0.905289 0.905289 0.905289
0.908324 0.908324 0.908324
0.903581 0.903581 0.903581
0.904231 0.904231 0.904231
0.905444 0.905444 0.905444
0.907014 0.907014 0.907014
0.909952 0.909952 0.909952
0.812465 0.812465 0.812465
0.848075 0.848075 0.848075
0.897907 0.897907 0.897907
0.910606 0.910606 0.910606
0.912373 0.912373 0.912373
