LUTs/trix_classic/TriX_Orange21_Hard.cube
TITLE "Tri-X Orange21 Hard"
# Adobe RGB in/out. REPLACES AgX. Tri-X Orange21 Hard.
LUT_3D_SIZE 33
DOMAIN_MIN 0.0 0.0 0.0
DOMAIN_MAX 1.0 1.0 1.0
0.093024 0.093024 0.093024
0.093024 0.093024 0.093024
0.093024 0.093024 0.093024
0.093024 0.093024 0.093024
0.093083 0.093083 0.093083
0.093128 0.093128 0.093128
0.093254 0.093254 0.093254
0.093412 0.093412 0.093412
0.093601 0.093601 0.093601
0.093998 0.093998 0.093998
0.095790 0.095790 0.095790
0.097714 0.097714 0.097714
0.100838 0.100838 0.100838
0.114154 0.114154 0.114154
0.152969 0.152969 0.152969
0.198195 0.198195 0.198195
0.257704 0.257704 0.257704
0.341771 0.341771 0.341771
0.451506 0.451506 0.451506
0.553432 0.553432 0.553432
0.660776 0.660776 0.660776
0.758686 0.758686 0.758686
0.825906 0.825906 0.825906
0.879795 0.879795 0.879795
0.915481 0.915481 0.915481
0.941484 0.941484 0.941484
0.965059 0.965059 0.965059
0.973581 0.973581 0.973581
0.984927 0.984927 0.984927
0.984925 0.984925 0.984925
0.984925 0.984925 0.984925
0.984925 0.984925 0.984925
0.992525 0.992525 0.992525
0.093024 0.093024 0.093024
0.093024 0.093024 0.093024
0.093024 0.093024 0.093024
0.093036 0.093036 0.093036
0.093114 0.093114 0.093114
0.093156 0.093156 0.093156
0.093280 0.093280 0.093280
0.093431 0.093431 0.093431
0.093658 0.093658 0.093658
0.094119 0.094119 0.094119
0.095937 0.095937 0.095937
0.097966 0.097966 0.097966
0.101213 0.101213 0.101213
0.115026 0.115026 0.115026
0.154027 0.154027 0.154027
0.199320 0.199320 0.199320
0.258656 0.258656 0.258656
0.342613 0.342613 0.342613
0.452123 0.452123 0.452123
0.553820 0.553820 0.553820
0.660987 0.660987 0.660987
0.758808 0.758808 0.758808
0.825981 0.825981 0.825981
0.879835 0.879835 0.879835
0.915538 0.915538 0.915538
0.941536 0.941536 0.941536
0.965078 0.965078 0.965078
0.973597 0.973597 0.973597
0.984927 0.984927 0.984927
0.984925 0.984925 0.984925
0.984925 0.984925 0.984925
0.984925 0.984925 0.984925
0.992525 0.992525 0.992525
0.093024 0.093024 0.093024
0.093024 0.093024 0.093024
0.093024 0.093024 0.093024
0.093064 0.093064 0.093064
0.093192 0.093192 0.093192
0.093251 0.093251 0.093251
0.093374 0.093374 0.093374
0.093708 0.093708 0.093708
0.093880 0.093880 0.093880
0.094584 0.094584 0.094584
0.096512 0.096512 0.096512
0.098926 0.098926 0.098926
0.102951 0.102951 0.102951
0.118719 0.118719 0.118719
0.158079 0.158079 0.158079
0.203627 0.203627 0.203627
0.262291 0.262291 0.262291
0.345822 0.345822 0.345822
0.454468 0.454468 0.454468
0.555305 0.555305 0.555305
0.661798 0.661798 0.661798
0.759271 0.759271 0.759271
0.826263 0.826263 0.826263
0.879981 0.879981 0.879981
0.915746 0.915746 0.915746
0.941725 0.941725 0.941725
0.965147 0.965147 0.965147
0.973656 0.973656 0.973656
0.984927 0.984927 0.984927
0.984925 0.984925 0.984925
0.984925 0.984925 0.984925
0.984925 0.984925 0.984925
0.992525 0.992525 0.992525
0.093024 0.093024 0.093024
0.093024 0.093024 0.093024
0.093037 0.093037 0.093037
0.093075 0.093075 0.093075
0.093233 0.093233 0.093233
0.093306 0.093306 0.093306
0.093462 0.093462 0.093462
0.094082 0.094082 0.094082
0.094569 0.094569 0.094569
0.095552 0.095552 0.095552
0.098294 0.098294 0.098294
0.100995 0.100995 0.100995
0.107425 0.107425 0.107425
0.126645 0.126645 0.126645
0.167834 0.167834 0.167834
0.212776 0.212776 0.212776
0.269964 0.269964 0.269964
0.352574 0.352574 0.352574
0.459357 0.459357 0.459357
0.558434 0.558434 0.558434
0.663512 0.663512 0.663512
0.760225 0.760225 0.760225
0.826829 0.826829 0.826829
0.880269 0.880269 0.880269
0.916146 0.916146 0.916146
0.942086 0.942086 0.942086
0.965281 0.965281 0.965281
0.973768 0.973768 0.973768
0.984928 0.984928 0.984928
0.984925 0.984925 0.984925
0.984925 0.984925 0.984925
0.984925 0.984925 0.984925
0.992525 0.992525 0.992525
0.093024 0.093024 0.093024
0.093035 0.093035 0.093035
0.093075 0.093075 0.093075
0.093156 0.093156 0.093156
0.093264 0.093264 0.093264
0.093338 0.093338 0.093338
0.093618 0.093618 0.093618
0.094624 0.094624 0.094624
0.095309 0.095309 0.095309
0.096671 0.096671 0.096671
0.100743 0.100743 0.100743
0.106528 0.106528 0.106528
0.117703 0.117703 0.117703
0.141721 0.141721 0.141721
0.187248 0.187248 0.187248
0.230160 0.230160 0.230160
0.284870 0.284870 0.284870
0.365138 0.365138 0.365138
0.468314 0.468314 0.468314
0.564256 0.564256 0.564256
0.666714 0.666714 0.666714
0.761940 0.761940 0.761940
0.827801 0.827801 0.827801
0.880746 0.880746 0.880746
0.916789 0.916789 0.916789
0.942658 0.942658 0.942658
0.965496 0.965496 0.965496
0.973944 0.973944 0.973944
0.984929 0.984929 0.984929
0.984925 0.984925 0.984925
0.984925 0.984925 0.984925
0.984928 0.984928 0.984928
0.992525 0.992525 0.992525
0.093038 0.093038 0.093038
0.093048 0.093048 0.093048
0.093080 0.093080 0.093080
0.093156 0.093156 0.093156
0.093258 0.093258 0.093258
0.093369 0.093369 0.093369
0.093729 0.093729 0.093729
0.094955 0.094955 0.094955
0.095927 0.095927 0.095927
0.097794 0.097794 0.097794
0.104835 0.104835 0.104835
0.116981 0.116981 0.116981
0.132251 0.132251 0.132251
0.159044 0.159044 0.159044
0.208453 0.208453 0.208453
0.252157 0.252157 0.252157
0.307702 0.307702 0.307702
0.387836 0.387836 0.387836
0.484454 0.484454 0.484454
0.574925 0.574925 0.574925
0.672598 0.672598 0.672598
0.764942 0.764942 0.764942
0.829411 0.829411 0.829411
0.881494 0.881494 0.881494
0.917742 0.917742 0.917742
0.943500 0.943500 0.943500
0.965813 0.965813 0.965813
0.974201 0.974201 0.974201
0.984930 0.984930 0.984930
0.984925 0.984925 0.984925
0.984925 0.984925 0.984925
0.992524 0.992524 0.992524
0.992525 0.992525 0.992525
0.093071 0.093071 0.093071
0.093078 0.093078 0.093078
0.093122 0.093122 0.093122
0.093216 0.093216 0.093216
0.093335 0.093335 0.093335
0.093443 0.093443 0.093443
0.093839 0.093839 0.093839
0.095377 0.095377 0.095377
0.096392 0.096392 0.096392
0.098898 0.098898 0.098898
0.110329 0.110329 0.110329
0.128392 0.128392 0.128392
0.147542 0.147542 0.147542
0.179882 0.179882 0.179882
0.236205 0.236205 0.236205
0.282776 0.282776 0.282776
0.333969 0.333969 0.333969
0.410434 0.410434 0.410434
0.503298 0.503298 0.503298
0.590668 0.590668 0.590668
0.682950 0.682950 0.682950
0.770318 0.770318 0.770318
0.832110 0.832110 0.832110
0.882656 0.882656 0.882656
0.918780 0.918780 0.918780
0.944690 0.944690 0.944690
0.966254 0.966254 0.966254
0.974566 0.974566 0.974566
0.984934 0.984934 0.984934
0.984926 0.984926 0.984926
0.984925 0.984925 0.984925
0.992525 0.992525 0.992525
0.992525 0.992525 0.992525
0.093123 0.093123 0.093123
0.093136 0.093136 0.093136
0.093196 0.093196 0.093196
0.093297 0.093297 0.093297
0.093413 0.093413 0.093413
0.093769 0.093769 0.093769
0.094510 0.094510 0.094510
0.095852 0.095852 0.095852
0.096846 0.096846 0.096846
0.099813 0.099813 0.099813
0.115389 0.115389 0.115389
0.137307 0.137307 0.137307
0.160166 0.160166 0.160166
0.200299 0.200299 0.200299
0.263799 0.263799 0.263799
0.311862 0.311862 0.311862
0.365744 0.365744 0.365744
0.442120 0.442120 0.442120
0.529912 0.529912 0.529912
0.610645 0.610645 0.610645
0.695602 0.695602 0.695602
0.777248 0.777248 0.777248
0.836132 0.836132 0.836132
0.884565 0.884565 0.884565
0.920260 0.920260 0.920260
0.946331 0.946331 0.946331
0.966809 0.966809 0.966809
0.975081 0.975081 0.975081
0.984951 0.984951 0.984951
0.984927 0.984927 0.984927
0.984926 0.984926 0.984926
0.992525 0.992525 0.992525
0.992525 0.992525 0.992525
0.093160 0.093160 0.093160
0.093171 0.093171 0.093171
0.093221 0.093221 0.093221
0.093313 0.093313 0.093313
0.093418 0.093418 0.093418
0.093761 0.093761 0.093761
0.094476 0.094476 0.094476
0.095735 0.095735 0.095735
0.097414 0.097414 0.097414
0.100730 0.100730 0.100730
0.121682 0.121682 0.121682
0.146149 0.146149 0.146149
0.173045 0.173045 0.173045
0.217858 0.217858 0.217858
0.288854 0.288854 0.288854
0.342229 0.342229 0.342229
0.400633 0.400633 0.400633
0.472226 0.472226 0.472226
0.559568 0.559568 0.559568
0.635677 0.635677 0.635677
0.715890 0.715890 0.715890
0.787469 0.787469 0.787469
0.841656 0.841656 0.841656
0.887518 0.887518 0.887518
0.922211 0.922211 0.922211
0.948308 0.948308 0.948308
0.967594 0.967594 0.967594
0.975755 0.975755 0.975755
0.985429 0.985429 0.985429
0.984944 0.984944 0.984944
0.984929 0.984929 0.984929
0.992525 0.992525 0.992525
0.992525 0.992525 0.992525
0.093220 0.093220 0.093220
0.093230 0.093230 0.093230
0.093272 0.093272 0.093272
0.093358 0.093358 0.093358
0.093477 0.093477 0.093477
0.093882 0.093882 0.093882
0.094771 0.094771 0.094771
0.096206 0.096206 0.096206
0.098445 0.098445 0.098445
0.102749 0.102749 0.102749
0.127959 0.127959 0.127959
0.154955 0.154955 0.154955
0.184493 0.184493 0.184493
0.233071 0.233071 0.233071
0.311697 0.311697 0.311697
0.370694 0.370694 0.370694
0.433216 0.433216 0.433216
0.502729 0.502729 0.502729
0.594955 0.594955 0.594955
0.663241 0.663241 0.663241
0.737568 0.737568 0.737568
0.800429 0.800429 0.800429
0.849482 0.849482 0.849482
0.891703 0.891703 0.891703
0.924810 0.924810 0.924810
0.949884 0.949884 0.949884
0.968898 0.968898 0.968898
0.976400 0.976400 0.976400
0.983787 0.983787 0.983787
0.986735 0.986735 0.986735
0.990170 0.990170 0.990170
0.992525 0.992525 0.992525
0.992525 0.992525 0.992525
0.093317 0.093317 0.093317
0.093327 0.093327 0.093327
0.093364 0.093364 0.093364
0.093440 0.093440 0.093440
0.093785 0.093785 0.093785
0.094460 0.094460 0.094460
0.095805 0.095805 0.095805
0.097762 0.097762 0.097762
0.101568 0.101568 0.101568
0.112940 0.112940 0.112940
0.135348 0.135348 0.135348
0.164415 0.164415 0.164415
0.196697 0.196697 0.196697
0.247954 0.247954 0.247954
0.332764 0.332764 0.332764
0.396240 0.396240 0.396240
0.458379 0.458379 0.458379
0.532782 0.532782 0.532782
0.630016 0.630016 0.630016
0.691580 0.691580 0.691580
0.759515 0.759515 0.759515
0.814353 0.814353 0.814353
0.858585 0.858585 0.858585
0.896954 0.896954 0.896954
0.928145 0.928145 0.928145
0.951885 0.951885 0.951885
0.970234 0.970234 0.970234
0.977198 0.977198 0.977198
0.984080 0.984080 0.984080
0.987034 0.987034 0.987034
0.990266 0.990266 0.990266
0.992525 0.992525 0.992525
0.992526 0.992526 0.992526
0.093378 0.093378 0.093378
0.093386 0.093386 0.093386
0.093416 0.093416 0.093416
0.093595 0.093595 0.093595
0.093899 0.093899 0.093899
0.094750 0.094750 0.094750
0.096239 0.096239 0.096239
0.098594 0.098594 0.098594
0.103445 0.103445 0.103445
0.117476 0.117476 0.117476
0.142051 0.142051 0.142051
0.175708 0.175708 0.175708
0.209146 0.209146 0.209146
0.263427 0.263427 0.263427
0.352911 0.352911 0.352911
0.419258 0.419258 0.419258
0.481941 0.481941 0.481941
0.561624 0.561624 0.561624
0.658516 0.658516 0.658516
0.721467 0.721467 0.721467
0.780009 0.780009 0.780009
0.827025 0.827025 0.827025
0.869990 0.869990 0.869990
0.903815 0.903815 0.903815
0.932219 0.932219 0.932219
0.954149 0.954149 0.954149
0.971112 0.971112 0.971112
0.978111 0.978111 0.978111
0.984426 0.984426 0.984426
0.987418 0.987418 0.987418
0.990507 0.990507 0.990507
0.992526 0.992526 0.992526
0.992526 0.992526 0.992526
0.093427 0.093427 0.093427
0.093433 0.093433 0.093433
0.093510 0.093510 0.093510
0.093725 0.093725 0.093725
0.094073 0.094073 0.094073
0.094988 0.094988 0.094988
0.096487 0.096487 0.096487
0.099069 0.099069 0.099069
0.104518 0.104518 0.104518
0.120160 0.120160 0.120160
0.145271 0.145271 0.145271
0.178767 0.178767 0.178767
0.223272 0.223272 0.223272
0.279260 0.279260 0.279260
0.373597 0.373597 0.373597
0.441280 0.441280 0.441280
0.504588 0.504588 0.504588
0.588909 0.588909 0.588909
0.685477 0.685477 0.685477
0.750039 0.750039 0.750039
0.799362 0.799362 0.799362
0.841187 0.841187 0.841187
0.881139 0.881139 0.881139
0.911571 0.911571 0.911571
0.937163 0.937163 0.937163
0.956916 0.956916 0.956916
0.972090 0.972090 0.972090
0.979028 0.979028 0.979028
0.984795 0.984795 0.984795
0.987833 0.987833 0.987833
0.991078 0.991078 0.991078
0.992526 0.992526 0.992526
0.992526 0.992526 0.992526
0.093625 0.093625 0.093625
0.093649 0.093649 0.093649
0.093739 0.093739 0.093739
0.093915 0.093915 0.093915
0.094589 0.094589 0.094589
0.095625 0.095625 0.095625
0.097088 0.097088 0.097088
0.100289 0.100289 0.100289
0.108685 0.108685 0.108685
0.127728 0.127728 0.127728
0.155669 0.155669 0.155669
0.193722 0.193722 0.193722
0.240682 0.240682 0.240682
0.297241 0.297241 0.297241
0.394123 0.394123 0.394123
0.461483 0.461483 0.461483
0.526693 0.526693 0.526693
0.613318 0.613318 0.613318
0.709929 0.709929 0.709929
0.768726 0.768726 0.768726
0.815869 0.815869 0.815869
0.855785 0.855785 0.855785
0.891378 0.891378 0.891378
0.919937 0.919937 0.919937
0.942953 0.942953 0.942953
0.960024 0.960024 0.960024
0.973224 0.973224 0.973224
0.980053 0.980053 0.980053
0.985204 0.985204 0.985204
0.988235 0.988235 0.988235
0.991425 0.991425 0.991425
0.993174 0.993174 0.993174
0.994506 0.994506 0.994506
0.093924 0.093924 0.093924
0.093945 0.093945 0.093945
0.094115 0.094115 0.094115
0.094550 0.094550 0.094550
0.095435 0.095435 0.095435
0.096605 0.096605 0.096605
0.099065 0.099065 0.099065
0.104152 0.104152 0.104152
0.119102 0.119102 0.119102
0.144557 0.144557 0.144557
0.179611 0.179611 0.179611
0.224484 0.224484 0.224484
0.277747 0.277747 0.277747
0.341817 0.341817 0.341817
0.416680 0.416680 0.416680
0.480988 0.480988 0.480988
0.549424 0.549424 0.549424
0.636443 0.636443 0.636443
0.734114 0.734114 0.734114
0.785968 0.785968 0.785968
0.829435 0.829435 0.829435
0.870230 0.870230 0.870230
0.902197 0.902197 0.902197
0.927427 0.927427 0.927427
0.948972 0.948972 0.948972
0.963626 0.963626 0.963626
0.974530 0.974530 0.974530
0.981216 0.981216 0.981216
0.985647 0.985647 0.985647
0.988674 0.988674 0.988674
0.991827 0.991827 0.991827
0.993329 0.993329 0.993329
0.994570 0.994570 0.994570
0.094387 0.094387 0.094387
0.094440 0.094440 0.094440
0.094631 0.094631 0.094631
0.095001 0.095001 0.095001
0.096001 0.096001 0.096001
0.097185 0.097185 0.097185
0.100260 0.100260 0.100260
0.106759 0.106759 0.106759
0.124419 0.124419 0.124419
0.151644 0.151644 0.151644
0.188144 0.188144 0.188144
0.234317 0.234317 0.234317
0.289733 0.289733 0.289733
0.355523 0.355523 0.355523
0.430781 0.430781 0.430781
0.502466 0.502466 0.502466
0.571851 0.571851 0.571851
0.657601 0.657601 0.657601
0.754560 0.754560 0.754560
0.803201 0.803201 0.803201
0.842113 0.842113 0.842113
0.881550 0.881550 0.881550
0.913000 0.913000 0.913000
0.935037 0.935037 0.935037
0.953511 0.953511 0.953511
0.967637 0.967637 0.967637
0.975986 0.975986 0.975986
0.982480 0.982480 0.982480
0.986129 0.986129 0.986129
0.989112 0.989112 0.989112
0.992202 0.992202 0.992202
0.993507 0.993507 0.993507
0.994737 0.994737 0.994737
0.094912 0.094912 0.094912
0.094957 0.094957 0.094957
0.095187 0.095187 0.095187
0.095726 0.095726 0.095726
0.096617 0.096617 0.096617
0.098515 0.098515 0.098515
0.101368 0.101368 0.101368
0.110705 0.110705 0.110705
0.130159 0.130159 0.130159
0.158493 0.158493 0.158493
0.197237 0.197237 0.197237
0.244895 0.244895 0.244895
0.302455 0.302455 0.302455
0.368555 0.368555 0.368555
0.443138 0.443138 0.443138
0.515598 0.515598 0.515598
0.596013 0.596013 0.596013
0.678903 0.678903 0.678903
0.769456 0.769456 0.769456
0.815769 0.815769 0.815769
0.854303 0.854303 0.854303
0.891181 0.891181 0.891181
0.921877 0.921877 0.921877
0.942706 0.942706 0.942706
0.958312 0.958312 0.958312
0.970952 0.970952 0.970952
0.977601 0.977601 0.977601
0.983535 0.983535 0.983535
0.986646 0.986646 0.986646
0.989566 0.989566 0.989566
0.992386 0.992386 0.992386
0.993675 0.993675 0.993675
0.995029 0.995029 0.995029
0.095832 0.095832 0.095832
0.095899 0.095899 0.095899
0.096144 0.096144 0.096144
0.096637 0.096637 0.096637
0.097720 0.097720 0.097720
0.100306 0.100306 0.100306
0.104791 0.104791 0.104791
0.119037 0.119037 0.119037
0.141391 0.141391 0.141391
0.172136 0.172136 0.172136
0.214083 0.214083 0.214083
0.264654 0.264654 0.264654
0.326249 0.326249 0.326249
0.395253 0.395253 0.395253
0.468198 0.468198 0.468198
0.542332 0.542332 0.542332
0.624797 0.624797 0.624797
0.701263 0.701263 0.701263
0.784402 0.784402 0.784402
0.827184 0.827184 0.827184
0.865836 0.865836 0.865836
0.900491 0.900491 0.900491
0.929106 0.929106 0.929106
0.949444 0.949444 0.949444
0.963155 0.963155 0.963155
0.973066 0.973066 0.973066
0.979398 0.979398 0.979398
0.984219 0.984219 0.984219
0.987188 0.987188 0.987188
0.990063 0.990063 0.990063
0.992580 0.992580 0.992580
0.993850 0.993850 0.993850
0.995188 0.995188 0.995188
0.097008 0.097008 0.097008
0.097072 0.097072 0.097072
0.097420 0.097420 0.097420
0.098384 0.098384 0.098384
0.099923 0.099923 0.099923
0.104107 0.104107 0.104107
0.113163 0.113163 0.113163
0.131794 0.131794 0.131794
0.157237 0.157237 0.157237
0.194741 0.194741 0.194741
0.241615 0.241615 0.241615
0.297330 0.297330 0.297330
0.362458 0.362458 0.362458
0.436203 0.436203 0.436203
0.506762 0.506762 0.506762
0.586596 0.586596 0.586596
0.664242 0.664242 0.664242
0.742473 0.742473 0.742473
0.799628 0.799628 0.799628
0.838311 0.838311 0.838311
0.876765 0.876765 0.876765
0.909426 0.909426 0.909426
0.936018 0.936018 0.936018
0.954069 0.954069 0.954069
0.967699 0.967699 0.967699
0.975188 0.975188 0.975188
0.981288 0.981288 0.981288
0.984963 0.984963 0.984963
0.987807 0.987807 0.987807
0.990573 0.990573 0.990573
0.992783 0.992783 0.992783
0.994034 0.994034 0.994034
0.995352 0.995352 0.995352
0.098613 0.098613 0.098613
0.098737 0.098737 0.098737
0.099189 0.099189 0.099189
0.100051 0.100051 0.100051
0.102159 0.102159 0.102159
0.108404 0.108404 0.108404
0.121723 0.121723 0.121723
0.140484 0.140484 0.140484
0.169375 0.169375 0.169375
0.208698 0.208698 0.208698
0.254219 0.254219 0.254219
0.311049 0.311049 0.311049
0.378301 0.378301 0.378301
0.451067 0.451067 0.451067
0.523145 0.523145 0.523145
0.603169 0.603169 0.603169
0.679198 0.679198 0.679198
0.754847 0.754847 0.754847
0.808879 0.808879 0.808879
0.849808 0.849808 0.849808
0.885339 0.885339 0.885339
0.918099 0.918099 0.918099
0.942655 0.942655 0.942655
0.958501 0.958501 0.958501
0.971094 0.971094 0.971094
0.977245 0.977245 0.977245
0.983222 0.983222 0.983222
0.985750 0.985750 0.985750
0.988458 0.988458 0.988458
0.991102 0.991102 0.991102
0.992991 0.992991 0.992991
0.994216 0.994216 0.994216
0.995511 0.995511 0.995511
0.100545 0.100545 0.100545
0.100657 0.100657 0.100657
0.101305 0.101305 0.101305
0.103189 0.103189 0.103189
0.106659 0.106659 0.106659
0.115695 0.115695 0.115695
0.133154 0.133154 0.133154
0.152767 0.152767 0.152767
0.186955 0.186955 0.186955
0.223832 0.223832 0.223832
0.273532 0.273532 0.273532
0.334929 0.334929 0.334929
0.402831 0.402831 0.402831
0.472417 0.472417 0.472417
0.545840 0.545840 0.545840
0.626718 0.626718 0.626718
0.699897 0.699897 0.699897
0.768297 0.768297 0.768297
0.819232 0.819232 0.819232
0.859112 0.859112 0.859112
0.894268 0.894268 0.894268
0.924355 0.924355 0.924355
0.948742 0.948742 0.948742
0.962757 0.962757 0.962757
0.973090 0.973090 0.973090
0.979297 0.979297 0.979297
0.984143 0.984143 0.984143
0.986572 0.986572 0.986572
0.989147 0.989147 0.989147
0.991679 0.991679 0.991679
0.993199 0.993199 0.993199
0.994404 0.994404 0.994404
0.995666 0.995666 0.995666
0.105164 0.105164 0.105164
0.105415 0.105415 0.105415
0.106910 0.106910 0.106910
0.110256 0.110256 0.110256
0.116185 0.116185 0.116185
0.127860 0.127860 0.127860
0.148945 0.148945 0.148945
0.171137 0.171137 0.171137
0.205557 0.205557 0.205557
0.247752 0.247752 0.247752
0.301943 0.301943 0.301943
0.361188 0.361188 0.361188
0.432982 0.432982 0.432982
0.501578 0.501578 0.501578
0.576890 0.576890 0.576890
0.654000 0.654000 0.654000
0.728778 0.728778 0.728778
0.787749 0.787749 0.787749
0.832524 0.832524 0.832524
0.873087 0.873087 0.873087
0.903923 0.903923 0.903923
0.930822 0.930822 0.930822
0.952702 0.952702 0.952702
0.966845 0.966845 0.966845
0.975002 0.975002 0.975002
0.981222 0.981222 0.981222
0.985029 0.985029 0.985029
0.987426 0.987426 0.987426
0.989888 0.989888 0.989888
0.992231 0.992231 0.992231
0.993421 0.993421 0.993421
0.994593 0.994593 0.994593
0.995813 0.995813 0.995813
0.115099 0.115099 0.115099
0.115745 0.115745 0.115745
0.118120 0.118120 0.118120
0.122720 0.122720 0.122720
0.130217 0.130217 0.130217
0.143804 0.143804 0.143804
0.166266 0.166266 0.166266
0.194874 0.194874 0.194874
0.229284 0.229284 0.229284
0.277935 0.277935 0.277935
0.329637 0.329637 0.329637
0.395960 0.395960 0.395960
0.466197 0.466197 0.466197
0.533571 0.533571 0.533571
0.610268 0.610268 0.610268
0.683404 0.683404 0.683404
0.755952 0.755952 0.755952
0.808505 0.808505 0.808505
0.847472 0.847472 0.847472
0.884165 0.884165 0.884165
0.914885 0.914885 0.914885
0.938426 0.938426 0.938426
0.956716 0.956716 0.956716
0.970438 0.970438 0.970438
0.976866 0.976866 0.976866
0.983067 0.983067 0.983067
0.985884 0.985884 0.985884
0.988272 0.988272 0.988272
0.990684 0.990684 0.990684
0.992531 0.992531 0.992531
0.993660 0.993660 0.993660
0.994780 0.994780 0.994780
0.995977 0.995977 0.995977
0.129048 0.129048 0.129048
0.129692 0.129692 0.129692
0.132098 0.132098 0.132098
0.137588 0.137588 0.137588
0.146613 0.146613 0.146613
0.160584 0.160584 0.160584
0.185233 0.185233 0.185233
0.219952 0.219952 0.219952
0.253262 0.253262 0.253262
0.304496 0.304496 0.304496
0.358306 0.358306 0.358306
0.429697 0.429697 0.429697
0.489557 0.489557 0.489557
0.561796 0.561796 0.561796
0.639429 0.639429 0.639429
0.709640 0.709640 0.709640
0.772831 0.772831 0.772831
0.820399 0.820399 0.820399
0.859125 0.859125 0.859125
0.892769 0.892769 0.892769
0.921846 0.921846 0.921846
0.944427 0.944427 0.944427
0.960433 0.960433 0.960433
0.972355 0.972355 0.972355
0.978691 0.978691 0.978691
0.983996 0.983996 0.983996
0.986719 0.986719 0.986719
0.989101 0.989101 0.989101
0.991480 0.991480 0.991480
0.992852 0.992852 0.992852
0.993917 0.993917 0.993917
0.994980 0.994980 0.994980
0.996137 0.996137 0.996137
0.147604 0.147604 0.147604
0.148399 0.148399 0.148399
0.151316 0.151316 0.151316
0.156951 0.156951 0.156951
0.167103 0.167103 0.167103
0.183390 0.183390 0.183390
0.209311 0.209311 0.209311
0.250232 0.250232 0.250232
0.283583 0.283583 0.283583
0.333463 0.333463 0.333463
0.395716 0.395716 0.395716
0.456650 0.456650 0.456650
0.522785 0.522785 0.522785
0.596709 0.596709 0.596709
0.665729 0.665729 0.665729
0.738572 0.738572 0.738572
0.793037 0.793037 0.793037
0.834883 0.834883 0.834883
0.872850 0.872850 0.872850
0.902697 0.902697 0.902697
0.928706 0.928706 0.928706
0.949991 0.949991 0.949991
0.964216 0.964216 0.964216
0.973993 0.973993 0.973993
0.980506 0.980506 0.980506
0.984776 0.984776 0.984776
0.987553 0.987553 0.987553
0.989914 0.989914 0.989914
0.992226 0.992226 0.992226
0.993191 0.993191 0.993191
0.994195 0.994195 0.994195
0.995200 0.995200 0.995200
0.996292 0.996292 0.996292
0.171403 0.171403 0.171403
0.172355 0.172355 0.172355
0.175851 0.175851 0.175851
0.182605 0.182605 0.182605
0.193858 0.193858 0.193858
0.211555 0.211555 0.211555
0.238206 0.238206 0.238206
0.279328 0.279328 0.279328
0.321257 0.321257 0.321257
0.369863 0.369863 0.369863
0.439779 0.439779 0.439779
0.491720 0.491720 0.491720
0.564144 0.564144 0.564144
0.630853 0.630853 0.630853
0.700691 0.700691 0.700691
0.764869 0.764869 0.764869
0.812292 0.812292 0.812292
0.849293 0.849293 0.849293
0.883920 0.883920 0.883920
0.913030 0.913030 0.913030
0.936057 0.936057 0.936057
0.954484 0.954484 0.954484
0.968424 0.968424 0.968424
0.975719 0.975719 0.975719
0.982111 0.982111 0.982111
0.985545 0.985545 0.985545
0.988374 0.988374 0.988374
0.990735 0.990735 0.990735
0.992593 0.992593 0.992593
0.993541 0.993541 0.993541
0.994486 0.994486 0.994486
0.995433 0.995433 0.995433
0.996484 0.996484 0.996484
0.204141 0.204141 0.204141
0.205165 0.205165 0.205165
0.208922 0.208922 0.208922
0.216174 0.216174 0.216174
0.227928 0.227928 0.227928
0.245812 0.245812 0.245812
0.272693 0.272693 0.272693
0.315529 0.315529 0.315529
0.367037 0.367037 0.367037
0.414334 0.414334 0.414334
0.473664 0.473664 0.473664
0.534214 0.534214 0.534214
0.600897 0.600897 0.600897
0.668298 0.668298 0.668298
0.736912 0.736912 0.736912
0.787334 0.787334 0.787334
0.829634 0.829634 0.829634
0.866078 0.866078 0.866078
0.895610 0.895610 0.895610
0.922392 0.922392 0.922392
0.943854 0.943854 0.943854
0.959299 0.959299 0.959299
0.971494 0.971494 0.971494
0.977861 0.977861 0.977861
0.983685 0.983685 0.983685
