LUTs/trix_classic/TriX_Orange21_Hard.cube
TITLE "Tri-X Orange21 Hard"
# Adobe RGB in/out. REPLACES AgX. Tri-X Orange21 Hard.
LUT_3D_SIZE 9
DOMAIN_MIN 0.0 0.0 0.0
DOMAIN_MAX 1.0 1.0 1.0
0.093024 0.093024 0.093024
0.093083 0.093083 0.093083
0.093601 0.093601 0.093601
0.100838 0.100838 0.100838
0.257704 0.257704 0.257704
0.660776 0.660776 0.660776
0.915481 0.915481 0.915481
0.984927 0.984927 0.984927
0.992525 0.992525 0.992525
0.093024 0.093024 0.093024
0.093264 0.093264 0.093264
0.095309 0.095309 0.095309
0.117703 0.117703 0.117703
0.284870 0.284870 0.284870
0.666714 0.666714 0.666714
0.916789 0.916789 0.916789
0.984929 0.984929 0.984929
0.992525 0.992525 0.992525
0.093160 0.093160 0.093160
0.093418 0.093418 0.093418
0.097414 0.097414 0.097414
0.173045 0.173045 0.173045
0.400633 0.400633 0.400633
0.715890 0.715890 0.715890
0.922211 0.922211 0.922211
0.985429 0.985429 0.985429
0.992525 0.992525 0.992525
0.093427 0.093427 0.093427
0.094073 0.094073 0.094073
0.104518 0.104518 0.104518
0.223272 0.223272 0.223272
0.504588 0.504588 0.504588
0.799362 0.799362 0.799362
0.937163 0.937163 0.937163
0.984795 0.984795 0.984795
0.992526 0.992526 0.992526
0.094912 0.094912 0.094912
0.096617 0.096617 0.096617
0.130159 0.130159 0.130159
0.302455 0.302455 0.302455
0.596013 0.596013 0.596013
0.854303 0.854303 0.854303
0.958312 0.958312 0.958312
0.986646 0.986646 0.986646
0.995029 0.995029 0.995029
0.100545 0.100545 0.100545
0.106659 0.106659 0.106659
0.186955 0.186955 0.186955
0.402831 0.402831 0.402831
0.699897 0.699897 0.699897
0.894268 0.894268 0.894268
0.973090 0.973090 0.973090
0.989147 0.989147 0.989147
0.995666 0.995666 0.995666
0.147604 0.147604 0.147604
0.167103 0.167103 0.167103
0.283583 0.283583 0.283583
0.522785 0.522785 0.522785
0.793037 0.793037 0.793037
0.928706 0.928706 0.928706
0.980506 0.980506 0.980506
0.992226 0.992226 0.992226
0.996292 0.996292 0.996292
0.307490 0.307490 0.307490
0.325330 0.325330 0.325330
0.464712 0.464712 0.464712
0.684818 0.684818 0.684818
0.864249 0.864249 0.864249
0.955832 0.955832 0.955832
0.985241 0.985241 0.985241
0.993729 0.993729 0.993729
0.997096 0.997096 0.997096
0.347232 0.347232 0.347232
0.347256 0.347256 0.347256
0.765220 0.765220 0.765220
0.765228 0.765228 0.765228
0.927373 0.927373 0.927373
0.974151 0.974151 0.974151
0.988485 0.988485 0.988485
0.995055 0.995055 0.995055
0.997873 0.997873 0.997873
0.093024 0.093024 0.093024
0.093065 0.093065 0.093065
0.093362 0.093362 0.093362
0.098095 0.098095 0.098095
0.244645 0.244645 0.244645
0.658200 0.658200 0.658200
0.914959 0.914959 0.914959
0.984929 0.984929 0.984929
0.992525 0.992525 0.992525
0.093052 0.093052 0.093052
0.093321 0.093321 0.093321
0.094008 0.094008 0.094008
0.103428 0.103428 0.103428
0.265233 0.265233 0.265233
0.663418 0.663418 0.663418
0.916307 0.916307 0.916307
0.984931 0.984931 0.984931
0.992525 0.992525 0.992525
0.093243 0.093243 0.093243
0.093439 0.093439 0.093439
0.097106 0.097106 0.097106
0.158388 0.158388 0.158388
0.362823 0.362823 0.362823
0.705711 0.705711 0.705711
0.922001 0.922001 0.922001
0.985576 0.985576 0.985576
0.992525 0.992525 0.992525
0.093662 0.093662 0.093662
0.094501 0.094501 0.094501
0.104401 0.104401 0.104401
0.218014 0.218014 0.218014
0.489072 0.489072 0.489072
0.786751 0.786751 0.786751
0.936165 0.936165 0.936165
0.984762 0.984762 0.984762
0.992526 0.992526 0.992526
0.095600 0.095600 0.095600
0.097203 0.097203 0.097203
0.132123 0.132123 0.132123
0.298614 0.298614 0.298614
0.588764 0.588764 0.588764
0.848719 0.848719 0.848719
0.956772 0.956772 0.956772
0.986617 0.986617 0.986617
0.995023 0.995023 0.995023
0.102268 0.102268 0.102268
0.110356 0.110356 0.110356
0.191022 0.191022 0.191022
0.401932 0.401932 0.401932
0.696047 0.696047 0.696047
0.892483 0.892483 0.892483
0.972529 0.972529 0.972529
0.989075 0.989075 0.989075
0.995664 0.995664 0.995664
0.152875 0.152875 0.152875
0.173295 0.173295 0.173295
0.289025 0.289025 0.289025
0.524307 0.524307 0.524307
0.792211 0.792211 0.792211
0.928258 0.928258 0.928258
0.980312 0.980312 0.980312
0.992171 0.992171 0.992171
0.996301 0.996301 0.996301
0.308009 0.308009 0.308009
0.327669 0.327669 0.327669
0.468407 0.468407 0.468407
0.686594 0.686594 0.686594
0.864392 0.864392 0.864392
0.955845 0.955845 0.955845
0.985263 0.985263 0.985263
0.993709 0.993709 0.993709
0.997108 0.997108 0.997108
0.347247 0.347247 0.347247
0.347291 0.347291 0.347291
0.765221 0.765221 0.765221
0.765231 0.765231 0.765231
0.927674 0.927674 0.927674
0.974239 0.974239 0.974239
0.988546 0.988546 0.988546
0.995078 0.995078 0.995078
0.997874 0.997874 0.997874
0.093024 0.093024 0.093024
0.093154 0.093154 0.093154
0.093427 0.093427 0.093427
0.098159 0.098159 0.098159
0.236022 0.236022 0.236022
0.652128 0.652128 0.652128
0.913430 0.913430 0.913430
0.985201 0.985201 0.985201
0.992525 0.992525 0.992525
0.093068 0.093068 0.093068
0.093265 0.093265 0.093265
0.093951 0.093951 0.093951
0.101311 0.101311 0.101311
0.252236 0.252236 0.252236
0.656631 0.656631 0.656631
0.914866 0.914866 0.914866
0.985308 0.985308 0.985308
0.992525 0.992525 0.992525
0.093303 0.093303 0.093303
0.093519 0.093519 0.093519
0.099130 0.099130 0.099130
0.141471 0.141471 0.141471
0.325998 0.325998 0.325998
0.688976 0.688976 0.688976
0.921106 0.921106 0.921106
0.986419 0.986419 0.986419
0.992525 0.992525 0.992525
0.093941 0.093941 0.093941
0.094999 0.094999 0.094999
0.105049 0.105049 0.105049
0.211364 0.211364 0.211364
0.459788 0.459788 0.459788
0.762927 0.762927 0.762927
0.933246 0.933246 0.933246
0.984635 0.984635 0.984635
0.992525 0.992525 0.992525
0.097045 0.097045 0.097045
0.099673 0.099673 0.099673
0.139889 0.139889 0.139889
0.299151 0.299151 0.299151
0.577951 0.577951 0.577951
0.835738 0.835738 0.835738
0.952476 0.952476 0.952476
0.986456 0.986456 0.986456
0.995000 0.995000 0.995000
0.113218 0.113218 0.113218
0.126846 0.126846 0.126846
0.209758 0.209758 0.209758
0.411465 0.411465 0.411465
0.695338 0.695338 0.695338
0.889082 0.889082 0.889082
0.970836 0.970836 0.970836
0.988734 0.988734 0.988734
0.995656 0.995656 0.995656
0.181393 0.181393 0.181393
0.204261 0.204261 0.204261
0.317218 0.317218 0.317218
0.538724 0.538724 0.538724
0.794962 0.794962 0.794962
0.928350 0.928350 0.928350
0.979768 0.979768 0.979768
0.991678 0.991678 0.991678
0.996327 0.996327 0.996327
0.330509 0.330509 0.330509
0.357642 0.357642 0.357642
0.494326 0.494326 0.494326
0.701164 0.701164 0.701164
0.867857 0.867857 0.867857
0.956659 0.956659 0.956659
0.985404 0.985404 0.985404
0.993602 0.993602 0.993602
0.997138 0.997138 0.997138
0.347296 0.347296 0.347296
0.765212 0.765212 0.765212
0.765222 0.765222 0.765222
0.765308 0.765308 0.765308
0.929880 0.929880 0.929880
0.974704 0.974704 0.974704
0.988813 0.988813 0.988813
0.995160 0.995160 0.995160
0.997876 0.997876 0.997876
0.093024 0.093024 0.093024
0.093173 0.093173 0.093173
0.093842 0.093842 0.093842
0.099488 0.099488 0.099488
0.237427 0.237427 0.237427
0.645907 0.645907 0.645907
0.911814 0.911814 0.911814
0.983268 0.983268 0.983268
0.992525 0.992525 0.992525
0.093083 0.093083 0.093083
0.093273 0.093273 0.093273
0.094624 0.094624 0.094624
0.103149 0.103149 0.103149
0.253195 0.253195 0.253195
0.651875 0.651875 0.651875
0.913393 0.913393 0.913393
0.983266 0.983266 0.983266
0.992525 0.992525 0.992525
0.093357 0.093357 0.093357
0.093649 0.093649 0.093649
0.097557 0.097557 0.097557
0.137815 0.137815 0.137815
0.318973 0.318973 0.318973
0.684629 0.684629 0.684629
0.920215 0.920215 0.920215
0.983316 0.983316 0.983316
0.992525 0.992525 0.992525
0.094322 0.094322 0.094322
0.095458 0.095458 0.095458
0.105621 0.105621 0.105621
0.233474 0.233474 0.233474
0.441454 0.441454 0.441454
0.754604 0.754604 0.754604
0.932434 0.932434 0.932434
0.984535 0.984535 0.984535
0.992526 0.992526 0.992526
0.098671 0.098671 0.098671
0.101425 0.101425 0.101425
0.146125 0.146125 0.146125
0.300968 0.300968 0.300968
0.567822 0.567822 0.567822
0.825792 0.825792 0.825792
0.950712 0.950712 0.950712
0.986375 0.986375 0.986375
0.994964 0.994964 0.994964
0.125264 0.125264 0.125264
0.140307 0.140307 0.140307
0.224200 0.224200 0.224200
0.420772 0.420772 0.420772
0.695200 0.695200 0.695200
0.885223 0.885223 0.885223
0.968669 0.968669 0.968669
0.988594 0.988594 0.988594
0.995633 0.995633 0.995633
0.207757 0.207757 0.207757
0.231329 0.231329 0.231329
0.342796 0.342796 0.342796
0.554377 0.554377 0.554377
0.799537 0.799537 0.799537
0.928617 0.928617 0.928617
0.979050 0.979050 0.979050
0.991392 0.991392 0.991392
0.996340 0.996340 0.996340
0.363456 0.363456 0.363456
0.392415 0.392415 0.392415
0.519911 0.519911 0.519911
0.717114 0.717114 0.717114
0.872663 0.872663 0.872663
0.957944 0.957944 0.957944
0.985514 0.985514 0.985514
0.993483 0.993483 0.993483
0.997173 0.997173 0.997173
0.532363 0.532363 0.532363
0.765182 0.765182 0.765182
0.765220 0.765220 0.765220
0.854957 0.854957 0.854957
0.934036 0.934036 0.934036
0.975486 0.975486 0.975486
0.989223 0.989223 0.989223
0.995234 0.995234 0.995234
0.997882 0.997882 0.997882
0.093054 0.093054 0.093054
0.093152 0.093152 0.093152
0.094503 0.094503 0.094503
0.102969 0.102969 0.102969
0.242205 0.242205 0.242205
0.641017 0.641017 0.641017
0.910078 0.910078 0.910078
0.981254 0.981254 0.981254
0.992525 0.992525 0.992525
0.093104 0.093104 0.093104
0.093248 0.093248 0.093248
0.095166 0.095166 0.095166
0.108852 0.108852 0.108852
0.257891 0.257891 0.257891
0.648081 0.648081 0.648081
0.911867 0.911867 0.911867
0.981554 0.981554 0.981554
0.992525 0.992525 0.992525
0.093389 0.093389 0.093389
0.093690 0.093690 0.093690
0.098056 0.098056 0.098056
0.145619 0.145619 0.145619
0.319921 0.319921 0.319921
0.682667 0.682667 0.682667
0.919458 0.919458 0.919458
0.983009 0.983009 0.983009
0.992526 0.992526 0.992526
0.094742 0.094742 0.094742
0.095936 0.095936 0.095936
0.108820 0.108820 0.108820
0.215434 0.215434 0.215434
0.434055 0.434055 0.434055
0.751748 0.751748 0.751748
0.931772 0.931772 0.931772
0.984466 0.984466 0.984466
0.994053 0.994053 0.994053
0.099771 0.099771 0.099771
0.103629 0.103629 0.103629
0.150278 0.150278 0.150278
0.302119 0.302119 0.302119
0.588577 0.588577 0.588577
0.820356 0.820356 0.820356
0.950019 0.950019 0.950019
0.986300 0.986300 0.986300
0.994919 0.994919 0.994919
0.134859 0.134859 0.134859
0.151017 0.151017 0.151017
0.235531 0.235531 0.235531
0.428657 0.428657 0.428657
0.695392 0.695392 0.695392
0.881846 0.881846 0.881846
0.967043 0.967043 0.967043
0.988545 0.988545 0.988545
0.995599 0.995599 0.995599
0.227948 0.227948 0.227948
0.251770 0.251770 0.251770
0.362819 0.362819 0.362819
0.567667 0.567667 0.567667
0.803990 0.803990 0.803990
0.928684 0.928684 0.928684
0.978415 0.978415 0.978415
0.991268 0.991268 0.991268
0.996338 0.996338 0.996338
0.392136 0.392136 0.392136
0.421578 0.421578 0.421578
0.541261 0.541261 0.541261
0.731712 0.731712 0.731712
0.876632 0.876632 0.876632
0.959135 0.959135 0.959135
0.985571 0.985571 0.985571
0.993394 0.993394 0.993394
0.997208 0.997208 0.997208
0.595982 0.595982 0.595982
0.633103 0.633103 0.633103
0.712532 0.712532 0.712532
0.856675 0.856675 0.856675
0.937040 0.937040 0.937040
0.976283 0.976283 0.976283
0.989568 0.989568 0.989568
0.995282 0.995282 0.995282
0.997890 0.997890 0.997890
0.093087 0.093087 0.093087
0.093165 0.093165 0.093165
0.095092 0.095092 0.095092
0.108635 0.108635 0.108635
0.256774 0.256774 0.256774
0.639398 0.639398 0.639398
0.908935 0.908935 0.908935
0.980864 0.980864 0.980864
0.992525 0.992525 0.992525
0.093134 0.093134 0.093134
0.093236 0.093236 0.093236
0.095735 0.095735 0.095735
0.115165 0.115165 0.115165
0.270857 0.270857 0.270857
0.647414 0.647414 0.647414
0.910992 0.910992 0.910992
0.981239 0.981239 0.981239
0.992525 0.992525 0.992525
0.093419 0.093419 0.093419
0.093704 0.093704 0.093704
0.098692 0.098692 0.098692
0.152594 0.152594 0.152594
0.333421 0.333421 0.333421
0.682953 0.682953 0.682953
0.919243 0.919243 0.919243
0.982919 0.982919 0.982919
0.992526 0.992526 0.992526
0.094999 0.094999 0.094999
0.096134 0.096134 0.096134
0.111257 0.111257 0.111257
0.220238 0.220238 0.220238
0.441292 0.441292 0.441292
0.750857 0.750857 0.750857
0.931578 0.931578 0.931578
0.984446 0.984446 0.984446
0.994195 0.994195 0.994195
0.100814 0.100814 0.100814
0.105451 0.105451 0.105451
0.157405 0.157405 0.157405
0.311206 0.311206 0.311206
0.566455 0.566455 0.566455
0.817416 0.817416 0.817416
0.949679 0.949679 0.949679
0.986281 0.986281 0.986281
0.994888 0.994888 0.994888
0.141954 0.141954 0.141954
0.158064 0.158064 0.158064
0.243182 0.243182 0.243182
0.433366 0.433366 0.433366
0.694722 0.694722 0.694722
0.883957 0.883957 0.883957
0.966158 0.966158 0.966158
0.988530 0.988530 0.988530
0.995580 0.995580 0.995580
0.241736 0.241736 0.241736
0.265584 0.265584 0.265584
0.376600 0.376600 0.376600
0.576878 0.576878 0.576878
0.806820 0.806820 0.806820
0.928367 0.928367 0.928367
0.977909 0.977909 0.977909
0.991231 0.991231 0.991231
0.996337 0.996337 0.996337
0.412004 0.412004 0.412004
0.439659 0.439659 0.439659
0.556919 0.556919 0.556919
0.743150 0.743150 0.743150
0.879541 0.879541 0.879541
0.960035 0.960035 0.960035
0.985583 0.985583 0.985583
0.993340 0.993340 0.993340
0.997228 0.997228 0.997228
0.621354 0.621354 0.621354
0.650716 0.650716 0.650716
0.717926 0.717926 0.717926
0.862925 0.862925 0.862925
0.939746 0.939746 0.939746
0.976948 0.976948 0.976948
0.989839 0.989839 0.989839
0.995335 0.995335 0.995335
0.997895 0.997895 0.997895
0.093138 0.093138 0.093138
0.093207 0.093207 0.093207
0.095074 0.095074 0.095074
0.114338 0.114338 0.114338
0.270683 0.270683 0.270683
0.647286 0.647286 0.647286
0.910324 0.910324 0.910324
0.981015 0.981015 0.981015
0.992525 0.992525 0.992525
0.093183 0.093183 0.093183
0.093263 0.093263 0.093263
0.095632 0.095632 0.095632
0.121526 0.121526 0.121526
0.283760 0.283760 0.283760
0.655101 0.655101 0.655101
0.912371 0.912371 0.912371
0.981414 0.981414 0.981414
0.992525 0.992525 0.992525
0.093437 0.093437 0.093437
0.093707 0.093707 0.093707
0.098303 0.098303 0.098303
0.155560 0.155560 0.155560
0.342013 0.342013 0.342013
0.689847 0.689847 0.689847
0.920078 0.920078 0.920078
0.983125 0.983125 0.983125
0.992521 0.992521 0.992521
0.095303 0.095303 0.095303
0.096282 0.096282 0.096282
0.110995 0.110995 0.110995
0.222765 0.222765 0.222765
0.445900 0.445900 0.445900
0.755141 0.755141 0.755141
0.932233 0.932233 0.932233
0.984524 0.984524 0.984524
0.994234 0.994234 0.994234
0.102331 0.102331 0.102331
0.107376 0.107376 0.107376
0.159249 0.159249 0.159249
0.316413 0.316413 0.316413
0.570015 0.570015 0.570015
0.818798 0.818798 0.818798
0.949689 0.949689 0.949689
0.986328 0.986328 0.986328
0.994896 0.994896 0.994896
0.148507 0.148507 0.148507
0.164173 0.164173 0.164173
0.248754 0.248754 0.248754
0.441447 0.441447 0.441447
0.701270 0.701270 0.701270
0.879472 0.879472 0.879472
0.965595 0.965595 0.965595
0.988536 0.988536 0.988536
0.995588 0.995588 0.995588
0.248517 0.248517 0.248517
0.272467 0.272467 0.272467
0.383545 0.383545 0.383545
0.581554 0.581554 0.581554
0.808063 0.808063 0.808063
0.927705 0.927705 0.927705
0.977336 0.977336 0.977336
0.991215 0.991215 0.991215
0.996358 0.996358 0.996358
0.420896 0.420896 0.420896
0.446978 0.446978 0.446978
0.564471 0.564471 0.564471
0.748704 0.748704 0.748704
0.881201 0.881201 0.881201
0.960486 0.960486 0.960486
0.985551 0.985551 0.985551
0.993298 0.993298 0.993298
0.997254 0.997254 0.997254
0.617914 0.617914 0.617914
0.675602 0.675602 0.675602
0.750204 0.750204 0.750204
0.867121 0.867121 0.867121
0.941658 0.941658 0.941658
0.977349 0.977349 0.977349
0.989982 0.989982 0.989982
0.995390 0.995390 0.995390
0.997901 0.997901 0.997901
0.093219 0.093219 0.093219
0.093277 0.093277 0.093277
0.095458 0.095458 0.095458
0.116861 0.116861 0.116861
0.281084 0.281084 0.281084
0.664694 0.664694 0.664694
0.915048 0.915048 0.915048
0.982218 0.982218 0.982218
0.992684 0.992684 0.992684
0.093261 0.093261 0.093261
0.093325 0.093325 0.093325
0.095981 0.095981 0.095981
0.123033 0.123033 0.123033
0.292332 0.292332 0.292332
0.671581 0.671581 0.671581
0.917038 0.917038 0.917038
0.982588 0.982588 0.982588
0.992736 0.992736 0.992736
0.093635 0.093635 0.093635
0.093850 0.093850 0.093850
0.099430 0.099430 0.099430
0.156547 0.156547 0.156547
0.347538 0.347538 0.347538
0.704490 0.704490 0.704490
0.923701 0.923701 0.923701
0.983674 0.983674 0.983674
0.993299 0.993299 0.993299
0.095720 0.095720 0.095720
0.096555 0.096555 0.096555
0.115278 0.115278 0.115278
0.221860 0.221860 0.221860
0.442483 0.442483 0.442483
0.759979 0.759979 0.759979
0.935300 0.935300 0.935300
0.984928 0.984928 0.984928
0.994378 0.994378 0.994378
0.103614 0.103614 0.103614
0.108936 0.108936 0.108936
0.166538 0.166538 0.166538
0.319017 0.319017 0.319017
0.564303 0.564303 0.564303
0.818667 0.818667 0.818667
0.951054 0.951054 0.951054
0.986655 0.986655 0.986655
0.995018 0.995018 0.995018
0.151649 0.151649 0.151649
0.166614 0.166614 0.166614
0.256641 0.256641 0.256641
0.445132 0.445132 0.445132
0.700118 0.700118 0.700118
0.877445 0.877445 0.877445
0.965717 0.965717 0.965717
0.988775 0.988775 0.988775
0.995702 0.995702 0.995702
0.250387 0.250387 0.250387
0.272839 0.272839 0.272839
0.389162 0.389162 0.389162
0.583504 0.583504 0.583504
0.808319 0.808319 0.808319
0.926755 0.926755 0.926755
0.976815 0.976815 0.976815
0.991304 0.991304 0.991304
0.996451 0.996451 0.996451
0.417303 0.417303 0.417303
0.443332 0.443332 0.443332
0.562839 0.562839 0.562839
0.748223 0.748223 0.748223
0.881024 0.881024 0.881024
0.960387 0.960387 0.960387
0.985427 0.985427 0.985427
0.993074 0.993074 0.993074
0.997312 0.997312 0.997312
0.582817 0.582817 0.582817
0.748052 0.748052 0.748052
0.764183 0.764183 0.764183
0.869712 0.869712 0.869712
0.942649 0.942649 0.942649
0.977431 0.977431 0.977431
0.989961 0.989961 0.989961
0.995435 0.995435 0.995435
0.997906 0.997906 0.997906
0.093371 0.093371 0.093371
0.093402 0.093402 0.093402
0.093904 0.093904 0.093904
0.102666 0.102666 0.102666
0.301122 0.301122 0.301122
0.724362 0.724362 0.724362
0.926240 0.926240 0.926240
0.983414 0.983414 0.983414
0.992525 0.992525 0.992525
0.093405 0.093405 0.093405
0.093435 0.093435 0.093435
0.094128 0.094128 0.094128
0.104468 0.104468 0.104468
0.307338 0.307338 0.307338
0.728478 0.728478 0.728478
0.927389 0.927389 0.927389
0.983491 0.983491 0.983491
0.992526 0.992526 0.992526
0.093904 0.093904 0.093904
0.094109 0.094109 0.094109
0.096038 0.096038 0.096038
0.122011 0.122011 0.122011
0.341085 0.341085 0.341085
0.749222 0.749222 0.749222
0.932759 0.932759 0.932759
0.983999 0.983999 0.983999
0.992526 0.992526 0.992526
0.096956 0.096956 0.096956
0.097771 0.097771 0.097771
0.105125 0.105125 0.105125
0.177844 0.177844 0.177844
0.417025 0.417025 0.417025
0.779339 0.779339 0.779339
0.943509 0.943509 0.943509
0.985311 0.985311 0.985311
0.994765 0.994765 0.994765
0.110662 0.110662 0.110662
0.116349 0.116349 0.116349
0.155765 0.155765 0.155765
0.274499 0.274499 0.274499
0.514270 0.514270 0.514270
0.819184 0.819184 0.819184
0.954605 0.954605 0.954605
0.987077 0.987077 0.987077
0.995688 0.995688 0.995688
0.161523 0.161523 0.161523
0.175090 0.175090 0.175090
0.247798 0.247798 0.247798
0.415639 0.415639 0.415639
0.643121 0.643121 0.643121
0.861197 0.861197 0.861197
0.966110 0.966110 0.966110
0.989046 0.989046 0.989046
0.996409 0.996409 0.996409
0.251448 0.251448 0.251448
0.271037 0.271037 0.271037
0.373383 0.373383 0.373383
0.569703 0.569703 0.569703
0.781253 0.781253 0.781253
0.907013 0.907013 0.907013
0.974589 0.974589 0.974589
0.991224 0.991224 0.991224
0.997112 0.997112 0.997112
0.394926 0.394926 0.394926
0.419169 0.419169 0.419169
0.524462 0.524462 0.524462
0.727410 0.727410 0.727410
0.874468 0.874468 0.874468
0.953553 0.953553 0.953553
0.983347 0.983347 0.983347
0.992879 0.992879 0.992879
0.997788 0.997788 0.997788
0.524064 0.524064 0.524064
0.765220 0.765220 0.765220
0.765223 0.765223 0.765223
0.798379 0.798379 0.798379
0.941838 0.941838 0.941838
0.977021 0.977021 0.977021
0.989757 0.989757 0.989757
0.995277 0.995277 0.995277
0.997914 0.997914 0.997914
