LUTs/trix_classic/TriX_Green58_Normal.cube
TITLE "Tri-X Green58 Normal"
# Adobe RGB in/out. REPLACES AgX. Tri-X Green58 Normal.
LUT_3D_SIZE 5
DOMAIN_MIN 0.0 0.0 0.0
DOMAIN_MAX 1.0 1.0 1.0
0.093230 0.093230 0.093230
0.093371 0.093371 0.093371
0.105831 0.105831 0.105831
0.141815 0.141815 0.141815
0.212834 0.212834 0.212834
0.188047 0.188047 0.188047
0.163839 0.163839 0.163839
0.199237 0.199237 0.199237
0.246991 0.246991 0.246991
0.212842 0.212842 0.212842
0.512175 0.512175 0.512175
0.494280 0.494280 0.494280
0.467485 0.467485 0.467485
0.482293 0.482293 0.482293
0.447670 0.447670 0.447670
0.793756 0.793756 0.793756
0.786411 0.786411 0.786411
0.765782 0.765782 0.765782
0.754458 0.754458 0.754458
0.757251 0.757251 0.757251
0.901694 0.901694 0.901694
0.916890 0.916890 0.916890
0.920603 0.920603 0.920603
0.915184 0.915184 0.915184
0.921798 0.921798 0.921798
0.093268 0.093268 0.093268
0.095005 0.095005 0.095005
0.120257 0.120257 0.120257
0.158319 0.158319 0.158319
0.212842 0.212842 0.212842
0.177869 0.177869 0.177869
0.204394 0.204394 0.204394
0.229673 0.229673 0.229673
0.265751 0.265751 0.265751
0.212842 0.212842 0.212842
0.497822 0.497822 0.497822
0.489885 0.489885 0.489885
0.478692 0.478692 0.478692
0.496746 0.496746 0.496746
0.456778 0.456778 0.456778
0.785230 0.785230 0.785230
0.780482 0.780482 0.780482
0.765053 0.765053 0.765053
0.758972 0.758972 0.758972
0.758906 0.758906 0.758906
0.905120 0.905120 0.905120
0.920123 0.920123 0.920123
0.918924 0.918924 0.918924
0.914267 0.914267 0.914267
0.920926 0.920926 0.920926
0.101205 0.101205 0.101205
0.124271 0.124271 0.124271
0.168568 0.168568 0.168568
0.212948 0.212948 0.212948
0.212842 0.212842 0.212842
0.223514 0.223514 0.223514
0.240267 0.240267 0.240267
0.273648 0.273648 0.273648
0.301305 0.301305 0.301305
0.212847 0.212847 0.212847
0.495448 0.495448 0.495448
0.495482 0.495482 0.495482
0.508013 0.508013 0.508013
0.518891 0.518891 0.518891
0.486764 0.486764 0.486764
0.777956 0.777956 0.777956
0.774836 0.774836 0.774836
0.767271 0.767271 0.767271
0.768094 0.768094 0.768094
0.767808 0.767808 0.767808
0.914914 0.914914 0.914914
0.919193 0.919193 0.919193
0.915363 0.915363 0.915363
0.913173 0.913173 0.913173
0.921218 0.921218 0.921218
0.163461 0.163461 0.163461
0.205708 0.205708 0.205708
0.248838 0.248838 0.248838
0.280960 0.280960 0.280960
0.212829 0.212829 0.212829
0.283596 0.283596 0.283596
0.300380 0.300380 0.300380
0.325407 0.325407 0.325407
0.348662 0.348662 0.348662
0.212710 0.212710 0.212710
0.526036 0.526036 0.526036
0.529019 0.529019 0.529019
0.535708 0.535708 0.535708
0.549304 0.549304 0.549304
0.524431 0.524431 0.524431
0.785097 0.785097 0.785097
0.783494 0.783494 0.783494
0.780354 0.780354 0.780354
0.782937 0.782937 0.782937
0.782563 0.782563 0.782563
0.915628 0.915628 0.915628
0.920609 0.920609 0.920609
0.918417 0.918417 0.918417
0.916872 0.916872 0.916872
0.925589 0.925589 0.925589
0.204696 0.204696 0.204696
0.220396 0.220396 0.220396
0.265957 0.265957 0.265957
0.283019 0.283019 0.283019
0.226351 0.226351 0.226351
0.295271 0.295271 0.295271
0.306059 0.306059 0.306059
0.336669 0.336669 0.336669
0.350243 0.350243 0.350243
0.231644 0.231644 0.231644
0.551589 0.551589 0.551589
0.553649 0.553649 0.553649
0.565674 0.565674 0.565674
0.571421 0.571421 0.571421
0.474791 0.474791 0.474791
0.801587 0.801587 0.801587
0.799696 0.799696 0.799696
0.799033 0.799033 0.799033
0.802360 0.802360 0.802360
0.770731 0.770731 0.770731
0.912504 0.912504 0.912504
0.921484 0.921484 0.921484
0.928666 0.928666 0.928666
0.926152 0.926152 0.926152
0.932292 0.932292 0.932292
