LUTs/trix_classic/TriX_Yellow8_Hard.cube
TITLE "Tri-X Yellow8 Hard"
# Adobe RGB in/out. REPLACES AgX. Tri-X Yellow8 Hard.
LUT_3D_SIZE 33
DOMAIN_MIN 0.0 0.0 0.0
DOMAIN_MAX 1.0 1.0 1.0
0.093024 0.093024 0.093024
0.093024 0.093024 0.093024
0.093024 0.093024 0.093024
0.093024 0.093024 0.093024
0.093056 0.093056 0.093056
0.093079 0.093079 0.093079
0.093158 0.093158 0.093158
0.093285 0.093285 0.093285
0.093351 0.093351 0.093351
0.093437 0.093437 0.093437
0.093911 0.093911 0.093911
0.094685 0.094685 0.094685
0.095707 0.095707 0.095707
0.097338 0.097338 0.097338
0.102283 0.102283 0.102283
0.113255 0.113255 0.113255
0.134404 0.134404 0.134404
0.168285 0.168285 0.168285
0.219515 0.219515 0.219515
0.275320 0.275320 0.275320
0.342399 0.342399 0.342399
0.418627 0.418627 0.418627
0.494531 0.494531 0.494531
0.577393 0.577393 0.577393
0.648799 0.648799 0.648799
0.714073 0.714073 0.714073
0.783547 0.783547 0.783547
0.816379 0.816379 0.816379
0.876943 0.876943 0.876943
0.876924 0.876924 0.876924
0.876923 0.876923 0.876923
0.876923 0.876923 0.876923
0.943788 0.943788 0.943788
0.093024 0.093024 0.093024
0.093024 0.093024 0.093024
0.093024 0.093024 0.093024
0.093024 0.093024 0.093024
0.093072 0.093072 0.093072
0.093095 0.093095 0.093095
0.093176 0.093176 0.093176
0.093304 0.093304 0.093304
0.093364 0.093364 0.093364
0.093460 0.093460 0.093460
0.093941 0.093941 0.093941
0.094751 0.094751 0.094751
0.095789 0.095789 0.095789
0.097480 0.097480 0.097480
0.102536 0.102536 0.102536
0.113626 0.113626 0.113626
0.134921 0.134921 0.134921
0.168809 0.168809 0.168809
0.220046 0.220046 0.220046
0.275767 0.275767 0.275767
0.342791 0.342791 0.342791
0.419029 0.419029 0.419029
0.494869 0.494869 0.494869
0.577708 0.577708 0.577708
0.649102 0.649102 0.649102
0.714403 0.714403 0.714403
0.783713 0.783713 0.783713
0.816522 0.816522 0.816522
0.876943 0.876943 0.876943
0.876924 0.876924 0.876924
0.876923 0.876923 0.876923
0.876924 0.876924 0.876924
0.943789 0.943789 0.943789
0.093024 0.093024 0.093024
0.093024 0.093024 0.093024
0.093024 0.093024 0.093024
0.093046 0.093046 0.093046
0.093119 0.093119 0.093119
0.093157 0.093157 0.093157
0.093251 0.093251 0.093251
0.093377 0.093377 0.093377
0.093415 0.093415 0.093415
0.093619 0.093619 0.093619
0.094214 0.094214 0.094214
0.094997 0.094997 0.094997
0.096099 0.096099 0.096099
0.098011 0.098011 0.098011
0.103490 0.103490 0.103490
0.115291 0.115291 0.115291
0.136883 0.136883 0.136883
0.170796 0.170796 0.170796
0.222052 0.222052 0.222052
0.277449 0.277449 0.277449
0.344263 0.344263 0.344263
0.420530 0.420530 0.420530
0.496123 0.496123 0.496123
0.578873 0.578873 0.578873
0.650217 0.650217 0.650217
0.715618 0.715618 0.715618
0.784323 0.784323 0.784323
0.817045 0.817045 0.817045
0.876945 0.876945 0.876945
0.876924 0.876924 0.876924
0.876923 0.876923 0.876923
0.876924 0.876924 0.876924
0.943791 0.943791 0.943791
0.093034 0.093034 0.093034
0.093036 0.093036 0.093036
0.093047 0.093047 0.093047
0.093065 0.093065 0.093065
0.093165 0.093165 0.093165
0.093208 0.093208 0.093208
0.093328 0.093328 0.093328
0.093471 0.093471 0.093471
0.093626 0.093626 0.093626
0.093879 0.093879 0.093879
0.094876 0.094876 0.094876
0.095834 0.095834 0.095834
0.096766 0.096766 0.096766
0.099101 0.099101 0.099101
0.105459 0.105459 0.105459
0.119393 0.119393 0.119393
0.140974 0.140974 0.140974
0.174920 0.174920 0.174920
0.226176 0.226176 0.226176
0.280898 0.280898 0.280898
0.347254 0.347254 0.347254
0.423534 0.423534 0.423534
0.498599 0.498599 0.498599
0.581155 0.581155 0.581155
0.652383 0.652383 0.652383
0.717971 0.717971 0.717971
0.785518 0.785518 0.785518
0.818059 0.818059 0.818059
0.876948 0.876948 0.876948
0.876924 0.876924 0.876924
0.876923 0.876923 0.876923
0.876927 0.876927 0.876927
0.943792 0.943792 0.943792
0.093112 0.093112 0.093112
0.093115 0.093115 0.093115
0.093131 0.093131 0.093131
0.093168 0.093168 0.093168
0.093225 0.093225 0.093225
0.093257 0.093257 0.093257
0.093380 0.093380 0.093380
0.093698 0.093698 0.093698
0.093864 0.093864 0.093864
0.094385 0.094385 0.094385
0.095847 0.095847 0.095847
0.096778 0.096778 0.096778
0.098163 0.098163 0.098163
0.100813 0.100813 0.100813
0.112035 0.112035 0.112035
0.126974 0.126974 0.126974
0.148500 0.148500 0.148500
0.182445 0.182445 0.182445
0.233586 0.233586 0.233586
0.287057 0.287057 0.287057
0.352517 0.352517 0.352517
0.428697 0.428697 0.428697
0.502763 0.502763 0.502763
0.584940 0.584940 0.584940
0.655933 0.655933 0.655933
0.721805 0.721805 0.721805
0.787497 0.787497 0.787497
0.819709 0.819709 0.819709
0.876955 0.876955 0.876955
0.876925 0.876925 0.876925
0.876923 0.876923 0.876923
0.876952 0.876952 0.876952
0.943792 0.943792 0.943792
0.093170 0.093170 0.093170
0.093172 0.093172 0.093172
0.093187 0.093187 0.093187
0.093219 0.093219 0.093219
0.093261 0.093261 0.093261
0.093321 0.093321 0.093321
0.093430 0.093430 0.093430
0.093885 0.093885 0.093885
0.094164 0.094164 0.094164
0.094923 0.094923 0.094923
0.096725 0.096725 0.096725
0.098373 0.098373 0.098373
0.100167 0.100167 0.100167
0.104842 0.104842 0.104842
0.120706 0.120706 0.120706
0.137366 0.137366 0.137366
0.159785 0.159785 0.159785
0.196169 0.196169 0.196169
0.246656 0.246656 0.246656
0.297826 0.297826 0.297826
0.361530 0.361530 0.361530
0.435951 0.435951 0.435951
0.509444 0.509444 0.509444
0.590889 0.590889 0.590889
0.661408 0.661408 0.661408
0.727675 0.727675 0.727675
0.790589 0.790589 0.790589
0.822251 0.822251 0.822251
0.876969 0.876969 0.876969
0.876927 0.876927 0.876927
0.876924 0.876924 0.876924
0.943761 0.943761 0.943761
0.943792 0.943792 0.943792
0.093310 0.093310 0.093310
0.093312 0.093312 0.093312
0.093327 0.093327 0.093327
0.093353 0.093353 0.093353
0.093390 0.093390 0.093390
0.093435 0.093435 0.093435
0.093632 0.093632 0.093632
0.094283 0.094283 0.094283
0.094648 0.094648 0.094648
0.095582 0.095582 0.095582
0.097887 0.097887 0.097887
0.100196 0.100196 0.100196
0.103317 0.103317 0.103317
0.112073 0.112073 0.112073
0.133281 0.133281 0.133281
0.152939 0.152939 0.152939
0.174893 0.174893 0.174893
0.210342 0.210342 0.210342
0.261862 0.261862 0.261862
0.312963 0.312963 0.312963
0.376144 0.376144 0.376144
0.447882 0.447882 0.447882
0.520232 0.520232 0.520232
0.600204 0.600204 0.600204
0.669752 0.669752 0.669752
0.736529 0.736529 0.736529
0.795368 0.795368 0.795368
0.826154 0.826154 0.826154
0.877006 0.877006 0.877006
0.876930 0.876930 0.876930
0.876925 0.876925 0.876925
0.943790 0.943790 0.943790
0.943792 0.943792 0.943792
0.093518 0.093518 0.093518
0.093522 0.093522 0.093522
0.093573 0.093573 0.093573
0.093650 0.093650 0.093650
0.093766 0.093766 0.093766
0.093919 0.093919 0.093919
0.094329 0.094329 0.094329
0.094901 0.094901 0.094901
0.095249 0.095249 0.095249
0.096317 0.096317 0.096317
0.099462 0.099462 0.099462
0.102784 0.102784 0.102784
0.108264 0.108264 0.108264
0.122217 0.122217 0.122217
0.148807 0.148807 0.148807
0.169360 0.169360 0.169360
0.193901 0.193901 0.193901
0.231786 0.231786 0.231786
0.283754 0.283754 0.283754
0.331588 0.331588 0.331588
0.392287 0.392287 0.392287
0.461018 0.461018 0.461018
0.533872 0.533872 0.533872
0.613456 0.613456 0.613456
0.682691 0.682691 0.682691
0.749368 0.749368 0.749368
0.802875 0.802875 0.802875
0.832351 0.832351 0.832351
0.877156 0.877156 0.877156
0.876943 0.876943 0.876943
0.876930 0.876930 0.876930
0.943792 0.943792 0.943792
0.943792 0.943792 0.943792
0.093790 0.093790 0.093790
0.093793 0.093793 0.093793
0.093821 0.093821 0.093821
0.093884 0.093884 0.093884
0.093979 0.093979 0.093979
0.094318 0.094318 0.094318
0.094741 0.094741 0.094741
0.095320 0.095320 0.095320
0.096180 0.096180 0.096180
0.097170 0.097170 0.097170
0.101416 0.101416 0.101416
0.107173 0.107173 0.107173
0.115725 0.115725 0.115725
0.133013 0.133013 0.133013
0.164919 0.164919 0.164919
0.189109 0.189109 0.189109
0.216746 0.216746 0.216746
0.255510 0.255510 0.255510
0.309319 0.309319 0.309319
0.357157 0.357157 0.357157
0.417826 0.417826 0.417826
0.479766 0.479766 0.479766
0.550693 0.550693 0.550693
0.627258 0.627258 0.627258
0.694536 0.694536 0.694536
0.758610 0.758610 0.758610
0.811155 0.811155 0.811155
0.841929 0.841929 0.841929
0.881557 0.881557 0.881557
0.877097 0.877097 0.877097
0.876963 0.876963 0.876963
0.943792 0.943792 0.943792
0.943792 0.943792 0.943792
0.094467 0.094467 0.094467
0.094472 0.094472 0.094472
0.094522 0.094522 0.094522
0.094672 0.094672 0.094672
0.094875 0.094875 0.094875
0.095239 0.095239 0.095239
0.095800 0.095800 0.095800
0.096462 0.096462 0.096462
0.097281 0.097281 0.097281
0.099128 0.099128 0.099128
0.105704 0.105704 0.105704
0.115062 0.115062 0.115062
0.126073 0.126073 0.126073
0.146249 0.146249 0.146249
0.183605 0.183605 0.183605
0.211222 0.211222 0.211222
0.240891 0.240891 0.240891
0.282047 0.282047 0.282047
0.341109 0.341109 0.341109
0.388242 0.388242 0.388242
0.442368 0.442368 0.442368
0.502962 0.502962 0.502962
0.574292 0.574292 0.574292
0.645115 0.645115 0.645115
0.711047 0.711047 0.711047
0.769213 0.769213 0.769213
0.818008 0.818008 0.818008
0.848661 0.848661 0.848661
0.881940 0.881940 0.881940
0.904312 0.904312 0.904312
0.925362 0.925362 0.925362
0.943793 0.943793 0.943793
0.943792 0.943792 0.943792
0.096348 0.096348 0.096348
0.096355 0.096355 0.096355
0.096416 0.096416 0.096416
0.096668 0.096668 0.096668
0.096968 0.096968 0.096968
0.097517 0.097517 0.097517
0.098623 0.098623 0.098623
0.099907 0.099907 0.099907
0.102056 0.102056 0.102056
0.106352 0.106352 0.106352
0.115074 0.115074 0.115074
0.127164 0.127164 0.127164
0.139186 0.139186 0.139186
0.161363 0.161363 0.161363
0.204879 0.204879 0.204879
0.234553 0.234553 0.234553
0.266107 0.266107 0.266107
0.311860 0.311860 0.311860
0.376500 0.376500 0.376500
0.422451 0.422451 0.422451
0.471878 0.471878 0.471878
0.532375 0.532375 0.532375
0.600475 0.600475 0.600475
0.665352 0.665352 0.665352
0.731843 0.731843 0.731843
0.783820 0.783820 0.783820
0.827301 0.827301 0.827301
0.857785 0.857785 0.857785
0.888050 0.888050 0.888050
0.909906 0.909906 0.909906
0.926908 0.926908 0.926908
0.943793 0.943793 0.943793
0.943794 0.943794 0.943794
0.098517 0.098517 0.098517
0.098530 0.098530 0.098530
0.098623 0.098623 0.098623
0.099027 0.099027 0.099027
0.099529 0.099529 0.099529
0.100275 0.100275 0.100275
0.101763 0.101763 0.101763
0.104375 0.104375 0.104375
0.109155 0.109155 0.109155
0.116816 0.116816 0.116816
0.128145 0.128145 0.128145
0.143475 0.143475 0.143475
0.155506 0.155506 0.155506
0.181581 0.181581 0.181581
0.229059 0.229059 0.229059
0.259585 0.259585 0.259585
0.294534 0.294534 0.294534
0.344517 0.344517 0.344517
0.413759 0.413759 0.413759
0.456094 0.456094 0.456094
0.506213 0.506213 0.506213
0.564748 0.564748 0.564748
0.631994 0.631994 0.631994
0.691671 0.691671 0.691671
0.752933 0.752933 0.752933
0.798149 0.798149 0.798149
0.837572 0.837572 0.837572
0.869327 0.869327 0.869327
0.896673 0.896673 0.896673
0.918054 0.918054 0.918054
0.930813 0.930813 0.930813
0.943794 0.943794 0.943794
0.943795 0.943795 0.943795
0.101465 0.101465 0.101465
0.101489 0.101489 0.101489
0.101655 0.101655 0.101655
0.102333 0.102333 0.102333
0.103497 0.103497 0.103497
0.105087 0.105087 0.105087
0.108179 0.108179 0.108179
0.112741 0.112741 0.112741
0.119930 0.119930 0.119930
0.129117 0.129117 0.129117
0.141648 0.141648 0.141648
0.156853 0.156853 0.156853
0.177727 0.177727 0.177727
0.205804 0.205804 0.205804
0.257227 0.257227 0.257227
0.289794 0.289794 0.289794
0.326578 0.326578 0.326578
0.380274 0.380274 0.380274
0.450186 0.450186 0.450186
0.491451 0.491451 0.491451
0.541960 0.541960 0.541960
0.602915 0.602915 0.602915
0.664979 0.664979 0.664979
0.720411 0.720411 0.720411
0.771755 0.771755 0.771755
0.814322 0.814322 0.814322
0.849057 0.849057 0.849057
0.878650 0.878650 0.878650
0.904856 0.904856 0.904856
0.925434 0.925434 0.925434
0.943506 0.943506 0.943506
0.943809 0.943809 0.943809
0.943807 0.943807 0.943807
0.112313 0.112313 0.112313
0.112358 0.112358 0.112358
0.112631 0.112631 0.112631
0.113650 0.113650 0.113650
0.116734 0.116734 0.116734
0.120340 0.120340 0.120340
0.125199 0.125199 0.125199
0.131686 0.131686 0.131686
0.141056 0.141056 0.141056
0.152140 0.152140 0.152140
0.166408 0.166408 0.166408
0.185042 0.185042 0.185042
0.207794 0.207794 0.207794
0.235485 0.235485 0.235485
0.290011 0.290011 0.290011
0.324956 0.324956 0.324956
0.362540 0.362540 0.362540
0.418208 0.418208 0.418208
0.485578 0.485578 0.485578
0.529630 0.529630 0.529630
0.581926 0.581926 0.581926
0.641795 0.641795 0.641795
0.699913 0.699913 0.699913
0.752629 0.752629 0.752629
0.793332 0.793332 0.793332
0.828267 0.828267 0.828267
0.862322 0.862322 0.862322
0.888988 0.888988 0.888988
0.914261 0.914261 0.914261
0.931975 0.931975 0.931975
0.948859 0.948859 0.948859
0.958523 0.958523 0.958523
0.967611 0.967611 0.967611
0.140393 0.140393 0.140393
0.140493 0.140493 0.140493
0.141017 0.141017 0.141017
0.142719 0.142719 0.142719
0.147471 0.147471 0.147471
0.151683 0.151683 0.151683
0.158575 0.158575 0.158575
0.168052 0.168052 0.168052
0.180091 0.180091 0.180091
0.195063 0.195063 0.195063
0.213819 0.213819 0.213819
0.235614 0.235614 0.235614
0.261462 0.261462 0.261462
0.292508 0.292508 0.292508
0.329630 0.329630 0.329630
0.364381 0.364381 0.364381
0.404124 0.404124 0.404124
0.456874 0.456874 0.456874
0.524849 0.524849 0.524849
0.570228 0.570228 0.570228
0.624789 0.624789 0.624789
0.680514 0.680514 0.680514
0.739218 0.739218 0.739218
0.778254 0.778254 0.778254
0.814308 0.814308 0.814308
0.844783 0.844783 0.844783
0.876472 0.876472 0.876472
0.899316 0.899316 0.899316
0.922909 0.922909 0.922909
0.940322 0.940322 0.940322
0.953803 0.953803 0.953803
0.962610 0.962610 0.962610
0.968788 0.968788 0.968788
0.168359 0.168359 0.168359
0.168475 0.168475 0.168475
0.169052 0.169052 0.169052
0.170835 0.170835 0.170835
0.175599 0.175599 0.175599
0.181462 0.181462 0.181462
0.190692 0.190692 0.190692
0.200064 0.200064 0.200064
0.213012 0.213012 0.213012
0.229406 0.229406 0.229406
0.248165 0.248165 0.248165
0.270276 0.270276 0.270276
0.297972 0.297972 0.297972
0.330125 0.330125 0.330125
0.367473 0.367473 0.367473
0.410990 0.410990 0.410990
0.447300 0.447300 0.447300
0.497347 0.497347 0.497347
0.568431 0.568431 0.568431
0.615614 0.615614 0.615614
0.663608 0.663608 0.663608
0.721284 0.721284 0.721284
0.770246 0.770246 0.770246
0.805305 0.805305 0.805305
0.833316 0.833316 0.833316
0.862793 0.862793 0.862793
0.888791 0.888791 0.888791
0.911438 0.911438 0.911438
0.931270 0.931270 0.931270
0.947917 0.947917 0.947917
0.959049 0.959049 0.959049
0.968755 0.968755 0.968755
0.971435 0.971435 0.971435
0.204364 0.204364 0.204364
0.204489 0.204489 0.204489
0.205086 0.205086 0.205086
0.206847 0.206847 0.206847
0.211362 0.211362 0.211362
0.218907 0.218907 0.218907
0.226719 0.226719 0.226719
0.237509 0.237509 0.237509
0.251219 0.251219 0.251219
0.267577 0.267577 0.267577
0.287632 0.287632 0.287632
0.311408 0.311408 0.311408
0.339880 0.339880 0.339880
0.372355 0.372355 0.372355
0.410430 0.410430 0.410430
0.450295 0.450295 0.450295
0.491784 0.491784 0.491784
0.542523 0.542523 0.542523
0.615459 0.615459 0.615459
0.656982 0.656982 0.656982
0.705361 0.705361 0.705361
0.758636 0.758636 0.758636
0.799427 0.799427 0.799427
0.826795 0.826795 0.826795
0.853884 0.853884 0.853884
0.880314 0.880314 0.880314
0.902568 0.902568 0.902568
0.922445 0.922445 0.922445
0.940227 0.940227 0.940227
0.953844 0.953844 0.953844
0.964392 0.964392 0.964392
0.971664 0.971664 0.971664
0.975707 0.975707 0.975707
0.253410 0.253410 0.253410
0.253558 0.253558 0.253558
0.254222 0.254222 0.254222
0.256035 0.256035 0.256035
0.260399 0.260399 0.260399
0.269918 0.269918 0.269918
0.276941 0.276941 0.276941
0.290432 0.290432 0.290432
0.305085 0.305085 0.305085
0.322514 0.322514 0.322514
0.344220 0.344220 0.344220
0.369761 0.369761 0.369761
0.400162 0.400162 0.400162
0.433051 0.433051 0.433051
0.466274 0.466274 0.466274
0.503346 0.503346 0.503346
0.545539 0.545539 0.545539
0.593300 0.593300 0.593300
0.660489 0.660489 0.660489
0.701394 0.701394 0.701394
0.749203 0.749203 0.749203
0.788593 0.788593 0.788593
0.823507 0.823507 0.823507
0.848327 0.848327 0.848327
0.875231 0.875231 0.875231
0.896314 0.896314 0.896314
0.917454 0.917454 0.917454
0.932827 0.932827 0.932827
0.949422 0.949422 0.949422
0.959621 0.959621 0.959621
0.970082 0.970082 0.970082
0.974507 0.974507 0.974507
0.978172 0.978172 0.978172
0.320067 0.320067 0.320067
0.320277 0.320277 0.320277
0.321160 0.321160 0.321160
0.323347 0.323347 0.323347
0.328176 0.328176 0.328176
0.338382 0.338382 0.338382
0.348019 0.348019 0.348019
0.362473 0.362473 0.362473
0.378300 0.378300 0.378300
0.399271 0.399271 0.399271
0.423307 0.423307 0.423307
0.447839 0.447839 0.447839
0.474080 0.474080 0.474080
0.504195 0.504195 0.504195
0.538368 0.538368 0.538368
0.578284 0.578284 0.578284
0.621700 0.621700 0.621700
0.662614 0.662614 0.662614
0.708417 0.708417 0.708417
0.748854 0.748854 0.748854
0.781190 0.781190 0.781190
0.816586 0.816586 0.816586
0.846024 0.846024 0.846024
0.870816 0.870816 0.870816
0.891995 0.891995 0.891995
0.913016 0.913016 0.913016
0.929272 0.929272 0.929272
0.944091 0.944091 0.944091
0.955972 0.955972 0.955972
0.965950 0.965950 0.965950
0.972966 0.972966 0.972966
0.977078 0.977078 0.977078
0.981050 0.981050 0.981050
0.383287 0.383287 0.383287
0.383495 0.383495 0.383495
0.384355 0.384355 0.384355
0.386437 0.386437 0.386437
0.390919 0.390919 0.390919
0.400148 0.400148 0.400148
0.412032 0.412032 0.412032
0.424369 0.424369 0.424369
0.440287 0.440287 0.440287
0.457967 0.457967 0.457967
0.476847 0.476847 0.476847
0.500019 0.500019 0.500019
0.526818 0.526818 0.526818
0.557324 0.557324 0.557324
0.592180 0.592180 0.592180
0.629992 0.629992 0.629992
0.666755 0.666755 0.666755
0.707728 0.707728 0.707728
0.750678 0.750678 0.750678
0.783202 0.783202 0.783202
0.812579 0.812579 0.812579
0.840373 0.840373 0.840373
0.869360 0.869360 0.869360
0.889380 0.889380 0.889380
0.909611 0.909611 0.909611
0.927005 0.927005 0.927005
0.941611 0.941611 0.941611
0.953190 0.953190 0.953190
0.963017 0.963017 0.963017
0.971234 0.971234 0.971234
0.975852 0.975852 0.975852
0.980025 0.980025 0.980025
0.983515 0.983515 0.983515
0.453103 0.453103 0.453103
0.453290 0.453290 0.453290
0.454045 0.454045 0.454045
0.455800 0.455800 0.455800
0.459422 0.459422 0.459422
0.466580 0.466580 0.466580
0.478569 0.478569 0.478569
0.487564 0.487564 0.487564
0.504642 0.504642 0.504642
0.519306 0.519306 0.519306
0.540325 0.540325 0.540325
0.564878 0.564878 0.564878
0.591228 0.591228 0.591228
0.621450 0.621450 0.621450
0.651274 0.651274 0.651274
0.684476 0.684476 0.684476
0.720424 0.720424 0.720424
0.756291 0.756291 0.756291
0.785785 0.785785 0.785785
0.814074 0.814074 0.814074
0.838238 0.838238 0.838238
0.864669 0.864669 0.864669
0.888833 0.888833 0.888833
0.907639 0.907639 0.907639
0.925042 0.925042 0.925042
0.940294 0.940294 0.940294
0.952295 0.952295 0.952295
0.961080 0.961080 0.961080
0.970217 0.970217 0.970217
0.974420 0.974420 0.974420
0.978913 0.978913 0.978913
0.982925 0.982925 0.982925
0.984814 0.984814 0.984814
0.525261 0.525261 0.525261
0.525486 0.525486 0.525486
0.526368 0.526368 0.526368
0.528313 0.528313 0.528313
0.532092 0.532092 0.532092
0.539154 0.539154 0.539154
0.552243 0.552243 0.552243
0.562230 0.562230 0.562230
0.577448 0.577448 0.577448
0.595109 0.595109 0.595109
0.617260 0.617260 0.617260
0.637339 0.637339 0.637339
0.660827 0.660827 0.660827
0.687309 0.687309 0.687309
0.716616 0.716616 0.716616
0.749210 0.749210 0.749210
0.772971 0.772971 0.772971
0.798829 0.798829 0.798829
0.821490 0.821490 0.821490
0.843546 0.843546 0.843546
0.866136 0.866136 0.866136
0.886658 0.886658 0.886658
0.907652 0.907652 0.907652
0.924131 0.924131 0.924131
0.938683 0.938683 0.938683
0.951754 0.951754 0.951754
0.960843 0.960843 0.960843
0.969362 0.969362 0.969362
0.973865 0.973865 0.973865
0.977801 0.977801 0.977801
0.982055 0.982055 0.982055
0.984496 0.984496 0.984496
0.986159 0.986159 0.986159
0.607229 0.607229 0.607229
0.607483 0.607483 0.607483
0.608463 0.608463 0.608463
0.610548 0.610548 0.610548
0.614425 0.614425 0.614425
0.621333 0.621333 0.621333
0.631960 0.631960 0.631960
0.642860 0.642860 0.642860
0.654462 0.654462 0.654462
0.671875 0.671875 0.671875
0.687882 0.687882 0.687882
0.709113 0.709113 0.709113
0.733809 0.733809 0.733809
0.755224 0.755224 0.755224
0.774235 0.774235 0.774235
0.795522 0.795522 0.795522
0.815840 0.815840 0.815840
0.833976 0.833976 0.833976
0.853383 0.853383 0.853383
0.874143 0.874143 0.874143
0.891152 0.891152 0.891152
0.908758 0.908758 0.908758
0.924905 0.924905 0.924905
0.938527 0.938527 0.938527
0.951108 0.951108 0.951108
0.960455 0.960455 0.960455
0.969488 0.969488 0.969488
0.973665 0.973665 0.973665
0.977640 0.977640 0.977640
0.981350 0.981350 0.981350
0.984205 0.984205 0.984205
0.985911 0.985911 0.985911
0.987506 0.987506 0.987506
0.683994 0.683994 0.683994
0.684196 0.684196 0.684196
0.684967 0.684967 0.684967
0.686585 0.686585 0.686585
0.689542 0.689542 0.689542
0.694727 0.694727 0.694727
0.703764 0.703764 0.703764
0.716224 0.716224 0.716224
0.726261 0.726261 0.726261
0.743049 0.743049 0.743049
0.755259 0.755259 0.755259
0.769512 0.769512 0.769512
0.783411 0.783411 0.783411
0.800585 0.800585 0.800585
0.816363 0.816363 0.816363
0.830607 0.830607 0.830607
0.846469 0.846469 0.846469
0.863747 0.863747 0.863747
0.880505 0.880505 0.880505
0.895733 0.895733 0.895733
0.911952 0.911952 0.911952
0.926074 0.926074 0.926074
0.939470 0.939470 0.939470
0.951592 0.951592 0.951592
0.960276 0.960276 0.960276
0.969308 0.969308 0.969308
0.973881 0.973881 0.973881
0.977630 0.977630 0.977630
0.981480 0.981480 0.981480
0.984071 0.984071 0.984071
0.985749 0.985749 0.985749
0.987345 0.987345 0.987345
0.988916 0.988916 0.988916
0.755633 0.755633 0.755633
0.755781 0.755781 0.755781
0.756342 0.756342 0.756342
0.757485 0.757485 0.757485
0.759490 0.759490 0.759490
0.762850 0.762850 0.762850
0.768447 0.768447 0.768447
0.777906 0.777906 0.777906
0.783981 0.783981 0.783981
0.793599 0.793599 0.793599
0.805578 0.805578 0.805578
0.814814 0.814814 0.814814
0.825433 0.825433 0.825433
0.837335 0.837335 0.837335
0.849632 0.849632 0.849632
0.863751 0.863751 0.863751
0.878061 0.878061 0.878061
0.890741 0.890741 0.890741
0.904218 0.904218 0.904218
0.918440 0.918440 0.918440
0.929886 0.929886 0.929886
0.941933 0.941933 0.941933
0.952295 0.952295 0.952295
0.960858 0.960858 0.960858
0.969632 0.969632 0.969632
0.973863 0.973863 0.973863
0.978043 0.978043 0.978043
0.981636 0.981636 0.981636
0.984236 0.984236 0.984236
0.985766 0.985766 0.985766
0.987351 0.987351 0.987351
0.988855 0.988855 0.988855
0.990336 0.990336 0.990336
0.807095 0.807095 0.807095
0.807258 0.807258 0.807258
0.807838 0.807838 0.807838
0.808709 0.808709 0.808709
0.810185 0.810185 0.810185
0.812561 0.812561 0.812561
0.816358 0.816358 0.816358
0.822523 0.822523 0.822523
0.828053 0.828053 0.828053
0.834201 0.834201 0.834201
0.843744 0.843744 0.843744
0.851183 0.851183 0.851183
0.862181 0.862181 0.862181
0.872319 0.872319 0.872319
0.882488 0.882488 0.882488
0.892745 0.892745 0.892745
0.903666 0.903666 0.903666
0.915651 0.915651 0.915651
0.925768 0.925768 0.925768
0.936043 0.936043 0.936043
0.946916 0.946916 0.946916
0.954784 0.954784 0.954784
0.962454 0.962454 0.962454
0.970198 0.970198 0.970198
0.974123 0.974123 0.974123
0.978042 0.978042 0.978042
0.982250 0.982250 0.982250
0.984383 0.984383 0.984383
0.986027 0.986027 0.986027
0.987502 0.987502 0.987502
0.988982 0.988982 0.988982
0.990408 0.990408 0.990408
0.991834 0.991834 0.991834
0.852363 0.852363 0.852363
0.852457 0.852457 0.852457
0.852808 0.852808 0.852808
0.853498 0.853498 0.853498
0.854653 0.854653 0.854653
0.856496 0.856496 0.856496
0.859438 0.859438 0.859438
0.864267 0.864267 0.864267
0.870123 0.870123 0.870123
0.874927 0.874927 0.874927
0.880794 0.880794 0.880794
0.887029 0.887029 0.887029
0.893873 0.893873 0.893873
0.901842 0.901842 0.901842
0.910569 0.910569 0.910569
0.919365 0.919365 0.919365
0.927400 0.927400 0.927400
0.935852 0.935852 0.935852
0.944682 0.944682 0.944682
0.952152 0.952152 0.952152
0.958766 0.958766 0.958766
0.965779 0.965779 0.965779
0.971511 0.971511 0.971511
0.975085 0.975085 0.975085
0.978800 0.978800 0.978800
