LUTs/trix_classic/TriX_NoFilter_Soft.cube
TITLE "Tri-X NoFilter Soft"
# Adobe RGB in/out. REPLACES AgX. Tri-X NoFilter Soft.
LUT_3D_SIZE 9
DOMAIN_MIN 0.0 0.0 0.0
DOMAIN_MAX 1.0 1.0 1.0
0.093873 0.093873 0.093873
0.093873 0.093873 0.093873
0.094252 0.094252 0.094252
0.121568 0.121568 0.121568
0.206284 0.206284 0.206284
0.298046 0.298046 0.298046
0.378019 0.378019 0.378019
0.564906 0.564906 0.564906
0.645398 0.645398 0.645398
0.093912 0.093912 0.093912
0.094048 0.094048 0.094048
0.100426 0.100426 0.100426
0.143394 0.143394 0.143394
0.217923 0.217923 0.217923
0.300964 0.300964 0.300964
0.379363 0.379363 0.379363
0.564918 0.564918 0.564918
0.645399 0.645399 0.645399
0.099789 0.099789 0.099789
0.103427 0.103427 0.103427
0.127223 0.127223 0.127223
0.188338 0.188338 0.188338
0.255864 0.255864 0.255864
0.318937 0.318937 0.318937
0.388712 0.388712 0.388712
0.567548 0.567548 0.567548
0.645399 0.645399 0.645399
0.164661 0.164661 0.164661
0.170477 0.170477 0.170477
0.195317 0.195317 0.195317
0.238886 0.238886 0.238886
0.295999 0.295999 0.295999
0.352785 0.352785 0.352785
0.410864 0.410864 0.410864
0.470687 0.470687 0.470687
0.604134 0.604134 0.604134
0.253705 0.253705 0.253705
0.257274 0.257274 0.257274
0.274501 0.274501 0.274501
0.301995 0.301995 0.301995
0.342488 0.342488 0.342488
0.393892 0.393892 0.393892
0.444025 0.444025 0.444025
0.495649 0.495649 0.495649
0.578655 0.578655 0.578655
0.333115 0.333115 0.333115
0.335059 0.335059 0.335059
0.347253 0.347253 0.347253
0.368259 0.368259 0.368259
0.399721 0.399721 0.399721
0.438906 0.438906 0.438906
0.484862 0.484862 0.484862
0.529859 0.529859 0.529859
0.579518 0.579518 0.579518
0.409289 0.409289 0.409289
0.410672 0.410672 0.410672
0.419018 0.419018 0.419018
0.434804 0.434804 0.434804
0.458540 0.458540 0.458540
0.490409 0.490409 0.490409
0.530059 0.530059 0.530059
0.572153 0.572153 0.572153
0.613092 0.613092 0.613092
0.485722 0.485722 0.485722
0.485729 0.485729 0.485729
0.489319 0.489319 0.489319
0.500782 0.500782 0.500782
0.519513 0.519513 0.519513
0.545512 0.545512 0.545512
0.579438 0.579438 0.579438
0.620555 0.620555 0.620555
0.654743 0.654743 0.654743
0.505987 0.505987 0.505987
0.505990 0.505990 0.505990
0.543145 0.543145 0.543145
0.549328 0.549328 0.549328
0.580818 0.580818 0.580818
0.602403 0.602403 0.602403
0.631011 0.631011 0.631011
0.669777 0.669777 0.669777
0.703091 0.703091 0.703091
0.094040 0.094040 0.094040
0.160491 0.160491 0.160491
0.105192 0.105192 0.105192
0.137250 0.137250 0.137250
0.216988 0.216988 0.216988
0.304137 0.304137 0.304137
0.383738 0.383738 0.383738
0.564918 0.564918 0.564918
0.645400 0.645400 0.645400
0.094225 0.094225 0.094225
0.099556 0.099556 0.099556
0.108770 0.108770 0.108770
0.152167 0.152167 0.152167
0.225340 0.225340 0.225340
0.306836 0.306836 0.306836
0.384472 0.384472 0.384472
0.564936 0.564936 0.564936
0.645399 0.645399 0.645399
0.110787 0.110787 0.110787
0.117034 0.117034 0.117034
0.145020 0.145020 0.145020
0.200940 0.200940 0.200940
0.260182 0.260182 0.260182
0.323616 0.323616 0.323616
0.393135 0.393135 0.393135
0.568433 0.568433 0.568433
0.645399 0.645399 0.645399
0.180303 0.180303 0.180303
0.185919 0.185919 0.185919
0.210534 0.210534 0.210534
0.251187 0.251187 0.251187
0.302746 0.302746 0.302746
0.356111 0.356111 0.356111
0.414447 0.414447 0.414447
0.474122 0.474122 0.474122
0.645400 0.645400 0.645400
0.262677 0.262677 0.262677
0.266579 0.266579 0.266579
0.282152 0.282152 0.282152
0.309601 0.309601 0.309601
0.349401 0.349401 0.349401
0.398151 0.398151 0.398151
0.446917 0.446917 0.446917
0.498692 0.498692 0.498692
0.589566 0.589566 0.589566
0.337664 0.337664 0.337664
0.339755 0.339755 0.339755
0.352033 0.352033 0.352033
0.373092 0.373092 0.373092
0.404576 0.404576 0.404576
0.443187 0.443187 0.443187
0.487834 0.487834 0.487834
0.532572 0.532572 0.532572
0.582902 0.582902 0.582902
0.412443 0.412443 0.412443
0.413900 0.413900 0.413900
0.422389 0.422389 0.422389
0.438235 0.438235 0.438235
0.461990 0.461990 0.461990
0.493872 0.493872 0.493872
0.533201 0.533201 0.533201
0.574530 0.574530 0.574530
0.615561 0.615561 0.615561
0.486983 0.486983 0.486983
0.487268 0.487268 0.487268
0.491758 0.491758 0.491758
0.503499 0.503499 0.503499
0.522279 0.522279 0.522279
0.548308 0.548308 0.548308
0.582248 0.582248 0.582248
0.622924 0.622924 0.622924
0.656781 0.656781 0.656781
0.535331 0.535331 0.535331
0.535335 0.535335 0.535335
0.570074 0.570074 0.570074
0.570071 0.570071 0.570071
0.582886 0.582886 0.582886
0.604582 0.604582 0.604582
0.633274 0.633274 0.633274
0.671844 0.671844 0.671844
0.704580 0.704580 0.704580
0.123572 0.123572 0.123572
0.340887 0.340887 0.340887
0.325573 0.325573 0.325573
0.315891 0.315891 0.315891
0.338882 0.338882 0.338882
0.400336 0.400336 0.400336
0.474409 0.474409 0.474409
0.570888 0.570888 0.570888
0.645410 0.645410 0.645410
0.137471 0.137471 0.137471
0.211857 0.211857 0.211857
0.259512 0.259512 0.259512
0.278343 0.278343 0.278343
0.317496 0.317496 0.317496
0.385378 0.385378 0.385378
0.462059 0.462059 0.462059
0.571965 0.571965 0.571965
0.645401 0.645401 0.645401
0.164342 0.164342 0.164342
0.175033 0.175033 0.175033
0.233250 0.233250 0.233250
0.260359 0.260359 0.260359
0.307390 0.307390 0.307390
0.370103 0.370103 0.370103
0.437386 0.437386 0.437386
0.575350 0.575350 0.575350
0.645400 0.645400 0.645400
0.230354 0.230354 0.230354
0.235538 0.235538 0.235538
0.256874 0.256874 0.256874
0.290608 0.290608 0.290608
0.336608 0.336608 0.336608
0.386761 0.386761 0.386761
0.442114 0.442114 0.442114
0.510829 0.510829 0.510829
0.645401 0.645401 0.645401
0.298793 0.298793 0.298793
0.301761 0.301761 0.301761
0.315451 0.315451 0.315451
0.341409 0.341409 0.341409
0.377194 0.377194 0.377194
0.422369 0.422369 0.422369
0.467254 0.467254 0.467254
0.521355 0.521355 0.521355
0.632038 0.632038 0.632038
0.368093 0.368093 0.368093
0.370061 0.370061 0.370061
0.380509 0.380509 0.380509
0.400026 0.400026 0.400026
0.428242 0.428242 0.428242
0.464036 0.464036 0.464036
0.505002 0.505002 0.505002
0.549838 0.549838 0.549838
0.606384 0.606384 0.606384
0.434628 0.434628 0.434628
0.436073 0.436073 0.436073
0.443652 0.443652 0.443652
0.458327 0.458327 0.458327
0.480965 0.480965 0.480965
0.511698 0.511698 0.511698
0.548706 0.548706 0.548706
0.588285 0.588285 0.588285
0.629448 0.629448 0.629448
0.502507 0.502507 0.502507
0.503494 0.503494 0.503494
0.509519 0.509519 0.509519
0.520748 0.520748 0.520748
0.538749 0.538749 0.538749
0.563985 0.563985 0.563985
0.597083 0.597083 0.597083
0.635125 0.635125 0.635125
0.667089 0.667089 0.667089
0.535338 0.535338 0.535338
0.570074 0.570074 0.570074
0.570075 0.570075 0.570075
0.570085 0.570085 0.570085
0.593938 0.593938 0.593938
0.615862 0.615862 0.615862
0.644404 0.644404 0.644404
0.681679 0.681679 0.681679
0.712363 0.712363 0.712363
0.232670 0.232670 0.232670
0.398613 0.398613 0.398613
0.433109 0.433109 0.433109
0.436617 0.436617 0.436617
0.458082 0.458082 0.458082
0.498581 0.498581 0.498581
0.552677 0.552677 0.552677
0.623798 0.623798 0.623798
0.659939 0.659939 0.659939
0.251783 0.251783 0.251783
0.343079 0.343079 0.343079
0.411045 0.411045 0.411045
0.421022 0.421022 0.421022
0.446722 0.446722 0.446722
0.490369 0.490369 0.490369
0.547598 0.547598 0.547598
0.621729 0.621729 0.621729
0.660099 0.660099 0.660099
0.265526 0.265526 0.265526
0.282736 0.282736 0.282736
0.336383 0.336383 0.336383
0.373330 0.373330 0.373330
0.413319 0.413319 0.413319
0.462517 0.462517 0.462517
0.526597 0.526597 0.526597
0.605611 0.605611 0.605611
0.660679 0.660679 0.660679
0.295988 0.295988 0.295988
0.301746 0.301746 0.301746
0.324566 0.324566 0.324566
0.372918 0.372918 0.372918
0.402003 0.402003 0.402003
0.447240 0.447240 0.447240
0.504816 0.504816 0.504816
0.583210 0.583210 0.583210
0.660856 0.660856 0.660856
0.349694 0.349694 0.349694
0.352717 0.352717 0.352717
0.366190 0.366190 0.366190
0.391093 0.391093 0.391093
0.424021 0.424021 0.424021
0.463587 0.463587 0.463587
0.509734 0.509734 0.509734
0.568572 0.568572 0.568572
0.678163 0.678163 0.678163
0.408858 0.408858 0.408858
0.410793 0.410793 0.410793
0.420114 0.420114 0.420114
0.437463 0.437463 0.437463
0.463809 0.463809 0.463809
0.497414 0.497414 0.497414
0.536566 0.536566 0.536566
0.581963 0.581963 0.581963
0.667857 0.667857 0.667857
0.467485 0.467485 0.467485
0.468910 0.468910 0.468910
0.476017 0.476017 0.476017
0.489996 0.489996 0.489996
0.511656 0.511656 0.511656
0.540585 0.540585 0.540585
0.575167 0.575167 0.575167
0.612983 0.612983 0.612983
0.666436 0.666436 0.666436
0.529031 0.529031 0.529031
0.530063 0.530063 0.530063
0.535719 0.535719 0.535719
0.546335 0.546335 0.546335
0.563732 0.563732 0.563732
0.588253 0.588253 0.588253
0.619891 0.619891 0.619891
0.654987 0.654987 0.654987
0.690733 0.690733 0.690733
0.583036 0.583036 0.583036
0.601798 0.601798 0.601798
0.601802 0.601802 0.601802
0.605031 0.605031 0.605031
0.618654 0.618654 0.618654
0.638518 0.638518 0.638518
0.665544 0.665544 0.665544
0.700469 0.700469 0.700469
0.729115 0.729115 0.729115
0.339582 0.339582 0.339582
0.430215 0.430215 0.430215
0.503035 0.503035 0.503035
0.512363 0.512363 0.512363
0.530026 0.530026 0.530026
0.563680 0.563680 0.563680
0.606410 0.606410 0.606410
0.655799 0.655799 0.655799
0.699471 0.699471 0.699471
0.353105 0.353105 0.353105
0.421112 0.421112 0.421112
0.494776 0.494776 0.494776
0.507636 0.507636 0.507636
0.526435 0.526435 0.526435
0.560897 0.560897 0.560897
0.604770 0.604770 0.604770
0.655250 0.655250 0.655250
0.698212 0.698212 0.698212
0.367816 0.367816 0.367816
0.392613 0.392613 0.392613
0.457893 0.457893 0.457893
0.488488 0.488488 0.488488
0.513052 0.513052 0.513052
0.550189 0.550189 0.550189
0.597809 0.597809 0.597809
0.651998 0.651998 0.651998
0.694241 0.694241 0.694241
0.381584 0.381584 0.381584
0.390114 0.390114 0.390114
0.422146 0.422146 0.422146
0.460884 0.460884 0.460884
0.494158 0.494158 0.494158
0.535004 0.535004 0.535004
0.585970 0.585970 0.585970
0.646942 0.646942 0.646942
0.706721 0.706721 0.706721
0.413558 0.413558 0.413558
0.417300 0.417300 0.417300
0.432452 0.432452 0.432452
0.458780 0.458780 0.458780
0.499564 0.499564 0.499564
0.530483 0.530483 0.530483
0.577269 0.577269 0.577269
0.638842 0.638842 0.638842
0.715186 0.715186 0.715186
0.458443 0.458443 0.458443
0.460590 0.460590 0.460590
0.470568 0.470568 0.470568
0.488792 0.488792 0.488792
0.515450 0.515450 0.515450
0.547548 0.547548 0.547548
0.586674 0.586674 0.586674
0.636667 0.636667 0.636667
0.719756 0.719756 0.719756
0.509264 0.509264 0.509264
0.510792 0.510792 0.510792
0.517902 0.517902 0.517902
0.531757 0.531757 0.531757
0.553024 0.553024 0.553024
0.581134 0.581134 0.581134
0.614205 0.614205 0.614205
0.652644 0.652644 0.652644
0.722182 0.722182 0.722182
0.563453 0.563453 0.563453
0.564526 0.564526 0.564526
0.570096 0.570096 0.570096
0.580692 0.580692 0.580692
0.597833 0.597833 0.597833
0.621843 0.621843 0.621843
0.651954 0.651954 0.651954
0.684579 0.684579 0.684579
0.729552 0.729552 0.729552
0.624040 0.624040 0.624040
0.626587 0.626587 0.626587
0.632610 0.632610 0.632610
0.632878 0.632878 0.632878
0.646907 0.646907 0.646907
0.665925 0.665925 0.665925
0.691824 0.691824 0.691824
0.724142 0.724142 0.724142
0.756372 0.756372 0.756372
0.444895 0.444895 0.444895
0.499944 0.499944 0.499944
0.564244 0.564244 0.564244
0.574604 0.574604 0.574604
0.590798 0.590798 0.590798
0.618278 0.618278 0.618278
0.653680 0.653680 0.653680
0.691956 0.691956 0.691956
0.722334 0.722334 0.722334
0.454059 0.454059 0.454059
0.500224 0.500224 0.500224
0.561888 0.561888 0.561888
0.573937 0.573937 0.573937
0.590556 0.590556 0.590556
0.617982 0.617982 0.617982
0.653710 0.653710 0.653710
0.692289 0.692289 0.692289
0.722334 0.722334 0.722334
0.473785 0.473785 0.473785
0.496519 0.496519 0.496519
0.549613 0.549613 0.549613
0.570518 0.570518 0.570518
0.589382 0.589382 0.589382
0.617044 0.617044 0.617044
0.653840 0.653840 0.653840
0.693932 0.693932 0.693932
0.722333 0.722333 0.722333
0.476708 0.476708 0.476708
0.487268 0.487268 0.487268
0.527066 0.527066 0.527066
0.560890 0.560890 0.560890
0.586168 0.586168 0.586168
0.615339 0.615339 0.615339
0.653874 0.653874 0.653874
0.697136 0.697136 0.697136
0.735426 0.735426 0.735426
0.491152 0.491152 0.491152
0.496241 0.496241 0.496241
0.518117 0.518117 0.518117
0.549467 0.549467 0.549467
0.581680 0.581680 0.581680
0.613593 0.613593 0.613593
0.653710 0.653710 0.653710
0.700988 0.700988 0.700988
0.749063 0.749063 0.749063
0.519966 0.519966 0.519966
0.522815 0.522815 0.522815
0.535003 0.535003 0.535003
0.556319 0.556319 0.556319
0.585240 0.585240 0.585240
0.620952 0.620952 0.620952
0.656077 0.656077 0.656077
0.704016 0.704016 0.704016
0.761144 0.761144 0.761144
0.559565 0.559565 0.559565
0.561343 0.561343 0.561343
0.569397 0.569397 0.569397
0.584668 0.584668 0.584668
0.607396 0.607396 0.607396
0.636180 0.636180 0.636180
0.668561 0.668561 0.668561
0.708946 0.708946 0.708946
0.773498 0.773498 0.773498
0.605101 0.605101 0.605101
0.606310 0.606310 0.606310
0.612312 0.612312 0.612312
0.623443 0.623443 0.623443
0.641109 0.641109 0.641109
0.664750 0.664750 0.664750
0.693643 0.693643 0.693643
0.725328 0.725328 0.725328
0.781899 0.781899 0.781899
0.640181 0.640181 0.640181
0.643157 0.643157 0.643157
0.650973 0.650973 0.650973
0.665704 0.665704 0.665704
0.679639 0.679639 0.679639
0.698587 0.698587 0.698587
0.723472 0.723472 0.723472
0.752758 0.752758 0.752758
0.798298 0.798298 0.798298
0.557161 0.557161 0.557161
0.590579 0.590579 0.590579
0.622882 0.622882 0.622882
0.633145 0.633145 0.633145
0.647661 0.647661 0.647661
0.670598 0.670598 0.670598
0.700180 0.700180 0.700180
0.730821 0.730821 0.730821
0.753617 0.753617 0.753617
0.562999 0.562999 0.562999
0.591358 0.591358 0.591358
0.623111 0.623111 0.623111
0.634094 0.634094 0.634094
0.648681 0.648681 0.648681
0.671420 0.671420 0.671420
0.700958 0.700958 0.700958
0.731612 0.731612 0.731612
0.753312 0.753312 0.753312
0.580121 0.580121 0.580121
0.595406 0.595406 0.595406
0.623356 0.623356 0.623356
0.637786 0.637786 0.637786
0.652865 0.652865 0.652865
0.674882 0.674882 0.674882
0.704188 0.704188 0.704188
0.735275 0.735275 0.735275
0.751910 0.751910 0.751910
0.582932 0.582932 0.582932
0.593213 0.593213 0.593213
0.621475 0.621475 0.621475
0.642281 0.642281 0.642281
0.659642 0.659642 0.659642
0.681451 0.681451 0.681451
0.710354 0.710354 0.710354
0.741991 0.741991 0.741991
0.771320 0.771320 0.771320
0.585387 0.585387 0.585387
0.592179 0.592179 0.592179
0.617127 0.617127 0.617127
0.644410 0.644410 0.644410
0.667213 0.667213 0.667213
0.690217 0.690217 0.690217
0.718864 0.718864 0.718864
0.751729 0.751729 0.751729
0.783590 0.783590 0.783590
0.597727 0.597727 0.597727
0.601799 0.601799 0.601799
0.618707 0.618707 0.618707
0.645108 0.645108 0.645108
0.672967 0.672967 0.672967
0.699887 0.699887 0.699887
0.728652 0.728652 0.728652
0.763165 0.763165 0.763165
0.797180 0.797180 0.797180
0.621665 0.621665 0.621665
0.624126 0.624126 0.624126
0.634637 0.634637 0.634637
0.653549 0.653549 0.653549
0.679204 0.679204 0.679204
0.708334 0.708334 0.708334
0.737280 0.737280 0.737280
0.773530 0.773530 0.773530
0.813118 0.813118 0.813118
0.654755 0.654755 0.654755
0.656162 0.656162 0.656162
0.662974 0.662974 0.662974
0.675472 0.675472 0.675472
0.694720 0.694720 0.694720
0.719704 0.719704 0.719704
0.747788 0.747788 0.747788
0.779164 0.779164 0.779164
0.828740 0.828740 0.828740
0.665505 0.665505 0.665505
0.669413 0.669413 0.669413
0.674676 0.674676 0.674676
0.704447 0.704447 0.704447
0.718464 0.718464 0.718464
0.736714 0.736714 0.736714
0.760335 0.760335 0.760335
0.787189 0.787189 0.787189
0.848120 0.848120 0.848120
0.668944 0.668944 0.668944
0.673398 0.673398 0.673398
0.681896 0.681896 0.681896
0.689576 0.689576 0.689576
0.702334 0.702334 0.702334
0.722651 0.722651 0.722651
0.746724 0.746724 0.746724
0.773044 0.773044 0.773044
0.786484 0.786484 0.786484
0.670195 0.670195 0.670195
0.674392 0.674392 0.674392
0.683263 0.683263 0.683263
0.691104 0.691104 0.691104
0.703795 0.703795 0.703795
0.723816 0.723816 0.723816
0.747819 0.747819 0.747819
0.774046 0.774046 0.774046
0.786767 0.786767 0.786767
0.677455 0.677455 0.677455
0.680472 0.680472 0.680472
0.689349 0.689349 0.689349
0.697886 0.697886 0.697886
0.710274 0.710274 0.710274
0.728943 0.728943 0.728943
0.752546 0.752546 0.752546
0.778563 0.778563 0.778563
0.789906 0.789906 0.789906
0.685486 0.685486 0.685486
0.688651 0.688651 0.688651
0.698576 0.698576 0.698576
0.708513 0.708513 0.708513
0.720783 0.720783 0.720783
0.738057 0.738057 0.738057
0.760989 0.760989 0.760989
0.785886 0.785886 0.785886
0.804411 0.804411 0.804411
0.693754 0.693754 0.693754
0.697665 0.697665 0.697665
0.709939 0.709939 0.709939
0.721947 0.721947 0.721947
0.735142 0.735142 0.735142
0.751611 0.751611 0.751611
0.773478 0.773478 0.773478
0.796701 0.796701 0.796701
0.816568 0.816568 0.816568
0.699999 0.699999 0.699999
0.704619 0.704619 0.704619
0.720033 0.720033 0.720033
0.735582 0.735582 0.735582
0.751437 0.751437 0.751437
0.768649 0.768649 0.768649
0.788165 0.788165 0.788165
0.810596 0.810596 0.810596
0.831457 0.831457 0.831457
0.704385 0.704385 0.704385
0.708257 0.708257 0.708257
0.723671 0.723671 0.723671
0.744397 0.744397 0.744397
0.765751 0.765751 0.765751
0.785474 0.785474 0.785474
0.804019 0.804019 0.804019
0.826731 0.826731 0.826731
0.849359 0.849359 0.849359
0.716517 0.716517 0.716517
0.718420 0.718420 0.718420
0.727677 0.727677 0.727677
0.744319 0.744319 0.744319
0.768195 0.768195 0.768195
0.793142 0.793142 0.793142
0.816658 0.816658 0.816658
0.837347 0.837347 0.837347
0.869689 0.869689 0.869689
0.708723 0.708723 0.708723
0.719307 0.719307 0.719307
0.726331 0.726331 0.726331
0.747207 0.747207 0.747207
0.763138 0.763138 0.763138
0.782611 0.782611 0.782611
0.803986 0.803986 0.803986
0.827658 0.827658 0.827658
0.888432 0.888432 0.888432
0.735034 0.735034 0.735034
0.735427 0.735427 0.735427
0.737461 0.737461 0.737461
0.743934 0.743934 0.743934
0.757837 0.757837 0.757837
0.777393 0.777393 0.777393
0.795902 0.795902 0.795902
0.814332 0.814332 0.814332
0.816237 0.816237 0.816237
0.736188 0.736188 0.736188
0.736599 0.736599 0.736599
0.738713 0.738713 0.738713
0.745240 0.745240 0.745240
0.758998 0.758998 0.758998
0.778451 0.778451 0.778451
0.796782 0.796782 0.796782
0.814926 0.814926 0.814926
0.821626 0.821626 0.821626
0.741945 0.741945 0.741945
0.742425 0.742425 0.742425
0.744823 0.744823 0.744823
0.751449 0.751449 0.751449
0.764456 0.764456 0.764456
0.782764 0.782764 0.782764
0.800804 0.800804 0.800804
0.818412 0.818412 0.818412
0.821629 0.821629 0.821629
0.753863 0.753863 0.753863
0.754427 0.754427 0.754427
0.757146 0.757146 0.757146
0.763664 0.763664 0.763664
0.775332 0.775332 0.775332
0.791099 0.791099 0.791099
0.808836 0.808836 0.808836
0.826766 0.826766 0.826766
0.842763 0.842763 0.842763
0.769408 0.769408 0.769408
0.770074 0.770074 0.770074
0.773214 0.773214 0.773214
0.779650 0.779650 0.779650
0.788932 0.788932 0.788932
0.802952 0.802952 0.802952
0.820113 0.820113 0.820113
0.838285 0.838285 0.838285
0.855864 0.855864 0.855864
0.787239 0.787239 0.787239
0.787903 0.787903 0.787903
0.790982 0.790982 0.790982
0.796955 0.796955 0.796955
0.805483 0.805483 0.805483
0.818114 0.818114 0.818114
0.834501 0.834501 0.834501
0.852585 0.852585 0.852585
0.870433 0.870433 0.870433
0.806751 0.806751 0.806751
0.807471 0.807471 0.807471
0.810664 0.810664 0.810664
0.816912 0.816912 0.816912
0.825419 0.825419 0.825419
0.836603 0.836603 0.836603
0.851968 0.851968 0.851968
0.869947 0.869947 0.869947
0.886093 0.886093 0.886093
0.824658 0.824658 0.824658
0.826669 0.826669 0.826669
0.831820 0.831820 0.831820
0.838542 0.838542 0.838542
0.847613 0.847613 0.847613
0.858774 0.858774 0.858774
0.872270 0.872270 0.872270
0.887387 0.887387 0.887387
0.898640 0.898640 0.898640
0.749475 0.749475 0.749475
0.780631 0.780631 0.780631
0.780631 0.780631 0.780631
0.782825 0.782825 0.782825
0.838887 0.838887 0.838887
0.879276 0.879276 0.879276
0.890783 0.890783 0.890783
0.902218 0.902218 0.902218
0.912373 0.912373 0.912373
