LUTs/trix_classic/TriX_Red25_Soft.cube
TITLE "Tri-X Red25 Soft"
# Adobe RGB in/out. REPLACES AgX. Tri-X Red25 Soft.
LUT_3D_SIZE 5
DOMAIN_MIN 0.0 0.0 0.0
DOMAIN_MAX 1.0 1.0 1.0
0.093873 0.093873 0.093873
0.173769 0.173769 0.173769
0.514852 0.514852 0.514852
0.836721 0.836721 0.836721
0.912373 0.912373 0.912373
0.093873 0.093873 0.093873
0.159372 0.159372 0.159372
0.520063 0.520063 0.520063
0.807487 0.807487 0.807487
0.912373 0.912373 0.912373
0.093958 0.093958 0.093958
0.107310 0.107310 0.107310
0.418295 0.418295 0.418295
0.745224 0.745224 0.745224
0.910299 0.910299 0.910299
0.094063 0.094063 0.094063
0.099504 0.099504 0.099504
0.317701 0.317701 0.317701
0.676382 0.676382 0.676382
0.902987 0.902987 0.902987
0.093873 0.093873 0.093873
0.093873 0.093873 0.093873
0.102405 0.102405 0.102405
0.573193 0.573193 0.573193
0.909639 0.909639 0.909639
0.093873 0.093873 0.093873
0.140395 0.140395 0.140395
0.502568 0.502568 0.502568
0.834355 0.834355 0.834355
0.912373 0.912373 0.912373
0.094091 0.094091 0.094091
0.233250 0.233250 0.233250
0.502008 0.502008 0.502008
0.811846 0.811846 0.811846
0.912373 0.912373 0.912373
0.098604 0.098604 0.098604
0.174769 0.174769 0.174769
0.468896 0.468896 0.468896
0.755814 0.755814 0.755814
0.910108 0.910108 0.910108
0.099247 0.099247 0.099247
0.139232 0.139232 0.139232
0.377950 0.377950 0.377950
0.704274 0.704274 0.704274
0.904369 0.904369 0.904369
0.093873 0.093873 0.093873
0.093873 0.093873 0.093873
0.151018 0.151018 0.151018
0.601323 0.601323 0.601323
0.910519 0.910519 0.910519
0.093873 0.093873 0.093873
0.183958 0.183958 0.183958
0.488697 0.488697 0.488697
0.821920 0.821920 0.821920
0.912373 0.912373 0.912373
0.094896 0.094896 0.094896
0.216778 0.216778 0.216778
0.493005 0.493005 0.493005
0.805555 0.805555 0.805555
0.912373 0.912373 0.912373
0.129008 0.129008 0.129008
0.229718 0.229718 0.229718
0.499564 0.499564 0.499564
0.765449 0.765449 0.765449
0.909390 0.909390 0.909390
0.145785 0.145785 0.145785
0.215738 0.215738 0.215738
0.442700 0.442700 0.442700
0.729731 0.729731 0.729731
0.905488 0.905488 0.905488
0.093873 0.093873 0.093873
0.093873 0.093873 0.093873
0.263187 0.263187 0.263187
0.651620 0.651620 0.651620
0.911655 0.911655 0.911655
0.093923 0.093923 0.093923
0.172832 0.172832 0.172832
0.486357 0.486357 0.486357
0.811616 0.811616 0.811616
0.912373 0.912373 0.912373
0.096030 0.096030 0.096030
0.202418 0.202418 0.202418
0.492208 0.492208 0.492208
0.799764 0.799764 0.799764
0.912373 0.912373 0.912373
0.150923 0.150923 0.150923
0.248475 0.248475 0.248475
0.500217 0.500217 0.500217
0.769007 0.769007 0.769007
0.908806 0.908806 0.908806
0.174782 0.174782 0.174782
0.247597 0.247597 0.247597
0.467713 0.467713 0.467713
0.737280 0.737280 0.737280
0.906020 0.906020 0.906020
0.093873 0.093873 0.093873
0.093873 0.093873 0.093873
0.270634 0.270634 0.270634
0.661878 0.661878 0.661878
0.911997 0.911997 0.911997
0.106965 0.106965 0.106965
0.175330 0.175330 0.175330
0.551565 0.551565 0.551565
0.855375 0.855375 0.855375
0.912373 0.912373 0.912373
0.143345 0.143345 0.143345
0.226369 0.226369 0.226369
0.552571 0.552571 0.552571
0.849527 0.849527 0.849527
0.912373 0.912373 0.912373
0.232867 0.232867 0.232867
0.312490 0.312490 0.312490
0.553646 0.553646 0.553646
0.829347 0.829347 0.829347
0.912192 0.912192 0.912192
0.214966 0.214966 0.214966
0.294972 0.294972 0.294972
0.529508 0.529508 0.529508
0.792346 0.792346 0.792346
0.911663 0.911663 0.911663
0.093873 0.093873 0.093873
0.093873 0.093873 0.093873
0.097577 0.097577 0.097577
0.627553 0.627553 0.627553
0.912373 0.912373 0.912373
