LUTs/trix_classic/TriX_Blue47_Soft.cube
TITLE "Tri-X Blue47 Soft"
# Adobe RGB in/out. REPLACES AgX. Tri-X Blue47 Soft.
LUT_3D_SIZE 9
DOMAIN_MIN 0.0 0.0 0.0
DOMAIN_MAX 1.0 1.0 1.0
0.093873 0.093873 0.093873
0.093873 0.093873 0.093873
0.093873 0.093873 0.093873
0.093926 0.093926 0.093926
0.094121 0.094121 0.094121
0.096405 0.096405 0.096405
0.108175 0.108175 0.108175
0.351592 0.351592 0.351592
0.509242 0.509242 0.509242
0.093873 0.093873 0.093873
0.093873 0.093873 0.093873
0.093864 0.093864 0.093864
0.093958 0.093958 0.093958
0.094165 0.094165 0.094165
0.096695 0.096695 0.096695
0.107933 0.107933 0.107933
0.351617 0.351617 0.351617
0.509240 0.509240 0.509240
0.093867 0.093867 0.093867
0.093872 0.093872 0.093872
0.093948 0.093948 0.093948
0.094087 0.094087 0.094087
0.094729 0.094729 0.094729
0.098247 0.098247 0.098247
0.110758 0.110758 0.110758
0.354604 0.354604 0.354604
0.509239 0.509239 0.509239
0.093993 0.093993 0.093993
0.094038 0.094038 0.094038
0.094162 0.094162 0.094162
0.094927 0.094927 0.094927
0.097624 0.097624 0.097624
0.104488 0.104488 0.104488
0.120109 0.120109 0.120109
0.148829 0.148829 0.148829
0.380860 0.380860 0.380860
0.094358 0.094358 0.094358
0.094902 0.094902 0.094902
0.096561 0.096561 0.096561
0.099452 0.099452 0.099452
0.105805 0.105805 0.105805
0.118523 0.118523 0.118523
0.135498 0.135498 0.135498
0.159735 0.159735 0.159735
0.275498 0.275498 0.275498
0.099266 0.099266 0.099266
0.100065 0.100065 0.100065
0.104085 0.104085 0.104085
0.112150 0.112150 0.112150
0.123378 0.123378 0.123378
0.137413 0.137413 0.137413
0.155743 0.155743 0.155743
0.176701 0.176701 0.176701
0.224887 0.224887 0.224887
0.113618 0.113618 0.113618
0.114944 0.114944 0.114944
0.121389 0.121389 0.121389
0.131517 0.131517 0.131517
0.145269 0.145269 0.145269
0.160239 0.160239 0.160239
0.176403 0.176403 0.176403
0.195663 0.195663 0.195663
0.227360 0.227360 0.227360
0.135220 0.135220 0.135220
0.135644 0.135644 0.135644
0.142726 0.142726 0.142726
0.153370 0.153370 0.153370
0.166516 0.166516 0.166516
0.181087 0.181087 0.181087
0.196220 0.196220 0.196220
0.213500 0.213500 0.213500
0.234845 0.234845 0.234845
0.142180 0.142180 0.142180
0.142183 0.142183 0.142183
0.142243 0.142243 0.142243
0.168197 0.168197 0.168197
0.183778 0.183778 0.183778
0.196693 0.196693 0.196693
0.210547 0.210547 0.210547
0.222994 0.222994 0.222994
0.234068 0.234068 0.234068
0.095776 0.095776 0.095776
0.133067 0.133067 0.133067
0.103565 0.103565 0.103565
0.102550 0.102550 0.102550
0.101199 0.101199 0.101199
0.106523 0.106523 0.106523
0.128595 0.128595 0.128595
0.351620 0.351620 0.351620
0.509244 0.509244 0.509244
0.094616 0.094616 0.094616
0.099556 0.099556 0.099556
0.098332 0.098332 0.098332
0.101299 0.101299 0.101299
0.101670 0.101670 0.101670
0.107198 0.107198 0.107198
0.127215 0.127215 0.127215
0.351660 0.351660 0.351660
0.509240 0.509240 0.509240
0.095479 0.095479 0.095479
0.096257 0.096257 0.096257
0.097927 0.097927 0.097927
0.102262 0.102262 0.102262
0.105884 0.105884 0.105884
0.112694 0.112694 0.112694
0.129106 0.129106 0.129106
0.355917 0.355917 0.355917
0.509239 0.509239 0.509239
0.097456 0.097456 0.097456
0.098089 0.098089 0.098089
0.101515 0.101515 0.101515
0.107727 0.107727 0.107727
0.115667 0.115667 0.115667
0.123890 0.123890 0.123890
0.139834 0.139834 0.139834
0.168892 0.168892 0.168892
0.509235 0.509235 0.509235
0.100974 0.100974 0.100974
0.102143 0.102143 0.102143
0.107941 0.107941 0.107941
0.117947 0.117947 0.117947
0.129551 0.129551 0.129551
0.140970 0.140970 0.140970
0.156337 0.156337 0.156337
0.178589 0.178589 0.178589
0.302570 0.302570 0.302570
0.110019 0.110019 0.110019
0.111998 0.111998 0.111998
0.119937 0.119937 0.119937
0.130879 0.130879 0.130879
0.145087 0.145087 0.145087
0.160527 0.160527 0.160527
0.175954 0.175954 0.175954
0.194850 0.194850 0.194850
0.242806 0.242806 0.242806
0.126787 0.126787 0.126787
0.128397 0.128397 0.128397
0.137007 0.137007 0.137007
0.149366 0.149366 0.149366
0.163734 0.163734 0.163734
0.179236 0.179236 0.179236
0.195712 0.195712 0.195712
0.214112 0.214112 0.214112
0.242713 0.242713 0.242713
0.144584 0.144584 0.144584
0.145696 0.145696 0.145696
0.155665 0.155665 0.155665
0.167815 0.167815 0.167815
0.181851 0.181851 0.181851
0.196936 0.196936 0.196936
0.213471 0.213471 0.213471
0.228723 0.228723 0.228723
0.248673 0.248673 0.248673
0.243800 0.243800 0.243800
0.243801 0.243801 0.243801
0.243803 0.243803 0.243803
0.243791 0.243791 0.243791
0.194255 0.194255 0.194255
0.209375 0.209375 0.209375
0.222761 0.222761 0.222761
0.234613 0.234613 0.234613
0.244529 0.244529 0.244529
0.195748 0.195748 0.195748
0.334143 0.334143 0.334143
0.318159 0.318159 0.318159
0.305090 0.305090 0.305090
0.298017 0.298017 0.298017
0.310682 0.310682 0.310682
0.340246 0.340246 0.340246
0.370194 0.370194 0.370194
0.509277 0.509277 0.509277
0.195497 0.195497 0.195497
0.247277 0.247277 0.247277
0.270308 0.270308 0.270308
0.274052 0.274052 0.274052
0.277530 0.277530 0.277530
0.293940 0.293940 0.293940
0.322737 0.322737 0.322737
0.372716 0.372716 0.372716
0.509246 0.509246 0.509246
0.180875 0.180875 0.180875
0.190802 0.190802 0.190802
0.233250 0.233250 0.233250
0.232825 0.232825 0.232825
0.246539 0.246539 0.246539
0.266234 0.266234 0.266234
0.284220 0.284220 0.284220
0.384383 0.384383 0.384383
0.509240 0.509240 0.509240
0.188036 0.188036 0.188036
0.192577 0.192577 0.192577
0.205909 0.205909 0.205909
0.220155 0.220155 0.220155
0.235845 0.235845 0.235845
0.253198 0.253198 0.253198
0.267015 0.267015 0.267015
0.307746 0.307746 0.307746
0.509245 0.509245 0.509245
0.197396 0.197396 0.197396
0.200469 0.200469 0.200469
0.210979 0.210979 0.210979
0.223547 0.223547 0.223547
0.235911 0.235911 0.235911
0.252795 0.252795 0.252795
0.264559 0.264559 0.264559
0.289843 0.289843 0.289843
0.414010 0.414010 0.414010
0.212431 0.212431 0.212431
0.214615 0.214615 0.214615
0.222174 0.222174 0.222174
0.232978 0.232978 0.232978
0.245261 0.245261 0.245261
0.258326 0.258326 0.258326
0.269970 0.269970 0.269970
0.288562 0.288562 0.288562
0.331585 0.331585 0.331585
0.220915 0.220915 0.220915
0.222410 0.222410 0.222410
0.228983 0.228983 0.228983
0.239163 0.239163 0.239163
0.251311 0.251311 0.251311
0.264507 0.264507 0.264507
0.276927 0.276927 0.276927
0.292557 0.292557 0.292557
0.312823 0.312823 0.312823
0.233924 0.233924 0.233924
0.235215 0.235215 0.235215
0.242830 0.242830 0.242830
0.252166 0.252166 0.252166
0.263581 0.263581 0.263581
0.274862 0.274862 0.274862
0.285855 0.285855 0.285855
0.297316 0.297316 0.297316
0.308296 0.308296 0.308296
0.243807 0.243807 0.243807
0.243806 0.243806 0.243806
0.243805 0.243805 0.243805
0.243806 0.243806 0.243806
0.249251 0.249251 0.249251
0.266965 0.266965 0.266965
0.278288 0.278288 0.278288
0.287749 0.287749 0.287749
0.294826 0.294826 0.294826
0.340704 0.340704 0.340704
0.448663 0.448663 0.448663
0.472301 0.472301 0.472301
0.466230 0.466230 0.466230
0.467535 0.467535 0.467535
0.474751 0.474751 0.474751
0.496019 0.496019 0.496019
0.549536 0.549536 0.549536
0.557551 0.557551 0.557551
0.346521 0.346521 0.346521
0.406878 0.406878 0.406878
0.448189 0.448189 0.448189
0.447794 0.447794 0.447794
0.453371 0.453371 0.453371
0.463714 0.463714 0.463714
0.487250 0.487250 0.487250
0.544708 0.544708 0.544708
0.558059 0.558059 0.558059
0.331578 0.331578 0.331578
0.346455 0.346455 0.346455
0.381385 0.381385 0.381385
0.398089 0.398089 0.398089
0.413087 0.413087 0.413087
0.428139 0.428139 0.428139
0.454569 0.454569 0.454569
0.510922 0.510922 0.510922
0.559906 0.559906 0.559906
0.319513 0.319513 0.319513
0.325420 0.325420 0.325420
0.342097 0.342097 0.342097
0.372918 0.372918 0.372918
0.377654 0.377654 0.377654
0.393510 0.393510 0.393510
0.416005 0.416005 0.416005
0.464337 0.464337 0.464337
0.560459 0.560459 0.560459
0.321887 0.321887 0.321887
0.324826 0.324826 0.324826
0.335261 0.335261 0.335261
0.348062 0.348062 0.348062
0.360586 0.360586 0.360586
0.375241 0.375241 0.375241
0.391845 0.391845 0.391845
0.422385 0.422385 0.422385
0.537489 0.537489 0.537489
0.325411 0.325411 0.325411
0.327282 0.327282 0.327282
0.334835 0.334835 0.334835
0.344920 0.344920 0.344920
0.356251 0.356251 0.356251
0.367710 0.367710 0.367710
0.381563 0.381563 0.381563
0.400887 0.400887 0.400887
0.484360 0.484360 0.484360
0.329952 0.329952 0.329952
0.331255 0.331255 0.331255
0.336852 0.336852 0.336852
0.345378 0.345378 0.345378
0.355556 0.355556 0.355556
0.366385 0.366385 0.366385
0.377541 0.377541 0.377541
0.391516 0.391516 0.391516
0.438690 0.438690 0.438690
0.334184 0.334184 0.334184
0.335053 0.335053 0.335053
0.339659 0.339659 0.339659
0.346513 0.346513 0.346513
0.355468 0.355468 0.355468
0.365261 0.365261 0.365261
0.375411 0.375411 0.375411
0.386275 0.386275 0.386275
0.413350 0.413350 0.413350
0.356019 0.356019 0.356019
0.356019 0.356019 0.356019
0.356018 0.356018 0.356018
0.326507 0.326507 0.326507
0.351697 0.351697 0.351697
0.359904 0.359904 0.359904
0.368268 0.368268 0.368268
0.375677 0.375677 0.375677
0.388754 0.388754 0.388754
0.472476 0.472476 0.472476
0.531137 0.531137 0.531137
0.588569 0.588569 0.588569
0.589082 0.589082 0.589082
0.589573 0.589573 0.589573
0.596422 0.596422 0.596422
0.610077 0.610077 0.610077
0.639362 0.639362 0.639362
0.674662 0.674662 0.674662
0.477615 0.477615 0.477615
0.521705 0.521705 0.521705
0.576613 0.576613 0.576613
0.580174 0.580174 0.580174
0.582228 0.582228 0.582228
0.590624 0.590624 0.590624
0.605628 0.605628 0.605628
0.636313 0.636313 0.636313
0.671179 0.671179 0.671179
0.471186 0.471186 0.471186
0.489229 0.489229 0.489229
0.533594 0.533594 0.533594
0.549805 0.549805 0.549805
0.557239 0.557239 0.557239
0.569081 0.569081 0.569081
0.587665 0.587665 0.587665
0.619865 0.619865 0.619865
0.660083 0.660083 0.660083
0.454203 0.454203 0.454203
0.461637 0.461637 0.461637
0.485335 0.485335 0.485335
0.508149 0.508149 0.508149
0.521888 0.521888 0.521888
0.537839 0.537839 0.537839
0.558911 0.558911 0.558911
0.594823 0.594823 0.594823
0.660182 0.660182 0.660182
0.443515 0.443515 0.443515
0.447244 0.447244 0.447244
0.459934 0.459934 0.459934
0.476475 0.476475 0.476475
0.499564 0.499564 0.499564
0.508344 0.508344 0.508344
0.527644 0.527644 0.527644
0.561495 0.561495 0.561495
0.637185 0.637185 0.637185
0.440974 0.440974 0.440974
0.443079 0.443079 0.443079
0.451313 0.451313 0.451313
0.463042 0.463042 0.463042
0.476022 0.476022 0.476022
0.488405 0.488405 0.488405
0.504366 0.504366 0.504366
0.528831 0.528831 0.528831
0.607981 0.607981 0.607981
0.439716 0.439716 0.439716
0.441113 0.441113 0.441113
0.446877 0.446877 0.446877
0.455984 0.455984 0.455984
0.466816 0.466816 0.466816
0.477913 0.477913 0.477913
0.489308 0.489308 0.489308
0.505590 0.505590 0.505590
0.571331 0.571331 0.571331
0.437406 0.437406 0.437406
0.438296 0.438296 0.438296
0.442844 0.442844 0.442844
0.449848 0.449848 0.449848
0.458794 0.458794 0.458794
0.468463 0.468463 0.468463
0.478198 0.478198 0.478198
0.488973 0.488973 0.488973
0.531673 0.531673 0.531673
0.470419 0.470419 0.470419
0.470419 0.470419 0.470419
0.470418 0.470418 0.470418
0.440497 0.440497 0.440497
0.448471 0.448471 0.448471
0.456298 0.456298 0.456298
0.463512 0.463512 0.463512
0.469826 0.469826 0.469826
0.499246 0.499246 0.499246
0.601634 0.601634 0.601634
0.641224 0.641224 0.641224
0.690540 0.690540 0.690540
0.693253 0.693253 0.693253
0.694803 0.694803 0.694803
0.698827 0.698827 0.698827
0.707209 0.707209 0.707209
0.723691 0.723691 0.723691
0.735356 0.735356 0.735356
0.605164 0.605164 0.605164
0.638271 0.638271 0.638271
0.685093 0.685093 0.685093
0.689258 0.689258 0.689258
0.691538 0.691538 0.691538
0.695981 0.695981 0.695981
0.705033 0.705033 0.705033
0.722142 0.722142 0.722142
0.735356 0.735356 0.735356
0.606409 0.606409 0.606409
0.623242 0.623242 0.623242
0.662255 0.662255 0.662255
0.673532 0.673532 0.673532
0.678760 0.678760 0.678760
0.685165 0.685165 0.685165
0.696089 0.696089 0.696089
0.714356 0.714356 0.714356
0.735355 0.735355 0.735355
0.588613 0.588613 0.588613
0.597216 0.597216 0.597216
0.626644 0.626644 0.626644
0.647583 0.647583 0.647583
0.658049 0.658049 0.658049
0.667275 0.667275 0.667275
0.680614 0.680614 0.680614
0.701856 0.701856 0.701856
0.732713 0.732713 0.732713
0.571429 0.571429 0.571429
0.576104 0.576104 0.576104
0.593847 0.593847 0.593847
0.614534 0.614534 0.614534
0.630999 0.630999 0.630999
0.643601 0.643601 0.643601
0.659417 0.659417 0.659417
0.683795 0.683795 0.683795
0.725113 0.725113 0.725113
0.559282 0.559282 0.559282
0.562090 0.562090 0.562090
0.572656 0.572656 0.572656
0.587760 0.587760 0.587760
0.603829 0.603829 0.603829
0.620952 0.620952 0.620952
0.634729 0.634729 0.634729
0.659777 0.659777 0.659777
0.711192 0.711192 0.711192
0.551407 0.551407 0.551407
0.553142 0.553142 0.553142
0.560249 0.560249 0.560249
0.571395 0.571395 0.571395
0.584600 0.584600 0.584600
0.597726 0.597726 0.597726
0.610822 0.610822 0.610822
0.631080 0.631080 0.631080
0.691061 0.691061 0.691061
0.542794 0.542794 0.542794
0.543930 0.543930 0.543930
0.549335 0.549335 0.549335
0.557560 0.557560 0.557560
0.567980 0.567980 0.567980
0.579064 0.579064 0.579064
0.590020 0.590020 0.590020
0.602461 0.602461 0.602461
0.659501 0.659501 0.659501
0.515415 0.515415 0.515415
0.517792 0.517792 0.517792
0.526817 0.526817 0.526817
0.537784 0.537784 0.537784
0.547171 0.547171 0.547171
0.555956 0.555956 0.555956
0.563757 0.563757 0.563757
0.569842 0.569842 0.569842
0.625366 0.625366 0.625366
0.732642 0.732642 0.732642
0.756643 0.756643 0.756643
0.779731 0.779731 0.779731
0.782312 0.782312 0.782312
0.783704 0.783704 0.783704
0.785866 0.785866 0.785866
0.790365 0.790365 0.790365
0.798421 0.798421 0.798421
0.805317 0.805317 0.805317
0.734319 0.734319 0.734319
0.754883 0.754883 0.754883
0.777677 0.777677 0.777677
0.780932 0.780932 0.780932
0.782561 0.782561 0.782561
0.784869 0.784869 0.784869
0.789482 0.789482 0.789482
0.797740 0.797740 0.797740
0.804716 0.804716 0.804716
0.736706 0.736706 0.736706
0.748075 0.748075 0.748075
0.768026 0.768026 0.768026
0.774444 0.774444 0.774444
0.777596 0.777596 0.777596
0.780764 0.780764 0.780764
0.785881 0.785881 0.785881
0.794337 0.794337 0.794337
0.801983 0.801983 0.801983
0.724764 0.724764 0.724764
0.732185 0.732185 0.732185
0.751363 0.751363 0.751363
0.762623 0.762623 0.762623
0.768281 0.768281 0.768281
0.773266 0.773266 0.773266
0.779919 0.779919 0.779919
0.789443 0.789443 0.789443
0.805422 0.805422 0.805422
0.706486 0.706486 0.706486
0.711875 0.711875 0.711875
0.729043 0.729043 0.729043
0.744853 0.744853 0.744853
0.754953 0.754953 0.754953
0.762087 0.762087 0.762087
0.770321 0.770321 0.770321
0.782513 0.782513 0.782513
0.800483 0.800483 0.800483
0.688348 0.688348 0.688348
0.691873 0.691873 0.691873
0.705060 0.705060 0.705060
0.722094 0.722094 0.722094
0.736461 0.736461 0.736461
0.747101 0.747101 0.747101
0.757186 0.757186 0.757186
0.771827 0.771827 0.771827
0.795097 0.795097 0.795097
0.672266 0.672266 0.672266
0.674552 0.674552 0.674552
0.683492 0.683492 0.683492
0.697423 0.697423 0.697423
0.713072 0.713072 0.713072
0.726421 0.726421 0.726421
0.737280 0.737280 0.737280
0.754689 0.754689 0.754689
0.787873 0.787873 0.787873
0.656137 0.656137 0.656137
0.657549 0.657549 0.657549
0.663991 0.663991 0.663991
0.674055 0.674055 0.674055
0.686727 0.686727 0.686727
0.699773 0.699773 0.699773
0.712282 0.712282 0.712282
0.725658 0.725658 0.725658
0.774115 0.774115 0.774115
0.587864 0.587864 0.587864
0.587886 0.587886 0.587886
0.588467 0.588467 0.588467
0.643539 0.643539 0.643539
0.654195 0.654195 0.654195
0.664355 0.664355 0.664355
0.672948 0.672948 0.672948
0.678929 0.678929 0.678929
0.752641 0.752641 0.752641
0.842999 0.842999 0.842999
0.846947 0.846947 0.846947
0.852028 0.852028 0.852028
0.853018 0.853018 0.853018
0.853917 0.853917 0.853917
0.855307 0.855307 0.855307
0.857677 0.857677 0.857677
0.863331 0.863331 0.863331
0.862163 0.862163 0.862163
0.842626 0.842626 0.842626
0.846331 0.846331 0.846331
0.851553 0.851553 0.851553
0.852649 0.852649 0.852649
0.853601 0.853601 0.853601
0.855034 0.855034 0.855034
0.857457 0.857457 0.857457
0.863076 0.863076 0.863076
0.862163 0.862163 0.862163
0.841306 0.841306 0.841306
0.843856 0.843856 0.843856
0.848804 0.848804 0.848804
0.850598 0.850598 0.850598
0.851907 0.851907 0.851907
0.853600 0.853600 0.853600
0.856278 0.856278 0.856278
0.861647 0.861647 0.861647
0.862163 0.862163 0.862163
0.836746 0.836746 0.836746
0.839085 0.839085 0.839085
0.844518 0.844518 0.844518
0.847480 0.847480 0.847480
0.849431 0.849431 0.849431
0.851547 0.851547 0.851547
0.854641 0.854641 0.854641
0.859971 0.859971 0.859971
0.865809 0.865809 0.865809
0.828695 0.828695 0.828695
0.831256 0.831256 0.831256
0.837978 0.837978 0.837978
0.842876 0.842876 0.842876
0.846147 0.846147 0.846147
0.848900 0.848900 0.848900
0.852380 0.852380 0.852380
0.857977 0.857977 0.857977
0.864591 0.864591 0.864591
0.816706 0.816706 0.816706
0.819551 0.819551 0.819551
0.828113 0.828113 0.828113
0.835781 0.835781 0.835781
0.841198 0.841198 0.841198
0.845251 0.845251 0.845251
0.849327 0.849327 0.849327
0.855431 0.855431 0.855431
0.863574 0.863574 0.863574
0.799420 0.799420 0.799420
0.802004 0.802004 0.802004
0.811400 0.811400 0.811400
0.822849 0.822849 0.822849
0.832343 0.832343 0.832343
0.839053 0.839053 0.839053
0.844345 0.844345 0.844345
0.851565 0.851565 0.851565
0.862214 0.862214 0.862214
0.778800 0.778800 0.778800
0.780434 0.780434 0.780434
0.787486 0.787486 0.787486
0.798523 0.798523 0.798523
0.811679 0.811679 0.811679
0.823371 0.823371 0.823371
0.832466 0.832466 0.832466
0.837347 0.837347 0.837347
0.859258 0.859258 0.859258
0.712318 0.712318 0.712318
0.714608 0.714608 0.714608
0.729460 0.729460 0.729460
0.755978 0.755978 0.755978
0.767698 0.767698 0.767698
0.779691 0.779691 0.779691
0.788585 0.788585 0.788585
0.793701 0.793701 0.793701
0.849247 0.849247 0.849247
0.902719 0.902719 0.902719
0.902748 0.902748 0.902748
0.902854 0.902854 0.902854
0.903096 0.903096 0.903096
0.903439 0.903439 0.903439
0.903846 0.903846 0.903846
0.904609 0.904609 0.904609
0.905692 0.905692 0.905692
0.897594 0.897594 0.897594
0.902750 0.902750 0.902750
0.902778 0.902778 0.902778
0.902884 0.902884 0.902884
0.903128 0.903128 0.903128
0.903472 0.903472 0.903472
0.903889 0.903889 0.903889
0.904647 0.904647 0.904647
0.905723 0.905723 0.905723
0.901590 0.901590 0.901590
0.902725 0.902725 0.902725
0.902759 0.902759 0.902759
0.902883 0.902883 0.902883
0.903160 0.903160 0.903160
0.903527 0.903527 0.903527
0.903994 0.903994 0.903994
0.904747 0.904747 0.904747
0.905829 0.905829 0.905829
0.901590 0.901590 0.901590
0.902602 0.902602 0.902602
0.902658 0.902658 0.902658
0.902848 0.902848 0.902848
0.903189 0.903189 0.903189
0.903600 0.903600 0.903600
0.904123 0.904123 0.904123
0.904932 0.904932 0.904932
0.906036 0.906036 0.906036
0.906352 0.906352 0.906352
0.902632 0.902632 0.902632
0.902720 0.902720 0.902720
0.903008 0.903008 0.903008
0.903381 0.903381 0.903381
0.903879 0.903879 0.903879
0.904473 0.904473 0.904473
0.905289 0.905289 0.905289
0.906494 0.906494 0.906494
0.908324 0.908324 0.908324
0.902936 0.902936 0.902936
0.903062 0.903062 0.903062
0.903460 0.903460 0.903460
0.903939 0.903939 0.903939
0.904467 0.904467 0.904467
0.905105 0.905105 0.905105
0.905917 0.905917 0.905917
0.907100 0.907100 0.907100
0.908992 0.908992 0.908992
0.903581 0.903581 0.903581
0.903745 0.903745 0.903745
0.904231 0.904231 0.904231
0.904824 0.904824 0.904824
0.905444 0.905444 0.905444
0.906113 0.906113 0.906113
0.907014 0.907014 0.907014
0.908130 0.908130 0.908130
0.909952 0.909952 0.909952
0.902742 0.902742 0.902742
0.903479 0.903479 0.903479
0.904945 0.904945 0.904945
0.905986 0.905986 0.905986
0.906898 0.906898 0.906898
0.907682 0.907682 0.907682
0.908517 0.908517 0.908517
0.909588 0.909588 0.909588
0.911133 0.911133 0.911133
0.812465 0.812465 0.812465
0.848074 0.848074 0.848074
0.848075 0.848075 0.848075
0.848149 0.848149 0.848149
0.897907 0.897907 0.897907
0.908905 0.908905 0.908905
0.910606 0.910606 0.910606
0.911665 0.911665 0.911665
0.912373 0.912373 0.912373
