LUTs/trix_classic/TriX_Green58_Normal.cube
TITLE "Tri-X Green58 Normal"
# Adobe RGB in/out. REPLACES AgX. Tri-X Green58 Normal.
LUT_3D_SIZE 9
DOMAIN_MIN 0.0 0.0 0.0
DOMAIN_MAX 1.0 1.0 1.0
0.093230 0.093230 0.093230
0.093230 0.093230 0.093230
0.093371 0.093371 0.093371
0.095746 0.095746 0.095746
0.105831 0.105831 0.105831
0.127117 0.127117 0.127117
0.141815 0.141815 0.141815
0.106371 0.106371 0.106371
0.212834 0.212834 0.212834
0.095357 0.095357 0.095357
0.094379 0.094379 0.094379
0.095580 0.095580 0.095580
0.102260 0.102260 0.102260
0.119706 0.119706 0.119706
0.144954 0.144954 0.144954
0.158751 0.158751 0.158751
0.106380 0.106380 0.106380
0.212841 0.212841 0.212841
0.188047 0.188047 0.188047
0.178868 0.178868 0.178868
0.163839 0.163839 0.163839
0.174279 0.174279 0.174279
0.199237 0.199237 0.199237
0.230228 0.230228 0.230228
0.246991 0.246991 0.246991
0.111311 0.111311 0.111311
0.212842 0.212842 0.212842
0.352022 0.352022 0.352022
0.345651 0.345651 0.345651
0.331047 0.331047 0.331047
0.318881 0.318881 0.318881
0.324176 0.324176 0.324176
0.338264 0.338264 0.338264
0.355169 0.355169 0.355169
0.351372 0.351372 0.351372
0.212898 0.212898 0.212898
0.512175 0.512175 0.512175
0.506761 0.506761 0.506761
0.494280 0.494280 0.494280
0.478153 0.478153 0.478153
0.467485 0.467485 0.467485
0.471140 0.471140 0.471140
0.482293 0.482293 0.482293
0.488157 0.488157 0.488157
0.447670 0.447670 0.447670
0.667755 0.667755 0.667755
0.663344 0.663344 0.663344
0.652937 0.652937 0.652937
0.637297 0.637297 0.637297
0.623058 0.623058 0.623058
0.615733 0.615733 0.615733
0.619377 0.619377 0.619377
0.627215 0.627215 0.627215
0.611061 0.611061 0.611061
0.793756 0.793756 0.793756
0.791976 0.791976 0.791976
0.786411 0.786411 0.786411
0.777739 0.777739 0.777739
0.765782 0.765782 0.765782
0.756996 0.756996 0.756996
0.754458 0.754458 0.754458
0.758635 0.758635 0.758635
0.757251 0.757251 0.757251
0.884254 0.884254 0.884254
0.883137 0.883137 0.883137
0.875817 0.875817 0.875817
0.867601 0.867601 0.867601
0.859294 0.859294 0.859294
0.852891 0.852891 0.852891
0.850212 0.850212 0.850212
0.852460 0.852460 0.852460
0.855407 0.855407 0.855407
0.901694 0.901694 0.901694
0.901696 0.901696 0.901696
0.916890 0.916890 0.916890
0.917618 0.917618 0.917618
0.920603 0.920603 0.920603
0.916824 0.916824 0.916824
0.915184 0.915184 0.915184
0.916676 0.916676 0.916676
0.921798 0.921798 0.921798
0.093230 0.093230 0.093230
0.093246 0.093246 0.093246
0.093673 0.093673 0.093673
0.097920 0.097920 0.097920
0.109644 0.109644 0.109644
0.131068 0.131068 0.131068
0.145148 0.145148 0.145148
0.106379 0.106379 0.106379
0.212841 0.212841 0.212841
0.094952 0.094952 0.094952
0.097009 0.097009 0.097009
0.098210 0.098210 0.098210
0.107195 0.107195 0.107195
0.126744 0.126744 0.126744
0.149621 0.149621 0.149621
0.162191 0.162191 0.162191
0.106393 0.106393 0.106393
0.212842 0.212842 0.212842
0.180767 0.180767 0.180767
0.176813 0.176813 0.176813
0.170314 0.170314 0.170314
0.186958 0.186958 0.186958
0.210106 0.210106 0.210106
0.236291 0.236291 0.236291
0.250697 0.250697 0.250697
0.112901 0.112901 0.112901
0.212842 0.212842 0.212842
0.345910 0.345910 0.345910
0.341733 0.341733 0.341733
0.331590 0.331590 0.331590
0.323525 0.323525 0.323525
0.330456 0.330456 0.330456
0.343349 0.343349 0.343349
0.358140 0.358140 0.358140
0.353266 0.353266 0.353266
0.212859 0.212859 0.212859
0.505778 0.505778 0.505778
0.501742 0.501742 0.501742
0.491854 0.491854 0.491854
0.478763 0.478763 0.478763
0.470691 0.470691 0.470691
0.474562 0.474562 0.474562
0.485064 0.485064 0.485064
0.489560 0.489560 0.489560
0.449525 0.449525 0.449525
0.662434 0.662434 0.662434
0.658696 0.658696 0.658696
0.649692 0.649692 0.649692
0.635933 0.635933 0.635933
0.623499 0.623499 0.623499
0.617522 0.617522 0.617522
0.621351 0.621351 0.621351
0.628492 0.628492 0.628492
0.611975 0.611975 0.611975
0.791601 0.791601 0.791601
0.789941 0.789941 0.789941
0.784796 0.784796 0.784796
0.776375 0.776375 0.776375
0.765328 0.765328 0.765328
0.757349 0.757349 0.757349
0.755312 0.755312 0.755312
0.759492 0.759492 0.759492
0.757556 0.757556 0.757556
0.883069 0.883069 0.883069
0.881977 0.881977 0.881977
0.874578 0.874578 0.874578
0.866708 0.866708 0.866708
0.858801 0.858801 0.858801
0.852734 0.852734 0.852734
0.850325 0.850325 0.850325
0.852646 0.852646 0.852646
0.855344 0.855344 0.855344
0.905118 0.905118 0.905118
0.905120 0.905120 0.905120
0.920123 0.920123 0.920123
0.920123 0.920123 0.920123
0.920397 0.920397 0.920397
0.916632 0.916632 0.916632
0.915052 0.915052 0.915052
0.916573 0.916573 0.916573
0.921641 0.921641 0.921641
0.093268 0.093268 0.093268
0.093605 0.093605 0.093605
0.095005 0.095005 0.095005
0.102088 0.102088 0.102088
0.120257 0.120257 0.120257
0.145708 0.145708 0.145708
0.158319 0.158319 0.158319
0.108926 0.108926 0.108926
0.212842 0.212842 0.212842
0.096957 0.096957 0.096957
0.098558 0.098558 0.098558
0.102144 0.102144 0.102144
0.116714 0.116714 0.116714
0.141785 0.141785 0.141785
0.165483 0.165483 0.165483
0.176908 0.176908 0.176908
0.110093 0.110093 0.110093
0.212842 0.212842 0.212842
0.177869 0.177869 0.177869
0.178936 0.178936 0.178936
0.204394 0.204394 0.204394
0.203649 0.203649 0.203649
0.229673 0.229673 0.229673
0.255499 0.255499 0.255499
0.265751 0.265751 0.265751
0.155126 0.155126 0.155126
0.212842 0.212842 0.212842
0.338553 0.338553 0.338553
0.337386 0.337386 0.337386
0.333409 0.333409 0.333409
0.331396 0.331396 0.331396
0.344040 0.344040 0.344040
0.359909 0.359909 0.359909
0.370594 0.370594 0.370594
0.361498 0.361498 0.361498
0.212845 0.212845 0.212845
0.497822 0.497822 0.497822
0.495707 0.495707 0.495707
0.489885 0.489885 0.489885
0.482219 0.482219 0.482219
0.478692 0.478692 0.478692
0.486690 0.486690 0.486690
0.496746 0.496746 0.496746
0.496537 0.496537 0.496537
0.456778 0.456778 0.456778
0.653144 0.653144 0.653144
0.650813 0.650813 0.650813
0.644767 0.644767 0.644767
0.635478 0.635478 0.635478
0.627253 0.627253 0.627253
0.624301 0.624301 0.624301
0.629736 0.629736 0.629736
0.634956 0.634956 0.634956
0.615567 0.615567 0.615567
0.785230 0.785230 0.785230
0.784078 0.784078 0.784078
0.780482 0.780482 0.780482
0.773280 0.773280 0.773280
0.765053 0.765053 0.765053
0.759546 0.759546 0.759546
0.758972 0.758972 0.758972
0.763299 0.763299 0.763299
0.758906 0.758906 0.758906
0.873392 0.873392 0.873392
0.872464 0.872464 0.872464
0.868093 0.868093 0.868093
0.862672 0.862672 0.862672
0.856684 0.856684 0.856684
0.852024 0.852024 0.852024
0.850665 0.850665 0.850665
0.853255 0.853255 0.853255
0.855154 0.855154 0.855154
0.905120 0.905120 0.905120
0.920123 0.920123 0.920123
0.920123 0.920123 0.920123
0.920125 0.920125 0.920125
0.918924 0.918924 0.918924
0.915529 0.915529 0.915529
0.914267 0.914267 0.914267
0.915952 0.915952 0.915952
0.920926 0.920926 0.920926
0.094326 0.094326 0.094326
0.097564 0.097564 0.097564
0.101989 0.101989 0.101989
0.114371 0.114371 0.114371
0.140096 0.140096 0.140096
0.166157 0.166157 0.166157
0.181274 0.181274 0.181274
0.148029 0.148029 0.148029
0.212842 0.212842 0.212842
0.103401 0.103401 0.103401
0.108497 0.108497 0.108497
0.117143 0.117143 0.117143
0.135029 0.135029 0.135029
0.162319 0.162319 0.162319
0.188015 0.188015 0.188015
0.201162 0.201162 0.201162
0.160121 0.160121 0.160121
0.212842 0.212842 0.212842
0.198463 0.198463 0.198463
0.202424 0.202424 0.202424
0.208639 0.208639 0.208639
0.222285 0.222285 0.222285
0.248908 0.248908 0.248908
0.273429 0.273429 0.273429
0.281441 0.281441 0.281441
0.264630 0.264630 0.264630
0.212842 0.212842 0.212842
0.338413 0.338413 0.338413
0.339011 0.339011 0.339011
0.339240 0.339240 0.339240
0.357462 0.357462 0.357462
0.356743 0.356743 0.356743
0.372621 0.372621 0.372621
0.383152 0.383152 0.383152
0.374637 0.374637 0.374637
0.212861 0.212861 0.212861
0.493339 0.493339 0.493339
0.492404 0.492404 0.492404
0.490106 0.490106 0.490106
0.486578 0.486578 0.486578
0.486764 0.486764 0.486764
0.496838 0.496838 0.496838
0.506954 0.506954 0.506954
0.505393 0.505393 0.505393
0.469725 0.469725 0.469725
0.646166 0.646166 0.646166
0.644777 0.644777 0.644777
0.641275 0.641275 0.641275
0.635429 0.635429 0.635429
0.630793 0.630793 0.630793
0.630686 0.630686 0.630686
0.637830 0.637830 0.637830
0.641286 0.641286 0.641286
0.622901 0.622901 0.622901
0.780089 0.780089 0.780089
0.779293 0.779293 0.779293
0.776195 0.776195 0.776195
0.770762 0.770762 0.770762
0.765126 0.765126 0.765126
0.761942 0.761942 0.761942
0.762976 0.762976 0.762976
0.767198 0.767198 0.767198
0.762121 0.762121 0.762121
0.867096 0.867096 0.867096
0.866452 0.866452 0.866452
0.863610 0.863610 0.863610
0.859525 0.859525 0.859525
0.855072 0.855072 0.855072
0.851787 0.851787 0.851787
0.851351 0.851351 0.851351
0.854307 0.854307 0.854307
0.855677 0.855677 0.855677
0.912553 0.912553 0.912553
0.921256 0.921256 0.921256
0.921258 0.921258 0.921258
0.923965 0.923965 0.923965
0.916234 0.916234 0.916234
0.913893 0.913893 0.913893
0.913258 0.913258 0.913258
0.915149 0.915149 0.915149
0.920321 0.920321 0.920321
0.101205 0.101205 0.101205
0.107063 0.107063 0.107063
0.124271 0.124271 0.124271
0.143736 0.143736 0.143736
0.168568 0.168568 0.168568
0.197384 0.197384 0.197384
0.212948 0.212948 0.212948
0.188451 0.188451 0.188451
0.212842 0.212842 0.212842
0.117591 0.117591 0.117591
0.128169 0.128169 0.128169
0.147136 0.147136 0.147136
0.166312 0.166312 0.166312
0.192656 0.192656 0.192656
0.218194 0.218194 0.218194
0.231731 0.231731 0.231731
0.205025 0.205025 0.205025
0.212843 0.212843 0.212843
0.223514 0.223514 0.223514
0.228900 0.228900 0.228900
0.240267 0.240267 0.240267
0.254108 0.254108 0.254108
0.273648 0.273648 0.273648
0.292320 0.292320 0.292320
0.301305 0.301305 0.301305
0.290698 0.290698 0.290698
0.212847 0.212847 0.212847
0.353630 0.353630 0.353630
0.355075 0.355075 0.355075
0.358772 0.358772 0.358772
0.363011 0.363011 0.363011
0.372607 0.372607 0.372607
0.388860 0.388860 0.388860
0.399631 0.399631 0.399631
0.392796 0.392796 0.392796
0.297543 0.297543 0.297543
0.495448 0.495448 0.495448
0.495490 0.495490 0.495490
0.495482 0.495482 0.495482
0.494918 0.494918 0.494918
0.508013 0.508013 0.508013
0.508810 0.508810 0.508810
0.518891 0.518891 0.518891
0.517896 0.517896 0.517896
0.486764 0.486764 0.486764
0.645101 0.645101 0.645101
0.644279 0.644279 0.644279
0.642413 0.642413 0.642413
0.639005 0.639005 0.639005
0.637038 0.637038 0.637038
0.638940 0.638940 0.638940
0.646789 0.646789 0.646789
0.649859 0.649859 0.649859
0.633844 0.633844 0.633844
0.777956 0.777956 0.777956
0.777202 0.777202 0.777202
0.774836 0.774836 0.774836
0.771013 0.771013 0.771013
0.767271 0.767271 0.767271
0.765814 0.765814 0.765814
0.768094 0.768094 0.768094
0.772057 0.772057 0.772057
0.767808 0.767808 0.767808
0.864538 0.864538 0.864538
0.863983 0.863983 0.863983
0.861582 0.861582 0.861582
0.858330 0.858330 0.858330
0.854873 0.854873 0.854873
0.852619 0.852619 0.852619
0.852958 0.852958 0.852958
0.856344 0.856344 0.856344
0.857691 0.857691 0.857691
0.914914 0.914914 0.914914
0.916185 0.916185 0.916185
0.919193 0.919193 0.919193
0.918251 0.918251 0.918251
0.915363 0.915363 0.915363
0.913527 0.913527 0.913527
0.913173 0.913173 0.913173
0.915257 0.915257 0.915257
0.921218 0.921218 0.921218
0.123653 0.123653 0.123653
0.131268 0.131268 0.131268
0.162523 0.162523 0.162523
0.182925 0.182925 0.182925
0.208754 0.208754 0.208754
0.232623 0.232623 0.232623
0.248595 0.248595 0.248595
0.231035 0.231035 0.231035
0.212842 0.212842 0.212842
0.145612 0.145612 0.145612
0.153875 0.153875 0.153875
0.185178 0.185178 0.185178
0.205125 0.205125 0.205125
0.229334 0.229334 0.229334
0.252727 0.252727 0.252727
0.267334 0.267334 0.267334
0.247808 0.247808 0.247808
0.212843 0.212843 0.212843
0.256222 0.256222 0.256222
0.260682 0.260682 0.260682
0.275585 0.275585 0.275585
0.285443 0.285443 0.285443
0.300134 0.300134 0.300134
0.315059 0.315059 0.315059
0.324674 0.324674 0.324674
0.316966 0.316966 0.316966
0.212847 0.212847 0.212847
0.372879 0.372879 0.372879
0.374371 0.374371 0.374371
0.380902 0.380902 0.380902
0.386595 0.386595 0.386595
0.396503 0.396503 0.396503
0.408693 0.408693 0.408693
0.419580 0.419580 0.419580
0.414459 0.414459 0.414459
0.331964 0.331964 0.331964
0.508587 0.508587 0.508587
0.508873 0.508873 0.508873
0.511005 0.511005 0.511005
0.512339 0.512339 0.512339
0.516230 0.516230 0.516230
0.523604 0.523604 0.523604
0.533249 0.533249 0.533249
0.532902 0.532902 0.532902
0.506173 0.506173 0.506173
0.650230 0.650230 0.650230
0.649846 0.649846 0.649846
0.649025 0.649025 0.649025
0.647209 0.647209 0.647209
0.646931 0.646931 0.646931
0.654911 0.654911 0.654911
0.658149 0.658149 0.658149
0.661277 0.661277 0.661277
0.647292 0.647292 0.647292
0.779812 0.779812 0.779812
0.779350 0.779350 0.779350
0.777779 0.777779 0.777779
0.774923 0.774923 0.774923
0.772400 0.772400 0.772400
0.772031 0.772031 0.772031
0.775134 0.775134 0.775134
0.778853 0.778853 0.778853
0.775531 0.775531 0.775531
0.865445 0.865445 0.865445
0.864938 0.864938 0.864938
0.862736 0.862736 0.862736
0.859825 0.859825 0.859825
0.856936 0.856936 0.856936
0.855328 0.855328 0.855328
0.856182 0.856182 0.856182
0.859788 0.859788 0.859788
0.861338 0.861338 0.861338
0.915743 0.915743 0.915743
0.916858 0.916858 0.916858
0.919395 0.919395 0.919395
0.918909 0.918909 0.918909
0.916096 0.916096 0.916096
0.914503 0.914503 0.914503
0.914410 0.914410 0.914410
0.916551 0.916551 0.916551
0.922993 0.922993 0.922993
0.163461 0.163461 0.163461
0.168429 0.168429 0.168429
0.205708 0.205708 0.205708
0.224815 0.224815 0.224815
0.248838 0.248838 0.248838
0.271519 0.271519 0.271519
0.280960 0.280960 0.280960
0.269791 0.269791 0.269791
0.212829 0.212829 0.212829
0.185258 0.185258 0.185258
0.190861 0.190861 0.190861
0.225517 0.225517 0.225517
0.244151 0.244151 0.244151
0.267814 0.267814 0.267814
0.285057 0.285057 0.285057
0.294589 0.294589 0.294589
0.282462 0.282462 0.282462
0.212824 0.212824 0.212824
0.283596 0.283596 0.283596
0.286006 0.286006 0.286006
0.300380 0.300380 0.300380
0.310976 0.310976 0.310976
0.325407 0.325407 0.325407
0.339709 0.339709 0.339709
0.348662 0.348662 0.348662
0.341874 0.341874 0.341874
0.212710 0.212710 0.212710
0.395966 0.395966 0.395966
0.397082 0.397082 0.397082
0.404327 0.404327 0.404327
0.410871 0.410871 0.410871
0.421129 0.421129 0.421129
0.432425 0.432425 0.432425
0.439743 0.439743 0.439743
0.435353 0.435353 0.435353
0.382218 0.382218 0.382218
0.526036 0.526036 0.526036
0.526340 0.526340 0.526340
0.529019 0.529019 0.529019
0.531200 0.531200 0.531200
0.535708 0.535708 0.535708
0.543139 0.543139 0.543139
0.549304 0.549304 0.549304
0.548776 0.548776 0.548776
0.524431 0.524431 0.524431
0.662851 0.662851 0.662851
0.662622 0.662622 0.662622
0.662654 0.662654 0.662654
0.662079 0.662079 0.662079
0.662671 0.662671 0.662671
0.666518 0.666518 0.666518
0.671435 0.671435 0.671435
0.673480 0.673480 0.673480
0.660547 0.660547 0.660547
0.785097 0.785097 0.785097
0.784702 0.784702 0.784702
0.783494 0.783494 0.783494
0.781683 0.781683 0.781683
0.780354 0.780354 0.780354
0.780537 0.780537 0.780537
0.782937 0.782937 0.782937
0.785306 0.785306 0.785306
0.782563 0.782563 0.782563
0.870171 0.870171 0.870171
0.869642 0.869642 0.869642
0.867283 0.867283 0.867283
0.864386 0.864386 0.864386
0.861661 0.861661 0.861661
0.860270 0.860270 0.860270
0.861370 0.861370 0.861370
0.864903 0.864903 0.864903
0.866122 0.866122 0.866122
0.915628 0.915628 0.915628
0.917799 0.917799 0.917799
0.920609 0.920609 0.920609
0.921932 0.921932 0.921932
0.918417 0.918417 0.918417
0.916875 0.916875 0.916875
0.916872 0.916872 0.916872
0.919062 0.919062 0.919062
0.925589 0.925589 0.925589
0.210186 0.210186 0.210186
0.212618 0.212618 0.212618
0.237432 0.237432 0.237432
0.257778 0.257778 0.257778
0.278097 0.278097 0.278097
0.294178 0.294178 0.294178
0.302223 0.302223 0.302223
0.286971 0.286971 0.286971
0.222955 0.222955 0.222955
0.229028 0.229028 0.229028
0.231563 0.231563 0.231563
0.256012 0.256012 0.256012
0.274472 0.274472 0.274472
0.291149 0.291149 0.291149
0.307048 0.307048 0.307048
0.314909 0.314909 0.314909
0.299741 0.299741 0.299741
0.226226 0.226226 0.226226
0.312410 0.312410 0.312410
0.313491 0.313491 0.313491
0.324316 0.324316 0.324316
0.334919 0.334919 0.334919
0.348956 0.348956 0.348956
0.363063 0.363063 0.363063
0.370391 0.370391 0.370391
0.358251 0.358251 0.358251
0.261458 0.261458 0.261458
0.419079 0.419079 0.419079
0.419479 0.419479 0.419479
0.425291 0.425291 0.425291
0.431372 0.431372 0.431372
0.440990 0.440990 0.440990
0.451536 0.451536 0.451536
0.457538 0.457538 0.457538
0.449394 0.449394 0.449394
0.399031 0.399031 0.399031
0.544417 0.544417 0.544417
0.544346 0.544346 0.544346
0.546482 0.546482 0.546482
0.548648 0.548648 0.548648
0.553686 0.553686 0.553686
0.560880 0.560880 0.560880
0.565833 0.565833 0.565833
0.561031 0.561031 0.561031
0.533835 0.533835 0.533835
0.677882 0.677882 0.677882
0.677589 0.677589 0.677589
0.677604 0.677604 0.677604
0.676904 0.676904 0.676904
0.677701 0.677701 0.677701
0.681430 0.681430 0.681430
0.685196 0.685196 0.685196
0.683614 0.683614 0.683614
0.668356 0.668356 0.668356
0.793235 0.793235 0.793235
0.792858 0.792858 0.792858
0.791654 0.791654 0.791654
0.789914 0.789914 0.789914
0.788548 0.788548 0.788548
0.788930 0.788930 0.788930
0.791074 0.791074 0.791074
0.792171 0.792171 0.792171
0.786850 0.786850 0.786850
0.879657 0.879657 0.879657
0.879031 0.879031 0.879031
0.875703 0.875703 0.875703
0.872075 0.872075 0.872075
0.868958 0.868958 0.868958
0.867556 0.867556 0.867556
0.868606 0.868606 0.868606
0.869617 0.869617 0.869617
0.870738 0.870738 0.870738
0.914480 0.914480 0.914480
0.920518 0.920518 0.920518
0.921425 0.921425 0.921425
0.924761 0.924761 0.924761
0.922606 0.922606 0.922606
0.920861 0.920861 0.920861
0.920759 0.920759 0.920759
0.922787 0.922787 0.922787
0.928732 0.928732 0.928732
0.204696 0.204696 0.204696
0.207866 0.207866 0.207866
0.220396 0.220396 0.220396
0.241567 0.241567 0.241567
0.265957 0.265957 0.265957
0.281521 0.281521 0.281521
0.283019 0.283019 0.283019
0.234346 0.234346 0.234346
0.226351 0.226351 0.226351
0.220751 0.220751 0.220751
0.223989 0.223989 0.223989
0.236735 0.236735 0.236735
0.258213 0.258213 0.258213
0.279465 0.279465 0.279465
0.293951 0.293951 0.293951
0.295175 0.295175 0.295175
0.247142 0.247142 0.247142
0.231616 0.231616 0.231616
0.295271 0.295271 0.295271
0.297492 0.297492 0.297492
0.306059 0.306059 0.306059
0.320450 0.320450 0.320450
0.336669 0.336669 0.336669
0.349865 0.349865 0.349865
0.350243 0.350243 0.350243
0.307514 0.307514 0.307514
0.231644 0.231644 0.231644
0.417816 0.417816 0.417816
0.419088 0.419088 0.419088
0.424064 0.424064 0.424064
0.433037 0.433037 0.433037
0.444030 0.444030 0.444030
0.452910 0.452910 0.452910
0.452751 0.452751 0.452751
0.424348 0.424348 0.424348
0.359535 0.359535 0.359535
0.551589 0.551589 0.551589
0.551950 0.551950 0.551950
0.553649 0.553649 0.553649
0.558469 0.558469 0.558469
0.565674 0.565674 0.565674
0.571739 0.571739 0.571739
0.571421 0.571421 0.571421
0.550909 0.550909 0.550909
0.474791 0.474791 0.474791
0.688218 0.688218 0.688218
0.687958 0.687958 0.687958
0.687368 0.687368 0.687368
0.688675 0.688675 0.688675
0.692407 0.692407 0.692407
0.696374 0.696374 0.696374
0.696620 0.696620 0.696620
0.683964 0.683964 0.683964
0.629865 0.629865 0.629865
0.801587 0.801587 0.801587
0.801154 0.801154 0.801154
0.799696 0.799696 0.799696
0.798440 0.798440 0.798440
0.799033 0.799033 0.799033
0.801060 0.801060 0.801060
0.802360 0.802360 0.802360
0.797641 0.797641 0.797641
0.770731 0.770731 0.770731
0.883963 0.883963 0.883963
0.883582 0.883582 0.883582
0.881878 0.881878 0.881878
0.879181 0.879181 0.879181
0.876925 0.876925 0.876925
0.877160 0.877160 0.877160
0.879486 0.879486 0.879486
0.879907 0.879907 0.879907
0.864661 0.864661 0.864661
0.912504 0.912504 0.912504
0.921484 0.921484 0.921484
0.921484 0.921484 0.921484
0.922403 0.922403 0.922403
0.928666 0.928666 0.928666
0.926316 0.926316 0.926316
0.926152 0.926152 0.926152
0.928283 0.928283 0.928283
0.932292 0.932292 0.932292
