LUTs/trix_classic/TriX_Yellow8_ExtraPunchy.cube
TITLE "Tri-X Yellow8 ExtraPunchy"
# Adobe RGB in/out. REPLACES AgX. Tri-X Yellow8 ExtraPunchy.
LUT_3D_SIZE 33
DOMAIN_MIN 0.0 0.0 0.0
DOMAIN_MAX 1.0 1.0 1.0
0.092237 0.092237 0.092237
0.092237 0.092237 0.092237
0.092237 0.092237 0.092237
0.092237 0.092237 0.092237
0.092237 0.092237 0.092237
0.092237 0.092237 0.092237
0.092237 0.092237 0.092237
0.092237 0.092237 0.092237
0.092454 0.092454 0.092454
0.092850 0.092850 0.092850
0.095046 0.095046 0.095046
0.098648 0.098648 0.098648
0.104032 0.104032 0.104032
0.117091 0.117091 0.117091
0.145076 0.145076 0.145076
0.172485 0.172485 0.172485
0.203291 0.203291 0.203291
0.242825 0.242825 0.242825
0.290704 0.290704 0.290704
0.334975 0.334975 0.334975
0.382029 0.382029 0.382029
0.430927 0.430927 0.430927
0.484005 0.484005 0.484005
0.538966 0.538966 0.538966
0.585687 0.585687 0.585687
0.631861 0.631861 0.631861
0.685341 0.685341 0.685341
0.717868 0.717868 0.717868
0.776211 0.776211 0.776211
0.776188 0.776188 0.776188
0.776187 0.776187 0.776187
0.776188 0.776188 0.776188
0.846131 0.846131 0.846131
0.092237 0.092237 0.092237
0.092237 0.092237 0.092237
0.092237 0.092237 0.092237
0.092237 0.092237 0.092237
0.092237 0.092237 0.092237
0.092237 0.092237 0.092237
0.092237 0.092237 0.092237
0.092237 0.092237 0.092237
0.092515 0.092515 0.092515
0.092984 0.092984 0.092984
0.095348 0.095348 0.095348
0.099110 0.099110 0.099110
0.104521 0.104521 0.104521
0.117940 0.117940 0.117940
0.145971 0.145971 0.145971
0.173233 0.173233 0.173233
0.203928 0.203928 0.203928
0.243358 0.243358 0.243358
0.291145 0.291145 0.291145
0.335302 0.335302 0.335302
0.382293 0.382293 0.382293
0.431174 0.431174 0.431174
0.484242 0.484242 0.484242
0.539164 0.539164 0.539164
0.585903 0.585903 0.585903
0.632093 0.632093 0.632093
0.685489 0.685489 0.685489
0.718047 0.718047 0.718047
0.776211 0.776211 0.776211
0.776188 0.776188 0.776188
0.776187 0.776187 0.776187
0.776188 0.776188 0.776188
0.846132 0.846132 0.846132
0.092237 0.092237 0.092237
0.092237 0.092237 0.092237
0.092237 0.092237 0.092237
0.092237 0.092237 0.092237
0.092237 0.092237 0.092237
0.092237 0.092237 0.092237
0.092237 0.092237 0.092237
0.092572 0.092572 0.092572
0.092750 0.092750 0.092750
0.093598 0.093598 0.093598
0.096501 0.096501 0.096501
0.100872 0.100872 0.100872
0.106735 0.106735 0.106735
0.121182 0.121182 0.121182
0.149382 0.149382 0.149382
0.176074 0.176074 0.176074
0.206345 0.206345 0.206345
0.245372 0.245372 0.245372
0.292807 0.292807 0.292807
0.336534 0.336534 0.336534
0.383282 0.383282 0.383282
0.432095 0.432095 0.432095
0.485119 0.485119 0.485119
0.539892 0.539892 0.539892
0.586699 0.586699 0.586699
0.632943 0.632943 0.632943
0.686037 0.686037 0.686037
0.718703 0.718703 0.718703
0.776213 0.776213 0.776213
0.776188 0.776188 0.776188
0.776187 0.776187 0.776187
0.776189 0.776189 0.776189
0.846134 0.846134 0.846134
0.092237 0.092237 0.092237
0.092237 0.092237 0.092237
0.092237 0.092237 0.092237
0.092237 0.092237 0.092237
0.092237 0.092237 0.092237
0.092237 0.092237 0.092237
0.092348 0.092348 0.092348
0.093028 0.093028 0.093028
0.093625 0.093625 0.093625
0.094724 0.094724 0.094724
0.099999 0.099999 0.099999
0.104838 0.104838 0.104838
0.112096 0.112096 0.112096
0.128050 0.128050 0.128050
0.156567 0.156567 0.156567
0.182005 0.182005 0.182005
0.211365 0.211365 0.211365
0.249531 0.249531 0.249531
0.296206 0.296206 0.296206
0.339049 0.339049 0.339049
0.385285 0.385285 0.385285
0.433934 0.433934 0.433934
0.486850 0.486850 0.486850
0.541319 0.541319 0.541319
0.588247 0.588247 0.588247
0.634590 0.634590 0.634590
0.687111 0.687111 0.687111
0.719973 0.719973 0.719973
0.776218 0.776218 0.776218
0.776189 0.776189 0.776189
0.776187 0.776187 0.776187
0.776192 0.776192 0.776192
0.846135 0.846135 0.846135
0.092237 0.092237 0.092237
0.092237 0.092237 0.092237
0.092237 0.092237 0.092237
0.092237 0.092237 0.092237
0.092237 0.092237 0.092237
0.092237 0.092237 0.092237
0.092588 0.092588 0.092588
0.093905 0.093905 0.093905
0.094573 0.094573 0.094573
0.097095 0.097095 0.097095
0.104929 0.104929 0.104929
0.112205 0.112205 0.112205
0.122118 0.122118 0.122118
0.139527 0.139527 0.139527
0.170033 0.170033 0.170033
0.192985 0.192985 0.192985
0.220530 0.220530 0.220530
0.257046 0.257046 0.257046
0.302255 0.302255 0.302255
0.343512 0.343512 0.343512
0.388795 0.388795 0.388795
0.437082 0.437082 0.437082
0.489755 0.489755 0.489755
0.543681 0.543681 0.543681
0.590779 0.590779 0.590779
0.637272 0.637272 0.637272
0.688888 0.688888 0.688888
0.722044 0.722044 0.722044
0.776226 0.776226 0.776226
0.776190 0.776190 0.776190
0.776188 0.776188 0.776188
0.776223 0.776223 0.776223
0.846135 0.846135 0.846135
0.092237 0.092237 0.092237
0.092237 0.092237 0.092237
0.092237 0.092237 0.092237
0.092237 0.092237 0.092237
0.092237 0.092237 0.092237
0.092316 0.092316 0.092316
0.092819 0.092819 0.092819
0.094784 0.094784 0.094784
0.096326 0.096326 0.096326
0.100338 0.100338 0.100338
0.111715 0.111715 0.111715
0.123430 0.123430 0.123430
0.135066 0.135066 0.135066
0.154291 0.154291 0.154291
0.183903 0.183903 0.183903
0.206940 0.206940 0.206940
0.234115 0.234115 0.234115
0.270101 0.270101 0.270101
0.312754 0.312754 0.312754
0.351223 0.351223 0.351223
0.394757 0.394757 0.394757
0.442262 0.442262 0.442262
0.494402 0.494402 0.494402
0.547384 0.547384 0.547384
0.594679 0.594679 0.594679
0.641343 0.641343 0.641343
0.691666 0.691666 0.691666
0.725162 0.725162 0.725162
0.776243 0.776243 0.776243
0.776192 0.776192 0.776192
0.776188 0.776188 0.776188
0.846102 0.846102 0.846102
0.846135 0.846135 0.846135
0.092267 0.092267 0.092267
0.092274 0.092274 0.092274
0.092343 0.092343 0.092343
0.092462 0.092462 0.092462
0.092632 0.092632 0.092632
0.092840 0.092840 0.092840
0.093651 0.093651 0.093651
0.096739 0.096739 0.096739
0.098386 0.098386 0.098386
0.103487 0.103487 0.103487
0.120420 0.120420 0.120420
0.135259 0.135259 0.135259
0.148758 0.148758 0.148758
0.170109 0.170109 0.170109
0.201903 0.201903 0.201903
0.225896 0.225896 0.225896
0.249504 0.249504 0.249504
0.282944 0.282944 0.282944
0.324712 0.324712 0.324712
0.361879 0.361879 0.361879
0.404277 0.404277 0.404277
0.450888 0.450888 0.450888
0.501856 0.501856 0.501856
0.553158 0.553158 0.553158
0.600610 0.600610 0.600610
0.646624 0.646624 0.646624
0.695960 0.695960 0.695960
0.728745 0.728745 0.728745
0.776287 0.776287 0.776287
0.776196 0.776196 0.776196
0.776190 0.776190 0.776190
0.846133 0.846133 0.846133
0.846135 0.846135 0.846135
0.093209 0.093209 0.093209
0.093225 0.093225 0.093225
0.093423 0.093423 0.093423
0.093720 0.093720 0.093720
0.094169 0.094169 0.094169
0.095133 0.095133 0.095133
0.096899 0.096899 0.096899
0.100179 0.100179 0.100179
0.102050 0.102050 0.102050
0.108311 0.108311 0.108311
0.130390 0.130390 0.130390
0.146854 0.146854 0.146854
0.162505 0.162505 0.162505
0.186094 0.186094 0.186094
0.220902 0.220902 0.220902
0.243918 0.243918 0.243918
0.268019 0.268019 0.268019
0.300792 0.300792 0.300792
0.341124 0.341124 0.341124
0.374711 0.374711 0.374711
0.414540 0.414540 0.414540
0.460308 0.460308 0.460308
0.511202 0.511202 0.511202
0.561321 0.561321 0.561321
0.609777 0.609777 0.609777
0.654660 0.654660 0.654660
0.702705 0.702705 0.702705
0.734436 0.734436 0.734436
0.776468 0.776468 0.776468
0.776211 0.776211 0.776211
0.776196 0.776196 0.776196
0.846135 0.846135 0.846135
0.846135 0.846135 0.846135
0.094263 0.094263 0.094263
0.094273 0.094273 0.094273
0.094383 0.094383 0.094383
0.094780 0.094780 0.094780
0.095690 0.095690 0.095690
0.096862 0.096862 0.096862
0.099042 0.099042 0.099042
0.102353 0.102353 0.102353
0.107315 0.107315 0.107315
0.115914 0.115914 0.115914
0.142028 0.142028 0.142028
0.160344 0.160344 0.160344
0.176701 0.176701 0.176701
0.201572 0.201572 0.201572
0.239395 0.239395 0.239395
0.263590 0.263590 0.263590
0.288400 0.288400 0.288400
0.319749 0.319749 0.319749
0.359332 0.359332 0.359332
0.391872 0.391872 0.391872
0.430436 0.430436 0.430436
0.473623 0.473623 0.473623
0.522118 0.522118 0.522118
0.570240 0.570240 0.570240
0.618137 0.618137 0.618137
0.662952 0.662952 0.662952
0.711332 0.711332 0.711332
0.743236 0.743236 0.743236
0.781769 0.781769 0.781769
0.776396 0.776396 0.776396
0.776235 0.776235 0.776235
0.846135 0.846135 0.846135
0.846135 0.846135 0.846135
0.097379 0.097379 0.097379
0.097397 0.097397 0.097397
0.097571 0.097571 0.097571
0.098555 0.098555 0.098555
0.099998 0.099998 0.099998
0.102005 0.102005 0.102005
0.104598 0.104598 0.104598
0.109367 0.109367 0.109367
0.116746 0.116746 0.116746
0.128224 0.128224 0.128224
0.157442 0.157442 0.157442
0.175742 0.175742 0.175742
0.191681 0.191681 0.191681
0.217799 0.217799 0.217799
0.258195 0.258195 0.258195
0.283731 0.283731 0.283731
0.308150 0.308150 0.308150
0.339885 0.339885 0.339885
0.381161 0.381161 0.381161
0.411985 0.411985 0.411985
0.446909 0.446909 0.446909
0.489894 0.489894 0.489894
0.537023 0.537023 0.537023
0.583052 0.583052 0.583052
0.629741 0.629741 0.629741
0.672469 0.672469 0.672469
0.719909 0.719909 0.719909
0.749423 0.749423 0.749423
0.782231 0.782231 0.782231
0.807607 0.807607 0.807607
0.826439 0.826439 0.826439
0.846136 0.846136 0.846136
0.846135 0.846135 0.846135
0.108535 0.108535 0.108535
0.108588 0.108588 0.108588
0.109035 0.109035 0.109035
0.111189 0.111189 0.111189
0.113991 0.113991 0.113991
0.118166 0.118166 0.118166
0.124997 0.124997 0.124997
0.133325 0.133325 0.133325
0.144275 0.144275 0.144275
0.158720 0.158720 0.158720
0.175759 0.175759 0.175759
0.193260 0.193260 0.193260
0.209174 0.209174 0.209174
0.235747 0.235747 0.235747
0.278029 0.278029 0.278029
0.303040 0.303040 0.303040
0.328003 0.328003 0.328003
0.361109 0.361109 0.361109
0.404505 0.404505 0.404505
0.433272 0.433272 0.433272
0.468039 0.468039 0.468039
0.510180 0.510180 0.510180
0.553325 0.553325 0.553325
0.597484 0.597484 0.597484
0.643831 0.643831 0.643831
0.685585 0.685585 0.685585
0.729798 0.729798 0.729798
0.757813 0.757813 0.757813
0.789609 0.789609 0.789609
0.812070 0.812070 0.812070
0.828088 0.828088 0.828088
0.846136 0.846136 0.846136
0.846137 0.846137 0.846137
0.124332 0.124332 0.124332
0.124411 0.124411 0.124411
0.125002 0.125002 0.125002
0.127570 0.127570 0.127570
0.130827 0.130827 0.130827
0.135789 0.135789 0.135789
0.143243 0.143243 0.143243
0.152587 0.152587 0.152587
0.164277 0.164277 0.164277
0.178280 0.178280 0.178280
0.194678 0.194678 0.194678
0.214421 0.214421 0.214421
0.228985 0.228985 0.228985
0.256188 0.256188 0.256188
0.298569 0.298569 0.298569
0.322938 0.322938 0.322938
0.348878 0.348878 0.348878
0.383452 0.383452 0.383452
0.427931 0.427931 0.427931
0.456786 0.456786 0.456786
0.492157 0.492157 0.492157
0.531020 0.531020 0.531020
0.573645 0.573645 0.573645
0.616118 0.616118 0.616118
0.657858 0.657858 0.657858
0.698458 0.698458 0.698458
0.739232 0.739232 0.739232
0.768430 0.768430 0.768430
0.800054 0.800054 0.800054
0.818650 0.818650 0.818650
0.832257 0.832257 0.832257
0.846137 0.846137 0.846137
0.846139 0.846139 0.846139
0.142199 0.142199 0.142199
0.142283 0.142283 0.142283
0.142866 0.142866 0.142866
0.145252 0.145252 0.145252
0.149407 0.149407 0.149407
0.155192 0.155192 0.155192
0.162338 0.162338 0.162338
0.171451 0.171451 0.171451
0.182781 0.182781 0.182781
0.196085 0.196085 0.196085
0.212190 0.212190 0.212190
0.230602 0.230602 0.230602
0.252345 0.252345 0.252345
0.278864 0.278864 0.278864
0.321095 0.321095 0.321095
0.345482 0.345482 0.345482
0.371288 0.371288 0.371288
0.406919 0.406919 0.406919
0.452545 0.452545 0.452545
0.481847 0.481847 0.481847
0.516550 0.516550 0.516550
0.554832 0.554832 0.554832
0.597219 0.597219 0.597219
0.636297 0.636297 0.636297
0.674751 0.674751 0.674751
0.715292 0.715292 0.715292
0.749787 0.749787 0.749787
0.778266 0.778266 0.778266
0.808041 0.808041 0.808041
0.826516 0.826516 0.826516
0.845828 0.845828 0.845828
0.846154 0.846154 0.846154
0.846151 0.846151 0.846151
0.170591 0.170591 0.170591
0.170681 0.170681 0.170681
0.171229 0.171229 0.171229
0.173282 0.173282 0.173282
0.178162 0.178162 0.178162
0.183374 0.183374 0.183374
0.190416 0.190416 0.190416
0.199798 0.199798 0.199798
0.211465 0.211465 0.211465
0.224932 0.224932 0.224932
0.240915 0.240915 0.240915
0.259617 0.259617 0.259617
0.280657 0.280657 0.280657
0.303794 0.303794 0.303794
0.345638 0.345638 0.345638
0.370176 0.370176 0.370176
0.395422 0.395422 0.395422
0.430670 0.430670 0.430670
0.477720 0.477720 0.477720
0.508303 0.508303 0.508303
0.541801 0.541801 0.541801
0.580676 0.580676 0.580676
0.621922 0.621922 0.621922
0.657586 0.657586 0.657586
0.694130 0.694130 0.694130
0.730686 0.730686 0.730686
0.761985 0.761985 0.761985
0.790745 0.790745 0.790745
0.815541 0.815541 0.815541
0.833498 0.833498 0.833498
0.851896 0.851896 0.851896
0.868088 0.868088 0.868088
0.880673 0.880673 0.880673
0.210654 0.210654 0.210654
0.210777 0.210777 0.210777
0.211417 0.211417 0.211417
0.213497 0.213497 0.213497
0.219282 0.219282 0.219282
0.224381 0.224381 0.224381
0.232667 0.232667 0.232667
0.242589 0.242589 0.242589
0.254705 0.254705 0.254705
0.269087 0.269087 0.269087
0.285951 0.285951 0.285951
0.303898 0.303898 0.303898
0.324400 0.324400 0.324400
0.347430 0.347430 0.347430
0.373376 0.373376 0.373376
0.396631 0.396631 0.396631
0.421958 0.421958 0.421958
0.457344 0.457344 0.457344
0.505028 0.505028 0.505028
0.534471 0.534471 0.534471
0.568462 0.568462 0.568462
0.608237 0.608237 0.608237
0.648224 0.648224 0.648224
0.680587 0.680587 0.680587
0.715274 0.715274 0.715274
0.745859 0.745859 0.745859
0.775645 0.775645 0.775645
0.803262 0.803262 0.803262
0.823823 0.823823 0.823823
0.842421 0.842421 0.842421
0.860162 0.860162 0.860162
0.874200 0.874200 0.874200
0.882199 0.882199 0.882199
0.242901 0.242901 0.242901
0.243019 0.243019 0.243019
0.243605 0.243605 0.243605
0.245412 0.245412 0.245412
0.250213 0.250213 0.250213
0.256070 0.256070 0.256070
0.265057 0.265057 0.265057
0.273661 0.273661 0.273661
0.285273 0.285273 0.285273
0.298852 0.298852 0.298852
0.313953 0.313953 0.313953
0.331217 0.331217 0.331217
0.351327 0.351327 0.351327
0.373714 0.373714 0.373714
0.398656 0.398656 0.398656
0.426220 0.426220 0.426220
0.450468 0.450468 0.450468
0.485975 0.485975 0.485975
0.533340 0.533340 0.533340
0.562644 0.562644 0.562644
0.596245 0.596245 0.596245
0.636908 0.636908 0.636908
0.673397 0.673397 0.673397
0.704890 0.704890 0.704890
0.735323 0.735323 0.735323
0.762418 0.762418 0.762418
0.790506 0.790506 0.790506
0.813290 0.813290 0.813290
0.832745 0.832745 0.832745
0.850554 0.850554 0.850554
0.868975 0.868975 0.868975
0.882155 0.882155 0.882155
0.887571 0.887571 0.887571
0.277563 0.277563 0.277563
0.277676 0.277676 0.277676
0.278216 0.278216 0.278216
0.279805 0.279805 0.279805
0.283857 0.283857 0.283857
0.290199 0.290199 0.290199
0.296652 0.296652 0.296652
0.305429 0.305429 0.305429
0.316371 0.316371 0.316371
0.329138 0.329138 0.329138
0.343927 0.343927 0.343927
0.360793 0.360793 0.360793
0.380333 0.380333 0.380333
0.401841 0.401841 0.401841
0.425873 0.425873 0.425873
0.452623 0.452623 0.452623
0.482080 0.482080 0.482080
0.516910 0.516910 0.516910
0.562549 0.562549 0.562549
0.591527 0.591527 0.591527
0.625751 0.625751 0.625751
0.662975 0.662975 0.662975
0.699606 0.699606 0.699606
0.729333 0.729333 0.729333
0.754225 0.754225 0.754225
0.780271 0.780271 0.780271
0.806215 0.806215 0.806215
0.823329 0.823329 0.823329
0.842320 0.842320 0.842320
0.860232 0.860232 0.860232
0.876505 0.876505 0.876505
0.888177 0.888177 0.888177
0.898919 0.898919 0.898919
0.318098 0.318098 0.318098
0.318214 0.318214 0.318214
0.318738 0.318738 0.318738
0.320161 0.320161 0.320161
0.323573 0.323573 0.323573
0.330941 0.330941 0.330941
0.336162 0.336162 0.336162
0.345940 0.345940 0.345940
0.356359 0.356359 0.356359
0.368496 0.368496 0.368496
0.383253 0.383253 0.383253
0.400151 0.400151 0.400151
0.419485 0.419485 0.419485
0.440155 0.440155 0.440155
0.464057 0.464057 0.464057
0.490161 0.490161 0.490161
0.518835 0.518835 0.518835
0.548882 0.548882 0.548882
0.594025 0.594025 0.594025
0.622964 0.622964 0.622964
0.654512 0.654512 0.654512
0.689873 0.689873 0.689873
0.726315 0.726315 0.726315
0.749116 0.749116 0.749116
0.774152 0.774152 0.774152
0.799618 0.799618 0.799618
0.818085 0.818085 0.818085
0.834408 0.834408 0.834408
0.852836 0.852836 0.852836
0.869938 0.869938 0.869938
0.883996 0.883996 0.883996
0.895724 0.895724 0.895724
0.905510 0.905510 0.905510
0.366808 0.366808 0.366808
0.366953 0.366953 0.366953
0.367563 0.367563 0.367563
0.369070 0.369070 0.369070
0.372382 0.372382 0.372382
0.379321 0.379321 0.379321
0.385797 0.385797 0.385797
0.395378 0.395378 0.395378
0.405658 0.405658 0.405658
0.418927 0.418927 0.418927
0.433795 0.433795 0.433795
0.450856 0.450856 0.450856
0.469600 0.469600 0.469600
0.490753 0.490753 0.490753
0.514250 0.514250 0.514250
0.539524 0.539524 0.539524
0.566369 0.566369 0.566369
0.595537 0.595537 0.595537
0.627896 0.627896 0.627896
0.654199 0.654199 0.654199
0.683223 0.683223 0.683223
0.718128 0.718128 0.718128
0.746999 0.746999 0.746999
0.769800 0.769800 0.769800
0.794383 0.794383 0.794383
0.814549 0.814549 0.814549
0.830611 0.830611 0.830611
0.846456 0.846456 0.846456
0.863800 0.863800 0.863800
0.878521 0.878521 0.878521
0.891629 0.891629 0.891629
0.902580 0.902580 0.902580
0.913244 0.913244 0.913244
0.408840 0.408840 0.408840
0.408972 0.408972 0.408972
0.409519 0.409519 0.409519
0.410841 0.410841 0.410841
0.413677 0.413677 0.413677
0.419476 0.419476 0.419476
0.426865 0.426865 0.426865
0.434444 0.434444 0.434444
0.445404 0.445404 0.445404
0.458127 0.458127 0.458127
0.471560 0.471560 0.471560
0.487841 0.487841 0.487841
0.506377 0.506377 0.506377
0.526327 0.526327 0.526327
0.548186 0.548186 0.548186
0.572206 0.572206 0.572206
0.598482 0.598482 0.598482
0.627413 0.627413 0.627413
0.655835 0.655835 0.655835
0.685030 0.685030 0.685030
0.713111 0.713111 0.713111
0.741806 0.741806 0.741806
0.768460 0.768460 0.768460
0.791218 0.791218 0.791218
0.811834 0.811834 0.811834
0.828192 0.828192 0.828192
0.843801 0.843801 0.843801
0.859135 0.859135 0.859135
0.874726 0.874726 0.874726
0.887039 0.887039 0.887039
0.899306 0.899306 0.899306
0.910484 0.910484 0.910484
0.919380 0.919380 0.919380
0.454641 0.454641 0.454641
0.454775 0.454775 0.454775
0.455317 0.455317 0.455317
0.456576 0.456576 0.456576
0.459168 0.459168 0.459168
0.464274 0.464274 0.464274
0.472778 0.472778 0.472778
0.479117 0.479117 0.479117
0.491064 0.491064 0.491064
0.501219 0.501219 0.501219
0.515504 0.515504 0.515504
0.531102 0.531102 0.531102
0.547595 0.547595 0.547595
0.566216 0.566216 0.566216
0.587455 0.587455 0.587455
0.611038 0.611038 0.611038
0.636306 0.636306 0.636306
0.660872 0.660872 0.660872
0.687351 0.687351 0.687351
0.714982 0.714982 0.714982
0.739844 0.739844 0.739844
0.764144 0.764144 0.764144
0.790557 0.790557 0.790557
0.810261 0.810261 0.810261
0.826098 0.826098 0.826098
0.842391 0.842391 0.842391
0.857637 0.857637 0.857637
0.872222 0.872222 0.872222
0.884354 0.884354 0.884354
0.895492 0.895492 0.895492
0.907497 0.907497 0.907497
0.917622 0.917622 0.917622
0.925229 0.925229 0.925229
0.505310 0.505310 0.505310
0.505464 0.505464 0.505464
0.506069 0.506069 0.506069
0.507402 0.507402 0.507402
0.509987 0.509987 0.509987
0.514754 0.514754 0.514754
0.523104 0.523104 0.523104
0.529431 0.529431 0.529431
0.539001 0.539001 0.539001
0.550004 0.550004 0.550004
0.563653 0.563653 0.563653
0.577482 0.577482 0.577482
0.594266 0.594266 0.594266
0.613040 0.613040 0.613040
0.633642 0.633642 0.633642
0.654519 0.654519 0.654519
0.675843 0.675843 0.675843
0.699070 0.699070 0.699070
0.724279 0.724279 0.724279
0.744722 0.744722 0.744722
0.765494 0.765494 0.765494
0.787928 0.787928 0.787928
0.810272 0.810272 0.810272
0.825126 0.825126 0.825126
0.840668 0.840668 0.840668
0.856731 0.856731 0.856731
0.871916 0.871916 0.871916
0.882942 0.882942 0.882942
0.894016 0.894016 0.894016
0.904517 0.904517 0.904517
0.915870 0.915870 0.915870
0.923793 0.923793 0.923793
0.931319 0.931319 0.931319
0.557492 0.557492 0.557492
0.557649 0.557649 0.557649
0.558252 0.558252 0.558252
0.559534 0.559534 0.559534
0.561915 0.561915 0.561915
0.566145 0.566145 0.566145
0.573621 0.573621 0.573621
0.581439 0.581439 0.581439
0.589730 0.589730 0.589730
0.602116 0.602116 0.602116
0.613444 0.613444 0.613444
0.628385 0.628385 0.628385
0.645004 0.645004 0.645004
0.659914 0.659914 0.659914
0.676978 0.676978 0.676978
0.696098 0.696098 0.696098
0.717193 0.717193 0.717193
0.735928 0.735928 0.735928
0.753764 0.753764 0.753764
0.772862 0.772862 0.772862
0.793363 0.793363 0.793363
0.811154 0.811154 0.811154
0.825952 0.825952 0.825952
0.840501 0.840501 0.840501
0.855652 0.855652 0.855652
0.871343 0.871343 0.871343
0.883106 0.883106 0.883106
0.893484 0.893484 0.893484
0.904084 0.904084 0.904084
0.914054 0.914054 0.914054
0.922486 0.922486 0.922486
0.930195 0.930195 0.930195
0.937448 0.937448 0.937448
0.610698 0.610698 0.610698
0.610841 0.610841 0.610841
0.611385 0.611385 0.611385
0.612528 0.612528 0.612528
0.614616 0.614616 0.614616
0.618271 0.618271 0.618271
0.624630 0.624630 0.624630
0.633368 0.633368 0.633368
0.640384 0.640384 0.640384
0.650501 0.650501 0.650501
0.659945 0.659945 0.659945
0.672738 0.672738 0.672738
0.685218 0.685218 0.685218
0.700647 0.700647 0.700647
0.717848 0.717848 0.717848
0.732834 0.732834 0.732834
0.747409 0.747409 0.747409
0.763296 0.763296 0.763296
0.780501 0.780501 0.780501
0.798914 0.798914 0.798914
0.813701 0.813701 0.813701
0.827199 0.827199 0.827199
0.841509 0.841509 0.841509
0.856460 0.856460 0.856460
0.871041 0.871041 0.871041
0.882872 0.882872 0.882872
0.894058 0.894058 0.894058
0.904058 0.904058 0.904058
0.914403 0.914403 0.914403
0.921880 0.921880 0.921880
0.929457 0.929457 0.929457
0.936713 0.936713 0.936713
0.943898 0.943898 0.943898
0.660281 0.660281 0.660281
0.660414 0.660414 0.660414
0.660917 0.660917 0.660917
0.661943 0.661943 0.661943
0.663742 0.663742 0.663742
0.666758 0.666758 0.666758
0.671782 0.671782 0.671782
0.680274 0.680274 0.680274
0.685730 0.685730 0.685730
0.694370 0.694370 0.694370
0.705134 0.705134 0.705134
0.715908 0.715908 0.715908
0.728083 0.728083 0.728083
0.739015 0.739015 0.739015
0.750316 0.750316 0.750316
0.763299 0.763299 0.763299
0.777557 0.777557 0.777557
0.792865 0.792865 0.792865
0.807532 0.807532 0.807532
0.819062 0.819062 0.819062
0.831267 0.831267 0.831267
0.844145 0.844145 0.844145
0.857638 0.857638 0.857638
0.871936 0.871936 0.871936
0.883293 0.883293 0.883293
0.894010 0.894010 0.894010
0.905166 0.905166 0.905166
0.914824 0.914824 0.914824
0.922622 0.922622 0.922622
0.929535 0.929535 0.929535
0.936738 0.936738 0.936738
0.943615 0.943615 0.943615
0.950427 0.950427 0.950427
0.706498 0.706498 0.706498
0.706645 0.706645 0.706645
0.707191 0.707191 0.707191
0.708278 0.708278 0.708278
0.710121 0.710121 0.710121
0.713090 0.713090 0.713090
0.717841 0.717841 0.717841
0.725411 0.725411 0.725411
0.730488 0.730488 0.730488
0.736136 0.736136 0.736136
0.744904 0.744904 0.744904
0.751741 0.751741 0.751741
0.761856 0.761856 0.761856
0.771183 0.771183 0.771183
0.782893 0.782893 0.782893
0.795292 0.795292 0.795292
0.807092 0.807092 0.807092
0.816648 0.816648 0.816648
0.826872 0.826872 0.826872
0.837845 0.837845 0.837845
0.849481 0.849481 0.849481
0.861806 0.861806 0.861806
0.873999 0.873999 0.873999
0.884305 0.884305 0.884305
0.894701 0.894701 0.894701
0.905161 0.905161 0.905161
0.916262 0.916262 0.916262
0.923288 0.923288 0.923288
0.930718 0.930718 0.930718
0.937430 0.937430 0.937430
0.944198 0.944198 0.944198
0.950761 0.950761 0.950761
0.956913 0.956913 0.956913
0.752826 0.752826 0.752826
0.752913 0.752913 0.752913
0.753235 0.753235 0.753235
0.753870 0.753870 0.753870
0.754932 0.754932 0.754932
0.756627 0.756627 0.756627
0.759332 0.759332 0.759332
0.763775 0.763775 0.763775
0.769162 0.769162 0.769162
0.773786 0.773786 0.773786
0.780850 0.780850 0.780850
0.788375 0.788375 0.788375
0.796658 0.796658 0.796658
0.805636 0.805636 0.805636
0.812598 0.812598 0.812598
0.820046 0.820046 0.820046
0.828613 0.828613 0.828613
0.837641 0.837641 0.837641
0.847088 0.847088 0.847088
0.857397 0.857397 0.857397
0.868497 0.868497 0.868497
0.878301 0.878301 0.878301
0.887774 0.887774 0.887774
0.897261 0.897261 0.897261
0.907194 0.907194 0.907194
