LUTs/trix_classic/TriX_Blue47_Normal.cube
TITLE "Tri-X Blue47 Normal"
# Adobe RGB in/out. REPLACES AgX. Tri-X Blue47 Normal.
LUT_3D_SIZE 33
DOMAIN_MIN 0.0 0.0 0.0
DOMAIN_MAX 1.0 1.0 1.0
0.093230 0.093230 0.093230
0.093230 0.093230 0.093230
0.093230 0.093230 0.093230
0.093230 0.093230 0.093230
0.093230 0.093230 0.093230
0.093230 0.093230 0.093230
0.093230 0.093230 0.093230
0.093230 0.093230 0.093230
0.093230 0.093230 0.093230
0.093230 0.093230 0.093230
0.093243 0.093243 0.093243
0.093252 0.093252 0.093252
0.093259 0.093259 0.093259
0.093269 0.093269 0.093269
0.093350 0.093350 0.093350
0.093454 0.093454 0.093454
0.093556 0.093556 0.093556
0.093728 0.093728 0.093728
0.093938 0.093938 0.093938
0.094373 0.094373 0.094373
0.095016 0.095016 0.095016
0.095827 0.095827 0.095827
0.097293 0.097293 0.097293
0.098928 0.098928 0.098928
0.100956 0.100956 0.100956
0.105156 0.105156 0.105156
0.112055 0.112055 0.112055
0.145610 0.145610 0.145610
0.333886 0.333886 0.333886
0.333842 0.333842 0.333842
0.333839 0.333839 0.333839
0.333837 0.333837 0.333837
0.519700 0.519700 0.519700
0.093230 0.093230 0.093230
0.093230 0.093230 0.093230
0.093230 0.093230 0.093230
0.093230 0.093230 0.093230
0.093230 0.093230 0.093230
0.093230 0.093230 0.093230
0.093230 0.093230 0.093230
0.093230 0.093230 0.093230
0.093230 0.093230 0.093230
0.093230 0.093230 0.093230
0.093243 0.093243 0.093243
0.093252 0.093252 0.093252
0.093260 0.093260 0.093260
0.093270 0.093270 0.093270
0.093354 0.093354 0.093354
0.093457 0.093457 0.093457
0.093560 0.093560 0.093560
0.093731 0.093731 0.093731
0.093942 0.093942 0.093942
0.094384 0.094384 0.094384
0.095024 0.095024 0.095024
0.095834 0.095834 0.095834
0.097302 0.097302 0.097302
0.098931 0.098931 0.098931
0.100949 0.100949 0.100949
0.105112 0.105112 0.105112
0.111836 0.111836 0.111836
0.144320 0.144320 0.144320
0.333887 0.333887 0.333887
0.333842 0.333842 0.333842
0.333839 0.333839 0.333839
0.333837 0.333837 0.333837
0.519699 0.519699 0.519699
0.093230 0.093230 0.093230
0.093230 0.093230 0.093230
0.093230 0.093230 0.093230
0.093230 0.093230 0.093230
0.093230 0.093230 0.093230
0.093230 0.093230 0.093230
0.093230 0.093230 0.093230
0.093230 0.093230 0.093230
0.093230 0.093230 0.093230
0.093233 0.093233 0.093233
0.093245 0.093245 0.093245
0.093254 0.093254 0.093254
0.093261 0.093261 0.093261
0.093271 0.093271 0.093271
0.093368 0.093368 0.093368
0.093468 0.093468 0.093468
0.093575 0.093575 0.093575
0.093744 0.093744 0.093744
0.093955 0.093955 0.093955
0.094423 0.094423 0.094423
0.095055 0.095055 0.095055
0.095862 0.095862 0.095862
0.097338 0.097338 0.097338
0.098943 0.098943 0.098943
0.100925 0.100925 0.100925
0.104966 0.104966 0.104966
0.111103 0.111103 0.111103
0.139937 0.139937 0.139937
0.333890 0.333890 0.333890
0.333842 0.333842 0.333842
0.333839 0.333839 0.333839
0.333838 0.333838 0.333838
0.519698 0.519698 0.519698
0.093230 0.093230 0.093230
0.093230 0.093230 0.093230
0.093230 0.093230 0.093230
0.093230 0.093230 0.093230
0.093230 0.093230 0.093230
0.093230 0.093230 0.093230
0.093230 0.093230 0.093230
0.093230 0.093230 0.093230
0.093230 0.093230 0.093230
0.093237 0.093237 0.093237
0.093249 0.093249 0.093249
0.093257 0.093257 0.093257
0.093264 0.093264 0.093264
0.093273 0.093273 0.093273
0.093394 0.093394 0.093394
0.093490 0.093490 0.093490
0.093603 0.093603 0.093603
0.093767 0.093767 0.093767
0.093981 0.093981 0.093981
0.094498 0.094498 0.094498
0.095115 0.095115 0.095115
0.095915 0.095915 0.095915
0.097412 0.097412 0.097412
0.098973 0.098973 0.098973
0.100893 0.100893 0.100893
0.104733 0.104733 0.104733
0.109951 0.109951 0.109951
0.133197 0.133197 0.133197
0.333898 0.333898 0.333898
0.333843 0.333843 0.333843
0.333840 0.333840 0.333840
0.333838 0.333838 0.333838
0.519697 0.519697 0.519697
0.093230 0.093230 0.093230
0.093230 0.093230 0.093230
0.093230 0.093230 0.093230
0.093230 0.093230 0.093230
0.093230 0.093230 0.093230
0.093230 0.093230 0.093230
0.093230 0.093230 0.093230
0.093230 0.093230 0.093230
0.093235 0.093235 0.093235
0.093242 0.093242 0.093242
0.093254 0.093254 0.093254
0.093262 0.093262 0.093262
0.093268 0.093268 0.093268
0.093280 0.093280 0.093280
0.093435 0.093435 0.093435
0.093524 0.093524 0.093524
0.093646 0.093646 0.093646
0.093804 0.093804 0.093804
0.094071 0.094071 0.094071
0.094615 0.094615 0.094615
0.095210 0.095210 0.095210
0.096002 0.096002 0.096002
0.097540 0.097540 0.097540
0.099041 0.099041 0.099041
0.100875 0.100875 0.100875
0.104472 0.104472 0.104472
0.108644 0.108644 0.108644
0.125804 0.125804 0.125804
0.333912 0.333912 0.333912
0.333845 0.333845 0.333845
0.333841 0.333841 0.333841
0.333838 0.333838 0.333838
0.519697 0.519697 0.519697
0.093230 0.093230 0.093230
0.093230 0.093230 0.093230
0.093230 0.093230 0.093230
0.093230 0.093230 0.093230
0.093230 0.093230 0.093230
0.093230 0.093230 0.093230
0.093230 0.093230 0.093230
0.093238 0.093238 0.093238
0.093240 0.093240 0.093240
0.093248 0.093248 0.093248
0.093260 0.093260 0.093260
0.093268 0.093268 0.093268
0.093273 0.093273 0.093273
0.093344 0.093344 0.093344
0.093486 0.093486 0.093486
0.093584 0.093584 0.093584
0.093706 0.093706 0.093706
0.093856 0.093856 0.093856
0.094277 0.094277 0.094277
0.094787 0.094787 0.094787
0.095351 0.095351 0.095351
0.096134 0.096134 0.096134
0.097745 0.097745 0.097745
0.099172 0.099172 0.099172
0.100903 0.100903 0.100903
0.104274 0.104274 0.104274
0.107534 0.107534 0.107534
0.119103 0.119103 0.119103
0.333942 0.333942 0.333942
0.333848 0.333848 0.333848
0.333843 0.333843 0.333843
0.333839 0.333839 0.333839
0.519696 0.519696 0.519696
0.093230 0.093230 0.093230
0.093230 0.093230 0.093230
0.093230 0.093230 0.093230
0.093230 0.093230 0.093230
0.093230 0.093230 0.093230
0.093230 0.093230 0.093230
0.093235 0.093235 0.093235
0.093247 0.093247 0.093247
0.093249 0.093249 0.093249
0.093255 0.093255 0.093255
0.093267 0.093267 0.093267
0.093274 0.093274 0.093274
0.093310 0.093310 0.093310
0.093411 0.093411 0.093411
0.093554 0.093554 0.093554
0.093672 0.093672 0.093672
0.093779 0.093779 0.093779
0.093922 0.093922 0.093922
0.094527 0.094527 0.094527
0.095010 0.095010 0.095010
0.095575 0.095575 0.095575
0.096432 0.096432 0.096432
0.098064 0.098064 0.098064
0.099408 0.099408 0.099408
0.101024 0.101024 0.101024
0.104247 0.104247 0.104247
0.107013 0.107013 0.107013
0.115675 0.115675 0.115675
0.334012 0.334012 0.334012
0.333856 0.333856 0.333856
0.333847 0.333847 0.333847
0.333841 0.333841 0.333841
0.519696 0.519696 0.519696
0.093230 0.093230 0.093230
0.093230 0.093230 0.093230
0.093230 0.093230 0.093230
0.093234 0.093234 0.093234
0.093239 0.093239 0.093239
0.093244 0.093244 0.093244
0.093250 0.093250 0.093250
0.093255 0.093255 0.093255
0.093257 0.093257 0.093257
0.093263 0.093263 0.093263
0.093275 0.093275 0.093275
0.093338 0.093338 0.093338
0.093396 0.093396 0.093396
0.093487 0.093487 0.093487
0.093656 0.093656 0.093656
0.093761 0.093761 0.093761
0.093862 0.093862 0.093862
0.094077 0.094077 0.094077
0.094838 0.094838 0.094838
0.095276 0.095276 0.095276
0.095846 0.095846 0.095846
0.096924 0.096924 0.096924
0.098491 0.098491 0.098491
0.099771 0.099771 0.099771
0.101462 0.101462 0.101462
0.104532 0.104532 0.104532
0.107518 0.107518 0.107518
0.114449 0.114449 0.114449
0.334254 0.334254 0.334254
0.333884 0.333884 0.333884
0.333858 0.333858 0.333858
0.333846 0.333846 0.333846
0.519696 0.519696 0.519696
0.093233 0.093233 0.093233
0.093234 0.093234 0.093234
0.093236 0.093236 0.093236
0.093240 0.093240 0.093240
0.093244 0.093244 0.093244
0.093249 0.093249 0.093249
0.093254 0.093254 0.093254
0.093260 0.093260 0.093260
0.093265 0.093265 0.093265
0.093271 0.093271 0.093271
0.093365 0.093365 0.093365
0.093433 0.093433 0.093433
0.093484 0.093484 0.093484
0.093581 0.093581 0.093581
0.093767 0.093767 0.093767
0.093862 0.093862 0.093862
0.093969 0.093969 0.093969
0.094459 0.094459 0.094459
0.095181 0.095181 0.095181
0.095628 0.095628 0.095628
0.096191 0.096191 0.096191
0.097542 0.097542 0.097542
0.099013 0.099013 0.099013
0.100196 0.100196 0.100196
0.102033 0.102033 0.102033
0.105007 0.105007 0.105007
0.108644 0.108644 0.108644
0.115571 0.115571 0.115571
0.337090 0.337090 0.337090
0.334164 0.334164 0.334164
0.333934 0.333934 0.333934
0.333868 0.333868 0.333868
0.519696 0.519696 0.519696
0.093243 0.093243 0.093243
0.093244 0.093244 0.093244
0.093246 0.093246 0.093246
0.093249 0.093249 0.093249
0.093253 0.093253 0.093253
0.093258 0.093258 0.093258
0.093263 0.093263 0.093263
0.093269 0.093269 0.093269
0.093274 0.093274 0.093274
0.093313 0.093313 0.093313
0.093466 0.093466 0.093466
0.093529 0.093529 0.093529
0.093589 0.093589 0.093589
0.093706 0.093706 0.093706
0.093882 0.093882 0.093882
0.093987 0.093987 0.093987
0.094340 0.094340 0.094340
0.094871 0.094871 0.094871
0.095598 0.095598 0.095598
0.096044 0.096044 0.096044
0.096896 0.096896 0.096896
0.098239 0.098239 0.098239
0.099655 0.099655 0.099655
0.100750 0.100750 0.100750
0.102803 0.102803 0.102803
0.105599 0.105599 0.105599
0.109206 0.109206 0.109206
0.115374 0.115374 0.115374
0.124540 0.124540 0.124540
0.150617 0.150617 0.150617
0.311669 0.311669 0.311669
0.337944 0.337944 0.337944
0.519696 0.519696 0.519696
0.093259 0.093259 0.093259
0.093259 0.093259 0.093259
0.093261 0.093261 0.093261
0.093265 0.093265 0.093265
0.093269 0.093269 0.093269
0.093273 0.093273 0.093273
0.093301 0.093301 0.093301
0.093369 0.093369 0.093369
0.093434 0.093434 0.093434
0.093500 0.093500 0.093500
0.093582 0.093582 0.093582
0.093665 0.093665 0.093665
0.093724 0.093724 0.093724
0.093831 0.093831 0.093831
0.094103 0.094103 0.094103
0.094463 0.094463 0.094463
0.094803 0.094803 0.094803
0.095295 0.095295 0.095295
0.096077 0.096077 0.096077
0.096749 0.096749 0.096749
0.097754 0.097754 0.097754
0.099028 0.099028 0.099028
0.100335 0.100335 0.100335
0.101563 0.101563 0.101563
0.103764 0.103764 0.103764
0.106449 0.106449 0.106449
0.110238 0.110238 0.110238
0.115715 0.115715 0.115715
0.123487 0.123487 0.123487
0.140389 0.140389 0.140389
0.267509 0.267509 0.267509
0.350978 0.350978 0.350978
0.355665 0.355665 0.355665
0.093269 0.093269 0.093269
0.093269 0.093269 0.093269
0.093271 0.093271 0.093271
0.093274 0.093274 0.093274
0.093288 0.093288 0.093288
0.093346 0.093346 0.093346
0.093410 0.093410 0.093410
0.093471 0.093471 0.093471
0.093532 0.093532 0.093532
0.093620 0.093620 0.093620
0.093712 0.093712 0.093712
0.093807 0.093807 0.093807
0.093852 0.093852 0.093852
0.093972 0.093972 0.093972
0.094647 0.094647 0.094647
0.094965 0.094965 0.094965
0.095287 0.095287 0.095287
0.095818 0.095818 0.095818
0.096906 0.096906 0.096906
0.097697 0.097697 0.097697
0.098675 0.098675 0.098675
0.099850 0.099850 0.099850
0.101123 0.101123 0.101123
0.102823 0.102823 0.102823
0.104879 0.104879 0.104879
0.107706 0.107706 0.107706
0.111623 0.111623 0.111623
0.116699 0.116699 0.116699
0.124295 0.124295 0.124295
0.136504 0.136504 0.136504
0.201836 0.201836 0.201836
0.351044 0.351044 0.351044
0.360077 0.360077 0.360077
0.093288 0.093288 0.093288
0.093292 0.093292 0.093292
0.093307 0.093307 0.093307
0.093339 0.093339 0.093339
0.093383 0.093383 0.093383
0.093435 0.093435 0.093435
0.093490 0.093490 0.093490
0.093553 0.093553 0.093553
0.093640 0.093640 0.093640
0.093726 0.093726 0.093726
0.093812 0.093812 0.093812
0.093894 0.093894 0.093894
0.094020 0.094020 0.094020
0.094452 0.094452 0.094452
0.095191 0.095191 0.095191
0.095495 0.095495 0.095495
0.095832 0.095832 0.095832
0.096511 0.096511 0.096511
0.098027 0.098027 0.098027
0.098702 0.098702 0.098702
0.099577 0.099577 0.099577
0.100727 0.100727 0.100727
0.102593 0.102593 0.102593
0.104115 0.104115 0.104115
0.106172 0.106172 0.106172
0.109769 0.109769 0.109769
0.113274 0.113274 0.113274
0.117854 0.117854 0.117854
0.125318 0.125318 0.125318
0.136530 0.136530 0.136530
0.158679 0.158679 0.158679
0.351131 0.351131 0.351131
0.366421 0.366421 0.366421
0.093422 0.093422 0.093422
0.093425 0.093425 0.093425
0.093438 0.093438 0.093438
0.093464 0.093464 0.093464
0.093506 0.093506 0.093506
0.093557 0.093557 0.093557
0.093632 0.093632 0.093632
0.093714 0.093714 0.093714
0.093797 0.093797 0.093797
0.093877 0.093877 0.093877
0.093972 0.093972 0.093972
0.094276 0.094276 0.094276
0.094632 0.094632 0.094632
0.095010 0.095010 0.095010
0.095766 0.095766 0.095766
0.096103 0.096103 0.096103
0.096597 0.096597 0.096597
0.097615 0.097615 0.097615
0.099089 0.099089 0.099089
0.099756 0.099756 0.099756
0.100567 0.100567 0.100567
0.102049 0.102049 0.102049
0.104064 0.104064 0.104064
0.105597 0.105597 0.105597
0.107952 0.107952 0.107952
0.111839 0.111839 0.111839
0.115201 0.115201 0.115201
0.119785 0.119785 0.119785
0.126759 0.126759 0.126759
0.136203 0.136203 0.136203
0.152648 0.152648 0.152648
0.219321 0.219321 0.219321
0.374281 0.374281 0.374281
0.093606 0.093606 0.093606
0.093611 0.093611 0.093611
0.093628 0.093628 0.093628
0.093662 0.093662 0.093662
0.093722 0.093722 0.093722
0.093782 0.093782 0.093782
0.093853 0.093853 0.093853
0.093932 0.093932 0.093932
0.094121 0.094121 0.094121
0.094477 0.094477 0.094477
0.094841 0.094841 0.094841
0.095180 0.095180 0.095180
0.095559 0.095559 0.095559
0.095960 0.095960 0.095960
0.096541 0.096541 0.096541
0.097160 0.097160 0.097160
0.097793 0.097793 0.097793
0.098768 0.098768 0.098768
0.100170 0.100170 0.100170
0.100772 0.100772 0.100772
0.101918 0.101918 0.101918
0.103727 0.103727 0.103727
0.105693 0.105693 0.105693
0.107277 0.107277 0.107277
0.110383 0.110383 0.110383
0.114198 0.114198 0.114198
0.117339 0.117339 0.117339
0.122286 0.122286 0.122286
0.128818 0.128818 0.128818
0.137385 0.137385 0.137385
0.150742 0.150742 0.150742
0.186298 0.186298 0.186298
0.365329 0.365329 0.365329
0.093757 0.093757 0.093757
0.093761 0.093761 0.093761
0.093775 0.093775 0.093775
0.093804 0.093804 0.093804
0.093853 0.093853 0.093853
0.093912 0.093912 0.093912
0.094013 0.094013 0.094013
0.094303 0.094303 0.094303
0.094630 0.094630 0.094630
0.094985 0.094985 0.094985
0.095307 0.095307 0.095307
0.095685 0.095685 0.095685
0.096081 0.096081 0.096081
0.096732 0.096732 0.096732
0.097534 0.097534 0.097534
0.098368 0.098368 0.098368
0.098936 0.098936 0.098936
0.099893 0.099893 0.099893
0.101403 0.101403 0.101403
0.102398 0.102398 0.102398
0.103643 0.103643 0.103643
0.105466 0.105466 0.105466
0.107668 0.107668 0.107668
0.109995 0.109995 0.109995
0.113000 0.113000 0.113000
0.116679 0.116679 0.116679
0.119935 0.119935 0.119935
0.125298 0.125298 0.125298
0.131295 0.131295 0.131295
0.138951 0.138951 0.138951
0.150968 0.150968 0.150968
0.176356 0.176356 0.176356
0.321391 0.321391 0.321391
0.093897 0.093897 0.093897
0.093901 0.093901 0.093901
0.093916 0.093916 0.093916
0.093948 0.093948 0.093948
0.094004 0.094004 0.094004
0.094260 0.094260 0.094260
0.094523 0.094523 0.094523
0.094815 0.094815 0.094815
0.095120 0.095120 0.095120
0.095444 0.095444 0.095444
0.095830 0.095830 0.095830
0.096204 0.096204 0.096204
0.096941 0.096941 0.096941
0.097738 0.097738 0.097738
0.098511 0.098511 0.098511
0.099278 0.099278 0.099278
0.100076 0.100076 0.100076
0.100987 0.100987 0.100987
0.103273 0.103273 0.103273
0.104196 0.104196 0.104196
0.105482 0.105482 0.105482
0.107431 0.107431 0.107431
0.110644 0.110644 0.110644
0.112828 0.112828 0.112828
0.115750 0.115750 0.115750
0.119450 0.119450 0.119450
0.123401 0.123401 0.123401
0.128402 0.128402 0.128402
0.134074 0.134074 0.134074
0.141409 0.141409 0.141409
0.151696 0.151696 0.151696
0.170424 0.170424 0.170424
0.252034 0.252034 0.252034
0.094377 0.094377 0.094377
0.094390 0.094390 0.094390
0.094439 0.094439 0.094439
0.094535 0.094535 0.094535
0.094696 0.094696 0.094696
0.094946 0.094946 0.094946
0.095163 0.095163 0.095163
0.095463 0.095463 0.095463
0.095798 0.095798 0.095798
0.096138 0.096138 0.096138
0.096804 0.096804 0.096804
0.097561 0.097561 0.097561
0.098339 0.098339 0.098339
0.099055 0.099055 0.099055
0.099828 0.099828 0.099828
0.100566 0.100566 0.100566
0.101458 0.101458 0.101458
0.102812 0.102812 0.102812
0.105173 0.105173 0.105173
0.106095 0.106095 0.106095
0.107526 0.107526 0.107526
0.110501 0.110501 0.110501
0.113674 0.113674 0.113674
0.115748 0.115748 0.115748
0.118598 0.118598 0.118598
0.123274 0.123274 0.123274
0.127026 0.127026 0.127026
0.131778 0.131778 0.131778
0.137404 0.137404 0.137404
0.144159 0.144159 0.144159
0.153484 0.153484 0.153484
0.169085 0.169085 0.169085
0.219047 0.219047 0.219047
0.095231 0.095231 0.095231
0.095243 0.095243 0.095243
0.095285 0.095285 0.095285
0.095369 0.095369 0.095369
0.095529 0.095529 0.095529
0.095787 0.095787 0.095787
0.096041 0.096041 0.096041
0.096487 0.096487 0.096487
0.097149 0.097149 0.097149
0.097870 0.097870 0.097870
0.098575 0.098575 0.098575
0.099333 0.099333 0.099333
0.100056 0.100056 0.100056
0.100782 0.100782 0.100782
0.101784 0.101784 0.101784
0.103115 0.103115 0.103115
0.104386 0.104386 0.104386
0.105691 0.105691 0.105691
0.107184 0.107184 0.107184
0.108636 0.108636 0.108636
0.110671 0.110671 0.110671
0.113594 0.113594 0.113594
0.116703 0.116703 0.116703
0.118712 0.118712 0.118712
0.122561 0.122561 0.122561
0.127246 0.127246 0.127246
0.130773 0.130773 0.130773
0.135418 0.135418 0.135418
0.140941 0.140941 0.140941
0.147387 0.147387 0.147387
0.155938 0.155938 0.155938
0.168922 0.168922 0.168922
0.205508 0.205508 0.205508
0.095842 0.095842 0.095842
0.095853 0.095853 0.095853
0.095898 0.095898 0.095898
0.095984 0.095984 0.095984
0.096126 0.096126 0.096126
0.096473 0.096473 0.096473
0.097012 0.097012 0.097012
0.097562 0.097562 0.097562
0.098216 0.098216 0.098216
0.098895 0.098895 0.098895
0.099542 0.099542 0.099542
0.100240 0.100240 0.100240
0.100949 0.100949 0.100949
0.102073 0.102073 0.102073
0.103311 0.103311 0.103311
0.104520 0.104520 0.104520
0.105863 0.105863 0.105863
0.107305 0.107305 0.107305
0.109462 0.109462 0.109462
0.111815 0.111815 0.111815
0.113760 0.113760 0.113760
0.116682 0.116682 0.116682
0.120213 0.120213 0.120213
0.122899 0.122899 0.122899
0.126701 0.126701 0.126701
0.131273 0.131273 0.131273
0.134648 0.134648 0.134648
0.139529 0.139529 0.139529
0.144797 0.144797 0.144797
0.150851 0.150851 0.150851
0.158582 0.158582 0.158582
0.170473 0.170473 0.170473
0.198031 0.198031 0.198031
0.096818 0.096818 0.096818
0.096840 0.096840 0.096840
0.096922 0.096922 0.096922
0.097082 0.097082 0.097082
0.097345 0.097345 0.097345
0.097748 0.097748 0.097748
0.098300 0.098300 0.098300
0.098768 0.098768 0.098768
0.099424 0.099424 0.099424
0.099985 0.099985 0.099985
0.100641 0.100641 0.100641
0.101485 0.101485 0.101485
0.102660 0.102660 0.102660
0.103813 0.103813 0.103813
0.105068 0.105068 0.105068
0.106337 0.106337 0.106337
0.107975 0.107975 0.107975
0.110162 0.110162 0.110162
0.112400 0.112400 0.112400
0.114554 0.114554 0.114554
0.116862 0.116862 0.116862
0.120109 0.120109 0.120109
0.124439 0.124439 0.124439
0.127160 0.127160 0.127160
0.130872 0.130872 0.130872
0.135431 0.135431 0.135431
0.138937 0.138937 0.138937
0.143730 0.143730 0.143730
0.148872 0.148872 0.148872
0.154386 0.154386 0.154386
0.161709 0.161709 0.161709
0.172463 0.172463 0.172463
0.195028 0.195028 0.195028
0.098369 0.098369 0.098369
0.098389 0.098389 0.098389
0.098463 0.098463 0.098463
0.098608 0.098608 0.098608
0.098844 0.098844 0.098844
0.099203 0.099203 0.099203
0.099735 0.099735 0.099735
0.100180 0.100180 0.100180
0.100742 0.100742 0.100742
0.101498 0.101498 0.101498
0.102594 0.102594 0.102594
0.103670 0.103670 0.103670
0.104851 0.104851 0.104851
0.106072 0.106072 0.106072
0.107441 0.107441 0.107441
0.109627 0.109627 0.109627
0.111734 0.111734 0.111734
0.113882 0.113882 0.113882
0.116045 0.116045 0.116045
0.118293 0.118293 0.118293
0.121187 0.121187 0.121187
0.124400 0.124400 0.124400
0.128688 0.128688 0.128688
0.131288 0.131288 0.131288
0.135024 0.135024 0.135024
0.139990 0.139990 0.139990
0.143450 0.143450 0.143450
0.148129 0.148129 0.148129
0.153081 0.153081 0.153081
0.158220 0.158220 0.158220
0.165007 0.165007 0.165007
0.175123 0.175123 0.175123
0.194315 0.194315 0.194315
0.099882 0.099882 0.099882
0.099900 0.099900 0.099900
0.099968 0.099968 0.099968
0.100098 0.100098 0.100098
0.100311 0.100311 0.100311
0.100632 0.100632 0.100632
0.101120 0.101120 0.101120
0.101957 0.101957 0.101957
0.102813 0.102813 0.102813
0.103883 0.103883 0.103883
0.104838 0.104838 0.104838
0.105986 0.105986 0.105986
0.107366 0.107366 0.107366
0.109307 0.109307 0.109307
0.111280 0.111280 0.111280
0.113367 0.113367 0.113367
0.115543 0.115543 0.115543
0.117695 0.117695 0.117695
0.120294 0.120294 0.120294
0.123354 0.123354 0.123354
0.126520 0.126520 0.126520
0.129710 0.129710 0.129710
0.132948 0.132948 0.132948
0.135467 0.135467 0.135467
0.139480 0.139480 0.139480
0.144552 0.144552 0.144552
0.147930 0.147930 0.147930
0.152510 0.152510 0.152510
0.157381 0.157381 0.157381
0.162291 0.162291 0.162291
0.168577 0.168577 0.168577
0.178320 0.178320 0.178320
0.194646 0.194646 0.194646
0.101081 0.101081 0.101081
0.101104 0.101104 0.101104
0.101207 0.101207 0.101207
0.101406 0.101406 0.101406
0.101730 0.101730 0.101730
0.102223 0.102223 0.102223
0.102951 0.102951 0.102951
0.103841 0.103841 0.103841
0.104588 0.104588 0.104588
0.105659 0.105659 0.105659
0.106612 0.106612 0.106612
0.108228 0.108228 0.108228
0.110062 0.110062 0.110062
0.112082 0.112082 0.112082
0.114111 0.114111 0.114111
0.116054 0.116054 0.116054
0.118156 0.118156 0.118156
0.120878 0.120878 0.120878
0.123907 0.123907 0.123907
0.126914 0.126914 0.126914
0.130006 0.130006 0.130006
0.133111 0.133111 0.133111
0.136397 0.136397 0.136397
0.140037 0.140037 0.140037
0.144055 0.144055 0.144055
0.149083 0.149083 0.149083
0.152348 0.152348 0.152348
0.156875 0.156875 0.156875
0.161523 0.161523 0.161523
0.166646 0.166646 0.166646
0.172718 0.172718 0.172718
0.181340 0.181340 0.181340
0.196015 0.196015 0.196015
0.103317 0.103317 0.103317
0.103343 0.103343 0.103343
0.103436 0.103436 0.103436
0.103615 0.103615 0.103615
0.103907 0.103907 0.103907
0.104349 0.104349 0.104349
0.105035 0.105035 0.105035
0.106044 0.106044 0.106044
0.106725 0.106725 0.106725
0.108106 0.108106 0.108106
0.109877 0.109877 0.109877
0.111537 0.111537 0.111537
0.113422 0.113422 0.113422
0.115419 0.115419 0.115419
0.117314 0.117314 0.117314
0.119553 0.119553 0.119553
0.122454 0.122454 0.122454
0.125438 0.125438 0.125438
0.128393 0.128393 0.128393
0.131446 0.131446 0.131446
0.134476 0.134476 0.134476
0.137746 0.137746 0.137746
0.141187 0.141187 0.141187
0.144870 0.144870 0.144870
0.148608 0.148608 0.148608
0.153601 0.153601 0.153601
0.156744 0.156744 0.156744
0.161108 0.161108 0.161108
0.165766 0.165766 0.165766
0.170795 0.170795 0.170795
0.177042 0.177042 0.177042
0.184725 0.184725 0.184725
0.197832 0.197832 0.197832
0.105679 0.105679 0.105679
0.105703 0.105703 0.105703
0.105793 0.105793 0.105793
0.105968 0.105968 0.105968
0.106250 0.106250 0.106250
0.106676 0.106676 0.106676
0.107507 0.107507 0.107507
0.109069 0.109069 0.109069
0.110420 0.110420 0.110420
0.111831 0.111831 0.111831
0.113782 0.113782 0.113782
0.115260 0.115260 0.115260
0.117214 0.117214 0.117214
0.119087 0.119087 0.119087
0.121927 0.121927 0.121927
0.124699 0.124699 0.124699
0.127549 0.127549 0.127549
0.130502 0.130502 0.130502
0.133482 0.133482 0.133482
0.136585 0.136585 0.136585
0.140001 0.140001 0.140001
0.143457 0.143457 0.143457
0.146921 0.146921 0.146921
0.150417 0.150417 0.150417
0.154217 0.154217 0.154217
0.158058 0.158058 0.158058
0.161077 0.161077 0.161077
0.165452 0.165452 0.165452
0.170071 0.170071 0.170071
0.175236 0.175236 0.175236
0.181149 0.181149 0.181149
0.188296 0.188296 0.188296
0.200152 0.200152 0.200152
0.108202 0.108202 0.108202
0.108235 0.108235 0.108235
0.108360 0.108360 0.108360
0.108603 0.108603 0.108603
0.109004 0.109004 0.109004
0.109624 0.109624 0.109624
0.110563 0.110563 0.110563
0.111986 0.111986 0.111986
0.113557 0.113557 0.113557
0.114779 0.114779 0.114779
0.116489 0.116489 0.116489
0.118167 0.118167 0.118167
0.120324 0.120324 0.120324
0.122931 0.122931 0.122931
0.125630 0.125630 0.125630
0.128324 0.128324 0.128324
0.131219 0.131219 0.131219
0.134096 0.134096 0.134096
0.137104 0.137104 0.137104
0.140384 0.140384 0.140384
0.143729 0.143729 0.143729
0.147133 0.147133 0.147133
0.150582 0.150582 0.150582
0.154068 0.154068 0.154068
0.157620 0.157620 0.157620
