LUTs/trix_classic/TriX_Yellow8_ExtraPunchy.cube
TITLE "Tri-X Yellow8 ExtraPunchy"
# Adobe RGB in/out. REPLACES AgX. Tri-X Yellow8 ExtraPunchy.
LUT_3D_SIZE 9
DOMAIN_MIN 0.0 0.0 0.0
DOMAIN_MAX 1.0 1.0 1.0
0.092237 0.092237 0.092237
0.092237 0.092237 0.092237
0.092454 0.092454 0.092454
0.104032 0.104032 0.104032
0.203291 0.203291 0.203291
0.382029 0.382029 0.382029
0.585687 0.585687 0.585687
0.776211 0.776211 0.776211
0.846131 0.846131 0.846131
0.092237 0.092237 0.092237
0.092237 0.092237 0.092237
0.094573 0.094573 0.094573
0.122118 0.122118 0.122118
0.220530 0.220530 0.220530
0.388795 0.388795 0.388795
0.590779 0.590779 0.590779
0.776226 0.776226 0.776226
0.846135 0.846135 0.846135
0.094263 0.094263 0.094263
0.095690 0.095690 0.095690
0.107315 0.107315 0.107315
0.176701 0.176701 0.176701
0.288400 0.288400 0.288400
0.430436 0.430436 0.430436
0.618137 0.618137 0.618137
0.781769 0.781769 0.781769
0.846135 0.846135 0.846135
0.142199 0.142199 0.142199
0.149407 0.149407 0.149407
0.182781 0.182781 0.182781
0.252345 0.252345 0.252345
0.371288 0.371288 0.371288
0.516550 0.516550 0.516550
0.674751 0.674751 0.674751
0.808041 0.808041 0.808041
0.846151 0.846151 0.846151
0.277563 0.277563 0.277563
0.283857 0.283857 0.283857
0.316371 0.316371 0.316371
0.380333 0.380333 0.380333
0.482080 0.482080 0.482080
0.625751 0.625751 0.625751
0.754225 0.754225 0.754225
0.842320 0.842320 0.842320
0.898919 0.898919 0.898919
0.454641 0.454641 0.454641
0.459168 0.459168 0.459168
0.491064 0.491064 0.491064
0.547595 0.547595 0.547595
0.636306 0.636306 0.636306
0.739844 0.739844 0.739844
0.826098 0.826098 0.826098
0.884354 0.884354 0.884354
0.925229 0.925229 0.925229
0.660281 0.660281 0.660281
0.663742 0.663742 0.663742
0.685730 0.685730 0.685730
0.728083 0.728083 0.728083
0.777557 0.777557 0.777557
0.831267 0.831267 0.831267
0.883293 0.883293 0.883293
0.922622 0.922622 0.922622
0.950427 0.950427 0.950427
0.825220 0.825220 0.825220
0.825196 0.825196 0.825196
0.829409 0.829409 0.829409
0.844573 0.844573 0.844573
0.870157 0.870157 0.870157
0.897322 0.897322 0.897322
0.926928 0.926928 0.926928
0.956219 0.956219 0.956219
0.968807 0.968807 0.968807
0.853043 0.853043 0.853043
0.853048 0.853048 0.853048
0.897960 0.897960 0.897960
0.900905 0.900905 0.900905
0.927371 0.927371 0.927371
0.942588 0.942588 0.942588
0.959764 0.959764 0.959764
0.974451 0.974451 0.974451
0.981815 0.981815 0.981815
0.092237 0.092237 0.092237
0.092237 0.092237 0.092237
0.092237 0.092237 0.092237
0.100777 0.100777 0.100777
0.199619 0.199619 0.199619
0.382645 0.382645 0.382645
0.586066 0.586066 0.586066
0.776225 0.776225 0.776225
0.846135 0.846135 0.846135
0.092237 0.092237 0.092237
0.092317 0.092317 0.092317
0.093693 0.093693 0.093693
0.111943 0.111943 0.111943
0.214945 0.214945 0.214945
0.389418 0.389418 0.389418
0.591369 0.591369 0.591369
0.776248 0.776248 0.776248
0.846135 0.846135 0.846135
0.095107 0.095107 0.095107
0.096675 0.096675 0.096675
0.109562 0.109562 0.109562
0.175199 0.175199 0.175199
0.279363 0.279363 0.279363
0.429342 0.429342 0.429342
0.619682 0.619682 0.619682
0.783416 0.783416 0.783416
0.846135 0.846135 0.846135
0.148811 0.148811 0.148811
0.155746 0.155746 0.155746
0.188073 0.188073 0.188073
0.257788 0.257788 0.257788
0.372189 0.372189 0.372189
0.513367 0.513367 0.513367
0.675805 0.675805 0.675805
0.808410 0.808410 0.808410
0.846140 0.846140 0.846140
0.282413 0.282413 0.282413
0.288899 0.288899 0.288899
0.320904 0.320904 0.320904
0.384703 0.384703 0.384703
0.486712 0.486712 0.486712
0.626379 0.626379 0.626379
0.754032 0.754032 0.754032
0.842954 0.842954 0.842954
0.899125 0.899125 0.899125
0.457410 0.457410 0.457410
0.462437 0.462437 0.462437
0.494226 0.494226 0.494226
0.550623 0.550623 0.550623
0.639677 0.639677 0.639677
0.741942 0.741942 0.741942
0.826442 0.826442 0.826442
0.884803 0.884803 0.884803
0.925408 0.925408 0.925408
0.662676 0.662676 0.662676
0.666306 0.666306 0.666306
0.688372 0.688372 0.688372
0.729979 0.729979 0.729979
0.779459 0.779459 0.779459
0.832585 0.832585 0.832585
0.884082 0.884082 0.884082
0.922833 0.922833 0.922833
0.950684 0.950684 0.950684
0.825241 0.825241 0.825241
0.825486 0.825486 0.825486
0.830425 0.830425 0.830425
0.845715 0.845715 0.845715
0.871318 0.871318 0.871318
0.898172 0.898172 0.898172
0.927580 0.927580 0.927580
0.956484 0.956484 0.956484
0.968953 0.968953 0.968953
0.872807 0.872807 0.872807
0.872811 0.872811 0.872811
0.910885 0.910885 0.910885
0.910885 0.910885 0.910885
0.927926 0.927926 0.927926
0.943119 0.943119 0.943119
0.960070 0.960070 0.960070
0.974713 0.974713 0.974713
0.981855 0.981855 0.981855
0.092237 0.092237 0.092237
0.092237 0.092237 0.092237
0.092526 0.092526 0.092526
0.102420 0.102420 0.102420
0.201198 0.201198 0.201198
0.385882 0.385882 0.385882
0.588387 0.588387 0.588387
0.779247 0.779247 0.779247
0.846135 0.846135 0.846135
0.092237 0.092237 0.092237
0.092324 0.092324 0.092324
0.094077 0.094077 0.094077
0.112671 0.112671 0.112671
0.215807 0.215807 0.215807
0.393331 0.393331 0.393331
0.594412 0.594412 0.594412
0.780432 0.780432 0.780432
0.846135 0.846135 0.846135
0.096847 0.096847 0.096847
0.098758 0.098758 0.098758
0.128236 0.128236 0.128236
0.173466 0.173466 0.173466
0.275756 0.275756 0.275756
0.432830 0.432830 0.432830
0.625703 0.625703 0.625703
0.796193 0.796193 0.796193
0.846135 0.846135 0.846135
0.162320 0.162320 0.162320
0.169029 0.169029 0.169029
0.200292 0.200292 0.200292
0.268511 0.268511 0.268511
0.376036 0.376036 0.376036
0.514122 0.514122 0.514122
0.681617 0.681617 0.681617
0.810170 0.810170 0.810170
0.846136 0.846136 0.846136
0.303081 0.303081 0.303081
0.309226 0.309226 0.309226
0.338669 0.338669 0.338669
0.401188 0.401188 0.401188
0.500777 0.500777 0.500777
0.633711 0.633711 0.633711
0.756547 0.756547 0.756547
0.845735 0.845735 0.845735
0.899962 0.899962 0.899962
0.482385 0.482385 0.482385
0.487561 0.487561 0.487561
0.516156 0.516156 0.516156
0.569755 0.569755 0.569755
0.655524 0.655524 0.655524
0.751135 0.751135 0.751135
0.829113 0.829113 0.829113
0.886810 0.886810 0.886810
0.926124 0.926124 0.926124
0.681682 0.681682 0.681682
0.685550 0.685550 0.685550
0.706263 0.706263 0.706263
0.741783 0.741783 0.741783
0.790279 0.790279 0.790279
0.839120 0.839120 0.839120
0.887461 0.887461 0.887461
0.923857 0.923857 0.923857
0.951676 0.951676 0.951676
0.827950 0.827950 0.827950
0.829211 0.829211 0.829211
0.836850 0.836850 0.836850
0.852337 0.852337 0.852337
0.876232 0.876232 0.876232
0.902465 0.902465 0.902465
0.930518 0.930518 0.930518
0.957235 0.957235 0.957235
0.969497 0.969497 0.969497
0.872812 0.872812 0.872812
0.910884 0.910884 0.910884
0.910885 0.910885 0.910885
0.910897 0.910897 0.910897
0.930455 0.930455 0.930455
0.945430 0.945430 0.945430
0.961328 0.961328 0.961328
0.975712 0.975712 0.975712
0.982000 0.982000 0.982000
0.092237 0.092237 0.092237
0.092237 0.092237 0.092237
0.093863 0.093863 0.093863
0.108103 0.108103 0.108103
0.209391 0.209391 0.209391
0.390027 0.390027 0.390027
0.592585 0.592585 0.592585
0.764489 0.764489 0.764489
0.846135 0.846135 0.846135
0.092457 0.092457 0.092457
0.092761 0.092761 0.092761
0.096910 0.096910 0.096910
0.121183 0.121183 0.121183
0.224370 0.224370 0.224370
0.398731 0.398731 0.398731
0.599271 0.599271 0.599271
0.765937 0.765937 0.765937
0.846135 0.846135 0.846135
0.101919 0.101919 0.101919
0.104209 0.104209 0.104209
0.126889 0.126889 0.126889
0.180471 0.180471 0.180471
0.283077 0.283077 0.283077
0.440138 0.440138 0.440138
0.632179 0.632179 0.632179
0.780271 0.780271 0.780271
0.846135 0.846135 0.846135
0.175911 0.175911 0.175911
0.182537 0.182537 0.182537
0.213596 0.213596 0.213596
0.302165 0.302165 0.302165
0.382086 0.382086 0.382086
0.521081 0.521081 0.521081
0.689653 0.689653 0.689653
0.812676 0.812676 0.812676
0.846141 0.846141 0.846141
0.321293 0.321293 0.321293
0.327321 0.327321 0.327321
0.356243 0.356243 0.356243
0.417485 0.417485 0.417485
0.514127 0.514127 0.514127
0.641219 0.641219 0.641219
0.762555 0.762555 0.762555
0.849082 0.849082 0.849082
0.901539 0.901539 0.901539
0.503331 0.503331 0.503331
0.508783 0.508783 0.508783
0.535526 0.535526 0.535526
0.588325 0.588325 0.588325
0.670572 0.670572 0.670572
0.759595 0.759595 0.759595
0.832634 0.832634 0.832634
0.889517 0.889517 0.889517
0.927341 0.927341 0.927341
0.700563 0.700563 0.700563
0.704621 0.704621 0.704621
0.724914 0.724914 0.724914
0.754890 0.754890 0.754890
0.802749 0.802749 0.802749
0.846424 0.846424 0.846424
0.891019 0.891019 0.891019
0.925682 0.925682 0.925682
0.953113 0.953113 0.953113
0.834513 0.834513 0.834513
0.836054 0.836054 0.836054
0.844168 0.844168 0.844168
0.859551 0.859551 0.859551
0.881695 0.881695 0.881695
0.907505 0.907505 0.907505
0.933699 0.933699 0.933699
0.958145 0.958145 0.958145
0.970323 0.970323 0.970323
0.897202 0.897202 0.897202
0.917523 0.917523 0.917523
0.917527 0.917527 0.917527
0.926217 0.926217 0.926217
0.933809 0.933809 0.933809
0.948561 0.948561 0.948561
0.963092 0.963092 0.963092
0.976947 0.976947 0.976947
0.982214 0.982214 0.982214
0.092512 0.092512 0.092512
0.092672 0.092672 0.092672
0.097459 0.097459 0.097459
0.124501 0.124501 0.124501
0.222736 0.222736 0.222736
0.398108 0.398108 0.398108
0.599485 0.599485 0.599485
0.761045 0.761045 0.761045
0.846135 0.846135 0.846135
0.093346 0.093346 0.093346
0.093898 0.093898 0.093898
0.102833 0.102833 0.102833
0.138997 0.138997 0.138997
0.238186 0.238186 0.238186
0.407784 0.407784 0.407784
0.606934 0.606934 0.606934
0.764491 0.764491 0.764491
0.846135 0.846135 0.846135
0.110071 0.110071 0.110071
0.113893 0.113893 0.113893
0.142203 0.142203 0.142203
0.200642 0.200642 0.200642
0.295836 0.295836 0.295836
0.451203 0.451203 0.451203
0.641466 0.641466 0.641466
0.784964 0.784964 0.784964
0.846137 0.846137 0.846137
0.198600 0.198600 0.198600
0.205015 0.205015 0.205015
0.237475 0.237475 0.237475
0.303087 0.303087 0.303087
0.393751 0.393751 0.393751
0.532817 0.532817 0.532817
0.699204 0.699204 0.699204
0.816412 0.816412 0.816412
0.873646 0.873646 0.873646
0.339816 0.339816 0.339816
0.346100 0.346100 0.346100
0.374559 0.374559 0.374559
0.434725 0.434725 0.434725
0.545947 0.545947 0.545947
0.651194 0.651194 0.651194
0.770354 0.770354 0.770354
0.853173 0.853173 0.853173
0.903769 0.903769 0.903769
0.523993 0.523993 0.523993
0.529303 0.529303 0.529303
0.555487 0.555487 0.555487
0.607700 0.607700 0.607700
0.686208 0.686208 0.686208
0.768475 0.768475 0.768475
0.837416 0.837416 0.837416
0.892842 0.892842 0.892842
0.928990 0.928990 0.928990
0.717962 0.717962 0.717962
0.722298 0.722298 0.722298
0.737858 0.737858 0.737858
0.767613 0.767613 0.767613
0.811366 0.811366 0.811366
0.853471 0.853471 0.853471
0.894682 0.894682 0.894682
0.928040 0.928040 0.928040
0.954841 0.954841 0.954841
0.841196 0.841196 0.841196
0.842840 0.842840 0.842840
0.851016 0.851016 0.851016
0.866576 0.866576 0.866576
0.886996 0.886996 0.886996
0.912437 0.912437 0.912437
0.936782 0.936782 0.936782
0.959238 0.959238 0.959238
0.971274 0.971274 0.971274
0.905012 0.905012 0.905012
0.908071 0.908071 0.908071
0.915253 0.915253 0.915253
0.925339 0.925339 0.925339
0.936345 0.936345 0.936345
0.951333 0.951333 0.951333
0.964599 0.964599 0.964599
0.978028 0.978028 0.978028
0.982487 0.982487 0.982487
0.094224 0.094224 0.094224
0.094305 0.094305 0.094305
0.106151 0.106151 0.106151
0.146729 0.146729 0.146729
0.246033 0.246033 0.246033
0.411267 0.411267 0.411267
0.610354 0.610354 0.610354
0.766169 0.766169 0.766169
0.846135 0.846135 0.846135
0.096353 0.096353 0.096353
0.096749 0.096749 0.096749
0.113943 0.113943 0.113943
0.161880 0.161880 0.161880
0.260650 0.260650 0.260650
0.421856 0.421856 0.421856
0.618675 0.618675 0.618675
0.770390 0.770390 0.770390
0.846136 0.846136 0.846136
0.128003 0.128003 0.128003
0.131187 0.131187 0.131187
0.165053 0.165053 0.165053
0.225213 0.225213 0.225213
0.319373 0.319373 0.319373
0.466961 0.466961 0.466961
0.653123 0.653123 0.653123
0.792204 0.792204 0.792204
0.846137 0.846137 0.846137
0.224086 0.224086 0.224086
0.229327 0.229327 0.229327
0.263353 0.263353 0.263353
0.326842 0.326842 0.326842
0.417584 0.417584 0.417584
0.548881 0.548881 0.548881
0.712036 0.712036 0.712036
0.821640 0.821640 0.821640
0.878557 0.878557 0.878557
0.366712 0.366712 0.366712
0.372383 0.372383 0.372383
0.402572 0.402572 0.402572
0.462141 0.462141 0.462141
0.552655 0.552655 0.552655
0.664992 0.664992 0.664992
0.780110 0.780110 0.780110
0.858634 0.858634 0.858634
0.906766 0.906766 0.906766
0.545350 0.545350 0.545350
0.550966 0.550966 0.550966
0.577082 0.577082 0.577082
0.628948 0.628948 0.628948
0.703187 0.703187 0.703187
0.784665 0.784665 0.784665
0.843449 0.843449 0.843449
0.896838 0.896838 0.896838
0.931256 0.931256 0.931256
0.732722 0.732722 0.732722
0.735951 0.735951 0.735951
0.750845 0.750845 0.750845
0.780468 0.780468 0.780468
0.819463 0.819463 0.819463
0.860530 0.860530 0.860530
0.898712 0.898712 0.898712
0.930863 0.930863 0.930863
0.956738 0.956738 0.956738
0.847720 0.847720 0.847720
0.849457 0.849457 0.849457
0.857823 0.857823 0.857823
0.873076 0.873076 0.873076
0.891989 0.891989 0.891989
0.916827 0.916827 0.916827
0.939801 0.939801 0.939801
0.960505 0.960505 0.960505
0.972396 0.972396 0.972396
0.907059 0.907059 0.907059
0.909736 0.909736 0.909736
0.915748 0.915748 0.915748
0.927443 0.927443 0.927443
0.938661 0.938661 0.938661
0.953804 0.953804 0.953804
0.965978 0.965978 0.965978
0.979090 0.979090 0.979090
0.982816 0.982816 0.982816
0.101305 0.101305 0.101305
0.101107 0.101107 0.101107
0.120852 0.120852 0.120852
0.173894 0.173894 0.173894
0.273965 0.273965 0.273965
0.434032 0.434032 0.434032
0.628072 0.628072 0.628072
0.774996 0.774996 0.774996
0.846128 0.846128 0.846128
0.105416 0.105416 0.105416
0.105525 0.105525 0.105525
0.131608 0.131608 0.131608
0.187937 0.187937 0.187937
0.287786 0.287786 0.287786
0.444721 0.444721 0.444721
0.636922 0.636922 0.636922
0.779711 0.779711 0.779711
0.846125 0.846125 0.846125
0.151233 0.151233 0.151233
0.153550 0.153550 0.153550
0.186690 0.186690 0.186690
0.250440 0.250440 0.250440
0.344397 0.344397 0.344397
0.490789 0.490789 0.490789
0.669521 0.669521 0.669521
0.802314 0.802314 0.802314
0.846063 0.846063 0.846063
0.254104 0.254104 0.254104
0.258322 0.258322 0.258322
0.290445 0.290445 0.290445
0.353532 0.353532 0.353532
0.444466 0.444466 0.444466
0.574236 0.574236 0.574236
0.728344 0.728344 0.728344
0.828651 0.828651 0.828651
0.884995 0.884995 0.884995
0.396879 0.396879 0.396879
0.402050 0.402050 0.402050
0.431309 0.431309 0.431309
0.491755 0.491755 0.491755
0.579902 0.579902 0.579902
0.687504 0.687504 0.687504
0.792787 0.792787 0.792787
0.865725 0.865725 0.865725
0.910583 0.910583 0.910583
0.572624 0.572624 0.572624
0.578002 0.578002 0.578002
0.604342 0.604342 0.604342
0.655445 0.655445 0.655445
0.726837 0.726837 0.726837
0.794506 0.794506 0.794506
0.851093 0.851093 0.851093
0.901716 0.901716 0.901716
0.934076 0.934076 0.934076
0.746773 0.746773 0.746773
0.750108 0.750108 0.750108
0.765053 0.765053 0.765053
0.794534 0.794534 0.794534
0.828391 0.828391 0.828391
0.868443 0.868443 0.868443
0.903272 0.903272 0.903272
0.934204 0.934204 0.934204
0.958262 0.958262 0.958262
0.854993 0.854993 0.854993
0.856749 0.856749 0.856749
0.865153 0.865153 0.865153
0.878728 0.878728 0.878728
0.897255 0.897255 0.897255
0.920528 0.920528 0.920528
0.943005 0.943005 0.943005
0.961962 0.961962 0.961962
0.973778 0.973778 0.973778
0.906879 0.906879 0.906879
0.912080 0.912080 0.912080
0.917982 0.917982 0.917982
0.929825 0.929825 0.929825
0.940944 0.940944 0.940944
0.956127 0.956127 0.956127
0.967221 0.967221 0.967221
0.979514 0.979514 0.979514
0.983235 0.983235 0.983235
0.120550 0.120550 0.120550
0.120307 0.120307 0.120307
0.146929 0.146929 0.146929
0.203697 0.203697 0.203697
0.306100 0.306100 0.306100
0.468104 0.468104 0.468104
0.654539 0.654539 0.654539
0.790553 0.790553 0.790553
0.849253 0.849253 0.849253
0.129560 0.129560 0.129560
0.129710 0.129710 0.129710
0.159692 0.159692 0.159692
0.217700 0.217700 0.217700
0.318727 0.318727 0.318727
0.478650 0.478650 0.478650
0.662270 0.662270 0.662270
0.795506 0.795506 0.795506
0.850194 0.850194 0.850194
0.186894 0.186894 0.186894
0.188820 0.188820 0.188820
0.222919 0.222919 0.222919
0.284122 0.284122 0.284122
0.377370 0.377370 0.377370
0.526374 0.526374 0.526374
0.696813 0.696813 0.696813
0.813635 0.813635 0.813635
0.860520 0.860520 0.860520
0.289624 0.289624 0.289624
0.293090 0.293090 0.293090
0.325788 0.325788 0.325788
0.385452 0.385452 0.385452
0.475464 0.475464 0.475464
0.606906 0.606906 0.606906
0.748585 0.748585 0.748585
0.839594 0.839594 0.839594
0.890110 0.890110 0.890110
0.430556 0.430556 0.430556
0.435213 0.435213 0.435213
0.466903 0.466903 0.466903
0.525578 0.525578 0.525578
0.610480 0.610480 0.610480
0.714736 0.714736 0.714736
0.809906 0.809906 0.809906
0.875388 0.875388 0.875388
0.915719 0.915719 0.915719
0.603013 0.603013 0.603013
0.608152 0.608152 0.608152
0.636941 0.636941 0.636941
0.682856 0.682856 0.682856
0.746220 0.746220 0.746220
0.809642 0.809642 0.809642
0.862464 0.862464 0.862464
0.908972 0.908972 0.908972
0.937991 0.937991 0.937991
0.762464 0.762464 0.762464
0.765676 0.765676 0.765676
0.781672 0.781672 0.781672
0.808724 0.808724 0.808724
0.838940 0.838940 0.838940
0.876665 0.876665 0.876665
0.909378 0.909378 0.909378
0.938743 0.938743 0.938743
0.960246 0.960246 0.960246
0.864311 0.864311 0.864311
0.865905 0.865905 0.865905
0.873336 0.873336 0.873336
0.885078 0.885078 0.885078
0.903030 0.903030 0.903030
0.924688 0.924688 0.924688
0.946665 0.946665 0.946665
0.962840 0.962840 0.962840
0.975495 0.975495 0.975495
0.904107 0.904107 0.904107
0.917785 0.917785 0.917785
0.919379 0.919379 0.919379
0.931492 0.931492 0.931492
0.943471 0.943471 0.943471
0.957547 0.957547 0.957547
0.968407 0.968407 0.968407
0.979969 0.979969 0.979969
0.983737 0.983737 0.983737
0.165228 0.165228 0.165228
0.168525 0.168525 0.168525
0.186305 0.186305 0.186305
0.246738 0.246738 0.246738
0.376780 0.376780 0.376780
0.555242 0.555242 0.555242
0.719764 0.719764 0.719764
0.818851 0.818851 0.818851
0.858414 0.858414 0.858414
0.175225 0.175225 0.175225
0.178701 0.178701 0.178701
0.197313 0.197313 0.197313
0.258844 0.258844 0.258844
0.386955 0.386955 0.386955
0.563800 0.563800 0.563800
0.726210 0.726210 0.726210
0.820905 0.820905 0.820905
0.862420 0.862420 0.862420
0.228890 0.228890 0.228890
0.233195 0.233195 0.233195
0.255475 0.255475 0.255475
0.316545 0.316545 0.316545
0.435917 0.435917 0.435917
0.603959 0.603959 0.603959
0.749554 0.749554 0.749554
0.833167 0.833167 0.833167
0.862428 0.862428 0.862428
0.341720 0.341720 0.341720
0.346439 0.346439 0.346439
0.370169 0.370169 0.370169
0.428201 0.428201 0.428201
0.533247 0.533247 0.533247
0.677831 0.677831 0.677831
0.795300 0.795300 0.795300
0.861931 0.861931 0.861931
0.904854 0.904854 0.904854
0.483631 0.483631 0.483631
0.488985 0.488985 0.488985
0.515610 0.515610 0.515610
0.570178 0.570178 0.570178
0.657091 0.657091 0.657091
0.759709 0.759709 0.759709
0.838586 0.838586 0.838586
0.892400 0.892400 0.892400
0.926371 0.926371 0.926371
0.645904 0.645904 0.645904
0.650572 0.650572 0.650572
0.673879 0.673879 0.673879
0.721439 0.721439 0.721439
0.771964 0.771964 0.771964
0.829819 0.829819 0.829819
0.882846 0.882846 0.882846
0.921728 0.921728 0.921728
0.948415 0.948415 0.948415
0.782212 0.782212 0.782212
0.785420 0.785420 0.785420
0.801346 0.801346 0.801346
0.824168 0.824168 0.824168
0.853562 0.853562 0.853562
0.886388 0.886388 0.886388
0.919787 0.919787 0.919787
0.947758 0.947758 0.947758
0.965282 0.965282 0.965282
0.868775 0.868775 0.868775
0.870343 0.870343 0.870343
0.876871 0.876871 0.876871
0.890432 0.890432 0.890432
0.910026 0.910026 0.910026
0.929335 0.929335 0.929335
0.949940 0.949940 0.949940
0.966556 0.966556 0.966556
0.979119 0.979119 0.979119
0.899315 0.899315 0.899315
0.919482 0.919482 0.919482
0.919482 0.919482 0.919482
0.922589 0.922589 0.922589
0.945827 0.945827 0.945827
0.958820 0.958820 0.958820
0.969698 0.969698 0.969698
0.980337 0.980337 0.980337
0.984304 0.984304 0.984304
