LUTs/trix_classic/TriX_Yellow8_Hard.cube
TITLE "Tri-X Yellow8 Hard"
# Adobe RGB in/out. REPLACES AgX. Tri-X Yellow8 Hard.
LUT_3D_SIZE 5
DOMAIN_MIN 0.0 0.0 0.0
DOMAIN_MAX 1.0 1.0 1.0
0.093024 0.093024 0.093024
0.093351 0.093351 0.093351
0.134404 0.134404 0.134404
0.648799 0.648799 0.648799
0.943788 0.943788 0.943788
0.093790 0.093790 0.093790
0.096180 0.096180 0.096180
0.216746 0.216746 0.216746
0.694536 0.694536 0.694536
0.943792 0.943792 0.943792
0.204364 0.204364 0.204364
0.251219 0.251219 0.251219
0.491784 0.491784 0.491784
0.853884 0.853884 0.853884
0.975707 0.975707 0.975707
0.755633 0.755633 0.755633
0.783981 0.783981 0.783981
0.878061 0.878061 0.878061
0.969632 0.969632 0.969632
0.990336 0.990336 0.990336
0.949547 0.949547 0.949547
0.975347 0.975347 0.975347
0.985288 0.985288 0.985288
0.992529 0.992529 0.992529
0.997230 0.997230 0.997230
0.093061 0.093061 0.093061
0.093367 0.093367 0.093367
0.132711 0.132711 0.132711
0.652580 0.652580 0.652580
0.943792 0.943792 0.943792
0.094314 0.094314 0.094314
0.099130 0.099130 0.099130
0.202368 0.202368 0.202368
0.705293 0.705293 0.705293
0.943792 0.943792 0.943792
0.234605 0.234605 0.234605
0.280374 0.280374 0.280374
0.518664 0.518664 0.518664
0.856409 0.856409 0.856409
0.976098 0.976098 0.976098
0.779474 0.779474 0.779474
0.806833 0.806833 0.806833
0.888603 0.888603 0.888603
0.971393 0.971393 0.971393
0.990607 0.990607 0.990607
0.961536 0.961536 0.961536
0.980174 0.980174 0.980174
0.985969 0.985969 0.985969
0.992806 0.992806 0.992806
0.997318 0.997318 0.997318
0.093364 0.093364 0.093364
0.094489 0.094489 0.094489
0.150322 0.150322 0.150322
0.668167 0.668167 0.668167
0.943792 0.943792 0.943792
0.096547 0.096547 0.096547
0.101466 0.101466 0.101466
0.225726 0.225726 0.225726
0.727881 0.727881 0.727881
0.943793 0.943793 0.943793
0.281952 0.281952 0.281952
0.331365 0.331365 0.331365
0.588577 0.588577 0.588577
0.871418 0.871418 0.871418
0.977522 0.977522 0.977522
0.816454 0.816454 0.816454
0.836076 0.836076 0.836076
0.909024 0.909024 0.909024
0.974116 0.974116 0.974116
0.991291 0.991291 0.991291
0.977986 0.977986 0.977986
0.981795 0.981795 0.981795
0.987264 0.987264 0.987264
0.993384 0.993384 0.993384
0.997550 0.997550 0.997550
0.095076 0.095076 0.095076
0.097958 0.097958 0.097958
0.200397 0.200397 0.200397
0.708667 0.708667 0.708667
0.943785 0.943785 0.943785
0.104003 0.104003 0.104003
0.122628 0.122628 0.122628
0.288286 0.288286 0.288286
0.765929 0.765929 0.765929
0.943724 0.943724 0.943724
0.364759 0.364759 0.364759
0.419249 0.419249 0.419249
0.640714 0.640714 0.640714
0.890677 0.890677 0.890677
0.980061 0.980061 0.980061
0.845778 0.845778 0.845778
0.865656 0.865656 0.865656
0.927192 0.927192 0.927192
0.977336 0.977336 0.977336
0.992263 0.992263 0.992263
0.978683 0.978683 0.978683
0.983104 0.983104 0.983104
0.988272 0.988272 0.988272
0.993847 0.993847 0.993847
0.997822 0.997822 0.997822
0.109633 0.109633 0.109633
0.122362 0.122362 0.122362
0.334630 0.334630 0.334630
0.817892 0.817892 0.817892
0.952759 0.952759 0.952759
0.155426 0.155426 0.155426
0.180864 0.180864 0.180864
0.426784 0.426784 0.426784
0.848803 0.848803 0.848803
0.955154 0.955154 0.955154
0.493998 0.493998 0.493998
0.540490 0.540490 0.540490
0.752077 0.752077 0.752077
0.936736 0.936736 0.936736
0.985067 0.985067 0.985067
0.881923 0.881923 0.881923
0.897738 0.897738 0.897738
0.949857 0.949857 0.949857
0.983605 0.983605 0.983605
0.993505 0.993505 0.993505
0.975855 0.975855 0.975855
0.983538 0.983538 0.983538
0.989336 0.989336 0.989336
0.994282 0.994282 0.994282
0.997914 0.997914 0.997914
