LUTs/trix_classic/TriX_Yellow8_ExtraSoft.cube
TITLE "Tri-X Yellow8 ExtraSoft"
# Adobe RGB in/out. REPLACES AgX. Tri-X Yellow8 ExtraSoft.
LUT_3D_SIZE 5
DOMAIN_MIN 0.0 0.0 0.0
DOMAIN_MAX 1.0 1.0 1.0
0.099726 0.099726 0.099726
0.134179 0.134179 0.134179
0.317366 0.317366 0.317366
0.524125 0.524125 0.524125
0.699308 0.699308 0.699308
0.175489 0.175489 0.175489
0.227637 0.227637 0.227637
0.367947 0.367947 0.367947
0.539623 0.539623 0.539623
0.699312 0.699312 0.699312
0.362114 0.362114 0.362114
0.382756 0.382756 0.382756
0.471272 0.471272 0.471272
0.617613 0.617613 0.617613
0.759391 0.759391 0.759391
0.560690 0.560690 0.560690
0.574226 0.574226 0.574226
0.635116 0.635116 0.635116
0.739175 0.739175 0.739175
0.830922 0.830922 0.830922
0.706047 0.706047 0.706047
0.758144 0.758144 0.758144
0.798359 0.798359 0.798359
0.848275 0.848275 0.848275
0.903880 0.903880 0.903880
0.100853 0.100853 0.100853
0.137748 0.137748 0.137748
0.315905 0.315905 0.315905
0.525429 0.525429 0.525429
0.699312 0.699312 0.699312
0.194389 0.194389 0.194389
0.255950 0.255950 0.255950
0.361137 0.361137 0.361137
0.543183 0.543183 0.543183
0.699312 0.699312 0.699312
0.375818 0.375818 0.375818
0.394032 0.394032 0.394032
0.481188 0.481188 0.481188
0.619356 0.619356 0.619356
0.760747 0.760747 0.760747
0.572086 0.572086 0.572086
0.585256 0.585256 0.585256
0.644641 0.644641 0.644641
0.744548 0.744548 0.744548
0.832699 0.832699 0.832699
0.725723 0.725723 0.725723
0.775000 0.775000 0.775000
0.802685 0.802685 0.802685
0.852392 0.852392 0.852392
0.904915 0.904915 0.904915
0.137036 0.137036 0.137036
0.198318 0.198318 0.198318
0.330561 0.330561 0.330561
0.530762 0.530762 0.530762
0.699312 0.699312 0.699312
0.233083 0.233083 0.233083
0.270280 0.270280 0.270280
0.371962 0.371962 0.371962
0.550558 0.550558 0.550558
0.699313 0.699313 0.699313
0.394601 0.394601 0.394601
0.411320 0.411320 0.411320
0.504596 0.504596 0.504596
0.629717 0.629717 0.629717
0.765703 0.765703 0.765703
0.591735 0.591735 0.591735
0.605307 0.605307 0.605307
0.663171 0.663171 0.663171
0.753890 0.753890 0.753890
0.837212 0.837212 0.837212
0.767324 0.767324 0.767324
0.780725 0.780725 0.780725
0.810973 0.810973 0.810973
0.859808 0.859808 0.859808
0.907637 0.907637 0.907637
0.211504 0.211504 0.211504
0.247786 0.247786 0.247786
0.360164 0.360164 0.360164
0.544293 0.544293 0.544293
0.699304 0.699304 0.699304
0.277932 0.277932 0.277932
0.305537 0.305537 0.305537
0.396859 0.396859 0.396859
0.565626 0.565626 0.565626
0.699241 0.699241 0.699241
0.423721 0.423721 0.423721
0.443427 0.443427 0.443427
0.521320 0.521320 0.521320
0.646518 0.646518 0.646518
0.774604 0.774604 0.774604
0.612013 0.612013 0.612013
0.625741 0.625741 0.625741
0.682056 0.682056 0.682056
0.765056 0.765056 0.765056
0.844333 0.844333 0.844333
0.769762 0.769762 0.769762
0.785244 0.785244 0.785244
0.817469 0.817469 0.817469
0.864998 0.864998 0.864998
0.911838 0.911838 0.911838
0.289281 0.289281 0.289281
0.305256 0.305256 0.305256
0.412357 0.412357 0.412357
0.592730 0.592730 0.592730
0.711290 0.711290 0.711290
0.334340 0.334340 0.334340
0.349897 0.349897 0.349897
0.446013 0.446013 0.446013
0.614103 0.614103 0.614103
0.715213 0.715213 0.715213
0.472101 0.472101 0.472101
0.488990 0.488990 0.488990
0.558979 0.558979 0.558979
0.691962 0.691962 0.691962
0.796959 0.796959 0.796959
0.638602 0.638602 0.638602
0.652917 0.652917 0.652917
0.706553 0.706553 0.706553
0.787758 0.787758 0.787758
0.861158 0.861158 0.861158
0.759905 0.759905 0.759905
0.787334 0.787334 0.787334
0.824385 0.824385 0.824385
0.869918 0.869918 0.869918
0.917860 0.917860 0.917860
