LUTs/trix_classic/TriX_NoFilter_Soft.cube
TITLE "Tri-X NoFilter Soft"
# Adobe RGB in/out. REPLACES AgX. Tri-X NoFilter Soft.
LUT_3D_SIZE 33
DOMAIN_MIN 0.0 0.0 0.0
DOMAIN_MAX 1.0 1.0 1.0
0.093873 0.093873 0.093873
0.093873 0.093873 0.093873
0.093873 0.093873 0.093873
0.093873 0.093873 0.093873
0.093873 0.093873 0.093873
0.093867 0.093867 0.093867
0.093963 0.093963 0.093963
0.094133 0.094133 0.094133
0.094252 0.094252 0.094252
0.096135 0.096135 0.096135
0.101396 0.101396 0.101396
0.110178 0.110178 0.110178
0.121568 0.121568 0.121568
0.138894 0.138894 0.138894
0.164290 0.164290 0.164290
0.184489 0.184489 0.184489
0.206284 0.206284 0.206284
0.230400 0.230400 0.230400
0.256443 0.256443 0.256443
0.278214 0.278214 0.278214
0.298046 0.298046 0.298046
0.318449 0.318449 0.318449
0.339558 0.339558 0.339558
0.359998 0.359998 0.359998
0.378019 0.378019 0.378019
0.396280 0.396280 0.396280
0.420570 0.420570 0.420570
0.451139 0.451139 0.451139
0.564906 0.564906 0.564906
0.564888 0.564888 0.564888
0.564886 0.564886 0.564886
0.564886 0.564886 0.564886
0.645398 0.645398 0.645398
0.093873 0.093873 0.093873
0.093873 0.093873 0.093873
0.093873 0.093873 0.093873
0.093873 0.093873 0.093873
0.093856 0.093856 0.093856
0.093889 0.093889 0.093889
0.093980 0.093980 0.093980
0.094165 0.094165 0.094165
0.094275 0.094275 0.094275
0.096384 0.096384 0.096384
0.101871 0.101871 0.101871
0.111096 0.111096 0.111096
0.122362 0.122362 0.122362
0.139701 0.139701 0.139701
0.164973 0.164973 0.164973
0.185034 0.185034 0.185034
0.206743 0.206743 0.206743
0.230707 0.230707 0.230707
0.256696 0.256696 0.256696
0.278366 0.278366 0.278366
0.298161 0.298161 0.298161
0.318553 0.318553 0.318553
0.339642 0.339642 0.339642
0.360060 0.360060 0.360060
0.378069 0.378069 0.378069
0.396298 0.396298 0.396298
0.420441 0.420441 0.420441
0.450425 0.450425 0.450425
0.564906 0.564906 0.564906
0.564888 0.564888 0.564888
0.564886 0.564886 0.564886
0.564886 0.564886 0.564886
0.645399 0.645399 0.645399
0.093873 0.093873 0.093873
0.093873 0.093873 0.093873
0.093873 0.093873 0.093873
0.093873 0.093873 0.093873
0.093918 0.093918 0.093918
0.093958 0.093958 0.093958
0.094079 0.094079 0.094079
0.094477 0.094477 0.094477
0.095515 0.095515 0.095515
0.097410 0.097410 0.097410
0.104846 0.104846 0.104846
0.114627 0.114627 0.114627
0.125393 0.125393 0.125393
0.142769 0.142769 0.142769
0.167561 0.167561 0.167561
0.187094 0.187094 0.187094
0.208477 0.208477 0.208477
0.231864 0.231864 0.231864
0.257646 0.257646 0.257646
0.278933 0.278933 0.278933
0.298590 0.298590 0.298590
0.318938 0.318938 0.318938
0.339954 0.339954 0.339954
0.360291 0.360291 0.360291
0.378259 0.378259 0.378259
0.396379 0.396379 0.396379
0.420028 0.420028 0.420028
0.448025 0.448025 0.448025
0.564908 0.564908 0.564908
0.564888 0.564888 0.564888
0.564887 0.564887 0.564887
0.564887 0.564887 0.564887
0.645399 0.645399 0.645399
0.093873 0.093873 0.093873
0.093873 0.093873 0.093873
0.093873 0.093873 0.093873
0.093863 0.093863 0.093863
0.093968 0.093968 0.093968
0.094019 0.094019 0.094019
0.094204 0.094204 0.094204
0.096371 0.096371 0.096371
0.097404 0.097404 0.097404
0.100692 0.100692 0.100692
0.112575 0.112575 0.112575
0.122579 0.122579 0.122579
0.132593 0.132593 0.132593
0.149199 0.149199 0.149199
0.172931 0.172931 0.172931
0.191345 0.191345 0.191345
0.212042 0.212042 0.212042
0.234228 0.234228 0.234228
0.259574 0.259574 0.259574
0.280084 0.280084 0.280084
0.299457 0.299457 0.299457
0.319708 0.319708 0.319708
0.340575 0.340575 0.340575
0.360758 0.360758 0.360758
0.378654 0.378654 0.378654
0.396595 0.396595 0.396595
0.419443 0.419443 0.419443
0.444282 0.444282 0.444282
0.564911 0.564911 0.564911
0.564888 0.564888 0.564888
0.564887 0.564887 0.564887
0.564888 0.564888 0.564888
0.645399 0.645399 0.645399
0.093912 0.093912 0.093912
0.093917 0.093917 0.093917
0.093938 0.093938 0.093938
0.093974 0.093974 0.093974
0.094048 0.094048 0.094048
0.094091 0.094091 0.094091
0.094581 0.094581 0.094581
0.097953 0.097953 0.097953
0.100426 0.100426 0.100426
0.106248 0.106248 0.106248
0.122545 0.122545 0.122545
0.132574 0.132574 0.132574
0.143394 0.143394 0.143394
0.159739 0.159739 0.159739
0.182741 0.182741 0.182741
0.199043 0.199043 0.199043
0.217923 0.217923 0.217923
0.238430 0.238430 0.238430
0.262963 0.262963 0.262963
0.282102 0.282102 0.282102
0.300964 0.300964 0.300964
0.321029 0.321029 0.321029
0.341633 0.341633 0.341633
0.361562 0.361562 0.361562
0.379363 0.379363 0.379363
0.397075 0.397075 0.397075
0.418929 0.418929 0.418929
0.440189 0.440189 0.440189
0.564918 0.564918 0.564918
0.564889 0.564889 0.564889
0.564887 0.564887 0.564887
0.564898 0.564898 0.564898
0.645399 0.645399 0.645399
0.093976 0.093976 0.093976
0.093979 0.093979 0.093979
0.093997 0.093997 0.093997
0.094043 0.094043 0.094043
0.094099 0.094099 0.094099
0.094203 0.094203 0.094203
0.095966 0.095966 0.095966
0.100941 0.100941 0.100941
0.104260 0.104260 0.104260
0.113246 0.113246 0.113246
0.131939 0.131939 0.131939
0.144618 0.144618 0.144618
0.155589 0.155589 0.155589
0.170990 0.170990 0.170990
0.192725 0.192725 0.192725
0.209130 0.209130 0.209130
0.225768 0.225768 0.225768
0.245552 0.245552 0.245552
0.268734 0.268734 0.268734
0.285528 0.285528 0.285528
0.303560 0.303560 0.303560
0.323197 0.323197 0.323197
0.343345 0.343345 0.343345
0.362877 0.362877 0.362877
0.380555 0.380555 0.380555
0.398021 0.398021 0.398021
0.418799 0.418799 0.418799
0.436923 0.436923 0.436923
0.564931 0.564931 0.564931
0.564890 0.564890 0.564890
0.564888 0.564888 0.564888
0.596685 0.596685 0.596685
0.645399 0.645399 0.645399
0.094186 0.094186 0.094186
0.094189 0.094189 0.094189
0.094218 0.094218 0.094218
0.094264 0.094264 0.094264
0.095008 0.095008 0.095008
0.096178 0.096178 0.096178
0.097647 0.097647 0.097647
0.105832 0.105832 0.105832
0.109761 0.109761 0.109761
0.120349 0.120349 0.120349
0.142080 0.142080 0.142080
0.155995 0.155995 0.155995
0.166880 0.166880 0.166880
0.182739 0.182739 0.182739
0.205672 0.205672 0.205672
0.221208 0.221208 0.221208
0.234504 0.234504 0.234504
0.252518 0.252518 0.252518
0.274314 0.274314 0.274314
0.290199 0.290199 0.290199
0.307694 0.307694 0.307694
0.326778 0.326778 0.326778
0.346108 0.346108 0.346108
0.364997 0.364997 0.364997
0.382509 0.382509 0.382509
0.399730 0.399730 0.399730
0.419416 0.419416 0.419416
0.435331 0.435331 0.435331
0.564963 0.564963 0.564963
0.564894 0.564894 0.564894
0.564889 0.564889 0.564889
0.596703 0.596703 0.596703
0.645399 0.645399 0.645399
0.096876 0.096876 0.096876
0.096907 0.096907 0.096907
0.097292 0.097292 0.097292
0.097872 0.097872 0.097872
0.099448 0.099448 0.099448
0.101910 0.101910 0.101910
0.106602 0.106602 0.106602
0.114000 0.114000 0.114000
0.117747 0.117747 0.117747
0.128058 0.128058 0.128058
0.152034 0.152034 0.152034
0.165977 0.165977 0.165977
0.177518 0.177518 0.177518
0.194440 0.194440 0.194440
0.218510 0.218510 0.218510
0.231579 0.231579 0.231579
0.244739 0.244739 0.244739
0.262466 0.262466 0.262466
0.281664 0.281664 0.281664
0.295752 0.295752 0.295752
0.312175 0.312175 0.312175
0.330708 0.330708 0.330708
0.349601 0.349601 0.349601
0.368067 0.368067 0.368067
0.385697 0.385697 0.385697
0.402670 0.402670 0.402670
0.421248 0.421248 0.421248
0.435961 0.435961 0.435961
0.565083 0.565083 0.565083
0.564906 0.564906 0.564906
0.564894 0.564894 0.564894
0.596705 0.596705 0.596705
0.645399 0.645399 0.645399
0.099789 0.099789 0.099789
0.099840 0.099840 0.099840
0.100324 0.100324 0.100324
0.101379 0.101379 0.101379
0.103427 0.103427 0.103427
0.106660 0.106660 0.106660
0.111997 0.111997 0.111997
0.118890 0.118890 0.118890
0.127223 0.127223 0.127223
0.138768 0.138768 0.138768
0.163029 0.163029 0.163029
0.176647 0.176647 0.176647
0.188338 0.188338 0.188338
0.206005 0.206005 0.206005
0.229416 0.229416 0.229416
0.242653 0.242653 0.242653
0.255864 0.255864 0.255864
0.272321 0.272321 0.272321
0.289649 0.289649 0.289649
0.303045 0.303045 0.303045
0.318937 0.318937 0.318937
0.336105 0.336105 0.336105
0.353856 0.353856 0.353856
0.371469 0.371469 0.371469
0.388712 0.388712 0.388712
0.405909 0.405909 0.405909
0.424110 0.424110 0.424110
0.439226 0.439226 0.439226
0.567548 0.567548 0.567548
0.565037 0.565037 0.565037
0.564926 0.564926 0.564926
0.596710 0.596710 0.596710
0.645399 0.645399 0.645399
0.108075 0.108075 0.108075
0.108158 0.108158 0.108158
0.108925 0.108925 0.108925
0.111145 0.111145 0.111145
0.114159 0.114159 0.114159
0.118458 0.118458 0.118458
0.123889 0.123889 0.123889
0.130901 0.130901 0.130901
0.140251 0.140251 0.140251
0.151077 0.151077 0.151077
0.175280 0.175280 0.175280
0.188487 0.188487 0.188487
0.199530 0.199530 0.199530
0.217515 0.217515 0.217515
0.240273 0.240273 0.240273
0.253751 0.253751 0.253751
0.266988 0.266988 0.266988
0.281432 0.281432 0.281432
0.298970 0.298970 0.298970
0.311690 0.311690 0.311690
0.325846 0.325846 0.325846
0.342319 0.342319 0.342319
0.359658 0.359658 0.359658
0.376310 0.376310 0.376310
0.392895 0.392895 0.392895
0.409689 0.409689 0.409689
0.426995 0.426995 0.426995
0.441668 0.441668 0.441668
0.459629 0.459629 0.459629
0.482515 0.482515 0.482515
0.571845 0.571845 0.571845
0.597652 0.597652 0.597652
0.645399 0.645399 0.645399
0.129715 0.129715 0.129715
0.129821 0.129821 0.129821
0.130606 0.130606 0.130606
0.133693 0.133693 0.133693
0.137425 0.137425 0.137425
0.142257 0.142257 0.142257
0.148847 0.148847 0.148847
0.156733 0.156733 0.156733
0.166094 0.166094 0.166094
0.176933 0.176933 0.176933
0.189290 0.189290 0.189290
0.201646 0.201646 0.201646
0.212789 0.212789 0.212789
0.228371 0.228371 0.228371
0.251449 0.251449 0.251449
0.264841 0.264841 0.264841
0.276600 0.276600 0.276600
0.290807 0.290807 0.290807
0.308966 0.308966 0.308966
0.320710 0.320710 0.320710
0.334498 0.334498 0.334498
0.349897 0.349897 0.349897
0.365923 0.365923 0.365923
0.381717 0.381717 0.381717
0.398122 0.398122 0.398122
0.414529 0.414529 0.414529
0.431059 0.431059 0.431059
0.445312 0.445312 0.445312
0.461972 0.461972 0.461972
0.479958 0.479958 0.479958
0.554194 0.554194 0.554194
0.600592 0.600592 0.600592
0.601656 0.601656 0.601656
0.148076 0.148076 0.148076
0.148169 0.148169 0.148169
0.148795 0.148795 0.148795
0.151333 0.151333 0.151333
0.154526 0.154526 0.154526
0.159298 0.159298 0.159298
0.165711 0.165711 0.165711
0.172879 0.172879 0.172879
0.181589 0.181589 0.181589
0.191704 0.191704 0.191704
0.203474 0.203474 0.203474
0.217051 0.217051 0.217051
0.225231 0.225231 0.225231
0.240303 0.240303 0.240303
0.263191 0.263191 0.263191
0.274980 0.274980 0.274980
0.286099 0.286099 0.286099
0.300475 0.300475 0.300475
0.318972 0.318972 0.318972
0.330447 0.330447 0.330447
0.343670 0.343670 0.343670
0.357931 0.357931 0.357931
0.373601 0.373601 0.373601
0.388586 0.388586 0.388586
0.403989 0.403989 0.403989
0.419332 0.419332 0.419332
0.435674 0.435674 0.435674
0.450217 0.450217 0.450217
0.466267 0.466267 0.466267
0.481608 0.481608 0.481608
0.528425 0.528425 0.528425
0.600608 0.600608 0.600608
0.602666 0.602666 0.602666
0.164661 0.164661 0.164661
0.164743 0.164743 0.164743
0.165252 0.165252 0.165252
0.167186 0.167186 0.167186
0.170477 0.170477 0.170477
0.174961 0.174961 0.174961
0.180388 0.180388 0.180388
0.187154 0.187154 0.187154
0.195317 0.195317 0.195317
0.205030 0.205030 0.205030
0.216225 0.216225 0.216225
0.226817 0.226817 0.226817
0.238886 0.238886 0.238886
0.253030 0.253030 0.253030
0.274867 0.274867 0.274867
0.285313 0.285313 0.285313
0.295999 0.295999 0.295999
0.310720 0.310720 0.310720
0.329334 0.329334 0.329334
0.340331 0.340331 0.340331
0.352785 0.352785 0.352785
0.367016 0.367016 0.367016
0.382354 0.382354 0.382354
0.395904 0.395904 0.395904
0.410864 0.410864 0.410864
0.425566 0.425566 0.425566
0.440893 0.440893 0.440893
0.454901 0.454901 0.454901
0.470687 0.470687 0.470687
0.485960 0.485960 0.485960
0.506376 0.506376 0.506376
0.600634 0.600634 0.600634
0.604134 0.604134 0.604134
0.186302 0.186302 0.186302
0.186384 0.186384 0.186384
0.186841 0.186841 0.186841
0.188431 0.188431 0.188431
0.192076 0.192076 0.192076
0.195934 0.195934 0.195934
0.201159 0.201159 0.201159
0.208209 0.208209 0.208209
0.216308 0.216308 0.216308
0.224188 0.224188 0.224188
0.233237 0.233237 0.233237
0.243511 0.243511 0.243511
0.254652 0.254652 0.254652
0.267150 0.267150 0.267150
0.286081 0.286081 0.286081
0.296254 0.296254 0.296254
0.306530 0.306530 0.306530
0.320963 0.320963 0.320963
0.339427 0.339427 0.339427
0.350312 0.350312 0.350312
0.362575 0.362575 0.362575
0.376712 0.376712 0.376712
0.391358 0.391358 0.391358
0.404468 0.404468 0.404468
0.418135 0.418135 0.418135
0.431982 0.431982 0.431982
0.446939 0.446939 0.446939
0.460922 0.460922 0.460922
0.475953 0.475953 0.475953
0.490280 0.490280 0.490280
0.507491 0.507491 0.507491
0.546325 0.546325 0.546325
0.625522 0.625522 0.625522
0.215694 0.215694 0.215694
0.215781 0.215781 0.215781
0.216214 0.216214 0.216214
0.217539 0.217539 0.217539
0.221062 0.221062 0.221062
0.224164 0.224164 0.224164
0.229041 0.229041 0.229041
0.234731 0.234731 0.234731
0.241535 0.241535 0.241535
0.249373 0.249373 0.249373
0.258368 0.258368 0.258368
0.268166 0.268166 0.268166
0.277514 0.277514 0.277514
0.287437 0.287437 0.287437
0.298259 0.298259 0.298259
0.307762 0.307762 0.307762
0.318045 0.318045 0.318045
0.332158 0.332158 0.332158
0.349789 0.349789 0.349789
0.360416 0.360416 0.360416
0.372711 0.372711 0.372711
0.386884 0.386884 0.386884
0.401187 0.401187 0.401187
0.413544 0.413544 0.413544
0.425951 0.425951 0.425951
0.439550 0.439550 0.439550
0.453702 0.453702 0.453702
0.467014 0.467014 0.467014
0.481953 0.481953 0.481953
0.496348 0.496348 0.496348
0.511588 0.511588 0.511588
0.534527 0.534527 0.534527
0.623504 0.623504 0.623504
0.234557 0.234557 0.234557
0.234636 0.234636 0.234636
0.235012 0.235012 0.235012
0.236108 0.236108 0.236108
0.238897 0.238897 0.238897
0.242257 0.242257 0.242257
0.247281 0.247281 0.247281
0.251996 0.251996 0.251996
0.258247 0.258247 0.258247
0.265815 0.265815 0.265815
0.273246 0.273246 0.273246
0.280904 0.280904 0.280904
0.289553 0.289553 0.289553
0.298881 0.298881 0.298881
0.309205 0.309205 0.309205
0.320493 0.320493 0.320493
0.330041 0.330041 0.330041
0.343359 0.343359 0.343359
0.360703 0.360703 0.360703
0.371202 0.371202 0.371202
0.383088 0.383088 0.383088
0.397263 0.397263 0.397263
0.411387 0.411387 0.411387
0.422567 0.422567 0.422567
0.434655 0.434655 0.434655
0.447757 0.447757 0.447757
0.461027 0.461027 0.461027
0.474207 0.474207 0.474207
0.488526 0.488526 0.488526
0.502119 0.502119 0.502119
0.517051 0.517051 0.517051
0.534738 0.534738 0.534738
0.607774 0.607774 0.607774
0.253705 0.253705 0.253705
0.253777 0.253777 0.253777
0.254107 0.254107 0.254107
0.255026 0.255026 0.255026
0.257274 0.257274 0.257274
0.260911 0.260911 0.260911
0.264603 0.264603 0.264603
0.269482 0.269482 0.269482
0.274501 0.274501 0.274501
0.280233 0.280233 0.280233
0.286718 0.286718 0.286718
0.293905 0.293905 0.293905
0.301995 0.301995 0.301995
0.310991 0.310991 0.310991
0.320840 0.320840 0.320840
0.331489 0.331489 0.331489
0.342488 0.342488 0.342488
0.354987 0.354987 0.354987
0.371886 0.371886 0.371886
0.382052 0.382052 0.382052
0.393892 0.393892 0.393892
0.407845 0.407845 0.407845
0.421172 0.421172 0.421172
0.432102 0.432102 0.432102
0.444025 0.444025 0.444025
0.456546 0.456546 0.456546
0.469224 0.469224 0.469224
0.481698 0.481698 0.481698
0.495649 0.495649 0.495649
0.509161 0.509161 0.509161
0.523050 0.523050 0.523050
0.537863 0.537863 0.537863
0.578655 0.578655 0.578655
0.274987 0.274987 0.274987
0.275048 0.275048 0.275048
0.275315 0.275315 0.275315
0.276011 0.276011 0.276011
0.277618 0.277618 0.277618
0.280979 0.280979 0.280979
0.283375 0.283375 0.283375
0.287715 0.287715 0.287715
0.292252 0.292252 0.292252
0.297420 0.297420 0.297420
0.303647 0.303647 0.303647
0.310764 0.310764 0.310764
0.318791 0.318791 0.318791
0.327149 0.327149 0.327149
0.336515 0.336515 0.336515
0.346021 0.346021 0.346021
0.356270 0.356270 0.356270
0.367292 0.367292 0.367292
0.383667 0.383667 0.383667
0.393566 0.393566 0.393566
0.404986 0.404986 0.404986
0.418101 0.418101 0.418101
0.431183 0.431183 0.431183
0.441941 0.441941 0.441941
0.453852 0.453852 0.453852
0.466019 0.466019 0.466019
0.478070 0.478070 0.478070
0.489985 0.489985 0.489985
0.503535 0.503535 0.503535
0.516226 0.516226 0.516226
0.529917 0.529917 0.529917
0.543968 0.543968 0.543968
0.568760 0.568760 0.568760
0.296485 0.296485 0.296485
0.296554 0.296554 0.296554
0.296838 0.296838 0.296838
0.297523 0.297523 0.297523
0.298985 0.298985 0.298985
0.301971 0.301971 0.301971
0.304838 0.304838 0.304838
0.308988 0.308988 0.308988
0.313394 0.313394 0.313394
0.318986 0.318986 0.318986
0.325111 0.325111 0.325111
0.332028 0.332028 0.332028
0.339207 0.339207 0.339207
0.346953 0.346953 0.346953
0.355335 0.355335 0.355335
0.364711 0.364711 0.364711
0.374432 0.374432 0.374432
0.384766 0.384766 0.384766
0.396000 0.396000 0.396000
0.405503 0.405503 0.405503
0.416176 0.416176 0.416176
0.428547 0.428547 0.428547
0.441485 0.441485 0.441485
0.452168 0.452168 0.452168
0.463784 0.463784 0.463784
0.475923 0.475923 0.475923
0.487421 0.487421 0.487421
0.499020 0.499020 0.499020
0.511708 0.511708 0.511708
0.524085 0.524085 0.524085
0.537439 0.537439 0.537439
0.550192 0.550192 0.550192
0.569060 0.569060 0.569060
0.314265 0.314265 0.314265
0.314328 0.314328 0.314328
0.314584 0.314584 0.314584
0.315186 0.315186 0.315186
0.316443 0.316443 0.316443
0.318945 0.318945 0.318945
0.322091 0.322091 0.322091
0.325292 0.325292 0.325292
0.329821 0.329821 0.329821
0.334982 0.334982 0.334982
0.340052 0.340052 0.340052
0.346081 0.346081 0.346081
0.352800 0.352800 0.352800
0.360144 0.360144 0.360144
0.368204 0.368204 0.368204
0.376870 0.376870 0.376870
0.386207 0.386207 0.386207
0.396244 0.396244 0.396244
0.406706 0.406706 0.406706
0.417399 0.417399 0.417399
0.427221 0.427221 0.427221
0.439424 0.439424 0.439424
0.452115 0.452115 0.452115
0.462693 0.462693 0.462693
0.474228 0.474228 0.474228
0.486094 0.486094 0.486094
0.497289 0.497289 0.497289
0.508540 0.508540 0.508540
0.520499 0.520499 0.520499
0.532402 0.532402 0.532402
0.545231 0.545231 0.545231
0.557855 0.557855 0.557855
0.573189 0.573189 0.573189
0.333115 0.333115 0.333115
0.333176 0.333176 0.333176
0.333417 0.333417 0.333417
0.333965 0.333965 0.333965
0.335059 0.335059 0.335059
0.337065 0.337065 0.337065
0.340338 0.340338 0.340338
0.342780 0.342780 0.342780
0.347253 0.347253 0.347253
0.351014 0.351014 0.351014
0.356223 0.356223 0.356223
0.362117 0.362117 0.362117
0.368259 0.368259 0.368259
0.375051 0.375051 0.375051
0.382694 0.382694 0.382694
0.391001 0.391001 0.391001
0.399721 0.399721 0.399721
0.409172 0.409172 0.409172
0.418678 0.418678 0.418678
0.428383 0.428383 0.428383
0.438906 0.438906 0.438906
0.450465 0.450465 0.450465
0.462969 0.462969 0.462969
0.473523 0.473523 0.473523
0.484862 0.484862 0.484862
0.496714 0.496714 0.496714
0.507662 0.507662 0.507662
0.518346 0.518346 0.518346
0.529859 0.529859 0.529859
0.541120 0.541120 0.541120
0.553672 0.553672 0.553672
0.565677 0.565677 0.565677
0.579518 0.579518 0.579518
0.352125 0.352125 0.352125
0.352186 0.352186 0.352186
0.352426 0.352426 0.352426
0.352946 0.352946 0.352946
0.353935 0.353935 0.353935
0.355743 0.355743 0.355743
0.359003 0.359003 0.359003
0.361471 0.361471 0.361471
0.365136 0.365136 0.365136
0.369282 0.369282 0.369282
0.374331 0.374331 0.374331
0.379412 0.379412 0.379412
0.385470 0.385470 0.385470
0.392121 0.392121 0.392121
0.399278 0.399278 0.399278
0.407203 0.407203 0.407203
0.415105 0.415105 0.415105
0.423378 0.423378 0.423378
0.432212 0.432212 0.432212
0.441822 0.441822 0.441822
0.451607 0.451607 0.451607
0.462115 0.462115 0.462115
0.474116 0.474116 0.474116
0.484576 0.484576 0.484576
0.495751 0.495751 0.495751
0.507477 0.507477 0.507477
0.518291 0.518291 0.518291
0.528734 0.528734 0.528734
0.539759 0.539759 0.539759
0.550501 0.550501 0.550501
0.562471 0.562471 0.562471
0.574164 0.574164 0.574164
0.587033 0.587033 0.587033
0.371651 0.371651 0.371651
0.371714 0.371714 0.371714
0.371955 0.371955 0.371955
0.372463 0.372463 0.372463
0.373391 0.373391 0.373391
0.375020 0.375020 0.375020
0.377849 0.377849 0.377849
0.380780 0.380780 0.380780
0.383858 0.383858 0.383858
0.388368 0.388368 0.388368
0.392435 0.392435 0.392435
0.397719 0.397719 0.397719
0.403744 0.403744 0.403744
0.409717 0.409717 0.409717
0.415916 0.415916 0.415916
0.422779 0.422779 0.422779
0.430253 0.430253 0.430253
0.438209 0.438209 0.438209
0.446669 0.446669 0.446669
0.455669 0.455669 0.455669
0.465278 0.465278 0.465278
0.475243 0.475243 0.475243
0.485764 0.485764 0.485764
0.496040 0.496040 0.496040
0.506968 0.506968 0.506968
0.518300 0.518300 0.518300
0.529130 0.529130 0.529130
0.539436 0.539436 0.539436
0.550223 0.550223 0.550223
0.560484 0.560484 0.560484
0.571780 0.571780 0.571780
0.583144 0.583144 0.583144
0.595095 0.595095 0.595095
0.390837 0.390837 0.390837
0.390892 0.390892 0.390892
0.391102 0.391102 0.391102
0.391540 0.391540 0.391540
0.392329 0.392329 0.392329
0.393692 0.393692 0.393692
0.396024 0.396024 0.396024
0.399184 0.399184 0.399184
0.401704 0.401704 0.401704
0.405827 0.405827 0.405827
0.409666 0.409666 0.409666
0.414385 0.414385 0.414385
0.418961 0.418961 0.418961
0.424534 0.424534 0.424534
0.430652 0.430652 0.430652
0.436933 0.436933 0.436933
0.443911 0.443911 0.443911
0.451458 0.451458 0.451458
0.459580 0.459580 0.459580
0.468207 0.468207 0.468207
0.477400 0.477400 0.477400
0.487012 0.487012 0.487012
0.497241 0.497241 0.497241
0.507957 0.507957 0.507957
0.518350 0.518350 0.518350
0.529401 0.529401 0.529401
0.540261 0.540261 0.540261
0.550412 0.550412 0.550412
0.560991 0.560991 0.560991
0.570997 0.570997 0.570997
0.581698 0.581698 0.581698
0.592370 0.592370 0.592370
0.603926 0.603926 0.603926
0.409289 0.409289 0.409289
0.409347 0.409347 0.409347
0.409564 0.409564 0.409564
0.409968 0.409968 0.409968
0.410672 0.410672 0.410672
0.411840 0.411840 0.411840
0.413764 0.413764 0.413764
0.416970 0.416970 0.416970
0.419018 0.419018 0.419018
0.422219 0.422219 0.422219
0.426154 0.426154 0.426154
0.430043 0.430043 0.430043
0.434804 0.434804 0.434804
0.440115 0.440115 0.440115
0.445558 0.445558 0.445558
0.451765 0.451765 0.451765
0.458540 0.458540 0.458540
0.465776 0.465776 0.465776
0.473450 0.473450 0.473450
0.481687 0.481687 0.481687
0.490409 0.490409 0.490409
0.499633 0.499633 0.499633
0.509301 0.509301 0.509301
0.519498 0.519498 0.519498
0.530059 0.530059 0.530059
0.540726 0.540726 0.540726
0.551786 0.551786 0.551786
0.561649 0.561649 0.561649
0.572153 0.572153 0.572153
0.581860 0.581860 0.581860
0.592155 0.592155 0.592155
0.602266 0.602266 0.602266
0.613092 0.613092 0.613092
0.426207 0.426207 0.426207
0.426263 0.426263 0.426263
0.426471 0.426471 0.426471
0.426885 0.426885 0.426885
0.427583 0.427583 0.427583
0.428702 0.428702 0.428702
0.430477 0.430477 0.430477
0.433336 0.433336 0.433336
0.435882 0.435882 0.435882
0.438690 0.438690 0.438690
0.443010 0.443010 0.443010
0.446353 0.446353 0.446353
0.451257 0.451257 0.451257
0.455765 0.455765 0.455765
0.461379 0.461379 0.461379
0.467274 0.467274 0.467274
0.473548 0.473548 0.473548
0.480419 0.480419 0.480419
0.487767 0.487767 0.487767
0.495658 0.495658 0.495658
0.504036 0.504036 0.504036
0.512846 0.512846 0.512846
0.522008 0.522008 0.522008
0.531596 0.531596 0.531596
0.541839 0.541839 0.541839
0.552315 0.552315 0.552315
0.563606 0.563606 0.563606
0.573319 0.573319 0.573319
0.583663 0.583663 0.583663
0.593181 0.593181 0.593181
0.602938 0.602938 0.602938
0.612632 0.612632 0.612632
0.623016 0.623016 0.623016
0.446100 0.446100 0.446100
0.446145 0.446145 0.446145
0.446311 0.446311 0.446311
0.446637 0.446637 0.446637
0.447183 0.447183 0.447183
0.448053 0.448053 0.448053
0.449435 0.449435 0.449435
0.451691 0.451691 0.451691
0.454396 0.454396 0.454396
0.456684 0.456684 0.456684
0.460155 0.460155 0.460155
0.463819 0.463819 0.463819
0.467816 0.467816 0.467816
0.472456 0.472456 0.472456
0.477522 0.477522 0.477522
0.482929 0.482929 0.482929
0.489137 0.489137 0.489137
0.495671 0.495671 0.495671
0.502513 0.502513 0.502513
0.509949 0.509949 0.509949
0.517851 0.517851 0.517851
0.526288 0.526288 0.526288
0.535242 0.535242 0.535242
0.544676 0.544676 0.544676
0.554616 0.554616 0.554616
