LUTs/trix_classic/TriX_Orange21_Normal.cube
TITLE "Tri-X Orange21 Normal"
# Adobe RGB in/out. REPLACES AgX. Tri-X Orange21 Normal.
LUT_3D_SIZE 9
DOMAIN_MIN 0.0 0.0 0.0
DOMAIN_MAX 1.0 1.0 1.0
0.093230 0.093230 0.093230
0.093288 0.093288 0.093288
0.107685 0.107685 0.107685
0.220845 0.220845 0.220845
0.371180 0.371180 0.371180
0.534327 0.534327 0.534327
0.682694 0.682694 0.682694
0.809695 0.809695 0.809695
0.861509 0.861509 0.861509
0.093230 0.093230 0.093230
0.095360 0.095360 0.095360
0.152038 0.152038 0.152038
0.266815 0.266815 0.266815
0.385375 0.385375 0.385375
0.536558 0.536558 0.536558
0.683777 0.683777 0.683777
0.809704 0.809704 0.809704
0.861512 0.861512 0.861512
0.093755 0.093755 0.093755
0.101968 0.101968 0.101968
0.188032 0.188032 0.188032
0.319274 0.319274 0.319274
0.435839 0.435839 0.435839
0.554643 0.554643 0.554643
0.689525 0.689525 0.689525
0.812855 0.812855 0.812855
0.861513 0.861513 0.861513
0.102694 0.102694 0.102694
0.125593 0.125593 0.125593
0.236600 0.236600 0.236600
0.351422 0.351422 0.351422
0.476936 0.476936 0.476936
0.593239 0.593239 0.593239
0.706186 0.706186 0.706186
0.808864 0.808864 0.808864
0.861525 0.861525 0.861525
0.144605 0.144605 0.144605
0.174667 0.174667 0.174667
0.282247 0.282247 0.282247
0.393931 0.393931 0.393931
0.510633 0.510633 0.510633
0.631303 0.631303 0.631303
0.736326 0.736326 0.736326
0.820565 0.820565 0.820565
0.893802 0.893802 0.893802
0.217950 0.217950 0.217950
0.243810 0.243810 0.243810
0.328910 0.328910 0.328910
0.436657 0.436657 0.436657
0.548836 0.548836 0.548836
0.664692 0.664692 0.664692
0.768650 0.768650 0.768650
0.836608 0.836608 0.836608
0.900929 0.900929 0.900929
0.298882 0.298882 0.298882
0.315013 0.315013 0.315013
0.384736 0.384736 0.384736
0.483925 0.483925 0.483925
0.589925 0.589925 0.589925
0.696747 0.696747 0.696747
0.791693 0.791693 0.791693
0.857122 0.857122 0.857122
0.907986 0.907986 0.907986
0.396323 0.396323 0.396323
0.404602 0.404602 0.404602
0.461062 0.461062 0.461062
0.543296 0.543296 0.543296
0.638495 0.638495 0.638495
0.731933 0.731933 0.731933
0.811669 0.811669 0.811669
0.879407 0.879407 0.879407
0.917126 0.917126 0.917126
0.414382 0.414382 0.414382
0.414393 0.414393 0.414393
0.575253 0.575253 0.575253
0.575258 0.575258 0.575258
0.695263 0.695263 0.695263
0.772592 0.772592 0.772592
0.832336 0.832336 0.832336
0.894090 0.894090 0.894090
0.929650 0.929650 0.929650
0.093230 0.093230 0.093230
0.093263 0.093263 0.093263
0.098919 0.098919 0.098919
0.194455 0.194455 0.194455
0.363891 0.363891 0.363891
0.533355 0.533355 0.533355
0.682261 0.682261 0.682261
0.809703 0.809703 0.809703
0.861512 0.861512 0.861512
0.093252 0.093252 0.093252
0.097009 0.097009 0.097009
0.124278 0.124278 0.124278
0.231982 0.231982 0.231982
0.375280 0.375280 0.375280
0.535321 0.535321 0.535321
0.683378 0.683378 0.683378
0.809717 0.809717 0.809717
0.861513 0.861513 0.861513
0.094903 0.094903 0.094903
0.103746 0.103746 0.103746
0.184123 0.184123 0.184123
0.308421 0.308421 0.308421
0.421108 0.421108 0.421108
0.550955 0.550955 0.550955
0.689292 0.689292 0.689292
0.813785 0.813785 0.813785
0.861513 0.861513 0.861513
0.109945 0.109945 0.109945
0.134560 0.134560 0.134560
0.236102 0.236102 0.236102
0.348242 0.348242 0.348242
0.470850 0.470850 0.470850
0.586622 0.586622 0.586622
0.705070 0.705070 0.705070
0.808660 0.808660 0.808660
0.861516 0.861516 0.861516
0.156739 0.156739 0.156739
0.186057 0.186057 0.186057
0.284453 0.284453 0.284453
0.392090 0.392090 0.392090
0.508079 0.508079 0.508079
0.627265 0.627265 0.627265
0.733596 0.733596 0.733596
0.820379 0.820379 0.820379
0.893735 0.893735 0.893735
0.227112 0.227112 0.227112
0.252239 0.252239 0.252239
0.331549 0.331549 0.331549
0.436323 0.436323 0.436323
0.547428 0.547428 0.547428
0.662997 0.662997 0.662997
0.766571 0.766571 0.766571
0.836142 0.836142 0.836142
0.900906 0.900906 0.900906
0.303591 0.303591 0.303591
0.319452 0.319452 0.319452
0.387426 0.387426 0.387426
0.484501 0.484501 0.484501
0.589491 0.589491 0.589491
0.696247 0.696247 0.696247
0.791154 0.791154 0.791154
0.856370 0.856370 0.856370
0.908091 0.908091 0.908091
0.396568 0.396568 0.396568
0.405666 0.405666 0.405666
0.462566 0.462566 0.462566
0.543952 0.543952 0.543952
0.638598 0.638598 0.638598
0.731956 0.731956 0.731956
0.811806 0.811806 0.811806
0.879098 0.879098 0.879098
0.917263 0.917263 0.917263
0.414389 0.414389 0.414389
0.414408 0.414408 0.414408
0.575254 0.575254 0.575254
0.575259 0.575259 0.575259
0.695597 0.695597 0.695597
0.772920 0.772920 0.772920
0.832727 0.832727 0.832727
0.894353 0.894353 0.894353
0.929733 0.929733 0.929733
0.093230 0.093230 0.093230
0.093713 0.093713 0.093713
0.102691 0.102691 0.102691
0.195064 0.195064 0.195064
0.358945 0.358945 0.358945
0.531058 0.531058 0.531058
0.680996 0.680996 0.680996
0.811421 0.811421 0.811421
0.861513 0.861513 0.861513
0.093266 0.093266 0.093266
0.095384 0.095384 0.095384
0.122338 0.122338 0.122338
0.223136 0.223136 0.223136
0.368157 0.368157 0.368157
0.532763 0.532763 0.532763
0.682184 0.682184 0.682184
0.812091 0.812091 0.812091
0.861513 0.861513 0.861513
0.096191 0.096191 0.096191
0.105657 0.105657 0.105657
0.204394 0.204394 0.204394
0.293284 0.293284 0.293284
0.404906 0.404906 0.404906
0.544831 0.544831 0.544831
0.688299 0.688299 0.688299
0.819120 0.819120 0.819120
0.861513 0.861513 0.861513
0.121765 0.121765 0.121765
0.146853 0.146853 0.146853
0.238863 0.238863 0.238863
0.344152 0.344152 0.344152
0.459047 0.459047 0.459047
0.574037 0.574037 0.574037
0.701809 0.701809 0.701809
0.807863 0.807863 0.807863
0.861513 0.861513 0.861513
0.182923 0.182923 0.182923
0.209515 0.209515 0.209515
0.291818 0.291818 0.291818
0.392348 0.392348 0.392348
0.504234 0.504234 0.504234
0.617875 0.617875 0.617875
0.726010 0.726010 0.726010
0.819354 0.819354 0.819354
0.893480 0.893480 0.893480
0.258763 0.258763 0.258763
0.278489 0.278489 0.278489
0.343152 0.343152 0.343152
0.439844 0.439844 0.439844
0.547168 0.547168 0.547168
0.659769 0.659769 0.659769
0.760322 0.760322 0.760322
0.833939 0.833939 0.833939
0.900816 0.900816 0.900816
0.325112 0.325112 0.325112
0.339725 0.339725 0.339725
0.400874 0.400874 0.400874
0.489917 0.489917 0.489917
0.590934 0.590934 0.590934
0.696350 0.696350 0.696350
0.789649 0.789649 0.789649
0.853121 0.853121 0.853121
0.908384 0.908384 0.908384
0.406952 0.406952 0.406952
0.418894 0.418894 0.418894
0.472924 0.472924 0.472924
0.549299 0.549299 0.549299
0.641103 0.641103 0.641103
0.733397 0.733397 0.733397
0.812698 0.812698 0.812698
0.877504 0.877504 0.877504
0.917607 0.917607 0.917607
0.414410 0.414410 0.414410
0.575249 0.575249 0.575249
0.575255 0.575255 0.575255
0.575300 0.575300 0.575300
0.698054 0.698054 0.698054
0.774657 0.774657 0.774657
0.834447 0.834447 0.834447
0.895263 0.895263 0.895263
0.929878 0.929878 0.929878
0.093230 0.093230 0.093230
0.093831 0.093831 0.093831
0.116868 0.116868 0.116868
0.207757 0.207757 0.207757
0.359758 0.359758 0.359758
0.528692 0.528692 0.528692
0.679658 0.679658 0.679658
0.799378 0.799378 0.799378
0.861512 0.861512 0.861512
0.093287 0.093287 0.093287
0.095550 0.095550 0.095550
0.137408 0.137408 0.137408
0.230808 0.230808 0.230808
0.368690 0.368690 0.368690
0.530962 0.530962 0.530962
0.680965 0.680965 0.680965
0.799374 0.799374 0.799374
0.861513 0.861513 0.861513
0.098685 0.098685 0.098685
0.109444 0.109444 0.109444
0.189366 0.189366 0.189366
0.289882 0.289882 0.289882
0.401685 0.401685 0.401685
0.543227 0.543227 0.543227
0.687310 0.687310 0.687310
0.799617 0.799617 0.799617
0.861513 0.861513 0.861513
0.130738 0.130738 0.130738
0.154423 0.154423 0.154423
0.241313 0.241313 0.241313
0.357462 0.357462 0.357462
0.451430 0.451430 0.451430
0.569614 0.569614 0.569614
0.700903 0.700903 0.700903
0.807235 0.807235 0.807235
0.861517 0.861517 0.861517
0.200020 0.200020 0.200020
0.223608 0.223608 0.223608
0.297544 0.297544 0.297544
0.393220 0.393220 0.393220
0.500593 0.500593 0.500593
0.610679 0.610679 0.610679
0.722909 0.722909 0.722909
0.818844 0.818844 0.818844
0.893074 0.893074 0.893074
0.276678 0.276678 0.276678
0.292206 0.292206 0.292206
0.351978 0.351978 0.351978
0.443231 0.443231 0.443231
0.547117 0.547117 0.547117
0.656111 0.656111 0.656111
0.754838 0.754838 0.754838
0.833038 0.833038 0.833038
0.900563 0.900563 0.900563
0.341900 0.341900 0.341900
0.356206 0.356206 0.356206
0.412434 0.412434 0.412434
0.495702 0.495702 0.495702
0.593330 0.593330 0.593330
0.696647 0.696647 0.696647
0.787663 0.787663 0.787663
0.851237 0.851237 0.851237
0.908530 0.908530 0.908530
0.421378 0.421378 0.421378
0.432752 0.432752 0.432752
0.482832 0.482832 0.482832
0.555084 0.555084 0.555084
0.644577 0.644577 0.644577
0.735673 0.735673 0.735673
0.813389 0.813389 0.813389
0.875722 0.875722 0.875722
0.918009 0.918009 0.918009
0.487538 0.487538 0.487538
0.575234 0.575234 0.575234
0.575254 0.575254 0.575254
0.631776 0.631776 0.631776
0.702691 0.702691 0.702691
0.777577 0.777577 0.777577
0.837099 0.837099 0.837099
0.896093 0.896093 0.896093
0.930222 0.930222 0.930222
0.093254 0.093254 0.093254
0.093706 0.093706 0.093706
0.134609 0.134609 0.134609
0.230049 0.230049 0.230049
0.362502 0.362502 0.362502
0.526824 0.526824 0.526824
0.678221 0.678221 0.678221
0.793769 0.793769 0.793769
0.861513 0.861513 0.861513
0.093415 0.093415 0.093415
0.095015 0.095015 0.095015
0.149787 0.149787 0.149787
0.248811 0.248811 0.248811
0.371283 0.371283 0.371283
0.529520 0.529520 0.529520
0.679701 0.679701 0.679701
0.794603 0.794603 0.794603
0.861513 0.861513 0.861513
0.100193 0.100193 0.100193
0.111003 0.111003 0.111003
0.194085 0.194085 0.194085
0.297084 0.297084 0.297084
0.402123 0.402123 0.402123
0.542501 0.542501 0.542501
0.686471 0.686471 0.686471
0.798656 0.798656 0.798656
0.861514 0.861514 0.861514
0.140296 0.140296 0.140296
0.162309 0.162309 0.162309
0.248737 0.248737 0.248737
0.346665 0.346665 0.346665
0.448303 0.448303 0.448303
0.568092 0.568092 0.568092
0.700164 0.700164 0.700164
0.806802 0.806802 0.806802
0.882977 0.882977 0.882977
0.210453 0.210453 0.210453
0.232830 0.232830 0.232830
0.301283 0.301283 0.301283
0.393771 0.393771 0.393771
0.508013 0.508013 0.508013
0.606745 0.606745 0.606745
0.721693 0.721693 0.721693
0.818368 0.818368 0.818368
0.892580 0.892580 0.892580
0.287095 0.287095 0.287095
0.301942 0.301942 0.301942
0.358660 0.358660 0.358660
0.446062 0.446062 0.446062
0.547188 0.547188 0.547188
0.652913 0.652913 0.652913
0.751915 0.751915 0.751915
0.832722 0.832722 0.832722
0.900185 0.900185 0.900185
0.354211 0.354211 0.354211
0.367897 0.367897 0.367897
0.421107 0.421107 0.421107
0.500538 0.500538 0.500538
0.595659 0.595659 0.595659
0.696723 0.696723 0.696723
0.785908 0.785908 0.785908
0.850422 0.850422 0.850422
0.908509 0.908509 0.908509
0.432647 0.432647 0.432647
0.443522 0.443522 0.443522
0.490862 0.490862 0.490862
0.560320 0.560320 0.560320
0.647983 0.647983 0.647983
0.737789 0.737789 0.737789
0.813754 0.813754 0.813754
0.874383 0.874383 0.874383
0.918412 0.918412 0.918412
0.510622 0.510622 0.510622
0.523784 0.523784 0.523784
0.553430 0.553430 0.553430
0.633019 0.633019 0.633019
0.706048 0.706048 0.706048
0.780044 0.780044 0.780044
0.839332 0.839332 0.839332
0.896631 0.896631 0.896631
0.930792 0.930792 0.930792
0.093308 0.093308 0.093308
0.093780 0.093780 0.093780
0.148632 0.148632 0.148632
0.248315 0.248315 0.248315
0.370669 0.370669 0.370669
0.526203 0.526203 0.526203
0.677275 0.677275 0.677275
0.792685 0.792685 0.792685
0.861513 0.861513 0.861513
0.093597 0.093597 0.093597
0.094740 0.094740 0.094740
0.158960 0.158960 0.158960
0.262692 0.262692 0.262692
0.378295 0.378295 0.378295
0.529266 0.529266 0.529266
0.678977 0.678977 0.678977
0.793728 0.793728 0.793728
0.861513 0.861513 0.861513
0.102064 0.102064 0.102064
0.111518 0.111518 0.111518
0.200222 0.200222 0.200222
0.303343 0.303343 0.303343
0.408262 0.408262 0.408262
0.542606 0.542606 0.542606
0.686233 0.686233 0.686233
0.798404 0.798404 0.798404
0.861514 0.861514 0.861514
0.146840 0.146840 0.146840
0.165743 0.165743 0.165743
0.254292 0.254292 0.254292
0.349593 0.349593 0.349593
0.451361 0.451361 0.451361
0.567617 0.567617 0.567617
0.699948 0.699948 0.699948
0.806674 0.806674 0.806674
0.884546 0.884546 0.884546
0.220606 0.220606 0.220606
0.240583 0.240583 0.240583
0.307567 0.307567 0.307567
0.398072 0.398072 0.398072
0.500099 0.500099 0.500099
0.604617 0.604617 0.604617
0.721096 0.721096 0.721096
0.818244 0.818244 0.818244
0.892234 0.892234 0.892234
0.293730 0.293730 0.293730
0.308141 0.308141 0.308141
0.363060 0.363060 0.363060
0.448010 0.448010 0.448010
0.546942 0.546942 0.546942
0.654911 0.654911 0.654911
0.750326 0.750326 0.750326
0.832622 0.832622 0.832622
0.899973 0.899973 0.899973
0.362235 0.362235 0.362235
0.375469 0.375469 0.375469
0.426690 0.426690 0.426690
0.503850 0.503850 0.503850
0.597137 0.597137 0.597137
0.696369 0.696369 0.696369
0.784515 0.784515 0.784515
0.850183 0.850183 0.850183
0.908496 0.908496 0.908496
0.440042 0.440042 0.440042
0.450674 0.450674 0.450674
0.496632 0.496632 0.496632
0.564383 0.564383 0.564383
0.650733 0.650733 0.650733
0.739388 0.739388 0.739388
0.813824 0.813824 0.813824
0.873586 0.873586 0.873586
0.918644 0.918644 0.918644
0.519326 0.519326 0.519326
0.530522 0.530522 0.530522
0.555377 0.555377 0.555377
0.637538 0.637538 0.637538
0.709078 0.709078 0.709078
0.781869 0.781869 0.781869
0.841092 0.841092 0.841092
0.897223 0.897223 0.897223
0.931102 0.931102 0.931102
0.093617 0.093617 0.093617
0.094131 0.094131 0.094131
0.148351 0.148351 0.148351
0.261314 0.261314 0.261314
0.378202 0.378202 0.378202
0.529218 0.529218 0.529218
0.678424 0.678424 0.678424
0.793104 0.793104 0.793104
0.861506 0.861506 0.861506
0.093892 0.093892 0.093892
0.095323 0.095323 0.095323
0.157257 0.157257 0.157257
0.272356 0.272356 0.272356
0.384824 0.384824 0.384824
0.532184 0.532184 0.532184
0.680119 0.680119 0.680119
0.794214 0.794214 0.794214
0.861504 0.861504 0.861504
0.103574 0.103574 0.103574
0.111644 0.111644 0.111644
0.196449 0.196449 0.196449
0.305956 0.305956 0.305956
0.412088 0.412088 0.412088
0.545151 0.545151 0.545151
0.687159 0.687159 0.687159
0.798978 0.798978 0.798978
0.861451 0.861451 0.861451
0.151943 0.151943 0.151943
0.168425 0.168425 0.168425
0.253694 0.253694 0.253694
0.351118 0.351118 0.351118
0.453294 0.453294 0.453294
0.569899 0.569899 0.569899
0.700678 0.700678 0.700678
0.807162 0.807162 0.807162
0.884983 0.884983 0.884983
0.227377 0.227377 0.227377
0.245445 0.245445 0.245445
0.309167 0.309167 0.309167
0.400501 0.400501 0.400501
0.501385 0.501385 0.501385
0.605617 0.605617 0.605617
0.721114 0.721114 0.721114
0.818544 0.818544 0.818544
0.892320 0.892320 0.892320
0.299696 0.299696 0.299696
0.312877 0.312877 0.312877
0.366210 0.366210 0.366210
0.451427 0.451427 0.451427
0.549338 0.549338 0.549338
0.650667 0.650667 0.650667
0.749316 0.749316 0.749316
0.832662 0.832662 0.832662
0.900057 0.900057 0.900057
0.366077 0.366077 0.366077
0.379137 0.379137 0.379137
0.429372 0.429372 0.429372
0.505520 0.505520 0.505520
0.597846 0.597846 0.597846
0.695633 0.695633 0.695633
0.782937 0.782937 0.782937
0.850076 0.850076 0.850076
0.908740 0.908740 0.908740
0.443276 0.443276 0.443276
0.453744 0.453744 0.453744
0.499381 0.499381 0.499381
0.566469 0.566469 0.566469
0.652302 0.652302 0.652302
0.740191 0.740191 0.740191
0.813623 0.813623 0.813623
0.872949 0.872949 0.872949
0.918938 0.918938 0.918938
0.518189 0.518189 0.518189
0.539878 0.539878 0.539878
0.567269 0.567269 0.567269
0.640571 0.640571 0.640571
0.711221 0.711221 0.711221
0.782974 0.782974 0.782974
0.842026 0.842026 0.842026
0.897840 0.897840 0.897840
0.931439 0.931439 0.931439
0.094385 0.094385 0.094385
0.095641 0.095641 0.095641
0.154426 0.154426 0.154426
0.265451 0.265451 0.265451
0.383490 0.383490 0.383490
0.535800 0.535800 0.535800
0.682335 0.682335 0.682335
0.796451 0.796451 0.796451
0.863851 0.863851 0.863851
0.095297 0.095297 0.095297
0.097185 0.097185 0.097185
0.163071 0.163071 0.163071
0.274106 0.274106 0.274106
0.389046 0.389046 0.389046
0.538379 0.538379 0.538379
0.683984 0.683984 0.683984
0.797480 0.797480 0.797480
0.864613 0.864613 0.864613
0.108937 0.108937 0.108937
0.117209 0.117209 0.117209
0.207209 0.207209 0.207209
0.306819 0.306819 0.306819
0.414516 0.414516 0.414516
0.550511 0.550511 0.550511
0.691180 0.691180 0.691180
0.801850 0.801850 0.801850
0.872976 0.872976 0.872976
0.158705 0.158705 0.158705
0.173491 0.173491 0.173491
0.262876 0.262876 0.262876
0.350573 0.350573 0.350573
0.451862 0.451862 0.451862
0.572472 0.572472 0.572472
0.704103 0.704103 0.704103
0.809699 0.809699 0.809699
0.886575 0.886575 0.886575
0.232765 0.232765 0.232765
0.249001 0.249001 0.249001
0.314603 0.314603 0.314603
0.401706 0.401706 0.401706
0.499320 0.499320 0.499320
0.605522 0.605522 0.605522
0.723509 0.723509 0.723509
0.820623 0.820623 0.820623
0.893681 0.893681 0.893681
0.302504 0.302504 0.302504
0.314658 0.314658 0.314658
0.370596 0.370596 0.370596
0.452972 0.452972 0.452972
0.548917 0.548917 0.548917
0.648751 0.648751 0.648751
0.749535 0.749535 0.749535
0.834206 0.834206 0.834206
0.901342 0.901342 0.901342
0.367125 0.367125 0.367125
0.379327 0.379327 0.379327
0.431518 0.431518 0.431518
0.506214 0.506214 0.506214
0.598032 0.598032 0.598032
0.694575 0.694575 0.694575
0.781503 0.781503 0.781503
0.850660 0.850660 0.850660
0.909786 0.909786 0.909786
0.441974 0.441974 0.441974
0.452218 0.452218 0.452218
0.498788 0.498788 0.498788
0.566212 0.566212 0.566212
0.652135 0.652135 0.652135
0.740016 0.740016 0.740016
0.812840 0.812840 0.812840
0.869617 0.869617 0.869617
0.919595 0.919595 0.919595
0.505969 0.505969 0.505969
0.566121 0.566121 0.566121
0.574704 0.574704 0.574704
0.642444 0.642444 0.642444
0.712332 0.712332 0.712332
0.783198 0.783198 0.783198
0.841884 0.841884 0.841884
0.898346 0.898346 0.898346
0.931822 0.931822 0.931822
0.099325 0.099325 0.099325
0.100799 0.100799 0.100799
0.119618 0.119618 0.119618
0.228777 0.228777 0.228777
0.393294 0.393294 0.393294
0.557691 0.557691 0.557691
0.694002 0.694002 0.694002
0.800229 0.800229 0.800229
0.861513 0.861513 0.861513
0.100964 0.100964 0.100964
0.103432 0.103432 0.103432
0.126718 0.126718 0.126718
0.236384 0.236384 0.236384
0.396251 0.396251 0.396251
0.559165 0.559165 0.559165
0.695280 0.695280 0.695280
0.800711 0.800711 0.800711
0.861514 0.861514 0.861514
0.119641 0.119641 0.119641
0.126338 0.126338 0.126338
0.164044 0.164044 0.164044
0.272921 0.272921 0.272921
0.411678 0.411678 0.411678
0.566745 0.566745 0.566745
0.701265 0.701265 0.701265
0.803878 0.803878 0.803878
0.861520 0.861520 0.861520
0.181176 0.181176 0.181176
0.191382 0.191382 0.191382
0.239186 0.239186 0.239186
0.322651 0.322651 0.322651
0.441874 0.441874 0.441874
0.582719 0.582719 0.582719
0.713297 0.713297 0.713297
0.812114 0.812114 0.812114
0.890859 0.890859 0.890859
0.252936 0.252936 0.252936
0.264618 0.264618 0.264618
0.306136 0.306136 0.306136
0.380171 0.380171 0.380171
0.480678 0.480678 0.480678
0.605897 0.605897 0.605897
0.729765 0.729765 0.729765
0.823307 0.823307 0.823307
0.901182 0.901182 0.901182
0.310926 0.310926 0.310926
0.320720 0.320720 0.320720
0.365672 0.365672 0.365672
0.441369 0.441369 0.441369
0.527628 0.527628 0.527628
0.636288 0.636288 0.636288
0.750240 0.750240 0.750240
0.835951 0.835951 0.835951
0.909312 0.909312 0.909312
0.367718 0.367718 0.367718
0.378391 0.378391 0.378391
0.425437 0.425437 0.425437
0.501272 0.501272 0.501272
0.583728 0.583728 0.583728
0.675685 0.675685 0.675685
0.774228 0.774228 0.774228
0.850138 0.850138 0.850138
0.917316 0.917316 0.917316
0.433700 0.433700 0.433700
0.442651 0.442651 0.442651
0.484560 0.484560 0.484560
0.558783 0.558783 0.558783
0.645939 0.645939 0.645939
0.727909 0.727909 0.727909
0.799813 0.799813 0.799813
0.866732 0.866732 0.866732
0.925067 0.925067 0.925067
0.484409 0.484409 0.484409
0.575253 0.575253 0.575253
0.575255 0.575255 0.575255
0.592724 0.592724 0.592724
0.711423 0.711423 0.711423
0.782072 0.782072 0.782072
0.840562 0.840562 0.840562
0.896572 0.896572 0.896572
0.932292 0.932292 0.932292
