LUTs/trix_classic/TriX_Green58_Normal.cube
TITLE "Tri-X Green58 Normal"
# Adobe RGB in/out. REPLACES AgX. Tri-X Green58 Normal.
LUT_3D_SIZE 33
DOMAIN_MIN 0.0 0.0 0.0
DOMAIN_MAX 1.0 1.0 1.0
0.093230 0.093230 0.093230
0.093230 0.093230 0.093230
0.093230 0.093230 0.093230
0.093230 0.093230 0.093230
0.093230 0.093230 0.093230
0.093230 0.093230 0.093230
0.093249 0.093249 0.093249
0.093273 0.093273 0.093273
0.093371 0.093371 0.093371
0.093568 0.093568 0.093568
0.093967 0.093967 0.093967
0.094902 0.094902 0.094902
0.095746 0.095746 0.095746
0.097591 0.097591 0.097591
0.100526 0.100526 0.100526
0.103058 0.103058 0.103058
0.105831 0.105831 0.105831
0.110671 0.110671 0.110671
0.117475 0.117475 0.117475
0.121916 0.121916 0.121916
0.127117 0.127117 0.127117
0.133135 0.133135 0.133135
0.138428 0.138428 0.138428
0.139875 0.139875 0.139875
0.141815 0.141815 0.141815
0.142328 0.142328 0.142328
0.133207 0.133207 0.133207
0.128055 0.128055 0.128055
0.106371 0.106371 0.106371
0.106358 0.106358 0.106358
0.106357 0.106357 0.106357
0.106358 0.106358 0.106358
0.212834 0.212834 0.212834
0.093230 0.093230 0.093230
0.093230 0.093230 0.093230
0.093230 0.093230 0.093230
0.093230 0.093230 0.093230
0.093230 0.093230 0.093230
0.093234 0.093234 0.093234
0.093253 0.093253 0.093253
0.093277 0.093277 0.093277
0.093408 0.093408 0.093408
0.093613 0.093613 0.093613
0.094049 0.094049 0.094049
0.095042 0.095042 0.095042
0.095887 0.095887 0.095887
0.097851 0.097851 0.097851
0.100760 0.100760 0.100760
0.103428 0.103428 0.103428
0.106188 0.106188 0.106188
0.111244 0.111244 0.111244
0.118030 0.118030 0.118030
0.122662 0.122662 0.122662
0.127840 0.127840 0.127840
0.133843 0.133843 0.133843
0.139201 0.139201 0.139201
0.140625 0.140625 0.140625
0.142544 0.142544 0.142544
0.143033 0.143033 0.143033
0.133787 0.133787 0.133787
0.128574 0.128574 0.128574
0.106371 0.106371 0.106371
0.106358 0.106358 0.106358
0.106357 0.106357 0.106357
0.106358 0.106358 0.106358
0.212836 0.212836 0.212836
0.093230 0.093230 0.093230
0.093230 0.093230 0.093230
0.093230 0.093230 0.093230
0.093230 0.093230 0.093230
0.093249 0.093249 0.093249
0.093252 0.093252 0.093252
0.093270 0.093270 0.093270
0.093469 0.093469 0.093469
0.093555 0.093555 0.093555
0.093780 0.093780 0.093780
0.094680 0.094680 0.094680
0.095595 0.095595 0.095595
0.096608 0.096608 0.096608
0.098811 0.098811 0.098811
0.102021 0.102021 0.102021
0.104812 0.104812 0.104812
0.107843 0.107843 0.107843
0.113351 0.113351 0.113351
0.120614 0.120614 0.120614
0.125408 0.125408 0.125408
0.130497 0.130497 0.130497
0.136503 0.136503 0.136503
0.142038 0.142038 0.142038
0.143380 0.143380 0.143380
0.145217 0.145217 0.145217
0.145622 0.145622 0.145622
0.135929 0.135929 0.135929
0.130485 0.130485 0.130485
0.106372 0.106372 0.106372
0.106358 0.106358 0.106358
0.106357 0.106357 0.106357
0.106358 0.106358 0.106358
0.212839 0.212839 0.212839
0.093271 0.093271 0.093271
0.093270 0.093270 0.093270
0.093266 0.093266 0.093266
0.093262 0.093262 0.093262
0.093401 0.093401 0.093401
0.093337 0.093337 0.093337
0.093518 0.093518 0.093518
0.093838 0.093838 0.093838
0.093900 0.093900 0.093900
0.094453 0.094453 0.094453
0.096016 0.096016 0.096016
0.097499 0.097499 0.097499
0.098787 0.098787 0.098787
0.100693 0.100693 0.100693
0.105007 0.105007 0.105007
0.108027 0.108027 0.108027
0.112193 0.112193 0.112193
0.117452 0.117452 0.117452
0.126211 0.126211 0.126211
0.130753 0.130753 0.130753
0.135649 0.135649 0.135649
0.142079 0.142079 0.142079
0.147526 0.147526 0.147526
0.148703 0.148703 0.148703
0.150381 0.150381 0.150381
0.150625 0.150625 0.150625
0.140534 0.140534 0.140534
0.134213 0.134213 0.134213
0.106375 0.106375 0.106375
0.106358 0.106358 0.106358
0.106357 0.106357 0.106357
0.106360 0.106360 0.106360
0.212841 0.212841 0.212841
0.095357 0.095357 0.095357
0.095244 0.095244 0.095244
0.095008 0.095008 0.095008
0.094655 0.094655 0.094655
0.094379 0.094379 0.094379
0.093878 0.093878 0.093878
0.094419 0.094419 0.094419
0.095619 0.095619 0.095619
0.095580 0.095580 0.095580
0.096226 0.096226 0.096226
0.099432 0.099432 0.099432
0.100690 0.100690 0.100690
0.102260 0.102260 0.102260
0.105507 0.105507 0.105507
0.112488 0.112488 0.112488
0.115972 0.115972 0.115972
0.119706 0.119706 0.119706
0.126461 0.126461 0.126461
0.135479 0.135479 0.135479
0.139926 0.139926 0.139926
0.144954 0.144954 0.144954
0.151170 0.151170 0.151170
0.156438 0.156438 0.156438
0.157340 0.157340 0.157340
0.158751 0.158751 0.158751
0.158744 0.158744 0.158744
0.148108 0.148108 0.148108
0.140845 0.140845 0.140845
0.106380 0.106380 0.106380
0.106359 0.106359 0.106359
0.106357 0.106357 0.106357
0.106377 0.106377 0.106377
0.212841 0.212841 0.212841
0.099218 0.099218 0.099218
0.098989 0.098989 0.098989
0.098637 0.098637 0.098637
0.097972 0.097972 0.097972
0.097193 0.097193 0.097193
0.096679 0.096679 0.096679
0.098457 0.098457 0.098457
0.100893 0.100893 0.100893
0.100025 0.100025 0.100025
0.100858 0.100858 0.100858
0.105384 0.105384 0.105384
0.107343 0.107343 0.107343
0.109800 0.109800 0.109800
0.114480 0.114480 0.114480
0.123105 0.123105 0.123105
0.128235 0.128235 0.128235
0.133612 0.133612 0.133612
0.141987 0.141987 0.141987
0.151636 0.151636 0.151636
0.155113 0.155113 0.155113
0.159385 0.159385 0.159385
0.165125 0.165125 0.165125
0.170402 0.170402 0.170402
0.170918 0.170918 0.170918
0.172029 0.172029 0.172029
0.171621 0.171621 0.171621
0.159868 0.159868 0.159868
0.151529 0.151529 0.151529
0.106390 0.106390 0.106390
0.106360 0.106360 0.106360
0.106358 0.106358 0.106358
0.212782 0.212782 0.212782
0.212842 0.212842 0.212842
0.116763 0.116763 0.116763
0.116160 0.116160 0.116160
0.115183 0.115183 0.115183
0.113460 0.113460 0.113460
0.111287 0.111287 0.111287
0.109170 0.109170 0.109170
0.107696 0.107696 0.107696
0.114803 0.114803 0.114803
0.110459 0.110459 0.110459
0.111563 0.111563 0.111563
0.119454 0.119454 0.119454
0.122458 0.122458 0.122458
0.123758 0.123758 0.123758
0.129481 0.129481 0.129481
0.140743 0.140743 0.140743
0.146568 0.146568 0.146568
0.150368 0.150368 0.150368
0.157649 0.157649 0.157649
0.168929 0.168929 0.168929
0.174425 0.174425 0.174425
0.181283 0.181283 0.181283
0.188690 0.188690 0.188690
0.193484 0.193484 0.193484
0.193196 0.193196 0.193196
0.193548 0.193548 0.193548
0.192585 0.192585 0.192585
0.179393 0.179393 0.179393
0.168439 0.168439 0.168439
0.106415 0.106415 0.106415
0.106362 0.106362 0.106362
0.106359 0.106359 0.106359
0.212838 0.212838 0.212838
0.212842 0.212842 0.212842
0.160761 0.160761 0.160761
0.159840 0.159840 0.159840
0.158609 0.158609 0.158609
0.155654 0.155654 0.155654
0.151918 0.151918 0.151918
0.148199 0.148199 0.148199
0.144609 0.144609 0.144609
0.142019 0.142019 0.142019
0.132614 0.132614 0.132614
0.132764 0.132764 0.132764
0.144528 0.144528 0.144528
0.145861 0.145861 0.145861
0.145736 0.145736 0.145736
0.151332 0.151332 0.151332
0.163050 0.163050 0.163050
0.167242 0.167242 0.167242
0.171631 0.171631 0.171631
0.180906 0.180906 0.180906
0.193520 0.193520 0.193520
0.196859 0.196859 0.196859
0.202143 0.202143 0.202143
0.209733 0.209733 0.209733
0.217325 0.217325 0.217325
0.220552 0.220552 0.220552
0.224981 0.224981 0.224981
0.223392 0.223392 0.223392
0.211478 0.211478 0.211478
0.199178 0.199178 0.199178
0.106520 0.106520 0.106520
0.106371 0.106371 0.106371
0.106362 0.106362 0.106362
0.212841 0.212841 0.212841
0.212842 0.212842 0.212842
0.188047 0.188047 0.188047
0.187103 0.187103 0.187103
0.185162 0.185162 0.185162
0.182587 0.182587 0.182587
0.178868 0.178868 0.178868
0.174379 0.174379 0.174379
0.170224 0.170224 0.170224
0.166447 0.166447 0.166447
0.163839 0.163839 0.163839
0.162742 0.162742 0.162742
0.176809 0.176809 0.176809
0.176367 0.176367 0.176367
0.174279 0.174279 0.174279
0.179108 0.179108 0.179108
0.192224 0.192224 0.192224
0.195494 0.195494 0.195494
0.199237 0.199237 0.199237
0.207374 0.207374 0.207374
0.219242 0.219242 0.219242
0.223566 0.223566 0.223566
0.230228 0.230228 0.230228
0.235901 0.235901 0.235901
0.242015 0.242015 0.242015
0.243686 0.243686 0.243686
0.246991 0.246991 0.246991
0.250665 0.250665 0.250665
0.247366 0.247366 0.247366
0.245007 0.245007 0.245007
0.111311 0.111311 0.111311
0.106478 0.106478 0.106478
0.106385 0.106385 0.106385
0.212842 0.212842 0.212842
0.212842 0.212842 0.212842
0.229308 0.229308 0.229308
0.228454 0.228454 0.228454
0.226333 0.226333 0.226333
0.224166 0.224166 0.224166
0.220583 0.220583 0.220583
0.216346 0.216346 0.216346
0.211760 0.211760 0.211760
0.207426 0.207426 0.207426
0.203715 0.203715 0.203715
0.200948 0.200948 0.200948
0.215945 0.215945 0.215945
0.214031 0.214031 0.214031
0.209707 0.209707 0.209707
0.212983 0.212983 0.212983
0.225589 0.225589 0.225589
0.227288 0.227288 0.227288
0.229377 0.229377 0.229377
0.236368 0.236368 0.236368
0.249271 0.249271 0.249271
0.252950 0.252950 0.252950
0.256896 0.256896 0.256896
0.264975 0.264975 0.264975
0.273058 0.273058 0.273058
0.274375 0.274375 0.274375
0.275312 0.275312 0.275312
0.276828 0.276828 0.276828
0.273341 0.273341 0.273341
0.270342 0.270342 0.270342
0.258772 0.258772 0.258772
0.244518 0.244518 0.244518
0.197874 0.197874 0.197874
0.212844 0.212844 0.212844
0.212842 0.212842 0.212842
0.287608 0.287608 0.287608
0.286982 0.286982 0.286982
0.285255 0.285255 0.285255
0.284069 0.284069 0.284069
0.281316 0.281316 0.281316
0.277786 0.277786 0.277786
0.274097 0.274097 0.274097
0.270136 0.270136 0.270136
0.265306 0.265306 0.265306
0.261240 0.261240 0.261240
0.258420 0.258420 0.258420
0.254505 0.254505 0.254505
0.248120 0.248120 0.248120
0.250142 0.250142 0.250142
0.263070 0.263070 0.263070
0.262986 0.262986 0.262986
0.263336 0.263336 0.263336
0.269599 0.269599 0.269599
0.279537 0.279537 0.279537
0.280842 0.280842 0.280842
0.284392 0.284392 0.284392
0.290867 0.290867 0.290867
0.295662 0.295662 0.295662
0.297302 0.297302 0.297302
0.300926 0.300926 0.300926
0.305580 0.305580 0.305580
0.300628 0.300628 0.300628
0.296080 0.296080 0.296080
0.286168 0.286168 0.286168
0.273208 0.273208 0.273208
0.212446 0.212446 0.212446
0.212845 0.212845 0.212845
0.212848 0.212848 0.212848
0.321378 0.321378 0.321378
0.320810 0.320810 0.320810
0.319133 0.319133 0.319133
0.317683 0.317683 0.317683
0.314922 0.314922 0.314922
0.311785 0.311785 0.311785
0.308292 0.308292 0.308292
0.304229 0.304229 0.304229
0.300293 0.300293 0.300293
0.296771 0.296771 0.296771
0.293747 0.293747 0.293747
0.291709 0.291709 0.291709
0.284852 0.284852 0.284852
0.286023 0.286023 0.286023
0.295469 0.295469 0.295469
0.293931 0.293931 0.293931
0.293319 0.293319 0.293319
0.297404 0.297404 0.297404
0.306611 0.306611 0.306611
0.307175 0.307175 0.307175
0.310972 0.310972 0.310972
0.315840 0.315840 0.315840
0.322047 0.322047 0.322047
0.324673 0.324673 0.324673
0.326278 0.326278 0.326278
0.329342 0.329342 0.329342
0.328318 0.328318 0.328318
0.328423 0.328423 0.328423
0.321600 0.321600 0.321600
0.306238 0.306238 0.306238
0.246616 0.246616 0.246616
0.212850 0.212850 0.212850
0.212854 0.212854 0.212854
0.352022 0.352022 0.352022
0.351478 0.351478 0.351478
0.349798 0.349798 0.349798
0.347915 0.347915 0.347915
0.345651 0.345651 0.345651
0.342636 0.342636 0.342636
0.338862 0.338862 0.338862
0.334974 0.334974 0.334974
0.331047 0.331047 0.331047
0.327170 0.327170 0.327170
0.323809 0.323809 0.323809
0.320852 0.320852 0.320852
0.318881 0.318881 0.318881
0.318940 0.318940 0.318940
0.328520 0.328520 0.328520
0.325969 0.325969 0.325969
0.324176 0.324176 0.324176
0.327582 0.327582 0.327582
0.336156 0.336156 0.336156
0.335724 0.335724 0.335724
0.338264 0.338264 0.338264
0.343612 0.343612 0.343612
0.350651 0.350651 0.350651
0.351373 0.351373 0.351373
0.355169 0.355169 0.355169
0.360634 0.360634 0.360634
0.357431 0.357431 0.357431
0.355621 0.355621 0.355621
0.351372 0.351372 0.351372
0.344673 0.344673 0.344673
0.334031 0.334031 0.334031
0.212932 0.212932 0.212932
0.212898 0.212898 0.212898
0.392193 0.392193 0.392193
0.391696 0.391696 0.391696
0.390109 0.390109 0.390109
0.388068 0.388068 0.388068
0.386464 0.386464 0.386464
0.383209 0.383209 0.383209
0.379436 0.379436 0.379436
0.375486 0.375486 0.375486
0.371370 0.371370 0.371370
0.367042 0.367042 0.367042
0.363031 0.363031 0.363031
0.359592 0.359592 0.359592
0.356549 0.356549 0.356549
0.354468 0.354468 0.354468
0.364092 0.364092 0.364092
0.360767 0.360767 0.360767
0.357435 0.357435 0.357435
0.359873 0.359873 0.359873
0.368529 0.368529 0.368529
0.367626 0.367626 0.367626
0.369350 0.369350 0.369350
0.374501 0.374501 0.374501
0.380359 0.380359 0.380359
0.382168 0.382168 0.382168
0.386210 0.386210 0.386210
0.389742 0.389742 0.389742
0.389570 0.389570 0.389570
0.391122 0.391122 0.391122
0.385087 0.385087 0.385087
0.376217 0.376217 0.376217
0.362604 0.362604 0.362604
0.344162 0.344162 0.344162
0.323048 0.323048 0.323048
0.442067 0.442067 0.442067
0.441653 0.441653 0.441653
0.440305 0.440305 0.440305
0.438424 0.438424 0.438424
0.437262 0.437262 0.437262
0.434135 0.434135 0.434135
0.431113 0.431113 0.431113
0.427347 0.427347 0.427347
0.423440 0.423440 0.423440
0.419078 0.419078 0.419078
0.414870 0.414870 0.414870
0.410848 0.410848 0.410848
0.407291 0.407291 0.407291
0.404342 0.404342 0.404342
0.402148 0.402148 0.402148
0.397522 0.397522 0.397522
0.393701 0.393701 0.393701
0.395436 0.395436 0.395436
0.403433 0.403433 0.403433
0.401506 0.401506 0.401506
0.402654 0.402654 0.402654
0.407362 0.407362 0.407362
0.412544 0.412544 0.412544
0.414717 0.414717 0.414717
0.417514 0.417514 0.417514
0.422939 0.422939 0.422939
0.422777 0.422777 0.422777
0.422189 0.422189 0.422189
0.420473 0.420473 0.420473
0.417116 0.417116 0.417116
0.402343 0.402343 0.402343
0.379086 0.379086 0.379086
0.331950 0.331950 0.331950
0.476993 0.476993 0.476993
0.476609 0.476609 0.476609
0.475332 0.475332 0.475332
0.473424 0.473424 0.473424
0.471771 0.471771 0.471771
0.469282 0.469282 0.469282
0.466758 0.466758 0.466758
0.462659 0.462659 0.462659
0.458708 0.458708 0.458708
0.454871 0.454871 0.454871
0.450623 0.450623 0.450623
0.446666 0.446666 0.446666
0.443141 0.443141 0.443141
0.439848 0.439848 0.439848
0.437298 0.437298 0.437298
0.435367 0.435367 0.435367
0.430888 0.430888 0.430888
0.431943 0.431943 0.431943
0.439307 0.439307 0.439307
0.436867 0.436867 0.436867
0.436840 0.436840 0.436840
0.440710 0.440710 0.440710
0.445201 0.445201 0.445201
0.446377 0.446377 0.446377
0.449404 0.449404 0.449404
0.454477 0.454477 0.454477
0.454181 0.454181 0.454181
0.456124 0.456124 0.456124
0.454168 0.454168 0.454168
0.448888 0.448888 0.448888
0.441518 0.441518 0.441518
0.431601 0.431601 0.431601
0.369527 0.369527 0.369527
0.512175 0.512175 0.512175
0.511818 0.511818 0.511818
0.510609 0.510609 0.510609
0.508713 0.508713 0.508713
0.506761 0.506761 0.506761
0.504800 0.504800 0.504800
0.501526 0.501526 0.501526
0.498068 0.498068 0.498068
0.494280 0.494280 0.494280
0.490233 0.490233 0.490233
0.486160 0.486160 0.486160
0.482048 0.482048 0.482048
0.478153 0.478153 0.478153
0.474781 0.474781 0.474781
0.471673 0.471673 0.471673
0.469223 0.469223 0.469223
0.467485 0.467485 0.467485
0.468022 0.468022 0.468022
0.474732 0.474732 0.474732
0.471573 0.471573 0.471573
0.471140 0.471140 0.471140
0.474293 0.474293 0.474293
0.478553 0.478553 0.478553
0.479107 0.479107 0.479107
0.482293 0.482293 0.482293
0.486587 0.486587 0.486587
0.487660 0.487660 0.487660
0.488755 0.488755 0.488755
0.488157 0.488157 0.488157
0.486431 0.486431 0.486431
0.478022 0.478022 0.478022
0.465053 0.465053 0.465053
0.447670 0.447670 0.447670
0.550942 0.550942 0.550942
0.550633 0.550633 0.550633
0.549574 0.549574 0.549574
0.547856 0.547856 0.547856
0.545905 0.545905 0.545905
0.544528 0.544528 0.544528
0.541094 0.541094 0.541094
0.538285 0.538285 0.538285
0.534647 0.534647 0.534647
0.530673 0.530673 0.530673
0.526796 0.526796 0.526796
0.522815 0.522815 0.522815
0.519063 0.519063 0.519063
0.515314 0.515314 0.515314
0.512069 0.512069 0.512069
0.509176 0.509176 0.509176
0.506785 0.506785 0.506785
0.505222 0.505222 0.505222
0.511509 0.511509 0.511509
0.507846 0.507846 0.507846
0.506555 0.506555 0.506555
0.509340 0.509340 0.509340
0.513150 0.513150 0.513150
0.513171 0.513171 0.513171
0.516289 0.516289 0.516289
0.520133 0.520133 0.520133
0.521304 0.521304 0.521304
0.522635 0.522635 0.522635
0.524077 0.524077 0.524077
0.520528 0.520528 0.520528
0.515854 0.515854 0.515854
0.508921 0.508921 0.508921
0.487312 0.487312 0.487312
0.594255 0.594255 0.594255
0.593989 0.593989 0.593989
0.593070 0.593070 0.593070
0.591543 0.591543 0.591543
0.589704 0.589704 0.589704
0.588201 0.588201 0.588201
0.585490 0.585490 0.585490
0.582700 0.582700 0.582700
0.579322 0.579322 0.579322
0.575870 0.575870 0.575870
0.571944 0.571944 0.571944
0.568097 0.568097 0.568097
0.564139 0.564139 0.564139
0.560449 0.560449 0.560449
0.556880 0.556880 0.556880
0.553953 0.553953 0.553953
0.551436 0.551436 0.551436
0.549151 0.549151 0.549151
0.547845 0.547845 0.547845
0.543926 0.543926 0.543926
0.542471 0.542471 0.542471
0.544381 0.544381 0.544381
0.547610 0.547610 0.547610
0.547280 0.547280 0.547280
0.549534 0.549534 0.549534
0.553370 0.553370 0.553370
0.554232 0.554232 0.554232
0.556605 0.556605 0.556605
0.557090 0.557090 0.557090
0.556021 0.556021 0.556021
0.552739 0.552739 0.552739
0.543839 0.543839 0.543839
0.531753 0.531753 0.531753
0.630352 0.630352 0.630352
0.630097 0.630097 0.630097
0.629206 0.629206 0.629206
0.627688 0.627688 0.627688
0.625738 0.625738 0.625738
0.623816 0.623816 0.623816
0.621494 0.621494 0.621494
0.618223 0.618223 0.618223
0.615085 0.615085 0.615085
0.611562 0.611562 0.611562
0.607531 0.607531 0.607531
0.603567 0.603567 0.603567
0.599607 0.599607 0.599607
0.595773 0.595773 0.595773
0.592220 0.592220 0.592220
0.588801 0.588801 0.588801
0.586078 0.586078 0.586078
0.583823 0.583823 0.583823
0.581779 0.581779 0.581779
0.580670 0.580670 0.580670
0.578486 0.578486 0.578486
0.580245 0.580245 0.580245
0.582901 0.582901 0.582901
0.582257 0.582257 0.582257
0.584062 0.584062 0.584062
0.587355 0.587355 0.587355
0.588206 0.588206 0.588206
0.590807 0.590807 0.590807
0.591785 0.591785 0.591785
0.591813 0.591813 0.591813
0.588569 0.588569 0.588569
0.583584 0.583584 0.583584
0.570831 0.570831 0.570831
0.667755 0.667755 0.667755
0.667520 0.667520 0.667520
0.666695 0.666695 0.666695
0.665262 0.665262 0.665262
0.663344 0.663344 0.663344
0.661259 0.661259 0.661259
0.659271 0.659271 0.659271
0.655857 0.655857 0.655857
0.652937 0.652937 0.652937
0.649005 0.649005 0.649005
0.645280 0.645280 0.645280
0.641369 0.641369 0.641369
0.637297 0.637297 0.637297
0.633262 0.633262 0.633262
0.629620 0.629620 0.629620
0.626193 0.626193 0.626193
0.623058 0.623058 0.623058
0.620446 0.620446 0.620446
0.618444 0.618444 0.618444
0.616671 0.616671 0.616671
0.615733 0.615733 0.615733
0.616431 0.616431 0.616431
0.618891 0.618891 0.618891
0.618140 0.618140 0.618140
0.619377 0.619377 0.619377
0.622391 0.622391 0.622391
0.623138 0.623138 0.623138
0.625271 0.625271 0.625271
0.627215 0.627215 0.627215
0.627056 0.627056 0.627056
0.626083 0.626083 0.626083
0.620800 0.620800 0.620800
0.611061 0.611061 0.611061
0.701357 0.701357 0.701357
0.701181 0.701181 0.701181
0.700563 0.700563 0.700563
0.699474 0.699474 0.699474
0.697979 0.697979 0.697979
0.696260 0.696260 0.696260
0.694687 0.694687 0.694687
0.692071 0.692071 0.692071
0.689379 0.689379 0.689379
0.686407 0.686407 0.686407
0.683238 0.683238 0.683238
0.679880 0.679880 0.679880
0.676510 0.676510 0.676510
0.673046 0.673046 0.673046
0.669662 0.669662 0.669662
0.666482 0.666482 0.666482
0.663246 0.663246 0.663246
0.660399 0.660399 0.660399
0.657899 0.657899 0.657899
0.656144 0.656144 0.656144
0.654658 0.654658 0.654658
0.653860 0.653860 0.653860
0.655457 0.655457 0.655457
0.654662 0.654662 0.654662
0.655466 0.655466 0.655466
0.658050 0.658050 0.658050
0.658954 0.658954 0.658954
0.660839 0.660839 0.660839
0.662985 0.662985 0.662985
0.663440 0.663440 0.663440
0.662980 0.662980 0.662980
0.659284 0.659284 0.659284
0.652023 0.652023 0.652023
0.735670 0.735670 0.735670
0.735517 0.735517 0.735517
0.734971 0.734971 0.734971
0.733997 0.733997 0.733997
0.732628 0.732628 0.732628
0.730971 0.730971 0.730971
0.729268 0.729268 0.729268
0.727096 0.727096 0.727096
0.724392 0.724392 0.724392
0.721736 0.721736 0.721736
0.718453 0.718453 0.718453
0.715277 0.715277 0.715277
0.712097 0.712097 0.712097
0.708665 0.708665 0.708665
0.705284 0.705284 0.705284
0.702174 0.702174 0.702174
0.699371 0.699371 0.699371
0.696805 0.696805 0.696805
0.694538 0.694538 0.694538
0.692561 0.692561 0.692561
0.691255 0.691255 0.691255
0.690263 0.690263 0.690263
0.689750 0.689750 0.689750
0.688883 0.688883 0.688883
0.689178 0.689178 0.689178
0.690895 0.690895 0.690895
0.691760 0.691760 0.691760
0.693179 0.693179 0.693179
0.695071 0.695071 0.695071
0.696080 0.696080 0.696080
0.695940 0.695940 0.695940
0.694336 0.694336 0.694336
0.687985 0.687985 0.687985
0.769443 0.769443 0.769443
0.769303 0.769303 0.769303
0.768805 0.768805 0.768805
0.767902 0.767902 0.767902
0.766593 0.766593 0.766593
0.764924 0.764924 0.764924
0.763022 0.763022 0.763022
0.760943 0.760943 0.760943
0.758184 0.758184 0.758184
0.755342 0.755342 0.755342
0.752117 0.752117 0.752117
0.748767 0.748767 0.748767
0.745454 0.745454 0.745454
0.742133 0.742133 0.742133
0.738746 0.738746 0.738746
0.735495 0.735495 0.735495
0.732569 0.732569 0.732569
0.729885 0.729885 0.729885
0.727539 0.727539 0.727539
0.725499 0.725499 0.725499
0.723852 0.723852 0.723852
0.722724 0.722724 0.722724
0.722101 0.722101 0.722101
0.721910 0.721910 0.721910
0.721644 0.721644 0.721644
0.722824 0.722824 0.722824
0.723781 0.723781 0.723781
0.724853 0.724853 0.724853
0.726691 0.726691 0.726691
0.728134 0.728134 0.728134
0.728613 0.728613 0.728613
0.727261 0.727261 0.727261
0.722849 0.722849 0.722849
0.793756 0.793756 0.793756
0.793671 0.793671 0.793671
0.793364 0.793364 0.793364
0.792803 0.792803 0.792803
0.791976 0.791976 0.791976
0.790890 0.790890 0.790890
0.789586 0.789586 0.789586
0.788170 0.788170 0.788170
0.786411 0.786411 0.786411
0.784504 0.784504 0.784504
0.782477 0.782477 0.782477
0.780224 0.780224 0.780224
0.777739 0.777739 0.777739
0.774665 0.774665 0.774665
0.771618 0.771618 0.771618
0.768632 0.768632 0.768632
0.765782 0.765782 0.765782
0.763133 0.763133 0.763133
0.760814 0.760814 0.760814
0.758746 0.758746 0.758746
0.756996 0.756996 0.756996
0.755675 0.755675 0.755675
0.754700 0.754700 0.754700
0.754393 0.754393 0.754393
0.754458 0.754458 0.754458
0.754965 0.754965 0.754965
0.756294 0.756294 0.756294
0.756826 0.756826 0.756826
0.758635 0.758635 0.758635
0.760078 0.760078 0.760078
0.761251 0.761251 0.761251
0.760655 0.760655 0.760655
0.757251 0.757251 0.757251
0.814741 0.814741 0.814741
0.814672 0.814672 0.814672
0.814424 0.814424 0.814424
0.813966 0.813966 0.813966
0.813279 0.813279 0.813279
0.812352 0.812352 0.812352
0.811189 0.811189 0.811189
0.809831 0.809831 0.809831
0.808317 0.808317 0.808317
0.806602 0.806602 0.806602
0.804744 0.804744 0.804744
0.802718 0.802718 0.802718
0.800535 0.800535 0.800535
0.798452 0.798452 0.798452
0.796316 0.796316 0.796316
0.794227 0.794227 0.794227
0.792279 0.792279 0.792279
0.790389 0.790389 0.790389
0.788630 0.788630 0.788630
0.787125 0.787125 0.787125
0.785859 0.785859 0.785859
0.784869 0.784869 0.784869
0.784117 0.784117 0.784117
0.783613 0.783613 0.783613
0.783598 0.783598 0.783598
0.783812 0.783812 0.783812
0.785080 0.785080 0.785080
0.785182 0.785182 0.785182
0.786295 0.786295 0.786295
0.787239 0.787239 0.787239
0.788276 0.788276 0.788276
0.788500 0.788500 0.788500
0.786746 0.786746 0.786746
0.839985 0.839985 0.839985
0.839918 0.839918 0.839918
0.839677 0.839677 0.839677
0.839221 0.839221 0.839221
0.838514 0.838514 0.838514
0.837510 0.837510 0.837510
0.836159 0.836159 0.836159
0.834415 0.834415 0.834415
0.832556 0.832556 0.832556
0.830792 0.830792 0.830792
0.828725 0.828725 0.828725
0.826616 0.826616 0.826616
0.824405 0.824405 0.824405
0.822156 0.822156 0.822156
0.819904 0.819904 0.819904
0.817834 0.817834 0.817834
0.815798 0.815798 0.815798
0.813897 0.813897 0.813897
0.812157 0.812157 0.812157
0.810610 0.810610 0.810610
0.809312 0.809312 0.809312
0.808271 0.808271 0.808271
0.807509 0.807509 0.807509
0.807036 0.807036 0.807036
0.806880 0.806880 0.806880
