LUTs/trix_classic/TriX_Orange21_Normal.cube
TITLE "Tri-X Orange21 Normal"
# Adobe RGB in/out. REPLACES AgX. Tri-X Orange21 Normal.
LUT_3D_SIZE 5
DOMAIN_MIN 0.0 0.0 0.0
DOMAIN_MAX 1.0 1.0 1.0
0.093230 0.093230 0.093230
0.107685 0.107685 0.107685
0.371180 0.371180 0.371180
0.682694 0.682694 0.682694
0.861509 0.861509 0.861509
0.093755 0.093755 0.093755
0.188032 0.188032 0.188032
0.435839 0.435839 0.435839
0.689525 0.689525 0.689525
0.861513 0.861513 0.861513
0.144605 0.144605 0.144605
0.282247 0.282247 0.282247
0.510633 0.510633 0.510633
0.736326 0.736326 0.736326
0.893802 0.893802 0.893802
0.298882 0.298882 0.298882
0.384736 0.384736 0.384736
0.589925 0.589925 0.589925
0.791693 0.791693 0.791693
0.907986 0.907986 0.907986
0.414382 0.414382 0.414382
0.575253 0.575253 0.575253
0.695263 0.695263 0.695263
0.832336 0.832336 0.832336
0.929650 0.929650 0.929650
0.093230 0.093230 0.093230
0.102691 0.102691 0.102691
0.358945 0.358945 0.358945
0.680996 0.680996 0.680996
0.861513 0.861513 0.861513
0.096191 0.096191 0.096191
0.204394 0.204394 0.204394
0.404906 0.404906 0.404906
0.688299 0.688299 0.688299
0.861513 0.861513 0.861513
0.182923 0.182923 0.182923
0.291818 0.291818 0.291818
0.504234 0.504234 0.504234
0.726010 0.726010 0.726010
0.893480 0.893480 0.893480
0.325112 0.325112 0.325112
0.400874 0.400874 0.400874
0.590934 0.590934 0.590934
0.789649 0.789649 0.789649
0.908384 0.908384 0.908384
0.414410 0.414410 0.414410
0.575255 0.575255 0.575255
0.698054 0.698054 0.698054
0.834447 0.834447 0.834447
0.929878 0.929878 0.929878
0.093254 0.093254 0.093254
0.134609 0.134609 0.134609
0.362502 0.362502 0.362502
0.678221 0.678221 0.678221
0.861513 0.861513 0.861513
0.100193 0.100193 0.100193
0.194085 0.194085 0.194085
0.402123 0.402123 0.402123
0.686471 0.686471 0.686471
0.861514 0.861514 0.861514
0.210453 0.210453 0.210453
0.301283 0.301283 0.301283
0.508013 0.508013 0.508013
0.721693 0.721693 0.721693
0.892580 0.892580 0.892580
0.354211 0.354211 0.354211
0.421107 0.421107 0.421107
0.595659 0.595659 0.595659
0.785908 0.785908 0.785908
0.908509 0.908509 0.908509
0.510622 0.510622 0.510622
0.553430 0.553430 0.553430
0.706048 0.706048 0.706048
0.839332 0.839332 0.839332
0.930792 0.930792 0.930792
0.093617 0.093617 0.093617
0.148351 0.148351 0.148351
0.378202 0.378202 0.378202
0.678424 0.678424 0.678424
0.861506 0.861506 0.861506
0.103574 0.103574 0.103574
0.196449 0.196449 0.196449
0.412088 0.412088 0.412088
0.687159 0.687159 0.687159
0.861451 0.861451 0.861451
0.227377 0.227377 0.227377
0.309167 0.309167 0.309167
0.501385 0.501385 0.501385
0.721114 0.721114 0.721114
0.892320 0.892320 0.892320
0.366077 0.366077 0.366077
0.429372 0.429372 0.429372
0.597846 0.597846 0.597846
0.782937 0.782937 0.782937
0.908740 0.908740 0.908740
0.518189 0.518189 0.518189
0.567269 0.567269 0.567269
0.711221 0.711221 0.711221
0.842026 0.842026 0.842026
0.931439 0.931439 0.931439
0.099325 0.099325 0.099325
0.119618 0.119618 0.119618
0.393294 0.393294 0.393294
0.694002 0.694002 0.694002
0.861513 0.861513 0.861513
0.119641 0.119641 0.119641
0.164044 0.164044 0.164044
0.411678 0.411678 0.411678
0.701265 0.701265 0.701265
0.861520 0.861520 0.861520
0.252936 0.252936 0.252936
0.306136 0.306136 0.306136
0.480678 0.480678 0.480678
0.729765 0.729765 0.729765
0.901182 0.901182 0.901182
0.367718 0.367718 0.367718
0.425437 0.425437 0.425437
0.583728 0.583728 0.583728
0.774228 0.774228 0.774228
0.917316 0.917316 0.917316
0.484409 0.484409 0.484409
0.575255 0.575255 0.575255
0.711423 0.711423 0.711423
0.840562 0.840562 0.840562
0.932292 0.932292 0.932292
