LUTs/trix_classic/TriX_NoFilter_Normal.cube
TITLE "Tri-X NoFilter Normal"
# Adobe RGB in/out. REPLACES AgX. Tri-X NoFilter Normal.
LUT_3D_SIZE 33
DOMAIN_MIN 0.0 0.0 0.0
DOMAIN_MAX 1.0 1.0 1.0
0.093230 0.093230 0.093230
0.093230 0.093230 0.093230
0.093230 0.093230 0.093230
0.093230 0.093230 0.093230
0.093230 0.093230 0.093230
0.093243 0.093243 0.093243
0.093270 0.093270 0.093270
0.093580 0.093580 0.093580
0.093829 0.093829 0.093829
0.094834 0.094834 0.094834
0.098217 0.098217 0.098217
0.101771 0.101771 0.101771
0.106803 0.106803 0.106803
0.117719 0.117719 0.117719
0.137899 0.137899 0.137899
0.155779 0.155779 0.155779
0.175721 0.175721 0.175721
0.201291 0.201291 0.201291
0.229605 0.229605 0.229605
0.255670 0.255670 0.255670
0.279378 0.279378 0.279378
0.299727 0.299727 0.299727
0.321118 0.321118 0.321118
0.342959 0.342959 0.342959
0.363213 0.363213 0.363213
0.383909 0.383909 0.383909
0.412828 0.412828 0.412828
0.449707 0.449707 0.449707
0.586519 0.586519 0.586519
0.586496 0.586496 0.586496
0.586495 0.586495 0.586495
0.586495 0.586495 0.586495
0.682841 0.682841 0.682841
0.093230 0.093230 0.093230
0.093230 0.093230 0.093230
0.093230 0.093230 0.093230
0.093230 0.093230 0.093230
0.093238 0.093238 0.093238
0.093249 0.093249 0.093249
0.093274 0.093274 0.093274
0.093648 0.093648 0.093648
0.093877 0.093877 0.093877
0.095001 0.095001 0.095001
0.098528 0.098528 0.098528
0.102186 0.102186 0.102186
0.107237 0.107237 0.107237
0.118184 0.118184 0.118184
0.138502 0.138502 0.138502
0.156263 0.156263 0.156263
0.176152 0.176152 0.176152
0.201642 0.201642 0.201642
0.229883 0.229883 0.229883
0.255873 0.255873 0.255873
0.279492 0.279492 0.279492
0.299830 0.299830 0.299830
0.321206 0.321206 0.321206
0.343028 0.343028 0.343028
0.363269 0.363269 0.363269
0.383929 0.383929 0.383929
0.412667 0.412667 0.412667
0.448857 0.448857 0.448857
0.586519 0.586519 0.586519
0.586496 0.586496 0.586496
0.586495 0.586495 0.586495
0.586495 0.586495 0.586495
0.682841 0.682841 0.682841
0.093230 0.093230 0.093230
0.093230 0.093230 0.093230
0.093230 0.093230 0.093230
0.093230 0.093230 0.093230
0.093257 0.093257 0.093257
0.093268 0.093268 0.093268
0.093468 0.093468 0.093468
0.093920 0.093920 0.093920
0.094417 0.094417 0.094417
0.095689 0.095689 0.095689
0.099713 0.099713 0.099713
0.103767 0.103767 0.103767
0.109437 0.109437 0.109437
0.120441 0.120441 0.120441
0.140787 0.140787 0.140787
0.158093 0.158093 0.158093
0.177782 0.177782 0.177782
0.202905 0.202905 0.202905
0.230926 0.230926 0.230926
0.256634 0.256634 0.256634
0.279920 0.279920 0.279920
0.300215 0.300215 0.300215
0.321537 0.321537 0.321537
0.343287 0.343287 0.343287
0.363483 0.363483 0.363483
0.384021 0.384021 0.384021
0.412149 0.412149 0.412149
0.445998 0.445998 0.445998
0.586521 0.586521 0.586521
0.586497 0.586497 0.586497
0.586495 0.586495 0.586495
0.586495 0.586495 0.586495
0.682842 0.682842 0.682842
0.093230 0.093230 0.093230
0.093230 0.093230 0.093230
0.093230 0.093230 0.093230
0.093235 0.093235 0.093235
0.093271 0.093271 0.093271
0.093343 0.093343 0.093343
0.093729 0.093729 0.093729
0.094993 0.094993 0.094993
0.095685 0.095685 0.095685
0.097756 0.097756 0.097756
0.102851 0.102851 0.102851
0.107395 0.107395 0.107395
0.114053 0.114053 0.114053
0.125616 0.125616 0.125616
0.145535 0.145535 0.145535
0.161872 0.161872 0.161872
0.181140 0.181140 0.181140
0.205446 0.205446 0.205446
0.233048 0.233048 0.233048
0.258181 0.258181 0.258181
0.280782 0.280782 0.280782
0.300984 0.300984 0.300984
0.322195 0.322195 0.322195
0.343809 0.343809 0.343809
0.363930 0.363930 0.363930
0.384267 0.384267 0.384267
0.411415 0.411415 0.411415
0.441546 0.441546 0.441546
0.586525 0.586525 0.586525
0.586497 0.586497 0.586497
0.586495 0.586495 0.586495
0.586497 0.586497 0.586497
0.682842 0.682842 0.682842
0.093255 0.093255 0.093255
0.093257 0.093257 0.093257
0.093263 0.093263 0.093263
0.093273 0.093273 0.093273
0.093404 0.093404 0.093404
0.093494 0.093494 0.093494
0.093940 0.093940 0.093940
0.096052 0.096052 0.096052
0.097582 0.097582 0.097582
0.100244 0.100244 0.100244
0.107370 0.107370 0.107370
0.114042 0.114042 0.114042
0.120944 0.120944 0.120944
0.134077 0.134077 0.134077
0.154227 0.154227 0.154227
0.168928 0.168928 0.168928
0.187183 0.187183 0.187183
0.209977 0.209977 0.209977
0.236787 0.236787 0.236787
0.260901 0.260901 0.260901
0.282283 0.282283 0.282283
0.302305 0.302305 0.302305
0.323315 0.323315 0.323315
0.344710 0.344710 0.344710
0.364729 0.364729 0.364729
0.384814 0.384814 0.384814
0.410770 0.410770 0.410770
0.436687 0.436687 0.436687
0.586533 0.586533 0.586533
0.586498 0.586498 0.586498
0.586496 0.586496 0.586496
0.586510 0.586510 0.586510
0.682842 0.682842 0.682842
0.093273 0.093273 0.093273
0.093274 0.093274 0.093274
0.093297 0.093297 0.093297
0.093393 0.093393 0.093393
0.093510 0.093510 0.093510
0.093725 0.093725 0.093725
0.094721 0.094721 0.094721
0.097919 0.097919 0.097919
0.099490 0.099490 0.099490
0.103151 0.103151 0.103151
0.113670 0.113670 0.113670
0.121930 0.121930 0.121930
0.130749 0.130749 0.130749
0.143818 0.143818 0.143818
0.163099 0.163099 0.163099
0.178397 0.178397 0.178397
0.196026 0.196026 0.196026
0.217699 0.217699 0.217699
0.243179 0.243179 0.243179
0.265540 0.265540 0.265540
0.284869 0.284869 0.284869
0.304474 0.304474 0.304474
0.325130 0.325130 0.325130
0.346182 0.346182 0.346182
0.366076 0.366076 0.366076
0.385890 0.385890 0.385890
0.410608 0.410608 0.410608
0.432816 0.432816 0.432816
0.586549 0.586549 0.586549
0.586500 0.586500 0.586500
0.586497 0.586497 0.586497
0.625167 0.625167 0.625167
0.682842 0.682842 0.682842
0.093691 0.093691 0.093691
0.093698 0.093698 0.093698
0.093757 0.093757 0.093757
0.093854 0.093854 0.093854
0.094075 0.094075 0.094075
0.094863 0.094863 0.094863
0.095848 0.095848 0.095848
0.100086 0.100086 0.100086
0.101581 0.101581 0.101581
0.106276 0.106276 0.106276
0.119886 0.119886 0.119886
0.131074 0.131074 0.131074
0.140185 0.140185 0.140185
0.154226 0.154226 0.154226
0.175146 0.175146 0.175146
0.190875 0.190875 0.190875
0.205744 0.205744 0.205744
0.225300 0.225300 0.225300
0.250455 0.250455 0.250455
0.271575 0.271575 0.271575
0.288989 0.288989 0.288989
0.308056 0.308056 0.308056
0.328061 0.328061 0.328061
0.348559 0.348559 0.348559
0.368285 0.368285 0.368285
0.387837 0.387837 0.387837
0.411381 0.411381 0.411381
0.430930 0.430930 0.430930
0.586588 0.586588 0.586588
0.586504 0.586504 0.586504
0.586499 0.586499 0.586499
0.625188 0.625188 0.625188
0.682842 0.682842 0.682842
0.095331 0.095331 0.095331
0.095352 0.095352 0.095352
0.095610 0.095610 0.095610
0.095998 0.095998 0.095998
0.096938 0.096938 0.096938
0.098553 0.098553 0.098553
0.100377 0.100377 0.100377
0.103487 0.103487 0.103487
0.105142 0.105142 0.105142
0.111364 0.111364 0.111364
0.127894 0.127894 0.127894
0.139387 0.139387 0.139387
0.149596 0.149596 0.149596
0.164626 0.164626 0.164626
0.187842 0.187842 0.187842
0.202599 0.202599 0.202599
0.216815 0.216815 0.216815
0.236238 0.236238 0.236238
0.260310 0.260310 0.260310
0.277095 0.277095 0.277095
0.293460 0.293460 0.293460
0.311991 0.311991 0.311991
0.331770 0.331770 0.331770
0.352006 0.352006 0.352006
0.371893 0.371893 0.371893
0.391190 0.391190 0.391190
0.413679 0.413679 0.413679
0.431676 0.431676 0.431676
0.586733 0.586733 0.586733
0.586518 0.586518 0.586518
0.586504 0.586504 0.586504
0.625191 0.625191 0.625191
0.682842 0.682842 0.682842
0.097163 0.097163 0.097163
0.097196 0.097196 0.097196
0.097515 0.097515 0.097515
0.098206 0.098206 0.098206
0.099172 0.099172 0.099172
0.100399 0.100399 0.100399
0.102592 0.102592 0.102592
0.105642 0.105642 0.105642
0.110761 0.110761 0.110761
0.117646 0.117646 0.117646
0.136785 0.136785 0.136785
0.148825 0.148825 0.148825
0.159198 0.159198 0.159198
0.175459 0.175459 0.175459
0.200170 0.200170 0.200170
0.214549 0.214549 0.214549
0.228968 0.228968 0.228968
0.247802 0.247802 0.247802
0.271029 0.271029 0.271029
0.284356 0.284356 0.284356
0.300214 0.300214 0.300214
0.317463 0.317463 0.317463
0.336294 0.336294 0.336294
0.355831 0.355831 0.355831
0.375310 0.375310 0.375310
0.394889 0.394889 0.394889
0.417275 0.417275 0.417275
0.435545 0.435545 0.435545
0.589719 0.589719 0.589719
0.586677 0.586677 0.586677
0.586543 0.586543 0.586543
0.625197 0.625197 0.625197
0.682842 0.682842 0.682842
0.100928 0.100928 0.100928
0.100952 0.100952 0.100952
0.101201 0.101201 0.101201
0.102208 0.102208 0.102208
0.103558 0.103558 0.103558
0.105454 0.105454 0.105454
0.108347 0.108347 0.108347
0.113060 0.113060 0.113060
0.118501 0.118501 0.118501
0.127125 0.127125 0.127125
0.147614 0.147614 0.147614
0.159330 0.159330 0.159330
0.169384 0.169384 0.169384
0.186726 0.186726 0.186726
0.211970 0.211970 0.211970
0.226651 0.226651 0.226651
0.241241 0.241241 0.241241
0.259998 0.259998 0.259998
0.280298 0.280298 0.280298
0.292976 0.292976 0.292976
0.307124 0.307124 0.307124
0.324042 0.324042 0.324042
0.342578 0.342578 0.342578
0.361284 0.361284 0.361284
0.380059 0.380059 0.380059
0.399225 0.399225 0.399225
0.420907 0.420907 0.420907
0.438442 0.438442 0.438442
0.459844 0.459844 0.459844
0.487353 0.487353 0.487353
0.594928 0.594928 0.594928
0.626348 0.626348 0.626348
0.682842 0.682842 0.682842
0.112361 0.112361 0.112361
0.112423 0.112423 0.112423
0.112886 0.112886 0.112886
0.114697 0.114697 0.114697
0.116869 0.116869 0.116869
0.120028 0.120028 0.120028
0.125333 0.125333 0.125333
0.131667 0.131667 0.131667
0.139491 0.139491 0.139491
0.149078 0.149078 0.149078
0.160044 0.160044 0.160044
0.171367 0.171367 0.171367
0.181844 0.181844 0.181844
0.198980 0.198980 0.198980
0.224131 0.224131 0.224131
0.238864 0.238864 0.238864
0.253507 0.253507 0.253507
0.272179 0.272179 0.272179
0.290259 0.290259 0.290259
0.301986 0.301986 0.301986
0.315789 0.315789 0.315789
0.332084 0.332084 0.332084
0.349599 0.349599 0.349599
0.367390 0.367390 0.367390
0.386006 0.386006 0.386006
0.405264 0.405264 0.405264
0.425879 0.425879 0.425879
0.442771 0.442771 0.442771
0.462648 0.462648 0.462648
0.484267 0.484267 0.484267
0.573571 0.573571 0.573571
0.629943 0.629943 0.629943
0.631244 0.631244 0.631244
0.124713 0.124713 0.124713
0.124788 0.124788 0.124788
0.125291 0.125291 0.125291
0.127331 0.127331 0.127331
0.129895 0.129895 0.129895
0.133723 0.133723 0.133723
0.139153 0.139153 0.139153
0.145489 0.145489 0.145489
0.153205 0.153205 0.153205
0.162191 0.162191 0.162191
0.173081 0.173081 0.173081
0.186207 0.186207 0.186207
0.195417 0.195417 0.195417
0.212003 0.212003 0.212003
0.237039 0.237039 0.237039
0.251343 0.251343 0.251343
0.266316 0.266316 0.266316
0.281797 0.281797 0.281797
0.300249 0.300249 0.300249
0.311730 0.311730 0.311730
0.325475 0.325475 0.325475
0.340646 0.340646 0.340646
0.358231 0.358231 0.358231
0.375168 0.375168 0.375168
0.392696 0.392696 0.392696
0.411276 0.411276 0.411276
0.431337 0.431337 0.431337
0.448608 0.448608 0.448608
0.467796 0.467796 0.467796
0.486257 0.486257 0.486257
0.542597 0.542597 0.542597
0.629962 0.629962 0.629962
0.632480 0.632480 0.632480
0.138226 0.138226 0.138226
0.138298 0.138298 0.138298
0.138748 0.138748 0.138748
0.140456 0.140456 0.140456
0.143364 0.143364 0.143364
0.147331 0.147331 0.147331
0.152140 0.152140 0.152140
0.158146 0.158146 0.158146
0.165443 0.165443 0.165443
0.174543 0.174543 0.174543
0.185282 0.185282 0.185282
0.197215 0.197215 0.197215
0.210470 0.210470 0.210470
0.225861 0.225861 0.225861
0.251191 0.251191 0.251191
0.265249 0.265249 0.265249
0.277341 0.277341 0.277341
0.292008 0.292008 0.292008
0.310615 0.310615 0.310615
0.321936 0.321936 0.321936
0.335154 0.335154 0.335154
0.350826 0.350826 0.350826
0.368110 0.368110 0.368110
0.383480 0.383480 0.383480
0.400689 0.400689 0.400689
0.419107 0.419107 0.419107
0.437522 0.437522 0.437522
0.454194 0.454194 0.454194
0.473103 0.473103 0.473103
0.491516 0.491516 0.491516
0.516306 0.516306 0.516306
0.629994 0.629994 0.629994
0.634277 0.634277 0.634277
0.157389 0.157389 0.157389
0.157462 0.157462 0.157462
0.157867 0.157867 0.157867
0.159280 0.159280 0.159280
0.162522 0.162522 0.162522
0.166019 0.166019 0.166019
0.170911 0.170911 0.170911
0.177531 0.177531 0.177531
0.185375 0.185375 0.185375
0.194237 0.194237 0.194237
0.204381 0.204381 0.204381
0.215481 0.215481 0.215481
0.227639 0.227639 0.227639
0.241422 0.241422 0.241422
0.266291 0.266291 0.266291
0.277594 0.277594 0.277594
0.287829 0.287829 0.287829
0.302240 0.302240 0.302240
0.320979 0.320979 0.320979
0.332525 0.332525 0.332525
0.345844 0.345844 0.345844
0.361738 0.361738 0.361738
0.378313 0.378313 0.378313
0.393243 0.393243 0.393243
0.409776 0.409776 0.409776
0.426970 0.426970 0.426970
0.444706 0.444706 0.444706
0.461392 0.461392 0.461392
0.479439 0.479439 0.479439
0.496746 0.496746 0.496746
0.517635 0.517635 0.517635
0.564086 0.564086 0.564086
0.660535 0.660535 0.660535
0.184689 0.184689 0.184689
0.184787 0.184787 0.184787
0.185270 0.185270 0.185270
0.186754 0.186754 0.186754
0.190710 0.190710 0.190710
0.194210 0.194210 0.194210
0.199743 0.199743 0.199743
0.205987 0.205987 0.205987
0.213338 0.213338 0.213338
0.221862 0.221862 0.221862
0.231721 0.231721 0.231721
0.242548 0.242548 0.242548
0.254731 0.254731 0.254731
0.268136 0.268136 0.268136
0.279590 0.279590 0.279590
0.289057 0.289057 0.289057
0.299322 0.299322 0.299322
0.313444 0.313444 0.313444
0.331970 0.331970 0.331970
0.343427 0.343427 0.343427
0.357228 0.357228 0.357228
0.373238 0.373238 0.373238
0.389498 0.389498 0.389498
0.404034 0.404034 0.404034
0.419592 0.419592 0.419592
0.435929 0.435929 0.435929
0.452764 0.452764 0.452764
0.468692 0.468692 0.468692
0.486674 0.486674 0.486674
0.504104 0.504104 0.504104
0.522492 0.522492 0.522492
0.549909 0.549909 0.549909
0.658051 0.658051 0.658051
0.205800 0.205800 0.205800
0.205886 0.205886 0.205886
0.206291 0.206291 0.206291
0.207472 0.207472 0.207472
0.210482 0.210482 0.210482
0.214121 0.214121 0.214121
0.219582 0.219582 0.219582
0.224729 0.224729 0.224729
0.231587 0.231587 0.231587
0.239942 0.239942 0.239942
0.249032 0.249032 0.249032
0.259286 0.259286 0.259286
0.270933 0.270933 0.270933
0.280210 0.280210 0.280210
0.290497 0.290497 0.290497
0.301770 0.301770 0.301770
0.311324 0.311324 0.311324
0.325145 0.325145 0.325145
0.343748 0.343748 0.343748
0.355531 0.355531 0.355531
0.368940 0.368940 0.368940
0.385027 0.385027 0.385027
0.401342 0.401342 0.401342
0.415336 0.415336 0.415336
0.430132 0.430132 0.430132
0.445679 0.445679 0.445679
0.461517 0.461517 0.461517
0.477337 0.477337 0.477337
0.494621 0.494621 0.494621
0.511121 0.511121 0.511121
0.529003 0.529003 0.529003
0.550162 0.550162 0.550162
0.638735 0.638735 0.638735
0.226601 0.226601 0.226601
0.226679 0.226679 0.226679
0.227040 0.227040 0.227040
0.228048 0.228048 0.228048
0.230517 0.230517 0.230517
0.234523 0.234523 0.234523
0.238601 0.238601 0.238601
0.244040 0.244040 0.244040
0.250704 0.250704 0.250704
0.258382 0.258382 0.258382
0.267157 0.267157 0.267157
0.275258 0.275258 0.275258
0.283310 0.283310 0.283310
0.292279 0.292279 0.292279
0.302116 0.302116 0.302116
0.312774 0.312774 0.312774
0.324221 0.324221 0.324221
0.337497 0.337497 0.337497
0.356301 0.356301 0.356301
0.367768 0.367768 0.367768
0.381192 0.381192 0.381192
0.397103 0.397103 0.397103
0.413584 0.413584 0.413584
0.427112 0.427112 0.427112
0.441242 0.441242 0.441242
0.456159 0.456159 0.456159
0.471346 0.471346 0.471346
0.486367 0.486367 0.486367
0.503256 0.503256 0.503256
0.519603 0.519603 0.519603
0.536167 0.536167 0.536167
0.553912 0.553912 0.553912
0.603196 0.603196 0.603196
0.251352 0.251352 0.251352
0.251433 0.251433 0.251433
0.251789 0.251789 0.251789
0.252719 0.252719 0.252719
0.254869 0.254869 0.254869
0.259386 0.259386 0.259386
0.262622 0.262622 0.262622
0.268515 0.268515 0.268515
0.273615 0.273615 0.273615
0.278755 0.278755 0.278755
0.284955 0.284955 0.284955
0.292052 0.292052 0.292052
0.300068 0.300068 0.300068
0.308428 0.308428 0.308428
0.317898 0.317898 0.317898
0.327969 0.327969 0.327969
0.338864 0.338864 0.338864
0.351136 0.351136 0.351136
0.369595 0.369595 0.369595
0.380822 0.380822 0.380822
0.393835 0.393835 0.393835
0.409733 0.409733 0.409733
0.426026 0.426026 0.426026
0.438767 0.438767 0.438767
0.452942 0.452942 0.452942
0.467499 0.467499 0.467499
0.481990 0.481990 0.481990
0.496388 0.496388 0.496388
0.512845 0.512845 0.512845
0.528019 0.528019 0.528019
0.544384 0.544384 0.544384
0.561251 0.561251 0.561251
0.591187 0.591187 0.591187
0.277824 0.277824 0.277824
0.277893 0.277893 0.277893
0.278176 0.278176 0.278176
0.278858 0.278858 0.278858
0.280313 0.280313 0.280313
0.283286 0.283286 0.283286
0.286142 0.286142 0.286142
0.290280 0.290280 0.290280
0.294677 0.294677 0.294677
0.300263 0.300263 0.300263
0.306388 0.306388 0.306388
0.313313 0.313313 0.313313
0.320746 0.320746 0.320746
0.328958 0.328958 0.328958
0.337868 0.337868 0.337868
0.348239 0.348239 0.348239
0.359167 0.359167 0.359167
0.370839 0.370839 0.370839
0.383590 0.383590 0.383590
0.394425 0.394425 0.394425
0.407323 0.407323 0.407323
0.422863 0.422863 0.422863
0.438225 0.438225 0.438225
0.450933 0.450933 0.450933
0.464820 0.464820 0.464820
0.479402 0.479402 0.479402
0.493283 0.493283 0.493283
0.507352 0.507352 0.507352
0.522635 0.522635 0.522635
0.537404 0.537404 0.537404
0.553403 0.553403 0.553403
0.568745 0.568745 0.568745
0.591551 0.591551 0.591551
0.295546 0.295546 0.295546
0.295609 0.295609 0.295609
0.295865 0.295865 0.295865
0.296467 0.296467 0.296467
0.297722 0.297722 0.297722
0.300222 0.300222 0.300222
0.303368 0.303368 0.303368
0.306569 0.306569 0.306569
0.311103 0.311103 0.311103
0.316277 0.316277 0.316277
0.321641 0.321641 0.321641
0.328032 0.328032 0.328032
0.335171 0.335171 0.335171
0.343122 0.343122 0.343122
0.352160 0.352160 0.352160
0.361916 0.361916 0.361916
0.372471 0.372471 0.372471
0.383867 0.383867 0.383867
0.395800 0.395800 0.395800
0.408854 0.408854 0.408854
0.421192 0.421192 0.421192
0.435780 0.435780 0.435780
0.450870 0.450870 0.450870
0.463512 0.463512 0.463512
0.477362 0.477362 0.477362
0.491679 0.491679 0.491679
0.505247 0.505247 0.505247
0.518868 0.518868 0.518868
0.533118 0.533118 0.533118
0.547361 0.547361 0.547361
0.562770 0.562770 0.562770
0.577992 0.577992 0.577992
0.596559 0.596559 0.596559
0.314403 0.314403 0.314403
0.314464 0.314464 0.314464
0.314705 0.314705 0.314705
0.315254 0.315254 0.315254
0.316358 0.316358 0.316358
0.318480 0.318480 0.318480
0.321944 0.321944 0.321944
0.324531 0.324531 0.324531
0.329276 0.329276 0.329276
0.333271 0.333271 0.333271
0.338814 0.338814 0.338814
0.345331 0.345331 0.345331
0.352222 0.352222 0.352222
0.359864 0.359864 0.359864
0.368495 0.368495 0.368495
0.377908 0.377908 0.377908
0.387827 0.387827 0.387827
0.398620 0.398620 0.398620
0.410456 0.410456 0.410456
0.422657 0.422657 0.422657
0.435166 0.435166 0.435166
0.448904 0.448904 0.448904
0.463843 0.463843 0.463843
0.476514 0.476514 0.476514
0.490189 0.490189 0.490189
0.504549 0.504549 0.504549
0.517837 0.517837 0.517837
0.530549 0.530549 0.530549
0.544313 0.544313 0.544313
0.557825 0.557825 0.557825
0.572941 0.572941 0.572941
0.587452 0.587452 0.587452
0.604245 0.604245 0.604245
0.334452 0.334452 0.334452
0.334518 0.334518 0.334518
0.334773 0.334773 0.334773
0.335325 0.335325 0.335325
0.336378 0.336378 0.336378
0.338302 0.338302 0.338302
0.341845 0.341845 0.341845
0.344608 0.344608 0.344608
0.348715 0.348715 0.348715
0.353371 0.353371 0.353371
0.359054 0.359054 0.359054
0.364785 0.364785 0.364785
0.371637 0.371637 0.371637
0.379180 0.379180 0.379180
0.387323 0.387323 0.387323
0.396369 0.396369 0.396369
0.405984 0.405984 0.405984
0.416355 0.416355 0.416355
0.427242 0.427242 0.427242
0.438625 0.438625 0.438625
0.450265 0.450265 0.450265
0.462820 0.462820 0.462820
0.477227 0.477227 0.477227
0.489843 0.489843 0.489843
0.503380 0.503380 0.503380
0.517619 0.517619 0.517619
0.530483 0.530483 0.530483
0.542966 0.542966 0.542966
0.556190 0.556190 0.556190
0.569118 0.569118 0.569118
0.583572 0.583572 0.583572
0.597742 0.597742 0.597742
0.613392 0.613392 0.613392
0.356036 0.356036 0.356036
0.356107 0.356107 0.356107
0.356378 0.356378 0.356378
0.356949 0.356949 0.356949
0.357995 0.357995 0.357995
0.359830 0.359830 0.359830
0.363020 0.363020 0.363020
0.366331 0.366331 0.366331
0.369811 0.369811 0.369811
0.374921 0.374921 0.374921
0.379536 0.379536 0.379536
0.385547 0.385547 0.385547
0.392416 0.392416 0.392416
0.399261 0.399261 0.399261
0.406998 0.406998 0.406998
0.415602 0.415602 0.415602
0.424927 0.424927 0.424927
0.434339 0.434339 0.434339
0.444384 0.444384 0.444384
0.455111 0.455111 0.455111
0.466610 0.466610 0.466610
0.478584 0.478584 0.478584
0.491280 0.491280 0.491280
0.503730 0.503730 0.503730
0.517021 0.517021 0.517021
0.530494 0.530494 0.530494
0.543441 0.543441 0.543441
0.555801 0.555801 0.555801
0.568782 0.568782 0.568782
0.581169 0.581169 0.581169
0.594848 0.594848 0.594848
0.608656 0.608656 0.608656
0.623225 0.623225 0.623225
0.377721 0.377721 0.377721
0.377784 0.377784 0.377784
0.378023 0.378023 0.378023
0.378520 0.378520 0.378520
0.379417 0.379417 0.379417
0.380965 0.380965 0.380965
0.383617 0.383617 0.383617
0.387215 0.387215 0.387215
0.390088 0.390088 0.390088
0.394796 0.394796 0.394796
0.399197 0.399197 0.399197
0.405084 0.405084 0.405084
0.410810 0.410810 0.410810
0.417808 0.417808 0.417808
0.425398 0.425398 0.425398
0.432827 0.432827 0.432827
0.441106 0.441106 0.441106
0.450087 0.450087 0.450087
0.459786 0.459786 0.459786
0.470124 0.470124 0.470124
0.481182 0.481182 0.481182
0.492789 0.492789 0.492789
0.505189 0.505189 0.505189
0.518182 0.518182 0.518182
0.530554 0.530554 0.530554
0.543765 0.543765 0.543765
0.556794 0.556794 0.556794
0.569010 0.569010 0.569010
0.581782 0.581782 0.581782
0.593899 0.593899 0.593899
0.606897 0.606897 0.606897
0.619898 0.619898 0.619898
0.634022 0.634022 0.634022
0.398755 0.398755 0.398755
0.398821 0.398821 0.398821
0.399070 0.399070 0.399070
0.399573 0.399573 0.399573
0.400450 0.400450 0.400450
0.401907 0.401907 0.401907
0.404308 0.404308 0.404308
0.408316 0.408316 0.408316
0.410882 0.410882 0.410882
0.414898 0.414898 0.414898
0.419847 0.419847 0.419847
0.424680 0.424680 0.424680
0.430308 0.430308 0.430308
0.436599 0.436599 0.436599
0.443063 0.443063 0.443063
0.450454 0.450454 0.450454
0.458542 0.458542 0.458542
0.467207 0.467207 0.467207
0.476426 0.476426 0.476426
0.486353 0.486353 0.486353
0.496901 0.496901 0.496901
0.508097 0.508097 0.508097
0.519769 0.519769 0.519769
0.531924 0.531924 0.531924
0.544554 0.544554 0.544554
0.557352 0.557352 0.557352
0.570666 0.570666 0.570666
0.582577 0.582577 0.582577
0.595301 0.595301 0.595301
0.607093 0.607093 0.607093
0.619637 0.619637 0.619637
0.631991 0.631991 0.631991
0.645255 0.645255 0.645255
0.419914 0.419914 0.419914
0.419985 0.419985 0.419985
0.420247 0.420247 0.420247
0.420768 0.420768 0.420768
0.421648 0.421648 0.421648
0.423059 0.423059 0.423059
0.425192 0.425192 0.425192
0.428571 0.428571 0.428571
0.431583 0.431583 0.431583
0.434909 0.434909 0.434909
0.440035 0.440035 0.440035
0.444008 0.444008 0.444008
0.449847 0.449847 0.449847
0.455226 0.455226 0.455226
0.461939 0.461939 0.461939
0.469004 0.469004 0.469004
0.476544 0.476544 0.476544
0.484823 0.484823 0.484823
0.493703 0.493703 0.493703
0.503267 0.503267 0.503267
0.513455 0.513455 0.513455
0.523990 0.523990 0.523990
0.534921 0.534921 0.534921
0.546395 0.546395 0.546395
0.558690 0.558690 0.558690
0.571304 0.571304 0.571304
0.584945 0.584945 0.584945
0.596716 0.596716 0.596716
0.609288 0.609288 0.609288
0.620889 0.620889 0.620889
0.632813 0.632813 0.632813
0.644691 0.644691 0.644691
0.657450 0.657450 0.657450
0.443708 0.443708 0.443708
0.443761 0.443761 0.443761
0.443958 0.443958 0.443958
0.444346 0.444346 0.444346
0.444996 0.444996 0.444996
0.446031 0.446031 0.446031
0.447677 0.447677 0.447677
0.450365 0.450365 0.450365
0.453592 0.453592 0.453592
0.456323 0.456323 0.456323
0.460474 0.460474 0.460474
0.464862 0.464862 0.464862
0.469655 0.469655 0.469655
0.475230 0.475230 0.475230
0.481329 0.481329 0.481329
0.487853 0.487853 0.487853
0.495360 0.495360 0.495360
0.503283 0.503283 0.503283
0.511601 0.511601 0.511601
0.520541 0.520541 0.520541
0.529958 0.529958 0.529958
0.540039 0.540039 0.540039
0.550766 0.550766 0.550766
0.562102 0.562102 0.562102
0.574080 0.574080 0.574080
