LUTs/trix_classic/TriX_Blue47_ExtraPunchy.cube
TITLE "Tri-X Blue47 ExtraPunchy"
# Adobe RGB in/out. REPLACES AgX. Tri-X Blue47 ExtraPunchy.
LUT_3D_SIZE 9
DOMAIN_MIN 0.0 0.0 0.0
DOMAIN_MAX 1.0 1.0 1.0
0.092237 0.092237 0.092237
0.092237 0.092237 0.092237
0.092237 0.092237 0.092237
0.092237 0.092237 0.092237
0.092237 0.092237 0.092237
0.092237 0.092237 0.092237
0.092703 0.092703 0.092703
0.268797 0.268797 0.268797
0.566851 0.566851 0.566851
0.092237 0.092237 0.092237
0.092237 0.092237 0.092237
0.092237 0.092237 0.092237
0.092237 0.092237 0.092237
0.092237 0.092237 0.092237
0.092237 0.092237 0.092237
0.092695 0.092695 0.092695
0.268836 0.268836 0.268836
0.566845 0.566845 0.566845
0.092237 0.092237 0.092237
0.092237 0.092237 0.092237
0.092237 0.092237 0.092237
0.092237 0.092237 0.092237
0.092237 0.092237 0.092237
0.092237 0.092237 0.092237
0.092767 0.092767 0.092767
0.273541 0.273541 0.273541
0.566844 0.566844 0.566844
0.092237 0.092237 0.092237
0.092237 0.092237 0.092237
0.092237 0.092237 0.092237
0.092237 0.092237 0.092237
0.092237 0.092237 0.092237
0.092570 0.092570 0.092570
0.093308 0.093308 0.093308
0.095966 0.095966 0.095966
0.314718 0.314718 0.314718
0.092237 0.092237 0.092237
0.092237 0.092237 0.092237
0.092237 0.092237 0.092237
0.092310 0.092310 0.092310
0.092618 0.092618 0.092618
0.093183 0.093183 0.093183
0.094354 0.094354 0.094354
0.097419 0.097419 0.097419
0.166492 0.166492 0.166492
0.092297 0.092297 0.092297
0.092350 0.092350 0.092350
0.092555 0.092555 0.092555
0.092801 0.092801 0.092801
0.093561 0.093561 0.093561
0.094463 0.094463 0.094463
0.096897 0.096897 0.096897
0.101441 0.101441 0.101441
0.122070 0.122070 0.122070
0.092837 0.092837 0.092837
0.092896 0.092896 0.092896
0.093408 0.093408 0.093408
0.094122 0.094122 0.094122
0.095473 0.095473 0.095473
0.097484 0.097484 0.097484
0.101369 0.101369 0.101369
0.106995 0.106995 0.106995
0.123885 0.123885 0.123885
0.094338 0.094338 0.094338
0.094362 0.094362 0.094362
0.095116 0.095116 0.095116
0.096581 0.096581 0.096581
0.098923 0.098923 0.098923
0.102500 0.102500 0.102500
0.107202 0.107202 0.107202
0.114521 0.114521 0.114521
0.129421 0.129421 0.129421
0.095038 0.095038 0.095038
0.095039 0.095039 0.095039
0.095047 0.095047 0.095047
0.099344 0.099344 0.099344
0.103142 0.103142 0.103142
0.107379 0.107379 0.107379
0.113178 0.113178 0.113178
0.120685 0.120685 0.120685
0.128843 0.128843 0.128843
0.092237 0.092237 0.092237
0.094213 0.094213 0.094213
0.092535 0.092535 0.092535
0.092497 0.092497 0.092497
0.092424 0.092424 0.092424
0.092644 0.092644 0.092644
0.093947 0.093947 0.093947
0.268841 0.268841 0.268841
0.566854 0.566854 0.566854
0.092237 0.092237 0.092237
0.092317 0.092317 0.092317
0.092237 0.092237 0.092237
0.092430 0.092430 0.092430
0.092454 0.092454 0.092454
0.092669 0.092669 0.092669
0.093850 0.093850 0.093850
0.268903 0.268903 0.268903
0.566845 0.566845 0.566845
0.092237 0.092237 0.092237
0.092237 0.092237 0.092237
0.092237 0.092237 0.092237
0.092486 0.092486 0.092486
0.092621 0.092621 0.092621
0.092815 0.092815 0.092815
0.093978 0.093978 0.093978
0.275621 0.275621 0.275621
0.566844 0.566844 0.566844
0.092237 0.092237 0.092237
0.092237 0.092237 0.092237
0.092444 0.092444 0.092444
0.092688 0.092688 0.092688
0.092955 0.092955 0.092955
0.093600 0.093600 0.093600
0.094703 0.094703 0.094703
0.099518 0.099518 0.099518
0.566834 0.566834 0.566834
0.092409 0.092409 0.092409
0.092482 0.092482 0.092482
0.092696 0.092696 0.092696
0.093138 0.093138 0.093138
0.094004 0.094004 0.094004
0.094866 0.094866 0.094866
0.096975 0.096975 0.096975
0.101899 0.101899 0.101899
0.199694 0.199694 0.199694
0.092749 0.092749 0.092749
0.092798 0.092798 0.092798
0.093295 0.093295 0.093295
0.094084 0.094084 0.094084
0.095448 0.095448 0.095448
0.097522 0.097522 0.097522
0.101259 0.101259 0.101259
0.106691 0.106691 0.106691
0.135377 0.135377 0.135377
0.093818 0.093818 0.093818
0.093935 0.093935 0.093935
0.094440 0.094440 0.094440
0.096040 0.096040 0.096040
0.098219 0.098219 0.098219
0.102055 0.102055 0.102055
0.107013 0.107013 0.107013
0.114800 0.114800 0.114800
0.135307 0.135307 0.135307
0.095377 0.095377 0.095377
0.095533 0.095533 0.095533
0.096886 0.096886 0.096886
0.099249 0.099249 0.099249
0.102683 0.102683 0.102683
0.107470 0.107470 0.107470
0.114508 0.114508 0.114508
0.124888 0.124888 0.124888
0.139952 0.139952 0.139952
0.136126 0.136126 0.136126
0.136127 0.136127 0.136127
0.136128 0.136128 0.136128
0.136119 0.136119 0.136119
0.106468 0.106468 0.106468
0.112643 0.112643 0.112643
0.120515 0.120515 0.120515
0.129248 0.129248 0.129248
0.136676 0.136676 0.136676
0.107026 0.107026 0.107026
0.242214 0.242214 0.242214
0.220190 0.220190 0.220190
0.202941 0.202941 0.202941
0.193891 0.193891 0.193891
0.210238 0.210238 0.210238
0.251311 0.251311 0.251311
0.297916 0.297916 0.297916
0.566928 0.566928 0.566928
0.106933 0.106933 0.106933
0.138753 0.138753 0.138753
0.160474 0.160474 0.160474
0.164805 0.164805 0.164805
0.168877 0.168877 0.168877
0.188765 0.188765 0.188765
0.226393 0.226393 0.226393
0.301848 0.301848 0.301848
0.566858 0.566858 0.566858
0.102449 0.102449 0.102449
0.105172 0.105172 0.105172
0.128236 0.128236 0.128236
0.127921 0.127921 0.127921
0.138194 0.138194 0.138194
0.156384 0.156384 0.156384
0.176847 0.176847 0.176847
0.320365 0.320365 0.320365
0.566845 0.566845 0.566845
0.104148 0.104148 0.104148
0.105839 0.105839 0.105839
0.111061 0.111061 0.111061
0.118616 0.118616 0.118616
0.130165 0.130165 0.130165
0.144118 0.144118 0.144118
0.157130 0.157130 0.157130
0.206391 0.206391 0.206391
0.566855 0.566855 0.566855
0.107641 0.107641 0.107641
0.108783 0.108783 0.108783
0.113374 0.113374 0.113374
0.121088 0.121088 0.121088
0.130215 0.130215 0.130215
0.143745 0.143745 0.143745
0.154786 0.154786 0.154786
0.183682 0.183682 0.183682
0.370452 0.370452 0.370452
0.114035 0.114035 0.114035
0.115028 0.115028 0.115028
0.120086 0.120086 0.120086
0.128034 0.128034 0.128034
0.137228 0.137228 0.137228
0.148897 0.148897 0.148897
0.160086 0.160086 0.160086
0.182113 0.182113 0.182113
0.238621 0.238621 0.238621
0.119169 0.119169 0.119169
0.120258 0.120258 0.120258
0.125080 0.125080 0.125080
0.132643 0.132643 0.132643
0.142375 0.142375 0.142375
0.154737 0.154737 0.154737
0.168167 0.168167 0.168167
0.187042 0.187042 0.187042
0.213065 0.213065 0.213065
0.128736 0.128736 0.128736
0.129696 0.129696 0.129696
0.135396 0.135396 0.135396
0.143164 0.143164 0.143164
0.153856 0.153856 0.153856
0.165749 0.165749 0.165749
0.178821 0.178821 0.178821
0.193005 0.193005 0.193005
0.207109 0.207109 0.207109
0.136131 0.136131 0.136131
0.136131 0.136131 0.136131
0.136130 0.136130 0.136130
0.136130 0.136130 0.136130
0.140480 0.140480 0.140480
0.157083 0.157083 0.157083
0.169771 0.169771 0.169771
0.181122 0.181122 0.181122
0.189874 0.189874 0.189874
0.252004 0.252004 0.252004
0.438243 0.438243 0.438243
0.487641 0.487641 0.487641
0.474692 0.474692 0.474692
0.477462 0.477462 0.477462
0.492917 0.492917 0.492917
0.538390 0.538390 0.538390
0.656564 0.656564 0.656564
0.672903 0.672903 0.672903
0.260907 0.260907 0.260907
0.357566 0.357566 0.357566
0.437281 0.437281 0.437281
0.436481 0.436481 0.436481
0.447864 0.447864 0.447864
0.469381 0.469381 0.469381
0.519921 0.519921 0.519921
0.646802 0.646802 0.646802
0.673944 0.673944 0.673944
0.238611 0.238611 0.238611
0.260805 0.260805 0.260805
0.315557 0.315557 0.315557
0.342797 0.342797 0.342797
0.368719 0.368719 0.368719
0.397526 0.397526 0.397526
0.450330 0.450330 0.450330
0.570561 0.570561 0.570561
0.677734 0.677734 0.677734
0.222016 0.222016 0.222016
0.230069 0.230069 0.230069
0.254122 0.254122 0.254122
0.302165 0.302165 0.302165
0.309621 0.309621 0.309621
0.335221 0.335221 0.335221
0.374214 0.374214 0.374214
0.470693 0.470693 0.470693
0.678872 0.678872 0.678872
0.225235 0.225235 0.225235
0.229252 0.229252 0.229252
0.243818 0.243818 0.243818
0.263292 0.263292 0.263292
0.283088 0.283088 0.283088
0.305811 0.305811 0.305811
0.332488 0.332488 0.332488
0.386380 0.386380 0.386380
0.630847 0.630847 0.630847
0.230056 0.230056 0.230056
0.232635 0.232635 0.232635
0.243190 0.243190 0.243190
0.258441 0.258441 0.258441
0.276152 0.276152 0.276152
0.294067 0.294067 0.294067
0.315842 0.315842 0.315842
0.347466 0.347466 0.347466
0.513898 0.513898 0.513898
0.236340 0.236340 0.236340
0.238160 0.238160 0.238160
0.246196 0.246196 0.246196
0.259145 0.259145 0.259145
0.275049 0.275049 0.275049
0.292024 0.292024 0.292024
0.309441 0.309441 0.309441
0.331947 0.331947 0.331947
0.418225 0.418225 0.418225
0.242272 0.242272 0.242272
0.243507 0.243507 0.243507
0.250422 0.250422 0.250422
0.260894 0.260894 0.260894
0.274909 0.274909 0.274909
0.290295 0.290295 0.290295
0.306079 0.306079 0.306079
0.323418 0.323418 0.323418
0.369213 0.369213 0.369213
0.275784 0.275784 0.275784
0.275784 0.275784 0.275784
0.275783 0.275783 0.275783
0.231566 0.231566 0.231566
0.268961 0.268961 0.268961
0.281991 0.281991 0.281991
0.294929 0.294929 0.294929
0.306498 0.306498 0.306498
0.327439 0.327439 0.327439
0.488016 0.488016 0.488016
0.616161 0.616161 0.616161
0.734231 0.734231 0.734231
0.735025 0.735025 0.735025
0.735785 0.735785 0.735785
0.746402 0.746402 0.746402
0.767656 0.767656 0.767656
0.810415 0.810415 0.810415
0.847614 0.847614 0.847614
0.499124 0.499124 0.499124
0.594668 0.594668 0.594668
0.712421 0.712421 0.712421
0.719906 0.719906 0.719906
0.724238 0.724238 0.724238
0.737413 0.737413 0.737413
0.760717 0.760717 0.760717
0.807264 0.807264 0.807264
0.843941 0.843941 0.843941
0.485249 0.485249 0.485249
0.524062 0.524062 0.524062
0.621822 0.621822 0.621822
0.657110 0.657110 0.657110
0.672263 0.672263 0.672263
0.696694 0.696694 0.696694
0.732832 0.732832 0.732832
0.782962 0.782962 0.782962
0.832217 0.832217 0.832217
0.449576 0.449576 0.449576
0.465017 0.465017 0.465017
0.515930 0.515930 0.515930
0.564459 0.564459 0.564459
0.595083 0.595083 0.595083
0.631662 0.631662 0.631662
0.675691 0.675691 0.675691
0.743920 0.743920 0.743920
0.832322 0.832322 0.832322
0.427848 0.427848 0.427848
0.435365 0.435365 0.435365
0.461457 0.461457 0.461457
0.496648 0.496648 0.496648
0.545947 0.545947 0.545947
0.564883 0.564883 0.564883
0.608158 0.608158 0.608158
0.681003 0.681003 0.681003
0.808165 0.808165 0.808165
0.422765 0.422765 0.422765
0.426975 0.426975 0.426975
0.443646 0.443646 0.443646
0.467967 0.467967 0.467967
0.495667 0.495667 0.495667
0.522336 0.522336 0.522336
0.556265 0.556265 0.556265
0.610872 0.610872 0.610872
0.764385 0.764385 0.764385
0.420260 0.420260 0.420260
0.423043 0.423043 0.423043
0.434623 0.434623 0.434623
0.453251 0.453251 0.453251
0.475935 0.475935 0.475935
0.499772 0.499772 0.499772
0.524227 0.524227 0.524227
0.558910 0.558910 0.558910
0.701377 0.701377 0.701377
0.415682 0.415682 0.415682
0.417442 0.417442 0.417442
0.426504 0.426504 0.426504
0.440655 0.440655 0.440655
0.459079 0.459079 0.459079
0.479435 0.479435 0.479435
0.500391 0.500391 0.500391
0.523525 0.523525 0.523525
0.617393 0.617393 0.617393
0.483609 0.483609 0.483609
0.483608 0.483608 0.483608
0.483605 0.483605 0.483605
0.421816 0.421816 0.421816
0.437854 0.437854 0.437854
0.453900 0.453900 0.453900
0.468954 0.468954 0.468954
0.482341 0.482341 0.482341
0.545267 0.545267 0.545267
0.754501 0.754501 0.754501
0.812338 0.812338 0.812338
0.864321 0.864321 0.864321
0.867169 0.867169 0.867169
0.868796 0.868796 0.868796
0.872696 0.872696 0.872696
0.879412 0.879412 0.879412
0.892533 0.892533 0.892533
0.901756 0.901756 0.901756
0.759995 0.759995 0.759995
0.809288 0.809288 0.809288
0.858596 0.858596 0.858596
0.862974 0.862974 0.862974
0.865369 0.865369 0.865369
0.870032 0.870032 0.870032
0.877671 0.877671 0.877671
0.891305 0.891305 0.891305
0.901756 0.901756 0.901756
0.761935 0.761935 0.761935
0.788256 0.788256 0.788256
0.834515 0.834515 0.834515
0.846423 0.846423 0.846423
0.851931 0.851931 0.851931
0.858671 0.858671 0.858671
0.870145 0.870145 0.870145
0.885114 0.885114 0.885114
0.901755 0.901755 0.901755
0.734300 0.734300 0.734300
0.747635 0.747635 0.747635
0.793597 0.793597 0.793597
0.818973 0.818973 0.818973
0.830065 0.830065 0.830065
0.839819 0.839819 0.839819
0.853883 0.853883 0.853883
0.875126 0.875126 0.875126
0.899671 0.899671 0.899671
0.701582 0.701582 0.701582
0.711353 0.711353 0.711353
0.742406 0.742406 0.742406
0.774617 0.774617 0.774617
0.800443 0.800443 0.800443
0.814791 0.814791 0.814791
0.831513 0.831513 0.831513
0.857231 0.857231 0.857231
0.893661 0.893661 0.893661
0.676452 0.676452 0.676452
0.682229 0.682229 0.682229
0.704141 0.704141 0.704141
0.732980 0.732980 0.732980
0.757916 0.757916 0.757916
0.784665 0.784665 0.784665
0.805626 0.805626 0.805626
0.831894 0.831894 0.831894
0.882593 0.882593 0.882593
0.660363 0.660363 0.660363
0.663894 0.663894 0.663894
0.678440 0.678440 0.678440
0.701512 0.701512 0.701512
0.728094 0.728094 0.728094
0.748427 0.748427 0.748427
0.768818 0.768818 0.768818
0.800570 0.800570 0.800570
0.864868 0.864868 0.864868
0.642949 0.642949 0.642949
0.645234 0.645234 0.645234
0.656156 0.656156 0.656156
0.672921 0.672921 0.672921
0.694409 0.694409 0.694409
0.717569 0.717569 0.717569
0.736477 0.736477 0.736477
0.755786 0.755786 0.755786
0.831602 0.831602 0.831602
0.580546 0.580546 0.580546
0.585863 0.585863 0.585863
0.606270 0.606270 0.606270
0.631535 0.631535 0.631535
0.651774 0.651774 0.651774
0.669638 0.669638 0.669638
0.685667 0.685667 0.685667
0.698277 0.698277 0.698277
0.791589 0.791589 0.791589
0.899614 0.899614 0.899614
0.917729 0.917729 0.917729
0.931101 0.931101 0.931101
0.932789 0.932789 0.932789
0.933699 0.933699 0.933699
0.935110 0.935110 0.935110
0.938042 0.938042 0.938042
0.943272 0.943272 0.943272
0.947730 0.947730 0.947730
0.900938 0.900938 0.900938
0.916705 0.916705 0.916705
0.929866 0.929866 0.929866
0.931887 0.931887 0.931887
0.932952 0.932952 0.932952
0.934460 0.934460 0.934460
0.937467 0.937467 0.937467
0.942831 0.942831 0.942831
0.947342 0.947342 0.947342
0.902820 0.902820 0.902820
0.911752 0.911752 0.911752
0.924319 0.924319 0.924319
0.928012 0.928012 0.928012
0.929820 0.929820 0.929820
0.931777 0.931777 0.931777
0.935120 0.935120 0.935120
0.940623 0.940623 0.940623
0.945577 0.945577 0.945577
0.893384 0.893384 0.893384
0.899253 0.899253 0.899253
0.914326 0.914326 0.914326
0.921197 0.921197 0.921197
0.924466 0.924466 0.924466
0.927335 0.927335 0.927335
0.931223 0.931223 0.931223
0.937441 0.937441 0.937441
0.947798 0.947798 0.947798
0.878833 0.878833 0.878833
0.883137 0.883137 0.883137
0.896771 0.896771 0.896771
0.909225 0.909225 0.909225
0.916746 0.916746 0.916746
0.920887 0.920887 0.920887
0.925642 0.925642 0.925642
0.932921 0.932921 0.932921
0.944607 0.944607 0.944607
0.862017 0.862017 0.862017
0.865720 0.865720 0.865720
0.877693 0.877693 0.877693
0.891267 0.891267 0.891267
0.902627 0.902627 0.902627
0.910988 0.910988 0.910988
0.918045 0.918045 0.918045
0.926508 0.926508 0.926508
0.941117 0.941117 0.941117
0.845087 0.845087 0.845087
0.847498 0.847498 0.847498
0.856912 0.856912 0.856912
0.871543 0.871543 0.871543
0.884092 0.884092 0.884092
0.894696 0.894696 0.894696
0.903272 0.903272 0.903272
0.916593 0.916593 0.916593
0.936419 0.936419 0.936419
0.828041 0.828041 0.828041
0.829536 0.829536 0.829536
0.836350 0.836350 0.836350
0.846973 0.846973 0.846973
0.860314 0.860314 0.860314
0.873455 0.873455 0.873455
0.883461 0.883461 0.883461
0.894092 0.894092 0.894092
0.927823 0.927823 0.927823
0.733141 0.733141 0.733141
0.733175 0.733175 0.733175
0.734074 0.734074 0.734074
0.814727 0.814727 0.814727
0.825985 0.825985 0.825985
0.836735 0.836735 0.836735
0.845806 0.845806 0.845806
0.852109 0.852109 0.852109
0.915326 0.915326 0.915326
0.964786 0.964786 0.964786
0.966140 0.966140 0.966140
0.967877 0.967877 0.967877
0.968214 0.968214 0.968214
0.968520 0.968520 0.968520
0.968993 0.968993 0.968993
0.969798 0.969798 0.969798
0.971713 0.971713 0.971713
0.971318 0.971318 0.971318
0.964658 0.964658 0.964658
0.965929 0.965929 0.965929
0.967715 0.967715 0.967715
0.968088 0.968088 0.968088
0.968413 0.968413 0.968413
0.968900 0.968900 0.968900
0.969724 0.969724 0.969724
0.971627 0.971627 0.971627
0.971318 0.971318 0.971318
0.964205 0.964205 0.964205
0.965081 0.965081 0.965081
0.966776 0.966776 0.966776
0.967389 0.967389 0.967389
0.967835 0.967835 0.967835
0.968412 0.968412 0.968412
0.969323 0.969323 0.969323
0.971143 0.971143 0.971143
0.971318 0.971318 0.971318
0.962633 0.962633 0.962633
0.963440 0.963440 0.963440
0.965308 0.965308 0.965308
0.966323 0.966323 0.966323
0.966990 0.966990 0.966990
0.967712 0.967712 0.967712
0.968767 0.968767 0.968767
0.970576 0.970576 0.970576
0.972549 0.972549 0.972549
0.959843 0.959843 0.959843
0.960732 0.960732 0.960732
0.963058 0.963058 0.963058
0.964744 0.964744 0.964744
0.965866 0.965866 0.965866
0.966809 0.966809 0.966809
0.967996 0.967996 0.967996
0.969900 0.969900 0.969900
0.972138 0.972138 0.972138
0.955055 0.955055 0.955055
0.956652 0.956652 0.956652
0.959641 0.959641 0.959641
0.962299 0.962299 0.962299
0.964167 0.964167 0.964167
0.965559 0.965559 0.965559
0.966955 0.966955 0.966955
0.969035 0.969035 0.969035
0.971795 0.971795 0.971795
0.943919 0.943919 0.943919
0.945591 0.945591 0.945591
0.951649 0.951649 0.951649
0.957806 0.957806 0.957806
0.961109 0.961109 0.961109
0.963429 0.963429 0.963429
0.965249 0.965249 0.965249
0.967719 0.967719 0.967719
0.971335 0.971335 0.971335
0.930510 0.930510 0.930510
0.931561 0.931561 0.931561
0.936166 0.936166 0.936166
0.943338 0.943338 0.943338
0.951828 0.951828 0.951828
0.957988 0.957988 0.957988
0.961152 0.961152 0.961152
0.962840 0.962840 0.962840
0.970334 0.970334 0.970334
0.883490 0.883490 0.883490
0.885315 0.885315 0.885315
0.897100 0.897100 0.897100
0.917343 0.917343 0.917343
0.924130 0.924130 0.924130
0.931074 0.931074 0.931074
0.936883 0.936883 0.936883
0.940211 0.940211 0.940211
0.966927 0.966927 0.966927
0.982506 0.982506 0.982506
0.982511 0.982511 0.982511
0.982531 0.982531 0.982531
0.982576 0.982576 0.982576
0.982640 0.982640 0.982640
0.982716 0.982716 0.982716
0.982859 0.982859 0.982859
0.983061 0.983061 0.983061
0.981545 0.981545 0.981545
0.982511 0.982511 0.982511
0.982517 0.982517 0.982517
0.982536 0.982536 0.982536
0.982582 0.982582 0.982582
0.982646 0.982646 0.982646
0.982724 0.982724 0.982724
0.982866 0.982866 0.982866
0.983067 0.983067 0.983067
0.982294 0.982294 0.982294
0.982507 0.982507 0.982507
0.982513 0.982513 0.982513
0.982536 0.982536 0.982536
0.982588 0.982588 0.982588
0.982657 0.982657 0.982657
0.982744 0.982744 0.982744
0.982884 0.982884 0.982884
0.983087 0.983087 0.983087
0.982294 0.982294 0.982294
0.982484 0.982484 0.982484
0.982494 0.982494 0.982494
0.982530 0.982530 0.982530
0.982593 0.982593 0.982593
0.982670 0.982670 0.982670
0.982768 0.982768 0.982768
0.982919 0.982919 0.982919
0.983125 0.983125 0.983125
0.983184 0.983184 0.983184
0.982489 0.982489 0.982489
0.982506 0.982506 0.982506
0.982560 0.982560 0.982560
0.982629 0.982629 0.982629
0.982722 0.982722 0.982722
0.982833 0.982833 0.982833
0.982986 0.982986 0.982986
0.983210 0.983210 0.983210
0.983551 0.983551 0.983551
0.982546 0.982546 0.982546
0.982570 0.982570 0.982570
0.982644 0.982644 0.982644
0.982734 0.982734 0.982734
0.982832 0.982832 0.982832
0.982951 0.982951 0.982951
0.983103 0.983103 0.983103
0.983323 0.983323 0.983323
0.983676 0.983676 0.983676
0.982667 0.982667 0.982667
0.982697 0.982697 0.982697
0.982788 0.982788 0.982788
0.982899 0.982899 0.982899
0.983015 0.983015 0.983015
0.983139 0.983139 0.983139
0.983307 0.983307 0.983307
0.983515 0.983515 0.983515
0.983854 0.983854 0.983854
0.982510 0.982510 0.982510
0.982648 0.982648 0.982648
0.982921 0.982921 0.982921
0.983116 0.983116 0.983116
0.983286 0.983286 0.983286
0.983432 0.983432 0.983432
0.983587 0.983587 0.983587
0.983786 0.983786 0.983786
0.984073 0.984073 0.984073
0.952333 0.952333 0.952333
0.966526 0.966526 0.966526
0.966526 0.966526 0.966526
0.966552 0.966552 0.966552
0.981603 0.981603 0.981603
0.983659 0.983659 0.983659
0.983976 0.983976 0.983976
0.984172 0.984172 0.984172
0.984304 0.984304 0.984304
