LUTs/trix_classic/TriX_Red25_Soft.cube
TITLE "Tri-X Red25 Soft"
# Adobe RGB in/out. REPLACES AgX. Tri-X Red25 Soft.
LUT_3D_SIZE 9
DOMAIN_MIN 0.0 0.0 0.0
DOMAIN_MAX 1.0 1.0 1.0
0.093873 0.093873 0.093873
0.094198 0.094198 0.094198
0.173769 0.173769 0.173769
0.338754 0.338754 0.338754
0.514852 0.514852 0.514852
0.696903 0.696903 0.696903
0.836721 0.836721 0.836721
0.912373 0.912373 0.912373
0.912373 0.912373 0.912373
0.093873 0.093873 0.093873
0.094199 0.094199 0.094199
0.230699 0.230699 0.230699
0.369399 0.369399 0.369399
0.516202 0.516202 0.516202
0.688834 0.688834 0.688834
0.831726 0.831726 0.831726
0.912373 0.912373 0.912373
0.912373 0.912373 0.912373
0.093873 0.093873 0.093873
0.093960 0.093960 0.093960
0.159372 0.159372 0.159372
0.364469 0.364469 0.364469
0.520063 0.520063 0.520063
0.662855 0.662855 0.662855
0.807487 0.807487 0.807487
0.912360 0.912360 0.912360
0.912373 0.912373 0.912373
0.093862 0.093862 0.093862
0.093987 0.093987 0.093987
0.119403 0.119403 0.119403
0.293106 0.293106 0.293106
0.480370 0.480370 0.480370
0.638469 0.638469 0.638469
0.775775 0.775775 0.775775
0.884674 0.884674 0.884674
0.912373 0.912373 0.912373
0.093958 0.093958 0.093958
0.094076 0.094076 0.094076
0.107310 0.107310 0.107310
0.240333 0.240333 0.240333
0.418295 0.418295 0.418295
0.595610 0.595610 0.595610
0.745224 0.745224 0.745224
0.859819 0.859819 0.859819
0.910299 0.910299 0.910299
0.094048 0.094048 0.094048
0.094154 0.094154 0.094154
0.104169 0.104169 0.104169
0.202057 0.202057 0.202057
0.364317 0.364317 0.364317
0.541959 0.541959 0.541959
0.714419 0.714419 0.714419
0.836886 0.836886 0.836886
0.906595 0.906595 0.906595
0.094063 0.094063 0.094063
0.094144 0.094144 0.094144
0.099504 0.099504 0.099504
0.169685 0.169685 0.169685
0.317701 0.317701 0.317701
0.492142 0.492142 0.492142
0.676382 0.676382 0.676382
0.822700 0.822700 0.822700
0.902987 0.902987 0.902987
0.093855 0.093855 0.093855
0.093888 0.093888 0.093888
0.094227 0.094227 0.094227
0.123841 0.123841 0.123841
0.261242 0.261242 0.261242
0.438508 0.438508 0.438508
0.634483 0.634483 0.634483
0.814338 0.814338 0.814338
0.902492 0.902492 0.902492
0.093873 0.093873 0.093873
0.093873 0.093873 0.093873
0.093873 0.093873 0.093873
0.093873 0.093873 0.093873
0.102405 0.102405 0.102405
0.334559 0.334559 0.334559
0.573193 0.573193 0.573193
0.803040 0.803040 0.803040
0.909639 0.909639 0.909639
0.093873 0.093873 0.093873
0.093999 0.093999 0.093999
0.127180 0.127180 0.127180
0.308879 0.308879 0.308879
0.509318 0.509318 0.509318
0.697279 0.697279 0.697279
0.836302 0.836302 0.836302
0.912373 0.912373 0.912373
0.912373 0.912373 0.912373
0.093873 0.093873 0.093873
0.099556 0.099556 0.099556
0.186560 0.186560 0.186560
0.334737 0.334737 0.334737
0.508774 0.508774 0.508774
0.689612 0.689612 0.689612
0.831553 0.831553 0.831553
0.912373 0.912373 0.912373
0.912373 0.912373 0.912373
0.093917 0.093917 0.093917
0.094320 0.094320 0.094320
0.194313 0.194313 0.194313
0.368912 0.368912 0.368912
0.511009 0.511009 0.511009
0.663954 0.663954 0.663954
0.808942 0.808942 0.808942
0.912352 0.912352 0.912352
0.912373 0.912373 0.912373
0.094018 0.094018 0.094018
0.094274 0.094274 0.094274
0.150164 0.150164 0.150164
0.320660 0.320660 0.320660
0.490274 0.490274 0.490274
0.639242 0.639242 0.639242
0.778800 0.778800 0.778800
0.885010 0.885010 0.885010
0.912373 0.912373 0.912373
0.094102 0.094102 0.094102
0.094462 0.094462 0.094462
0.125340 0.125340 0.125340
0.267756 0.267756 0.267756
0.436370 0.436370 0.436370
0.602897 0.602897 0.602897
0.747963 0.747963 0.747963
0.861606 0.861606 0.861606
0.910260 0.910260 0.910260
0.094172 0.094172 0.094172
0.094637 0.094637 0.094637
0.114317 0.114317 0.114317
0.222811 0.222811 0.222811
0.380807 0.380807 0.380807
0.553412 0.553412 0.553412
0.718757 0.718757 0.718757
0.839161 0.839161 0.839161
0.906678 0.906678 0.906678
0.094151 0.094151 0.094151
0.094255 0.094255 0.094255
0.103768 0.103768 0.103768
0.184026 0.184026 0.184026
0.331408 0.331408 0.331408
0.502824 0.502824 0.502824
0.683034 0.683034 0.683034
0.824599 0.824599 0.824599
0.903320 0.903320 0.903320
0.093888 0.093888 0.093888
0.093923 0.093923 0.093923
0.094776 0.094776 0.094776
0.132605 0.132605 0.132605
0.272829 0.272829 0.272829
0.447519 0.447519 0.447519
0.641268 0.641268 0.641268
0.816547 0.816547 0.816547
0.902957 0.902957 0.902957
0.093873 0.093873 0.093873
0.093873 0.093873 0.093873
0.093873 0.093873 0.093873
0.093873 0.093873 0.093873
0.107630 0.107630 0.107630
0.342572 0.342572 0.342572
0.578517 0.578517 0.578517
0.805411 0.805411 0.805411
0.909897 0.909897 0.909897
0.093873 0.093873 0.093873
0.094377 0.094377 0.094377
0.140395 0.140395 0.140395
0.304546 0.304546 0.304546
0.502568 0.502568 0.502568
0.695176 0.695176 0.695176
0.834355 0.834355 0.834355
0.912365 0.912365 0.912365
0.912373 0.912373 0.912373
0.093859 0.093859 0.093859
0.096359 0.096359 0.096359
0.178108 0.178108 0.178108
0.322696 0.322696 0.322696
0.501709 0.501709 0.501709
0.688675 0.688675 0.688675
0.830266 0.830266 0.830266
0.912360 0.912360 0.912360
0.912373 0.912373 0.912373
0.094091 0.094091 0.094091
0.097911 0.097911 0.097911
0.233250 0.233250 0.233250
0.359066 0.359066 0.359066
0.502008 0.502008 0.502008
0.666150 0.666150 0.666150
0.811846 0.811846 0.811846
0.910152 0.910152 0.910152
0.912373 0.912373 0.912373
0.095807 0.095807 0.095807
0.101975 0.101975 0.101975
0.193048 0.193048 0.193048
0.349656 0.349656 0.349656
0.499871 0.499871 0.499871
0.642402 0.642402 0.642402
0.785290 0.785290 0.785290
0.886115 0.886115 0.886115
0.912373 0.912373 0.912373
0.098604 0.098604 0.098604
0.106438 0.106438 0.106438
0.174769 0.174769 0.174769
0.313914 0.313914 0.313914
0.468896 0.468896 0.468896
0.619732 0.619732 0.619732
0.755814 0.755814 0.755814
0.867169 0.867169 0.867169
0.910108 0.910108 0.910108
0.101264 0.101264 0.101264
0.107962 0.107962 0.107962
0.161684 0.161684 0.161684
0.279325 0.279325 0.279325
0.426697 0.426697 0.426697
0.584177 0.584177 0.584177
0.731506 0.731506 0.731506
0.846224 0.846224 0.846224
0.906959 0.906959 0.906959
0.099247 0.099247 0.099247
0.102939 0.102939 0.102939
0.139232 0.139232 0.139232
0.239226 0.239226 0.239226
0.377950 0.377950 0.377950
0.538713 0.538713 0.538713
0.704274 0.704274 0.704274
0.830733 0.830733 0.830733
0.904369 0.904369 0.904369
0.094228 0.094228 0.094228
0.094788 0.094788 0.094788
0.106968 0.106968 0.106968
0.181596 0.181596 0.181596
0.318990 0.318990 0.318990
0.485290 0.485290 0.485290
0.667754 0.667754 0.667754
0.824236 0.824236 0.824236
0.904347 0.904347 0.904347
0.093873 0.093873 0.093873
0.093873 0.093873 0.093873
0.093873 0.093873 0.093873
0.093873 0.093873 0.093873
0.151018 0.151018 0.151018
0.378139 0.378139 0.378139
0.601323 0.601323 0.601323
0.814805 0.814805 0.814805
0.910519 0.910519 0.910519
0.093873 0.093873 0.093873
0.094142 0.094142 0.094142
0.168512 0.168512 0.168512
0.308420 0.308420 0.308420
0.495883 0.495883 0.495883
0.687024 0.687024 0.687024
0.828956 0.828956 0.828956
0.905777 0.905777 0.905777
0.912373 0.912373 0.912373
0.093872 0.093872 0.093872
0.094969 0.094969 0.094969
0.192313 0.192313 0.192313
0.322718 0.322718 0.322718
0.495999 0.495999 0.495999
0.681836 0.681836 0.681836
0.825300 0.825300 0.825300
0.904708 0.904708 0.904708
0.912373 0.912373 0.912373
0.094251 0.094251 0.094251
0.101254 0.101254 0.101254
0.219658 0.219658 0.219658
0.353117 0.353117 0.353117
0.497774 0.497774 0.497774
0.663967 0.663967 0.663967
0.809768 0.809768 0.809768
0.895667 0.895667 0.895667
0.912373 0.912373 0.912373
0.100150 0.100150 0.100150
0.115265 0.115265 0.115265
0.214768 0.214768 0.214768
0.372918 0.372918 0.372918
0.499366 0.499366 0.499366
0.644027 0.644027 0.644027
0.787884 0.787884 0.787884
0.885646 0.885646 0.885646
0.912373 0.912373 0.912373
0.113822 0.113822 0.113822
0.129628 0.129628 0.129628
0.210373 0.210373 0.210373
0.341360 0.341360 0.341360
0.485193 0.485193 0.485193
0.626168 0.626168 0.626168
0.762413 0.762413 0.762413
0.869770 0.869770 0.869770
0.909809 0.909809 0.909809
0.123279 0.123279 0.123279
0.136625 0.136625 0.136625
0.202119 0.202119 0.202119
0.315021 0.315021 0.315021
0.455636 0.455636 0.455636
0.602966 0.602966 0.602966
0.740188 0.740188 0.740188
0.851838 0.851838 0.851838
0.907074 0.907074 0.907074
0.120555 0.120555 0.120555
0.130090 0.130090 0.130090
0.181632 0.181632 0.181632
0.283890 0.283890 0.283890
0.417400 0.417400 0.417400
0.568560 0.568560 0.568560
0.720429 0.720429 0.720429
0.837063 0.837063 0.837063
0.905178 0.905178 0.905178
0.099899 0.099899 0.099899
0.103320 0.103320 0.103320
0.138673 0.138673 0.138673
0.229020 0.229020 0.229020
0.360384 0.360384 0.360384
0.519174 0.519174 0.519174
0.690603 0.690603 0.690603
0.830611 0.830611 0.830611
0.905626 0.905626 0.905626
0.093873 0.093873 0.093873
0.093873 0.093873 0.093873
0.093873 0.093873 0.093873
0.093873 0.093873 0.093873
0.225705 0.225705 0.225705
0.423229 0.423229 0.423229
0.631396 0.631396 0.631396
0.825780 0.825780 0.825780
0.911170 0.911170 0.911170
0.093873 0.093873 0.093873
0.093992 0.093992 0.093992
0.183958 0.183958 0.183958
0.320022 0.320022 0.320022
0.488697 0.488697 0.488697
0.676905 0.676905 0.676905
0.821920 0.821920 0.821920
0.900676 0.900676 0.900676
0.912373 0.912373 0.912373
0.093893 0.093893 0.093893
0.094168 0.094168 0.094168
0.196030 0.196030 0.196030
0.330519 0.330519 0.330519
0.489628 0.489628 0.489628
0.672734 0.672734 0.672734
0.818680 0.818680 0.818680
0.899566 0.899566 0.899566
0.912373 0.912373 0.912373
0.094896 0.094896 0.094896
0.101390 0.101390 0.101390
0.216778 0.216778 0.216778
0.354989 0.354989 0.354989
0.493005 0.493005 0.493005
0.658891 0.658891 0.658891
0.805555 0.805555 0.805555
0.892893 0.892893 0.892893
0.912373 0.912373 0.912373
0.106734 0.106734 0.106734
0.125284 0.125284 0.125284
0.225585 0.225585 0.225585
0.365369 0.365369 0.365369
0.496761 0.496761 0.496761
0.642975 0.642975 0.642975
0.786918 0.786918 0.786918
0.884477 0.884477 0.884477
0.912373 0.912373 0.912373
0.129008 0.129008 0.129008
0.148709 0.148709 0.148709
0.229718 0.229718 0.229718
0.354440 0.354440 0.354440
0.499564 0.499564 0.499564
0.628640 0.628640 0.628640
0.765449 0.765449 0.765449
0.870200 0.870200 0.870200
0.909390 0.909390 0.909390
0.146473 0.146473 0.146473
0.162069 0.162069 0.162069
0.230687 0.230687 0.230687
0.338717 0.338717 0.338717
0.473056 0.473056 0.473056
0.612816 0.612816 0.612816
0.745703 0.745703 0.745703
0.855223 0.855223 0.855223
0.906939 0.906939 0.906939
0.145785 0.145785 0.145785
0.158292 0.158292 0.158292
0.215738 0.215738 0.215738
0.312982 0.312982 0.312982
0.442700 0.442700 0.442700
0.587782 0.587782 0.587782
0.729731 0.729731 0.729731
0.842112 0.842112 0.842112
0.905488 0.905488 0.905488
0.114406 0.114406 0.114406
0.122195 0.122195 0.122195
0.169267 0.169267 0.169267
0.263881 0.263881 0.263881
0.391442 0.391442 0.391442
0.544226 0.544226 0.544226
0.706965 0.706965 0.706965
0.835281 0.835281 0.835281
0.906387 0.906387 0.906387
0.093873 0.093873 0.093873
0.093873 0.093873 0.093873
0.093873 0.093873 0.093873
0.101942 0.101942 0.101942
0.263187 0.263187 0.263187
0.450158 0.450158 0.450158
0.651620 0.651620 0.651620
0.832723 0.832723 0.832723
0.911655 0.911655 0.911655
0.093861 0.093861 0.093861
0.093978 0.093978 0.093978
0.188562 0.188562 0.188562
0.326033 0.326033 0.326033
0.486617 0.486617 0.486617
0.667680 0.667680 0.667680
0.815025 0.815025 0.815025
0.897025 0.897025 0.897025
0.912373 0.912373 0.912373
0.093924 0.093924 0.093924
0.094086 0.094086 0.094086
0.194893 0.194893 0.194893
0.333217 0.333217 0.333217
0.487674 0.487674 0.487674
0.664478 0.664478 0.664478
0.812261 0.812261 0.812261
0.895974 0.895974 0.895974
0.912373 0.912373 0.912373
0.095645 0.095645 0.095645
0.100503 0.100503 0.100503
0.214659 0.214659 0.214659
0.354390 0.354390 0.354390
0.492291 0.492291 0.492291
0.653785 0.653785 0.653785
0.801359 0.801359 0.801359
0.890529 0.890529 0.890529
0.912373 0.912373 0.912373
0.112171 0.112171 0.112171
0.128920 0.128920 0.128920
0.230497 0.230497 0.230497
0.366085 0.366085 0.366085
0.497359 0.497359 0.497359
0.640922 0.640922 0.640922
0.785353 0.785353 0.785353
0.883269 0.883269 0.883269
0.911887 0.911887 0.911887
0.142486 0.142486 0.142486
0.160901 0.160901 0.160901
0.243532 0.243532 0.243532
0.363530 0.363530 0.363530
0.496553 0.496553 0.496553
0.629149 0.629149 0.629149
0.766566 0.766566 0.766566
0.870178 0.870178 0.870178
0.908980 0.908980 0.908980
0.162778 0.162778 0.162778
0.179164 0.179164 0.179164
0.247651 0.247651 0.247651
0.352286 0.352286 0.352286
0.482529 0.482529 0.482529
0.620952 0.620952 0.620952
0.748957 0.748957 0.748957
0.857115 0.857115 0.857115
0.906821 0.906821 0.906821
0.164515 0.164515 0.164515
0.177934 0.177934 0.177934
0.236162 0.236162 0.236162
0.332202 0.332202 0.332202
0.458341 0.458341 0.458341
0.599012 0.599012 0.599012
0.734905 0.734905 0.734905
0.845512 0.845512 0.845512
0.905661 0.905661 0.905661
0.127084 0.127084 0.127084
0.137165 0.137165 0.137165
0.189305 0.189305 0.189305
0.283879 0.283879 0.283879
0.411206 0.411206 0.411206
0.559991 0.559991 0.559991
0.716545 0.716545 0.716545
0.838198 0.838198 0.838198
0.906758 0.906758 0.906758
0.093873 0.093873 0.093873
0.093873 0.093873 0.093873
0.093873 0.093873 0.093873
0.106164 0.106164 0.106164
0.277508 0.277508 0.277508
0.463145 0.463145 0.463145
0.661778 0.661778 0.661778
0.836445 0.836445 0.836445
0.911837 0.911837 0.911837
0.093923 0.093923 0.093923
0.094024 0.094024 0.094024
0.172832 0.172832 0.172832
0.328984 0.328984 0.328984
0.486357 0.486357 0.486357
0.663909 0.663909 0.663909
0.811616 0.811616 0.811616
0.894815 0.894815 0.894815
0.912373 0.912373 0.912373
0.093971 0.093971 0.093971
0.094106 0.094106 0.094106
0.179177 0.179177 0.179177
0.334413 0.334413 0.334413
0.487410 0.487410 0.487410
0.661506 0.661506 0.661506
0.809178 0.809178 0.809178
0.893866 0.893866 0.893866
0.912373 0.912373 0.912373
0.096030 0.096030 0.096030
0.099825 0.099825 0.099825
0.202418 0.202418 0.202418
0.352413 0.352413 0.352413
0.492208 0.492208 0.492208
0.653060 0.653060 0.653060
0.799764 0.799764 0.799764
0.889314 0.889314 0.889314
0.912373 0.912373 0.912373
0.116163 0.116163 0.116163
0.131342 0.131342 0.131342
0.228400 0.228400 0.228400
0.366343 0.366343 0.366343
0.498265 0.498265 0.498265
0.642493 0.642493 0.642493
0.785858 0.785858 0.785858
0.882984 0.882984 0.882984
0.911028 0.911028 0.911028
0.150923 0.150923 0.150923
0.168062 0.168062 0.168062
0.248475 0.248475 0.248475
0.368978 0.368978 0.368978
0.500217 0.500217 0.500217
0.632261 0.632261 0.632261
0.769007 0.769007 0.769007
0.871298 0.871298 0.871298
0.908806 0.908806 0.908806
0.174685 0.174685 0.174685
0.190436 0.190436 0.190436
0.257857 0.257857 0.257857
0.362571 0.362571 0.362571
0.491245 0.491245 0.491245
0.622729 0.622729 0.622729
0.752196 0.752196 0.752196
0.859303 0.859303 0.859303
0.906949 0.906949 0.906949
0.174782 0.174782 0.174782
0.188733 0.188733 0.188733
0.247597 0.247597 0.247597
0.342897 0.342897 0.342897
0.467713 0.467713 0.467713
0.605484 0.605484 0.605484
0.737280 0.737280 0.737280
0.848212 0.848212 0.848212
0.906020 0.906020 0.906020
0.130466 0.130466 0.130466
0.141278 0.141278 0.141278
0.196270 0.196270 0.196270
0.291831 0.291831 0.291831
0.419902 0.419902 0.419902
0.567868 0.567868 0.567868
0.720762 0.720762 0.720762
0.839425 0.839425 0.839425
0.907099 0.907099 0.907099
0.093873 0.093873 0.093873
0.093873 0.093873 0.093873
0.093873 0.093873 0.093873
0.095914 0.095914 0.095914
0.270634 0.270634 0.270634
0.461425 0.461425 0.461425
0.661878 0.661878 0.661878
0.836768 0.836768 0.836768
0.911997 0.911997 0.911997
0.094026 0.094026 0.094026
0.094148 0.094148 0.094148
0.181509 0.181509 0.181509
0.333059 0.333059 0.333059
0.493491 0.493491 0.493491
0.672768 0.672768 0.672768
0.816056 0.816056 0.816056
0.896424 0.896424 0.896424
0.912373 0.912373 0.912373
0.094089 0.094089 0.094089
0.094241 0.094241 0.094241
0.188731 0.188731 0.188731
0.337610 0.337610 0.337610
0.494327 0.494327 0.494327
0.670813 0.670813 0.670813
0.814178 0.814178 0.814178
0.895600 0.895600 0.895600
0.912373 0.912373 0.912373
0.098042 0.098042 0.098042
0.103930 0.103930 0.103930
0.220206 0.220206 0.220206
0.356471 0.356471 0.356471
0.498867 0.498867 0.498867
0.663100 0.663100 0.663100
0.806073 0.806073 0.806073
0.891726 0.891726 0.891726
0.912373 0.912373 0.912373
0.123930 0.123930 0.123930
0.139233 0.139233 0.139233
0.245400 0.245400 0.245400
0.373106 0.373106 0.373106
0.504311 0.504311 0.504311
0.653155 0.653155 0.653155
0.794295 0.794295 0.794295
0.886383 0.886383 0.886383
0.911112 0.911112 0.911112
0.160081 0.160081 0.160081
0.176508 0.176508 0.176508
0.264333 0.264333 0.264333
0.380309 0.380309 0.380309
0.507944 0.507944 0.507944
0.642469 0.642469 0.642469
0.779786 0.779786 0.779786
0.877970 0.877970 0.877970
0.909408 0.909408 0.909408
0.183056 0.183056 0.183056
0.198426 0.198426 0.198426
0.271106 0.271106 0.271106
0.374410 0.374410 0.374410
0.501879 0.501879 0.501879
0.631587 0.631587 0.631587
0.761842 0.761842 0.761842
0.866769 0.866769 0.866769
0.907957 0.907957 0.907957
0.179722 0.179722 0.179722
0.193322 0.193322 0.193322
0.256381 0.256381 0.256381
0.351477 0.351477 0.351477
0.477685 0.477685 0.477685
0.614333 0.614333 0.614333
0.743559 0.743559 0.743559
0.854584 0.854584 0.854584
0.907156 0.907156 0.907156
0.120204 0.120204 0.120204
0.129548 0.129548 0.129548
0.188369 0.188369 0.188369
0.289486 0.289486 0.289486
0.421324 0.421324 0.421324
0.571184 0.571184 0.571184
0.722687 0.722687 0.722687
0.837347 0.837347 0.837347
0.907854 0.907854 0.907854
0.093873 0.093873 0.093873
0.093873 0.093873 0.093873
0.093873 0.093873 0.093873
0.093873 0.093873 0.093873
0.225433 0.225433 0.225433
0.439585 0.439585 0.439585
0.648870 0.648870 0.648870
0.832607 0.832607 0.832607
0.912166 0.912166 0.912166
0.106965 0.106965 0.106965
0.114699 0.114699 0.114699
0.175330 0.175330 0.175330
0.345300 0.345300 0.345300
0.551565 0.551565 0.551565
0.736484 0.736484 0.736484
0.855375 0.855375 0.855375
0.907537 0.907537 0.907537
0.912373 0.912373 0.912373
0.112236 0.112236 0.112236
0.120956 0.120956 0.120956
0.184330 0.184330 0.184330
0.349789 0.349789 0.349789
0.551564 0.551564 0.551564
0.735268 0.735268 0.735268
0.854345 0.854345 0.854345
0.907185 0.907185 0.907185
0.912373 0.912373 0.912373
0.143345 0.143345 0.143345
0.155914 0.155914 0.155914
0.226369 0.226369 0.226369
0.370566 0.370566 0.370566
0.552571 0.552571 0.552571
0.730042 0.730042 0.730042
0.849527 0.849527 0.849527
0.905233 0.905233 0.905233
0.912373 0.912373 0.912373
0.197192 0.197192 0.197192
0.213186 0.213186 0.213186
0.280099 0.280099 0.280099
0.401021 0.401021 0.401021
0.554303 0.554303 0.554303
0.720163 0.720163 0.720163
0.840727 0.840727 0.840727
0.901414 0.901414 0.901414
0.912373 0.912373 0.912373
0.232867 0.232867 0.232867
0.247969 0.247969 0.247969
0.312490 0.312490 0.312490
0.422175 0.422175 0.422175
0.553646 0.553646 0.553646
0.706595 0.706595 0.706595
0.829347 0.829347 0.829347
0.897561 0.897561 0.897561
0.912192 0.912192 0.912192
0.241116 0.241116 0.241116
0.256883 0.256883 0.256883
0.322227 0.322227 0.322227
0.429527 0.429527 0.429527
0.547375 0.547375 0.547375
0.687468 0.687468 0.687468
0.814494 0.814494 0.814494
0.893027 0.893027 0.893027
0.911808 0.911808 0.911808
0.214966 0.214966 0.214966
0.229604 0.229604 0.229604
0.294972 0.294972 0.294972
0.408790 0.408790 0.408790
0.529508 0.529508 0.529508
0.658772 0.658772 0.658772
0.792346 0.792346 0.792346
0.887153 0.887153 0.887153
0.911663 0.911663 0.911663
0.115122 0.115122 0.115122
0.124111 0.124111 0.124111
0.182329 0.182329 0.182329
0.310082 0.310082 0.310082
0.461812 0.461812 0.461812
0.609958 0.609958 0.609958
0.748285 0.748285 0.748285
0.869919 0.869919 0.869919
0.911864 0.911864 0.911864
0.093873 0.093873 0.093873
0.093873 0.093873 0.093873
0.093873 0.093873 0.093873
0.093873 0.093873 0.093873
0.097577 0.097577 0.097577
0.386412 0.386412 0.386412
0.627553 0.627553 0.627553
0.820382 0.820382 0.820382
0.912373 0.912373 0.912373
