LUTs/trix_classic/TriX_Blue47_Normal.cube
TITLE "Tri-X Blue47 Normal"
# Adobe RGB in/out. REPLACES AgX. Tri-X Blue47 Normal.
LUT_3D_SIZE 9
DOMAIN_MIN 0.0 0.0 0.0
DOMAIN_MAX 1.0 1.0 1.0
0.093230 0.093230 0.093230
0.093230 0.093230 0.093230
0.093230 0.093230 0.093230
0.093259 0.093259 0.093259
0.093556 0.093556 0.093556
0.095016 0.095016 0.095016
0.100956 0.100956 0.100956
0.333886 0.333886 0.333886
0.519700 0.519700 0.519700
0.093230 0.093230 0.093230
0.093230 0.093230 0.093230
0.093235 0.093235 0.093235
0.093268 0.093268 0.093268
0.093646 0.093646 0.093646
0.095210 0.095210 0.095210
0.100875 0.100875 0.100875
0.333912 0.333912 0.333912
0.519697 0.519697 0.519697
0.093233 0.093233 0.093233
0.093244 0.093244 0.093244
0.093265 0.093265 0.093265
0.093484 0.093484 0.093484
0.093969 0.093969 0.093969
0.096191 0.096191 0.096191
0.102033 0.102033 0.102033
0.337090 0.337090 0.337090
0.519696 0.519696 0.519696
0.093288 0.093288 0.093288
0.093383 0.093383 0.093383
0.093640 0.093640 0.093640
0.094020 0.094020 0.094020
0.095832 0.095832 0.095832
0.099577 0.099577 0.099577
0.106172 0.106172 0.106172
0.125318 0.125318 0.125318
0.366421 0.366421 0.366421
0.093897 0.093897 0.093897
0.094004 0.094004 0.094004
0.095120 0.095120 0.095120
0.096941 0.096941 0.096941
0.100076 0.100076 0.100076
0.105482 0.105482 0.105482
0.115750 0.115750 0.115750
0.134074 0.134074 0.134074
0.252034 0.252034 0.252034
0.096818 0.096818 0.096818
0.097345 0.097345 0.097345
0.099424 0.099424 0.099424
0.102660 0.102660 0.102660
0.107975 0.107975 0.107975
0.116862 0.116862 0.116862
0.130872 0.130872 0.130872
0.148872 0.148872 0.148872
0.195028 0.195028 0.195028
0.103317 0.103317 0.103317
0.103907 0.103907 0.103907
0.106725 0.106725 0.106725
0.113422 0.113422 0.113422
0.122454 0.122454 0.122454
0.134476 0.134476 0.134476
0.148608 0.148608 0.148608
0.165766 0.165766 0.165766
0.197832 0.197832 0.197832
0.115588 0.115588 0.115588
0.115835 0.115835 0.115835
0.120407 0.120407 0.120407
0.128967 0.128967 0.128967
0.139864 0.139864 0.139864
0.152760 0.152760 0.152760
0.166286 0.166286 0.166286
0.182515 0.182515 0.182515
0.206111 0.206111 0.206111
0.119967 0.119967 0.119967
0.119969 0.119969 0.119969
0.120017 0.120017 0.120017
0.141349 0.141349 0.141349
0.155148 0.155148 0.155148
0.166729 0.166729 0.166729
0.179732 0.179732 0.179732
0.192889 0.192889 0.192889
0.205274 0.205274 0.205274
0.094592 0.094592 0.094592
0.114331 0.114331 0.114331
0.099225 0.099225 0.099225
0.098836 0.098836 0.098836
0.098088 0.098088 0.098088
0.100347 0.100347 0.100347
0.111699 0.111699 0.111699
0.333916 0.333916 0.333916
0.519701 0.519701 0.519701
0.093947 0.093947 0.093947
0.097009 0.097009 0.097009
0.096218 0.096218 0.096218
0.098154 0.098154 0.098154
0.098396 0.098396 0.098396
0.100600 0.100600 0.100600
0.110755 0.110755 0.110755
0.333958 0.333958 0.333958
0.519697 0.519697 0.519697
0.094393 0.094393 0.094393
0.094916 0.094916 0.094916
0.096035 0.096035 0.096035
0.098725 0.098725 0.098725
0.100106 0.100106 0.100106
0.102904 0.102904 0.102904
0.112002 0.112002 0.112002
0.338487 0.338487 0.338487
0.519696 0.519696 0.519696
0.095720 0.095720 0.095720
0.096141 0.096141 0.096141
0.098295 0.098295 0.098295
0.100798 0.100798 0.100798
0.104227 0.104227 0.104227
0.108347 0.108347 0.108347
0.118261 0.118261 0.118261
0.141962 0.141962 0.141962
0.519691 0.519691 0.519691
0.097941 0.097941 0.097941
0.098679 0.098679 0.098679
0.100878 0.100878 0.100878
0.105230 0.105230 0.105230
0.112264 0.112264 0.112264
0.118991 0.118991 0.118991
0.131349 0.131349 0.131349
0.150545 0.150545 0.150545
0.283883 0.283883 0.283883
0.101699 0.101699 0.101699
0.102592 0.102592 0.102592
0.106097 0.106097 0.106097
0.113047 0.113047 0.113047
0.122308 0.122308 0.122308
0.134706 0.134706 0.134706
0.148211 0.148211 0.148211
0.165006 0.165006 0.165006
0.214716 0.214716 0.214716
0.110446 0.110446 0.110446
0.111582 0.111582 0.111582
0.116626 0.116626 0.116626
0.125750 0.125750 0.125750
0.137408 0.137408 0.137408
0.151119 0.151119 0.151119
0.165812 0.165812 0.165812
0.183092 0.183092 0.183092
0.214615 0.214615 0.214615
0.121903 0.121903 0.121903
0.122798 0.122798 0.122798
0.130809 0.130809 0.130809
0.141011 0.141011 0.141011
0.153438 0.153438 0.153438
0.166956 0.166956 0.166956
0.182487 0.182487 0.182487
0.199381 0.199381 0.199381
0.221099 0.221099 0.221099
0.215794 0.215794 0.215794
0.215796 0.215796 0.215796
0.215797 0.215797 0.215797
0.215785 0.215785 0.215785
0.164461 0.164461 0.164461
0.178628 0.178628 0.178628
0.192626 0.192626 0.192626
0.205861 0.205861 0.205861
0.216587 0.216587 0.216587
0.165845 0.165845 0.165845
0.315433 0.315433 0.315433
0.299437 0.299437 0.299437
0.286393 0.286393 0.286393
0.279349 0.279349 0.279349
0.291971 0.291971 0.291971
0.321847 0.321847 0.321847
0.354397 0.354397 0.354397
0.519741 0.519741 0.519741
0.165611 0.165611 0.165611
0.219577 0.219577 0.219577
0.245133 0.245133 0.245133
0.250106 0.250106 0.250106
0.254752 0.254752 0.254752
0.275293 0.275293 0.275293
0.304013 0.304013 0.304013
0.357234 0.357234 0.357234
0.519704 0.519704 0.519704
0.152572 0.152572 0.152572
0.161389 0.161389 0.161389
0.204394 0.204394 0.204394
0.203937 0.203937 0.203937
0.218773 0.218773 0.218773
0.240406 0.240406 0.240406
0.263766 0.263766 0.263766
0.370405 0.370405 0.370405
0.519697 0.519697 0.519697
0.158929 0.158929 0.158929
0.162968 0.162968 0.162968
0.175368 0.175368 0.175368
0.189690 0.189690 0.189690
0.207187 0.207187 0.207187
0.226045 0.226045 0.226045
0.241271 0.241271 0.241271
0.289042 0.289042 0.289042
0.519702 0.519702 0.519702
0.167386 0.167386 0.167386
0.170264 0.170264 0.170264
0.180138 0.180138 0.180138
0.193512 0.193512 0.193512
0.207260 0.207260 0.207260
0.225603 0.225603 0.225603
0.238552 0.238552 0.238552
0.271221 0.271221 0.271221
0.404615 0.404615 0.404615
0.181507 0.181507 0.181507
0.183566 0.183566 0.183566
0.191963 0.191963 0.191963
0.204102 0.204102 0.204102
0.217382 0.217382 0.217382
0.231674 0.231674 0.231674
0.244686 0.244686 0.244686
0.269669 0.269669 0.269669
0.312870 0.312870 0.312870
0.190545 0.190545 0.190545
0.192229 0.192229 0.192229
0.199677 0.199677 0.199677
0.210770 0.210770 0.210770
0.223980 0.223980 0.223980
0.238494 0.238494 0.238494
0.253944 0.253944 0.253944
0.273918 0.273918 0.273918
0.294107 0.294107 0.294107
0.205119 0.205119 0.205119
0.206509 0.206509 0.206509
0.214742 0.214742 0.214742
0.224915 0.224915 0.224915
0.237470 0.237470 0.237470
0.251185 0.251185 0.251185
0.265985 0.265985 0.265985
0.278652 0.278652 0.278652
0.289590 0.289590 0.289590
0.215803 0.215803 0.215803
0.215801 0.215801 0.215801
0.215800 0.215800 0.215800
0.215801 0.215801 0.215801
0.221729 0.221729 0.221729
0.241216 0.241216 0.241216
0.255769 0.255769 0.255769
0.268561 0.268561 0.268561
0.276175 0.276175 0.276175
0.322331 0.322331 0.322331
0.446757 0.446757 0.446757
0.475044 0.475044 0.475044
0.467751 0.467751 0.467751
0.469318 0.469318 0.469318
0.477991 0.477991 0.477991
0.503705 0.503705 0.503705
0.567954 0.567954 0.567954
0.577625 0.577625 0.577625
0.328499 0.328499 0.328499
0.395997 0.395997 0.395997
0.446193 0.446193 0.446193
0.445723 0.445723 0.445723
0.452368 0.452368 0.452368
0.464736 0.464736 0.464736
0.493077 0.493077 0.493077
0.562141 0.562141 0.562141
0.578239 0.578239 0.578239
0.312863 0.312863 0.312863
0.328429 0.328429 0.328429
0.367014 0.367014 0.367014
0.385968 0.385968 0.385968
0.403463 0.403463 0.403463
0.422349 0.422349 0.422349
0.453798 0.453798 0.453798
0.521699 0.521699 0.521699
0.580470 0.580470 0.580470
0.300790 0.300790 0.300790
0.306698 0.306698 0.306698
0.323807 0.323807 0.323807
0.357462 0.357462 0.357462
0.362801 0.362801 0.362801
0.380758 0.380758 0.380758
0.407109 0.407109 0.407109
0.465482 0.465482 0.465482
0.581139 0.581139 0.581139
0.303163 0.303163 0.303163
0.306103 0.306103 0.306103
0.316572 0.316572 0.316572
0.330135 0.330135 0.330135
0.343617 0.343617 0.343617
0.360079 0.360079 0.360079
0.378867 0.378867 0.378867
0.415108 0.415108 0.415108
0.553463 0.553463 0.553463
0.306688 0.306688 0.306688
0.308561 0.308561 0.308561
0.316127 0.316127 0.316127
0.326800 0.326800 0.326800
0.338843 0.338843 0.338843
0.351605 0.351605 0.351605
0.367216 0.367216 0.367216
0.389157 0.389157 0.389157
0.489582 0.489582 0.489582
0.311234 0.311234 0.311234
0.312540 0.312540 0.312540
0.318254 0.318254 0.318254
0.327286 0.327286 0.327286
0.338103 0.338103 0.338103
0.350118 0.350118 0.350118
0.362672 0.362672 0.362672
0.378492 0.378492 0.378492
0.434910 0.434910 0.434910
0.315475 0.315475 0.315475
0.316351 0.316351 0.316351
0.321225 0.321225 0.321225
0.328490 0.328490 0.328490
0.338009 0.338009 0.338009
0.348856 0.348856 0.348856
0.360271 0.360271 0.360271
0.372548 0.372548 0.372548
0.403792 0.403792 0.403792
0.338596 0.338596 0.338596
0.338596 0.338596 0.338596
0.338595 0.338595 0.338595
0.307785 0.307785 0.307785
0.333997 0.333997 0.333997
0.342853 0.342853 0.342853
0.352232 0.352232 0.352232
0.360571 0.360571 0.360571
0.375358 0.375358 0.375358
0.475254 0.475254 0.475254
0.545845 0.545845 0.545845
0.615263 0.615263 0.615263
0.615889 0.615889 0.615889
0.616487 0.616487 0.616487
0.624846 0.624846 0.624846
0.641557 0.641557 0.641557
0.676362 0.676362 0.676362
0.715165 0.715165 0.715165
0.481442 0.481442 0.481442
0.534559 0.534559 0.534559
0.600716 0.600716 0.600716
0.605043 0.605043 0.605043
0.607541 0.607541 0.607541
0.617769 0.617769 0.617769
0.636105 0.636105 0.636105
0.673094 0.673094 0.673094
0.711315 0.711315 0.711315
0.473703 0.473703 0.473703
0.495473 0.495473 0.495473
0.548790 0.548790 0.548790
0.568279 0.568279 0.568279
0.577247 0.577247 0.577247
0.591576 0.591576 0.591576
0.614161 0.614161 0.614161
0.653575 0.653575 0.653575
0.699053 0.699053 0.699053
0.453361 0.453361 0.453361
0.462247 0.462247 0.462247
0.490761 0.490761 0.490761
0.518408 0.518408 0.518408
0.534778 0.534778 0.534778
0.553884 0.553884 0.553884
0.579268 0.579268 0.579268
0.622892 0.622892 0.622892
0.699163 0.699163 0.699163
0.440635 0.440635 0.440635
0.445068 0.445068 0.445068
0.460210 0.460210 0.460210
0.480067 0.480067 0.480067
0.508013 0.508013 0.508013
0.518637 0.518637 0.518637
0.541662 0.541662 0.541662
0.582392 0.582392 0.582392
0.674029 0.674029 0.674029
0.437618 0.437618 0.437618
0.440118 0.440118 0.440118
0.449915 0.449915 0.449915
0.463930 0.463930 0.463930
0.479522 0.479522 0.479522
0.494475 0.494475 0.494475
0.513857 0.513857 0.513857
0.543083 0.543083 0.543083
0.638988 0.638988 0.638988
0.436126 0.436126 0.436126
0.437783 0.437783 0.437783
0.444632 0.444632 0.444632
0.455488 0.455488 0.455488
0.468455 0.468455 0.468455
0.481801 0.481801 0.481801
0.495568 0.495568 0.495568
0.515349 0.515349 0.515349
0.594304 0.594304 0.594304
0.433388 0.433388 0.433388
0.434442 0.434442 0.434442
0.439838 0.439838 0.439838
0.448168 0.448168 0.448168
0.458845 0.458845 0.458845
0.470432 0.470432 0.470432
0.482144 0.482144 0.482144
0.495163 0.495163 0.495163
0.546487 0.546487 0.546487
0.472782 0.472782 0.472782
0.472781 0.472781 0.472781
0.472780 0.472780 0.472780
0.437053 0.437053 0.437053
0.446529 0.446529 0.446529
0.455863 0.455863 0.455863
0.464493 0.464493 0.464493
0.472069 0.472069 0.472069
0.507627 0.507627 0.507627
0.631217 0.631217 0.631217
0.678357 0.678357 0.678357
0.732729 0.732729 0.732729
0.735731 0.735731 0.735731
0.737447 0.737447 0.737447
0.741902 0.741902 0.741902
0.751187 0.751187 0.751187
0.769455 0.769455 0.769455
0.781379 0.781379 0.781379
0.635537 0.635537 0.635537
0.675193 0.675193 0.675193
0.726701 0.726701 0.726701
0.731310 0.731310 0.731310
0.733833 0.733833 0.733833
0.738752 0.738752 0.738752
0.748776 0.748776 0.748776
0.767737 0.767737 0.767737
0.781379 0.781379 0.781379
0.637062 0.637062 0.637062
0.657729 0.657729 0.657729
0.701453 0.701453 0.701453
0.713916 0.713916 0.713916
0.719696 0.719696 0.719696
0.726781 0.726781 0.726781
0.738871 0.738871 0.738871
0.759105 0.759105 0.759105
0.781378 0.781378 0.781378
0.615317 0.615317 0.615317
0.625816 0.625816 0.625816
0.661917 0.661917 0.661917
0.685252 0.685252 0.685252
0.696807 0.696807 0.696807
0.706999 0.706999 0.706999
0.721746 0.721746 0.721746
0.745257 0.745257 0.745257
0.779236 0.779236 0.779236
0.594423 0.594423 0.594423
0.600097 0.600097 0.600097
0.621701 0.621701 0.621701
0.647025 0.647025 0.647025
0.667284 0.667284 0.667284
0.680904 0.680904 0.680904
0.698318 0.698318 0.698318
0.725266 0.725266 0.725266
0.771033 0.771033 0.771033
0.579716 0.579716 0.579716
0.583111 0.583111 0.583111
0.595911 0.595911 0.595911
0.614278 0.614278 0.614278
0.633902 0.633902 0.633902
0.654911 0.654911 0.654911
0.671398 0.671398 0.671398
0.698715 0.698715 0.698715
0.755600 0.755600 0.755600
0.570210 0.570210 0.570210
0.572302 0.572302 0.572302
0.580885 0.580885 0.580885
0.594382 0.594382 0.594382
0.610428 0.610428 0.610428
0.626439 0.626439 0.626439
0.642471 0.642471 0.642471
0.667383 0.667383 0.667383
0.733306 0.733306 0.733306
0.559839 0.559839 0.559839
0.561205 0.561205 0.561205
0.567712 0.567712 0.567712
0.577636 0.577636 0.577636
0.590242 0.590242 0.590242
0.603694 0.603694 0.603694
0.617032 0.617032 0.617032
0.632228 0.632228 0.632228
0.698411 0.698411 0.698411
0.527052 0.527052 0.527052
0.529887 0.529887 0.529887
0.540672 0.540672 0.540672
0.553818 0.553818 0.553818
0.565105 0.565105 0.565105
0.575699 0.575699 0.575699
0.585128 0.585128 0.585128
0.592498 0.592498 0.592498
0.660342 0.660342 0.660342
0.779178 0.779178 0.779178
0.798570 0.798570 0.798570
0.817168 0.817168 0.817168
0.819528 0.819528 0.819528
0.820800 0.820800 0.820800
0.822776 0.822776 0.822776
0.826885 0.826885 0.826885
0.834234 0.834234 0.834234
0.840518 0.840518 0.840518
0.780538 0.780538 0.780538
0.797153 0.797153 0.797153
0.815445 0.815445 0.815445
0.818266 0.818266 0.818266
0.819755 0.819755 0.819755
0.821865 0.821865 0.821865
0.826079 0.826079 0.826079
0.833614 0.833614 0.833614
0.839971 0.839971 0.839971
0.782472 0.782472 0.782472
0.791664 0.791664 0.791664
0.807716 0.807716 0.807716
0.812858 0.812858 0.812858
0.815380 0.815380 0.815380
0.818113 0.818113 0.818113
0.822790 0.822790 0.822790
0.830510 0.830510 0.830510
0.837481 0.837481 0.837481
0.770645 0.770645 0.770645
0.778807 0.778807 0.778807
0.794317 0.794317 0.794317
0.803378 0.803378 0.803378
0.807921 0.807921 0.807921
0.811915 0.811915 0.811915
0.817340 0.817340 0.817340
0.826043 0.826043 0.826043
0.840614 0.840614 0.840614
0.750385 0.750385 0.750385
0.756356 0.756356 0.756356
0.775391 0.775391 0.775391
0.789063 0.789063 0.789063
0.797210 0.797210 0.797210
0.802948 0.802948 0.802948
0.809556 0.809556 0.809556
0.819712 0.819712 0.819712
0.836115 0.836115 0.836115
0.730303 0.730303 0.730303
0.734204 0.734204 0.734204
0.748806 0.748806 0.748806
0.767684 0.767684 0.767684
0.782274 0.782274 0.782274
0.790878 0.790878 0.790878
0.799007 0.799007 0.799007
0.810762 0.810762 0.810762
0.831203 0.831203 0.831203
0.712516 0.712516 0.712516
0.715043 0.715043 0.715043
0.724930 0.724930 0.724930
0.740347 0.740347 0.740347
0.757683 0.757683 0.757683
0.772483 0.772483 0.772483
0.782937 0.782937 0.782937
0.796997 0.796997 0.796997
0.824609 0.824609 0.824609
0.694695 0.694695 0.694695
0.696254 0.696254 0.696254
0.703371 0.703371 0.703371
0.714493 0.714493 0.714493
0.728509 0.728509 0.728509
0.742950 0.742950 0.742950
0.756807 0.756807 0.756807
0.771636 0.771636 0.771636
0.812595 0.812595 0.812595
0.614404 0.614404 0.614404
0.614431 0.614431 0.614431
0.615139 0.615139 0.615139
0.680838 0.680838 0.680838
0.692551 0.692551 0.692551
0.703773 0.703773 0.703773
0.713270 0.713270 0.713270
0.719883 0.719883 0.719883
0.795347 0.795347 0.795347
0.874737 0.874737 0.874737
0.878311 0.878311 0.878311
0.881978 0.881978 0.881978
0.882632 0.882632 0.882632
0.883226 0.883226 0.883226
0.884144 0.884144 0.884144
0.885708 0.885708 0.885708
0.889434 0.889434 0.889434
0.888665 0.888665 0.888665
0.874400 0.874400 0.874400
0.877753 0.877753 0.877753
0.881663 0.881663 0.881663
0.882388 0.882388 0.882388
0.883017 0.883017 0.883017
0.883964 0.883964 0.883964
0.885563 0.885563 0.885563
0.889266 0.889266 0.889266
0.888665 0.888665 0.888665
0.873204 0.873204 0.873204
0.875513 0.875513 0.875513
0.879844 0.879844 0.879844
0.881031 0.881031 0.881031
0.881897 0.881897 0.881897
0.883017 0.883017 0.883017
0.884785 0.884785 0.884785
0.888325 0.888325 0.888325
0.888665 0.888665 0.888665
0.869073 0.869073 0.869073
0.871192 0.871192 0.871192
0.876113 0.876113 0.876113
0.878793 0.878793 0.878793
0.880259 0.880259 0.880259
0.881659 0.881659 0.881659
0.883704 0.883704 0.883704
0.887221 0.887221 0.887221
0.891064 0.891064 0.891064
0.861771 0.861771 0.861771
0.864095 0.864095 0.864095
0.870189 0.870189 0.870189
0.874625 0.874625 0.874625
0.877587 0.877587 0.877587
0.879908 0.879908 0.879908
0.882210 0.882210 0.882210
0.885906 0.885906 0.885906
0.890263 0.890263 0.890263
0.850881 0.850881 0.850881
0.853468 0.853468 0.853468
0.861243 0.861243 0.861243
0.868198 0.868198 0.868198
0.873106 0.873106 0.873106
0.876776 0.876776 0.876776
0.880190 0.880190 0.880190
0.884226 0.884226 0.884226
0.889593 0.889593 0.889593
0.835146 0.835146 0.835146
0.837501 0.837501 0.837501
0.846056 0.846056 0.846056
0.856464 0.856464 0.856464
0.865080 0.865080 0.865080
0.871163 0.871163 0.871163
0.875956 0.875956 0.875956
0.881671 0.881671 0.881671
0.888698 0.888698 0.888698
0.816343 0.816343 0.816343
0.817811 0.817811 0.817811
0.824255 0.824255 0.824255
0.834328 0.834328 0.834328
0.846310 0.846310 0.846310
0.856938 0.856938 0.856938
0.865193 0.865193 0.865193
0.869617 0.869617 0.869617
0.886751 0.886751 0.886751
0.756847 0.756847 0.756847
0.759385 0.759385 0.759385
0.775853 0.775853 0.775853
0.798035 0.798035 0.798035
0.807452 0.807452 0.807452
0.817131 0.817131 0.817131
0.825259 0.825259 0.825259
0.829930 0.829930 0.829930
0.880137 0.880137 0.880137
0.922427 0.922427 0.922427
0.922456 0.922456 0.922456
0.922564 0.922564 0.922564
0.922812 0.922812 0.922812
0.923163 0.923163 0.923163
0.923579 0.923579 0.923579
0.924358 0.924358 0.924358
0.925465 0.925465 0.925465
0.917189 0.917189 0.917189
0.922458 0.922458 0.922458
0.922487 0.922487 0.922487
0.922595 0.922595 0.922595
0.922845 0.922845 0.922845
0.923197 0.923197 0.923197
0.923622 0.923622 0.923622
0.924396 0.924396 0.924396
0.925497 0.925497 0.925497
0.921273 0.921273 0.921273
0.922432 0.922432 0.922432
0.922468 0.922468 0.922468
0.922594 0.922594 0.922594
0.922877 0.922877 0.922877
0.923252 0.923252 0.923252
0.923730 0.923730 0.923730
0.924499 0.924499 0.924499
0.925605 0.925605 0.925605
0.921273 0.921273 0.921273
0.922307 0.922307 0.922307
0.922364 0.922364 0.922364
0.922559 0.922559 0.922559
0.922907 0.922907 0.922907
0.923327 0.923327 0.923327
0.923862 0.923862 0.923862
0.924688 0.924688 0.924688
0.925816 0.925816 0.925816
0.926139 0.926139 0.926139
0.922338 0.922338 0.922338
0.922428 0.922428 0.922428
0.922722 0.922722 0.922722
0.923104 0.923104 0.923104
0.923612 0.923612 0.923612
0.924219 0.924219 0.924219
0.925053 0.925053 0.925053
0.926284 0.926284 0.926284
0.928154 0.928154 0.928154
0.922648 0.922648 0.922648
0.922777 0.922777 0.922777
0.923184 0.923184 0.923184
0.923674 0.923674 0.923674
0.924212 0.924212 0.924212
0.924864 0.924864 0.924864
0.925694 0.925694 0.925694
0.926903 0.926903 0.926903
0.928837 0.928837 0.928837
0.923308 0.923308 0.923308
0.923476 0.923476 0.923476
0.923972 0.923972 0.923972
0.924578 0.924578 0.924578
0.925211 0.925211 0.925211
0.925895 0.925895 0.925895
0.926815 0.926815 0.926815
0.927956 0.927956 0.927956
0.929818 0.929818 0.929818
0.922450 0.922450 0.922450
0.923204 0.923204 0.923204
0.924701 0.924701 0.924701
0.925765 0.925765 0.925765
0.926697 0.926697 0.926697
0.927498 0.927498 0.927498
0.928351 0.928351 0.928351
0.929446 0.929446 0.929446
0.931025 0.931025 0.931025
0.847025 0.847025 0.847025
0.879331 0.879331 0.879331
0.879331 0.879331 0.879331
0.879399 0.879399 0.879399
0.917510 0.917510 0.917510
0.928748 0.928748 0.928748
0.930486 0.930486 0.930486
0.931568 0.931568 0.931568
0.932292 0.932292 0.932292
