LUTs/trix_classic/TriX_NoFilter_Soft.cube
TITLE "Tri-X NoFilter Soft"
# Adobe RGB in/out. REPLACES AgX. Tri-X NoFilter Soft.
LUT_3D_SIZE 5
DOMAIN_MIN 0.0 0.0 0.0
DOMAIN_MAX 1.0 1.0 1.0
0.093873 0.093873 0.093873
0.094252 0.094252 0.094252
0.206284 0.206284 0.206284
0.378019 0.378019 0.378019
0.645398 0.645398 0.645398
0.099789 0.099789 0.099789
0.127223 0.127223 0.127223
0.255864 0.255864 0.255864
0.388712 0.388712 0.388712
0.645399 0.645399 0.645399
0.253705 0.253705 0.253705
0.274501 0.274501 0.274501
0.342488 0.342488 0.342488
0.444025 0.444025 0.444025
0.578655 0.578655 0.578655
0.409289 0.409289 0.409289
0.419018 0.419018 0.419018
0.458540 0.458540 0.458540
0.530059 0.530059 0.530059
0.613092 0.613092 0.613092
0.505987 0.505987 0.505987
0.543145 0.543145 0.543145
0.580818 0.580818 0.580818
0.631011 0.631011 0.631011
0.703091 0.703091 0.703091
0.123572 0.123572 0.123572
0.325573 0.325573 0.325573
0.338882 0.338882 0.338882
0.474409 0.474409 0.474409
0.645410 0.645410 0.645410
0.164342 0.164342 0.164342
0.233250 0.233250 0.233250
0.307390 0.307390 0.307390
0.437386 0.437386 0.437386
0.645400 0.645400 0.645400
0.298793 0.298793 0.298793
0.315451 0.315451 0.315451
0.377194 0.377194 0.377194
0.467254 0.467254 0.467254
0.632038 0.632038 0.632038
0.434628 0.434628 0.434628
0.443652 0.443652 0.443652
0.480965 0.480965 0.480965
0.548706 0.548706 0.548706
0.629448 0.629448 0.629448
0.535338 0.535338 0.535338
0.570075 0.570075 0.570075
0.593938 0.593938 0.593938
0.644404 0.644404 0.644404
0.712363 0.712363 0.712363
0.339582 0.339582 0.339582
0.503035 0.503035 0.503035
0.530026 0.530026 0.530026
0.606410 0.606410 0.606410
0.699471 0.699471 0.699471
0.367816 0.367816 0.367816
0.457893 0.457893 0.457893
0.513052 0.513052 0.513052
0.597809 0.597809 0.597809
0.694241 0.694241 0.694241
0.413558 0.413558 0.413558
0.432452 0.432452 0.432452
0.499564 0.499564 0.499564
0.577269 0.577269 0.577269
0.715186 0.715186 0.715186
0.509264 0.509264 0.509264
0.517902 0.517902 0.517902
0.553024 0.553024 0.553024
0.614205 0.614205 0.614205
0.722182 0.722182 0.722182
0.624040 0.624040 0.624040
0.632610 0.632610 0.632610
0.646907 0.646907 0.646907
0.691824 0.691824 0.691824
0.756372 0.756372 0.756372
0.557161 0.557161 0.557161
0.622882 0.622882 0.622882
0.647661 0.647661 0.647661
0.700180 0.700180 0.700180
0.753617 0.753617 0.753617
0.580121 0.580121 0.580121
0.623356 0.623356 0.623356
0.652865 0.652865 0.652865
0.704188 0.704188 0.704188
0.751910 0.751910 0.751910
0.585387 0.585387 0.585387
0.617127 0.617127 0.617127
0.667213 0.667213 0.667213
0.718864 0.718864 0.718864
0.783590 0.783590 0.783590
0.621665 0.621665 0.621665
0.634637 0.634637 0.634637
0.679204 0.679204 0.679204
0.737280 0.737280 0.737280
0.813118 0.813118 0.813118
0.665505 0.665505 0.665505
0.674676 0.674676 0.674676
0.718464 0.718464 0.718464
0.760335 0.760335 0.760335
0.848120 0.848120 0.848120
0.735034 0.735034 0.735034
0.737461 0.737461 0.737461
0.757837 0.757837 0.757837
0.795902 0.795902 0.795902
0.816237 0.816237 0.816237
0.741945 0.741945 0.741945
0.744823 0.744823 0.744823
0.764456 0.764456 0.764456
0.800804 0.800804 0.800804
0.821629 0.821629 0.821629
0.769408 0.769408 0.769408
0.773214 0.773214 0.773214
0.788932 0.788932 0.788932
0.820113 0.820113 0.820113
0.855864 0.855864 0.855864
0.806751 0.806751 0.806751
0.810664 0.810664 0.810664
0.825419 0.825419 0.825419
0.851968 0.851968 0.851968
0.886093 0.886093 0.886093
0.749475 0.749475 0.749475
0.780631 0.780631 0.780631
0.838887 0.838887 0.838887
0.890783 0.890783 0.890783
0.912373 0.912373 0.912373
