LUTs/trix_classic/TriX_NoFilter_Normal.cube
TITLE "Tri-X NoFilter Normal"
# Adobe RGB in/out. REPLACES AgX. Tri-X NoFilter Normal.
LUT_3D_SIZE 9
DOMAIN_MIN 0.0 0.0 0.0
DOMAIN_MAX 1.0 1.0 1.0
0.093230 0.093230 0.093230
0.093230 0.093230 0.093230
0.093829 0.093829 0.093829
0.106803 0.106803 0.106803
0.175721 0.175721 0.175721
0.279378 0.279378 0.279378
0.363213 0.363213 0.363213
0.586519 0.586519 0.586519
0.682841 0.682841 0.682841
0.093255 0.093255 0.093255
0.093404 0.093404 0.093404
0.097582 0.097582 0.097582
0.120944 0.120944 0.120944
0.187183 0.187183 0.187183
0.282283 0.282283 0.282283
0.364729 0.364729 0.364729
0.586533 0.586533 0.586533
0.682842 0.682842 0.682842
0.097163 0.097163 0.097163
0.099172 0.099172 0.099172
0.110761 0.110761 0.110761
0.159198 0.159198 0.159198
0.228968 0.228968 0.228968
0.300214 0.300214 0.300214
0.375310 0.375310 0.375310
0.589719 0.589719 0.589719
0.682842 0.682842 0.682842
0.138226 0.138226 0.138226
0.143364 0.143364 0.143364
0.165443 0.165443 0.165443
0.210470 0.210470 0.210470
0.277341 0.277341 0.277341
0.335154 0.335154 0.335154
0.400689 0.400689 0.400689
0.473103 0.473103 0.473103
0.634277 0.634277 0.634277
0.226601 0.226601 0.226601
0.230517 0.230517 0.230517
0.250704 0.250704 0.250704
0.283310 0.283310 0.283310
0.324221 0.324221 0.324221
0.381192 0.381192 0.381192
0.441242 0.441242 0.441242
0.503256 0.503256 0.503256
0.603196 0.603196 0.603196
0.314403 0.314403 0.314403
0.316358 0.316358 0.316358
0.329276 0.329276 0.329276
0.352222 0.352222 0.352222
0.387827 0.387827 0.387827
0.435166 0.435166 0.435166
0.490189 0.490189 0.490189
0.544313 0.544313 0.544313
0.604245 0.604245 0.604245
0.398755 0.398755 0.398755
0.400450 0.400450 0.400450
0.410882 0.410882 0.410882
0.430308 0.430308 0.430308
0.458542 0.458542 0.458542
0.496901 0.496901 0.496901
0.544554 0.544554 0.544554
0.595301 0.595301 0.595301
0.645255 0.645255 0.645255
0.491228 0.491228 0.491228
0.491237 0.491237 0.491237
0.495581 0.495581 0.495581
0.509494 0.509494 0.509494
0.531941 0.531941 0.531941
0.563108 0.563108 0.563108
0.604148 0.604148 0.604148
0.654423 0.654423 0.654423
0.693156 0.693156 0.693156
0.515832 0.515832 0.515832
0.515836 0.515836 0.515836
0.560261 0.560261 0.560261
0.567704 0.567704 0.567704
0.605827 0.605827 0.605827
0.632158 0.632158 0.632158
0.667298 0.667298 0.667298
0.709765 0.709765 0.709765
0.746624 0.746624 0.746624
0.093387 0.093387 0.093387
0.134677 0.134677 0.134677
0.099844 0.099844 0.099844
0.116768 0.116768 0.116768
0.186136 0.186136 0.186136
0.285444 0.285444 0.285444
0.369676 0.369676 0.369676
0.586534 0.586534 0.586534
0.682843 0.682843 0.682843
0.093773 0.093773 0.093773
0.097009 0.097009 0.097009
0.101131 0.101131 0.101131
0.128001 0.128001 0.128001
0.195541 0.195541 0.195541
0.288134 0.288134 0.288134
0.370506 0.370506 0.370506
0.586556 0.586556 0.586556
0.682842 0.682842 0.682842
0.102046 0.102046 0.102046
0.104830 0.104830 0.104830
0.122254 0.122254 0.122254
0.170705 0.170705 0.170705
0.233719 0.233719 0.233719
0.304893 0.304893 0.304893
0.380332 0.380332 0.380332
0.590790 0.590790 0.590790
0.682842 0.682842 0.682842
0.152065 0.152065 0.152065
0.157049 0.157049 0.157049
0.179719 0.179719 0.179719
0.223844 0.223844 0.223844
0.284058 0.284058 0.284058
0.338694 0.338694 0.338694
0.405162 0.405162 0.405162
0.477235 0.477235 0.477235
0.682843 0.682843 0.682843
0.236471 0.236471 0.236471
0.240788 0.240788 0.240788
0.260969 0.260969 0.260969
0.290891 0.290891 0.290891
0.331558 0.331558 0.331558
0.386038 0.386038 0.386038
0.444680 0.444680 0.444680
0.506953 0.506953 0.506953
0.616479 0.616479 0.616479
0.319113 0.319113 0.319113
0.321326 0.321326 0.321326
0.334355 0.334355 0.334355
0.357657 0.357657 0.357657
0.393367 0.393367 0.393367
0.440246 0.440246 0.440246
0.493783 0.493783 0.493783
0.547565 0.547565 0.547565
0.608361 0.608361 0.608361
0.402659 0.402659 0.402659
0.404479 0.404479 0.404479
0.415112 0.415112 0.415112
0.434371 0.434371 0.434371
0.462670 0.462670 0.462670
0.501099 0.501099 0.501099
0.548319 0.548319 0.548319
0.598186 0.598186 0.598186
0.648287 0.648287 0.648287
0.492754 0.492754 0.492754
0.493098 0.493098 0.493098
0.498536 0.498536 0.498536
0.512801 0.512801 0.512801
0.535246 0.535246 0.535246
0.566475 0.566475 0.566475
0.607566 0.607566 0.607566
0.657337 0.657337 0.657337
0.695407 0.695407 0.695407
0.550874 0.550874 0.550874
0.550879 0.550879 0.550879
0.592780 0.592780 0.592780
0.592777 0.592777 0.592777
0.608342 0.608342 0.608342
0.634825 0.634825 0.634825
0.669838 0.669838 0.669838
0.712049 0.712049 0.712049
0.748274 0.748274 0.748274
0.108116 0.108116 0.108116
0.322525 0.322525 0.322525
0.306850 0.306850 0.306850
0.297171 0.297171 0.297171
0.320403 0.320403 0.320403
0.388529 0.388529 0.388529
0.477580 0.477580 0.477580
0.593767 0.593767 0.593767
0.682854 0.682854 0.682854
0.116896 0.116896 0.116896
0.180966 0.180966 0.180966
0.232980 0.232980 0.232980
0.255843 0.255843 0.255843
0.298774 0.298774 0.298774
0.371532 0.371532 0.371532
0.462753 0.462753 0.462753
0.595073 0.595073 0.595073
0.682844 0.682844 0.682844
0.137944 0.137944 0.137944
0.147395 0.147395 0.147395
0.204394 0.204394 0.204394
0.233914 0.233914 0.233914
0.288687 0.288687 0.288687
0.354295 0.354295 0.354295
0.433364 0.433364 0.433364
0.599182 0.599182 0.599182
0.682842 0.682842 0.682842
0.201238 0.201238 0.201238
0.206857 0.206857 0.206857
0.230078 0.230078 0.230078
0.271981 0.271981 0.271981
0.317996 0.317996 0.317996
0.373099 0.373099 0.373099
0.438971 0.438971 0.438971
0.521588 0.521588 0.521588
0.682844 0.682844 0.682844
0.280121 0.280121 0.280121
0.283077 0.283077 0.283077
0.296732 0.296732 0.296732
0.323078 0.323078 0.323078
0.362281 0.362281 0.362281
0.415087 0.415087 0.415087
0.468980 0.468980 0.468980
0.534141 0.534141 0.534141
0.668514 0.668514 0.668514
0.352036 0.352036 0.352036
0.354248 0.354248 0.354248
0.366024 0.366024 0.366024
0.388175 0.388175 0.388175
0.422479 0.422479 0.422479
0.465122 0.465122 0.465122
0.514632 0.514632 0.514632
0.568318 0.568318 0.568318
0.637032 0.637032 0.637032
0.430099 0.430099 0.430099
0.431809 0.431809 0.431809
0.440798 0.440798 0.440798
0.458287 0.458287 0.458287
0.485482 0.485482 0.485482
0.522623 0.522623 0.522623
0.566954 0.566954 0.566954
0.614917 0.614917 0.614917
0.665370 0.665370 0.665370
0.511594 0.511594 0.511594
0.512794 0.512794 0.512794
0.520030 0.520030 0.520030
0.533416 0.533416 0.533416
0.554976 0.554976 0.554976
0.585404 0.585404 0.585404
0.625653 0.625653 0.625653
0.671822 0.671822 0.671822
0.706794 0.706794 0.706794
0.550882 0.550882 0.550882
0.592780 0.592780 0.592780
0.592781 0.592781 0.592781
0.592794 0.592794 0.592794
0.621813 0.621813 0.621813
0.648656 0.648656 0.648656
0.681765 0.681765 0.681765
0.722924 0.722924 0.722924
0.756897 0.756897 0.756897
0.203770 0.203770 0.203770
0.386565 0.386565 0.386565
0.428303 0.428303 0.428303
0.432454 0.432454 0.432454
0.457995 0.457995 0.457995
0.506818 0.506818 0.506818
0.571741 0.571741 0.571741
0.658413 0.658413 0.658413
0.698895 0.698895 0.698895
0.224496 0.224496 0.224496
0.324848 0.324848 0.324848
0.400916 0.400916 0.400916
0.413395 0.413395 0.413395
0.444447 0.444447 0.444447
0.496853 0.496853 0.496853
0.565620 0.565620 0.565620
0.655867 0.655867 0.655867
0.699071 0.699071 0.699071
0.239622 0.239622 0.239622
0.261758 0.261758 0.261758
0.317758 0.317758 0.317758
0.357925 0.357925 0.357925
0.403752 0.403752 0.403752
0.463301 0.463301 0.463301
0.540408 0.540408 0.540408
0.636084 0.636084 0.636084
0.699712 0.699712 0.699712
0.277330 0.277330 0.277330
0.283062 0.283062 0.283062
0.305843 0.305843 0.305843
0.357462 0.357462 0.357462
0.390429 0.390429 0.390429
0.445064 0.445064 0.445064
0.514405 0.514405 0.514405
0.608736 0.608736 0.608736
0.699907 0.699907 0.699907
0.331869 0.331869 0.331869
0.335083 0.335083 0.335083
0.349898 0.349898 0.349898
0.378013 0.378013 0.378013
0.417164 0.417164 0.417164
0.464583 0.464583 0.464583
0.520285 0.520285 0.520285
0.590959 0.590959 0.590959
0.719035 0.719035 0.719035
0.398261 0.398261 0.398261
0.400601 0.400601 0.400601
0.412256 0.412256 0.412256
0.433456 0.433456 0.433456
0.464849 0.464849 0.464849
0.505399 0.505399 0.505399
0.552356 0.552356 0.552356
0.607219 0.607219 0.607219
0.707642 0.707642 0.707642
0.469258 0.469258 0.469258
0.470968 0.470968 0.470968
0.479516 0.479516 0.479516
0.496401 0.496401 0.496401
0.522573 0.522573 0.522573
0.557183 0.557183 0.557183
0.598959 0.598959 0.598959
0.645122 0.645122 0.645122
0.706073 0.706073 0.706073
0.543322 0.543322 0.543322
0.544558 0.544558 0.544558
0.551339 0.551339 0.551339
0.564099 0.564099 0.564099
0.585098 0.585098 0.585098
0.614878 0.614878 0.614878
0.653606 0.653606 0.653606
0.693425 0.693425 0.693425
0.732942 0.732942 0.732942
0.608525 0.608525 0.608525
0.631417 0.631417 0.631417
0.631422 0.631422 0.631422
0.635374 0.635374 0.635374
0.652087 0.652087 0.652087
0.675457 0.675457 0.675457
0.705087 0.705087 0.705087
0.743721 0.743721 0.743721
0.775471 0.775471 0.775471
0.321143 0.321143 0.321143
0.424883 0.424883 0.424883
0.512236 0.512236 0.512236
0.523415 0.523415 0.523415
0.544514 0.544514 0.544514
0.585034 0.585034 0.585034
0.637063 0.637063 0.637063
0.694323 0.694323 0.694323
0.742615 0.742615 0.742615
0.335495 0.335495 0.335495
0.413508 0.413508 0.413508
0.502197 0.502197 0.502197
0.517806 0.517806 0.517806
0.540215 0.540215 0.540215
0.581669 0.581669 0.581669
0.635055 0.635055 0.635055
0.693716 0.693716 0.693716
0.741222 0.741222 0.741222
0.351724 0.351724 0.351724
0.379739 0.379739 0.379739
0.457769 0.457769 0.457769
0.494575 0.494575 0.494575
0.524235 0.524235 0.524235
0.568741 0.568741 0.568741
0.626541 0.626541 0.626541
0.690125 0.690125 0.690125
0.736825 0.736825 0.736825
0.367240 0.367240 0.367240
0.376902 0.376902 0.376902
0.414806 0.414806 0.414806
0.461347 0.461347 0.461347
0.501446 0.501446 0.501446
0.550481 0.550481 0.550481
0.612097 0.612097 0.612097
0.684544 0.684544 0.684544
0.750645 0.750645 0.750645
0.404051 0.404051 0.404051
0.408731 0.408731 0.408731
0.427526 0.427526 0.427526
0.458830 0.458830 0.458830
0.508013 0.508013 0.508013
0.545061 0.545061 0.545061
0.601512 0.601512 0.601512
0.675804 0.675804 0.675804
0.760026 0.760026 0.760026
0.458427 0.458427 0.458427
0.460994 0.460994 0.460994
0.472961 0.472961 0.472961
0.494943 0.494943 0.494943
0.527094 0.527094 0.527094
0.565560 0.565560 0.565560
0.612954 0.612954 0.612954
0.673473 0.673473 0.673473
0.765092 0.765092 0.765092
0.519726 0.519726 0.519726
0.521544 0.521544 0.521544
0.530019 0.530019 0.530019
0.546588 0.546588 0.546588
0.572159 0.572159 0.572159
0.606210 0.606210 0.606210
0.646622 0.646622 0.646622
0.690839 0.690839 0.690839
0.767781 0.767781 0.767781
0.584760 0.584760 0.584760
0.586059 0.586059 0.586059
0.592806 0.592806 0.592806
0.605673 0.605673 0.605673
0.626569 0.626569 0.626569
0.656007 0.656007 0.656007
0.690077 0.690077 0.690077
0.726133 0.726133 0.726133
0.775956 0.775956 0.775956
0.658710 0.658710 0.658710
0.661846 0.661846 0.661846
0.669127 0.669127 0.669127
0.669413 0.669413 0.669413
0.684506 0.684506 0.684506
0.705508 0.705508 0.705508
0.734150 0.734150 0.734150
0.769955 0.769955 0.769955
0.798352 0.798352 0.798352
0.442276 0.442276 0.442276
0.508474 0.508474 0.508474
0.585718 0.585718 0.585718
0.598275 0.598275 0.598275
0.617981 0.617981 0.617981
0.651624 0.651624 0.651624
0.691982 0.691982 0.691982
0.734296 0.734296 0.734296
0.767950 0.767950 0.767950
0.453189 0.453189 0.453189
0.508815 0.508815 0.508815
0.582867 0.582867 0.582867
0.597465 0.597465 0.597465
0.617685 0.617685 0.617685
0.651260 0.651260 0.651260
0.692015 0.692015 0.692015
0.734665 0.734665 0.734665
0.767950 0.767950 0.767950
0.476828 0.476828 0.476828
0.504313 0.504313 0.504313
0.568048 0.568048 0.568048
0.593318 0.593318 0.593318
0.616255 0.616255 0.616255
0.650108 0.650108 0.650108
0.692160 0.692160 0.692160
0.736483 0.736483 0.736483
0.767950 0.767950 0.767950
0.480349 0.480349 0.480349
0.493098 0.493098 0.493098
0.540969 0.540969 0.540969
0.581659 0.581659 0.581659
0.612338 0.612338 0.612338
0.648014 0.648014 0.648014
0.692197 0.692197 0.692197
0.740031 0.740031 0.740031
0.781435 0.781435 0.781435
0.497802 0.497802 0.497802
0.503975 0.503975 0.503975
0.530275 0.530275 0.530275
0.567872 0.567872 0.567872
0.606874 0.606874 0.606874
0.645871 0.645871 0.645871
0.692016 0.692016 0.692016
0.744296 0.744296 0.744296
0.792461 0.792461 0.792461
0.532482 0.532482 0.532482
0.535886 0.535886 0.535886
0.550480 0.550480 0.550480
0.576137 0.576137 0.576137
0.611207 0.611207 0.611207
0.654911 0.654911 0.654911
0.694629 0.694629 0.694629
0.747649 0.747649 0.747649
0.802190 0.802190 0.802190
0.580059 0.580059 0.580059
0.582207 0.582207 0.582207
0.591959 0.591959 0.591959
0.610511 0.610511 0.610511
0.638272 0.638272 0.638272
0.672952 0.672952 0.672952
0.708421 0.708421 0.708421
0.753110 0.753110 0.753110
0.812101 0.812101 0.812101
0.635460 0.635460 0.635460
0.636941 0.636941 0.636941
0.644298 0.644298 0.644298
0.657975 0.657975 0.657975
0.678234 0.678234 0.678234
0.704209 0.704209 0.704209
0.736163 0.736163 0.736163
0.771271 0.771271 0.771271
0.819151 0.819151 0.819151
0.677239 0.677239 0.677239
0.680429 0.680429 0.680429
0.688994 0.688994 0.688994
0.705263 0.705263 0.705263
0.720669 0.720669 0.720669
0.741637 0.741637 0.741637
0.769212 0.769212 0.769212
0.795441 0.795441 0.795441
0.834122 0.834122 0.834122
0.577153 0.577153 0.577153
0.617714 0.617714 0.617714
0.657285 0.657285 0.657285
0.669700 0.669700 0.669700
0.685338 0.685338 0.685338
0.710673 0.710673 0.710673
0.743400 0.743400 0.743400
0.777363 0.777363 0.777363
0.796133 0.796133 0.796133
0.584211 0.584211 0.584211
0.618664 0.618664 0.618664
0.657567 0.657567 0.657567
0.670717 0.670717 0.670717
0.686463 0.686463 0.686463
0.711580 0.711580 0.711580
0.744262 0.744262 0.744262
0.778242 0.778242 0.778242
0.795888 0.795888 0.795888
0.604979 0.604979 0.604979
0.623605 0.623605 0.623605
0.657868 0.657868 0.657868
0.674673 0.674673 0.674673
0.691082 0.691082 0.691082
0.715408 0.715408 0.715408
0.747840 0.747840 0.747840
0.781313 0.781313 0.781313
0.794758 0.794758 0.794758
0.608398 0.608398 0.608398
0.620927 0.620927 0.620927
0.655555 0.655555 0.655555
0.679489 0.679489 0.679489
0.698567 0.698567 0.698567
0.722673 0.722673 0.722673
0.754671 0.754671 0.754671
0.786750 0.786750 0.786750
0.810356 0.810356 0.810356
0.611387 0.611387 0.611387
0.619666 0.619666 0.619666
0.650210 0.650210 0.650210
0.681771 0.681771 0.681771
0.706931 0.706931 0.706931
0.732371 0.732371 0.732371
0.764103 0.764103 0.764103
0.794612 0.794612 0.794612
0.820696 0.820696 0.820696
0.626440 0.626440 0.626440
0.631418 0.631418 0.631418
0.652151 0.652151 0.652151
0.682520 0.682520 0.682520
0.713291 0.713291 0.713291
0.743076 0.743076 0.743076
0.774957 0.774957 0.774957
0.803814 0.803814 0.803814
0.833103 0.833103 0.833103
0.655789 0.655789 0.655789
0.658816 0.658816 0.658816
0.671299 0.671299 0.671299
0.691838 0.691838 0.691838
0.720187 0.720187 0.720187
0.752432 0.752432 0.752432
0.782937 0.782937 0.782937
0.812126 0.812126 0.812126
0.847619 0.847619 0.847619
0.693170 0.693170 0.693170
0.694723 0.694723 0.694723
0.702247 0.702247 0.702247
0.716060 0.716060 0.716060
0.737355 0.737355 0.737355
0.765034 0.765034 0.765034
0.791433 0.791433 0.791433
0.816649 0.816649 0.816649
0.861812 0.861812 0.861812
0.705043 0.705043 0.705043
0.709362 0.709362 0.709362
0.715180 0.715180 0.715180
0.748126 0.748126 0.748126
0.763659 0.763659 0.763659
0.782479 0.782479 0.782479
0.801540 0.801540 0.801540
0.823984 0.823984 0.823984
0.879372 0.879372 0.879372
0.708844 0.708844 0.708844
0.713767 0.713767 0.713767
0.723165 0.723165 0.723165
0.731662 0.731662 0.731662
0.745786 0.745786 0.745786
0.768301 0.768301 0.768301
0.790574 0.790574 0.790574
0.811737 0.811737 0.811737
0.823340 0.823340 0.823340
0.710227 0.710227 0.710227
0.714866 0.714866 0.714866
0.724677 0.724677 0.724677
0.733352 0.733352 0.733352
0.747404 0.747404 0.747404
0.769594 0.769594 0.769594
0.791458 0.791458 0.791458
0.812540 0.812540 0.812540
0.823599 0.823599 0.823599
0.718254 0.718254 0.718254
0.721589 0.721589 0.721589
0.731411 0.731411 0.731411
0.740860 0.740860 0.740860
0.754582 0.754582 0.754582
0.775280 0.775280 0.775280
0.795270 0.795270 0.795270
0.816153 0.816153 0.816153
0.826465 0.826465 0.826465
0.727136 0.727136 0.727136
0.730639 0.730639 0.730639
0.741625 0.741625 0.741625
0.752631 0.752631 0.752631
0.766230 0.766230 0.766230
0.783567 0.783567 0.783567
0.802066 0.802066 0.802066
0.822794 0.822794 0.822794
0.839693 0.839693 0.839693
0.736286 0.736286 0.736286
0.740616 0.740616 0.740616
0.754211 0.754211 0.754211
0.767521 0.767521 0.767521
0.781205 0.781205 0.781205
0.794517 0.794517 0.794517
0.812085 0.812085 0.812085
0.832666 0.832666 0.832666
0.850756 0.850756 0.850756
0.743201 0.743201 0.743201
0.748317 0.748317 0.748317
0.765399 0.765399 0.765399
0.781562 0.781562 0.781562
0.794377 0.794377 0.794377
0.808215 0.808215 0.808215
0.824876 0.824876 0.824876
0.845324 0.845324 0.845324
0.864277 0.864277 0.864277
0.748058 0.748058 0.748058
0.752347 0.752347 0.752347
0.769433 0.769433 0.769433
0.788695 0.788695 0.788695
0.805891 0.805891 0.805891
0.822417 0.822417 0.822417
0.839337 0.839337 0.839337
0.859989 0.859989 0.859989
0.880212 0.880212 0.880212
0.761502 0.761502 0.761502
0.763610 0.763610 0.763610
0.773876 0.773876 0.773876
0.788631 0.788631 0.788631
0.807852 0.807852 0.807852
0.829419 0.829419 0.829419
0.850838 0.850838 0.850838
0.869617 0.869617 0.869617
0.893612 0.893612 0.893612
0.752863 0.752863 0.752863
0.764594 0.764594 0.764594
0.772383 0.772383 0.772383
0.790964 0.790964 0.790964
0.803793 0.803793 0.803793
0.819801 0.819801 0.819801
0.839306 0.839306 0.839306
0.860830 0.860830 0.860830
0.907827 0.907827 0.907827
0.781117 0.781117 0.781117
0.781436 0.781436 0.781436
0.783084 0.783084 0.783084
0.788320 0.788320 0.788320
0.799531 0.799531 0.799531
0.815218 0.815218 0.815218
0.831937 0.831937 0.831937
0.848723 0.848723 0.848723
0.850455 0.850455 0.850455
0.782053 0.782053 0.782053
0.782386 0.782386 0.782386
0.784097 0.784097 0.784097
0.789375 0.789375 0.789375
0.800465 0.800465 0.800465
0.816064 0.816064 0.816064
0.832740 0.832740 0.832740
0.849263 0.849263 0.849263
0.855353 0.855353 0.855353
0.786712 0.786712 0.786712
0.787101 0.787101 0.787101
0.789038 0.789038 0.789038
0.794386 0.794386 0.794386
0.804851 0.804851 0.804851
0.819941 0.819941 0.819941
0.836406 0.836406 0.836406
0.852432 0.852432 0.852432
0.855355 0.855355 0.855355
0.796331 0.796331 0.796331
0.796786 0.796786 0.796786
0.798975 0.798975 0.798975
0.804215 0.804215 0.804215
0.813569 0.813569 0.813569
0.827555 0.827555 0.827555
0.843723 0.843723 0.843723
0.860021 0.860021 0.860021
0.874524 0.874524 0.874524
0.808824 0.808824 0.808824
0.809358 0.809358 0.809358
0.811874 0.811874 0.811874
0.817094 0.817094 0.817094
0.825576 0.825576 0.825576
0.838364 0.838364 0.838364
0.853978 0.853978 0.853978
0.870468 0.870468 0.870468
0.884512 0.884512 0.884512
0.824030 0.824030 0.824030
0.824637 0.824637 0.824637
0.827448 0.827448 0.827448
0.832898 0.832898 0.832898
0.840670 0.840670 0.840670
0.852162 0.852162 0.852162
0.867038 0.867038 0.867038
0.882346 0.882346 0.882346
0.894101 0.894101 0.894101
0.841824 0.841824 0.841824
0.842480 0.842480 0.842480
0.845386 0.845386 0.845386
0.851069 0.851069 0.851069
0.858798 0.858798 0.858798
0.868943 0.868943 0.868943
0.881938 0.881938 0.881938
0.893782 0.893782 0.893782
0.905437 0.905437 0.905437
0.858106 0.858106 0.858106
0.859933 0.859933 0.859933
0.864606 0.864606 0.864606
0.870700 0.870700 0.870700
0.878913 0.878913 0.878913
0.886432 0.886432 0.886432
0.895305 0.895305 0.895305
0.906759 0.906759 0.906759
0.918258 0.918258 0.918258
0.792794 0.792794 0.792794
0.817991 0.817991 0.817991
0.817991 0.817991 0.817991
0.819997 0.819997 0.819997
0.871013 0.871013 0.871013
0.899892 0.899892 0.899892
0.910229 0.910229 0.910229
0.921915 0.921915 0.921915
0.932292 0.932292 0.932292
