LUTs/trix_classic/TriX_Yellow8_ExtraSoft.cube
TITLE "Tri-X Yellow8 ExtraSoft"
# Adobe RGB in/out. REPLACES AgX. Tri-X Yellow8 ExtraSoft.
LUT_3D_SIZE 33
DOMAIN_MIN 0.0 0.0 0.0
DOMAIN_MAX 1.0 1.0 1.0
0.099726 0.099726 0.099726
0.099726 0.099726 0.099726
0.099726 0.099726 0.099726
0.099726 0.099726 0.099726
0.100711 0.100711 0.100711
0.101410 0.101410 0.101410
0.105967 0.105967 0.105967
0.120772 0.120772 0.120772
0.134179 0.134179 0.134179
0.154264 0.154264 0.154264
0.183007 0.183007 0.183007
0.202777 0.202777 0.202777
0.220601 0.220601 0.220601
0.243542 0.243542 0.243542
0.272743 0.272743 0.272743
0.294905 0.294905 0.294905
0.317366 0.317366 0.317366
0.342620 0.342620 0.342620
0.369197 0.369197 0.369197
0.392194 0.392194 0.392194
0.415059 0.415059 0.415059
0.443212 0.443212 0.443212
0.472301 0.472301 0.472301
0.501099 0.501099 0.501099
0.524125 0.524125 0.524125
0.546065 0.546065 0.546065
0.574020 0.574020 0.574020
0.591683 0.591683 0.591683
0.634107 0.634107 0.634107
0.634090 0.634090 0.634090
0.634089 0.634089 0.634089
0.634090 0.634090 0.634090
0.699308 0.699308 0.699308
0.099726 0.099726 0.099726
0.099726 0.099726 0.099726
0.099726 0.099726 0.099726
0.099726 0.099726 0.099726
0.101193 0.101193 0.101193
0.102206 0.102206 0.102206
0.107372 0.107372 0.107372
0.123977 0.123977 0.123977
0.137172 0.137172 0.137172
0.156406 0.156406 0.156406
0.184921 0.184921 0.184921
0.204284 0.204284 0.204284
0.221812 0.221812 0.221812
0.244505 0.244505 0.244505
0.273505 0.273505 0.273505
0.295477 0.295477 0.295477
0.317810 0.317810 0.317810
0.342930 0.342930 0.342930
0.369436 0.369436 0.369436
0.392358 0.392358 0.392358
0.415215 0.415215 0.415215
0.443351 0.443351 0.443351
0.472427 0.472427 0.472427
0.501198 0.501198 0.501198
0.524229 0.524229 0.524229
0.546173 0.546173 0.546173
0.574099 0.574099 0.574099
0.591782 0.591782 0.591782
0.634108 0.634108 0.634108
0.634090 0.634090 0.634090
0.634089 0.634089 0.634089
0.634090 0.634090 0.634090
0.699308 0.699308 0.699308
0.099726 0.099726 0.099726
0.099726 0.099726 0.099726
0.099726 0.099726 0.099726
0.100388 0.100388 0.100388
0.103620 0.103620 0.103620
0.105877 0.105877 0.105877
0.115066 0.115066 0.115066
0.140039 0.140039 0.140039
0.149373 0.149373 0.149373
0.165328 0.165328 0.165328
0.192195 0.192195 0.192195
0.210071 0.210071 0.210071
0.226428 0.226428 0.226428
0.248156 0.248156 0.248156
0.276385 0.276385 0.276385
0.297639 0.297639 0.297639
0.319484 0.319484 0.319484
0.344102 0.344102 0.344102
0.370333 0.370333 0.370333
0.392971 0.392971 0.392971
0.415796 0.415796 0.415796
0.443869 0.443869 0.443869
0.472895 0.472895 0.472895
0.501564 0.501564 0.501564
0.524614 0.524614 0.524614
0.546570 0.546570 0.546570
0.574388 0.574388 0.574388
0.592145 0.592145 0.592145
0.634109 0.634109 0.634109
0.634090 0.634090 0.634090
0.634089 0.634089 0.634089
0.634091 0.634091 0.634091
0.699310 0.699310 0.699310
0.100031 0.100031 0.100031
0.100108 0.100108 0.100108
0.100443 0.100443 0.100443
0.100979 0.100979 0.100979
0.106335 0.106335 0.106335
0.110474 0.110474 0.110474
0.129134 0.129134 0.129134
0.157028 0.157028 0.157028
0.165732 0.165732 0.165732
0.180981 0.180981 0.180981
0.207197 0.207197 0.207197
0.222471 0.222471 0.222471
0.236231 0.236231 0.236231
0.255747 0.255747 0.255747
0.282335 0.282335 0.282335
0.302089 0.302089 0.302089
0.322926 0.322926 0.322926
0.346504 0.346504 0.346504
0.372160 0.372160 0.372160
0.394221 0.394221 0.394221
0.416972 0.416972 0.416972
0.444901 0.444901 0.444901
0.473818 0.473818 0.473818
0.502280 0.502280 0.502280
0.525361 0.525361 0.525361
0.547338 0.547338 0.547338
0.574955 0.574955 0.574955
0.592846 0.592846 0.592846
0.634112 0.634112 0.634112
0.634091 0.634091 0.634091
0.634089 0.634089 0.634089
0.634093 0.634093 0.634093
0.699311 0.699311 0.699311
0.103186 0.103186 0.103186
0.103369 0.103369 0.103369
0.104333 0.104333 0.104333
0.106624 0.106624 0.106624
0.112161 0.112161 0.112161
0.116103 0.116103 0.116103
0.140855 0.140855 0.140855
0.169943 0.169943 0.169943
0.180041 0.180041 0.180041
0.195977 0.195977 0.195977
0.222663 0.222663 0.222663
0.236399 0.236399 0.236399
0.249203 0.249203 0.249203
0.267962 0.267962 0.267962
0.293020 0.293020 0.293020
0.310089 0.310089 0.310089
0.329097 0.329097 0.329097
0.350786 0.350786 0.350786
0.375381 0.375381 0.375381
0.396424 0.396424 0.396424
0.419025 0.419025 0.419025
0.446665 0.446665 0.446665
0.475363 0.475363 0.475363
0.503463 0.503463 0.503463
0.526582 0.526582 0.526582
0.548587 0.548587 0.548587
0.575893 0.575893 0.575893
0.593988 0.593988 0.593988
0.634118 0.634118 0.634118
0.634091 0.634091 0.634091
0.634090 0.634090 0.634090
0.634116 0.634116 0.634116
0.699311 0.699311 0.699311
0.106827 0.106827 0.106827
0.107010 0.107010 0.107010
0.108418 0.108418 0.108418
0.111585 0.111585 0.111585
0.116631 0.116631 0.116631
0.127668 0.127668 0.127668
0.152772 0.152772 0.152772
0.181360 0.181360 0.181360
0.191092 0.191092 0.191092
0.208314 0.208314 0.208314
0.235639 0.235639 0.235639
0.250662 0.250662 0.250662
0.263315 0.263315 0.263315
0.280467 0.280467 0.280467
0.303495 0.303495 0.303495
0.319894 0.319894 0.319894
0.337478 0.337478 0.337478
0.358053 0.358053 0.358053
0.380885 0.380885 0.380885
0.400194 0.400194 0.400194
0.422493 0.422493 0.422493
0.449554 0.449554 0.449554
0.477826 0.477826 0.477826
0.505314 0.505314 0.505314
0.528458 0.528458 0.528458
0.550491 0.550491 0.550491
0.577356 0.577356 0.577356
0.595747 0.595747 0.595747
0.634131 0.634131 0.634131
0.634093 0.634093 0.634093
0.634090 0.634090 0.634090
0.699279 0.699279 0.699279
0.699311 0.699311 0.699311
0.125381 0.125381 0.125381
0.125704 0.125704 0.125704
0.128911 0.128911 0.128911
0.134572 0.134572 0.134572
0.143123 0.143123 0.143123
0.153791 0.153791 0.153791
0.166121 0.166121 0.166121
0.193706 0.193706 0.193706
0.201925 0.201925 0.201925
0.218772 0.218772 0.218772
0.247302 0.247302 0.247302
0.263520 0.263520 0.263520
0.275860 0.275860 0.275860
0.293078 0.293078 0.293078
0.316399 0.316399 0.316399
0.332523 0.332523 0.332523
0.346489 0.346489 0.346489
0.365004 0.365004 0.365004
0.387026 0.387026 0.387026
0.405325 0.405325 0.405325
0.427994 0.427994 0.427994
0.454331 0.454331 0.454331
0.481755 0.481755 0.481755
0.508187 0.508187 0.508187
0.531300 0.531300 0.531300
0.553346 0.553346 0.553346
0.579615 0.579615 0.579615
0.598446 0.598446 0.598446
0.634164 0.634164 0.634164
0.634096 0.634096 0.634096
0.634092 0.634092 0.634092
0.699309 0.699309 0.699309
0.699312 0.699312 0.699312
0.159625 0.159625 0.159625
0.159855 0.159855 0.159855
0.162740 0.162740 0.162740
0.167144 0.167144 0.167144
0.174014 0.174014 0.174014
0.183557 0.183557 0.183557
0.194721 0.194721 0.194721
0.207789 0.207789 0.207789
0.213975 0.213975 0.213975
0.229714 0.229714 0.229714
0.258292 0.258292 0.258292
0.274254 0.274254 0.274254
0.287135 0.287135 0.287135
0.305102 0.305102 0.305102
0.329344 0.329344 0.329344
0.343257 0.343257 0.343257
0.356908 0.356908 0.356908
0.374606 0.374606 0.374606
0.395247 0.395247 0.395247
0.411391 0.411391 0.411391
0.433907 0.433907 0.433907
0.459502 0.459502 0.459502
0.486645 0.486645 0.486645
0.512226 0.512226 0.512226
0.535667 0.535667 0.535667
0.557674 0.557674 0.557674
0.583278 0.583278 0.583278
0.602732 0.602732 0.602732
0.634300 0.634300 0.634300
0.634107 0.634107 0.634107
0.634096 0.634096 0.634096
0.699311 0.699311 0.699311
0.699312 0.699312 0.699312
0.175489 0.175489 0.175489
0.175643 0.175643 0.175643
0.177375 0.177375 0.177375
0.181336 0.181336 0.181336
0.187108 0.187108 0.187108
0.194486 0.194486 0.194486
0.204064 0.204064 0.204064
0.214983 0.214983 0.214983
0.227637 0.227637 0.227637
0.242125 0.242125 0.242125
0.270130 0.270130 0.270130
0.285404 0.285404 0.285404
0.298113 0.298113 0.298113
0.316167 0.316167 0.316167
0.340608 0.340608 0.340608
0.354455 0.354455 0.354455
0.367947 0.367947 0.367947
0.384493 0.384493 0.384493
0.404107 0.404107 0.404107
0.420818 0.420818 0.420818
0.442935 0.442935 0.442935
0.466729 0.466729 0.466729
0.492571 0.492571 0.492571
0.516608 0.516608 0.516608
0.539623 0.539623 0.539623
0.562119 0.562119 0.562119
0.588067 0.588067 0.588067
0.609353 0.609353 0.609353
0.638271 0.638271 0.638271
0.634246 0.634246 0.634246
0.634125 0.634125 0.634125
0.699311 0.699311 0.699311
0.699312 0.699312 0.699312
0.197804 0.197804 0.197804
0.197917 0.197917 0.197917
0.199044 0.199044 0.199044
0.202473 0.202473 0.202473
0.207194 0.207194 0.207194
0.213827 0.213827 0.213827
0.221972 0.221972 0.221972
0.231869 0.231869 0.231869
0.243149 0.243149 0.243149
0.255937 0.255937 0.255937
0.283050 0.283050 0.283050
0.297387 0.297387 0.297387
0.309153 0.309153 0.309153
0.327273 0.327273 0.327273
0.351434 0.351434 0.351434
0.365416 0.365416 0.365416
0.378484 0.378484 0.378484
0.394634 0.394634 0.394634
0.414548 0.414548 0.414548
0.432441 0.432441 0.432441
0.452133 0.452133 0.452133
0.475437 0.475437 0.475437
0.500122 0.500122 0.500122
0.522849 0.522849 0.522849
0.545074 0.545074 0.545074
0.567196 0.567196 0.567196
0.592811 0.592811 0.592811
0.614004 0.614004 0.614004
0.638617 0.638617 0.638617
0.658886 0.658886 0.658886
0.680162 0.680162 0.680162
0.699312 0.699312 0.699312
0.699312 0.699312 0.699312
0.230181 0.230181 0.230181
0.230293 0.230293 0.230293
0.231224 0.231224 0.231224
0.234823 0.234823 0.234823
0.239163 0.239163 0.239163
0.244761 0.244761 0.244761
0.252397 0.252397 0.252397
0.261453 0.261453 0.261453
0.272059 0.272059 0.272059
0.284090 0.284090 0.284090
0.297400 0.297400 0.297400
0.310286 0.310286 0.310286
0.321430 0.321430 0.321430
0.338450 0.338450 0.338450
0.362366 0.362366 0.362366
0.375796 0.375796 0.375796
0.388693 0.388693 0.388693
0.404957 0.404957 0.404957
0.428127 0.428127 0.428127
0.444530 0.444530 0.444530
0.463710 0.463710 0.463710
0.486112 0.486112 0.486112
0.508270 0.508270 0.508270
0.529804 0.529804 0.529804
0.551838 0.551838 0.551838
0.574149 0.574149 0.574149
0.599240 0.599240 0.599240
0.620307 0.620307 0.620307
0.644140 0.644140 0.644140
0.663974 0.663974 0.663974
0.681762 0.681762 0.681762
0.699312 0.699312 0.699312
0.699313 0.699313 0.699313
0.251662 0.251662 0.251662
0.251749 0.251749 0.251749
0.252402 0.252402 0.252402
0.255224 0.255224 0.255224
0.258765 0.258765 0.258765
0.264084 0.264084 0.264084
0.271175 0.271175 0.271175
0.279058 0.279058 0.279058
0.288534 0.288534 0.288534
0.299303 0.299303 0.299303
0.311299 0.311299 0.311299
0.325000 0.325000 0.325000
0.334398 0.334398 0.334398
0.350301 0.350301 0.350301
0.373422 0.373422 0.373422
0.386123 0.386123 0.386123
0.399052 0.399052 0.399052
0.415896 0.415896 0.415896
0.441522 0.441522 0.441522
0.457574 0.457574 0.457574
0.476638 0.476638 0.476638
0.497093 0.497093 0.497093
0.518273 0.518273 0.518273
0.538670 0.538670 0.538670
0.559391 0.559391 0.559391
0.580926 0.580926 0.580926
0.606341 0.606341 0.606341
0.628274 0.628274 0.628274
0.651951 0.651951 0.651951
0.671499 0.671499 0.671499
0.685810 0.685810 0.685810
0.699313 0.699313 0.699313
0.699315 0.699315 0.699315
0.270277 0.270277 0.270277
0.270350 0.270350 0.270350
0.270851 0.270851 0.270851
0.272893 0.272893 0.272893
0.276406 0.276406 0.276406
0.281209 0.281209 0.281209
0.287002 0.287002 0.287002
0.294112 0.294112 0.294112
0.302665 0.302665 0.302665
0.312300 0.312300 0.312300
0.323488 0.323488 0.323488
0.335373 0.335373 0.335373
0.348116 0.348116 0.348116
0.362816 0.362816 0.362816
0.385182 0.385182 0.385182
0.397392 0.397392 0.397392
0.409785 0.409785 0.409785
0.429523 0.429523 0.429523
0.455245 0.455245 0.455245
0.471147 0.471147 0.471147
0.489508 0.489508 0.489508
0.509017 0.509017 0.509017
0.529677 0.529677 0.529677
0.548133 0.548133 0.548133
0.568410 0.568410 0.568410
0.590260 0.590260 0.590260
0.614278 0.614278 0.614278
0.635647 0.635647 0.635647
0.659381 0.659381 0.659381
0.680237 0.680237 0.680237
0.699013 0.699013 0.699013
0.699329 0.699329 0.699329
0.699327 0.699327 0.699327
0.293450 0.293450 0.293450
0.293519 0.293519 0.293519
0.293941 0.293941 0.293941
0.295514 0.295514 0.295514
0.299215 0.299215 0.299215
0.303104 0.303104 0.303104
0.308241 0.308241 0.308241
0.314923 0.314923 0.314923
0.322995 0.322995 0.322995
0.331935 0.331935 0.331935
0.341501 0.341501 0.341501
0.352234 0.352234 0.352234
0.363780 0.363780 0.363780
0.376195 0.376195 0.376195
0.397468 0.397468 0.397468
0.409261 0.409261 0.409261
0.422878 0.422878 0.422878
0.443067 0.443067 0.443067
0.468934 0.468934 0.468934
0.485132 0.485132 0.485132
0.502521 0.502521 0.502521
0.521696 0.521696 0.521696
0.541406 0.541406 0.541406
0.559245 0.559245 0.559245
0.578653 0.578653 0.578653
0.599908 0.599908 0.599908
0.623439 0.623439 0.623439
0.644990 0.644990 0.644990
0.667940 0.667940 0.667940
0.687015 0.687015 0.687015
0.704928 0.704928 0.704928
0.720749 0.720749 0.720749
0.735805 0.735805 0.735805
0.322442 0.322442 0.322442
0.322526 0.322526 0.322526
0.322962 0.322962 0.322962
0.324375 0.324375 0.324375
0.328265 0.328265 0.328265
0.331598 0.331598 0.331598
0.336613 0.336613 0.336613
0.342481 0.342481 0.342481
0.349460 0.349460 0.349460
0.357496 0.357496 0.357496
0.366612 0.366612 0.366612
0.376250 0.376250 0.376250
0.386868 0.386868 0.386868
0.398345 0.398345 0.398345
0.410765 0.410765 0.410765
0.423578 0.423578 0.423578
0.438139 0.438139 0.438139
0.457880 0.457880 0.457880
0.483419 0.483419 0.483419
0.498836 0.498836 0.498836
0.515737 0.515737 0.515737
0.534935 0.534935 0.534935
0.554210 0.554210 0.554210
0.571505 0.571505 0.571505
0.590250 0.590250 0.590250
0.611326 0.611326 0.611326
0.633683 0.633683 0.633683
0.654349 0.654349 0.654349
0.677430 0.677430 0.677430
0.695694 0.695694 0.695694
0.712998 0.712998 0.712998
0.727499 0.727499 0.727499
0.737767 0.737767 0.737767
0.342664 0.342664 0.342664
0.342732 0.342732 0.342732
0.343074 0.343074 0.343074
0.344125 0.344125 0.344125
0.346896 0.346896 0.346896
0.350234 0.350234 0.350234
0.355270 0.355270 0.355270
0.359999 0.359999 0.359999
0.366241 0.366241 0.366241
0.373573 0.373573 0.373573
0.381507 0.381507 0.381507
0.390312 0.390312 0.390312
0.400244 0.400244 0.400244
0.410924 0.410924 0.410924
0.424748 0.424748 0.424748
0.440556 0.440556 0.440556
0.454100 0.454100 0.454100
0.473352 0.473352 0.473352
0.498265 0.498265 0.498265
0.512878 0.512878 0.512878
0.529209 0.529209 0.529209
0.548418 0.548418 0.548418
0.567690 0.567690 0.567690
0.584493 0.584493 0.584493
0.603400 0.603400 0.603400
0.623764 0.623764 0.623764
0.644811 0.644811 0.644811
0.665368 0.665368 0.665368
0.686284 0.686284 0.686284
0.703618 0.703618 0.703618
0.721617 0.721617 0.721617
0.737711 0.737711 0.737711
0.744691 0.744691 0.744691
0.362114 0.362114 0.362114
0.362176 0.362176 0.362176
0.362467 0.362467 0.362467
0.363322 0.363322 0.363322
0.365481 0.365481 0.365481
0.368924 0.368924 0.368924
0.372398 0.372398 0.372398
0.377056 0.377056 0.377056
0.382756 0.382756 0.382756
0.389266 0.389266 0.389266
0.396628 0.396628 0.396628
0.404806 0.404806 0.404806
0.414060 0.414060 0.414060
0.426582 0.426582 0.426582
0.440359 0.440359 0.440359
0.455288 0.455288 0.455288
0.471272 0.471272 0.471272
0.489707 0.489707 0.489707
0.512831 0.512831 0.512831
0.526942 0.526942 0.526942
0.543205 0.543205 0.543205
0.562132 0.562132 0.562132
0.581553 0.581553 0.581553
0.598890 0.598890 0.598890
0.617613 0.617613 0.617613
0.637149 0.637149 0.637149
0.657301 0.657301 0.657301
0.676862 0.676862 0.676862
0.695596 0.695596 0.695596
0.713066 0.713066 0.713066
0.730453 0.730453 0.730453
0.745473 0.745473 0.745473
0.759391 0.759391 0.759391
0.383646 0.383646 0.383646
0.383706 0.383706 0.383706
0.383974 0.383974 0.383974
0.384705 0.384705 0.384705
0.386447 0.386447 0.386447
0.390174 0.390174 0.390174
0.392786 0.392786 0.392786
0.397617 0.397617 0.397617
0.402678 0.402678 0.402678
0.408468 0.408468 0.408468
0.415779 0.415779 0.415779
0.425609 0.425609 0.425609
0.436732 0.436732 0.436732
0.448381 0.448381 0.448381
0.461546 0.461546 0.461546
0.475579 0.475579 0.475579
0.490767 0.490767 0.490767
0.506060 0.506060 0.506060
0.528144 0.528144 0.528144
0.541896 0.541896 0.541896
0.557595 0.557595 0.557595
0.576412 0.576412 0.576412
0.596616 0.596616 0.596616
0.613774 0.613774 0.613774
0.632564 0.632564 0.632564
0.651626 0.651626 0.651626
0.670851 0.670851 0.670851
0.687900 0.687900 0.687900
0.705844 0.705844 0.705844
0.722560 0.722560 0.722560
0.740081 0.740081 0.740081
0.755241 0.755241 0.755241
0.767974 0.767974 0.767974
0.407669 0.407669 0.407669
0.407738 0.407738 0.407738
0.408027 0.408027 0.408027
0.408739 0.408739 0.408739
0.410299 0.410299 0.410299
0.413541 0.413541 0.413541
0.417272 0.417272 0.417272
0.422852 0.422852 0.422852
0.428794 0.428794 0.428794
0.436414 0.436414 0.436414
0.444823 0.444823 0.444823
0.454314 0.454314 0.454314
0.464556 0.464556 0.464556
0.475893 0.475893 0.475893
0.488240 0.488240 0.488240
0.501379 0.501379 0.501379
0.514710 0.514710 0.514710
0.528870 0.528870 0.528870
0.544211 0.544211 0.544211
0.557426 0.557426 0.557426
0.572901 0.572901 0.572901
0.591827 0.591827 0.591827
0.612183 0.612183 0.612183
0.629302 0.629302 0.629302
0.647711 0.647711 0.647711
0.666806 0.666806 0.666806
0.684211 0.684211 0.684211
0.699624 0.699624 0.699624
0.716554 0.716554 0.716554
0.733039 0.733039 0.733039
0.749935 0.749935 0.749935
0.764154 0.764154 0.764154
0.778090 0.778090 0.778090
0.430631 0.430631 0.430631
0.430708 0.430708 0.430708
0.431023 0.431023 0.431023
0.431784 0.431784 0.431784
0.433412 0.433412 0.433412
0.436727 0.436727 0.436727
0.440920 0.440920 0.440920
0.445188 0.445188 0.445188
0.451299 0.451299 0.451299
0.458309 0.458309 0.458309
0.465615 0.465615 0.465615
0.474345 0.474345 0.474345
0.484126 0.484126 0.484126
0.494714 0.494714 0.494714
0.505713 0.505713 0.505713
0.517570 0.517570 0.517570
0.530281 0.530281 0.530281
0.543984 0.543984 0.543984
0.558305 0.558305 0.558305
0.573856 0.573856 0.573856
0.589053 0.589053 0.589053
0.608278 0.608278 0.608278
0.628297 0.628297 0.628297
0.645344 0.645344 0.645344
0.663705 0.663705 0.663705
0.681863 0.681863 0.681863
0.697038 0.697038 0.697038
0.711994 0.711994 0.711994
0.728173 0.728173 0.728173
0.744004 0.744004 0.744004
0.759894 0.759894 0.759894
0.774475 0.774475 0.774475
0.787192 0.787192 0.787192
0.456397 0.456397 0.456397
0.456471 0.456471 0.456471
0.456768 0.456768 0.456768
0.457459 0.457459 0.457459
0.458879 0.458879 0.458879
0.461664 0.461664 0.461664
0.466273 0.466273 0.466273
0.469684 0.469684 0.469684
0.476058 0.476058 0.476058
0.481421 0.481421 0.481421
0.488932 0.488932 0.488932
0.497134 0.497134 0.497134
0.505419 0.505419 0.505419
0.514635 0.514635 0.514635
0.524979 0.524979 0.524979
0.536265 0.536265 0.536265
0.548138 0.548138 0.548138
0.561006 0.561006 0.561006
0.575082 0.575082 0.575082
0.590088 0.590088 0.590088
0.606802 0.606802 0.606802
0.625059 0.625059 0.625059
0.644849 0.644849 0.644849
0.661911 0.661911 0.661911
0.679831 0.679831 0.679831
0.695665 0.695665 0.695665
0.710531 0.710531 0.710531
0.724969 0.724969 0.724969
0.740542 0.740542 0.740542
0.754940 0.754940 0.754940
0.770569 0.770569 0.770569
0.784738 0.784738 0.784738
0.795361 0.795361 0.795361
0.483567 0.483567 0.483567
0.483648 0.483648 0.483648
0.483965 0.483965 0.483965
0.484662 0.484662 0.484662
0.486011 0.486011 0.486011
0.488518 0.488518 0.488518
0.493074 0.493074 0.493074
0.496288 0.496288 0.496288
0.501116 0.501116 0.501116
0.506619 0.506619 0.506619
0.513375 0.513375 0.513375
0.520144 0.520144 0.520144
0.528259 0.528259 0.528259
0.537214 0.537214 0.537214
0.546896 0.546896 0.546896
0.557598 0.557598 0.557598
0.568990 0.568990 0.568990
0.581254 0.581254 0.581254
0.595220 0.595220 0.595220
0.610471 0.610471 0.610471
0.626072 0.626072 0.626072
0.642882 0.642882 0.642882
0.661923 0.661923 0.661923
0.678888 0.678888 0.678888
0.693987 0.693987 0.693987
0.709647 0.709647 0.709647
0.724577 0.724577 0.724577
0.738723 0.738723 0.738723
0.753027 0.753027 0.753027
0.766679 0.766679 0.766679
0.781648 0.781648 0.781648
0.793352 0.793352 0.793352
0.803900 0.803900 0.803900
0.510335 0.510335 0.510335
0.510412 0.510412 0.510412
0.510710 0.510710 0.510710
0.511344 0.511344 0.511344
0.512519 0.512519 0.512519
0.514600 0.514600 0.514600
0.518261 0.518261 0.518261
0.522067 0.522067 0.522067
0.526077 0.526077 0.526077
0.532020 0.532020 0.532020
0.537405 0.537405 0.537405
0.544439 0.544439 0.544439
0.552471 0.552471 0.552471
0.560493 0.560493 0.560493
0.569592 0.569592 0.569592
0.579687 0.579687 0.579687
0.591310 0.591310 0.591310
0.603855 0.603855 0.603855
0.617266 0.617266 0.617266
0.631597 0.631597 0.631597
0.646949 0.646949 0.646949
0.662929 0.662929 0.662929
0.679690 0.679690 0.679690
0.693825 0.693825 0.693825
0.708593 0.708593 0.708593
0.723936 0.723936 0.723936
0.738934 0.738934 0.738934
0.752338 0.752338 0.752338
0.766115 0.766115 0.766115
0.779152 0.779152 0.779152
0.791524 0.791524 0.791524
0.802321 0.802321 0.802321
0.812529 0.812529 0.812529
0.536104 0.536104 0.536104
0.536172 0.536172 0.536172
0.536430 0.536430 0.536430
0.536972 0.536972 0.536972
0.537960 0.537960 0.537960
0.539687 0.539687 0.539687
0.542679 0.542679 0.542679
0.546768 0.546768 0.546768
0.550033 0.550033 0.550033
0.555437 0.555437 0.555437
0.560510 0.560510 0.560510
0.567339 0.567339 0.567339
0.573956 0.573956 0.573956
0.582133 0.582133 0.582133
0.591673 0.591673 0.591673
0.601526 0.601526 0.601526
0.612491 0.612491 0.612491
0.624423 0.624423 0.624423
0.637321 0.637321 0.637321
0.651099 0.651099 0.651099
0.665837 0.665837 0.665837
0.680899 0.680899 0.680899
0.694807 0.694807 0.694807
0.709382 0.709382 0.709382
0.723640 0.723640 0.723640
0.738633 0.738633 0.738633
0.753081 0.753081 0.753081
0.766080 0.766080 0.766080
0.779610 0.779610 0.779610
0.790679 0.790679 0.790679
0.801285 0.801285 0.801285
0.811493 0.811493 0.811493
0.821649 0.821649 0.821649
0.560690 0.560690 0.560690
0.560761 0.560761 0.560761
0.561031 0.561031 0.561031
0.561579 0.561579 0.561579
0.562542 0.562542 0.562542
0.564153 0.564153 0.564153
0.566830 0.566830 0.566830
0.571340 0.571340 0.571340
0.574226 0.574226 0.574226
0.578779 0.578779 0.578779
0.584629 0.584629 0.584629
0.590600 0.590600 0.590600
0.597948 0.597948 0.597948
0.606178 0.606178 0.606178
0.614676 0.614676 0.614676
0.624425 0.624425 0.624425
0.635116 0.635116 0.635116
0.646576 0.646576 0.646576
0.658801 0.658801 0.658801
0.671969 0.671969 0.671969
0.684848 0.684848 0.684848
0.697373 0.697373 0.697373
0.710532 0.710532 0.710532
0.724602 0.724602 0.724602
0.739175 0.739175 0.739175
0.753019 0.753019 0.753019
0.767525 0.767525 0.767525
0.780162 0.780162 0.780162
0.791715 0.791715 0.791715
0.801394 0.801394 0.801394
0.811528 0.811528 0.811528
0.821248 0.821248 0.821248
0.830922 0.830922 0.830922
0.585386 0.585386 0.585386
0.585468 0.585468 0.585468
0.585771 0.585771 0.585771
0.586374 0.586374 0.586374
0.587396 0.587396 0.587396
0.589041 0.589041 0.589041
0.591669 0.591669 0.591669
0.595935 0.595935 0.595935
0.599760 0.599760 0.599760
0.604012 0.604012 0.604012
0.610607 0.610607 0.610607
0.615747 0.615747 0.615747
0.623342 0.623342 0.623342
0.630338 0.630338 0.630338
0.639113 0.639113 0.639113
0.648391 0.648391 0.648391
0.658300 0.658300 0.658300
0.669207 0.669207 0.669207
0.680582 0.680582 0.680582
0.691241 0.691241 0.691241
0.702572 0.702572 0.702572
0.714605 0.714605 0.714605
0.727242 0.727242 0.727242
0.740478 0.740478 0.740478
0.753915 0.753915 0.753915
0.767518 0.767518 0.767518
0.782339 0.782339 0.782339
0.792645 0.792645 0.792645
0.803055 0.803055 0.803055
0.812505 0.812505 0.812505
0.822075 0.822075 0.822075
0.831397 0.831397 0.831397
0.840804 0.840804 0.840804
0.616562 0.616562 0.616562
0.616627 0.616627 0.616627
0.616869 0.616869 0.616869
0.617346 0.617346 0.617346
0.618144 0.618144 0.618144
0.619417 0.619417 0.619417
0.621448 0.621448 0.621448
0.624782 0.624782 0.624782
0.628823 0.628823 0.628823
0.632290 0.632290 0.632290
0.637583 0.637583 0.637583
0.643217 0.643217 0.643217
0.649413 0.649413 0.649413
0.656642 0.656642 0.656642
0.664578 0.664578 0.664578
0.673098 0.673098 0.673098
0.682272 0.682272 0.682272
0.691043 0.691043 0.691043
0.700240 0.700240 0.700240
0.710297 0.710297 0.710297
0.721150 0.721150 0.721150
0.732756 0.732756 0.732756
0.744953 0.744953 0.744953
0.757237 0.757237 0.757237
0.770173 0.770173 0.770173
