LUTs/trix_classic/TriX_Orange21_Hard.cube
TITLE "Tri-X Orange21 Hard"
# Adobe RGB in/out. REPLACES AgX. Tri-X Orange21 Hard.
LUT_3D_SIZE 5
DOMAIN_MIN 0.0 0.0 0.0
DOMAIN_MAX 1.0 1.0 1.0
0.093024 0.093024 0.093024
0.093601 0.093601 0.093601
0.257704 0.257704 0.257704
0.915481 0.915481 0.915481
0.992525 0.992525 0.992525
0.093160 0.093160 0.093160
0.097414 0.097414 0.097414
0.400633 0.400633 0.400633
0.922211 0.922211 0.922211
0.992525 0.992525 0.992525
0.094912 0.094912 0.094912
0.130159 0.130159 0.130159
0.596013 0.596013 0.596013
0.958312 0.958312 0.958312
0.995029 0.995029 0.995029
0.147604 0.147604 0.147604
0.283583 0.283583 0.283583
0.793037 0.793037 0.793037
0.980506 0.980506 0.980506
0.996292 0.996292 0.996292
0.347232 0.347232 0.347232
0.765220 0.765220 0.765220
0.927373 0.927373 0.927373
0.988485 0.988485 0.988485
0.997873 0.997873 0.997873
0.093024 0.093024 0.093024
0.093427 0.093427 0.093427
0.236022 0.236022 0.236022
0.913430 0.913430 0.913430
0.992525 0.992525 0.992525
0.093303 0.093303 0.093303
0.099130 0.099130 0.099130
0.325998 0.325998 0.325998
0.921106 0.921106 0.921106
0.992525 0.992525 0.992525
0.097045 0.097045 0.097045
0.139889 0.139889 0.139889
0.577951 0.577951 0.577951
0.952476 0.952476 0.952476
0.995000 0.995000 0.995000
0.181393 0.181393 0.181393
0.317218 0.317218 0.317218
0.794962 0.794962 0.794962
0.979768 0.979768 0.979768
0.996327 0.996327 0.996327
0.347296 0.347296 0.347296
0.765222 0.765222 0.765222
0.929880 0.929880 0.929880
0.988813 0.988813 0.988813
0.997876 0.997876 0.997876
0.093054 0.093054 0.093054
0.094503 0.094503 0.094503
0.242205 0.242205 0.242205
0.910078 0.910078 0.910078
0.992525 0.992525 0.992525
0.093389 0.093389 0.093389
0.098056 0.098056 0.098056
0.319921 0.319921 0.319921
0.919458 0.919458 0.919458
0.992526 0.992526 0.992526
0.099771 0.099771 0.099771
0.150278 0.150278 0.150278
0.588577 0.588577 0.588577
0.950019 0.950019 0.950019
0.994919 0.994919 0.994919
0.227948 0.227948 0.227948
0.362819 0.362819 0.362819
0.803990 0.803990 0.803990
0.978415 0.978415 0.978415
0.996338 0.996338 0.996338
0.595982 0.595982 0.595982
0.712532 0.712532 0.712532
0.937040 0.937040 0.937040
0.989568 0.989568 0.989568
0.997890 0.997890 0.997890
0.093138 0.093138 0.093138
0.095074 0.095074 0.095074
0.270683 0.270683 0.270683
0.910324 0.910324 0.910324
0.992525 0.992525 0.992525
0.093437 0.093437 0.093437
0.098303 0.098303 0.098303
0.342013 0.342013 0.342013
0.920078 0.920078 0.920078
0.992521 0.992521 0.992521
0.102331 0.102331 0.102331
0.159249 0.159249 0.159249
0.570015 0.570015 0.570015
0.949689 0.949689 0.949689
0.994896 0.994896 0.994896
0.248517 0.248517 0.248517
0.383545 0.383545 0.383545
0.808063 0.808063 0.808063
0.977336 0.977336 0.977336
0.996358 0.996358 0.996358
0.617914 0.617914 0.617914
0.750204 0.750204 0.750204
0.941658 0.941658 0.941658
0.989982 0.989982 0.989982
0.997901 0.997901 0.997901
0.093371 0.093371 0.093371
0.093904 0.093904 0.093904
0.301122 0.301122 0.301122
0.926240 0.926240 0.926240
0.992525 0.992525 0.992525
0.093904 0.093904 0.093904
0.096038 0.096038 0.096038
0.341085 0.341085 0.341085
0.932759 0.932759 0.932759
0.992526 0.992526 0.992526
0.110662 0.110662 0.110662
0.155765 0.155765 0.155765
0.514270 0.514270 0.514270
0.954605 0.954605 0.954605
0.995688 0.995688 0.995688
0.251448 0.251448 0.251448
0.373383 0.373383 0.373383
0.781253 0.781253 0.781253
0.974589 0.974589 0.974589
0.997112 0.997112 0.997112
0.524064 0.524064 0.524064
0.765223 0.765223 0.765223
0.941838 0.941838 0.941838
0.989757 0.989757 0.989757
0.997914 0.997914 0.997914
