LUTs/trix_classic/TriX_Orange21_Normal.cube
TITLE "Tri-X Orange21 Normal"
# Adobe RGB in/out. REPLACES AgX. Tri-X Orange21 Normal.
LUT_3D_SIZE 33
DOMAIN_MIN 0.0 0.0 0.0
DOMAIN_MAX 1.0 1.0 1.0
0.093230 0.093230 0.093230
0.093230 0.093230 0.093230
0.093230 0.093230 0.093230
0.093230 0.093230 0.093230
0.093288 0.093288 0.093288
0.093560 0.093560 0.093560
0.095141 0.095141 0.095141
0.101456 0.101456 0.101456
0.107685 0.107685 0.107685
0.124085 0.124085 0.124085
0.159872 0.159872 0.159872
0.190841 0.190841 0.190841
0.220845 0.220845 0.220845
0.260895 0.260895 0.260895
0.303675 0.303675 0.303675
0.336022 0.336022 0.336022
0.371180 0.371180 0.371180
0.411981 0.411981 0.411981
0.455628 0.455628 0.455628
0.495355 0.495355 0.495355
0.534327 0.534327 0.534327
0.571785 0.571785 0.571785
0.610761 0.610761 0.610761
0.650973 0.650973 0.650973
0.682694 0.682694 0.682694
0.711026 0.711026 0.711026
0.748357 0.748357 0.748357
0.770473 0.770473 0.770473
0.809695 0.809695 0.809695
0.809682 0.809682 0.809682
0.809681 0.809681 0.809681
0.809682 0.809682 0.809682
0.861509 0.861509 0.861509
0.093230 0.093230 0.093230
0.093230 0.093230 0.093230
0.093230 0.093230 0.093230
0.093240 0.093240 0.093240
0.093473 0.093473 0.093473
0.093729 0.093729 0.093729
0.095699 0.095699 0.095699
0.103025 0.103025 0.103025
0.109801 0.109801 0.109801
0.126538 0.126538 0.126538
0.162335 0.162335 0.162335
0.193229 0.193229 0.193229
0.222728 0.222728 0.222728
0.262464 0.262464 0.262464
0.304608 0.304608 0.304608
0.336714 0.336714 0.336714
0.371703 0.371703 0.371703
0.412353 0.412353 0.412353
0.455884 0.455884 0.455884
0.495498 0.495498 0.495498
0.534406 0.534406 0.534406
0.571850 0.571850 0.571850
0.610816 0.610816 0.610816
0.651010 0.651010 0.651010
0.682741 0.682741 0.682741
0.711084 0.711084 0.711084
0.748391 0.748391 0.748391
0.770533 0.770533 0.770533
0.809695 0.809695 0.809695
0.809682 0.809682 0.809682
0.809681 0.809681 0.809681
0.809682 0.809682 0.809682
0.861510 0.861510 0.861510
0.093230 0.093230 0.093230
0.093230 0.093230 0.093230
0.093230 0.093230 0.093230
0.093262 0.093262 0.093262
0.093945 0.093945 0.093945
0.095081 0.095081 0.095081
0.099451 0.099451 0.099451
0.111693 0.111693 0.111693
0.118389 0.118389 0.118389
0.136423 0.136423 0.136423
0.172681 0.172681 0.172681
0.202499 0.202499 0.202499
0.229973 0.229973 0.229973
0.268460 0.268460 0.268460
0.308153 0.308153 0.308153
0.339341 0.339341 0.339341
0.373687 0.373687 0.373687
0.413765 0.413765 0.413765
0.456855 0.456855 0.456855
0.496041 0.496041 0.496041
0.534712 0.534712 0.534712
0.572096 0.572096 0.572096
0.611020 0.611020 0.611020
0.651149 0.651149 0.651149
0.682913 0.682913 0.682913
0.711296 0.711296 0.711296
0.748515 0.748515 0.748515
0.770752 0.770752 0.770752
0.809697 0.809697 0.809697
0.809682 0.809682 0.809682
0.809681 0.809681 0.809681
0.809683 0.809683 0.809683
0.861511 0.861511 0.861511
0.093230 0.093230 0.093230
0.093230 0.093230 0.093230
0.093241 0.093241 0.093241
0.093271 0.093271 0.093271
0.094693 0.094693 0.094693
0.096305 0.096305 0.096305
0.104436 0.104436 0.104436
0.125782 0.125782 0.125782
0.136065 0.136065 0.136065
0.155953 0.155953 0.155953
0.196366 0.196366 0.196366
0.221827 0.221827 0.221827
0.245558 0.245558 0.245558
0.278260 0.278260 0.278260
0.315542 0.315542 0.315542
0.345027 0.345027 0.345027
0.377819 0.377819 0.377819
0.416708 0.416708 0.416708
0.458869 0.458869 0.458869
0.497185 0.497185 0.497185
0.535356 0.535356 0.535356
0.572603 0.572603 0.572603
0.611429 0.611429 0.611429
0.651421 0.651421 0.651421
0.683245 0.683245 0.683245
0.711700 0.711700 0.711700
0.748754 0.748754 0.748754
0.771167 0.771167 0.771167
0.809699 0.809699 0.809699
0.809683 0.809683 0.809683
0.809682 0.809682 0.809682
0.809684 0.809684 0.809684
0.861512 0.861512 0.861512
0.093230 0.093230 0.093230
0.093239 0.093239 0.093239
0.093271 0.093271 0.093271
0.093726 0.093726 0.093726
0.095360 0.095360 0.095360
0.097796 0.097796 0.097796
0.108293 0.108293 0.108293
0.137396 0.137396 0.137396
0.152038 0.152038 0.152038
0.175689 0.175689 0.175689
0.219902 0.219902 0.219902
0.243512 0.243512 0.243512
0.266815 0.266815 0.266815
0.293514 0.293514 0.293514
0.329108 0.329108 0.329108
0.355518 0.355518 0.355518
0.385375 0.385375 0.385375
0.422092 0.422092 0.422092
0.462528 0.462528 0.462528
0.499303 0.499303 0.499303
0.536558 0.536558 0.536558
0.573513 0.573513 0.573513
0.612133 0.612133 0.612133
0.651873 0.651873 0.651873
0.683777 0.683777 0.683777
0.712343 0.712343 0.712343
0.749139 0.749139 0.749139
0.771821 0.771821 0.771821
0.809704 0.809704 0.809704
0.809683 0.809683 0.809683
0.809682 0.809682 0.809682
0.809702 0.809702 0.809702
0.861512 0.861512 0.861512
0.093242 0.093242 0.093242
0.093249 0.093249 0.093249
0.093275 0.093275 0.093275
0.093726 0.093726 0.093726
0.095230 0.095230 0.095230
0.099219 0.099219 0.099219
0.112457 0.112457 0.112457
0.145710 0.145710 0.145710
0.162164 0.162164 0.162164
0.191600 0.191600 0.191600
0.237948 0.237948 0.237948
0.265645 0.265645 0.265645
0.284596 0.284596 0.284596
0.308990 0.308990 0.308990
0.342336 0.342336 0.342336
0.368113 0.368113 0.368113
0.396423 0.396423 0.396423
0.431014 0.431014 0.431014
0.469017 0.469017 0.469017
0.503150 0.503150 0.503150
0.538759 0.538759 0.538759
0.575106 0.575106 0.575106
0.613298 0.613298 0.613298
0.652580 0.652580 0.652580
0.684571 0.684571 0.684571
0.713287 0.713287 0.713287
0.749708 0.749708 0.749708
0.772778 0.772778 0.772778
0.809714 0.809714 0.809714
0.809684 0.809684 0.809684
0.809682 0.809682 0.809682
0.861484 0.861484 0.861484
0.861513 0.861513 0.861513
0.093268 0.093268 0.093268
0.093273 0.093273 0.093273
0.093523 0.093523 0.093523
0.094319 0.094319 0.094319
0.097645 0.097645 0.097645
0.104037 0.104037 0.104037
0.116778 0.116778 0.116778
0.153125 0.153125 0.153125
0.170442 0.170442 0.170442
0.202233 0.202233 0.202233
0.252177 0.252177 0.252177
0.280249 0.280249 0.280249
0.298826 0.298826 0.298826
0.324068 0.324068 0.324068
0.359051 0.359051 0.359051
0.384335 0.384335 0.384335
0.408508 0.408508 0.408508
0.439466 0.439466 0.439466
0.476434 0.476434 0.476434
0.508752 0.508752 0.508752
0.542606 0.542606 0.542606
0.577954 0.577954 0.577954
0.615251 0.615251 0.615251
0.653680 0.653680 0.653680
0.685720 0.685720 0.685720
0.714623 0.714623 0.714623
0.750498 0.750498 0.750498
0.774140 0.774140 0.774140
0.809739 0.809739 0.809739
0.809687 0.809687 0.809687
0.809683 0.809683 0.809683
0.861511 0.861511 0.861511
0.861513 0.861513 0.861513
0.093526 0.093526 0.093526
0.093605 0.093605 0.093605
0.093971 0.093971 0.093971
0.096066 0.096066 0.096066
0.101549 0.101549 0.101549
0.114012 0.114012 0.114012
0.134757 0.134757 0.134757
0.160909 0.160909 0.160909
0.179037 0.179037 0.179037
0.210856 0.210856 0.210856
0.263056 0.263056 0.263056
0.289405 0.289405 0.289405
0.309918 0.309918 0.309918
0.337315 0.337315 0.337315
0.374505 0.374505 0.374505
0.398379 0.398379 0.398379
0.422348 0.422348 0.422348
0.451710 0.451710 0.451710
0.486617 0.486617 0.486617
0.515734 0.515734 0.515734
0.547265 0.547265 0.547265
0.581616 0.581616 0.581616
0.618161 0.618161 0.618161
0.655487 0.655487 0.655487
0.687360 0.687360 0.687360
0.716466 0.716466 0.716466
0.751494 0.751494 0.751494
0.776062 0.776062 0.776062
0.809842 0.809842 0.809842
0.809695 0.809695 0.809695
0.809686 0.809686 0.809686
0.861512 0.861512 0.861512
0.861513 0.861513 0.861513
0.093755 0.093755 0.093755
0.093818 0.093818 0.093818
0.094427 0.094427 0.094427
0.096610 0.096610 0.096610
0.101968 0.101968 0.101968
0.113724 0.113724 0.113724
0.134015 0.134015 0.134015
0.158961 0.158961 0.158961
0.188032 0.188032 0.188032
0.219774 0.219774 0.219774
0.272537 0.272537 0.272537
0.297566 0.297566 0.297566
0.319274 0.319274 0.319274
0.348147 0.348147 0.348147
0.387342 0.387342 0.387342
0.412183 0.412183 0.412183
0.435839 0.435839 0.435839
0.464113 0.464113 0.464113
0.497599 0.497599 0.497599
0.524775 0.524775 0.524775
0.554643 0.554643 0.554643
0.587000 0.587000 0.587000
0.622156 0.622156 0.622156
0.658286 0.658286 0.658286
0.689525 0.689525 0.689525
0.718693 0.718693 0.718693
0.752905 0.752905 0.752905
0.778586 0.778586 0.778586
0.812855 0.812855 0.812855
0.809801 0.809801 0.809801
0.809709 0.809709 0.809709
0.861513 0.861513 0.861513
0.861513 0.861513 0.861513
0.094397 0.094397 0.094397
0.094626 0.094626 0.094626
0.095534 0.095534 0.095534
0.098697 0.098697 0.098697
0.104763 0.104763 0.104763
0.118484 0.118484 0.118484
0.141029 0.141029 0.141029
0.167042 0.167042 0.167042
0.197819 0.197819 0.197819
0.229124 0.229124 0.229124
0.279757 0.279757 0.279757
0.305425 0.305425 0.305425
0.327238 0.327238 0.327238
0.357226 0.357226 0.357226
0.398302 0.398302 0.398302
0.424384 0.424384 0.424384
0.447947 0.447947 0.447947
0.476213 0.476213 0.476213
0.510262 0.510262 0.510262
0.535254 0.535254 0.535254
0.562404 0.562404 0.562404
0.593797 0.593797 0.593797
0.627817 0.627817 0.627817
0.662256 0.662256 0.662256
0.692412 0.692412 0.692412
0.721456 0.721456 0.721456
0.755251 0.755251 0.755251
0.780364 0.780364 0.780364
0.802556 0.802556 0.802556
0.821134 0.821134 0.821134
0.843246 0.843246 0.843246
0.861513 0.861513 0.861513
0.861513 0.861513 0.861513
0.096796 0.096796 0.096796
0.097257 0.097257 0.097257
0.099018 0.099018 0.099018
0.103786 0.103786 0.103786
0.114628 0.114628 0.114628
0.133680 0.133680 0.133680
0.160122 0.160122 0.160122
0.191291 0.191291 0.191291
0.224202 0.224202 0.224202
0.258128 0.258128 0.258128
0.287558 0.287558 0.287558
0.313055 0.313055 0.313055
0.335097 0.335097 0.335097
0.365760 0.365760 0.365760
0.407967 0.407967 0.407967
0.434194 0.434194 0.434194
0.458468 0.458468 0.458468
0.487695 0.487695 0.487695
0.522593 0.522593 0.522593
0.545789 0.545789 0.545789
0.572226 0.572226 0.572226
0.602400 0.602400 0.602400
0.634399 0.634399 0.634399
0.667245 0.667245 0.667245
0.696122 0.696122 0.696122
0.724971 0.724971 0.724971
0.758109 0.758109 0.758109
0.782556 0.782556 0.782556
0.804382 0.804382 0.804382
0.823038 0.823038 0.823038
0.843870 0.843870 0.843870
0.861513 0.861513 0.861513
0.861514 0.861514 0.861514
0.099676 0.099676 0.099676
0.100058 0.100058 0.100058
0.101815 0.101815 0.101815
0.107473 0.107473 0.107473
0.119359 0.119359 0.119359
0.140498 0.140498 0.140498
0.167645 0.167645 0.167645
0.199270 0.199270 0.199270
0.232052 0.232052 0.232052
0.266448 0.266448 0.266448
0.293819 0.293819 0.293819
0.321155 0.321155 0.321155
0.342770 0.342770 0.342770
0.374303 0.374303 0.374303
0.416854 0.416854 0.416854
0.442683 0.442683 0.442683
0.468015 0.468015 0.468015
0.498347 0.498347 0.498347
0.533475 0.533475 0.533475
0.556652 0.556652 0.556652
0.583073 0.583073 0.583073
0.611571 0.611571 0.611571
0.642645 0.642645 0.642645
0.673039 0.673039 0.673039
0.700663 0.700663 0.700663
0.728960 0.728960 0.728960
0.761338 0.761338 0.761338
0.785071 0.785071 0.785071
0.806549 0.806549 0.806549
0.825488 0.825488 0.825488
0.845447 0.845447 0.845447
0.861514 0.861514 0.861514
0.861515 0.861515 0.861515
0.102694 0.102694 0.102694
0.103263 0.103263 0.103263
0.105462 0.105462 0.105462
0.112314 0.112314 0.112314
0.125593 0.125593 0.125593
0.146551 0.146551 0.146551
0.172215 0.172215 0.172215
0.203822 0.203822 0.203822
0.236600 0.236600 0.236600
0.270761 0.270761 0.270761
0.296768 0.296768 0.296768
0.323294 0.323294 0.323294
0.351422 0.351422 0.351422
0.382576 0.382576 0.382576
0.425520 0.425520 0.425520
0.451356 0.451356 0.451356
0.476936 0.476936 0.476936
0.508130 0.508130 0.508130
0.543540 0.543540 0.543540
0.567181 0.567181 0.567181
0.593239 0.593239 0.593239
0.621817 0.621817 0.621817
0.652244 0.652244 0.652244
0.679457 0.679457 0.679457
0.706186 0.706186 0.706186
0.733853 0.733853 0.733853
0.764947 0.764947 0.764947
0.787601 0.787601 0.787601
0.808864 0.808864 0.808864
0.828142 0.828142 0.828142
0.849181 0.849181 0.849181
0.861526 0.861526 0.861526
0.861525 0.861525 0.861525
0.108563 0.108563 0.108563
0.109464 0.109464 0.109464
0.112855 0.112855 0.112855
0.120275 0.120275 0.120275
0.136552 0.136552 0.136552
0.157141 0.157141 0.157141
0.183771 0.183771 0.183771
0.215453 0.215453 0.215453
0.248430 0.248430 0.248430
0.279494 0.279494 0.279494
0.306051 0.306051 0.306051
0.333246 0.333246 0.333246
0.361632 0.361632 0.361632
0.391428 0.391428 0.391428
0.433397 0.433397 0.433397
0.459742 0.459742 0.459742
0.485404 0.485404 0.485404
0.516658 0.516658 0.516658
0.552487 0.552487 0.552487
0.577111 0.577111 0.577111
0.603497 0.603497 0.603497
0.632375 0.632375 0.632375
0.661948 0.661948 0.661948
0.687002 0.687002 0.687002
0.712673 0.712673 0.712673
0.739368 0.739368 0.739368
0.769145 0.769145 0.769145
0.790437 0.790437 0.790437
0.811439 0.811439 0.811439
0.830727 0.830727 0.830727
0.851455 0.851455 0.851455
0.871105 0.871105 0.871105
0.887986 0.887986 0.887986
0.120792 0.120792 0.120792
0.121980 0.121980 0.121980
0.126454 0.126454 0.126454
0.135627 0.135627 0.135627
0.154065 0.154065 0.154065
0.174425 0.174425 0.174425
0.203785 0.203785 0.203785
0.235042 0.235042 0.235042
0.269079 0.269079 0.269079
0.296118 0.296118 0.296118
0.323880 0.323880 0.323880
0.352148 0.352148 0.352148
0.381815 0.381815 0.381815
0.412001 0.412001 0.412001
0.441748 0.441748 0.441748
0.467635 0.467635 0.467635
0.493882 0.493882 0.493882
0.525069 0.525069 0.525069
0.561176 0.561176 0.561176
0.586211 0.586211 0.586211
0.613315 0.613315 0.613315
0.642818 0.642818 0.642818
0.671702 0.671702 0.671702
0.695322 0.695322 0.695322
0.719856 0.719856 0.719856
0.745792 0.745792 0.745792
0.774008 0.774008 0.774008
0.793664 0.793664 0.793664
0.814234 0.814234 0.814234
0.833551 0.833551 0.833551
0.854098 0.854098 0.854098
0.873416 0.873416 0.873416
0.888699 0.888699 0.888699
0.132129 0.132129 0.132129
0.133242 0.133242 0.133242
0.137567 0.137567 0.137567
0.146905 0.146905 0.146905
0.163419 0.163419 0.163419
0.185696 0.185696 0.185696
0.215166 0.215166 0.215166
0.244038 0.244038 0.244038
0.275707 0.275707 0.275707
0.302499 0.302499 0.302499
0.329713 0.329713 0.329713
0.357953 0.357953 0.357953
0.387774 0.387774 0.387774
0.417982 0.417982 0.417982
0.446910 0.446910 0.446910
0.476110 0.476110 0.476110
0.502046 0.502046 0.502046
0.533129 0.533129 0.533129
0.569590 0.569590 0.569590
0.595247 0.595247 0.595247
0.622487 0.622487 0.622487
0.652633 0.652633 0.652633
0.680640 0.680640 0.680640
0.703809 0.703809 0.703809
0.727835 0.727835 0.727835
0.752983 0.752983 0.752983
0.779228 0.779228 0.779228
0.797180 0.797180 0.797180
0.817281 0.817281 0.817281
0.836384 0.836384 0.836384
0.856769 0.856769 0.856769
0.876082 0.876082 0.876082
0.890549 0.890549 0.890549
0.144605 0.144605 0.144605
0.145771 0.145771 0.145771
0.150115 0.150115 0.150115
0.158806 0.158806 0.158806
0.174667 0.174667 0.174667
0.198502 0.198502 0.198502
0.223371 0.223371 0.223371
0.253034 0.253034 0.253034
0.282247 0.282247 0.282247
0.308513 0.308513 0.308513
0.335431 0.335431 0.335431
0.364033 0.364033 0.364033
0.393931 0.393931 0.393931
0.423535 0.423535 0.423535
0.452137 0.452137 0.452137
0.481187 0.481187 0.481187
0.510633 0.510633 0.510633
0.541105 0.541105 0.541105
0.577498 0.577498 0.577498
0.603425 0.603425 0.603425
0.631303 0.631303 0.631303
0.661761 0.661761 0.661761
0.689154 0.689154 0.689154
0.712396 0.712396 0.712396
0.736326 0.736326 0.736326
0.760749 0.760749 0.760749
0.783665 0.783665 0.783665
0.800983 0.800983 0.800983
0.820565 0.820565 0.820565
0.839319 0.839319 0.839319
0.859465 0.859465 0.859465
0.878590 0.878590 0.878590
0.893802 0.893802 0.893802
0.160562 0.160562 0.160562
0.161688 0.161688 0.161688
0.165924 0.165924 0.165924
0.175035 0.175035 0.175035
0.190894 0.190894 0.190894
0.215615 0.215615 0.215615
0.237762 0.237762 0.237762
0.268973 0.268973 0.268973
0.293210 0.293210 0.293210
0.318629 0.318629 0.318629
0.345834 0.345834 0.345834
0.374967 0.374967 0.374967
0.405021 0.405021 0.405021
0.433823 0.433823 0.433823
0.462481 0.462481 0.462481
0.491259 0.491259 0.491259
0.520572 0.520572 0.520572
0.549335 0.549335 0.549335
0.585387 0.585387 0.585387
0.611686 0.611686 0.611686
0.639642 0.639642 0.639642
0.670291 0.670291 0.670291
0.697192 0.697192 0.697192
0.720683 0.720683 0.720683
0.744951 0.744951 0.744951
0.768560 0.768560 0.768560
0.788625 0.788625 0.788625
0.805250 0.805250 0.805250
0.824019 0.824019 0.824019
0.842550 0.842550 0.842550
0.862318 0.862318 0.862318
0.880744 0.880744 0.880744
0.895581 0.895581 0.895581
0.182195 0.182195 0.182195
0.183449 0.183449 0.183449
0.188092 0.188092 0.188092
0.197231 0.197231 0.197231
0.211905 0.211905 0.211905
0.234852 0.234852 0.234852
0.258636 0.258636 0.258636
0.284085 0.284085 0.284085
0.307421 0.307421 0.307421
0.333882 0.333882 0.333882
0.362166 0.362166 0.362166
0.391471 0.391471 0.391471
0.420953 0.420953 0.420953
0.449214 0.449214 0.449214
0.477780 0.477780 0.477780
0.507311 0.507311 0.507311
0.535631 0.535631 0.535631
0.564143 0.564143 0.564143
0.593378 0.593378 0.593378
0.619737 0.619737 0.619737
0.648108 0.648108 0.648108
0.677681 0.677681 0.677681
0.704906 0.704906 0.704906
0.728819 0.728819 0.728819
0.753094 0.753094 0.753094
0.776464 0.776464 0.776464
0.793864 0.793864 0.793864
0.809921 0.809921 0.809921
0.827979 0.827979 0.827979
0.845875 0.845875 0.845875
0.865314 0.865314 0.865314
0.882767 0.882767 0.882767
0.897408 0.897408 0.897408
0.199456 0.199456 0.199456
0.200668 0.200668 0.200668
0.204949 0.204949 0.204949
0.213143 0.213143 0.213143
0.226660 0.226660 0.226660
0.247789 0.247789 0.247789
0.272585 0.272585 0.272585
0.292370 0.292370 0.292370
0.316653 0.316653 0.316653
0.342490 0.342490 0.342490
0.369258 0.369258 0.369258
0.397999 0.397999 0.397999
0.427350 0.427350 0.427350
0.455446 0.455446 0.455446
0.484061 0.484061 0.484061
0.513137 0.513137 0.513137
0.541215 0.541215 0.541215
0.569742 0.569742 0.569742
0.598437 0.598437 0.598437
0.628053 0.628053 0.628053
0.656221 0.656221 0.656221
0.684966 0.684966 0.684966
0.712338 0.712338 0.712338
0.736663 0.736663 0.736663
0.761273 0.761273 0.761273
0.782686 0.782686 0.782686
0.799250 0.799250 0.799250
0.814880 0.814880 0.814880
0.832162 0.832162 0.832162
0.849334 0.849334 0.849334
0.868397 0.868397 0.868397
0.884780 0.884780 0.884780
0.899193 0.899193 0.899193
0.217950 0.217950 0.217950
0.219053 0.219053 0.219053
0.223108 0.223108 0.223108
0.230972 0.230972 0.230972
0.243810 0.243810 0.243810
0.263554 0.263554 0.263554
0.285472 0.285472 0.285472
0.303496 0.303496 0.303496
0.328910 0.328910 0.328910
0.351758 0.351758 0.351758
0.379680 0.379680 0.379680
0.408938 0.408938 0.408938
0.436657 0.436657 0.436657
0.464190 0.464190 0.464190
0.492559 0.492559 0.492559
0.521317 0.521317 0.521317
0.548836 0.548836 0.548836
0.576884 0.576884 0.576884
0.605932 0.605932 0.605932
0.634780 0.634780 0.634780
0.664692 0.664692 0.664692
0.691907 0.691907 0.691907
0.719454 0.719454 0.719454
0.744240 0.744240 0.744240
0.768650 0.768650 0.768650
0.788344 0.788344 0.788344
0.804778 0.804778 0.804778
0.820096 0.820096 0.820096
0.836608 0.836608 0.836608
0.853123 0.853123 0.853123
0.871483 0.871483 0.871483
0.886854 0.886854 0.886854
0.900929 0.900929 0.900929
0.239352 0.239352 0.239352
0.240430 0.240430 0.240430
0.244384 0.244384 0.244384
0.252010 0.252010 0.252010
0.264352 0.264352 0.264352
0.279645 0.279645 0.279645
0.300089 0.300089 0.300089
0.317916 0.317916 0.317916
0.340515 0.340515 0.340515
0.365646 0.365646 0.365646
0.393686 0.393686 0.393686
0.420412 0.420412 0.420412
0.447847 0.447847 0.447847
0.475764 0.475764 0.475764
0.503854 0.503854 0.503854
0.531767 0.531767 0.531767
0.559272 0.559272 0.559272
0.587147 0.587147 0.587147
0.615550 0.615550 0.615550
0.644884 0.644884 0.644884
0.673129 0.673129 0.673129
0.699104 0.699104 0.699104
0.726409 0.726409 0.726409
0.751560 0.751560 0.751560
0.775768 0.775768 0.775768
0.793680 0.793680 0.793680
0.810338 0.810338 0.810338
0.825541 0.825541 0.825541
0.841412 0.841412 0.841412
0.857186 0.857186 0.857186
0.874795 0.874795 0.874795
0.888950 0.888950 0.888950
0.902580 0.902580 0.902580
0.262583 0.262583 0.262583
0.263636 0.263636 0.263636
0.267491 0.267491 0.267491
0.273744 0.273744 0.273744
0.282312 0.282312 0.282312
0.295429 0.295429 0.295429
0.314405 0.314405 0.314405
0.333965 0.333965 0.333965
0.355002 0.355002 0.355002
0.381909 0.381909 0.381909
0.406557 0.406557 0.406557
0.434089 0.434089 0.434089
0.461667 0.461667 0.461667
0.487991 0.487991 0.487991
0.515603 0.515603 0.515603
0.542774 0.542774 0.542774
0.570331 0.570331 0.570331
0.598166 0.598166 0.598166
0.626363 0.626363 0.626363
0.655108 0.655108 0.655108
0.682200 0.682200 0.682200
0.707600 0.707600 0.707600
0.733497 0.733497 0.733497
0.758860 0.758860 0.758860
0.781645 0.781645 0.781645
0.798818 0.798818 0.798818
0.815729 0.815729 0.815729
0.830965 0.830965 0.830965
0.846599 0.846599 0.846599
0.861594 0.861594 0.861594
0.878367 0.878367 0.878367
0.891032 0.891032 0.891032
0.904431 0.904431 0.904431
0.280992 0.280992 0.280992
0.281720 0.281720 0.281720
0.284425 0.284425 0.284425
0.289669 0.289669 0.289669
0.297986 0.297986 0.297986
0.310229 0.310229 0.310229
0.327742 0.327742 0.327742
0.349420 0.349420 0.349420
0.368727 0.368727 0.368727
0.394903 0.394903 0.394903
0.419179 0.419179 0.419179
0.446447 0.446447 0.446447
0.471042 0.471042 0.471042
0.498409 0.498409 0.498409
0.526216 0.526216 0.526216
0.552382 0.552382 0.552382
0.579283 0.579283 0.579283
0.606776 0.606776 0.606776
0.634790 0.634790 0.634790
0.663268 0.663268 0.663268
0.689120 0.689120 0.689120
0.714328 0.714328 0.714328
0.740096 0.740096 0.740096
0.765927 0.765927 0.765927
0.786671 0.786671 0.786671
0.803858 0.803858 0.803858
0.821028 0.821028 0.821028
0.836310 0.836310 0.836310
0.851820 0.851820 0.851820
0.866338 0.866338 0.866338
0.881478 0.881478 0.881478
0.893260 0.893260 0.893260
0.906237 0.906237 0.906237
0.298882 0.298882 0.298882
0.299598 0.299598 0.299598
0.302208 0.302208 0.302208
0.307172 0.307172 0.307172
0.315013 0.315013 0.315013
0.326484 0.326484 0.326484
0.342873 0.342873 0.342873
0.367038 0.367038 0.367038
0.384736 0.384736 0.384736
0.408281 0.408281 0.408281
0.433997 0.433997 0.433997
0.457756 0.457756 0.457756
0.483925 0.483925 0.483925
0.510878 0.510878 0.510878
0.536189 0.536189 0.536189
0.562761 0.562761 0.562761
0.589925 0.589925 0.589925
0.617257 0.617257 0.617257
0.644712 0.644712 0.644712
0.672115 0.672115 0.672115
0.696747 0.696747 0.696747
0.721643 0.721643 0.721643
0.746847 0.746847 0.746847
0.772003 0.772003 0.772003
0.791693 0.791693 0.791693
0.808744 0.808744 0.808744
0.826353 0.826353 0.826353
0.841579 0.841579 0.841579
0.857122 0.857122 0.857122
0.871366 0.871366 0.871366
0.884549 0.884549 0.884549
0.895714 0.895714 0.895714
0.907986 0.907986 0.907986
0.318106 0.318106 0.318106
0.318784 0.318784 0.318784
0.321256 0.321256 0.321256
0.325946 0.325946 0.325946
0.333331 0.333331 0.333331
0.344271 0.344271 0.344271
0.360208 0.360208 0.360208
0.382610 0.382610 0.382610
0.402738 0.402738 0.402738
0.424057 0.424057 0.424057
0.450725 0.450725 0.450725
0.471897 0.471897 0.471897
0.499262 0.499262 0.499262
0.522916 0.522916 0.522916
0.549126 0.549126 0.549126
0.575067 0.575067 0.575067
0.600908 0.600908 0.600908
0.627680 0.627680 0.627680
0.654877 0.654877 0.654877
0.680664 0.680664 0.680664
0.704949 0.704949 0.704949
0.729552 0.729552 0.729552
0.754398 0.754398 0.754398
0.778453 0.778453 0.778453
0.796152 0.796152 0.796152
0.813585 0.813585 0.813585
0.831622 0.831622 0.831622
0.846931 0.846931 0.846931
0.862504 0.862504 0.862504
0.876588 0.876588 0.876588
0.887767 0.887767 0.887767
0.898320 0.898320 0.898320
0.910171 0.910171 0.910171
0.339653 0.339653 0.339653
0.340271 0.340271 0.340271
0.342630 0.342630 0.342630
0.347118 0.347118 0.347118
0.354199 0.354199 0.354199
0.364552 0.364552 0.364552
0.379252 0.379252 0.379252
0.400090 0.400090 0.400090
0.422895 0.422895 0.422895
0.440894 0.440894 0.440894
0.464693 0.464693 0.464693
0.488232 0.488232 0.488232
0.512344 0.512344 0.512344
0.537152 0.537152 0.537152
0.562171 0.562171 0.562171
0.586929 0.586929 0.586929
0.613459 0.613459 0.613459
0.639817 0.639817 0.639817
0.665967 0.665967 0.665967
0.689726 0.689726 0.689726
0.713684 0.713684 0.713684
0.738079 0.738079 0.738079
0.762747 0.762747 0.762747
0.784382 0.784382 0.784382
0.801917 0.801917 0.801917
