LUTs/trix_classic/TriX_Red25_ExtraPunchy.cube
TITLE "Tri-X Red25 ExtraPunchy"
# Adobe RGB in/out. REPLACES AgX. Tri-X Red25 ExtraPunchy.
LUT_3D_SIZE 33
DOMAIN_MIN 0.0 0.0 0.0
DOMAIN_MAX 1.0 1.0 1.0
0.092237 0.092237 0.092237
0.092237 0.092237 0.092237
0.092237 0.092237 0.092237
0.092237 0.092237 0.092237
0.092237 0.092237 0.092237
0.092237 0.092237 0.092237
0.092714 0.092714 0.092714
0.096043 0.096043 0.096043
0.100725 0.100725 0.100725
0.114110 0.114110 0.114110
0.159075 0.159075 0.159075
0.202125 0.202125 0.202125
0.249056 0.249056 0.249056
0.315237 0.315237 0.315237
0.408295 0.408295 0.408295
0.490846 0.490846 0.490846
0.579291 0.579291 0.579291
0.677643 0.677643 0.677643
0.764995 0.764995 0.764995
0.825704 0.825704 0.825704
0.870998 0.870998 0.870998
0.902383 0.902383 0.902383
0.928275 0.928275 0.928275
0.950674 0.950674 0.950674
0.962624 0.962624 0.962624
0.970865 0.970865 0.970865
0.979747 0.979747 0.979747
0.981537 0.981537 0.981537
0.984304 0.984304 0.984304
0.984304 0.984304 0.984304
0.984304 0.984304 0.984304
0.984304 0.984304 0.984304
0.984304 0.984304 0.984304
0.092237 0.092237 0.092237
0.092237 0.092237 0.092237
0.092237 0.092237 0.092237
0.092237 0.092237 0.092237
0.092237 0.092237 0.092237
0.092237 0.092237 0.092237
0.092838 0.092838 0.092838
0.096798 0.096798 0.096798
0.101830 0.101830 0.101830
0.115971 0.115971 0.115971
0.161861 0.161861 0.161861
0.204616 0.204616 0.204616
0.251099 0.251099 0.251099
0.316728 0.316728 0.316728
0.409286 0.409286 0.409286
0.491328 0.491328 0.491328
0.579310 0.579310 0.579310
0.677352 0.677352 0.677352
0.764632 0.764632 0.764632
0.825367 0.825367 0.825367
0.870630 0.870630 0.870630
0.902131 0.902131 0.902131
0.928101 0.928101 0.928101
0.950512 0.950512 0.950512
0.962551 0.962551 0.962551
0.970805 0.970805 0.970805
0.979729 0.979729 0.979729
0.981525 0.981525 0.981525
0.984304 0.984304 0.984304
0.984304 0.984304 0.984304
0.984304 0.984304 0.984304
0.984304 0.984304 0.984304
0.984304 0.984304 0.984304
0.092237 0.092237 0.092237
0.092237 0.092237 0.092237
0.092237 0.092237 0.092237
0.092237 0.092237 0.092237
0.092237 0.092237 0.092237
0.092617 0.092617 0.092617
0.094229 0.094229 0.094229
0.102086 0.102086 0.102086
0.107483 0.107483 0.107483
0.125991 0.125991 0.125991
0.172916 0.172916 0.172916
0.214337 0.214337 0.214337
0.258984 0.258984 0.258984
0.322444 0.322444 0.322444
0.413093 0.413093 0.413093
0.493222 0.493222 0.493222
0.579465 0.579465 0.579465
0.676335 0.676335 0.676335
0.763322 0.763322 0.763322
0.824135 0.824135 0.824135
0.869283 0.869283 0.869283
0.901204 0.901204 0.901204
0.927458 0.927458 0.927458
0.949917 0.949917 0.949917
0.962281 0.962281 0.962281
0.970585 0.970585 0.970585
0.979661 0.979661 0.979661
0.981480 0.981480 0.981480
0.984304 0.984304 0.984304
0.984304 0.984304 0.984304
0.984304 0.984304 0.984304
0.984304 0.984304 0.984304
0.984304 0.984304 0.984304
0.092237 0.092237 0.092237
0.092237 0.092237 0.092237
0.092237 0.092237 0.092237
0.092237 0.092237 0.092237
0.092237 0.092237 0.092237
0.092596 0.092596 0.092596
0.095522 0.095522 0.095522
0.108491 0.108491 0.108491
0.120086 0.120086 0.120086
0.143951 0.143951 0.143951
0.196788 0.196788 0.196788
0.235955 0.235955 0.235955
0.276040 0.276040 0.276040
0.334609 0.334609 0.334609
0.421220 0.421220 0.421220
0.497434 0.497434 0.497434
0.580140 0.580140 0.580140
0.674595 0.674595 0.674595
0.760895 0.760895 0.760895
0.821788 0.821788 0.821788
0.866692 0.866692 0.866692
0.899415 0.899415 0.899415
0.926212 0.926212 0.926212
0.948761 0.948761 0.948761
0.961756 0.961756 0.961756
0.970155 0.970155 0.970155
0.979528 0.979528 0.979528
0.981392 0.981392 0.981392
0.984304 0.984304 0.984304
0.984304 0.984304 0.984304
0.984304 0.984304 0.984304
0.984304 0.984304 0.984304
0.984304 0.984304 0.984304
0.092237 0.092237 0.092237
0.092237 0.092237 0.092237
0.092237 0.092237 0.092237
0.092237 0.092237 0.092237
0.092237 0.092237 0.092237
0.092266 0.092266 0.092266
0.094335 0.094335 0.094335
0.107992 0.107992 0.107992
0.126347 0.126347 0.126347
0.158187 0.158187 0.158187
0.217951 0.217951 0.217951
0.256931 0.256931 0.256931
0.296681 0.296681 0.296681
0.354038 0.354038 0.354038
0.436637 0.436637 0.436637
0.505841 0.505841 0.505841
0.582304 0.582304 0.582304
0.672423 0.672423 0.672423
0.757255 0.757255 0.757255
0.818085 0.818085 0.818085
0.862529 0.862529 0.862529
0.896515 0.896515 0.896515
0.924180 0.924180 0.924180
0.946867 0.946867 0.946867
0.960896 0.960896 0.960896
0.969449 0.969449 0.969449
0.979310 0.979310 0.979310
0.981245 0.981245 0.981245
0.984304 0.984304 0.984304
0.984304 0.984304 0.984304
0.984304 0.984304 0.984304
0.984304 0.984304 0.984304
0.984304 0.984304 0.984304
0.092237 0.092237 0.092237
0.092237 0.092237 0.092237
0.092237 0.092237 0.092237
0.092237 0.092237 0.092237
0.092237 0.092237 0.092237
0.092237 0.092237 0.092237
0.093192 0.093192 0.093192
0.102423 0.102423 0.102423
0.119478 0.119478 0.119478
0.157428 0.157428 0.157428
0.223165 0.223165 0.223165
0.271314 0.271314 0.271314
0.314071 0.314071 0.314071
0.370252 0.370252 0.370252
0.448996 0.448996 0.448996
0.515021 0.515021 0.515021
0.586279 0.586279 0.586279
0.670666 0.670666 0.670666
0.752455 0.752455 0.752455
0.812729 0.812729 0.812729
0.856317 0.856317 0.856317
0.892120 0.892120 0.892120
0.921069 0.921069 0.921069
0.943947 0.943947 0.943947
0.959566 0.959566 0.959566
0.968354 0.968354 0.968354
0.978780 0.978780 0.978780
0.981011 0.981011 0.981011
0.984304 0.984304 0.984304
0.984304 0.984304 0.984304
0.984304 0.984304 0.984304
0.984304 0.984304 0.984304
0.984304 0.984304 0.984304
0.092237 0.092237 0.092237
0.092237 0.092237 0.092237
0.092237 0.092237 0.092237
0.092237 0.092237 0.092237
0.092237 0.092237 0.092237
0.092237 0.092237 0.092237
0.092630 0.092630 0.092630
0.097317 0.097317 0.097317
0.108999 0.108999 0.108999
0.143788 0.143788 0.143788
0.213439 0.213439 0.213439
0.270219 0.270219 0.270219
0.318406 0.318406 0.318406
0.379289 0.379289 0.379289
0.461051 0.461051 0.461051
0.525828 0.525828 0.525828
0.590330 0.590330 0.590330
0.669443 0.669443 0.669443
0.748502 0.748502 0.748502
0.807189 0.807189 0.807189
0.848248 0.848248 0.848248
0.885603 0.885603 0.885603
0.916390 0.916390 0.916390
0.939495 0.939495 0.939495
0.957530 0.957530 0.957530
0.966670 0.966670 0.966670
0.977300 0.977300 0.977300
0.980637 0.980637 0.980637
0.984304 0.984304 0.984304
0.984304 0.984304 0.984304
0.984304 0.984304 0.984304
0.984304 0.984304 0.984304
0.984304 0.984304 0.984304
0.092237 0.092237 0.092237
0.092237 0.092237 0.092237
0.092237 0.092237 0.092237
0.092237 0.092237 0.092237
0.092237 0.092237 0.092237
0.092237 0.092237 0.092237
0.092545 0.092545 0.092545
0.094596 0.094596 0.094596
0.102039 0.102039 0.102039
0.127946 0.127946 0.127946
0.193408 0.193408 0.193408
0.253155 0.253155 0.253155
0.308549 0.308549 0.308549
0.376559 0.376559 0.376559
0.463959 0.463959 0.463959
0.528565 0.528565 0.528565
0.592799 0.592799 0.592799
0.669086 0.669086 0.669086
0.744931 0.744931 0.744931
0.801616 0.801616 0.801616
0.842485 0.842485 0.842485
0.880461 0.880461 0.880461
0.910549 0.910549 0.910549
0.933953 0.933953 0.933953
0.952666 0.952666 0.952666
0.964015 0.964015 0.964015
0.974865 0.974865 0.974865
0.980011 0.980011 0.980011
0.984304 0.984304 0.984304
0.984304 0.984304 0.984304
0.984304 0.984304 0.984304
0.984304 0.984304 0.984304
0.984304 0.984304 0.984304
0.092237 0.092237 0.092237
0.092237 0.092237 0.092237
0.092237 0.092237 0.092237
0.092237 0.092237 0.092237
0.092237 0.092237 0.092237
0.092237 0.092237 0.092237
0.092237 0.092237 0.092237
0.093137 0.093137 0.093137
0.097372 0.097372 0.097372
0.113724 0.113724 0.113724
0.171095 0.171095 0.171095
0.229290 0.229290 0.229290
0.289081 0.289081 0.289081
0.360885 0.360885 0.360885
0.453740 0.453740 0.453740
0.523655 0.523655 0.523655
0.590967 0.590967 0.590967
0.666939 0.666939 0.666939
0.741465 0.741465 0.741465
0.794325 0.794325 0.794325
0.835149 0.835149 0.835149
0.874422 0.874422 0.874422
0.904874 0.904874 0.904874
0.929885 0.929885 0.929885
0.949130 0.949130 0.949130
0.961772 0.961772 0.961772
0.972045 0.972045 0.972045
0.978842 0.978842 0.978842
0.984301 0.984301 0.984301
0.984304 0.984304 0.984304
0.984304 0.984304 0.984304
0.984304 0.984304 0.984304
0.984304 0.984304 0.984304
0.092237 0.092237 0.092237
0.092237 0.092237 0.092237
0.092237 0.092237 0.092237
0.092237 0.092237 0.092237
0.092237 0.092237 0.092237
0.092237 0.092237 0.092237
0.092237 0.092237 0.092237
0.092716 0.092716 0.092716
0.095176 0.095176 0.095176
0.104957 0.104957 0.104957
0.149380 0.149380 0.149380
0.203932 0.203932 0.203932
0.262696 0.262696 0.262696
0.336770 0.336770 0.336770
0.433139 0.433139 0.433139
0.508596 0.508596 0.508596
0.580503 0.580503 0.580503
0.659895 0.659895 0.659895
0.737225 0.737225 0.737225
0.787848 0.787848 0.787848
0.829528 0.829528 0.829528
0.867683 0.867683 0.867683
0.897965 0.897965 0.897965
0.924257 0.924257 0.924257
0.944236 0.944236 0.944236
0.959557 0.959557 0.959557
0.970220 0.970220 0.970220
0.977486 0.977486 0.977486
0.981144 0.981144 0.981144
0.982796 0.982796 0.982796
0.984144 0.984144 0.984144
0.984304 0.984304 0.984304
0.984304 0.984304 0.984304
0.092237 0.092237 0.092237
0.092237 0.092237 0.092237
0.092237 0.092237 0.092237
0.092237 0.092237 0.092237
0.092237 0.092237 0.092237
0.092237 0.092237 0.092237
0.092237 0.092237 0.092237
0.092695 0.092695 0.092695
0.094772 0.094772 0.094772
0.103667 0.103667 0.103667
0.132103 0.132103 0.132103
0.180138 0.180138 0.180138
0.235669 0.235669 0.235669
0.309217 0.309217 0.309217
0.405634 0.405634 0.405634
0.484129 0.484129 0.484129
0.561190 0.561190 0.561190
0.646865 0.646865 0.646865
0.730315 0.730315 0.730315
0.780086 0.780086 0.780086
0.823385 0.823385 0.823385
0.860304 0.860304 0.860304
0.892411 0.892411 0.892411
0.919488 0.919488 0.919488
0.938770 0.938770 0.938770
0.956389 0.956389 0.956389
0.967577 0.967577 0.967577
0.975527 0.975527 0.975527
0.980614 0.980614 0.980614
0.982477 0.982477 0.982477
0.984058 0.984058 0.984058
0.984304 0.984304 0.984304
0.984304 0.984304 0.984304
0.092237 0.092237 0.092237
0.092237 0.092237 0.092237
0.092237 0.092237 0.092237
0.092237 0.092237 0.092237
0.092237 0.092237 0.092237
0.092237 0.092237 0.092237
0.092237 0.092237 0.092237
0.092535 0.092535 0.092535
0.093935 0.093935 0.093935
0.099570 0.099570 0.099570
0.117701 0.117701 0.117701
0.159797 0.159797 0.159797
0.209811 0.209811 0.209811
0.281333 0.281333 0.281333
0.374965 0.374965 0.374965
0.453760 0.453760 0.453760
0.535527 0.535527 0.535527
0.625930 0.625930 0.625930
0.716675 0.716675 0.716675
0.770066 0.770066 0.770066
0.817106 0.817106 0.817106
0.853670 0.853670 0.853670
0.886529 0.886529 0.886529
0.913629 0.913629 0.913629
0.933922 0.933922 0.933922
0.952249 0.952249 0.952249
0.964959 0.964959 0.964959
0.972927 0.972927 0.972927
0.979776 0.979776 0.979776
0.981954 0.981954 0.981954
0.983843 0.983843 0.983843
0.984304 0.984304 0.984304
0.984304 0.984304 0.984304
0.092237 0.092237 0.092237
0.092237 0.092237 0.092237
0.092237 0.092237 0.092237
0.092237 0.092237 0.092237
0.092237 0.092237 0.092237
0.092237 0.092237 0.092237
0.092237 0.092237 0.092237
0.092376 0.092376 0.092376
0.093253 0.093253 0.093253
0.096589 0.096589 0.096589
0.107517 0.107517 0.107517
0.137535 0.137535 0.137535
0.187726 0.187726 0.187726
0.253098 0.253098 0.253098
0.344246 0.344246 0.344246
0.422271 0.422271 0.422271
0.505131 0.505131 0.505131
0.598517 0.598517 0.598517
0.696191 0.696191 0.696191
0.757242 0.757242 0.757242
0.809493 0.809493 0.809493
0.846563 0.846563 0.846563
0.880775 0.880775 0.880775
0.907746 0.907746 0.907746
0.928776 0.928776 0.928776
0.946717 0.946717 0.946717
0.962353 0.962353 0.962353
0.970914 0.970914 0.970914
0.979102 0.979102 0.979102
0.981302 0.981302 0.981302
0.982991 0.982991 0.982991
0.984303 0.984303 0.984303
0.984304 0.984304 0.984304
0.092237 0.092237 0.092237
0.092237 0.092237 0.092237
0.092237 0.092237 0.092237
0.092237 0.092237 0.092237
0.092237 0.092237 0.092237
0.092237 0.092237 0.092237
0.092237 0.092237 0.092237
0.092314 0.092314 0.092314
0.092895 0.092895 0.092895
0.095347 0.095347 0.095347
0.103238 0.103238 0.103238
0.126859 0.126859 0.126859
0.169974 0.169974 0.169974
0.228316 0.228316 0.228316
0.314470 0.314470 0.314470
0.390518 0.390518 0.390518
0.472309 0.472309 0.472309
0.567106 0.567106 0.567106
0.671131 0.671131 0.671131
0.741532 0.741532 0.741532
0.798669 0.798669 0.798669
0.838843 0.838843 0.838843
0.875189 0.875189 0.875189
0.901600 0.901600 0.901600
0.923896 0.923896 0.923896
0.942354 0.942354 0.942354
0.959592 0.959592 0.959592
0.968130 0.968130 0.968130
0.977065 0.977065 0.977065
0.980799 0.980799 0.980799
0.982701 0.982701 0.982701
0.983787 0.983787 0.983787
0.984284 0.984284 0.984284
0.092237 0.092237 0.092237
0.092237 0.092237 0.092237
0.092237 0.092237 0.092237
0.092237 0.092237 0.092237
0.092237 0.092237 0.092237
0.092237 0.092237 0.092237
0.092237 0.092237 0.092237
0.092336 0.092336 0.092336
0.092855 0.092855 0.092855
0.095040 0.095040 0.095040
0.102358 0.102358 0.102358
0.122714 0.122714 0.122714
0.163248 0.163248 0.163248
0.218433 0.218433 0.218433
0.287949 0.287949 0.287949
0.359345 0.359345 0.359345
0.439583 0.439583 0.439583
0.535046 0.535046 0.535046
0.643878 0.643878 0.643878
0.722277 0.722277 0.722277
0.782717 0.782717 0.782717
0.830156 0.830156 0.830156
0.868491 0.868491 0.868491
0.895701 0.895701 0.895701
0.919555 0.919555 0.919555
0.937524 0.937524 0.937524
0.956919 0.956919 0.956919
0.966001 0.966001 0.966001
0.974860 0.974860 0.974860
0.980072 0.980072 0.980072
0.982253 0.982253 0.982253
0.983578 0.983578 0.983578
0.984264 0.984264 0.984264
0.092237 0.092237 0.092237
0.092237 0.092237 0.092237
0.092237 0.092237 0.092237
0.092237 0.092237 0.092237
0.092237 0.092237 0.092237
0.092237 0.092237 0.092237
0.092237 0.092237 0.092237
0.092272 0.092272 0.092272
0.092756 0.092756 0.092756
0.094298 0.094298 0.094298
0.099480 0.099480 0.099480
0.113242 0.113242 0.113242
0.146438 0.146438 0.146438
0.195841 0.195841 0.195841
0.258426 0.258426 0.258426
0.331486 0.331486 0.331486
0.407658 0.407658 0.407658
0.502180 0.502180 0.502180
0.611147 0.611147 0.611147
0.695334 0.695334 0.695334
0.764492 0.764492 0.764492
0.820026 0.820026 0.820026
0.859975 0.859975 0.859975
0.889999 0.889999 0.889999
0.915112 0.915112 0.915112
0.933217 0.933217 0.933217
0.952830 0.952830 0.952830
0.963411 0.963411 0.963411
0.972680 0.972680 0.972680
0.979513 0.979513 0.979513
0.981769 0.981769 0.981769
0.983196 0.983196 0.983196
0.984167 0.984167 0.984167
0.092237 0.092237 0.092237
0.092237 0.092237 0.092237
0.092237 0.092237 0.092237
0.092237 0.092237 0.092237
0.092237 0.092237 0.092237
0.092237 0.092237 0.092237
0.092237 0.092237 0.092237
0.092237 0.092237 0.092237
0.092673 0.092673 0.092673
0.093880 0.093880 0.093880
0.097266 0.097266 0.097266
0.107261 0.107261 0.107261
0.133520 0.133520 0.133520
0.176026 0.176026 0.176026
0.232482 0.232482 0.232482
0.301236 0.301236 0.301236
0.378557 0.378557 0.378557
0.468924 0.468924 0.468924
0.577834 0.577834 0.577834
0.666719 0.666719 0.666719
0.745141 0.745141 0.745141
0.808609 0.808609 0.808609
0.850406 0.850406 0.850406
0.883836 0.883836 0.883836
0.909517 0.909517 0.909517
0.929313 0.929313 0.929313
0.948244 0.948244 0.948244
0.961118 0.961118 0.961118
0.970525 0.970525 0.970525
0.978261 0.978261 0.978261
0.981285 0.981285 0.981285
0.982945 0.982945 0.982945
0.983919 0.983919 0.983919
0.092237 0.092237 0.092237
0.092237 0.092237 0.092237
0.092237 0.092237 0.092237
0.092237 0.092237 0.092237
0.092237 0.092237 0.092237
0.092237 0.092237 0.092237
0.092237 0.092237 0.092237
0.092237 0.092237 0.092237
0.092641 0.092641 0.092641
0.093643 0.093643 0.093643
0.096477 0.096477 0.096477
0.104150 0.104150 0.104150
0.126104 0.126104 0.126104
0.163477 0.163477 0.163477
0.215246 0.215246 0.215246
0.279942 0.279942 0.279942
0.353527 0.353527 0.353527
0.438277 0.438277 0.438277
0.545212 0.545212 0.545212
0.637740 0.637740 0.637740
0.724550 0.724550 0.724550
0.792262 0.792262 0.792262
0.839852 0.839852 0.839852
0.876842 0.876842 0.876842
0.903943 0.903943 0.903943
0.925507 0.925507 0.925507
0.944233 0.944233 0.944233
0.958909 0.958909 0.958909
0.968211 0.968211 0.968211
0.976596 0.976596 0.976596
0.980773 0.980773 0.980773
0.982563 0.982563 0.982563
0.983770 0.983770 0.983770
0.092237 0.092237 0.092237
0.092237 0.092237 0.092237
0.092237 0.092237 0.092237
0.092237 0.092237 0.092237
0.092237 0.092237 0.092237
0.092237 0.092237 0.092237
0.092237 0.092237 0.092237
0.092249 0.092249 0.092249
0.092639 0.092639 0.092639
0.093616 0.093616 0.093616
0.096256 0.096256 0.096256
0.103387 0.103387 0.103387
0.122009 0.122009 0.122009
0.156866 0.156866 0.156866
0.205232 0.205232 0.205232
0.268304 0.268304 0.268304
0.338970 0.338970 0.338970
0.420889 0.420889 0.420889
0.514418 0.514418 0.514418
0.604857 0.604857 0.604857
0.696428 0.696428 0.696428
0.772825 0.772825 0.772825
0.828557 0.828557 0.828557
0.868734 0.868734 0.868734
0.897931 0.897931 0.897931
0.921735 0.921735 0.921735
0.940571 0.940571 0.940571
0.956812 0.956812 0.956812
0.966344 0.966344 0.966344
0.974735 0.974735 0.974735
0.980252 0.980252 0.980252
0.982273 0.982273 0.982273
0.983583 0.983583 0.983583
0.092237 0.092237 0.092237
0.092237 0.092237 0.092237
0.092237 0.092237 0.092237
0.092237 0.092237 0.092237
0.092237 0.092237 0.092237
0.092237 0.092237 0.092237
0.092237 0.092237 0.092237
0.092237 0.092237 0.092237
0.092583 0.092583 0.092583
0.093336 0.093336 0.093336
0.095196 0.095196 0.095196
0.100803 0.100803 0.100803
0.113946 0.113946 0.113946
0.143170 0.143170 0.143170
0.187205 0.187205 0.187205
0.243962 0.243962 0.243962
0.311368 0.311368 0.311368
0.388728 0.388728 0.388728
0.476810 0.476810 0.476810
0.573668 0.573668 0.573668
0.668342 0.668342 0.668342
0.752940 0.752940 0.752940
0.816739 0.816739 0.816739
0.858444 0.858444 0.858444
0.891801 0.891801 0.891801
0.917829 0.917829 0.917829
0.936996 0.936996 0.936996
0.953745 0.953745 0.953745
0.964449 0.964449 0.964449
0.972909 0.972909 0.972909
0.979759 0.979759 0.979759
0.981903 0.981903 0.981903
0.983413 0.983413 0.983413
0.092237 0.092237 0.092237
0.092237 0.092237 0.092237
0.092237 0.092237 0.092237
0.092237 0.092237 0.092237
0.092237 0.092237 0.092237
0.092237 0.092237 0.092237
0.092237 0.092237 0.092237
0.092237 0.092237 0.092237
0.092558 0.092558 0.092558
0.093037 0.093037 0.093037
0.094507 0.094507 0.094507
0.099211 0.099211 0.099211
0.109371 0.109371 0.109371
0.133918 0.133918 0.133918
0.173341 0.173341 0.173341
0.225267 0.225267 0.225267
0.288848 0.288848 0.288848
0.361157 0.361157 0.361157
0.446498 0.446498 0.446498
0.540118 0.540118 0.540118
0.641270 0.641270 0.641270
0.732873 0.732873 0.732873
0.804379 0.804379 0.804379
0.847696 0.847696 0.847696
0.885165 0.885165 0.885165
0.913333 0.913333 0.913333
0.933572 0.933572 0.933572
0.950728 0.950728 0.950728
0.962681 0.962681 0.962681
0.971312 0.971312 0.971312
0.979226 0.979226 0.979226
0.981575 0.981575 0.981575
0.983229 0.983229 0.983229
0.092237 0.092237 0.092237
0.092237 0.092237 0.092237
0.092237 0.092237 0.092237
0.092237 0.092237 0.092237
0.092237 0.092237 0.092237
0.092237 0.092237 0.092237
0.092237 0.092237 0.092237
0.092237 0.092237 0.092237
0.092508 0.092508 0.092508
0.092906 0.092906 0.092906
0.094342 0.094342 0.094342
0.097600 0.097600 0.097600
0.106358 0.106358 0.106358
0.127692 0.127692 0.127692
0.163116 0.163116 0.163116
0.210960 0.210960 0.210960
0.271329 0.271329 0.271329
0.340875 0.340875 0.340875
0.421950 0.421950 0.421950
0.515767 0.515767 0.515767
0.612636 0.612636 0.612636
0.708720 0.708720 0.708720
0.785436 0.785436 0.785436
0.836515 0.836515 0.836515
0.877840 0.877840 0.877840
0.907683 0.907683 0.907683
0.930218 0.930218 0.930218
0.947944 0.947944 0.947944
0.961166 0.961166 0.961166
0.969799 0.969799 0.969799
0.978179 0.978179 0.978179
0.981233 0.981233 0.981233
0.983033 0.983033 0.983033
0.092237 0.092237 0.092237
0.092237 0.092237 0.092237
0.092237 0.092237 0.092237
0.092237 0.092237 0.092237
0.092237 0.092237 0.092237
0.092237 0.092237 0.092237
0.092237 0.092237 0.092237
0.092237 0.092237 0.092237
0.092466 0.092466 0.092466
0.092845 0.092845 0.092845
0.094067 0.094067 0.094067
0.097001 0.097001 0.097001
0.104290 0.104290 0.104290
0.121725 0.121725 0.121725
0.153345 0.153345 0.153345
0.197678 0.197678 0.197678
0.255086 0.255086 0.255086
0.322663 0.322663 0.322663
0.400671 0.400671 0.400671
0.490833 0.490833 0.490833
0.588131 0.588131 0.588131
0.685543 0.685543 0.685543
0.766448 0.766448 0.766448
0.825191 0.825191 0.825191
0.869827 0.869827 0.869827
0.901750 0.901750 0.901750
0.926754 0.926754 0.926754
0.945238 0.945238 0.945238
0.959936 0.959936 0.959936
0.968493 0.968493 0.968493
0.976986 0.976986 0.976986
0.980884 0.980884 0.980884
0.982876 0.982876 0.982876
0.092237 0.092237 0.092237
0.092237 0.092237 0.092237
0.092237 0.092237 0.092237
0.092237 0.092237 0.092237
0.092237 0.092237 0.092237
0.092237 0.092237 0.092237
0.092237 0.092237 0.092237
0.092237 0.092237 0.092237
0.092382 0.092382 0.092382
0.092752 0.092752 0.092752
0.093706 0.093706 0.093706
0.096123 0.096123 0.096123
0.101598 0.101598 0.101598
0.114541 0.114541 0.114541
0.142784 0.142784 0.142784
0.183072 0.183072 0.183072
0.235378 0.235378 0.235378
0.299935 0.299935 0.299935
0.374203 0.374203 0.374203
0.460663 0.460663 0.460663
0.557360 0.557360 0.557360
0.657460 0.657460 0.657460
0.745883 0.745883 0.745883
0.813764 0.813764 0.813764
0.859689 0.859689 0.859689
0.895641 0.895641 0.895641
0.923211 0.923211 0.923211
0.942553 0.942553 0.942553
0.958786 0.958786 0.958786
0.967450 0.967450 0.967450
0.975934 0.975934 0.975934
0.980582 0.980582 0.980582
0.982713 0.982713 0.982713
0.092237 0.092237 0.092237
0.092237 0.092237 0.092237
0.092237 0.092237 0.092237
0.092237 0.092237 0.092237
0.092237 0.092237 0.092237
0.092237 0.092237 0.092237
0.092237 0.092237 0.092237
0.092237 0.092237 0.092237
0.092313 0.092313 0.092313
0.092649 0.092649 0.092649
0.093431 0.093431 0.093431
0.095011 0.095011 0.095011
0.099715 0.099715 0.099715
0.109956 0.109956 0.109956
0.132845 0.132845 0.132845
0.170039 0.170039 0.170039
0.219573 0.219573 0.219573
0.282101 0.282101 0.282101
0.352688 0.352688 0.352688
0.435786 0.435786 0.435786
0.530185 0.530185 0.530185
0.631047 0.631047 0.631047
0.726529 0.726529 0.726529
0.799683 0.799683 0.799683
0.849427 0.849427 0.849427
0.889298 0.889298 0.889298
0.919698 0.919698 0.919698
0.939850 0.939850 0.939850
0.957754 0.957754 0.957754
0.966646 0.966646 0.966646
0.975111 0.975111 0.975111
0.980326 0.980326 0.980326
0.982556 0.982556 0.982556
0.092237 0.092237 0.092237
0.092237 0.092237 0.092237
0.092237 0.092237 0.092237
0.092237 0.092237 0.092237
0.092237 0.092237 0.092237
0.092237 0.092237 0.092237
0.092237 0.092237 0.092237
0.092237 0.092237 0.092237
0.092240 0.092240 0.092240
0.092550 0.092550 0.092550
0.093185 0.093185 0.093185
0.094353 0.094353 0.094353
0.098173 0.098173 0.098173
0.105854 0.105854 0.105854
0.126100 0.126100 0.126100
0.159576 0.159576 0.159576
0.204237 0.204237 0.204237
0.262879 0.262879 0.262879
0.331810 0.331810 0.331810
0.412277 0.412277 0.412277
0.505077 0.505077 0.505077
0.604863 0.604863 0.604863
0.703766 0.703766 0.703766
0.782078 0.782078 0.782078
0.838548 0.838548 0.838548
0.882657 0.882657 0.882657
0.916129 0.916129 0.916129
0.937302 0.937302 0.937302
0.956824 0.956824 0.956824
0.966048 0.966048 0.966048
0.974484 0.974484 0.974484
0.980120 0.980120 0.980120
0.982475 0.982475 0.982475
0.092237 0.092237 0.092237
0.092237 0.092237 0.092237
0.092237 0.092237 0.092237
0.092237 0.092237 0.092237
0.092237 0.092237 0.092237
0.092237 0.092237 0.092237
0.092237 0.092237 0.092237
0.092237 0.092237 0.092237
0.092237 0.092237 0.092237
0.092363 0.092363 0.092363
0.092743 0.092743 0.092743
0.093776 0.093776 0.093776
0.096098 0.096098 0.096098
0.102171 0.102171 0.102171
0.115931 0.115931 0.115931
0.144002 0.144002 0.144002
0.187218 0.187218 0.187218
0.242080 0.242080 0.242080
0.307448 0.307448 0.307448
0.384185 0.384185 0.384185
0.474335 0.474335 0.474335
0.574598 0.574598 0.574598
0.678076 0.678076 0.678076
0.764721 0.764721 0.764721
0.828426 0.828426 0.828426
