LUTs/trix_classic/TriX_Yellow8_Hard.cube
TITLE "Tri-X Yellow8 Hard"
# Adobe RGB in/out. REPLACES AgX. Tri-X Yellow8 Hard.
LUT_3D_SIZE 9
DOMAIN_MIN 0.0 0.0 0.0
DOMAIN_MAX 1.0 1.0 1.0
0.093024 0.093024 0.093024
0.093056 0.093056 0.093056
0.093351 0.093351 0.093351
0.095707 0.095707 0.095707
0.134404 0.134404 0.134404
0.342399 0.342399 0.342399
0.648799 0.648799 0.648799
0.876943 0.876943 0.876943
0.943788 0.943788 0.943788
0.093112 0.093112 0.093112
0.093225 0.093225 0.093225
0.093864 0.093864 0.093864
0.098163 0.098163 0.098163
0.148500 0.148500 0.148500
0.352517 0.352517 0.352517
0.655933 0.655933 0.655933
0.876955 0.876955 0.876955
0.943792 0.943792 0.943792
0.093790 0.093790 0.093790
0.093979 0.093979 0.093979
0.096180 0.096180 0.096180
0.115725 0.115725 0.115725
0.216746 0.216746 0.216746
0.417826 0.417826 0.417826
0.694536 0.694536 0.694536
0.881557 0.881557 0.881557
0.943792 0.943792 0.943792
0.101465 0.101465 0.101465
0.103497 0.103497 0.103497
0.119930 0.119930 0.119930
0.177727 0.177727 0.177727
0.326578 0.326578 0.326578
0.541960 0.541960 0.541960
0.771755 0.771755 0.771755
0.904856 0.904856 0.904856
0.943807 0.943807 0.943807
0.204364 0.204364 0.204364
0.211362 0.211362 0.211362
0.251219 0.251219 0.251219
0.339880 0.339880 0.339880
0.491784 0.491784 0.491784
0.705361 0.705361 0.705361
0.853884 0.853884 0.853884
0.940227 0.940227 0.940227
0.975707 0.975707 0.975707
0.453103 0.453103 0.453103
0.459422 0.459422 0.459422
0.504642 0.504642 0.504642
0.591228 0.591228 0.591228
0.720424 0.720424 0.720424
0.838238 0.838238 0.838238
0.925042 0.925042 0.925042
0.970217 0.970217 0.970217
0.984814 0.984814 0.984814
0.755633 0.755633 0.755633
0.759490 0.759490 0.759490
0.783981 0.783981 0.783981
0.825433 0.825433 0.825433
0.878061 0.878061 0.878061
0.929886 0.929886 0.929886
0.969632 0.969632 0.969632
0.984236 0.984236 0.984236
0.990336 0.990336 0.990336
0.924219 0.924219 0.924219
0.924196 0.924196 0.924196
0.928145 0.928145 0.928145
0.942333 0.942333 0.942333
0.959751 0.959751 0.959751
0.975108 0.975108 0.975108
0.985190 0.985190 0.985190
0.991589 0.991589 0.991589
0.994126 0.994126 0.994126
0.949547 0.949547 0.949547
0.949549 0.949549 0.949549
0.975347 0.975347 0.975347
0.976451 0.976451 0.976451
0.985288 0.985288 0.985288
0.988631 0.988631 0.988631
0.992529 0.992529 0.992529
0.995116 0.995116 0.995116
0.997230 0.997230 0.997230
0.093024 0.093024 0.093024
0.093057 0.093057 0.093057
0.093280 0.093280 0.093280
0.094984 0.094984 0.094984
0.131562 0.131562 0.131562
0.343315 0.343315 0.343315
0.649329 0.649329 0.649329
0.876955 0.876955 0.876955
0.943792 0.943792 0.943792
0.093148 0.093148 0.093148
0.093321 0.093321 0.093321
0.093643 0.093643 0.093643
0.096750 0.096750 0.096750
0.143905 0.143905 0.143905
0.353454 0.353454 0.353454
0.656761 0.656761 0.656761
0.876974 0.876974 0.876974
0.943792 0.943792 0.943792
0.093917 0.093917 0.093917
0.094264 0.094264 0.094264
0.096488 0.096488 0.096488
0.114687 0.114687 0.114687
0.206357 0.206357 0.206357
0.416048 0.416048 0.416048
0.696730 0.696730 0.696730
0.882922 0.882922 0.882922
0.943792 0.943792 0.943792
0.103331 0.103331 0.103331
0.105237 0.105237 0.105237
0.123582 0.123582 0.123582
0.183193 0.183193 0.183193
0.327894 0.327894 0.327894
0.537045 0.537045 0.537045
0.772929 0.772929 0.772929
0.905318 0.905318 0.905318
0.943796 0.943796 0.943796
0.209750 0.209750 0.209750
0.217345 0.217345 0.217345
0.256984 0.256984 0.256984
0.346384 0.346384 0.346384
0.498401 0.498401 0.498401
0.706255 0.706255 0.706255
0.853674 0.853674 0.853674
0.940820 0.940820 0.940820
0.975784 0.975784 0.975784
0.456965 0.456965 0.456965
0.464001 0.464001 0.464001
0.509191 0.509191 0.509191
0.596109 0.596109 0.596109
0.725250 0.725250 0.725250
0.840521 0.840521 0.840521
0.925364 0.925364 0.925364
0.970387 0.970387 0.970387
0.984853 0.984853 0.984853
0.758302 0.758302 0.758302
0.762347 0.762347 0.762347
0.786923 0.786923 0.786923
0.827498 0.827498 0.827498
0.879640 0.879640 0.879640
0.931120 0.931120 0.931120
0.970114 0.970114 0.970114
0.984282 0.984282 0.984282
0.990392 0.990392 0.990392
0.924239 0.924239 0.924239
0.924468 0.924468 0.924468
0.929097 0.929097 0.929097
0.943400 0.943400 0.943400
0.960440 0.960440 0.960440
0.975427 0.975427 0.975427
0.985334 0.985334 0.985334
0.991665 0.991665 0.991665
0.994152 0.994152 0.994152
0.961532 0.961532 0.961532
0.961535 0.961535 0.961535
0.980174 0.980174 0.980174
0.980174 0.980174 0.980174
0.985411 0.985411 0.985411
0.988746 0.988746 0.988746
0.992583 0.992583 0.992583
0.995162 0.995162 0.995162
0.997249 0.997249 0.997249
0.093061 0.093061 0.093061
0.093153 0.093153 0.093153
0.093367 0.093367 0.093367
0.095335 0.095335 0.095335
0.132711 0.132711 0.132711
0.348146 0.348146 0.348146
0.652580 0.652580 0.652580
0.879464 0.879464 0.879464
0.943792 0.943792 0.943792
0.093229 0.093229 0.093229
0.093323 0.093323 0.093323
0.093742 0.093742 0.093742
0.096828 0.096828 0.096828
0.144612 0.144612 0.144612
0.359365 0.359365 0.359365
0.661033 0.661033 0.661033
0.880447 0.880447 0.880447
0.943792 0.943792 0.943792
0.094314 0.094314 0.094314
0.094701 0.094701 0.094701
0.099130 0.099130 0.099130
0.113741 0.113741 0.113741
0.202368 0.202368 0.202368
0.421730 0.421730 0.421730
0.705293 0.705293 0.705293
0.893489 0.893489 0.893489
0.943792 0.943792 0.943792
0.108170 0.108170 0.108170
0.111534 0.111534 0.111534
0.132028 0.132028 0.132028
0.194437 0.194437 0.194437
0.333535 0.333535 0.333535
0.538167 0.538167 0.538167
0.779402 0.779402 0.779402
0.907525 0.907525 0.907525
0.943793 0.943793 0.943793
0.234605 0.234605 0.234605
0.242234 0.242234 0.242234
0.280374 0.280374 0.280374
0.371352 0.371352 0.371352
0.518664 0.518664 0.518664
0.716714 0.716714 0.716714
0.856409 0.856409 0.856409
0.943418 0.943418 0.943418
0.976098 0.976098 0.976098
0.492219 0.492219 0.492219
0.499618 0.499618 0.499618
0.541344 0.541344 0.541344
0.626584 0.626584 0.626584
0.750331 0.750331 0.750331
0.850523 0.850523 0.850523
0.927868 0.927868 0.927868
0.971147 0.971147 0.971147
0.985012 0.985012 0.985012
0.779474 0.779474 0.779474
0.783780 0.783780 0.783780
0.806833 0.806833 0.806833
0.840348 0.840348 0.840348
0.888603 0.888603 0.888603
0.937236 0.937236 0.937236
0.971393 0.971393 0.971393
0.984510 0.984510 0.984510
0.990607 0.990607 0.990607
0.926778 0.926778 0.926778
0.927960 0.927960 0.927960
0.935112 0.935112 0.935112
0.949124 0.949124 0.949124
0.964181 0.964181 0.964181
0.977035 0.977035 0.977035
0.985983 0.985983 0.985983
0.991961 0.991961 0.991961
0.994247 0.994247 0.994247
0.961536 0.961536 0.961536
0.980173 0.980173 0.980173
0.980174 0.980174 0.980174
0.980178 0.980178 0.980178
0.985969 0.985969 0.985969
0.989250 0.989250 0.989250
0.992806 0.992806 0.992806
0.995337 0.995337 0.995337
0.997318 0.997318 0.997318
0.093179 0.093179 0.093179
0.093278 0.093278 0.093278
0.093687 0.093687 0.093687
0.096289 0.096289 0.096289
0.139362 0.139362 0.139362
0.354373 0.354373 0.354373
0.658468 0.658468 0.658468
0.865044 0.865044 0.865044
0.943792 0.943792 0.943792
0.093352 0.093352 0.093352
0.093418 0.093418 0.093418
0.094332 0.094332 0.094332
0.098011 0.098011 0.098011
0.151674 0.151674 0.151674
0.367587 0.367587 0.367587
0.667866 0.667866 0.667866
0.866618 0.866618 0.866618
0.943792 0.943792 0.943792
0.095219 0.095219 0.095219
0.095745 0.095745 0.095745
0.098920 0.098920 0.098920
0.118331 0.118331 0.118331
0.210491 0.210491 0.210491
0.433027 0.433027 0.433027
0.714526 0.714526 0.714526
0.880314 0.880314 0.880314
0.943792 0.943792 0.943792
0.115179 0.115179 0.115179
0.119761 0.119761 0.119761
0.142800 0.142800 0.142800
0.233474 0.233474 0.233474
0.342484 0.342484 0.342484
0.549063 0.549063 0.549063
0.788348 0.788348 0.788348
0.910667 0.910667 0.910667
0.943797 0.943797 0.943797
0.257480 0.257480 0.257480
0.265226 0.265226 0.265226
0.304921 0.304921 0.304921
0.396969 0.396969 0.396969
0.538174 0.538174 0.538174
0.727469 0.727469 0.727469
0.862941 0.862941 0.862941
0.946543 0.946543 0.946543
0.976688 0.976688 0.976688
0.522378 0.522378 0.522378
0.530332 0.530332 0.530332
0.571908 0.571908 0.571908
0.652494 0.652494 0.652494
0.767100 0.767100 0.767100
0.859723 0.859723 0.859723
0.931166 0.931166 0.931166
0.972170 0.972170 0.972170
0.985281 0.985281 0.985281
0.800491 0.800491 0.800491
0.805006 0.805006 0.805006
0.821995 0.821995 0.821995
0.854607 0.854607 0.854607
0.898893 0.898893 0.898893
0.944062 0.944062 0.944062
0.972737 0.972737 0.972737
0.984914 0.984914 0.984914
0.990918 0.990918 0.990918
0.932926 0.932926 0.932926
0.934368 0.934368 0.934368
0.941955 0.941955 0.941955
0.953438 0.953438 0.953438
0.968399 0.968399 0.968399
0.978916 0.978916 0.978916
0.986683 0.986683 0.986683
0.992242 0.992242 0.992242
0.994392 0.994392 0.994392
0.975063 0.975063 0.975063
0.982876 0.982876 0.982876
0.982878 0.982878 0.982878
0.985032 0.985032 0.985032
0.986707 0.986707 0.986707
0.989931 0.989931 0.989931
0.993118 0.993118 0.993118
0.995553 0.995553 0.995553
0.997420 0.997420 0.997420
0.093364 0.093364 0.093364
0.093398 0.093398 0.093398
0.094489 0.094489 0.094489
0.098544 0.098544 0.098544
0.150322 0.150322 0.150322
0.366635 0.366635 0.366635
0.668167 0.668167 0.668167
0.861299 0.861299 0.861299
0.943792 0.943792 0.943792
0.093553 0.093553 0.093553
0.093696 0.093696 0.093696
0.095431 0.095431 0.095431
0.100746 0.100746 0.100746
0.163739 0.163739 0.163739
0.381630 0.381630 0.381630
0.678673 0.678673 0.678673
0.865046 0.865046 0.865046
0.943792 0.943792 0.943792
0.096547 0.096547 0.096547
0.096958 0.096958 0.096958
0.101466 0.101466 0.101466
0.132271 0.132271 0.132271
0.225726 0.225726 0.225726
0.448320 0.448320 0.448320
0.727881 0.727881 0.727881
0.884205 0.884205 0.884205
0.943793 0.943793 0.943793
0.130857 0.130857 0.130857
0.135802 0.135802 0.135802
0.163045 0.163045 0.163045
0.234611 0.234611 0.234611
0.360003 0.360003 0.360003
0.567601 0.567601 0.567601
0.798979 0.798979 0.798979
0.915354 0.915354 0.915354
0.962181 0.962181 0.962181
0.281952 0.281952 0.281952
0.290653 0.290653 0.290653
0.331365 0.331365 0.331365
0.424829 0.424829 0.424829
0.588577 0.588577 0.588577
0.744216 0.744216 0.744216
0.871418 0.871418 0.871418
0.949624 0.949624 0.949624
0.977522 0.977522 0.977522
0.553643 0.553643 0.553643
0.562028 0.562028 0.562028
0.603977 0.603977 0.603977
0.679754 0.679754 0.679754
0.784513 0.784513 0.784513
0.869376 0.869376 0.869376
0.935642 0.935642 0.935642
0.973423 0.973423 0.973423
0.985646 0.985646 0.985646
0.816454 0.816454 0.816454
0.819912 0.819912 0.819912
0.836076 0.836076 0.836076
0.868439 0.868439 0.868439
0.909024 0.909024 0.909024
0.949803 0.949803 0.949803
0.974116 0.974116 0.974116
0.985436 0.985436 0.985436
0.991291 0.991291 0.991291
0.939177 0.939177 0.939177
0.940713 0.940713 0.940713
0.948331 0.948331 0.948331
0.957624 0.957624 0.957624
0.971217 0.971217 0.971217
0.980750 0.980750 0.980750
0.987360 0.987360 0.987360
0.992436 0.992436 0.992436
0.994559 0.994559 0.994559
0.977986 0.977986 0.977986
0.979127 0.979127 0.979127
0.981795 0.981795 0.981795
0.984838 0.984838 0.984838
0.987264 0.987264 0.987264
0.990532 0.990532 0.990532
0.993384 0.993384 0.993384
0.995741 0.995741 0.995741
0.997550 0.997550 0.997550
0.093780 0.093780 0.093780
0.093801 0.093801 0.093801
0.096018 0.096018 0.096018
0.102749 0.102749 0.102749
0.171449 0.171449 0.171449
0.387109 0.387109 0.387109
0.683508 0.683508 0.683508
0.866869 0.866869 0.866869
0.943792 0.943792 0.943792
0.094171 0.094171 0.094171
0.094286 0.094286 0.094286
0.096963 0.096963 0.096963
0.107949 0.107949 0.107949
0.186087 0.186087 0.186087
0.403962 0.403962 0.403962
0.695300 0.695300 0.695300
0.871457 0.871457 0.871457
0.943792 0.943792 0.943792
0.099094 0.099094 0.099094
0.099584 0.099584 0.099584
0.109545 0.109545 0.109545
0.152373 0.152373 0.152373
0.255032 0.255032 0.255032
0.470359 0.470359 0.470359
0.747469 0.747469 0.747469
0.890195 0.890195 0.890195
0.943793 0.943793 0.943793
0.151439 0.151439 0.151439
0.155790 0.155790 0.155790
0.188854 0.188854 0.188854
0.264607 0.264607 0.264607
0.397128 0.397128 0.397128
0.593299 0.593299 0.593299
0.811718 0.811718 0.811718
0.920861 0.920861 0.920861
0.965977 0.965977 0.965977
0.319928 0.319928 0.319928
0.328177 0.328177 0.328177
0.373489 0.373489 0.373489
0.463586 0.463586 0.463586
0.599390 0.599390 0.599390
0.760883 0.760883 0.760883
0.880180 0.880180 0.880180
0.952891 0.952891 0.952891
0.978641 0.978641 0.978641
0.587618 0.587618 0.587618
0.596663 0.596663 0.596663
0.636780 0.636780 0.636780
0.709916 0.709916 0.709916
0.803411 0.803411 0.803411
0.883957 0.883957 0.883957
0.941282 0.941282 0.941282
0.974926 0.974926 0.974926
0.986145 0.986145 0.986145
0.830485 0.830485 0.830485
0.834000 0.834000 0.834000
0.850207 0.850207 0.850207
0.880477 0.880477 0.880477
0.918817 0.918817 0.918817
0.954022 0.954022 0.954022
0.975629 0.975629 0.975629
0.986059 0.986059 0.986059
0.991765 0.991765 0.991765
0.945272 0.945272 0.945272
0.946893 0.946893 0.946893
0.952406 0.952406 0.952406
0.961741 0.961741 0.961741
0.973102 0.973102 0.973102
0.982531 0.982531 0.982531
0.988021 0.988021 0.988021
0.992660 0.992660 0.992660
0.994756 0.994756 0.994756
0.978750 0.978750 0.978750
0.979747 0.979747 0.979747
0.981995 0.981995 0.981995
0.985304 0.985304 0.985304
0.987772 0.987772 0.987772
0.991067 0.991067 0.991067
0.993628 0.993628 0.993628
0.995932 0.995932 0.995932
0.997706 0.997706 0.997706
0.095076 0.095076 0.095076
0.095030 0.095030 0.095030
0.097958 0.097958 0.097958
0.113953 0.113953 0.113953
0.200397 0.200397 0.200397
0.423694 0.423694 0.423694
0.708667 0.708667 0.708667
0.875933 0.875933 0.875933
0.943785 0.943785 0.943785
0.095915 0.095915 0.095915
0.095931 0.095931 0.095931
0.099648 0.099648 0.099648
0.123488 0.123488 0.123488
0.216012 0.216012 0.216012
0.439343 0.439343 0.439343
0.721305 0.721305 0.721305
0.879849 0.879849 0.879849
0.943783 0.943783 0.943783
0.104003 0.104003 0.104003
0.104639 0.104639 0.104639
0.122628 0.122628 0.122628
0.175825 0.175825 0.175825
0.288286 0.288286 0.288286
0.504248 0.504248 0.504248
0.765929 0.765929 0.765929
0.898535 0.898535 0.898535
0.943724 0.943724 0.943724
0.179488 0.179488 0.179488
0.183733 0.183733 0.183733
0.219203 0.219203 0.219203
0.301081 0.301081 0.301081
0.438991 0.438991 0.438991
0.632816 0.632816 0.632816
0.825717 0.825717 0.825717
0.927435 0.927435 0.927435
0.970460 0.970460 0.970460
0.364759 0.364759 0.364759
0.372678 0.372678 0.372678
0.419249 0.419249 0.419249
0.505636 0.505636 0.505636
0.640714 0.640714 0.640714
0.785957 0.785957 0.785957
0.890677 0.890677 0.890677
0.957118 0.957118 0.957118
0.980061 0.980061 0.980061
0.630574 0.630574 0.630574
0.638064 0.638064 0.638064
0.675014 0.675014 0.675014
0.750243 0.750243 0.750243
0.824076 0.824076 0.824076
0.892096 0.892096 0.892096
0.948378 0.948378 0.948378
0.976754 0.976754 0.976754
0.986766 0.986766 0.986766
0.845778 0.845778 0.845778
0.849406 0.849406 0.849406
0.865656 0.865656 0.865656
0.892119 0.892119 0.892119
0.927192 0.927192 0.927192
0.958734 0.958734 0.958734
0.977336 0.977336 0.977336
0.986794 0.986794 0.986794
0.992263 0.992263 0.992263
0.950714 0.950714 0.950714
0.951764 0.951764 0.951764
0.956777 0.956777 0.956777
0.966109 0.966109 0.966109
0.975083 0.975083 0.975083
0.983770 0.983770 0.983770
0.988722 0.988722 0.988722
0.992918 0.992918 0.992918
0.994998 0.994998 0.994998
0.978683 0.978683 0.978683
0.980618 0.980618 0.980618
0.983104 0.983104 0.983104
0.985830 0.985830 0.985830
0.988272 0.988272 0.988272
0.991569 0.991569 0.991569
0.993847 0.993847 0.993847
0.996134 0.996134 0.996134
0.997822 0.997822 0.997822
0.097908 0.097908 0.097908
0.097869 0.097869 0.097869
0.102805 0.102805 0.102805
0.134733 0.134733 0.134733
0.238342 0.238342 0.238342
0.471969 0.471969 0.471969
0.749233 0.749233 0.749233
0.888830 0.888830 0.888830
0.946704 0.946704 0.946704
0.099335 0.099335 0.099335
0.099358 0.099358 0.099358
0.106844 0.106844 0.106844
0.146168 0.146168 0.146168
0.254209 0.254209 0.254209
0.486900 0.486900 0.486900
0.757849 0.757849 0.757849
0.892921 0.892921 0.892921
0.947582 0.947582 0.947582
0.122769 0.122769 0.122769
0.124097 0.124097 0.124097
0.150474 0.150474 0.150474
0.211658 0.211658 0.211658
0.335500 0.335500 0.335500
0.557398 0.557398 0.557398
0.796318 0.796318 0.796318
0.911870 0.911870 0.911870
0.954016 0.954016 0.954016
0.218216 0.218216 0.218216
0.222394 0.222394 0.222394
0.263247 0.263247 0.263247
0.347503 0.347503 0.347503
0.482375 0.482375 0.482375
0.678633 0.678633 0.678633
0.847749 0.847749 0.847749
0.937679 0.937679 0.937679
0.972393 0.972393 0.972393
0.418022 0.418022 0.418022
0.425629 0.425629 0.425629
0.470277 0.470277 0.470277
0.556142 0.556142 0.556142
0.683685 0.683685 0.683685
0.813878 0.813878 0.813878
0.907193 0.907193 0.907193
0.963529 0.963529 0.963529
0.981980 0.981980 0.981980
0.673138 0.673138 0.673138
0.680393 0.680393 0.680393
0.721332 0.721332 0.721332
0.780781 0.780781 0.780781
0.845176 0.845176 0.845176
0.906863 0.906863 0.906863
0.955175 0.955175 0.955175
0.979462 0.979462 0.979462
0.987625 0.987625 0.987625
0.862843 0.862843 0.862843
0.866334 0.866334 0.866334
0.881476 0.881476 0.881476
0.905712 0.905712 0.905712
0.937067 0.937067 0.937067
0.964516 0.964516 0.964516
0.979613 0.979613 0.979613
0.987790 0.987790 0.987790
0.992614 0.992614 0.992614
0.956276 0.956276 0.956276
0.957225 0.957225 0.957225
0.961942 0.961942 0.961942
0.970491 0.970491 0.970491
0.977246 0.977246 0.977246
0.984694 0.984694 0.984694
0.989519 0.989519 0.989519
0.993074 0.993074 0.993074
0.995299 0.995299 0.995299
0.977648 0.977648 0.977648
0.983006 0.983006 0.983006
0.983515 0.983515 0.983515
0.986197 0.986197 0.986197
0.988823 0.988823 0.988823
0.992084 0.992084 0.992084
0.994055 0.994055 0.994055
0.996351 0.996351 0.996351
0.997865 0.997865 0.997865
0.109633 0.109633 0.109633
0.111283 0.111283 0.111283
0.122362 0.122362 0.122362
0.172147 0.172147 0.172147
0.334630 0.334630 0.334630
0.603579 0.603579 0.603579
0.817892 0.817892 0.817892
0.918242 0.918242 0.918242
0.952759 0.952759 0.952759
0.114705 0.114705 0.114705
0.117107 0.117107 0.117107
0.129967 0.129967 0.129967
0.184260 0.184260 0.184260
0.349754 0.349754 0.349754
0.617500 0.617500 0.617500
0.823393 0.823393 0.823393
0.920170 0.920170 0.920170
0.955149 0.955149 0.955149
0.155426 0.155426 0.155426
0.159016 0.159016 0.159016
0.180864 0.180864 0.180864
0.251440 0.251440 0.251440
0.426784 0.426784 0.426784
0.674473 0.674473 0.674473
0.848803 0.848803 0.848803
0.931665 0.931665 0.931665
0.955154 0.955154 0.955154
0.284578 0.284578 0.284578
0.291126 0.291126 0.291126
0.324947 0.324947 0.324947
0.414197 0.414197 0.414197
0.568283 0.568283 0.568283
0.775185 0.775185 0.775185
0.892752 0.892752 0.892752
0.954858 0.954858 0.954858
0.977927 0.977927 0.977927
0.493998 0.493998 0.493998
0.501658 0.501658 0.501658
0.540490 0.540490 0.540490
0.627172 0.627172 0.627172
0.752077 0.752077 0.752077
0.859847 0.859847 0.859847
0.936736 0.936736 0.936736
0.973257 0.973257 0.973257
0.985067 0.985067 0.985067
0.735320 0.735320 0.735320
0.743168 0.743168 0.743168
0.770784 0.770784 0.770784
0.819228 0.819228 0.819228
0.873167 0.873167 0.873167
0.928530 0.928530 0.928530
0.969287 0.969287 0.969287
0.984037 0.984037 0.984037
0.989899 0.989899 0.989899
0.881923 0.881923 0.881923
0.884582 0.884582 0.884582
0.897738 0.897738 0.897738
0.923232 0.923232 0.923232
0.949857 0.949857 0.949857
0.970987 0.970987 0.970987
0.983605 0.983605 0.983605
0.989756 0.989756 0.989756
0.993505 0.993505 0.993505
0.958930 0.958930 0.958930
0.959862 0.959862 0.959862
0.964675 0.964675 0.964675
0.972515 0.972515 0.972515
0.979854 0.979854 0.979854
0.985722 0.985722 0.985722
0.990230 0.990230 0.990230
0.993730 0.993730 0.993730
0.995946 0.995946 0.995946
0.975855 0.975855 0.975855
0.983538 0.983538 0.983538
0.983538 0.983538 0.983538
0.984228 0.984228 0.984228
0.989336 0.989336 0.989336
0.992362 0.992362 0.992362
0.994282 0.994282 0.994282
0.996526 0.996526 0.996526
0.997914 0.997914 0.997914
