LUTs/kodachrome64/Kodachrome64_Modern_IlfochromeP.cube
TITLE "Kodachrome 64 Modern IlfochromeP"
# Adobe RGB in/out. REPLACES AgX. Kodachrome 64 Modern IlfochromeP.
LUT_3D_SIZE 9
DOMAIN_MIN 0.0 0.0 0.0
DOMAIN_MAX 1.0 1.0 1.0
0.138776 0.101263 0.100261
0.213432 0.112558 0.102610
0.606218 0.138471 0.106624
0.917224 0.177887 0.114211
0.987692 0.224978 0.126996
0.996810 0.258803 0.143091
0.997145 0.264876 0.167461
0.997261 0.150454 0.342918
0.996945 0.312180 0.717006
0.138956 0.152265 0.102624
0.143230 0.141228 0.103339
0.338403 0.162257 0.106797
0.787922 0.204760 0.114181
0.966684 0.249010 0.126611
0.996282 0.279207 0.142143
0.996959 0.283975 0.165110
0.997156 0.149482 0.338243
0.996870 0.309330 0.710450
0.140170 0.345855 0.108189
0.143879 0.327787 0.108653
0.177028 0.271347 0.109285
0.404657 0.286058 0.115871
0.801691 0.323732 0.127340
0.964529 0.359390 0.141584
0.993666 0.371295 0.161332
0.996827 0.157549 0.331312
0.996625 0.300149 0.689373
0.144847 0.567986 0.118495
0.147824 0.551747 0.119103
0.168729 0.495597 0.120441
0.265466 0.434595 0.122932
0.501805 0.434739 0.130617
0.839413 0.464072 0.143766
0.969109 0.491999 0.161178
0.990945 0.484536 0.187278
0.993499 0.284551 0.364947
0.150248 0.741810 0.130550
0.152846 0.733798 0.131217
0.168864 0.709666 0.133298
0.231804 0.661308 0.136239
0.373394 0.613567 0.140525
0.626489 0.605212 0.150221
0.894067 0.626451 0.164796
0.978262 0.639068 0.185273
0.987194 0.625694 0.262238
0.156618 0.855296 0.143000
0.158535 0.850457 0.143644
0.171882 0.839988 0.147662
0.216999 0.813822 0.151735
0.321662 0.780464 0.156217
0.492571 0.752213 0.162006
0.763233 0.743519 0.171259
0.946163 0.755396 0.189179
0.981016 0.764848 0.229523
0.160927 0.923180 0.154228
0.162600 0.921129 0.154894
0.172943 0.915704 0.158868
0.206951 0.902428 0.163760
0.288476 0.883652 0.168798
0.419926 0.864603 0.175519
0.633089 0.849051 0.184029
0.884364 0.843096 0.195463
0.970132 0.852925 0.220995
0.162608 0.967013 0.159060
0.163285 0.965722 0.159123
0.171220 0.961716 0.164029
0.194712 0.954287 0.169713
0.256577 0.940939 0.177423
0.362452 0.927496 0.185317
0.523420 0.916892 0.193176
0.796264 0.910894 0.201907
0.961716 0.910054 0.217183
0.158229 0.962067 0.152320
0.158073 0.961352 0.151947
0.170573 0.973495 0.150741
0.169303 0.970071 0.165063
0.212418 0.967929 0.173887
0.303884 0.961625 0.182747
0.429850 0.954645 0.190261
0.637516 0.949094 0.196626
0.959221 0.947718 0.201620
0.138869 0.110627 0.155889
0.182590 0.121252 0.177492
0.634741 0.148980 0.179859
0.937282 0.185034 0.172823
0.988432 0.228016 0.164344
0.996729 0.259756 0.169004
0.997064 0.266429 0.192633
0.997205 0.149946 0.340446
0.996906 0.310705 0.713612
0.139410 0.142718 0.129358
0.150245 0.135298 0.125184
0.404967 0.166072 0.143428
0.840184 0.210863 0.158759
0.972355 0.250907 0.160001
0.995341 0.279411 0.166629
0.996880 0.285003 0.188235
0.997100 0.148994 0.335845
0.996832 0.307868 0.707094
0.143413 0.314388 0.143047
0.148915 0.288833 0.136910
0.201545 0.245684 0.130410
0.480081 0.277250 0.141639
0.840924 0.320771 0.152711
0.967803 0.356455 0.162815
0.992815 0.369485 0.180661
0.996772 0.160333 0.332249
0.996588 0.298764 0.686194
0.148448 0.529526 0.150610
0.152679 0.511144 0.148812
0.180660 0.456796 0.144603
0.298442 0.411169 0.143669
0.549952 0.423159 0.151061
0.862263 0.457019 0.161959
0.970126 0.486614 0.177610
0.990222 0.481928 0.204715
0.992954 0.285765 0.654648
0.153482 0.720272 0.154463
0.157028 0.711994 0.154843
0.176479 0.687015 0.156013
0.249546 0.637647 0.156872
0.400380 0.597173 0.159975
0.658142 0.595510 0.165741
0.903355 0.620022 0.180106
0.977776 0.634582 0.200567
0.986711 0.625232 0.288605
0.158616 0.843505 0.159963
0.160785 0.838788 0.160650
0.176220 0.827763 0.164165
0.226486 0.802400 0.167261
0.335326 0.769145 0.170826
0.512736 0.743872 0.177643
0.781358 0.738185 0.186819
0.948149 0.751595 0.202932
0.980664 0.763242 0.245473
0.162414 0.918444 0.166031
0.164223 0.916020 0.166737
0.175552 0.910129 0.170806
0.212321 0.896974 0.177111
0.296994 0.878817 0.183425
0.431733 0.859389 0.190262
0.650900 0.845054 0.198383
0.891364 0.840459 0.207998
0.969783 0.851533 0.234206
0.163069 0.965495 0.165330
0.163888 0.964261 0.165829
0.172611 0.960367 0.173004
0.197885 0.951653 0.181422
0.261693 0.938572 0.189497
0.368946 0.925507 0.197228
0.533649 0.915045 0.204932
0.806215 0.909488 0.213615
0.961872 0.909261 0.228792
0.159194 0.963878 0.229871
0.159039 0.963166 0.229042
0.171714 0.975063 0.226282
0.170156 0.971224 0.221954
0.214377 0.967506 0.181866
0.306653 0.961236 0.191609
0.433793 0.954038 0.199368
0.645136 0.948683 0.205667
0.960114 0.947520 0.209780
0.138978 0.129743 0.345275
0.180095 0.151345 0.493591
0.592356 0.175388 0.476713
0.943820 0.216417 0.453940
0.988802 0.248907 0.416237
0.996656 0.275737 0.413329
0.996947 0.280483 0.424920
0.997108 0.155912 0.384961
0.996826 0.307649 0.706656
0.140832 0.178297 0.342933
0.170498 0.194090 0.400558
0.460003 0.200951 0.377728
0.864593 0.233147 0.374745
0.975627 0.267526 0.373413
0.994453 0.292840 0.383852
0.996762 0.297440 0.397265
0.997002 0.157393 0.385865
0.996751 0.304813 0.700091
0.145909 0.274763 0.255430
0.153152 0.257714 0.238753
0.222409 0.230242 0.216730
0.533875 0.273729 0.257641
0.875683 0.323376 0.294586
0.971993 0.360391 0.324320
0.991512 0.373609 0.343498
0.996649 0.233622 0.407101
0.996505 0.295732 0.679236
0.155235 0.469142 0.266809
0.161673 0.453021 0.258100
0.202809 0.408895 0.237029
0.339148 0.373050 0.223982
0.637478 0.405084 0.246306
0.894661 0.449281 0.277584
0.971966 0.480769 0.298804
0.988707 0.479881 0.344661
0.991661 0.282907 0.646685
0.163436 0.681061 0.267816
0.168326 0.670482 0.264035
0.199329 0.638355 0.254228
0.292492 0.593666 0.243921
0.462262 0.560939 0.240530
0.744027 0.574776 0.255884
0.923677 0.607408 0.274011
0.976830 0.624723 0.306718
0.985462 0.626895 0.425843
0.169016 0.817446 0.266843
0.173181 0.812656 0.265169
0.197193 0.799667 0.261974
0.263343 0.772114 0.257522
0.385232 0.742250 0.255013
0.585447 0.722879 0.257160
0.833572 0.724634 0.264411
0.953091 0.741565 0.288318
0.978922 0.759341 0.333758
0.171065 0.903247 0.255554
0.173945 0.900872 0.255203
0.190394 0.894363 0.256024
0.237864 0.881566 0.256923
0.331098 0.863755 0.258269
0.479473 0.844668 0.261414
0.718039 0.833740 0.267242
0.913674 0.832560 0.280074
0.968773 0.847522 0.304493
0.168491 0.958255 0.245440
0.170356 0.956510 0.245835
0.182091 0.951245 0.251046
0.215584 0.942207 0.255184
0.287703 0.930387 0.259557
0.401607 0.918589 0.264208
0.582697 0.908841 0.270090
0.845373 0.904742 0.277586
0.962124 0.906755 0.287405
0.158934 0.962687 0.228491
0.172215 0.976293 0.227684
0.171252 0.973926 0.224998
0.169741 0.970176 0.220799
0.226311 0.965707 0.226270
0.320604 0.959756 0.239607
0.452902 0.951782 0.247610
0.680458 0.947144 0.253555
0.961006 0.946855 0.257418
0.139381 0.167329 0.600696
0.154697 0.197806 0.776594
0.528225 0.230137 0.808138
0.938814 0.269568 0.800360
0.991565 0.294649 0.753517
0.996710 0.309679 0.716035
0.996925 0.311178 0.715827
0.997000 0.245084 0.784682
0.996772 0.307141 0.777548
0.142077 0.216875 0.613095
0.161774 0.242399 0.717833
0.487692 0.272824 0.772538
0.888595 0.291921 0.739279
0.981348 0.308676 0.693907
0.995204 0.324075 0.673897
0.996732 0.326157 0.684853
0.996881 0.259886 0.766923
0.996695 0.304249 0.772332
0.149880 0.304819 0.476971
0.161968 0.303658 0.479544
0.285150 0.300320 0.486829
0.601315 0.315636 0.499116
0.892479 0.349457 0.524953
0.974057 0.379810 0.548587
0.990858 0.391963 0.581022
0.996453 0.367729 0.670648
0.996380 0.294989 0.755772
0.159076 0.433319 0.414565
0.166635 0.423106 0.404145
0.214243 0.388329 0.376193
0.357457 0.359923 0.354301
0.672739 0.404099 0.398420
0.902643 0.451785 0.446215
0.971030 0.485604 0.484603
0.987356 0.490120 0.545132
0.990532 0.281907 0.728575
0.171000 0.637568 0.412082
0.177652 0.628525 0.405407
0.216819 0.600383 0.388935
0.317372 0.556157 0.368972
0.495049 0.528043 0.359166
0.776424 0.558315 0.382895
0.929197 0.598851 0.417852
0.974222 0.621202 0.465455
0.984158 0.634664 0.630430
0.178825 0.791110 0.399877
0.184201 0.785839 0.396621
0.216406 0.770737 0.388987
0.292147 0.744227 0.378157
0.424089 0.716919 0.369785
0.638536 0.702216 0.368805
0.863313 0.712017 0.383253
0.953573 0.732772 0.413230
0.976218 0.757544 0.514374
0.180716 0.887477 0.382678
0.184918 0.885203 0.381141
0.208475 0.878635 0.378146
0.265540 0.865581 0.374023
0.366152 0.845840 0.370463
0.527273 0.829538 0.369733
0.767180 0.821807 0.373406
0.925877 0.824866 0.385630
0.967078 0.843902 0.449855
0.175666 0.947502 0.360716
0.177941 0.945986 0.359991
0.194185 0.941363 0.360238
0.233792 0.932887 0.359785
0.312615 0.922136 0.360168
0.436111 0.910396 0.361647
0.633975 0.902270 0.365038
0.876746 0.899756 0.371384
0.961654 0.904306 0.401519
0.163810 0.968149 0.360448
0.171467 0.975602 0.359181
0.170548 0.973336 0.354956
0.181503 0.971361 0.312799
0.247090 0.962846 0.337267
0.342241 0.956347 0.340196
0.481804 0.948783 0.343547
0.729327 0.945098 0.346453
0.961087 0.946397 0.357977
0.140105 0.221576 0.828056
0.147254 0.244253 0.886061
0.452108 0.293311 0.927173
0.911122 0.328277 0.927288
0.995675 0.361481 0.920802
0.996909 0.361828 0.890790
0.997024 0.355442 0.870866
0.997005 0.306097 0.876127
0.996772 0.312303 0.888065
0.143018 0.261557 0.833739
0.153647 0.283944 0.876575
0.428231 0.328716 0.917569
0.889243 0.361585 0.920059
0.986182 0.372368 0.898121
0.996572 0.374030 0.869710
0.996828 0.368771 0.856649
0.996882 0.320923 0.866442
0.996693 0.309051 0.881054
0.158417 0.387868 0.808857
0.174093 0.393088 0.818287
0.334036 0.399713 0.832462
0.686038 0.397884 0.818789
0.918081 0.405527 0.804470
0.981093 0.422015 0.800091
0.992192 0.426781 0.804913
0.996460 0.406958 0.826018
0.996209 0.298642 0.858594
0.164476 0.449501 0.625929
0.173776 0.445871 0.622703
0.240167 0.434859 0.616186
0.426304 0.427064 0.612589
0.729247 0.445590 0.635007
0.915950 0.481614 0.672929
0.973173 0.509693 0.708662
0.987166 0.514335 0.755955
0.990314 0.419381 0.836337
0.175891 0.610510 0.572397
0.183464 0.604350 0.566779
0.227650 0.582675 0.550260
0.332186 0.542945 0.523644
0.509260 0.515378 0.505836
0.795035 0.560477 0.549283
0.931987 0.603920 0.599459
0.972814 0.628767 0.662941
0.983342 0.649078 0.774818
0.186793 0.766079 0.552147
0.193908 0.761702 0.548366
0.230075 0.748694 0.538738
0.310580 0.724564 0.523770
0.448546 0.698702 0.510673
0.665343 0.685947 0.506797
0.873280 0.704892 0.531878
0.952628 0.729800 0.576344
0.973931 0.759981 0.699632
0.189911 0.873869 0.525728
0.195401 0.871863 0.523639
0.222594 0.864614 0.519208
0.285741 0.849975 0.513041
0.392667 0.832058 0.507023
0.564948 0.817568 0.503840
0.797847 0.812281 0.507050
0.930735 0.819619 0.525642
0.965139 0.842763 0.620320
0.181189 0.938853 0.494647
0.184443 0.937434 0.493533
0.204919 0.932984 0.492211
0.249655 0.925138 0.489956
0.332758 0.914493 0.488364
0.465194 0.903614 0.488145
0.677330 0.896857 0.490321
0.893342 0.895907 0.497042
0.960799 0.903475 0.551206
0.164977 0.968514 0.511589
0.165854 0.969072 0.510022
0.167642 0.969734 0.504777
0.195330 0.966117 0.456929
0.259409 0.960822 0.457852
0.357496 0.953288 0.458794
0.504060 0.946575 0.460037
0.760753 0.943819 0.461576
0.960823 0.947039 0.495936
0.142127 0.285151 0.934742
0.146732 0.297923 0.947541
0.397150 0.358789 0.964472
0.879067 0.391772 0.965468
0.994733 0.431028 0.965931
0.997162 0.429387 0.952108
0.997202 0.412512 0.938579
0.997096 0.365518 0.931864
0.996824 0.318232 0.923069
0.144318 0.314454 0.935748
0.150433 0.328575 0.946315
0.386467 0.388165 0.962275
0.860433 0.420996 0.963837
0.991126 0.454973 0.962937
0.996844 0.439729 0.945353
0.997010 0.424621 0.933976
0.996973 0.379547 0.926240
0.996743 0.315070 0.919795
0.162885 0.449523 0.935292
0.177334 0.461919 0.940767
0.367826 0.510641 0.953484
0.738058 0.497737 0.944239
0.944015 0.486802 0.932670
0.986266 0.482047 0.917036
0.995213 0.476005 0.907351
0.996553 0.452558 0.905180
0.996476 0.304860 0.909066
0.173417 0.515887 0.849699
0.184349 0.516393 0.851470
0.277555 0.522603 0.858501
0.491271 0.520180 0.856278
0.793085 0.524111 0.851733
0.937865 0.536223 0.851181
0.980094 0.550357 0.855603
0.988410 0.549636 0.866693
0.990694 0.477585 0.889421
0.181357 0.617611 0.766289
0.190633 0.614139 0.764182
0.243910 0.605316 0.760412
0.365350 0.587511 0.749873
0.579467 0.579769 0.745721
0.827628 0.598848 0.761235
0.941436 0.627876 0.787822
0.974514 0.648311 0.814694
0.983343 0.670372 0.853788
0.192071 0.751345 0.726146
0.200390 0.748243 0.723583
0.238768 0.738514 0.716984
0.323382 0.718499 0.703575
0.466251 0.694568 0.685781
0.677665 0.678021 0.671648
0.879848 0.708295 0.712286
0.952854 0.735305 0.753784
0.972956 0.767376 0.815206
0.195911 0.862011 0.689746
0.202194 0.859741 0.688021
0.231365 0.852893 0.684478
0.298540 0.840092 0.678636
0.410379 0.823848 0.671625
0.588974 0.809941 0.665905
0.810120 0.805735 0.668559
0.932069 0.818087 0.697270
0.963618 0.844312 0.773438
0.184736 0.932506 0.643061
0.188760 0.931218 0.641866
0.210966 0.927093 0.641002
0.259769 0.919854 0.638962
0.346447 0.909215 0.637560
0.484835 0.899342 0.637416
0.706634 0.893525 0.640376
0.901639 0.893803 0.651237
0.959776 0.904027 0.725008
0.164920 0.966923 0.564057
0.165666 0.967392 0.565589
0.167104 0.967820 0.572056
0.196643 0.964779 0.577591
0.263947 0.959675 0.580095
0.364436 0.951690 0.582023
0.515445 0.945769 0.584009
0.777461 0.943757 0.585573
0.960390 0.948253 0.668202
0.144516 0.352643 0.970353
0.148571 0.360863 0.972998
0.331447 0.423071 0.975941
0.855723 0.456274 0.976334
0.992761 0.497140 0.976515
0.997421 0.509792 0.973690
0.997415 0.475129 0.967318
0.997233 0.424635 0.956896
0.996910 0.330110 0.947448
0.146983 0.376526 0.970465
0.151636 0.386175 0.972752
0.334097 0.447966 0.975638
0.838318 0.483776 0.976110
0.990738 0.524477 0.976328
0.997135 0.517729 0.971546
0.997233 0.486886 0.964729
0.997113 0.437509 0.954067
0.996829 0.326741 0.945473
0.164939 0.502025 0.970502
0.176589 0.512469 0.971810
0.346076 0.561687 0.974299
0.778439 0.594577 0.975076
0.961337 0.572570 0.969603
0.992177 0.553724 0.961705
0.996621 0.534553 0.951454
0.996703 0.504775 0.944371
0.996560 0.315591 0.938741
0.185149 0.602845 0.951051
0.199824 0.603637 0.951523
0.304908 0.612808 0.951862
0.551650 0.609940 0.947752
0.846984 0.604146 0.941614
0.956315 0.601604 0.936064
0.984684 0.598830 0.931817
0.990808 0.590387 0.928106
0.991730 0.559349 0.928908
0.190818 0.656869 0.899238
0.201741 0.655958 0.899356
0.264329 0.656876 0.899984
0.409471 0.652057 0.897165
0.656913 0.648941 0.893307
0.871844 0.654725 0.891461
0.952510 0.665492 0.893443
0.979575 0.676301 0.897954
0.984210 0.693221 0.906354
0.197881 0.753898 0.853581
0.206209 0.751911 0.852997
0.248205 0.746704 0.851889
0.342189 0.734927 0.847187
0.503960 0.720970 0.839117
0.739078 0.717511 0.836194
0.897350 0.730767 0.845362
0.956571 0.749707 0.860160
0.973910 0.778991 0.882308
0.198476 0.855437 0.820587
0.205059 0.853705 0.820153
0.235781 0.848375 0.819726
0.306332 0.837827 0.817873
0.424433 0.823837 0.813673
0.609771 0.810453 0.807664
0.815422 0.802025 0.802223
0.934567 0.821832 0.824327
0.963297 0.848956 0.857631
0.184323 0.929407 0.781128
0.188503 0.928228 0.780808
0.211725 0.924347 0.782196
0.262740 0.917343 0.783392
0.352565 0.907522 0.784591
0.495741 0.898289 0.785174
0.721340 0.892786 0.786850
0.904693 0.893583 0.794916
0.958960 0.905889 0.834882
0.164059 0.964540 0.662722
0.165672 0.966024 0.660840
0.167377 0.966846 0.655103
0.189310 0.965046 0.717559
0.259425 0.959547 0.724070
0.361420 0.951856 0.728934
0.513519 0.946474 0.731923
0.775547 0.945095 0.733382
0.960030 0.950264 0.809884
0.149196 0.425034 0.983240
0.154022 0.430300 0.983586
0.360710 0.478579 0.984076
0.881413 0.515030 0.984163
0.995980 0.551957 0.984235
0.997722 0.577853 0.983573
0.997639 0.532939 0.976765
0.997401 0.467615 0.971342
0.997009 0.364101 0.965521
0.151575 0.445826 0.983199
0.157726 0.451603 0.983526
0.366183 0.503076 0.984028
0.871574 0.538701 0.984126
0.994492 0.575564 0.984203
0.997497 0.583242 0.981934
0.997485 0.542000 0.975426
0.997285 0.480878 0.970370
0.996929 0.365723 0.963710
0.174080 0.566635 0.983038
0.186467 0.573216 0.983281
0.390932 0.611444 0.983755
0.823871 0.639573 0.983921
0.982806 0.641692 0.981597
0.996640 0.615162 0.975948
0.996919 0.587392 0.971019
0.996894 0.544138 0.967094
0.996668 0.408041 0.957692
0.205836 0.681996 0.978285
0.222415 0.681315 0.977972
0.362351 0.687226 0.976693
0.652230 0.680229 0.974012
0.906381 0.666968 0.970703
0.978205 0.654362 0.967409
0.990365 0.640516 0.961227
0.994080 0.620604 0.954986
0.993330 0.597204 0.949565
0.206798 0.707375 0.959834
0.219234 0.707049 0.959510
0.303675 0.710792 0.958076
0.476641 0.708039 0.954434
0.753893 0.703504 0.949898
0.915417 0.701197 0.945716
0.967715 0.700292 0.942454
0.983460 0.698216 0.940265
0.985747 0.710944 0.938486
0.205689 0.772582 0.936038
0.214565 0.771544 0.935849
0.268126 0.770880 0.935037
0.376614 0.764732 0.932324
0.572828 0.757629 0.926800
0.809009 0.755622 0.922331
0.925137 0.759670 0.920953
0.964478 0.766984 0.922330
0.976791 0.791412 0.924898
0.199919 0.857187 0.911922
0.206454 0.855896 0.911937
0.241615 0.852642 0.912129
0.317158 0.844724 0.910035
0.450587 0.834020 0.905516
0.660736 0.825163 0.900512
0.857828 0.824152 0.898617
0.944436 0.832953 0.902676
0.964964 0.855800 0.909874
0.179489 0.931282 0.881188
0.183033 0.930076 0.881566
0.207025 0.925863 0.884452
0.259614 0.919302 0.887092
0.353997 0.910036 0.888167
0.504758 0.901458 0.886770
0.735906 0.895899 0.884546
0.905338 0.893121 0.881718
0.959001 0.908969 0.899808
0.162364 0.961404 0.798563
0.167053 0.966464 0.799488
0.167276 0.965784 0.809151
0.180965 0.965451 0.826761
0.242294 0.960806 0.834187
0.345603 0.954324 0.840763
0.494619 0.949144 0.845115
0.749996 0.948005 0.846370
0.959821 0.953020 0.889701
0.302828 0.460638 0.988342
0.363694 0.464607 0.988345
0.787209 0.480571 0.988353
0.989966 0.507523 0.988373
0.997601 0.538176 0.988403
0.998327 0.564800 0.988441
0.997975 0.507584 0.984008
0.997606 0.410161 0.978290
0.997094 0.385684 0.971646
0.310662 0.478105 0.988341
0.369945 0.482213 0.988343
0.780962 0.498671 0.988352
0.988997 0.525898 0.988372
0.997575 0.556780 0.988403
0.998146 0.569420 0.987538
0.997833 0.514256 0.983164
0.997508 0.416810 0.977388
0.997016 0.391244 0.971655
0.349735 0.567495 0.988317
0.403490 0.571597 0.988321
0.758844 0.587687 0.988332
0.984459 0.611280 0.988358
0.997337 0.630064 0.987877
0.997523 0.598478 0.984164
0.997386 0.553554 0.979192
0.997149 0.464615 0.974392
0.996756 0.378006 0.969431
0.390176 0.710023 0.987552
0.429274 0.707560 0.987215
0.678392 0.700554 0.986081
0.942501 0.689404 0.984053
0.988255 0.673090 0.980778
0.996500 0.651301 0.976881
0.996638 0.622127 0.973153
0.996588 0.571977 0.969760
0.995212 0.576109 0.966603
0.326401 0.735996 0.976631
0.351189 0.734460 0.976282
0.499190 0.730405 0.975116
0.808632 0.724044 0.973257
0.942802 0.715735 0.971030
0.978425 0.706044 0.968724
0.986272 0.692659 0.966530
0.988777 0.667511 0.961336
0.987880 0.674807 0.956627
0.271437 0.789042 0.967473
0.288508 0.787548 0.967203
0.380102 0.783596 0.966086
0.610583 0.777579 0.962368
0.844002 0.770751 0.958172
0.936636 0.764994 0.954311
0.965428 0.758799 0.951130
0.978501 0.748299 0.948561
0.980856 0.771504 0.946431
0.223375 0.861413 0.955552
0.233139 0.859937 0.954949
0.290502 0.855583 0.952907
0.431242 0.848302 0.949617
0.673762 0.839843 0.945800
0.866453 0.833371 0.942388
0.938439 0.829383 0.940145
0.961539 0.825050 0.939031
0.969103 0.845940 0.938575
0.177046 0.931372 0.947375
0.179963 0.930318 0.947099
0.203745 0.926701 0.945890
0.279785 0.920334 0.943513
0.428318 0.911508 0.940465
0.679870 0.903932 0.937332
0.880749 0.899466 0.934837
0.947780 0.896725 0.933694
0.961736 0.905612 0.933941
0.160147 0.956417 0.883066
0.167143 0.965576 0.909537
0.166746 0.964253 0.907461
0.169110 0.962674 0.904135
0.207512 0.963929 0.936017
0.317191 0.959209 0.935193
0.478101 0.954103 0.933831
0.756305 0.953161 0.932844
0.959834 0.956533 0.932646
