LUTs/kodachrome64/Kodachrome64_Classic_ExtraSoft.cube
TITLE "Kodachrome 64 Classic ExtraSoft"
# Adobe RGB in/out. REPLACES AgX. Kodachrome 64 Classic ExtraSoft.
LUT_3D_SIZE 33
DOMAIN_MIN 0.0 0.0 0.0
DOMAIN_MAX 1.0 1.0 1.0
0.064137 0.070143 0.086006
0.064137 0.070143 0.086006
0.064137 0.070143 0.086006
0.064137 0.070143 0.086006
0.064699 0.070143 0.086006
0.066076 0.070143 0.086006
0.074125 0.070143 0.086006
0.110741 0.070143 0.086006
0.174371 0.070143 0.086006
0.304523 0.070143 0.086006
0.507699 0.070143 0.086006
0.609790 0.070143 0.086006
0.689391 0.070143 0.086006
0.755645 0.070143 0.086006
0.805561 0.070231 0.086006
0.832662 0.070326 0.086006
0.852397 0.070437 0.086006
0.866611 0.070665 0.086006
0.878942 0.071092 0.086006
0.889733 0.071355 0.086006
0.898494 0.071669 0.086006
0.905172 0.072017 0.086006
0.909328 0.072317 0.086006
0.913308 0.072355 0.086006
0.916210 0.072411 0.086006
0.918630 0.072329 0.086072
0.921482 0.071540 0.086232
0.922974 0.071033 0.086783
0.925989 0.070143 0.096452
0.925989 0.070143 0.096433
0.925989 0.070143 0.096432
0.925989 0.070143 0.096431
0.927146 0.081104 0.595631
0.064137 0.070143 0.086006
0.064137 0.070143 0.086006
0.064137 0.070143 0.086006
0.064137 0.070143 0.086006
0.064782 0.070143 0.086006
0.066069 0.070143 0.086006
0.073509 0.070143 0.086006
0.106900 0.070143 0.086006
0.161835 0.070143 0.086006
0.291461 0.070143 0.086006
0.501290 0.070143 0.086006
0.599906 0.070143 0.086006
0.686078 0.070143 0.086006
0.752064 0.070143 0.086006
0.803743 0.070243 0.086006
0.831442 0.070342 0.086006
0.851736 0.070451 0.086006
0.866126 0.070704 0.086006
0.878580 0.071127 0.086006
0.889470 0.071404 0.086006
0.898300 0.071716 0.086006
0.905085 0.072061 0.086006
0.909266 0.072375 0.086006
0.913264 0.072411 0.086006
0.916179 0.072466 0.086006
0.918611 0.072383 0.086071
0.921469 0.071581 0.086229
0.922967 0.071060 0.086772
0.925989 0.070143 0.096452
0.925989 0.070143 0.096433
0.925989 0.070143 0.096432
0.925989 0.070143 0.096431
0.927146 0.081104 0.595630
0.064137 0.070143 0.086006
0.064137 0.070143 0.086006
0.064137 0.070143 0.086006
0.064137 0.070143 0.086006
0.064137 0.070143 0.086006
0.065495 0.070143 0.086006
0.071491 0.070143 0.086006
0.095892 0.070143 0.086006
0.136346 0.070143 0.086006
0.243553 0.070143 0.086006
0.459460 0.070143 0.086006
0.568175 0.070143 0.086006
0.671517 0.070143 0.086006
0.738599 0.070146 0.086006
0.796868 0.070288 0.086006
0.826832 0.070401 0.086006
0.849237 0.070503 0.086006
0.864236 0.070844 0.086006
0.877222 0.071290 0.086006
0.888487 0.071585 0.086006
0.897572 0.071885 0.086006
0.904760 0.072228 0.086006
0.909032 0.072583 0.086006
0.913099 0.072614 0.086006
0.916064 0.072664 0.086006
0.918539 0.072579 0.086065
0.921420 0.071732 0.086220
0.922938 0.071158 0.086732
0.925989 0.070143 0.096454
0.925989 0.070143 0.096433
0.925989 0.070143 0.096432
0.925989 0.070143 0.096431
0.927146 0.081105 0.595629
0.064137 0.070143 0.086006
0.064137 0.070143 0.086006
0.064137 0.070143 0.086006
0.064137 0.070143 0.086006
0.064137 0.070143 0.086006
0.064137 0.070143 0.086006
0.066631 0.070143 0.086006
0.080550 0.070143 0.086006
0.102849 0.070143 0.086006
0.182633 0.070143 0.086006
0.372161 0.070143 0.086006
0.517803 0.070143 0.086006
0.616984 0.070150 0.086006
0.711183 0.070246 0.086006
0.782346 0.070414 0.086006
0.817208 0.070521 0.086006
0.843049 0.070785 0.086006
0.860352 0.071111 0.086006
0.874459 0.071659 0.086006
0.886495 0.071927 0.086006
0.896105 0.072205 0.086006
0.904014 0.072638 0.086006
0.908565 0.072977 0.086006
0.912772 0.072997 0.086006
0.915836 0.073037 0.086006
0.918396 0.072949 0.086057
0.921323 0.072016 0.086207
0.922880 0.071425 0.086668
0.925989 0.070143 0.096457
0.925989 0.070143 0.096433
0.925989 0.070143 0.096432
0.925989 0.070143 0.096431
0.927146 0.081105 0.595629
0.064137 0.070143 0.086006
0.064137 0.070143 0.086006
0.064137 0.070143 0.086006
0.064137 0.070143 0.086006
0.064137 0.070143 0.086006
0.064137 0.070143 0.086006
0.064694 0.070143 0.086006
0.069582 0.070143 0.086006
0.080678 0.070143 0.086006
0.113733 0.070143 0.086006
0.264448 0.070193 0.086006
0.422957 0.070254 0.086006
0.544087 0.070313 0.086006
0.664129 0.070443 0.086006
0.744558 0.070837 0.086006
0.797330 0.071049 0.086006
0.829752 0.071288 0.086006
0.853409 0.071708 0.086006
0.869569 0.072255 0.086006
0.882905 0.072558 0.086006
0.893549 0.072886 0.086006
0.902173 0.073279 0.086006
0.907764 0.073598 0.086006
0.912212 0.073605 0.086006
0.915449 0.073638 0.086006
0.918155 0.073524 0.086048
0.921158 0.072557 0.086192
0.922782 0.071869 0.086591
0.925989 0.070143 0.096463
0.925989 0.070143 0.096434
0.925989 0.070143 0.096432
0.925989 0.070143 0.096431
0.927146 0.081105 0.595628
0.064137 0.070143 0.086006
0.064137 0.070143 0.086006
0.064137 0.070143 0.086006
0.064137 0.070143 0.086006
0.064137 0.070143 0.086006
0.064137 0.070143 0.086006
0.064137 0.070169 0.086006
0.066047 0.070289 0.086006
0.070353 0.070240 0.086006
0.085118 0.070277 0.086006
0.153785 0.070458 0.086006
0.293866 0.070550 0.086006
0.453673 0.070702 0.086006
0.574828 0.070994 0.086006
0.696249 0.071562 0.086006
0.766355 0.071872 0.086006
0.809129 0.072186 0.086006
0.839322 0.072782 0.086006
0.860899 0.073413 0.086006
0.876650 0.073639 0.086006
0.889201 0.074180 0.086006
0.899085 0.075004 0.086006
0.906434 0.075913 0.086006
0.911290 0.075850 0.086006
0.914817 0.075856 0.086006
0.917763 0.075510 0.086042
0.920889 0.073438 0.086181
0.922619 0.072633 0.086521
0.925989 0.070143 0.096476
0.925989 0.070143 0.096436
0.925989 0.070143 0.096433
0.927145 0.080570 0.096432
0.927146 0.081105 0.595628
0.064137 0.070388 0.086006
0.064137 0.070400 0.086006
0.064137 0.070466 0.086006
0.064137 0.070583 0.086006
0.064137 0.070691 0.086006
0.064137 0.070697 0.086006
0.064137 0.070652 0.086006
0.064890 0.071126 0.086006
0.066765 0.070838 0.086006
0.073034 0.070894 0.086006
0.101059 0.071443 0.086006
0.182634 0.071613 0.086006
0.315459 0.071675 0.086006
0.496998 0.072013 0.086006
0.633881 0.072788 0.086006
0.718385 0.073172 0.086006
0.782996 0.073405 0.086006
0.822505 0.074154 0.086006
0.851002 0.076103 0.086006
0.868301 0.077046 0.086006
0.882187 0.078224 0.086006
0.893749 0.079453 0.086006
0.904110 0.080177 0.086006
0.909731 0.079990 0.086006
0.913764 0.079881 0.086006
0.917068 0.079487 0.086043
0.920440 0.076610 0.086184
0.922343 0.074217 0.086481
0.925990 0.070143 0.096506
0.925989 0.070143 0.096439
0.925989 0.070143 0.096435
0.927146 0.080582 0.096432
0.927146 0.081105 0.595628
0.064137 0.072049 0.086006
0.064137 0.072084 0.086006
0.064137 0.072379 0.086006
0.064137 0.072734 0.086006
0.064137 0.073024 0.086006
0.064137 0.073152 0.086006
0.064137 0.073134 0.086006
0.064374 0.073052 0.086006
0.065536 0.072383 0.086006
0.068836 0.072384 0.086006
0.082876 0.073214 0.086006
0.113370 0.073273 0.086006
0.200835 0.073235 0.086006
0.363042 0.073587 0.086006
0.543196 0.075349 0.086006
0.663289 0.076122 0.086006
0.735885 0.076871 0.086006
0.795629 0.078490 0.086006
0.833926 0.080626 0.086006
0.858541 0.081119 0.086006
0.875379 0.081933 0.086006
0.888671 0.083452 0.086006
0.899751 0.085273 0.086006
0.907467 0.085998 0.086006
0.911892 0.087015 0.086006
0.915800 0.086324 0.086058
0.919633 0.082765 0.086211
0.921845 0.080083 0.086503
0.925992 0.070143 0.096610
0.925989 0.070143 0.096451
0.925989 0.070143 0.096440
0.927146 0.080582 0.096434
0.927146 0.081105 0.595628
0.064137 0.073406 0.086006
0.064137 0.073441 0.086006
0.064137 0.073696 0.086006
0.064137 0.074480 0.086006
0.064137 0.075410 0.086006
0.064137 0.076065 0.086006
0.064137 0.076316 0.086006
0.064137 0.076190 0.086006
0.064821 0.075942 0.086006
0.066615 0.075805 0.086006
0.073782 0.078472 0.086006
0.089094 0.078325 0.086006
0.131708 0.077858 0.086006
0.242527 0.078643 0.086006
0.445289 0.080850 0.086006
0.565647 0.081322 0.086006
0.681032 0.081876 0.086006
0.757283 0.083473 0.086006
0.812370 0.086438 0.086006
0.844961 0.087492 0.086006
0.864480 0.089204 0.086006
0.881244 0.090841 0.086006
0.894764 0.092646 0.086006
0.905414 0.093025 0.086006
0.910513 0.093908 0.086006
0.914559 0.094887 0.086082
0.918576 0.093531 0.086249
0.920934 0.092440 0.086606
0.926053 0.070143 0.097870
0.925991 0.070143 0.096571
0.925989 0.070143 0.096472
0.927146 0.080583 0.096444
0.927146 0.081105 0.595628
0.064137 0.078676 0.086006
0.064137 0.078769 0.086006
0.064137 0.079286 0.086006
0.064137 0.080426 0.086006
0.064137 0.081501 0.086006
0.064137 0.082388 0.086006
0.064137 0.082949 0.086006
0.064137 0.083088 0.086006
0.064477 0.082899 0.086006
0.065843 0.082596 0.086006
0.070367 0.086599 0.086006
0.080187 0.086090 0.086006
0.099238 0.084863 0.086006
0.168475 0.085627 0.086006
0.326370 0.088845 0.086006
0.480621 0.089218 0.086006
0.595227 0.089716 0.086006
0.707295 0.091810 0.086006
0.783406 0.095784 0.086006
0.823737 0.096918 0.086006
0.853311 0.098627 0.086006
0.872058 0.104072 0.086006
0.887398 0.110477 0.086006
0.900718 0.111614 0.086006
0.908342 0.112247 0.086006
0.913143 0.113522 0.086112
0.917785 0.109166 0.086265
0.920439 0.105661 0.086599
0.923062 0.097132 0.086977
0.924819 0.091913 0.087522
0.926539 0.078374 0.095061
0.927146 0.080593 0.098280
0.927146 0.081105 0.595627
0.064137 0.090725 0.086006
0.064137 0.090887 0.086006
0.064137 0.091708 0.086006
0.064137 0.094104 0.086006
0.064137 0.096319 0.086006
0.064137 0.098923 0.086006
0.064137 0.102028 0.086006
0.064137 0.103432 0.086006
0.064473 0.103573 0.086006
0.065704 0.102845 0.086006
0.068519 0.101994 0.086006
0.073716 0.099762 0.086006
0.086224 0.096528 0.086006
0.120688 0.097181 0.086006
0.228537 0.105571 0.086006
0.376765 0.105204 0.086006
0.521023 0.105137 0.086006
0.645496 0.109413 0.086006
0.738255 0.119766 0.086006
0.797818 0.120972 0.086006
0.835653 0.124916 0.086006
0.860519 0.132488 0.086006
0.879541 0.139630 0.086006
0.894920 0.141968 0.086006
0.905435 0.147712 0.086006
0.910802 0.156470 0.086154
0.916374 0.146609 0.086305
0.919650 0.138628 0.086617
0.922573 0.124697 0.086960
0.924549 0.109216 0.087503
0.926455 0.081698 0.089987
0.927146 0.080623 0.106168
0.927146 0.080635 0.109570
0.064137 0.109070 0.086006
0.064137 0.109435 0.086006
0.064137 0.111181 0.086006
0.064137 0.116347 0.086006
0.064137 0.122036 0.086006
0.064137 0.128345 0.086006
0.064137 0.134230 0.086006
0.064137 0.137936 0.086006
0.064317 0.139565 0.086006
0.065234 0.139453 0.086006
0.067036 0.138105 0.086006
0.071069 0.136796 0.086006
0.079280 0.128281 0.086006
0.097212 0.129904 0.086006
0.172851 0.144079 0.086006
0.282767 0.141275 0.086006
0.430831 0.139872 0.086006
0.560546 0.146083 0.086006
0.686317 0.164237 0.086006
0.760946 0.164914 0.086006
0.812421 0.173844 0.086006
0.847922 0.182630 0.086006
0.869277 0.195440 0.086006
0.886949 0.203146 0.086006
0.900935 0.207637 0.086059
0.908724 0.217259 0.086203
0.914702 0.214429 0.086369
0.918459 0.215572 0.086664
0.921720 0.195732 0.087005
0.924077 0.162805 0.087489
0.926252 0.093123 0.087603
0.927146 0.080625 0.106214
0.927146 0.080648 0.111707
0.064137 0.140131 0.086006
0.064137 0.140629 0.086006
0.064137 0.142909 0.086006
0.064137 0.149587 0.086006
0.064137 0.160497 0.086006
0.064137 0.174329 0.086006
0.064137 0.182870 0.086006
0.064137 0.188970 0.086006
0.064201 0.193932 0.086006
0.064832 0.195676 0.086006
0.066067 0.194915 0.086006
0.068898 0.192185 0.086006
0.074353 0.190454 0.086006
0.087453 0.192067 0.086006
0.130435 0.222490 0.086006
0.210722 0.214465 0.086006
0.337743 0.208559 0.086006
0.498871 0.218806 0.086006
0.624305 0.244257 0.086006
0.715234 0.242884 0.086006
0.784292 0.248145 0.086006
0.827660 0.259489 0.086006
0.857232 0.275270 0.086006
0.878354 0.276827 0.086007
0.894133 0.287646 0.086126
0.905474 0.308965 0.086264
0.912729 0.298570 0.086454
0.917365 0.292756 0.086720
0.920950 0.281431 0.087046
0.923436 0.269152 0.087503
0.925423 0.252952 0.088340
0.927146 0.080648 0.106273
0.927146 0.080675 0.117184
0.064137 0.212216 0.086006
0.064137 0.213135 0.086006
0.064137 0.217172 0.086006
0.064137 0.227850 0.086006
0.064137 0.245662 0.086006
0.064137 0.257148 0.086006
0.064137 0.268492 0.086006
0.064137 0.279175 0.086006
0.064169 0.288212 0.086006
0.064711 0.293766 0.086006
0.065846 0.295177 0.086006
0.068320 0.293652 0.086006
0.072104 0.289808 0.086006
0.082131 0.286628 0.086006
0.107215 0.320509 0.086006
0.164973 0.314110 0.086006
0.261348 0.303294 0.086006
0.410051 0.311637 0.086006
0.553612 0.331330 0.086006
0.668578 0.329111 0.086006
0.743083 0.332714 0.086006
0.803718 0.344050 0.086006
0.843390 0.357311 0.086006
0.867563 0.361632 0.086087
0.886071 0.374310 0.086198
0.900907 0.385145 0.086354
0.910224 0.386254 0.086553
0.915451 0.392918 0.086798
0.919965 0.379263 0.087099
0.922897 0.359045 0.087502
0.925147 0.337443 0.088114
0.926589 0.311305 0.090395
0.927460 0.281869 0.123929
0.064137 0.330486 0.086006
0.064137 0.331169 0.086006
0.064137 0.334025 0.086006
0.064137 0.341077 0.086006
0.064137 0.356852 0.086006
0.064137 0.370304 0.086006
0.064137 0.388521 0.086006
0.064137 0.400251 0.086006
0.064219 0.407791 0.086006
0.064750 0.412641 0.086006
0.065848 0.415043 0.086006
0.068070 0.415207 0.086006
0.071527 0.413974 0.086006
0.080000 0.412242 0.086006
0.094105 0.410550 0.086006
0.131839 0.403178 0.086006
0.206373 0.396711 0.086006
0.334585 0.400603 0.086006
0.499646 0.416560 0.086006
0.595138 0.412872 0.086006
0.694435 0.415184 0.086006
0.775121 0.424609 0.086006
0.823227 0.435441 0.086085
0.855082 0.440641 0.086169
0.876874 0.447248 0.086271
0.893783 0.460344 0.086480
0.907240 0.461556 0.086663
0.913659 0.462095 0.086884
0.918765 0.462055 0.087178
0.922030 0.460464 0.087506
0.924689 0.437819 0.088062
0.926382 0.406605 0.089729
0.927444 0.319543 0.117489
0.064137 0.409256 0.086006
0.064137 0.409815 0.086006
0.064137 0.412098 0.086006
0.064137 0.417502 0.086006
0.064137 0.428957 0.086006
0.064137 0.441545 0.086006
0.064137 0.457448 0.086006
0.064137 0.467756 0.086006
0.064192 0.477785 0.086006
0.064660 0.485755 0.086006
0.065550 0.489822 0.086006
0.067068 0.491372 0.086006
0.070147 0.491458 0.086006
0.075998 0.489762 0.086006
0.087219 0.488029 0.086006
0.111103 0.486346 0.086006
0.169420 0.477373 0.086006
0.269971 0.481317 0.086006
0.426069 0.500675 0.086006
0.541606 0.495193 0.086006
0.655145 0.495602 0.086006
0.735538 0.505768 0.086066
0.799981 0.517156 0.086175
0.840112 0.519789 0.086252
0.866118 0.525941 0.086398
0.885803 0.535896 0.086610
0.903498 0.536652 0.086776
0.911091 0.541655 0.086995
0.917349 0.541254 0.087272
0.921274 0.536695 0.087513
0.924155 0.532730 0.088087
0.925987 0.530350 0.089755
0.927345 0.422579 0.100779
0.064137 0.481464 0.086006
0.064137 0.482073 0.086006
0.064137 0.484510 0.086006
0.064137 0.490092 0.086006
0.064137 0.501468 0.086006
0.064137 0.516920 0.086006
0.064137 0.526255 0.086006
0.064137 0.535780 0.086006
0.064181 0.543787 0.086006
0.064584 0.549790 0.086006
0.065356 0.553837 0.086006
0.066320 0.555979 0.086006
0.069066 0.556793 0.086006
0.073166 0.556507 0.086006
0.082744 0.555445 0.086006
0.097985 0.554382 0.086006
0.138402 0.553575 0.086006
0.218322 0.556019 0.086006
0.358744 0.568576 0.086006
0.489826 0.564056 0.086006
0.586101 0.563970 0.086059
0.691753 0.569906 0.086160
0.772041 0.577787 0.086265
0.820514 0.579381 0.086375
0.854008 0.585456 0.086544
0.876666 0.593472 0.086742
0.896480 0.596761 0.086898
0.908260 0.600348 0.087121
0.915509 0.602510 0.087376
0.920137 0.604424 0.087523
0.923570 0.598923 0.088122
0.925728 0.591890 0.089469
0.927095 0.591913 0.093268
0.064137 0.556003 0.086006
0.064137 0.556408 0.086006
0.064137 0.557997 0.086006
0.064137 0.561495 0.086006
0.064137 0.568278 0.086006
0.064137 0.580472 0.086006
0.064137 0.587180 0.086006
0.064137 0.597659 0.086006
0.064216 0.605564 0.086006
0.064587 0.611820 0.086006
0.065298 0.615518 0.086006
0.066138 0.617613 0.086006
0.068616 0.618805 0.086006
0.072066 0.618887 0.086006
0.079825 0.618683 0.086006
0.090793 0.618083 0.086006
0.121673 0.617432 0.086006
0.186171 0.617145 0.086006
0.301711 0.625065 0.086029
0.426721 0.621954 0.086084
0.540976 0.621207 0.086155
0.657111 0.624808 0.086253
0.735784 0.629518 0.086409
0.797948 0.630273 0.086531
0.839216 0.635338 0.086693
0.866426 0.641647 0.086878
0.888697 0.644693 0.087039
0.904858 0.648148 0.087254
0.913130 0.652975 0.087495
0.919023 0.651833 0.087569
0.922878 0.652459 0.088220
0.925298 0.655122 0.089407
0.926950 0.649703 0.092166
0.064137 0.622207 0.086006
0.064137 0.622473 0.086006
0.064137 0.623496 0.086006
0.064137 0.625661 0.086006
0.064137 0.629710 0.086006
0.064137 0.638602 0.086006
0.064137 0.645519 0.086006
0.064137 0.653907 0.086006
0.064279 0.660602 0.086006
0.064675 0.667250 0.086006
0.065386 0.672089 0.086006
0.066187 0.675520 0.086006
0.068563 0.677351 0.086006
0.071705 0.678231 0.086006
0.078534 0.678157 0.086006
0.088943 0.677920 0.086006
0.111963 0.677341 0.086006
0.168169 0.676491 0.086048
0.252249 0.676453 0.086131
0.367533 0.672390 0.086181
0.498980 0.671519 0.086250
0.595075 0.675228 0.086389
0.694653 0.680816 0.086569
0.771479 0.681316 0.086684
0.820674 0.685489 0.086837
0.855077 0.692020 0.087031
0.879884 0.694199 0.087191
0.898621 0.698019 0.087395
0.910665 0.700590 0.087515
0.917557 0.702463 0.087717
0.922077 0.704347 0.088359
0.924953 0.703823 0.089379
0.926761 0.708849 0.091785
0.064137 0.668984 0.086006
0.064137 0.669287 0.086006
0.064137 0.670441 0.086006
0.064137 0.672848 0.086006
0.064137 0.677195 0.086006
0.064137 0.684686 0.086006
0.064137 0.692728 0.086006
0.064137 0.697681 0.086006
0.064299 0.703532 0.086006
0.064669 0.708545 0.086006
0.065283 0.711471 0.086006
0.066079 0.713881 0.086006
0.068224 0.715509 0.086006
0.070726 0.716425 0.086006
0.075863 0.716840 0.086006
0.085486 0.716732 0.086006
0.102224 0.716568 0.086046
0.139728 0.716398 0.086124
0.209970 0.716063 0.086197
0.317321 0.716263 0.086276
0.443610 0.715292 0.086382
0.551383 0.717668 0.086551
0.666445 0.720767 0.086727
0.738067 0.720981 0.086834
0.800026 0.723291 0.086988
0.841773 0.726921 0.087193
0.869944 0.728693 0.087343
0.891186 0.732075 0.087505
0.907574 0.734626 0.087539
0.915598 0.737078 0.087925
0.921193 0.738548 0.088508
0.924465 0.741331 0.089452
0.926588 0.744566 0.091411
0.064137 0.712810 0.086006
0.064137 0.712988 0.086006
0.064137 0.713659 0.086006
0.064137 0.715031 0.086006
0.064137 0.717442 0.086006
0.064137 0.721466 0.086006
0.064137 0.727162 0.086006
0.064137 0.730480 0.086006
0.064344 0.735913 0.086006
0.064668 0.738981 0.086006
0.065266 0.742566 0.086006
0.066057 0.745364 0.086006
0.067858 0.746938 0.086006
0.070136 0.747928 0.086006
0.073943 0.748572 0.086006
0.082773 0.748801 0.086058
0.094007 0.748664 0.086132
0.124133 0.748497 0.086208
0.183635 0.748507 0.086287
0.269565 0.748399 0.086407
0.388140 0.748769 0.086543
0.512336 0.750229 0.086705
0.614273 0.753099 0.086875
0.706512 0.753364 0.086989
0.777279 0.755146 0.087157
0.824738 0.758365 0.087356
0.859198 0.760013 0.087495
0.883006 0.762782 0.087524
0.903677 0.765911 0.087732
0.913409 0.767949 0.088144
0.920068 0.770641 0.088684
0.923978 0.772362 0.089551
0.926389 0.776341 0.091224
0.064137 0.746668 0.086006
0.064137 0.746831 0.086006
0.064137 0.747441 0.086006
0.064137 0.748662 0.086006
0.064137 0.750747 0.086006
0.064137 0.754109 0.086006
0.064137 0.759428 0.086006
0.064186 0.762679 0.086006
0.064379 0.766820 0.086006
0.064729 0.770284 0.086006
0.065329 0.773173 0.086006
0.066041 0.775076 0.086006
0.067651 0.776731 0.086006
0.069822 0.777176 0.086020
0.073282 0.777397 0.086094
0.080876 0.777532 0.086171
0.090097 0.777554 0.086243
0.112625 0.777531 0.086339
0.160660 0.777484 0.086468
0.235964 0.777528 0.086600
0.345710 0.777557 0.086726
0.468930 0.777705 0.086855
0.567635 0.778353 0.087034
0.675188 0.778472 0.087154
0.746427 0.778904 0.087318
0.806106 0.780737 0.087501
0.848000 0.782247 0.087519
0.873868 0.784319 0.087658
0.896931 0.786907 0.087996
0.910748 0.788851 0.088376
0.918812 0.791364 0.088874
0.923395 0.793753 0.089690
0.926159 0.798514 0.091145
0.064137 0.777158 0.086006
0.064137 0.777210 0.086006
0.064137 0.777381 0.086006
0.064137 0.777707 0.086006
0.064137 0.778252 0.086006
0.064137 0.779105 0.086006
0.064137 0.782642 0.086006
0.064260 0.785871 0.086006
0.064443 0.788614 0.086006
0.064811 0.792080 0.086006
0.065353 0.794226 0.086006
0.066052 0.796514 0.086006
0.067652 0.798380 0.086064
0.069568 0.799368 0.086135
0.072707 0.800053 0.086205
0.079255 0.800486 0.086280
0.088250 0.800715 0.086402
0.107079 0.800758 0.086533
0.144743 0.800717 0.086660
0.212197 0.800644 0.086785
0.310452 0.800861 0.086911
0.427895 0.801149 0.087053
0.535765 0.801708 0.087200
0.633591 0.802023 0.087314
0.717024 0.802989 0.087472
0.786083 0.804917 0.087522
0.832251 0.806455 0.087615
0.864029 0.808233 0.087907
0.889637 0.810611 0.088263
0.907646 0.812716 0.088617
0.917328 0.814996 0.089106
0.922697 0.817859 0.089859
0.925963 0.821774 0.091121
0.064137 0.800167 0.086006
0.064137 0.800273 0.086006
0.064137 0.800666 0.086006
0.064137 0.801433 0.086006
0.064137 0.802698 0.086006
0.064137 0.804651 0.086006
0.064158 0.807466 0.086006
0.064312 0.810707 0.086006
0.064493 0.812716 0.086006
0.064833 0.815629 0.086006
0.065353 0.817574 0.086006
0.066045 0.819700 0.086069
0.067273 0.821000 0.086137
0.069148 0.822207 0.086210
0.072065 0.822997 0.086286
0.077538 0.823351 0.086398
0.085966 0.823566 0.086528
0.100587 0.823646 0.086654
0.131351 0.823671 0.086779
0.188881 0.823679 0.086900
0.271390 0.823762 0.087037
0.380310 0.824038 0.087179
0.500124 0.824556 0.087324
0.585027 0.825309 0.087466
0.685413 0.825867 0.087516
0.759517 0.827318 0.087638
0.815758 0.828918 0.087845
0.853433 0.830425 0.088177
0.881296 0.832697 0.088510
0.904059 0.834924 0.088869
0.915390 0.837341 0.089353
0.921942 0.839896 0.090011
0.925733 0.844177 0.091159
0.064137 0.823932 0.086006
0.064137 0.824027 0.086006
0.064137 0.824374 0.086006
0.064137 0.825045 0.086006
0.064137 0.826130 0.086006
0.064137 0.827764 0.086006
0.064213 0.830155 0.086006
0.064371 0.833628 0.086006
0.064564 0.835328 0.086006
0.064856 0.837675 0.086027
0.065410 0.839996 0.086096
0.066026 0.841560 0.086159
0.067180 0.843061 0.086229
0.068930 0.844214 0.086314
0.071451 0.844900 0.086430
0.076147 0.845396 0.086555
0.084260 0.845657 0.086680
0.094888 0.845719 0.086805
0.121500 0.845732 0.086924
0.172309 0.845749 0.087065
0.238678 0.845820 0.087205
0.341501 0.846020 0.087343
0.458516 0.846343 0.087479
0.551626 0.846872 0.087516
0.659286 0.847546 0.087572
0.731357 0.848286 0.087878
0.797045 0.849682 0.088112
0.840790 0.850517 0.088426
0.872167 0.852136 0.088749
0.897550 0.853715 0.089128
0.913141 0.855326 0.089602
0.921093 0.856861 0.090180
0.925477 0.859281 0.091220
0.064137 0.846605 0.086006
0.064137 0.846672 0.086006
0.064137 0.846918 0.086006
0.064137 0.847388 0.086006
0.064137 0.848133 0.086006
0.064173 0.849228 0.086006
0.064268 0.850785 0.086006
0.064414 0.852981 0.086017
0.064643 0.854484 0.086072
0.064920 0.855640 0.086128
0.065498 0.857179 0.086202
0.066032 0.857931 0.086258
0.067244 0.858893 0.086362
0.068688 0.859417 0.086477
0.071201 0.859921 0.086604
0.075267 0.860218 0.086725
0.082619 0.860381 0.086845
0.091309 0.860437 0.086969
0.111985 0.860420 0.087112
0.150929 0.860417 0.087252
0.216182 0.860439 0.087391
0.308841 0.860531 0.087503
0.417495 0.860691 0.087521
0.523873 0.860945 0.087620
0.613247 0.861435 0.087858
0.703140 0.862038 0.088142
0.776896 0.863327 0.088361
0.825289 0.863818 0.088667
0.862388 0.864844 0.088996
0.890304 0.865822 0.089385
0.910422 0.867073 0.089824
0.920109 0.868449 0.090352
0.925306 0.870434 0.091312
0.064137 0.864395 0.086006
0.064137 0.864429 0.086006
0.064137 0.864554 0.086006
0.064137 0.864788 0.086006
0.064161 0.865154 0.086006
0.064216 0.865681 0.086006
0.064300 0.866417 0.086022
0.064442 0.867442 0.086082
0.064691 0.868462 0.086145
0.064942 0.869142 0.086195
0.065443 0.870021 0.086261
0.066022 0.870704 0.086352
0.066886 0.871219 0.086467
0.068572 0.871635 0.086588
0.070717 0.871896 0.086709
0.073809 0.872065 0.086825
0.080820 0.872167 0.086947
0.088832 0.872178 0.087087
0.105819 0.872129 0.087224
0.137996 0.872088 0.087360
0.194892 0.872084 0.087494
0.274175 0.872134 0.087517
0.377128 0.872264 0.087570
0.490338 0.872489 0.087770
