LUTs/kodachrome64/Kodachrome64_Modern_IlfochromeP.cube
TITLE "Kodachrome 64 Modern IlfochromeP"
# Adobe RGB in/out. REPLACES AgX. Kodachrome 64 Modern IlfochromeP.
LUT_3D_SIZE 33
DOMAIN_MIN 0.0 0.0 0.0
DOMAIN_MAX 1.0 1.0 1.0
0.138776 0.101263 0.100261
0.139498 0.103718 0.101144
0.140042 0.104253 0.101290
0.149927 0.107685 0.101922
0.213432 0.112558 0.102610
0.268319 0.116315 0.103275
0.383961 0.122837 0.104337
0.525877 0.133089 0.105837
0.606218 0.138471 0.106624
0.716287 0.147580 0.107886
0.826114 0.161955 0.110150
0.881912 0.170911 0.112379
0.917224 0.177887 0.114211
0.948367 0.189556 0.117096
0.970130 0.207002 0.121330
0.982337 0.216500 0.124245
0.987692 0.224978 0.126996
0.992375 0.235316 0.130478
0.996355 0.248463 0.135385
0.996653 0.253592 0.139024
0.996810 0.258803 0.143091
0.996921 0.264963 0.148888
0.997018 0.269110 0.155275
0.997107 0.266799 0.160599
0.997145 0.264876 0.167461
0.997168 0.260338 0.177453
0.997219 0.238615 0.184603
0.997201 0.222783 0.202308
0.997261 0.150454 0.342918
0.997167 0.149502 0.338535
0.997073 0.148602 0.334320
0.996979 0.147714 0.330165
0.996945 0.312180 0.717006
0.138819 0.107904 0.100829
0.138932 0.106794 0.100912
0.139958 0.104903 0.101037
0.150514 0.108370 0.101871
0.207521 0.113843 0.102637
0.258169 0.117072 0.103284
0.368467 0.123467 0.104338
0.506777 0.134116 0.105838
0.587323 0.139504 0.106624
0.699280 0.148462 0.107881
0.815967 0.162892 0.110134
0.875727 0.171762 0.112354
0.912441 0.178648 0.114189
0.945896 0.190608 0.117071
0.968133 0.208039 0.121297
0.981623 0.217476 0.124213
0.987110 0.225902 0.126964
0.991901 0.236245 0.130445
0.995968 0.249380 0.135335
0.996633 0.254476 0.138972
0.996793 0.259662 0.143035
0.996907 0.265809 0.148812
0.997006 0.269949 0.155188
0.997096 0.267632 0.160498
0.997137 0.265701 0.167334
0.997160 0.261160 0.177228
0.997212 0.239439 0.184318
0.997195 0.223530 0.201777
0.997255 0.150406 0.342689
0.997162 0.149457 0.338325
0.997069 0.148561 0.334130
0.996976 0.147677 0.329992
0.996941 0.312043 0.716697
0.138832 0.109714 0.101012
0.138870 0.109616 0.101197
0.138974 0.108361 0.101108
0.141607 0.110800 0.101764
0.165618 0.117476 0.102563
0.215438 0.120045 0.103229
0.320190 0.126718 0.104343
0.454486 0.139159 0.105907
0.529371 0.143996 0.106671
0.641428 0.152126 0.107894
0.776404 0.166665 0.110102
0.847919 0.175114 0.112292
0.894011 0.182139 0.114132
0.933782 0.194645 0.116997
0.960844 0.211977 0.121197
0.977349 0.221155 0.124115
0.984986 0.229363 0.126860
0.990176 0.239707 0.130338
0.994566 0.252782 0.135169
0.996558 0.257746 0.138797
0.996731 0.262832 0.142844
0.996855 0.268920 0.148552
0.996963 0.273033 0.154887
0.997060 0.270691 0.160146
0.997105 0.268726 0.166891
0.997132 0.264174 0.176442
0.997188 0.242468 0.183336
0.997174 0.226280 0.199957
0.997237 0.150236 0.341870
0.997145 0.149299 0.337577
0.997054 0.148416 0.333451
0.996962 0.147546 0.329376
0.996928 0.311551 0.715557
0.138883 0.121141 0.101654
0.138903 0.121213 0.101804
0.138991 0.120334 0.101902
0.139642 0.117660 0.101918
0.146471 0.123231 0.102627
0.164013 0.124400 0.103236
0.230611 0.134060 0.104305
0.353647 0.147258 0.105903
0.442128 0.151495 0.106721
0.549549 0.160032 0.107952
0.701072 0.175156 0.110144
0.791450 0.183462 0.112288
0.855735 0.191380 0.114104
0.906301 0.203248 0.116934
0.946881 0.220165 0.121085
0.965911 0.228675 0.123989
0.980918 0.236416 0.126716
0.986895 0.246615 0.130179
0.991917 0.259510 0.134909
0.996002 0.264166 0.138513
0.996615 0.269021 0.142529
0.996759 0.274963 0.148112
0.996882 0.279002 0.154373
0.996991 0.276599 0.159542
0.997046 0.274559 0.166129
0.997082 0.269982 0.175090
0.997144 0.248335 0.181690
0.997135 0.231623 0.196944
0.997204 0.149928 0.340391
0.997115 0.149011 0.336222
0.997026 0.148153 0.332220
0.996936 0.147311 0.328255
0.996905 0.310652 0.713486
0.138956 0.152265 0.102624
0.138976 0.152520 0.102795
0.139039 0.152568 0.102954
0.139943 0.147953 0.103127
0.143230 0.141228 0.103339
0.149312 0.135179 0.103435
0.175950 0.145403 0.104343
0.256494 0.158937 0.105924
0.338403 0.162257 0.106797
0.444653 0.170050 0.108024
0.591583 0.186929 0.110316
0.704246 0.196715 0.112432
0.787922 0.204760 0.114181
0.860464 0.217470 0.116985
0.913988 0.235069 0.121089
0.947426 0.242291 0.123934
0.966684 0.249010 0.126611
0.981637 0.258388 0.130031
0.987728 0.270812 0.134629
0.992593 0.274829 0.138183
0.996282 0.279207 0.142143
0.996612 0.284834 0.147553
0.996760 0.288696 0.153702
0.996889 0.286161 0.158745
0.996959 0.283975 0.165110
0.997006 0.279353 0.173290
0.997078 0.257884 0.179595
0.997077 0.240615 0.193173
0.997156 0.149482 0.338243
0.997071 0.148589 0.334245
0.996985 0.147767 0.330421
0.996899 0.147018 0.326615
0.996870 0.309330 0.710450
0.139008 0.180475 0.103589
0.139018 0.180081 0.103674
0.139245 0.180635 0.103739
0.139927 0.175598 0.103950
0.141827 0.166072 0.103897
0.146437 0.157744 0.104081
0.158967 0.161740 0.104660
0.199897 0.175221 0.106217
0.257761 0.175969 0.106955
0.345195 0.183519 0.108113
0.474075 0.203931 0.110447
0.585847 0.213503 0.112612
0.694483 0.220920 0.114401
0.791612 0.232365 0.117198
0.871425 0.249600 0.121186
0.914045 0.257852 0.123968
0.946095 0.265875 0.126609
0.965207 0.277059 0.129993
0.981429 0.288807 0.134457
0.987553 0.291561 0.137917
0.992246 0.295108 0.141783
0.995754 0.300247 0.146982
0.996588 0.303836 0.152980
0.996747 0.300944 0.157864
0.996839 0.298404 0.163960
0.996904 0.293548 0.171258
0.996989 0.272461 0.177417
0.997000 0.254656 0.189310
0.997093 0.148912 0.335471
0.997013 0.148039 0.331665
0.996931 0.147260 0.328067
0.996908 0.307441 0.324464
0.996824 0.307592 0.706459
0.139386 0.242374 0.105137
0.139473 0.243640 0.105283
0.139781 0.243194 0.105536
0.140229 0.234841 0.105593
0.142805 0.219856 0.105594
0.146903 0.204687 0.105602
0.154694 0.192984 0.105823
0.175149 0.200359 0.106819
0.209430 0.198021 0.107395
0.275504 0.205479 0.108393
0.379535 0.225515 0.110866
0.478596 0.233886 0.112982
0.578651 0.239100 0.114584
0.697650 0.250235 0.117391
0.803708 0.268288 0.121456
0.868390 0.277171 0.124237
0.911895 0.282480 0.126728
0.946427 0.291874 0.129985
0.966497 0.305977 0.134349
0.981201 0.311142 0.137760
0.986690 0.317417 0.141563
0.991139 0.323733 0.146561
0.994965 0.326487 0.152364
0.996555 0.323070 0.157069
0.996682 0.320010 0.162863
0.996770 0.315017 0.169612
0.996874 0.294451 0.175656
0.996902 0.276029 0.186170
0.997015 0.148265 0.332190
0.996941 0.147370 0.328534
0.996865 0.146641 0.325197
0.996847 0.305211 0.321833
0.996768 0.305458 0.701560
0.139942 0.310969 0.107171
0.140002 0.312110 0.107299
0.140255 0.315408 0.107700
0.141707 0.305053 0.107766
0.143990 0.290309 0.107728
0.148266 0.273801 0.107827
0.155892 0.258063 0.107882
0.168298 0.245559 0.108121
0.184654 0.227198 0.108000
0.228940 0.230939 0.108803
0.312784 0.250912 0.111533
0.393731 0.257226 0.113488
0.480231 0.260992 0.115092
0.588924 0.271310 0.117820
0.719385 0.288672 0.121822
0.802190 0.295700 0.124458
0.866760 0.301944 0.126956
0.910970 0.313037 0.130193
0.946391 0.327032 0.134492
0.966087 0.329966 0.137744
0.981002 0.334599 0.141415
0.986362 0.341787 0.146254
0.990728 0.348467 0.151927
0.994371 0.349725 0.156504
0.996469 0.351946 0.162075
0.996597 0.346757 0.168533
0.996726 0.328836 0.174972
0.996778 0.309765 0.184733
0.996925 0.147784 0.328805
0.996858 0.146612 0.324952
0.996788 0.145925 0.321879
0.996775 0.302529 0.318770
0.996701 0.302963 0.695831
0.140170 0.345855 0.108189
0.140213 0.346740 0.108281
0.140643 0.346032 0.108483
0.142006 0.339112 0.108604
0.143879 0.327787 0.108653
0.147238 0.312936 0.108668
0.152741 0.297301 0.108777
0.162167 0.282850 0.108914
0.177028 0.271347 0.109285
0.203857 0.263411 0.109792
0.266344 0.279736 0.112479
0.331694 0.284010 0.114194
0.404657 0.286058 0.115871
0.496893 0.294843 0.118387
0.618317 0.312008 0.122434
0.721253 0.317966 0.124937
0.801691 0.323732 0.127340
0.868698 0.333859 0.130472
0.914645 0.347623 0.134769
0.946476 0.352445 0.137963
0.964529 0.359390 0.141584
0.980413 0.364692 0.146230
0.986019 0.370026 0.151681
0.990576 0.369947 0.156026
0.993666 0.371295 0.161332
0.995900 0.372669 0.167603
0.996554 0.365734 0.174621
0.996622 0.359559 0.185572
0.996827 0.157549 0.331312
0.996764 0.146110 0.321567
0.996700 0.145188 0.318314
0.996694 0.299513 0.315370
0.996625 0.300149 0.689373
0.141158 0.398898 0.110001
0.141280 0.397788 0.110040
0.141763 0.393050 0.110131
0.142864 0.387529 0.110360
0.144380 0.377301 0.110536
0.147581 0.364153 0.110634
0.152167 0.348810 0.110799
0.160259 0.333488 0.111015
0.172550 0.319596 0.111338
0.192538 0.308195 0.111837
0.237136 0.316565 0.113962
0.288984 0.314060 0.115231
0.347441 0.313993 0.116779
0.427033 0.321307 0.119154
0.529764 0.337958 0.123243
0.627384 0.342703 0.125573
0.725374 0.347218 0.127902
0.808212 0.356325 0.130913
0.875037 0.371546 0.135324
0.915478 0.376380 0.138400
0.947223 0.380920 0.141783
0.965161 0.389574 0.146391
0.979926 0.398700 0.151749
0.985742 0.399343 0.155878
0.989828 0.398871 0.160859
0.992760 0.398915 0.166760
0.995498 0.390916 0.172888
0.996478 0.383484 0.182792
0.996564 0.367288 0.193651
0.996601 0.348231 0.211727
0.996632 0.285537 0.305374
0.996604 0.296283 0.321216
0.996542 0.297070 0.682305
0.143017 0.475299 0.113861
0.143097 0.473377 0.113862
0.143461 0.468135 0.113924
0.144421 0.464346 0.114222
0.146519 0.454780 0.114415
0.149236 0.441304 0.114583
0.154637 0.425722 0.114794
0.162441 0.408441 0.115064
0.174332 0.391577 0.115378
0.193410 0.376348 0.115896
0.223463 0.364215 0.116604
0.261604 0.352866 0.117196
0.306970 0.344235 0.117920
0.372431 0.350087 0.120129
0.463072 0.366509 0.124251
0.545608 0.369808 0.126441
0.639304 0.373051 0.128605
0.738347 0.382152 0.131478
0.821801 0.398211 0.136068
0.878471 0.401503 0.138969
0.918223 0.407532 0.142283
0.947758 0.417131 0.146854
0.966138 0.423720 0.151925
0.980686 0.425394 0.155890
0.985389 0.429516 0.160703
0.988874 0.434775 0.166313
0.992393 0.425663 0.171720
0.994356 0.416795 0.180637
0.996050 0.400058 0.190516
0.996477 0.378015 0.204994
0.996525 0.301290 0.247676
0.996507 0.292966 0.345435
0.996451 0.291018 0.352618
0.143988 0.526544 0.116437
0.144053 0.524921 0.116438
0.144338 0.520222 0.116492
0.145504 0.516378 0.116797
0.147210 0.507305 0.117039
0.149739 0.495519 0.117336
0.154776 0.480687 0.117689
0.161395 0.462303 0.117920
0.171583 0.445132 0.118216
0.187030 0.428966 0.118587
0.211955 0.414319 0.119097
0.245306 0.402236 0.119799
0.282086 0.385179 0.119863
0.331902 0.382112 0.121544
0.409909 0.398600 0.125450
0.481911 0.400260 0.127478
0.563366 0.402733 0.129555
0.662188 0.411176 0.132305
0.760502 0.426276 0.136902
0.829163 0.428946 0.139710
0.883053 0.435660 0.143011
0.922603 0.443272 0.147466
0.950258 0.452360 0.152432
0.967465 0.456043 0.156276
0.980717 0.457697 0.160801
0.985140 0.461258 0.166112
0.989074 0.458616 0.171031
0.991403 0.457490 0.179322
0.993480 0.446713 0.188967
0.994761 0.423658 0.201349
0.995824 0.340718 0.208597
0.995812 0.289380 0.340909
0.995037 0.287786 0.357107
0.144847 0.567986 0.118495
0.144939 0.566572 0.118499
0.145327 0.562303 0.118548
0.146294 0.557857 0.118782
0.147824 0.551747 0.119103
0.150127 0.542487 0.119432
0.154383 0.529163 0.119716
0.160193 0.513291 0.120073
0.168729 0.495597 0.120441
0.181325 0.477297 0.120864
0.202048 0.460115 0.121408
0.229198 0.446102 0.122039
0.265466 0.434595 0.122932
0.308867 0.427021 0.124095
0.368546 0.433095 0.126873
0.432197 0.433602 0.128759
0.501805 0.434739 0.130617
0.590923 0.442345 0.133296
0.696336 0.456502 0.138238
0.773628 0.458283 0.140732
0.839413 0.464072 0.143766
0.890778 0.473457 0.148348
0.928054 0.484776 0.153234
0.953601 0.486350 0.156761
0.969109 0.491999 0.161178
0.980585 0.499746 0.166354
0.985535 0.494505 0.170728
0.988519 0.491038 0.178244
0.990945 0.484536 0.187278
0.992431 0.475076 0.199514
0.993446 0.462094 0.217329
0.994181 0.285900 0.336324
0.993499 0.284551 0.364947
0.146317 0.618019 0.121481
0.146396 0.616907 0.121490
0.146720 0.613443 0.121555
0.147493 0.609295 0.121808
0.148932 0.606184 0.122343
0.151066 0.598035 0.122738
0.155282 0.587479 0.123107
0.160608 0.573521 0.123545
0.168352 0.557330 0.123981
0.179451 0.539732 0.124365
0.197329 0.522456 0.124799
0.222010 0.506048 0.125415
0.253250 0.490954 0.126055
0.292119 0.478369 0.126967
0.344808 0.483146 0.129597
0.392956 0.471133 0.130331
0.454922 0.469125 0.131873
0.530164 0.476098 0.134729
0.628258 0.491334 0.139563
0.716559 0.493033 0.142037
0.790645 0.497960 0.145075
0.853863 0.507236 0.149456
0.900131 0.517003 0.154112
0.935593 0.520589 0.157556
0.955968 0.526811 0.161794
0.970652 0.531886 0.166626
0.981654 0.531905 0.170851
0.985149 0.534088 0.177849
0.988242 0.526113 0.185937
0.990172 0.514906 0.196465
0.991484 0.499391 0.210783
0.992087 0.481016 0.241441
0.992175 0.467008 0.375161
0.148118 0.679659 0.125844
0.148189 0.678682 0.125857
0.148470 0.675569 0.125930
0.149161 0.671499 0.126164
0.150831 0.669684 0.126792
0.153386 0.661503 0.127178
0.157450 0.653030 0.127697
0.162718 0.641490 0.128116
0.170213 0.627855 0.128612
0.180923 0.612799 0.129064
0.198603 0.597242 0.129601
0.221549 0.581197 0.130092
0.250935 0.565045 0.130761
0.286787 0.550703 0.131467
0.326389 0.538414 0.132379
0.368869 0.524119 0.132886
0.418011 0.511927 0.133613
0.483875 0.514849 0.136531
0.569832 0.528584 0.141122
0.651894 0.529131 0.143380
0.736507 0.533319 0.146619
0.809743 0.541833 0.150867
0.870005 0.550591 0.155272
0.909542 0.555063 0.158576
0.942336 0.559854 0.162541
0.958852 0.567914 0.167253
0.973905 0.568469 0.171341
0.981913 0.568140 0.177765
0.985402 0.567008 0.185266
0.987672 0.564537 0.194706
0.989385 0.549312 0.207378
0.990265 0.526823 0.229198
0.990581 0.475519 0.355811
0.149138 0.711587 0.128292
0.149215 0.710894 0.128306
0.149520 0.708642 0.128376
0.150198 0.705490 0.128584
0.151686 0.703311 0.129097
0.154418 0.698784 0.129593
0.158273 0.693853 0.130250
0.162794 0.684654 0.130593
0.169403 0.673194 0.131056
0.179202 0.659693 0.131629
0.193979 0.644666 0.132049
0.214287 0.629471 0.132566
0.239982 0.615021 0.133164
0.272917 0.601310 0.134047
0.309083 0.589264 0.135099
0.349846 0.577827 0.136396
0.393352 0.563683 0.137065
0.449277 0.558138 0.138992
0.520759 0.566994 0.142897
0.596383 0.566854 0.145221
0.680228 0.569672 0.148287
0.761413 0.577494 0.152416
0.829682 0.585876 0.156665
0.881740 0.589141 0.159750
0.919075 0.594198 0.163558
0.946534 0.601559 0.168072
0.963937 0.602236 0.172064
0.975510 0.605566 0.178243
0.982466 0.604550 0.185081
0.985303 0.600118 0.193330
0.987258 0.595742 0.205022
0.988315 0.592319 0.226405
0.988932 0.527095 0.305380
0.150248 0.741810 0.130550
0.150315 0.741220 0.130564
0.150579 0.739274 0.130625
0.151154 0.736338 0.130801
0.152846 0.733798 0.131217
0.155515 0.731145 0.131808
0.158510 0.725134 0.132280
0.162863 0.718123 0.132785
0.168864 0.709666 0.133298
0.177700 0.699585 0.133991
0.190387 0.688440 0.134761
0.208643 0.675662 0.135487
0.231804 0.661308 0.136239
0.260451 0.647530 0.137165
0.294339 0.634682 0.138140
0.330737 0.623330 0.139222
0.373394 0.613567 0.140525
0.423984 0.607371 0.142284
0.486937 0.609276 0.145730
0.547888 0.603127 0.147238
0.626489 0.605212 0.150221
0.715022 0.611311 0.154136
0.788864 0.618519 0.158256
0.848628 0.621059 0.161132
0.894067 0.626451 0.164796
0.928787 0.632905 0.169048
0.952929 0.635569 0.173180
0.966869 0.638033 0.178884
0.978262 0.639068 0.185273
0.982699 0.639520 0.192794
0.985139 0.634322 0.202887
0.986510 0.627672 0.219834
0.987194 0.625694 0.262238
0.151668 0.775491 0.133305
0.151766 0.774977 0.133320
0.152146 0.773261 0.133392
0.152955 0.770645 0.133594
0.154466 0.768100 0.134098
0.157126 0.767173 0.135084
0.159538 0.760931 0.135590
0.164093 0.755957 0.136510
0.169638 0.748370 0.137240
0.177578 0.739295 0.137914
0.189245 0.729169 0.138726
0.206239 0.718217 0.139497
0.227690 0.707081 0.140362
0.253441 0.695790 0.141105
0.284989 0.685259 0.142109
0.318882 0.674108 0.143112
0.357808 0.663265 0.144241
0.402819 0.654080 0.145850
0.461332 0.654859 0.149554
0.513559 0.644713 0.150409
0.579248 0.639563 0.152202
0.662223 0.645159 0.156004
0.744278 0.651758 0.159996
0.811369 0.653780 0.162694
0.868501 0.659156 0.166219
0.907405 0.665260 0.170260
0.941179 0.668253 0.174530
0.957611 0.671213 0.179875
0.970648 0.674936 0.185939
0.980049 0.673246 0.192637
0.983004 0.672656 0.201714
0.984625 0.673396 0.216243
0.985581 0.667018 0.248547
0.154028 0.809908 0.138024
0.154119 0.809546 0.138044
0.154466 0.808325 0.138126
0.155192 0.806415 0.138334
0.156509 0.804404 0.138783
0.158810 0.803409 0.139668
0.161447 0.799728 0.140329
0.165804 0.795910 0.141230
0.171199 0.789439 0.142006
0.178982 0.781965 0.142880
0.190633 0.772957 0.143644
0.206922 0.763083 0.144645
0.226676 0.752517 0.145612
0.251146 0.741955 0.146642
0.280639 0.731320 0.147665
0.313650 0.721400 0.148991
0.349415 0.712212 0.150289
0.390988 0.703791 0.151627
0.439002 0.696821 0.153306
0.487405 0.687960 0.153984
0.544726 0.681995 0.155419
0.616090 0.679702 0.157980
0.700944 0.684827 0.161814
0.771568 0.686176 0.164381
0.833815 0.689773 0.167719
0.884106 0.694706 0.172054
0.922239 0.696877 0.176078
0.947642 0.700333 0.181204
0.963167 0.702402 0.186703
0.973904 0.703561 0.192968
0.980861 0.704427 0.201197
0.982873 0.702885 0.213230
0.983991 0.705901 0.241222
0.155317 0.832517 0.140427
0.155399 0.832191 0.140446
0.155707 0.831081 0.140525
0.156344 0.829294 0.140716
0.157480 0.827265 0.141115
0.159422 0.825829 0.141882
0.162300 0.823497 0.142722
0.165847 0.819175 0.143435
0.171184 0.814807 0.144424
0.178335 0.809227 0.145520
0.188082 0.802139 0.146399
0.202598 0.794611 0.147428
0.220677 0.785030 0.148490
0.242589 0.775014 0.149542
0.270182 0.765105 0.150657
0.301023 0.755398 0.151757
0.333703 0.746453 0.153081
0.371973 0.738327 0.154453
0.415412 0.730599 0.155816
0.464674 0.724233 0.157480
0.516312 0.717361 0.158754
0.581984 0.714633 0.161194
0.655644 0.713188 0.163880
0.732183 0.713649 0.166150
0.800849 0.716758 0.169356
0.858205 0.721061 0.174041
0.902004 0.723231 0.177820
0.934286 0.726837 0.182720
0.954978 0.729325 0.187814
0.967488 0.731438 0.193583
0.976730 0.732252 0.200936
0.981085 0.734139 0.211600
0.982477 0.736202 0.234088
0.156618 0.855296 0.143000
0.156692 0.855008 0.143019
0.156970 0.854019 0.143097
0.157538 0.852395 0.143279
0.158535 0.850457 0.143644
0.160205 0.848829 0.144382
0.163406 0.847666 0.145625
0.166364 0.843197 0.146329
0.171882 0.839988 0.147662
0.177663 0.833970 0.148468
0.186969 0.828124 0.149571
0.200775 0.821460 0.150680
0.216999 0.813822 0.151735
0.236705 0.805892 0.152732
0.262277 0.798037 0.153891
0.291278 0.789534 0.155054
0.321662 0.780464 0.156217
0.356618 0.772104 0.157531
0.397192 0.764681 0.158964
0.442305 0.757851 0.160365
0.492571 0.752213 0.162006
0.551660 0.748352 0.164310
0.621399 0.746521 0.166893
0.693119 0.742418 0.168259
0.763233 0.743519 0.171259
0.827048 0.747317 0.176214
0.880524 0.749301 0.179737
0.917151 0.752268 0.184325
0.946163 0.755396 0.189179
0.960965 0.757141 0.194343
0.971674 0.759646 0.201163
0.978189 0.760938 0.210479
0.981016 0.764848 0.229523
0.157999 0.876184 0.146397
0.158068 0.875998 0.146422
0.158324 0.875358 0.146520
0.158841 0.874294 0.146739
0.159734 0.872982 0.147163
0.161426 0.871772 0.147929
0.164569 0.871244 0.149252
0.167363 0.868096 0.150024
0.172178 0.864495 0.151147
0.178123 0.859881 0.152212
0.187177 0.854713 0.153370
0.198978 0.848203 0.154383
0.214383 0.841408 0.155531
0.233419 0.834111 0.156654
0.256925 0.826545 0.157715
0.284089 0.819128 0.158979
0.313268 0.811827 0.160166
0.345703 0.804906 0.161435
0.382950 0.798447 0.162768
0.426109 0.792578 0.164250
0.472487 0.786349 0.165712
0.524527 0.781158 0.167328
0.590123 0.778334 0.169802
0.657852 0.774077 0.171212
0.729843 0.771389 0.174083
0.796901 0.772756 0.178426
0.855984 0.774836 0.181768
0.898762 0.777471 0.186146
0.933836 0.780581 0.190713
0.953952 0.782656 0.195422
0.966614 0.785236 0.201612
0.974319 0.787416 0.209982
0.978711 0.792389 0.226316
0.159248 0.893409 0.149809
0.159311 0.893247 0.149834
0.159547 0.892687 0.149935
0.160018 0.891740 0.150153
0.160928 0.890538 0.150562
0.162641 0.889340 0.151282
0.165384 0.888571 0.152498
0.168373 0.886732 0.153569
0.172744 0.883904 0.154534
0.178885 0.881297 0.155896
0.186479 0.877204 0.156808
0.198344 0.873060 0.158001
0.213227 0.868159 0.159311
0.230345 0.861126 0.160376
0.251855 0.853949 0.161452
0.277464 0.846789 0.162650
0.305725 0.839783 0.163952
0.336150 0.833005 0.165244
0.371180 0.826606 0.166560
0.411194 0.820657 0.167941
0.455778 0.815508 0.169429
0.503905 0.810898 0.171149
0.561236 0.807016 0.173342
0.625761 0.803273 0.174852
0.698034 0.800590 0.177579
0.764316 0.799251 0.181237
0.826949 0.799022 0.183786
0.879303 0.800922 0.187974
0.918702 0.803361 0.192365
0.946496 0.805342 0.196755
0.961411 0.807350 0.202226
0.970443 0.809831 0.209927
0.975730 0.813301 0.223873
0.160064 0.909670 0.151886
0.160121 0.909519 0.151910
0.160332 0.908994 0.152004
0.160834 0.908092 0.152206
0.161771 0.906905 0.152580
0.163274 0.905621 0.153232
0.165658 0.904556 0.154329
0.168899 0.903321 0.155677
0.172667 0.900396 0.156493
0.178363 0.897908 0.157875
0.185169 0.894200 0.158870
0.196594 0.890457 0.160157
0.209063 0.885852 0.161250
0.225716 0.881162 0.162523
0.246042 0.876175 0.163763
0.269568 0.870952 0.164862
0.296177 0.864627 0.166138
0.324530 0.858013 0.167417
0.357339 0.851739 0.168760
0.394345 0.845872 0.170096
0.436403 0.840523 0.171899
0.481731 0.835826 0.173880
0.533258 0.831814 0.176041
0.596030 0.828453 0.178290
0.664301 0.825225 0.180920
0.735579 0.823325 0.184460
0.801274 0.821875 0.186460
0.856599 0.821174 0.189796
0.902185 0.823414 0.193894
0.936585 0.825469 0.198280
0.955942 0.827587 0.203122
0.966665 0.829716 0.209816
0.972868 0.833703 0.222243
0.160927 0.923180 0.154228
0.160996 0.923070 0.154252
0.161250 0.922686 0.154344
0.161753 0.922021 0.154539
0.162600 0.921129 0.154894
0.163946 0.920127 0.155502
0.166052 0.919126 0.156512
0.169657 0.918492 0.158151
0.172943 0.915704 0.158868
0.177800 0.913119 0.160062
0.184810 0.910216 0.161399
0.194140 0.906415 0.162479
0.206951 0.902428 0.163760
0.222501 0.898076 0.165101
0.239770 0.893329 0.166254
0.262679 0.888515 0.167503
0.288476 0.883652 0.168798
0.316012 0.878820 0.170133
0.346341 0.874190 0.171778
0.380801 0.869832 0.173652
0.419926 0.864603 0.175519
0.463024 0.859793 0.177471
0.510175 0.855504 0.179468
0.567223 0.851992 0.181711
0.633089 0.849051 0.184029
0.706396 0.846520 0.187479
0.772856 0.845259 0.189315
0.831917 0.843406 0.192254
0.884364 0.843096 0.195463
0.923248 0.844952 0.199433
0.950188 0.847205 0.204167
0.962905 0.849309 0.209995
0.970132 0.852925 0.220995
0.161782 0.934316 0.156552
0.161846 0.934222 0.156576
0.162080 0.933892 0.156669
0.162542 0.933315 0.156861
0.163314 0.932530 0.157207
0.164529 0.931618 0.157791
0.166413 0.930722 0.158747
0.169632 0.930059 0.160284
0.173328 0.928398 0.161378
0.177536 0.926252 0.162437
0.184914 0.924346 0.164120
0.192773 0.921226 0.165051
0.205811 0.917996 0.166533
0.218825 0.913739 0.167668
0.236164 0.909455 0.169066
0.257516 0.904926 0.170339
0.281131 0.900316 0.172043
0.307467 0.895713 0.173872
0.335980 0.891203 0.175705
0.368711 0.886943 0.177586
0.405494 0.882962 0.179514
0.446604 0.879337 0.181483
0.491079 0.876064 0.183473
0.542135 0.873175 0.185512
0.604092 0.870864 0.187838
0.673075 0.868763 0.190221
0.744603 0.867787 0.191902
0.808282 0.865532 0.194774
0.868001 0.864779 0.197627
0.909329 0.864176 0.200747
0.943891 0.866029 0.205042
0.959081 0.868233 0.210311
0.967707 0.871100 0.220204
0.162196 0.948681 0.157554
0.162249 0.948586 0.157574
0.162449 0.948250 0.157651
0.162845 0.947651 0.157816
0.163508 0.946805 0.158118
0.164560 0.945759 0.158644
0.166207 0.944606 0.159531
0.168914 0.943499 0.161002
0.173046 0.942029 0.162542
0.176661 0.939737 0.163463
0.182549 0.937500 0.164956
0.190820 0.934776 0.166291
0.201518 0.931666 0.167558
0.214709 0.928334 0.168935
0.230759 0.924747 0.170304
0.249551 0.921051 0.171997
0.273040 0.916897 0.173917
0.298503 0.912454 0.175754
0.324582 0.908068 0.177561
0.355088 0.903887 0.179421
0.389454 0.899979 0.181324
0.428378 0.896384 0.183274
0.471148 0.893149 0.185265
0.518257 0.890299 0.187298
