LUTs/kodachrome64/Kodachrome64_Modern_Normal.cube
TITLE "Kodachrome 64 Modern Normal"
# Adobe RGB in/out. REPLACES AgX. Kodachrome 64 Modern Normal.
LUT_3D_SIZE 5
DOMAIN_MIN 0.0 0.0 0.0
DOMAIN_MAX 1.0 1.0 1.0
0.081099 0.084717 0.091118
0.763315 0.084717 0.091118
0.989973 0.095431 0.091118
0.989973 0.109242 0.091725
0.989973 0.156575 0.852290
0.081099 0.215813 0.091118
0.084463 0.112668 0.091118
0.934260 0.174239 0.091118
0.989973 0.268732 0.091553
0.989973 0.139495 0.835605
0.081099 0.880936 0.091118
0.083401 0.855826 0.091118
0.270187 0.742145 0.091173
0.968025 0.762507 0.091688
0.989973 0.761306 0.101619
0.082083 0.967562 0.091409
0.083704 0.965174 0.091501
0.138372 0.954483 0.091733
0.806189 0.945354 0.092342
0.986333 0.946364 0.094396
0.081738 0.979264 0.091374
0.083582 0.984352 0.091345
0.091813 0.982101 0.091936
0.378172 0.976713 0.092629
0.984497 0.975021 0.093155
0.081099 0.084717 0.174397
0.749303 0.086486 0.499543
0.989973 0.102546 0.342076
0.989973 0.118714 0.366189
0.989973 0.150013 0.847047
0.081099 0.114559 0.099658
0.095541 0.097062 0.094003
0.961779 0.173675 0.116787
0.989973 0.272700 0.171191
0.989973 0.134258 0.827959
0.082479 0.830002 0.103354
0.088554 0.779772 0.099338
0.465788 0.651613 0.096692
0.977322 0.732458 0.105756
0.989723 0.763211 0.368819
0.083608 0.961487 0.099691
0.086652 0.958834 0.099816
0.207436 0.948290 0.100411
0.885137 0.941313 0.103176
0.986120 0.944953 0.123924
0.081829 0.979564 0.095185
0.083617 0.984510 0.094803
0.097258 0.981027 0.094943
0.443762 0.976015 0.097848
0.984830 0.974810 0.100186
0.081099 0.094372 0.928131
0.441382 0.131516 0.973689
0.989973 0.247664 0.971820
0.989973 0.232943 0.949295
0.989973 0.156757 0.956761
0.081762 0.299233 0.911265
0.212185 0.329076 0.931990
0.975554 0.339203 0.908020
0.989973 0.382202 0.908201
0.989973 0.137616 0.944035
0.084184 0.737334 0.700716
0.097848 0.692075 0.659383
0.578966 0.572921 0.568598
0.979933 0.726983 0.741538
0.988999 0.794107 0.890733
0.086537 0.950324 0.615905
0.095622 0.948441 0.601050
0.306226 0.940866 0.571449
0.932235 0.934802 0.571512
0.985550 0.943701 0.771088
0.082720 0.982384 0.582481
0.083160 0.982973 0.566062
0.113724 0.978660 0.456980
0.568192 0.974741 0.462085
0.984796 0.974855 0.545127
0.081099 0.226945 0.982244
0.208272 0.374101 0.983755
0.989973 0.537603 0.983976
0.989973 0.492201 0.980947
0.989973 0.184968 0.976845
0.082714 0.546965 0.982308
0.228326 0.652788 0.983073
0.984891 0.671747 0.981924
0.989973 0.610566 0.977676
0.989973 0.161653 0.975031
0.086752 0.804535 0.962810
0.116450 0.804545 0.963246
0.831022 0.793923 0.959153
0.983242 0.816092 0.959236
0.989306 0.841231 0.966045
0.088382 0.946812 0.921580
0.101852 0.945177 0.920824
0.367541 0.938422 0.915505
0.941099 0.930786 0.907100
0.985256 0.945329 0.943621
0.082576 0.980462 0.810533
0.083104 0.981578 0.803479
0.113732 0.978041 0.856411
0.587860 0.974716 0.861296
0.984648 0.975644 0.912170
0.159441 0.463271 0.987961
0.927683 0.503287 0.987963
0.989973 0.616161 0.987973
0.989973 0.557705 0.986887
0.989973 0.293829 0.982488
0.233415 0.661788 0.987956
0.915325 0.701663 0.987959
0.989973 0.768239 0.987860
0.989973 0.640055 0.984996
0.989973 0.280084 0.981850
0.196154 0.875572 0.984020
0.558096 0.870499 0.983413
0.981413 0.857830 0.982485
0.989963 0.840713 0.980610
0.989973 0.825307 0.978744
0.095966 0.947875 0.978523
0.140491 0.946838 0.977977
0.848464 0.942931 0.976503
0.980826 0.940146 0.975324
0.986172 0.944538 0.974996
0.081986 0.977144 0.954595
0.082994 0.980323 0.966489
0.090487 0.980166 0.974464
0.504930 0.976581 0.974407
0.984611 0.977172 0.974378
