LUTs/kodachrome64/Kodachrome64_Classic_IlfochromeM.cube
TITLE "Kodachrome 64 Classic IlfochromeM"
# Adobe RGB in/out. REPLACES AgX. Kodachrome 64 Classic IlfochromeM.
LUT_3D_SIZE 9
DOMAIN_MIN 0.0 0.0 0.0
DOMAIN_MAX 1.0 1.0 1.0
0.117094 0.082435 0.080060
0.147607 0.085264 0.081510
0.333637 0.096319 0.083824
0.607294 0.116189 0.090660
0.815584 0.138738 0.099424
0.892179 0.162198 0.111871
0.921997 0.174522 0.128541
0.941788 0.110794 0.245938
0.944177 0.229451 0.536300
0.118226 0.107040 0.081617
0.122030 0.110703 0.082538
0.230960 0.116386 0.085868
0.507348 0.133628 0.092332
0.777909 0.156448 0.100807
0.883507 0.181232 0.112717
0.920606 0.192007 0.128433
0.941788 0.110817 0.245991
0.944178 0.229458 0.536295
0.119043 0.188831 0.085128
0.120315 0.202798 0.087135
0.149535 0.205253 0.091521
0.306931 0.214140 0.097742
0.595973 0.233210 0.106279
0.834646 0.258074 0.116566
0.911602 0.270030 0.130252
0.941919 0.118496 0.252067
0.944178 0.229459 0.536295
0.120317 0.318406 0.093111
0.122279 0.329483 0.094665
0.139683 0.346601 0.099709
0.212406 0.345104 0.106334
0.409326 0.351740 0.114641
0.705587 0.365365 0.124172
0.884529 0.382564 0.136255
0.931418 0.380341 0.154111
0.944178 0.227376 0.301159
0.124095 0.468707 0.102919
0.126205 0.477369 0.104589
0.139311 0.500362 0.110316
0.184685 0.508598 0.116934
0.312867 0.506565 0.124686
0.537115 0.513116 0.134387
0.818116 0.526613 0.145188
0.920716 0.537416 0.160202
0.944071 0.530714 0.228549
0.129551 0.628839 0.114402
0.131390 0.634407 0.115631
0.142427 0.656737 0.121076
0.175576 0.670301 0.128295
0.266913 0.672527 0.136437
0.430635 0.672661 0.145162
0.696187 0.680904 0.155962
0.899604 0.694886 0.171474
0.942614 0.710542 0.210947
0.135311 0.775085 0.125617
0.136824 0.777914 0.126773
0.145493 0.789045 0.131783
0.172277 0.798362 0.139159
0.242100 0.801535 0.147493
0.368625 0.801734 0.156761
0.575397 0.804276 0.168808
0.847253 0.811363 0.184571
0.940731 0.824532 0.210902
0.139598 0.880820 0.134585
0.140431 0.880638 0.135122
0.148036 0.880518 0.140468
0.168919 0.882495 0.147766
0.221071 0.882686 0.156668
0.326753 0.881907 0.168156
0.487015 0.882462 0.180824
0.768375 0.886193 0.194258
0.939506 0.892804 0.212988
0.139007 0.902623 0.135587
0.139008 0.902626 0.135588
0.151973 0.926030 0.135620
0.152221 0.926598 0.149060
0.192328 0.929853 0.159430
0.280748 0.927702 0.171221
0.409502 0.926937 0.182825
0.619235 0.927996 0.193194
0.943082 0.931012 0.201279
0.117759 0.084470 0.110680
0.135650 0.088703 0.119815
0.348115 0.100621 0.122160
0.654881 0.120687 0.123093
0.827282 0.141885 0.121518
0.894519 0.165290 0.127097
0.921995 0.177492 0.142054
0.941788 0.110816 0.245997
0.944178 0.229458 0.536302
0.118751 0.105257 0.105855
0.136596 0.116855 0.119156
0.285940 0.121036 0.117237
0.578199 0.138904 0.121695
0.804755 0.160648 0.122194
0.887227 0.184267 0.127749
0.920700 0.194826 0.141556
0.941789 0.110851 0.246080
0.944178 0.229459 0.536296
0.119646 0.181083 0.107381
0.124334 0.191375 0.110357
0.173719 0.199965 0.115771
0.381733 0.216885 0.122592
0.662107 0.237411 0.126088
0.847568 0.260155 0.131493
0.912697 0.271613 0.142892
0.941957 0.120862 0.254650
0.944178 0.229459 0.536295
0.122356 0.310549 0.112582
0.125881 0.319457 0.114663
0.149584 0.334727 0.120374
0.247642 0.339139 0.127094
0.460383 0.351156 0.132975
0.746519 0.366099 0.138708
0.891181 0.382879 0.148307
0.931649 0.381255 0.168087
0.944178 0.229482 0.536287
0.126274 0.459825 0.117493
0.129049 0.467893 0.119532
0.144621 0.489038 0.125659
0.198933 0.499241 0.133266
0.341164 0.501361 0.141405
0.571511 0.510950 0.148013
0.831410 0.525670 0.157306
0.921988 0.536757 0.174635
0.944052 0.532521 0.253132
0.131243 0.621502 0.124836
0.133377 0.627008 0.126472
0.145561 0.648087 0.132566
0.182817 0.662030 0.140390
0.280709 0.666237 0.148839
0.453102 0.668668 0.158564
0.721374 0.678723 0.170362
0.903258 0.693457 0.186033
0.942664 0.710861 0.225652
0.136538 0.771413 0.134075
0.138145 0.774185 0.135387
0.147961 0.785196 0.140933
0.176555 0.794436 0.148691
0.250498 0.798157 0.158097
0.381030 0.799210 0.170233
0.594143 0.802485 0.183962
0.856051 0.810279 0.198064
0.940985 0.824282 0.223728
0.140132 0.879051 0.139545
0.141079 0.878970 0.140429
0.149400 0.879032 0.147335
0.171363 0.880987 0.155853
0.225747 0.881350 0.167244
0.333244 0.880843 0.180281
0.497460 0.881688 0.193522
0.780131 0.885607 0.206394
0.940077 0.892562 0.224457
0.140144 0.907377 0.201368
0.140145 0.907381 0.201369
0.153063 0.928547 0.201370
0.153064 0.928547 0.201361
0.194104 0.929691 0.166846
0.283673 0.927528 0.180484
0.413750 0.926807 0.192789
0.627085 0.927914 0.202706
0.944271 0.930981 0.210033
0.118220 0.092299 0.192318
0.134774 0.100836 0.270428
0.318339 0.111566 0.260563
0.644107 0.130638 0.260632
0.830172 0.153134 0.262030
0.896417 0.178574 0.275079
0.921796 0.190467 0.295253
0.941859 0.115474 0.281854
0.944178 0.229460 0.536354
0.119119 0.113041 0.191044
0.131432 0.120095 0.225235
0.281055 0.129733 0.235766
0.591788 0.148276 0.244069
0.816081 0.173367 0.250265
0.891140 0.196988 0.265159
0.920732 0.207095 0.283909
0.941886 0.117132 0.286463
0.944178 0.229459 0.536305
0.122115 0.180928 0.175640
0.130286 0.189790 0.185069
0.218038 0.220006 0.219225
0.445876 0.223441 0.218629
0.731219 0.246709 0.229809
0.865161 0.269063 0.246845
0.914884 0.279787 0.262156
0.941381 0.172807 0.314792
0.944178 0.229459 0.536296
0.127735 0.303955 0.178656
0.133792 0.311353 0.183136
0.169905 0.325048 0.195150
0.307202 0.334624 0.206934
0.559249 0.353005 0.220332
0.810854 0.371323 0.235296
0.901625 0.387541 0.248121
0.932360 0.386203 0.285533
0.944178 0.229462 0.536303
0.133731 0.449611 0.183735
0.138059 0.456135 0.186718
0.161597 0.473363 0.195920
0.242542 0.485864 0.207214
0.412105 0.493840 0.218371
0.674211 0.508858 0.233101
0.863163 0.525886 0.244444
0.925451 0.536158 0.270970
0.943980 0.539782 0.372329
0.139339 0.608762 0.192398
0.142543 0.613533 0.194367
0.160644 0.630460 0.201894
0.212678 0.644633 0.212278
0.333078 0.652871 0.223690
0.528841 0.660210 0.235753
0.791369 0.674158 0.247267
0.912722 0.689872 0.267667
0.942832 0.712417 0.308905
0.143380 0.761432 0.195911
0.145707 0.764028 0.197525
0.159592 0.773889 0.204224
0.196249 0.783345 0.214191
0.283753 0.788621 0.225697
0.430806 0.792149 0.238289
0.664705 0.797566 0.251786
0.884343 0.806821 0.268880
0.941737 0.823610 0.292519
0.145064 0.868987 0.201244
0.146920 0.869592 0.202700
0.158248 0.872079 0.210634
0.185128 0.874814 0.220206
0.251872 0.876154 0.231503
0.364694 0.876784 0.244193
0.545403 0.878761 0.256889
0.822384 0.883385 0.269588
0.941570 0.891755 0.283438
0.140145 0.907381 0.201374
0.153063 0.928546 0.201373
0.153063 0.928547 0.201372
0.153072 0.928549 0.201373
0.205634 0.928558 0.210787
0.299206 0.926641 0.227934
0.433668 0.926167 0.240758
0.662838 0.927493 0.251345
0.945625 0.930861 0.258789
0.118598 0.107988 0.326711
0.123966 0.120211 0.432444
0.284533 0.132137 0.460789
0.601459 0.147927 0.452149
0.820818 0.173885 0.454718
0.892664 0.199218 0.464905
0.920658 0.212560 0.495402
0.939083 0.172708 0.590258
0.944178 0.230659 0.611810
0.119168 0.127116 0.332681
0.127075 0.136724 0.388915
0.263817 0.149389 0.429299
0.561496 0.167248 0.428845
0.807628 0.193664 0.437020
0.887996 0.216313 0.450599
0.919661 0.228217 0.482446
0.938746 0.186768 0.580694
0.944178 0.230673 0.612593
0.124598 0.198236 0.313177
0.133815 0.207022 0.330222
0.213112 0.222091 0.364591
0.452697 0.237009 0.379241
0.739945 0.260244 0.394949
0.866775 0.282516 0.411799
0.914658 0.294645 0.441286
0.935853 0.282585 0.517725
0.944178 0.230722 0.615438
0.132743 0.306126 0.297407
0.140106 0.312742 0.304382
0.184399 0.326669 0.323563
0.356565 0.354889 0.356948
0.603504 0.359659 0.361739
0.825500 0.379268 0.378070
0.904382 0.397107 0.401660
0.932283 0.399431 0.454373
0.944178 0.230762 0.616292
0.141025 0.446544 0.296453
0.146506 0.452159 0.300059
0.177592 0.467975 0.312306
0.277234 0.481741 0.327661
0.468140 0.493045 0.342039
0.733342 0.510935 0.358266
0.878743 0.529109 0.376397
0.926873 0.540990 0.410284
0.943841 0.552903 0.559286
0.147533 0.601906 0.296880
0.152083 0.606191 0.299196
0.175672 0.621108 0.308157
0.243780 0.635226 0.320510
0.378147 0.645855 0.334074
0.594905 0.656358 0.347418
0.828754 0.672726 0.363169
0.917728 0.689510 0.385281
0.942915 0.716921 0.480683
0.152041 0.754830 0.298099
0.155486 0.757165 0.299730
0.173154 0.765815 0.306545
0.220660 0.775169 0.317073
0.322643 0.781888 0.329417
0.485151 0.787212 0.342245
0.734693 0.794353 0.355353
0.901226 0.804941 0.371672
0.942284 0.824413 0.429926
0.151943 0.864151 0.298163
0.154231 0.864863 0.299287
0.168301 0.867621 0.305170
0.201399 0.870401 0.313755
0.276916 0.872336 0.324687
0.400916 0.873860 0.336413
0.598633 0.876660 0.348341
0.852849 0.881888 0.361033
0.942681 0.891628 0.395563
0.145094 0.919421 0.317770
0.153061 0.930041 0.317770
0.153063 0.930044 0.317769
0.165617 0.932188 0.286300
0.225277 0.926622 0.314811
0.323362 0.925450 0.324525
0.464826 0.925437 0.334112
0.716314 0.927021 0.342217
0.945956 0.931038 0.357834
0.118975 0.128908 0.483279
0.120756 0.137417 0.557088
0.245131 0.159387 0.637014
0.559465 0.178722 0.637255
0.805434 0.201908 0.637219
0.887065 0.225844 0.647280
0.919056 0.240128 0.669639
0.937288 0.218165 0.722910
0.944178 0.234745 0.769854
0.119394 0.144317 0.489792
0.123582 0.154723 0.544148
0.231918 0.178973 0.617021
0.529653 0.197831 0.622164
0.790138 0.219735 0.624788
0.882715 0.241783 0.637313
0.918098 0.255029 0.661584
0.936976 0.232741 0.716924
0.944178 0.234581 0.766457
0.126227 0.218996 0.477748
0.134195 0.227416 0.501710
0.207285 0.246563 0.555120
0.445764 0.261863 0.575916
0.729876 0.280047 0.586022
0.864123 0.302112 0.602900
0.913605 0.315038 0.630735
0.934927 0.310774 0.684741
0.944178 0.234070 0.755636
0.137175 0.321013 0.451033
0.144502 0.326869 0.462011
0.193924 0.343852 0.494420
0.359867 0.358030 0.522587
0.616940 0.372280 0.539430
0.829600 0.394610 0.559816
0.904735 0.413453 0.587725
0.931900 0.419226 0.640356
0.944716 0.348184 0.755732
0.146827 0.450588 0.432672
0.153723 0.456005 0.438420
0.189575 0.471270 0.457387
0.300336 0.486239 0.480889
0.511220 0.510583 0.511287
0.760989 0.518897 0.522436
0.885292 0.537855 0.547166
0.927301 0.551748 0.590914
0.943651 0.569883 0.711764
0.155537 0.602140 0.425133
0.161160 0.606090 0.428427
0.189252 0.619845 0.441042
0.267626 0.634020 0.458711
0.414319 0.646298 0.477594
0.641684 0.658710 0.494918
0.845996 0.676386 0.516243
0.920258 0.694406 0.548493
0.942874 0.723901 0.657633
0.160376 0.753054 0.419476
0.164553 0.755238 0.421626
0.185663 0.763102 0.430387
0.244158 0.772167 0.444200
0.352764 0.779687 0.460432
0.530114 0.786233 0.476728
0.777431 0.794512 0.493052
0.908200 0.805653 0.515757
0.942505 0.827757 0.602815
0.158341 0.862718 0.412653
0.161310 0.863353 0.413954
0.177672 0.865742 0.420554
0.217238 0.868445 0.430858
0.300218 0.870639 0.444098
0.434088 0.872744 0.458346
0.646949 0.876129 0.472506
0.874923 0.881875 0.488050
0.943259 0.892957 0.549189
0.147100 0.922887 0.455417
0.148303 0.924441 0.455417
0.151052 0.928088 0.455415
0.178353 0.927775 0.415367
0.240134 0.926122 0.425457
0.339747 0.925258 0.435980
0.490079 0.925433 0.445829
0.756070 0.927203 0.454253
0.946126 0.932022 0.497393
0.119180 0.155330 0.658262
0.120587 0.161634 0.711363
0.216120 0.196281 0.770959
0.516219 0.214157 0.774177
0.787976 0.235041 0.775676
0.881349 0.255587 0.780076
0.917401 0.270252 0.789912
0.936143 0.258741 0.811003
0.944178 0.237834 0.828226
0.119765 0.170851 0.662315
0.122282 0.178892 0.706126
0.211224 0.212241 0.763895
0.494753 0.229695 0.768910
0.775496 0.250223 0.771324
0.877370 0.269960 0.776277
0.916505 0.284303 0.786951
0.935845 0.272510 0.808780
0.944178 0.237834 0.828226
0.127501 0.244936 0.660475
0.133532 0.251448 0.682837
0.202063 0.274177 0.736113
0.430938 0.289774 0.748894
0.720017 0.307198 0.754811
0.860884 0.324305 0.762099
0.912493 0.338962 0.774921
0.934152 0.339211 0.797550
0.944178 0.237840 0.828224
0.139911 0.339920 0.632716
0.146652 0.345440 0.645066
0.198831 0.363688 0.684735
0.364807 0.379094 0.713344
0.624522 0.396101 0.728831
0.830743 0.414817 0.740187
0.904645 0.433747 0.755110
0.931506 0.441756 0.780515
0.944510 0.394205 0.824860
0.152235 0.465371 0.604501
0.159400 0.470040 0.611966
0.199938 0.486324 0.638239
0.317810 0.502105 0.666885
0.524005 0.516436 0.689052
0.773279 0.532010 0.706243
0.888607 0.551197 0.729175
0.927515 0.566506 0.757333
0.943477 0.589280 0.809749
0.161916 0.608538 0.582162
0.168246 0.612427 0.586874
0.199838 0.625614 0.604141
0.284039 0.639957 0.627417
0.439364 0.653211 0.650634
0.676638 0.672066 0.674285
0.855823 0.684967 0.693075
0.921651 0.703934 0.728396
0.942849 0.732947 0.789193
0.166968 0.755978 0.565590
0.171862 0.757975 0.568534
0.195796 0.765293 0.580397
0.260387 0.774112 0.598776
0.375901 0.781911 0.619722
0.563384 0.788998 0.639491
0.802606 0.797953 0.658458
0.912090 0.809346 0.686846
0.942646 0.832924 0.762904
0.162811 0.864198 0.547990
0.166256 0.864761 0.549818
0.184523 0.866835 0.558521
0.229162 0.869279 0.571966
0.318242 0.871505 0.589021
0.459244 0.873897 0.606941
0.682906 0.877603 0.623987
0.888210 0.883602 0.642812
0.943544 0.895502 0.724360
0.147888 0.924133 0.510391
0.148929 0.925503 0.513357
0.151232 0.928619 0.524658
0.180693 0.928714 0.538572
0.246471 0.926913 0.551843
0.348725 0.926112 0.564950
0.504715 0.926415 0.576758
0.773877 0.928228 0.585753
0.946190 0.933377 0.668160
0.119865 0.192748 0.811871
0.121425 0.197430 0.832009
0.186116 0.230801 0.849521
0.490453 0.248554 0.851884
0.778063 0.267823 0.852973
0.878284 0.287065 0.854709
0.916583 0.300049 0.858450
0.935490 0.293757 0.865295
0.944177 0.244501 0.870501
0.120668 0.206043 0.812889
0.122844 0.211183 0.830559
0.187237 0.244102 0.847705
0.474683 0.261653 0.850539
0.767996 0.280876 0.851850
0.874974 0.299830 0.853731
0.915766 0.312725 0.857598
0.935218 0.306896 0.864669
0.944177 0.244431 0.870200
0.128342 0.270092 0.813222
0.133195 0.275043 0.824843
0.192274 0.298866 0.839709
0.425626 0.315008 0.844804
0.720627 0.331606 0.847167
0.860924 0.350018 0.849707
0.912232 0.363398 0.854100
0.933797 0.366408 0.861498
0.944175 0.244025 0.868827
0.141988 0.362110 0.799116
0.148239 0.366323 0.806853
0.198782 0.385401 0.826449
0.371106 0.403670 0.834991
0.637091 0.421073 0.839284
0.834756 0.438742 0.843038
0.905438 0.453889 0.848209
0.931530 0.463227 0.856683
0.944114 0.455099 0.870157
0.156151 0.484164 0.778550
0.163069 0.488262 0.784166
0.205662 0.504167 0.802260
0.330567 0.520558 0.819252
0.545150 0.535268 0.828473
0.787414 0.550751 0.833776
0.892732 0.566352 0.839946
0.928100 0.581972 0.849740
0.943426 0.608397 0.866225
0.167237 0.622531 0.757057
0.173552 0.626017 0.761152
0.208216 0.638971 0.775774
0.299164 0.653963 0.793868
0.463304 0.667500 0.809216
0.700964 0.681303 0.820729
0.864271 0.696692 0.829359
0.923062 0.715028 0.840232
0.942951 0.742163 0.860653
0.171178 0.763190 0.735454
0.176461 0.765105 0.738396
0.203017 0.772002 0.749555
0.271200 0.780475 0.765968
0.393316 0.787882 0.783096
0.588833 0.795178 0.797584
0.817360 0.804133 0.809203
0.914909 0.815110 0.826771
0.942889 0.838991 0.853062
0.164285 0.868859 0.702333
0.168015 0.869310 0.705027
0.187532 0.870915 0.717224
0.236095 0.872967 0.735169
0.328311 0.874979 0.751107
0.475353 0.877312 0.766615
0.706130 0.881082 0.780603
0.895664 0.886999 0.795436
0.943803 0.898957 0.840150
0.147785 0.924428 0.602590
0.149802 0.927060 0.602619
0.152358 0.930444 0.603370
0.175682 0.931786 0.675252
0.244461 0.929011 0.694611
0.348372 0.928059 0.712740
0.505736 0.928322 0.727866
0.774389 0.930126 0.736578
0.946248 0.935191 0.818602
0.121741 0.231847 0.888038
0.123719 0.234653 0.890392
0.198507 0.259247 0.893732
0.519299 0.276255 0.894329
0.794304 0.294198 0.894819
0.883910 0.311583 0.895584
0.917886 0.322496 0.896919
0.936130 0.315421 0.900047
0.944232 0.267311 0.899129
0.122822 0.242955 0.887765
0.125176 0.246051 0.889985
0.201242 0.270591 0.893403
0.506448 0.287825 0.894073
0.786760 0.305509 0.894600
0.881475 0.322226 0.895395
0.917293 0.333923 0.896767
0.935903 0.327136 0.899898
0.944249 0.271285 0.899129
0.132158 0.301236 0.886754
0.136891 0.304386 0.888317
0.213273 0.323184 0.891545
0.461739 0.338503 0.892677
0.753804 0.355015 0.893442
0.870224 0.371152 0.894415
0.914484 0.384528 0.895969
0.934757 0.384549 0.899046
0.944445 0.312575 0.899128
0.145743 0.385809 0.883687
0.152405 0.389325 0.885097
0.218623 0.407976 0.888554
0.406790 0.424060 0.890457
0.684582 0.439798 0.891656
0.849979 0.456107 0.892919
0.909373 0.470065 0.894761
0.932995 0.476983 0.897926
0.944216 0.478626 0.901371
0.160947 0.503895 0.878631
0.168128 0.507077 0.880091
0.221064 0.522073 0.884103
0.358654 0.536396 0.887167
0.593950 0.550383 0.889209
0.817100 0.565231 0.890895
0.900674 0.579633 0.893019
0.930359 0.591790 0.896445
0.943759 0.620990 0.900634
0.171636 0.639309 0.871693
0.178264 0.642253 0.873246
0.219409 0.655022 0.877960
0.320366 0.668169 0.882405
0.501393 0.680751 0.885687
0.748728 0.694179 0.888160
0.879610 0.708263 0.890659
0.926456 0.720876 0.894453
0.943487 0.748737 0.899779
0.173678 0.773706 0.859336
0.179139 0.775383 0.861441
0.209655 0.782070 0.868494
0.281534 0.789145 0.874801
0.415408 0.795778 0.880075
0.627643 0.802666 0.883953
0.837090 0.810668 0.887093
0.919673 0.820344 0.891491
0.943535 0.843800 0.898518
0.161695 0.877746 0.838037
0.165163 0.877929 0.839817
0.185528 0.878389 0.847357
0.235965 0.879422 0.857772
0.332243 0.880720 0.868399
0.487296 0.882723 0.874952
0.727329 0.886191 0.879918
0.898864 0.889842 0.882595
0.944305 0.902555 0.896013
0.146684 0.923565 0.757653
0.152223 0.930846 0.760112
0.153013 0.931977 0.776908
0.169255 0.934846 0.807176
0.229141 0.932719 0.825646
0.335661 0.931284 0.837595
0.488824 0.931305 0.846663
0.752009 0.932910 0.851388
0.946310 0.937366 0.888276
0.174540 0.250834 0.926265
0.199999 0.252736 0.926284
0.431258 0.260169 0.926354
0.764185 0.272700 0.926519
0.867807 0.287568 0.926761
0.908039 0.300357 0.927071
0.926464 0.303662 0.927699
0.939766 0.273910 0.928696
0.944178 0.279931 0.922602
0.177739 0.259027 0.926252
0.203120 0.260929 0.926271
0.426866 0.268529 0.926343
0.759424 0.281571 0.926512
0.866035 0.296513 0.926758
0.907570 0.309386 0.927076
0.926289 0.312545 0.927703
0.939679 0.282127 0.928700
0.944178 0.286807 0.925932
0.193805 0.301648 0.926062
0.219017 0.303611 0.926090
0.411398 0.311175 0.926186
0.732506 0.323102 0.926395
0.857625 0.337670 0.926673
0.905323 0.350950 0.927044
0.925412 0.354754 0.927675
0.939223 0.326604 0.928677
0.944178 0.286841 0.925933
0.216349 0.388864 0.925694
0.239647 0.390739 0.925744
0.383544 0.398084 0.925912
0.676843 0.410089 0.926197
0.840094 0.424044 0.926532
0.900426 0.436388 0.926965
0.923549 0.441865 0.927649
0.938389 0.429084 0.928641
0.945054 0.455336 0.929311
0.221366 0.506388 0.925466
0.240626 0.507927 0.925546
0.346114 0.514076 0.925810
0.597306 0.523955 0.926139
0.812836 0.535292 0.926560
0.890097 0.546225 0.927061
0.920606 0.552803 0.927757
0.937564 0.548359 0.928813
0.945348 0.573719 0.930567
0.212422 0.642653 0.925493
0.224962 0.643994 0.925609
0.303399 0.649519 0.925977
0.497022 0.658094 0.926410
0.749082 0.667799 0.926866
0.868849 0.677754 0.927410
0.915779 0.684846 0.928105
0.936419 0.684847 0.929131
0.945510 0.723587 0.930858
0.191111 0.779524 0.925834
0.199250 0.780277 0.925984
0.250283 0.783214 0.926436
0.380261 0.787313 0.926982
0.608987 0.791902 0.927528
0.825536 0.797298 0.928104
0.906211 0.801817 0.928869
0.934591 0.802534 0.929828
0.945698 0.828738 0.931438
0.160178 0.882627 0.925378
0.163448 0.882721 0.925839
0.184109 0.882988 0.926889
0.255825 0.882841 0.927795
0.401841 0.882841 0.928613
0.651447 0.884136 0.929298
0.862940 0.886864 0.930010
0.929045 0.888111 0.930919
0.945991 0.897857 0.931981
0.144852 0.921536 0.859952
0.153063 0.932477 0.886517
0.153063 0.932478 0.886518
0.156884 0.933250 0.886578
0.196015 0.938486 0.927359
0.308207 0.935811 0.930346
0.473286 0.935354 0.931634
0.759385 0.936826 0.932179
0.946386 0.939853 0.932537
