LUTs/kodachrome64/Kodachrome64_Modern_Normal.cube
TITLE "Kodachrome 64 Modern Normal"
# Adobe RGB in/out. REPLACES AgX. Kodachrome 64 Modern Normal.
LUT_3D_SIZE 9
DOMAIN_MIN 0.0 0.0 0.0
DOMAIN_MAX 1.0 1.0 1.0
0.081099 0.084717 0.091118
0.092060 0.084717 0.091118
0.763315 0.084717 0.091118
0.975282 0.086773 0.091118
0.989973 0.095431 0.091118
0.989973 0.106534 0.091206
0.989973 0.109242 0.091725
0.989973 0.084889 0.170155
0.989973 0.156575 0.852290
0.081099 0.084940 0.091118
0.081099 0.084717 0.091118
0.217846 0.085306 0.091118
0.927989 0.089440 0.091118
0.985793 0.102575 0.091118
0.989973 0.117704 0.091194
0.989973 0.121555 0.091700
0.989973 0.084865 0.162164
0.989973 0.152426 0.848794
0.081099 0.215813 0.091118
0.081099 0.180782 0.091118
0.084463 0.112668 0.091118
0.329451 0.123432 0.091118
0.934260 0.174239 0.091118
0.985454 0.242531 0.091187
0.989973 0.268732 0.091553
0.989973 0.085102 0.152065
0.989973 0.139495 0.835605
0.081099 0.662609 0.091118
0.081099 0.637235 0.091118
0.083379 0.534522 0.091118
0.117123 0.399607 0.091118
0.563547 0.399932 0.091118
0.949223 0.470049 0.091216
0.986173 0.526960 0.091550
0.989973 0.511440 0.092487
0.989973 0.122073 0.212800
0.081099 0.880936 0.091118
0.081202 0.873579 0.091118
0.083401 0.855826 0.091118
0.099726 0.810483 0.091118
0.270187 0.742145 0.091173
0.797380 0.729010 0.091336
0.968025 0.762507 0.091688
0.987603 0.780725 0.092390
0.989973 0.761306 0.101619
0.081528 0.946787 0.091205
0.081778 0.945722 0.091214
0.083650 0.942969 0.091288
0.093162 0.935287 0.091363
0.187583 0.918644 0.091444
0.544039 0.890784 0.091579
0.917277 0.882534 0.091827
0.982048 0.893931 0.092578
0.988173 0.903265 0.095297
0.082083 0.967562 0.091409
0.082347 0.966849 0.091421
0.083704 0.965174 0.091501
0.090334 0.961243 0.091648
0.138372 0.954483 0.091733
0.358824 0.948440 0.092002
0.806189 0.945354 0.092342
0.964979 0.943789 0.092873
0.986333 0.946364 0.094396
0.082349 0.981659 0.091505
0.082455 0.981034 0.091506
0.083616 0.979093 0.091658
0.087618 0.976626 0.091751
0.112204 0.973079 0.092080
0.251216 0.968955 0.092392
0.608771 0.965524 0.092767
0.931560 0.963755 0.093168
0.984962 0.963507 0.094045
0.081738 0.979264 0.091374
0.081718 0.978917 0.091367
0.083582 0.984352 0.091345
0.083470 0.983096 0.091698
0.091813 0.982101 0.091936
0.160984 0.979049 0.092291
0.378172 0.976713 0.092629
0.810841 0.975358 0.092927
0.984497 0.975021 0.093155
0.081099 0.084717 0.091439
0.085690 0.084717 0.092082
0.807946 0.084853 0.092177
0.980673 0.087431 0.091892
0.989973 0.096373 0.091670
0.989973 0.106959 0.091734
0.989973 0.109998 0.092741
0.989973 0.084876 0.165787
0.989973 0.154418 0.850362
0.081099 0.084717 0.091118
0.081099 0.084717 0.091118
0.330064 0.085621 0.091211
0.949481 0.091051 0.091499
0.986681 0.103118 0.091525
0.989973 0.117865 0.091721
0.989973 0.122479 0.092533
0.989973 0.084853 0.158620
0.989973 0.150326 0.847249
0.081099 0.159847 0.091206
0.081099 0.126459 0.091126
0.089021 0.101621 0.091118
0.507087 0.116163 0.091188
0.949720 0.169589 0.091381
0.985968 0.235314 0.091611
0.989973 0.265635 0.092209
0.989973 0.085182 0.153404
0.989973 0.137768 0.833212
0.081099 0.601996 0.091343
0.081189 0.564629 0.091309
0.085326 0.453895 0.091231
0.153316 0.349170 0.091214
0.671803 0.374291 0.091351
0.956534 0.454490 0.091577
0.986333 0.515739 0.092087
0.989973 0.506070 0.093299
0.989973 0.123167 0.803059
0.081252 0.861281 0.091413
0.081581 0.856613 0.091420
0.084328 0.835503 0.091441
0.108598 0.778826 0.091458
0.321051 0.716431 0.091524
0.832297 0.713837 0.091716
0.970918 0.752330 0.092187
0.987527 0.774756 0.093107
0.989973 0.760575 0.112898
0.081788 0.943897 0.091524
0.082061 0.942652 0.091539
0.084265 0.939643 0.091663
0.097335 0.930936 0.091724
0.213842 0.907502 0.091809
0.586220 0.882864 0.092088
0.925162 0.877555 0.092464
0.982422 0.890172 0.093214
0.988048 0.901681 0.097479
0.082318 0.965981 0.091718
0.082602 0.965268 0.091722
0.084103 0.963529 0.091808
0.091789 0.959616 0.092067
0.148780 0.952388 0.092318
0.382202 0.947516 0.092629
0.824777 0.944305 0.093008
0.967179 0.943093 0.093470
0.986279 0.946004 0.095801
0.082421 0.980924 0.091709
0.082550 0.980327 0.091717
0.083687 0.978439 0.091899
0.088262 0.975983 0.092239
0.114952 0.972356 0.092593
0.262132 0.968341 0.092955
0.631800 0.964981 0.093310
0.936550 0.963339 0.093754
0.984991 0.963272 0.095218
0.081863 0.980142 0.095335
0.081843 0.979796 0.095245
0.083641 0.984927 0.094944
0.083561 0.983520 0.094483
0.092289 0.981897 0.092257
0.165073 0.978860 0.092693
0.388409 0.976565 0.093053
0.818782 0.975257 0.093349
0.984664 0.974972 0.093564
0.081099 0.084717 0.174397
0.085214 0.084910 0.539644
0.749303 0.086486 0.499543
0.981606 0.092776 0.449279
0.989973 0.102546 0.342076
0.989973 0.115100 0.334252
0.989973 0.118714 0.366189
0.989973 0.085054 0.258944
0.989973 0.150013 0.847047
0.081099 0.086820 0.170181
0.083579 0.088339 0.301595
0.461387 0.089005 0.240662
0.957271 0.097958 0.233844
0.987192 0.110572 0.230918
0.989973 0.130986 0.256076
0.989973 0.136212 0.292592
0.989973 0.085097 0.261300
0.989973 0.145999 0.843644
0.081099 0.114559 0.099658
0.081226 0.106049 0.096443
0.095541 0.097062 0.094003
0.632446 0.113986 0.100245
0.961779 0.173675 0.116787
0.986625 0.244978 0.143323
0.989973 0.272700 0.171191
0.989973 0.098104 0.318078
0.989973 0.134258 0.827959
0.081387 0.480144 0.103041
0.082201 0.443910 0.100367
0.089313 0.345134 0.096201
0.218853 0.271756 0.094691
0.810802 0.338425 0.097614
0.968210 0.434152 0.107815
0.986621 0.503694 0.119803
0.989973 0.501876 0.173283
0.989973 0.120643 0.795711
0.082479 0.830002 0.103354
0.083305 0.821912 0.102178
0.088554 0.779772 0.099338
0.142775 0.710962 0.097229
0.465788 0.651613 0.096692
0.907149 0.676164 0.099778
0.977322 0.732458 0.105756
0.987380 0.759768 0.125552
0.989723 0.763211 0.368819
0.083425 0.936424 0.103052
0.083716 0.934920 0.102531
0.088122 0.929844 0.101537
0.115866 0.910427 0.100213
0.292643 0.881348 0.099547
0.739310 0.863656 0.100117
0.947261 0.865253 0.102296
0.983351 0.880707 0.112727
0.987705 0.897829 0.155579
0.083608 0.961487 0.099691
0.083791 0.960780 0.099597
0.086652 0.958834 0.099816
0.103026 0.953580 0.100054
0.207436 0.948290 0.100411
0.506425 0.944203 0.101362
0.885137 0.941313 0.103176
0.974156 0.940999 0.109292
0.986120 0.944953 0.123924
0.083339 0.977591 0.097474
0.083571 0.977167 0.097538
0.085596 0.975884 0.098489
0.092582 0.973466 0.099592
0.137591 0.969846 0.100782
0.323447 0.966023 0.102232
0.735091 0.963147 0.104059
0.951151 0.961931 0.107816
0.985038 0.962529 0.112183
0.081829 0.979564 0.095185
0.083667 0.985377 0.095097
0.083617 0.984510 0.094803
0.083539 0.983135 0.094378
0.097258 0.981027 0.094943
0.185940 0.978142 0.096563
0.443762 0.976015 0.097848
0.855263 0.974880 0.099159
0.984830 0.974810 0.100186
0.081099 0.085724 0.743371
0.081346 0.088702 0.891938
0.618449 0.097029 0.910632
0.980876 0.111685 0.906336
0.989973 0.133027 0.876189
0.989973 0.152929 0.851735
0.989973 0.155108 0.851617
0.989973 0.101448 0.897414
0.989973 0.149288 0.892586
0.081099 0.092918 0.761786
0.082217 0.100674 0.852774
0.528738 0.113485 0.889184
0.966310 0.129957 0.866390
0.988291 0.151483 0.839011
0.989973 0.174784 0.822760
0.989973 0.178110 0.832201
0.989973 0.107017 0.885362
0.989973 0.145209 0.889044
0.081099 0.146007 0.500259
0.082248 0.144383 0.507443
0.135029 0.139709 0.524034
0.758350 0.161720 0.552609
0.967528 0.221244 0.614638
0.986947 0.283145 0.655578
0.989973 0.311716 0.714232
0.989973 0.262500 0.819208
0.989973 0.133412 0.877735
0.081848 0.396733 0.337564
0.082977 0.374177 0.310624
0.092257 0.300619 0.237054
0.244231 0.243830 0.191338
0.847407 0.336702 0.295921
0.970697 0.440671 0.429288
0.986474 0.513646 0.519145
0.989973 0.523030 0.647702
0.989973 0.119845 0.859028
0.083604 0.778720 0.330938
0.084617 0.765795 0.313791
0.093082 0.721445 0.269416
0.180980 0.644123 0.221348
0.549345 0.598919 0.200942
0.923028 0.647501 0.253620
0.979058 0.719050 0.346474
0.986973 0.754196 0.473756
0.989288 0.774864 0.780641
0.084904 0.926595 0.299863
0.085893 0.923925 0.290747
0.092901 0.909070 0.269556
0.142377 0.883196 0.241718
0.366871 0.858225 0.223081
0.811905 0.849513 0.220990
0.956867 0.856621 0.254536
0.983441 0.872647 0.333989
0.987284 0.896055 0.589264
0.085336 0.956135 0.253066
0.085938 0.955153 0.249164
0.090750 0.952309 0.241691
0.117166 0.948612 0.232253
0.257180 0.944511 0.224530
0.616558 0.940194 0.222969
0.919005 0.937789 0.230902
0.978015 0.938742 0.260685
0.985854 0.944001 0.439710
0.084128 0.974968 0.204072
0.084687 0.974596 0.202605
0.087510 0.973208 0.203104
0.100734 0.970614 0.202188
0.173832 0.967199 0.202962
0.395476 0.963608 0.205970
0.807139 0.961196 0.212990
0.962246 0.960447 0.226511
0.984950 0.961802 0.304050
0.082537 0.982208 0.203529
0.083628 0.985124 0.200971
0.083581 0.984294 0.192612
0.085485 0.983570 0.130416
0.107511 0.979641 0.160715
0.223055 0.977127 0.165349
0.508965 0.975282 0.171279
0.894792 0.974347 0.176544
0.984845 0.974697 0.198563
0.081099 0.094372 0.928131
0.081099 0.101209 0.955893
0.441382 0.131516 0.973689
0.973345 0.181649 0.973704
0.989973 0.247664 0.971820
0.989973 0.248522 0.957938
0.989973 0.232943 0.949295
0.989973 0.147807 0.951577
0.989973 0.156757 0.956761
0.081099 0.107761 0.933107
0.081265 0.121527 0.951772
0.374977 0.182428 0.970533
0.966513 0.247921 0.971525
0.989936 0.270578 0.962123
0.989973 0.273403 0.948801
0.989973 0.264418 0.943198
0.989973 0.169826 0.947404
0.989973 0.152023 0.953721
0.081762 0.299233 0.911265
0.083820 0.315214 0.919560
0.212185 0.329076 0.931990
0.860842 0.325912 0.920001
0.975554 0.339203 0.908020
0.988201 0.371814 0.906226
0.989973 0.382202 0.908201
0.989973 0.341715 0.926344
0.989973 0.137616 0.944035
0.082642 0.434723 0.776450
0.083759 0.425533 0.773408
0.104164 0.400202 0.766388
0.371194 0.382826 0.761033
0.894724 0.424876 0.784893
0.974879 0.505425 0.821702
0.986809 0.561804 0.847971
0.989973 0.570869 0.877861
0.989973 0.365575 0.934957
0.084184 0.737334 0.700716
0.085843 0.727658 0.691591
0.097848 0.692075 0.659383
0.209820 0.623545 0.611712
0.578966 0.572921 0.568598
0.931035 0.650890 0.657159
0.979933 0.726983 0.741538
0.986753 0.766179 0.810773
0.988999 0.794107 0.890733
0.086053 0.904479 0.663684
0.087454 0.900161 0.655078
0.098915 0.887369 0.633158
0.170829 0.865189 0.611994
0.430873 0.846281 0.580259
0.839758 0.834515 0.570906
0.960721 0.851971 0.622207
0.983264 0.869950 0.707067
0.986928 0.898462 0.843301
0.086537 0.950324 0.615905
0.087758 0.949857 0.611700
0.095622 0.948441 0.601050
0.135620 0.945596 0.586012
0.306226 0.940866 0.571449
0.701602 0.936463 0.563825
0.932235 0.934802 0.571512
0.979541 0.937105 0.615816
0.985550 0.943701 0.771088
0.085426 0.972442 0.542110
0.085910 0.972008 0.539510
0.089797 0.970644 0.536432
0.108647 0.968228 0.531204
0.210550 0.964818 0.527528
0.471528 0.961596 0.527025
0.852133 0.959581 0.532048
0.967798 0.959297 0.547722
0.984791 0.961555 0.661536
0.082720 0.982384 0.582481
0.082856 0.982654 0.578681
0.083160 0.982973 0.566062
0.087744 0.981225 0.455157
0.113724 0.978660 0.456980
0.244286 0.976382 0.459153
0.568192 0.974741 0.462085
0.916188 0.973957 0.465732
0.984796 0.974855 0.545127
0.081099 0.122612 0.974430
0.081099 0.136769 0.976865
0.314792 0.241068 0.980256
0.963237 0.311127 0.980416
0.989973 0.391604 0.980491
0.989973 0.387956 0.977811
0.989973 0.351565 0.974997
0.989973 0.257216 0.974355
0.989973 0.165667 0.972721
0.081099 0.159944 0.974457
0.081099 0.182178 0.976610
0.294887 0.300125 0.979903
0.955955 0.369403 0.980154
0.989973 0.449055 0.980009
0.989973 0.411290 0.976410
0.989973 0.377472 0.974410
0.989973 0.282698 0.973563
0.989973 0.160869 0.971420
0.082392 0.434779 0.974445
0.084539 0.465793 0.975454
0.260141 0.563649 0.978096
0.902140 0.538744 0.976178
0.981643 0.516128 0.974379
0.989961 0.506315 0.970320
0.989973 0.493978 0.966445
0.989973 0.442693 0.965573
0.989973 0.146064 0.967133
0.083728 0.573957 0.940194
0.085903 0.574987 0.940961
0.127603 0.587689 0.943995
0.539936 0.582718 0.943038
0.930202 0.590792 0.941075
0.980750 0.613144 0.940836
0.987888 0.635068 0.942747
0.989973 0.633945 0.947511
0.989973 0.497189 0.957347
0.085457 0.748522 0.884929
0.086708 0.743047 0.883491
0.106005 0.729173 0.880914
0.255767 0.701390 0.873689
0.729745 0.686204 0.870833
0.945253 0.719046 0.881477
0.981200 0.764766 0.899533
0.987019 0.793081 0.916402
0.988999 0.821825 0.941963
0.087048 0.889926 0.857618
0.088767 0.886948 0.856127
0.103478 0.877854 0.852278
0.190361 0.859665 0.845624
0.473605 0.842474 0.832900
0.852468 0.827722 0.820302
0.963554 0.855095 0.849617
0.983306 0.874945 0.876372
0.986775 0.905758 0.916852
0.087862 0.947981 0.835885
0.089171 0.947578 0.834588
0.099511 0.946358 0.831918
0.153443 0.942996 0.827504
0.340742 0.938425 0.820276
0.744724 0.933936 0.814018
0.938506 0.932265 0.816923
0.979959 0.936625 0.841533
0.985310 0.944109 0.889796
0.085927 0.970497 0.792359
0.086275 0.970101 0.791253
0.091427 0.968831 0.790453
0.113917 0.966406 0.788563
0.228839 0.963258 0.787263
0.519548 0.960323 0.787129
0.876646 0.958583 0.789873
0.970385 0.958667 0.799915
0.984601 0.961719 0.856957
0.082711 0.981615 0.687183
0.082827 0.981842 0.689663
0.083050 0.982049 0.700162
0.088011 0.980578 0.708975
0.116224 0.978103 0.712812
0.254166 0.975992 0.715768
0.591901 0.974543 0.718707
0.923477 0.973938 0.721013
0.984715 0.975152 0.816532
0.081099 0.226945 0.982244
0.081099 0.246137 0.982533
0.208272 0.374101 0.983755
0.954459 0.452506 0.983906
0.989973 0.537603 0.983976
0.989973 0.561996 0.982821
0.989973 0.492201 0.980947
0.989973 0.377504 0.978800
0.989973 0.184968 0.976845
0.081099 0.277587 0.982292
0.081111 0.294757 0.982494
0.212263 0.430752 0.983629
0.948856 0.509873 0.983821
0.989973 0.591546 0.983904
0.989973 0.577709 0.982487
0.989973 0.516303 0.980298
0.989973 0.406213 0.978216
0.989973 0.179050 0.976435
0.082714 0.546965 0.982308
0.084355 0.567218 0.982489
0.228326 0.652788 0.983073
0.923900 0.712382 0.983396
0.984891 0.671747 0.981924
0.989973 0.640321 0.979789
0.989973 0.610566 0.977676
0.989973 0.552267 0.976206
0.989973 0.161653 0.975031
0.085951 0.725300 0.977593
0.088653 0.726541 0.977690
0.162488 0.740950 0.977761
0.675247 0.736436 0.976909
0.951667 0.727339 0.975631
0.983955 0.723355 0.974468
0.989474 0.719018 0.974344
0.989973 0.705859 0.973814
0.989973 0.649120 0.973922
0.086752 0.804535 0.962810
0.089066 0.803315 0.962883
0.116450 0.804545 0.963246
0.339050 0.798093 0.961533
0.831022 0.793923 0.959153
0.960088 0.801664 0.958227
0.983242 0.816092 0.959236
0.987807 0.826430 0.962020
0.989306 0.841231 0.966045
0.088261 0.892450 0.941874
0.090131 0.890485 0.941621
0.108005 0.885511 0.941142
0.222984 0.874602 0.939153
0.567985 0.861917 0.936035
0.902998 0.858765 0.934901
0.969049 0.870828 0.938449
0.984002 0.888315 0.944709
0.986924 0.917196 0.954266
0.088382 0.946812 0.921580
0.089829 0.946503 0.921199
0.101852 0.945177 0.920824
0.164596 0.942397 0.919197
0.367541 0.938422 0.915505
0.766939 0.934139 0.910215
0.941099 0.930786 0.907100
0.980312 0.937796 0.924862
0.985256 0.945329 0.943621
0.085902 0.969544 0.895011
0.086231 0.969181 0.894794
0.091633 0.967967 0.895733
0.115515 0.965657 0.896542
0.237391 0.962756 0.897352
0.550803 0.960009 0.897746
0.888026 0.958362 0.898877
0.971333 0.958601 0.904236
0.984448 0.962272 0.934095
0.082576 0.980462 0.810533
0.082828 0.981180 0.808759
0.083104 0.981578 0.803479
0.086395 0.980707 0.852614
0.113732 0.978041 0.856411
0.249764 0.976033 0.859237
0.587860 0.974716 0.861296
0.922647 0.974345 0.862308
0.984648 0.975644 0.912170
0.081099 0.378375 0.986564
0.081294 0.389983 0.986713
0.248769 0.499216 0.986915
0.964048 0.572232 0.986951
0.989973 0.637562 0.986980
0.989973 0.682344 0.986707
0.989973 0.608078 0.984071
0.989973 0.477093 0.982486
0.989973 0.253868 0.980425
0.081108 0.425428 0.986542
0.081673 0.440194 0.986688
0.257234 0.548988 0.986895
0.959969 0.616973 0.986935
0.989973 0.677744 0.986967
0.989973 0.693223 0.986040
0.989973 0.622081 0.983541
0.989973 0.503916 0.982252
0.989973 0.257703 0.980134
0.083818 0.660481 0.986460
0.086030 0.673041 0.986586
0.302948 0.738803 0.986783
0.943979 0.781399 0.986851
0.988808 0.784230 0.985912
0.989973 0.744659 0.983758
0.989973 0.701205 0.982485
0.989973 0.625396 0.980851
0.989973 0.343626 0.978964
0.090029 0.830860 0.984651
0.095544 0.830230 0.984531
0.251074 0.835697 0.984043
0.826160 0.829379 0.982954
0.971856 0.818073 0.982394
0.987594 0.801178 0.980986
0.989973 0.782659 0.979691
0.989973 0.753251 0.978406
0.989973 0.716479 0.977285
0.090292 0.854252 0.979405
0.094144 0.853952 0.979338
0.160677 0.856221 0.979043
0.503339 0.854861 0.978292
0.913080 0.850697 0.977354
0.974710 0.848576 0.976486
0.985954 0.847744 0.975806
0.989041 0.845833 0.975349
0.989807 0.856271 0.974977
0.089988 0.910888 0.974465
0.092335 0.909866 0.974460
0.118702 0.909211 0.974438
0.276277 0.903151 0.974371
0.716828 0.896139 0.973638
0.937950 0.894155 0.972428
0.977782 0.898154 0.971881
0.985446 0.905372 0.972428
0.987374 0.926698 0.973382
0.088672 0.947124 0.968277
0.090198 0.946894 0.968283
0.104876 0.946294 0.968360
0.180654 0.944218 0.967522
0.436843 0.941387 0.965708
0.834986 0.938835 0.963499
0.955128 0.938520 0.962428
0.981722 0.941104 0.964534
0.985522 0.946877 0.967457
0.085066 0.970121 0.953779
0.085773 0.969750 0.953944
0.090354 0.968451 0.955196
0.113834 0.966233 0.956340
0.239415 0.963501 0.956805
0.569632 0.960954 0.956200
0.900332 0.959294 0.955237
0.971533 0.958462 0.954010
0.984456 0.963185 0.963161
0.082310 0.978942 0.905598
0.083042 0.981393 0.905978
0.083083 0.981064 0.911524
0.085383 0.980903 0.926996
0.105210 0.978652 0.933499
0.227673 0.976635 0.936673
0.548440 0.975370 0.938354
0.911273 0.975091 0.938838
0.984609 0.976317 0.957468
0.159441 0.463271 0.987961
0.252969 0.471110 0.987961
0.927683 0.503287 0.987963
0.989973 0.557587 0.987967
0.989973 0.616161 0.987973
0.989973 0.657677 0.987981
0.989973 0.557705 0.986887
0.989973 0.347378 0.984652
0.989973 0.293829 0.982488
0.170949 0.498248 0.987961
0.263917 0.506655 0.987961
0.924991 0.540530 0.987963
0.989973 0.594479 0.987967
0.989973 0.645098 0.987973
0.989973 0.665462 0.987777
0.989973 0.570715 0.986522
0.989973 0.359538 0.984309
0.989973 0.309498 0.982488
0.233415 0.661788 0.987956
0.327146 0.669804 0.987957
0.915325 0.701663 0.987959
0.989394 0.738544 0.987964
0.989973 0.768239 0.987860
0.989973 0.718468 0.986951
0.989973 0.640055 0.984996
0.989973 0.471126 0.983112
0.989973 0.280084 0.981850
0.301548 0.855960 0.987780
0.377033 0.854421 0.987698
0.853196 0.847985 0.987421
0.981356 0.837709 0.986905
0.989973 0.823985 0.985600
0.989973 0.797081 0.984115
0.989973 0.755658 0.982597
0.989973 0.670562 0.981991
0.989973 0.678838 0.980641
0.196154 0.875572 0.984020
0.235452 0.874179 0.983887
0.558096 0.870499 0.983413
0.937761 0.864717 0.982641
0.981413 0.857830 0.982485
0.987628 0.853030 0.981548
0.989963 0.840713 0.980610
0.989973 0.818801 0.979713
0.989973 0.825307 0.978744
0.120674 0.925888 0.981013
0.138404 0.925376 0.980898
0.282914 0.921722 0.980516
0.767777 0.915806 0.979918
0.950710 0.909084 0.979063
0.980587 0.903409 0.978267
0.985595 0.897294 0.977609
0.987640 0.887001 0.977077
0.988116 0.909827 0.976634
0.095966 0.947875 0.978523
0.100381 0.947613 0.978398
0.140491 0.946838 0.977977
0.380989 0.945158 0.977296
0.848464 0.942931 0.976503
0.957858 0.941215 0.975792
0.980826 0.940146 0.975324
0.984929 0.938800 0.975091
0.986172 0.944538 0.974996
0.084468 0.970149 0.976830
0.085182 0.969824 0.976773
0.089528 0.968710 0.976522
0.129727 0.966573 0.976027
0.375148 0.963936 0.975391
0.854675 0.961691 0.974736
0.963838 0.960360 0.974433
0.982353 0.959542 0.974404
0.984966 0.962190 0.974410
0.081986 0.977144 0.954595
0.083056 0.980963 0.967322
0.082994 0.980323 0.966489
0.083439 0.979558 0.965153
0.090487 0.980166 0.974464
0.180706 0.977877 0.974442
0.504930 0.976581 0.974407
0.914175 0.976351 0.974383
0.984611 0.977172 0.974378
