LUTs/kodachrome64/Kodachrome64_Modern_IlfochromeP.cube
TITLE "Kodachrome 64 Modern IlfochromeP"
# Adobe RGB in/out. REPLACES AgX. Kodachrome 64 Modern IlfochromeP.
LUT_3D_SIZE 5
DOMAIN_MIN 0.0 0.0 0.0
DOMAIN_MAX 1.0 1.0 1.0
0.138776 0.101263 0.100261
0.606218 0.138471 0.106624
0.987692 0.224978 0.126996
0.997145 0.264876 0.167461
0.996945 0.312180 0.717006
0.140170 0.345855 0.108189
0.177028 0.271347 0.109285
0.801691 0.323732 0.127340
0.993666 0.371295 0.161332
0.996625 0.300149 0.689373
0.150248 0.741810 0.130550
0.168864 0.709666 0.133298
0.373394 0.613567 0.140525
0.894067 0.626451 0.164796
0.987194 0.625694 0.262238
0.160927 0.923180 0.154228
0.172943 0.915704 0.158868
0.288476 0.883652 0.168798
0.633089 0.849051 0.184029
0.970132 0.852925 0.220995
0.158229 0.962067 0.152320
0.170573 0.973495 0.150741
0.212418 0.967929 0.173887
0.429850 0.954645 0.190261
0.959221 0.947718 0.201620
0.138978 0.129743 0.345275
0.592356 0.175388 0.476713
0.988802 0.248907 0.416237
0.996947 0.280483 0.424920
0.996826 0.307649 0.706656
0.145909 0.274763 0.255430
0.222409 0.230242 0.216730
0.875683 0.323376 0.294586
0.991512 0.373609 0.343498
0.996505 0.295732 0.679236
0.163436 0.681061 0.267816
0.199329 0.638355 0.254228
0.462262 0.560939 0.240530
0.923677 0.607408 0.274011
0.985462 0.626895 0.425843
0.171065 0.903247 0.255554
0.190394 0.894363 0.256024
0.331098 0.863755 0.258269
0.718039 0.833740 0.267242
0.968773 0.847522 0.304493
0.158934 0.962687 0.228491
0.171252 0.973926 0.224998
0.226311 0.965707 0.226270
0.452902 0.951782 0.247610
0.961006 0.946855 0.257418
0.140105 0.221576 0.828056
0.452108 0.293311 0.927173
0.995675 0.361481 0.920802
0.997024 0.355442 0.870866
0.996772 0.312303 0.888065
0.158417 0.387868 0.808857
0.334036 0.399713 0.832462
0.918081 0.405527 0.804470
0.992192 0.426781 0.804913
0.996209 0.298642 0.858594
0.175891 0.610510 0.572397
0.227650 0.582675 0.550260
0.509260 0.515378 0.505836
0.931987 0.603920 0.599459
0.983342 0.649078 0.774818
0.189911 0.873869 0.525728
0.222594 0.864614 0.519208
0.392667 0.832058 0.507023
0.797847 0.812281 0.507050
0.965139 0.842763 0.620320
0.164977 0.968514 0.511589
0.167642 0.969734 0.504777
0.259409 0.960822 0.457852
0.504060 0.946575 0.460037
0.960823 0.947039 0.495936
0.144516 0.352643 0.970353
0.331447 0.423071 0.975941
0.992761 0.497140 0.976515
0.997415 0.475129 0.967318
0.996910 0.330110 0.947448
0.164939 0.502025 0.970502
0.346076 0.561687 0.974299
0.961337 0.572570 0.969603
0.996621 0.534553 0.951454
0.996560 0.315591 0.938741
0.190818 0.656869 0.899238
0.264329 0.656876 0.899984
0.656913 0.648941 0.893307
0.952510 0.665492 0.893443
0.984210 0.693221 0.906354
0.198476 0.855437 0.820587
0.235781 0.848375 0.819726
0.424433 0.823837 0.813673
0.815422 0.802025 0.802223
0.963297 0.848956 0.857631
0.164059 0.964540 0.662722
0.167377 0.966846 0.655103
0.259425 0.959547 0.724070
0.513519 0.946474 0.731923
0.960030 0.950264 0.809884
0.302828 0.460638 0.988342
0.787209 0.480571 0.988353
0.997601 0.538176 0.988403
0.997975 0.507584 0.984008
0.997094 0.385684 0.971646
0.349735 0.567495 0.988317
0.758844 0.587687 0.988332
0.997337 0.630064 0.987877
0.997386 0.553554 0.979192
0.996756 0.378006 0.969431
0.326401 0.735996 0.976631
0.499190 0.730405 0.975116
0.942802 0.715735 0.971030
0.986272 0.692659 0.966530
0.987880 0.674807 0.956627
0.223375 0.861413 0.955552
0.290502 0.855583 0.952907
0.673762 0.839843 0.945800
0.938439 0.829383 0.940145
0.969103 0.845940 0.938575
0.160147 0.956417 0.883066
0.166746 0.964253 0.907461
0.207512 0.963929 0.936017
0.478101 0.954103 0.933831
0.959834 0.956533 0.932646
