LUTs/kodachrome64/Kodachrome64_Classic_IlfochromeM.cube
TITLE "Kodachrome 64 Classic IlfochromeM"
# Adobe RGB in/out. REPLACES AgX. Kodachrome 64 Classic IlfochromeM.
LUT_3D_SIZE 5
DOMAIN_MIN 0.0 0.0 0.0
DOMAIN_MAX 1.0 1.0 1.0
0.117094 0.082435 0.080060
0.333637 0.096319 0.083824
0.815584 0.138738 0.099424
0.921997 0.174522 0.128541
0.944177 0.229451 0.536300
0.119043 0.188831 0.085128
0.149535 0.205253 0.091521
0.595973 0.233210 0.106279
0.911602 0.270030 0.130252
0.944178 0.229459 0.536295
0.124095 0.468707 0.102919
0.139311 0.500362 0.110316
0.312867 0.506565 0.124686
0.818116 0.526613 0.145188
0.944071 0.530714 0.228549
0.135311 0.775085 0.125617
0.145493 0.789045 0.131783
0.242100 0.801535 0.147493
0.575397 0.804276 0.168808
0.940731 0.824532 0.210902
0.139007 0.902623 0.135587
0.151973 0.926030 0.135620
0.192328 0.929853 0.159430
0.409502 0.926937 0.182825
0.943082 0.931012 0.201279
0.118220 0.092299 0.192318
0.318339 0.111566 0.260563
0.830172 0.153134 0.262030
0.921796 0.190467 0.295253
0.944178 0.229460 0.536354
0.122115 0.180928 0.175640
0.218038 0.220006 0.219225
0.731219 0.246709 0.229809
0.914884 0.279787 0.262156
0.944178 0.229459 0.536296
0.133731 0.449611 0.183735
0.161597 0.473363 0.195920
0.412105 0.493840 0.218371
0.863163 0.525886 0.244444
0.943980 0.539782 0.372329
0.143380 0.761432 0.195911
0.159592 0.773889 0.204224
0.283753 0.788621 0.225697
0.664705 0.797566 0.251786
0.941737 0.823610 0.292519
0.140145 0.907381 0.201374
0.153063 0.928547 0.201372
0.205634 0.928558 0.210787
0.433668 0.926167 0.240758
0.945625 0.930861 0.258789
0.118975 0.128908 0.483279
0.245131 0.159387 0.637014
0.805434 0.201908 0.637219
0.919056 0.240128 0.669639
0.944178 0.234745 0.769854
0.126227 0.218996 0.477748
0.207285 0.246563 0.555120
0.729876 0.280047 0.586022
0.913605 0.315038 0.630735
0.944178 0.234070 0.755636
0.146827 0.450588 0.432672
0.189575 0.471270 0.457387
0.511220 0.510583 0.511287
0.885292 0.537855 0.547166
0.943651 0.569883 0.711764
0.160376 0.753054 0.419476
0.185663 0.763102 0.430387
0.352764 0.779687 0.460432
0.777431 0.794512 0.493052
0.942505 0.827757 0.602815
0.147100 0.922887 0.455417
0.151052 0.928088 0.455415
0.240134 0.926122 0.425457
0.490079 0.925433 0.445829
0.946126 0.932022 0.497393
0.119865 0.192748 0.811871
0.186116 0.230801 0.849521
0.778063 0.267823 0.852973
0.916583 0.300049 0.858450
0.944177 0.244501 0.870501
0.128342 0.270092 0.813222
0.192274 0.298866 0.839709
0.720627 0.331606 0.847167
0.912232 0.363398 0.854100
0.944175 0.244025 0.868827
0.156151 0.484164 0.778550
0.205662 0.504167 0.802260
0.545150 0.535268 0.828473
0.892732 0.566352 0.839946
0.943426 0.608397 0.866225
0.171178 0.763190 0.735454
0.203017 0.772002 0.749555
0.393316 0.787882 0.783096
0.817360 0.804133 0.809203
0.942889 0.838991 0.853062
0.147785 0.924428 0.602590
0.152358 0.930444 0.603370
0.244461 0.929011 0.694611
0.505736 0.928322 0.727866
0.946248 0.935191 0.818602
0.174540 0.250834 0.926265
0.431258 0.260169 0.926354
0.867807 0.287568 0.926761
0.926464 0.303662 0.927699
0.944178 0.279931 0.922602
0.193805 0.301648 0.926062
0.411398 0.311175 0.926186
0.857625 0.337670 0.926673
0.925412 0.354754 0.927675
0.944178 0.286841 0.925933
0.221366 0.506388 0.925466
0.346114 0.514076 0.925810
0.812836 0.535292 0.926560
0.920606 0.552803 0.927757
0.945348 0.573719 0.930567
0.191111 0.779524 0.925834
0.250283 0.783214 0.926436
0.608987 0.791902 0.927528
0.906211 0.801817 0.928869
0.945698 0.828738 0.931438
0.144852 0.921536 0.859952
0.153063 0.932478 0.886518
0.196015 0.938486 0.927359
0.473286 0.935354 0.931634
0.946386 0.939853 0.932537
