LUTs/kodachrome64/Kodachrome64_Classic_IlfochromeP.cube
TITLE "Kodachrome 64 Classic IlfochromeP"
# Adobe RGB in/out. REPLACES AgX. Kodachrome 64 Classic IlfochromeP.
LUT_3D_SIZE 9
DOMAIN_MIN 0.0 0.0 0.0
DOMAIN_MAX 1.0 1.0 1.0
0.138776 0.101263 0.100261
0.159013 0.107441 0.101567
0.333968 0.117838 0.103513
0.607735 0.134650 0.106379
0.813186 0.157615 0.110735
0.898146 0.177503 0.119109
0.936530 0.187760 0.132336
0.955211 0.129376 0.242326
0.957212 0.239146 0.528847
0.138892 0.125143 0.101725
0.140909 0.129287 0.102637
0.234098 0.134842 0.104333
0.505539 0.152288 0.107189
0.774402 0.173148 0.111627
0.890291 0.194059 0.119713
0.934662 0.204125 0.132258
0.955211 0.129398 0.242375
0.957213 0.239153 0.528843
0.139031 0.201149 0.104023
0.140013 0.214218 0.104917
0.160261 0.216509 0.106797
0.309049 0.224789 0.109689
0.596022 0.242741 0.115080
0.837253 0.266401 0.123173
0.922597 0.277955 0.133669
0.955321 0.136893 0.248240
0.957213 0.239153 0.528842
0.140014 0.325024 0.107564
0.141161 0.336256 0.108306
0.152605 0.351934 0.110949
0.216674 0.350567 0.115121
0.409786 0.356769 0.121443
0.707335 0.370572 0.129173
0.891216 0.387570 0.139535
0.946517 0.385542 0.157936
0.957213 0.237159 0.297513
0.142556 0.469501 0.112989
0.143796 0.478962 0.114059
0.152276 0.504152 0.117996
0.189826 0.513199 0.123460
0.314365 0.510965 0.129547
0.534891 0.518069 0.137746
0.816374 0.532424 0.148664
0.934810 0.544036 0.163407
0.957124 0.536830 0.225994
0.145922 0.636610 0.121223
0.147126 0.641951 0.122357
0.155027 0.663351 0.126686
0.180939 0.676333 0.132158
0.269567 0.678461 0.139709
0.430994 0.678590 0.148635
0.697644 0.685443 0.159761
0.906405 0.696215 0.172238
0.955903 0.708216 0.208648
0.149410 0.772649 0.130223
0.150393 0.775474 0.131060
0.157639 0.787321 0.135245
0.178280 0.796839 0.142312
0.243887 0.799691 0.151215
0.369489 0.799870 0.160550
0.574622 0.802153 0.169925
0.853249 0.808733 0.184220
0.954326 0.820947 0.208608
0.152530 0.883855 0.137935
0.153266 0.883668 0.138450
0.159292 0.883545 0.143557
0.175619 0.885575 0.151518
0.225499 0.885771 0.160458
0.326885 0.884972 0.169434
0.485980 0.885541 0.180867
0.764157 0.889373 0.192974
0.953300 0.896163 0.210473
0.152007 0.906251 0.138895
0.152007 0.906254 0.138896
0.162249 0.936107 0.138927
0.162458 0.936944 0.152952
0.197573 0.941743 0.162818
0.284182 0.938570 0.172003
0.409961 0.937442 0.182658
0.619787 0.939003 0.191970
0.956295 0.943452 0.199590
0.138824 0.106199 0.118257
0.149631 0.110551 0.125694
0.349025 0.121176 0.127566
0.655724 0.139046 0.128322
0.827938 0.160924 0.127044
0.900265 0.179551 0.131294
0.936527 0.190552 0.145200
0.955211 0.129397 0.242381
0.957213 0.239152 0.528849
0.139006 0.124055 0.114772
0.150245 0.135298 0.125184
0.289625 0.139422 0.123695
0.577534 0.157794 0.127188
0.802251 0.176381 0.127593
0.893662 0.196898 0.131764
0.934789 0.206762 0.144650
0.955212 0.129432 0.242459
0.957213 0.239153 0.528843
0.139784 0.193919 0.115880
0.142731 0.203533 0.118025
0.179419 0.211570 0.122486
0.382314 0.227343 0.127916
0.663011 0.246753 0.130564
0.853649 0.268417 0.134946
0.924061 0.279438 0.146126
0.955353 0.139234 0.250802
0.957213 0.239153 0.528842
0.141238 0.316950 0.119616
0.143629 0.326105 0.121463
0.160292 0.341067 0.126125
0.249564 0.345110 0.131292
0.460318 0.356183 0.136393
0.742632 0.371319 0.141882
0.897243 0.387858 0.152118
0.946711 0.386376 0.169382
0.957213 0.239175 0.528834
0.143831 0.459815 0.123895
0.145592 0.468613 0.125475
0.156957 0.491732 0.130253
0.204357 0.502921 0.136672
0.341845 0.505248 0.144483
0.570585 0.515768 0.151792
0.833157 0.531418 0.161060
0.936517 0.543327 0.175162
0.957108 0.538772 0.249296
0.147030 0.629566 0.129656
0.148312 0.634852 0.130842
0.157684 0.655066 0.136000
0.187894 0.668419 0.143486
0.284141 0.672445 0.152707
0.453292 0.674771 0.162149
0.721742 0.683758 0.171208
0.911449 0.695116 0.185527
0.955945 0.708461 0.223115
0.150207 0.768983 0.137447
0.151246 0.771750 0.138703
0.159243 0.783139 0.143981
0.181819 0.793179 0.152543
0.252491 0.796655 0.161745
0.381614 0.797602 0.171089
0.594117 0.800544 0.183675
0.864449 0.807726 0.196562
0.954538 0.820715 0.221204
0.153001 0.882038 0.142682
0.153838 0.881955 0.143521
0.160173 0.882019 0.151041
0.177557 0.884026 0.159655
0.230011 0.884400 0.168746
0.333558 0.883879 0.180375
0.496031 0.884746 0.192279
0.776791 0.888771 0.204395
0.953778 0.895914 0.221928
0.153012 0.911136 0.199674
0.153013 0.911139 0.199675
0.163167 0.939816 0.199676
0.163168 0.939815 0.199668
0.199457 0.941504 0.168446
0.287286 0.938314 0.180562
0.414189 0.937252 0.191587
0.627699 0.938883 0.200933
0.957291 0.943407 0.207798
0.138890 0.114370 0.191143
0.149061 0.121349 0.266498
0.319257 0.130133 0.256668
0.644861 0.149354 0.256737
0.831591 0.170579 0.258123
0.901983 0.191567 0.271153
0.936260 0.202682 0.291511
0.955271 0.133953 0.277930
0.957213 0.239154 0.528900
0.139181 0.131578 0.189997
0.147153 0.138406 0.222701
0.284508 0.148464 0.232899
0.591667 0.166509 0.240569
0.813812 0.186673 0.246453
0.897206 0.208783 0.261228
0.934831 0.218225 0.279999
0.955294 0.135568 0.282591
0.957213 0.239153 0.528852
0.140995 0.193774 0.176092
0.146404 0.202048 0.184665
0.222409 0.230242 0.216730
0.446159 0.233428 0.216139
0.729935 0.255558 0.227245
0.873646 0.277037 0.243178
0.926989 0.287083 0.258248
0.954871 0.186145 0.311495
0.957213 0.239153 0.528843
0.144653 0.310418 0.178877
0.148528 0.317776 0.182937
0.176402 0.331851 0.193815
0.309292 0.340973 0.204900
0.557849 0.358008 0.217830
0.807553 0.376761 0.232475
0.909272 0.392107 0.244377
0.947308 0.390887 0.281647
0.957213 0.239157 0.528850
0.148496 0.449830 0.183473
0.151191 0.456194 0.186139
0.169499 0.474585 0.194541
0.244340 0.488256 0.205162
0.412552 0.496995 0.215880
0.675218 0.513485 0.230499
0.871830 0.531648 0.240921
0.941171 0.542683 0.267041
0.957047 0.546581 0.369774
0.152301 0.617326 0.191219
0.155129 0.621912 0.193076
0.168620 0.638165 0.200170
0.216950 0.651756 0.209838
0.333383 0.659650 0.221166
0.526319 0.666677 0.232888
0.788883 0.680021 0.243574
0.924094 0.692358 0.263735
0.956086 0.709650 0.305454
0.155866 0.759017 0.194532
0.157779 0.761608 0.196054
0.167869 0.771454 0.202362
0.201731 0.781130 0.211632
0.287371 0.786860 0.223160
0.431164 0.790693 0.235169
0.665631 0.796123 0.247962
0.891048 0.804516 0.264949
0.955169 0.820092 0.288736
0.157313 0.871705 0.199557
0.158568 0.872327 0.200928
0.166935 0.874880 0.208360
0.190285 0.877687 0.217705
0.253900 0.879064 0.228929
0.365567 0.879711 0.240685
0.543484 0.881740 0.253023
0.821755 0.886489 0.265657
0.955029 0.895085 0.279522
0.153013 0.911140 0.199680
0.163167 0.939815 0.199679
0.163167 0.939816 0.199677
0.163175 0.939819 0.199679
0.210236 0.939832 0.208503
0.302103 0.937006 0.225383
0.434012 0.936309 0.237456
0.663748 0.938262 0.247524
0.958514 0.943231 0.254909
0.138962 0.126079 0.323686
0.142461 0.138532 0.430833
0.288199 0.150826 0.460559
0.601731 0.166207 0.451825
0.819780 0.187160 0.454566
0.898586 0.210871 0.464254
0.934732 0.223318 0.491553
0.952945 0.186050 0.582731
0.957213 0.240302 0.605524
0.139414 0.145885 0.329767
0.144243 0.155443 0.386124
0.266329 0.167470 0.427488
0.560183 0.181153 0.427006
0.804749 0.205676 0.435702
0.894358 0.226811 0.450171
0.933394 0.237965 0.479963
0.952662 0.199228 0.572815
0.957213 0.240315 0.606371
0.142925 0.209952 0.309837
0.148539 0.218158 0.327261
0.217393 0.232177 0.361989
0.452902 0.246370 0.376661
0.737182 0.268503 0.391904
0.875111 0.289631 0.408908
0.926687 0.301351 0.440245
0.950238 0.289695 0.511612
0.957213 0.240362 0.609451
0.147983 0.312530 0.293698
0.152979 0.319203 0.300816
0.189530 0.333518 0.320480
0.357457 0.359923 0.354301
0.603835 0.364772 0.359119
0.825687 0.384563 0.375495
0.912948 0.400809 0.398327
0.947243 0.402920 0.454198
0.957213 0.240400 0.610375
0.153790 0.446837 0.292730
0.158299 0.452316 0.296392
0.182749 0.468702 0.308943
0.280454 0.483744 0.324653
0.467798 0.496123 0.339303
0.731699 0.515752 0.355626
0.885971 0.535105 0.373828
0.942701 0.547880 0.407302
0.956931 0.560707 0.551611
0.158966 0.610734 0.293164
0.162342 0.614854 0.295516
0.181025 0.629188 0.304687
0.245607 0.642737 0.317365
0.378754 0.652928 0.331185
0.594910 0.662988 0.344719
0.829799 0.678652 0.360558
0.930802 0.692079 0.382643
0.956156 0.713781 0.478387
0.162306 0.752425 0.294401
0.165007 0.754756 0.296058
0.178973 0.763392 0.303034
0.225080 0.772733 0.313836
0.323098 0.779548 0.326442
0.484186 0.785329 0.339513
0.732821 0.793088 0.352697
0.908740 0.802771 0.369112
0.955627 0.820837 0.428154
0.162223 0.865846 0.294466
0.164127 0.866817 0.295608
0.175129 0.870303 0.301624
0.206524 0.873157 0.310430
0.280116 0.875143 0.321625
0.401414 0.876708 0.333568
0.598791 0.879583 0.345646
0.860369 0.884952 0.358410
0.955959 0.894955 0.392492
0.157337 0.926390 0.314552
0.163166 0.942020 0.314552
0.163167 0.942024 0.314551
0.172991 0.945190 0.282424
0.229641 0.936979 0.311514
0.323739 0.935253 0.321461
0.464603 0.935234 0.331224
0.717523 0.937567 0.339484
0.959088 0.943491 0.355192
0.139025 0.147651 0.480707
0.140160 0.156191 0.549433
0.246992 0.175413 0.632844
0.558074 0.191706 0.633107
0.802841 0.213387 0.633067
0.893515 0.235691 0.644001
0.932581 0.249333 0.667404
0.951441 0.228533 0.715929
0.957213 0.244208 0.763561
0.139589 0.163076 0.486524
0.142180 0.171813 0.536618
0.234846 0.191942 0.611164
0.527160 0.209572 0.616735
0.787557 0.229991 0.619579
0.889573 0.250900 0.633169
0.931297 0.263450 0.659574
0.951179 0.242293 0.710491
0.957213 0.244051 0.760036
0.143807 0.229305 0.475762
0.148736 0.237197 0.497230
0.211680 0.255421 0.547485
0.446048 0.270072 0.568082
0.728818 0.287326 0.578258
0.872702 0.308624 0.596093
0.925276 0.321563 0.626028
0.949461 0.317181 0.681192
0.957213 0.243563 0.748813
0.150620 0.327704 0.450635
0.156852 0.333724 0.461656
0.199265 0.349422 0.490668
0.360751 0.363116 0.515971
0.617473 0.377774 0.531946
0.830868 0.398539 0.552135
0.913419 0.415631 0.580055
0.946922 0.420852 0.636474
0.957664 0.353381 0.748913
0.158508 0.450783 0.431075
0.163723 0.456067 0.437193
0.194655 0.472298 0.457416
0.303119 0.488667 0.478571
0.509260 0.515378 0.505836
0.756227 0.524215 0.515836
0.891908 0.544507 0.539607
0.943061 0.559463 0.583423
0.956772 0.579020 0.705801
0.165043 0.610959 0.423061
0.169096 0.614757 0.426561
0.194313 0.627975 0.439984
0.270314 0.641581 0.458693
0.414756 0.653352 0.475624
0.642417 0.665241 0.491117
0.851650 0.681952 0.510283
0.934195 0.695846 0.540922
0.956121 0.720977 0.655269
0.168413 0.750651 0.417053
0.172142 0.752832 0.419335
0.190832 0.760683 0.428645
0.245994 0.769735 0.443349
0.353664 0.777244 0.460239
0.527637 0.784266 0.474849
0.773888 0.793262 0.489436
0.918047 0.803432 0.509847
0.955812 0.823937 0.596004
0.167000 0.863895 0.409814
0.169235 0.864759 0.411193
0.182820 0.868016 0.418197
0.221595 0.871149 0.429146
0.303013 0.873401 0.443240
0.434430 0.875563 0.458365
0.647726 0.879038 0.471068
0.882507 0.884938 0.484969
0.956443 0.896320 0.541610
0.158685 0.931482 0.455312
0.159464 0.933767 0.455312
0.161471 0.939140 0.455310
0.183430 0.938677 0.412692
0.241873 0.936243 0.423405
0.340361 0.934970 0.434594
0.488928 0.935229 0.445085
0.750950 0.937836 0.454070
0.959383 0.944944 0.493345
0.139423 0.172283 0.655954
0.140104 0.177129 0.705436
0.220457 0.208120 0.764708
0.514063 0.224805 0.768047
0.785230 0.244491 0.769603
0.888334 0.263990 0.774171
0.930362 0.278163 0.784387
0.950481 0.267048 0.803552
0.957213 0.247157 0.817695
0.139830 0.184254 0.660371
0.141164 0.191866 0.700673
0.215470 0.223021 0.757379
0.493427 0.239379 0.762581
0.771808 0.258876 0.765086
0.884726 0.277889 0.770227
0.929162 0.291309 0.781311
0.950231 0.280278 0.801911
0.957213 0.247157 0.817695
0.144461 0.253883 0.658366
0.148393 0.260032 0.679455
0.207106 0.281839 0.728488
0.431296 0.296601 0.741825
0.720610 0.313574 0.747958
0.869759 0.331088 0.755515
0.923788 0.344948 0.768819
0.948811 0.345175 0.792324
0.957213 0.247163 0.817694
0.152807 0.345825 0.628178
0.158394 0.350873 0.641593
0.204268 0.368868 0.681186
0.365680 0.384404 0.707238
0.625116 0.399894 0.721154
0.832313 0.416865 0.732804
0.913299 0.434344 0.748268
0.946591 0.442164 0.774627
0.957491 0.398171 0.813957
0.162470 0.465861 0.597787
0.167736 0.470956 0.605693
0.205240 0.488760 0.634174
0.318784 0.506065 0.664887
0.521541 0.521598 0.685123
0.769426 0.538223 0.700780
0.894911 0.558870 0.721456
0.943240 0.575375 0.750574
0.956626 0.598582 0.802626
0.169793 0.617111 0.574269
0.175085 0.620849 0.579157
0.205152 0.633514 0.597407
0.287674 0.647274 0.622429
0.439680 0.659975 0.647649
0.677665 0.678021 0.671648
0.864159 0.688579 0.688789
0.936064 0.703159 0.720772
0.956100 0.730307 0.783640
0.174068 0.753571 0.557854
0.177951 0.755565 0.560770
0.201250 0.762872 0.572520
0.262743 0.771677 0.591732
0.376581 0.779573 0.614089
0.562143 0.787270 0.635534
0.800382 0.796471 0.656168
0.923249 0.806861 0.683112
0.955930 0.828724 0.756351
0.170617 0.865911 0.540424
0.173501 0.866678 0.542234
0.189659 0.869497 0.550852
0.232691 0.872006 0.564169
0.319171 0.874291 0.581424
0.459219 0.876746 0.600369
0.683988 0.880552 0.618711
0.894552 0.886712 0.639144
0.956682 0.898934 0.717227
0.159196 0.933315 0.505030
0.159869 0.935331 0.507694
0.161624 0.939922 0.517825
0.185698 0.940062 0.531097
0.248365 0.937408 0.544239
0.349633 0.936229 0.557220
0.503008 0.936674 0.568916
0.770068 0.939346 0.577974
0.959494 0.946947 0.666052
0.139863 0.204819 0.804193
0.140322 0.209197 0.821958
0.191251 0.240438 0.842117
0.489289 0.257301 0.844843
0.774567 0.275839 0.846099
0.885555 0.293969 0.848102
0.929267 0.306615 0.851940
0.949934 0.300484 0.858955
0.957212 0.253472 0.865192
0.140131 0.217246 0.804944
0.141637 0.222035 0.820292
0.192286 0.253094 0.840024
0.474103 0.269868 0.843291
0.763750 0.288099 0.844803
0.882553 0.306402 0.846974
0.928172 0.319186 0.851068
0.949705 0.313279 0.858313
0.957212 0.253405 0.864782
0.145127 0.278013 0.805190
0.148218 0.282649 0.813937
0.197516 0.305463 0.830814
0.426009 0.321533 0.836681
0.721119 0.338204 0.839403
0.869796 0.355055 0.842332
0.923439 0.368573 0.847400
0.948513 0.371633 0.855064
0.957210 0.253021 0.862912
0.154640 0.367264 0.793952
0.159423 0.371547 0.800486
0.204224 0.390156 0.815721
0.371938 0.406767 0.825386
0.637787 0.422521 0.830324
0.837392 0.439221 0.834647
0.914358 0.454003 0.840604
0.946611 0.463523 0.850131
0.957159 0.455184 0.864723
0.165472 0.486395 0.772587
0.170854 0.490882 0.778418
0.210260 0.508330 0.797088
0.330758 0.525980 0.809635
0.543222 0.541725 0.817970
0.784626 0.558389 0.823990
0.898647 0.575209 0.831087
0.943731 0.591543 0.842370
0.956584 0.616975 0.859907
0.174282 0.630555 0.750287
0.179287 0.633901 0.754533
0.212535 0.646328 0.769705
0.302064 0.660695 0.788497
0.463134 0.673653 0.802233
0.702568 0.685751 0.810722
0.872836 0.697603 0.818955
0.937959 0.711829 0.831416
0.956185 0.739777 0.854198
0.177411 0.760771 0.727671
0.181734 0.762683 0.730949
0.207943 0.769571 0.742510
0.274059 0.778031 0.759529
0.393848 0.786057 0.777307
0.588593 0.793976 0.792359
0.815422 0.802025 0.802223
0.927023 0.812210 0.816079
0.956134 0.834343 0.846202
0.171927 0.871574 0.697221
0.174901 0.872037 0.699673
0.192559 0.873685 0.710763
0.238121 0.875791 0.727317
0.328426 0.877857 0.744118
0.474749 0.880253 0.760200
0.707894 0.884124 0.774718
0.901301 0.890200 0.790127
0.956899 0.902484 0.831321
0.159129 0.933749 0.595765
0.160432 0.937624 0.595796
0.162573 0.942614 0.596590
0.181035 0.944596 0.672532
0.246305 0.940500 0.690189
0.349282 0.939097 0.706688
0.503989 0.939485 0.720306
0.770618 0.942145 0.729065
0.959595 0.949628 0.809156
0.140617 0.241438 0.889183
0.142280 0.244120 0.892417
0.203983 0.267538 0.895680
0.517022 0.283782 0.896252
0.792042 0.300914 0.896723
0.890656 0.318012 0.897456
0.931014 0.329229 0.898736
0.950470 0.321956 0.901735
0.957258 0.275344 0.900854
0.141621 0.252009 0.888808
0.143265 0.254937 0.891858
0.206386 0.278481 0.895365
0.504674 0.294700 0.896007
0.783922 0.311930 0.896512
0.888449 0.328951 0.897274
0.930217 0.340331 0.898590
0.950279 0.333999 0.901592
0.957273 0.279131 0.900854
0.147626 0.307771 0.887421
0.150436 0.310837 0.889567
0.217557 0.329936 0.893582
0.461625 0.344528 0.894668
0.748661 0.360051 0.895402
0.878242 0.376581 0.896335
0.926455 0.389361 0.897825
0.949318 0.389380 0.900775
0.957437 0.319032 0.900854
0.157803 0.390528 0.883214
0.162613 0.393731 0.885147
0.223005 0.410671 0.889891
0.407262 0.425218 0.892506
0.685685 0.440253 0.893689
0.856716 0.456166 0.894900
0.919615 0.470983 0.896667
0.947841 0.478540 0.899701
0.957245 0.480337 0.903004
0.168900 0.508031 0.876292
0.174991 0.511527 0.878290
0.225491 0.527592 0.883785
0.359541 0.542939 0.887987
0.593917 0.557993 0.890791
0.815095 0.573999 0.892960
0.907948 0.589289 0.894996
0.945628 0.600999 0.898281
0.956862 0.629075 0.902298
0.177773 0.646653 0.866817
0.183351 0.649476 0.868936
0.223806 0.661710 0.875374
0.321067 0.674293 0.881457
0.499813 0.685325 0.885957
0.744461 0.695671 0.889350
0.886758 0.706473 0.892733
0.942351 0.717858 0.896371
0.956635 0.746341 0.901478
0.179386 0.771271 0.852849
0.184135 0.772946 0.855005
0.213931 0.779746 0.862458
0.285015 0.787429 0.871058
0.415840 0.794515 0.878268
0.628261 0.800707 0.883579
0.840348 0.808087 0.887886
0.933410 0.817065 0.893531
0.956674 0.838795 0.900269
0.169590 0.880699 0.828890
0.172629 0.880887 0.830938
0.190698 0.881359 0.839623
0.238004 0.882420 0.851246
0.332510 0.883752 0.862329
0.486250 0.885809 0.871264
0.726699 0.889370 0.878053
0.905338 0.893121 0.881718
0.957319 0.906181 0.897867
0.158415 0.932479 0.750905
0.162459 0.943208 0.753455
0.163125 0.944878 0.770883
0.175886 0.949118 0.800725
0.232674 0.945974 0.814829
0.336086 0.943855 0.828382
0.487721 0.943885 0.838823
0.747177 0.946256 0.844271
0.959704 0.952847 0.889509
0.180045 0.259453 0.926853
0.205294 0.261247 0.926871
0.431614 0.268431 0.926938
0.759657 0.280456 0.927096
0.876048 0.294453 0.927328
0.917832 0.306915 0.927625
0.942357 0.310133 0.928226
0.953517 0.281589 0.929181
0.957213 0.287218 0.923346
0.182880 0.267325 0.926841
0.208033 0.269168 0.926859
0.427243 0.276521 0.926928
0.754548 0.288748 0.927090
0.874439 0.303171 0.927325
0.917205 0.315755 0.927630
0.942211 0.319001 0.928231
0.953445 0.289268 0.929185
0.957213 0.293721 0.926535
0.199139 0.308172 0.926659
0.223406 0.310083 0.926685
0.411849 0.317593 0.926777
0.731004 0.329851 0.926978
0.866455 0.343765 0.927244
0.914205 0.355975 0.927599
0.941118 0.359785 0.928203
0.953063 0.333451 0.929162
0.957213 0.293753 0.926535
0.220690 0.393311 0.926306
0.241374 0.395017 0.926354
0.384118 0.401696 0.926515
0.677873 0.412585 0.926788
0.844157 0.425204 0.927109
0.907591 0.436924 0.927524
0.938614 0.442270 0.928178
0.952364 0.429790 0.929128
0.957946 0.455415 0.929769
0.225799 0.510770 0.926088
0.242377 0.512462 0.926165
0.347029 0.519089 0.926417
0.597410 0.529594 0.926733
0.809729 0.541752 0.927135
0.896261 0.553514 0.927616
0.934662 0.560599 0.928282
0.951672 0.555812 0.929292
0.958192 0.583162 0.930972
0.216690 0.649859 0.926114
0.229393 0.651144 0.926225
0.305876 0.656439 0.926578
0.495609 0.664651 0.926992
0.744754 0.673939 0.927429
0.876994 0.683009 0.927950
0.928189 0.688485 0.928615
0.950712 0.688486 0.929597
0.958328 0.720653 0.931250
0.196282 0.777081 0.926441
0.204636 0.777833 0.926585
0.252271 0.780988 0.927017
0.380848 0.785438 0.927539
0.609457 0.790424 0.928063
0.825733 0.795883 0.928614
0.915390 0.799945 0.929347
0.949179 0.800588 0.930264
0.958641 0.824846 0.931669
0.168275 0.885710 0.926004
0.171204 0.885808 0.926446
0.189230 0.886081 0.927450
0.257976 0.885930 0.928318
0.402335 0.885930 0.929101
0.652261 0.887261 0.929757
0.871628 0.890062 0.930439
0.944526 0.891343 0.931309
0.959149 0.901354 0.932126
0.157153 0.929497 0.853480
0.163167 0.945617 0.887096
0.163168 0.945617 0.887096
0.165984 0.946759 0.887179
0.201483 0.954506 0.927900
0.310193 0.950546 0.930760
0.472757 0.949870 0.931802
0.754505 0.952048 0.932311
0.959834 0.956533 0.932646
