LUTs/kodachrome64/Kodachrome64_Classic_Punchy.cube
TITLE "Kodachrome 64 Classic Punchy"
# Adobe RGB in/out. REPLACES AgX. Kodachrome 64 Classic Punchy.
LUT_3D_SIZE 5
DOMAIN_MIN 0.0 0.0 0.0
DOMAIN_MAX 1.0 1.0 1.0
0.084019 0.088159 0.082807
0.214523 0.088159 0.082807
0.948608 0.088414 0.082807
0.984587 0.090156 0.082807
0.987348 0.096790 0.627703
0.084019 0.091030 0.082807
0.085279 0.092984 0.082807
0.764120 0.097467 0.082807
0.981840 0.110180 0.082807
0.987348 0.096792 0.627698
0.084019 0.485016 0.082807
0.084100 0.557901 0.082807
0.182834 0.571655 0.082807
0.949946 0.613080 0.083140
0.987335 0.619550 0.088555
0.084019 0.924516 0.082807
0.084804 0.932595 0.082807
0.115944 0.938959 0.083253
0.728167 0.940335 0.084123
0.986928 0.949695 0.086714
0.084071 0.975408 0.082866
0.085687 0.982767 0.082867
0.094756 0.984140 0.083897
0.334535 0.983093 0.084902
0.987215 0.984556 0.086058
0.084019 0.088159 0.085473
0.189309 0.088159 0.093946
0.956286 0.089004 0.094363
0.984559 0.091125 0.107957
0.987348 0.096792 0.627762
0.084019 0.090555 0.084513
0.104195 0.095337 0.087454
0.904770 0.101198 0.088720
0.982729 0.115466 0.094399
0.987348 0.096792 0.627699
0.084019 0.433794 0.084950
0.087387 0.495626 0.085711
0.339298 0.543619 0.087365
0.968530 0.611942 0.090465
0.987324 0.633919 0.210330
0.084489 0.912989 0.085710
0.086975 0.923508 0.086245
0.147880 0.932375 0.088177
0.853011 0.936962 0.091478
0.987051 0.949320 0.106166
0.084181 0.976564 0.086064
0.085890 0.983672 0.086064
0.099255 0.983676 0.086706
0.382761 0.982817 0.090042
0.987537 0.984502 0.093441
0.084019 0.088224 0.507312
0.117553 0.089343 0.803706
0.944243 0.092473 0.803931
0.983856 0.099344 0.839439
0.987348 0.097886 0.913348
0.084019 0.095179 0.494438
0.099841 0.101156 0.663770
0.903991 0.115663 0.720145
0.982383 0.155248 0.796802
0.987348 0.097702 0.902590
0.084962 0.436462 0.379227
0.093882 0.490839 0.456267
0.584197 0.580650 0.574261
0.975637 0.630857 0.644702
0.987284 0.686535 0.874604
0.087136 0.905885 0.338097
0.092633 0.914402 0.372182
0.239350 0.927754 0.462311
0.932630 0.935421 0.530779
0.987145 0.951004 0.748741
0.084994 0.981636 0.452375
0.085515 0.983507 0.452371
0.114864 0.982800 0.357304
0.537287 0.982553 0.422563
0.987663 0.984917 0.541839
0.084019 0.091313 0.934290
0.092778 0.096993 0.949234
0.933017 0.109121 0.950646
0.983189 0.135473 0.952880
0.987348 0.100551 0.958118
0.084019 0.110209 0.934484
0.094739 0.134172 0.944991
0.898586 0.181843 0.948268
0.982011 0.244492 0.951107
0.987348 0.100411 0.957221
0.086396 0.520720 0.919897
0.099264 0.566318 0.932886
0.661596 0.626755 0.939684
0.976995 0.679287 0.945103
0.987257 0.767694 0.956035
0.088879 0.914476 0.887209
0.098323 0.921919 0.897972
0.303766 0.931990 0.923309
0.949546 0.940264 0.933906
0.987191 0.955244 0.950683
0.085075 0.982191 0.748359
0.085759 0.984352 0.749681
0.117225 0.983838 0.861900
0.573150 0.983591 0.882651
0.987694 0.985865 0.936012
0.089793 0.102404 0.978980
0.375662 0.105430 0.978992
0.970133 0.121436 0.979045
0.985175 0.139518 0.979168
0.987348 0.115575 0.978499
0.095223 0.137243 0.978953
0.338000 0.149649 0.978970
0.966611 0.192274 0.979034
0.985045 0.224652 0.979165
0.987348 0.120872 0.978936
0.105641 0.571259 0.978875
0.230778 0.588528 0.978920
0.947153 0.626794 0.979019
0.984274 0.654701 0.979176
0.987490 0.694445 0.979543
0.094370 0.927675 0.978924
0.120103 0.929557 0.979002
0.776800 0.934079 0.979146
0.980374 0.939101 0.979321
0.987555 0.951401 0.979657
0.084715 0.981149 0.953491
0.085890 0.985081 0.966811
0.095950 0.986652 0.979123
0.495404 0.985912 0.979688
0.987729 0.986768 0.979726
