LUTs/kodachrome64/Kodachrome64_Classic_IlfochromeM.cube
TITLE "Kodachrome 64 Classic IlfochromeM"
# Adobe RGB in/out. REPLACES AgX. Kodachrome 64 Classic IlfochromeM.
LUT_3D_SIZE 33
DOMAIN_MIN 0.0 0.0 0.0
DOMAIN_MAX 1.0 1.0 1.0
0.117094 0.082435 0.080060
0.118631 0.083536 0.080846
0.118991 0.083667 0.080966
0.122507 0.084064 0.081274
0.147607 0.085264 0.081510
0.164393 0.086643 0.081697
0.211773 0.089684 0.082250
0.288098 0.093561 0.083247
0.333637 0.096319 0.083824
0.395660 0.100307 0.085131
0.484982 0.107390 0.087355
0.549385 0.111995 0.089056
0.607294 0.116189 0.090660
0.672336 0.121745 0.092635
0.740228 0.129408 0.095253
0.782409 0.134138 0.097394
0.815584 0.138738 0.099424
0.838069 0.144742 0.102321
0.858507 0.152883 0.106157
0.876841 0.157428 0.108878
0.892179 0.162198 0.111871
0.901905 0.168333 0.115397
0.909447 0.173225 0.119622
0.916695 0.173745 0.123405
0.921997 0.174522 0.128541
0.926664 0.173388 0.134751
0.932511 0.160176 0.139253
0.935577 0.151620 0.149297
0.941788 0.110794 0.245938
0.941787 0.110760 0.245851
0.941787 0.110757 0.245846
0.941787 0.110759 0.245843
0.944177 0.229451 0.536300
0.117485 0.084234 0.080733
0.118253 0.084306 0.080910
0.119127 0.083918 0.080905
0.124324 0.084289 0.081318
0.148916 0.086213 0.081575
0.164147 0.087312 0.081738
0.209008 0.090362 0.082323
0.282932 0.094394 0.083341
0.328510 0.097119 0.083892
0.390023 0.100955 0.085227
0.479374 0.108128 0.087437
0.544291 0.112760 0.089147
0.602798 0.116856 0.090735
0.668462 0.122416 0.092697
0.737227 0.130086 0.095327
0.780522 0.134795 0.097457
0.814545 0.139345 0.099477
0.837269 0.145448 0.102378
0.857904 0.153651 0.106213
0.876383 0.158160 0.108924
0.891837 0.163006 0.111908
0.901747 0.169122 0.115425
0.909333 0.174020 0.119643
0.916615 0.174522 0.123412
0.921941 0.175282 0.128529
0.926625 0.174136 0.134709
0.932484 0.160794 0.139178
0.935561 0.152201 0.149072
0.941788 0.110795 0.245940
0.941787 0.110760 0.245851
0.941787 0.110757 0.245846
0.941787 0.110759 0.245843
0.944177 0.229453 0.536299
0.117551 0.084797 0.080831
0.117874 0.085025 0.081033
0.118443 0.085056 0.081080
0.120481 0.086628 0.081421
0.137132 0.089785 0.081716
0.157006 0.090217 0.081843
0.198226 0.093187 0.082556
0.270037 0.098566 0.083697
0.311063 0.100241 0.084258
0.370697 0.104189 0.085582
0.459073 0.110986 0.087736
0.525462 0.115644 0.089482
0.586021 0.119449 0.091010
0.653930 0.124910 0.092926
0.725933 0.132600 0.095596
0.773405 0.137222 0.097685
0.810162 0.141623 0.099672
0.834260 0.148046 0.102584
0.855644 0.156477 0.106414
0.874669 0.160845 0.109092
0.890558 0.165974 0.112043
0.901158 0.172013 0.115526
0.908908 0.176931 0.119721
0.916315 0.177367 0.123444
0.921731 0.178065 0.128492
0.926477 0.176872 0.134567
0.932383 0.163285 0.138927
0.935502 0.154334 0.148390
0.941788 0.110798 0.245947
0.941787 0.110760 0.245852
0.941787 0.110758 0.245847
0.941787 0.110760 0.245843
0.944178 0.229456 0.536298
0.117892 0.090964 0.081247
0.117984 0.091447 0.081331
0.118428 0.092265 0.081434
0.119129 0.092130 0.081548
0.125810 0.097744 0.082012
0.138068 0.096188 0.082238
0.169742 0.099911 0.083032
0.230547 0.105690 0.084251
0.277587 0.106789 0.084999
0.338641 0.110187 0.086205
0.423624 0.117849 0.088394
0.489950 0.121941 0.090128
0.553070 0.125094 0.091536
0.624748 0.130227 0.093361
0.702400 0.137779 0.096109
0.758814 0.142083 0.098118
0.798554 0.146946 0.100086
0.828114 0.153306 0.102975
0.851054 0.162022 0.106797
0.871202 0.166718 0.109412
0.887985 0.171709 0.112303
0.899978 0.177707 0.115724
0.908060 0.182531 0.119879
0.915718 0.182834 0.123518
0.921314 0.183409 0.128446
0.926186 0.182130 0.134343
0.932183 0.168316 0.138534
0.935384 0.158457 0.147290
0.941788 0.110804 0.245962
0.941787 0.110761 0.245854
0.941787 0.110758 0.245848
0.941787 0.110765 0.245844
0.944178 0.229457 0.536296
0.118226 0.107040 0.081617
0.118255 0.107863 0.081690
0.118609 0.110205 0.081799
0.119139 0.111224 0.082123
0.122030 0.110703 0.082538
0.128842 0.107138 0.082694
0.147537 0.110835 0.083579
0.187503 0.116803 0.085187
0.230960 0.116386 0.085868
0.292196 0.119272 0.087093
0.379198 0.127321 0.089569
0.444426 0.130705 0.091090
0.507348 0.133628 0.092332
0.579517 0.139022 0.094034
0.660355 0.147914 0.096919
0.726690 0.151974 0.098801
0.777909 0.156448 0.100807
0.817173 0.162865 0.103589
0.842953 0.172379 0.107399
0.865119 0.176576 0.109918
0.883507 0.181232 0.112717
0.897940 0.186947 0.116045
0.906604 0.191564 0.120148
0.914698 0.191640 0.123669
0.920606 0.192007 0.128433
0.925692 0.190591 0.134092
0.931845 0.176564 0.138104
0.935181 0.165697 0.145982
0.941788 0.110817 0.245991
0.941787 0.110762 0.245857
0.941787 0.110759 0.245850
0.941788 0.110809 0.245845
0.944178 0.229458 0.536295
0.118270 0.116224 0.081817
0.118324 0.116748 0.081895
0.118608 0.119511 0.082071
0.119104 0.121463 0.082459
0.120071 0.121861 0.082775
0.124665 0.121303 0.083418
0.137307 0.126022 0.084408
0.163512 0.132623 0.086401
0.191928 0.129882 0.086876
0.244577 0.131980 0.088011
0.325509 0.139655 0.090745
0.391074 0.142657 0.092191
0.456067 0.145415 0.093360
0.530439 0.150858 0.095001
0.615282 0.160505 0.097962
0.684196 0.165744 0.099707
0.746131 0.171391 0.101804
0.792747 0.179750 0.104475
0.828980 0.188937 0.108276
0.854693 0.192019 0.110657
0.875915 0.195825 0.113329
0.893217 0.200928 0.116582
0.904191 0.205120 0.120577
0.913016 0.204829 0.123956
0.919451 0.204858 0.128523
0.924890 0.203256 0.133912
0.931292 0.189302 0.137806
0.934846 0.177634 0.144789
0.941788 0.110843 0.246049
0.941787 0.110765 0.245864
0.941787 0.110760 0.245853
0.944176 0.226869 0.245846
0.944178 0.229459 0.536295
0.118599 0.136714 0.082617
0.118613 0.137188 0.082731
0.118716 0.139983 0.083109
0.119125 0.143242 0.083527
0.120166 0.145211 0.084016
0.123952 0.145321 0.084853
0.132053 0.144508 0.085819
0.150468 0.153638 0.087783
0.170358 0.147943 0.088149
0.206519 0.148982 0.089528
0.275193 0.158737 0.092122
0.338642 0.161269 0.093451
0.400255 0.162299 0.094402
0.474836 0.168252 0.096334
0.561769 0.179835 0.099228
0.632256 0.185372 0.101137
0.703465 0.188808 0.103044
0.766748 0.195646 0.105684
0.813393 0.206004 0.109365
0.840857 0.210389 0.111629
0.863920 0.215836 0.114183
0.883858 0.221578 0.117422
0.900084 0.225000 0.121238
0.910180 0.224110 0.124502
0.917529 0.223593 0.128816
0.923568 0.221741 0.133941
0.930372 0.208364 0.137882
0.934280 0.196075 0.144122
0.941789 0.110909 0.246187
0.941787 0.110771 0.245880
0.941787 0.110763 0.245861
0.944178 0.226925 0.245850
0.944178 0.229459 0.536295
0.118808 0.168907 0.084012
0.118869 0.169544 0.084135
0.119104 0.174084 0.084745
0.119290 0.179066 0.085476
0.120542 0.183212 0.086226
0.124206 0.185086 0.087278
0.131411 0.184820 0.088160
0.143012 0.183628 0.089505
0.157501 0.174129 0.089870
0.183524 0.174149 0.091142
0.238061 0.185994 0.093582
0.291709 0.186859 0.094749
0.348990 0.186301 0.095954
0.419922 0.191453 0.097880
0.506676 0.202513 0.100783
0.578777 0.206091 0.102645
0.651008 0.209582 0.104465
0.723907 0.217075 0.107226
0.784368 0.227140 0.110739
0.825255 0.229526 0.112814
0.852581 0.233491 0.115207
0.874991 0.239659 0.118478
0.894388 0.245779 0.122149
0.906065 0.248092 0.125352
0.914114 0.251343 0.129458
0.921249 0.249134 0.134371
0.928717 0.237265 0.138657
0.933255 0.224552 0.144496
0.941794 0.111180 0.246665
0.941788 0.110794 0.245935
0.941787 0.110771 0.245884
0.944178 0.226928 0.245859
0.944178 0.229459 0.536295
0.119043 0.188831 0.085128
0.119088 0.189342 0.085230
0.119119 0.192515 0.085651
0.119331 0.197880 0.086320
0.120315 0.202798 0.087135
0.122853 0.205827 0.087956
0.128040 0.206993 0.089190
0.136713 0.206405 0.090333
0.149535 0.205253 0.091521
0.169666 0.204619 0.092690
0.210443 0.216988 0.095195
0.257060 0.216308 0.096638
0.306931 0.214140 0.097742
0.370253 0.217787 0.099489
0.452815 0.228220 0.102676
0.523568 0.230513 0.104381
0.595973 0.233210 0.106279
0.674110 0.239732 0.108902
0.751510 0.249496 0.112274
0.801541 0.252866 0.114231
0.834646 0.258074 0.116566
0.862345 0.262285 0.119815
0.885634 0.266836 0.123285
0.902343 0.267791 0.126384
0.911602 0.270030 0.130252
0.918979 0.272568 0.135033
0.926554 0.269065 0.139738
0.931385 0.266318 0.146222
0.941919 0.118496 0.252067
0.941792 0.111073 0.246487
0.941788 0.110830 0.246033
0.944178 0.226929 0.245904
0.944178 0.229459 0.536295
0.119127 0.217940 0.086711
0.119131 0.218374 0.086800
0.119165 0.220798 0.087157
0.119532 0.226183 0.087798
0.120509 0.231384 0.088698
0.122772 0.235716 0.089777
0.127097 0.237903 0.090924
0.134236 0.238389 0.092044
0.144400 0.237731 0.093132
0.160556 0.236681 0.094215
0.192012 0.250012 0.097195
0.229377 0.248384 0.098584
0.272918 0.244470 0.099503
0.330783 0.246906 0.101498
0.404735 0.257095 0.104668
0.471313 0.258110 0.106464
0.541866 0.259430 0.108264
0.620700 0.264730 0.110734
0.704135 0.274889 0.114013
0.768641 0.277610 0.115828
0.817020 0.280492 0.118203
0.847072 0.286753 0.121339
0.872774 0.293645 0.124777
0.896089 0.294783 0.127728
0.907655 0.295412 0.131317
0.916395 0.296674 0.135857
0.924935 0.292325 0.140202
0.930369 0.288534 0.146117
0.935757 0.278102 0.152987
0.939375 0.264991 0.166572
0.942923 0.216532 0.238728
0.944178 0.226978 0.253639
0.944178 0.229459 0.536294
0.119439 0.261994 0.089550
0.119472 0.262403 0.089646
0.119606 0.264472 0.090022
0.120255 0.270539 0.090814
0.121463 0.276224 0.091715
0.123808 0.280838 0.092717
0.127994 0.284425 0.093784
0.134885 0.286028 0.094881
0.144353 0.286187 0.096310
0.159295 0.285359 0.097770
0.180459 0.284387 0.099236
0.210097 0.281814 0.100593
0.248056 0.276709 0.101688
0.297057 0.278216 0.103616
0.364244 0.288435 0.107026
0.425471 0.288028 0.108708
0.491524 0.287953 0.110313
0.568025 0.292574 0.112640
0.653560 0.302715 0.115857
0.727490 0.303813 0.117743
0.787045 0.307355 0.120088
0.828379 0.313617 0.123084
0.859506 0.318098 0.126463
0.885907 0.319528 0.129238
0.902380 0.322971 0.132716
0.912129 0.327503 0.137034
0.922299 0.322318 0.141066
0.928753 0.317479 0.146414
0.934752 0.307160 0.152703
0.938820 0.292376 0.163406
0.942751 0.232344 0.198174
0.944178 0.227126 0.276183
0.944178 0.227183 0.283951
0.119805 0.292228 0.091554
0.119866 0.292597 0.091631
0.120111 0.294350 0.091930
0.120676 0.299564 0.092570
0.121869 0.304775 0.093342
0.124034 0.310256 0.094266
0.127819 0.314725 0.095516
0.133610 0.317050 0.096882
0.141918 0.318058 0.098261
0.153882 0.317988 0.099613
0.171612 0.317155 0.101240
0.195993 0.316340 0.102980
0.226423 0.310204 0.103857
0.271785 0.311533 0.105964
0.332690 0.320805 0.109416
0.386230 0.319106 0.110937
0.447407 0.318246 0.112487
0.519741 0.322005 0.114713
0.603121 0.331149 0.117969
0.678148 0.331447 0.119829
0.751594 0.335400 0.122131
0.807186 0.340488 0.125035
0.842470 0.347161 0.128391
0.871993 0.349972 0.131032
0.896471 0.351440 0.134378
0.908349 0.354547 0.138435
0.919242 0.353644 0.142250
0.926314 0.354010 0.147217
0.933000 0.347269 0.153437
0.937846 0.330514 0.162706
0.942330 0.268039 0.169293
0.944178 0.227134 0.276294
0.944178 0.227243 0.291071
0.120317 0.318406 0.093111
0.120367 0.318711 0.093176
0.120566 0.320099 0.093425
0.121125 0.323972 0.093946
0.122279 0.329483 0.094665
0.124274 0.335679 0.095817
0.127499 0.340635 0.097074
0.132437 0.344319 0.098405
0.139683 0.346601 0.099709
0.149712 0.347248 0.101283
0.164076 0.346966 0.102893
0.183833 0.345947 0.104450
0.212406 0.345104 0.106334
0.251928 0.345903 0.108364
0.305783 0.356192 0.111838
0.354585 0.353656 0.113249
0.409326 0.351740 0.114641
0.476765 0.355037 0.116929
0.556801 0.363577 0.120449
0.628970 0.362940 0.122061
0.705587 0.365365 0.124172
0.774681 0.370474 0.127231
0.823191 0.377565 0.130509
0.857529 0.378270 0.132965
0.884529 0.382564 0.136255
0.902451 0.388901 0.140178
0.915640 0.385582 0.143674
0.924112 0.383987 0.148175
0.931418 0.380341 0.154111
0.936527 0.374707 0.163470
0.940621 0.367550 0.179164
0.944178 0.227245 0.276436
0.944178 0.227376 0.301159
0.120976 0.352932 0.095104
0.121050 0.353228 0.095183
0.121333 0.354520 0.095485
0.121945 0.357903 0.096104
0.123188 0.364225 0.097087
0.124965 0.369433 0.098136
0.127969 0.374421 0.099281
0.132579 0.379330 0.100705
0.139079 0.382723 0.102298
0.147804 0.384266 0.103829
0.160574 0.384654 0.105457
0.178020 0.384234 0.107275
0.201687 0.383168 0.108996
0.235652 0.382278 0.110822
0.283342 0.393833 0.114156
0.329593 0.390572 0.115570
0.377973 0.387035 0.116959
0.439461 0.389771 0.119346
0.514529 0.399348 0.122807
0.583433 0.398222 0.124478
0.658764 0.400047 0.126653
0.737187 0.405718 0.129526
0.799087 0.412216 0.132691
0.839639 0.414288 0.135160
0.870466 0.418956 0.138293
0.896422 0.423114 0.142013
0.911076 0.423550 0.145340
0.920611 0.426159 0.149575
0.929399 0.420783 0.155004
0.935419 0.413055 0.163251
0.940052 0.402426 0.176298
0.943026 0.389663 0.202583
0.944826 0.380537 0.313377
0.122197 0.398920 0.098373
0.122261 0.399266 0.098445
0.122505 0.400709 0.098715
0.123207 0.404241 0.099260
0.124516 0.411993 0.100288
0.126432 0.417492 0.101457
0.129519 0.424441 0.102869
0.133944 0.429973 0.104301
0.140021 0.433935 0.106042
0.148412 0.436463 0.107801
0.160598 0.437710 0.109603
0.176697 0.437795 0.111292
0.198446 0.437155 0.113050
0.228775 0.436256 0.114734
0.267076 0.435375 0.116545
0.307050 0.431516 0.118043
0.352135 0.428062 0.119575
0.408041 0.430159 0.121893
0.477578 0.438495 0.125372
0.541820 0.436583 0.127015
0.614161 0.437783 0.129159
0.693816 0.442639 0.131962
0.767857 0.447996 0.135116
0.819805 0.450395 0.137471
0.855066 0.453420 0.140390
0.883917 0.459345 0.144102
0.905654 0.459888 0.147196
0.917336 0.460130 0.151265
0.926940 0.460112 0.156305
0.933636 0.459399 0.164045
0.939108 0.449095 0.175638
0.942599 0.433314 0.195421
0.944792 0.393336 0.301716
0.123127 0.434700 0.100534
0.123202 0.434992 0.100612
0.123486 0.436181 0.100904
0.124075 0.438983 0.101486
0.125287 0.444860 0.102478
0.127185 0.450810 0.103623
0.130260 0.458042 0.105096
0.134087 0.462657 0.106564
0.139523 0.467093 0.108211
0.146996 0.470582 0.109991
0.157674 0.472350 0.111626
0.171760 0.473022 0.113307
0.190743 0.473059 0.114996
0.216954 0.472324 0.116736
0.251191 0.471572 0.118670
0.288619 0.470839 0.120684
0.331101 0.466912 0.122085
0.381354 0.468643 0.124446
0.445608 0.477030 0.128118
0.505475 0.474673 0.129695
0.573190 0.474849 0.131646
0.650636 0.479206 0.134573
0.731039 0.484258 0.137633
0.793976 0.485794 0.139827
0.837256 0.489371 0.142737
0.870000 0.495337 0.146294
0.899406 0.495819 0.149157
0.912654 0.499007 0.153282
0.924082 0.498752 0.157996
0.932082 0.495846 0.165106
0.938008 0.493314 0.175959
0.941783 0.491925 0.195689
0.944588 0.441598 0.263149
0.124095 0.468707 0.102919
0.124160 0.468974 0.102987
0.124405 0.470039 0.103241
0.124952 0.472467 0.103743
0.126205 0.477369 0.104589
0.128010 0.484120 0.105893
0.130661 0.489554 0.107244
0.134323 0.495262 0.108741
0.139311 0.500362 0.110316
0.145806 0.504171 0.111946
0.155317 0.506731 0.113614
0.168020 0.508084 0.115236
0.184685 0.508598 0.116934
0.207207 0.508417 0.118878
0.237636 0.507746 0.120772
0.272220 0.507075 0.122652
0.312867 0.506565 0.124686
0.358883 0.508109 0.127161
0.418156 0.516007 0.130798
0.473500 0.513170 0.132307
0.537115 0.513116 0.134387
0.610506 0.516840 0.137210
0.690433 0.521765 0.140208
0.763737 0.522759 0.142354
0.818116 0.526613 0.145188
0.854720 0.531702 0.148547
0.888642 0.533785 0.151542
0.907506 0.536051 0.155355
0.920716 0.537416 0.160202
0.929752 0.538623 0.166806
0.936802 0.535152 0.176397
0.941249 0.530700 0.192671
0.944071 0.530714 0.228549
0.125323 0.508099 0.105858
0.125404 0.508355 0.105929
0.125708 0.509356 0.106190
0.126321 0.511560 0.106702
0.127388 0.515820 0.107555
0.129457 0.523439 0.108861
0.131662 0.527710 0.110012
0.135404 0.534353 0.111533
0.139973 0.539341 0.113022
0.145853 0.543276 0.114530
0.154618 0.546454 0.116152
0.166386 0.548469 0.118022
0.181801 0.549617 0.119955
0.201486 0.549695 0.121743
0.228210 0.549499 0.123665
0.261526 0.548922 0.125684
0.297957 0.548296 0.127720
0.340678 0.548019 0.129863
0.394461 0.555642 0.133573
0.445855 0.552647 0.135092
0.504998 0.551928 0.137069
0.574238 0.555394 0.139857
0.650900 0.559913 0.142920
0.727702 0.560490 0.144956
0.792582 0.564354 0.147705
0.837763 0.569161 0.151144
0.875036 0.571479 0.154011
0.901335 0.574108 0.157661
0.916371 0.577776 0.162826
0.927469 0.576909 0.168755
0.935380 0.577384 0.177644
0.940362 0.579407 0.192014
0.943772 0.575290 0.219918
0.126992 0.552890 0.109593
0.127065 0.553146 0.109657
0.127338 0.554131 0.109894
0.127882 0.556215 0.110357
0.129031 0.560060 0.111118
0.131017 0.566841 0.112289
0.133312 0.572108 0.113454
0.136872 0.578484 0.114876
0.141187 0.583564 0.116319
0.147234 0.588603 0.118160
0.155684 0.592264 0.119967
0.166884 0.594855 0.121894
0.181099 0.596237 0.123735
0.199537 0.596902 0.125770
0.223964 0.596845 0.127763
0.256594 0.596667 0.129904
0.289812 0.596230 0.131951
0.330680 0.595588 0.134081
0.374317 0.595560 0.136388
0.421753 0.592491 0.137818
0.476880 0.591833 0.139762
0.541787 0.594634 0.142592
0.614458 0.598852 0.145599
0.689816 0.599229 0.147566
0.763975 0.602374 0.150337
0.819797 0.607291 0.153864
0.860077 0.609346 0.156531
0.892400 0.613179 0.160613
0.911878 0.615760 0.165453
0.924469 0.617642 0.171233
0.933732 0.619535 0.179417
0.939652 0.619009 0.191700
0.943383 0.624062 0.216388
0.128096 0.589915 0.111935
0.128180 0.590144 0.111992
0.128494 0.591018 0.112205
0.129118 0.592837 0.112619
0.130172 0.596119 0.113294
0.131865 0.601769 0.114325
0.134341 0.607871 0.115519
0.137299 0.612840 0.116829
0.141564 0.618716 0.118532
0.147135 0.623756 0.120300
0.154441 0.627220 0.121986
0.164470 0.630125 0.123794
0.177513 0.632082 0.125818
0.194091 0.633184 0.127832
0.216581 0.633683 0.129854
0.245735 0.633553 0.131814
0.276754 0.633356 0.134017
0.314021 0.633152 0.136187
0.354154 0.632748 0.138269
0.401027 0.632989 0.140519
0.452173 0.631822 0.142464
0.512851 0.634679 0.145305
0.581555 0.638412 0.148292
0.653358 0.638670 0.150288
0.731112 0.641456 0.153169
0.796564 0.645841 0.156571
0.843573 0.647984 0.159471
0.879377 0.652080 0.163764
0.906260 0.655175 0.168291
0.920880 0.658152 0.173935
0.931918 0.659939 0.181356
0.938645 0.663326 0.192496
0.943024 0.667269 0.212743
0.129551 0.628839 0.114402
0.129627 0.629053 0.114455
0.129908 0.629859 0.114649
0.130463 0.631507 0.115023
0.131390 0.634407 0.115631
0.132932 0.639254 0.116606
0.135580 0.646132 0.118074
0.138088 0.650148 0.119335
0.142427 0.656737 0.121076
0.147118 0.660466 0.122576
0.154238 0.664831 0.124359
0.163796 0.668274 0.126336
0.175576 0.670301 0.128295
0.190678 0.671577 0.130211
0.211249 0.672408 0.132248
0.237727 0.672704 0.134368
0.266913 0.672527 0.136437
0.300185 0.672312 0.138561
0.339220 0.672324 0.140730
0.381197 0.672184 0.142882
0.430635 0.672661 0.145162
0.487268 0.674546 0.147925
0.551683 0.678255 0.151084
0.619886 0.678598 0.153178
0.696187 0.680904 0.155962
0.770180 0.685076 0.159754
0.826292 0.687215 0.162829
0.865288 0.690814 0.166899
0.899604 0.694886 0.171474
0.916880 0.697544 0.176677
0.929609 0.701459 0.183705
0.937642 0.704196 0.193535
0.942614 0.710542 0.210947
0.131070 0.669952 0.117312
0.131140 0.670163 0.117370
0.131396 0.670949 0.117583
0.131897 0.672524 0.117993
0.132769 0.675215 0.118654
0.134389 0.679562 0.119647
0.136894 0.686456 0.121095
0.139400 0.690680 0.122322
0.143115 0.696071 0.123854
0.148086 0.700892 0.125600
0.154994 0.705486 0.127484
0.163342 0.708521 0.129316
0.174488 0.711167 0.131270
0.188878 0.712902 0.133315
0.207813 0.713854 0.135348
0.231598 0.714427 0.137512
0.260171 0.714501 0.139579
0.290706 0.714426 0.141725
0.328099 0.714244 0.143901
0.367466 0.714414 0.146135
0.412717 0.714512 0.148288
0.464579 0.715006 0.150685
0.525058 0.717171 0.153918
0.589253 0.717569 0.155903
0.662372 0.719013 0.158931
0.741128 0.721801 0.163225
0.807361 0.723602 0.166193
0.850073 0.726075 0.170227
0.889434 0.729167 0.174822
0.912031 0.731491 0.179632
0.927036 0.734498 0.186171
0.936443 0.737359 0.195000
0.942138 0.743069 0.210186
0.132506 0.712833 0.120468
0.132572 0.713034 0.120523
0.132863 0.713779 0.120721
0.133432 0.715013 0.121102
0.134366 0.716831 0.121714
0.135810 0.719687 0.122627
0.138010 0.724073 0.123956
0.140816 0.727928 0.125443
0.144015 0.731208 0.126960
0.149378 0.735355 0.128832
0.155286 0.737926 0.130468
0.163645 0.740669 0.132384
0.174494 0.742908 0.134528
0.187426 0.744093 0.136509
0.204815 0.744917 0.138501
0.226333 0.745436 0.140584
0.254442 0.745711 0.142812
0.283165 0.745763 0.144994
0.318327 0.745713 0.147149
0.355427 0.745626 0.149334
0.398165 0.745887 0.151792
0.446300 0.746233 0.154235
0.501088 0.746905 0.156683
0.561612 0.747283 0.158826
0.630837 0.748444 0.162309
0.708525 0.750763 0.166579
0.781773 0.752696 0.169480
0.833932 0.754966 0.173706
0.876675 0.758004 0.178192
0.906391 0.760697 0.182809
0.924044 0.763616 0.188697
0.935006 0.767286 0.196800
0.941734 0.772312 0.209954
0.133921 0.745053 0.122862
0.133992 0.745181 0.122911
0.134253 0.745652 0.123091
0.134761 0.746574 0.123436
0.135591 0.748094 0.123999
0.136866 0.750442 0.124916
0.138871 0.753986 0.126245
0.141821 0.758128 0.127850
0.144582 0.760697 0.129190
0.149725 0.764427 0.130998
0.155280 0.766920 0.132666
0.163438 0.769648 0.134671
0.172707 0.771317 0.136573
0.185098 0.772868 0.138638
0.201480 0.773883 0.140708
0.221211 0.774339 0.142742
0.247244 0.774615 0.144903
0.274513 0.774717 0.147040
0.306609 0.774749 0.149209
0.342220 0.774761 0.151573
0.381903 0.774866 0.153966
0.426883 0.775222 0.156332
0.478080 0.775888 0.159042
0.536553 0.776857 0.162189
0.601896 0.777576 0.165619
0.676552 0.779443 0.169885
0.756658 0.781437 0.172936
0.817212 0.783225 0.177090
0.862432 0.785921 0.181372
0.900028 0.788566 0.186115
0.920498 0.791438 0.191413
0.933456 0.794498 0.198429
0.941260 0.799726 0.210318
0.135311 0.775085 0.125617
0.135375 0.775207 0.125668
0.135614 0.775654 0.125852
0.136075 0.776518 0.126206
0.136824 0.777914 0.126773
0.137967 0.780018 0.127617
0.139917 0.782905 0.128835
0.142969 0.787027 0.130578
0.145493 0.789045 0.131783
0.150098 0.791835 0.133505
0.155968 0.794620 0.135412
0.162925 0.796529 0.137188
0.172277 0.798362 0.139159
0.183996 0.799771 0.141250
0.197980 0.800609 0.143265
0.217366 0.801215 0.145364
0.242100 0.801535 0.147493
0.268376 0.801611 0.149708
0.297800 0.801627 0.152052
0.332351 0.801647 0.154432
0.368625 0.801734 0.156761
0.410932 0.801979 0.159477
0.458522 0.802373 0.162473
0.513034 0.803202 0.165633
0.575397 0.804276 0.168808
0.646139 0.805416 0.173350
0.726223 0.807570 0.176272
0.795033 0.808860 0.180265
0.847253 0.811363 0.184571
0.890519 0.813806 0.188941
0.916391 0.816801 0.194070
0.931712 0.819797 0.200252
0.940731 0.824532 0.210902
0.136616 0.802776 0.128518
0.136676 0.802884 0.128565
0.136893 0.803275 0.128738
0.137314 0.804023 0.129070
0.137995 0.805180 0.129600
0.139150 0.806869 0.130387
0.140963 0.809275 0.131522
0.143682 0.812669 0.133238
0.146729 0.815160 0.134745
0.150765 0.817413 0.136306
0.157036 0.820419 0.138402
0.163077 0.821889 0.139997
0.172574 0.823772 0.142134
0.182712 0.824798 0.144050
0.196665 0.825786 0.146200
0.214933 0.826369 0.148262
0.237228 0.826690 0.150490
0.262397 0.826800 0.152858
0.289842 0.826766 0.155208
0.323430 0.826761 0.157626
0.357683 0.826803 0.160522
0.397488 0.826984 0.163546
0.442337 0.827298 0.166541
0.492913 0.827796 0.169565
0.551158 0.828759 0.173100
0.617915 0.829944 0.176646
0.695766 0.832480 0.179436
0.771027 0.833448 0.183478
0.831333 0.835740 0.187499
0.877837 0.837985 0.191777
0.911436 0.840862 0.196429
0.929693 0.844032 0.202120
0.940380 0.847518 0.211789
0.137633 0.834710 0.130563
0.137684 0.834789 0.130604
0.137873 0.835074 0.130755
0.138237 0.835612 0.131047
0.138916 0.836451 0.131519
0.139981 0.837661 0.132257
0.141578 0.839352 0.133377
0.144003 0.841711 0.135019
0.147474 0.844063 0.136796
0.150985 0.845476 0.138189
0.156367 0.846866 0.140076
0.162823 0.847946 0.141979
0.170918 0.848761 0.143890
0.181234 0.849420 0.145927
0.194038 0.849832 0.147987
0.210584 0.850099 0.150111
0.231419 0.850261 0.152485
0.256249 0.850279 0.154801
0.281515 0.850201 0.157083
0.312511 0.850136 0.159836
0.345589 0.850130 0.162807
0.382974 0.850210 0.165787
0.425616 0.850415 0.168766
0.473589 0.850771 0.172004
