LUTs/kodachrome64/Kodachrome64_Modern_Normal.cube
TITLE "Kodachrome 64 Modern Normal"
# Adobe RGB in/out. REPLACES AgX. Kodachrome 64 Modern Normal.
LUT_3D_SIZE 33
DOMAIN_MIN 0.0 0.0 0.0
DOMAIN_MAX 1.0 1.0 1.0
0.081099 0.084717 0.091118
0.081099 0.084717 0.091118
0.081099 0.084717 0.091118
0.081099 0.084717 0.091118
0.092060 0.084717 0.091118
0.118816 0.084717 0.091118
0.290214 0.084717 0.091118
0.613791 0.084717 0.091118
0.763315 0.084717 0.091118
0.883604 0.084819 0.091118
0.944740 0.085281 0.091118
0.964206 0.086008 0.091118
0.975282 0.086773 0.091118
0.982463 0.087889 0.091118
0.986333 0.089905 0.091118
0.988642 0.092802 0.091118
0.989973 0.095431 0.091118
0.989973 0.098614 0.091118
0.989973 0.102418 0.091118
0.989973 0.104215 0.091154
0.989973 0.106534 0.091206
0.989973 0.109281 0.091311
0.989973 0.111433 0.091428
0.989973 0.110192 0.091537
0.989973 0.109242 0.091725
0.989973 0.107218 0.092081
0.989973 0.099579 0.092364
0.989973 0.094748 0.093186
0.989973 0.084889 0.170155
0.989973 0.084866 0.162599
0.989973 0.084844 0.156393
0.989973 0.084822 0.150501
0.989973 0.156575 0.852290
0.081099 0.084717 0.091118
0.081099 0.084717 0.091118
0.081099 0.084717 0.091118
0.081099 0.084717 0.091118
0.090489 0.084717 0.091118
0.113058 0.084717 0.091118
0.261279 0.084717 0.091118
0.573810 0.084717 0.091118
0.742188 0.084717 0.091118
0.871626 0.084841 0.091118
0.941286 0.085359 0.091118
0.961798 0.086075 0.091118
0.973765 0.086860 0.091118
0.981998 0.087994 0.091118
0.986020 0.090169 0.091118
0.988389 0.093104 0.091118
0.989973 0.095718 0.091118
0.989973 0.098890 0.091118
0.989973 0.102681 0.091118
0.989973 0.104608 0.091153
0.989973 0.106917 0.091206
0.989973 0.109673 0.091309
0.989973 0.111896 0.091426
0.989973 0.110628 0.091535
0.989973 0.109617 0.091725
0.989973 0.107584 0.092072
0.989973 0.099818 0.092353
0.989973 0.094981 0.093162
0.989973 0.084887 0.169745
0.989973 0.084865 0.162286
0.989973 0.084843 0.156117
0.989973 0.084822 0.150271
0.989973 0.156374 0.852110
0.081099 0.084717 0.091118
0.081099 0.084717 0.091118
0.081099 0.084717 0.091118
0.081099 0.084717 0.091118
0.082820 0.084717 0.091118
0.092547 0.084717 0.091118
0.185300 0.084717 0.091118
0.448357 0.084717 0.091118
0.620728 0.084731 0.091118
0.814920 0.084935 0.091118
0.923019 0.085670 0.091118
0.951967 0.086454 0.091118
0.968007 0.087193 0.091118
0.980208 0.088394 0.091118
0.984800 0.091398 0.091118
0.987461 0.094240 0.091118
0.989581 0.096790 0.091118
0.989973 0.099895 0.091118
0.989973 0.103855 0.091118
0.989973 0.106063 0.091151
0.989973 0.108330 0.091203
0.989973 0.111328 0.091305
0.989973 0.113600 0.091421
0.989973 0.112305 0.091528
0.989973 0.111222 0.091722
0.989973 0.108929 0.092040
0.989973 0.100694 0.092315
0.989973 0.095835 0.093080
0.989973 0.084883 0.168292
0.989973 0.084861 0.161175
0.989973 0.084839 0.155135
0.989973 0.084818 0.149450
0.989973 0.155653 0.851464
0.081099 0.084717 0.091118
0.081099 0.084717 0.091118
0.081099 0.084717 0.091118
0.081099 0.084717 0.091118
0.081099 0.084717 0.091118
0.082569 0.084717 0.091118
0.099151 0.084717 0.091118
0.238920 0.084811 0.091118
0.412464 0.084913 0.091118
0.670987 0.085173 0.091118
0.872852 0.086459 0.091118
0.929502 0.087307 0.091118
0.954462 0.088071 0.091118
0.971831 0.089222 0.091118
0.982183 0.093934 0.091118
0.985671 0.096577 0.091118
0.988138 0.098940 0.091118
0.989973 0.101888 0.091118
0.989973 0.106849 0.091118
0.989973 0.108925 0.091147
0.989973 0.111384 0.091199
0.989973 0.114671 0.091296
0.989973 0.117542 0.091411
0.989973 0.115652 0.091515
0.989973 0.114446 0.091718
0.989973 0.111914 0.091985
0.989973 0.102382 0.092250
0.989973 0.097488 0.092942
0.989973 0.084876 0.165689
0.989973 0.084854 0.159175
0.989973 0.084833 0.153364
0.989973 0.084813 0.147968
0.989973 0.154341 0.850290
0.081099 0.084940 0.091118
0.081099 0.084949 0.091118
0.081099 0.084950 0.091118
0.081099 0.084828 0.091118
0.081099 0.084717 0.091118
0.081099 0.084717 0.091118
0.084198 0.084766 0.091118
0.112160 0.085142 0.091118
0.217846 0.085306 0.091118
0.419642 0.085941 0.091118
0.748498 0.087624 0.091118
0.875019 0.088596 0.091118
0.927989 0.089440 0.091118
0.955964 0.093102 0.091118
0.974256 0.098541 0.091118
0.982286 0.100643 0.091118
0.985793 0.102575 0.091118
0.988394 0.106349 0.091118
0.989973 0.112372 0.091118
0.989973 0.114596 0.091143
0.989973 0.117704 0.091194
0.989973 0.122327 0.091286
0.989973 0.126303 0.091399
0.989973 0.123525 0.091498
0.989973 0.121555 0.091700
0.989973 0.117819 0.091911
0.989973 0.106125 0.092167
0.989973 0.100158 0.092767
0.989973 0.084865 0.162164
0.989973 0.084844 0.156285
0.989973 0.084824 0.150843
0.989973 0.084805 0.145988
0.989973 0.152426 0.848794
0.081099 0.087049 0.091118
0.081099 0.087015 0.091118
0.081099 0.087063 0.091118
0.081099 0.086510 0.091118
0.081099 0.085621 0.091118
0.081099 0.085107 0.091118
0.081834 0.085262 0.091118
0.088668 0.086467 0.091118
0.112839 0.086553 0.091118
0.227109 0.087312 0.091118
0.500111 0.089305 0.091118
0.739923 0.091872 0.091118
0.868339 0.094167 0.091118
0.929571 0.097717 0.091118
0.959904 0.102744 0.091118
0.974274 0.106110 0.091118
0.982035 0.109708 0.091118
0.985560 0.116012 0.091118
0.988320 0.126429 0.091118
0.989973 0.129556 0.091139
0.989973 0.133548 0.091190
0.989973 0.139618 0.091275
0.989973 0.144632 0.091386
0.989973 0.140493 0.091480
0.989973 0.137322 0.091655
0.989973 0.131783 0.091827
0.989973 0.113284 0.092079
0.989973 0.104688 0.092584
0.989973 0.084852 0.158072
0.989973 0.084830 0.152569
0.989973 0.084811 0.147719
0.989973 0.149716 0.143490
0.989973 0.149931 0.846956
0.081099 0.100667 0.091118
0.081099 0.101032 0.091118
0.081099 0.100904 0.091118
0.081099 0.098474 0.091118
0.081099 0.093838 0.091118
0.081099 0.089425 0.091118
0.081346 0.088230 0.091118
0.084025 0.088949 0.091118
0.091010 0.088723 0.091118
0.124869 0.089590 0.091118
0.281850 0.095598 0.091118
0.505469 0.098185 0.091118
0.728153 0.099719 0.091118
0.870510 0.102926 0.091118
0.935292 0.110980 0.091118
0.958563 0.116101 0.091118
0.973591 0.120302 0.091118
0.982098 0.129905 0.091118
0.985763 0.147637 0.091118
0.988239 0.155056 0.091137
0.989973 0.164421 0.091187
0.989973 0.174241 0.091267
0.989973 0.178641 0.091375
0.989973 0.173192 0.091463
0.989973 0.168408 0.091612
0.989973 0.160789 0.091745
0.989973 0.132803 0.092008
0.989973 0.115263 0.092433
0.989973 0.084836 0.153321
0.989973 0.084814 0.148335
0.989973 0.084796 0.144338
0.989973 0.146556 0.140470
0.989973 0.146905 0.844692
0.081099 0.154803 0.091118
0.081099 0.156473 0.091118
0.081099 0.161378 0.091118
0.081099 0.146335 0.091118
0.081099 0.128141 0.091118
0.081099 0.114026 0.091118
0.081438 0.106205 0.091118
0.083299 0.101585 0.091118
0.085922 0.096120 0.091118
0.098415 0.097277 0.091118
0.174083 0.103119 0.091118
0.308246 0.105832 0.091118
0.507250 0.107510 0.091118
0.744647 0.112647 0.091118
0.886316 0.126277 0.091118
0.934522 0.134221 0.091118
0.957955 0.141755 0.091118
0.973296 0.157837 0.091118
0.982091 0.179520 0.091118
0.985699 0.184678 0.091137
0.988168 0.194161 0.091185
0.989973 0.209291 0.091261
0.989973 0.219743 0.091367
0.989973 0.221651 0.091450
0.989973 0.225468 0.091581
0.989973 0.217167 0.091731
0.989973 0.182642 0.091980
0.989973 0.153055 0.092369
0.989973 0.084824 0.148694
0.989973 0.084795 0.144054
0.989973 0.084779 0.140523
0.989973 0.142496 0.137008
0.989973 0.143212 0.840455
0.081099 0.215813 0.091118
0.081099 0.217141 0.091118
0.081099 0.216079 0.091118
0.081099 0.203731 0.091118
0.081099 0.180782 0.091118
0.081099 0.157689 0.091118
0.081194 0.136052 0.091118
0.082279 0.120597 0.091118
0.084463 0.112668 0.091118
0.089553 0.108588 0.091118
0.117643 0.118121 0.091118
0.208866 0.121586 0.091118
0.329451 0.123432 0.091118
0.553234 0.133247 0.091118
0.783845 0.156323 0.091118
0.887950 0.165260 0.091118
0.934260 0.174239 0.091118
0.958700 0.192622 0.091118
0.974465 0.218468 0.091118
0.982107 0.226523 0.091140
0.985454 0.242531 0.091187
0.987959 0.255262 0.091261
0.989888 0.266559 0.091363
0.989973 0.266424 0.091441
0.989973 0.268732 0.091553
0.989973 0.271097 0.091726
0.989973 0.257728 0.091966
0.989973 0.242943 0.092404
0.989973 0.085102 0.152065
0.989973 0.084783 0.140168
0.989973 0.084760 0.136497
0.989973 0.138700 0.133229
0.989973 0.139495 0.835605
0.081099 0.327663 0.091118
0.081099 0.325745 0.091118
0.081099 0.315097 0.091118
0.081099 0.298216 0.091118
0.081099 0.278892 0.091118
0.081099 0.253992 0.091118
0.081149 0.220262 0.091118
0.082001 0.191855 0.091118
0.083684 0.167767 0.091118
0.087158 0.150794 0.091118
0.102615 0.163127 0.091118
0.138887 0.159356 0.091118
0.230218 0.159256 0.091118
0.372622 0.170425 0.091118
0.621509 0.201251 0.091118
0.798598 0.210774 0.091118
0.891456 0.217859 0.091118
0.937551 0.234992 0.091118
0.961495 0.269164 0.091118
0.974729 0.277341 0.091146
0.982248 0.285039 0.091190
0.985553 0.304387 0.091264
0.987861 0.327322 0.091364
0.989806 0.328436 0.091438
0.989973 0.327618 0.091543
0.989973 0.327694 0.091722
0.989973 0.308489 0.091894
0.989973 0.289691 0.092293
0.989973 0.261439 0.092789
0.989973 0.219386 0.093663
0.989973 0.122961 0.124567
0.989973 0.134887 0.139768
0.989973 0.135788 0.830278
0.081099 0.492545 0.091118
0.081099 0.488659 0.091118
0.081099 0.478131 0.091118
0.081099 0.470592 0.091118
0.081099 0.448547 0.091118
0.081099 0.414916 0.091118
0.081341 0.379880 0.091118
0.082322 0.344332 0.091118
0.083867 0.310526 0.091118
0.087352 0.277287 0.091118
0.096005 0.254136 0.091118
0.114904 0.227419 0.091118
0.165545 0.213268 0.091118
0.268390 0.222201 0.091118
0.467371 0.259575 0.091118
0.663024 0.266187 0.091118
0.812706 0.271757 0.091118
0.902384 0.287203 0.091118
0.943275 0.326477 0.091118
0.962985 0.332184 0.091153
0.975599 0.342727 0.091196
0.982349 0.360287 0.091273
0.985707 0.375510 0.091367
0.988056 0.379163 0.091439
0.989701 0.388241 0.091540
0.989973 0.400013 0.091719
0.989973 0.379751 0.091846
0.989973 0.359501 0.092208
0.989973 0.329675 0.092641
0.989973 0.280098 0.093314
0.989973 0.140929 0.097860
0.989973 0.131128 0.174686
0.989973 0.128951 0.188095
0.081099 0.595814 0.091118
0.081099 0.592463 0.091118
0.081099 0.582804 0.091118
0.081099 0.574956 0.091118
0.081099 0.557163 0.091118
0.081099 0.534358 0.091118
0.081352 0.503524 0.091118
0.082157 0.466552 0.091118
0.083634 0.423805 0.091118
0.086069 0.387023 0.091118
0.091695 0.354803 0.091118
0.106692 0.333457 0.091118
0.131988 0.292877 0.091118
0.209365 0.287129 0.091118
0.339866 0.327148 0.091118
0.509082 0.330026 0.091118
0.698557 0.334322 0.091118
0.836491 0.349183 0.091118
0.916074 0.381095 0.091126
0.945772 0.386979 0.091163
0.964566 0.402013 0.091205
0.976983 0.419471 0.091284
0.982819 0.442175 0.091376
0.985915 0.451892 0.091446
0.988067 0.456300 0.091542
0.989627 0.464491 0.091718
0.989973 0.458763 0.091817
0.989973 0.455749 0.092156
0.989973 0.427530 0.092568
0.989973 0.375375 0.093143
0.989973 0.207216 0.093501
0.989973 0.127081 0.166598
0.989973 0.125275 0.196836
0.081099 0.662609 0.091118
0.081099 0.660385 0.091118
0.081099 0.653754 0.091118
0.081099 0.646783 0.091118
0.081099 0.637235 0.091118
0.081099 0.622836 0.091118
0.081322 0.601242 0.091118
0.081992 0.568824 0.091118
0.083379 0.534522 0.091118
0.085451 0.496602 0.091118
0.089137 0.462243 0.091118
0.098529 0.426074 0.091118
0.117123 0.399607 0.091118
0.168325 0.382730 0.091118
0.261420 0.396229 0.091118
0.383592 0.397369 0.091118
0.563547 0.399932 0.091118
0.747719 0.417321 0.091118
0.869610 0.453114 0.091143
0.921814 0.457869 0.091176
0.949223 0.470049 0.091216
0.966995 0.488819 0.091301
0.978699 0.511935 0.091391
0.983447 0.515191 0.091456
0.986173 0.526960 0.091550
0.988020 0.542588 0.091720
0.989744 0.532222 0.091805
0.989973 0.524949 0.092113
0.989973 0.511440 0.092487
0.989973 0.492094 0.093059
0.989973 0.466140 0.094058
0.989973 0.123289 0.159324
0.989973 0.122073 0.212800
0.081099 0.749166 0.091118
0.081099 0.747412 0.091118
0.081099 0.741950 0.091118
0.081099 0.735422 0.091118
0.081099 0.730535 0.091118
0.081099 0.717776 0.091118
0.081391 0.701339 0.091118
0.082042 0.673650 0.091118
0.083310 0.645959 0.091118
0.085057 0.618568 0.091118
0.088150 0.587386 0.091118
0.095366 0.554729 0.091118
0.110425 0.524773 0.091118
0.142345 0.498787 0.091118
0.226577 0.508575 0.091118
0.306774 0.484139 0.091118
0.449627 0.480110 0.091118
0.622306 0.494166 0.091118
0.799786 0.525566 0.091161
0.883841 0.529128 0.091193
0.929157 0.539170 0.091239
0.953866 0.557030 0.091321
0.969916 0.576228 0.091407
0.980449 0.583554 0.091473
0.983890 0.596367 0.091570
0.986415 0.606455 0.091721
0.988400 0.606486 0.091810
0.989630 0.609850 0.092097
0.989973 0.594923 0.092422
0.989973 0.571989 0.092920
0.989973 0.541909 0.093618
0.989973 0.504199 0.096826
0.989973 0.475882 0.234762
0.081099 0.828951 0.091118
0.081099 0.828218 0.091118
0.081099 0.825880 0.091118
0.081099 0.822721 0.091118
0.081099 0.821278 0.091118
0.081244 0.810744 0.091118
0.081637 0.799395 0.091118
0.082366 0.783960 0.091118
0.083564 0.764734 0.091118
0.085375 0.740935 0.091118
0.088407 0.716539 0.091118
0.095163 0.689086 0.091118
0.109213 0.658064 0.091118
0.136669 0.635608 0.091118
0.196124 0.616529 0.091118
0.261996 0.590809 0.091118
0.355156 0.566159 0.091118
0.516038 0.571877 0.091121
0.711025 0.600041 0.091181
0.825810 0.601177 0.091210
0.900837 0.608663 0.091268
0.938317 0.621821 0.091348
0.959277 0.635434 0.091428
0.972842 0.642413 0.091495
0.981325 0.649913 0.091600
0.984428 0.662465 0.091724
0.986924 0.663570 0.091830
0.988492 0.662915 0.092093
0.989705 0.661047 0.092390
0.989973 0.657265 0.092838
0.989973 0.633440 0.093438
0.989973 0.596393 0.095262
0.989973 0.492992 0.194283
0.081099 0.856480 0.091118
0.081099 0.856254 0.091118
0.081099 0.855414 0.091118
0.081099 0.852521 0.091118
0.081114 0.850519 0.091118
0.081324 0.846356 0.091118
0.081744 0.841814 0.091118
0.082378 0.833320 0.091118
0.083486 0.824068 0.091118
0.084996 0.808319 0.091118
0.087468 0.788205 0.091118
0.092267 0.767297 0.091118
0.104074 0.744437 0.091118
0.121558 0.722895 0.091118
0.168639 0.704113 0.091118
0.233571 0.682291 0.091119
0.307526 0.655922 0.091128
0.433004 0.647223 0.091153
0.603117 0.661027 0.091204
0.753403 0.660814 0.091242
0.855034 0.665964 0.091300
0.916479 0.681622 0.091376
0.945948 0.698566 0.091454
0.964152 0.703922 0.091520
0.975868 0.711791 0.091640
0.982118 0.723285 0.091729
0.985360 0.724346 0.091860
0.987174 0.729566 0.092113
0.988688 0.727971 0.092383
0.989676 0.721031 0.092774
0.989973 0.714199 0.093315
0.989973 0.708865 0.094958
0.989973 0.596955 0.124571
0.081099 0.880936 0.091118
0.081099 0.880384 0.091118
0.081099 0.878563 0.091118
0.081099 0.875882 0.091118
0.081202 0.873579 0.091118
0.081409 0.871171 0.091118
0.081774 0.865708 0.091118
0.082389 0.859322 0.091118
0.083401 0.855826 0.091118
0.084629 0.847093 0.091118
0.086650 0.836819 0.091118
0.090795 0.825950 0.091118
0.099726 0.810483 0.091118
0.114284 0.792036 0.091129
0.145021 0.774888 0.091142
0.206573 0.757563 0.091156
0.270187 0.742145 0.091173
0.366667 0.732400 0.091196
0.526397 0.735392 0.091251
0.667625 0.725741 0.091280
0.797380 0.729010 0.091336
0.882494 0.738593 0.091407
0.928393 0.749957 0.091488
0.952194 0.753970 0.091549
0.968025 0.762507 0.091688
0.978929 0.772539 0.091734
0.983321 0.776061 0.091906
0.985822 0.779342 0.092138
0.987603 0.780725 0.092390
0.988771 0.781328 0.092749
0.989627 0.774412 0.093212
0.989973 0.764443 0.094289
0.989973 0.761306 0.101619
0.081113 0.913751 0.091118
0.081118 0.913246 0.091118
0.081147 0.911557 0.091118
0.081211 0.908980 0.091118
0.081328 0.906472 0.091118
0.081594 0.905558 0.091118
0.081908 0.899399 0.091118
0.082582 0.894486 0.091121
0.083523 0.887066 0.091130
0.084599 0.878583 0.091139
0.086379 0.869376 0.091150
0.090139 0.859408 0.091160
0.097865 0.853981 0.091171
0.110527 0.843599 0.091181
0.134868 0.833879 0.091194
0.183288 0.824782 0.091207
0.244718 0.813107 0.091225
0.325827 0.800801 0.091254
0.463974 0.801844 0.091323
0.587943 0.788268 0.091339
0.729317 0.781385 0.091372
0.836527 0.788865 0.091441
0.907359 0.797692 0.091525
0.939130 0.800400 0.091606
0.958613 0.807600 0.091719
0.972173 0.815781 0.091782
0.981169 0.819795 0.091962
0.984197 0.822494 0.092178
0.986414 0.825405 0.092422
0.987881 0.824109 0.092742
0.988879 0.823640 0.093159
0.989453 0.824228 0.093957
0.989758 0.818139 0.098020
0.081294 0.933923 0.091141
0.081301 0.933779 0.091141
0.081328 0.933295 0.091142
0.081384 0.932536 0.091145
0.081514 0.931735 0.091151
0.081813 0.931339 0.091162
0.082165 0.929869 0.091171
0.082848 0.928339 0.091182
0.083615 0.926024 0.091192
0.084942 0.920119 0.091204
0.086709 0.911257 0.091214
0.090326 0.901524 0.091232
0.097419 0.891084 0.091249
0.109307 0.881072 0.091269
0.130563 0.871329 0.091288
0.175372 0.862309 0.091313
0.232967 0.856684 0.091337
0.303053 0.850960 0.091362
0.403692 0.844549 0.091392
0.527848 0.836375 0.091404
0.661249 0.830860 0.091430
0.775631 0.828983 0.091482
0.872764 0.833480 0.091571
0.920918 0.834727 0.091672
0.947342 0.838050 0.091727
0.964898 0.842600 0.091860
0.976868 0.844600 0.092025
0.982327 0.847781 0.092231
0.985232 0.849684 0.092459
0.986923 0.850749 0.092757
0.988118 0.851545 0.093136
0.988832 0.850128 0.093733
0.989229 0.852899 0.096790
0.081394 0.940988 0.091172
0.081400 0.940901 0.091172
0.081424 0.940606 0.091173
0.081492 0.940118 0.091176
0.081641 0.939488 0.091181
0.081893 0.939042 0.091191
0.082300 0.938316 0.091202
0.082855 0.936966 0.091211
0.083614 0.935596 0.091228
0.084784 0.933653 0.091247
0.086159 0.930832 0.091264
0.089264 0.927818 0.091283
0.094779 0.923131 0.091303
0.105355 0.913283 0.091323
0.119925 0.903519 0.091344
0.156827 0.893934 0.091364
0.211758 0.885276 0.091388
0.267563 0.877684 0.091413
0.350210 0.870675 0.091437
0.470508 0.864888 0.091471
0.593724 0.858628 0.091499
0.734000 0.857472 0.091550
0.829704 0.857002 0.091652
0.897199 0.857152 0.091718
0.933817 0.858162 0.091736
0.955248 0.862000 0.091942
0.970498 0.863977 0.092096
0.980275 0.867257 0.092290
0.983704 0.869518 0.092512
0.985919 0.871437 0.092786
0.987364 0.872176 0.093124
0.988198 0.873888 0.093657
0.988692 0.875758 0.095788
0.081528 0.946787 0.091205
0.081538 0.946736 0.091205
0.081574 0.946559 0.091206
0.081648 0.946229 0.091209
0.081778 0.945722 0.091214
0.081994 0.945296 0.091227
0.082474 0.944991 0.091249
0.082935 0.943816 0.091263
0.083650 0.942969 0.091288
0.084619 0.941374 0.091303
0.086065 0.939755 0.091324
0.088844 0.937680 0.091344
0.093162 0.935287 0.091363
0.102372 0.932328 0.091382
0.115266 0.929192 0.091403
0.141379 0.926056 0.091424
0.187583 0.918644 0.091444
0.243068 0.910417 0.091472
0.314874 0.903101 0.091503
0.412965 0.896357 0.091533
0.544039 0.890784 0.091579
0.675267 0.887050 0.091669
0.790462 0.885340 0.091722
0.867402 0.881505 0.091730
0.917277 0.882534 0.091827
0.945057 0.886083 0.092031
0.963767 0.887936 0.092172
0.975259 0.890839 0.092353
0.982048 0.893931 0.092578
0.984822 0.895656 0.092821
0.986575 0.898130 0.093134
0.987591 0.899406 0.093602
0.988173 0.903265 0.095297
0.081708 0.951244 0.091264
0.081717 0.951163 0.091264
0.081750 0.950885 0.091266
0.081817 0.950423 0.091270
0.081933 0.950118 0.091278
0.082162 0.949836 0.091293
0.082656 0.949712 0.091318
0.083101 0.949056 0.091332
0.083665 0.948420 0.091353
0.084732 0.947603 0.091372
0.086079 0.946683 0.091393
0.088483 0.945132 0.091412
0.092291 0.943344 0.091432
0.100524 0.941412 0.091454
0.112391 0.939265 0.091476
0.133972 0.936951 0.091503
0.174802 0.934659 0.091528
0.227810 0.931935 0.091556
0.288291 0.929356 0.091609
0.370812 0.927095 0.091667
0.489717 0.924426 0.091716
0.611121 0.919326 0.091725
0.746489 0.916549 0.091756
0.831996 0.912360 0.091825
0.895227 0.909712 0.091944
0.931831 0.911059 0.092120
0.954542 0.913107 0.092253
0.969489 0.915701 0.092432
0.980215 0.918759 0.092651
0.983512 0.920798 0.092872
0.985781 0.923333 0.093154
0.986988 0.925330 0.093575
0.987673 0.927032 0.094948
0.081870 0.958549 0.091328
0.081878 0.958500 0.091328
0.081909 0.958332 0.091330
0.081970 0.957972 0.091334
0.082083 0.957455 0.091342
0.082354 0.956938 0.091355
0.082783 0.956607 0.091377
0.083315 0.955814 0.091397
0.083694 0.954592 0.091414
0.084919 0.953463 0.091439
0.086031 0.951687 0.091457
0.088355 0.950136 0.091482
0.092010 0.949067 0.091510
0.099034 0.947824 0.091533
0.109679 0.946547 0.091557
0.127522 0.944761 0.091604
0.163694 0.942915 0.091655
0.214905 0.941118 0.091706
0.266134 0.939283 0.091721
0.342265 0.937429 0.091728
0.452129 0.935816 0.091737
0.567872 0.934316 0.091822
0.694468 0.932775 0.091913
0.796390 0.931284 0.091975
0.870773 0.930213 0.092086
0.917752 0.929678 0.092232
0.945023 0.929586 0.092332
0.963337 0.930346 0.092520
0.975750 0.931320 0.092729
0.982111 0.932109 0.092933
0.984905 0.932907 0.093182
0.986382 0.933893 0.093572
0.987208 0.935123 0.094680
0.081975 0.963393 0.091366
0.081983 0.963348 0.091367
0.082010 0.963193 0.091368
0.082068 0.962926 0.091372
0.082217 0.962573 0.091379
0.082453 0.962193 0.091391
0.082826 0.961876 0.091411
0.083406 0.961509 0.091435
0.083690 0.960638 0.091450
0.084791 0.959895 0.091480
0.085953 0.958786 0.091501
0.088001 0.957420 0.091528
0.090910 0.955434 0.091551
0.096996 0.953405 0.091599
0.107055 0.951240 0.091648
0.119560 0.949644 0.091691
0.147295 0.948444 0.091718
0.192258 0.947271 0.091725
0.244067 0.946058 0.091733
0.309417 0.944520 0.091773
0.396374 0.943110 0.091853
0.508886 0.941867 0.091935
0.630685 0.940801 0.092024
0.753049 0.939857 0.092114
0.838679 0.938854 0.092219
0.900057 0.938262 0.092358
0.934040 0.937810 0.092447
0.954738 0.937591 0.092607
0.970554 0.938290 0.092800
0.980580 0.938930 0.093003
0.983885 0.939589 0.093222
0.985790 0.940242 0.093566
0.986762 0.941303 0.094510
0.082083 0.967562 0.091409
0.082094 0.967524 0.091409
0.082134 0.967390 0.091411
0.082214 0.967159 0.091414
0.082347 0.966849 0.091421
0.082559 0.966501 0.091432
0.082887 0.966181 0.091451
0.083526 0.965995 0.091486
0.083704 0.965174 0.091501
0.084653 0.964412 0.091526
0.085931 0.963555 0.091555
0.087501 0.962428 0.091597
0.090334 0.961243 0.091648
0.095581 0.959945 0.091700
0.103969 0.958524 0.091719
0.115482 0.956583 0.091726
0.138372 0.954483 0.091733
0.178918 0.952389 0.091775
0.228693 0.950399 0.091848
0.284227 0.949383 0.091926
0.358824 0.948440 0.092002
0.467276 0.947587 0.092081
0.580871 0.946824 0.092162
0.705986 0.946124 0.092251
0.806189 0.945354 0.092342
0.876484 0.944690 0.092496
0.921478 0.944359 0.092584
0.946703 0.943871 0.092724
0.964979 0.943789 0.092873
0.977186 0.944278 0.093056
0.982806 0.944870 0.093270
0.985183 0.945422 0.093576
0.986333 0.946364 0.094396
0.082218 0.971052 0.091451
0.082228 0.971024 0.091452
0.082265 0.970922 0.091454
0.082338 0.970745 0.091458
0.082460 0.970504 0.091466
0.082650 0.970224 0.091478
0.082943 0.969949 0.091498
0.083522 0.969745 0.091531
0.083724 0.969233 0.091554
0.084588 0.968571 0.091596
0.085937 0.967966 0.091662
0.087214 0.966883 0.091698
0.090022 0.965849 0.091720
0.093965 0.964595 0.091726
0.102067 0.963329 0.091735
0.112708 0.961986 0.091786
0.131047 0.960614 0.091859
0.166288 0.959239 0.091935
0.214685 0.957741 0.092010
0.261713 0.955905 0.092086
0.331110 0.954184 0.092163
0.425246 0.952613 0.092242
0.539330 0.951192 0.092320
0.656040 0.950163 0.092401
0.761162 0.949624 0.092514
0.847754 0.949173 0.092627
0.907632 0.949001 0.092707
0.937586 0.948603 0.092841
0.958391 0.948471 0.092973
0.972774 0.948364 0.093115
0.981619 0.948691 0.093316
0.984471 0.949080 0.093593
0.985953 0.949679 0.094323
0.082284 0.975257 0.091473
0.082292 0.975233 0.091473
0.082324 0.975151 0.091475
0.082386 0.975005 0.091479
0.082490 0.974797 0.091485
0.082655 0.974541 0.091496
0.082911 0.974197 0.091515
0.083408 0.973860 0.091546
0.083709 0.973412 0.091600
0.084373 0.972712 0.091636
0.085682 0.972028 0.091694
0.086753 0.971194 0.091719
0.089015 0.970239 0.091726
0.092370 0.969213 0.091734
0.099217 0.968105 0.091784
0.108601 0.966822 0.091857
0.121632 0.965526 0.091937
0.153394 0.964216 0.092012
0.192345 0.962919 0.092085
0.240953 0.961677 0.092160
0.300245 0.960513 0.092235
0.375267 0.959440 0.092312
0.483289 0.958471 0.092390
0.597825 0.957352 0.092488
