LUTs/kodachrome64/Kodachrome64_Classic_ExtraSoft.cube
TITLE "Kodachrome 64 Classic ExtraSoft"
# Adobe RGB in/out. REPLACES AgX. Kodachrome 64 Classic ExtraSoft.
LUT_3D_SIZE 9
DOMAIN_MIN 0.0 0.0 0.0
DOMAIN_MAX 1.0 1.0 1.0
0.064137 0.070143 0.086006
0.064699 0.070143 0.086006
0.174371 0.070143 0.086006
0.689391 0.070143 0.086006
0.852397 0.070437 0.086006
0.898494 0.071669 0.086006
0.916210 0.072411 0.086006
0.925989 0.070143 0.096452
0.927146 0.081104 0.595631
0.064137 0.070143 0.086006
0.064137 0.070143 0.086006
0.080678 0.070143 0.086006
0.544087 0.070313 0.086006
0.829752 0.071288 0.086006
0.893549 0.072886 0.086006
0.915449 0.073638 0.086006
0.925989 0.070143 0.096463
0.927146 0.081105 0.595628
0.064137 0.073406 0.086006
0.064137 0.075410 0.086006
0.064821 0.075942 0.086006
0.131708 0.077858 0.086006
0.681032 0.081876 0.086006
0.864480 0.089204 0.086006
0.910513 0.093908 0.086006
0.926053 0.070143 0.097870
0.927146 0.081105 0.595628
0.064137 0.140131 0.086006
0.064137 0.160497 0.086006
0.064201 0.193932 0.086006
0.074353 0.190454 0.086006
0.337743 0.208559 0.086006
0.784292 0.248145 0.086006
0.894133 0.287646 0.086126
0.920950 0.281431 0.087046
0.927146 0.080675 0.117184
0.064137 0.481464 0.086006
0.064137 0.501468 0.086006
0.064181 0.543787 0.086006
0.069066 0.556793 0.086006
0.138402 0.553575 0.086006
0.586101 0.563970 0.086059
0.854008 0.585456 0.086544
0.915509 0.602510 0.087376
0.927095 0.591913 0.093268
0.064137 0.712810 0.086006
0.064137 0.717442 0.086006
0.064344 0.735913 0.086006
0.067858 0.746938 0.086006
0.094007 0.748664 0.086132
0.388140 0.748769 0.086543
0.777279 0.755146 0.087157
0.903677 0.765911 0.087732
0.926389 0.776341 0.091224
0.064137 0.823932 0.086006
0.064137 0.826130 0.086006
0.064564 0.835328 0.086006
0.067180 0.843061 0.086229
0.084260 0.845657 0.086680
0.238678 0.845820 0.087205
0.659286 0.847546 0.087572
0.872167 0.852136 0.088749
0.925477 0.859281 0.091220
0.064196 0.887783 0.086066
0.064240 0.887664 0.086085
0.064726 0.887586 0.086274
0.066452 0.888881 0.086696
0.077487 0.889006 0.087199
0.156855 0.888496 0.087533
0.511823 0.888860 0.088468
0.823564 0.891302 0.089620
0.924883 0.894884 0.091436
0.064165 0.899338 0.086102
0.064165 0.899340 0.086102
0.065042 0.913022 0.086103
0.065067 0.913298 0.086771
0.070422 0.914876 0.087341
0.105236 0.913833 0.087717
0.338155 0.913462 0.088619
0.705887 0.913976 0.089519
0.926616 0.915436 0.090275
0.064137 0.070143 0.086006
0.064137 0.070143 0.086006
0.199310 0.070143 0.086006
0.739481 0.070143 0.086006
0.859825 0.070513 0.086006
0.899826 0.071846 0.086006
0.916208 0.072623 0.086357
0.925989 0.070143 0.096464
0.927146 0.081105 0.595632
0.064137 0.070143 0.086006
0.064137 0.070143 0.086006
0.109166 0.070143 0.086006
0.662631 0.070441 0.086006
0.846841 0.071572 0.086006
0.895673 0.073096 0.086006
0.915500 0.074035 0.086330
0.925989 0.070143 0.096482
0.927146 0.081105 0.595628
0.064137 0.072876 0.086006
0.064137 0.073580 0.086006
0.067490 0.074795 0.086006
0.270949 0.078449 0.086006
0.746182 0.082807 0.086006
0.872357 0.089997 0.086006
0.911114 0.094518 0.086407
0.926071 0.070143 0.098542
0.927146 0.081105 0.595628
0.064137 0.128701 0.086006
0.064137 0.141851 0.086006
0.064824 0.172501 0.086006
0.086092 0.180432 0.086006
0.461706 0.206740 0.086008
0.809364 0.249753 0.086213
0.897927 0.288772 0.086728
0.921062 0.283479 0.087533
0.927146 0.081110 0.595623
0.064137 0.461414 0.086006
0.064137 0.479607 0.086006
0.064496 0.525367 0.086006
0.071606 0.542023 0.086018
0.187022 0.545358 0.086322
0.652003 0.560526 0.086710
0.862436 0.583985 0.087236
0.916204 0.601465 0.087981
0.927086 0.594764 0.098148
0.064137 0.706303 0.086006
0.064137 0.711296 0.086006
0.064568 0.728778 0.086006
0.068696 0.740266 0.086271
0.105206 0.743720 0.086758
0.446025 0.745671 0.087301
0.794072 0.753460 0.087666
0.905919 0.764813 0.088861
0.926413 0.776541 0.092855
0.064137 0.821075 0.086048
0.064137 0.823232 0.086095
0.064721 0.832086 0.086298
0.068043 0.839845 0.086750
0.086999 0.842893 0.087277
0.269134 0.843756 0.087659
0.679675 0.846422 0.088703
0.877466 0.851435 0.089977
0.925600 0.859153 0.092619
0.064224 0.886623 0.086242
0.064274 0.886570 0.086273
0.064813 0.886611 0.086671
0.066983 0.887893 0.087151
0.079091 0.888131 0.087526
0.173739 0.887799 0.088427
0.530805 0.888352 0.089550
0.831189 0.890919 0.090747
0.925159 0.894774 0.092705
0.064225 0.901486 0.090283
0.064225 0.901487 0.090283
0.065152 0.914243 0.090283
0.065152 0.914243 0.090282
0.070728 0.914797 0.087524
0.107469 0.913749 0.088443
0.348161 0.913399 0.089480
0.713426 0.913936 0.090406
0.927191 0.915422 0.091129
0.064137 0.070143 0.089435
0.064137 0.070143 0.103782
0.144756 0.070143 0.100072
0.729466 0.070253 0.100090
0.861654 0.071103 0.100450
0.900904 0.072700 0.105710
0.916100 0.073516 0.113902
0.926023 0.070143 0.108619
0.927146 0.081105 0.595664
0.064137 0.070143 0.089319
0.064137 0.070143 0.092797
0.105469 0.070237 0.094499
0.677871 0.070856 0.096065
0.852714 0.072328 0.097403
0.897903 0.074350 0.101603
0.915518 0.076338 0.109551
0.926036 0.070143 0.110230
0.927146 0.081105 0.595634
0.064137 0.072865 0.088062
0.064137 0.073471 0.088785
0.076390 0.079117 0.092083
0.426776 0.079848 0.092012
0.800091 0.085565 0.093447
0.882930 0.093530 0.096649
0.912314 0.098025 0.100482
0.925792 0.072287 0.124717
0.927146 0.081105 0.595628
0.064137 0.121129 0.088300
0.064137 0.129683 0.088642
0.066667 0.151659 0.089704
0.132009 0.172260 0.090804
0.629126 0.212442 0.092215
0.849542 0.261405 0.094409
0.905018 0.304826 0.096925
0.921409 0.300791 0.110012
0.927146 0.081106 0.595633
0.064137 0.438938 0.088686
0.064137 0.453223 0.088924
0.065958 0.492161 0.089776
0.084417 0.519909 0.090833
0.344265 0.533553 0.091986
0.757377 0.557206 0.093990
0.881733 0.584320 0.096134
0.918038 0.600516 0.104007
0.927051 0.606264 0.203346
0.064183 0.693616 0.089443
0.064350 0.698371 0.089630
0.065853 0.714159 0.090331
0.074451 0.725921 0.091362
0.173472 0.732727 0.092615
0.572691 0.738771 0.094497
0.838436 0.749929 0.096740
0.911128 0.762058 0.102639
0.926495 0.777052 0.121447
0.064393 0.813291 0.089776
0.064577 0.815318 0.089927
0.065737 0.823001 0.090544
0.071119 0.830526 0.091560
0.107530 0.834971 0.092862
0.388432 0.837939 0.094978
0.748587 0.842410 0.097797
0.894027 0.849196 0.103142
0.925964 0.858810 0.112366
0.064531 0.880781 0.090272
0.064655 0.880995 0.090405
0.065597 0.882043 0.091192
0.069154 0.883841 0.092200
0.087435 0.884721 0.093686
0.229565 0.885135 0.096088
0.602060 0.886433 0.099123
0.856720 0.889465 0.103434
0.925883 0.894406 0.109336
0.064225 0.901488 0.090284
0.065152 0.914242 0.090283
0.065152 0.914243 0.090283
0.065153 0.914244 0.090283
0.072865 0.914248 0.091208
0.123049 0.913318 0.093181
0.395314 0.913089 0.095444
0.746859 0.913732 0.097682
0.927898 0.915364 0.099614
0.064137 0.070143 0.134297
0.064137 0.070143 0.385711
0.108130 0.070280 0.463448
0.685090 0.070838 0.444795
0.855726 0.072365 0.450298
0.898771 0.074674 0.471154
0.915477 0.077517 0.524016
0.924677 0.072280 0.662369
0.927146 0.081352 0.683080
0.064137 0.070189 0.139385
0.064137 0.070389 0.245164
0.092154 0.070916 0.376968
0.633376 0.071956 0.375280
0.848118 0.073865 0.398681
0.896112 0.078327 0.440161
0.914932 0.080849 0.499135
0.924513 0.073267 0.650545
0.927146 0.081355 0.683846
0.064137 0.074531 0.123817
0.064137 0.076322 0.137277
0.074609 0.079562 0.187077
0.444989 0.082691 0.220229
0.805390 0.090032 0.261814
0.883895 0.100368 0.313944
0.912191 0.111477 0.411408
0.923109 0.100428 0.569768
0.927146 0.081365 0.686632
0.064137 0.123538 0.115150
0.064223 0.131391 0.118952
0.069010 0.154823 0.131653
0.214202 0.218337 0.172633
0.686599 0.233142 0.181587
0.858696 0.279037 0.217297
0.906539 0.326923 0.281707
0.921371 0.331496 0.449558
0.927146 0.081374 0.687467
0.064271 0.432310 0.114635
0.064629 0.444488 0.116585
0.068239 0.479793 0.123333
0.102584 0.511735 0.135100
0.475098 0.532287 0.150744
0.801383 0.560502 0.175062
0.890823 0.589383 0.213158
0.918732 0.608183 0.308954
0.926983 0.622220 0.621701
0.064694 0.684868 0.114865
0.065053 0.690558 0.116118
0.067876 0.705912 0.121034
0.084855 0.718122 0.129112
0.261785 0.726933 0.140597
0.680240 0.735600 0.157874
0.860757 0.748819 0.184324
0.913874 0.761779 0.235752
0.926535 0.778279 0.495852
0.065049 0.808127 0.115524
0.065370 0.809955 0.116407
0.067369 0.816712 0.120144
0.077338 0.823997 0.126264
0.149935 0.829298 0.136591
0.508042 0.833784 0.151017
0.802204 0.839777 0.169724
0.904798 0.847978 0.201777
0.926229 0.859220 0.378700
0.065039 0.879014 0.115559
0.065266 0.879320 0.116167
0.066352 0.880300 0.119386
0.072049 0.881280 0.124139
0.102345 0.882211 0.132594
0.317053 0.883214 0.143429
0.683001 0.885054 0.159117
0.875541 0.888484 0.180247
0.926422 0.894349 0.263588
0.064534 0.908603 0.126839
0.065151 0.914967 0.126839
0.065152 0.914968 0.126839
0.066114 0.916006 0.110192
0.078960 0.913310 0.124728
0.150843 0.912665 0.132459
0.469357 0.912656 0.140632
0.790865 0.913503 0.150979
0.928230 0.915449 0.174263
0.064137 0.070222 0.500690
0.064137 0.070405 0.618752
0.085295 0.071487 0.707360
0.629554 0.072710 0.707585
0.847147 0.075217 0.707551
0.895581 0.080355 0.716938
0.914600 0.083586 0.737717
0.923806 0.078724 0.770582
0.927146 0.082190 0.803297
0.064137 0.070642 0.512921
0.064137 0.071176 0.601260
0.080975 0.072728 0.688180
0.573777 0.074472 0.693209
0.837644 0.079060 0.695774
0.893096 0.084059 0.707639
0.914076 0.088181 0.730244
0.923654 0.081780 0.767607
0.927146 0.082156 0.800780
0.064137 0.078902 0.490407
0.064137 0.080683 0.536762
0.073181 0.085519 0.616114
0.426481 0.090673 0.644087
0.799273 0.098246 0.657758
0.882308 0.119106 0.674529
0.911613 0.134724 0.701489
0.922658 0.128975 0.750489
0.927146 0.082052 0.792745
0.064137 0.144425 0.441536
0.064486 0.155217 0.466118
0.070697 0.188190 0.522045
0.220086 0.228237 0.579708
0.700582 0.263582 0.597562
0.861292 0.322025 0.622412
0.906733 0.359870 0.659845
0.921185 0.375054 0.710480
0.927407 0.198217 0.792817
0.064649 0.441062 0.386350
0.065218 0.452936 0.402827
0.069944 0.487334 0.456055
0.124301 0.520553 0.496234
0.549218 0.559943 0.556388
0.818670 0.573194 0.579505
0.894569 0.603205 0.605341
0.918941 0.621021 0.663000
0.926891 0.642595 0.765363
0.065374 0.685179 0.361169
0.065910 0.690424 0.373667
0.069888 0.704656 0.410671
0.094436 0.717120 0.458924
0.349518 0.727299 0.490122
0.727210 0.737537 0.523045
0.871408 0.751654 0.566675
0.915259 0.765542 0.607138
0.926515 0.782498 0.726574
0.065824 0.806735 0.340458
0.066081 0.808447 0.348217
0.069258 0.814595 0.379977
0.084989 0.821661 0.420261
0.207493 0.827507 0.462668
0.574393 0.832960 0.488521
0.829442 0.839908 0.519304
0.908642 0.848439 0.565663
0.926336 0.860925 0.674448
0.065604 0.878400 0.316786
0.065927 0.878673 0.321149
0.068254 0.879636 0.344332
0.076100 0.880590 0.381286
0.124170 0.881363 0.419949
0.396370 0.882480 0.458131
0.732111 0.884705 0.481704
0.888632 0.888475 0.509636
0.926701 0.894953 0.608080
0.064667 0.910939 0.451801
0.064743 0.911986 0.451801
0.064949 0.914020 0.451797
0.068375 0.913868 0.325999
0.083565 0.913067 0.362383
0.184548 0.912536 0.395703
0.518065 0.912654 0.425267
0.815362 0.913591 0.449300
0.928400 0.915925 0.528022
0.064137 0.071211 0.727158
0.064137 0.071637 0.765189
0.075696 0.074247 0.804116
0.555859 0.077862 0.806497
0.836253 0.082250 0.807605
0.892315 0.088361 0.810854
0.913694 0.093994 0.818098
0.923250 0.089456 0.829033
0.927146 0.082929 0.838834
0.064137 0.072157 0.730923
0.064137 0.072722 0.762901
0.073935 0.077448 0.798879
0.527111 0.081154 0.802598
0.828189 0.086665 0.804386
0.890036 0.093881 0.808049
0.913204 0.101920 0.815920
0.923105 0.094865 0.828328
0.927146 0.082929 0.838834
0.064137 0.085009 0.729215
0.064137 0.087048 0.749271
0.072177 0.095509 0.778177
0.388661 0.106785 0.787727
0.793213 0.124740 0.792132
0.880368 0.150227 0.797545
0.911002 0.180116 0.807047
0.922281 0.180548 0.823706
0.927146 0.082930 0.838833
0.064213 0.181702 0.703342
0.064638 0.191101 0.714874
0.071590 0.244499 0.750485
0.229823 0.278651 0.766052
0.710966 0.324944 0.773740
0.862015 0.363053 0.781226
0.906684 0.407432 0.792354
0.920993 0.422887 0.811178
0.927307 0.321234 0.836447
0.065068 0.473878 0.676067
0.065715 0.484512 0.683233
0.071770 0.520699 0.708504
0.144134 0.546531 0.735164
0.566230 0.569262 0.753240
0.826751 0.593958 0.762953
0.896460 0.620448 0.773923
0.919046 0.638162 0.794007
0.926807 0.668144 0.828635
0.065990 0.693393 0.652531
0.066346 0.697270 0.658913
0.071753 0.710146 0.675722
0.107750 0.722049 0.698341
0.409801 0.733007 0.720062
0.759594 0.748307 0.742020
0.877330 0.758281 0.755801
0.916020 0.772198 0.773508
0.926503 0.790068 0.817570
0.066197 0.809026 0.630172
0.067090 0.810589 0.634134
0.071030 0.816305 0.650143
0.090166 0.823175 0.670567
0.256161 0.829317 0.690822
0.636871 0.835288 0.709673
0.845642 0.842726 0.727340
0.910781 0.850831 0.751833
0.926405 0.863552 0.798143
0.066022 0.879035 0.606457
0.066134 0.879276 0.608933
0.069034 0.880022 0.620674
0.080120 0.880884 0.638758
0.144642 0.881668 0.661146
0.459753 0.883238 0.678409
0.765202 0.885673 0.694991
0.896234 0.889606 0.712773
0.926840 0.896110 0.771356
0.064717 0.911779 0.554537
0.064783 0.912701 0.560674
0.064967 0.914278 0.582498
0.068535 0.914324 0.597033
0.085720 0.913451 0.611676
0.200373 0.913062 0.629310
0.540602 0.913209 0.645225
0.827139 0.914088 0.657394
0.928464 0.916498 0.736346
0.064137 0.073730 0.829308
0.064137 0.074414 0.841551
0.069338 0.081382 0.853731
0.518832 0.086143 0.855228
0.829851 0.093038 0.855917
0.890560 0.104348 0.857016
0.913246 0.116868 0.859380
0.922932 0.110588 0.863696
0.927146 0.084873 0.867523
0.064137 0.076112 0.829631
0.064137 0.077219 0.840489
0.069535 0.084747 0.852579
0.496634 0.090590 0.854376
0.823318 0.098956 0.855206
0.888662 0.116632 0.856397
0.912798 0.131371 0.858842
0.922800 0.124400 0.863302
0.927146 0.084851 0.867271
0.064137 0.093932 0.829736
0.064137 0.095843 0.836435
0.070412 0.115597 0.847176
0.377154 0.134677 0.850737
0.793599 0.165275 0.852237
0.880392 0.203275 0.853849
0.910859 0.243872 0.856631
0.922108 0.250432 0.861303
0.927145 0.084723 0.866125
0.064321 0.240501 0.824854
0.064739 0.250245 0.827715
0.071582 0.297904 0.837574
0.244500 0.339930 0.843731
0.722928 0.379993 0.846866
0.864549 0.417036 0.849605
0.907121 0.448277 0.852898
0.921005 0.469037 0.858264
0.927115 0.450938 0.867235
0.065425 0.516995 0.809728
0.066031 0.524030 0.813870
0.072870 0.549785 0.826214
0.167833 0.575852 0.833553
0.601570 0.599107 0.839009
0.835891 0.619984 0.842843
0.898809 0.637960 0.847350
0.919331 0.658502 0.853869
0.926783 0.693252 0.864281
0.066228 0.707327 0.793802
0.067455 0.710478 0.796842
0.073359 0.721231 0.807677
0.123002 0.733627 0.821005
0.466729 0.744756 0.828466
0.781467 0.755454 0.834379
0.882397 0.767296 0.839637
0.916791 0.777712 0.847558
0.926552 0.797759 0.860771
0.066943 0.814663 0.777683
0.068026 0.816158 0.779886
0.072361 0.821533 0.788220
0.096601 0.828119 0.800417
0.299045 0.834348 0.813081
0.674712 0.840453 0.823731
0.853528 0.847456 0.828462
0.912328 0.854459 0.837803
0.926522 0.866260 0.855974
0.066073 0.880736 0.761238
0.066319 0.880895 0.762420
0.069587 0.881461 0.767737
0.082268 0.882626 0.777470
0.161265 0.883949 0.789375
0.497508 0.885482 0.800897
0.784623 0.887955 0.811243
0.900476 0.891830 0.822156
0.926965 0.897678 0.847498
0.064710 0.911977 0.674232
0.064838 0.913522 0.674259
0.065081 0.915161 0.674980
0.067878 0.915811 0.742915
0.085084 0.914467 0.756777
0.199759 0.914006 0.765789
0.541952 0.914134 0.773226
0.827471 0.915008 0.778525
0.928523 0.917205 0.833110
0.064137 0.081597 0.882406
0.064137 0.082171 0.884415
0.071537 0.089646 0.887265
0.559957 0.096332 0.887774
0.840322 0.111028 0.888192
0.893779 0.129965 0.888844
0.913960 0.146910 0.889982
0.923243 0.135331 0.892268
0.927172 0.092834 0.891659
0.064137 0.084394 0.882173
0.064137 0.085359 0.884068
0.072018 0.094124 0.886984
0.542895 0.105021 0.887556
0.835469 0.122850 0.888004
0.892387 0.146455 0.888683
0.913635 0.170618 0.889853
0.923133 0.155745 0.892169
0.927181 0.094392 0.891659
0.064137 0.118153 0.881310
0.064137 0.121605 0.882644
0.074667 0.148084 0.885399
0.464034 0.179299 0.886365
0.813748 0.218736 0.887017
0.885932 0.261020 0.887847
0.912095 0.294717 0.889172
0.922575 0.294796 0.891604
0.927276 0.131186 0.891659
0.064580 0.299402 0.878689
0.065085 0.310264 0.879894
0.076601 0.348625 0.882846
0.331460 0.387550 0.884470
0.766706 0.419083 0.885493
0.873812 0.453161 0.886571
0.909288 0.484570 0.888143
0.921718 0.500565 0.890841
0.927165 0.504408 0.893145
0.065887 0.549355 0.874368
0.066332 0.554384 0.875617
0.077485 0.578280 0.879046
0.217913 0.600894 0.881662
0.679531 0.619602 0.883405
0.853362 0.636489 0.884845
0.904479 0.655420 0.886657
0.920434 0.671462 0.889578
0.926944 0.705795 0.892657
0.067042 0.721511 0.868518
0.068366 0.723952 0.869815
0.076886 0.734500 0.873795
0.147154 0.745283 0.877594
0.536183 0.755028 0.880398
0.810695 0.765368 0.882510
0.891320 0.774914 0.884643
0.918528 0.779961 0.887879
0.926812 0.803233 0.892090
0.067482 0.822859 0.859939
0.068429 0.824163 0.861267
0.073632 0.829452 0.865847
0.105833 0.835411 0.871112
0.352120 0.840945 0.875603
0.713961 0.846535 0.878917
0.866017 0.851687 0.881599
0.914938 0.857141 0.885353
0.926835 0.868348 0.891254
0.065969 0.885767 0.845956
0.066100 0.885887 0.847255
0.069233 0.886189 0.852358
0.082228 0.886867 0.858951
0.172135 0.887718 0.865768
0.512393 0.889031 0.871238
0.797720 0.891301 0.875469
0.903008 0.893535 0.877757
0.927208 0.899307 0.889209
0.064640 0.911396 0.794244
0.065067 0.915356 0.796071
0.065147 0.915903 0.808516
0.066526 0.917070 0.827818
0.080114 0.916242 0.837004
0.177651 0.915568 0.845634
0.515504 0.915578 0.851918
0.812670 0.916316 0.854914
0.928585 0.918051 0.882609
0.067661 0.086856 0.905438
0.071779 0.087451 0.905445
0.389281 0.090003 0.905473
0.820814 0.094938 0.905538
0.884512 0.104794 0.905634
0.908553 0.117201 0.905757
0.918532 0.120806 0.906006
0.925008 0.095406 0.906401
0.927146 0.098148 0.903984
0.068267 0.089564 0.905433
0.072381 0.090304 0.905440
0.380267 0.093318 0.905469
0.817618 0.099553 0.905536
0.883453 0.113358 0.905633
0.908295 0.127290 0.905759
0.918447 0.131149 0.906008
0.924966 0.100033 0.906402
0.927146 0.104120 0.905306
0.070677 0.118600 0.905357
0.076744 0.120750 0.905368
0.342598 0.129465 0.905406
0.800875 0.147933 0.905489
0.878412 0.177823 0.905600
0.907058 0.206096 0.905747
0.918018 0.217910 0.905996
0.924745 0.154695 0.906393
0.927146 0.104150 0.905306
0.075779 0.308853 0.905211
0.083392 0.314517 0.905231
0.275666 0.328840 0.905298
0.759778 0.352938 0.905411
0.867839 0.387511 0.905544
0.904335 0.412497 0.905715
0.917057 0.423100 0.905986
0.924340 0.398568 0.906379
0.927570 0.451461 0.906644
0.077594 0.553294 0.905121
0.083739 0.555732 0.905153
0.195840 0.565498 0.905257
0.682020 0.581302 0.905388
0.850647 0.599146 0.905555
0.897309 0.615279 0.905753
0.915449 0.622116 0.906029
0.923940 0.617498 0.906447
0.927712 0.647637 0.907141
0.074359 0.724283 0.905132
0.078872 0.725393 0.905178
0.127737 0.729961 0.905324
0.530206 0.737030 0.905495
0.810908 0.744995 0.905676
0.885135 0.752711 0.905892
0.912806 0.758188 0.906167
0.923383 0.758189 0.906573
0.927791 0.782234 0.907255
0.070211 0.827380 0.905267
0.071658 0.827965 0.905327
0.086931 0.830416 0.905506
0.267160 0.833869 0.905722
0.690637 0.837731 0.905938
0.858719 0.842190 0.906166
0.907547 0.845888 0.906469
0.922495 0.846452 0.906848
0.927971 0.861425 0.907485
0.065802 0.888968 0.905086
0.066045 0.889030 0.905269
0.068952 0.889204 0.905685
0.088695 0.889108 0.906044
0.319294 0.889108 0.906368
0.736292 0.889956 0.906639
0.881600 0.891742 0.906920
0.919793 0.892557 0.907280
0.928265 0.897179 0.907655
0.064515 0.910029 0.860328
0.065152 0.916145 0.881107
0.065152 0.916146 0.881108
0.065485 0.916449 0.881159
0.071073 0.918486 0.905871
0.133130 0.917446 0.907053
0.488605 0.917268 0.907579
0.817592 0.917841 0.907669
0.928661 0.919017 0.907694
