LUTs/kodachrome64/Kodachrome64_Classic_ExtraSoft.cube
TITLE "Kodachrome 64 Classic ExtraSoft"
# Adobe RGB in/out. REPLACES AgX. Kodachrome 64 Classic ExtraSoft.
LUT_3D_SIZE 5
DOMAIN_MIN 0.0 0.0 0.0
DOMAIN_MAX 1.0 1.0 1.0
0.064137 0.070143 0.086006
0.174371 0.070143 0.086006
0.852397 0.070437 0.086006
0.916210 0.072411 0.086006
0.927146 0.081104 0.595631
0.064137 0.073406 0.086006
0.064821 0.075942 0.086006
0.681032 0.081876 0.086006
0.910513 0.093908 0.086006
0.927146 0.081105 0.595628
0.064137 0.481464 0.086006
0.064181 0.543787 0.086006
0.138402 0.553575 0.086006
0.854008 0.585456 0.086544
0.927095 0.591913 0.093268
0.064137 0.823932 0.086006
0.064564 0.835328 0.086006
0.084260 0.845657 0.086680
0.659286 0.847546 0.087572
0.925477 0.859281 0.091220
0.064165 0.899338 0.086102
0.065042 0.913022 0.086103
0.070422 0.914876 0.087341
0.338155 0.913462 0.088619
0.926616 0.915436 0.090275
0.064137 0.070143 0.089435
0.144756 0.070143 0.100072
0.861654 0.071103 0.100450
0.916100 0.073516 0.113902
0.927146 0.081105 0.595664
0.064137 0.072865 0.088062
0.076390 0.079117 0.092083
0.800091 0.085565 0.093447
0.912314 0.098025 0.100482
0.927146 0.081105 0.595628
0.064137 0.438938 0.088686
0.065958 0.492161 0.089776
0.344265 0.533553 0.091986
0.881733 0.584320 0.096134
0.927051 0.606264 0.203346
0.064393 0.813291 0.089776
0.065737 0.823001 0.090544
0.107530 0.834971 0.092862
0.748587 0.842410 0.097797
0.925964 0.858810 0.112366
0.064225 0.901488 0.090284
0.065152 0.914243 0.090283
0.072865 0.914248 0.091208
0.395314 0.913089 0.095444
0.927898 0.915364 0.099614
0.064137 0.070222 0.500690
0.085295 0.071487 0.707360
0.847147 0.075217 0.707551
0.914600 0.083586 0.737717
0.927146 0.082190 0.803297
0.064137 0.078902 0.490407
0.073181 0.085519 0.616114
0.799273 0.098246 0.657758
0.911613 0.134724 0.701489
0.927146 0.082052 0.792745
0.064649 0.441062 0.386350
0.069944 0.487334 0.456055
0.549218 0.559943 0.556388
0.894569 0.603205 0.605341
0.926891 0.642595 0.765363
0.065824 0.806735 0.340458
0.069258 0.814595 0.379977
0.207493 0.827507 0.462668
0.829442 0.839908 0.519304
0.926336 0.860925 0.674448
0.064667 0.910939 0.451801
0.064949 0.914020 0.451797
0.083565 0.913067 0.362383
0.518065 0.912654 0.425267
0.928400 0.915925 0.528022
0.064137 0.073730 0.829308
0.069338 0.081382 0.853731
0.829851 0.093038 0.855917
0.913246 0.116868 0.859380
0.927146 0.084873 0.867523
0.064137 0.093932 0.829736
0.070412 0.115597 0.847176
0.793599 0.165275 0.852237
0.910859 0.243872 0.856631
0.927145 0.084723 0.866125
0.065425 0.516995 0.809728
0.072870 0.549785 0.826214
0.601570 0.599107 0.839009
0.898809 0.637960 0.847350
0.926783 0.693252 0.864281
0.066943 0.814663 0.777683
0.072361 0.821533 0.788220
0.299045 0.834348 0.813081
0.853528 0.847456 0.828462
0.926522 0.866260 0.855974
0.064710 0.911977 0.674232
0.065081 0.915161 0.674980
0.085084 0.914467 0.756777
0.541952 0.914134 0.773226
0.928523 0.917205 0.833110
0.067661 0.086856 0.905438
0.389281 0.090003 0.905473
0.884512 0.104794 0.905634
0.918532 0.120806 0.906006
0.927146 0.098148 0.903984
0.070677 0.118600 0.905357
0.342598 0.129465 0.905406
0.878412 0.177823 0.905600
0.918018 0.217910 0.905996
0.927146 0.104150 0.905306
0.077594 0.553294 0.905121
0.195840 0.565498 0.905257
0.850647 0.599146 0.905555
0.915449 0.622116 0.906029
0.927712 0.647637 0.907141
0.070211 0.827380 0.905267
0.086931 0.830416 0.905506
0.690637 0.837731 0.905938
0.907547 0.845888 0.906469
0.927971 0.861425 0.907485
0.064515 0.910029 0.860328
0.065152 0.916146 0.881108
0.071073 0.918486 0.905871
0.488605 0.917268 0.907579
0.928661 0.919017 0.907694
