LUTs/kodachrome64/Kodachrome64_Classic_Punchy.cube
TITLE "Kodachrome 64 Classic Punchy"
# Adobe RGB in/out. REPLACES AgX. Kodachrome 64 Classic Punchy.
LUT_3D_SIZE 9
DOMAIN_MIN 0.0 0.0 0.0
DOMAIN_MAX 1.0 1.0 1.0
0.084019 0.088159 0.082807
0.085054 0.088159 0.082807
0.214523 0.088159 0.082807
0.775154 0.088159 0.082807
0.948608 0.088414 0.082807
0.976894 0.089504 0.082807
0.984587 0.090156 0.082807
0.987057 0.088159 0.090658
0.987348 0.096790 0.627703
0.084019 0.088159 0.082807
0.084019 0.088159 0.082807
0.110392 0.088159 0.082807
0.576388 0.088304 0.082807
0.932923 0.089167 0.082807
0.975310 0.090574 0.082807
0.984274 0.091232 0.082807
0.987057 0.088159 0.090665
0.987348 0.096792 0.627699
0.084019 0.091030 0.082807
0.084019 0.092587 0.082807
0.085279 0.092984 0.082807
0.175938 0.094409 0.082807
0.764120 0.097467 0.082807
0.958525 0.104586 0.082807
0.981840 0.110180 0.082807
0.987073 0.088159 0.091523
0.987348 0.096792 0.627698
0.084019 0.160241 0.082807
0.084019 0.178392 0.082807
0.084136 0.206234 0.082807
0.101744 0.203513 0.082807
0.334213 0.217536 0.082807
0.886316 0.247796 0.082807
0.975497 0.277815 0.082881
0.985787 0.273156 0.083609
0.987348 0.096478 0.111420
0.084019 0.485016 0.082807
0.084019 0.504855 0.082807
0.084100 0.557901 0.082807
0.092284 0.576196 0.082807
0.182834 0.571655 0.082807
0.641243 0.586358 0.082840
0.949946 0.613080 0.083140
0.984304 0.630162 0.083932
0.987335 0.619550 0.088555
0.084019 0.803329 0.082807
0.084019 0.808672 0.082807
0.084399 0.829989 0.082807
0.090095 0.842719 0.082807
0.130372 0.844712 0.082885
0.374321 0.844833 0.083139
0.878707 0.852199 0.083718
0.978547 0.864635 0.084278
0.987158 0.876383 0.086717
0.084019 0.924516 0.082807
0.084019 0.926897 0.082807
0.084804 0.932595 0.082807
0.089181 0.937363 0.082944
0.115944 0.938959 0.083253
0.261500 0.939059 0.083764
0.728167 0.940335 0.084123
0.962994 0.944001 0.084993
0.986928 0.949695 0.086714
0.084128 0.969164 0.082844
0.084208 0.969099 0.082856
0.085104 0.969057 0.082972
0.088255 0.969759 0.083268
0.105513 0.969827 0.083759
0.200946 0.969550 0.084084
0.528032 0.969747 0.084797
0.927063 0.971070 0.085601
0.986779 0.973005 0.086864
0.084071 0.975408 0.082866
0.084071 0.975408 0.082866
0.085687 0.982767 0.082867
0.085733 0.982971 0.083342
0.094756 0.984140 0.083897
0.144919 0.983368 0.084263
0.334535 0.983093 0.084902
0.796997 0.983474 0.085531
0.987215 0.984556 0.086058
0.084019 0.088159 0.082807
0.084019 0.088159 0.082807
0.233341 0.088159 0.082807
0.841758 0.088159 0.082807
0.954771 0.088482 0.082807
0.977319 0.089659 0.082807
0.984586 0.090343 0.083024
0.987057 0.088159 0.090666
0.987348 0.096791 0.627706
0.084019 0.088159 0.082807
0.084019 0.088159 0.082807
0.149988 0.088159 0.082807
0.734260 0.088418 0.082807
0.943988 0.089418 0.082807
0.975991 0.090758 0.082807
0.984300 0.091579 0.083007
0.987057 0.088159 0.090677
0.987348 0.096792 0.627699
0.084019 0.090565 0.082807
0.084019 0.091182 0.082807
0.089576 0.092230 0.082807
0.283325 0.094845 0.082807
0.850729 0.098611 0.082807
0.963104 0.105423 0.082807
0.982137 0.110923 0.083055
0.987078 0.088159 0.092260
0.987348 0.096792 0.627698
0.084019 0.148755 0.082807
0.084019 0.161820 0.082807
0.085285 0.187437 0.082807
0.118796 0.194636 0.082807
0.462400 0.216143 0.082808
0.913588 0.249038 0.082935
0.976713 0.278655 0.083299
0.985815 0.274694 0.084084
0.987348 0.096795 0.627689
0.084019 0.462196 0.082807
0.084019 0.483174 0.082807
0.084679 0.532264 0.082807
0.096930 0.555433 0.082814
0.224186 0.560104 0.083002
0.719750 0.581476 0.083282
0.956935 0.611606 0.083794
0.984585 0.629116 0.084456
0.987333 0.622406 0.091826
0.084019 0.795824 0.082807
0.084019 0.801582 0.082807
0.084812 0.821753 0.082807
0.091612 0.835015 0.082971
0.144881 0.839003 0.083329
0.443351 0.841255 0.083858
0.899037 0.850252 0.084214
0.979568 0.863367 0.085072
0.987164 0.876577 0.088171
0.084019 0.921422 0.082833
0.084019 0.923758 0.082862
0.085095 0.930591 0.082987
0.090430 0.935383 0.083321
0.120210 0.937260 0.083835
0.282124 0.937790 0.084207
0.762331 0.939437 0.084962
0.966064 0.943441 0.085850
0.986959 0.949593 0.087952
0.084179 0.968535 0.082953
0.084270 0.968506 0.082972
0.085263 0.968528 0.083244
0.088930 0.969223 0.083711
0.107943 0.969353 0.084078
0.214034 0.969172 0.084768
0.556328 0.969472 0.085553
0.934283 0.970862 0.086386
0.986848 0.972946 0.088032
0.084181 0.976563 0.086063
0.084181 0.976564 0.086063
0.085890 0.983672 0.086064
0.085890 0.983671 0.086063
0.095317 0.984082 0.084075
0.147801 0.983306 0.084779
0.342326 0.983047 0.085504
0.807010 0.983444 0.086149
0.987359 0.984545 0.086651
0.084019 0.088159 0.085473
0.084019 0.088159 0.097147
0.189309 0.088159 0.093946
0.828377 0.088252 0.093966
0.956286 0.089004 0.094363
0.977664 0.090410 0.098957
0.984559 0.091125 0.107957
0.987066 0.088159 0.101976
0.987348 0.096792 0.627762
0.084019 0.088159 0.085392
0.084019 0.088159 0.088117
0.145221 0.088237 0.089462
0.759953 0.088786 0.090422
0.948871 0.090083 0.091239
0.976705 0.091854 0.095370
0.984308 0.093280 0.102945
0.987069 0.088159 0.103651
0.987348 0.096792 0.627709
0.084019 0.090555 0.084513
0.084019 0.091086 0.085019
0.104195 0.095337 0.087454
0.420165 0.095874 0.087389
0.904770 0.101198 0.088720
0.969221 0.109720 0.090779
0.982729 0.115466 0.094399
0.987007 0.090047 0.120963
0.987348 0.096792 0.627699
0.084019 0.139895 0.084679
0.084019 0.149904 0.084919
0.088528 0.170762 0.085660
0.176250 0.187217 0.086426
0.693345 0.220501 0.087577
0.946235 0.257986 0.089407
0.979122 0.291366 0.090948
0.985903 0.287640 0.103425
0.987348 0.096792 0.627707
0.084019 0.433794 0.084950
0.084019 0.451801 0.085116
0.087387 0.495626 0.085711
0.116188 0.524730 0.086446
0.339298 0.543619 0.087365
0.860905 0.576779 0.089148
0.968530 0.611942 0.090465
0.985050 0.628166 0.097330
0.987324 0.633919 0.210330
0.084103 0.768482 0.085478
0.084410 0.778809 0.085609
0.087191 0.804885 0.086097
0.101863 0.818457 0.086813
0.213826 0.826311 0.087948
0.620316 0.833288 0.089460
0.938799 0.846172 0.090835
0.982144 0.860184 0.096215
0.987184 0.877071 0.116559
0.084489 0.912989 0.085710
0.084829 0.915185 0.085815
0.086975 0.923508 0.086245
0.096034 0.929625 0.086969
0.147880 0.932375 0.088177
0.374664 0.934207 0.089756
0.853011 0.936962 0.091478
0.975464 0.941654 0.096625
0.987051 0.949320 0.106166
0.084745 0.965361 0.086055
0.084973 0.965477 0.086148
0.086715 0.966047 0.086695
0.092443 0.967024 0.087564
0.120890 0.967503 0.088942
0.255144 0.967727 0.090436
0.662160 0.968431 0.092899
0.952196 0.970075 0.096863
0.987030 0.972748 0.102721
0.084181 0.976564 0.086064
0.085890 0.983671 0.086064
0.085890 0.983672 0.086064
0.085892 0.983672 0.086064
0.099255 0.983676 0.086706
0.166900 0.982987 0.088474
0.382761 0.982817 0.090042
0.851457 0.983293 0.091408
0.987537 0.984502 0.093441
0.084019 0.088159 0.131456
0.084019 0.088159 0.378521
0.148653 0.088275 0.463023
0.769473 0.088769 0.444503
0.951371 0.090116 0.450708
0.976982 0.092136 0.470506
0.984288 0.094156 0.536751
0.986727 0.090041 0.727526
0.987348 0.096971 0.764039
0.084019 0.088195 0.136886
0.084019 0.088371 0.248875
0.127961 0.088838 0.368862
0.698247 0.089756 0.367483
0.945050 0.091430 0.392901
0.976132 0.094755 0.439285
0.984020 0.096605 0.505362
0.986686 0.090908 0.710853
0.987348 0.096974 0.765403
0.084019 0.092012 0.119747
0.084019 0.093268 0.134634
0.102052 0.095664 0.193621
0.442096 0.098502 0.225959
0.909811 0.105466 0.263748
0.969777 0.117544 0.312696
0.982668 0.129042 0.407070
0.986332 0.117596 0.588989
0.987348 0.096981 0.770367
0.084019 0.142713 0.109273
0.084177 0.151903 0.113290
0.092181 0.173621 0.128641
0.244213 0.224975 0.178088
0.771466 0.236164 0.187710
0.953835 0.271356 0.223248
0.979875 0.312266 0.281699
0.985893 0.316590 0.449873
0.987348 0.096987 0.771859
0.084265 0.425492 0.108730
0.084924 0.440771 0.110787
0.090784 0.483359 0.119093
0.141493 0.515032 0.132311
0.478780 0.541858 0.151236
0.905999 0.581442 0.180697
0.973764 0.617015 0.219415
0.985226 0.635839 0.307906
0.987307 0.654861 0.673745
0.085045 0.753744 0.108973
0.085708 0.762942 0.110294
0.090128 0.795321 0.116006
0.116869 0.809457 0.125941
0.277230 0.819624 0.138441
0.763076 0.829628 0.160237
0.955543 0.844891 0.190656
0.983498 0.859862 0.240253
0.987194 0.878261 0.501247
0.085700 0.907393 0.109667
0.086294 0.909374 0.110599
0.089421 0.916696 0.114817
0.105334 0.924587 0.122919
0.194541 0.928864 0.133902
0.522449 0.931641 0.151579
0.906781 0.935341 0.174967
0.979013 0.940680 0.208889
0.987118 0.949646 0.370772
0.085682 0.964430 0.109704
0.086101 0.964568 0.110346
0.088120 0.965098 0.113807
0.097746 0.965632 0.120182
0.141185 0.966138 0.129642
0.318015 0.966684 0.142112
0.766717 0.967683 0.161816
0.964950 0.969544 0.186269
0.987166 0.972716 0.265307
0.084749 0.980385 0.123529
0.085890 0.984208 0.123529
0.085890 0.984209 0.123528
0.087677 0.984977 0.103611
0.107740 0.982980 0.120977
0.195454 0.982559 0.129498
0.471746 0.982554 0.138500
0.895023 0.983124 0.151531
0.987620 0.984565 0.179838
0.084019 0.088224 0.507312
0.084019 0.088386 0.668471
0.117553 0.089343 0.803706
0.693837 0.090419 0.803972
0.944243 0.092473 0.803931
0.975962 0.096244 0.814975
0.983856 0.099344 0.839439
0.986507 0.095048 0.879945
0.987348 0.097886 0.913348
0.084019 0.088596 0.522709
0.084019 0.089068 0.637535
0.110851 0.090435 0.773133
0.622003 0.091961 0.782138
0.938319 0.095295 0.786744
0.975069 0.099788 0.804035
0.983598 0.103637 0.830638
0.986469 0.097338 0.876901
0.987348 0.097841 0.910783
0.084019 0.095179 0.494438
0.084019 0.096484 0.552700
0.099841 0.101156 0.663770
0.419812 0.106245 0.702550
0.903991 0.115663 0.720145
0.968862 0.137759 0.748884
0.982383 0.155248 0.796802
0.986218 0.149076 0.854487
0.987348 0.097702 0.902590
0.084019 0.164178 0.440833
0.084660 0.173977 0.465461
0.095260 0.201630 0.534251
0.248433 0.232416 0.600220
0.789964 0.259647 0.631070
0.955987 0.307635 0.674789
0.979971 0.343404 0.723122
0.985846 0.357745 0.807377
0.987414 0.209568 0.902663
0.084962 0.436462 0.379227
0.086012 0.451438 0.397511
0.093882 0.490839 0.456267
0.168216 0.525618 0.501726
0.584197 0.580650 0.574261
0.922423 0.599488 0.599873
0.975637 0.630857 0.644702
0.985279 0.653011 0.728630
0.987284 0.686535 0.874604
0.086302 0.754246 0.356342
0.087297 0.762724 0.366215
0.093779 0.792559 0.406248
0.130930 0.808301 0.458891
0.343378 0.820047 0.494082
0.825366 0.831864 0.535519
0.962554 0.848165 0.585582
0.984181 0.864209 0.647868
0.987189 0.882347 0.826316
0.087136 0.905885 0.338097
0.087615 0.907739 0.345517
0.092633 0.914402 0.372182
0.117077 0.922057 0.416959
0.239350 0.927754 0.462311
0.622961 0.931132 0.492083
0.932630 0.935421 0.530779
0.980916 0.941049 0.584468
0.987145 0.951004 0.748741
0.086729 0.964154 0.315422
0.087328 0.964277 0.319606
0.090811 0.964737 0.341802
0.103848 0.965257 0.373628
0.168078 0.965677 0.416610
0.384006 0.966285 0.458165
0.831907 0.967494 0.483591
0.972505 0.969539 0.518565
0.987236 0.973043 0.649528
0.084994 0.981636 0.452375
0.085135 0.982195 0.452375
0.085515 0.983507 0.452371
0.091029 0.983394 0.324254
0.114864 0.982800 0.357304
0.222315 0.982489 0.389594
0.537287 0.982553 0.422563
0.919285 0.983189 0.449582
0.987663 0.984917 0.541839
0.084019 0.089100 0.827004
0.084019 0.089475 0.874387
0.103361 0.091764 0.914182
0.594349 0.094412 0.916607
0.937474 0.097966 0.917736
0.974620 0.103803 0.921043
0.983410 0.110284 0.928413
0.986367 0.104819 0.934166
0.987348 0.098726 0.939570
0.084019 0.089933 0.831438
0.084019 0.090430 0.870496
0.101240 0.094105 0.908845
0.550786 0.096827 0.912635
0.931443 0.102226 0.914457
0.973312 0.110147 0.918188
0.983168 0.118914 0.926198
0.986331 0.111345 0.933845
0.987348 0.098726 0.939570
0.084019 0.100678 0.829426
0.084019 0.102583 0.853053
0.097983 0.112129 0.887713
0.374932 0.123174 0.897469
0.898135 0.144120 0.901965
0.967741 0.169463 0.907485
0.982082 0.194350 0.917167
0.986123 0.194741 0.931745
0.987348 0.098727 0.939570
0.084158 0.195784 0.798981
0.084941 0.204020 0.812546
0.096900 0.244976 0.854483
0.255325 0.271065 0.875309
0.803741 0.310395 0.883176
0.956585 0.346411 0.890829
0.979947 0.394387 0.902191
0.985798 0.413749 0.921373
0.987388 0.306887 0.938015
0.085736 0.477490 0.751601
0.086935 0.488040 0.764311
0.097231 0.525819 0.805052
0.188678 0.561748 0.836431
0.610309 0.593882 0.857731
0.930082 0.621599 0.870583
0.976243 0.652129 0.883364
0.985305 0.679602 0.903877
0.987263 0.726917 0.933985
0.087445 0.768000 0.713410
0.088108 0.776411 0.721635
0.097201 0.800255 0.750991
0.148163 0.813988 0.791366
0.399907 0.826635 0.818651
0.862893 0.844300 0.844508
0.965985 0.855820 0.860749
0.984539 0.872365 0.882939
0.987186 0.889672 0.927876
0.087830 0.908367 0.684708
0.089067 0.910061 0.689781
0.095870 0.916255 0.710336
0.125316 0.923697 0.741899
0.273450 0.928876 0.777859
0.702279 0.932571 0.806427
0.943159 0.937157 0.827219
0.981972 0.942959 0.856072
0.987162 0.953093 0.908095
0.087505 0.964439 0.646667
0.087713 0.964548 0.651035
0.092225 0.964947 0.671906
0.109531 0.965417 0.695708
0.189194 0.965843 0.725390
0.460019 0.966697 0.755747
0.867916 0.968019 0.785337
0.976171 0.970152 0.810074
0.987271 0.973667 0.880738
0.085087 0.982085 0.572225
0.085209 0.982578 0.578976
0.085549 0.983697 0.605001
0.091320 0.983732 0.630147
0.118216 0.983085 0.655888
0.234125 0.982797 0.683605
0.571104 0.982906 0.704012
0.930449 0.983557 0.719676
0.987679 0.985342 0.837824
0.084019 0.091313 0.934290
0.084019 0.091910 0.941338
0.092778 0.096993 0.949234
0.538427 0.101738 0.950201
0.933017 0.109121 0.950646
0.973613 0.121046 0.951355
0.983189 0.135473 0.952880
0.986287 0.127887 0.955659
0.987348 0.100551 0.958118
0.084019 0.093111 0.934436
0.084019 0.093935 0.940647
0.093136 0.100433 0.948489
0.505333 0.106144 0.949651
0.926829 0.116293 0.950187
0.972522 0.135231 0.950956
0.982968 0.151880 0.952533
0.986254 0.143722 0.955405
0.987348 0.100530 0.957957
0.084019 0.110209 0.934484
0.084019 0.112537 0.938007
0.094739 0.134172 0.944991
0.364639 0.155204 0.947298
0.898586 0.181843 0.948268
0.967755 0.213478 0.949310
0.982011 0.244492 0.951107
0.986079 0.249562 0.954119
0.987348 0.100411 0.957221
0.084357 0.241885 0.932267
0.085128 0.249418 0.933567
0.096885 0.285453 0.938750
0.265514 0.324563 0.942754
0.819658 0.362407 0.944789
0.958565 0.406493 0.946564
0.980163 0.445548 0.948696
0.985800 0.471915 0.952160
0.987340 0.448911 0.957933
0.086396 0.520720 0.919897
0.087522 0.530416 0.924112
0.099264 0.566318 0.932886
0.209428 0.603286 0.936212
0.661596 0.626755 0.939684
0.937254 0.651414 0.942178
0.976995 0.679287 0.945103
0.985377 0.711590 0.949323
0.987257 0.767694 0.956035
0.087889 0.797005 0.903668
0.089530 0.800639 0.906768
0.100171 0.813044 0.917809
0.166851 0.827350 0.930514
0.468532 0.840199 0.933908
0.882578 0.852555 0.936666
0.968913 0.866236 0.940093
0.984734 0.877711 0.945238
0.987199 0.897105 0.953776
0.088879 0.914476 0.887209
0.090398 0.916096 0.889460
0.098323 0.921919 0.897972
0.133742 0.928133 0.910413
0.303766 0.931990 0.923309
0.755792 0.935758 0.931756
0.949546 0.940264 0.933906
0.982736 0.945853 0.938898
0.987191 0.955244 0.950683
0.087600 0.965336 0.867671
0.088058 0.965423 0.869678
0.093231 0.965730 0.877034
0.112853 0.966364 0.886990
0.204234 0.967083 0.899152
0.506416 0.967916 0.910902
0.886754 0.969257 0.921439
0.977527 0.971355 0.931039
0.987302 0.974513 0.945199
0.085075 0.982191 0.748359
0.085310 0.983137 0.748407
0.085759 0.984352 0.749681
0.090131 0.984833 0.845563
0.117225 0.983838 0.861900
0.233672 0.983497 0.875040
0.573150 0.983591 0.882651
0.930764 0.984238 0.888069
0.987694 0.985865 0.936012
0.084019 0.097149 0.967639
0.084019 0.097861 0.968919
0.096803 0.104997 0.970733
0.600640 0.113219 0.971056
0.939942 0.128459 0.971322
0.975384 0.150233 0.971737
0.983541 0.166446 0.972460
0.986365 0.155810 0.973911
0.987355 0.108873 0.973524
0.084019 0.100102 0.967490
0.084019 0.101005 0.968698
0.097690 0.110443 0.970554
0.574579 0.121635 0.970918
0.936998 0.141909 0.971203
0.974662 0.166032 0.971634
0.983381 0.185719 0.972378
0.986338 0.174452 0.973848
0.987357 0.110770 0.973524
0.084019 0.136786 0.966940
0.084019 0.140452 0.967791
0.102122 0.167516 0.969545
0.465241 0.193612 0.970160
0.917753 0.225277 0.970575
0.970951 0.257692 0.971103
0.982621 0.283086 0.971945
0.986197 0.283145 0.973489
0.987381 0.151663 0.973524
0.084834 0.286564 0.965268
0.085768 0.296511 0.966037
0.104450 0.332780 0.967920
0.329296 0.369541 0.968954
0.869262 0.409028 0.969606
0.963948 0.451722 0.970291
0.981235 0.488097 0.971291
0.985981 0.503960 0.973005
0.987353 0.507770 0.974467
0.087253 0.565714 0.962506
0.088083 0.572796 0.963304
0.105510 0.605887 0.965495
0.246879 0.628544 0.967165
0.762141 0.650826 0.968276
0.949409 0.676992 0.969193
0.978855 0.706713 0.970346
0.985656 0.732213 0.972203
0.987297 0.795063 0.974158
0.089005 0.813367 0.958757
0.091013 0.816184 0.959589
0.104791 0.828358 0.962138
0.191737 0.840808 0.964568
0.564425 0.852062 0.966359
0.914854 0.864008 0.967705
0.974049 0.874999 0.969064
0.985174 0.879891 0.971123
0.987264 0.902388 0.973798
0.089565 0.923354 0.953240
0.091127 0.924767 0.954096
0.100680 0.928959 0.957041
0.145690 0.932647 0.960420
0.345394 0.936060 0.963296
0.807722 0.939527 0.965413
0.959420 0.943642 0.967125
0.984023 0.947991 0.969516
0.987270 0.956903 0.973267
0.087407 0.968070 0.944199
0.087651 0.968135 0.945042
0.092586 0.968299 0.948346
0.112790 0.968667 0.952604
0.212789 0.969129 0.956991
0.528875 0.969840 0.960501
0.902512 0.971069 0.963210
0.978334 0.972277 0.964672
0.987364 0.975391 0.971969
0.084945 0.981880 0.904119
0.085734 0.984496 0.905982
0.085881 0.984902 0.918663
0.088348 0.985765 0.933614
0.109521 0.985152 0.938378
0.217052 0.984653 0.943990
0.533484 0.984661 0.948061
0.916729 0.985207 0.949998
0.987710 0.986491 0.967768
0.089793 0.102404 0.978980
0.097249 0.102958 0.978983
0.375662 0.105430 0.978992
0.924456 0.111435 0.979013
0.970133 0.121436 0.979045
0.980872 0.135813 0.979086
0.985175 0.139518 0.979168
0.986810 0.112004 0.979299
0.987348 0.115575 0.978499
0.090834 0.104919 0.978978
0.098360 0.105796 0.978981
0.367013 0.109462 0.978990
0.921426 0.116822 0.979012
0.969522 0.131492 0.979045
0.980744 0.147102 0.979086
0.985154 0.151619 0.979169
0.986800 0.117247 0.979299
0.987348 0.120846 0.978936
0.095223 0.137243 0.978953
0.104621 0.139452 0.978957
0.338000 0.149649 0.978970
0.905515 0.167379 0.978997
0.966611 0.192274 0.979034
0.980132 0.215648 0.979082
0.985045 0.224652 0.979165
0.986744 0.173506 0.979296
0.987348 0.120872 0.978936
0.103461 0.295176 0.978905
0.114596 0.300534 0.978912
0.286432 0.314079 0.978934
0.863058 0.336855 0.978971
0.960480 0.369505 0.979015
0.978783 0.400882 0.979072
0.984802 0.414013 0.979161
0.986642 0.381852 0.979291
0.987455 0.449571 0.979379
0.105641 0.571259 0.978875
0.115134 0.574697 0.978886
0.230778 0.588528 0.978920
0.765422 0.608917 0.978964
0.947153 0.626794 0.979019
0.976515 0.644179 0.979084
0.984274 0.654701 0.979176
0.986541 0.647588 0.979314
0.987490 0.694445 0.979543
0.101751 0.816566 0.978879
0.107605 0.817847 0.978894
0.171810 0.823119 0.978942
0.555428 0.831278 0.978999
0.915056 0.840475 0.979059
0.970492 0.849386 0.979130
0.982972 0.855712 0.979221
0.986401 0.855713 0.979355
0.987510 0.882092 0.979581
0.094370 0.927675 0.978924
0.097025 0.928038 0.978943
0.120103 0.929557 0.979002
0.280814 0.931694 0.979074
0.776800 0.934079 0.979146
0.953854 0.936827 0.979221
0.980374 0.939101 0.979321
0.986177 0.939461 0.979447
0.987555 0.951401 0.979657
0.087095 0.969806 0.978864
0.087547 0.969839 0.978924
0.092076 0.969934 0.979062
0.122861 0.969882 0.979181
0.319775 0.969882 0.979288
0.837494 0.970341 0.979377
0.968453 0.971307 0.979470
0.985494 0.971748 0.979589
0.987629 0.974244 0.979713
0.084715 0.981149 0.953491
0.085890 0.985081 0.966811
0.085890 0.985081 0.966811
0.086508 0.985305 0.966844
0.095950 0.986652 0.979123
0.177409 0.986043 0.979514
0.495404 0.985912 0.979688
0.921400 0.986335 0.979718
0.987729 0.986768 0.979726
