LUTs/kodachrome64/Kodachrome64_Classic_IlfochromeP.cube
TITLE "Kodachrome 64 Classic IlfochromeP"
# Adobe RGB in/out. REPLACES AgX. Kodachrome 64 Classic IlfochromeP.
LUT_3D_SIZE 33
DOMAIN_MIN 0.0 0.0 0.0
DOMAIN_MAX 1.0 1.0 1.0
0.138776 0.101263 0.100261
0.138979 0.102582 0.100707
0.139026 0.102943 0.100811
0.141389 0.104406 0.101167
0.159013 0.107441 0.101567
0.172014 0.108614 0.101842
0.216030 0.111509 0.102303
0.291779 0.115855 0.103139
0.333968 0.117838 0.103513
0.396181 0.120925 0.104024
0.484022 0.125399 0.105032
0.547613 0.130554 0.105768
0.607735 0.134650 0.106379
0.673327 0.140187 0.107335
0.737416 0.148144 0.108515
0.779241 0.152784 0.109496
0.813186 0.157615 0.110735
0.841589 0.163446 0.112604
0.867581 0.170383 0.114992
0.884247 0.173905 0.116961
0.898146 0.177503 0.119109
0.909644 0.182081 0.122141
0.919714 0.186539 0.125544
0.929417 0.187029 0.128574
0.936530 0.187760 0.132336
0.942526 0.186693 0.138094
0.947435 0.176019 0.142402
0.950006 0.169399 0.153185
0.955211 0.129376 0.242326
0.955211 0.129342 0.242244
0.955211 0.129340 0.242239
0.955211 0.129341 0.242236
0.957212 0.239146 0.528847
0.138801 0.105175 0.100603
0.138905 0.105557 0.100747
0.139243 0.103841 0.100744
0.142724 0.105465 0.101223
0.159861 0.108249 0.101664
0.171817 0.109217 0.101901
0.213304 0.112169 0.102385
0.286499 0.116552 0.103200
0.328623 0.118369 0.103556
0.390569 0.121444 0.104064
0.478622 0.126245 0.105075
0.542330 0.131303 0.105801
0.603108 0.135299 0.106415
0.669420 0.140910 0.107365
0.734926 0.148811 0.108540
0.777212 0.153391 0.109531
0.811878 0.158269 0.110775
0.840576 0.164059 0.112641
0.866812 0.170980 0.115032
0.883831 0.174469 0.116994
0.897836 0.178040 0.119135
0.909434 0.182754 0.122166
0.919562 0.187287 0.125561
0.929309 0.187760 0.128580
0.936454 0.188475 0.132327
0.942493 0.187397 0.138054
0.947412 0.176493 0.142331
0.949993 0.169852 0.152963
0.955211 0.129377 0.242327
0.955211 0.129342 0.242244
0.955211 0.129340 0.242239
0.955211 0.129342 0.242236
0.957212 0.239148 0.528846
0.138808 0.106713 0.100697
0.138838 0.107072 0.100887
0.138940 0.107121 0.100942
0.140069 0.108602 0.101403
0.150592 0.111607 0.101869
0.166069 0.112028 0.102046
0.203735 0.115415 0.102659
0.272836 0.119524 0.103430
0.312751 0.120872 0.103718
0.371542 0.123421 0.104213
0.459054 0.129564 0.105231
0.522939 0.134119 0.105921
0.585668 0.137720 0.106549
0.654765 0.143599 0.107475
0.725538 0.151280 0.108630
0.769560 0.155980 0.109657
0.806951 0.160677 0.110921
0.836764 0.166311 0.112774
0.863930 0.173170 0.115179
0.882276 0.176533 0.117116
0.896679 0.180064 0.119232
0.908647 0.185377 0.122260
0.918994 0.190025 0.125621
0.928907 0.190434 0.128606
0.936172 0.191089 0.132300
0.942369 0.189970 0.137918
0.947327 0.178225 0.142091
0.949943 0.171511 0.152209
0.955211 0.129380 0.242334
0.955211 0.129343 0.242245
0.955211 0.129340 0.242240
0.955211 0.129343 0.242236
0.957213 0.239150 0.528845
0.138842 0.112799 0.101132
0.138861 0.113368 0.101240
0.138937 0.114330 0.101433
0.139255 0.114172 0.101625
0.143592 0.118860 0.102141
0.151197 0.117751 0.102294
0.176273 0.120607 0.103001
0.233775 0.124312 0.103715
0.280828 0.124960 0.103969
0.339204 0.128685 0.104471
0.424017 0.136265 0.105530
0.488805 0.140399 0.106152
0.551436 0.143796 0.106805
0.625343 0.148950 0.107684
0.704049 0.156582 0.108801
0.753894 0.161112 0.109896
0.796621 0.165358 0.111196
0.828990 0.170712 0.113025
0.858083 0.177387 0.115456
0.879130 0.180700 0.117346
0.894348 0.185084 0.119417
0.906944 0.190754 0.122442
0.917860 0.195275 0.125743
0.928107 0.195558 0.128666
0.935612 0.196096 0.132267
0.942124 0.194899 0.137703
0.947159 0.182066 0.141715
0.949844 0.174698 0.150991
0.955211 0.129386 0.242348
0.955211 0.129343 0.242246
0.955211 0.129341 0.242241
0.955211 0.129348 0.242237
0.957213 0.239152 0.528843
0.138892 0.125143 0.101725
0.138905 0.125931 0.101831
0.138968 0.128707 0.101991
0.139335 0.129798 0.102212
0.140909 0.129287 0.102637
0.145456 0.125214 0.102781
0.158968 0.129417 0.103354
0.192531 0.135247 0.104048
0.234098 0.134842 0.104333
0.295660 0.137568 0.104894
0.379790 0.146087 0.105952
0.444716 0.149419 0.106588
0.505539 0.152288 0.107189
0.578904 0.157922 0.108005
0.661244 0.166196 0.109232
0.726168 0.169675 0.110272
0.774402 0.173148 0.111627
0.815187 0.177947 0.113419
0.847785 0.185731 0.115893
0.873607 0.189691 0.117709
0.890291 0.194059 0.119713
0.904005 0.199395 0.122738
0.915916 0.203710 0.125951
0.926740 0.203782 0.128788
0.934662 0.204125 0.132258
0.941494 0.202799 0.137463
0.946875 0.189680 0.141303
0.949674 0.179826 0.149542
0.955211 0.129398 0.242375
0.955211 0.129345 0.242250
0.955211 0.129341 0.242242
0.955211 0.129391 0.242238
0.957213 0.239153 0.528843
0.138912 0.134684 0.102016
0.138922 0.135194 0.102075
0.138968 0.137776 0.102175
0.139063 0.139883 0.102545
0.139932 0.140312 0.102834
0.142974 0.139710 0.103250
0.150705 0.144796 0.103767
0.171262 0.151303 0.104540
0.197149 0.148611 0.104781
0.246424 0.150672 0.105375
0.325653 0.158604 0.106420
0.391615 0.161631 0.107121
0.456153 0.164030 0.107683
0.527974 0.168743 0.108430
0.615801 0.176271 0.109810
0.685289 0.179867 0.110948
0.742310 0.184776 0.112271
0.790366 0.192670 0.113986
0.830083 0.201248 0.116527
0.862718 0.204137 0.118240
0.883406 0.207695 0.120231
0.899086 0.212470 0.123186
0.912694 0.216385 0.126282
0.924489 0.216114 0.129015
0.933111 0.216140 0.132322
0.940416 0.214646 0.137291
0.946412 0.201591 0.141019
0.949393 0.190685 0.148222
0.955212 0.129424 0.242429
0.955211 0.129347 0.242256
0.955211 0.129342 0.242246
0.957211 0.236673 0.242239
0.957213 0.239153 0.528842
0.138963 0.155432 0.102731
0.138970 0.155944 0.102805
0.139003 0.158957 0.103050
0.139229 0.162141 0.103321
0.139963 0.163854 0.103632
0.142451 0.163949 0.103912
0.147558 0.163243 0.104312
0.160978 0.170971 0.105256
0.176761 0.166221 0.105441
0.211010 0.167119 0.105938
0.278290 0.174914 0.107088
0.339204 0.176857 0.107727
0.400756 0.177571 0.108181
0.474251 0.182012 0.108907
0.560466 0.192750 0.110589
0.632913 0.197928 0.111840
0.705147 0.201128 0.113069
0.762410 0.207528 0.114661
0.810429 0.217209 0.117312
0.845125 0.221294 0.118936
0.872518 0.226368 0.121020
0.890608 0.231702 0.123839
0.907098 0.234882 0.126817
0.920694 0.234047 0.129413
0.930534 0.233569 0.132534
0.938639 0.231853 0.137318
0.945639 0.219408 0.141091
0.948918 0.207928 0.147485
0.955213 0.129489 0.242559
0.955211 0.129354 0.242271
0.955211 0.129345 0.242253
0.957213 0.236727 0.242243
0.957213 0.239153 0.528842
0.139011 0.182571 0.103630
0.139016 0.183114 0.103677
0.139065 0.187348 0.103877
0.139508 0.192028 0.104169
0.140089 0.195911 0.104478
0.142637 0.197661 0.104992
0.147139 0.197414 0.105445
0.155542 0.196300 0.105929
0.166415 0.187391 0.106060
0.188625 0.187409 0.106613
0.239880 0.198507 0.107789
0.295199 0.199313 0.108345
0.349898 0.198794 0.108749
0.420333 0.203607 0.109765
0.504893 0.213952 0.111613
0.578136 0.217291 0.112813
0.651819 0.220541 0.113980
0.723851 0.227520 0.115767
0.781348 0.236933 0.118299
0.825378 0.239217 0.119782
0.860028 0.243010 0.121965
0.882568 0.248889 0.124659
0.900146 0.254679 0.127556
0.915195 0.256865 0.130030
0.925958 0.259933 0.132996
0.935525 0.257849 0.137730
0.944250 0.246614 0.141832
0.948059 0.234454 0.147898
0.955216 0.129755 0.243008
0.955211 0.129376 0.242322
0.955211 0.129354 0.242275
0.957213 0.236730 0.242252
0.957213 0.239153 0.528842
0.139031 0.201149 0.104023
0.139037 0.201628 0.104066
0.139184 0.204601 0.104242
0.139540 0.209618 0.104511
0.140013 0.214218 0.104917
0.141643 0.217044 0.105346
0.144916 0.218131 0.105816
0.150321 0.217583 0.106225
0.160261 0.216509 0.106797
0.176212 0.215918 0.107361
0.214695 0.227439 0.108495
0.259266 0.226807 0.109076
0.309049 0.224789 0.109689
0.371113 0.228182 0.110784
0.453015 0.237967 0.112833
0.521121 0.240162 0.113926
0.596022 0.242741 0.115080
0.675116 0.248957 0.116978
0.746763 0.258190 0.119396
0.799455 0.261370 0.121065
0.837253 0.266401 0.123173
0.871087 0.270480 0.125694
0.892218 0.274885 0.128477
0.910228 0.275808 0.130778
0.922597 0.277955 0.133669
0.932479 0.280333 0.138365
0.942433 0.277040 0.142865
0.946490 0.274383 0.149808
0.955321 0.136893 0.248240
0.955215 0.129649 0.242841
0.955212 0.129412 0.242415
0.957213 0.236731 0.242293
0.957213 0.239153 0.528842
0.139242 0.228324 0.104694
0.139274 0.228727 0.104741
0.139412 0.230977 0.104928
0.139696 0.236016 0.105264
0.140078 0.240995 0.105639
0.141584 0.245135 0.106027
0.144254 0.247223 0.106507
0.148757 0.247685 0.107050
0.156762 0.247058 0.107574
0.168539 0.246057 0.108092
0.197238 0.258678 0.109386
0.232859 0.257141 0.110153
0.275879 0.253442 0.110795
0.330984 0.255745 0.112074
0.405216 0.265452 0.114102
0.470856 0.266436 0.115215
0.539816 0.267715 0.116518
0.621263 0.272847 0.118296
0.705837 0.282505 0.120864
0.764443 0.285049 0.122539
0.814994 0.287742 0.124446
0.853019 0.293668 0.126899
0.880557 0.300376 0.129613
0.901686 0.301485 0.131750
0.917319 0.302098 0.134764
0.929014 0.303328 0.139153
0.940476 0.299089 0.143310
0.945637 0.295391 0.149692
0.950157 0.285509 0.156827
0.953190 0.273099 0.168240
0.956162 0.227015 0.235563
0.957213 0.236777 0.249800
0.957213 0.239154 0.528841
0.139624 0.270199 0.105945
0.139649 0.270594 0.105980
0.139753 0.272598 0.106114
0.139993 0.278432 0.106454
0.140336 0.283754 0.106891
0.142346 0.288064 0.107375
0.144876 0.291427 0.107886
0.149133 0.292970 0.108390
0.156721 0.293124 0.108894
0.167663 0.292327 0.109704
0.185455 0.291391 0.110595
0.214359 0.288976 0.111500
0.249988 0.284207 0.112196
0.300166 0.285616 0.113437
0.365118 0.295294 0.115623
0.425855 0.294898 0.116838
0.490319 0.294825 0.117993
0.566963 0.299332 0.119658
0.654392 0.309211 0.122565
0.726833 0.310280 0.124089
0.784228 0.313726 0.125905
0.829324 0.320102 0.128315
0.868507 0.324708 0.130835
0.892466 0.326178 0.132837
0.910278 0.329717 0.136145
0.923301 0.334375 0.140281
0.936934 0.329045 0.144109
0.944280 0.324072 0.150021
0.949314 0.313536 0.156548
0.952724 0.299138 0.165843
0.956018 0.241913 0.196665
0.957213 0.236920 0.272259
0.957213 0.236974 0.280042
0.139843 0.298994 0.106813
0.139864 0.299354 0.106851
0.139945 0.301063 0.106995
0.140133 0.306143 0.107304
0.140746 0.311216 0.107675
0.142511 0.316649 0.108116
0.144725 0.321242 0.108603
0.148433 0.323631 0.109212
0.154578 0.324666 0.109975
0.163856 0.324595 0.110877
0.177754 0.323739 0.111907
0.201460 0.322901 0.113029
0.230542 0.316595 0.113591
0.274678 0.317961 0.114851
0.332978 0.327490 0.117349
0.386792 0.325744 0.118441
0.447682 0.324860 0.119549
0.517446 0.328723 0.121510
0.603441 0.337785 0.124264
0.679189 0.338059 0.125704
0.746834 0.341685 0.127542
0.804364 0.346345 0.129800
0.847172 0.352446 0.132228
0.879847 0.355013 0.134471
0.902032 0.356472 0.137738
0.918247 0.359576 0.141620
0.932832 0.358658 0.145417
0.942232 0.359030 0.150910
0.947844 0.352545 0.157271
0.951908 0.337203 0.165312
0.955665 0.276048 0.170283
0.957213 0.236927 0.272369
0.957213 0.237031 0.287266
0.140014 0.325024 0.107564
0.140031 0.325338 0.107595
0.140097 0.326765 0.107714
0.140243 0.330746 0.107963
0.141161 0.336256 0.108306
0.142687 0.341940 0.108704
0.144460 0.346479 0.109319
0.147808 0.349849 0.110054
0.152605 0.351934 0.110949
0.160375 0.352526 0.111934
0.171761 0.352268 0.112973
0.188945 0.351337 0.113970
0.216674 0.350567 0.115121
0.253957 0.351297 0.116590
0.308018 0.361247 0.119085
0.355481 0.358670 0.120157
0.409786 0.356769 0.121443
0.476109 0.360073 0.123456
0.555309 0.368755 0.126184
0.629600 0.368108 0.127485
0.707335 0.370572 0.129173
0.770932 0.375865 0.131391
0.822773 0.383008 0.133933
0.866333 0.383652 0.136383
0.891216 0.387570 0.139535
0.910373 0.393345 0.143286
0.928002 0.390322 0.146990
0.939371 0.388868 0.151971
0.946517 0.385542 0.157936
0.950802 0.380338 0.165892
0.954233 0.372794 0.179345
0.957213 0.237034 0.272512
0.957213 0.237159 0.297513
0.140215 0.357935 0.108464
0.140229 0.358235 0.108491
0.140297 0.359548 0.108592
0.140823 0.362987 0.108799
0.141890 0.369414 0.109326
0.143156 0.374765 0.109906
0.144855 0.380036 0.110628
0.147898 0.384619 0.111566
0.152071 0.387715 0.112590
0.159141 0.389122 0.113573
0.168556 0.389476 0.114536
0.183132 0.389093 0.115803
0.206776 0.388121 0.117046
0.237758 0.387309 0.118359
0.286934 0.397832 0.120995
0.329740 0.394866 0.122300
0.378587 0.391645 0.123480
0.439776 0.394137 0.125331
0.512439 0.402844 0.128090
0.582977 0.401821 0.129396
0.659639 0.403479 0.130973
0.734892 0.408624 0.133044
0.797194 0.414511 0.136120
0.843580 0.416387 0.138486
0.878462 0.420607 0.141484
0.901988 0.424363 0.145154
0.921892 0.424758 0.148832
0.934668 0.427112 0.153460
0.944822 0.422259 0.158818
0.949874 0.415271 0.165726
0.953757 0.405639 0.176699
0.956248 0.394039 0.200818
0.957756 0.385721 0.310042
0.141078 0.402455 0.110037
0.141143 0.402770 0.110077
0.141388 0.404080 0.110225
0.141904 0.407285 0.110613
0.142865 0.414310 0.111317
0.143912 0.419285 0.112047
0.145901 0.425561 0.112957
0.148606 0.430659 0.113875
0.152904 0.434528 0.114908
0.159535 0.436997 0.116183
0.168578 0.438214 0.117483
0.181946 0.438297 0.118695
0.203929 0.437673 0.119973
0.232387 0.436794 0.121529
0.269738 0.435934 0.123157
0.309155 0.432165 0.124322
0.353036 0.428829 0.125508
0.408507 0.430840 0.127349
0.476892 0.438981 0.130045
0.539768 0.437114 0.131235
0.614672 0.438285 0.132781
0.695200 0.443026 0.135421
0.763601 0.448254 0.138444
0.818502 0.450594 0.140698
0.863193 0.453546 0.143486
0.890662 0.459325 0.147463
0.914647 0.459885 0.150887
0.930275 0.460148 0.155129
0.942758 0.460128 0.160100
0.948378 0.459377 0.166328
0.952966 0.449326 0.176090
0.955891 0.433921 0.194070
0.957727 0.397381 0.298084
0.141846 0.435275 0.111465
0.141901 0.435560 0.111511
0.142109 0.436721 0.111689
0.142541 0.439457 0.112065
0.143322 0.445194 0.112705
0.144299 0.451000 0.113441
0.146387 0.458055 0.114338
0.148680 0.462902 0.115287
0.152464 0.467740 0.116480
0.158617 0.471547 0.117762
0.166535 0.473479 0.118934
0.177871 0.474212 0.120211
0.195892 0.474253 0.121771
0.221306 0.473450 0.123306
0.253201 0.472628 0.124807
0.292272 0.471829 0.126366
0.331316 0.467542 0.127505
0.381937 0.469431 0.129372
0.445893 0.478591 0.132031
0.503738 0.476016 0.133165
0.572328 0.476208 0.135103
0.651443 0.480971 0.137924
0.729785 0.486498 0.140853
0.791689 0.488179 0.142951
0.840559 0.492098 0.145955
0.878039 0.498637 0.149888
0.906120 0.499166 0.153047
0.924004 0.502663 0.157119
0.939331 0.502384 0.161657
0.947075 0.499196 0.167131
0.952044 0.496418 0.176386
0.955208 0.494896 0.194323
0.957556 0.442009 0.259234
0.142556 0.469501 0.112989
0.142603 0.469792 0.113033
0.142783 0.470955 0.113196
0.143149 0.473606 0.113518
0.143796 0.478962 0.114059
0.144890 0.486347 0.114799
0.146650 0.492297 0.115780
0.148802 0.498555 0.116863
0.152276 0.504152 0.117996
0.157844 0.508334 0.119162
0.164889 0.511147 0.120495
0.174905 0.512634 0.121992
0.189826 0.513199 0.123460
0.211612 0.513000 0.124969
0.239499 0.512263 0.126438
0.275139 0.511525 0.127965
0.314365 0.510965 0.129547
0.359770 0.512662 0.131340
0.418575 0.521141 0.134231
0.472963 0.518127 0.135752
0.534891 0.518069 0.137746
0.610988 0.522027 0.140448
0.691714 0.527264 0.143315
0.759177 0.528321 0.145531
0.816374 0.532424 0.148664
0.862752 0.537892 0.152383
0.894944 0.540131 0.155402
0.917120 0.542568 0.159163
0.934810 0.544036 0.163407
0.945118 0.545334 0.168416
0.951034 0.541600 0.176791
0.954760 0.536815 0.191476
0.957124 0.536830 0.225994
0.143340 0.512650 0.114775
0.143382 0.512931 0.114826
0.143539 0.514033 0.115015
0.143856 0.516415 0.115388
0.144403 0.520943 0.116006
0.145860 0.529044 0.116949
0.147303 0.533602 0.117777
0.149471 0.540741 0.118867
0.152861 0.546106 0.119947
0.157874 0.550340 0.121341
0.164399 0.553761 0.122837
0.173604 0.555931 0.124305
0.186843 0.557167 0.125802
0.206600 0.557251 0.127227
0.231945 0.557041 0.128785
0.263934 0.556419 0.130271
0.300978 0.555744 0.131744
0.341336 0.555446 0.133302
0.394987 0.563658 0.136966
0.446138 0.560431 0.138421
0.503280 0.559657 0.140314
0.573418 0.563391 0.142979
0.651710 0.568263 0.146156
0.727010 0.568885 0.148407
0.790188 0.573053 0.151450
0.841202 0.578240 0.155009
0.882609 0.580743 0.157838
0.908885 0.583581 0.161367
0.928982 0.587499 0.165403
0.943202 0.586607 0.169885
0.949841 0.587120 0.177942
0.954017 0.589071 0.190861
0.956873 0.584858 0.217419
0.144200 0.560693 0.117476
0.144237 0.560969 0.117522
0.144377 0.562030 0.117693
0.144780 0.564277 0.118025
0.145580 0.568421 0.118571
0.146882 0.575737 0.119408
0.148278 0.581422 0.120346
0.150423 0.588182 0.121660
0.153934 0.593077 0.122981
0.158772 0.597930 0.124412
0.165146 0.601455 0.125811
0.174001 0.603950 0.127350
0.186117 0.605280 0.128841
0.204888 0.605919 0.130333
0.228445 0.605865 0.131775
0.258779 0.605693 0.133338
0.293403 0.605272 0.135411
0.330877 0.604655 0.137453
0.375048 0.604627 0.139662
0.422154 0.601674 0.141030
0.476220 0.601041 0.142888
0.539735 0.603737 0.145794
0.614972 0.607795 0.149119
0.691079 0.608158 0.151297
0.759433 0.611183 0.154213
0.818493 0.615912 0.157693
0.869026 0.617887 0.160323
0.898347 0.621571 0.163720
0.922966 0.624051 0.167394
0.939850 0.625859 0.172014
0.948459 0.627678 0.179578
0.953422 0.627172 0.190582
0.956547 0.632024 0.213864
0.144964 0.599194 0.119154
0.145020 0.599415 0.119196
0.145227 0.600256 0.119348
0.145638 0.602007 0.119643
0.146329 0.605166 0.120199
0.147436 0.610602 0.121151
0.148811 0.616469 0.122253
0.150700 0.621245 0.123378
0.154266 0.626891 0.124701
0.158707 0.631730 0.126068
0.164275 0.635055 0.127425
0.172075 0.637844 0.128889
0.182678 0.639721 0.130368
0.199443 0.640778 0.131825
0.220926 0.641257 0.133294
0.247610 0.641133 0.135276
0.279945 0.640943 0.137391
0.315398 0.640747 0.139469
0.355051 0.640361 0.141462
0.401525 0.640591 0.143603
0.452396 0.639471 0.145652
0.510827 0.642213 0.148793
0.581024 0.645792 0.152101
0.654188 0.646040 0.154164
0.729846 0.648711 0.157007
0.794477 0.652915 0.160362
0.848573 0.654968 0.162849
0.886546 0.658892 0.166115
0.915456 0.661856 0.169535
0.935029 0.664707 0.174515
0.946936 0.666417 0.181343
0.952578 0.669659 0.191311
0.956247 0.673432 0.210254
0.145922 0.636610 0.121223
0.145972 0.636815 0.121271
0.146157 0.637588 0.121450
0.146520 0.639170 0.121796
0.147126 0.641951 0.122357
0.148081 0.646600 0.123204
0.149586 0.653194 0.124346
0.151209 0.657041 0.125323
0.155027 0.663351 0.126686
0.158697 0.666922 0.127902
0.164132 0.671099 0.129309
0.171524 0.674393 0.130743
0.180939 0.676333 0.132158
0.195823 0.677553 0.133627
0.215495 0.678348 0.135695
0.239581 0.678630 0.137727
0.269567 0.678461 0.139709
0.302984 0.678255 0.141741
0.339810 0.678267 0.143795
0.381781 0.678133 0.146115
0.430994 0.678590 0.148635
0.486223 0.680392 0.151694
0.549998 0.683396 0.154950
0.620443 0.683662 0.157016
0.697644 0.685443 0.159761
0.766096 0.688662 0.163065
0.826687 0.690312 0.165406
0.873761 0.693083 0.168486
0.906405 0.696215 0.172238
0.929665 0.698257 0.177049
0.944999 0.701261 0.183446
0.951737 0.703359 0.192291
0.955903 0.708216 0.208648
0.146917 0.675999 0.123754
0.146962 0.676200 0.123799
0.147130 0.676952 0.123964
0.147457 0.678459 0.124282
0.147997 0.681031 0.124795
0.148836 0.684406 0.125564
0.150438 0.689726 0.126701
0.152355 0.692980 0.127697
0.155633 0.697125 0.128938
0.159324 0.700826 0.130210
0.164663 0.704348 0.131573
0.171106 0.706671 0.132893
0.180009 0.708694 0.134716
0.193916 0.710020 0.136719
0.212144 0.710748 0.138666
0.234596 0.711210 0.140738
0.262517 0.711285 0.142714
0.294249 0.711208 0.144837
0.328217 0.711045 0.147240
0.368333 0.711196 0.149712
0.413161 0.711297 0.152097
0.464364 0.711806 0.154556
0.522552 0.714038 0.157746
0.589029 0.714448 0.159704
0.663278 0.715937 0.162437
0.738163 0.718811 0.165706
0.804517 0.720669 0.167953
0.856836 0.723219 0.171083
0.895661 0.726408 0.175335
0.923170 0.728805 0.179778
0.942838 0.731908 0.185650
0.950732 0.734859 0.193673
0.955505 0.740682 0.207941
0.147853 0.709968 0.126199
0.147894 0.710121 0.126240
0.148046 0.710690 0.126397
0.148341 0.711813 0.126706
0.148824 0.713688 0.127204
0.149735 0.716632 0.127945
0.151159 0.721154 0.129015
0.153606 0.725130 0.130096
0.156424 0.728513 0.131195
0.160159 0.732792 0.132545
0.164867 0.735445 0.133891
0.171385 0.738275 0.135826
0.180013 0.740520 0.137881
0.192461 0.741704 0.139778
0.209519 0.742526 0.141684
0.230471 0.743045 0.143662
0.256533 0.743320 0.146037
0.286747 0.743371 0.148449
0.319247 0.743322 0.150834
0.356321 0.743234 0.153222
0.398675 0.743495 0.155649
0.446581 0.743840 0.158059
0.499519 0.744511 0.160472
0.560303 0.744889 0.162356
0.631481 0.746048 0.165011
0.710364 0.748363 0.168245
0.778557 0.750294 0.170410
0.836349 0.752560 0.174303
0.884095 0.755594 0.178448
0.915631 0.758282 0.182644
0.939279 0.761197 0.187905
0.949527 0.764861 0.195370
0.955166 0.769880 0.207724
0.148594 0.742663 0.128135
0.148631 0.742790 0.128175
0.148766 0.743261 0.128320
0.149052 0.744181 0.128599
0.149592 0.745698 0.129047
0.150419 0.748043 0.129714
0.151887 0.751582 0.130678
0.154493 0.755717 0.131838
0.156923 0.758282 0.132803
0.160383 0.762007 0.134437
0.164863 0.764496 0.136096
0.171194 0.767220 0.138018
0.178620 0.768886 0.139839
0.190253 0.770435 0.141815
0.206595 0.771448 0.143776
0.225641 0.771904 0.145960
0.249156 0.772180 0.148349
0.277570 0.772281 0.150714
0.308760 0.772314 0.153099
0.342951 0.772325 0.155432
0.382484 0.772430 0.157793
0.427260 0.772785 0.160126
0.477375 0.773450 0.162522
0.534309 0.774418 0.164920
0.602180 0.775136 0.167519
0.677579 0.777000 0.170766
0.751580 0.779059 0.173591
0.815236 0.781000 0.177431
0.871166 0.783927 0.181357
0.907016 0.786800 0.185601
0.934517 0.789921 0.190326
0.948227 0.793246 0.196906
0.954769 0.798065 0.208064
0.149410 0.772649 0.130223
0.149452 0.772771 0.130259
0.149607 0.773217 0.130393
0.149907 0.774079 0.130650
0.150393 0.775474 0.131060
0.151132 0.777574 0.131670
0.152812 0.780652 0.132547
0.155504 0.785128 0.134004
0.157639 0.787321 0.135245
0.160666 0.790352 0.136901
0.165345 0.793379 0.138728
0.170722 0.795191 0.140428
0.178280 0.796839 0.142312
0.189113 0.798106 0.144312
0.203519 0.798859 0.146538
0.221726 0.799403 0.148859
0.243887 0.799691 0.151215
0.271098 0.799759 0.153592
0.300835 0.799773 0.155905
0.332624 0.799792 0.158253
0.369489 0.799870 0.160550
0.411384 0.800089 0.162854
0.458522 0.800444 0.165135
0.511003 0.801189 0.167530
0.574622 0.802153 0.169925
0.646909 0.803212 0.173974
0.725779 0.805212 0.176675
0.792828 0.806409 0.180360
0.853249 0.808733 0.184220
0.896643 0.811000 0.188123
0.929009 0.813778 0.192796
0.946764 0.816557 0.198623
0.954326 0.820947 0.208608
0.150258 0.800806 0.132319
0.150296 0.800903 0.132353
0.150437 0.801255 0.132478
0.150710 0.801926 0.132716
0.151150 0.802993 0.133097
0.152134 0.804561 0.133808
0.153736 0.806794 0.134976
0.156131 0.809945 0.136645
0.158444 0.812256 0.138089
0.161229 0.814346 0.139583
0.166090 0.817133 0.141588
0.170862 0.818497 0.143113
0.178515 0.820242 0.145288
0.187786 0.821194 0.147405
0.202173 0.822110 0.149784
0.219248 0.822651 0.152067
0.239135 0.822947 0.154364
0.264845 0.823049 0.156700
0.293430 0.823018 0.159018
0.323799 0.823013 0.161337
0.358572 0.823052 0.163651
0.398001 0.823220 0.165950
0.442637 0.823511 0.168216
0.491656 0.823973 0.170469
0.549452 0.824865 0.173742
0.618456 0.825963 0.177021
0.697210 0.828313 0.179596
0.767006 0.829209 0.183242
0.833060 0.831332 0.186836
0.885150 0.833411 0.190651
0.922375 0.836075 0.195021
0.945070 0.839009 0.200382
0.954032 0.843252 0.209402
0.150916 0.830379 0.133988
0.150949 0.830452 0.134031
0.151071 0.830716 0.134186
0.151308 0.831214 0.134487
0.151927 0.831991 0.134972
0.152868 0.833112 0.135704
0.154278 0.834677 0.136778
0.156414 0.836861 0.138351
0.158928 0.839038 0.140052
0.161415 0.840490 0.141385
0.165623 0.842370 0.143189
0.170628 0.843832 0.145117
0.177204 0.844935 0.147229
0.186257 0.845827 0.149482
0.199386 0.846386 0.151763
0.214832 0.846748 0.153989
0.234457 0.846968 0.156333
0.258419 0.846992 0.158617
0.284996 0.846887 0.160866
0.314047 0.846797 0.163128
0.346479 0.846790 0.165389
0.383550 0.846898 0.167647
0.425999 0.847176 0.169893
0.473049 0.847658 0.172729
