LUTs/kodachrome64/Kodachrome64_Classic_Punchy.cube
TITLE "Kodachrome 64 Classic Punchy"
# Adobe RGB in/out. REPLACES AgX. Kodachrome 64 Classic Punchy.
LUT_3D_SIZE 33
DOMAIN_MIN 0.0 0.0 0.0
DOMAIN_MAX 1.0 1.0 1.0
0.084019 0.088159 0.082807
0.084019 0.088159 0.082807
0.084019 0.088159 0.082807
0.084019 0.088159 0.082807
0.085054 0.088159 0.082807
0.087606 0.088159 0.082807
0.101469 0.088159 0.082807
0.152016 0.088159 0.082807
0.214523 0.088159 0.082807
0.308120 0.088159 0.082807
0.521944 0.088159 0.082807
0.671060 0.088159 0.082807
0.775154 0.088159 0.082807
0.859351 0.088159 0.082807
0.909974 0.088232 0.082807
0.935292 0.088316 0.082807
0.948608 0.088414 0.082807
0.959766 0.088616 0.082807
0.966917 0.088994 0.082807
0.973137 0.089226 0.082807
0.976894 0.089504 0.082807
0.979198 0.089810 0.082807
0.981255 0.090074 0.082807
0.983219 0.090107 0.082807
0.984587 0.090156 0.082807
0.985200 0.090085 0.082848
0.985921 0.089390 0.082946
0.986298 0.088942 0.083353
0.987057 0.088159 0.090658
0.987057 0.088159 0.090647
0.987057 0.088159 0.090646
0.987057 0.088159 0.090646
0.987348 0.096790 0.627703
0.084019 0.088159 0.082807
0.084019 0.088159 0.082807
0.084019 0.088159 0.082807
0.084019 0.088159 0.082807
0.085207 0.088159 0.082807
0.087592 0.088159 0.082807
0.100451 0.088159 0.082807
0.147068 0.088159 0.082807
0.204688 0.088159 0.082807
0.297711 0.088159 0.082807
0.511191 0.088159 0.082807
0.659681 0.088159 0.082807
0.770778 0.088159 0.082807
0.856136 0.088159 0.082807
0.908245 0.088243 0.082807
0.934523 0.088330 0.082807
0.948058 0.088427 0.082807
0.959483 0.088651 0.082807
0.966708 0.089025 0.082807
0.972987 0.089270 0.082807
0.976832 0.089544 0.082807
0.979155 0.089849 0.082807
0.981224 0.090125 0.082807
0.983197 0.090156 0.082807
0.984579 0.090204 0.082807
0.985195 0.090132 0.082847
0.985918 0.089426 0.082945
0.986296 0.088966 0.083342
0.987057 0.088159 0.090659
0.987057 0.088159 0.090647
0.987057 0.088159 0.090646
0.987057 0.088159 0.090646
0.987348 0.096791 0.627703
0.084019 0.088159 0.082807
0.084019 0.088159 0.082807
0.084019 0.088159 0.082807
0.084019 0.088159 0.082807
0.084019 0.088159 0.082807
0.086526 0.088159 0.082807
0.096718 0.088159 0.082807
0.132822 0.088159 0.082807
0.180724 0.088159 0.082807
0.264863 0.088159 0.082807
0.459663 0.088159 0.082807
0.613316 0.088159 0.082807
0.751386 0.088159 0.082807
0.840578 0.088161 0.082807
0.901701 0.088283 0.082807
0.930159 0.088382 0.082807
0.945981 0.088473 0.082807
0.958383 0.088775 0.082807
0.965923 0.089169 0.082807
0.972421 0.089429 0.082807
0.976599 0.089693 0.082807
0.978994 0.089995 0.082807
0.981108 0.090308 0.082807
0.983116 0.090335 0.082807
0.984550 0.090378 0.082807
0.985177 0.090304 0.082844
0.985905 0.089559 0.082939
0.986288 0.089053 0.083304
0.987057 0.088159 0.090660
0.987057 0.088159 0.090647
0.987057 0.088159 0.090646
0.987057 0.088159 0.090646
0.987348 0.096791 0.627701
0.084019 0.088159 0.082807
0.084019 0.088159 0.082807
0.084019 0.088159 0.082807
0.084019 0.088159 0.082807
0.084019 0.088159 0.082807
0.084019 0.088159 0.082807
0.088483 0.088159 0.082807
0.110194 0.088159 0.082807
0.141836 0.088159 0.082807
0.220862 0.088159 0.082807
0.360823 0.088159 0.082807
0.536897 0.088159 0.082807
0.679346 0.088163 0.082807
0.804029 0.088245 0.082807
0.883740 0.088394 0.082807
0.921037 0.088488 0.082807
0.941592 0.088722 0.082807
0.955208 0.089011 0.082807
0.964323 0.089495 0.082807
0.971275 0.089730 0.082807
0.976130 0.089975 0.082807
0.978655 0.090356 0.082807
0.980877 0.090653 0.082807
0.982955 0.090671 0.082807
0.984465 0.090706 0.082807
0.985141 0.090628 0.082839
0.985881 0.089809 0.082931
0.986274 0.089288 0.083241
0.987057 0.088159 0.090662
0.987057 0.088159 0.090647
0.987057 0.088159 0.090646
0.987057 0.088159 0.090646
0.987348 0.096791 0.627700
0.084019 0.088159 0.082807
0.084019 0.088159 0.082807
0.084019 0.088159 0.082807
0.084019 0.088159 0.082807
0.084019 0.088159 0.082807
0.084019 0.088159 0.082807
0.085046 0.088159 0.082807
0.093221 0.088159 0.082807
0.110392 0.088159 0.082807
0.155863 0.088159 0.082807
0.279009 0.088198 0.082807
0.415592 0.088253 0.082807
0.576388 0.088304 0.082807
0.737134 0.088420 0.082807
0.848554 0.088769 0.082807
0.902141 0.088956 0.082807
0.932923 0.089167 0.082807
0.949448 0.089537 0.082807
0.961486 0.090019 0.082807
0.969206 0.090286 0.082807
0.975310 0.090574 0.082807
0.978068 0.090918 0.082807
0.980481 0.091197 0.082807
0.982679 0.091203 0.082807
0.984274 0.091232 0.082807
0.985080 0.091133 0.082833
0.985839 0.090285 0.082922
0.986249 0.089680 0.083169
0.987057 0.088159 0.090665
0.987057 0.088159 0.090648
0.987057 0.088159 0.090647
0.987057 0.088159 0.090646
0.987348 0.096792 0.627699
0.084019 0.088159 0.082807
0.084019 0.088159 0.082807
0.084019 0.088159 0.082807
0.084019 0.088159 0.082807
0.084019 0.088159 0.082807
0.084019 0.088159 0.082807
0.084019 0.088176 0.082807
0.087552 0.088283 0.082807
0.094629 0.088239 0.082807
0.117279 0.088273 0.082807
0.198403 0.088433 0.082807
0.299635 0.088515 0.082807
0.452624 0.088649 0.082807
0.623637 0.088907 0.082807
0.784224 0.089409 0.082807
0.868947 0.089682 0.082807
0.913366 0.089959 0.082807
0.939336 0.090483 0.082807
0.955661 0.091036 0.082807
0.965592 0.091233 0.082807
0.972832 0.091706 0.082807
0.977083 0.092351 0.082807
0.979823 0.092962 0.082807
0.982224 0.092916 0.082807
0.983963 0.092920 0.082807
0.984981 0.092661 0.082829
0.985771 0.091057 0.082915
0.986208 0.090352 0.083125
0.987057 0.088159 0.090673
0.987057 0.088159 0.090649
0.987057 0.088159 0.090647
0.987348 0.096401 0.090646
0.987348 0.096792 0.627699
0.084019 0.088371 0.082807
0.084019 0.088381 0.082807
0.084019 0.088440 0.082807
0.084019 0.088543 0.082807
0.084019 0.088639 0.082807
0.084019 0.088644 0.082807
0.084019 0.088605 0.082807
0.085406 0.089024 0.082807
0.088653 0.088770 0.082807
0.099569 0.088819 0.082807
0.139521 0.089304 0.082807
0.220863 0.089454 0.082807
0.316761 0.089509 0.082807
0.505784 0.089806 0.082807
0.698830 0.090488 0.082807
0.813607 0.090824 0.082807
0.884601 0.091028 0.082807
0.926060 0.091683 0.082807
0.947448 0.093105 0.082807
0.960748 0.093807 0.082807
0.968792 0.094679 0.082807
0.975374 0.095584 0.082807
0.978685 0.096114 0.082807
0.981454 0.095977 0.082807
0.983444 0.095897 0.082807
0.984804 0.095609 0.082830
0.985658 0.093483 0.082917
0.986139 0.091738 0.083100
0.987057 0.088159 0.090691
0.987057 0.088159 0.090651
0.987057 0.088159 0.090648
0.987348 0.096410 0.090647
0.987348 0.096792 0.627698
0.084019 0.089838 0.082807
0.084019 0.089869 0.082807
0.084019 0.090129 0.082807
0.084019 0.090440 0.082807
0.084019 0.090694 0.082807
0.084019 0.090807 0.082807
0.084019 0.090791 0.082807
0.084454 0.090719 0.082807
0.086602 0.090132 0.082807
0.091866 0.090133 0.082807
0.113795 0.090861 0.082807
0.155397 0.090913 0.082807
0.234466 0.090880 0.082807
0.353825 0.091188 0.082807
0.575037 0.092549 0.082807
0.735521 0.093119 0.082807
0.836949 0.093677 0.082807
0.900521 0.094876 0.082807
0.936061 0.096442 0.082807
0.953706 0.096802 0.082807
0.964856 0.097543 0.082807
0.972527 0.099218 0.082807
0.977296 0.100926 0.082807
0.980334 0.101603 0.082807
0.982521 0.102552 0.082807
0.984447 0.101908 0.082839
0.985454 0.098571 0.082934
0.986013 0.096045 0.083114
0.987058 0.088159 0.090755
0.987057 0.088159 0.090658
0.987057 0.088159 0.090651
0.987348 0.096410 0.090648
0.987348 0.096792 0.627698
0.084019 0.091030 0.082807
0.084019 0.091060 0.082807
0.084019 0.091283 0.082807
0.084019 0.091967 0.082807
0.084019 0.092587 0.082807
0.084019 0.093076 0.082807
0.084019 0.093264 0.082807
0.084019 0.093169 0.082807
0.085279 0.092984 0.082807
0.088462 0.092882 0.082807
0.100958 0.094862 0.082807
0.123484 0.094754 0.082807
0.175938 0.094409 0.082807
0.264157 0.094988 0.082807
0.442460 0.096605 0.082807
0.609409 0.096950 0.082807
0.764120 0.097467 0.082807
0.860820 0.099237 0.082807
0.916444 0.102013 0.082807
0.942747 0.102996 0.082807
0.958525 0.104586 0.082807
0.968247 0.106448 0.082807
0.975700 0.108644 0.082807
0.979318 0.109105 0.082807
0.981840 0.110180 0.082807
0.983836 0.111373 0.082854
0.985186 0.109722 0.082957
0.985783 0.108394 0.083180
0.987073 0.088159 0.091523
0.987058 0.088159 0.090731
0.987057 0.088159 0.090671
0.987348 0.096411 0.090654
0.987348 0.096792 0.627698
0.084019 0.095012 0.082807
0.084019 0.095081 0.082807
0.084019 0.095461 0.082807
0.084019 0.096296 0.082807
0.084019 0.097080 0.082807
0.084019 0.098150 0.082807
0.084019 0.098745 0.082807
0.084019 0.098876 0.082807
0.084644 0.098698 0.082807
0.087173 0.098413 0.082807
0.094656 0.102164 0.082807
0.109634 0.101689 0.082807
0.137162 0.100542 0.082807
0.209931 0.101256 0.082807
0.325318 0.104253 0.082807
0.485566 0.104599 0.082807
0.654297 0.105081 0.082807
0.798866 0.107627 0.082807
0.885143 0.112464 0.082807
0.927227 0.114045 0.082807
0.949367 0.116001 0.082807
0.962931 0.120804 0.082807
0.971795 0.127743 0.082807
0.977604 0.129221 0.082807
0.980767 0.130044 0.082807
0.983138 0.131705 0.082872
0.984986 0.126041 0.082967
0.985657 0.122194 0.083174
0.986320 0.114346 0.083542
0.986763 0.107753 0.084073
0.987195 0.094789 0.089807
0.987348 0.096418 0.091971
0.987348 0.096792 0.627698
0.084019 0.106308 0.082807
0.084019 0.106505 0.082807
0.084019 0.107503 0.082807
0.084019 0.110419 0.082807
0.084019 0.113200 0.082807
0.084019 0.116264 0.082807
0.084019 0.119008 0.082807
0.084019 0.120243 0.082807
0.084636 0.120366 0.082807
0.086913 0.119727 0.082807
0.091291 0.118979 0.082807
0.100836 0.117008 0.082807
0.119001 0.113496 0.082807
0.164412 0.114416 0.082807
0.254421 0.122115 0.082807
0.364342 0.121795 0.082807
0.541690 0.121736 0.082807
0.712235 0.126361 0.082807
0.840118 0.138432 0.082807
0.902606 0.139712 0.082807
0.937110 0.144325 0.082807
0.955347 0.153172 0.082807
0.967264 0.159779 0.082807
0.975750 0.161928 0.082807
0.979328 0.167177 0.082807
0.981983 0.175105 0.082898
0.984629 0.166173 0.082992
0.985458 0.158856 0.083191
0.986196 0.144069 0.083525
0.986695 0.126106 0.084055
0.987174 0.097230 0.085858
0.987348 0.096440 0.099432
0.987348 0.096449 0.102965
0.084019 0.125916 0.082807
0.084019 0.126390 0.082807
0.084019 0.128658 0.082807
0.084019 0.134939 0.082807
0.084019 0.140956 0.082807
0.084019 0.148338 0.082807
0.084019 0.154789 0.082807
0.084019 0.158218 0.082807
0.084350 0.159719 0.082807
0.086042 0.159616 0.082807
0.088998 0.158374 0.082807
0.095942 0.157165 0.082807
0.108234 0.148263 0.082807
0.134534 0.150163 0.082807
0.213344 0.163862 0.082807
0.291075 0.161292 0.082807
0.425030 0.160002 0.082807
0.601546 0.165693 0.082807
0.771093 0.181096 0.082807
0.864105 0.181584 0.082807
0.916492 0.188659 0.082807
0.944888 0.196623 0.082807
0.961316 0.207409 0.082807
0.971536 0.213379 0.082807
0.977673 0.216830 0.082839
0.980956 0.224159 0.082929
0.983907 0.222013 0.083031
0.985157 0.222881 0.083237
0.985981 0.207637 0.083569
0.986576 0.180064 0.084042
0.987123 0.109225 0.084153
0.987348 0.096442 0.099480
0.987348 0.096458 0.105222
0.084019 0.160241 0.082807
0.084019 0.160698 0.082807
0.084019 0.162791 0.082807
0.084019 0.168882 0.082807
0.084019 0.178392 0.082807
0.084019 0.189101 0.082807
0.084019 0.196840 0.082807
0.084019 0.202331 0.082807
0.084136 0.206234 0.082807
0.085300 0.207593 0.082807
0.087588 0.207000 0.082807
0.091977 0.204868 0.082807
0.101744 0.203513 0.082807
0.120918 0.204776 0.082807
0.174618 0.228107 0.082807
0.241698 0.222040 0.082807
0.334213 0.217536 0.082807
0.508106 0.225329 0.082807
0.687785 0.244790 0.082807
0.809415 0.243729 0.082807
0.886316 0.247796 0.082807
0.930943 0.256520 0.082807
0.952621 0.268516 0.082807
0.966578 0.269691 0.082808
0.975497 0.277815 0.082881
0.979348 0.295282 0.082966
0.982934 0.285946 0.083084
0.984880 0.281627 0.083291
0.985787 0.273156 0.083609
0.986414 0.263884 0.084055
0.986915 0.251504 0.084707
0.987348 0.096458 0.099541
0.987348 0.096478 0.111420
0.084019 0.220329 0.082807
0.084019 0.221029 0.082807
0.084019 0.224093 0.082807
0.084019 0.232127 0.082807
0.084019 0.245875 0.082807
0.084019 0.254728 0.082807
0.084019 0.263383 0.082807
0.084019 0.271460 0.082807
0.084078 0.278237 0.082807
0.085077 0.282379 0.082807
0.087177 0.283428 0.082807
0.090930 0.282294 0.082807
0.097849 0.279429 0.082807
0.112640 0.277053 0.082807
0.147473 0.306202 0.082807
0.207175 0.300149 0.082807
0.276936 0.289921 0.082807
0.400204 0.297810 0.082807
0.590908 0.316434 0.082807
0.745703 0.314336 0.082807
0.846579 0.317742 0.082807
0.908221 0.328456 0.082807
0.941798 0.340987 0.082807
0.960319 0.345069 0.082857
0.971031 0.357042 0.082926
0.977664 0.367272 0.083022
0.981697 0.368319 0.083145
0.984275 0.374609 0.083367
0.985538 0.361718 0.083662
0.986278 0.342625 0.084054
0.986845 0.322212 0.084549
0.987208 0.297495 0.086141
0.987427 0.273485 0.119897
0.084019 0.315635 0.082807
0.084019 0.316282 0.082807
0.084019 0.318981 0.082807
0.084019 0.325647 0.082807
0.084019 0.340553 0.082807
0.084019 0.353259 0.082807
0.084019 0.370458 0.082807
0.084019 0.384223 0.082807
0.084169 0.394897 0.082807
0.085148 0.401060 0.082807
0.087182 0.404027 0.082807
0.090479 0.404230 0.082807
0.096784 0.402705 0.082807
0.109345 0.400567 0.082807
0.130499 0.398481 0.082807
0.176074 0.388356 0.082807
0.238533 0.379242 0.082807
0.331744 0.384718 0.082807
0.509067 0.405903 0.082807
0.654195 0.401345 0.082807
0.781824 0.404201 0.082807
0.876781 0.415890 0.082807
0.926744 0.429410 0.082856
0.950837 0.435932 0.082908
0.965722 0.444251 0.082971
0.975385 0.460836 0.083100
0.980222 0.462377 0.083236
0.983392 0.463062 0.083452
0.985234 0.463012 0.083738
0.986059 0.460988 0.084058
0.986730 0.432390 0.084512
0.987156 0.393211 0.085678
0.987423 0.305288 0.111742
0.084019 0.396886 0.082807
0.084019 0.397575 0.082807
0.084019 0.400390 0.082807
0.084019 0.407070 0.082807
0.084019 0.421305 0.082807
0.084019 0.437069 0.082807
0.084019 0.457156 0.082807
0.084019 0.470279 0.082807
0.084121 0.481367 0.082807
0.084982 0.489273 0.082807
0.086628 0.493307 0.082807
0.089039 0.494844 0.082807
0.094253 0.494930 0.082807
0.103724 0.493247 0.082807
0.120553 0.491529 0.082807
0.152482 0.489859 0.082807
0.210671 0.480958 0.082807
0.282678 0.484871 0.082807
0.419318 0.504069 0.082807
0.572626 0.498633 0.082807
0.723381 0.499039 0.082807
0.836486 0.509118 0.082844
0.904665 0.520942 0.082911
0.939814 0.524565 0.082959
0.959479 0.533059 0.083049
0.970877 0.546880 0.083184
0.978490 0.547933 0.083346
0.982126 0.554917 0.083560
0.984876 0.554357 0.083829
0.985868 0.547992 0.084065
0.986595 0.542474 0.084530
0.987057 0.539168 0.085695
0.987398 0.413366 0.094696
0.084019 0.485016 0.082807
0.084019 0.485620 0.082807
0.084019 0.488038 0.082807
0.084019 0.493574 0.082807
0.084019 0.504855 0.082807
0.084019 0.520617 0.082807
0.084019 0.533494 0.082807
0.084019 0.546718 0.082807
0.084100 0.557901 0.082807
0.084841 0.566326 0.082807
0.086268 0.572025 0.082807
0.088059 0.575046 0.082807
0.092284 0.576196 0.082807
0.099813 0.575792 0.082807
0.113591 0.574292 0.082807
0.135537 0.572792 0.082807
0.182834 0.571655 0.082807
0.247172 0.575103 0.082807
0.350514 0.592905 0.082807
0.496912 0.586480 0.082807
0.641243 0.586358 0.082840
0.778276 0.594799 0.082902
0.874031 0.605392 0.082967
0.924172 0.606990 0.083035
0.949946 0.613080 0.083140
0.965601 0.621112 0.083313
0.976250 0.624406 0.083465
0.980727 0.627997 0.083682
0.984304 0.630162 0.083932
0.985581 0.632077 0.084075
0.986448 0.626571 0.084555
0.986991 0.619527 0.085496
0.987335 0.619550 0.088555
0.084019 0.575080 0.082807
0.084019 0.575652 0.082807
0.084019 0.577897 0.082807
0.084019 0.582848 0.082807
0.084019 0.592481 0.082807
0.084019 0.608085 0.082807
0.084019 0.614808 0.082807
0.084019 0.625305 0.082807
0.084164 0.633218 0.082807
0.084847 0.639478 0.082807
0.086161 0.644546 0.082807
0.087721 0.647765 0.082807
0.091467 0.649599 0.082807
0.097777 0.649724 0.082807
0.109075 0.649411 0.082807
0.126188 0.648488 0.082807
0.165452 0.647487 0.082807
0.223543 0.647045 0.082807
0.305888 0.659254 0.082821
0.420100 0.654451 0.082855
0.571671 0.653299 0.082899
0.725653 0.658857 0.082959
0.836815 0.666150 0.083056
0.902729 0.667323 0.083131
0.939271 0.675199 0.083265
0.959658 0.685050 0.083446
0.972542 0.689822 0.083603
0.979042 0.695248 0.083812
0.983132 0.702851 0.084047
0.985300 0.701051 0.084119
0.986273 0.702037 0.084624
0.986883 0.706243 0.085453
0.987299 0.697695 0.087532
0.084019 0.654840 0.082807
0.084019 0.655251 0.082807
0.084019 0.656829 0.082807
0.084019 0.660176 0.082807
0.084019 0.666449 0.082807
0.084019 0.680289 0.082807
0.084019 0.691118 0.082807
0.084019 0.704323 0.082807
0.084281 0.714919 0.082807
0.085010 0.725491 0.082807
0.086325 0.733217 0.082807
0.087812 0.738710 0.082807
0.091370 0.741647 0.082807
0.097111 0.743061 0.082807
0.107085 0.742940 0.082807
0.123249 0.742561 0.082807
0.153588 0.741631 0.082807
0.209691 0.740267 0.082833
0.270802 0.740206 0.082884
0.357276 0.733697 0.082915
0.508241 0.732305 0.082957
0.654123 0.738241 0.083044
0.782112 0.747216 0.083155
0.873529 0.748020 0.083257
0.924323 0.754745 0.083406
0.950833 0.765310 0.083594
0.967462 0.769743 0.083751
0.976934 0.778041 0.083950
0.981915 0.783649 0.084067
0.984928 0.787749 0.084264
0.986071 0.791882 0.084721
0.986796 0.790730 0.085433
0.987251 0.798760 0.087178
0.084019 0.728256 0.082807
0.084019 0.728739 0.082807
0.084019 0.730582 0.082807
0.084019 0.734430 0.082807
0.084019 0.741396 0.082807
0.084019 0.753450 0.082807
0.084019 0.766560 0.082807
0.084019 0.777304 0.082807
0.084317 0.790092 0.082807
0.084998 0.798409 0.082807
0.086134 0.801784 0.082807
0.087611 0.804564 0.082807
0.090757 0.806442 0.082807
0.095313 0.807500 0.082807
0.103562 0.807978 0.082807
0.117852 0.807854 0.082807
0.141028 0.807664 0.082831
0.184190 0.807468 0.082880
0.241152 0.807082 0.082925
0.318226 0.807312 0.082974
0.440430 0.806192 0.083039
0.587501 0.808933 0.083144
0.741589 0.812509 0.083298
0.839867 0.812756 0.083403
0.904708 0.815421 0.083553
0.940820 0.819611 0.083753
0.961704 0.821655 0.083899
0.973972 0.825559 0.084057
0.980387 0.828504 0.084090
0.984348 0.831334 0.084417
0.985848 0.833031 0.084825
0.986673 0.836244 0.085485
0.987208 0.839980 0.086847
0.084019 0.803329 0.082807
0.084019 0.803534 0.082807
0.084019 0.804308 0.082807
0.084019 0.805891 0.082807
0.084019 0.808672 0.082807
0.084019 0.813315 0.082807
0.084019 0.819888 0.082807
0.084019 0.823718 0.082807
0.084399 0.829989 0.082807
0.084996 0.833531 0.082807
0.086102 0.837671 0.082807
0.087571 0.840901 0.082807
0.090095 0.842719 0.082807
0.094233 0.843862 0.082807
0.101249 0.844606 0.082807
0.113635 0.844871 0.082839
0.130372 0.844712 0.082885
0.168040 0.844520 0.082932
0.221623 0.844531 0.082981
0.282409 0.844406 0.083055
0.374321 0.844833 0.083139
0.528790 0.846520 0.083277
0.676224 0.849834 0.083443
0.797828 0.850141 0.083554
0.878707 0.852199 0.083718
0.928175 0.855917 0.083912
0.954251 0.857821 0.084047
0.969264 0.861021 0.084075
0.978547 0.864635 0.084278
0.983269 0.866991 0.084570
0.985564 0.870456 0.084948
0.986551 0.872524 0.085554
0.987158 0.876383 0.086717
0.084019 0.842406 0.082807
0.084019 0.842595 0.082807
0.084019 0.843299 0.082807
0.084019 0.844710 0.082807
0.084019 0.847117 0.082807
0.084019 0.851001 0.082807
0.084019 0.857145 0.082807
0.084109 0.860901 0.082807
0.084464 0.865685 0.082807
0.085110 0.869955 0.082807
0.086219 0.873310 0.082807
0.087540 0.875156 0.082807
0.089780 0.876761 0.082807
0.093660 0.877192 0.082815
0.100028 0.877406 0.082861
0.110698 0.877537 0.082909
0.125164 0.877558 0.082954
0.154439 0.877536 0.083013
0.203752 0.877490 0.083092
0.259616 0.877533 0.083175
0.340422 0.877561 0.083298
0.471224 0.877705 0.083423
0.612482 0.878333 0.083598
0.756419 0.878448 0.083714
0.851058 0.878866 0.083875
0.910492 0.880642 0.084053
0.944952 0.882105 0.084071
0.963981 0.884111 0.084207
0.976394 0.886615 0.084467
0.981956 0.888495 0.084733
0.985246 0.890926 0.085081
0.986404 0.893234 0.085650
0.987100 0.897834 0.086662
0.084019 0.877175 0.082807
0.084019 0.877225 0.082807
0.084019 0.877390 0.082807
0.084019 0.877707 0.082807
0.084019 0.878234 0.082807
0.084019 0.879061 0.082807
0.084019 0.882487 0.082807
0.084245 0.885612 0.082807
0.084582 0.888266 0.082807
0.085261 0.891618 0.082807
0.086264 0.893692 0.082807
0.087561 0.895902 0.082807
0.089782 0.897704 0.082843
0.093197 0.898658 0.082887
0.098963 0.899319 0.082930
0.108195 0.899737 0.082976
0.122163 0.899958 0.083052
0.147298 0.899999 0.083132
0.189296 0.899960 0.083233
0.242766 0.899889 0.083355
0.312813 0.900099 0.083478
0.421508 0.900377 0.083616
0.563794 0.900916 0.083760
0.698495 0.901220 0.083870
0.811796 0.902152 0.084024
0.888687 0.904012 0.084073
0.935042 0.905581 0.084164
0.958254 0.907508 0.084404
0.973082 0.910085 0.084654
0.980423 0.912367 0.084901
0.984870 0.914837 0.085243
0.986228 0.917938 0.085768
0.987051 0.922180 0.086646
0.084019 0.899429 0.082807
0.084019 0.899532 0.082807
0.084019 0.899911 0.082807
0.084019 0.900651 0.082807
0.084019 0.901871 0.082807
0.084019 0.903755 0.082807
0.084058 0.906676 0.082807
0.084341 0.910190 0.082807
0.084673 0.912366 0.082807
0.085301 0.915523 0.082807
0.086263 0.917630 0.082807
0.087547 0.919933 0.082846
0.089299 0.921341 0.082888
0.092432 0.922649 0.082933
0.097775 0.923504 0.082980
0.105574 0.923888 0.083049
0.118599 0.924121 0.083129
0.138910 0.924206 0.083227
0.175568 0.924233 0.083349
0.225584 0.924243 0.083467
0.283616 0.924332 0.083600
0.367046 0.924631 0.083739
0.509660 0.925192 0.083880
0.639558 0.926008 0.084019
0.769899 0.926613 0.084068
0.862824 0.927636 0.084187
0.919660 0.928629 0.084361
0.949468 0.929563 0.084593
0.968277 0.930969 0.084826
0.978669 0.932346 0.085077
0.984245 0.933838 0.085415
0.986037 0.935414 0.085874
0.986993 0.938050 0.086672
0.084019 0.924516 0.082807
0.084019 0.924619 0.082807
0.084019 0.924996 0.082807
0.084019 0.925723 0.082807
0.084019 0.926897 0.082807
0.084019 0.927913 0.082807
0.084159 0.929395 0.082807
0.084450 0.931545 0.082807
0.084804 0.932595 0.082807
0.085345 0.934045 0.082820
0.086368 0.935476 0.082862
0.087512 0.936439 0.082902
0.089181 0.937363 0.082944
0.092036 0.938072 0.082998
0.096645 0.938494 0.083069
0.103903 0.938798 0.083146
0.115944 0.938959 0.083253
0.131517 0.938997 0.083374
0.165269 0.939005 0.083491
0.212924 0.939016 0.083628
0.261500 0.939059 0.083764
0.337146 0.939182 0.083899
0.458513 0.939380 0.084031
0.587872 0.939797 0.084068
0.728167 0.940335 0.084123
0.830901 0.940926 0.084384
0.901869 0.942041 0.084548
0.940225 0.942708 0.084767
0.962994 0.944001 0.084993
0.976592 0.945260 0.085258
0.983137 0.946545 0.085589
0.985823 0.947768 0.085992
0.986928 0.949695 0.086714
0.084019 0.939583 0.082807
0.084019 0.939637 0.082807
0.084019 0.939833 0.082807
0.084019 0.940209 0.082807
0.084019 0.940804 0.082807
0.084085 0.941679 0.082807
0.084259 0.942923 0.082807
0.084528 0.944674 0.082814
0.084950 0.945873 0.082848
0.085462 0.946795 0.082882
0.086531 0.948021 0.082928
0.087523 0.948620 0.082962
0.089262 0.949386 0.083027
0.091597 0.949803 0.083098
0.096185 0.950204 0.083179
0.102845 0.950441 0.083296
0.113396 0.950571 0.083413
0.126861 0.950615 0.083535
0.153616 0.950602 0.083674
0.195540 0.950599 0.083811
0.245638 0.950617 0.083946
0.311540 0.950690 0.084055
0.409067 0.950817 0.084073
0.545943 0.951019 0.084169
0.675041 0.951409 0.084370
0.793353 0.951889 0.084568
0.878365 0.952914 0.084722
0.928697 0.953304 0.084936
0.956894 0.954119 0.085166
0.973466 0.954897 0.085438
0.981795 0.955890 0.085744
0.985574 0.956982 0.086111
0.986885 0.958557 0.086778
0.084019 0.953763 0.082807
0.084019 0.953790 0.082807
0.084019 0.953889 0.082807
0.084019 0.954075 0.082807
0.084062 0.954366 0.082807
0.084165 0.954785 0.082807
0.084318 0.955369 0.082817
0.084580 0.956183 0.082854
0.085038 0.956993 0.082893
0.085503 0.957532 0.082923
0.086429 0.958230 0.082964
0.087506 0.958772 0.083021
0.088807 0.959180 0.083092
0.091387 0.959510 0.083167
0.095296 0.959717 0.083281
0.101008 0.959850 0.083394
0.110612 0.959932 0.083512
0.123075 0.959941 0.083650
0.145673 0.959902 0.083783
0.182417 0.959869 0.083915
0.230074 0.959866 0.084046
0.285453 0.959906 0.084069
0.364619 0.960008 0.084120
0.497544 0.960187 0.084308
