LUTs/kodachrome64/Kodachrome64_Classic_IlfochromeP.cube
TITLE "Kodachrome 64 Classic IlfochromeP"
# Adobe RGB in/out. REPLACES AgX. Kodachrome 64 Classic IlfochromeP.
LUT_3D_SIZE 5
DOMAIN_MIN 0.0 0.0 0.0
DOMAIN_MAX 1.0 1.0 1.0
0.138776 0.101263 0.100261
0.333968 0.117838 0.103513
0.813186 0.157615 0.110735
0.936530 0.187760 0.132336
0.957212 0.239146 0.528847
0.139031 0.201149 0.104023
0.160261 0.216509 0.106797
0.596022 0.242741 0.115080
0.922597 0.277955 0.133669
0.957213 0.239153 0.528842
0.142556 0.469501 0.112989
0.152276 0.504152 0.117996
0.314365 0.510965 0.129547
0.816374 0.532424 0.148664
0.957124 0.536830 0.225994
0.149410 0.772649 0.130223
0.157639 0.787321 0.135245
0.243887 0.799691 0.151215
0.574622 0.802153 0.169925
0.954326 0.820947 0.208608
0.152007 0.906251 0.138895
0.162249 0.936107 0.138927
0.197573 0.941743 0.162818
0.409961 0.937442 0.182658
0.956295 0.943452 0.199590
0.138890 0.114370 0.191143
0.319257 0.130133 0.256668
0.831591 0.170579 0.258123
0.936260 0.202682 0.291511
0.957213 0.239154 0.528900
0.140995 0.193774 0.176092
0.222409 0.230242 0.216730
0.729935 0.255558 0.227245
0.926989 0.287083 0.258248
0.957213 0.239153 0.528843
0.148496 0.449830 0.183473
0.169499 0.474585 0.194541
0.412552 0.496995 0.215880
0.871830 0.531648 0.240921
0.957047 0.546581 0.369774
0.155866 0.759017 0.194532
0.167869 0.771454 0.202362
0.287371 0.786860 0.223160
0.665631 0.796123 0.247962
0.955169 0.820092 0.288736
0.153013 0.911140 0.199680
0.163167 0.939816 0.199677
0.210236 0.939832 0.208503
0.434012 0.936309 0.237456
0.958514 0.943231 0.254909
0.139025 0.147651 0.480707
0.246992 0.175413 0.632844
0.802841 0.213387 0.633067
0.932581 0.249333 0.667404
0.957213 0.244208 0.763561
0.143807 0.229305 0.475762
0.211680 0.255421 0.547485
0.728818 0.287326 0.578258
0.925276 0.321563 0.626028
0.957213 0.243563 0.748813
0.158508 0.450783 0.431075
0.194655 0.472298 0.457416
0.509260 0.515378 0.505836
0.891908 0.544507 0.539607
0.956772 0.579020 0.705801
0.168413 0.750651 0.417053
0.190832 0.760683 0.428645
0.353664 0.777244 0.460239
0.773888 0.793262 0.489436
0.955812 0.823937 0.596004
0.158685 0.931482 0.455312
0.161471 0.939140 0.455310
0.241873 0.936243 0.423405
0.488928 0.935229 0.445085
0.959383 0.944944 0.493345
0.139863 0.204819 0.804193
0.191251 0.240438 0.842117
0.774567 0.275839 0.846099
0.929267 0.306615 0.851940
0.957212 0.253472 0.865192
0.145127 0.278013 0.805190
0.197516 0.305463 0.830814
0.721119 0.338204 0.839403
0.923439 0.368573 0.847400
0.957210 0.253021 0.862912
0.165472 0.486395 0.772587
0.210260 0.508330 0.797088
0.543222 0.541725 0.817970
0.898647 0.575209 0.831087
0.956584 0.616975 0.859907
0.177411 0.760771 0.727671
0.207943 0.769571 0.742510
0.393848 0.786057 0.777307
0.815422 0.802025 0.802223
0.956134 0.834343 0.846202
0.159129 0.933749 0.595765
0.162573 0.942614 0.596590
0.246305 0.940500 0.690189
0.503989 0.939485 0.720306
0.959595 0.949628 0.809156
0.180045 0.259453 0.926853
0.431614 0.268431 0.926938
0.876048 0.294453 0.927328
0.942357 0.310133 0.928226
0.957213 0.287218 0.923346
0.199139 0.308172 0.926659
0.411849 0.317593 0.926777
0.866455 0.343765 0.927244
0.941118 0.359785 0.928203
0.957213 0.293753 0.926535
0.225799 0.510770 0.926088
0.347029 0.519089 0.926417
0.809729 0.541752 0.927135
0.934662 0.560599 0.928282
0.958192 0.583162 0.930972
0.196282 0.777081 0.926441
0.252271 0.780988 0.927017
0.609457 0.790424 0.928063
0.915390 0.799945 0.929347
0.958641 0.824846 0.931669
0.157153 0.929497 0.853480
0.163168 0.945617 0.887096
0.201483 0.954506 0.927900
0.472757 0.949870 0.931802
0.959834 0.956533 0.932646
