LUTs/provia100f/Provia100F_Classic_Normal.cube
TITLE "Fuji Provia 100F Classic Normal"
# Adobe RGB in/out. REPLACES AgX. Fuji Provia 100F Classic Normal.
LUT_3D_SIZE 5
DOMAIN_MIN 0.0 0.0 0.0
DOMAIN_MAX 1.0 1.0 1.0
0.082825 0.083895 0.090792
0.146113 0.083895 0.090792
0.887229 0.085014 0.090791
0.962984 0.089134 0.090861
0.971244 0.377815 0.538475
0.082825 0.088021 0.090792
0.085652 0.092057 0.090792
0.693143 0.106453 0.090799
0.957455 0.149194 0.090878
0.971244 0.377848 0.538468
0.082825 0.441376 0.090791
0.083551 0.491799 0.090799
0.236410 0.557076 0.090850
0.918699 0.626616 0.091061
0.970842 0.744371 0.097607
0.082790 0.859201 0.090802
0.083212 0.870855 0.090834
0.113148 0.900596 0.090998
0.727389 0.919115 0.091437
0.969334 0.933190 0.093459
0.082825 0.944269 0.090791
0.082825 0.955632 0.090791
0.085850 0.964123 0.090836
0.360721 0.964618 0.091111
0.970239 0.966827 0.091344
0.082825 0.083895 0.092583
0.111046 0.083895 0.113295
0.900526 0.085750 0.105920
0.962850 0.092171 0.134473
0.971244 0.377848 0.538543
0.082778 0.087529 0.091906
0.106873 0.096176 0.093990
0.804670 0.108584 0.095153
0.959037 0.154278 0.102904
0.971244 0.377848 0.538470
0.083108 0.410428 0.091898
0.086277 0.466454 0.092761
0.391179 0.531199 0.094172
0.937164 0.617631 0.098385
0.970806 0.751034 0.275288
0.083158 0.856047 0.091727
0.084649 0.863810 0.092456
0.173712 0.890908 0.094324
0.824768 0.912384 0.100268
0.969679 0.933142 0.120296
0.082825 0.945967 0.090934
0.082825 0.957526 0.090934
0.087595 0.963431 0.091297
0.421938 0.964157 0.093413
0.970768 0.966720 0.095301
0.082825 0.084038 0.507169
0.106239 0.085335 0.711103
0.873300 0.089309 0.714645
0.961299 0.107389 0.748711
0.971244 0.377848 0.810151
0.082889 0.092572 0.500136
0.100168 0.102387 0.618295
0.797578 0.127417 0.663020
0.958281 0.196892 0.717430
0.971244 0.377857 0.793057
0.084448 0.413223 0.441541
0.093079 0.465673 0.472997
0.555356 0.554505 0.558700
0.945488 0.626199 0.617421
0.970676 0.773222 0.785996
0.084955 0.853487 0.405986
0.089480 0.858837 0.434893
0.282378 0.883418 0.484522
0.896642 0.907858 0.539813
0.969941 0.934185 0.701620
0.082825 0.951953 0.468782
0.082825 0.956228 0.468777
0.099344 0.962037 0.399009
0.552699 0.963427 0.459994
0.971095 0.967015 0.538536
0.082825 0.086364 0.893845
0.091355 0.092649 0.910672
0.842728 0.109012 0.912862
0.959880 0.153265 0.917352
0.971244 0.377790 0.919710
0.082934 0.107076 0.894920
0.093736 0.129302 0.907178
0.784501 0.185094 0.910293
0.957468 0.268411 0.915538
0.971243 0.377283 0.916538
0.085777 0.477735 0.877149
0.100003 0.514400 0.889498
0.592030 0.587247 0.904091
0.947994 0.657041 0.908291
0.970574 0.798555 0.925059
0.086282 0.857545 0.858746
0.094188 0.866043 0.864899
0.347217 0.889281 0.880664
0.915089 0.914184 0.894727
0.970061 0.936249 0.919439
0.082825 0.952675 0.809082
0.082825 0.957638 0.809808
0.101589 0.963001 0.857281
0.580851 0.964324 0.864935
0.971168 0.968119 0.901865
0.085968 0.092015 0.973375
0.209507 0.095911 0.973379
0.930748 0.108470 0.973411
0.964878 0.126386 0.973551
0.971244 0.397636 0.972807
0.089946 0.117055 0.973057
0.224027 0.127372 0.973106
0.923757 0.168655 0.973284
0.964366 0.212542 0.973489
0.971244 0.408028 0.973609
0.105087 0.510047 0.972197
0.229642 0.525749 0.972377
0.884245 0.572802 0.972752
0.961671 0.623917 0.973352
0.971207 0.795409 0.973925
0.090715 0.870171 0.972112
0.120063 0.875609 0.972381
0.680204 0.890131 0.972899
0.953576 0.907492 0.973414
0.971111 0.935438 0.973891
0.082825 0.949940 0.945965
0.082825 0.958398 0.955507
0.085925 0.967627 0.970471
0.505472 0.967181 0.973816
0.971244 0.969590 0.974044
