LUTs/provia100f/Provia100F_Classic_Punchy.cube
TITLE "Fuji Provia 100F Classic Punchy"
# Adobe RGB in/out. REPLACES AgX. Fuji Provia 100F Classic Punchy.
LUT_3D_SIZE 33
DOMAIN_MIN 0.0 0.0 0.0
DOMAIN_MAX 1.0 1.0 1.0
0.086435 0.087824 0.082231
0.086435 0.087824 0.082231
0.086435 0.087824 0.082231
0.086404 0.087824 0.082231
0.087571 0.087824 0.082231
0.089255 0.087824 0.082231
0.097029 0.087824 0.082231
0.122268 0.087824 0.082231
0.155421 0.087824 0.082231
0.226416 0.087824 0.082231
0.336263 0.087824 0.082231
0.460287 0.087857 0.082231
0.570010 0.087891 0.082231
0.690886 0.087943 0.082230
0.800863 0.088081 0.082230
0.861025 0.088160 0.082229
0.897953 0.088354 0.082229
0.921143 0.088672 0.082232
0.937755 0.089156 0.082242
0.948098 0.089483 0.082249
0.956651 0.089901 0.082255
0.961480 0.090365 0.082280
0.965116 0.090760 0.082306
0.968557 0.090914 0.082328
0.971034 0.091102 0.082354
0.973178 0.091244 0.082459
0.975580 0.090886 0.082570
0.976323 0.090837 0.083151
0.977669 0.090247 0.154115
0.977668 0.090242 0.154053
0.977668 0.090242 0.154050
0.977668 0.090242 0.154047
0.978148 0.368372 0.541112
0.086435 0.087824 0.082231
0.086435 0.087824 0.082231
0.086435 0.087824 0.082231
0.086377 0.087824 0.082231
0.088054 0.087824 0.082231
0.089785 0.087824 0.082231
0.097884 0.087824 0.082231
0.122961 0.087824 0.082231
0.155467 0.087824 0.082231
0.225356 0.087824 0.082231
0.333105 0.087824 0.082231
0.456309 0.087864 0.082231
0.565715 0.087896 0.082231
0.686203 0.087956 0.082230
0.798117 0.088092 0.082230
0.859361 0.088183 0.082229
0.896732 0.088379 0.082229
0.920533 0.088715 0.082233
0.937453 0.089195 0.082243
0.947864 0.089541 0.082249
0.956475 0.089956 0.082255
0.961407 0.090417 0.082280
0.965062 0.090809 0.082306
0.968519 0.090962 0.082328
0.971007 0.091148 0.082354
0.973158 0.091358 0.082458
0.975573 0.090932 0.082567
0.976319 0.090880 0.083127
0.977669 0.090247 0.154116
0.977668 0.090242 0.154053
0.977668 0.090242 0.154050
0.977668 0.090242 0.154047
0.978148 0.368380 0.541111
0.086435 0.087824 0.082231
0.086435 0.087824 0.082231
0.086435 0.087824 0.082231
0.086394 0.087824 0.082231
0.087619 0.087824 0.082231
0.091015 0.087824 0.082231
0.100050 0.087824 0.082231
0.128314 0.087824 0.082231
0.158654 0.087824 0.082231
0.222837 0.087824 0.082231
0.322878 0.087850 0.082231
0.436192 0.087887 0.082231
0.550420 0.087916 0.082231
0.669244 0.088003 0.082230
0.779908 0.088134 0.082230
0.853190 0.088286 0.082229
0.892191 0.088470 0.082229
0.918146 0.088870 0.082233
0.936327 0.089367 0.082243
0.946992 0.089754 0.082249
0.955816 0.090154 0.082256
0.961136 0.090604 0.082281
0.964864 0.090987 0.082307
0.968377 0.091135 0.082328
0.970906 0.091457 0.082353
0.973086 0.091802 0.082455
0.975545 0.091098 0.082558
0.976302 0.091035 0.083044
0.977669 0.090248 0.154121
0.977668 0.090242 0.154054
0.977668 0.090242 0.154050
0.977668 0.090242 0.154047
0.978148 0.368395 0.541108
0.086435 0.087824 0.082231
0.086435 0.087824 0.082231
0.086435 0.087824 0.082231
0.086435 0.087824 0.082231
0.086576 0.087824 0.082231
0.087873 0.087824 0.082231
0.095082 0.087824 0.082231
0.119534 0.087824 0.082231
0.151017 0.087824 0.082231
0.216040 0.087843 0.082231
0.308409 0.087905 0.082231
0.403332 0.087949 0.082231
0.513391 0.088008 0.082230
0.632530 0.088096 0.082230
0.765011 0.088307 0.082230
0.836157 0.088491 0.082229
0.883166 0.088794 0.082229
0.912898 0.089164 0.082234
0.933782 0.089803 0.082244
0.945245 0.090157 0.082250
0.954500 0.090529 0.082258
0.960594 0.090956 0.082283
0.964470 0.091473 0.082308
0.968095 0.091843 0.082329
0.970707 0.092308 0.082353
0.972944 0.092658 0.082450
0.975489 0.091712 0.082544
0.976268 0.091491 0.082932
0.977669 0.090249 0.154131
0.977668 0.090242 0.154055
0.977668 0.090242 0.154051
0.977668 0.090243 0.154048
0.978148 0.368404 0.541106
0.086435 0.087824 0.082231
0.086435 0.087824 0.082231
0.086435 0.087824 0.082231
0.086435 0.087824 0.082231
0.086372 0.087826 0.082231
0.087009 0.087824 0.082231
0.090122 0.087846 0.082231
0.102567 0.087897 0.082231
0.123629 0.087894 0.082231
0.183358 0.087916 0.082231
0.280496 0.088049 0.082231
0.360678 0.088105 0.082231
0.469105 0.088152 0.082230
0.588464 0.088362 0.082230
0.724033 0.088842 0.082229
0.806639 0.089080 0.082229
0.866308 0.089328 0.082229
0.903934 0.089840 0.082236
0.927772 0.090489 0.082245
0.942237 0.090787 0.082251
0.952240 0.091113 0.082261
0.959669 0.091959 0.082285
0.963799 0.092973 0.082310
0.967617 0.093402 0.082330
0.970370 0.093960 0.082354
0.972706 0.094363 0.082446
0.975396 0.093169 0.082529
0.976210 0.092785 0.082829
0.977669 0.090251 0.154151
0.977668 0.090243 0.154057
0.977668 0.090242 0.154052
0.977669 0.090250 0.154048
0.978148 0.368408 0.541105
0.086435 0.087852 0.082231
0.086435 0.087854 0.082231
0.086435 0.087868 0.082231
0.086435 0.087883 0.082231
0.086418 0.087896 0.082231
0.086521 0.087907 0.082231
0.087833 0.087991 0.082231
0.094530 0.088118 0.082231
0.105264 0.088084 0.082231
0.140955 0.088123 0.082231
0.234586 0.088385 0.082231
0.313145 0.088525 0.082230
0.410023 0.088694 0.082230
0.540083 0.089015 0.082230
0.673592 0.089634 0.082229
0.768524 0.090007 0.082229
0.838720 0.090390 0.082231
0.886302 0.090924 0.082239
0.917745 0.091910 0.082248
0.937248 0.092479 0.082253
0.948496 0.093359 0.082266
0.957715 0.094548 0.082289
0.962702 0.095625 0.082313
0.966836 0.095974 0.082332
0.969825 0.096433 0.082355
0.972321 0.096734 0.082443
0.975213 0.095668 0.082518
0.976116 0.095167 0.082733
0.977669 0.090255 0.154192
0.977668 0.090243 0.154062
0.977668 0.090242 0.154054
0.978148 0.368096 0.154050
0.978148 0.368410 0.541105
0.086435 0.088081 0.082231
0.086435 0.088084 0.082231
0.086435 0.088110 0.082231
0.086435 0.088146 0.082231
0.086424 0.088218 0.082231
0.086461 0.088306 0.082231
0.087436 0.088371 0.082231
0.091125 0.088935 0.082231
0.097084 0.088714 0.082231
0.115405 0.088834 0.082231
0.182690 0.089425 0.082230
0.256996 0.089656 0.082230
0.339199 0.089749 0.082230
0.469551 0.090156 0.082229
0.610382 0.090888 0.082229
0.721552 0.091233 0.082229
0.803485 0.091787 0.082235
0.866850 0.092970 0.082242
0.905819 0.095066 0.082250
0.928925 0.096024 0.082255
0.942803 0.097125 0.082273
0.953147 0.099394 0.082295
0.960876 0.101063 0.082318
0.965542 0.101492 0.082336
0.968931 0.102197 0.082357
0.971694 0.102771 0.082446
0.974769 0.100792 0.082517
0.975960 0.099617 0.082671
0.977669 0.090265 0.154290
0.977668 0.090244 0.154074
0.977668 0.090243 0.154060
0.978148 0.368390 0.154052
0.978148 0.368411 0.541104
0.086435 0.089212 0.082231
0.086435 0.089220 0.082231
0.086435 0.089370 0.082231
0.086435 0.089592 0.082231
0.086421 0.089859 0.082231
0.086448 0.090130 0.082231
0.087238 0.090350 0.082231
0.088971 0.090517 0.082231
0.092601 0.090139 0.082231
0.102243 0.090283 0.082231
0.140631 0.091087 0.082230
0.212391 0.091201 0.082230
0.277837 0.091212 0.082230
0.381986 0.092047 0.082229
0.549250 0.094126 0.082229
0.658615 0.094875 0.082234
0.761591 0.095598 0.082239
0.835047 0.096997 0.082245
0.888263 0.100439 0.082253
0.918474 0.101478 0.082263
0.937679 0.103109 0.082281
0.948986 0.105993 0.082302
0.958706 0.109914 0.082323
0.963710 0.112223 0.082341
0.967377 0.116254 0.082366
0.970615 0.117345 0.082459
0.973983 0.113785 0.082533
0.975682 0.111356 0.082661
0.977670 0.090305 0.154628
0.977669 0.090247 0.154112
0.977668 0.090244 0.154076
0.978148 0.368406 0.154059
0.978148 0.368411 0.541104
0.086435 0.090364 0.082231
0.086435 0.090373 0.082231
0.086435 0.090479 0.082231
0.086435 0.090688 0.082231
0.086435 0.090926 0.082231
0.086360 0.091164 0.082231
0.086607 0.091680 0.082231
0.087630 0.092171 0.082231
0.090647 0.092568 0.082230
0.096708 0.093063 0.082230
0.118286 0.095856 0.082230
0.164535 0.096081 0.082229
0.230348 0.095928 0.082229
0.314550 0.096705 0.082229
0.465060 0.100092 0.082234
0.585291 0.101066 0.082238
0.698991 0.102147 0.082243
0.794991 0.104536 0.082249
0.865681 0.109683 0.082259
0.903676 0.111797 0.082274
0.927474 0.115881 0.082290
0.943305 0.120344 0.082310
0.954787 0.126456 0.082330
0.962103 0.130455 0.082346
0.966262 0.135994 0.082383
0.969580 0.143016 0.082474
0.972972 0.146721 0.082557
0.975103 0.152960 0.082713
0.977695 0.091687 0.158586
0.977669 0.090289 0.154502
0.977669 0.090253 0.154181
0.978148 0.368410 0.154090
0.978148 0.368411 0.541104
0.086435 0.093264 0.082231
0.086435 0.093286 0.082231
0.086435 0.093516 0.082231
0.086435 0.094167 0.082231
0.086435 0.094880 0.082231
0.086370 0.095697 0.082231
0.086549 0.096442 0.082231
0.087469 0.097098 0.082230
0.089103 0.098126 0.082230
0.093210 0.099066 0.082230
0.106044 0.104552 0.082229
0.131769 0.104984 0.082229
0.186082 0.104291 0.082229
0.259593 0.106108 0.082230
0.373172 0.111986 0.082239
0.510272 0.113174 0.082243
0.622547 0.114571 0.082248
0.750946 0.119490 0.082253
0.833627 0.131265 0.082272
0.884246 0.135189 0.082285
0.916106 0.139322 0.082300
0.936804 0.148782 0.082319
0.949030 0.160126 0.082339
0.959595 0.164740 0.082353
0.964554 0.169367 0.082407
0.968428 0.176201 0.082492
0.972226 0.178759 0.082568
0.974622 0.184003 0.082715
0.976218 0.191314 0.082897
0.977062 0.204034 0.083788
0.977874 0.235445 0.119270
0.978148 0.368414 0.159845
0.978148 0.368412 0.541103
0.086435 0.103777 0.082231
0.086435 0.103814 0.082231
0.086435 0.104138 0.082231
0.086435 0.105880 0.082231
0.086422 0.107869 0.082231
0.086362 0.109937 0.082230
0.086558 0.112367 0.082230
0.087459 0.115280 0.082230
0.088902 0.118595 0.082230
0.092526 0.121424 0.082229
0.100485 0.124095 0.082229
0.117707 0.125251 0.082229
0.151572 0.122853 0.082230
0.222483 0.127153 0.082236
0.313375 0.141067 0.082244
0.426014 0.142366 0.082248
0.554565 0.143757 0.082252
0.678946 0.151114 0.082262
0.787020 0.166543 0.082285
0.859232 0.169484 0.082298
0.900814 0.176259 0.082312
0.926370 0.188670 0.082329
0.943401 0.198023 0.082347
0.955739 0.203455 0.082367
0.962353 0.216216 0.082436
0.966583 0.234225 0.082517
0.971038 0.234515 0.082587
0.973871 0.238491 0.082730
0.975952 0.244016 0.082891
0.976913 0.252730 0.083348
0.977827 0.252566 0.093026
0.978148 0.368417 0.179171
0.978148 0.368425 0.186495
0.086435 0.120310 0.082231
0.086435 0.120391 0.082231
0.086435 0.121016 0.082231
0.086435 0.123801 0.082231
0.086422 0.128087 0.082230
0.086366 0.133539 0.082230
0.086527 0.139040 0.082230
0.087223 0.144662 0.082230
0.088169 0.150403 0.082229
0.091201 0.155744 0.082229
0.096593 0.160371 0.082229
0.108043 0.164755 0.082233
0.128576 0.160451 0.082236
0.184714 0.166555 0.082242
0.265451 0.184810 0.082250
0.350066 0.185027 0.082253
0.473905 0.186257 0.082260
0.604130 0.194681 0.082277
0.744752 0.213515 0.082299
0.821846 0.216575 0.082310
0.879384 0.227594 0.082324
0.913962 0.241755 0.082340
0.936545 0.255664 0.082358
0.949787 0.263763 0.082404
0.960032 0.270691 0.082469
0.965005 0.285896 0.082544
0.969697 0.299097 0.082617
0.972767 0.312633 0.082761
0.975497 0.321728 0.082917
0.976655 0.325242 0.083225
0.977713 0.300335 0.085717
0.978148 0.368428 0.179273
0.978148 0.368442 0.193586
0.086435 0.149520 0.082231
0.086435 0.149627 0.082231
0.086435 0.150395 0.082231
0.086435 0.153582 0.082230
0.086419 0.158620 0.082230
0.086370 0.164889 0.082230
0.086491 0.171327 0.082230
0.086957 0.178323 0.082229
0.087658 0.185700 0.082229
0.089629 0.192644 0.082229
0.093543 0.198479 0.082232
0.101238 0.203338 0.082237
0.118151 0.209469 0.082242
0.154589 0.218621 0.082247
0.232010 0.247529 0.082255
0.300615 0.247349 0.082265
0.397029 0.247541 0.082275
0.537461 0.256387 0.082292
0.676075 0.274644 0.082313
0.773682 0.276394 0.082323
0.852761 0.287664 0.082335
0.898922 0.305678 0.082351
0.926157 0.323300 0.082393
0.943931 0.328710 0.082442
0.955968 0.341744 0.082505
0.962637 0.364865 0.082577
0.968166 0.370205 0.082663
0.971793 0.382853 0.082794
0.974936 0.401604 0.082941
0.976308 0.425582 0.083291
0.977257 0.473958 0.084189
0.978148 0.368590 0.179405
0.978148 0.368556 0.204122
0.086435 0.196840 0.082230
0.086435 0.196961 0.082230
0.086435 0.197725 0.082230
0.086435 0.200627 0.082230
0.086409 0.208361 0.082230
0.086366 0.216551 0.082230
0.086485 0.226345 0.082229
0.086858 0.237926 0.082229
0.087562 0.247967 0.082229
0.089130 0.255753 0.082233
0.092172 0.263236 0.082238
0.098470 0.270146 0.082243
0.110644 0.276318 0.082248
0.135257 0.285378 0.082252
0.200604 0.318870 0.082270
0.260613 0.319055 0.082281
0.338925 0.317834 0.082291
0.466429 0.327620 0.082306
0.605259 0.351826 0.082327
0.725053 0.353839 0.082336
0.813041 0.363114 0.082348
0.877024 0.382609 0.082371
0.913769 0.404063 0.082436
0.937019 0.414199 0.082484
0.950242 0.431614 0.082542
0.960381 0.449658 0.082615
0.966299 0.463019 0.082715
0.970291 0.480329 0.082837
0.974029 0.487523 0.082969
0.976018 0.498114 0.083300
0.977101 0.521430 0.084064
0.977772 0.561904 0.087232
0.978133 0.619443 0.216712
0.086435 0.277652 0.082230
0.086435 0.277934 0.082230
0.086435 0.279426 0.082230
0.086429 0.284476 0.082230
0.086393 0.299314 0.082229
0.086360 0.306464 0.082229
0.086507 0.316968 0.082229
0.086906 0.327751 0.082231
0.087556 0.339126 0.082237
0.089017 0.352121 0.082242
0.091775 0.366481 0.082247
0.097333 0.379275 0.082252
0.107443 0.390721 0.082257
0.127315 0.400392 0.082272
0.175019 0.408613 0.082286
0.232289 0.407771 0.082296
0.296704 0.406978 0.082306
0.397167 0.419617 0.082320
0.547315 0.448849 0.082340
0.659827 0.449380 0.082349
0.768129 0.458058 0.082364
0.851180 0.475767 0.082420
0.899260 0.488684 0.082481
0.926852 0.496607 0.082526
0.944281 0.506113 0.082580
0.956596 0.521684 0.082679
0.964178 0.530054 0.082771
0.968936 0.539310 0.082882
0.972953 0.553260 0.083025
0.975563 0.571478 0.083388
0.976849 0.587859 0.084059
0.977648 0.610831 0.085724
0.978118 0.628691 0.199104
0.086435 0.350653 0.082230
0.086435 0.350908 0.082230
0.086435 0.352193 0.082230
0.086420 0.356212 0.082229
0.086390 0.366998 0.082229
0.086366 0.378800 0.082229
0.086508 0.395926 0.082230
0.086802 0.407419 0.082235
0.087502 0.421835 0.082241
0.088579 0.437639 0.082246
0.091172 0.451950 0.082251
0.095075 0.465433 0.082255
0.102481 0.476719 0.082270
0.118687 0.483600 0.082284
0.150267 0.489976 0.082297
0.208642 0.495813 0.082311
0.261629 0.494929 0.082320
0.344551 0.503861 0.082334
0.479137 0.524623 0.082353
0.595478 0.524728 0.082368
0.716369 0.529155 0.082410
0.812227 0.541167 0.082468
0.878520 0.554457 0.082527
0.914528 0.561233 0.082568
0.937636 0.572132 0.082635
0.951186 0.588212 0.082743
0.961857 0.596080 0.082828
0.967076 0.608260 0.082934
0.971742 0.616781 0.083091
0.975084 0.625406 0.083483
0.976560 0.641910 0.084065
0.977423 0.667595 0.085417
0.978050 0.662857 0.125153
0.086435 0.440036 0.082229
0.086435 0.440266 0.082229
0.086427 0.441380 0.082229
0.086411 0.444700 0.082229
0.086385 0.453240 0.082229
0.086377 0.466717 0.082229
0.086494 0.476729 0.082234
0.086706 0.486020 0.082239
0.087458 0.496351 0.082244
0.088160 0.506732 0.082249
0.090187 0.516971 0.082254
0.093391 0.526619 0.082267
0.099785 0.535829 0.082281
0.111558 0.543935 0.082295
0.132450 0.551130 0.082308
0.179569 0.557832 0.082321
0.237018 0.564157 0.082333
0.306231 0.573770 0.082347
0.421865 0.595341 0.082385
0.541009 0.595029 0.082418
0.657196 0.599710 0.082460
0.769283 0.609193 0.082515
0.853566 0.618945 0.082572
0.900258 0.623236 0.082618
0.928396 0.631471 0.082706
0.945500 0.641724 0.082808
0.959117 0.648947 0.082888
0.965129 0.657100 0.082994
0.970368 0.667005 0.083162
0.974072 0.682510 0.083619
0.976248 0.698505 0.084073
0.977273 0.721928 0.085149
0.977889 0.763221 0.091213
0.086424 0.520862 0.082229
0.086422 0.521027 0.082229
0.086415 0.521772 0.082229
0.086400 0.523813 0.082229
0.086378 0.528711 0.082229
0.086400 0.539176 0.082234
0.086500 0.544998 0.082239
0.086724 0.556272 0.082244
0.087442 0.566548 0.082249
0.087932 0.577028 0.082254
0.089618 0.588341 0.082267
0.092570 0.599272 0.082282
0.098024 0.608066 0.082297
0.106707 0.614254 0.082310
0.123548 0.620236 0.082323
0.162744 0.625400 0.082336
0.218620 0.630138 0.082347
0.274884 0.634869 0.082362
0.365589 0.650435 0.082436
0.480201 0.650267 0.082468
0.597475 0.652955 0.082507
0.723970 0.661261 0.082561
0.817786 0.672515 0.082629
0.880383 0.677605 0.082693
0.916777 0.688688 0.082778
0.939340 0.701697 0.082874
0.954344 0.711245 0.082949
0.962919 0.722040 0.083079
0.968672 0.737347 0.083341
0.973111 0.747857 0.083764
0.975889 0.766998 0.084094
0.977034 0.794592 0.085130
0.977796 0.806796 0.087868
0.086408 0.603907 0.082230
0.086406 0.604056 0.082230
0.086399 0.604677 0.082231
0.086387 0.606210 0.082233
0.086367 0.609560 0.082236
0.086423 0.616492 0.082241
0.086522 0.622101 0.082245
0.086786 0.629970 0.082250
0.087444 0.637374 0.082255
0.087925 0.646242 0.082271
0.089548 0.654734 0.082287
0.092267 0.663075 0.082303
0.097086 0.672199 0.082317
0.104454 0.681423 0.082330
0.120253 0.689589 0.082342
0.151564 0.697505 0.082355
0.202810 0.704292 0.082389
0.256387 0.710213 0.082435
0.329604 0.716684 0.082484
0.429705 0.716602 0.082514
0.550335 0.720662 0.082553
0.668664 0.730913 0.082609
0.775351 0.743541 0.082704
0.856777 0.748571 0.082766
0.903078 0.758709 0.082846
0.931820 0.772305 0.082939
0.948926 0.781246 0.083029
0.960442 0.793631 0.083167
0.967012 0.800202 0.083524
0.971898 0.805569 0.083924
0.975484 0.812895 0.084242
0.976843 0.820639 0.085139
0.977679 0.834139 0.087090
0.086401 0.654155 0.082234
0.086399 0.654285 0.082234
0.086393 0.654823 0.082235
0.086382 0.656122 0.082237
0.086364 0.658903 0.082240
0.086422 0.664543 0.082244
0.086522 0.673023 0.082249
0.086697 0.680865 0.082253
0.087364 0.691813 0.082264
0.087708 0.703206 0.082280
0.089145 0.713500 0.082295
0.091438 0.724671 0.082310
0.095288 0.735531 0.082324
0.101680 0.745689 0.082338
0.114760 0.755160 0.082350
0.137958 0.763455 0.082370
0.180253 0.771183 0.082420
0.233944 0.778425 0.082468
0.294016 0.784651 0.082512
0.375229 0.791494 0.082558
0.498573 0.794617 0.082595
0.612391 0.799986 0.082683
0.741150 0.804810 0.082777
0.824497 0.806785 0.082835
0.885656 0.810590 0.082913
0.921102 0.815541 0.083019
0.943044 0.818984 0.083123
0.957110 0.823906 0.083380
0.965049 0.828714 0.083715
0.970515 0.834067 0.084057
0.974869 0.840178 0.084388
0.976581 0.848743 0.085233
0.977570 0.859389 0.086733
0.086394 0.720995 0.082238
0.086393 0.721165 0.082238
0.086387 0.721851 0.082239
0.086377 0.723444 0.082241
0.086361 0.726716 0.082243
0.086424 0.733126 0.082247
0.086526 0.743512 0.082252
0.086654 0.749946 0.082257
0.087331 0.762491 0.082275
0.087633 0.771317 0.082289
0.088874 0.783447 0.082304
0.091177 0.795319 0.082319
0.093997 0.800258 0.082333
0.099807 0.804371 0.082346
0.109821 0.808381 0.082362
0.126191 0.812018 0.082409
0.163986 0.815119 0.082456
0.216155 0.818011 0.082503
0.267114 0.820883 0.082549
0.338595 0.823341 0.082591
0.450277 0.826067 0.082662
0.568015 0.829637 0.082751
0.688522 0.834398 0.082843
0.782048 0.836419 0.082902
0.864236 0.839792 0.082979
0.908774 0.844468 0.083117
0.936852 0.847725 0.083278
0.952180 0.852026 0.083585
0.962862 0.857066 0.083906
0.969061 0.861588 0.084078
0.973929 0.868115 0.084561
0.976326 0.873995 0.085332
0.977448 0.878538 0.086620
0.086387 0.796266 0.082242
0.086386 0.796360 0.082243
0.086381 0.796727 0.082243
0.086371 0.797531 0.082245
0.086361 0.799041 0.082248
0.086432 0.801410 0.082251
0.086531 0.805698 0.082256
0.086662 0.808491 0.082270
0.087258 0.812599 0.082286
0.087603 0.816910 0.082301
0.088731 0.821810 0.082316
0.090709 0.826075 0.082330
0.093265 0.830700 0.082344
0.098435 0.835061 0.082359
0.106162 0.839025 0.082403
0.121088 0.842789 0.082456
0.150312 0.846063 0.082504
0.196186 0.849013 0.082550
0.247560 0.851666 0.082595
0.312949 0.854410 0.082669
0.401768 0.856808 0.082742
0.517916 0.859425 0.082815
0.636899 0.863548 0.082905
0.756461 0.865682 0.082961
0.837461 0.868722 0.083071
0.894540 0.872604 0.083263
0.928058 0.874903 0.083493
0.946922 0.877104 0.083789
0.960551 0.878443 0.084057
0.967407 0.880619 0.084221
0.972932 0.885223 0.084741
0.976032 0.890407 0.085453
0.977312 0.898106 0.086593
0.086382 0.828420 0.082246
0.086381 0.828499 0.082246
0.086376 0.828805 0.082247
0.086367 0.829450 0.082249
0.086370 0.830638 0.082251
0.086435 0.832730 0.082254
0.086526 0.836367 0.082267
0.086667 0.839883 0.082281
0.087200 0.843277 0.082296
0.087586 0.848198 0.082312
0.088482 0.852058 0.082326
0.090203 0.856837 0.082341
0.092780 0.861713 0.082355
0.097140 0.865753 0.082395
0.103427 0.869725 0.082447
0.117667 0.872949 0.082498
0.141592 0.875336 0.082548
0.182778 0.877040 0.082595
0.233534 0.877810 0.082670
0.290039 0.878501 0.082746
0.364995 0.879369 0.082821
0.477311 0.881263 0.082892
0.591662 0.883274 0.082962
0.708449 0.884908 0.083041
0.805231 0.887037 0.083155
0.875586 0.889976 0.083467
0.917307 0.892613 0.083690
0.941280 0.895421 0.083976
0.957750 0.898930 0.084082
0.965616 0.902301 0.084418
0.971841 0.906329 0.084911
0.975694 0.911379 0.085585
0.977193 0.917816 0.086594
0.086384 0.859575 0.082248
0.086383 0.859643 0.082248
0.086378 0.859902 0.082249
0.086370 0.860441 0.082250
0.086358 0.861419 0.082252
0.086420 0.863115 0.082256
0.086505 0.866021 0.082270
0.086605 0.869856 0.082286
0.087076 0.872320 0.082300
0.087528 0.875424 0.082316
0.088152 0.877273 0.082330
0.089619 0.878622 0.082345
0.091727 0.880863 0.082361
0.095669 0.884399 0.082413
0.101688 0.887730 0.082468
0.112962 0.890567 0.082518
0.129600 0.893255 0.082568
0.167344 0.895695 0.082626
0.217606 0.897913 0.082707
0.265328 0.899916 0.082783
0.333680 0.901801 0.082857
0.433808 0.903673 0.082927
0.550187 0.905639 0.083011
0.662419 0.907709 0.083119
0.769489 0.909429 0.083323
0.854250 0.911945 0.083650
0.904751 0.914584 0.083864
0.935262 0.917029 0.084064
0.953035 0.920286 0.084246
0.963733 0.923547 0.084628
0.970640 0.927138 0.085080
0.975347 0.929581 0.085686
0.977060 0.933149 0.086624
0.086386 0.879995 0.082250
0.086385 0.880052 0.082250
0.086380 0.880266 0.082251
0.086372 0.880700 0.082252
0.086360 0.881454 0.082254
0.086406 0.882702 0.082261
0.086486 0.884748 0.082275
0.086595 0.888131 0.082293
0.086979 0.890056 0.082305
0.087478 0.893058 0.082320
0.087922 0.896569 0.082336
0.089231 0.899683 0.082350
0.091376 0.903224 0.082379
0.094510 0.906730 0.082438
0.099797 0.909813 0.082491
0.108655 0.912860 0.082543
0.123034 0.915638 0.082594
0.153293 0.918062 0.082674
0.198402 0.920229 0.082754
0.247220 0.922204 0.082832
0.308109 0.924028 0.082905
0.388843 0.925791 0.082977
0.508048 0.927251 0.083084
0.612435 0.928370 0.083226
0.735780 0.929535 0.083486
0.824451 0.930673 0.083810
0.889596 0.932293 0.084015
0.925694 0.933413 0.084084
0.947967 0.935143 0.084414
0.961720 0.936840 0.084788
0.969366 0.938908 0.085237
0.974740 0.941107 0.085783
0.976918 0.943627 0.086651
0.086390 0.902176 0.082251
0.086389 0.902237 0.082251
0.086385 0.902464 0.082252
0.086377 0.902912 0.082253
0.086365 0.903665 0.082255
0.086386 0.904863 0.082265
0.086463 0.906745 0.082278
0.086566 0.909739 0.082296
0.086883 0.912271 0.082310
0.087414 0.914934 0.082324
0.087734 0.918929 0.082342
0.088922 0.921648 0.082355
0.091162 0.925459 0.082405
0.093442 0.927807 0.082459
0.098455 0.929754 0.082517
0.105340 0.931485 0.082570
0.119166 0.933028 0.082636
0.143800 0.934416 0.082722
0.184128 0.935624 0.082804
0.233119 0.936725 0.082882
0.286375 0.937722 0.082957
0.357087 0.938672 0.083061
0.465446 0.939583 0.083169
0.574898 0.940497 0.083423
0.689901 0.941535 0.083686
0.790028 0.942425 0.083941
0.870752 0.943813 0.084063
0.914988 0.944529 0.084225
0.942509 0.945713 0.084552
0.959549 0.946662 0.084928
0.967968 0.947834 0.085351
0.974044 0.949145 0.085861
0.976818 0.950910 0.086675
0.086412 0.927758 0.082248
0.086411 0.927785 0.082248
0.086407 0.927887 0.082249
0.086399 0.928086 0.082251
0.086387 0.928415 0.082253
0.086369 0.928932 0.082256
0.086396 0.929743 0.082269
0.086502 0.931042 0.082287
0.086635 0.932562 0.082306
0.087143 0.933795 0.082320
0.087556 0.935605 0.082337
0.088437 0.937381 0.082353
0.089914 0.939151 0.082392
0.092359 0.941002 0.082454
0.096505 0.942474 0.082513
0.102256 0.943761 0.082567
0.114572 0.945012 0.082637
0.131806 0.945973 0.082726
0.168691 0.946689 0.082808
0.217261 0.947342 0.082888
0.262721 0.947942 0.082963
0.327777 0.948505 0.083072
0.421472 0.949056 0.083201
0.533208 0.949614 0.083461
