LUTs/provia100f/Provia100F_Classic_Punchy.cube
TITLE "Fuji Provia 100F Classic Punchy"
# Adobe RGB in/out. REPLACES AgX. Fuji Provia 100F Classic Punchy.
LUT_3D_SIZE 5
DOMAIN_MIN 0.0 0.0 0.0
DOMAIN_MAX 1.0 1.0 1.0
0.086435 0.087824 0.082231
0.155421 0.087824 0.082231
0.897953 0.088354 0.082229
0.971034 0.091102 0.082354
0.978148 0.368372 0.541112
0.086435 0.090364 0.082231
0.090647 0.092568 0.082230
0.698991 0.102147 0.082243
0.966262 0.135994 0.082383
0.978148 0.368411 0.541104
0.086435 0.440036 0.082229
0.087458 0.496351 0.082244
0.237018 0.564157 0.082333
0.928396 0.631471 0.082706
0.977889 0.763221 0.091213
0.086386 0.879995 0.082250
0.086979 0.890056 0.082305
0.123034 0.915638 0.082594
0.735780 0.929535 0.083486
0.976918 0.943627 0.086651
0.086435 0.959174 0.082230
0.086435 0.970013 0.082230
0.091049 0.976800 0.082310
0.354921 0.977196 0.082793
0.977500 0.978959 0.083224
0.086435 0.087824 0.085342
0.121139 0.087824 0.106511
0.909086 0.088848 0.100315
0.970918 0.092630 0.125192
0.978148 0.368411 0.541195
0.086370 0.090037 0.084335
0.116905 0.094851 0.087439
0.812262 0.103622 0.088845
0.967628 0.140148 0.097103
0.978148 0.368411 0.541106
0.086833 0.406815 0.084322
0.091917 0.468574 0.085607
0.384828 0.537250 0.087659
0.946187 0.622927 0.092184
0.977866 0.772698 0.261627
0.086904 0.877268 0.084070
0.089009 0.883977 0.085153
0.180442 0.907319 0.087843
0.835807 0.925741 0.094250
0.977140 0.943560 0.112537
0.086435 0.961563 0.082481
0.086435 0.971529 0.082481
0.093866 0.976248 0.083123
0.417927 0.976827 0.086581
0.977842 0.978873 0.089025
0.086435 0.087882 0.504013
0.116213 0.088570 0.721341
0.881919 0.091218 0.725170
0.969580 0.102796 0.762062
0.978148 0.368412 0.833428
0.086525 0.092854 0.497453
0.109539 0.099066 0.626848
0.805663 0.117581 0.674306
0.966976 0.177773 0.728182
0.978148 0.368423 0.814787
0.088724 0.409807 0.440347
0.101803 0.467535 0.472088
0.560315 0.561482 0.563812
0.954930 0.631075 0.625921
0.977783 0.800163 0.807095
0.089443 0.875054 0.401078
0.096650 0.879680 0.432685
0.279054 0.900879 0.482871
0.905876 0.921864 0.542746
0.977309 0.945021 0.711095
0.086435 0.967069 0.468140
0.086435 0.970490 0.468136
0.108512 0.975134 0.394149
0.557627 0.976244 0.459903
0.978052 0.979109 0.541186
0.086435 0.089259 0.924825
0.099444 0.092897 0.935605
0.855141 0.103917 0.936644
0.968356 0.139236 0.938772
0.978148 0.368341 0.939886
0.086588 0.102579 0.925970
0.102442 0.118933 0.933943
0.793484 0.167915 0.935425
0.966273 0.248686 0.937913
0.978148 0.367724 0.938386
0.090900 0.481774 0.907048
0.109334 0.519801 0.920196
0.597414 0.595571 0.932473
0.958007 0.660352 0.934473
0.977717 0.819100 0.942410
0.091926 0.878564 0.887467
0.102882 0.885904 0.894013
0.341658 0.905921 0.910790
0.923666 0.927120 0.925764
0.977386 0.947913 0.939759
0.086435 0.967647 0.832261
0.086435 0.971618 0.833053
0.111138 0.975904 0.885908
0.586104 0.976961 0.894050
0.978099 0.979990 0.931411
0.091288 0.092550 0.978705
0.212113 0.094706 0.978709
0.940778 0.103543 0.978741
0.973063 0.116839 0.978884
0.978148 0.392654 0.978490
0.097343 0.110396 0.978577
0.225584 0.117548 0.978594
0.934878 0.153267 0.978655
0.972474 0.192319 0.978820
0.978148 0.404247 0.978943
0.114955 0.515282 0.978279
0.230775 0.531587 0.978342
0.894514 0.580525 0.978471
0.969901 0.628906 0.978681
0.978124 0.816757 0.979265
0.098487 0.889467 0.978250
0.131004 0.894155 0.978343
0.685121 0.906652 0.978522
0.962912 0.921551 0.978744
0.978063 0.946776 0.979230
0.086435 0.965456 0.957288
0.086435 0.972225 0.966046
0.091202 0.979597 0.977681
0.511162 0.979241 0.979153
0.978148 0.981163 0.979386
