LUTs/provia100f/Provia100F_Classic_RadianceIII.cube
TITLE "Fuji Provia 100F Classic RadianceIII"
# Adobe RGB in/out. REPLACES AgX. Fuji Provia 100F Classic RadianceIII.
LUT_3D_SIZE 9
DOMAIN_MIN 0.0 0.0 0.0
DOMAIN_MAX 1.0 1.0 1.0
0.079466 0.087905 0.084059
0.107543 0.089719 0.084620
0.261791 0.093963 0.085916
0.516070 0.109041 0.087442
0.760370 0.131542 0.089935
0.894441 0.161971 0.096123
0.937192 0.183901 0.108499
0.955373 0.167428 0.329925
0.957219 0.425477 0.499653
0.079792 0.099189 0.084562
0.088436 0.102626 0.085365
0.225907 0.109402 0.086581
0.465091 0.126263 0.087805
0.717060 0.153293 0.090426
0.884661 0.184127 0.096831
0.935781 0.205252 0.108505
0.955373 0.167482 0.329949
0.957219 0.425490 0.499651
0.080778 0.169303 0.085890
0.084381 0.180274 0.086698
0.129570 0.196906 0.087587
0.320890 0.217643 0.089261
0.585504 0.244061 0.092571
0.819032 0.275280 0.099821
0.926271 0.295806 0.110905
0.955474 0.190201 0.332800
0.957219 0.425492 0.499650
0.082425 0.306956 0.087317
0.085035 0.314372 0.087850
0.109369 0.334134 0.089636
0.212910 0.349650 0.092391
0.431567 0.368385 0.098263
0.699823 0.389911 0.105351
0.893014 0.415268 0.117078
0.945501 0.437326 0.138751
0.957219 0.425544 0.358411
0.084418 0.451837 0.088917
0.086510 0.456633 0.089877
0.104025 0.476371 0.092807
0.168228 0.496991 0.098862
0.327027 0.511337 0.105043
0.562547 0.528873 0.114773
0.820945 0.549348 0.128139
0.935776 0.572633 0.146789
0.956221 0.619988 0.236861
0.086122 0.599499 0.091725
0.087891 0.602303 0.092640
0.102409 0.619638 0.098182
0.147636 0.640602 0.105075
0.267083 0.658488 0.114580
0.454368 0.671786 0.126301
0.714494 0.688582 0.140610
0.913747 0.709917 0.157665
0.954527 0.744098 0.200244
0.086493 0.748001 0.094280
0.087937 0.750246 0.095781
0.098951 0.763546 0.101338
0.134712 0.782959 0.110691
0.224795 0.799697 0.123321
0.379795 0.810268 0.136918
0.605423 0.819718 0.151530
0.875145 0.832194 0.168661
0.952489 0.852603 0.200704
0.082583 0.875515 0.091352
0.083389 0.875572 0.092015
0.090175 0.878311 0.099059
0.117334 0.887135 0.109217
0.184853 0.896817 0.124112
0.319659 0.902945 0.139990
0.510217 0.907261 0.155376
0.799327 0.913384 0.171463
0.951283 0.922013 0.197197
0.079466 0.894792 0.088519
0.079466 0.894795 0.088519
0.079466 0.933125 0.088530
0.079467 0.933788 0.092596
0.131276 0.950308 0.101823
0.244190 0.951345 0.116622
0.409983 0.951418 0.131827
0.658082 0.952917 0.142735
0.954727 0.956347 0.147824
0.079603 0.088690 0.095206
0.092555 0.090883 0.115448
0.229529 0.095986 0.103542
0.536211 0.111201 0.103751
0.779227 0.133136 0.102598
0.896699 0.163691 0.107191
0.937178 0.186507 0.123180
0.955373 0.167480 0.329952
0.957219 0.425490 0.499655
0.081341 0.098361 0.092824
0.107508 0.106748 0.101196
0.235886 0.111010 0.099860
0.487972 0.128927 0.102814
0.742690 0.155411 0.103366
0.888541 0.185782 0.108033
0.935858 0.207425 0.122548
0.955374 0.167563 0.329990
0.957219 0.425491 0.499651
0.083702 0.164221 0.092633
0.090176 0.173503 0.095128
0.159709 0.190266 0.099412
0.377362 0.215581 0.104125
0.622004 0.244323 0.106937
0.835273 0.274951 0.112354
0.927939 0.296001 0.124938
0.955502 0.196551 0.334051
0.957219 0.425492 0.499650
0.085590 0.301106 0.094317
0.089751 0.308256 0.096791
0.125974 0.327271 0.101824
0.253650 0.343069 0.107853
0.475348 0.364568 0.113966
0.726153 0.387882 0.120356
0.898363 0.413872 0.132349
0.945707 0.437380 0.153923
0.957219 0.425507 0.499645
0.086935 0.445228 0.095983
0.090035 0.450632 0.098134
0.113019 0.470263 0.104047
0.189202 0.490616 0.112817
0.357164 0.505933 0.123043
0.590928 0.525296 0.131741
0.835414 0.547216 0.143741
0.936796 0.571600 0.161255
0.956203 0.620903 0.265162
0.088151 0.594388 0.098343
0.090307 0.597615 0.100037
0.107667 0.614969 0.106665
0.157328 0.635688 0.117178
0.285586 0.653617 0.130169
0.477755 0.667884 0.143482
0.733305 0.686047 0.156390
0.917869 0.708448 0.173370
0.954571 0.744452 0.216858
0.088001 0.745050 0.100092
0.089683 0.747427 0.101526
0.102677 0.760741 0.108856
0.140915 0.779987 0.121496
0.236637 0.796916 0.136268
0.394047 0.807788 0.151715
0.623226 0.817808 0.167151
0.881553 0.831032 0.184646
0.952701 0.852527 0.215628
0.083359 0.874428 0.093637
0.084141 0.874618 0.095108
0.091682 0.877601 0.103771
0.121398 0.886269 0.117119
0.191800 0.895704 0.134625
0.328281 0.901856 0.152250
0.521787 0.906436 0.168903
0.810019 0.912783 0.186719
0.951704 0.921831 0.211065
0.079466 0.900637 0.115830
0.079466 0.900641 0.115830
0.079466 0.936060 0.115831
0.079467 0.936061 0.115826
0.133645 0.950093 0.106013
0.248918 0.951093 0.125010
0.415423 0.951247 0.141497
0.666301 0.952815 0.153146
0.955203 0.956310 0.158119
0.079987 0.091446 0.181641
0.101313 0.094388 0.295880
0.220578 0.102014 0.279016
0.524402 0.118232 0.268541
0.782924 0.142519 0.264031
0.898409 0.173368 0.276752
0.936946 0.197286 0.304439
0.955427 0.179835 0.347923
0.957219 0.425491 0.499689
0.082414 0.102247 0.180704
0.100634 0.107938 0.216455
0.226151 0.116886 0.234885
0.490299 0.134785 0.240703
0.756025 0.164345 0.245702
0.892602 0.195431 0.262659
0.935845 0.217427 0.288123
0.955448 0.184797 0.350375
0.957219 0.425491 0.499657
0.087266 0.164096 0.167461
0.099189 0.172776 0.175673
0.209888 0.210704 0.210500
0.411064 0.218663 0.208766
0.664554 0.249281 0.221414
0.859893 0.278957 0.239296
0.929971 0.299532 0.256237
0.954962 0.269452 0.357681
0.957219 0.425492 0.499651
0.092255 0.296814 0.167525
0.102056 0.303370 0.173311
0.152302 0.320769 0.186804
0.312921 0.337284 0.199043
0.546135 0.361923 0.213489
0.780758 0.387575 0.229922
0.909730 0.413164 0.242093
0.946351 0.438504 0.280038
0.957219 0.425493 0.499655
0.097543 0.439344 0.167265
0.104196 0.444699 0.172050
0.138561 0.462092 0.185478
0.243090 0.481316 0.199802
0.426509 0.497718 0.212653
0.667432 0.519654 0.229534
0.871201 0.543642 0.240727
0.939676 0.569134 0.266578
0.956134 0.624522 0.385218
0.100253 0.587737 0.169338
0.104887 0.591319 0.173262
0.130773 0.606862 0.186699
0.200331 0.625925 0.202346
0.342962 0.643395 0.217545
0.548884 0.659348 0.232223
0.791977 0.680082 0.244256
0.928824 0.704320 0.265391
0.954718 0.745912 0.304723
0.098226 0.738639 0.161859
0.101848 0.741395 0.165347
0.120560 0.754136 0.178952
0.169014 0.772157 0.196826
0.282061 0.789011 0.214485
0.449107 0.800856 0.231529
0.684643 0.812432 0.247221
0.900933 0.827176 0.266173
0.953341 0.852412 0.288771
0.089643 0.867579 0.147920
0.091092 0.869035 0.151157
0.105847 0.874236 0.167361
0.141812 0.882696 0.188417
0.227172 0.891376 0.209188
0.368026 0.897684 0.228601
0.572006 0.903248 0.245899
0.850295 0.910413 0.261799
0.952854 0.921204 0.277631
0.079466 0.900642 0.115834
0.079466 0.936060 0.115833
0.079466 0.936061 0.115832
0.079477 0.936068 0.115833
0.147126 0.948760 0.145458
0.271439 0.949842 0.177708
0.440719 0.950384 0.199673
0.702949 0.952265 0.213571
0.956039 0.956132 0.222574
0.080664 0.096424 0.327249
0.090160 0.104962 0.427003
0.221564 0.115903 0.455084
0.490951 0.131565 0.448247
0.763472 0.160516 0.450452
0.894160 0.193127 0.459453
0.935762 0.218538 0.484568
0.953124 0.228591 0.543219
0.957219 0.425491 0.548967
0.083057 0.110634 0.331034
0.094121 0.119279 0.382302
0.223694 0.132034 0.427142
0.467412 0.152062 0.427031
0.741549 0.182414 0.434347
0.888619 0.213331 0.446850
0.934733 0.238025 0.474587
0.952800 0.243159 0.538345
0.957219 0.425491 0.549487
0.090357 0.179557 0.318122
0.104037 0.189826 0.329729
0.201474 0.209731 0.359917
0.411063 0.230648 0.375512
0.669068 0.260744 0.391523
0.861788 0.289145 0.408558
0.929683 0.310810 0.437998
0.949933 0.333194 0.502206
0.957219 0.425492 0.551377
0.100659 0.298318 0.304589
0.111024 0.304683 0.310270
0.171913 0.322125 0.325480
0.356496 0.355885 0.356378
0.573045 0.365736 0.359706
0.799604 0.391961 0.375679
0.913697 0.418378 0.398464
0.946253 0.446539 0.450511
0.957219 0.425509 0.551945
0.108733 0.437456 0.301728
0.117835 0.442508 0.305623
0.158929 0.459003 0.317811
0.282830 0.477877 0.331614
0.475059 0.495337 0.344395
0.707744 0.518821 0.359571
0.884730 0.543790 0.376584
0.940895 0.571458 0.407648
0.955999 0.631268 0.533923
0.112950 0.583798 0.297181
0.119981 0.587409 0.300402
0.150853 0.601883 0.311719
0.239184 0.619849 0.325420
0.390734 0.637355 0.338983
0.603979 0.654566 0.351771
0.826986 0.676888 0.366885
0.932664 0.703004 0.387113
0.954785 0.749646 0.476005
0.110998 0.734304 0.290067
0.116409 0.737097 0.292920
0.140277 0.749006 0.303706
0.203001 0.766061 0.318346
0.325696 0.782107 0.333186
0.504845 0.795590 0.347198
0.739573 0.808430 0.360621
0.914306 0.824791 0.376670
0.953810 0.853490 0.427987
0.099749 0.863742 0.273014
0.102928 0.865471 0.275726
0.121615 0.872077 0.288379
0.163674 0.879861 0.304268
0.262756 0.887970 0.321285
0.410300 0.894474 0.336926
0.624478 0.900710 0.351146
0.879743 0.908597 0.365172
0.953756 0.921139 0.397656
0.079466 0.921023 0.253237
0.079466 0.937526 0.253237
0.079466 0.937529 0.253236
0.093243 0.945967 0.214589
0.174862 0.946525 0.283108
0.303804 0.948077 0.303794
0.479248 0.949232 0.319745
0.754050 0.951487 0.330674
0.956562 0.956096 0.348677
0.081487 0.108079 0.483654
0.086119 0.115917 0.535668
0.208517 0.136405 0.596423
0.464112 0.158185 0.597517
0.737090 0.186327 0.598866
0.887277 0.219059 0.607399
0.934105 0.246352 0.622256
0.951476 0.263475 0.648907
0.957219 0.425492 0.679650
0.083493 0.122135 0.487558
0.089589 0.131045 0.527289
0.207010 0.156723 0.584583
0.448143 0.178837 0.588753
0.718860 0.207361 0.591631
0.882108 0.238503 0.601733
0.933120 0.263815 0.618128
0.951148 0.278492 0.646669
0.957219 0.425492 0.675320
0.091879 0.198613 0.480760
0.104207 0.208190 0.496785
0.195336 0.233265 0.540919
0.406934 0.254610 0.557923
0.658929 0.277525 0.566264
0.856763 0.304565 0.580059
0.928592 0.328580 0.600786
0.949014 0.355660 0.633864
0.957219 0.425496 0.661567
0.106473 0.311704 0.462836
0.118414 0.318160 0.469858
0.183516 0.336923 0.492915
0.355947 0.356037 0.515794
0.579778 0.375827 0.530421
0.804254 0.402632 0.548221
0.914041 0.429708 0.571521
0.945857 0.459709 0.610455
0.957219 0.514162 0.661691
0.118331 0.440496 0.449178
0.128175 0.445620 0.453272
0.176024 0.461726 0.466873
0.305392 0.480859 0.484213
0.510223 0.509996 0.510021
0.727872 0.523521 0.518606
0.890683 0.549084 0.540014
0.941235 0.578435 0.576416
0.955811 0.640489 0.654128
0.125292 0.584353 0.442712
0.132898 0.587895 0.445554
0.170192 0.601630 0.456032
0.267776 0.619030 0.469974
0.425531 0.636881 0.484724
0.639986 0.654930 0.498441
0.847295 0.678192 0.516515
0.934690 0.705901 0.543284
0.954734 0.755867 0.628220
0.124032 0.733474 0.435276
0.129748 0.736271 0.437602
0.156060 0.747518 0.446532
0.232158 0.763728 0.459380
0.359968 0.779502 0.473479
0.546837 0.793821 0.486981
0.776302 0.807538 0.500344
0.922630 0.824816 0.518992
0.953991 0.856593 0.589871
0.108805 0.863101 0.421698
0.112855 0.864794 0.423695
0.135296 0.871235 0.432843
0.186008 0.878507 0.445231
0.292875 0.886172 0.459246
0.447423 0.892825 0.473022
0.668033 0.899553 0.485806
0.895403 0.908090 0.499093
0.954233 0.922300 0.546477
0.079466 0.926881 0.464453
0.079466 0.929413 0.464453
0.079466 0.934048 0.464450
0.115654 0.942160 0.414671
0.193315 0.945640 0.432731
0.326193 0.947347 0.447462
0.508596 0.948749 0.459379
0.791368 0.951270 0.468594
0.956849 0.956722 0.499685
0.082780 0.125660 0.647329
0.085586 0.131017 0.684115
0.193943 0.167433 0.729986
0.436378 0.191202 0.732521
0.715283 0.218818 0.734619
0.880231 0.248265 0.739198
0.932392 0.274627 0.747413
0.950345 0.296057 0.760221
0.957219 0.425492 0.752819
0.084160 0.138633 0.650279
0.087721 0.147192 0.681356
0.192554 0.186254 0.725873
0.425828 0.209485 0.729616
0.700660 0.237312 0.732314
0.875571 0.265320 0.737205
0.931474 0.289789 0.746081
0.950023 0.310038 0.759587
0.957219 0.425492 0.752819
0.093238 0.222616 0.650253
0.102973 0.230332 0.666404
0.189956 0.259483 0.705962
0.396924 0.279368 0.716873
0.650368 0.300411 0.722204
0.850816 0.324438 0.728915
0.926892 0.349329 0.739914
0.948227 0.379104 0.755748
0.957219 0.425496 0.752817
0.110054 0.327841 0.631333
0.121118 0.333289 0.639565
0.188896 0.354103 0.669491
0.359131 0.374198 0.691470
0.584212 0.394400 0.702956
0.804973 0.417248 0.712994
0.913698 0.444413 0.727097
0.945441 0.475830 0.747668
0.956949 0.535087 0.758104
0.125702 0.452825 0.612676
0.135423 0.457343 0.617250
0.188904 0.474529 0.635321
0.320807 0.493594 0.656946
0.517395 0.512395 0.674703
0.738388 0.532623 0.688686
0.893647 0.558226 0.706909
0.941380 0.588594 0.732540
0.955631 0.651689 0.768521
0.133957 0.589267 0.599092
0.142132 0.592867 0.601963
0.184462 0.606200 0.612915
0.287181 0.623364 0.628808
0.448292 0.641421 0.646119
0.665329 0.665097 0.665697
0.859302 0.683627 0.680939
0.935810 0.712398 0.709208
0.954690 0.764105 0.760317
0.133224 0.736744 0.590370
0.139657 0.739417 0.592230
0.171204 0.750148 0.599938
0.252478 0.765688 0.611979
0.384448 0.781189 0.626381
0.575552 0.795457 0.640878
0.798191 0.809708 0.655604
0.927540 0.827652 0.678522
0.954095 0.861240 0.742590
0.115678 0.865439 0.581900
0.120559 0.867082 0.583106
0.144401 0.872458 0.589041
0.202259 0.879268 0.598048
0.313193 0.886593 0.609504
0.474442 0.893297 0.621779
0.697644 0.900297 0.634036
0.903868 0.909205 0.647924
0.954460 0.924505 0.709501
0.079466 0.928726 0.547717
0.079466 0.930456 0.552025
0.079466 0.934356 0.568347
0.119007 0.942937 0.581845
0.202273 0.946031 0.591109
0.337910 0.947710 0.600472
0.525031 0.949262 0.609105
0.808582 0.951865 0.616156
0.956947 0.957648 0.665050
0.084138 0.152018 0.810856
0.086412 0.156828 0.831358
0.166928 0.198870 0.846587
0.420307 0.223470 0.848503
0.702856 0.250330 0.850198
0.876435 0.276418 0.852744
0.931512 0.298796 0.857626
0.949667 0.323537 0.864965
0.957219 0.425466 0.861537
0.085244 0.166445 0.811908
0.088159 0.171927 0.829467
0.169423 0.214809 0.845244
0.413037 0.239810 0.847602
0.691403 0.265484 0.849477
0.872583 0.290393 0.852121
0.930674 0.312871 0.857093
0.949369 0.337519 0.864674
0.957219 0.425457 0.860590
0.094345 0.245586 0.812597
0.102115 0.251206 0.822382
0.178533 0.279301 0.838220
0.392000 0.299718 0.843107
0.650150 0.321408 0.845962
0.850474 0.345088 0.849171
0.926312 0.369108 0.854621
0.947839 0.400280 0.862756
0.957217 0.425243 0.856277
0.112829 0.346540 0.800954
0.122718 0.350980 0.807477
0.188020 0.371506 0.824152
0.363003 0.392446 0.833835
0.592112 0.412893 0.838921
0.810252 0.435344 0.843603
0.914791 0.459347 0.849941
0.945419 0.490870 0.859621
0.956518 0.561020 0.870309
0.130527 0.468357 0.782832
0.139831 0.472340 0.788191
0.194932 0.488724 0.803832
0.331758 0.508008 0.818146
0.532324 0.526862 0.827515
0.751731 0.546458 0.834289
0.897173 0.568506 0.842161
0.941870 0.599098 0.854043
0.955558 0.663313 0.870012
0.140530 0.600390 0.764201
0.148301 0.603661 0.767620
0.194032 0.616761 0.780755
0.301877 0.634309 0.797321
0.469322 0.652224 0.810735
0.681211 0.670627 0.820885
0.869772 0.691462 0.830645
0.936971 0.719900 0.844715
0.954758 0.772113 0.867377
0.138600 0.744209 0.749783
0.145194 0.746828 0.751770
0.180273 0.757114 0.759947
0.265565 0.771669 0.773485
0.401641 0.786943 0.789466
0.596194 0.800250 0.802045
0.811160 0.814379 0.812284
0.929898 0.832362 0.829177
0.954287 0.866673 0.861088
0.117508 0.870750 0.741150
0.122556 0.871754 0.741938
0.147675 0.876049 0.746087
0.209858 0.882451 0.753902
0.324196 0.889430 0.765149
0.490464 0.895958 0.777748
0.715695 0.902992 0.790528
0.908507 0.911893 0.802843
0.954659 0.927500 0.847096
0.079469 0.928550 0.678516
0.079472 0.931913 0.678544
0.079537 0.936233 0.679286
0.109874 0.945445 0.745801
0.198486 0.947796 0.747390
0.336888 0.949269 0.753446
0.525705 0.950759 0.760013
0.808815 0.953356 0.765626
0.957030 0.958936 0.823884
0.086432 0.186198 0.919509
0.089024 0.189581 0.922188
0.178920 0.222198 0.924957
0.439879 0.246351 0.925636
0.723198 0.270076 0.926388
0.883042 0.293409 0.927648
0.932757 0.314030 0.929176
0.950230 0.337908 0.932495
0.957219 0.435156 0.932372
0.087699 0.200448 0.918998
0.090572 0.203954 0.921530
0.182810 0.237061 0.924525
0.433613 0.260539 0.925285
0.714466 0.283051 0.926074
0.880143 0.305442 0.927361
0.932136 0.327213 0.929031
0.949978 0.351403 0.932319
0.957219 0.438264 0.932372
0.100025 0.273072 0.917035
0.106475 0.276380 0.918819
0.199783 0.298667 0.922032
0.414733 0.317554 0.923347
0.678055 0.338105 0.924417
0.866049 0.360602 0.925896
0.929241 0.382908 0.928288
0.948722 0.411149 0.931402
0.957219 0.471718 0.932372
0.118704 0.365667 0.912950
0.127768 0.368898 0.914619
0.209553 0.387808 0.918361
0.388050 0.406041 0.920545
0.626040 0.425300 0.922098
0.833069 0.446583 0.923881
0.921108 0.469162 0.926632
0.946781 0.498707 0.930211
0.956564 0.573765 0.934016
0.136371 0.484231 0.906526
0.145309 0.487243 0.908363
0.213121 0.502715 0.913102
0.356582 0.519672 0.916693
0.566001 0.537007 0.919225
0.785149 0.555605 0.921454
0.906791 0.576441 0.924390
0.943945 0.604676 0.928878
0.955828 0.671825 0.932794
0.145442 0.613690 0.897717
0.153041 0.616466 0.899740
0.207892 0.629479 0.905752
0.321368 0.645042 0.911249
0.500318 0.661594 0.915271
0.715944 0.679166 0.918419
0.883921 0.698736 0.921681
0.939956 0.724486 0.926778
0.955217 0.778163 0.931752
0.141442 0.755126 0.885833
0.147872 0.757453 0.887621
0.187814 0.767584 0.894107
0.277867 0.780618 0.902117
0.422624 0.794039 0.908878
0.626497 0.806049 0.913814
0.834011 0.819266 0.917820
0.933690 0.836386 0.923438
0.954841 0.870366 0.930488
0.111921 0.878212 0.874923
0.117312 0.879005 0.875698
0.144496 0.882471 0.879361
0.208807 0.888054 0.886169
0.328117 0.894343 0.895036
0.501297 0.900488 0.903185
0.730651 0.907172 0.909669
0.910612 0.913666 0.912774
0.955072 0.929531 0.928503
0.079466 0.925690 0.831929
0.079466 0.936065 0.833823
0.079466 0.937441 0.846850
0.099291 0.947816 0.869662
0.177069 0.951427 0.872140
0.318761 0.952333 0.876818
0.505667 0.953465 0.881900
0.786381 0.955802 0.885347
0.957115 0.960484 0.919947
0.133778 0.196767 0.955999
0.147439 0.199361 0.956003
0.303899 0.209808 0.956019
0.649688 0.228049 0.956074
0.854181 0.249000 0.956180
0.918587 0.267397 0.956373
0.941507 0.276546 0.956880
0.953673 0.282971 0.957878
0.957219 0.434012 0.954948
0.138213 0.208094 0.955900
0.151745 0.210749 0.955906
0.305629 0.221785 0.955928
0.644155 0.240127 0.955992
0.850732 0.260871 0.956107
0.917686 0.278584 0.956313
0.941296 0.287930 0.956826
0.953580 0.292387 0.957838
0.957219 0.438325 0.957168
0.159054 0.265598 0.955372
0.177989 0.267992 0.955391
0.316462 0.277481 0.955455
0.619912 0.292722 0.955584
0.834789 0.310043 0.955757
0.913426 0.327468 0.956030
0.940253 0.338507 0.956567
0.953066 0.345352 0.957598
0.957219 0.438352 0.957168
0.193185 0.365321 0.954533
0.212952 0.367267 0.954577
0.327520 0.375034 0.954728
0.579138 0.388005 0.954961
0.803768 0.403565 0.955224
0.904389 0.419626 0.955578
0.938088 0.433144 0.956174
0.952029 0.452952 0.957156
0.957219 0.576932 0.958473
0.206027 0.486372 0.953912
0.224580 0.488020 0.953982
0.321284 0.494814 0.954219
0.528544 0.506062 0.954506
0.755352 0.519478 0.954854
0.890124 0.533809 0.955275
0.934787 0.547637 0.955883
0.950893 0.569191 0.956876
0.957127 0.660472 0.958752
0.195724 0.617867 0.953634
0.211499 0.619331 0.953730
0.294368 0.625669 0.954041
0.465069 0.635948 0.954410
0.684309 0.647746 0.954790
0.863396 0.661008 0.955242
0.929620 0.674882 0.955835
0.949364 0.695141 0.956762
0.956947 0.766754 0.958531
0.163317 0.762631 0.953767
0.174718 0.763960 0.953880
0.236286 0.769624 0.954225
0.374382 0.778485 0.954660
0.577930 0.788023 0.955103
0.795953 0.797443 0.955569
0.913931 0.807142 0.956194
0.947089 0.819429 0.957014
0.956889 0.862544 0.958582
0.109516 0.881582 0.953383
0.114527 0.882260 0.953788
0.142640 0.885401 0.954604
0.234385 0.890271 0.955237
0.400767 0.894733 0.955847
0.634608 0.899159 0.956381
0.861789 0.904578 0.956941
0.941171 0.910234 0.957669
0.956986 0.927461 0.958884
0.079466 0.920240 0.905124
0.079466 0.937529 0.927542
0.079466 0.937530 0.927542
0.084101 0.940236 0.927596
0.132872 0.957950 0.950985
0.280423 0.956886 0.957192
0.485364 0.957055 0.958204
0.784329 0.958882 0.958889
0.957219 0.962249 0.959348
