LUTs/provia100f/Provia100F_Modern_ExtraSoft.cube
TITLE "Fuji Provia 100F Modern ExtraSoft"
# Adobe RGB in/out. REPLACES AgX. Fuji Provia 100F Modern ExtraSoft.
LUT_3D_SIZE 9
DOMAIN_MIN 0.0 0.0 0.0
DOMAIN_MAX 1.0 1.0 1.0
0.065446 0.069518 0.085077
0.071475 0.069518 0.085077
0.494487 0.069696 0.085076
0.839850 0.071936 0.085091
0.912214 0.080651 0.085219
0.932074 0.095122 0.085618
0.939086 0.108049 0.086861
0.941594 0.088167 0.477672
0.937250 0.629823 0.722637
0.065446 0.069911 0.085077
0.065502 0.069690 0.085077
0.222378 0.070606 0.085076
0.768398 0.074922 0.085091
0.893545 0.089369 0.085216
0.926705 0.113771 0.085593
0.936423 0.130310 0.086648
0.940168 0.087017 0.468629
0.936232 0.624240 0.716905
0.065446 0.161679 0.085076
0.065456 0.126355 0.085075
0.071475 0.093249 0.085074
0.391587 0.113985 0.085100
0.808123 0.178366 0.085224
0.900474 0.281419 0.085583
0.926444 0.343342 0.086436
0.935669 0.093296 0.436573
0.932905 0.603647 0.698450
0.065418 0.589557 0.085086
0.065496 0.558479 0.085098
0.068639 0.489207 0.085116
0.125090 0.416289 0.085163
0.554326 0.447362 0.085260
0.838334 0.520510 0.085648
0.906513 0.569378 0.086446
0.925088 0.601488 0.088561
0.927909 0.565616 0.423599
0.065456 0.765587 0.085153
0.065536 0.754950 0.085183
0.067747 0.732084 0.085249
0.087368 0.705032 0.085335
0.326227 0.673712 0.085516
0.703637 0.679000 0.085895
0.867924 0.710603 0.086701
0.912254 0.730650 0.088411
0.921993 0.765004 0.112084
0.065501 0.852270 0.085236
0.065616 0.848534 0.085257
0.067150 0.837732 0.085454
0.077113 0.821082 0.085703
0.199166 0.804293 0.086028
0.543951 0.790260 0.086371
0.805980 0.789116 0.087226
0.892728 0.804657 0.088826
0.914672 0.824181 0.094291
0.065483 0.882831 0.085258
0.065525 0.881326 0.085277
0.066214 0.879385 0.085543
0.071839 0.876216 0.085964
0.124429 0.871173 0.086431
0.408350 0.865123 0.087152
0.714799 0.860959 0.087718
0.867306 0.859969 0.089325
0.908508 0.866029 0.092572
0.065446 0.907635 0.085136
0.065439 0.906527 0.085155
0.065559 0.903942 0.085276
0.068401 0.901876 0.085684
0.086215 0.899342 0.086273
0.254654 0.895662 0.087164
0.576974 0.891759 0.087866
0.830157 0.889318 0.089288
0.904171 0.889503 0.091501
0.065446 0.901290 0.085074
0.065446 0.900619 0.085074
0.065446 0.913836 0.085074
0.065446 0.911358 0.085116
0.069094 0.916192 0.085255
0.114386 0.913789 0.085667
0.404093 0.910572 0.086180
0.726603 0.908426 0.086570
0.902684 0.907976 0.086772
0.065446 0.069518 0.086143
0.067483 0.069518 0.092203
0.390916 0.069902 0.087735
0.845104 0.072224 0.087301
0.912979 0.080556 0.086584
0.931036 0.094557 0.087037
0.937974 0.108300 0.089110
0.940830 0.087561 0.472994
0.936722 0.626838 0.719665
0.065446 0.069683 0.085262
0.066057 0.069604 0.085194
0.221887 0.070575 0.085615
0.777624 0.075007 0.086249
0.896577 0.088447 0.086330
0.925941 0.111363 0.086832
0.935343 0.129779 0.088554
0.939405 0.086433 0.462457
0.935708 0.621475 0.713970
0.065441 0.122330 0.085578
0.065994 0.097075 0.085434
0.078528 0.082888 0.085262
0.480562 0.099410 0.085589
0.819504 0.161276 0.086032
0.902187 0.265619 0.086547
0.925731 0.334197 0.087758
0.934929 0.095611 0.432228
0.932395 0.599653 0.695660
0.065530 0.546237 0.085648
0.066014 0.518211 0.085668
0.071472 0.431206 0.085646
0.176783 0.354590 0.085646
0.602608 0.412858 0.085964
0.846001 0.502157 0.086504
0.906835 0.559013 0.087571
0.924465 0.596016 0.090671
0.927433 0.562037 0.668989
0.065648 0.749225 0.085617
0.066004 0.739594 0.085699
0.069179 0.717271 0.085966
0.101434 0.683661 0.086128
0.384812 0.652180 0.086328
0.725397 0.664195 0.086798
0.870605 0.703858 0.087787
0.912008 0.726921 0.090321
0.921441 0.763722 0.131430
0.065671 0.846235 0.085610
0.065943 0.840666 0.085687
0.068251 0.829510 0.086089
0.082125 0.812968 0.086487
0.225161 0.795670 0.087036
0.567118 0.783135 0.087519
0.814076 0.784262 0.088495
0.893780 0.801341 0.090567
0.914273 0.822961 0.098952
0.065528 0.880928 0.085551
0.065697 0.880005 0.085620
0.066762 0.877834 0.086035
0.073207 0.874494 0.086632
0.137410 0.868832 0.087501
0.435221 0.863026 0.088294
0.728694 0.859273 0.089590
0.869517 0.858864 0.090921
0.908339 0.865507 0.095877
0.065439 0.906548 0.085202
0.065425 0.905503 0.085222
0.065743 0.903042 0.085524
0.068651 0.900946 0.086125
0.088228 0.898354 0.087067
0.273104 0.894738 0.087973
0.593835 0.890694 0.089459
0.835157 0.888518 0.090811
0.904234 0.889083 0.093166
0.065446 0.903279 0.085972
0.065446 0.902612 0.085956
0.065446 0.914910 0.085903
0.065446 0.912460 0.085817
0.069393 0.915917 0.085362
0.121146 0.913523 0.086006
0.414256 0.910294 0.086655
0.733570 0.908243 0.087315
0.902991 0.907886 0.087500
0.065446 0.069518 0.183241
0.069795 0.069786 0.601454
0.384288 0.070905 0.567397
0.848386 0.074859 0.484998
0.913197 0.085305 0.392789
0.930057 0.100936 0.382892
0.936348 0.117536 0.432301
0.939502 0.092318 0.502392
0.935629 0.621058 0.713571
0.065411 0.070968 0.180533
0.069329 0.072163 0.308640
0.299355 0.072932 0.268719
0.787988 0.079763 0.249046
0.898625 0.093144 0.240263
0.925221 0.119076 0.272271
0.933722 0.139853 0.340972
0.938054 0.093215 0.495905
0.934606 0.615694 0.707841
0.065586 0.091518 0.106846
0.066300 0.085028 0.098745
0.084878 0.078458 0.092066
0.510058 0.094701 0.103505
0.831690 0.154168 0.120923
0.904745 0.257667 0.145160
0.924667 0.328770 0.171258
0.933230 0.205645 0.476801
0.931272 0.590938 0.689547
0.066133 0.461715 0.109851
0.067460 0.425957 0.106432
0.077988 0.329287 0.098016
0.233586 0.256054 0.093667
0.675326 0.351886 0.100110
0.857650 0.472876 0.112199
0.907624 0.541921 0.124418
0.923173 0.585853 0.173613
0.926305 0.553768 0.663064
0.066897 0.719579 0.106794
0.068089 0.711033 0.106041
0.074514 0.679274 0.103429
0.152640 0.633780 0.099862
0.492179 0.613057 0.098729
0.779703 0.633878 0.104462
0.877335 0.685203 0.111163
0.911582 0.717820 0.130833
0.920010 0.761441 0.424762
0.067005 0.827422 0.102305
0.067795 0.822532 0.102567
0.072288 0.810915 0.103776
0.107388 0.792527 0.103848
0.339227 0.777670 0.103707
0.662796 0.770700 0.104941
0.836015 0.776396 0.108190
0.896712 0.792273 0.119484
0.913181 0.819891 0.157745
0.066226 0.876922 0.094457
0.066733 0.875941 0.095022
0.069385 0.873065 0.097337
0.084355 0.868081 0.100078
0.206643 0.862262 0.102719
0.520296 0.857066 0.105342
0.777978 0.854426 0.108635
0.876565 0.855495 0.114028
0.907851 0.864019 0.128905
0.065534 0.901977 0.089842
0.065705 0.901281 0.090184
0.066774 0.899804 0.091891
0.072144 0.897746 0.094722
0.112919 0.894989 0.098741
0.353596 0.890919 0.102721
0.667429 0.887081 0.106907
0.851926 0.885775 0.110537
0.904333 0.887753 0.116520
0.065446 0.902162 0.085946
0.065446 0.915651 0.085930
0.065446 0.914224 0.085878
0.065446 0.911585 0.085795
0.071614 0.914767 0.087398
0.145939 0.912315 0.090192
0.460552 0.909228 0.091934
0.764918 0.907486 0.093271
0.903412 0.907523 0.094421
0.065446 0.069997 0.666738
0.066559 0.071618 0.791834
0.386881 0.075624 0.816189
0.844414 0.088727 0.810325
0.915552 0.107833 0.776980
0.930545 0.131336 0.752494
0.935935 0.152617 0.748580
0.938011 0.146268 0.771753
0.934899 0.617229 0.759967
0.065424 0.073108 0.672748
0.068066 0.078298 0.750977
0.393321 0.089265 0.791955
0.809685 0.101890 0.768106
0.903199 0.123866 0.737106
0.925669 0.155333 0.717660
0.933218 0.182753 0.723668
0.936358 0.168444 0.763651
0.933849 0.611114 0.756048
0.066020 0.109280 0.509634
0.068064 0.108677 0.497390
0.131008 0.109622 0.498173
0.570205 0.129962 0.523571
0.843329 0.197013 0.576399
0.905675 0.297079 0.599496
0.924053 0.357546 0.637592
0.930333 0.408497 0.703785
0.930423 0.584423 0.741633
0.067004 0.381084 0.399518
0.068566 0.353000 0.364104
0.082811 0.272371 0.255240
0.257128 0.214677 0.193193
0.686958 0.341182 0.301893
0.860952 0.469272 0.427650
0.907185 0.541205 0.496577
0.921923 0.590665 0.597630
0.925319 0.546676 0.712949
0.068577 0.681258 0.387187
0.069780 0.669080 0.368610
0.082302 0.635308 0.308517
0.198102 0.593615 0.241379
0.525280 0.566690 0.211046
0.791210 0.615126 0.266833
0.879250 0.669489 0.366710
0.910321 0.712980 0.465948
0.918510 0.761486 0.664422
0.068914 0.806472 0.327896
0.069915 0.801866 0.320612
0.078907 0.789785 0.302606
0.144802 0.775943 0.271062
0.419055 0.759485 0.245008
0.694010 0.752006 0.238836
0.847384 0.765439 0.274236
0.896918 0.784160 0.357033
0.911833 0.817523 0.555552
0.068403 0.870437 0.245431
0.068779 0.869160 0.245271
0.073218 0.865945 0.248985
0.103218 0.860976 0.248617
0.287287 0.855232 0.244411
0.577051 0.849721 0.243519
0.802426 0.847521 0.252065
0.880711 0.851553 0.283668
0.907018 0.862508 0.438107
0.066097 0.898023 0.161310
0.066323 0.897456 0.162963
0.068695 0.896220 0.175566
0.078475 0.894103 0.188951
0.153896 0.890538 0.201551
0.435076 0.886128 0.213113
0.711822 0.883089 0.225394
0.862656 0.882742 0.242964
0.904057 0.886346 0.321937
0.065446 0.908427 0.120015
0.065446 0.915188 0.119372
0.065446 0.913822 0.117236
0.065651 0.915320 0.098589
0.078241 0.912949 0.130919
0.196853 0.910249 0.143616
0.515542 0.907714 0.155470
0.796995 0.906324 0.162561
0.903452 0.907151 0.184636
0.065437 0.072443 0.834666
0.065828 0.075635 0.864232
0.340890 0.093900 0.892971
0.826605 0.129671 0.893390
0.919296 0.200351 0.888821
0.932910 0.226849 0.862107
0.937127 0.246741 0.845514
0.937989 0.245158 0.839622
0.934901 0.617241 0.837713
0.065452 0.080287 0.836948
0.066315 0.088191 0.859515
0.335521 0.126643 0.888024
0.815856 0.189374 0.889774
0.908340 0.238367 0.871361
0.928135 0.260868 0.849019
0.934368 0.279538 0.837015
0.936283 0.276962 0.834259
0.933819 0.610876 0.832357
0.067007 0.244509 0.824375
0.069893 0.257267 0.826287
0.208953 0.284071 0.829981
0.675607 0.299512 0.821019
0.858689 0.332111 0.807137
0.909445 0.392431 0.801946
0.925113 0.430673 0.802961
0.930353 0.474494 0.811531
0.930274 0.583296 0.815176
0.068179 0.412076 0.696911
0.069708 0.404529 0.689617
0.093687 0.383830 0.674607
0.387168 0.376528 0.667159
0.731547 0.432105 0.683257
0.867863 0.513667 0.712944
0.908205 0.565181 0.742851
0.921659 0.612872 0.767535
0.924952 0.677668 0.794597
0.069517 0.645812 0.658336
0.071278 0.637812 0.648884
0.086610 0.616800 0.621099
0.219476 0.574091 0.587078
0.533457 0.546341 0.546883
0.797989 0.613796 0.602931
0.880406 0.671424 0.657077
0.909616 0.715562 0.703117
0.917562 0.765571 0.767055
0.070666 0.786116 0.635910
0.072159 0.782344 0.630556
0.085481 0.776629 0.615245
0.181751 0.760508 0.595582
0.461038 0.742841 0.571933
0.714090 0.736198 0.557345
0.850585 0.757460 0.593866
0.896165 0.780335 0.634835
0.910682 0.817568 0.726293
0.069783 0.863356 0.600691
0.070855 0.862280 0.599088
0.078505 0.859417 0.596292
0.127554 0.854799 0.589184
0.344868 0.847964 0.576379
0.628248 0.839792 0.563872
0.814933 0.838502 0.565282
0.882377 0.848169 0.590507
0.906049 0.861736 0.672166
0.067146 0.894384 0.543043
0.067670 0.893883 0.542199
0.070747 0.892515 0.544658
0.086140 0.889633 0.544011
0.199894 0.885845 0.541743
0.496951 0.881902 0.539747
0.744549 0.880570 0.541458
0.868339 0.880895 0.551455
0.903398 0.885674 0.608466
0.065446 0.908556 0.577840
0.065446 0.909238 0.574496
0.065446 0.910283 0.563378
0.067255 0.912352 0.453638
0.084581 0.911032 0.470157
0.229484 0.908638 0.477324
0.549075 0.906338 0.481843
0.814825 0.905437 0.485149
0.903249 0.907227 0.532759
0.065405 0.082703 0.907654
0.065705 0.088162 0.912526
0.290883 0.155279 0.920289
0.806655 0.244164 0.920725
0.917730 0.356302 0.921085
0.936003 0.379667 0.911802
0.939389 0.374657 0.902298
0.939146 0.373293 0.890312
0.935610 0.620959 0.871753
0.065496 0.095643 0.907727
0.066038 0.108427 0.912068
0.286339 0.221134 0.919578
0.798182 0.323217 0.920225
0.913587 0.420921 0.919597
0.931516 0.409337 0.907860
0.936688 0.408396 0.897533
0.937429 0.408127 0.886352
0.934507 0.615176 0.868553
0.067765 0.372789 0.907726
0.070446 0.405611 0.909244
0.276281 0.506116 0.916148
0.724432 0.499231 0.908752
0.873242 0.493593 0.900622
0.915068 0.500699 0.888065
0.927637 0.515676 0.878692
0.931545 0.537479 0.872093
0.930874 0.587884 0.858070
0.069416 0.521125 0.850955
0.071863 0.521968 0.850497
0.128138 0.533821 0.851823
0.500627 0.538829 0.847943
0.785923 0.551845 0.843426
0.878297 0.576990 0.841922
0.911580 0.611538 0.843278
0.922822 0.640187 0.846729
0.925240 0.707062 0.844540
0.070734 0.651138 0.799213
0.072713 0.646739 0.796076
0.094594 0.637608 0.788730
0.285323 0.622970 0.777132
0.609309 0.621603 0.771636
0.817513 0.649556 0.781872
0.884911 0.696019 0.798052
0.910450 0.726500 0.816003
0.917541 0.773624 0.830639
0.071891 0.776968 0.776209
0.073597 0.775030 0.773256
0.088852 0.768507 0.765868
0.202106 0.754249 0.754980
0.481728 0.737676 0.736570
0.718057 0.727752 0.720402
0.853492 0.758368 0.753032
0.896339 0.782967 0.776143
0.910183 0.821027 0.809995
0.071165 0.857680 0.761150
0.072420 0.856796 0.759625
0.083134 0.854452 0.754384
0.145914 0.849529 0.745699
0.383758 0.840442 0.733137
0.658063 0.831906 0.723155
0.819191 0.831401 0.722197
0.882751 0.846279 0.744741
0.905281 0.861923 0.785951
0.067981 0.890529 0.734851
0.068525 0.889923 0.733205
0.072245 0.888493 0.729595
0.090904 0.885902 0.723461
0.225960 0.882447 0.716995
0.522275 0.880233 0.711838
0.764531 0.879251 0.709992
0.870571 0.880003 0.714439
0.902595 0.885648 0.760528
0.065446 0.907140 0.671249
0.065446 0.907780 0.673947
0.065446 0.908531 0.684643
0.067516 0.911095 0.688883
0.086613 0.909792 0.686887
0.248822 0.907603 0.684807
0.564102 0.905596 0.683453
0.822427 0.905074 0.682968
0.902904 0.907536 0.721847
0.065495 0.117193 0.932931
0.065895 0.126860 0.935259
0.195734 0.272420 0.937554
0.793678 0.376912 0.937761
0.915286 0.477076 0.937944
0.939358 0.517862 0.933614
0.942219 0.490776 0.924725
0.940959 0.482741 0.916145
0.936782 0.627125 0.907836
0.065626 0.152268 0.932933
0.066066 0.170989 0.934924
0.202765 0.341945 0.937408
0.787694 0.439448 0.937664
0.913005 0.524029 0.937866
0.935310 0.530488 0.932632
0.939645 0.513295 0.922193
0.939276 0.506262 0.914392
0.935677 0.621272 0.907642
0.068142 0.460997 0.932935
0.070063 0.479796 0.933661
0.230444 0.559512 0.936472
0.762085 0.613922 0.937093
0.886306 0.596406 0.930018
0.921691 0.584866 0.921089
0.931022 0.579439 0.913942
0.933543 0.592493 0.908034
0.932018 0.596280 0.901256
0.071617 0.621012 0.917630
0.074803 0.621896 0.917628
0.168089 0.634848 0.916894
0.564903 0.639253 0.913385
0.818943 0.639759 0.908509
0.891242 0.645325 0.905957
0.916656 0.655682 0.901761
0.924897 0.678686 0.897774
0.926099 0.734599 0.894425
0.072471 0.694701 0.885655
0.074925 0.693836 0.885154
0.110576 0.696109 0.884046
0.368891 0.695959 0.880283
0.687001 0.698367 0.876059
0.842727 0.708920 0.873629
0.893322 0.722723 0.874163
0.912981 0.743227 0.876615
0.918513 0.780854 0.879313
0.073063 0.777166 0.856836
0.075089 0.776369 0.855657
0.094196 0.773294 0.852594
0.232951 0.766685 0.847188
0.534575 0.758619 0.840611
0.765490 0.759541 0.837759
0.863061 0.774458 0.842646
0.899267 0.792936 0.851218
0.910652 0.827713 0.861783
0.071760 0.854464 0.840554
0.073151 0.853751 0.839512
0.085321 0.851619 0.836670
0.161300 0.847405 0.831729
0.409994 0.839172 0.827411
0.673576 0.830871 0.822010
0.819981 0.826486 0.815494
0.883825 0.847803 0.829419
0.905118 0.863353 0.847134
0.068038 0.887805 0.827102
0.068555 0.887296 0.826505
0.072567 0.886109 0.824382
0.093679 0.883924 0.819647
0.240677 0.881265 0.815046
0.535728 0.879575 0.811286
0.774459 0.878557 0.809570
0.871040 0.879615 0.812589
0.901951 0.886274 0.835263
0.065446 0.904573 0.773462
0.065446 0.906377 0.772332
0.065446 0.907672 0.768927
0.066435 0.910873 0.803440
0.085007 0.909406 0.797350
0.241263 0.907336 0.793818
0.561475 0.905573 0.791601
0.821291 0.905358 0.790578
0.902610 0.908137 0.823653
0.065900 0.220874 0.945972
0.066139 0.236776 0.946108
0.231912 0.370781 0.946248
0.809445 0.463891 0.946282
0.919326 0.535763 0.946320
0.944018 0.584103 0.945982
0.944884 0.550822 0.940341
0.943269 0.534099 0.933333
0.938100 0.651554 0.926925
0.066037 0.278483 0.945946
0.066753 0.297094 0.946074
0.246993 0.429370 0.946226
0.804443 0.509809 0.946265
0.917566 0.569231 0.946304
0.940529 0.594969 0.944849
0.943193 0.565299 0.938894
0.941657 0.550906 0.932931
0.937012 0.648812 0.925718
0.069408 0.543451 0.945846
0.072041 0.551968 0.945937
0.310406 0.612442 0.946100
0.789095 0.650842 0.946167
0.904605 0.663351 0.944612
0.928409 0.642645 0.939419
0.935204 0.626417 0.932941
0.936174 0.624893 0.928260
0.933389 0.675695 0.921701
0.075794 0.703538 0.942423
0.083116 0.702945 0.942017
0.264212 0.711751 0.940416
0.671982 0.710087 0.937424
0.854302 0.704390 0.932935
0.906908 0.699548 0.928640
0.923082 0.697248 0.923443
0.927826 0.705060 0.919363
0.927479 0.752019 0.916230
0.075787 0.734540 0.923535
0.081396 0.734281 0.923230
0.160045 0.738794 0.921953
0.479795 0.739525 0.919271
0.762149 0.739332 0.916104
0.867487 0.741463 0.913228
0.904997 0.746875 0.910869
0.917074 0.758758 0.909151
0.920266 0.792937 0.908018
0.074639 0.787154 0.907894
0.078096 0.786333 0.907866
0.110412 0.786699 0.907751
0.302790 0.784158 0.905990
0.608007 0.781743 0.902706
0.807657 0.783573 0.899868
0.876524 0.791319 0.898710
0.905126 0.805669 0.899371
0.912104 0.835850 0.900995
0.072071 0.854565 0.896189
0.073437 0.854104 0.895928
0.087207 0.853124 0.895270
0.182771 0.850558 0.893179
0.458048 0.846554 0.888892
0.710304 0.842170 0.884355
0.841832 0.844403 0.882441
0.889316 0.853203 0.885213
0.905973 0.865837 0.890116
0.067113 0.887818 0.881694
0.067719 0.887337 0.881224
0.071543 0.886157 0.880195
0.091218 0.884226 0.878999
0.243146 0.881621 0.877816
0.544746 0.880130 0.876055
0.783040 0.879206 0.873827
0.870464 0.879009 0.871210
0.901990 0.887570 0.882111
0.065446 0.901026 0.850143
0.065446 0.906915 0.850325
0.065446 0.906405 0.853919
0.065899 0.910696 0.860433
0.076683 0.910282 0.857409
0.205710 0.908218 0.855785
0.536358 0.906531 0.855115
0.808070 0.906400 0.854653
0.902432 0.908964 0.876004
0.096038 0.264473 0.948484
0.130719 0.274297 0.948484
0.599858 0.324365 0.948485
0.904418 0.397861 0.948487
0.940276 0.472958 0.948493
0.945371 0.528911 0.948503
0.945371 0.462092 0.946609
0.945371 0.387153 0.943120
0.939282 0.658201 0.936287
0.105923 0.318298 0.948478
0.144439 0.327719 0.948479
0.604635 0.368804 0.948480
0.902746 0.440615 0.948483
0.939733 0.510971 0.948489
0.945371 0.540787 0.948206
0.945371 0.481444 0.946164
0.944529 0.407007 0.942223
0.938223 0.657652 0.936155
0.174240 0.524320 0.948451
0.228395 0.530431 0.948452
0.634791 0.554809 0.948455
0.894955 0.595657 0.948462
0.935849 0.625753 0.948304
0.942527 0.601146 0.946656
0.942509 0.559753 0.943653
0.939964 0.518330 0.938926
0.934682 0.632437 0.932940
0.273647 0.724525 0.948173
0.333948 0.722813 0.948064
0.613902 0.718446 0.947646
0.859916 0.711705 0.946557
0.913798 0.700902 0.944675
0.928081 0.684805 0.941405
0.932035 0.662387 0.937405
0.932185 0.653100 0.932935
0.929113 0.761294 0.929268
0.184801 0.758776 0.940985
0.219398 0.757669 0.940611
0.466623 0.755213 0.939364
0.771321 0.751642 0.937369
0.874716 0.746945 0.933782
0.908737 0.742175 0.932349
0.919575 0.737355 0.928479
0.923378 0.739725 0.925006
0.922582 0.790999 0.922109
0.109475 0.801574 0.929910
0.128868 0.800521 0.929433
0.285126 0.798223 0.927858
0.604548 0.795046 0.925397
0.813622 0.791462 0.922609
0.878599 0.789550 0.920045
0.904674 0.789562 0.917945
0.912869 0.795125 0.916291
0.914538 0.833606 0.915073
0.079207 0.856449 0.920747
0.083668 0.855953 0.920343
0.129831 0.854756 0.918977
0.391869 0.852552 0.916783
0.687523 0.849503 0.914236
0.835751 0.847141 0.911958
0.883367 0.847200 0.910289
0.903836 0.850448 0.909479
0.908130 0.864792 0.909308
0.066708 0.886775 0.915253
0.067273 0.886386 0.915093
0.071006 0.885544 0.914290
0.109621 0.884034 0.912669
0.397473 0.881500 0.910455
0.712756 0.880049 0.908050
0.851081 0.879369 0.907734
0.891877 0.879757 0.907557
0.904232 0.886760 0.907664
0.065446 0.896882 0.885514
0.065446 0.905915 0.896308
0.065446 0.904673 0.894882
0.065446 0.904465 0.892462
0.068661 0.913188 0.907177
0.142432 0.910275 0.907767
0.505347 0.908420 0.907639
0.806407 0.908303 0.906825
0.902425 0.910057 0.906664
