LUTs/provia100f/Provia100F_Classic_RadianceIII.cube
TITLE "Fuji Provia 100F Classic RadianceIII"
# Adobe RGB in/out. REPLACES AgX. Fuji Provia 100F Classic RadianceIII.
LUT_3D_SIZE 33
DOMAIN_MIN 0.0 0.0 0.0
DOMAIN_MAX 1.0 1.0 1.0
0.079466 0.087905 0.084059
0.080525 0.088047 0.084173
0.081121 0.088099 0.084215
0.085702 0.088439 0.084391
0.107543 0.089719 0.084620
0.122524 0.090390 0.084811
0.157725 0.091657 0.085179
0.223361 0.093254 0.085690
0.261791 0.093963 0.085916
0.317244 0.096973 0.086359
0.398206 0.101819 0.086902
0.459624 0.105398 0.087192
0.516070 0.109041 0.087442
0.581079 0.113793 0.087865
0.654838 0.121608 0.088383
0.710377 0.126754 0.089124
0.760370 0.131542 0.089935
0.805966 0.138628 0.090884
0.844205 0.149577 0.092473
0.875437 0.155599 0.093887
0.894441 0.161971 0.096123
0.908694 0.169324 0.098743
0.922035 0.176905 0.101465
0.931938 0.180023 0.104203
0.937192 0.183901 0.108499
0.941751 0.186668 0.114694
0.947370 0.179461 0.121640
0.950212 0.178464 0.146417
0.955373 0.167428 0.329925
0.955372 0.167346 0.329885
0.955372 0.167341 0.329882
0.955372 0.167344 0.329881
0.957219 0.425477 0.499653
0.079495 0.088592 0.084118
0.080310 0.088808 0.084195
0.082580 0.088285 0.084195
0.088535 0.088856 0.084426
0.113206 0.090192 0.084688
0.126398 0.090678 0.084853
0.161065 0.091978 0.085231
0.224658 0.093491 0.085727
0.261842 0.094463 0.085943
0.316247 0.097554 0.086391
0.396182 0.102309 0.086919
0.457145 0.106070 0.087205
0.513484 0.109624 0.087459
0.578522 0.114478 0.087878
0.652497 0.122336 0.088394
0.708248 0.127423 0.089150
0.758587 0.132160 0.089957
0.804715 0.139559 0.090906
0.843213 0.150494 0.092496
0.874918 0.156479 0.093925
0.894085 0.162822 0.096154
0.908427 0.170157 0.098768
0.921838 0.177895 0.101482
0.931857 0.180999 0.104214
0.937134 0.184866 0.108490
0.941710 0.187627 0.114648
0.947341 0.180394 0.121448
0.950194 0.179331 0.145594
0.955373 0.167430 0.329925
0.955372 0.167346 0.329885
0.955372 0.167341 0.329882
0.955372 0.167345 0.329881
0.957219 0.425480 0.499653
0.079516 0.089097 0.084143
0.079671 0.089203 0.084229
0.080645 0.089374 0.084251
0.086141 0.090351 0.084509
0.108542 0.091745 0.084830
0.130963 0.091950 0.084954
0.169241 0.093135 0.085399
0.232804 0.095536 0.085867
0.264105 0.096986 0.086068
0.313867 0.099777 0.086511
0.389545 0.104581 0.086981
0.448499 0.108600 0.087253
0.504219 0.111803 0.087519
0.569211 0.117029 0.087928
0.643787 0.125042 0.088435
0.700369 0.129895 0.089245
0.751969 0.134438 0.090038
0.800059 0.143003 0.091003
0.839522 0.153874 0.092577
0.872983 0.159713 0.094064
0.892671 0.165946 0.096268
0.907436 0.173803 0.098857
0.921106 0.181526 0.101545
0.931556 0.184576 0.104260
0.936920 0.188403 0.108467
0.941557 0.191065 0.114495
0.947234 0.183816 0.120811
0.950129 0.182514 0.142797
0.955373 0.167437 0.329929
0.955372 0.167347 0.329885
0.955372 0.167341 0.329883
0.955372 0.167348 0.329881
0.957219 0.425486 0.499652
0.079613 0.091683 0.084302
0.079745 0.091815 0.084394
0.080511 0.092173 0.084504
0.083075 0.092402 0.084652
0.093735 0.094627 0.085016
0.111852 0.093912 0.085168
0.150899 0.096770 0.085605
0.216449 0.100870 0.086065
0.256950 0.101576 0.086317
0.307484 0.103942 0.086664
0.379996 0.110617 0.087100
0.434357 0.114108 0.087345
0.487690 0.117276 0.087633
0.551782 0.122540 0.088021
0.626400 0.130411 0.088615
0.684941 0.134751 0.089425
0.738891 0.141316 0.090190
0.790798 0.149761 0.091185
0.832170 0.160465 0.092730
0.869077 0.165988 0.094326
0.889719 0.172329 0.096486
0.905464 0.180883 0.099030
0.919653 0.188533 0.101670
0.930960 0.191374 0.104360
0.936496 0.194910 0.108455
0.941255 0.197453 0.114263
0.947023 0.190384 0.119829
0.950000 0.188673 0.138307
0.955373 0.167452 0.329935
0.955372 0.167349 0.329886
0.955372 0.167342 0.329883
0.955372 0.167360 0.329881
0.957219 0.425489 0.499651
0.079792 0.099189 0.084562
0.079934 0.099475 0.084675
0.080627 0.100616 0.084849
0.082995 0.101805 0.085037
0.088436 0.102626 0.085365
0.099234 0.101129 0.085464
0.127713 0.104231 0.085816
0.179026 0.109658 0.086376
0.225907 0.109402 0.086581
0.284653 0.111839 0.086849
0.360973 0.119582 0.087266
0.413559 0.123146 0.087539
0.465091 0.126263 0.087805
0.527110 0.131748 0.088164
0.599101 0.142391 0.088949
0.659760 0.147801 0.089705
0.717060 0.153293 0.090426
0.772313 0.161022 0.091469
0.819651 0.171545 0.092970
0.859025 0.177445 0.094738
0.884661 0.184127 0.096831
0.902101 0.192254 0.099306
0.917186 0.199320 0.101878
0.929947 0.201887 0.104548
0.935781 0.205252 0.108505
0.940746 0.207704 0.114030
0.946668 0.200491 0.118766
0.949780 0.198205 0.133369
0.955373 0.167482 0.329949
0.955372 0.167352 0.329888
0.955372 0.167343 0.329884
0.955373 0.167470 0.329882
0.957219 0.425490 0.499651
0.079908 0.104875 0.084763
0.080000 0.105060 0.084829
0.080508 0.106575 0.084951
0.081779 0.108175 0.085244
0.085101 0.109642 0.085461
0.091736 0.110766 0.085737
0.111557 0.116375 0.086099
0.149236 0.124005 0.086698
0.186940 0.121792 0.086800
0.245512 0.124346 0.087037
0.324796 0.132307 0.087463
0.383143 0.135447 0.087774
0.437290 0.139105 0.088023
0.499777 0.146311 0.088351
0.571606 0.157872 0.089373
0.630488 0.163624 0.090071
0.687130 0.169721 0.090748
0.743424 0.180226 0.091873
0.799349 0.191881 0.093541
0.842540 0.196220 0.095334
0.876320 0.201625 0.097333
0.896584 0.208841 0.099717
0.913160 0.215673 0.102201
0.928298 0.217939 0.104874
0.934625 0.221101 0.108699
0.939927 0.223479 0.113915
0.946092 0.215950 0.117988
0.949420 0.212716 0.129283
0.955373 0.167545 0.329975
0.955372 0.167358 0.329891
0.955372 0.167346 0.329886
0.957218 0.425378 0.329882
0.957219 0.425491 0.499650
0.080208 0.121601 0.085126
0.080314 0.121764 0.085201
0.080812 0.123505 0.085435
0.081926 0.125817 0.085677
0.084825 0.128251 0.085920
0.090293 0.130383 0.086201
0.103464 0.131983 0.086543
0.132072 0.144480 0.086976
0.157967 0.139546 0.087056
0.206918 0.142202 0.087255
0.284061 0.154729 0.087755
0.344326 0.158209 0.088039
0.400078 0.159632 0.088241
0.465366 0.165977 0.088713
0.539774 0.179493 0.089881
0.597761 0.186532 0.090540
0.657072 0.190953 0.091245
0.717730 0.199303 0.092346
0.776185 0.212068 0.094388
0.822043 0.218266 0.096098
0.860911 0.226030 0.098018
0.886689 0.234414 0.100303
0.906489 0.240247 0.102698
0.923606 0.241755 0.105406
0.932730 0.244236 0.109147
0.938594 0.246266 0.114073
0.945144 0.239297 0.117916
0.948821 0.235192 0.126662
0.955374 0.167704 0.330038
0.955373 0.167374 0.329898
0.955372 0.167353 0.329889
0.957219 0.425484 0.329884
0.957219 0.425491 0.499650
0.080550 0.150890 0.085668
0.080661 0.151096 0.085718
0.081221 0.153910 0.085909
0.082490 0.157239 0.086211
0.084988 0.161319 0.086543
0.090024 0.165569 0.086812
0.101485 0.169070 0.087020
0.120262 0.172100 0.087229
0.141530 0.165709 0.087291
0.177750 0.167992 0.087533
0.245139 0.183590 0.088059
0.304133 0.185970 0.088308
0.359117 0.186198 0.088548
0.425332 0.192922 0.089333
0.503507 0.206260 0.090424
0.563333 0.210851 0.091066
0.622429 0.215494 0.091876
0.683994 0.225194 0.092933
0.746265 0.238061 0.095445
0.800639 0.241706 0.097014
0.843954 0.247461 0.098814
0.877410 0.256121 0.101004
0.898944 0.264587 0.103559
0.916857 0.269430 0.106175
0.929441 0.275773 0.109992
0.936302 0.277214 0.114693
0.943467 0.272108 0.119033
0.947757 0.267613 0.126284
0.955378 0.168356 0.330258
0.955373 0.167428 0.329923
0.955373 0.167373 0.329900
0.957219 0.425490 0.329888
0.957219 0.425491 0.499650
0.080778 0.169303 0.085890
0.080879 0.169443 0.085926
0.081276 0.171347 0.086103
0.082315 0.175472 0.086433
0.084381 0.180274 0.086698
0.087931 0.185182 0.086922
0.095315 0.190146 0.087145
0.108791 0.193866 0.087329
0.129570 0.196906 0.087587
0.156315 0.199857 0.087851
0.213254 0.217171 0.088361
0.267593 0.218639 0.088802
0.320890 0.217643 0.089261
0.384072 0.223289 0.089970
0.462588 0.236849 0.091068
0.525220 0.240259 0.091832
0.585504 0.244061 0.092571
0.650621 0.252413 0.094046
0.716286 0.264103 0.096613
0.771783 0.268538 0.098096
0.819032 0.275280 0.099821
0.862583 0.281144 0.101877
0.890363 0.287731 0.104599
0.910968 0.290886 0.107047
0.926271 0.295806 0.110905
0.934106 0.301797 0.115487
0.941313 0.304681 0.120707
0.945857 0.309792 0.128446
0.955474 0.190201 0.332800
0.955376 0.168098 0.330176
0.955373 0.167515 0.329968
0.957219 0.425491 0.329909
0.957219 0.425492 0.499650
0.081108 0.201061 0.086301
0.081185 0.201188 0.086347
0.081482 0.202569 0.086516
0.082569 0.206510 0.086726
0.084325 0.210883 0.086948
0.087266 0.216140 0.087160
0.092596 0.221170 0.087363
0.104384 0.225855 0.087645
0.121305 0.229881 0.087908
0.144207 0.233266 0.088157
0.188557 0.252460 0.088975
0.237265 0.253775 0.089562
0.287014 0.251661 0.089948
0.346192 0.256386 0.090625
0.421231 0.268933 0.091933
0.484436 0.271100 0.092626
0.546712 0.273402 0.093539
0.613533 0.280030 0.095430
0.682782 0.291517 0.097927
0.740451 0.295058 0.099304
0.796452 0.298874 0.100869
0.841084 0.306342 0.102940
0.877508 0.315538 0.105865
0.901834 0.319043 0.108473
0.919965 0.322480 0.112102
0.931665 0.327452 0.116409
0.939725 0.329284 0.121516
0.944830 0.332987 0.128502
0.949810 0.337780 0.136525
0.953043 0.346817 0.155920
0.956164 0.362126 0.297357
0.957219 0.425493 0.333599
0.957219 0.425492 0.499650
0.081547 0.249830 0.086843
0.081608 0.249964 0.086869
0.082076 0.251116 0.086964
0.083329 0.255858 0.087145
0.084906 0.260288 0.087339
0.087832 0.264636 0.087627
0.092869 0.269711 0.087926
0.104054 0.274481 0.088202
0.119717 0.278858 0.088450
0.141200 0.282550 0.089111
0.170910 0.285800 0.089752
0.211777 0.286768 0.090272
0.257574 0.284400 0.090646
0.313532 0.288286 0.091430
0.383295 0.300261 0.092807
0.444188 0.301286 0.093828
0.506738 0.302378 0.095072
0.574548 0.308275 0.096858
0.648126 0.320390 0.099307
0.708083 0.322567 0.100567
0.765928 0.327494 0.102063
0.816745 0.335857 0.104474
0.862906 0.342589 0.107233
0.892499 0.346413 0.110068
0.911882 0.352979 0.113565
0.927458 0.361562 0.117909
0.937200 0.361696 0.122829
0.943230 0.363527 0.129150
0.948792 0.366142 0.136202
0.952472 0.371645 0.149574
0.955984 0.371542 0.243369
0.957219 0.425494 0.344973
0.957219 0.425497 0.349034
0.081946 0.281100 0.087114
0.082077 0.281206 0.087135
0.082572 0.282019 0.087211
0.083593 0.285545 0.087360
0.084941 0.289026 0.087616
0.087532 0.293515 0.087905
0.091939 0.298616 0.088199
0.101341 0.303084 0.088467
0.114075 0.307688 0.089149
0.132870 0.312060 0.089782
0.155808 0.315727 0.090386
0.192392 0.319054 0.091021
0.233155 0.315789 0.091462
0.285852 0.320399 0.092347
0.350370 0.333551 0.094276
0.406946 0.333702 0.095476
0.468051 0.334435 0.096685
0.536190 0.340206 0.098398
0.610227 0.351650 0.100677
0.672728 0.353155 0.101874
0.733438 0.358457 0.103616
0.792670 0.365014 0.106077
0.840233 0.373471 0.109218
0.879191 0.378451 0.111940
0.903420 0.382641 0.115212
0.921626 0.389285 0.119793
0.934354 0.393772 0.124472
0.940877 0.400610 0.130457
0.947051 0.405274 0.137537
0.951481 0.407055 0.147828
0.955542 0.394180 0.187084
0.957219 0.425497 0.345030
0.957219 0.425503 0.352867
0.082425 0.306956 0.087317
0.082534 0.307045 0.087334
0.082944 0.307681 0.087413
0.083773 0.310301 0.087604
0.085035 0.314372 0.087850
0.087295 0.319155 0.088118
0.090924 0.323919 0.088382
0.098732 0.328973 0.088972
0.109369 0.334134 0.089636
0.125551 0.338742 0.090256
0.145682 0.342912 0.090845
0.173822 0.346331 0.091600
0.212910 0.349650 0.092391
0.260861 0.354153 0.093321
0.322425 0.368377 0.096036
0.374766 0.368263 0.097165
0.431567 0.368385 0.098263
0.498709 0.373919 0.099950
0.572971 0.385004 0.102216
0.636503 0.385811 0.103499
0.699823 0.389911 0.105351
0.762070 0.396989 0.107984
0.816305 0.406072 0.111384
0.864674 0.408801 0.113861
0.893014 0.415268 0.117078
0.912924 0.424208 0.122107
0.931111 0.426138 0.126366
0.938804 0.430633 0.131844
0.945501 0.437326 0.138751
0.950152 0.446479 0.148765
0.953792 0.464192 0.165259
0.957219 0.425556 0.345105
0.957219 0.425544 0.358411
0.082999 0.341748 0.087664
0.083092 0.341834 0.087687
0.083439 0.342378 0.087771
0.084130 0.344430 0.087933
0.085475 0.349097 0.088169
0.087511 0.353144 0.088409
0.090792 0.357865 0.089012
0.097783 0.363268 0.089706
0.107355 0.368654 0.090367
0.121526 0.373526 0.091000
0.139663 0.378129 0.091801
0.163252 0.382313 0.092595
0.197512 0.385782 0.093555
0.240695 0.389102 0.095068
0.298052 0.403817 0.097691
0.346923 0.403912 0.098837
0.399904 0.403287 0.099864
0.463436 0.408254 0.101429
0.536837 0.419413 0.104055
0.599651 0.420161 0.105513
0.665219 0.423571 0.107303
0.730338 0.430547 0.110298
0.792330 0.438281 0.113547
0.841787 0.442176 0.115960
0.880204 0.448729 0.119681
0.904688 0.455341 0.124409
0.926406 0.460128 0.128525
0.935614 0.467557 0.133706
0.943566 0.471530 0.140224
0.949043 0.477334 0.148887
0.953195 0.489569 0.161186
0.955771 0.510208 0.208204
0.957160 0.541309 0.364747
0.083693 0.386285 0.088120
0.083774 0.386391 0.088140
0.084074 0.386952 0.088213
0.084663 0.388783 0.088353
0.086172 0.393843 0.088794
0.088180 0.397401 0.089390
0.091328 0.402843 0.090064
0.098236 0.408320 0.090712
0.107175 0.413981 0.091554
0.120631 0.419523 0.092412
0.137950 0.424794 0.093400
0.159018 0.429372 0.094924
0.191213 0.433351 0.096452
0.231466 0.436854 0.097879
0.277193 0.440037 0.099336
0.322682 0.439713 0.100387
0.372119 0.439408 0.101437
0.431629 0.444233 0.103095
0.502710 0.455048 0.106086
0.564005 0.455240 0.107531
0.630028 0.458361 0.109798
0.697810 0.465025 0.112739
0.762757 0.472169 0.115835
0.817743 0.476511 0.118539
0.865845 0.481573 0.122347
0.894330 0.489701 0.126997
0.918580 0.494025 0.130885
0.932741 0.498772 0.135750
0.941274 0.505857 0.142158
0.947303 0.514992 0.150137
0.952227 0.523088 0.160609
0.955294 0.535531 0.187186
0.957101 0.547493 0.355797
0.084078 0.418976 0.088382
0.084148 0.419071 0.088400
0.084409 0.419550 0.088482
0.085016 0.421039 0.088819
0.086327 0.424981 0.089352
0.088315 0.429204 0.089940
0.091332 0.435126 0.090613
0.097246 0.439577 0.091330
0.105412 0.445071 0.092202
0.117204 0.450956 0.093082
0.132558 0.456168 0.094656
0.150878 0.460983 0.096210
0.178687 0.465554 0.097716
0.214280 0.469367 0.099159
0.256107 0.472879 0.100536
0.302200 0.476077 0.101933
0.347649 0.475594 0.103023
0.403474 0.480388 0.105152
0.471264 0.491223 0.108440
0.531207 0.491277 0.110159
0.594957 0.493562 0.112254
0.664525 0.499720 0.115166
0.732199 0.506462 0.118591
0.793669 0.509871 0.121486
0.843814 0.515317 0.125186
0.882309 0.523261 0.129693
0.910068 0.527110 0.133333
0.928804 0.533803 0.138414
0.938696 0.539526 0.144379
0.945816 0.545299 0.151493
0.951118 0.556296 0.161325
0.954429 0.572930 0.182717
0.956840 0.570158 0.304393
0.084418 0.451837 0.088917
0.084480 0.451921 0.088960
0.084708 0.452329 0.089116
0.085382 0.453541 0.089412
0.086510 0.456633 0.089877
0.088531 0.461437 0.090458
0.090996 0.465559 0.091094
0.096331 0.470702 0.091952
0.104025 0.476371 0.092807
0.114002 0.481898 0.094204
0.127929 0.487252 0.095850
0.145009 0.492254 0.097395
0.168228 0.496991 0.098862
0.199316 0.501130 0.100312
0.238134 0.504781 0.101689
0.281282 0.508163 0.103168
0.327027 0.511337 0.105043
0.378540 0.516131 0.107127
0.442413 0.526750 0.111013
0.500154 0.526597 0.112663
0.562547 0.528873 0.114773
0.631372 0.534430 0.117802
0.700848 0.540976 0.121766
0.764792 0.543848 0.124519
0.820945 0.549348 0.128139
0.869681 0.556172 0.132448
0.900125 0.560964 0.136065
0.922084 0.566358 0.141103
0.935776 0.572633 0.146789
0.943656 0.580408 0.153459
0.949925 0.588386 0.162141
0.953853 0.599957 0.178903
0.956221 0.619988 0.236861
0.084845 0.489275 0.089679
0.084931 0.489360 0.089717
0.085248 0.489746 0.089856
0.085857 0.490804 0.090119
0.086844 0.493333 0.090529
0.089014 0.498704 0.091201
0.091117 0.501671 0.091916
0.096500 0.507377 0.092793
0.103557 0.512533 0.094153
0.112294 0.517748 0.095771
0.125461 0.523324 0.097417
0.141395 0.528665 0.098978
0.161586 0.533672 0.100508
0.189767 0.537830 0.101883
0.225756 0.541841 0.103560
0.265927 0.545295 0.105405
0.309864 0.548459 0.107224
0.357046 0.551612 0.109639
0.416589 0.561950 0.113528
0.471916 0.561838 0.115145
0.532359 0.563618 0.117263
0.599067 0.569106 0.120993
0.669265 0.575405 0.124946
0.734877 0.577957 0.127599
0.797637 0.583489 0.131156
0.849425 0.589972 0.135328
0.889368 0.594699 0.139164
0.913957 0.600012 0.143966
0.932181 0.607491 0.149470
0.941609 0.612588 0.155560
0.948550 0.621798 0.163845
0.952938 0.635098 0.178634
0.955864 0.648438 0.214740
0.085537 0.530872 0.090560
0.085615 0.530972 0.090595
0.085900 0.531391 0.090720
0.086447 0.532423 0.090981
0.087479 0.534677 0.091502
0.089503 0.539331 0.092251
0.091769 0.543089 0.092972
0.097095 0.548346 0.094539
0.103615 0.553280 0.096170
0.112239 0.559171 0.097864
0.124891 0.564794 0.099468
0.140072 0.570302 0.101083
0.157973 0.575246 0.102575
0.185053 0.579866 0.104556
0.218297 0.583940 0.106452
0.257565 0.587888 0.108806
0.299271 0.591259 0.111206
0.343888 0.594189 0.113514
0.393930 0.597380 0.115962
0.445758 0.597340 0.117713
0.504168 0.599336 0.120417
0.568891 0.604355 0.124135
0.638453 0.610498 0.128049
0.704945 0.612934 0.130660
0.770558 0.617821 0.134116
0.828071 0.624335 0.138669
0.877276 0.628592 0.142297
0.904912 0.634599 0.146984
0.928668 0.640535 0.152087
0.939028 0.646960 0.157925
0.947003 0.655798 0.166053
0.952202 0.665181 0.178759
0.955413 0.681648 0.206583
0.085833 0.564412 0.091064
0.085904 0.564498 0.091109
0.086163 0.564853 0.091271
0.086658 0.565712 0.091578
0.087666 0.567549 0.092054
0.089465 0.571270 0.092734
0.091760 0.575659 0.093891
0.096240 0.579587 0.095402
0.102744 0.585051 0.097088
0.110442 0.590721 0.098761
0.121643 0.595811 0.100303
0.135381 0.601302 0.101874
0.151524 0.606607 0.103697
0.175545 0.611539 0.105720
0.205641 0.616113 0.107853
0.242052 0.620100 0.110285
0.281892 0.623799 0.112761
0.324206 0.627252 0.115155
0.370290 0.630209 0.117581
0.422483 0.633489 0.120755
0.478355 0.635111 0.123413
0.540923 0.640277 0.127175
0.608300 0.646046 0.131128
0.674991 0.648424 0.133651
0.742490 0.653012 0.137329
0.805883 0.658998 0.141957
0.861714 0.663172 0.145447
0.895365 0.669154 0.150017
0.921788 0.675015 0.154848
0.936090 0.681559 0.160358
0.945357 0.689057 0.168266
0.951199 0.699611 0.180087
0.954994 0.712803 0.201931
0.086122 0.599499 0.091725
0.086187 0.599583 0.091766
0.086424 0.599919 0.091917
0.086877 0.600701 0.092201
0.087891 0.602303 0.092640
0.089511 0.605434 0.093443
0.091902 0.610484 0.095050
0.095837 0.613598 0.096420
0.102409 0.619638 0.098182
0.108846 0.623863 0.099663
0.119502 0.629638 0.101290
0.132610 0.635475 0.102979
0.147636 0.640602 0.105075
0.168310 0.645519 0.107068
0.195891 0.650348 0.109664
0.229959 0.654737 0.112179
0.267083 0.658488 0.114580
0.307588 0.661992 0.116997
0.351548 0.665478 0.120158
0.399694 0.668466 0.123161
0.454368 0.671786 0.126301
0.514870 0.676142 0.130042
0.579789 0.681965 0.133992
0.646280 0.684443 0.136751
0.714494 0.688582 0.140610
0.782281 0.694336 0.145240
0.841241 0.698354 0.148585
0.884528 0.703670 0.152966
0.913747 0.709917 0.157665
0.933006 0.715506 0.162784
0.943352 0.723330 0.170749
0.950221 0.731622 0.181510
0.954527 0.744098 0.200244
0.086440 0.636362 0.092467
0.086501 0.636455 0.092506
0.086720 0.636819 0.092647
0.087194 0.637616 0.092911
0.088201 0.639150 0.093555
0.089677 0.641978 0.094736
0.092057 0.647115 0.096348
0.095916 0.650479 0.097705
0.101681 0.655439 0.099310
0.108225 0.660658 0.100898
0.118382 0.666605 0.102532
0.129802 0.671796 0.104595
0.144448 0.677440 0.106749
0.163121 0.682778 0.109345
0.188772 0.687641 0.111917
0.220447 0.692269 0.114546
0.256158 0.696302 0.117033
0.295219 0.699944 0.120243
0.336611 0.703225 0.123403
0.383013 0.706623 0.126598
0.433667 0.709597 0.129656
0.490650 0.712848 0.132775
0.553517 0.717853 0.136927
0.617588 0.720410 0.139795
0.686055 0.724059 0.143712
0.755390 0.729193 0.148371
0.820243 0.733209 0.151642
0.872828 0.737934 0.155929
0.905307 0.743686 0.160455
0.929503 0.748961 0.165733
0.941228 0.756061 0.173205
0.949095 0.764090 0.183242
0.954002 0.775422 0.199855
0.086655 0.674656 0.093122
0.086712 0.674753 0.093197
0.086917 0.675125 0.093466
0.087452 0.675913 0.093974
0.088389 0.677364 0.094760
0.089753 0.679923 0.095876
0.091910 0.684379 0.097397
0.095960 0.688694 0.098892
0.101109 0.692870 0.100373
0.107861 0.698938 0.102096
0.116456 0.703710 0.103940
0.127985 0.709633 0.106169
0.142313 0.715655 0.108817
0.158211 0.720495 0.111480
0.182442 0.725264 0.114092
0.211674 0.729793 0.116708
0.246244 0.733967 0.120073
0.284139 0.737660 0.123395
0.323829 0.740962 0.126628
0.367571 0.743940 0.129820
0.416223 0.747039 0.133008
0.470144 0.749953 0.136268
0.529002 0.753051 0.139845
0.590659 0.755574 0.142685
0.658560 0.758866 0.146574
0.728553 0.763421 0.151267
0.798574 0.767367 0.154481
0.855843 0.771481 0.158696
0.896656 0.776634 0.163290
0.923882 0.781598 0.168720
0.938907 0.787545 0.175561
0.947804 0.794348 0.185151
0.953547 0.802438 0.199862
0.086573 0.713034 0.093647
0.086626 0.713119 0.093718
0.086821 0.713440 0.093977
0.087272 0.714111 0.094463
0.088153 0.715304 0.095215
0.089432 0.717334 0.096283
0.091260 0.720818 0.097736
0.095239 0.725422 0.099401
0.099888 0.728697 0.100780
0.106223 0.734120 0.102516
0.113947 0.738661 0.104568
0.125470 0.744459 0.106887
0.137741 0.749336 0.109545
0.152678 0.754788 0.112412
0.175574 0.759940 0.115191
0.202086 0.764339 0.118009
0.234484 0.768306 0.121473
0.270190 0.771882 0.124842
0.308915 0.775138 0.128172
0.350283 0.778084 0.131386
0.396552 0.780860 0.134583
0.447495 0.783621 0.138052
0.504077 0.786526 0.141687
0.565441 0.789588 0.145308
0.631612 0.791902 0.149213
0.701720 0.795057 0.153901
0.773990 0.798372 0.157037
0.836041 0.801446 0.161231
0.886438 0.805548 0.166105
0.916945 0.809661 0.171666
0.936354 0.814420 0.177935
0.946480 0.819819 0.186623
0.953035 0.827744 0.200313
0.086493 0.748001 0.094280
0.086544 0.748089 0.094349
0.086729 0.748418 0.094596
0.087103 0.749085 0.095061
0.087937 0.750246 0.095781
0.089143 0.752169 0.096803
0.090825 0.755327 0.098193
0.094688 0.760560 0.100042
0.098951 0.763546 0.101338
0.104657 0.768018 0.103082
0.112216 0.773164 0.105446
0.122331 0.777742 0.107735
0.134712 0.782959 0.110691
0.149175 0.788139 0.113640
0.168272 0.792383 0.116344
0.193597 0.796206 0.119756
0.224795 0.799697 0.123321
0.259410 0.802747 0.126827
0.296827 0.805476 0.130176
0.336305 0.807967 0.133502
0.379795 0.810268 0.136918
0.428161 0.812494 0.140559
0.482117 0.814668 0.144136
0.540948 0.817139 0.147842
0.605423 0.819718 0.151530
0.674951 0.822241 0.156241
0.748199 0.825840 0.159285
0.815347 0.828333 0.163561
0.875145 0.832194 0.168661
0.909570 0.835992 0.173864
0.933652 0.840633 0.180149
0.945083 0.845587 0.188052
0.952489 0.852603 0.200704
0.086304 0.781412 0.094782
0.086353 0.781502 0.094848
0.086531 0.781837 0.095086
0.086866 0.782499 0.095536
0.087579 0.783610 0.096232
0.088732 0.785378 0.097222
0.090334 0.788161 0.098569
0.093222 0.792290 0.100364
0.098020 0.795466 0.101888
0.103240 0.798812 0.103717
0.110887 0.803838 0.106377
0.119876 0.807264 0.108772
0.132452 0.812076 0.111980
0.145234 0.815896 0.114731
0.163197 0.820202 0.117951
0.187115 0.824044 0.121640
0.215505 0.827475 0.125237
0.248774 0.830570 0.128819
0.285334 0.833270 0.132303
0.323447 0.835733 0.135769
0.365049 0.837970 0.139599
0.411332 0.840104 0.143354
0.462827 0.842153 0.147020
0.519006 0.844210 0.150633
0.580541 0.846637 0.154420
0.649069 0.849170 0.158180
0.722558 0.853134 0.161120
0.794479 0.855182 0.165795
0.859932 0.858700 0.170633
0.901664 0.862134 0.175803
0.930690 0.866385 0.181775
0.943597 0.870487 0.189209
0.952108 0.874735 0.201075
0.085363 0.815787 0.093795
0.085412 0.815848 0.093860
0.085591 0.816072 0.094098
0.085930 0.816512 0.094548
0.086458 0.817239 0.095249
0.087316 0.818384 0.096254
0.088933 0.820177 0.097639
0.091172 0.823059 0.099512
0.095655 0.826437 0.101426
0.100544 0.829185 0.103018
0.107196 0.833227 0.105614
0.116112 0.837205 0.108306
0.127011 0.841179 0.111356
0.140475 0.845349 0.114464
0.155426 0.849312 0.117662
0.177802 0.852986 0.121429
0.205268 0.856567 0.125286
0.237312 0.859640 0.128954
0.271429 0.862231 0.132475
0.308600 0.864596 0.136030
0.348428 0.866779 0.139922
0.392747 0.868827 0.143745
0.442244 0.870273 0.147495
0.496970 0.871615 0.151178
