LUTs/provia100f/Provia100F_Modern_ExtraSoft.cube
TITLE "Fuji Provia 100F Modern ExtraSoft"
# Adobe RGB in/out. REPLACES AgX. Fuji Provia 100F Modern ExtraSoft.
LUT_3D_SIZE 5
DOMAIN_MIN 0.0 0.0 0.0
DOMAIN_MAX 1.0 1.0 1.0
0.065446 0.069518 0.085077
0.494487 0.069696 0.085076
0.912214 0.080651 0.085219
0.939086 0.108049 0.086861
0.937250 0.629823 0.722637
0.065446 0.161679 0.085076
0.071475 0.093249 0.085074
0.808123 0.178366 0.085224
0.926444 0.343342 0.086436
0.932905 0.603647 0.698450
0.065456 0.765587 0.085153
0.067747 0.732084 0.085249
0.326227 0.673712 0.085516
0.867924 0.710603 0.086701
0.921993 0.765004 0.112084
0.065483 0.882831 0.085258
0.066214 0.879385 0.085543
0.124429 0.871173 0.086431
0.714799 0.860959 0.087718
0.908508 0.866029 0.092572
0.065446 0.901290 0.085074
0.065446 0.913836 0.085074
0.069094 0.916192 0.085255
0.404093 0.910572 0.086180
0.902684 0.907976 0.086772
0.065446 0.069518 0.183241
0.384288 0.070905 0.567397
0.913197 0.085305 0.392789
0.936348 0.117536 0.432301
0.935629 0.621058 0.713571
0.065586 0.091518 0.106846
0.084878 0.078458 0.092066
0.831690 0.154168 0.120923
0.924667 0.328770 0.171258
0.931272 0.590938 0.689547
0.066897 0.719579 0.106794
0.074514 0.679274 0.103429
0.492179 0.613057 0.098729
0.877335 0.685203 0.111163
0.920010 0.761441 0.424762
0.066226 0.876922 0.094457
0.069385 0.873065 0.097337
0.206643 0.862262 0.102719
0.777978 0.854426 0.108635
0.907851 0.864019 0.128905
0.065446 0.902162 0.085946
0.065446 0.914224 0.085878
0.071614 0.914767 0.087398
0.460552 0.909228 0.091934
0.903412 0.907523 0.094421
0.065437 0.072443 0.834666
0.340890 0.093900 0.892971
0.919296 0.200351 0.888821
0.937127 0.246741 0.845514
0.934901 0.617241 0.837713
0.067007 0.244509 0.824375
0.208953 0.284071 0.829981
0.858689 0.332111 0.807137
0.925113 0.430673 0.802961
0.930274 0.583296 0.815176
0.069517 0.645812 0.658336
0.086610 0.616800 0.621099
0.533457 0.546341 0.546883
0.880406 0.671424 0.657077
0.917562 0.765571 0.767055
0.069783 0.863356 0.600691
0.078505 0.859417 0.596292
0.344868 0.847964 0.576379
0.814933 0.838502 0.565282
0.906049 0.861736 0.672166
0.065446 0.908556 0.577840
0.065446 0.910283 0.563378
0.084581 0.911032 0.470157
0.549075 0.906338 0.481843
0.903249 0.907227 0.532759
0.065495 0.117193 0.932931
0.195734 0.272420 0.937554
0.915286 0.477076 0.937944
0.942219 0.490776 0.924725
0.936782 0.627125 0.907836
0.068142 0.460997 0.932935
0.230444 0.559512 0.936472
0.886306 0.596406 0.930018
0.931022 0.579439 0.913942
0.932018 0.596280 0.901256
0.072471 0.694701 0.885655
0.110576 0.696109 0.884046
0.687001 0.698367 0.876059
0.893322 0.722723 0.874163
0.918513 0.780854 0.879313
0.071760 0.854464 0.840554
0.085321 0.851619 0.836670
0.409994 0.839172 0.827411
0.819981 0.826486 0.815494
0.905118 0.863353 0.847134
0.065446 0.904573 0.773462
0.065446 0.907672 0.768927
0.085007 0.909406 0.797350
0.561475 0.905573 0.791601
0.902610 0.908137 0.823653
0.096038 0.264473 0.948484
0.599858 0.324365 0.948485
0.940276 0.472958 0.948493
0.945371 0.462092 0.946609
0.939282 0.658201 0.936287
0.174240 0.524320 0.948451
0.634791 0.554809 0.948455
0.935849 0.625753 0.948304
0.942509 0.559753 0.943653
0.934682 0.632437 0.932940
0.184801 0.758776 0.940985
0.466623 0.755213 0.939364
0.874716 0.746945 0.933782
0.919575 0.737355 0.928479
0.922582 0.790999 0.922109
0.079207 0.856449 0.920747
0.129831 0.854756 0.918977
0.687523 0.849503 0.914236
0.883367 0.847200 0.910289
0.908130 0.864792 0.909308
0.065446 0.896882 0.885514
0.065446 0.904673 0.894882
0.068661 0.913188 0.907177
0.505347 0.908420 0.907639
0.902425 0.910057 0.906664
