LUTs/provia100f/Provia100F_Classic_RadianceIII.cube
TITLE "Fuji Provia 100F Classic RadianceIII"
# Adobe RGB in/out. REPLACES AgX. Fuji Provia 100F Classic RadianceIII.
LUT_3D_SIZE 5
DOMAIN_MIN 0.0 0.0 0.0
DOMAIN_MAX 1.0 1.0 1.0
0.079466 0.087905 0.084059
0.261791 0.093963 0.085916
0.760370 0.131542 0.089935
0.937192 0.183901 0.108499
0.957219 0.425477 0.499653
0.080778 0.169303 0.085890
0.129570 0.196906 0.087587
0.585504 0.244061 0.092571
0.926271 0.295806 0.110905
0.957219 0.425492 0.499650
0.084418 0.451837 0.088917
0.104025 0.476371 0.092807
0.327027 0.511337 0.105043
0.820945 0.549348 0.128139
0.956221 0.619988 0.236861
0.086493 0.748001 0.094280
0.098951 0.763546 0.101338
0.224795 0.799697 0.123321
0.605423 0.819718 0.151530
0.952489 0.852603 0.200704
0.079466 0.894792 0.088519
0.079466 0.933125 0.088530
0.131276 0.950308 0.101823
0.409983 0.951418 0.131827
0.954727 0.956347 0.147824
0.079987 0.091446 0.181641
0.220578 0.102014 0.279016
0.782924 0.142519 0.264031
0.936946 0.197286 0.304439
0.957219 0.425491 0.499689
0.087266 0.164096 0.167461
0.209888 0.210704 0.210500
0.664554 0.249281 0.221414
0.929971 0.299532 0.256237
0.957219 0.425492 0.499651
0.097543 0.439344 0.167265
0.138561 0.462092 0.185478
0.426509 0.497718 0.212653
0.871201 0.543642 0.240727
0.956134 0.624522 0.385218
0.098226 0.738639 0.161859
0.120560 0.754136 0.178952
0.282061 0.789011 0.214485
0.684643 0.812432 0.247221
0.953341 0.852412 0.288771
0.079466 0.900642 0.115834
0.079466 0.936061 0.115832
0.147126 0.948760 0.145458
0.440719 0.950384 0.199673
0.956039 0.956132 0.222574
0.081487 0.108079 0.483654
0.208517 0.136405 0.596423
0.737090 0.186327 0.598866
0.934105 0.246352 0.622256
0.957219 0.425492 0.679650
0.091879 0.198613 0.480760
0.195336 0.233265 0.540919
0.658929 0.277525 0.566264
0.928592 0.328580 0.600786
0.957219 0.425496 0.661567
0.118331 0.440496 0.449178
0.176024 0.461726 0.466873
0.510223 0.509996 0.510021
0.890683 0.549084 0.540014
0.955811 0.640489 0.654128
0.124032 0.733474 0.435276
0.156060 0.747518 0.446532
0.359968 0.779502 0.473479
0.776302 0.807538 0.500344
0.953991 0.856593 0.589871
0.079466 0.926881 0.464453
0.079466 0.934048 0.464450
0.193315 0.945640 0.432731
0.508596 0.948749 0.459379
0.956849 0.956722 0.499685
0.084138 0.152018 0.810856
0.166928 0.198870 0.846587
0.702856 0.250330 0.850198
0.931512 0.298796 0.857626
0.957219 0.425466 0.861537
0.094345 0.245586 0.812597
0.178533 0.279301 0.838220
0.650150 0.321408 0.845962
0.926312 0.369108 0.854621
0.957217 0.425243 0.856277
0.130527 0.468357 0.782832
0.194932 0.488724 0.803832
0.532324 0.526862 0.827515
0.897173 0.568506 0.842161
0.955558 0.663313 0.870012
0.138600 0.744209 0.749783
0.180273 0.757114 0.759947
0.401641 0.786943 0.789466
0.811160 0.814379 0.812284
0.954287 0.866673 0.861088
0.079469 0.928550 0.678516
0.079537 0.936233 0.679286
0.198486 0.947796 0.747390
0.525705 0.950759 0.760013
0.957030 0.958936 0.823884
0.133778 0.196767 0.955999
0.303899 0.209808 0.956019
0.854181 0.249000 0.956180
0.941507 0.276546 0.956880
0.957219 0.434012 0.954948
0.159054 0.265598 0.955372
0.316462 0.277481 0.955455
0.834789 0.310043 0.955757
0.940253 0.338507 0.956567
0.957219 0.438352 0.957168
0.206027 0.486372 0.953912
0.321284 0.494814 0.954219
0.755352 0.519478 0.954854
0.934787 0.547637 0.955883
0.957127 0.660472 0.958752
0.163317 0.762631 0.953767
0.236286 0.769624 0.954225
0.577930 0.788023 0.955103
0.913931 0.807142 0.956194
0.956889 0.862544 0.958582
0.079466 0.920240 0.905124
0.079466 0.937530 0.927542
0.132872 0.957950 0.950985
0.485364 0.957055 0.958204
0.957219 0.962249 0.959348
