LUTs/provia100f/Provia100F_Modern_ExtraSoft.cube
TITLE "Fuji Provia 100F Modern ExtraSoft"
# Adobe RGB in/out. REPLACES AgX. Fuji Provia 100F Modern ExtraSoft.
LUT_3D_SIZE 33
DOMAIN_MIN 0.0 0.0 0.0
DOMAIN_MAX 1.0 1.0 1.0
0.065446 0.069518 0.085077
0.065446 0.069518 0.085077
0.065446 0.069518 0.085077
0.065633 0.069518 0.085077
0.071475 0.069518 0.085077
0.082013 0.069518 0.085077
0.162527 0.069518 0.085077
0.379115 0.069618 0.085077
0.494487 0.069696 0.085076
0.606543 0.069970 0.085075
0.746542 0.070542 0.085074
0.805551 0.071229 0.085078
0.839850 0.071936 0.085091
0.867442 0.072955 0.085107
0.889060 0.075447 0.085149
0.903983 0.078214 0.085186
0.912214 0.080651 0.085219
0.919537 0.084064 0.085259
0.925001 0.089468 0.085379
0.929019 0.092224 0.085494
0.932074 0.095122 0.085618
0.934335 0.100016 0.085838
0.936329 0.106217 0.086105
0.938145 0.106704 0.086340
0.939086 0.108049 0.086861
0.939727 0.108009 0.087519
0.940809 0.097173 0.088494
0.940717 0.095160 0.092853
0.941594 0.088167 0.477672
0.940310 0.087066 0.469654
0.939031 0.086019 0.459153
0.937755 0.084989 0.448902
0.937250 0.629823 0.722637
0.065446 0.069518 0.085077
0.065446 0.069518 0.085077
0.065439 0.069518 0.085077
0.065927 0.069518 0.085077
0.072363 0.069518 0.085077
0.082893 0.069518 0.085077
0.158131 0.069518 0.085077
0.367006 0.069634 0.085077
0.477241 0.069710 0.085076
0.595236 0.069999 0.085075
0.739302 0.070618 0.085074
0.801452 0.071294 0.085078
0.836597 0.072027 0.085091
0.865769 0.073035 0.085106
0.887614 0.075748 0.085148
0.902742 0.078494 0.085185
0.911541 0.080863 0.085219
0.918977 0.084427 0.085259
0.924648 0.089889 0.085378
0.928724 0.092633 0.085492
0.931828 0.095522 0.085616
0.934130 0.100882 0.085835
0.936156 0.107111 0.086102
0.937998 0.107597 0.086334
0.938960 0.108943 0.086849
0.939618 0.108905 0.087517
0.940714 0.097599 0.088438
0.940633 0.095518 0.092606
0.941525 0.088111 0.477243
0.940247 0.087014 0.469129
0.938973 0.085971 0.458681
0.937701 0.084947 0.448477
0.937200 0.629486 0.722359
0.065446 0.069518 0.085077
0.065446 0.069518 0.085077
0.065446 0.069518 0.085077
0.065438 0.069518 0.085077
0.068604 0.069518 0.085077
0.078617 0.069518 0.085077
0.142834 0.069523 0.085077
0.342343 0.069707 0.085077
0.453373 0.069862 0.085076
0.565226 0.070116 0.085075
0.715350 0.070920 0.085074
0.787322 0.071621 0.085078
0.825150 0.072375 0.085090
0.858291 0.073340 0.085106
0.882411 0.076887 0.085147
0.898253 0.079545 0.085184
0.909102 0.081834 0.085218
0.916946 0.085781 0.085258
0.923369 0.091457 0.085373
0.927657 0.094147 0.085487
0.930939 0.097132 0.085611
0.933388 0.104108 0.085825
0.935532 0.110434 0.086090
0.937469 0.110910 0.086314
0.938508 0.112261 0.086808
0.939226 0.112223 0.087509
0.940371 0.100599 0.088248
0.940335 0.096951 0.092009
0.941277 0.087909 0.475712
0.940020 0.086829 0.467255
0.938765 0.085803 0.456999
0.937510 0.084795 0.446963
0.937024 0.628439 0.721364
0.065446 0.069518 0.085077
0.065446 0.069518 0.085077
0.065446 0.069518 0.085077
0.065446 0.069518 0.085077
0.065883 0.069518 0.085077
0.068627 0.069518 0.085077
0.087855 0.069638 0.085077
0.227103 0.069974 0.085077
0.371214 0.070105 0.085076
0.521006 0.070462 0.085075
0.677608 0.071657 0.085074
0.752763 0.072512 0.085078
0.803737 0.073112 0.085090
0.844031 0.074534 0.085106
0.872790 0.079239 0.085146
0.889865 0.081577 0.085183
0.904511 0.084371 0.085216
0.913121 0.088483 0.085256
0.920596 0.094569 0.085366
0.925654 0.097277 0.085480
0.929277 0.102888 0.085603
0.932007 0.110546 0.085809
0.934375 0.116928 0.086072
0.936493 0.117386 0.086279
0.937676 0.118786 0.086739
0.938506 0.118737 0.087472
0.939743 0.106721 0.087945
0.939789 0.101776 0.091192
0.940827 0.087544 0.472946
0.939608 0.086493 0.463869
0.938387 0.085497 0.453954
0.937162 0.084522 0.444220
0.936704 0.626739 0.719556
0.065446 0.069911 0.085077
0.065446 0.069899 0.085077
0.065446 0.069872 0.085077
0.065438 0.069781 0.085077
0.065502 0.069690 0.085077
0.066078 0.069635 0.085077
0.071402 0.069895 0.085077
0.111030 0.070410 0.085077
0.222378 0.070606 0.085076
0.411327 0.071207 0.085075
0.592647 0.072803 0.085074
0.693871 0.073522 0.085079
0.768398 0.074922 0.085091
0.818039 0.078536 0.085106
0.856517 0.083738 0.085146
0.876979 0.086590 0.085182
0.893545 0.089369 0.085216
0.907129 0.093837 0.085255
0.915683 0.102764 0.085358
0.922531 0.107879 0.085471
0.926705 0.113771 0.085593
0.929888 0.121653 0.085788
0.932613 0.128634 0.086048
0.935015 0.128971 0.086249
0.936423 0.130310 0.086648
0.937428 0.130219 0.087348
0.938807 0.116969 0.087649
0.938977 0.111171 0.090193
0.940168 0.087017 0.468629
0.939004 0.086002 0.458945
0.937831 0.085050 0.449517
0.936651 0.084168 0.438265
0.936232 0.624240 0.716905
0.065446 0.071234 0.085077
0.065446 0.071172 0.085077
0.065446 0.071094 0.085077
0.065446 0.070783 0.085077
0.065432 0.070378 0.085077
0.065844 0.070157 0.085077
0.067924 0.070424 0.085077
0.079239 0.071503 0.085077
0.114279 0.071693 0.085076
0.249935 0.072512 0.085075
0.481559 0.074689 0.085074
0.609287 0.077411 0.085080
0.708697 0.079522 0.085092
0.785034 0.082681 0.085107
0.833055 0.089471 0.085148
0.860792 0.093329 0.085183
0.879065 0.097312 0.085216
0.895314 0.108863 0.085255
0.908507 0.122562 0.085354
0.916686 0.126910 0.085465
0.922989 0.132534 0.085585
0.926868 0.142952 0.085768
0.930134 0.152416 0.086023
0.932959 0.152427 0.086219
0.934702 0.153932 0.086564
0.935959 0.153649 0.087214
0.937537 0.135038 0.087520
0.937885 0.126804 0.089219
0.939303 0.086341 0.461591
0.938209 0.085362 0.452551
0.937100 0.084466 0.443505
0.936744 0.626820 0.430530
0.935609 0.620953 0.713416
0.065446 0.079915 0.085077
0.065446 0.080028 0.085077
0.065446 0.079307 0.085077
0.065435 0.076961 0.085077
0.065452 0.074047 0.085077
0.065835 0.073087 0.085077
0.066851 0.072584 0.085077
0.071254 0.073368 0.085076
0.083653 0.073379 0.085076
0.139330 0.074656 0.085075
0.330436 0.080474 0.085074
0.502714 0.083015 0.085082
0.616451 0.085189 0.085094
0.722712 0.089688 0.085108
0.800177 0.098785 0.085151
0.836848 0.108217 0.085186
0.863177 0.114179 0.085217
0.881937 0.125540 0.085255
0.898696 0.146869 0.085352
0.909418 0.157447 0.085462
0.916672 0.173847 0.085580
0.922615 0.187605 0.085755
0.926709 0.199496 0.086003
0.930168 0.197827 0.086194
0.932411 0.198871 0.086508
0.934035 0.197838 0.087094
0.935889 0.176210 0.087501
0.936486 0.160415 0.088474
0.938245 0.085561 0.453187
0.937235 0.084587 0.444828
0.936201 0.083753 0.433109
0.935913 0.622550 0.421181
0.934839 0.616915 0.709130
0.065446 0.114993 0.085077
0.065446 0.115393 0.085077
0.065446 0.116028 0.085076
0.065420 0.104419 0.085076
0.065478 0.094856 0.085076
0.065926 0.089635 0.085076
0.066901 0.085811 0.085075
0.069515 0.083120 0.085075
0.073622 0.079245 0.085075
0.092107 0.080893 0.085075
0.203983 0.088514 0.085074
0.365722 0.091902 0.085086
0.511976 0.094046 0.085096
0.643107 0.101066 0.085110
0.748895 0.120093 0.085156
0.804455 0.128879 0.085189
0.839901 0.138182 0.085220
0.865874 0.157936 0.085257
0.884397 0.187125 0.085358
0.900131 0.196136 0.085462
0.910171 0.213838 0.085577
0.917151 0.241968 0.085745
0.922828 0.262925 0.085990
0.926671 0.273086 0.086179
0.929314 0.289258 0.086475
0.931500 0.286404 0.087019
0.933739 0.263340 0.087478
0.934707 0.243849 0.088126
0.937013 0.084887 0.443774
0.936096 0.083706 0.432019
0.935147 0.082931 0.421246
0.934937 0.617422 0.410455
0.933933 0.611786 0.704113
0.065446 0.161679 0.085076
0.065446 0.162224 0.085076
0.065446 0.156697 0.085076
0.065422 0.141791 0.085075
0.065456 0.126355 0.085075
0.065709 0.113503 0.085075
0.066177 0.103185 0.085075
0.068375 0.096191 0.085075
0.071475 0.093249 0.085074
0.080873 0.091482 0.085074
0.129980 0.103301 0.085078
0.240647 0.110045 0.085090
0.391587 0.113985 0.085100
0.539360 0.125265 0.085113
0.679837 0.151977 0.085163
0.756729 0.165205 0.085195
0.808123 0.178366 0.085224
0.845060 0.202205 0.085261
0.869711 0.247066 0.085367
0.886069 0.261055 0.085470
0.900474 0.281419 0.085583
0.910343 0.306385 0.085746
0.917498 0.325893 0.085983
0.923209 0.332241 0.086163
0.926444 0.343342 0.086436
0.928840 0.357251 0.086950
0.931228 0.360572 0.087484
0.932423 0.371611 0.088235
0.935669 0.093296 0.436573
0.934814 0.083014 0.418453
0.933957 0.082211 0.408401
0.933830 0.610962 0.398669
0.932905 0.603647 0.698450
0.065446 0.280861 0.085075
0.065446 0.277087 0.085075
0.065441 0.262301 0.085075
0.065416 0.244714 0.085075
0.065458 0.212267 0.085074
0.065667 0.184130 0.085074
0.066089 0.162714 0.085074
0.067575 0.145244 0.085074
0.070042 0.132496 0.085074
0.075395 0.125162 0.085074
0.099710 0.141743 0.085088
0.165027 0.142998 0.085096
0.277444 0.147107 0.085104
0.440130 0.164252 0.085117
0.579101 0.203296 0.085173
0.688011 0.222087 0.085203
0.765306 0.240168 0.085231
0.815549 0.264894 0.085265
0.851207 0.315306 0.085384
0.871605 0.328489 0.085483
0.887973 0.341512 0.085590
0.902183 0.366065 0.085755
0.910754 0.398912 0.085988
0.917809 0.406500 0.086161
0.922925 0.413026 0.086414
0.925955 0.423057 0.086886
0.928831 0.423377 0.087384
0.930382 0.428281 0.087924
0.931808 0.435605 0.089243
0.932444 0.454468 0.092019
0.932979 0.486860 0.266476
0.932612 0.601354 0.397485
0.931769 0.594779 0.692244
0.065436 0.458844 0.085074
0.065433 0.453871 0.085074
0.065423 0.439496 0.085074
0.065412 0.425353 0.085074
0.065494 0.401747 0.085078
0.065781 0.365284 0.085083
0.066131 0.336594 0.085087
0.067788 0.309147 0.085091
0.070101 0.275700 0.085094
0.075093 0.255567 0.085098
0.087829 0.239690 0.085102
0.122926 0.217609 0.085106
0.195975 0.201461 0.085110
0.330228 0.228116 0.085131
0.502204 0.275881 0.085185
0.605522 0.291171 0.085213
0.702908 0.309459 0.085238
0.780857 0.334112 0.085271
0.825598 0.377685 0.085407
0.854584 0.392071 0.085501
0.874069 0.408953 0.085605
0.889599 0.433870 0.085776
0.903992 0.453538 0.085997
0.911981 0.463788 0.086164
0.917902 0.478745 0.086411
0.922375 0.496831 0.086859
0.925957 0.493654 0.087327
0.928012 0.493869 0.087729
0.929790 0.495308 0.088859
0.930714 0.503037 0.090775
0.931507 0.496805 0.136585
0.931304 0.591186 0.419380
0.930544 0.585360 0.423871
0.065425 0.537250 0.085076
0.065423 0.534549 0.085077
0.065415 0.526313 0.085079
0.065425 0.517384 0.085085
0.065495 0.498085 0.085090
0.065750 0.476792 0.085095
0.066094 0.452403 0.085100
0.067332 0.424968 0.085104
0.069324 0.400861 0.085107
0.073046 0.373471 0.085111
0.082893 0.351174 0.085114
0.104441 0.336165 0.085122
0.148510 0.306139 0.085125
0.242260 0.307863 0.085148
0.410087 0.353005 0.085199
0.530704 0.363058 0.085224
0.633864 0.377082 0.085249
0.724504 0.404645 0.085281
0.795069 0.441972 0.085432
0.831254 0.451616 0.085523
0.858440 0.470451 0.085626
0.877132 0.488225 0.085802
0.892414 0.509800 0.086018
0.905268 0.520375 0.086181
0.912496 0.527183 0.086421
0.918036 0.537620 0.086848
0.922905 0.543556 0.087296
0.925276 0.552993 0.087654
0.927413 0.558010 0.088724
0.928747 0.557441 0.090186
0.929860 0.531141 0.099101
0.929927 0.580662 0.404485
0.929251 0.575563 0.421470
0.065418 0.589557 0.085086
0.065416 0.587152 0.085086
0.065409 0.579585 0.085088
0.065432 0.570167 0.085093
0.065496 0.558479 0.085098
0.065714 0.544353 0.085104
0.066043 0.527998 0.085109
0.066933 0.510159 0.085113
0.068639 0.489207 0.085116
0.071453 0.469561 0.085127
0.077429 0.448671 0.085138
0.089292 0.430301 0.085149
0.125090 0.416289 0.085163
0.197158 0.409248 0.085179
0.321968 0.430460 0.085215
0.456203 0.438692 0.085238
0.554326 0.447362 0.085260
0.670003 0.469989 0.085310
0.752553 0.501151 0.085473
0.803474 0.508343 0.085553
0.838334 0.520510 0.085648
0.863690 0.535020 0.085839
0.880534 0.552351 0.086051
0.895647 0.557986 0.086201
0.906513 0.569378 0.086446
0.912736 0.584396 0.086878
0.918918 0.586439 0.087286
0.922639 0.592300 0.087585
0.925088 0.601488 0.088561
0.926605 0.613905 0.089987
0.927631 0.632553 0.092178
0.928504 0.570062 0.389427
0.927909 0.565616 0.423599
0.065409 0.646617 0.085098
0.065407 0.644786 0.085098
0.065411 0.638883 0.085100
0.065450 0.630853 0.085104
0.065510 0.624682 0.085110
0.065736 0.615148 0.085115
0.066037 0.600384 0.085128
0.066793 0.584678 0.085143
0.068487 0.569022 0.085157
0.070649 0.553546 0.085168
0.074908 0.539532 0.085178
0.085839 0.527164 0.085189
0.108679 0.516119 0.085200
0.164854 0.504113 0.085213
0.268752 0.519355 0.085245
0.375105 0.506711 0.085255
0.497970 0.509413 0.085273
0.590846 0.523958 0.085354
0.698374 0.546848 0.085512
0.769825 0.552211 0.085591
0.813787 0.561480 0.085688
0.847130 0.576218 0.085884
0.868790 0.591823 0.086086
0.884600 0.600108 0.086232
0.898045 0.612330 0.086485
0.907637 0.620117 0.086906
0.914356 0.625104 0.087301
0.918746 0.633738 0.087570
0.922603 0.637830 0.088436
0.924544 0.644078 0.089665
0.925862 0.659808 0.091326
0.926462 0.687795 0.105131
0.926514 0.718179 0.427554
0.065425 0.713006 0.085113
0.065429 0.712085 0.085114
0.065446 0.709056 0.085115
0.065478 0.703814 0.085125
0.065534 0.699323 0.085145
0.065817 0.688909 0.085161
0.066062 0.677115 0.085178
0.066881 0.663813 0.085193
0.068490 0.650346 0.085207
0.070550 0.637100 0.085220
0.074557 0.625594 0.085231
0.084748 0.616388 0.085241
0.104742 0.605369 0.085252
0.148899 0.594185 0.085262
0.224029 0.584844 0.085275
0.320234 0.571799 0.085285
0.426775 0.560859 0.085309
0.535205 0.569114 0.085408
0.650564 0.591436 0.085557
0.722528 0.595880 0.085629
0.786266 0.604853 0.085752
0.824894 0.617162 0.085941
0.854518 0.626818 0.086132
0.873362 0.634120 0.086272
0.888289 0.642719 0.086530
0.900711 0.655432 0.086965
0.909587 0.661794 0.087338
0.914936 0.668194 0.087571
0.919334 0.677544 0.088384
0.922239 0.689411 0.089510
0.923946 0.697485 0.090919
0.924818 0.708921 0.095645
0.925111 0.717270 0.385628
0.065442 0.739991 0.085131
0.065446 0.739189 0.085133
0.065460 0.736512 0.085138
0.065488 0.732464 0.085148
0.065535 0.728695 0.085165
0.065814 0.723196 0.085183
0.066054 0.717920 0.085202
0.066679 0.710092 0.085216
0.068201 0.701318 0.085230
0.069819 0.691932 0.085244
0.073102 0.679134 0.085255
0.080679 0.666928 0.085265
0.092938 0.655945 0.085276
0.127927 0.645613 0.085294
0.190874 0.636709 0.085336
0.276392 0.629155 0.085386
0.373530 0.620558 0.085414
0.480354 0.618988 0.085481
0.578266 0.629754 0.085607
0.678385 0.633127 0.085678
0.745574 0.639519 0.085819
0.800832 0.651297 0.086002
0.836766 0.663588 0.086186
0.861447 0.670497 0.086341
0.878140 0.679925 0.086589
0.891813 0.692555 0.087039
0.904702 0.697011 0.087386
0.910634 0.704309 0.087614
0.915841 0.709491 0.088379
0.919434 0.713594 0.089377
0.921946 0.721835 0.090697
0.923031 0.734458 0.093500
0.923632 0.730313 0.199759
0.065456 0.765587 0.085153
0.065459 0.764884 0.085155
0.065472 0.762514 0.085159
0.065496 0.758807 0.085168
0.065536 0.754950 0.085183
0.065819 0.750973 0.085202
0.066033 0.744783 0.085218
0.066469 0.738517 0.085234
0.067747 0.732084 0.085249
0.069268 0.725358 0.085263
0.071943 0.718614 0.085275
0.077095 0.711949 0.085294
0.087368 0.705032 0.085335
0.109987 0.697255 0.085380
0.157400 0.689162 0.085423
0.228292 0.680780 0.085467
0.326227 0.673712 0.085516
0.437144 0.670511 0.085577
0.538887 0.677036 0.085684
0.620098 0.672867 0.085758
0.703637 0.679000 0.085895
0.773297 0.689924 0.086069
0.816208 0.699685 0.086246
0.847410 0.704308 0.086422
0.867924 0.710603 0.086701
0.882914 0.716950 0.087125
0.896872 0.721255 0.087457
0.906348 0.725746 0.087664
0.912254 0.730650 0.088411
0.916316 0.736475 0.089339
0.919411 0.742098 0.090496
0.921161 0.750313 0.092330
0.921993 0.765004 0.112084
0.065473 0.787633 0.085180
0.065476 0.787058 0.085181
0.065487 0.785104 0.085186
0.065508 0.781969 0.085194
0.065562 0.778929 0.085207
0.065859 0.778067 0.085227
0.066031 0.774701 0.085241
0.066445 0.770723 0.085259
0.067548 0.764901 0.085274
0.068939 0.758416 0.085296
0.071312 0.752205 0.085352
0.075265 0.745990 0.085401
0.085108 0.740042 0.085450
0.102240 0.733957 0.085489
0.139548 0.728500 0.085535
0.203163 0.723376 0.085577
0.289553 0.718839 0.085620
0.389201 0.715101 0.085668
0.502102 0.718174 0.085840
0.570302 0.713067 0.085886
0.664798 0.711324 0.085971
0.733925 0.717210 0.086139
0.793313 0.723636 0.086331
0.828540 0.726779 0.086512
0.855723 0.732174 0.086827
0.873832 0.738073 0.087229
0.888789 0.742256 0.087505
0.900615 0.746630 0.087738
0.908409 0.752459 0.088491
0.913350 0.756042 0.089330
0.916854 0.762626 0.090397
0.918903 0.771613 0.091951
0.920091 0.777707 0.101632
0.065493 0.816558 0.085213
0.065496 0.816124 0.085214
0.065506 0.814635 0.085218
0.065525 0.812206 0.085225
0.065634 0.809363 0.085237
0.065898 0.807191 0.085255
0.066044 0.802776 0.085270
0.066485 0.798519 0.085298
0.067506 0.793202 0.085362
0.068873 0.788266 0.085427
0.071124 0.782886 0.085483
0.074733 0.778568 0.085538
0.083519 0.776303 0.085585
0.096416 0.771536 0.085629
0.130365 0.766366 0.085670
0.190272 0.761275 0.085752
0.264578 0.756443 0.085827
0.360040 0.751998 0.085901
0.462539 0.748492 0.085986
0.538866 0.743022 0.086026
0.616271 0.739837 0.086096
0.692006 0.739851 0.086211
0.764862 0.745814 0.086433
0.808959 0.748678 0.086615
0.841534 0.753338 0.086955
0.864447 0.759089 0.087344
0.880679 0.762808 0.087518
0.893439 0.767663 0.087868
0.904730 0.771659 0.088574
0.910201 0.775451 0.089370
0.914296 0.778283 0.090358
0.916819 0.782569 0.091681
0.918203 0.793288 0.097718
0.065497 0.835911 0.085224
0.065500 0.835523 0.085225
0.065509 0.834185 0.085229
0.065526 0.831960 0.085236
0.065623 0.829235 0.085247
0.065858 0.826818 0.085263
0.066034 0.823851 0.085281
0.066284 0.819620 0.085332
0.067286 0.815902 0.085404
0.068594 0.811846 0.085471
0.070232 0.807091 0.085527
0.073219 0.802188 0.085582
0.079843 0.797098 0.085634
0.089196 0.792006 0.085689
0.112961 0.787065 0.085770
0.160741 0.782197 0.085844
0.224255 0.778657 0.085923
0.314008 0.777212 0.086000
0.412344 0.774586 0.086073
0.503287 0.772002 0.086156
0.573240 0.768734 0.086220
0.668153 0.768201 0.086362
0.730396 0.768579 0.086547
0.788037 0.770384 0.086764
0.824226 0.773831 0.087091
0.852795 0.777262 0.087463
0.872374 0.778443 0.087532
0.886232 0.781520 0.088015
0.898970 0.785617 0.088690
0.906973 0.789960 0.089431
0.911783 0.794725 0.090331
0.914679 0.801386 0.091551
0.916409 0.809174 0.095527
0.065501 0.852270 0.085236
0.065503 0.852063 0.085237
0.065512 0.851346 0.085240
0.065528 0.850134 0.085247
0.065616 0.848534 0.085257
0.065828 0.846665 0.085272
0.066028 0.844790 0.085314
0.066171 0.840493 0.085374
0.067150 0.837732 0.085454
0.068404 0.833113 0.085512
0.069709 0.829332 0.085577
0.072412 0.825452 0.085636
0.077113 0.821082 0.085703
0.086223 0.816731 0.085788
0.104270 0.812587 0.085874
0.140109 0.808515 0.085954
0.199166 0.804293 0.086028
0.275796 0.800086 0.086105
0.369092 0.796428 0.086183
0.464925 0.792957 0.086255
0.543951 0.790260 0.086371
0.626878 0.788800 0.086536
0.699454 0.788824 0.086785
0.760839 0.786836 0.086938
0.805980 0.789116 0.087226
0.839365 0.793552 0.087512
0.863615 0.796608 0.087649
0.879054 0.800406 0.088182
0.892728 0.804657 0.088826
0.903557 0.807973 0.089497
0.909183 0.812522 0.090348
0.912646 0.817142 0.091445
0.914672 0.824181 0.094291
0.065506 0.861948 0.085250
0.065508 0.861809 0.085251
0.065516 0.861325 0.085254
0.065531 0.860503 0.085261
0.065621 0.859441 0.085270
0.065814 0.858361 0.085291
0.066021 0.857656 0.085369
0.066134 0.855925 0.085430
0.066935 0.854434 0.085503
0.068174 0.852452 0.085571
0.069421 0.850475 0.085638
0.071590 0.847837 0.085714
0.075216 0.844563 0.085817
0.083931 0.840714 0.085912
0.096034 0.836738 0.085996
0.127182 0.832891 0.086083
0.180891 0.829009 0.086161
0.244137 0.825280 0.086237
0.332428 0.821755 0.086335
0.430627 0.818752 0.086457
0.514486 0.815915 0.086574
0.584035 0.813672 0.086756
0.676173 0.812987 0.087025
0.733718 0.811107 0.087165
0.788064 0.810244 0.087388
0.823506 0.812296 0.087528
0.853050 0.814968 0.087795
0.871779 0.817958 0.088363
0.886483 0.821447 0.088972
0.898420 0.824461 0.089589
0.906626 0.828439 0.090374
0.910630 0.832793 0.091384
0.912992 0.839388 0.093571
0.065506 0.871021 0.085261
0.065508 0.870902 0.085262
0.065516 0.870487 0.085265
0.065530 0.869776 0.085271
0.065607 0.868842 0.085281
0.065786 0.867851 0.085324
0.066005 0.867098 0.085404
0.066117 0.865934 0.085477
0.066739 0.864418 0.085544
0.067935 0.863286 0.085623
0.068977 0.861546 0.085692
0.071032 0.860066 0.085809
0.074179 0.858573 0.085923
0.081372 0.856752 0.086017
0.090279 0.854964 0.086105
0.113736 0.852968 0.086192
0.157907 0.850767 0.086279
0.219044 0.848497 0.086406
0.302019 0.845654 0.086527
0.393931 0.842356 0.086678
0.482367 0.839536 0.086867
0.556274 0.836986 0.087053
0.641444 0.834924 0.087239
0.707801 0.832841 0.087371
0.766630 0.831556 0.087511
0.808132 0.831337 0.087668
0.840863 0.832135 0.087962
0.864016 0.834761 0.088529
0.880312 0.837941 0.089118
0.893232 0.840847 0.089697
0.904002 0.844234 0.090403
0.908623 0.847962 0.091355
0.911437 0.851416 0.093140
0.065495 0.878013 0.085259
0.065497 0.877940 0.085260
0.065504 0.877684 0.085263
0.065517 0.877240 0.085268
0.065538 0.876645 0.085278
0.065700 0.875982 0.085312
0.065938 0.875404 0.085389
0.066073 0.874827 0.085476
0.066419 0.873294 0.085540
0.067435 0.872241 0.085622
0.068585 0.870714 0.085700
0.070251 0.869474 0.085828
0.072796 0.867861 0.085934
0.078062 0.866412 0.086044
0.086976 0.864891 0.086144
0.104733 0.863197 0.086231
0.138206 0.861535 0.086345
0.194545 0.859883 0.086476
0.264640 0.858275 0.086613
0.351885 0.856727 0.086801
0.448432 0.855293 0.086989
0.527806 0.854009 0.087172
0.596709 0.852678 0.087360
0.680632 0.851607 0.087506
0.740310 0.850514 0.087545
0.792752 0.850059 0.087922
0.827531 0.849828 0.088209
0.854418 0.849947 0.088676
0.873897 0.851686 0.089230
0.888059 0.853350 0.089812
0.899980 0.854989 0.090446
0.906692 0.856635 0.091296
0.909940 0.859113 0.092824
0.065483 0.882831 0.085258
0.065485 0.882734 0.085259
0.065492 0.882395 0.085262
0.065505 0.881805 0.085268
0.065525 0.881326 0.085277
0.065618 0.880848 0.085306
0.065842 0.880410 0.085381
0.066041 0.880177 0.085482
0.066214 0.879385 0.085543
0.067067 0.878647 0.085621
0.068408 0.877955 0.085723
0.069520 0.877041 0.085841
0.071839 0.876216 0.085964
0.075562 0.875354 0.086082
0.083794 0.874095 0.086181
0.095136 0.872661 0.086282
0.124429 0.871173 0.086431
0.175793 0.869617 0.086572
0.232968 0.868063 0.086764
0.316858 0.866555 0.086964
0.408350 0.865123 0.087152
0.499133 0.863813 0.087337
0.562664 0.862632 0.087502
0.650673 0.861708 0.087528
0.714799 0.860959 0.087718
0.775160 0.860317 0.088177
0.814707 0.860183 0.088456
0.845378 0.859751 0.088879
0.867306 0.859969 0.089325
0.882824 0.861118 0.089858
0.895986 0.862508 0.090484
0.904812 0.863940 0.091246
0.908508 0.866029 0.092572
0.065467 0.889843 0.085255
0.065469 0.889763 0.085256
0.065476 0.889481 0.085259
0.065488 0.888988 0.085265
0.065508 0.888316 0.085274
0.065535 0.887543 0.085295
0.065732 0.886811 0.085367
0.066001 0.886368 0.085466
0.066110 0.885418 0.085544
0.066717 0.884312 0.085618
0.068041 0.883719 0.085745
0.068973 0.882322 0.085857
0.071166 0.881531 0.085998
0.073843 0.880803 0.086106
0.081035 0.880170 0.086224
0.089630 0.879449 0.086358
0.111115 0.878525 0.086511
0.149481 0.877547 0.086697
0.208698 0.876535 0.086914
0.285815 0.875541 0.087121
0.371831 0.874417 0.087320
0.462896 0.873099 0.087501
0.537603 0.871883 0.087527
0.609633 0.870803 0.087693
0.686077 0.869981 0.088003
0.748959 0.869318 0.088374
0.799632 0.869275 0.088635
0.833330 0.868650 0.089057
0.860237 0.868638 0.089462
0.877538 0.868675 0.089897
0.891914 0.869783 0.090474
0.902289 0.871099 0.091182
0.907244 0.872933 0.092397
0.065420 0.897050 0.085228
0.065422 0.896997 0.085229
0.065429 0.896813 0.085232
0.065442 0.896486 0.085238
0.065462 0.896029 0.085248
0.065491 0.895481 0.085261
0.065531 0.894915 0.085280
0.065794 0.894472 0.085372
0.066029 0.893998 0.085478
0.066207 0.893198 0.085552
0.067197 0.892406 0.085647
0.068496 0.891440 0.085778
0.069838 0.890370 0.085914
0.072474 0.889312 0.086049
0.077072 0.888144 0.086174
0.085614 0.886865 0.086290
0.101547 0.885583 0.086465
0.132149 0.884164 0.086640
0.184246 0.882640 0.086867
0.245335 0.881391 0.087085
0.329172 0.880620 0.087293
0.421243 0.879885 0.087493
0.503410 0.879177 0.087525
0.571460 0.878444 0.087688
