LUTs/provia100f/Provia100F_Classic_Normal.cube
TITLE "Fuji Provia 100F Classic Normal"
# Adobe RGB in/out. REPLACES AgX. Fuji Provia 100F Classic Normal.
LUT_3D_SIZE 9
DOMAIN_MIN 0.0 0.0 0.0
DOMAIN_MAX 1.0 1.0 1.0
0.082825 0.083895 0.090792
0.083632 0.083895 0.090792
0.146113 0.083895 0.090792
0.564940 0.084059 0.090792
0.887229 0.085014 0.090791
0.946890 0.087325 0.090806
0.962984 0.089134 0.090861
0.970499 0.087845 0.166863
0.971244 0.377815 0.538475
0.082825 0.083895 0.090792
0.082780 0.083900 0.090792
0.113808 0.084067 0.090792
0.468004 0.084700 0.090791
0.856767 0.086466 0.090791
0.943295 0.089150 0.090809
0.962214 0.094560 0.090861
0.970499 0.087850 0.166902
0.971244 0.377845 0.538469
0.082825 0.088021 0.090792
0.082825 0.088868 0.090792
0.085652 0.092057 0.090792
0.229180 0.098144 0.090791
0.693143 0.106453 0.090799
0.917995 0.125058 0.090826
0.957455 0.149194 0.090878
0.970540 0.090020 0.171630
0.971244 0.377848 0.538468
0.082825 0.164549 0.090792
0.082814 0.174520 0.090791
0.083693 0.206354 0.090791
0.108016 0.228424 0.090798
0.402963 0.267232 0.090817
0.839743 0.308425 0.090851
0.946334 0.355779 0.090947
0.966502 0.405557 0.091194
0.971244 0.377967 0.216981
0.082825 0.441376 0.090791
0.082789 0.453629 0.090791
0.083551 0.491799 0.090799
0.091584 0.529832 0.090820
0.236410 0.557076 0.090850
0.653476 0.591218 0.090922
0.918699 0.626616 0.091061
0.962212 0.664061 0.091319
0.970842 0.744371 0.097607
0.082796 0.714399 0.090796
0.082772 0.718487 0.090799
0.083461 0.743857 0.090817
0.087684 0.773348 0.090850
0.155118 0.793211 0.090920
0.451121 0.807931 0.091036
0.854159 0.824105 0.091216
0.953518 0.837943 0.091617
0.970158 0.857516 0.093438
0.082790 0.859201 0.090802
0.082771 0.860889 0.090805
0.083212 0.870855 0.090834
0.086011 0.886145 0.090876
0.113148 0.900596 0.090998
0.312919 0.910384 0.091174
0.727389 0.919115 0.091437
0.939276 0.927123 0.091960
0.969334 0.933190 0.093459
0.082825 0.938617 0.090794
0.082825 0.938634 0.090797
0.082839 0.939442 0.090821
0.084357 0.942035 0.090864
0.095719 0.944858 0.091006
0.227741 0.946545 0.091208
0.555346 0.947397 0.091532
0.910555 0.948600 0.092094
0.968846 0.950285 0.093301
0.082825 0.944269 0.090791
0.082825 0.944270 0.090791
0.082825 0.955632 0.090791
0.082825 0.956060 0.090799
0.085850 0.964123 0.090836
0.128575 0.964586 0.090942
0.360721 0.964618 0.091111
0.796510 0.965287 0.091252
0.970239 0.966827 0.091344
0.082825 0.083895 0.090804
0.082905 0.083895 0.090930
0.115963 0.083895 0.090844
0.598706 0.084107 0.090845
0.898359 0.085110 0.090841
0.947802 0.087490 0.090858
0.962977 0.089329 0.090996
0.970499 0.087850 0.166907
0.971244 0.377845 0.538477
0.082825 0.083895 0.090800
0.083630 0.084008 0.090833
0.119815 0.084103 0.090826
0.507688 0.084854 0.090841
0.876670 0.086679 0.090844
0.944709 0.089270 0.090860
0.962257 0.095206 0.090991
0.970500 0.087858 0.166970
0.971244 0.377847 0.538470
0.082825 0.087541 0.090799
0.082839 0.088359 0.090804
0.090065 0.090038 0.090823
0.309192 0.097562 0.090846
0.749946 0.106561 0.090857
0.923933 0.124715 0.090895
0.957976 0.149457 0.091017
0.970552 0.091949 0.173734
0.971244 0.377848 0.538469
0.082804 0.156459 0.090803
0.082825 0.166270 0.090809
0.085133 0.194704 0.090836
0.137483 0.218476 0.090860
0.482934 0.260229 0.090913
0.866029 0.302568 0.090974
0.948474 0.353410 0.091118
0.966585 0.405687 0.091496
0.971244 0.377883 0.538459
0.082782 0.424832 0.090805
0.082834 0.438332 0.090816
0.083956 0.481065 0.090846
0.097645 0.517915 0.090900
0.277974 0.546745 0.090995
0.702419 0.584170 0.091110
0.923984 0.623254 0.091269
0.962768 0.661992 0.091724
0.970834 0.745714 0.106583
0.082770 0.706957 0.090817
0.082844 0.711653 0.090827
0.083636 0.737007 0.090856
0.089674 0.767132 0.090948
0.178246 0.787813 0.091089
0.491361 0.803614 0.091264
0.871014 0.822448 0.091558
0.954817 0.836997 0.092187
0.970176 0.857611 0.094565
0.082771 0.857771 0.090827
0.082822 0.858769 0.090835
0.083480 0.868759 0.090862
0.086638 0.883801 0.090983
0.120282 0.898017 0.091167
0.335128 0.908090 0.091442
0.751072 0.917351 0.091892
0.942160 0.926750 0.092723
0.969420 0.933171 0.094419
0.082825 0.938295 0.090801
0.082825 0.938352 0.090804
0.082884 0.939233 0.090845
0.084724 0.941781 0.090947
0.098725 0.944534 0.091147
0.237899 0.946318 0.091455
0.574364 0.947235 0.091970
0.914667 0.948483 0.092818
0.969017 0.950249 0.094039
0.082825 0.945965 0.090934
0.082825 0.945967 0.090934
0.082825 0.957526 0.090934
0.082825 0.957526 0.090934
0.085962 0.964027 0.090853
0.132995 0.964473 0.091018
0.369657 0.964542 0.091231
0.806596 0.965241 0.091477
0.970431 0.966809 0.091637
0.082825 0.083895 0.092583
0.083383 0.083895 0.126138
0.111046 0.083895 0.113295
0.578690 0.084388 0.108571
0.900526 0.085750 0.105920
0.948492 0.088349 0.111955
0.962850 0.092171 0.134473
0.970521 0.088835 0.197651
0.971244 0.377848 0.538543
0.082825 0.083895 0.092539
0.083334 0.084035 0.094512
0.113952 0.084328 0.097255
0.510844 0.085222 0.098380
0.884645 0.087553 0.099822
0.946185 0.091610 0.105118
0.962249 0.098083 0.119770
0.970530 0.089199 0.202081
0.971244 0.377848 0.538482
0.082778 0.087529 0.091906
0.083229 0.088303 0.092299
0.106873 0.096176 0.093990
0.362489 0.098431 0.093859
0.804670 0.108584 0.095153
0.932787 0.128936 0.098096
0.959037 0.154278 0.102904
0.970333 0.119955 0.215599
0.971244 0.377848 0.538470
0.082898 0.150559 0.091909
0.083436 0.159628 0.092184
0.088733 0.184066 0.092822
0.219981 0.210966 0.093384
0.615870 0.254247 0.094241
0.899257 0.301698 0.096386
0.952247 0.352211 0.098757
0.966847 0.408396 0.113901
0.971244 0.377852 0.538479
0.083108 0.410428 0.091898
0.083555 0.423524 0.092122
0.086277 0.466454 0.092761
0.127557 0.500742 0.093419
0.391179 0.531199 0.094172
0.807719 0.573145 0.096318
0.937164 0.617631 0.098385
0.964131 0.658045 0.107415
0.970806 0.751034 0.275288
0.083307 0.695975 0.091989
0.083571 0.702496 0.092182
0.085809 0.725144 0.092817
0.102446 0.753096 0.093532
0.256107 0.776464 0.094654
0.620655 0.794163 0.096786
0.905954 0.817103 0.099396
0.958408 0.834332 0.106718
0.970235 0.858002 0.134783
0.083158 0.856047 0.091727
0.083421 0.856790 0.091812
0.084649 0.863810 0.092456
0.091721 0.877615 0.093284
0.173712 0.890908 0.094324
0.439746 0.901670 0.096665
0.824768 0.912384 0.100268
0.949450 0.925512 0.107176
0.969679 0.933142 0.120296
0.082821 0.936427 0.091346
0.082870 0.936712 0.091428
0.083593 0.938238 0.091902
0.086778 0.940733 0.092895
0.114559 0.943274 0.093889
0.295086 0.945109 0.096155
0.670116 0.946605 0.099879
0.929355 0.948018 0.104621
0.969482 0.950127 0.112475
0.082825 0.945967 0.090934
0.082825 0.957526 0.090934
0.082825 0.957526 0.090934
0.082825 0.957531 0.090934
0.087595 0.963431 0.091297
0.160412 0.963915 0.092397
0.421938 0.964157 0.093413
0.842819 0.964996 0.094248
0.970768 0.966720 0.095301
0.082825 0.083895 0.162638
0.082839 0.083967 0.383144
0.111469 0.084283 0.452609
0.512684 0.085015 0.439196
0.889069 0.087183 0.444703
0.946776 0.090911 0.460121
0.962204 0.098396 0.509400
0.969591 0.101075 0.620513
0.971244 0.377846 0.626157
0.082825 0.084095 0.168692
0.082931 0.084435 0.268224
0.112494 0.085043 0.383536
0.471370 0.086366 0.383223
0.875984 0.089025 0.403428
0.944737 0.096925 0.435688
0.961642 0.103986 0.486462
0.969460 0.106085 0.615809
0.971244 0.377847 0.627258
0.082845 0.088815 0.150234
0.083551 0.089944 0.166541
0.102976 0.095889 0.219850
0.362488 0.101654 0.252277
0.809343 0.114008 0.290984
0.933461 0.140247 0.333434
0.958879 0.169684 0.413534
0.968300 0.204733 0.543423
0.971244 0.377848 0.631269
0.083336 0.152611 0.134637
0.083764 0.161485 0.140933
0.092225 0.186252 0.160184
0.276929 0.240946 0.213148
0.671882 0.262901 0.219447
0.910674 0.314411 0.252660
0.953502 0.361861 0.308190
0.966807 0.428083 0.444803
0.971244 0.377888 0.632476
0.083672 0.405870 0.131532
0.084403 0.418135 0.135770
0.089923 0.459758 0.149823
0.174697 0.494461 0.169652
0.482511 0.526729 0.191396
0.847533 0.571525 0.219189
0.943320 0.617863 0.254749
0.964628 0.661766 0.331102
0.970752 0.760966 0.606871
0.083950 0.687624 0.127221
0.084597 0.695280 0.130107
0.088410 0.717874 0.142565
0.121869 0.744166 0.160101
0.329916 0.769369 0.182062
0.724890 0.788865 0.204632
0.920913 0.813572 0.233465
0.960510 0.833481 0.279947
0.970262 0.860438 0.488950
0.083761 0.854035 0.121351
0.084272 0.855631 0.123689
0.086538 0.859957 0.133674
0.103684 0.872785 0.150532
0.234835 0.885473 0.172278
0.546591 0.896787 0.196354
0.874796 0.908684 0.221200
0.953694 0.923794 0.254947
0.969868 0.933412 0.385928
0.083270 0.935674 0.110362
0.083498 0.936013 0.111350
0.084743 0.937599 0.119978
0.090778 0.939899 0.134287
0.147176 0.942279 0.154461
0.361240 0.944176 0.178599
0.752225 0.945986 0.203487
0.941497 0.947660 0.230067
0.969846 0.950115 0.306228
0.082825 0.950092 0.102030
0.082825 0.958396 0.102030
0.082825 0.958398 0.102030
0.082918 0.962183 0.094333
0.092773 0.962432 0.115910
0.209297 0.963126 0.133769
0.498730 0.963642 0.152394
0.883469 0.964649 0.168096
0.970979 0.966702 0.199006
0.082825 0.084038 0.507169
0.082796 0.084284 0.610531
0.106239 0.085335 0.711103
0.466587 0.086955 0.712689
0.873300 0.089309 0.714645
0.944249 0.098543 0.727040
0.961299 0.107389 0.748711
0.968924 0.115470 0.781031
0.971244 0.377848 0.810151
0.082825 0.084545 0.515297
0.082819 0.084984 0.593119
0.105542 0.086810 0.693983
0.437679 0.088761 0.700004
0.858601 0.095187 0.704166
0.942363 0.104182 0.718805
0.960760 0.115723 0.742678
0.968792 0.128441 0.778900
0.971244 0.377849 0.806066
0.082889 0.092572 0.500136
0.083555 0.095433 0.532937
0.100168 0.102387 0.618295
0.355758 0.110961 0.645252
0.797578 0.127417 0.663020
0.931671 0.161316 0.687435
0.958281 0.196892 0.717430
0.967927 0.240460 0.765720
0.971244 0.377857 0.793057
0.083607 0.170887 0.465974
0.084456 0.179935 0.478203
0.095126 0.210502 0.525507
0.276073 0.241273 0.570106
0.683360 0.279516 0.599554
0.912524 0.334617 0.625334
0.953610 0.387524 0.673815
0.966646 0.461385 0.731489
0.971244 0.562511 0.793174
0.084448 0.413223 0.441541
0.085460 0.425801 0.449511
0.093079 0.465673 0.472997
0.211278 0.499903 0.508534
0.555356 0.554505 0.558700
0.867313 0.580692 0.575699
0.945488 0.626199 0.617421
0.964767 0.676264 0.682160
0.970676 0.773222 0.785996
0.085065 0.688798 0.425402
0.085927 0.696311 0.432450
0.091926 0.717505 0.454236
0.155954 0.742964 0.478404
0.388772 0.768732 0.509782
0.766466 0.789268 0.536131
0.928277 0.815014 0.571538
0.961618 0.835353 0.620576
0.970241 0.865109 0.757442
0.084955 0.853487 0.405986
0.085675 0.855333 0.412429
0.089480 0.858837 0.434893
0.117530 0.870991 0.459996
0.282378 0.883418 0.484522
0.617090 0.895146 0.514204
0.896642 0.907858 0.539813
0.956314 0.923817 0.576467
0.969941 0.934185 0.701620
0.083674 0.935547 0.368362
0.083941 0.935880 0.373881
0.086038 0.937350 0.399315
0.096231 0.939500 0.431645
0.188431 0.941753 0.459765
0.436140 0.943696 0.483723
0.808316 0.945651 0.511978
0.947279 0.947561 0.537391
0.970039 0.950341 0.623654
0.082825 0.951953 0.468782
0.082825 0.953234 0.468782
0.082825 0.956228 0.468777
0.084203 0.960477 0.349389
0.099344 0.962037 0.399009
0.235423 0.962800 0.437222
0.552699 0.963427 0.459994
0.905536 0.964552 0.476005
0.971095 0.967015 0.538536
0.082825 0.084678 0.779529
0.082804 0.084982 0.814357
0.099600 0.087846 0.847477
0.412878 0.090324 0.848576
0.854955 0.098475 0.849484
0.941676 0.108170 0.852245
0.960362 0.124377 0.857295
0.968466 0.149533 0.865047
0.971244 0.377849 0.860604
0.082825 0.085488 0.782336
0.082774 0.086056 0.811759
0.099033 0.089304 0.845687
0.389501 0.095816 0.847316
0.840566 0.103694 0.848486
0.939504 0.116847 0.851015
0.959860 0.141018 0.856477
0.968336 0.168648 0.864705
0.971244 0.377849 0.860604
0.082918 0.099416 0.782312
0.083501 0.101565 0.797639
0.097971 0.113342 0.832505
0.339684 0.129373 0.840003
0.785251 0.155493 0.843766
0.929542 0.190022 0.847011
0.957649 0.227831 0.852686
0.967608 0.285023 0.862392
0.971244 0.377858 0.860603
0.083716 0.195656 0.762005
0.084699 0.204897 0.772099
0.097510 0.237113 0.800559
0.281059 0.276801 0.821273
0.690940 0.321177 0.830447
0.912792 0.359362 0.837305
0.953502 0.422819 0.846221
0.966477 0.490844 0.857451
0.971135 0.603859 0.863828
0.085100 0.443884 0.734725
0.086044 0.455460 0.741396
0.097513 0.488552 0.767860
0.229083 0.523468 0.788673
0.567119 0.559109 0.805483
0.874082 0.598832 0.818657
0.946569 0.640665 0.833153
0.964826 0.697800 0.848584
0.970603 0.785676 0.869511
0.085976 0.699233 0.714972
0.086828 0.704745 0.719139
0.095545 0.724177 0.735072
0.180392 0.749331 0.758303
0.437999 0.774262 0.778377
0.805631 0.800530 0.796969
0.932576 0.820864 0.811365
0.962230 0.839540 0.834723
0.970224 0.871273 0.865099
0.085942 0.855535 0.702342
0.086440 0.856257 0.705032
0.092102 0.860816 0.716200
0.136366 0.872489 0.733709
0.320102 0.884749 0.754748
0.676148 0.896663 0.773358
0.910063 0.909866 0.787399
0.957852 0.925665 0.809087
0.969983 0.935181 0.854333
0.084205 0.936007 0.690104
0.084649 0.936329 0.691853
0.087179 0.937712 0.700421
0.103340 0.939724 0.713460
0.220290 0.941876 0.730104
0.481609 0.943834 0.748013
0.837596 0.945867 0.765973
0.950385 0.947780 0.780096
0.970131 0.951075 0.834923
0.082825 0.952790 0.624848
0.082825 0.953908 0.632647
0.082825 0.956427 0.667287
0.084509 0.960826 0.690024
0.103347 0.962211 0.703410
0.249446 0.962963 0.716975
0.579733 0.963656 0.729522
0.914134 0.964818 0.739800
0.971134 0.967477 0.796357
0.082825 0.086364 0.893845
0.082791 0.086821 0.905230
0.091355 0.092649 0.910672
0.377765 0.099626 0.911834
0.842728 0.109012 0.912862
0.939966 0.126251 0.914403
0.959880 0.153265 0.917352
0.968192 0.188547 0.921772
0.971244 0.377790 0.919710
0.082810 0.087752 0.894495
0.082770 0.088238 0.904691
0.091793 0.097344 0.909857
0.365725 0.104716 0.911288
0.831444 0.116970 0.912425
0.937905 0.141742 0.914026
0.959422 0.172468 0.917030
0.968071 0.211269 0.921598
0.971244 0.377769 0.919140
0.082934 0.107076 0.894920
0.083440 0.109369 0.900944
0.093736 0.129302 0.907178
0.331903 0.154535 0.908559
0.784501 0.185094 0.910293
0.929419 0.221128 0.912240
0.957468 0.268411 0.915538
0.967451 0.330750 0.920444
0.971243 0.377283 0.916538
0.083938 0.223046 0.887712
0.084840 0.230890 0.891756
0.097122 0.272346 0.902030
0.287185 0.315839 0.905934
0.704449 0.351752 0.907376
0.914753 0.400807 0.908860
0.953847 0.460618 0.912706
0.966468 0.518386 0.918556
0.970962 0.645105 0.925329
0.085777 0.477735 0.877149
0.086468 0.484703 0.879990
0.100003 0.514400 0.889498
0.242043 0.550701 0.898340
0.592030 0.587247 0.904091
0.882085 0.622061 0.906063
0.947994 0.657041 0.908291
0.965025 0.713814 0.915188
0.970574 0.798555 0.925059
0.086578 0.715697 0.867191
0.087835 0.720469 0.869028
0.099636 0.739635 0.876045
0.205076 0.765281 0.885453
0.474145 0.786269 0.893770
0.821375 0.806649 0.900024
0.936398 0.825985 0.905027
0.962864 0.844486 0.909536
0.970251 0.877580 0.923222
0.086282 0.857545 0.858746
0.087300 0.858318 0.859963
0.094188 0.866043 0.864899
0.153460 0.877229 0.872168
0.347217 0.889281 0.880664
0.711460 0.901109 0.888389
0.915089 0.914184 0.894727
0.958997 0.927176 0.904608
0.970061 0.936249 0.919439
0.084373 0.937206 0.853447
0.084826 0.937504 0.853932
0.087693 0.938774 0.856481
0.106859 0.940661 0.861265
0.233064 0.942706 0.867701
0.511310 0.944608 0.874444
0.855375 0.946555 0.881226
0.951859 0.948308 0.888884
0.970211 0.952181 0.910981
0.082825 0.952675 0.809082
0.082825 0.954849 0.809108
0.082825 0.957638 0.809808
0.083710 0.961949 0.856306
0.101589 0.963001 0.857281
0.248210 0.963659 0.860987
0.580851 0.964324 0.864935
0.914220 0.965482 0.867957
0.971168 0.968119 0.901865
0.082791 0.089300 0.952495
0.082800 0.089896 0.953580
0.093837 0.099322 0.954577
0.420176 0.107389 0.954822
0.863021 0.120469 0.955092
0.942704 0.145979 0.955545
0.960562 0.174046 0.956368
0.968420 0.211769 0.958540
0.971244 0.400360 0.958454
0.082774 0.093123 0.952265
0.082853 0.094173 0.953342
0.094845 0.103592 0.954422
0.407163 0.113899 0.954696
0.854131 0.133331 0.954979
0.941644 0.162558 0.955442
0.960222 0.194608 0.956277
0.968318 0.231679 0.958416
0.971244 0.407815 0.958454
0.083290 0.122969 0.951376
0.083607 0.126212 0.952184
0.102191 0.153089 0.953524
0.368518 0.179054 0.953998
0.818252 0.212023 0.954383
0.934974 0.251295 0.954915
0.958637 0.291490 0.955809
0.967809 0.348811 0.957770
0.971244 0.483613 0.958454
0.084482 0.262743 0.949525
0.085400 0.268069 0.950282
0.106718 0.302355 0.951976
0.325715 0.340263 0.952964
0.753663 0.377412 0.953547
0.923132 0.428193 0.954190
0.955836 0.479140 0.955180
0.967022 0.533059 0.957020
0.970980 0.666434 0.959614
0.086088 0.506097 0.946604
0.087318 0.511657 0.947440
0.108091 0.540630 0.949594
0.277065 0.573179 0.951221
0.659938 0.607229 0.952367
0.901827 0.636509 0.953315
0.951314 0.672060 0.954373
0.965869 0.721951 0.956181
0.970683 0.807974 0.958751
0.087339 0.735134 0.942579
0.088898 0.739203 0.943505
0.105950 0.758330 0.946251
0.229740 0.778301 0.948753
0.536667 0.796651 0.950577
0.855629 0.816090 0.952003
0.943025 0.830715 0.953397
0.964246 0.847536 0.955233
0.970437 0.882362 0.958016
0.086720 0.864553 0.937114
0.087738 0.866297 0.937939
0.097031 0.873993 0.940923
0.168395 0.884299 0.944592
0.381674 0.895348 0.947675
0.754083 0.906480 0.949917
0.923474 0.918698 0.951732
0.961072 0.928463 0.954030
0.970285 0.937092 0.957195
0.083852 0.939413 0.929528
0.084355 0.939647 0.930233
0.087193 0.940667 0.933564
0.106373 0.942303 0.937269
0.237703 0.944138 0.941350
0.539051 0.945922 0.945080
0.869261 0.947380 0.948034
0.952526 0.948656 0.949445
0.970378 0.953310 0.955944
0.082825 0.951513 0.905393
0.082825 0.957530 0.905931
0.082825 0.958358 0.910832
0.083237 0.963010 0.924740
0.093353 0.964622 0.926995
0.226693 0.965026 0.931252
0.547928 0.965531 0.935296
0.902547 0.966571 0.936889
0.971202 0.968807 0.952694
0.085968 0.092015 0.973375
0.087642 0.092797 0.973376
0.209507 0.095911 0.973379
0.782914 0.100922 0.973390
0.930748 0.108470 0.973411
0.955043 0.118405 0.973450
0.964878 0.126386 0.973551
0.969813 0.133245 0.973751
0.971244 0.397636 0.972807
0.086238 0.095404 0.973355
0.088609 0.096189 0.973357
0.211555 0.099228 0.973361
0.770280 0.104846 0.973374
0.929512 0.114074 0.973397
0.954760 0.128539 0.973438
0.964792 0.138800 0.973541
0.969775 0.144622 0.973743
0.971244 0.407962 0.973609
0.089946 0.117055 0.973057
0.093594 0.118853 0.973068
0.224027 0.127372 0.973106
0.748016 0.145067 0.973182
0.923757 0.168655 0.973284
0.953416 0.195033 0.973381
0.964366 0.212542 0.973489
0.969567 0.221477 0.973695
0.971244 0.408028 0.973609
0.099291 0.261950 0.972563
0.108031 0.265413 0.972589
0.236994 0.278193 0.972678
0.682266 0.302921 0.972815
0.912343 0.336157 0.972970
0.950551 0.364635 0.973178
0.963473 0.395577 0.973410
0.969148 0.444207 0.973607
0.971244 0.673095 0.973870
0.105087 0.510047 0.972197
0.113020 0.513095 0.972238
0.229642 0.525749 0.972377
0.585568 0.546990 0.972547
0.884245 0.572802 0.972752
0.945285 0.601251 0.973000
0.961671 0.623917 0.973352
0.968688 0.658136 0.973551
0.971207 0.795409 0.973925
0.100326 0.741258 0.972033
0.107509 0.743406 0.972089
0.190571 0.752720 0.972273
0.467972 0.767481 0.972490
0.824439 0.781302 0.972714
0.934032 0.796002 0.972981
0.958845 0.811354 0.973330
0.968069 0.828380 0.973528
0.971135 0.873335 0.973881
0.090715 0.870171 0.972112
0.092735 0.871164 0.972178
0.120063 0.875609 0.972381
0.304656 0.882616 0.972638
0.680204 0.890131 0.972899
0.908689 0.898506 0.973173
0.953576 0.907492 0.973414
0.967147 0.918847 0.973578
0.971111 0.935438 0.973891
0.083698 0.940405 0.971885
0.084098 0.940605 0.972124
0.086907 0.941527 0.972605
0.118882 0.942951 0.972978
0.345815 0.944252 0.973337
0.761537 0.945537 0.973452
0.933461 0.946868 0.973564
0.964741 0.947982 0.973709
0.971150 0.952166 0.973952
0.082825 0.949940 0.945965
0.082825 0.958398 0.955507
0.082825 0.958398 0.955507
0.082825 0.959614 0.955527
0.085925 0.967627 0.970471
0.171625 0.967096 0.973614
0.505472 0.967181 0.973816
0.901348 0.968092 0.973953
0.971244 0.969590 0.974044
