LUTs/provia100f/Provia100F_Classic_Punchy.cube
TITLE "Fuji Provia 100F Classic Punchy"
# Adobe RGB in/out. REPLACES AgX. Fuji Provia 100F Classic Punchy.
LUT_3D_SIZE 9
DOMAIN_MIN 0.0 0.0 0.0
DOMAIN_MAX 1.0 1.0 1.0
0.086435 0.087824 0.082231
0.087571 0.087824 0.082231
0.155421 0.087824 0.082231
0.570010 0.087891 0.082231
0.897953 0.088354 0.082229
0.956651 0.089901 0.082255
0.971034 0.091102 0.082354
0.977669 0.090247 0.154115
0.978148 0.368372 0.541112
0.086435 0.087824 0.082231
0.086372 0.087826 0.082231
0.123629 0.087894 0.082231
0.469105 0.088152 0.082230
0.866308 0.089328 0.082229
0.952240 0.091113 0.082261
0.970370 0.093960 0.082354
0.977669 0.090251 0.154151
0.978148 0.368408 0.541105
0.086435 0.090364 0.082231
0.086435 0.090926 0.082231
0.090647 0.092568 0.082230
0.230348 0.095928 0.082229
0.698991 0.102147 0.082243
0.927474 0.115881 0.082290
0.966262 0.135994 0.082383
0.977695 0.091687 0.158586
0.978148 0.368411 0.541104
0.086435 0.149520 0.082231
0.086419 0.158620 0.082230
0.087658 0.185700 0.082229
0.118151 0.209469 0.082242
0.397029 0.247541 0.082275
0.852761 0.287664 0.082335
0.955968 0.341744 0.082505
0.974936 0.401604 0.082941
0.978148 0.368556 0.204122
0.086435 0.440036 0.082229
0.086385 0.453240 0.082229
0.087458 0.496351 0.082244
0.099785 0.535829 0.082281
0.237018 0.564157 0.082333
0.657196 0.599710 0.082460
0.928396 0.631471 0.082706
0.970368 0.667005 0.083162
0.977889 0.763221 0.091213
0.086394 0.720995 0.082238
0.086361 0.726716 0.082243
0.087331 0.762491 0.082275
0.093997 0.800258 0.082333
0.163986 0.815119 0.082456
0.450277 0.826067 0.082662
0.864236 0.839792 0.082979
0.962862 0.857066 0.083906
0.977448 0.878538 0.086620
0.086386 0.879995 0.082250
0.086360 0.881454 0.082254
0.086979 0.890056 0.082305
0.091376 0.903224 0.082379
0.123034 0.915638 0.082594
0.308109 0.924028 0.082905
0.735780 0.929535 0.083486
0.947967 0.935143 0.084414
0.976918 0.943627 0.086651
0.086435 0.951234 0.082235
0.086435 0.951257 0.082240
0.086455 0.952392 0.082283
0.088596 0.956033 0.082358
0.104368 0.960002 0.082608
0.229018 0.962377 0.082965
0.560305 0.963419 0.083751
0.917733 0.964383 0.084613
0.976603 0.965733 0.086413
0.086435 0.959174 0.082230
0.086435 0.959175 0.082230
0.086435 0.970013 0.082230
0.086435 0.970356 0.082243
0.091049 0.976800 0.082310
0.139807 0.977170 0.082496
0.354921 0.977196 0.082793
0.804669 0.977729 0.083042
0.977500 0.978959 0.083224
0.086435 0.087824 0.082252
0.086547 0.087824 0.082474
0.125872 0.087824 0.082323
0.604167 0.087910 0.082325
0.907295 0.088418 0.082317
0.957771 0.090011 0.082347
0.971028 0.091231 0.082592
0.977669 0.090251 0.154156
0.978148 0.368407 0.541115
0.086435 0.087824 0.082245
0.087569 0.087870 0.082304
0.130692 0.087909 0.082291
0.513661 0.088246 0.082318
0.885795 0.089470 0.082322
0.953974 0.091192 0.082351
0.970406 0.094317 0.082583
0.977669 0.090256 0.154215
0.978148 0.368410 0.541106
0.086435 0.090045 0.082243
0.086455 0.090589 0.082252
0.097520 0.091696 0.082287
0.304472 0.095611 0.082327
0.761225 0.102221 0.082346
0.935027 0.115633 0.082412
0.966712 0.136204 0.082628
0.977702 0.092522 0.160561
0.978148 0.368411 0.541104
0.086407 0.142138 0.082250
0.086435 0.151091 0.082261
0.089695 0.175948 0.082310
0.148089 0.198700 0.082350
0.485818 0.240773 0.082444
0.873653 0.281943 0.082552
0.958503 0.338905 0.082805
0.975033 0.401744 0.083651
0.978148 0.368453 0.541092
0.086376 0.422253 0.082255
0.086449 0.436759 0.082274
0.088029 0.485224 0.082327
0.106398 0.523451 0.082421
0.275052 0.553410 0.082590
0.708944 0.592366 0.082791
0.935070 0.628275 0.083072
0.970848 0.665045 0.084065
0.977884 0.765129 0.100840
0.086358 0.710615 0.082276
0.086462 0.717161 0.082293
0.087577 0.752785 0.082344
0.096939 0.795586 0.082506
0.184412 0.811091 0.082754
0.495279 0.822862 0.083065
0.879291 0.837727 0.083820
0.963985 0.855882 0.084752
0.977460 0.878620 0.088134
0.086359 0.878759 0.082293
0.086432 0.879622 0.082307
0.087357 0.888248 0.082355
0.092460 0.901209 0.082568
0.131279 0.913425 0.082892
0.329786 0.922063 0.083499
0.762278 0.928672 0.084315
0.950847 0.934623 0.085550
0.976973 0.943601 0.087957
0.086435 0.950783 0.082248
0.086435 0.950861 0.082252
0.086519 0.952098 0.082325
0.089114 0.955676 0.082505
0.107742 0.959547 0.082858
0.238388 0.962057 0.083536
0.579542 0.963289 0.084430
0.923113 0.964289 0.085692
0.976713 0.965704 0.087498
0.086435 0.961561 0.082481
0.086435 0.961563 0.082481
0.086435 0.971529 0.082481
0.086435 0.971529 0.082481
0.091275 0.976724 0.082340
0.143926 0.977080 0.082630
0.363695 0.977135 0.083005
0.814310 0.977693 0.083598
0.977624 0.978944 0.083937
0.086435 0.087824 0.085342
0.087221 0.087824 0.118053
0.121139 0.087824 0.106511
0.583919 0.088025 0.102411
0.909086 0.088848 0.100315
0.958519 0.090582 0.105076
0.970918 0.092630 0.125192
0.977683 0.090905 0.184470
0.978148 0.368411 0.541195
0.086435 0.087824 0.085276
0.087152 0.087881 0.088070
0.123759 0.088001 0.090906
0.517073 0.088494 0.092177
0.894976 0.090053 0.093768
0.955785 0.092376 0.099679
0.970400 0.095895 0.112124
0.977688 0.091145 0.188960
0.978148 0.368411 0.541120
0.086370 0.090037 0.084335
0.087004 0.090552 0.084919
0.116905 0.094851 0.087439
0.356657 0.096085 0.087281
0.812262 0.103622 0.088845
0.942498 0.118671 0.091728
0.967628 0.140148 0.097103
0.977562 0.112233 0.202711
0.978148 0.368411 0.541106
0.086538 0.137083 0.084340
0.087295 0.145029 0.084748
0.095545 0.167054 0.085698
0.221838 0.190630 0.086539
0.621533 0.235005 0.087743
0.908038 0.281094 0.090151
0.961764 0.337471 0.092620
0.975313 0.404641 0.107165
0.978148 0.368416 0.541117
0.086833 0.406815 0.084322
0.087463 0.420849 0.084656
0.091917 0.468574 0.085607
0.138855 0.505626 0.086590
0.384828 0.537250 0.087659
0.815636 0.580882 0.090092
0.946187 0.622927 0.092184
0.972203 0.661304 0.101498
0.977866 0.772698 0.261627
0.087113 0.697200 0.084459
0.087486 0.704413 0.084745
0.090965 0.736057 0.085691
0.112073 0.775639 0.086760
0.255104 0.802596 0.088242
0.626374 0.815829 0.090498
0.913568 0.832860 0.093308
0.967085 0.852551 0.100946
0.977498 0.878958 0.125433
0.086904 0.877268 0.084070
0.087274 0.877910 0.084195
0.089009 0.883977 0.085153
0.099991 0.895882 0.086388
0.180442 0.907319 0.087843
0.437639 0.916560 0.090394
0.835807 0.925741 0.094250
0.959347 0.932894 0.101309
0.977140 0.943560 0.112537
0.086430 0.948162 0.083231
0.086499 0.948562 0.083460
0.087516 0.950703 0.084329
0.092666 0.954204 0.085808
0.124305 0.957775 0.087318
0.290703 0.960356 0.089950
0.674319 0.962462 0.093830
0.939604 0.963916 0.099280
0.977013 0.965607 0.105626
0.086435 0.961563 0.082481
0.086435 0.971528 0.082481
0.086435 0.971529 0.082481
0.086435 0.971532 0.082481
0.093866 0.976248 0.083123
0.168701 0.976634 0.085064
0.417927 0.976827 0.086581
0.855213 0.977497 0.087751
0.977842 0.978873 0.089025
0.086435 0.087824 0.150033
0.086455 0.087853 0.378395
0.121521 0.087982 0.452974
0.518637 0.088354 0.437641
0.899611 0.089807 0.443998
0.956512 0.092074 0.460022
0.970361 0.096065 0.506092
0.977083 0.097766 0.629200
0.978148 0.368409 0.635186
0.086435 0.087905 0.155830
0.086584 0.088044 0.254858
0.122446 0.088374 0.378785
0.472868 0.089261 0.378474
0.885005 0.091030 0.398538
0.954009 0.095262 0.433600
0.969876 0.100429 0.484684
0.976999 0.101891 0.624213
0.978148 0.368411 0.636353
0.086464 0.090891 0.137065
0.087458 0.091638 0.153813
0.112652 0.094693 0.207051
0.356656 0.098339 0.239583
0.817555 0.108086 0.276750
0.943066 0.128238 0.325284
0.967492 0.154206 0.408575
0.976251 0.184299 0.547162
0.978148 0.368411 0.640610
0.087154 0.138716 0.125320
0.087758 0.146723 0.130180
0.100745 0.168885 0.147375
0.274102 0.222201 0.200212
0.676209 0.243351 0.206639
0.917889 0.293651 0.239950
0.962848 0.349053 0.295831
0.975288 0.425743 0.444113
0.978148 0.368460 0.641890
0.087628 0.401939 0.122908
0.088661 0.415071 0.126197
0.097309 0.459856 0.136786
0.181305 0.499112 0.156731
0.485344 0.532605 0.178146
0.858967 0.579196 0.206376
0.952270 0.623149 0.241950
0.972775 0.664830 0.322544
0.977831 0.786885 0.614742
0.088020 0.689306 0.119124
0.088935 0.696543 0.121798
0.095067 0.725858 0.131435
0.133273 0.762930 0.147286
0.324693 0.797268 0.168741
0.733092 0.811877 0.191549
0.931300 0.830248 0.221124
0.968900 0.851488 0.266092
0.977516 0.881064 0.487009
0.087753 0.875528 0.113366
0.088476 0.876908 0.115634
0.092314 0.880648 0.124572
0.113425 0.891720 0.137267
0.235566 0.902646 0.159194
0.551449 0.912369 0.183158
0.883638 0.922572 0.208431
0.963015 0.931821 0.242140
0.977262 0.943938 0.381160
0.087061 0.947106 0.103823
0.087382 0.947582 0.104600
0.089141 0.949806 0.112287
0.098582 0.953033 0.125048
0.156287 0.956376 0.141206
0.355430 0.959044 0.165261
0.763356 0.961590 0.190387
0.950035 0.963630 0.217584
0.977248 0.965597 0.293563
0.086435 0.965579 0.096155
0.086435 0.972224 0.096155
0.086435 0.972225 0.096155
0.086567 0.975250 0.087853
0.101505 0.975450 0.109077
0.211917 0.976004 0.124647
0.503566 0.976416 0.138988
0.893620 0.977220 0.155272
0.977978 0.978859 0.185843
0.086435 0.087882 0.504013
0.086394 0.087983 0.618619
0.116213 0.088570 0.721341
0.467522 0.089654 0.723055
0.881919 0.091218 0.725170
0.953410 0.096145 0.738581
0.969580 0.102796 0.762062
0.976653 0.109385 0.801688
0.978148 0.368412 0.833428
0.086435 0.088089 0.512933
0.086428 0.088333 0.600183
0.115452 0.089558 0.702850
0.435346 0.090855 0.709350
0.867764 0.094307 0.713845
0.951096 0.100565 0.729669
0.969115 0.109547 0.755521
0.976568 0.118316 0.799368
0.978148 0.368412 0.828971
0.086525 0.092854 0.497453
0.087464 0.094442 0.534355
0.109539 0.099066 0.626848
0.350047 0.105342 0.655455
0.805663 0.117581 0.674306
0.941557 0.146570 0.695785
0.966976 0.177773 0.728182
0.976010 0.221733 0.780523
0.978148 0.368423 0.814787
0.087536 0.155304 0.465510
0.088735 0.163564 0.476961
0.103792 0.190133 0.525314
0.273323 0.222516 0.575854
0.688502 0.259478 0.606994
0.920309 0.316556 0.634312
0.962942 0.380228 0.682472
0.975103 0.461839 0.743397
0.978148 0.569812 0.814915
0.088724 0.409807 0.440347
0.090260 0.423293 0.449556
0.101803 0.467535 0.472088
0.213760 0.504756 0.505285
0.560315 0.561482 0.563812
0.875038 0.588743 0.581763
0.954930 0.631075 0.625921
0.972935 0.678560 0.690098
0.977783 0.800163 0.807095
0.089598 0.690416 0.421779
0.091204 0.697517 0.429874
0.100298 0.725341 0.454501
0.164732 0.761224 0.477149
0.382466 0.796790 0.506448
0.776661 0.812178 0.538250
0.938694 0.831315 0.577367
0.969855 0.853827 0.629267
0.977502 0.885098 0.771535
0.089443 0.875054 0.401078
0.090694 0.876651 0.407478
0.096650 0.879680 0.432685
0.127831 0.890174 0.459905
0.279054 0.900879 0.482871
0.622768 0.910960 0.511611
0.905876 0.921864 0.542746
0.965277 0.931833 0.582575
0.977309 0.945021 0.711095
0.087631 0.946929 0.363721
0.088007 0.947396 0.369200
0.091430 0.949456 0.394453
0.104864 0.952473 0.428949
0.193274 0.955637 0.459688
0.433640 0.958369 0.482124
0.816341 0.961119 0.508920
0.957129 0.963550 0.539789
0.977372 0.965778 0.632530
0.086435 0.967069 0.468140
0.086435 0.968094 0.468140
0.086435 0.970490 0.468136
0.088377 0.973888 0.344139
0.108512 0.975134 0.394149
0.236107 0.975744 0.435366
0.557627 0.976244 0.459903
0.913222 0.977143 0.474904
0.978052 0.979109 0.541186
0.086435 0.088143 0.800052
0.086407 0.088332 0.838018
0.108831 0.090248 0.875481
0.407935 0.091820 0.876650
0.864869 0.096108 0.877615
0.950254 0.103336 0.880551
0.968771 0.115389 0.885923
0.976358 0.136265 0.894170
0.978148 0.368412 0.889443
0.086435 0.088673 0.803109
0.086363 0.089053 0.835182
0.108125 0.091215 0.872979
0.383181 0.094653 0.875310
0.853418 0.100225 0.876554
0.948158 0.110263 0.879244
0.968338 0.129056 0.885053
0.976274 0.153261 0.893806
0.978148 0.368413 0.889443
0.086567 0.096619 0.803083
0.087387 0.098251 0.819781
0.106803 0.107487 0.857840
0.334261 0.118984 0.866038
0.794183 0.141256 0.870153
0.939762 0.172038 0.874986
0.966430 0.208825 0.881020
0.975805 0.264837 0.891345
0.978148 0.368423 0.889442
0.087690 0.176742 0.776489
0.089079 0.184435 0.789627
0.106230 0.218516 0.822966
0.277856 0.256837 0.845569
0.696628 0.300762 0.855591
0.920659 0.346046 0.863088
0.962849 0.420093 0.873921
0.974908 0.495361 0.886089
0.978078 0.610169 0.892873
0.089648 0.442736 0.746902
0.091442 0.455216 0.754131
0.106235 0.492984 0.782848
0.230259 0.529217 0.810011
0.572214 0.566272 0.828336
0.882818 0.606506 0.842712
0.956257 0.644817 0.858548
0.973003 0.698924 0.876659
0.977736 0.809494 0.898920
0.091304 0.700278 0.725524
0.092739 0.707538 0.730031
0.104199 0.734697 0.747278
0.186286 0.770273 0.772470
0.435701 0.800944 0.798798
0.813171 0.820569 0.819052
0.942320 0.835755 0.834753
0.970383 0.859063 0.860265
0.977491 0.890417 0.894225
0.091235 0.876826 0.711875
0.092171 0.877450 0.714781
0.100561 0.881390 0.726852
0.147055 0.891465 0.745802
0.315118 0.902024 0.768611
0.680777 0.912263 0.791727
0.917090 0.923585 0.808623
0.966605 0.933108 0.832267
0.977336 0.946416 0.882772
0.088380 0.947574 0.698664
0.089008 0.948026 0.700552
0.093254 0.949964 0.709800
0.113049 0.952788 0.723889
0.222125 0.955810 0.741897
0.484332 0.958562 0.761305
0.851030 0.961422 0.780798
0.960155 0.963726 0.800670
0.977431 0.966366 0.860484
0.086435 0.967739 0.633798
0.086435 0.968634 0.642071
0.086435 0.970649 0.677538
0.088811 0.974166 0.698578
0.113056 0.975273 0.713028
0.249001 0.975873 0.727690
0.584973 0.976427 0.741268
0.922415 0.977355 0.752401
0.978078 0.979477 0.818384
0.086435 0.089259 0.924825
0.086388 0.089565 0.933016
0.099444 0.092897 0.935605
0.371657 0.096733 0.936157
0.855141 0.103917 0.936644
0.948547 0.116741 0.937375
0.968356 0.139236 0.938772
0.976181 0.170805 0.940860
0.978148 0.368341 0.939886
0.086415 0.090186 0.925517
0.086359 0.090508 0.932759
0.100098 0.095492 0.935218
0.359835 0.100938 0.935897
0.843724 0.110341 0.936437
0.946812 0.129825 0.937197
0.967960 0.156747 0.938619
0.976103 0.190954 0.940778
0.978148 0.368315 0.939617
0.086588 0.102579 0.925970
0.087301 0.104163 0.930970
0.102442 0.118933 0.933943
0.326630 0.140382 0.934600
0.793484 0.167915 0.935425
0.939658 0.201563 0.936349
0.966273 0.248686 0.937913
0.975703 0.311994 0.940233
0.978148 0.367724 0.938386
0.088004 0.203636 0.918294
0.089279 0.212153 0.922600
0.105749 0.252508 0.931489
0.283416 0.295102 0.933351
0.711124 0.336921 0.934038
0.923226 0.396528 0.934744
0.963147 0.460822 0.936570
0.974898 0.523940 0.939341
0.977966 0.649031 0.942537
0.090900 0.481774 0.907048
0.092211 0.488994 0.910073
0.109334 0.519801 0.920196
0.242202 0.557524 0.929612
0.597414 0.595571 0.932473
0.892027 0.627140 0.933413
0.958007 0.660352 0.934473
0.973233 0.720178 0.937747
0.977717 0.819100 0.942410
0.092372 0.722810 0.896451
0.094219 0.729493 0.898406
0.108876 0.756505 0.905873
0.207987 0.793072 0.915889
0.475972 0.809937 0.924745
0.831787 0.825116 0.930531
0.945542 0.842134 0.932919
0.970930 0.865256 0.935065
0.977509 0.895852 0.941544
0.091926 0.878564 0.887467
0.093433 0.879232 0.888761
0.102882 0.885904 0.894013
0.162356 0.895550 0.901748
0.341658 0.905921 0.910790
0.718654 0.916078 0.919015
0.923666 0.927120 0.925764
0.967593 0.935218 0.932719
0.977386 0.947913 0.939759
0.088618 0.949254 0.881830
0.089259 0.949672 0.882346
0.094010 0.951455 0.885057
0.116889 0.954103 0.890146
0.233933 0.956976 0.896993
0.517469 0.959651 0.904170
0.865202 0.962391 0.911388
0.961429 0.964149 0.919542
0.977483 0.967251 0.935752
0.086435 0.967647 0.832261
0.086435 0.969387 0.832289
0.086435 0.971618 0.833053
0.087681 0.975064 0.884871
0.111138 0.975904 0.885908
0.247866 0.976430 0.889850
0.586104 0.976961 0.894050
0.922528 0.977885 0.897266
0.978099 0.979990 0.931411
0.086387 0.091212 0.963283
0.086400 0.091606 0.964278
0.102540 0.096568 0.965193
0.415982 0.102795 0.965417
0.871270 0.112558 0.965666
0.951514 0.133426 0.966081
0.968944 0.158187 0.966836
0.976328 0.191491 0.968828
0.978148 0.396015 0.968749
0.086364 0.093162 0.963071
0.086474 0.093746 0.964060
0.103519 0.100153 0.965051
0.401645 0.107989 0.965302
0.864214 0.121810 0.965562
0.950214 0.147703 0.965986
0.968650 0.175868 0.966752
0.976262 0.213013 0.968714
0.978148 0.404020 0.968749
0.087090 0.114371 0.962256
0.087536 0.116713 0.962997
0.111795 0.139096 0.964226
0.362577 0.162759 0.964661
0.828089 0.191763 0.965015
0.944342 0.232160 0.965503
0.967283 0.271136 0.966323
0.975934 0.333408 0.968121
0.978148 0.487865 0.968749
0.088772 0.243198 0.960556
0.090138 0.248354 0.961251
0.116735 0.281735 0.962806
0.320594 0.323238 0.963713
0.764700 0.367881 0.964248
0.934211 0.425861 0.964838
0.964865 0.483230 0.965746
0.975426 0.539183 0.967434
0.977978 0.669253 0.969813
0.091531 0.511183 0.957875
0.093459 0.516953 0.958643
0.118234 0.547052 0.960620
0.274225 0.580918 0.962114
0.663431 0.613028 0.963165
0.910161 0.640871 0.964035
0.960959 0.674581 0.965006
0.974207 0.731571 0.966664
0.977787 0.826099 0.969022
0.093489 0.750137 0.954179
0.095788 0.755893 0.955029
0.115897 0.783113 0.957551
0.230865 0.803973 0.959848
0.541412 0.817682 0.961523
0.865404 0.832111 0.962831
0.951909 0.848035 0.964110
0.972334 0.869078 0.965794
0.977628 0.899970 0.968347
0.092581 0.884618 0.949158
0.094076 0.886123 0.949916
0.105639 0.892762 0.952658
0.175766 0.901637 0.956028
0.375496 0.911133 0.958858
0.765094 0.920684 0.960916
0.934639 0.929331 0.962582
0.969384 0.937016 0.964691
0.977530 0.949094 0.967594
0.087882 0.952351 0.944512
0.088593 0.952679 0.944844
0.093276 0.954111 0.946406
0.116359 0.956411 0.949300
0.238209 0.958990 0.953050
0.543823 0.961500 0.956476
0.877275 0.963405 0.959188
0.962005 0.964428 0.960483
0.977590 0.968155 0.966447
0.086435 0.966716 0.933093
0.086435 0.971531 0.933350
0.086435 0.972193 0.935681
0.087014 0.975911 0.942260
0.102070 0.977199 0.943322
0.228050 0.977521 0.945322
0.552801 0.977924 0.947487
0.910755 0.978755 0.948951
0.978121 0.980539 0.963465
0.091288 0.092550 0.978705
0.093936 0.092979 0.978705
0.212113 0.094706 0.978709
0.792006 0.097615 0.978720
0.940778 0.103543 0.978741
0.964180 0.111253 0.978781
0.973063 0.116839 0.978884
0.977226 0.121749 0.979087
0.978148 0.392654 0.978490
0.091836 0.094426 0.978684
0.095361 0.094859 0.978686
0.214018 0.096517 0.978690
0.780222 0.101029 0.978703
0.939736 0.108146 0.978727
0.963935 0.118386 0.978769
0.972964 0.126706 0.978873
0.977202 0.132340 0.979079
0.978148 0.404177 0.978943
0.097343 0.110396 0.978577
0.102304 0.111537 0.978581
0.225584 0.117548 0.978594
0.759420 0.132696 0.978620
0.934878 0.153267 0.978655
0.962774 0.176222 0.978711
0.972474 0.192319 0.978820
0.977068 0.201939 0.979030
0.978148 0.404247 0.978943
0.108446 0.242433 0.978406
0.118168 0.245777 0.978415
0.237556 0.258190 0.978446
0.687330 0.282287 0.978493
0.920072 0.318376 0.978547
0.960299 0.352397 0.978619
0.971456 0.390118 0.978740
0.976798 0.443084 0.978940
0.978148 0.675560 0.979208
0.114955 0.515282 0.978279
0.122919 0.518446 0.978293
0.230775 0.531587 0.978342
0.590877 0.553665 0.978400
0.894514 0.580525 0.978471
0.954681 0.608270 0.978557
0.969901 0.628906 0.978681
0.976501 0.661390 0.978883
0.978124 0.816757 0.979265
0.109736 0.758804 0.978222
0.117598 0.761852 0.978242
0.195127 0.775102 0.978305
0.469069 0.795848 0.978381
0.835416 0.806222 0.978458
0.943548 0.817199 0.978550
0.967462 0.828605 0.978671
0.976102 0.845121 0.978860
0.978078 0.892194 0.979220
0.098487 0.889467 0.978250
0.101468 0.890323 0.978272
0.131004 0.894155 0.978343
0.300045 0.900188 0.978432
0.685121 0.906652 0.978522
0.915823 0.913845 0.978617
0.962912 0.921551 0.978744
0.975507 0.929405 0.978911
0.978063 0.946776 0.979230
0.087665 0.953744 0.978171
0.088229 0.954024 0.978254
0.092855 0.955319 0.978420
0.129523 0.957321 0.978549
0.340282 0.959150 0.978674
0.772058 0.960958 0.978782
0.943067 0.962832 0.978896
0.972905 0.963888 0.979045
0.978088 0.967240 0.979292
0.086435 0.965456 0.957288
0.086435 0.972225 0.966046
0.086435 0.972225 0.966046
0.086435 0.973198 0.966064
0.091202 0.979597 0.977681
0.178609 0.979174 0.978947
0.511162 0.979241 0.979153
0.909765 0.979969 0.979293
0.978148 0.981163 0.979386
