LUTs/provia100f/Provia100F_Classic_Normal.cube
TITLE "Fuji Provia 100F Classic Normal"
# Adobe RGB in/out. REPLACES AgX. Fuji Provia 100F Classic Normal.
LUT_3D_SIZE 33
DOMAIN_MIN 0.0 0.0 0.0
DOMAIN_MAX 1.0 1.0 1.0
0.082825 0.083895 0.090792
0.082825 0.083895 0.090792
0.082825 0.083895 0.090792
0.082803 0.083895 0.090792
0.083632 0.083895 0.090792
0.084823 0.083895 0.090792
0.089735 0.083895 0.090792
0.112297 0.083895 0.090792
0.146113 0.083895 0.090792
0.224926 0.083895 0.090792
0.341723 0.083895 0.090792
0.460106 0.083977 0.090792
0.564940 0.084059 0.090792
0.685584 0.084186 0.090791
0.792422 0.084525 0.090791
0.850119 0.084719 0.090791
0.887229 0.085014 0.090791
0.913161 0.085488 0.090793
0.927165 0.086209 0.090798
0.939433 0.086698 0.090802
0.946890 0.087325 0.090806
0.951918 0.088023 0.090820
0.956127 0.088617 0.090834
0.960114 0.088849 0.090847
0.962984 0.089134 0.090861
0.964977 0.089348 0.090921
0.967260 0.088808 0.090984
0.968412 0.088733 0.091313
0.970499 0.087845 0.166863
0.970499 0.087837 0.166797
0.970499 0.087837 0.166793
0.970499 0.087837 0.166791
0.971244 0.377815 0.538475
0.082825 0.083895 0.090792
0.082825 0.083895 0.090792
0.082825 0.083895 0.090792
0.082783 0.083895 0.090792
0.083974 0.083895 0.090792
0.085196 0.083895 0.090792
0.090310 0.083895 0.090792
0.113066 0.083895 0.090792
0.146169 0.083895 0.090792
0.223780 0.083895 0.090792
0.338507 0.083895 0.090792
0.456538 0.083992 0.090792
0.560695 0.084072 0.090792
0.681214 0.084217 0.090791
0.789473 0.084553 0.090791
0.848028 0.084760 0.090791
0.886170 0.085051 0.090791
0.912696 0.085551 0.090793
0.926807 0.086268 0.090798
0.939155 0.086786 0.090802
0.946746 0.087407 0.090806
0.951834 0.088100 0.090820
0.956065 0.088691 0.090835
0.960069 0.088921 0.090847
0.962953 0.089204 0.090861
0.964960 0.089521 0.090921
0.967249 0.088877 0.090983
0.968405 0.088798 0.091299
0.970499 0.087845 0.166864
0.970499 0.087837 0.166797
0.970499 0.087837 0.166794
0.970499 0.087837 0.166791
0.971244 0.377822 0.538474
0.082825 0.083895 0.090792
0.082825 0.083895 0.090792
0.082825 0.083895 0.090792
0.082795 0.083895 0.090792
0.083665 0.083895 0.090792
0.085834 0.083895 0.090792
0.091761 0.083895 0.090792
0.117916 0.083895 0.090792
0.149701 0.083895 0.090792
0.221059 0.083895 0.090792
0.328056 0.083958 0.090792
0.438442 0.084049 0.090792
0.545573 0.084120 0.090792
0.665374 0.084334 0.090791
0.769943 0.084655 0.090791
0.840280 0.084913 0.090791
0.882227 0.085187 0.090791
0.910871 0.085782 0.090793
0.925473 0.086525 0.090799
0.938119 0.087105 0.090802
0.946210 0.087705 0.090806
0.951519 0.088382 0.090820
0.955836 0.088960 0.090835
0.959905 0.089183 0.090847
0.962836 0.089670 0.090861
0.964898 0.090282 0.090919
0.967205 0.089128 0.090978
0.968379 0.089033 0.091253
0.970499 0.087846 0.166869
0.970499 0.087837 0.166798
0.970499 0.087837 0.166794
0.970499 0.087838 0.166791
0.971244 0.377835 0.538472
0.082825 0.083895 0.090792
0.082825 0.083895 0.090792
0.082825 0.083895 0.090792
0.082825 0.083895 0.090792
0.082925 0.083895 0.090792
0.083845 0.083895 0.090792
0.088420 0.083895 0.090792
0.109283 0.083895 0.090792
0.140739 0.083895 0.090792
0.213732 0.083943 0.090792
0.313226 0.084094 0.090792
0.408696 0.084200 0.090792
0.507448 0.084345 0.090791
0.626738 0.084561 0.090791
0.753995 0.084945 0.090791
0.825064 0.085218 0.090791
0.874385 0.085670 0.090791
0.905143 0.086221 0.090794
0.922804 0.087178 0.090799
0.936046 0.087709 0.090803
0.945137 0.088269 0.090807
0.950893 0.088913 0.090821
0.955379 0.089695 0.090836
0.959578 0.090377 0.090847
0.962605 0.091452 0.090861
0.964775 0.092222 0.090916
0.967120 0.090074 0.090970
0.968327 0.089722 0.091189
0.970499 0.087847 0.166881
0.970499 0.087838 0.166799
0.970499 0.087837 0.166795
0.970499 0.087839 0.166792
0.971244 0.377842 0.538470
0.082825 0.083895 0.090792
0.082825 0.083895 0.090792
0.082825 0.083895 0.090792
0.082825 0.083895 0.090792
0.082780 0.083900 0.090792
0.083232 0.083895 0.090792
0.085392 0.083950 0.090792
0.093864 0.084073 0.090792
0.113808 0.084067 0.090792
0.177040 0.084121 0.090792
0.283966 0.084447 0.090792
0.366584 0.084584 0.090792
0.468004 0.084700 0.090791
0.583183 0.085026 0.090791
0.716466 0.085742 0.090791
0.798626 0.086096 0.090791
0.856767 0.086466 0.090791
0.894294 0.087233 0.090795
0.918223 0.088209 0.090800
0.932477 0.088657 0.090803
0.943295 0.089150 0.090809
0.949822 0.090645 0.090823
0.954602 0.092784 0.090837
0.959024 0.093555 0.090848
0.962214 0.094560 0.090861
0.964568 0.095288 0.090914
0.966976 0.093136 0.090961
0.968237 0.092449 0.091131
0.970499 0.087850 0.166902
0.970499 0.087838 0.166802
0.970499 0.087837 0.166796
0.970499 0.087849 0.166792
0.971244 0.377845 0.538469
0.082825 0.083965 0.090792
0.082825 0.083969 0.090792
0.082825 0.084004 0.090792
0.082825 0.084040 0.090792
0.082812 0.084073 0.090792
0.082886 0.084097 0.090792
0.083817 0.084304 0.090792
0.088046 0.084616 0.090792
0.096644 0.084532 0.090792
0.129805 0.084629 0.090792
0.233772 0.085060 0.090792
0.318079 0.085269 0.090791
0.414773 0.085521 0.090791
0.535353 0.085999 0.090791
0.669437 0.086924 0.090791
0.757753 0.087484 0.090791
0.827226 0.088060 0.090792
0.877111 0.088864 0.090796
0.910564 0.090531 0.090801
0.926564 0.091849 0.090804
0.939904 0.093477 0.090812
0.947756 0.095625 0.090825
0.953332 0.097588 0.090838
0.958120 0.098228 0.090849
0.961583 0.099073 0.090862
0.964234 0.099629 0.090912
0.966742 0.097667 0.090955
0.968092 0.096750 0.091077
0.970500 0.087856 0.166946
0.970499 0.087839 0.166807
0.970499 0.087837 0.166799
0.971244 0.377589 0.166794
0.971244 0.377847 0.538469
0.082825 0.084525 0.090792
0.082825 0.084531 0.090792
0.082825 0.084597 0.090792
0.082825 0.084684 0.090792
0.082817 0.084812 0.090792
0.082843 0.084943 0.090792
0.083536 0.085040 0.090792
0.085888 0.085880 0.090792
0.089772 0.085550 0.090792
0.105499 0.085729 0.090792
0.176278 0.086611 0.090791
0.258174 0.086957 0.090791
0.344712 0.087097 0.090791
0.468403 0.087708 0.090791
0.604848 0.088810 0.090791
0.714157 0.089332 0.090791
0.795238 0.090248 0.090794
0.857450 0.092779 0.090798
0.896573 0.096566 0.090803
0.919102 0.098320 0.090805
0.933149 0.100352 0.090816
0.944035 0.102718 0.090828
0.951219 0.104895 0.090841
0.956620 0.105511 0.090851
0.960547 0.106525 0.090863
0.963690 0.107354 0.090914
0.966357 0.104506 0.090954
0.967849 0.102944 0.091041
0.970500 0.087871 0.167050
0.970499 0.087840 0.166819
0.970499 0.087838 0.166805
0.971244 0.377831 0.166796
0.971244 0.377847 0.538469
0.082825 0.086293 0.090792
0.082825 0.086306 0.090792
0.082825 0.086529 0.090792
0.082825 0.086861 0.090792
0.082814 0.087261 0.090792
0.082834 0.087669 0.090792
0.083395 0.087999 0.090792
0.084622 0.088251 0.090792
0.086734 0.087683 0.090792
0.093531 0.087898 0.090792
0.129457 0.089111 0.090791
0.209806 0.089283 0.090791
0.281038 0.089300 0.090791
0.388284 0.090848 0.090791
0.544417 0.094860 0.090791
0.655404 0.096219 0.090793
0.750338 0.097538 0.090796
0.824127 0.100116 0.090800
0.878815 0.104001 0.090804
0.911122 0.105491 0.090810
0.927074 0.107842 0.090820
0.940487 0.111684 0.090832
0.948708 0.116299 0.090844
0.954499 0.119938 0.090854
0.958746 0.125574 0.090868
0.962499 0.127090 0.090921
0.965675 0.122162 0.090963
0.967418 0.118568 0.091036
0.970501 0.087932 0.167410
0.970499 0.087845 0.166860
0.970499 0.087840 0.166822
0.971244 0.377843 0.166803
0.971244 0.377848 0.538469
0.082825 0.088021 0.090792
0.082825 0.088034 0.090792
0.082825 0.088193 0.090792
0.082825 0.088509 0.090792
0.082825 0.088868 0.090792
0.082771 0.089227 0.090792
0.082947 0.090009 0.090792
0.083674 0.091135 0.090792
0.085652 0.092057 0.090792
0.089519 0.092946 0.090791
0.108139 0.098011 0.090791
0.155733 0.098425 0.090791
0.229180 0.098144 0.090791
0.319519 0.099575 0.090791
0.464383 0.103505 0.090793
0.580046 0.104900 0.090796
0.693143 0.106453 0.090799
0.786118 0.109910 0.090802
0.855978 0.115938 0.090808
0.893981 0.119265 0.090816
0.917995 0.125058 0.090826
0.933744 0.131274 0.090837
0.945372 0.138564 0.090848
0.952639 0.142336 0.090857
0.957455 0.149194 0.090878
0.961299 0.157422 0.090930
0.964798 0.161482 0.090977
0.966646 0.168318 0.091066
0.970540 0.090020 0.171630
0.970501 0.087908 0.167276
0.970499 0.087853 0.166934
0.971244 0.377847 0.166837
0.971244 0.377848 0.538468
0.082825 0.093307 0.090792
0.082825 0.093346 0.090792
0.082825 0.093759 0.090792
0.082825 0.094934 0.090792
0.082825 0.096229 0.090792
0.082778 0.097720 0.090792
0.082906 0.099089 0.090792
0.083559 0.100302 0.090791
0.084715 0.101438 0.090791
0.087149 0.102387 0.090791
0.097360 0.109933 0.090791
0.120672 0.110562 0.090791
0.180159 0.109555 0.090791
0.261015 0.111811 0.090791
0.379307 0.119563 0.090796
0.504683 0.121321 0.090799
0.616872 0.123246 0.090801
0.739329 0.130079 0.090804
0.822929 0.143280 0.090815
0.875324 0.148186 0.090823
0.909031 0.153372 0.090831
0.926038 0.163740 0.090842
0.940539 0.176169 0.090853
0.949737 0.181306 0.090861
0.955477 0.186828 0.090892
0.959964 0.195007 0.090940
0.964151 0.198076 0.090983
0.966229 0.204377 0.091066
0.968250 0.211605 0.091170
0.969558 0.223413 0.091545
0.970819 0.254703 0.127368
0.971244 0.377850 0.172971
0.971244 0.377849 0.538468
0.082825 0.108808 0.090792
0.082825 0.108863 0.090792
0.082825 0.109333 0.090792
0.082825 0.111558 0.090792
0.082816 0.113766 0.090792
0.082772 0.116336 0.090791
0.082912 0.120167 0.090791
0.083552 0.124225 0.090791
0.084573 0.128830 0.090791
0.086682 0.132789 0.090791
0.092051 0.136330 0.090791
0.107609 0.137424 0.090791
0.141414 0.134798 0.090791
0.220677 0.139222 0.090795
0.318315 0.155285 0.090799
0.429254 0.156709 0.090802
0.549671 0.158233 0.090804
0.674438 0.166296 0.090809
0.777567 0.183457 0.090823
0.847866 0.186969 0.090830
0.890523 0.195077 0.090838
0.917153 0.209135 0.090848
0.933858 0.217848 0.090858
0.946147 0.222879 0.090869
0.952928 0.234718 0.090908
0.957826 0.253437 0.090954
0.962989 0.253739 0.090994
0.965579 0.257863 0.091075
0.967837 0.263590 0.091166
0.969327 0.272575 0.091388
0.970746 0.272406 0.099134
0.971244 0.377853 0.192411
0.971244 0.377860 0.199649
0.082825 0.131226 0.090792
0.082825 0.131340 0.090792
0.082825 0.132216 0.090792
0.082825 0.136050 0.090792
0.082815 0.140104 0.090792
0.082776 0.146120 0.090791
0.082890 0.153018 0.090791
0.083385 0.159225 0.090791
0.084056 0.165517 0.090791
0.085925 0.171369 0.090791
0.089441 0.176438 0.090791
0.098967 0.181324 0.090793
0.118126 0.176526 0.090795
0.178591 0.183471 0.090798
0.267431 0.205348 0.090802
0.355778 0.205609 0.090804
0.472297 0.206876 0.090808
0.598669 0.214742 0.090818
0.734830 0.232140 0.090830
0.812974 0.235092 0.090837
0.871095 0.246552 0.090844
0.906432 0.261247 0.090854
0.925730 0.275594 0.090864
0.941295 0.283920 0.090890
0.950243 0.291033 0.090927
0.955999 0.306615 0.090969
0.961435 0.319753 0.091011
0.964621 0.331292 0.091093
0.967131 0.338989 0.091181
0.968926 0.341951 0.091344
0.970568 0.320813 0.092835
0.971244 0.377861 0.192512
0.971244 0.377874 0.206637
0.082825 0.164549 0.090792
0.082825 0.164667 0.090792
0.082825 0.165508 0.090792
0.082825 0.169000 0.090792
0.082814 0.174520 0.090791
0.082778 0.181484 0.090791
0.082864 0.189171 0.090791
0.083196 0.197553 0.090791
0.083693 0.206354 0.090791
0.085087 0.212845 0.090791
0.087375 0.218270 0.090792
0.092553 0.222770 0.090795
0.108016 0.228424 0.090798
0.145094 0.237221 0.090801
0.230980 0.267219 0.090805
0.305239 0.267034 0.090811
0.402963 0.267232 0.090817
0.532761 0.276338 0.090826
0.671757 0.295088 0.090839
0.763275 0.296883 0.090844
0.839743 0.308425 0.090851
0.888238 0.325376 0.090860
0.916991 0.340315 0.090884
0.934486 0.344869 0.090912
0.946334 0.355779 0.090947
0.953257 0.374932 0.090988
0.959661 0.379321 0.091037
0.963776 0.389666 0.091111
0.966502 0.405557 0.091194
0.968388 0.427933 0.091368
0.969861 0.470493 0.091808
0.971244 0.377995 0.192643
0.971244 0.377967 0.216981
0.082825 0.216749 0.090791
0.082825 0.216862 0.090791
0.082825 0.217571 0.090791
0.082825 0.220262 0.090791
0.082806 0.227404 0.090791
0.082776 0.235067 0.090791
0.082860 0.245254 0.090791
0.083126 0.257278 0.090791
0.083625 0.267670 0.090791
0.084735 0.275685 0.090793
0.086441 0.283378 0.090796
0.090703 0.290474 0.090799
0.101136 0.296804 0.090801
0.123718 0.306085 0.090804
0.196921 0.336575 0.090814
0.262131 0.336732 0.090820
0.344434 0.335699 0.090826
0.465609 0.343953 0.090834
0.599784 0.364162 0.090846
0.717414 0.365830 0.090852
0.805508 0.373490 0.090858
0.869041 0.389467 0.090871
0.906198 0.407856 0.090908
0.926292 0.417323 0.090935
0.941666 0.433547 0.090968
0.950646 0.450308 0.091010
0.957497 0.462274 0.091067
0.962123 0.476341 0.091135
0.965715 0.483283 0.091210
0.967939 0.493499 0.091371
0.969619 0.515969 0.091723
0.970660 0.554911 0.093818
0.971220 0.613969 0.229229
0.082825 0.298172 0.090791
0.082825 0.298461 0.090791
0.082825 0.299990 0.090791
0.082820 0.305162 0.090791
0.082795 0.319938 0.090791
0.082771 0.326046 0.090791
0.082876 0.334966 0.090791
0.083159 0.344063 0.090792
0.083621 0.353594 0.090795
0.084655 0.364406 0.090798
0.086208 0.376262 0.090801
0.089939 0.386746 0.090804
0.098485 0.396067 0.090807
0.117117 0.404423 0.090815
0.167549 0.412107 0.090823
0.231282 0.411321 0.090829
0.301233 0.410580 0.090834
0.403089 0.422375 0.090842
0.542504 0.449557 0.090854
0.656567 0.450050 0.090859
0.757331 0.458092 0.090867
0.837760 0.471937 0.090899
0.888646 0.484404 0.090934
0.917521 0.492046 0.090959
0.934901 0.501211 0.090990
0.946845 0.516213 0.091046
0.955041 0.524273 0.091098
0.960553 0.533181 0.091161
0.964782 0.546600 0.091242
0.967234 0.564111 0.091402
0.969228 0.579844 0.091720
0.970468 0.604768 0.092839
0.971197 0.623691 0.212060
0.082825 0.363189 0.090791
0.082825 0.363400 0.090791
0.082825 0.364466 0.090791
0.082814 0.367793 0.090791
0.082792 0.376686 0.090791
0.082776 0.386358 0.090791
0.082876 0.400287 0.090791
0.083086 0.410992 0.090794
0.083583 0.424442 0.090797
0.084345 0.439149 0.090800
0.085911 0.452433 0.090803
0.088415 0.464093 0.090806
0.093776 0.472856 0.090814
0.108507 0.479498 0.090822
0.139839 0.485649 0.090829
0.205779 0.491280 0.090837
0.263243 0.490428 0.090842
0.350162 0.499040 0.090850
0.476972 0.519044 0.090861
0.590117 0.519145 0.090869
0.709332 0.523407 0.090894
0.804633 0.534969 0.090926
0.870344 0.547752 0.090960
0.907118 0.554266 0.090983
0.927024 0.564740 0.091021
0.942436 0.580182 0.091082
0.952354 0.587734 0.091130
0.958397 0.601237 0.091191
0.963732 0.611172 0.091279
0.966630 0.620237 0.091436
0.968779 0.637604 0.091724
0.970118 0.664684 0.092633
0.971091 0.659683 0.134422
0.082825 0.441376 0.090791
0.082825 0.441590 0.090791
0.082819 0.442625 0.090791
0.082808 0.445708 0.090791
0.082789 0.453629 0.090791
0.082783 0.465058 0.090791
0.082867 0.472865 0.090793
0.083017 0.481833 0.090796
0.083551 0.491799 0.090799
0.084049 0.501807 0.090802
0.085424 0.511674 0.090805
0.087272 0.520966 0.090812
0.091584 0.529832 0.090820
0.101974 0.537631 0.090828
0.121214 0.544552 0.090836
0.172718 0.550997 0.090843
0.236410 0.557076 0.090850
0.310993 0.566313 0.090858
0.425502 0.587026 0.090879
0.536269 0.586726 0.090898
0.653476 0.591218 0.090922
0.758566 0.602517 0.090953
0.840752 0.613445 0.090985
0.889851 0.617955 0.091012
0.918699 0.626616 0.091061
0.936349 0.637407 0.091119
0.949184 0.645017 0.091165
0.956143 0.653610 0.091224
0.962212 0.664061 0.091319
0.965752 0.680438 0.091485
0.968296 0.697356 0.091729
0.969886 0.715066 0.092454
0.970842 0.744371 0.097607
0.082817 0.515422 0.090791
0.082815 0.515581 0.090791
0.082810 0.516298 0.090791
0.082800 0.518264 0.090791
0.082784 0.522980 0.090791
0.082800 0.533053 0.090794
0.082871 0.538654 0.090796
0.083030 0.549497 0.090799
0.083540 0.559374 0.090802
0.083887 0.569443 0.090805
0.085079 0.580307 0.090812
0.086713 0.590797 0.090821
0.090404 0.600970 0.090829
0.097893 0.608517 0.090837
0.113718 0.614803 0.090844
0.153855 0.620230 0.090851
0.216511 0.625213 0.090858
0.277789 0.630191 0.090866
0.371585 0.646585 0.090908
0.477922 0.646407 0.090926
0.592090 0.649241 0.090949
0.716407 0.658000 0.090979
0.809539 0.669878 0.091018
0.871964 0.675255 0.091054
0.909823 0.686970 0.091102
0.929043 0.700539 0.091156
0.945010 0.707410 0.091199
0.953584 0.715146 0.091272
0.960247 0.726062 0.091386
0.964919 0.733520 0.091536
0.967739 0.747029 0.091744
0.969516 0.766340 0.092441
0.970697 0.782070 0.094345
0.082805 0.595273 0.090791
0.082804 0.595476 0.090791
0.082799 0.596327 0.090792
0.082790 0.598426 0.090793
0.082776 0.603022 0.090795
0.082816 0.610868 0.090797
0.082886 0.616762 0.090800
0.083075 0.625036 0.090803
0.083542 0.632828 0.090806
0.083882 0.642166 0.090815
0.085030 0.651116 0.090824
0.086506 0.659914 0.090832
0.089773 0.669545 0.090840
0.095808 0.679289 0.090848
0.110067 0.687923 0.090855
0.141404 0.696298 0.090862
0.199487 0.702409 0.090882
0.257509 0.706668 0.090908
0.334943 0.711312 0.090935
0.432588 0.711253 0.090952
0.545489 0.714160 0.090974
0.664831 0.721481 0.091006
0.765062 0.730460 0.091060
0.844782 0.734026 0.091095
0.893259 0.741190 0.091141
0.921310 0.750758 0.091193
0.940415 0.757023 0.091244
0.950717 0.765671 0.091322
0.958323 0.773273 0.091451
0.963867 0.780431 0.091629
0.967112 0.790230 0.091843
0.969218 0.800623 0.092447
0.970515 0.818832 0.093719
0.082800 0.650506 0.090793
0.082799 0.650643 0.090793
0.082795 0.651210 0.090794
0.082787 0.652580 0.090795
0.082774 0.655512 0.090797
0.082815 0.661463 0.090799
0.082886 0.670415 0.090802
0.083011 0.678700 0.090804
0.083485 0.690276 0.090810
0.083729 0.701627 0.090820
0.084745 0.709028 0.090828
0.086042 0.717026 0.090837
0.088560 0.724770 0.090845
0.092953 0.731984 0.090852
0.104908 0.738685 0.090860
0.126599 0.744536 0.090871
0.173496 0.749970 0.090899
0.233076 0.755049 0.090926
0.298479 0.759405 0.090951
0.381403 0.764181 0.090977
0.494292 0.766358 0.090998
0.606834 0.772986 0.091048
0.732209 0.779417 0.091101
0.815217 0.782055 0.091135
0.876550 0.787142 0.091179
0.913131 0.793776 0.091239
0.933434 0.798399 0.091297
0.947264 0.805019 0.091399
0.956050 0.811502 0.091519
0.962383 0.818735 0.091718
0.966443 0.824416 0.091942
0.968812 0.831283 0.092510
0.970346 0.839801 0.093514
0.082796 0.714399 0.090796
0.082795 0.714520 0.090796
0.082791 0.715011 0.090796
0.082783 0.716150 0.090797
0.082772 0.718487 0.090799
0.082817 0.723058 0.090801
0.082890 0.730440 0.090804
0.082980 0.734999 0.090807
0.083461 0.743857 0.090817
0.083676 0.750064 0.090825
0.084554 0.758564 0.090834
0.085913 0.766846 0.090842
0.087684 0.773348 0.090850
0.091598 0.778832 0.090857
0.100394 0.784188 0.090866
0.116218 0.789055 0.090893
0.155118 0.793211 0.090920
0.213855 0.797092 0.090946
0.269254 0.800952 0.090972
0.344097 0.804259 0.090996
0.451121 0.807931 0.091036
0.562969 0.812748 0.091087
0.683378 0.819183 0.091139
0.772237 0.821398 0.091172
0.854159 0.824105 0.091216
0.900149 0.827856 0.091294
0.926095 0.830467 0.091363
0.943247 0.833911 0.091473
0.953518 0.837943 0.091617
0.960697 0.841558 0.091733
0.965628 0.846768 0.092058
0.968416 0.852264 0.092577
0.970158 0.857516 0.093438
0.082790 0.768036 0.090798
0.082789 0.768161 0.090798
0.082786 0.768649 0.090799
0.082779 0.769718 0.090800
0.082772 0.771728 0.090801
0.082822 0.774883 0.090803
0.082893 0.780603 0.090806
0.082986 0.784334 0.090814
0.083409 0.789833 0.090823
0.083655 0.795614 0.090831
0.084453 0.802198 0.090840
0.085682 0.807942 0.090848
0.087186 0.814183 0.090856
0.090680 0.820081 0.090864
0.097455 0.823490 0.090890
0.110990 0.826511 0.090919
0.139887 0.829135 0.090947
0.191797 0.831499 0.090973
0.247876 0.833623 0.090998
0.317879 0.835819 0.091040
0.407274 0.837737 0.091082
0.511835 0.839829 0.091123
0.631057 0.843123 0.091174
0.744853 0.844826 0.091206
0.826164 0.847252 0.091268
0.884267 0.850656 0.091358
0.918441 0.853312 0.091440
0.938036 0.855857 0.091545
0.950843 0.857405 0.091719
0.958780 0.859923 0.091829
0.964764 0.865254 0.092179
0.967960 0.871262 0.092658
0.969946 0.880196 0.093421
0.082787 0.811105 0.090800
0.082786 0.811212 0.090801
0.082783 0.811624 0.090801
0.082776 0.812495 0.090802
0.082778 0.814099 0.090803
0.082825 0.816927 0.090805
0.082890 0.821356 0.090812
0.082990 0.824179 0.090820
0.083368 0.826902 0.090829
0.083642 0.830846 0.090838
0.084277 0.833937 0.090846
0.085432 0.837760 0.090854
0.086856 0.841657 0.090862
0.089809 0.844883 0.090885
0.094750 0.848052 0.090914
0.107572 0.851054 0.090943
0.130488 0.853813 0.090972
0.176378 0.855783 0.090998
0.232631 0.856673 0.091041
0.294406 0.857473 0.091084
0.370980 0.858477 0.091126
0.475341 0.860669 0.091167
0.586345 0.862996 0.091206
0.701957 0.864889 0.091251
0.797113 0.867355 0.091316
0.867791 0.870762 0.091431
0.910229 0.873821 0.091510
0.931342 0.877080 0.091664
0.947785 0.881154 0.091735
0.956707 0.885071 0.091962
0.963818 0.889755 0.092294
0.967437 0.895634 0.092746
0.969762 0.903136 0.093421
0.082788 0.839949 0.090801
0.082787 0.840004 0.090801
0.082784 0.840210 0.090802
0.082778 0.840641 0.090803
0.082770 0.841423 0.090804
0.082814 0.842777 0.090806
0.082875 0.845097 0.090814
0.082946 0.848157 0.090823
0.083280 0.850328 0.090831
0.083601 0.853914 0.090840
0.084044 0.856053 0.090848
0.085080 0.857612 0.090857
0.086184 0.860205 0.090866
0.088817 0.864299 0.090895
0.092960 0.868159 0.090927
0.103260 0.871448 0.090955
0.118943 0.874565 0.090983
0.158885 0.877397 0.091016
0.215418 0.879972 0.091062
0.267296 0.882300 0.091105
0.339093 0.884490 0.091147
0.436292 0.886666 0.091187
0.545343 0.888953 0.091234
0.658992 0.891361 0.091295
0.758786 0.893363 0.091379
0.841610 0.896292 0.091496
0.895281 0.899368 0.091588
0.924211 0.902217 0.091723
0.943943 0.906016 0.091846
0.954526 0.909822 0.092104
0.962527 0.914221 0.092408
0.966899 0.919208 0.092814
0.969555 0.925694 0.093441
0.082790 0.859201 0.090802
0.082789 0.859267 0.090803
0.082786 0.859515 0.090803
0.082780 0.860017 0.090804
0.082771 0.860889 0.090805
0.082804 0.862334 0.090809
0.082861 0.864704 0.090817
0.082938 0.868623 0.090827
0.083212 0.870855 0.090834
0.083566 0.874336 0.090842
0.083880 0.878411 0.090851
0.084806 0.882029 0.090859
0.086011 0.886145 0.090876
0.088032 0.890222 0.090909
0.091591 0.893811 0.090939
0.099459 0.897359 0.090969
0.113148 0.900596 0.090998
0.143511 0.903422 0.091043
0.194364 0.905949 0.091089
0.247506 0.908255 0.091133
0.312919 0.910384 0.091174
0.395267 0.912442 0.091215
0.502709 0.914451 0.091275
0.606877 0.916734 0.091344
0.727389 0.919115 0.091437
0.815178 0.921442 0.091553
0.879973 0.924761 0.091690
0.916638 0.925884 0.091736
0.939276 0.927123 0.091960
0.952196 0.928338 0.092211
0.961051 0.929817 0.092513
0.966332 0.931389 0.092879
0.969334 0.933190 0.093459
0.082793 0.884925 0.090803
0.082792 0.884996 0.090803
0.082789 0.885260 0.090804
0.082784 0.885781 0.090805
0.082775 0.886657 0.090806
0.082790 0.888050 0.090811
0.082845 0.890240 0.090819
0.082918 0.893724 0.090829
0.083143 0.896672 0.090837
0.083520 0.899775 0.090845
0.083747 0.904433 0.090855
0.084588 0.907605 0.090862
0.085906 0.912055 0.090890
0.087307 0.915586 0.090922
0.090693 0.919561 0.090954
0.096722 0.923105 0.090984
0.108945 0.925608 0.091022
0.132859 0.926602 0.091071
0.177920 0.927467 0.091117
0.232182 0.928255 0.091161
0.290449 0.928969 0.091203
0.362927 0.929648 0.091262
0.464728 0.930300 0.091323
0.569773 0.930953 0.091415
0.684665 0.931695 0.091508
0.780793 0.932331 0.091640
0.862369 0.933323 0.091723
0.907675 0.933834 0.091832
0.932800 0.934679 0.092052
0.949683 0.935357 0.092305
0.959431 0.936193 0.092589
0.965728 0.937128 0.092931
0.969180 0.938386 0.093476
0.082808 0.915485 0.090802
0.082807 0.915541 0.090802
0.082804 0.915748 0.090802
0.082799 0.916154 0.090803
0.082790 0.916826 0.090804
0.082778 0.917883 0.090806
0.082797 0.919539 0.090814
0.082872 0.922197 0.090824
0.082967 0.925274 0.090834
0.083328 0.926157 0.090842
0.083621 0.927453 0.090852
0.084245 0.928725 0.090861
0.085288 0.929991 0.090883
0.086569 0.931314 0.090919
0.089382 0.932366 0.090952
0.093545 0.933286 0.090983
0.104735 0.934179 0.091022
0.120702 0.934865 0.091072
0.160400 0.935376 0.091119
0.215047 0.935842 0.091164
0.264439 0.936270 0.091207
0.333079 0.936672 0.091269
0.425147 0.937064 0.091335
0.528556 0.937462 0.091428
