LUTs/ektachrome100d/Ektachrome100D_Modern_Punchy.cube
TITLE "Kodak Ektachrome 100D Modern Punchy"
# Adobe RGB in/out. REPLACES AgX. Kodak Ektachrome 100D Modern Punchy.
LUT_3D_SIZE 33
DOMAIN_MIN 0.0 0.0 0.0
DOMAIN_MAX 1.0 1.0 1.0
0.091497 0.087999 0.082099
0.091497 0.087999 0.082099
0.091497 0.087999 0.082099
0.091509 0.087999 0.082099
0.107987 0.087999 0.082099
0.132919 0.087999 0.082099
0.240136 0.087999 0.082099
0.424806 0.088006 0.082099
0.552240 0.088038 0.082099
0.710131 0.088135 0.082099
0.859479 0.088578 0.082099
0.910138 0.089206 0.082099
0.936589 0.089744 0.082099
0.951814 0.090489 0.082099
0.964466 0.092034 0.082099
0.971594 0.093611 0.082099
0.976078 0.095135 0.082099
0.978596 0.097245 0.082099
0.980754 0.101376 0.082125
0.982545 0.103053 0.082151
0.983904 0.104845 0.082179
0.984722 0.108182 0.082237
0.985186 0.111003 0.082298
0.985584 0.110280 0.082384
0.985762 0.109887 0.082582
0.985882 0.108282 0.082905
0.986093 0.101459 0.083993
0.986071 0.097552 0.091022
0.986289 0.088859 0.722324
0.986023 0.088771 0.707667
0.985758 0.088688 0.693458
0.985493 0.088607 0.679556
0.985287 0.316069 0.943909
0.091497 0.087999 0.082099
0.091497 0.087999 0.082099
0.091497 0.087999 0.082099
0.091540 0.087999 0.082099
0.110399 0.087999 0.082099
0.133305 0.087999 0.082099
0.235898 0.087999 0.082099
0.406445 0.088010 0.082099
0.534052 0.088050 0.082099
0.694191 0.088149 0.082099
0.853273 0.088647 0.082099
0.906002 0.089265 0.082099
0.934994 0.089810 0.082099
0.950449 0.090547 0.082099
0.963668 0.092182 0.082099
0.971032 0.093788 0.082099
0.975819 0.095343 0.082099
0.978384 0.097537 0.082099
0.980581 0.101660 0.082124
0.982402 0.103325 0.082150
0.983785 0.105205 0.082179
0.984671 0.108676 0.082236
0.985142 0.111497 0.082297
0.985553 0.110770 0.082380
0.985736 0.110372 0.082577
0.985859 0.108763 0.082896
0.986073 0.101712 0.083940
0.986054 0.097795 0.090636
0.986274 0.088854 0.721535
0.986010 0.088767 0.706957
0.985746 0.088685 0.692819
0.985482 0.088603 0.678980
0.985274 0.315667 0.943807
0.091497 0.087999 0.082099
0.091497 0.087999 0.082099
0.091497 0.087999 0.082099
0.091497 0.087999 0.082099
0.097290 0.087999 0.082099
0.122378 0.087999 0.082099
0.217696 0.087999 0.082099
0.367096 0.088047 0.082099
0.483838 0.088099 0.082099
0.642508 0.088245 0.082099
0.823246 0.088920 0.082099
0.888911 0.089510 0.082099
0.925478 0.090064 0.082099
0.945535 0.090768 0.082099
0.960775 0.092789 0.082099
0.968636 0.094449 0.082099
0.974552 0.096117 0.082099
0.977615 0.098621 0.082099
0.979956 0.102711 0.082123
0.981883 0.104333 0.082149
0.983354 0.106700 0.082177
0.984452 0.110500 0.082232
0.984986 0.113435 0.082293
0.985443 0.112576 0.082367
0.985643 0.112157 0.082561
0.985779 0.110531 0.082868
0.986003 0.102640 0.083758
0.985992 0.098685 0.089300
0.986223 0.088839 0.718723
0.985963 0.088752 0.704424
0.985703 0.088671 0.690539
0.985439 0.088591 0.676923
0.985229 0.314224 0.943442
0.091497 0.087999 0.082099
0.091497 0.087999 0.082099
0.091497 0.087999 0.082099
0.091497 0.087999 0.082099
0.091522 0.087999 0.082099
0.097131 0.087999 0.082099
0.140259 0.088010 0.082099
0.271608 0.088134 0.082099
0.380431 0.088232 0.082099
0.561878 0.088465 0.082099
0.765431 0.089527 0.082099
0.855306 0.090158 0.082099
0.903398 0.090599 0.082099
0.936490 0.091521 0.082099
0.954111 0.094275 0.082099
0.964068 0.095956 0.082099
0.971349 0.097570 0.082099
0.976155 0.100772 0.082099
0.978774 0.104857 0.082120
0.980909 0.107241 0.082146
0.982548 0.110295 0.082174
0.983782 0.114296 0.082226
0.984696 0.118153 0.082287
0.985197 0.117022 0.082351
0.985472 0.116354 0.082534
0.985631 0.114173 0.082819
0.985874 0.104449 0.083455
0.985880 0.100406 0.087124
0.986130 0.088811 0.713647
0.985878 0.088726 0.699844
0.985624 0.088647 0.686411
0.985350 0.088570 0.672782
0.985147 0.311598 0.942778
0.091497 0.088147 0.082099
0.091497 0.088147 0.082099
0.091497 0.088147 0.082099
0.091497 0.088109 0.082099
0.091497 0.088054 0.082099
0.091860 0.088013 0.082099
0.103982 0.088113 0.082099
0.170655 0.088423 0.082099
0.263043 0.088624 0.082099
0.413986 0.089171 0.082099
0.653008 0.090367 0.082099
0.781055 0.090894 0.082099
0.862866 0.091761 0.082099
0.913462 0.093823 0.082099
0.942286 0.097176 0.082099
0.956301 0.099397 0.082099
0.965424 0.101494 0.082099
0.972698 0.104416 0.082099
0.976912 0.110945 0.082116
0.979384 0.113631 0.082142
0.981299 0.117350 0.082170
0.982754 0.122624 0.082219
0.984004 0.128140 0.082278
0.984826 0.126210 0.082338
0.985160 0.124986 0.082497
0.985398 0.122027 0.082752
0.985681 0.109202 0.083106
0.985713 0.103197 0.085738
0.985993 0.088770 0.706284
0.985752 0.088687 0.693177
0.985509 0.088612 0.680392
0.985220 0.088543 0.665160
0.985027 0.307765 0.941801
0.091497 0.089467 0.082099
0.091497 0.089426 0.082099
0.091497 0.089427 0.082099
0.091497 0.089167 0.082099
0.091497 0.088636 0.082099
0.091518 0.088344 0.082099
0.094926 0.088512 0.082099
0.120409 0.089496 0.082099
0.174348 0.089591 0.082099
0.278841 0.090171 0.082099
0.486345 0.091654 0.082099
0.663648 0.093129 0.082099
0.791606 0.094455 0.082099
0.873897 0.096719 0.082099
0.925394 0.101662 0.082099
0.944060 0.104200 0.082099
0.957082 0.107954 0.082099
0.965812 0.114875 0.082099
0.973251 0.125836 0.082113
0.977137 0.129892 0.082138
0.979487 0.134573 0.082166
0.981287 0.141241 0.082210
0.982799 0.147163 0.082268
0.984112 0.144705 0.082321
0.984727 0.143005 0.082452
0.985028 0.138919 0.082674
0.985411 0.119383 0.082933
0.985487 0.109445 0.084447
0.985814 0.088719 0.696764
0.985587 0.088637 0.684509
0.985334 0.088565 0.671868
0.985158 0.311706 0.655236
0.984867 0.302770 0.940512
0.091497 0.096322 0.082099
0.091497 0.096484 0.082099
0.091497 0.096285 0.082099
0.091497 0.094763 0.082099
0.091497 0.092565 0.082099
0.091517 0.091010 0.082099
0.093110 0.090497 0.082099
0.103515 0.090979 0.082099
0.126469 0.090903 0.082099
0.196333 0.091788 0.082099
0.332004 0.095219 0.082099
0.510952 0.096962 0.082099
0.665976 0.098420 0.082099
0.808079 0.101868 0.082099
0.889765 0.109286 0.082099
0.927113 0.114831 0.082099
0.944800 0.119374 0.082099
0.958511 0.129687 0.082099
0.967172 0.147435 0.082110
0.973607 0.155208 0.082135
0.977010 0.165022 0.082162
0.979211 0.175438 0.082201
0.981134 0.180901 0.082257
0.982755 0.177245 0.082304
0.983804 0.174497 0.082406
0.984543 0.169524 0.082596
0.984995 0.145133 0.082827
0.985140 0.126521 0.083730
0.985595 0.088660 0.685377
0.985369 0.088575 0.673942
0.985105 0.088507 0.658549
0.984945 0.305189 0.643205
0.984671 0.294506 0.938923
0.091497 0.132598 0.082099
0.091497 0.133494 0.082099
0.091497 0.136041 0.082099
0.091497 0.123945 0.082099
0.091497 0.113689 0.082099
0.091529 0.106102 0.082099
0.093224 0.101871 0.082099
0.099597 0.098870 0.082099
0.110027 0.095057 0.082099
0.144762 0.096107 0.082099
0.243649 0.101694 0.082099
0.355729 0.103778 0.082099
0.516151 0.105203 0.082099
0.690798 0.110924 0.082099
0.833728 0.124952 0.082099
0.893143 0.133948 0.082099
0.928725 0.141436 0.082099
0.945857 0.157180 0.082099
0.959396 0.178593 0.082109
0.967627 0.183768 0.082133
0.973908 0.192298 0.082159
0.977091 0.204524 0.082195
0.979233 0.221466 0.082249
0.981051 0.227012 0.082293
0.982296 0.235498 0.082364
0.983327 0.227011 0.082543
0.984389 0.196908 0.082748
0.984689 0.172329 0.083159
0.985312 0.088621 0.672231
0.985078 0.088505 0.657151
0.984835 0.088456 0.643289
0.984696 0.295717 0.631982
0.984362 0.283669 0.937053
0.091497 0.178672 0.082099
0.091497 0.179660 0.082099
0.091497 0.177507 0.082099
0.091497 0.166669 0.082099
0.091497 0.151942 0.082099
0.091505 0.136002 0.082099
0.092236 0.122001 0.082099
0.095812 0.113065 0.082099
0.104102 0.107807 0.082099
0.122409 0.104828 0.082099
0.186595 0.114685 0.082099
0.268903 0.119006 0.082099
0.374223 0.121335 0.082099
0.557069 0.132193 0.082099
0.743880 0.154553 0.082099
0.840214 0.163626 0.082099
0.896223 0.172682 0.082099
0.931716 0.189531 0.082099
0.948302 0.214635 0.082109
0.960019 0.226786 0.082132
0.967550 0.244415 0.082158
0.973846 0.254570 0.082191
0.977139 0.265571 0.082243
0.979350 0.267562 0.082285
0.980887 0.272789 0.082346
0.982024 0.280987 0.082502
0.983160 0.271327 0.082694
0.983728 0.266108 0.083004
0.984964 0.089610 0.663076
0.984750 0.088468 0.639700
0.984531 0.088420 0.630603
0.984311 0.282474 0.624006
0.983851 0.273201 0.934931
0.091497 0.273092 0.082099
0.091497 0.270687 0.082099
0.091497 0.261131 0.082099
0.091497 0.250957 0.082099
0.091497 0.231888 0.082099
0.091501 0.207389 0.082099
0.091965 0.187657 0.082099
0.094422 0.168650 0.082099
0.101017 0.152967 0.082099
0.114883 0.140787 0.082099
0.151453 0.154746 0.082099
0.217959 0.153230 0.082099
0.291448 0.154667 0.082099
0.424957 0.166466 0.082099
0.610887 0.193738 0.082099
0.759781 0.201982 0.082099
0.847933 0.211940 0.082099
0.902673 0.234189 0.082099
0.935883 0.264059 0.082111
0.949404 0.274134 0.082133
0.960814 0.288822 0.082157
0.968251 0.312357 0.082188
0.973978 0.333837 0.082239
0.977188 0.337725 0.082279
0.979158 0.339636 0.082334
0.980606 0.343587 0.082467
0.981980 0.332680 0.082628
0.982721 0.324175 0.082897
0.983408 0.304170 0.083756
0.983717 0.274619 0.086946
0.983955 0.201062 0.486568
0.983706 0.271135 0.622592
0.983287 0.265243 0.933668
0.091497 0.469837 0.082099
0.091497 0.464153 0.082099
0.091497 0.448496 0.082099
0.091497 0.436122 0.082099
0.091497 0.410509 0.082099
0.091515 0.374950 0.082099
0.092185 0.339127 0.082099
0.094861 0.309791 0.082099
0.101188 0.274210 0.082099
0.114252 0.253034 0.082099
0.137398 0.234344 0.082099
0.179704 0.212846 0.082099
0.237525 0.199104 0.082099
0.328356 0.212499 0.082099
0.505809 0.250566 0.082099
0.639322 0.257659 0.082099
0.770370 0.264600 0.082099
0.859771 0.287416 0.082099
0.912280 0.327030 0.082114
0.937685 0.335357 0.082135
0.951019 0.351623 0.082158
0.961482 0.382676 0.082189
0.969033 0.404878 0.082237
0.974699 0.412680 0.082275
0.977170 0.428247 0.082326
0.978846 0.448619 0.082438
0.980568 0.430203 0.082580
0.981553 0.414403 0.082813
0.982409 0.384202 0.083276
0.982856 0.346309 0.085206
0.983224 0.229384 0.236401
0.983056 0.262166 0.641666
0.982678 0.257415 0.647658
0.091497 0.579295 0.082099
0.091497 0.575366 0.082099
0.091497 0.563852 0.082099
0.091497 0.553517 0.082099
0.091497 0.534061 0.082099
0.091512 0.510004 0.082099
0.092028 0.483037 0.082099
0.094059 0.444907 0.082099
0.099267 0.406774 0.082099
0.108199 0.368896 0.082099
0.125297 0.337383 0.082099
0.156560 0.316807 0.082099
0.207092 0.278002 0.082099
0.269287 0.274197 0.082099
0.389762 0.319662 0.082099
0.537124 0.325564 0.082099
0.671667 0.332892 0.082099
0.799511 0.355992 0.082099
0.876471 0.403822 0.082118
0.917626 0.413093 0.082138
0.939805 0.434315 0.082161
0.953128 0.459069 0.082191
0.962830 0.486555 0.082238
0.969884 0.498209 0.082274
0.974957 0.505428 0.082321
0.977176 0.517893 0.082421
0.979064 0.518341 0.082551
0.980205 0.523227 0.082749
0.981235 0.510041 0.083035
0.981879 0.474462 0.084131
0.982407 0.308405 0.104082
0.982371 0.253613 0.628355
0.982034 0.249519 0.644739
0.091497 0.651123 0.082099
0.091497 0.648616 0.082099
0.091497 0.640950 0.082099
0.091497 0.632484 0.082099
0.091497 0.621849 0.082099
0.091509 0.607754 0.082099
0.091778 0.583297 0.082099
0.093408 0.554852 0.082099
0.097273 0.525337 0.082099
0.104272 0.493598 0.082099
0.118277 0.461596 0.082099
0.140929 0.428826 0.082099
0.181991 0.403118 0.082099
0.238338 0.386440 0.082099
0.322080 0.408912 0.082099
0.440666 0.414263 0.082099
0.573700 0.420798 0.082099
0.716520 0.445911 0.082099
0.830418 0.488363 0.082125
0.886382 0.494672 0.082143
0.923741 0.509739 0.082164
0.942829 0.532803 0.082195
0.955530 0.558705 0.082241
0.964433 0.564556 0.082275
0.970796 0.579644 0.082320
0.975043 0.600195 0.082412
0.977468 0.594769 0.082530
0.978902 0.594276 0.082702
0.980085 0.592109 0.082941
0.980817 0.588766 0.083872
0.981307 0.592589 0.086312
0.981663 0.245255 0.611563
0.981366 0.240959 0.647737
0.091497 0.754206 0.082099
0.091497 0.751393 0.082099
0.091497 0.742557 0.082099
0.091497 0.731586 0.082099
0.091497 0.723064 0.082099
0.091512 0.705060 0.082099
0.091746 0.684031 0.082099
0.093203 0.660980 0.082099
0.096568 0.640104 0.082099
0.102388 0.617793 0.082099
0.114055 0.593012 0.082099
0.131014 0.564893 0.082099
0.165475 0.539647 0.082099
0.218025 0.517818 0.082099
0.285709 0.533450 0.082099
0.359036 0.510430 0.082099
0.481809 0.509448 0.082099
0.618612 0.528241 0.082099
0.766573 0.563229 0.082131
0.848386 0.569158 0.082149
0.898635 0.581942 0.082169
0.931117 0.604198 0.082202
0.946302 0.621007 0.082245
0.958438 0.628600 0.082278
0.965606 0.640714 0.082321
0.971522 0.651468 0.082407
0.975729 0.655444 0.082517
0.977372 0.663528 0.082667
0.978856 0.658387 0.082882
0.979795 0.651597 0.083481
0.980428 0.648054 0.085140
0.980702 0.653915 0.104798
0.980709 0.704380 0.651243
0.091497 0.839563 0.082099
0.091497 0.838472 0.082099
0.091497 0.834960 0.082099
0.091497 0.830224 0.082099
0.091497 0.827666 0.082099
0.091522 0.819357 0.082099
0.091929 0.811501 0.082099
0.093389 0.801497 0.082099
0.096639 0.782150 0.082099
0.102239 0.754577 0.082099
0.113335 0.726786 0.082099
0.128897 0.699441 0.082099
0.157802 0.673496 0.082099
0.208337 0.652853 0.082099
0.257410 0.636877 0.082099
0.320807 0.617054 0.082099
0.407163 0.598923 0.082099
0.544344 0.607345 0.082106
0.686581 0.631679 0.082139
0.791114 0.634539 0.082156
0.863820 0.643134 0.082175
0.909619 0.658718 0.082211
0.936787 0.677696 0.082252
0.949701 0.688984 0.082283
0.960334 0.700969 0.082325
0.966937 0.719992 0.082409
0.972799 0.725561 0.082512
0.975920 0.730136 0.082646
0.977565 0.736188 0.082840
0.978653 0.742924 0.083192
0.979478 0.734163 0.084349
0.979889 0.726631 0.089935
0.980012 0.712200 0.604328
0.091497 0.873948 0.082099
0.091497 0.873363 0.082099
0.091497 0.871314 0.082099
0.091497 0.867336 0.082099
0.091497 0.864333 0.082099
0.091522 0.859132 0.082099
0.091906 0.854108 0.082099
0.093076 0.844822 0.082099
0.095810 0.834643 0.082099
0.100796 0.823892 0.082099
0.108831 0.811836 0.082099
0.122676 0.799573 0.082099
0.146372 0.776918 0.082099
0.185252 0.751601 0.082099
0.234348 0.729559 0.082099
0.290470 0.710653 0.082099
0.357891 0.686274 0.082105
0.472077 0.678457 0.082120
0.605278 0.699195 0.082148
0.729560 0.701708 0.082164
0.820974 0.709891 0.082181
0.881480 0.728028 0.082220
0.921268 0.747388 0.082260
0.940949 0.756963 0.082289
0.953281 0.771132 0.082331
0.962150 0.791084 0.082416
0.969126 0.796176 0.082511
0.973468 0.802073 0.082636
0.976236 0.804325 0.082812
0.977579 0.804532 0.083055
0.978512 0.807932 0.084058
0.979007 0.816320 0.086642
0.979283 0.784072 0.375822
0.091497 0.895168 0.082099
0.091497 0.894584 0.082099
0.091497 0.892647 0.082099
0.091497 0.889747 0.082099
0.091497 0.887127 0.082099
0.091524 0.884587 0.082099
0.091762 0.879583 0.082099
0.092751 0.877384 0.082099
0.095061 0.872998 0.082099
0.099389 0.864688 0.082099
0.105670 0.855004 0.082099
0.118217 0.844471 0.082099
0.136027 0.833114 0.082099
0.167874 0.822002 0.082099
0.215582 0.811541 0.082103
0.260735 0.802237 0.082113
0.325179 0.791293 0.082125
0.418369 0.780665 0.082139
0.550511 0.788552 0.082162
0.653219 0.777139 0.082171
0.767185 0.784936 0.082194
0.850222 0.798856 0.082231
0.899897 0.807344 0.082269
0.930666 0.811039 0.082296
0.945218 0.817613 0.082339
0.956865 0.825320 0.082427
0.964795 0.829601 0.082517
0.970420 0.833900 0.082631
0.974531 0.837721 0.082794
0.976394 0.841935 0.082990
0.977549 0.843260 0.083792
0.978196 0.846744 0.085609
0.978498 0.860080 0.116591
0.091497 0.924162 0.082099
0.091497 0.923737 0.082099
0.091497 0.922313 0.082099
0.091497 0.919779 0.082099
0.091497 0.917169 0.082099
0.091529 0.916073 0.082099
0.091762 0.910709 0.082099
0.092743 0.906906 0.082099
0.094753 0.901275 0.082099
0.098586 0.894747 0.082099
0.104264 0.887897 0.082099
0.115354 0.880511 0.082099
0.129880 0.876944 0.082105
0.154987 0.869759 0.082115
0.196626 0.860513 0.082125
0.243023 0.851770 0.082135
0.299156 0.843469 0.082146
0.370146 0.836007 0.082157
0.497773 0.838430 0.082178
0.593687 0.829491 0.082187
0.703482 0.825490 0.082206
0.807070 0.832417 0.082243
0.871312 0.840250 0.082280
0.912436 0.843419 0.082306
0.937130 0.849645 0.082349
0.949719 0.856082 0.082443
0.960411 0.860008 0.082526
0.966739 0.864035 0.082634
0.971884 0.869337 0.082786
0.975241 0.870767 0.082957
0.976577 0.873857 0.083580
0.977339 0.877605 0.084921
0.977777 0.879958 0.094747
0.091497 0.941004 0.082099
0.091497 0.940802 0.082099
0.091497 0.940120 0.082099
0.091497 0.939044 0.082099
0.091504 0.937889 0.082099
0.091534 0.937279 0.082099
0.091886 0.935474 0.082099
0.092849 0.933791 0.082099
0.094687 0.931353 0.082099
0.098484 0.928883 0.082099
0.103894 0.925167 0.082111
0.114184 0.919028 0.082123
0.127201 0.911701 0.082133
0.150839 0.904305 0.082143
0.188163 0.896914 0.082153
0.234399 0.890069 0.082164
0.283864 0.883604 0.082173
0.349011 0.878599 0.082184
0.450489 0.876853 0.082203
0.550191 0.870854 0.082213
0.647516 0.865409 0.082229
0.759950 0.864188 0.082255
0.840160 0.870596 0.082290
0.890396 0.872674 0.082319
0.924779 0.876047 0.082362
0.942450 0.878253 0.082462
0.954961 0.879423 0.082539
0.962873 0.883329 0.082644
0.969033 0.886461 0.082782
0.973082 0.889270 0.082939
0.975602 0.892864 0.083431
0.976546 0.895878 0.084442
0.977060 0.904888 0.089133
0.091497 0.950743 0.082099
0.091497 0.950602 0.082099
0.091497 0.950121 0.082099
0.091497 0.949342 0.082099
0.091504 0.948449 0.082099
0.091531 0.947808 0.082099
0.091824 0.946915 0.082099
0.092542 0.945316 0.082099
0.094209 0.943544 0.082099
0.097412 0.941361 0.082109
0.101880 0.938538 0.082120
0.109696 0.935612 0.082132
0.121965 0.932461 0.082143
0.141697 0.929158 0.082153
0.172674 0.925045 0.082164
0.217371 0.918772 0.082173
0.258426 0.912397 0.082185
0.317056 0.906577 0.082202
0.391734 0.901149 0.082219
0.506408 0.896741 0.082238
0.597322 0.891747 0.082252
0.708377 0.890218 0.082277
0.801740 0.889710 0.082302
0.864074 0.890892 0.082331
0.907373 0.894299 0.082386
0.935064 0.898684 0.082482
0.948387 0.901350 0.082554
0.958928 0.905227 0.082657
0.965800 0.908458 0.082785
0.970835 0.911686 0.082928
0.974132 0.914682 0.083311
0.975731 0.919458 0.084093
0.976377 0.925539 0.086783
0.091497 0.959454 0.082099
0.091497 0.959332 0.082099
0.091497 0.958914 0.082099
0.091497 0.958226 0.082099
0.091504 0.957403 0.082099
0.091528 0.956717 0.082099
0.091799 0.956295 0.082099
0.092427 0.954699 0.082099
0.094017 0.953761 0.082108
0.096506 0.951812 0.082118
0.100781 0.950080 0.082131
0.107230 0.948117 0.082143
0.118597 0.945779 0.082154
0.132660 0.942753 0.082165
0.158662 0.939674 0.082175
0.197719 0.936586 0.082188
0.240786 0.933514 0.082204
0.290956 0.930649 0.082221
0.355491 0.928101 0.082239
0.454749 0.924830 0.082255
0.557081 0.921357 0.082273
0.658953 0.918801 0.082296
0.764508 0.917937 0.082328
0.834947 0.915011 0.082347
0.885942 0.916667 0.082410
0.922337 0.920670 0.082503
0.941714 0.922961 0.082570
0.953536 0.925757 0.082672
0.962419 0.928003 0.082792
0.968209 0.929305 0.082920
0.972348 0.931196 0.083225
0.974692 0.932959 0.084057
0.975715 0.936323 0.086041
0.091497 0.964926 0.082099
0.091497 0.964889 0.082099
0.091497 0.964753 0.082099
0.091497 0.964526 0.082099
0.091506 0.964249 0.082099
0.091528 0.963998 0.082099
0.091776 0.963911 0.082099
0.092382 0.963412 0.082106
0.093699 0.962811 0.082119
0.096067 0.961765 0.082132
0.100090 0.960312 0.082145
0.105211 0.958379 0.082156
0.115652 0.956403 0.082168
0.128240 0.954239 0.082179
0.150765 0.951937 0.082194
0.185626 0.949645 0.082213
0.228287 0.947334 0.082230
0.271802 0.944993 0.082247
0.330380 0.942347 0.082263
0.411994 0.940044 0.082281
0.512649 0.937902 0.082297
0.609521 0.936143 0.082319
0.721658 0.935323 0.082351
0.804937 0.933866 0.082383
0.863409 0.933029 0.082441
0.906067 0.933889 0.082523
0.934981 0.935082 0.082587
0.947729 0.936484 0.082689
0.958979 0.938129 0.082801
0.965459 0.939431 0.082918
0.970515 0.941139 0.083163
0.973314 0.942949 0.083931
0.974905 0.946075 0.085496
0.091497 0.969815 0.082099
0.091497 0.969757 0.082099
0.091497 0.969556 0.082099
0.091497 0.969218 0.082099
0.091506 0.968793 0.082099
0.091527 0.968385 0.082099
0.091677 0.968168 0.082106
0.092332 0.967655 0.082118
0.093423 0.966872 0.082130
0.095725 0.966268 0.082144
0.099010 0.965504 0.082155
0.103949 0.964969 0.082167
0.113250 0.964325 0.082180
0.124135 0.963522 0.082197
0.144172 0.962302 0.082215
0.174308 0.960233 0.082234
0.216756 0.958081 0.082252
0.254829 0.955952 0.082269
0.309124 0.953909 0.082286
0.374281 0.951984 0.082303
0.474298 0.950317 0.082326
0.574105 0.948815 0.082349
0.673713 0.947564 0.082388
0.768251 0.946337 0.082424
0.840168 0.945488 0.082480
0.887825 0.945073 0.082550
0.923169 0.945231 0.082601
0.941740 0.946258 0.082704
0.954364 0.947454 0.082811
0.962634 0.948501 0.082919
0.968410 0.949676 0.083126
0.971937 0.951169 0.083806
0.973842 0.953252 0.085075
0.091497 0.974200 0.082099
0.091497 0.974164 0.082099
0.091497 0.974037 0.082099
0.091497 0.973821 0.082099
0.091500 0.973540 0.082099
0.091519 0.973249 0.082099
0.091550 0.973039 0.082108
0.092170 0.972840 0.082122
0.092958 0.972275 0.082132
0.094795 0.971800 0.082146
0.097649 0.970862 0.082158
0.102177 0.969998 0.082171
0.108594 0.968829 0.082182
0.120048 0.967668 0.082203
0.135736 0.966400 0.082223
0.161396 0.965409 0.082241
0.196489 0.964659 0.082259
0.238133 0.963870 0.082277
0.284893 0.963028 0.082294
0.344341 0.961590 0.082314
0.431932 0.959877 0.082337
0.528195 0.958364 0.082361
0.621676 0.957080 0.082410
0.731446 0.956018 0.082459
0.811936 0.954976 0.082514
0.868425 0.954427 0.082582
0.909575 0.954050 0.082630
0.935582 0.953950 0.082715
0.949199 0.955018 0.082816
0.959765 0.956026 0.082922
0.966259 0.957133 0.083097
0.970543 0.958343 0.083676
0.972817 0.960386 0.084727
0.091497 0.977379 0.082099
0.091497 0.977349 0.082099
0.091497 0.977243 0.082099
0.091497 0.977061 0.082099
0.091497 0.976823 0.082099
0.091512 0.976568 0.082100
0.091537 0.976366 0.082111
0.092037 0.976331 0.082127
0.092589 0.975805 0.082136
0.094056 0.975390 0.082149
0.096772 0.974952 0.082162
0.100542 0.974317 0.082174
0.106080 0.973670 0.082190
0.116777 0.972944 0.082212
0.128295 0.972105 0.082231
0.150073 0.970880 0.082251
0.183479 0.969602 0.082270
0.225240 0.968295 0.082288
0.265362 0.967015 0.082307
0.320128 0.965819 0.082330
0.388752 0.965218 0.082352
0.484050 0.964650 0.082394
0.582849 0.964114 0.082441
0.682926 0.963681 0.082490
0.774300 0.963323 0.082539
0.848261 0.962866 0.082607
0.895031 0.962651 0.082660
0.926620 0.962268 0.082736
0.943840 0.962292 0.082817
0.956185 0.962894 0.082914
0.964084 0.963448 0.083070
0.969001 0.963869 0.083559
0.971835 0.964540 0.084411
0.091497 0.980273 0.082099
0.091497 0.980251 0.082099
0.091497 0.980173 0.082099
0.091497 0.980040 0.082099
0.091497 0.979847 0.082099
0.091504 0.979631 0.082103
0.091528 0.979451 0.082114
0.091775 0.979393 0.082128
0.092408 0.979086 0.082140
0.093553 0.978682 0.082151
0.096116 0.978425 0.082167
0.099213 0.977803 0.082178
0.104467 0.977288 0.082199
0.112588 0.976564 0.082219
0.123906 0.975854 0.082241
0.143250 0.975063 0.082261
0.171052 0.974227 0.082280
0.212283 0.973372 0.082298
0.248078 0.972513 0.082322
0.298123 0.971514 0.082345
0.358472 0.970390 0.082381
0.452674 0.969356 0.082430
0.548546 0.968415 0.082477
0.636686 0.967582 0.082523
0.745053 0.966927 0.082573
0.820289 0.966388 0.082629
0.875987 0.966241 0.082677
0.914829 0.965801 0.082753
0.938902 0.965746 0.082826
0.951867 0.965710 0.082906
0.961820 0.966161 0.083035
0.967471 0.966853 0.083438
0.970965 0.967880 0.084135
0.091497 0.983567 0.082099
0.091497 0.983546 0.082099
0.091497 0.983471 0.082099
0.091497 0.983340 0.082099
0.091497 0.983160 0.082099
0.091497 0.982950 0.082099
0.091507 0.982747 0.082104
0.091538 0.982610 0.082118
0.092048 0.982429 0.082133
0.092729 0.982042 0.082144
0.094385 0.981733 0.082159
0.097343 0.981313 0.082172
0.101472 0.980806 0.082188
0.107832 0.980253 0.082211
0.118978 0.979585 0.082233
0.131869 0.978830 0.082254
0.155347 0.978056 0.082275
0.191284 0.977245 0.082294
0.231517 0.976416 0.082316
0.273734 0.975612 0.082340
0.329354 0.974849 0.082371
0.403501 0.974138 0.082420
0.507184 0.973493 0.082468
0.594876 0.972921 0.082515
