LUTs/ektachrome100d/Ektachrome100D_Modern_RadianceIII.cube
TITLE "Kodak Ektachrome 100D Modern RadianceIII"
# Adobe RGB in/out. REPLACES AgX. Kodak Ektachrome 100D Modern RadianceIII.
LUT_3D_SIZE 33
DOMAIN_MIN 0.0 0.0 0.0
DOMAIN_MAX 1.0 1.0 1.0
0.081523 0.088043 0.083657
0.084729 0.088402 0.083630
0.086219 0.088666 0.083622
0.102386 0.090114 0.083827
0.169469 0.092357 0.084499
0.214800 0.093513 0.084980
0.319982 0.099393 0.085950
0.442730 0.107379 0.086855
0.508464 0.112831 0.087179
0.601957 0.120631 0.087733
0.737155 0.133335 0.088976
0.823636 0.144768 0.090388
0.881049 0.156579 0.091460
0.926781 0.172234 0.092796
0.954144 0.193299 0.096848
0.967890 0.204478 0.099656
0.974478 0.214738 0.102298
0.980294 0.227636 0.106665
0.982575 0.243271 0.112301
0.983877 0.249633 0.115758
0.984865 0.256197 0.120537
0.985597 0.263742 0.126925
0.986250 0.269634 0.134770
0.986852 0.268125 0.144025
0.987051 0.267305 0.156708
0.987119 0.263950 0.173718
0.987239 0.243582 0.196023
0.987227 0.228812 0.263597
0.987350 0.137635 0.561172
0.987199 0.136008 0.554234
0.987049 0.134604 0.547454
0.986695 0.133661 0.540768
0.986392 0.405368 0.794561
0.081576 0.090088 0.083645
0.082795 0.089697 0.083640
0.087489 0.088935 0.083635
0.107189 0.090419 0.083778
0.173798 0.092713 0.084512
0.215424 0.093828 0.084982
0.315971 0.099997 0.085946
0.434294 0.108465 0.086853
0.499888 0.113714 0.087176
0.592800 0.121496 0.087728
0.727079 0.134124 0.088954
0.815294 0.146206 0.090367
0.876352 0.157913 0.091442
0.922616 0.173517 0.092780
0.952140 0.194516 0.096802
0.967067 0.205635 0.099612
0.973880 0.215882 0.102256
0.979805 0.228753 0.106606
0.982449 0.244344 0.112237
0.983773 0.250672 0.115692
0.984778 0.257211 0.120442
0.985525 0.264776 0.126819
0.986189 0.270665 0.134613
0.986800 0.269149 0.143803
0.987036 0.268318 0.156409
0.987107 0.264956 0.173277
0.987228 0.244539 0.195195
0.987217 0.229742 0.261080
0.987342 0.137554 0.560800
0.987192 0.135933 0.553897
0.987042 0.134561 0.547148
0.986676 0.133622 0.540489
0.986375 0.405172 0.794261
0.081600 0.090967 0.083640
0.081887 0.090931 0.083632
0.083319 0.090374 0.083633
0.092108 0.091686 0.083668
0.137812 0.094266 0.084433
0.196760 0.096865 0.084925
0.298356 0.102414 0.085932
0.413647 0.113527 0.086874
0.475165 0.117550 0.087184
0.563650 0.125092 0.087724
0.692667 0.138788 0.088899
0.785832 0.151932 0.090307
0.854913 0.163126 0.091388
0.907731 0.178464 0.092729
0.944896 0.199150 0.096656
0.964076 0.210005 0.099469
0.971707 0.220174 0.102115
0.978026 0.232923 0.106404
0.981994 0.248331 0.112019
0.983396 0.254517 0.115463
0.984465 0.260728 0.120114
0.985263 0.268585 0.126447
0.985968 0.274458 0.134064
0.986613 0.272910 0.143027
0.986955 0.272039 0.155366
0.987061 0.268650 0.171744
0.987188 0.248061 0.192368
0.987182 0.233170 0.251877
0.987313 0.137265 0.559473
0.987165 0.135664 0.552692
0.987018 0.134406 0.546055
0.986607 0.133483 0.539496
0.986311 0.404465 0.793191
0.081767 0.096657 0.083620
0.082087 0.096677 0.083612
0.083422 0.096093 0.083707
0.086526 0.094000 0.083760
0.104084 0.099714 0.084442
0.137350 0.100929 0.084905
0.222640 0.108590 0.085864
0.345669 0.120575 0.086855
0.421863 0.124627 0.087186
0.514723 0.131949 0.087735
0.639198 0.152265 0.088883
0.730372 0.165116 0.090258
0.810066 0.174661 0.091331
0.880757 0.189085 0.092665
0.931383 0.208847 0.096451
0.953146 0.219273 0.099257
0.967531 0.228880 0.101895
0.974656 0.240991 0.106078
0.980706 0.256237 0.111659
0.982687 0.261770 0.115077
0.983879 0.268157 0.119553
0.984776 0.276005 0.125807
0.985559 0.281817 0.133113
0.986266 0.280192 0.141684
0.986659 0.279227 0.153565
0.986934 0.275784 0.169123
0.987115 0.254898 0.187632
0.987118 0.239615 0.237843
0.987260 0.136745 0.557072
0.987117 0.135179 0.550508
0.986923 0.134127 0.544072
0.986482 0.133234 0.537691
0.986196 0.403174 0.791247
0.082237 0.121338 0.084041
0.082636 0.121373 0.084234
0.084097 0.121372 0.084477
0.087406 0.118402 0.084702
0.096182 0.114070 0.084915
0.112028 0.109234 0.085018
0.158791 0.118694 0.085857
0.259481 0.131073 0.086840
0.339394 0.133864 0.087194
0.437784 0.143909 0.087749
0.568593 0.169581 0.088967
0.658530 0.181342 0.090289
0.742682 0.191064 0.091324
0.830174 0.205870 0.092633
0.897978 0.227250 0.096296
0.935211 0.235834 0.099056
0.956555 0.243714 0.101660
0.969319 0.254790 0.105700
0.976403 0.269513 0.111213
0.981578 0.274810 0.114582
0.982971 0.280663 0.118818
0.984028 0.288066 0.124951
0.984937 0.293328 0.131828
0.985743 0.291652 0.139869
0.986214 0.290580 0.151136
0.986550 0.287276 0.165640
0.987005 0.265875 0.181573
0.987023 0.250185 0.221114
0.987183 0.135994 0.553577
0.987046 0.134592 0.547320
0.986723 0.133717 0.541171
0.986298 0.132935 0.535047
0.986026 0.401278 0.787990
0.082818 0.151089 0.084733
0.083076 0.150271 0.084837
0.084302 0.150295 0.084986
0.086825 0.143814 0.085239
0.091810 0.133992 0.085270
0.103522 0.128459 0.085517
0.130025 0.132582 0.086079
0.192525 0.151664 0.086951
0.263023 0.153512 0.087224
0.350903 0.165374 0.087764
0.476797 0.190193 0.088980
0.574918 0.201339 0.090332
0.663418 0.210049 0.091394
0.760818 0.224056 0.092673
0.854727 0.244351 0.096247
0.903295 0.254023 0.098935
0.936577 0.263264 0.101488
0.957532 0.277043 0.105383
0.970032 0.291326 0.110783
0.976922 0.294836 0.114066
0.981653 0.299257 0.118014
0.982962 0.305577 0.123980
0.984061 0.310419 0.130445
0.985015 0.308425 0.137764
0.985603 0.307032 0.148319
0.986028 0.303595 0.161669
0.986569 0.283579 0.175238
0.986686 0.266382 0.204897
0.987081 0.135041 0.549036
0.986859 0.134007 0.543156
0.986460 0.133179 0.537375
0.986211 0.403228 0.531580
0.985801 0.398785 0.783557
0.083737 0.221316 0.085714
0.084088 0.222420 0.085854
0.085231 0.221110 0.086159
0.087802 0.212149 0.086348
0.092782 0.197696 0.086474
0.103477 0.183518 0.086553
0.121818 0.172406 0.086704
0.157384 0.183106 0.087130
0.204596 0.181548 0.087349
0.283567 0.191282 0.087878
0.389107 0.215200 0.089164
0.486875 0.225748 0.090474
0.576298 0.232148 0.091436
0.676140 0.245130 0.092698
0.787268 0.266049 0.096336
0.858537 0.276964 0.099019
0.905518 0.283565 0.101440
0.939247 0.294660 0.105171
0.960961 0.310639 0.110447
0.970491 0.316808 0.113642
0.976628 0.324243 0.117301
0.981452 0.331835 0.123041
0.982851 0.335704 0.129256
0.984029 0.333122 0.135623
0.984792 0.331160 0.145432
0.985344 0.327560 0.157668
0.985981 0.308773 0.169566
0.986186 0.291923 0.191922
0.986872 0.134280 0.543574
0.986508 0.133298 0.538091
0.986136 0.132523 0.532741
0.985911 0.399995 0.527301
0.985524 0.395726 0.778116
0.084887 0.297227 0.086749
0.085130 0.298150 0.086817
0.086519 0.300755 0.087041
0.089213 0.289664 0.087165
0.094747 0.274914 0.087243
0.105057 0.259367 0.087350
0.122388 0.245142 0.087440
0.145170 0.233871 0.087624
0.173149 0.214193 0.087604
0.229606 0.220115 0.088055
0.323280 0.244472 0.089495
0.405803 0.252404 0.090689
0.492024 0.257207 0.091604
0.590842 0.269470 0.092819
0.704387 0.290551 0.096505
0.792592 0.298617 0.099067
0.862118 0.305738 0.101479
0.908701 0.318328 0.105180
0.941452 0.334078 0.110312
0.962112 0.337706 0.113375
0.970878 0.343329 0.116835
0.976815 0.351921 0.122367
0.981468 0.360248 0.128328
0.982791 0.362873 0.134012
0.983696 0.366803 0.142855
0.984445 0.362873 0.154145
0.985217 0.346605 0.165447
0.985551 0.329598 0.182864
0.986428 0.133828 0.537500
0.986098 0.132499 0.532251
0.985756 0.131766 0.527331
0.985559 0.396110 0.522227
0.985198 0.392151 0.771752
0.085348 0.334134 0.087090
0.085588 0.334832 0.087140
0.086685 0.333309 0.087274
0.089064 0.325462 0.087418
0.093196 0.314240 0.087578
0.101878 0.300715 0.087699
0.115668 0.287241 0.087846
0.132942 0.273791 0.087966
0.159153 0.262957 0.088133
0.196827 0.256143 0.088329
0.274578 0.276703 0.089951
0.343697 0.283039 0.091009
0.418561 0.286357 0.091864
0.511604 0.296810 0.092991
0.621127 0.316296 0.096894
0.711663 0.323203 0.099342
0.796987 0.329854 0.101649
0.869749 0.341339 0.105295
0.916093 0.356950 0.110314
0.943008 0.362767 0.113295
0.961918 0.371008 0.116670
0.970798 0.377335 0.121926
0.976926 0.383929 0.127653
0.981553 0.385032 0.132831
0.982672 0.387905 0.141007
0.983498 0.391237 0.151511
0.984324 0.387105 0.162662
0.984737 0.384227 0.178532
0.985937 0.153898 0.534321
0.985636 0.132028 0.526023
0.985327 0.130997 0.521247
0.985160 0.391744 0.516556
0.984826 0.388130 0.764579
0.086319 0.388070 0.087619
0.086524 0.386754 0.087653
0.087415 0.381343 0.087759
0.089584 0.375103 0.087945
0.093463 0.365144 0.088111
0.101379 0.353370 0.088247
0.113034 0.340055 0.088378
0.128415 0.326920 0.088584
0.149876 0.315049 0.088948
0.181647 0.305200 0.089378
0.239706 0.316447 0.090701
0.298613 0.315257 0.091438
0.359946 0.316385 0.092171
0.442799 0.325313 0.093401
0.546253 0.344358 0.097447
0.632275 0.350159 0.099747
0.720130 0.355629 0.101970
0.808613 0.366204 0.105604
0.878969 0.383087 0.110549
0.919438 0.388639 0.113419
0.944993 0.393890 0.116597
0.963599 0.403548 0.121686
0.970968 0.413901 0.127234
0.977040 0.415731 0.131949
0.981414 0.416625 0.139441
0.982467 0.418464 0.149229
0.983466 0.413354 0.159349
0.984005 0.409297 0.173283
0.984504 0.399486 0.192331
0.984729 0.388903 0.236561
0.984901 0.349519 0.471247
0.984721 0.386999 0.516052
0.984416 0.383747 0.756727
0.087892 0.462310 0.088460
0.088125 0.460417 0.088508
0.089032 0.455123 0.088713
0.091348 0.450851 0.089182
0.096262 0.441747 0.089613
0.103166 0.429525 0.090012
0.115161 0.416387 0.090392
0.129812 0.402282 0.090731
0.150446 0.388680 0.091046
0.180540 0.376388 0.091414
0.218518 0.366275 0.091835
0.268112 0.356074 0.092184
0.317522 0.348150 0.092571
0.386510 0.355904 0.094180
0.481150 0.374860 0.098169
0.562252 0.379229 0.100352
0.645268 0.383389 0.102406
0.737630 0.393418 0.106050
0.827949 0.410666 0.110944
0.884289 0.414618 0.113668
0.924354 0.421469 0.116764
0.946663 0.432102 0.121738
0.964568 0.439695 0.127009
0.971897 0.442533 0.131395
0.976997 0.448090 0.138362
0.980873 0.455165 0.147407
0.982439 0.448779 0.156592
0.983156 0.443155 0.168823
0.983778 0.432604 0.184803
0.984103 0.419581 0.214226
0.984370 0.363982 0.392643
0.984248 0.381970 0.526740
0.983974 0.379080 0.528912
0.088867 0.508091 0.089634
0.089058 0.506445 0.089674
0.089794 0.501588 0.089837
0.091991 0.497184 0.090221
0.096400 0.488774 0.090612
0.102806 0.478995 0.091037
0.113639 0.467501 0.091466
0.126655 0.453892 0.091795
0.144087 0.440388 0.092116
0.169959 0.427469 0.092433
0.202765 0.415570 0.092781
0.247289 0.405728 0.093286
0.290263 0.390211 0.093522
0.343977 0.388673 0.095243
0.426389 0.407117 0.099053
0.501232 0.409964 0.101055
0.579664 0.413454 0.103207
0.668006 0.423006 0.106810
0.765078 0.439308 0.111403
0.838039 0.442682 0.114051
0.890578 0.450221 0.117188
0.929668 0.458711 0.121970
0.950039 0.469024 0.127085
0.965624 0.474027 0.131266
0.972229 0.477094 0.137786
0.977011 0.482204 0.146339
0.981345 0.482386 0.154661
0.982176 0.484359 0.165497
0.982925 0.479010 0.179613
0.983393 0.463850 0.201160
0.983776 0.401595 0.303438
0.983750 0.376746 0.519649
0.983506 0.374209 0.527859
0.089535 0.545061 0.090455
0.089696 0.543670 0.090490
0.090320 0.539405 0.090629
0.092328 0.534674 0.090943
0.096569 0.528702 0.091349
0.102372 0.520525 0.091773
0.111252 0.509761 0.092160
0.123323 0.497755 0.092531
0.137770 0.485207 0.092857
0.159664 0.472055 0.093245
0.188092 0.459561 0.093994
0.223676 0.448295 0.094910
0.270268 0.439050 0.096021
0.318289 0.433337 0.097337
0.381983 0.441167 0.100102
0.449854 0.443104 0.101956
0.522358 0.445448 0.104209
0.605608 0.454237 0.107736
0.700681 0.469804 0.112293
0.781593 0.472515 0.114670
0.851073 0.478887 0.117703
0.899603 0.488225 0.122441
0.933862 0.499400 0.127455
0.954064 0.501886 0.131342
0.966755 0.508237 0.137601
0.972341 0.516749 0.145796
0.977686 0.514517 0.153315
0.981002 0.514313 0.163094
0.982088 0.513418 0.175708
0.982620 0.512034 0.194139
0.982977 0.513617 0.228746
0.983235 0.371539 0.512432
0.983020 0.369280 0.528939
0.090431 0.592144 0.091494
0.090648 0.590911 0.091526
0.091467 0.587027 0.091648
0.093229 0.582180 0.091914
0.097738 0.578412 0.092343
0.102766 0.570385 0.092731
0.110947 0.560892 0.093128
0.122284 0.550514 0.094012
0.135459 0.538933 0.095015
0.154195 0.526356 0.095886
0.180196 0.513792 0.096729
0.211724 0.502029 0.097677
0.254068 0.491205 0.098590
0.298678 0.482174 0.099682
0.355847 0.488508 0.102237
0.408095 0.479169 0.103277
0.473843 0.478768 0.105438
0.551144 0.486373 0.108702
0.640599 0.501324 0.113147
0.720620 0.503833 0.115521
0.800550 0.509197 0.118640
0.868327 0.518451 0.123120
0.910044 0.528216 0.127914
0.939065 0.532497 0.131770
0.957014 0.539273 0.137786
0.967783 0.545253 0.145466
0.973674 0.547455 0.152487
0.977466 0.551918 0.161342
0.980896 0.549082 0.172480
0.981877 0.545324 0.188046
0.982338 0.543358 0.213390
0.982537 0.546608 0.305657
0.982542 0.570080 0.530176
0.092116 0.653066 0.092817
0.092307 0.651974 0.092845
0.093025 0.648464 0.092955
0.095425 0.643744 0.093292
0.099685 0.641206 0.094374
0.104042 0.632976 0.095373
0.112686 0.625218 0.096552
0.123224 0.615369 0.097608
0.135698 0.604278 0.098672
0.153822 0.592306 0.099630
0.178934 0.580061 0.100593
0.208390 0.567861 0.101441
0.248284 0.556343 0.102393
0.290920 0.546020 0.103594
0.335219 0.537132 0.105096
0.381061 0.525928 0.106050
0.434628 0.516226 0.107135
0.504375 0.520286 0.109932
0.588404 0.534224 0.114180
0.663247 0.535825 0.116378
0.744241 0.540622 0.119713
0.822588 0.549264 0.124075
0.881636 0.558101 0.128627
0.920341 0.563140 0.132469
0.943794 0.568548 0.138195
0.960370 0.577049 0.145601
0.969450 0.579518 0.152130
0.974114 0.581541 0.160281
0.977911 0.584214 0.170269
0.980427 0.587189 0.183492
0.981646 0.583318 0.203742
0.981946 0.579992 0.256353
0.982035 0.573579 0.510036
0.092903 0.692133 0.093983
0.093104 0.691165 0.094055
0.094143 0.687996 0.094330
0.096225 0.683469 0.094905
0.099826 0.680056 0.095942
0.104082 0.674158 0.097027
0.112473 0.668477 0.098327
0.121643 0.658334 0.099289
0.132935 0.648147 0.100335
0.149137 0.637465 0.101426
0.171062 0.625549 0.102311
0.197405 0.613478 0.103442
0.232096 0.602021 0.104725
0.273325 0.591002 0.106026
0.314486 0.581286 0.107347
0.359249 0.572888 0.108837
0.407302 0.561911 0.109740
0.467472 0.558418 0.111705
0.542691 0.567750 0.115371
0.613028 0.568880 0.117638
0.690133 0.572548 0.120869
0.773403 0.580610 0.125134
0.845624 0.589153 0.129541
0.893986 0.593349 0.133359
0.929935 0.599517 0.138964
0.948334 0.608117 0.146050
0.964685 0.610586 0.152081
0.970311 0.615934 0.159762
0.974843 0.618149 0.168799
0.977943 0.618353 0.180319
0.980099 0.621700 0.197676
0.981246 0.629975 0.233220
0.981505 0.605105 0.434700
0.093923 0.729194 0.095656
0.094172 0.728397 0.095721
0.095095 0.725753 0.095966
0.096924 0.721724 0.096471
0.100023 0.718025 0.097364
0.104237 0.714437 0.098526
0.111099 0.707131 0.099593
0.120023 0.699328 0.100708
0.130467 0.690560 0.101799
0.144486 0.680459 0.102928
0.163906 0.669489 0.104335
0.187961 0.657982 0.105627
0.217720 0.646620 0.106869
0.256628 0.635593 0.108183
0.296285 0.625257 0.109485
0.337689 0.616095 0.110825
0.384222 0.608206 0.112315
0.439797 0.603638 0.114162
0.507338 0.607030 0.117285
0.568719 0.602116 0.119069
0.641351 0.605477 0.122247
0.722609 0.612774 0.126324
0.803066 0.621121 0.130618
0.867040 0.624762 0.134473
0.906777 0.631252 0.140031
0.936196 0.638880 0.146736
0.954972 0.643125 0.152435
0.966289 0.647405 0.159528
0.971681 0.651224 0.167851
0.975206 0.655441 0.178057
0.977873 0.656769 0.192887
0.979368 0.660261 0.219431
0.980068 0.675232 0.323237
0.095278 0.769794 0.097719
0.095503 0.769094 0.097778
0.096335 0.766746 0.097999
0.097968 0.763126 0.098451
0.100689 0.759498 0.099234
0.105036 0.757976 0.100480
0.111100 0.750548 0.101379
0.119982 0.745300 0.102626
0.129461 0.737556 0.104133
0.141868 0.728620 0.105548
0.159642 0.719111 0.107031
0.182473 0.708483 0.108409
0.209925 0.697545 0.109799
0.244955 0.686225 0.110998
0.283835 0.675723 0.112371
0.322692 0.665837 0.113685
0.365397 0.656978 0.115035
0.415736 0.649510 0.116545
0.479472 0.651933 0.120349
0.535298 0.643016 0.121552
0.598145 0.639048 0.123624
0.675182 0.645924 0.127615
0.756548 0.653754 0.132050
0.828242 0.656928 0.135834
0.882647 0.663442 0.141333
0.920395 0.670708 0.147733
0.943985 0.675150 0.153058
0.959869 0.679717 0.159670
0.968272 0.685745 0.167426
0.972595 0.687373 0.176570
0.975629 0.691982 0.189624
0.977389 0.700227 0.210617
0.978400 0.707678 0.276921
0.096939 0.811871 0.100247
0.097145 0.811362 0.100302
0.097905 0.809645 0.100505
0.099385 0.806938 0.100915
0.101819 0.804040 0.101618
0.106001 0.802513 0.102788
0.112282 0.798002 0.104163
0.120508 0.793811 0.105845
0.129245 0.787252 0.107382
0.141539 0.780059 0.109012
0.158523 0.771454 0.110494
0.180421 0.762081 0.112026
0.205740 0.751919 0.113393
0.238794 0.741719 0.114738
0.276036 0.731581 0.116016
0.314535 0.722179 0.117624
0.354522 0.712999 0.119423
0.401120 0.704280 0.121214
0.454193 0.697174 0.123289
0.507129 0.687472 0.124362
0.565842 0.681278 0.126129
0.632482 0.679891 0.128960
0.711603 0.687179 0.133576
0.788328 0.690025 0.137435
0.853365 0.695613 0.142702
0.898469 0.702869 0.148923
0.932868 0.706898 0.153877
0.950147 0.712597 0.160160
0.964569 0.717086 0.167221
0.969814 0.721050 0.175603
0.973380 0.726050 0.187247
0.975557 0.730165 0.204839
0.976744 0.742521 0.250706
0.097367 0.840137 0.101295
0.097556 0.839679 0.101346
0.098251 0.838117 0.101534
0.099596 0.835593 0.101909
0.101785 0.832708 0.102544
0.105333 0.830644 0.103908
0.111690 0.827770 0.105454
0.118699 0.822795 0.106906
0.127430 0.818296 0.108607
0.138117 0.812773 0.110270
0.152777 0.805668 0.111710
0.172571 0.798345 0.113223
0.195871 0.790494 0.114700
0.224866 0.780857 0.116102
0.261421 0.771252 0.117659
0.298038 0.761725 0.119400
0.335975 0.752883 0.121281
0.378335 0.744847 0.123152
0.427338 0.737382 0.124964
0.481816 0.731344 0.127028
0.537621 0.724527 0.128685
0.600952 0.722390 0.131584
0.670120 0.721672 0.135348
0.744658 0.723343 0.139077
0.818054 0.728008 0.144197
0.876556 0.734004 0.150176
0.916350 0.737659 0.154847
0.940286 0.742987 0.160835
0.957503 0.747439 0.167345
0.966804 0.751899 0.174983
0.971167 0.756047 0.185357
0.973677 0.762679 0.200712
0.975168 0.772069 0.235093
0.097797 0.868776 0.102415
0.097971 0.868371 0.102462
0.098612 0.866982 0.102639
0.099846 0.864697 0.103119
0.101836 0.861971 0.103927
0.104918 0.859703 0.105196
0.111451 0.858309 0.106923
0.117549 0.853057 0.108198
0.126436 0.849981 0.110082
0.135253 0.843612 0.111474
0.149088 0.837986 0.113118
0.167644 0.831637 0.114726
0.188728 0.824124 0.116216
0.214383 0.816291 0.117822
0.248686 0.808522 0.119744
0.284833 0.800778 0.121601
0.320593 0.793124 0.123381
0.359595 0.785198 0.125248
0.405638 0.777792 0.127180
0.456059 0.770898 0.129030
0.511612 0.765323 0.131140
0.572131 0.761766 0.134503
0.638065 0.760565 0.138612
0.705753 0.756503 0.141119
0.780856 0.758801 0.145687
0.847975 0.764366 0.151544
0.896268 0.767813 0.155930
0.930379 0.772429 0.161562
0.949009 0.777507 0.167704
0.963547 0.781284 0.174558
0.968869 0.786792 0.184008
0.971889 0.791747 0.197534
0.973641 0.800121 0.225114
0.098349 0.888075 0.104198
0.098511 0.887849 0.104260
0.099107 0.887072 0.104488
0.100248 0.885780 0.104940
0.102077 0.884196 0.105691
0.104871 0.882771 0.106860
0.111231 0.882276 0.108623
0.117107 0.879439 0.109923
0.124802 0.877011 0.111586
0.133788 0.873993 0.113208
0.146795 0.870801 0.114912
0.162513 0.865204 0.116425
0.182997 0.858665 0.118366
0.207363 0.851546 0.120392
0.238683 0.844019 0.122280
0.273674 0.836577 0.124289
0.308650 0.829117 0.126154
0.345810 0.821975 0.128036
0.387952 0.815264 0.129927
0.436866 0.809452 0.132190
0.488768 0.804073 0.134611
0.545386 0.799671 0.137470
0.608537 0.797626 0.141633
0.673155 0.793998 0.143972
0.743570 0.791920 0.147615
0.815424 0.794056 0.152845
0.876312 0.797025 0.157034
0.914356 0.800523 0.162429
0.940412 0.804642 0.168196
0.956643 0.807910 0.174423
0.966407 0.812212 0.182963
0.970113 0.816788 0.195060
0.972162 0.825076 0.217953
0.098628 0.907043 0.105800
0.098781 0.906849 0.105858
0.099338 0.906178 0.106075
0.100404 0.905051 0.106502
0.102101 0.903637 0.107206
0.104615 0.902277 0.108294
0.110294 0.901555 0.109922
0.116612 0.899850 0.111467
0.123395 0.897253 0.112957
0.132653 0.895255 0.114834
0.143247 0.891698 0.116307
0.158691 0.888344 0.118345
0.178785 0.884631 0.120660
0.200559 0.880061 0.122647
0.228694 0.875371 0.124602
0.262985 0.870627 0.126608
0.297435 0.864215 0.128649
0.333293 0.857180 0.130615
0.372528 0.850464 0.132988
0.418602 0.844174 0.135468
0.468929 0.838754 0.138372
0.522619 0.833890 0.141309
0.580872 0.829857 0.144317
0.642661 0.825915 0.146561
0.711612 0.823232 0.150103
0.784010 0.822178 0.154646
0.849810 0.822580 0.157993
0.896346 0.825662 0.163181
0.931824 0.829502 0.168726
0.949547 0.832878 0.174491
0.963797 0.836677 0.182055
0.968339 0.841521 0.193106
0.970793 0.848314 0.212554
0.098077 0.924880 0.106288
0.098221 0.924703 0.106342
0.098745 0.924087 0.106543
0.099745 0.923037 0.106938
0.101331 0.921677 0.107590
0.103664 0.920266 0.108593
0.108232 0.919250 0.110092
0.115022 0.918291 0.111882
0.121053 0.915562 0.113216
0.129597 0.913691 0.115109
0.138847 0.910546 0.116651
0.153665 0.907657 0.118952
0.170648 0.903757 0.121025
0.191753 0.899895 0.123287
0.217557 0.895691 0.125472
0.249954 0.891098 0.127422
0.283710 0.886538 0.129484
0.318095 0.882039 0.131659
0.355262 0.877710 0.134194
0.397845 0.873609 0.136858
0.445950 0.869845 0.139751
0.497314 0.865154 0.142625
0.553079 0.860901 0.145651
0.614098 0.857397 0.148741
0.680076 0.853968 0.152241
0.751796 0.852164 0.156709
0.822497 0.850927 0.159483
0.878080 0.850599 0.163772
0.918813 0.854104 0.168966
0.942374 0.857423 0.174667
0.958658 0.861079 0.181359
0.966441 0.865085 0.191095
0.969473 0.870963 0.208263
0.097608 0.935135 0.106971
0.097744 0.935050 0.107022
0.098238 0.934755 0.107210
0.099177 0.934248 0.107578
0.100662 0.933582 0.108183
0.102834 0.932872 0.109112
0.106448 0.932310 0.110495
0.113725 0.932211 0.112530
0.119168 0.930748 0.113741
0.126640 0.929594 0.115439
0.136143 0.928376 0.117393
0.148292 0.925444 0.119525
0.164886 0.922305 0.121871
0.184973 0.918791 0.124237
0.207449 0.914743 0.126335
0.237654 0.910608 0.128500
0.271665 0.906335 0.130652
0.305701 0.901979 0.133280
0.341102 0.897727 0.135903
0.380568 0.893678 0.138864
0.425902 0.889900 0.141750
0.475303 0.886483 0.144665
0.528340 0.883428 0.147579
0.586288 0.880967 0.150715
0.650135 0.878933 0.153907
0.720484 0.877188 0.158337
0.795285 0.876495 0.160941
0.857444 0.875261 0.164836
0.902633 0.875337 0.169062
0.935007 0.877277 0.174251
0.953186 0.879645 0.180689
0.964529 0.882034 0.189275
0.968209 0.885861 0.204477
0.096945 0.943331 0.107535
0.097073 0.943261 0.107583
0.097541 0.943016 0.107760
0.098428 0.942596 0.108106
0.099826 0.942039 0.108674
0.101865 0.941432 0.109545
0.104780 0.940927 0.110840
0.111222 0.940764 0.112744
0.117362 0.939906 0.114278
0.124059 0.938776 0.115820
0.133951 0.938057 0.118303
0.143911 0.936319 0.120229
0.160253 0.934879 0.122852
0.177625 0.932861 0.124974
0.200064 0.930884 0.127399
0.227269 0.928685 0.129629
0.259863 0.925009 0.132042
0.293042 0.920864 0.134794
0.327417 0.916712 0.137802
0.364669 0.912733 0.140857
0.407705 0.908968 0.143891
0.455151 0.905514 0.146901
0.506194 0.902378 0.149877
0.561093 0.899607 0.152862
0.621788 0.897437 0.156112
0.689370 0.895650 0.159403
0.764276 0.895165 0.161830
0.832752 0.893563 0.165696
0.887896 0.893218 0.169533
0.926944 0.892993 0.173781
0.947508 0.894901 0.179614
0.961718 0.897191 0.187361
0.966969 0.900598 0.201208
0.094656 0.952940 0.106563
0.094778 0.952878 0.106606
0.095225 0.952662 0.106765
0.096072 0.952282 0.107076
0.097411 0.951761 0.107595
0.099367 0.951155 0.108403
0.102145 0.950567 0.109629
0.106710 0.950173 0.111479
0.113837 0.949648 0.113441
0.119911 0.948532 0.114853
0.128308 0.947639 0.116843
0.137946 0.946428 0.119252
0.151401 0.944968 0.121625
0.169095 0.943268 0.124111
0.189482 0.941303 0.126551
0.213105 0.939188 0.128826
0.245489 0.937026 0.131299
0.278928 0.934759 0.134124
0.311766 0.932449 0.137056
0.347213 0.930211 0.140155
0.387222 0.928036 0.143229
0.432921 0.924578 0.146285
0.482679 0.921447 0.149321
0.536058 0.918683 0.152343
