LUTs/ektachrome100d/Ektachrome100D_Classic_ExtraPunchy.cube
TITLE "Kodak Ektachrome 100D Classic ExtraPunchy"
# Adobe RGB in/out. REPLACES AgX. Kodak Ektachrome 100D Classic ExtraPunchy.
LUT_3D_SIZE 5
DOMAIN_MIN 0.0 0.0 0.0
DOMAIN_MAX 1.0 1.0 1.0
0.069243 0.072709 0.079439
0.120097 0.072709 0.079439
0.904557 0.072964 0.079439
0.966006 0.074310 0.079407
0.974392 0.106647 0.818407
0.069243 0.074332 0.079439
0.069775 0.076186 0.079439
0.704469 0.081613 0.079439
0.961793 0.094300 0.079418
0.974392 0.106654 0.818399
0.069243 0.452330 0.079439
0.069250 0.554617 0.079439
0.167678 0.612457 0.079439
0.925740 0.676466 0.079292
0.974098 0.774885 0.080455
0.069243 0.961448 0.079439
0.069246 0.969130 0.079439
0.083864 0.974750 0.079361
0.716409 0.977105 0.079065
0.972561 0.981838 0.078139
0.069243 0.990935 0.079439
0.069243 0.996526 0.079439
0.069751 0.996754 0.079439
0.324559 0.996726 0.079277
0.973440 0.996779 0.079130
0.069243 0.072709 0.078414
0.089697 0.072709 0.092449
0.916840 0.073281 0.082740
0.965902 0.075014 0.106608
0.974392 0.106654 0.818491
0.069243 0.074148 0.078770
0.079916 0.077891 0.078257
0.840697 0.083186 0.078501
0.963016 0.098562 0.080262
0.974392 0.106654 0.818401
0.069244 0.416708 0.078840
0.070455 0.492879 0.078603
0.355335 0.577000 0.078080
0.947951 0.668281 0.078565
0.974062 0.787143 0.414891
0.069245 0.956728 0.078984
0.069552 0.965039 0.078745
0.119407 0.972082 0.078100
0.835141 0.975543 0.078453
0.972925 0.981732 0.080842
0.069243 0.991715 0.079381
0.069243 0.996688 0.079381
0.071143 0.996737 0.079187
0.395651 0.996715 0.078569
0.974071 0.996777 0.078106
0.069243 0.072724 0.533593
0.081015 0.073195 0.902820
0.891905 0.074885 0.902714
0.964722 0.081498 0.922137
0.974392 0.106655 0.959148
0.069243 0.076756 0.514709
0.077181 0.081459 0.789258
0.836056 0.091337 0.851549
0.962446 0.124465 0.894968
0.974392 0.106659 0.954011
0.069471 0.420007 0.262280
0.073897 0.486109 0.405829
0.573152 0.609847 0.632211
0.953092 0.683480 0.742402
0.973931 0.828269 0.941501
0.069620 0.953352 0.149950
0.072113 0.960540 0.193569
0.220375 0.970025 0.362853
0.900994 0.974554 0.516448
0.973201 0.982357 0.851419
0.069243 0.995212 0.121694
0.069243 0.996601 0.121690
0.076772 0.996690 0.111279
0.553695 0.996697 0.175866
0.974424 0.996784 0.460356
0.069243 0.073652 0.969463
0.073212 0.076592 0.982733
0.869376 0.083772 0.983591
0.963650 0.100224 0.984981
0.974392 0.106641 0.987490
0.069243 0.083925 0.970314
0.074423 0.094599 0.979454
0.825014 0.127290 0.981926
0.961833 0.187282 0.983837
0.974392 0.106525 0.986861
0.069874 0.511174 0.951266
0.076825 0.568987 0.966536
0.612406 0.652401 0.974828
0.954713 0.736043 0.979047
0.973829 0.865438 0.986929
0.070509 0.958511 0.919531
0.074554 0.964571 0.933840
0.304063 0.971378 0.952059
0.921752 0.976142 0.967579
0.973326 0.984012 0.983023
0.069243 0.995448 0.775783
0.069243 0.996684 0.777218
0.077514 0.996718 0.890302
0.585563 0.996725 0.911757
0.974501 0.996811 0.969797
0.070461 0.076682 0.993172
0.179828 0.078301 0.993173
0.944668 0.084435 0.993179
0.967808 0.091255 0.993204
0.974392 0.113818 0.993167
0.072765 0.089631 0.993148
0.188300 0.095036 0.993151
0.938126 0.119972 0.993163
0.967293 0.150999 0.993193
0.974392 0.119079 0.993212
0.079203 0.564279 0.993083
0.172870 0.584056 0.993098
0.900712 0.641549 0.993126
0.965057 0.688536 0.993169
0.974477 0.850806 0.993268
0.072698 0.966414 0.993056
0.087182 0.968671 0.993083
0.695769 0.971515 0.993129
0.958920 0.974719 0.993179
0.974421 0.983239 0.993275
0.069243 0.994314 0.977499
0.069243 0.996704 0.987236
0.069763 0.996829 0.992683
0.504936 0.996796 0.993256
0.974582 0.996852 0.993312
