LUTs/ektachrome100d/Ektachrome100D_Classic_Normal.cube
TITLE "Kodak Ektachrome 100D Classic Normal"
# Adobe RGB in/out. REPLACES AgX. Kodak Ektachrome 100D Classic Normal.
LUT_3D_SIZE 5
DOMAIN_MIN 0.0 0.0 0.0
DOMAIN_MAX 1.0 1.0 1.0
0.086071 0.084324 0.090717
0.189770 0.084324 0.090717
0.877899 0.085063 0.090717
0.949118 0.088347 0.090728
0.958711 0.148583 0.777999
0.086071 0.088390 0.090717
0.088619 0.092656 0.090717
0.681789 0.102870 0.090717
0.944303 0.128072 0.090724
0.958711 0.148596 0.777993
0.086071 0.453333 0.090717
0.086093 0.527021 0.090717
0.243164 0.579391 0.090717
0.902577 0.637316 0.090769
0.958374 0.721878 0.100746
0.086071 0.906192 0.090717
0.086082 0.920495 0.090717
0.129844 0.931286 0.090744
0.692323 0.934518 0.090849
0.956615 0.941022 0.091517
0.086071 0.958613 0.090717
0.086071 0.971127 0.090717
0.088498 0.974470 0.090717
0.363330 0.973602 0.090774
0.957621 0.975239 0.090826
0.086071 0.084324 0.091286
0.143385 0.084324 0.137283
0.890958 0.085985 0.110180
0.948999 0.089693 0.163755
0.958711 0.148596 0.778058
0.086071 0.088038 0.090991
0.119725 0.096272 0.092385
0.805629 0.106228 0.093197
0.945701 0.135056 0.099776
0.958711 0.148596 0.777995
0.086072 0.423243 0.090933
0.090408 0.482074 0.091129
0.387074 0.547315 0.091764
0.923575 0.630107 0.093375
0.958334 0.731195 0.426256
0.086078 0.898648 0.090878
0.087505 0.911947 0.091011
0.188904 0.927630 0.091550
0.800273 0.932374 0.093066
0.957031 0.940876 0.102448
0.086071 0.960353 0.090737
0.086071 0.972427 0.090737
0.092229 0.973931 0.090806
0.416396 0.973266 0.091158
0.958344 0.975169 0.091544
0.086071 0.084369 0.517521
0.122257 0.085733 0.859973
0.867235 0.089445 0.859873
0.947650 0.102673 0.878189
0.958711 0.148597 0.930524
0.086071 0.093859 0.501134
0.113026 0.102606 0.751457
0.801158 0.122319 0.807772
0.945049 0.174933 0.852567
0.958711 0.148604 0.921752
0.087102 0.426047 0.314722
0.103172 0.477546 0.419441
0.550331 0.577033 0.598784
0.931371 0.643488 0.704744
0.958184 0.763705 0.900541
0.087844 0.893269 0.221233
0.095862 0.904738 0.262270
0.288409 0.923993 0.387341
0.874898 0.931018 0.502838
0.957347 0.941735 0.807633
0.086071 0.968178 0.187274
0.086071 0.971294 0.187269
0.111698 0.972486 0.171645
0.533712 0.972691 0.247029
0.958748 0.975389 0.459862
0.086071 0.087072 0.943668
0.100116 0.093511 0.965219
0.840180 0.107413 0.966620
0.946425 0.137797 0.968889
0.958711 0.148573 0.972992
0.086071 0.107724 0.945044
0.105088 0.128559 0.959877
0.790485 0.178544 0.963903
0.944350 0.242752 0.967020
0.958710 0.148368 0.971963
0.088887 0.494213 0.917080
0.111871 0.540055 0.939023
0.588351 0.616106 0.952359
0.934057 0.689614 0.959215
0.958066 0.801537 0.972074
0.090550 0.901495 0.875731
0.105430 0.911196 0.889224
0.347994 0.926665 0.918429
0.897367 0.933196 0.940625
0.957491 0.944014 0.965692
0.086071 0.968706 0.736855
0.086071 0.972314 0.738409
0.114113 0.973338 0.848166
0.562350 0.973548 0.868401
0.958836 0.976223 0.944209
0.090425 0.093702 0.980990
0.254289 0.097151 0.980994
0.920868 0.108761 0.981014
0.951178 0.122146 0.981098
0.958711 0.161256 0.980974
0.098370 0.118762 0.980907
0.261887 0.129274 0.980919
0.915470 0.169175 0.980960
0.950590 0.204374 0.981063
0.958711 0.168028 0.981128
0.118092 0.535786 0.980687
0.247952 0.553706 0.980737
0.874660 0.606525 0.980833
0.948033 0.647934 0.980978
0.958808 0.786624 0.981316
0.098110 0.914155 0.980594
0.138598 0.918708 0.980688
0.674103 0.926854 0.980843
0.941023 0.931243 0.981012
0.958744 0.942950 0.981342
0.086071 0.966164 0.956696
0.086071 0.972922 0.972577
0.088559 0.976780 0.979323
0.495446 0.975758 0.981278
0.958928 0.977467 0.981468
