LUTs/ektachrome100d/Ektachrome100D_Modern_Punchy.cube
TITLE "Kodak Ektachrome 100D Modern Punchy"
# Adobe RGB in/out. REPLACES AgX. Kodak Ektachrome 100D Modern Punchy.
LUT_3D_SIZE 5
DOMAIN_MIN 0.0 0.0 0.0
DOMAIN_MAX 1.0 1.0 1.0
0.091497 0.087999 0.082099
0.552240 0.088038 0.082099
0.976078 0.095135 0.082099
0.985762 0.109887 0.082582
0.985287 0.316069 0.943909
0.091497 0.178672 0.082099
0.104102 0.107807 0.082099
0.896223 0.172682 0.082099
0.980887 0.272789 0.082346
0.983851 0.273201 0.934931
0.091497 0.895168 0.082099
0.095061 0.872998 0.082099
0.325179 0.791293 0.082125
0.945218 0.817613 0.082339
0.978498 0.860080 0.116591
0.091497 0.977379 0.082099
0.092589 0.975805 0.082136
0.183479 0.969602 0.082270
0.774300 0.963323 0.082539
0.971835 0.964540 0.084411
0.091497 0.986301 0.082099
0.091497 0.988341 0.082099
0.097593 0.988068 0.082105
0.391423 0.986908 0.082240
0.967605 0.986469 0.082301
0.091497 0.087999 0.140112
0.449141 0.089068 0.827491
0.976546 0.099388 0.536248
0.985133 0.117428 0.618414
0.984873 0.302930 0.940571
0.091497 0.107204 0.087748
0.130581 0.094904 0.085047
0.925625 0.162536 0.103782
0.979979 0.267810 0.175156
0.983040 0.261958 0.933194
0.093344 0.850694 0.086567
0.113210 0.807966 0.086425
0.481843 0.672494 0.086164
0.953288 0.790613 0.091540
0.977741 0.857272 0.614132
0.092504 0.973724 0.084056
0.100004 0.971777 0.084655
0.246212 0.964731 0.086117
0.852867 0.958082 0.088099
0.971379 0.963779 0.102996
0.091497 0.986626 0.082227
0.091497 0.988425 0.082213
0.104472 0.987812 0.082342
0.454663 0.986750 0.083053
0.968049 0.986292 0.083914
0.091497 0.090522 0.962976
0.362058 0.108540 0.988100
0.979111 0.198560 0.987980
0.985348 0.207503 0.981105
0.984687 0.295284 0.981850
0.093457 0.247588 0.954616
0.251992 0.273146 0.975137
0.943690 0.305692 0.965355
0.980219 0.379720 0.965871
0.982544 0.255738 0.979142
0.099822 0.757866 0.705377
0.133091 0.696435 0.680694
0.555232 0.584932 0.606179
0.955834 0.769974 0.824299
0.976807 0.867110 0.953145
0.100851 0.965584 0.522198
0.120284 0.964222 0.527232
0.339904 0.955479 0.530212
0.899845 0.949195 0.558614
0.969985 0.962723 0.859544
0.091497 0.987502 0.302347
0.091497 0.987793 0.281447
0.129715 0.987206 0.214793
0.566145 0.986007 0.268244
0.967967 0.986180 0.465653
0.091497 0.137192 0.992182
0.244376 0.264808 0.992606
0.977602 0.475881 0.992630
0.986436 0.462804 0.991984
0.985167 0.312190 0.990420
0.095490 0.479326 0.992210
0.267956 0.613131 0.992511
0.961952 0.647392 0.992208
0.983182 0.607960 0.991125
0.983411 0.266549 0.988263
0.106858 0.819750 0.981204
0.169669 0.820211 0.982155
0.763978 0.817091 0.981709
0.963404 0.840670 0.981910
0.977175 0.888061 0.984182
0.105355 0.961649 0.953449
0.130560 0.959365 0.954108
0.393017 0.951316 0.954737
0.906475 0.943635 0.952384
0.969225 0.963520 0.977721
0.091497 0.987040 0.847867
0.091497 0.987476 0.838551
0.130454 0.986988 0.901339
0.582616 0.985725 0.906144
0.967632 0.986569 0.955992
0.163974 0.267068 0.992930
0.730191 0.319451 0.992930
0.986320 0.490931 0.992930
0.988277 0.454514 0.992930
0.985740 0.367529 0.992318
0.235170 0.569148 0.992930
0.746921 0.615300 0.992930
0.985479 0.716392 0.992930
0.986460 0.598313 0.992696
0.984631 0.334717 0.992137
0.235092 0.888993 0.992572
0.479158 0.884792 0.992476
0.954322 0.877463 0.992212
0.977705 0.862217 0.991757
0.978767 0.891961 0.991252
0.121136 0.962672 0.991129
0.189137 0.961180 0.990898
0.766757 0.956300 0.989463
0.957995 0.953535 0.988066
0.971540 0.963944 0.987986
0.091497 0.984911 0.977721
0.091497 0.987139 0.981141
0.096216 0.987466 0.986350
0.509584 0.986669 0.987224
0.967534 0.986838 0.986944
