LUTs/ektachrome100d/Ektachrome100D_Modern_ExtraPunchy.cube
TITLE "Kodak Ektachrome 100D Modern ExtraPunchy"
# Adobe RGB in/out. REPLACES AgX. Kodak Ektachrome 100D Modern ExtraPunchy.
LUT_3D_SIZE 33
DOMAIN_MIN 0.0 0.0 0.0
DOMAIN_MAX 1.0 1.0 1.0
0.069243 0.072709 0.079439
0.069243 0.072709 0.079439
0.069243 0.072709 0.079439
0.069245 0.072709 0.079439
0.072907 0.072709 0.079439
0.080725 0.072709 0.079439
0.164227 0.072709 0.079439
0.412885 0.072714 0.079439
0.570097 0.072742 0.079439
0.729125 0.072824 0.079439
0.875946 0.073062 0.079439
0.925145 0.073384 0.079439
0.949712 0.073658 0.079439
0.960606 0.074237 0.079439
0.971476 0.075459 0.079439
0.978691 0.076790 0.079439
0.982293 0.078087 0.079439
0.983776 0.080259 0.079439
0.985045 0.082748 0.079397
0.986098 0.083943 0.079355
0.986896 0.085218 0.079309
0.987488 0.087119 0.079218
0.988016 0.089268 0.079119
0.988469 0.088718 0.078983
0.988672 0.088418 0.078770
0.988809 0.087195 0.078550
0.989049 0.082807 0.078054
0.989024 0.080441 0.079679
0.989273 0.073206 0.751132
0.988970 0.073161 0.734848
0.988668 0.073119 0.719083
0.988366 0.073077 0.703681
0.988131 0.297668 0.957815
0.069243 0.072709 0.079439
0.069243 0.072709 0.079439
0.069243 0.072709 0.079439
0.069249 0.072709 0.079439
0.073400 0.072709 0.079439
0.080858 0.072709 0.079439
0.159872 0.072709 0.079439
0.388590 0.072718 0.079439
0.547443 0.072752 0.079439
0.712263 0.072836 0.079439
0.869544 0.073098 0.079439
0.921314 0.073414 0.079439
0.948339 0.073701 0.079439
0.959631 0.074284 0.079439
0.970669 0.075575 0.079439
0.978122 0.076941 0.079439
0.982140 0.078264 0.079439
0.983651 0.080431 0.079439
0.984944 0.082951 0.079398
0.986014 0.084137 0.079356
0.986826 0.085438 0.079310
0.987429 0.087496 0.079219
0.987966 0.089645 0.079121
0.988435 0.089091 0.078988
0.988643 0.088788 0.078773
0.988783 0.087562 0.078555
0.989027 0.082987 0.078044
0.989005 0.080584 0.079560
0.989256 0.073204 0.750254
0.988955 0.073159 0.734059
0.988654 0.073117 0.718375
0.988353 0.073075 0.703043
0.988116 0.297226 0.957688
0.069243 0.072709 0.079439
0.069243 0.072709 0.079439
0.069243 0.072709 0.079439
0.069243 0.072709 0.079439
0.070265 0.072709 0.079439
0.076994 0.072709 0.079439
0.141624 0.072709 0.079439
0.337878 0.072750 0.079439
0.487950 0.072793 0.079439
0.660020 0.072892 0.079439
0.847906 0.073237 0.079439
0.906313 0.073539 0.079439
0.939341 0.073901 0.079439
0.956120 0.074458 0.079439
0.967742 0.076091 0.079439
0.975697 0.077503 0.079439
0.981584 0.079052 0.079439
0.983198 0.081070 0.079439
0.984576 0.083700 0.079401
0.985709 0.084854 0.079359
0.986573 0.086245 0.079313
0.987218 0.088885 0.079225
0.987788 0.091032 0.079126
0.988308 0.090466 0.079009
0.988537 0.090147 0.078784
0.988692 0.088909 0.078575
0.988947 0.083649 0.078118
0.988935 0.081108 0.079155
0.989198 0.073196 0.747129
0.988901 0.073152 0.731248
0.988605 0.073110 0.715848
0.988304 0.073069 0.700767
0.988065 0.295640 0.957234
0.069243 0.072709 0.079439
0.069243 0.072709 0.079439
0.069243 0.072709 0.079439
0.069243 0.072709 0.079439
0.069247 0.072709 0.079439
0.070224 0.072709 0.079439
0.083562 0.072718 0.079439
0.202313 0.072823 0.079439
0.354864 0.072885 0.079439
0.579937 0.073004 0.079439
0.787719 0.073548 0.079439
0.871641 0.073976 0.079439
0.918901 0.074324 0.079439
0.949641 0.075053 0.079439
0.962245 0.077355 0.079439
0.971074 0.078877 0.079439
0.978443 0.080451 0.079439
0.982338 0.082332 0.079439
0.983880 0.085227 0.079405
0.985136 0.086536 0.079363
0.986100 0.088729 0.079318
0.986825 0.091598 0.079234
0.987458 0.094387 0.079137
0.988029 0.093422 0.079034
0.988342 0.092948 0.078803
0.988523 0.091517 0.078608
0.988800 0.084937 0.078247
0.988807 0.082118 0.078695
0.989092 0.073181 0.741489
0.988804 0.073138 0.726165
0.988515 0.073098 0.711273
0.988203 0.073058 0.696642
0.987972 0.292758 0.956407
0.069243 0.072834 0.079439
0.069243 0.072835 0.079439
0.069243 0.072835 0.079439
0.069243 0.072802 0.079439
0.069243 0.072756 0.079439
0.069294 0.072720 0.079439
0.071971 0.072805 0.079439
0.100271 0.072983 0.079439
0.191576 0.073086 0.079439
0.398520 0.073366 0.079439
0.668755 0.074141 0.079439
0.805032 0.074558 0.079439
0.879440 0.075243 0.079439
0.928223 0.076971 0.079439
0.953795 0.080200 0.079439
0.963807 0.081526 0.079439
0.972446 0.082832 0.079439
0.979808 0.084913 0.079439
0.982784 0.089224 0.079411
0.984239 0.091161 0.079369
0.985365 0.093702 0.079324
0.986220 0.098209 0.079246
0.986955 0.101649 0.079151
0.987606 0.100547 0.079056
0.987987 0.099846 0.078828
0.988258 0.097698 0.078654
0.988580 0.087896 0.078413
0.988616 0.084046 0.078390
0.988936 0.073161 0.733312
0.988661 0.073118 0.718772
0.988384 0.073079 0.704607
0.988055 0.073045 0.690619
0.987835 0.288557 0.955192
0.069243 0.073517 0.079439
0.069243 0.073496 0.079439
0.069243 0.073497 0.079439
0.069243 0.073364 0.079439
0.069243 0.073092 0.079439
0.069246 0.072942 0.079439
0.069714 0.073029 0.079439
0.076319 0.073532 0.079439
0.103172 0.073580 0.079439
0.212093 0.073986 0.079439
0.490604 0.075158 0.079439
0.679988 0.076380 0.079439
0.816737 0.077509 0.079439
0.890821 0.079704 0.079439
0.939263 0.082952 0.079439
0.955065 0.084760 0.079439
0.964364 0.086945 0.079439
0.972839 0.091978 0.079439
0.980368 0.100333 0.079416
0.982917 0.102664 0.079375
0.984300 0.105986 0.079331
0.985358 0.110522 0.079261
0.986247 0.114368 0.079167
0.987018 0.112641 0.079082
0.987493 0.111603 0.078873
0.987836 0.109059 0.078707
0.988273 0.095438 0.078530
0.988360 0.088082 0.078142
0.988732 0.073134 0.722749
0.988474 0.073092 0.709166
0.988185 0.073055 0.695920
0.987984 0.292876 0.682752
0.987653 0.282990 0.953590
0.069243 0.079273 0.079439
0.069243 0.079449 0.079439
0.069243 0.079233 0.079439
0.069243 0.077771 0.079439
0.069243 0.075898 0.079439
0.069246 0.074649 0.079439
0.069467 0.074244 0.079439
0.071844 0.074625 0.079439
0.078479 0.074565 0.079439
0.121849 0.075264 0.079439
0.290153 0.078159 0.079439
0.516691 0.079967 0.079439
0.682446 0.080952 0.079439
0.835038 0.083099 0.079439
0.907195 0.087960 0.079439
0.940853 0.091949 0.079439
0.955594 0.095430 0.079439
0.965450 0.102529 0.079439
0.974215 0.114600 0.079420
0.980728 0.121224 0.079381
0.982842 0.129866 0.079338
0.984137 0.141356 0.079275
0.985269 0.147487 0.079184
0.986221 0.143375 0.079109
0.986837 0.140306 0.078946
0.987283 0.134799 0.078760
0.987798 0.112902 0.078602
0.987964 0.100725 0.078130
0.988482 0.073104 0.710127
0.988224 0.073061 0.697557
0.987924 0.073026 0.685382
0.987742 0.285739 0.670379
0.987429 0.272816 0.951614
0.069243 0.104586 0.079439
0.069243 0.105222 0.079439
0.069243 0.107025 0.079439
0.069243 0.099248 0.079439
0.069243 0.091199 0.079439
0.069248 0.085922 0.079439
0.069482 0.083101 0.079439
0.070853 0.081217 0.079439
0.073325 0.078021 0.079439
0.085410 0.079041 0.079439
0.168168 0.082975 0.079439
0.322149 0.084459 0.079439
0.522212 0.085437 0.079439
0.708676 0.089208 0.079439
0.855228 0.099827 0.079439
0.910681 0.105543 0.079439
0.942343 0.110642 0.079439
0.956350 0.122910 0.079439
0.966346 0.144887 0.079422
0.974676 0.150735 0.079384
0.981033 0.158739 0.079342
0.982889 0.169653 0.079285
0.984150 0.184860 0.079197
0.985220 0.190841 0.079127
0.985952 0.200759 0.079013
0.986557 0.190839 0.078797
0.987181 0.162848 0.078656
0.987450 0.137897 0.078377
0.988159 0.073084 0.696206
0.987893 0.073025 0.684272
0.987617 0.073000 0.670465
0.987458 0.274301 0.658812
0.987165 0.259321 0.949290
0.069243 0.144977 0.079439
0.069243 0.146088 0.079439
0.069243 0.143669 0.079439
0.069243 0.131665 0.079439
0.069243 0.118437 0.079439
0.069244 0.106998 0.079439
0.069346 0.097675 0.079439
0.069884 0.090788 0.079439
0.072004 0.086840 0.079439
0.077005 0.085207 0.079439
0.112954 0.091854 0.079439
0.198897 0.095115 0.079439
0.346941 0.097106 0.079439
0.575027 0.104299 0.079439
0.764862 0.120665 0.079439
0.859744 0.128434 0.079439
0.912825 0.138289 0.079439
0.945107 0.156277 0.079439
0.958098 0.178717 0.079422
0.966977 0.190578 0.079385
0.974598 0.211330 0.079344
0.980970 0.223493 0.079291
0.982918 0.236866 0.079207
0.984219 0.239309 0.079140
0.985124 0.245756 0.079042
0.985792 0.255958 0.078824
0.986459 0.243948 0.078693
0.986793 0.237525 0.078482
0.987763 0.073590 0.688969
0.987520 0.073006 0.666766
0.987270 0.072981 0.657391
0.987135 0.257821 0.650590
0.986865 0.246265 0.946655
0.069243 0.246130 0.079439
0.069243 0.243158 0.079439
0.069243 0.231444 0.079439
0.069243 0.219147 0.079439
0.069243 0.196523 0.079439
0.069244 0.172218 0.079439
0.069308 0.154611 0.079439
0.069646 0.133837 0.079439
0.071210 0.119311 0.079439
0.074397 0.110244 0.079439
0.088595 0.120830 0.079439
0.141883 0.119535 0.079439
0.230663 0.120762 0.079439
0.413087 0.131443 0.079439
0.629947 0.160022 0.079439
0.781465 0.167379 0.079439
0.865105 0.176298 0.079439
0.918229 0.199221 0.079439
0.949206 0.235015 0.079419
0.958885 0.247422 0.079383
0.967781 0.265814 0.079345
0.975307 0.293590 0.079295
0.981103 0.317297 0.079213
0.982947 0.321616 0.079150
0.984107 0.323742 0.079061
0.984958 0.328143 0.078850
0.985766 0.316013 0.078739
0.986201 0.306601 0.078555
0.986605 0.284625 0.078119
0.986786 0.248023 0.078663
0.986926 0.166557 0.500057
0.986780 0.243710 0.649133
0.986534 0.236465 0.945088
0.069243 0.471053 0.079439
0.069243 0.464753 0.079439
0.069243 0.447445 0.079439
0.069243 0.433810 0.079439
0.069243 0.405719 0.079439
0.069246 0.363377 0.079439
0.069339 0.323175 0.079439
0.069705 0.290776 0.079439
0.071253 0.247516 0.079439
0.074175 0.221642 0.079439
0.082378 0.199402 0.079439
0.107416 0.177111 0.079439
0.161540 0.164808 0.079439
0.285335 0.176799 0.079439
0.511234 0.218677 0.079439
0.657556 0.227226 0.079439
0.793189 0.235677 0.079439
0.876247 0.264038 0.079439
0.927129 0.309756 0.079414
0.950498 0.318984 0.079380
0.960038 0.337121 0.079343
0.968457 0.372134 0.079294
0.976098 0.399025 0.079216
0.981633 0.408093 0.079156
0.982936 0.425154 0.079075
0.983923 0.447580 0.078896
0.984936 0.427302 0.078771
0.985515 0.409979 0.078612
0.986018 0.373868 0.078324
0.986281 0.331180 0.078288
0.986497 0.193599 0.178067
0.986398 0.232705 0.668792
0.986176 0.226931 0.674968
0.069243 0.603858 0.079439
0.069243 0.599684 0.079439
0.069243 0.587456 0.079439
0.069243 0.576484 0.079439
0.069243 0.555839 0.079439
0.069245 0.527549 0.079439
0.069317 0.488213 0.079439
0.069596 0.443486 0.079439
0.070769 0.401550 0.079439
0.072950 0.356536 0.079439
0.078066 0.321236 0.079439
0.091837 0.298479 0.079439
0.131620 0.252230 0.079439
0.199379 0.247500 0.079439
0.366865 0.301622 0.079439
0.551834 0.308135 0.079439
0.688457 0.316248 0.079439
0.825516 0.342017 0.079439
0.893476 0.397621 0.079408
0.932077 0.408546 0.079376
0.952017 0.431822 0.079339
0.961544 0.459126 0.079291
0.969822 0.493292 0.079215
0.976961 0.510231 0.079157
0.981718 0.520810 0.079082
0.982940 0.538694 0.078923
0.984051 0.539170 0.078791
0.984723 0.544349 0.078656
0.985328 0.527603 0.078461
0.985706 0.476185 0.078081
0.986017 0.289257 0.082903
0.985996 0.222339 0.655074
0.985798 0.217423 0.671959
0.069243 0.687825 0.079439
0.069243 0.684821 0.079439
0.069243 0.675644 0.079439
0.069243 0.665527 0.079439
0.069243 0.652845 0.079439
0.069245 0.635889 0.079439
0.069282 0.608109 0.079439
0.069508 0.577901 0.079439
0.070261 0.546586 0.079439
0.072050 0.503509 0.079439
0.075582 0.461923 0.079439
0.083838 0.425790 0.079439
0.109240 0.396686 0.079439
0.162375 0.376412 0.079439
0.277053 0.403973 0.079439
0.434190 0.409825 0.079439
0.592005 0.416982 0.079439
0.735886 0.444593 0.079439
0.852920 0.495909 0.079397
0.903704 0.505073 0.079368
0.937734 0.527158 0.079334
0.954183 0.554504 0.079284
0.963257 0.581991 0.079210
0.971444 0.588203 0.079156
0.977883 0.604228 0.079084
0.981747 0.626069 0.078937
0.983111 0.620302 0.078805
0.983956 0.619778 0.078688
0.984652 0.617475 0.078525
0.985082 0.613921 0.078070
0.985370 0.617985 0.078514
0.985579 0.212333 0.637763
0.985405 0.207215 0.675048
0.069243 0.796132 0.079439
0.069243 0.793508 0.079439
0.069243 0.785256 0.079439
0.069243 0.774994 0.079439
0.069243 0.767011 0.079439
0.069245 0.750109 0.079439
0.069278 0.727403 0.079439
0.069479 0.699652 0.079439
0.070079 0.674633 0.079439
0.071552 0.648015 0.079439
0.074134 0.618434 0.079439
0.080067 0.588561 0.079439
0.096534 0.561765 0.079439
0.141948 0.538615 0.079439
0.222118 0.555191 0.079439
0.326699 0.528177 0.079439
0.485803 0.526728 0.079439
0.637825 0.549666 0.079439
0.788983 0.586794 0.079387
0.865419 0.593091 0.079358
0.914486 0.606671 0.079326
0.944554 0.630487 0.079273
0.956668 0.651842 0.079203
0.965376 0.660892 0.079152
0.972631 0.675362 0.079082
0.978618 0.688239 0.078946
0.982088 0.693007 0.078814
0.983055 0.702713 0.078711
0.983929 0.696539 0.078565
0.984481 0.688394 0.078236
0.984854 0.684148 0.078275
0.985015 0.691172 0.083192
0.985018 0.749470 0.678662
0.069243 0.886026 0.079439
0.069243 0.885006 0.079439
0.069243 0.881721 0.079439
0.069243 0.877197 0.079439
0.069243 0.873816 0.079439
0.069247 0.862852 0.079439
0.069303 0.852513 0.079439
0.069505 0.839382 0.079439
0.070098 0.822144 0.079439
0.071515 0.796478 0.079439
0.073991 0.770499 0.079439
0.079330 0.744823 0.079439
0.092522 0.714704 0.079439
0.132695 0.689899 0.079439
0.184648 0.670775 0.079439
0.275384 0.647135 0.079439
0.389533 0.624717 0.079439
0.562034 0.635267 0.079427
0.704217 0.664566 0.079374
0.816192 0.667982 0.079348
0.880424 0.678258 0.079316
0.924665 0.696935 0.079259
0.949855 0.719763 0.079193
0.959098 0.733381 0.079144
0.967295 0.746261 0.079077
0.973978 0.764131 0.078942
0.979910 0.769351 0.078818
0.982200 0.773637 0.078726
0.983169 0.779300 0.078593
0.983809 0.785599 0.078359
0.984295 0.777406 0.078123
0.984537 0.770354 0.079348
0.984609 0.756818 0.630302
0.069243 0.918209 0.079439
0.069243 0.917518 0.079439
0.069243 0.915254 0.079439
0.069243 0.911947 0.079439
0.069243 0.909148 0.079439
0.069247 0.904300 0.079439
0.069300 0.899613 0.079439
0.069462 0.890942 0.079439
0.069884 0.881425 0.079439
0.071155 0.868834 0.079439
0.073080 0.852953 0.079439
0.077096 0.836861 0.079439
0.086066 0.817283 0.079439
0.111856 0.793702 0.079439
0.158289 0.773097 0.079439
0.229195 0.755365 0.079439
0.325121 0.730109 0.079429
0.475508 0.720680 0.079404
0.624226 0.744592 0.079360
0.749692 0.746957 0.079335
0.846315 0.754649 0.079306
0.898645 0.771662 0.079244
0.935447 0.789769 0.079180
0.952837 0.798703 0.079134
0.961653 0.811901 0.079067
0.969133 0.828457 0.078931
0.976194 0.832414 0.078818
0.980588 0.840137 0.078733
0.982386 0.843090 0.078612
0.983177 0.843362 0.078448
0.983726 0.847824 0.078067
0.984018 0.858852 0.078593
0.984180 0.823635 0.353889
0.069243 0.942953 0.079439
0.069243 0.942525 0.079439
0.069243 0.940328 0.079439
0.069243 0.936894 0.079439
0.069243 0.933793 0.079439
0.069247 0.930787 0.079439
0.069280 0.924869 0.079439
0.069417 0.922268 0.079439
0.069732 0.917086 0.079439
0.070800 0.909479 0.079439
0.072425 0.900449 0.079439
0.075562 0.890614 0.079439
0.081809 0.879994 0.079439
0.098100 0.866339 0.079439
0.139554 0.852565 0.079432
0.188726 0.840351 0.079415
0.281132 0.828600 0.079397
0.404323 0.820765 0.079374
0.568332 0.826717 0.079338
0.668978 0.817488 0.079322
0.789661 0.824230 0.079286
0.866691 0.835922 0.079226
0.915657 0.847051 0.079165
0.944137 0.851905 0.079122
0.955893 0.860555 0.079054
0.964208 0.870719 0.078913
0.971809 0.876374 0.078815
0.977503 0.880730 0.078736
0.981578 0.884304 0.078625
0.982479 0.888244 0.078491
0.983159 0.889482 0.078104
0.983540 0.892738 0.078365
0.983718 0.905183 0.087449
0.069243 0.964162 0.079439
0.069243 0.963853 0.079439
0.069243 0.962816 0.079439
0.069243 0.960969 0.079439
0.069243 0.959066 0.079439
0.069248 0.958265 0.079439
0.069280 0.954347 0.079439
0.069416 0.951564 0.079439
0.069691 0.947438 0.079439
0.070596 0.942644 0.079439
0.072048 0.934704 0.079439
0.074562 0.925966 0.079439
0.079673 0.921749 0.079428
0.090837 0.913986 0.079413
0.122120 0.905588 0.079396
0.167432 0.897430 0.079380
0.242381 0.889678 0.079364
0.341763 0.882700 0.079346
0.502712 0.884967 0.079311
0.612401 0.876228 0.079297
0.722090 0.870942 0.079266
0.833917 0.879341 0.079208
0.888153 0.886669 0.079149
0.927273 0.889631 0.079106
0.950100 0.895447 0.079038
0.959110 0.901455 0.078888
0.967373 0.905116 0.078808
0.973777 0.908871 0.078734
0.978984 0.913642 0.078630
0.981812 0.914808 0.078514
0.982587 0.918101 0.078194
0.983036 0.922530 0.078233
0.983293 0.925312 0.080452
0.069243 0.974771 0.079439
0.069243 0.974666 0.079439
0.069243 0.974311 0.079439
0.069243 0.973750 0.079439
0.069244 0.973147 0.079439
0.069249 0.972828 0.079439
0.069297 0.971885 0.079439
0.069431 0.971005 0.079439
0.069682 0.969728 0.079439
0.070570 0.968433 0.079438
0.071947 0.964894 0.079420
0.074160 0.960421 0.079400
0.078736 0.955072 0.079384
0.088206 0.949659 0.079367
0.114371 0.944237 0.079352
0.158342 0.937276 0.079335
0.219403 0.929624 0.079319
0.312974 0.923705 0.079302
0.447529 0.921641 0.079271
0.568004 0.914879 0.079255
0.663887 0.910151 0.079229
0.781652 0.909013 0.079188
0.859707 0.914669 0.079132
0.907846 0.916704 0.079086
0.938694 0.920689 0.079017
0.953912 0.923296 0.078858
0.962852 0.924679 0.078799
0.969865 0.929299 0.078727
0.976099 0.933004 0.078633
0.980196 0.936329 0.078526
0.982012 0.940586 0.078257
0.982568 0.943475 0.078141
0.982871 0.950086 0.079104
0.069243 0.979835 0.079439
0.069243 0.979762 0.079439
0.069243 0.979512 0.079439
0.069243 0.979108 0.079439
0.069244 0.978644 0.079439
0.069248 0.978312 0.079439
0.069289 0.977848 0.079439
0.069388 0.977016 0.079439
0.069617 0.976095 0.079439
0.070297 0.974958 0.079422
0.071426 0.973486 0.079404
0.073257 0.971957 0.079386
0.076853 0.970309 0.079368
0.084154 0.968578 0.079351
0.101854 0.964805 0.079335
0.141305 0.960235 0.079319
0.185890 0.955581 0.079301
0.270485 0.951324 0.079273
0.369417 0.947345 0.079246
0.511870 0.944110 0.079216
0.616109 0.939263 0.079192
0.727268 0.937452 0.079154
0.827992 0.936851 0.079112
0.880686 0.938250 0.079066
0.922584 0.942286 0.078978
0.948439 0.945537 0.078839
0.958158 0.947493 0.078789
0.965872 0.950335 0.078718
0.972827 0.952700 0.078631
0.977923 0.955061 0.078534
0.981259 0.957250 0.078308
0.982088 0.960735 0.078073
0.982469 0.965165 0.078627
0.069243 0.984342 0.079439
0.069243 0.984279 0.079439
0.069243 0.984063 0.079439
0.069243 0.983708 0.079439
0.069244 0.983283 0.079439
0.069248 0.982928 0.079439
0.069285 0.982710 0.079439
0.069372 0.981884 0.079439
0.069591 0.981399 0.079425
0.070064 0.980389 0.079407
0.071151 0.979491 0.079387
0.072750 0.978472 0.079367
0.075694 0.977257 0.079350
0.080636 0.975683 0.079333
0.092972 0.974078 0.079316
0.123133 0.972466 0.079296
0.164898 0.970860 0.079270
0.229924 0.969360 0.079242
0.321823 0.967678 0.079214
0.453349 0.964649 0.079187
0.575040 0.962120 0.079159
0.675030 0.960256 0.079122
0.786697 0.959626 0.079072
0.856078 0.957490 0.079041
0.903250 0.958700 0.078940
0.936435 0.961619 0.078824
0.953385 0.963288 0.078778
0.961835 0.965323 0.078708
0.969405 0.967553 0.078627
0.975265 0.968655 0.078539
0.979454 0.969646 0.078345
0.981631 0.970569 0.078066
0.982079 0.972329 0.078448
0.069243 0.986737 0.079439
0.069243 0.986716 0.079439
0.069243 0.986639 0.079439
0.069243 0.986512 0.079439
0.069245 0.986356 0.079439
0.069248 0.986215 0.079439
0.069282 0.986166 0.079439
0.069366 0.985884 0.079427
0.069547 0.985643 0.079406
0.069950 0.985307 0.079386
0.070977 0.984785 0.079365
0.072303 0.983787 0.079347
0.074667 0.982765 0.079328
0.079100 0.981646 0.079310
0.088159 0.980454 0.079286
0.112157 0.979265 0.079256
0.152151 0.978065 0.079229
0.202559 0.976849 0.079202
0.288005 0.975471 0.079175
0.395890 0.974271 0.079147
0.518493 0.973154 0.079121
0.628554 0.972234 0.079086
0.741325 0.971806 0.079035
0.831545 0.971044 0.078984
0.880001 0.970606 0.078891
0.921374 0.971056 0.078810
0.948319 0.971680 0.078767
0.957688 0.972413 0.078697
0.965923 0.973272 0.078620
0.972482 0.973951 0.078541
0.977599 0.974842 0.078374
0.980431 0.975785 0.078045
0.981701 0.977411 0.078343
0.069243 0.989485 0.079439
0.069243 0.989453 0.079439
0.069243 0.989340 0.079439
0.069243 0.989150 0.079439
0.069245 0.988912 0.079439
0.069247 0.988682 0.079439
0.069268 0.988560 0.079427
0.069359 0.988272 0.079407
0.069509 0.987832 0.079389
0.069862 0.987492 0.079366
0.070704 0.987062 0.079349
0.071962 0.986761 0.079328
0.073974 0.986398 0.079308
0.077593 0.985946 0.079280
0.085169 0.985480 0.079251
0.103140 0.984744 0.079222
0.140702 0.983633 0.079193
0.181508 0.982533 0.079165
0.257939 0.981475 0.079138
0.347014 0.980478 0.079111
0.477856 0.979614 0.079075
0.592418 0.978834 0.079039
0.690618 0.978185 0.078975
0.790841 0.977547 0.078917
0.859713 0.977106 0.078839
0.905192 0.976890 0.078791
0.937205 0.976972 0.078757
0.953404 0.977506 0.078686
0.962426 0.978128 0.078613
0.969623 0.978672 0.078540
0.975469 0.979282 0.078399
0.979038 0.980056 0.078098
0.980966 0.981135 0.078263
0.069243 0.991946 0.079439
0.069243 0.991925 0.079439
0.069243 0.991854 0.079439
0.069243 0.991733 0.079439
0.069244 0.991576 0.079439
0.069246 0.991412 0.079439
0.069251 0.991295 0.079425
0.069337 0.991183 0.079402
0.069446 0.990866 0.079386
0.069696 0.990600 0.079363
0.070357 0.990073 0.079344
0.071499 0.989588 0.079323
0.073032 0.988932 0.079305
0.076195 0.988279 0.079271
0.081691 0.987566 0.079239
0.094404 0.987008 0.079210
0.121994 0.986587 0.079181
0.162164 0.986142 0.079153
0.220915 0.985713 0.079125
0.306649 0.985251 0.079093
0.422422 0.984560 0.079058
0.539097 0.983779 0.079019
0.640951 0.983115 0.078941
0.751690 0.982567 0.078862
0.839327 0.982028 0.078817
0.885176 0.981743 0.078770
0.924623 0.981548 0.078737
0.948990 0.981496 0.078679
0.958738 0.982049 0.078610
0.966719 0.982571 0.078538
0.973291 0.983143 0.078419
0.977627 0.983768 0.078153
0.979928 0.984823 0.078196
0.069243 0.993726 0.079439
0.069243 0.993709 0.079439
0.069243 0.993650 0.079439
0.069243 0.993548 0.079439
0.069243 0.993415 0.079439
0.069245 0.993272 0.079437
0.069249 0.993159 0.079420
0.069318 0.993139 0.079394
0.069395 0.992845 0.079379
0.069596 0.992612 0.079359
0.070132 0.992367 0.079337
0.071091 0.992011 0.079318
0.072511 0.991648 0.079292
0.075060 0.991241 0.079257
0.079120 0.990771 0.079226
0.087721 0.990084 0.079195
0.110432 0.989366 0.079165
0.149097 0.988632 0.079135
0.194460 0.987912 0.079105
0.274495 0.987239 0.079068
0.365562 0.986901 0.079033
0.488175 0.986581 0.078966
0.601342 0.986280 0.078892
0.700354 0.986036 0.078833
0.797543 0.985834 0.078799
0.865332 0.985661 0.078752
0.912030 0.985592 0.078717
0.940397 0.985469 0.078664
0.954907 0.985476 0.078609
0.963724 0.985670 0.078543
0.971090 0.985905 0.078437
0.976066 0.986142 0.078203
0.978935 0.986520 0.078135
0.069243 0.995345 0.079439
0.069243 0.995332 0.079439
0.069243 0.995289 0.079439
0.069243 0.995214 0.079439
0.069243 0.995107 0.079439
0.069244 0.994986 0.079432
0.069248 0.994885 0.079415
0.069282 0.994852 0.079392
0.069370 0.994681 0.079373
0.069527 0.994455 0.079354
0.069963 0.994311 0.079329
0.070756 0.993964 0.079312
0.072102 0.993675 0.079277
0.073842 0.993270 0.079246
0.077515 0.992872 0.079211
0.084791 0.992429 0.079179
0.100581 0.991961 0.079149
0.136344 0.991482 0.079119
0.173402 0.991000 0.079082
0.240793 0.990440 0.079044
0.325922 0.989809 0.078986
0.450512 0.989228 0.078909
0.566325 0.988699 0.078842
0.655515 0.988231 0.078810
0.766105 0.987863 0.078776
0.845835 0.987559 0.078738
0.892977 0.987477 0.078705
0.929489 0.987229 0.078653
0.951371 0.987198 0.078603
0.960644 0.987178 0.078549
0.968799 0.987432 0.078461
0.974518 0.987821 0.078254
0.978055 0.988398 0.078082
0.069243 0.996694 0.079439
0.069243 0.996693 0.079439
0.069243 0.996690 0.079439
0.069243 0.996685 0.079439
0.069243 0.996677 0.079439
0.069243 0.996669 0.079439
0.069245 0.996660 0.079430
0.069249 0.996650 0.079407
0.069320 0.996549 0.079383
0.069414 0.996333 0.079366
0.069641 0.996160 0.079342
0.070279 0.995926 0.079320
0.071324 0.995642 0.079296
0.072875 0.995333 0.079259
0.075825 0.994960 0.079223
0.080362 0.994538 0.079190
0.091066 0.994105 0.079157
0.117210 0.993651 0.079126
0.155412 0.993187 0.079091
0.205015 0.992737 0.079053
0.286651 0.992309 0.079003
0.384732 0.991911 0.078925
0.512692 0.991549 0.078848
0.613614 0.991229 0.078816
