LUTs/ektachrome100d/Ektachrome100D_Modern_RadianceIII.cube
TITLE "Kodak Ektachrome 100D Modern RadianceIII"
# Adobe RGB in/out. REPLACES AgX. Kodak Ektachrome 100D Modern RadianceIII.
LUT_3D_SIZE 9
DOMAIN_MIN 0.0 0.0 0.0
DOMAIN_MAX 1.0 1.0 1.0
0.081523 0.088043 0.083657
0.169469 0.092357 0.084499
0.508464 0.112831 0.087179
0.881049 0.156579 0.091460
0.974478 0.214738 0.102298
0.984865 0.256197 0.120537
0.987051 0.267305 0.156708
0.987350 0.137635 0.561172
0.986392 0.405368 0.794561
0.082237 0.121338 0.084041
0.096182 0.114070 0.084915
0.339394 0.133864 0.087194
0.742682 0.191064 0.091324
0.956555 0.243714 0.101660
0.982971 0.280663 0.118818
0.986214 0.290580 0.151136
0.987183 0.135994 0.553577
0.986026 0.401278 0.787990
0.085348 0.334134 0.087090
0.093196 0.314240 0.087578
0.159153 0.262957 0.088133
0.418561 0.286357 0.091864
0.796987 0.329854 0.101649
0.961918 0.371008 0.116670
0.982672 0.387905 0.141007
0.985937 0.153898 0.534321
0.984826 0.388130 0.764579
0.089535 0.545061 0.090455
0.096569 0.528702 0.091349
0.137770 0.485207 0.092857
0.270268 0.439050 0.096021
0.522358 0.445448 0.104209
0.851073 0.478887 0.117703
0.966755 0.508237 0.137601
0.982088 0.513418 0.175708
0.983020 0.369280 0.528939
0.093923 0.729194 0.095656
0.100023 0.718025 0.097364
0.130467 0.690560 0.101799
0.217720 0.646620 0.106869
0.384222 0.608206 0.112315
0.641351 0.605477 0.122247
0.906777 0.631252 0.140031
0.971681 0.651224 0.167851
0.980068 0.675232 0.323237
0.097797 0.868776 0.102415
0.101836 0.861971 0.103927
0.126436 0.849981 0.110082
0.188728 0.824124 0.116216
0.320593 0.793124 0.123381
0.511612 0.765323 0.131140
0.780856 0.758801 0.145687
0.949009 0.777507 0.167704
0.973641 0.800121 0.225114
0.097608 0.935135 0.106971
0.100662 0.933582 0.108183
0.119168 0.930748 0.113741
0.164886 0.922305 0.121871
0.271665 0.906335 0.130652
0.425902 0.889900 0.141750
0.650135 0.878933 0.153907
0.902633 0.875337 0.169062
0.968209 0.885861 0.204477
0.090264 0.966713 0.103681
0.091537 0.965971 0.104199
0.104392 0.964275 0.110478
0.136773 0.960887 0.118594
0.215307 0.954268 0.128986
0.351904 0.946589 0.141158
0.541058 0.940007 0.153492
0.823360 0.936672 0.165897
0.963852 0.936439 0.188532
0.086414 0.962031 0.099029
0.086387 0.961061 0.098873
0.092560 0.974000 0.098361
0.092185 0.971775 0.102722
0.138668 0.972325 0.109713
0.267312 0.968357 0.118744
0.427188 0.965259 0.127284
0.662448 0.963410 0.133046
0.962054 0.962643 0.135249
0.081876 0.090846 0.135181
0.132933 0.096667 0.277740
0.464737 0.119921 0.187419
0.895415 0.163491 0.165964
0.975257 0.216206 0.149565
0.984478 0.255969 0.156805
0.986761 0.268330 0.192119
0.987260 0.136780 0.557114
0.986203 0.403250 0.791364
0.085269 0.114272 0.103682
0.111947 0.108023 0.101558
0.353169 0.135371 0.122823
0.770960 0.194629 0.140384
0.961508 0.243464 0.141104
0.982682 0.279387 0.151629
0.985824 0.290892 0.183660
0.987093 0.135183 0.549597
0.985837 0.399181 0.784262
0.092336 0.305817 0.112210
0.106810 0.277233 0.109548
0.191370 0.232896 0.105182
0.477540 0.272174 0.117078
0.825380 0.323656 0.128741
0.964019 0.365895 0.142413
0.982409 0.384810 0.168198
0.985668 0.159983 0.532383
0.984642 0.386157 0.761048
0.098876 0.515787 0.114392
0.108700 0.497868 0.115104
0.159701 0.452797 0.115516
0.305203 0.413979 0.116717
0.561914 0.431325 0.125019
0.868929 0.469917 0.138332
0.967133 0.502043 0.160569
0.981861 0.510245 0.197626
0.982847 0.367446 0.727023
0.101550 0.706746 0.114225
0.108534 0.695261 0.115928
0.143483 0.666271 0.121293
0.243419 0.623987 0.125881
0.413017 0.590908 0.131278
0.667133 0.594449 0.140770
0.913860 0.623705 0.159939
0.971465 0.646109 0.186458
0.979580 0.673831 0.359508
0.102388 0.856040 0.115096
0.107070 0.849554 0.116616
0.133832 0.836853 0.124078
0.202126 0.811026 0.131554
0.336597 0.779947 0.140648
0.532532 0.754780 0.151171
0.797658 0.751843 0.163446
0.950571 0.772592 0.184080
0.973286 0.798348 0.243921
0.100681 0.932357 0.115435
0.103691 0.930824 0.116710
0.123924 0.927590 0.124112
0.173323 0.916932 0.133889
0.283096 0.901232 0.146233
0.439501 0.885588 0.158046
0.666554 0.875553 0.170212
0.908341 0.873109 0.183734
0.968057 0.884746 0.219426
0.091303 0.965912 0.107765
0.092675 0.965216 0.108615
0.107207 0.963565 0.116138
0.141195 0.959330 0.126793
0.223256 0.952759 0.139843
0.359860 0.945275 0.153873
0.551476 0.938870 0.166483
0.833827 0.935814 0.179119
0.963917 0.935971 0.201080
0.086400 0.964335 0.126424
0.086373 0.963862 0.126061
0.092526 0.975268 0.124850
0.092153 0.972716 0.122945
0.141862 0.972033 0.113045
0.271656 0.968099 0.124311
0.432241 0.965061 0.133962
0.669919 0.963143 0.141665
0.962545 0.962504 0.144195
0.083122 0.099760 0.346615
0.151751 0.117336 0.657359
0.453601 0.141607 0.617288
0.901266 0.195168 0.551318
0.975557 0.235802 0.487313
0.984115 0.269487 0.481466
0.986177 0.280775 0.514685
0.987103 0.148627 0.579062
0.985809 0.398865 0.783759
0.089854 0.145913 0.343660
0.145119 0.166481 0.441915
0.394543 0.177035 0.439568
0.794384 0.216272 0.424292
0.964081 0.257965 0.415448
0.982406 0.290399 0.431240
0.985239 0.300768 0.469926
0.986798 0.151987 0.574905
0.985440 0.394802 0.776481
0.099969 0.261694 0.241927
0.117190 0.242469 0.229725
0.211024 0.213127 0.212202
0.504850 0.264539 0.260868
0.855238 0.322387 0.302075
0.965969 0.365594 0.336042
0.982011 0.385169 0.366100
0.985029 0.261520 0.559517
0.984237 0.381843 0.753319
0.115031 0.465542 0.241702
0.127586 0.449451 0.237369
0.189762 0.406363 0.223360
0.343002 0.373497 0.213611
0.621308 0.409279 0.239535
0.892926 0.457519 0.275549
0.967962 0.492829 0.301061
0.981389 0.505128 0.367313
0.982438 0.363276 0.719312
0.122997 0.664624 0.232195
0.131862 0.653207 0.231928
0.178715 0.621734 0.230266
0.294367 0.581361 0.226357
0.473865 0.555923 0.226755
0.737710 0.572053 0.244699
0.929946 0.607914 0.266722
0.971078 0.633948 0.307129
0.978317 0.672053 0.513279
0.124442 0.829367 0.220756
0.130703 0.822977 0.221866
0.166271 0.807207 0.226792
0.253152 0.779060 0.230370
0.391513 0.747713 0.233627
0.597916 0.728890 0.239388
0.845404 0.734431 0.249208
0.954785 0.759272 0.278987
0.972317 0.793831 0.351153
0.118321 0.922569 0.197486
0.123032 0.919955 0.199339
0.146509 0.913616 0.207400
0.208665 0.902020 0.217223
0.325677 0.886948 0.226128
0.492670 0.873393 0.234662
0.726422 0.864221 0.244043
0.926582 0.864901 0.261617
0.967574 0.881523 0.298782
0.102748 0.961357 0.166186
0.105357 0.960407 0.168695
0.125014 0.958122 0.182647
0.167095 0.953835 0.197150
0.262506 0.947568 0.210888
0.399301 0.940449 0.223063
0.599287 0.935023 0.234189
0.872040 0.932886 0.245249
0.964026 0.934483 0.265565
0.086355 0.963544 0.125819
0.092645 0.976085 0.125465
0.092415 0.974513 0.124285
0.092058 0.972020 0.122435
0.160269 0.970766 0.140487
0.292537 0.967088 0.165150
0.456021 0.964299 0.180265
0.704231 0.962089 0.188703
0.963178 0.961997 0.194798
0.085037 0.124560 0.599467
0.120016 0.158660 0.866283
0.444391 0.200051 0.901226
0.892470 0.248785 0.891621
0.977911 0.282088 0.841365
0.984325 0.302890 0.797503
0.986037 0.310181 0.796171
0.986742 0.254740 0.857402
0.985546 0.395964 0.845090
0.091492 0.183821 0.612886
0.131648 0.214326 0.769796
0.439249 0.251979 0.864358
0.830734 0.277276 0.823844
0.967242 0.299389 0.771367
0.982596 0.319781 0.748260
0.985066 0.327455 0.762286
0.986145 0.272129 0.839173
0.985167 0.391819 0.838987
0.108816 0.292221 0.470539
0.131395 0.291003 0.480499
0.280644 0.289553 0.509979
0.557234 0.308225 0.534484
0.875878 0.346967 0.566910
0.966939 0.382177 0.596272
0.981791 0.399971 0.642253
0.983970 0.390984 0.742765
0.983930 0.378609 0.819578
0.123542 0.429598 0.399525
0.136357 0.418732 0.393657
0.203494 0.384428 0.373621
0.355991 0.357629 0.357817
0.641981 0.405458 0.407573
0.899673 0.456976 0.456705
0.967504 0.493860 0.507582
0.980138 0.510633 0.600916
0.982081 0.359717 0.788232
0.136737 0.622355 0.385092
0.148296 0.612776 0.382229
0.201800 0.584906 0.373863
0.320534 0.546776 0.360470
0.501165 0.524470 0.354993
0.763895 0.554897 0.382035
0.932785 0.596660 0.420171
0.969950 0.627946 0.479896
0.976993 0.674528 0.693173
0.141200 0.799126 0.361300
0.149972 0.793421 0.360887
0.192850 0.775837 0.361143
0.288518 0.746140 0.358174
0.432335 0.717141 0.355560
0.640534 0.702059 0.358446
0.870507 0.717730 0.375979
0.955130 0.747463 0.410862
0.971122 0.790552 0.561774
0.135021 0.907026 0.329339
0.140904 0.904558 0.330320
0.172715 0.897982 0.335347
0.247229 0.886448 0.340507
0.365018 0.872227 0.344487
0.542182 0.855949 0.349045
0.776581 0.848383 0.356455
0.933368 0.854602 0.372560
0.966729 0.878303 0.455263
0.116840 0.955165 0.281497
0.120804 0.954345 0.283713
0.141627 0.952225 0.294617
0.193173 0.947935 0.306125
0.296210 0.941818 0.317008
0.439749 0.935217 0.326062
0.647244 0.930756 0.334568
0.893499 0.929644 0.344747
0.963793 0.932915 0.387892
0.088896 0.968561 0.202986
0.092466 0.975439 0.202233
0.092246 0.973934 0.199726
0.103492 0.973665 0.174140
0.191809 0.968661 0.247510
0.321621 0.965554 0.267934
0.491462 0.962851 0.280862
0.753360 0.960508 0.287805
0.963242 0.961465 0.309771
0.087500 0.172960 0.855677
0.103510 0.203451 0.939740
0.410182 0.264490 0.971896
0.863041 0.307545 0.971933
0.981380 0.347768 0.969144
0.985229 0.353673 0.948107
0.986479 0.353427 0.933886
0.986727 0.317084 0.934583
0.985547 0.395973 0.937827
0.092782 0.224744 0.866665
0.117483 0.252558 0.931513
0.403003 0.306748 0.967924
0.837057 0.345667 0.968969
0.971736 0.361500 0.955252
0.983534 0.367985 0.934216
0.985494 0.368696 0.921964
0.986114 0.333763 0.928478
0.985156 0.391702 0.933633
0.123568 0.373004 0.826414
0.149279 0.378613 0.850936
0.331057 0.388100 0.889543
0.632291 0.389517 0.879910
0.902183 0.400246 0.864185
0.970479 0.420679 0.857698
0.982185 0.431127 0.866037
0.983980 0.426175 0.887026
0.983876 0.378053 0.914067
0.132053 0.442613 0.611647
0.147520 0.438755 0.612503
0.234608 0.428699 0.618913
0.422225 0.423296 0.628451
0.691563 0.444417 0.656233
0.913564 0.481799 0.698726
0.968472 0.511908 0.744470
0.979911 0.528179 0.805727
0.981967 0.515159 0.889704
0.145910 0.593744 0.553145
0.158525 0.587273 0.550242
0.215079 0.566507 0.541317
0.334745 0.533194 0.523548
0.510410 0.510442 0.510651
0.779769 0.554271 0.560195
0.934394 0.599015 0.615055
0.969324 0.632543 0.689391
0.976159 0.683211 0.821983
0.154548 0.769756 0.522318
0.165029 0.764266 0.520734
0.211165 0.748843 0.517626
0.309293 0.722092 0.509992
0.455954 0.692762 0.501958
0.659028 0.679582 0.502489
0.877155 0.706724 0.533396
0.954143 0.742127 0.586619
0.970103 0.791038 0.737908
0.149319 0.892200 0.482950
0.156565 0.890069 0.482877
0.192258 0.884044 0.484522
0.273957 0.873370 0.485415
0.394717 0.855621 0.485448
0.575643 0.839720 0.487023
0.802963 0.835118 0.494478
0.935829 0.846955 0.519765
0.965749 0.876727 0.642251
0.127277 0.949514 0.427970
0.131610 0.948754 0.428959
0.157090 0.946655 0.435652
0.214766 0.942431 0.442592
0.321714 0.936476 0.449247
0.472839 0.930604 0.455288
0.686449 0.926106 0.462251
0.906696 0.925974 0.473539
0.963208 0.932181 0.549365
0.089551 0.968875 0.414579
0.089949 0.969539 0.413192
0.091026 0.970649 0.408556
0.127349 0.969835 0.365229
0.209667 0.967073 0.384026
0.341039 0.964317 0.396198
0.517484 0.960953 0.404322
0.789676 0.959284 0.409060
0.962971 0.961585 0.461799
0.090685 0.236291 0.967137
0.101696 0.252971 0.980358
0.377413 0.328692 0.985718
0.820565 0.366706 0.985937
0.980166 0.411094 0.986037
0.986393 0.415834 0.982676
0.987099 0.406420 0.974891
0.987046 0.375289 0.969010
0.985802 0.398790 0.962057
0.095938 0.273785 0.968275
0.110206 0.291436 0.979367
0.372936 0.360966 0.985224
0.801671 0.398333 0.985578
0.976417 0.437349 0.985346
0.984801 0.428183 0.980479
0.986344 0.420061 0.971411
0.986528 0.390637 0.966674
0.985404 0.394411 0.959267
0.129653 0.427040 0.968250
0.152911 0.439354 0.974085
0.364421 0.486179 0.983002
0.687009 0.479330 0.979799
0.930464 0.473533 0.970921
0.975541 0.473622 0.963967
0.983111 0.474291 0.955604
0.984413 0.466898 0.952435
0.984093 0.380333 0.949403
0.144957 0.498464 0.880218
0.162837 0.498829 0.885097
0.275402 0.505722 0.902841
0.486423 0.506316 0.906081
0.761245 0.512760 0.902688
0.933670 0.527124 0.902958
0.971479 0.544720 0.908687
0.981126 0.555497 0.921323
0.982081 0.557028 0.934178
0.154649 0.597931 0.759105
0.168253 0.594308 0.758781
0.235706 0.585984 0.762672
0.366227 0.570313 0.760180
0.571811 0.565921 0.762636
0.817323 0.586879 0.787191
0.940370 0.620015 0.820391
0.970063 0.648873 0.862093
0.976145 0.698904 0.903744
0.163267 0.750002 0.698713
0.174218 0.746183 0.697419
0.223456 0.734904 0.695443
0.323074 0.712827 0.688598
0.472483 0.685369 0.677273
0.665521 0.667924 0.668333
0.882825 0.708555 0.718435
0.954370 0.746332 0.777333
0.969661 0.796430 0.862520
0.158645 0.880417 0.650065
0.167223 0.878645 0.649350
0.204809 0.873627 0.649454
0.289680 0.861854 0.648677
0.413695 0.843836 0.647055
0.595258 0.828505 0.646440
0.813329 0.825209 0.654364
0.936429 0.843584 0.693433
0.964973 0.877148 0.805684
0.133164 0.944891 0.593341
0.137774 0.944195 0.593218
0.167263 0.942119 0.596095
0.230111 0.938078 0.598980
0.337748 0.932658 0.602569
0.494265 0.926790 0.606744
0.711358 0.921515 0.613014
0.912750 0.922842 0.626523
0.962144 0.932176 0.732090
0.089684 0.967892 0.500451
0.090018 0.968452 0.503680
0.090896 0.969275 0.516312
0.129465 0.968722 0.529527
0.216624 0.966057 0.537322
0.349855 0.963537 0.543116
0.530453 0.959932 0.547639
0.805689 0.958800 0.550392
0.962513 0.962057 0.646954
0.095829 0.301923 0.987134
0.104498 0.311275 0.987867
0.323960 0.383505 0.988545
0.794179 0.422372 0.988619
0.977996 0.464383 0.988653
0.987204 0.482690 0.988061
0.987434 0.459966 0.986164
0.987259 0.427729 0.983247
0.986224 0.403466 0.979159
0.100554 0.330955 0.987181
0.111883 0.340969 0.987812
0.327974 0.411040 0.988484
0.779073 0.449568 0.988575
0.975890 0.491334 0.988616
0.986191 0.492015 0.987617
0.987134 0.472412 0.985203
0.987062 0.441770 0.982575
0.985826 0.399024 0.977631
0.131878 0.465887 0.987225
0.150584 0.475312 0.987583
0.343004 0.523652 0.988194
0.731726 0.558011 0.988359
0.947838 0.542990 0.987218
0.981363 0.531473 0.984510
0.984340 0.520645 0.982020
0.985136 0.508162 0.977921
0.984506 0.384471 0.972407
0.161115 0.571734 0.980424
0.180096 0.572418 0.981368
0.302481 0.582884 0.981900
0.541683 0.583308 0.980458
0.825683 0.580825 0.975815
0.950836 0.581857 0.971551
0.975974 0.584165 0.968423
0.982020 0.587070 0.966749
0.982401 0.609749 0.966645
0.166751 0.633365 0.934413
0.180578 0.632349 0.935523
0.258531 0.633821 0.939443
0.409775 0.631173 0.939525
0.637415 0.630736 0.937080
0.867486 0.639353 0.936201
0.951479 0.654175 0.938144
0.972302 0.673400 0.942746
0.977008 0.719342 0.950542
0.170736 0.750567 0.877299
0.181411 0.748164 0.877566
0.234983 0.742447 0.880015
0.341603 0.730165 0.880103
0.508754 0.715975 0.876214
0.723239 0.714284 0.875775
0.900318 0.733173 0.886957
0.958224 0.761223 0.905635
0.970076 0.806196 0.930815
0.162954 0.873740 0.822899
0.171820 0.872439 0.822876
0.210991 0.868482 0.824881
0.298690 0.857245 0.826965
0.427953 0.841999 0.826779
0.611437 0.827244 0.823373
0.816246 0.818526 0.819700
0.937900 0.846595 0.859204
0.964806 0.880050 0.903151
0.133417 0.941902 0.763637
0.138180 0.941267 0.763266
0.169201 0.939424 0.765469
0.235029 0.935844 0.768690
0.344707 0.930956 0.773417
0.505450 0.924511 0.778337
0.723999 0.919606 0.784857
0.914375 0.921583 0.798929
0.961289 0.932897 0.875337
0.089490 0.966062 0.631534
0.090166 0.967545 0.629879
0.091273 0.968715 0.625024
0.119915 0.968698 0.694457
0.210822 0.965742 0.695731
0.346411 0.963179 0.699483
0.528186 0.959922 0.703198
0.803508 0.959236 0.705303
0.962124 0.963010 0.831066
0.104571 0.365397 0.989694
0.115254 0.370649 0.989789
0.347503 0.423710 0.989927
0.824926 0.461497 0.989949
0.981393 0.501025 0.989964
0.987745 0.531055 0.989812
0.987820 0.499923 0.988671
0.987530 0.457648 0.987584
0.986700 0.429380 0.985880
0.110137 0.390004 0.989680
0.121421 0.395757 0.989769
0.354191 0.448458 0.989910
0.813636 0.486183 0.989935
0.979937 0.524930 0.989951
0.987335 0.538680 0.989512
0.987547 0.510482 0.988387
0.987341 0.471495 0.987374
0.986309 0.431223 0.985446
0.144979 0.515426 0.989626
0.164161 0.521205 0.989689
0.383136 0.560485 0.989821
0.775542 0.592152 0.989865
0.968093 0.599358 0.989437
0.983723 0.579178 0.988462
0.985833 0.558671 0.987447
0.986082 0.534437 0.985968
0.985011 0.480898 0.984000
0.184509 0.643028 0.988824
0.204558 0.642133 0.988781
0.358146 0.651127 0.988558
0.621082 0.645936 0.988016
0.891799 0.636274 0.987334
0.968373 0.627663 0.985940
0.981490 0.619139 0.984102
0.983076 0.610802 0.982680
0.982902 0.636739 0.981737
0.184431 0.685820 0.983229
0.199661 0.685334 0.983216
0.299122 0.690782 0.983036
0.474302 0.689466 0.982246
0.724844 0.686411 0.980882
0.912439 0.686420 0.977734
0.965417 0.689377 0.975313
0.975896 0.695404 0.973839
0.978556 0.736602 0.973313
0.179507 0.770403 0.967498
0.190578 0.769173 0.967637
0.258196 0.769128 0.967874
0.374979 0.763498 0.966516
0.568752 0.757256 0.964293
0.797485 0.757224 0.961623
0.929361 0.765162 0.960719
0.965020 0.779730 0.962330
0.971357 0.817331 0.964702
0.164911 0.873760 0.942405
0.173654 0.872830 0.942916
0.217747 0.870928 0.945182
0.310315 0.863916 0.945866
0.453687 0.852813 0.943581
0.653783 0.843774 0.939928
0.860643 0.844579 0.938744
0.945153 0.858930 0.943176
0.965661 0.884903 0.951390
0.126837 0.942189 0.902773
0.131703 0.941573 0.903320
0.162591 0.939653 0.907552
0.230655 0.936282 0.913129
0.345912 0.931791 0.918669
0.513939 0.926736 0.921382
0.737540 0.921788 0.921882
0.913577 0.919812 0.920951
0.961333 0.934340 0.940547
0.088933 0.963349 0.802966
0.091103 0.968171 0.803839
0.091345 0.967888 0.814879
0.105734 0.968815 0.835334
0.187504 0.966433 0.843364
0.327034 0.963970 0.852822
0.506313 0.961284 0.860002
0.776214 0.960744 0.862447
0.961886 0.963944 0.929731
0.252461 0.384759 0.990997
0.295752 0.389207 0.990998
0.613386 0.407015 0.990999
0.971934 0.436747 0.991001
0.987368 0.470910 0.991005
0.988781 0.500894 0.991014
0.988437 0.457172 0.989756
0.987902 0.374132 0.988765
0.987039 0.427002 0.987571
0.264456 0.404820 0.990993
0.306142 0.409346 0.990993
0.613932 0.427351 0.990994
0.970799 0.457052 0.990997
0.987313 0.491539 0.991002
0.988528 0.509374 0.990681
0.988239 0.466866 0.989560
0.987729 0.384375 0.988581
0.986743 0.429186 0.987483
0.315274 0.503828 0.990968
0.353753 0.508099 0.990969
0.622840 0.524911 0.990973
0.965384 0.552054 0.990979
0.986671 0.575448 0.990799
0.987493 0.551024 0.989787
0.987447 0.515976 0.988916
0.987143 0.446871 0.987954
0.985468 0.414316 0.987020
0.367662 0.673152 0.990665
0.400895 0.670463 0.990542
0.594047 0.663238 0.990235
0.912569 0.652116 0.989753
0.975572 0.637183 0.989162
0.983383 0.619201 0.988462
0.984624 0.595103 0.987686
0.984635 0.560230 0.986937
0.983485 0.638183 0.984967
0.315199 0.720658 0.988393
0.338391 0.718941 0.988321
0.472111 0.714736 0.988080
0.750240 0.708175 0.987695
0.931752 0.699651 0.987231
0.969440 0.690086 0.986237
0.978233 0.677655 0.984834
0.981446 0.661919 0.983552
0.980690 0.724819 0.982400
0.257874 0.790282 0.985372
0.276695 0.788614 0.985202
0.368627 0.784591 0.984640
0.575521 0.778640 0.983755
0.817433 0.771861 0.982748
0.933593 0.766914 0.981816
0.964792 0.762878 0.980422
0.972092 0.759402 0.978441
0.973488 0.811300 0.976778
0.194087 0.876562 0.982032
0.206420 0.875511 0.981891
0.276941 0.872707 0.981410
0.422936 0.867292 0.979087
0.640826 0.858327 0.976161
0.855179 0.851816 0.973530
0.938175 0.849241 0.971790
0.963728 0.849645 0.970926
0.967810 0.882460 0.970574
0.123485 0.941096 0.976613
0.128143 0.940578 0.976551
0.158722 0.939064 0.975889
0.257806 0.936010 0.974184
0.423115 0.931634 0.971879
0.659742 0.927227 0.969472
0.879537 0.923372 0.967539
0.948452 0.922339 0.966666
0.963891 0.933604 0.966847
0.088055 0.956952 0.903150
0.091313 0.967546 0.935987
0.091184 0.966665 0.934078
0.094059 0.965918 0.931015
0.134283 0.968651 0.963985
0.289616 0.965490 0.967509
0.485352 0.963809 0.966632
0.776864 0.963583 0.965938
0.961876 0.964833 0.965784
