LUTs/ektachrome100d/Ektachrome100D_Classic_ExtraSoft.cube
TITLE "Kodak Ektachrome 100D Classic ExtraSoft"
# Adobe RGB in/out. REPLACES AgX. Kodak Ektachrome 100D Classic ExtraSoft.
LUT_3D_SIZE 33
DOMAIN_MIN 0.0 0.0 0.0
DOMAIN_MAX 1.0 1.0 1.0
0.068633 0.069845 0.084864
0.068633 0.069845 0.084864
0.068633 0.069845 0.084864
0.068633 0.069845 0.084864
0.069020 0.069845 0.084864
0.070549 0.069845 0.084864
0.079889 0.069845 0.084864
0.110653 0.069845 0.084864
0.149829 0.069845 0.084864
0.236277 0.069845 0.084864
0.392652 0.069845 0.084864
0.500170 0.069845 0.084864
0.563053 0.069869 0.084864
0.652370 0.069954 0.084864
0.716543 0.070118 0.084864
0.753594 0.070270 0.084864
0.784966 0.070405 0.084864
0.805849 0.070771 0.084864
0.823507 0.071326 0.084864
0.835500 0.071609 0.084864
0.844994 0.071979 0.084864
0.851112 0.072389 0.084864
0.856491 0.072719 0.084864
0.861647 0.072795 0.084864
0.865399 0.072894 0.084896
0.868671 0.072905 0.084982
0.872719 0.072263 0.085143
0.874797 0.071808 0.086323
0.878919 0.069926 0.240092
0.878919 0.069925 0.239952
0.878919 0.069925 0.239944
0.878919 0.069925 0.239939
0.879684 0.116901 0.702837
0.068633 0.069845 0.084864
0.068633 0.069845 0.084864
0.068633 0.069845 0.084864
0.068633 0.069845 0.084864
0.069392 0.069845 0.084864
0.071070 0.069845 0.084864
0.080682 0.069845 0.084864
0.110647 0.069845 0.084864
0.148677 0.069845 0.084864
0.232572 0.069845 0.084864
0.387871 0.069845 0.084864
0.497812 0.069845 0.084864
0.559789 0.069874 0.084864
0.647788 0.069969 0.084864
0.714507 0.070140 0.084864
0.752039 0.070289 0.084864
0.784111 0.070423 0.084864
0.805181 0.070820 0.084864
0.823069 0.071371 0.084864
0.835238 0.071665 0.084864
0.844797 0.072031 0.084864
0.851005 0.072438 0.084864
0.856413 0.072766 0.084864
0.861590 0.072841 0.084864
0.865359 0.072939 0.084896
0.868642 0.072949 0.084981
0.872699 0.072308 0.085139
0.874785 0.071852 0.086259
0.878919 0.069926 0.240095
0.878919 0.069925 0.239953
0.878919 0.069925 0.239945
0.878919 0.069925 0.239939
0.879684 0.116903 0.702836
0.068633 0.069845 0.084864
0.068633 0.069845 0.084864
0.068633 0.069845 0.084864
0.068633 0.069845 0.084864
0.068901 0.069845 0.084864
0.071370 0.069845 0.084864
0.082242 0.069845 0.084864
0.112637 0.069845 0.084864
0.146773 0.069845 0.084864
0.222458 0.069845 0.084864
0.369643 0.069845 0.084864
0.473411 0.069865 0.084864
0.548006 0.069904 0.084864
0.631086 0.070023 0.084864
0.706525 0.070221 0.084864
0.746235 0.070361 0.084864
0.780788 0.070541 0.084864
0.802680 0.071002 0.084864
0.821430 0.071538 0.084864
0.834257 0.071868 0.084864
0.844060 0.072221 0.084864
0.850609 0.072617 0.084864
0.856122 0.072938 0.084864
0.861380 0.073008 0.084864
0.865209 0.073101 0.084894
0.868535 0.073109 0.084977
0.872624 0.072472 0.085123
0.874739 0.072012 0.086097
0.878919 0.069926 0.240106
0.878919 0.069925 0.239954
0.878919 0.069925 0.239945
0.878919 0.069925 0.239940
0.879684 0.116907 0.702835
0.068633 0.069845 0.084864
0.068633 0.069845 0.084864
0.068633 0.069845 0.084864
0.068633 0.069845 0.084864
0.068633 0.069845 0.084864
0.069070 0.069845 0.084864
0.075119 0.069845 0.084864
0.100281 0.069845 0.084864
0.132892 0.069845 0.084864
0.204867 0.069845 0.084864
0.339607 0.069882 0.084864
0.444650 0.069960 0.084864
0.526012 0.070027 0.084864
0.599744 0.070146 0.084864
0.686685 0.070377 0.084864
0.734644 0.070575 0.084864
0.771217 0.070922 0.084864
0.797629 0.071347 0.084864
0.818126 0.071939 0.084864
0.832283 0.072252 0.084864
0.842582 0.072580 0.084864
0.849819 0.072955 0.084864
0.855543 0.073261 0.084864
0.860962 0.073322 0.084864
0.864911 0.073467 0.084890
0.868323 0.073472 0.084970
0.872476 0.072782 0.085098
0.874649 0.072316 0.085824
0.878919 0.069927 0.240130
0.878919 0.069925 0.239957
0.878919 0.069925 0.239947
0.878919 0.069925 0.239940
0.879684 0.116910 0.702833
0.068633 0.069845 0.084864
0.068633 0.069845 0.084864
0.068633 0.069845 0.084864
0.068633 0.069845 0.084864
0.068633 0.069845 0.084864
0.068638 0.069845 0.084864
0.070494 0.069845 0.084864
0.083434 0.069874 0.084864
0.103931 0.069872 0.084864
0.163189 0.069904 0.084864
0.294452 0.070074 0.084864
0.394921 0.070164 0.084864
0.483671 0.070257 0.084864
0.562258 0.070415 0.084864
0.662346 0.070988 0.084864
0.714983 0.071263 0.084864
0.754774 0.071530 0.084864
0.788845 0.071988 0.084864
0.811961 0.072593 0.084864
0.828849 0.072855 0.084864
0.840028 0.073140 0.084864
0.848462 0.073597 0.084864
0.854557 0.074344 0.084864
0.860254 0.074478 0.084864
0.864409 0.074677 0.084886
0.867965 0.074665 0.084962
0.872226 0.073267 0.085067
0.874494 0.072794 0.085531
0.878919 0.069927 0.240176
0.878919 0.069925 0.239962
0.878919 0.069925 0.239950
0.878919 0.069927 0.239942
0.879684 0.116911 0.702833
0.068633 0.069847 0.084864
0.068633 0.069851 0.084864
0.068633 0.069868 0.084864
0.068633 0.069884 0.084864
0.068633 0.069907 0.084864
0.068633 0.069917 0.084864
0.069035 0.070034 0.084864
0.074097 0.070214 0.084864
0.085706 0.070134 0.084864
0.113785 0.070205 0.084864
0.217562 0.070434 0.084864
0.328538 0.070624 0.084864
0.432147 0.070819 0.084864
0.528793 0.071193 0.084864
0.616188 0.071817 0.084864
0.684762 0.072167 0.084864
0.732217 0.072524 0.084864
0.771339 0.073023 0.084864
0.800831 0.073736 0.084864
0.822145 0.074243 0.084864
0.835748 0.074919 0.084864
0.846152 0.076160 0.084864
0.852938 0.077221 0.084864
0.859098 0.077338 0.084864
0.863597 0.077559 0.084882
0.867388 0.077499 0.084953
0.871820 0.075008 0.085036
0.874240 0.073613 0.085277
0.878919 0.069928 0.240269
0.878919 0.069925 0.239973
0.878919 0.069925 0.239956
0.879684 0.116830 0.239945
0.879684 0.116911 0.702832
0.068633 0.070211 0.084864
0.068633 0.070222 0.084864
0.068633 0.070294 0.084864
0.068633 0.070380 0.084864
0.068633 0.070460 0.084864
0.068633 0.070541 0.084864
0.068653 0.070584 0.084864
0.071103 0.071263 0.084864
0.076739 0.070939 0.084864
0.091577 0.071038 0.084864
0.152041 0.071667 0.084864
0.248610 0.071867 0.084864
0.355703 0.071943 0.084864
0.471773 0.072324 0.084864
0.566796 0.073017 0.084864
0.650821 0.073342 0.084864
0.707678 0.073688 0.084864
0.751766 0.074744 0.084864
0.788908 0.077109 0.084864
0.812227 0.078140 0.084864
0.829126 0.079568 0.084864
0.840900 0.081125 0.084864
0.850225 0.082012 0.084864
0.857174 0.081996 0.084864
0.862264 0.082099 0.084880
0.866449 0.081981 0.084945
0.871149 0.079385 0.085011
0.873816 0.077190 0.085183
0.878919 0.069930 0.240491
0.878919 0.069926 0.239999
0.878919 0.069925 0.239968
0.879684 0.116906 0.239950
0.879684 0.116911 0.702832
0.068633 0.071777 0.084864
0.068633 0.071807 0.084864
0.068633 0.072053 0.084864
0.068633 0.072336 0.084864
0.068633 0.072624 0.084864
0.068633 0.072841 0.084864
0.068647 0.072953 0.084864
0.069675 0.072999 0.084864
0.072635 0.072535 0.084864
0.082537 0.072594 0.084864
0.112381 0.073310 0.084864
0.184125 0.073424 0.084864
0.275632 0.073397 0.084864
0.398075 0.074052 0.084864
0.524475 0.076232 0.084864
0.593252 0.077057 0.084864
0.674882 0.077856 0.084864
0.726105 0.079729 0.084864
0.770357 0.082165 0.084864
0.800284 0.082826 0.084864
0.822120 0.084166 0.084864
0.836038 0.086211 0.084864
0.847106 0.088273 0.084864
0.854436 0.089298 0.084864
0.859939 0.090827 0.084880
0.864830 0.090510 0.084941
0.869960 0.087431 0.085000
0.873058 0.084383 0.085139
0.878921 0.069938 0.241260
0.878919 0.069926 0.240086
0.878919 0.069926 0.240006
0.879684 0.116910 0.239966
0.879684 0.116912 0.702832
0.068633 0.072926 0.084864
0.068633 0.072947 0.084864
0.068633 0.073096 0.084864
0.068633 0.073392 0.084864
0.068633 0.074004 0.084864
0.068633 0.074647 0.084864
0.068633 0.075311 0.084864
0.068870 0.075664 0.084864
0.070760 0.075830 0.084864
0.076300 0.076017 0.084864
0.094087 0.079016 0.084864
0.133681 0.079044 0.084864
0.205926 0.078644 0.084864
0.318675 0.079712 0.084864
0.461325 0.082248 0.084864
0.545747 0.082901 0.084864
0.623467 0.083799 0.084864
0.691809 0.085881 0.084864
0.747287 0.088951 0.084864
0.785243 0.090263 0.084864
0.809518 0.092585 0.084864
0.829283 0.094696 0.084864
0.842585 0.097047 0.084864
0.852015 0.098020 0.084864
0.858264 0.100942 0.084886
0.863274 0.104422 0.084943
0.868431 0.103408 0.085000
0.871702 0.103318 0.085129
0.878959 0.070188 0.250278
0.878920 0.069935 0.240974
0.878919 0.069927 0.240244
0.879684 0.116912 0.240037
0.879684 0.116912 0.702832
0.068633 0.076989 0.084864
0.068633 0.077057 0.084864
0.068633 0.077487 0.084864
0.068633 0.078523 0.084864
0.068633 0.079827 0.084864
0.068633 0.081080 0.084864
0.068633 0.081933 0.084864
0.068657 0.082512 0.084864
0.069783 0.082965 0.084864
0.073136 0.083229 0.084864
0.085931 0.087765 0.084864
0.107792 0.087635 0.084864
0.153281 0.086709 0.084864
0.245997 0.087652 0.084864
0.386068 0.091343 0.084864
0.497462 0.091971 0.084864
0.566467 0.092703 0.084864
0.661848 0.095243 0.084864
0.721841 0.102206 0.084864
0.763545 0.104957 0.084864
0.796648 0.107940 0.084864
0.820024 0.114195 0.084864
0.835730 0.121919 0.084864
0.848195 0.124089 0.084864
0.855681 0.125900 0.084893
0.861536 0.128789 0.084946
0.867303 0.126450 0.084998
0.870971 0.125166 0.085113
0.874576 0.119569 0.085280
0.876941 0.114042 0.086281
0.879143 0.093790 0.163570
0.879684 0.116914 0.253308
0.879684 0.116912 0.702831
0.068633 0.088257 0.084864
0.068633 0.088348 0.084864
0.068633 0.088861 0.084864
0.068633 0.090795 0.084864
0.068633 0.093068 0.084864
0.068633 0.095301 0.084864
0.068633 0.097500 0.084864
0.068656 0.100544 0.084864
0.069647 0.102796 0.084864
0.072612 0.104106 0.084864
0.080254 0.105011 0.084864
0.093445 0.104143 0.084864
0.123619 0.100692 0.084864
0.194687 0.102900 0.084864
0.314141 0.113059 0.084864
0.424659 0.113221 0.084864
0.521240 0.113592 0.084864
0.600770 0.118465 0.084864
0.687407 0.130210 0.084864
0.738751 0.131887 0.084864
0.780789 0.137585 0.084864
0.807137 0.148435 0.084864
0.828901 0.157050 0.084864
0.843440 0.161457 0.084864
0.852317 0.171230 0.084904
0.858732 0.181550 0.084953
0.865502 0.176104 0.085001
0.869829 0.171577 0.085104
0.873841 0.159056 0.085240
0.876515 0.146777 0.085840
0.879013 0.102631 0.111739
0.879684 0.116916 0.300260
0.879684 0.116919 0.318768
0.068633 0.103074 0.084864
0.068633 0.103313 0.084864
0.068633 0.104563 0.084864
0.068633 0.108750 0.084864
0.068633 0.113273 0.084864
0.068633 0.118805 0.084864
0.068633 0.125077 0.084864
0.068647 0.129800 0.084864
0.069180 0.133894 0.084864
0.071264 0.137265 0.084864
0.076244 0.139264 0.084864
0.087034 0.140855 0.084864
0.105550 0.133538 0.084864
0.151651 0.137503 0.084864
0.252441 0.154445 0.084864
0.356393 0.152845 0.084864
0.463865 0.152429 0.084864
0.552439 0.160173 0.084864
0.652514 0.179213 0.084864
0.711486 0.180395 0.084864
0.756083 0.187404 0.084864
0.793206 0.199801 0.084864
0.818800 0.219803 0.084864
0.836238 0.230334 0.084879
0.848723 0.237720 0.084918
0.856313 0.248623 0.084963
0.863460 0.251068 0.085011
0.868146 0.257167 0.085103
0.872588 0.251783 0.085222
0.875788 0.227446 0.085613
0.878696 0.136458 0.091536
0.879684 0.116922 0.300513
0.879684 0.116929 0.337032
0.068633 0.129008 0.084864
0.068633 0.129269 0.084864
0.068633 0.130563 0.084864
0.068633 0.135171 0.084864
0.068633 0.142890 0.084864
0.068633 0.151925 0.084864
0.068633 0.161082 0.084864
0.068639 0.171338 0.084864
0.068929 0.178492 0.084864
0.070197 0.183266 0.084864
0.073447 0.186668 0.084864
0.081298 0.188624 0.084864
0.093987 0.190642 0.084864
0.126816 0.196530 0.084864
0.206374 0.230146 0.084864
0.298166 0.225518 0.084864
0.399582 0.222264 0.084864
0.505659 0.234678 0.084864
0.594377 0.257456 0.084864
0.678254 0.257283 0.084864
0.730629 0.264127 0.084864
0.775930 0.278253 0.084864
0.805770 0.305056 0.084867
0.829029 0.310001 0.084896
0.843412 0.322161 0.084933
0.852643 0.337562 0.084976
0.861114 0.335232 0.085026
0.866658 0.337220 0.085109
0.871476 0.338714 0.085215
0.874826 0.340002 0.085538
0.877440 0.347245 0.086480
0.879684 0.117025 0.300836
0.879684 0.116991 0.364771
0.068633 0.183090 0.084864
0.068633 0.183448 0.084864
0.068633 0.185121 0.084864
0.068633 0.190098 0.084864
0.068633 0.205331 0.084864
0.068633 0.220137 0.084864
0.068633 0.236587 0.084864
0.068635 0.250300 0.084864
0.068804 0.260878 0.084864
0.069841 0.268945 0.084864
0.072381 0.275702 0.084864
0.078167 0.280645 0.084864
0.088462 0.283657 0.084864
0.109735 0.287675 0.084864
0.174408 0.325105 0.084864
0.245378 0.321608 0.084864
0.342166 0.317101 0.084864
0.456592 0.324667 0.084864
0.551195 0.346086 0.084864
0.633013 0.345419 0.084864
0.698480 0.350773 0.084864
0.751834 0.365108 0.084864
0.791798 0.385566 0.084888
0.818747 0.394131 0.084916
0.836374 0.405460 0.084951
0.849093 0.416323 0.084990
0.858224 0.421253 0.085045
0.864352 0.431293 0.085120
0.870085 0.428544 0.085215
0.874028 0.424798 0.085479
0.877010 0.425061 0.086111
0.878820 0.435839 0.093334
0.879776 0.487909 0.390450
0.068633 0.292048 0.084864
0.068633 0.292993 0.084864
0.068633 0.297151 0.084864
0.068633 0.306839 0.084864
0.068633 0.323363 0.084864
0.068633 0.333816 0.084864
0.068633 0.348499 0.084864
0.068638 0.362733 0.084864
0.068800 0.379617 0.084864
0.069772 0.394210 0.084864
0.072093 0.402228 0.084864
0.077155 0.407809 0.084864
0.086819 0.411640 0.084864
0.104835 0.414434 0.084864
0.142925 0.416726 0.084864
0.206693 0.411871 0.084864
0.293243 0.407503 0.084864
0.398532 0.414615 0.084864
0.509966 0.435426 0.084864
0.578722 0.433174 0.084864
0.670643 0.437701 0.084864
0.727421 0.450456 0.084874
0.774642 0.464564 0.084910
0.805561 0.472112 0.084936
0.828937 0.481411 0.084968
0.843833 0.498149 0.085011
0.854904 0.503567 0.085068
0.862255 0.509050 0.085136
0.868432 0.516560 0.085224
0.872777 0.523346 0.085452
0.876317 0.520278 0.085948
0.878496 0.518559 0.088594
0.879743 0.511331 0.348559
0.068633 0.375926 0.084864
0.068633 0.376591 0.084864
0.068633 0.379423 0.084864
0.068633 0.386624 0.084864
0.068633 0.400290 0.084864
0.068633 0.412336 0.084864
0.068633 0.428391 0.084864
0.068634 0.440313 0.084864
0.068690 0.453535 0.084864
0.069462 0.466159 0.084864
0.071282 0.475749 0.084864
0.074708 0.483188 0.084864
0.083065 0.489203 0.084864
0.094742 0.493055 0.084864
0.122530 0.496292 0.084864
0.179763 0.499028 0.084864
0.246671 0.493404 0.084864
0.348154 0.501007 0.084864
0.465382 0.522161 0.084864
0.544253 0.519858 0.084864
0.623519 0.521879 0.084865
0.694123 0.530719 0.084898
0.751563 0.540399 0.084932
0.791509 0.544368 0.084956
0.818945 0.551785 0.084987
0.837091 0.563392 0.085040
0.851218 0.566790 0.085091
0.859347 0.575062 0.085155
0.866560 0.579433 0.085240
0.871707 0.581490 0.085451
0.875523 0.588820 0.085869
0.877893 0.604194 0.087364
0.879584 0.570615 0.174222
0.068633 0.454107 0.084864
0.068633 0.454566 0.084864
0.068633 0.456471 0.084864
0.068633 0.461109 0.084864
0.068633 0.471206 0.084864
0.068633 0.486098 0.084864
0.068633 0.499144 0.084864
0.068633 0.514338 0.084864
0.068658 0.525832 0.084864
0.069204 0.534929 0.084864
0.070637 0.542718 0.084864
0.073403 0.548946 0.084864
0.079595 0.553971 0.084864
0.089055 0.557630 0.084864
0.108542 0.560270 0.084864
0.147248 0.562545 0.084864
0.212842 0.564695 0.084864
0.304007 0.569932 0.084864
0.417026 0.585623 0.084864
0.504984 0.582874 0.084865
0.575920 0.584614 0.084890
0.670352 0.592586 0.084921
0.728171 0.602539 0.084954
0.774618 0.605816 0.084977
0.806409 0.613621 0.085011
0.829914 0.620471 0.085069
0.846816 0.624364 0.085117
0.856265 0.628705 0.085176
0.864420 0.634246 0.085260
0.870146 0.640759 0.085465
0.874669 0.643989 0.085819
0.877489 0.650310 0.086802
0.879181 0.670996 0.100863
0.068633 0.536787 0.084864
0.068633 0.537109 0.084864
0.068633 0.538410 0.084864
0.068633 0.541428 0.084864
0.068633 0.547641 0.084864
0.068633 0.559486 0.084864
0.068633 0.566624 0.084864
0.068633 0.578602 0.084864
0.068657 0.588820 0.084864
0.069130 0.598211 0.084864
0.070264 0.607175 0.084864
0.072779 0.614084 0.084864
0.077899 0.618180 0.084864
0.086541 0.620966 0.084864
0.102073 0.623359 0.084864
0.132167 0.625097 0.084864
0.189836 0.626567 0.084864
0.264823 0.628187 0.084864
0.372374 0.641255 0.084870
0.465691 0.638990 0.084889
0.544681 0.639627 0.084913
0.627818 0.645784 0.084944
0.699319 0.653267 0.084976
0.752171 0.655371 0.084997
0.792808 0.661888 0.085045
0.820885 0.669729 0.085099
0.840536 0.674591 0.085144
0.852715 0.680091 0.085200
0.861751 0.687880 0.085288
0.868654 0.690814 0.085493
0.873681 0.696568 0.085806
0.876841 0.705627 0.086479
0.878940 0.713431 0.091750
0.068633 0.610451 0.084864
0.068633 0.610805 0.084864
0.068633 0.612197 0.084864
0.068633 0.614460 0.084864
0.068633 0.618339 0.084864
0.068633 0.625553 0.084864
0.068633 0.632236 0.084864
0.068635 0.641949 0.084864
0.068658 0.650084 0.084864
0.069135 0.658962 0.084864
0.070202 0.666599 0.084864
0.072566 0.673222 0.084864
0.077043 0.678369 0.084864
0.085267 0.682565 0.084864
0.096648 0.685683 0.084864
0.124292 0.688469 0.084864
0.176496 0.690569 0.084864
0.240055 0.692156 0.084866
0.330897 0.693877 0.084894
0.422706 0.692056 0.084912
0.510384 0.692821 0.084935
0.582912 0.696895 0.084966
0.675597 0.702318 0.084996
0.729906 0.703751 0.085031
0.777449 0.707949 0.085077
0.809513 0.713100 0.085130
0.833642 0.715833 0.085170
0.848676 0.720116 0.085232
0.859100 0.723823 0.085341
0.866756 0.727471 0.085529
0.872564 0.732316 0.085816
0.876318 0.736823 0.086334
0.878630 0.748461 0.089603
0.068633 0.657508 0.084864
0.068633 0.657758 0.084864
0.068633 0.658731 0.084864
0.068633 0.660834 0.084864
0.068633 0.664816 0.084864
0.068633 0.672050 0.084864
0.068633 0.680300 0.084864
0.068633 0.687570 0.084864
0.068655 0.695729 0.084864
0.069046 0.702326 0.084864
0.069922 0.707686 0.084864
0.071742 0.712202 0.084864
0.075105 0.715869 0.084864
0.082213 0.718851 0.084864
0.091262 0.721286 0.084864
0.110930 0.723089 0.084864
0.148306 0.724663 0.084864
0.209374 0.726083 0.084882
0.290410 0.727175 0.084907
0.383578 0.728672 0.084934
0.473330 0.728831 0.084956
0.552826 0.732278 0.084986
0.640063 0.736363 0.085029
0.706847 0.737469 0.085064
0.756500 0.740625 0.085108
0.796604 0.745076 0.085158
0.826036 0.747780 0.085199
0.843542 0.751991 0.085264
0.855922 0.755425 0.085397
0.864568 0.759105 0.085569
0.871366 0.762806 0.085836
0.875601 0.768597 0.086272
0.878339 0.775351 0.088355
0.068633 0.705166 0.084864
0.068633 0.705345 0.084864
0.068633 0.706033 0.084864
0.068633 0.707485 0.084864
0.068633 0.709945 0.084864
0.068633 0.713831 0.084864
0.068633 0.719625 0.084864
0.068633 0.723307 0.084864
0.068654 0.729600 0.084864
0.068953 0.733755 0.084864
0.069740 0.738898 0.084864
0.071381 0.743572 0.084864
0.073964 0.747166 0.084864
0.079835 0.750210 0.084864
0.088315 0.752686 0.084864
0.104514 0.754604 0.084864
0.133729 0.756026 0.084872
0.187392 0.757296 0.084899
0.254811 0.758620 0.084926
0.341375 0.759681 0.084950
0.438145 0.761097 0.084975
0.526153 0.763439 0.085009
0.597747 0.767030 0.085061
0.680305 0.768077 0.085095
0.735575 0.770272 0.085137
0.783501 0.773344 0.085187
0.815883 0.775248 0.085234
0.837199 0.777253 0.085313
0.852323 0.778561 0.085455
0.862231 0.780405 0.085610
0.869893 0.784790 0.085865
0.874898 0.789161 0.086252
0.878011 0.797048 0.087652
0.068633 0.739744 0.084864
0.068633 0.739895 0.084864
0.068633 0.740462 0.084864
0.068633 0.741627 0.084864
0.068633 0.743688 0.084864
0.068633 0.747161 0.084864
0.068633 0.752724 0.084864
0.068633 0.756129 0.084864
0.068652 0.760719 0.084864
0.068923 0.765201 0.084864
0.069653 0.769754 0.084864
0.071016 0.772763 0.084864
0.073416 0.775719 0.084864
0.078440 0.777329 0.084864
0.086431 0.778141 0.084864
0.099666 0.778844 0.084869
0.123404 0.779749 0.084896
0.171972 0.781016 0.084923
0.227515 0.782090 0.084949
0.312243 0.783336 0.084974
0.401421 0.784404 0.084998
0.498111 0.785757 0.085039
0.565125 0.788560 0.085089
0.652576 0.789665 0.085122
0.714967 0.791664 0.085164
0.764694 0.794840 0.085220
0.803831 0.797150 0.085266
0.830388 0.800035 0.085379
0.848459 0.803595 0.085512
0.859529 0.806539 0.085653
0.868312 0.810176 0.085898
0.874082 0.814198 0.086246
0.877640 0.821115 0.087509
0.068633 0.771470 0.084864
0.068633 0.771577 0.084864
0.068633 0.771976 0.084864
0.068633 0.772779 0.084864
0.068633 0.774162 0.084864
0.068633 0.776418 0.084864
0.068633 0.778086 0.084864
0.068633 0.779995 0.084864
0.068651 0.783594 0.084864
0.068912 0.788380 0.084864
0.069493 0.791846 0.084864
0.070777 0.795774 0.084864
0.073065 0.799403 0.084864
0.077268 0.802030 0.084864
0.084662 0.804358 0.084864
0.094118 0.806295 0.084891
0.113495 0.807800 0.084919
0.151115 0.809016 0.084946
0.209447 0.810041 0.084971
0.286518 0.810935 0.084996
0.372106 0.812011 0.085035
0.463220 0.813064 0.085076
0.540196 0.814314 0.085116
0.612628 0.815263 0.085147
0.687453 0.816785 0.085188
0.744769 0.819195 0.085251
0.791174 0.821303 0.085315
0.822155 0.823321 0.085438
0.843672 0.825870 0.085567
0.856551 0.828252 0.085705
0.866555 0.831025 0.085931
0.873137 0.834580 0.086250
0.877317 0.839477 0.087394
0.068633 0.795017 0.084864
0.068633 0.795124 0.084864
0.068633 0.795521 0.084864
0.068633 0.796313 0.084864
0.068633 0.797658 0.084864
0.068633 0.799817 0.084864
0.068633 0.803227 0.084864
0.068633 0.807258 0.084864
0.068648 0.809859 0.084864
0.068818 0.813767 0.084864
0.069280 0.816773 0.084864
0.070411 0.820274 0.084864
0.072274 0.822685 0.084864
0.075702 0.824944 0.084864
0.082438 0.826842 0.084874
0.090089 0.828261 0.084901
0.107173 0.829506 0.084929
0.137271 0.830553 0.084955
0.189737 0.831466 0.084981
0.253245 0.832276 0.085010
0.336385 0.833068 0.085051
0.426053 0.833947 0.085091
0.509585 0.834978 0.085130
0.576743 0.836163 0.085169
0.667258 0.837120 0.085215
0.725218 0.838812 0.085279
0.776832 0.840630 0.085370
0.811787 0.842328 0.085490
0.837478 0.844715 0.085611
0.853357 0.846927 0.085764
0.864582 0.849000 0.085966
0.872155 0.851334 0.086247
0.876950 0.854867 0.087264
0.068633 0.820165 0.084864
0.068633 0.820259 0.084864
0.068633 0.820606 0.084864
0.068633 0.821287 0.084864
0.068633 0.822285 0.084864
0.068633 0.823775 0.084864
0.068633 0.826052 0.084864
0.068633 0.829531 0.084864
0.068645 0.831471 0.084864
0.068719 0.834248 0.084864
0.069191 0.837234 0.084864
0.070063 0.839631 0.084864
0.071761 0.842119 0.084864
0.074521 0.844337 0.084864
0.080046 0.846069 0.084887
0.087883 0.847341 0.084915
0.102196 0.848331 0.084942
0.127056 0.849110 0.084969
0.174603 0.849778 0.084994
0.227859 0.850382 0.085033
0.307501 0.850959 0.085074
0.392503 0.851566 0.085113
0.478061 0.852207 0.085151
0.552132 0.853053 0.085189
0.633258 0.854000 0.085239
0.702763 0.854784 0.085328
0.757775 0.856008 0.085416
0.799718 0.856808 0.085531
0.830795 0.858169 0.085649
0.849880 0.859504 0.085802
0.862443 0.861142 0.085997
0.871101 0.862862 0.086246
0.876555 0.865462 0.087149
0.068633 0.840167 0.084864
0.068633 0.840246 0.084864
0.068633 0.840537 0.084864
0.068633 0.841099 0.084864
0.068633 0.842012 0.084864
0.068633 0.843399 0.084864
0.068633 0.845459 0.084864
0.068633 0.848018 0.084864
0.068643 0.849903 0.084864
0.068671 0.851757 0.084864
0.069141 0.854265 0.084864
0.069866 0.855502 0.084864
0.071477 0.857104 0.084864
0.073654 0.858221 0.084872
0.078622 0.859383 0.084902
0.086128 0.860308 0.084930
0.095965 0.861056 0.084957
0.116105 0.861669 0.084983
0.152939 0.862159 0.085015
0.209669 0.862608 0.085058
0.282832 0.863026 0.085099
0.363813 0.863461 0.085138
0.454215 0.863916 0.085176
0.530074 0.864419 0.085220
0.597228 0.865107 0.085270
0.680671 0.865871 0.085366
0.738870 0.867230 0.085450
0.787496 0.867852 0.085565
0.822836 0.869069 0.085674
0.845966 0.870260 0.085832
0.860034 0.871758 0.086012
0.869955 0.873435 0.086241
0.876277 0.875523 0.087054
0.068633 0.858473 0.084864
0.068633 0.858512 0.084864
0.068633 0.858653 0.084864
0.068633 0.858924 0.084864
0.068633 0.859359 0.084864
0.068633 0.860012 0.084864
0.068633 0.860975 0.084864
0.068633 0.862401 0.084864
0.068637 0.863942 0.084864
0.068653 0.865101 0.084864
0.068935 0.866659 0.084864
0.069556 0.868032 0.084864
0.070742 0.869252 0.084864
0.072846 0.870397 0.084873
0.076740 0.871358 0.084902
0.083327 0.872166 0.084930
0.091608 0.872888 0.084958
0.109010 0.873443 0.084984
0.139095 0.873867 0.085017
0.190129 0.874251 0.085059
0.250907 0.874626 0.085100
0.330699 0.874981 0.085139
0.417582 0.875273 0.085177
0.502166 0.875608 0.085221
