LUTs/ektachrome100d/Ektachrome100D_Modern_Soft.cube
TITLE "Kodak Ektachrome 100D Modern Soft"
# Adobe RGB in/out. REPLACES AgX. Kodak Ektachrome 100D Modern Soft.
LUT_3D_SIZE 33
DOMAIN_MIN 0.0 0.0 0.0
DOMAIN_MAX 1.0 1.0 1.0
0.070871 0.073418 0.089582
0.070871 0.073418 0.089582
0.070871 0.073418 0.089582
0.070876 0.073418 0.089582
0.079374 0.073418 0.089582
0.093379 0.073418 0.089582
0.183440 0.073418 0.089582
0.426180 0.073425 0.089582
0.540307 0.073464 0.089582
0.657914 0.073577 0.089582
0.781196 0.074004 0.089582
0.829483 0.074620 0.089582
0.857783 0.075149 0.089582
0.876336 0.075881 0.089582
0.894749 0.077504 0.089582
0.906085 0.079185 0.089582
0.914243 0.080932 0.089582
0.920380 0.083888 0.089582
0.925573 0.087074 0.089611
0.929896 0.088363 0.089640
0.933186 0.089739 0.089672
0.935631 0.092013 0.089736
0.937527 0.094187 0.089806
0.939096 0.093630 0.089901
0.939799 0.093327 0.090124
0.940274 0.092089 0.090502
0.941108 0.087137 0.091866
0.941022 0.084125 0.100178
0.941883 0.074279 0.679718
0.940832 0.074193 0.667849
0.939785 0.074112 0.655397
0.938740 0.074032 0.643196
0.937925 0.317608 0.873279
0.070871 0.073418 0.089582
0.070871 0.073418 0.089582
0.070871 0.073418 0.089582
0.070891 0.073418 0.089582
0.080655 0.073418 0.089582
0.093581 0.073418 0.089582
0.183211 0.073418 0.089582
0.411240 0.073430 0.089582
0.523944 0.073477 0.089582
0.645663 0.073594 0.089582
0.773976 0.074071 0.089582
0.824582 0.074677 0.089582
0.855897 0.075213 0.089582
0.874645 0.075938 0.089582
0.893483 0.077690 0.089582
0.905190 0.079355 0.089582
0.913502 0.081223 0.089582
0.919872 0.084113 0.089582
0.925157 0.087292 0.089610
0.929551 0.088572 0.089640
0.932897 0.089975 0.089672
0.935388 0.092394 0.089735
0.937355 0.094568 0.089804
0.938978 0.094008 0.089897
0.939697 0.093701 0.090119
0.940185 0.092461 0.090488
0.941031 0.087332 0.091808
0.940954 0.084312 0.099718
0.941826 0.074274 0.679122
0.940780 0.074189 0.667226
0.939737 0.074108 0.654836
0.938696 0.074028 0.642690
0.937875 0.317218 0.873097
0.070871 0.073418 0.089582
0.070871 0.073418 0.089582
0.070871 0.073418 0.089582
0.070871 0.073418 0.089582
0.073508 0.073418 0.089582
0.087570 0.073418 0.089582
0.163793 0.073418 0.089582
0.368832 0.073474 0.089582
0.479499 0.073535 0.089582
0.607335 0.073677 0.089582
0.749676 0.074339 0.089582
0.807541 0.074918 0.089582
0.847720 0.075462 0.089582
0.868566 0.076156 0.089582
0.888763 0.078391 0.089582
0.901373 0.079995 0.089582
0.910806 0.082311 0.089582
0.918025 0.084950 0.089582
0.923650 0.088100 0.089608
0.928299 0.089345 0.089638
0.931854 0.090868 0.089670
0.934515 0.093800 0.089732
0.936739 0.096046 0.089800
0.938540 0.095397 0.089883
0.939331 0.095075 0.090101
0.939867 0.093824 0.090446
0.940752 0.088046 0.091609
0.940711 0.085000 0.098128
0.941623 0.074259 0.676999
0.940595 0.074175 0.665008
0.939567 0.074095 0.652837
0.938526 0.074016 0.640884
0.937698 0.315819 0.872450
0.070871 0.073418 0.089582
0.070871 0.073418 0.089582
0.070871 0.073418 0.089582
0.070871 0.073418 0.089582
0.070882 0.073418 0.089582
0.073420 0.073418 0.089582
0.097585 0.073431 0.089582
0.229583 0.073576 0.089582
0.386530 0.073664 0.089582
0.548959 0.073892 0.089582
0.704152 0.074935 0.089582
0.776339 0.075556 0.089582
0.821499 0.075989 0.089582
0.857666 0.076898 0.089582
0.879183 0.079826 0.089582
0.894118 0.082083 0.089582
0.905695 0.084139 0.089582
0.914464 0.086608 0.089582
0.920808 0.089748 0.089605
0.925947 0.091286 0.089634
0.929904 0.093642 0.089666
0.932891 0.096714 0.089725
0.935505 0.099701 0.089793
0.937572 0.098826 0.089865
0.938657 0.098308 0.090071
0.939283 0.096618 0.090390
0.940242 0.089435 0.091277
0.940266 0.086327 0.095542
0.941255 0.074232 0.673083
0.940257 0.074149 0.660995
0.939257 0.074071 0.649215
0.938176 0.073995 0.637609
0.937375 0.312833 0.871273
0.070871 0.073591 0.089582
0.070871 0.073592 0.089582
0.070871 0.073592 0.089582
0.070871 0.073547 0.089582
0.070871 0.073483 0.089582
0.071036 0.073434 0.089582
0.077169 0.073551 0.089582
0.117905 0.073852 0.089582
0.216123 0.074049 0.089582
0.417222 0.074586 0.089582
0.613784 0.075761 0.089582
0.716500 0.076280 0.089582
0.785143 0.077161 0.089582
0.833427 0.079390 0.089582
0.864552 0.083810 0.089582
0.881900 0.085549 0.089582
0.896269 0.087164 0.089582
0.907846 0.089409 0.089582
0.916340 0.094143 0.089601
0.922273 0.096198 0.089630
0.926887 0.099079 0.089662
0.930401 0.103367 0.089716
0.933427 0.106761 0.089783
0.936110 0.105675 0.089850
0.937426 0.104983 0.090028
0.938366 0.102862 0.090315
0.939481 0.092799 0.090851
0.939606 0.088474 0.093781
0.940715 0.074192 0.666637
0.939763 0.074111 0.655150
0.938802 0.074036 0.643930
0.937661 0.073970 0.632778
0.936900 0.308130 0.869543
0.070871 0.074876 0.089582
0.070871 0.074836 0.089582
0.070871 0.074837 0.089582
0.070871 0.074582 0.089582
0.070871 0.074060 0.089582
0.070880 0.073774 0.089582
0.072418 0.073939 0.089582
0.086358 0.074905 0.089582
0.120676 0.074997 0.089582
0.241044 0.075568 0.089582
0.481566 0.077029 0.089582
0.622053 0.078719 0.089582
0.724819 0.080001 0.089582
0.794780 0.083162 0.089582
0.847620 0.087294 0.089582
0.866743 0.089244 0.089582
0.882870 0.091836 0.089582
0.896885 0.097163 0.089582
0.908729 0.105464 0.089598
0.916879 0.107742 0.089626
0.922523 0.110553 0.089657
0.926858 0.116344 0.089706
0.930511 0.120612 0.089772
0.933689 0.118874 0.089832
0.935651 0.117669 0.089979
0.936905 0.114471 0.090228
0.938417 0.100652 0.090551
0.938717 0.092987 0.092364
0.940007 0.074141 0.658295
0.939112 0.074061 0.647545
0.938113 0.073990 0.637035
0.937416 0.312966 0.625865
0.936273 0.302020 0.867264
0.070871 0.082600 0.089582
0.070871 0.082829 0.089582
0.070871 0.082548 0.089582
0.070871 0.080411 0.089582
0.070871 0.078172 0.089582
0.070880 0.076394 0.089582
0.071602 0.075889 0.089582
0.076915 0.076364 0.089582
0.089981 0.076289 0.089582
0.140474 0.077194 0.089582
0.322828 0.081049 0.089582
0.501762 0.083506 0.089582
0.623859 0.084795 0.089582
0.737778 0.087452 0.089582
0.808267 0.092864 0.089582
0.849670 0.097128 0.089582
0.867657 0.100645 0.089582
0.884762 0.107628 0.089582
0.899045 0.120805 0.089595
0.909297 0.126039 0.089622
0.916574 0.131994 0.089652
0.921858 0.145895 0.089696
0.926490 0.152626 0.089760
0.930404 0.148266 0.089813
0.932943 0.144462 0.089927
0.934785 0.136999 0.090140
0.936776 0.119177 0.090400
0.937347 0.105850 0.091577
0.939141 0.074084 0.648307
0.938249 0.074001 0.638335
0.937208 0.073934 0.628176
0.936580 0.304976 0.617447
0.935387 0.291960 0.864456
0.070871 0.109249 0.089582
0.070871 0.109746 0.089582
0.070871 0.111875 0.089582
0.070871 0.104393 0.089582
0.070871 0.096243 0.089582
0.070886 0.090498 0.089582
0.071653 0.087454 0.089582
0.074778 0.085143 0.089582
0.080458 0.080822 0.089582
0.100349 0.082296 0.089582
0.186843 0.087318 0.089582
0.355771 0.088919 0.089582
0.506008 0.089974 0.089582
0.643049 0.094126 0.089582
0.757880 0.104964 0.089582
0.811137 0.109998 0.089582
0.850960 0.116497 0.089582
0.868964 0.127243 0.089582
0.886325 0.149869 0.089593
0.899769 0.156072 0.089620
0.909777 0.164574 0.089649
0.916768 0.176182 0.089689
0.921910 0.194429 0.089750
0.926290 0.201660 0.089800
0.929296 0.212889 0.089880
0.931788 0.201658 0.090080
0.934362 0.168942 0.090311
0.935475 0.141186 0.090943
0.938024 0.074046 0.637263
0.937102 0.073932 0.627201
0.936148 0.073884 0.617506
0.935504 0.293430 0.609555
0.934297 0.278573 0.861159
0.070871 0.149964 0.089582
0.070871 0.151142 0.089582
0.070871 0.148577 0.089582
0.070871 0.132985 0.089582
0.070871 0.123981 0.089582
0.070874 0.111840 0.089582
0.071207 0.102840 0.089582
0.072814 0.095759 0.089582
0.077234 0.091723 0.089582
0.087589 0.089726 0.089582
0.130518 0.097015 0.089582
0.225365 0.100360 0.089582
0.378267 0.102277 0.089582
0.544643 0.109025 0.089582
0.683697 0.125639 0.089582
0.762950 0.131153 0.089582
0.813752 0.141717 0.089582
0.853237 0.161957 0.089582
0.871988 0.185837 0.089593
0.887426 0.201364 0.089619
0.899647 0.224898 0.089648
0.909678 0.238769 0.089685
0.916883 0.254080 0.089744
0.922192 0.256884 0.089791
0.925895 0.264291 0.089860
0.928638 0.275229 0.090035
0.931384 0.262213 0.090250
0.932759 0.254836 0.090674
0.936653 0.075017 0.631329
0.935761 0.073896 0.614986
0.934730 0.073848 0.608583
0.934172 0.277082 0.603923
0.933058 0.264877 0.857425
0.070871 0.264722 0.089582
0.070871 0.261304 0.089582
0.070871 0.247864 0.089582
0.070871 0.233806 0.089582
0.070871 0.208088 0.089582
0.070873 0.178912 0.089582
0.071083 0.160187 0.089582
0.072192 0.135705 0.089582
0.075555 0.124666 0.089582
0.083015 0.115987 0.089582
0.104806 0.125757 0.089582
0.164078 0.124827 0.089582
0.261630 0.125708 0.089582
0.426326 0.132863 0.089582
0.589088 0.165937 0.089582
0.698577 0.173761 0.089582
0.768977 0.183259 0.089582
0.820641 0.211145 0.089582
0.856949 0.251957 0.089596
0.873352 0.266208 0.089620
0.888832 0.285020 0.089647
0.900761 0.313766 0.089682
0.909889 0.335581 0.089739
0.917001 0.340697 0.089784
0.921732 0.343219 0.089846
0.925217 0.348445 0.089995
0.928532 0.334062 0.090176
0.930322 0.325463 0.090489
0.931985 0.303729 0.091606
0.932734 0.266900 0.095332
0.933308 0.172887 0.485965
0.932707 0.261939 0.602923
0.931692 0.253619 0.855206
0.070871 0.467407 0.089582
0.070871 0.462950 0.089582
0.070871 0.450613 0.089582
0.070871 0.439915 0.089582
0.070871 0.413008 0.089582
0.070879 0.378715 0.089582
0.071183 0.342546 0.089582
0.072389 0.310614 0.089582
0.075648 0.266316 0.089582
0.082684 0.236655 0.089582
0.095824 0.211350 0.089582
0.124705 0.184125 0.089582
0.183299 0.171026 0.089582
0.316627 0.183793 0.089582
0.497555 0.233271 0.089582
0.605513 0.243037 0.089582
0.708059 0.252716 0.089582
0.781536 0.283259 0.089582
0.832025 0.328227 0.089599
0.859080 0.337578 0.089622
0.875351 0.357400 0.089649
0.890013 0.385745 0.089683
0.902005 0.407103 0.089737
0.911041 0.415287 0.089780
0.916957 0.431635 0.089837
0.920981 0.450710 0.089963
0.925125 0.433691 0.090122
0.927501 0.417095 0.090384
0.929569 0.387132 0.091079
0.930649 0.352057 0.093197
0.931539 0.204778 0.218026
0.931132 0.249309 0.616366
0.930219 0.242699 0.620568
0.070871 0.560230 0.089582
0.070871 0.557521 0.089582
0.070871 0.549554 0.089582
0.070871 0.542362 0.089582
0.070871 0.528717 0.089582
0.070878 0.506645 0.089582
0.071112 0.479462 0.089582
0.072029 0.447772 0.089582
0.074596 0.409091 0.089582
0.079487 0.373196 0.089582
0.089359 0.340247 0.089582
0.108381 0.318322 0.089582
0.152441 0.271518 0.089582
0.225961 0.266297 0.089582
0.397920 0.321090 0.089582
0.526711 0.326808 0.089582
0.628269 0.334339 0.089582
0.731042 0.361402 0.089582
0.796968 0.405996 0.089603
0.838374 0.415721 0.089626
0.861590 0.438014 0.089652
0.877965 0.458954 0.089685
0.892157 0.483007 0.089738
0.903361 0.494753 0.089779
0.911453 0.502031 0.089832
0.916972 0.514602 0.089943
0.921504 0.515054 0.090089
0.924251 0.519982 0.090312
0.926734 0.506682 0.090728
0.928287 0.471025 0.092018
0.929563 0.308914 0.112433
0.929476 0.237451 0.606997
0.928663 0.231840 0.618522
0.070871 0.622951 0.089582
0.070871 0.620515 0.089582
0.070871 0.613067 0.089582
0.070871 0.604843 0.089582
0.070871 0.594515 0.089582
0.070876 0.580831 0.089582
0.070999 0.562983 0.089582
0.071736 0.543293 0.089582
0.073498 0.522111 0.089582
0.077326 0.490105 0.089582
0.085043 0.460942 0.089582
0.097997 0.432244 0.089582
0.126574 0.405258 0.089582
0.183343 0.389166 0.089582
0.306061 0.411333 0.089582
0.441465 0.416948 0.089582
0.559556 0.423809 0.089582
0.662811 0.448567 0.089582
0.755291 0.484829 0.089611
0.805393 0.491188 0.089631
0.845651 0.506378 0.089655
0.865222 0.527829 0.089690
0.880943 0.545977 0.089742
0.894698 0.550042 0.089779
0.904813 0.560470 0.089830
0.911592 0.574549 0.089934
0.917672 0.570846 0.090066
0.921114 0.570509 0.090259
0.923961 0.569027 0.090566
0.925725 0.566737 0.091734
0.926907 0.569355 0.094411
0.927766 0.226040 0.595100
0.927050 0.220218 0.620622
0.070871 0.693456 0.089582
0.070871 0.691810 0.089582
0.070871 0.686625 0.089582
0.070871 0.680156 0.089582
0.070871 0.675107 0.089582
0.070878 0.664368 0.089582
0.070984 0.651697 0.089582
0.071644 0.632531 0.089582
0.073151 0.612245 0.089582
0.076302 0.590577 0.089582
0.082581 0.569645 0.089582
0.092380 0.550276 0.089582
0.114329 0.532649 0.089582
0.164149 0.514526 0.089582
0.252163 0.528286 0.089582
0.359408 0.507075 0.089582
0.477825 0.506084 0.089582
0.593580 0.524607 0.089582
0.705055 0.549121 0.089618
0.769330 0.553231 0.089638
0.815868 0.562052 0.089661
0.852781 0.577379 0.089697
0.869514 0.593697 0.089746
0.884634 0.601070 0.089783
0.896559 0.612837 0.089832
0.905970 0.623287 0.089928
0.913246 0.627150 0.090052
0.917443 0.635007 0.090220
0.921005 0.630011 0.090463
0.923263 0.623412 0.091305
0.924788 0.619969 0.093125
0.925448 0.625664 0.113158
0.925464 0.663960 0.623076
0.070871 0.765921 0.089582
0.070871 0.764713 0.089582
0.070871 0.760827 0.089582
0.070871 0.755592 0.089582
0.070871 0.752767 0.089582
0.070882 0.743603 0.089582
0.071067 0.734959 0.089582
0.071727 0.723975 0.089582
0.073182 0.709687 0.089582
0.076221 0.693673 0.089582
0.082203 0.677315 0.089582
0.091265 0.660995 0.089582
0.109135 0.644698 0.089582
0.153761 0.624632 0.089582
0.207411 0.609110 0.089582
0.303938 0.589859 0.089582
0.411811 0.573682 0.089582
0.533209 0.580434 0.089590
0.639797 0.604061 0.089627
0.724432 0.606839 0.089645
0.786206 0.615189 0.089667
0.828868 0.630332 0.089707
0.858018 0.647852 0.089753
0.873720 0.654693 0.089788
0.887983 0.661913 0.089835
0.898673 0.673282 0.089930
0.908007 0.676589 0.090046
0.913792 0.679299 0.090197
0.917906 0.682874 0.090415
0.920518 0.686841 0.090987
0.922500 0.681679 0.092257
0.923491 0.677223 0.098885
0.923785 0.668638 0.589660
0.070871 0.792136 0.089582
0.070871 0.791560 0.089582
0.070871 0.789671 0.089582
0.070871 0.786964 0.089582
0.070871 0.784918 0.089582
0.070882 0.781371 0.089582
0.071057 0.777940 0.089582
0.071586 0.771584 0.089582
0.072813 0.760477 0.089582
0.075434 0.748603 0.089582
0.079823 0.735327 0.089582
0.087754 0.721866 0.089582
0.101335 0.706665 0.089582
0.129365 0.691932 0.089582
0.182112 0.678957 0.089582
0.260004 0.667714 0.089582
0.358149 0.653055 0.089588
0.469778 0.648314 0.089606
0.585813 0.660848 0.089637
0.672782 0.662357 0.089654
0.747895 0.667259 0.089674
0.801227 0.678051 0.089718
0.842707 0.689463 0.089763
0.862946 0.695067 0.089795
0.878155 0.703313 0.089842
0.891079 0.714832 0.089938
0.902154 0.718145 0.090045
0.909075 0.724606 0.090185
0.914697 0.727077 0.090383
0.917939 0.727304 0.090762
0.920177 0.731037 0.091938
0.921368 0.740259 0.094869
0.922031 0.710796 0.369985
0.070871 0.813072 0.089582
0.070871 0.812496 0.089582
0.070871 0.810583 0.089582
0.070871 0.807720 0.089582
0.070871 0.805134 0.089582
0.070883 0.802628 0.089582
0.070991 0.797692 0.089582
0.071440 0.795523 0.089582
0.072479 0.791199 0.089582
0.074663 0.785160 0.089582
0.078137 0.778552 0.089582
0.085006 0.771343 0.089582
0.095002 0.758786 0.089582
0.115958 0.746518 0.089582
0.161510 0.735002 0.089586
0.212534 0.724786 0.089598
0.311259 0.714952 0.089611
0.420689 0.708831 0.089627
0.538753 0.713376 0.089652
0.613948 0.706793 0.089663
0.705540 0.711294 0.089688
0.770762 0.721080 0.089730
0.817360 0.730390 0.089773
0.852438 0.734450 0.089803
0.868174 0.741682 0.089851
0.882599 0.750178 0.089951
0.895271 0.754904 0.090051
0.904214 0.759655 0.090180
0.910773 0.763883 0.090363
0.915099 0.768549 0.090651
0.917867 0.770018 0.091646
0.919419 0.772901 0.093640
0.920145 0.782018 0.121970
0.070871 0.841749 0.089582
0.070871 0.841329 0.089582
0.070871 0.839918 0.089582
0.070871 0.837409 0.089582
0.070871 0.834826 0.089582
0.070885 0.833740 0.089582
0.070991 0.828433 0.089582
0.071436 0.824672 0.089582
0.072341 0.819106 0.089582
0.074222 0.812657 0.089582
0.077322 0.805894 0.089582
0.083261 0.798607 0.089582
0.091783 0.795090 0.089589
0.107279 0.788613 0.089599
0.140806 0.782314 0.089611
0.185930 0.776341 0.089623
0.274599 0.770249 0.089634
0.372862 0.761985 0.089647
0.490966 0.764667 0.089671
0.577431 0.754782 0.089681
0.652809 0.750365 0.089703
0.736985 0.758015 0.089743
0.792581 0.766683 0.089785
0.832209 0.770194 0.089814
0.858423 0.774887 0.089862
0.873742 0.779289 0.089968
0.888118 0.781969 0.090062
0.898357 0.784715 0.090183
0.906547 0.788326 0.090354
0.911907 0.789299 0.090593
0.915537 0.792046 0.091414
0.917364 0.795741 0.092884
0.918413 0.798062 0.103939
0.070871 0.864849 0.089582
0.070871 0.864613 0.089582
0.070871 0.863816 0.089582
0.070871 0.862558 0.089582
0.070874 0.861208 0.089582
0.070888 0.860496 0.089582
0.071048 0.858387 0.089582
0.071484 0.856407 0.089582
0.072311 0.852172 0.089582
0.074166 0.847890 0.089582
0.077121 0.842744 0.089595
0.082648 0.836665 0.089608
0.090369 0.829414 0.089620
0.104377 0.822101 0.089632
0.131867 0.814797 0.089642
0.182170 0.808038 0.089654
0.249153 0.801658 0.089665
0.348393 0.796721 0.089677
0.450920 0.794999 0.089699
0.538465 0.789358 0.089710
0.610192 0.785652 0.089728
0.698767 0.784819 0.089757
0.762908 0.789182 0.089797
0.808803 0.790881 0.089829
0.846887 0.794205 0.089877
0.864754 0.796380 0.089990
0.880238 0.797534 0.090076
0.892224 0.801387 0.090194
0.902005 0.804476 0.090349
0.908458 0.807249 0.090562
0.912880 0.810798 0.091250
0.915463 0.813774 0.092359
0.916695 0.822677 0.097929
0.070871 0.876256 0.089582
0.070871 0.876090 0.089582
0.070871 0.875526 0.089582
0.070871 0.874612 0.089582
0.070874 0.873565 0.089582
0.070886 0.872815 0.089582
0.071020 0.871768 0.089582
0.071345 0.869895 0.089582
0.072096 0.867821 0.089582
0.073576 0.865267 0.089593
0.076026 0.861967 0.089606
0.080282 0.858548 0.089619
0.087317 0.854096 0.089631
0.098469 0.848366 0.089643
0.119419 0.842623 0.089654
0.163441 0.836412 0.089665
0.208969 0.830104 0.089678
0.297716 0.824347 0.089698
0.399501 0.818981 0.089716
0.498045 0.814626 0.089737
0.580676 0.809694 0.089754
0.656568 0.808185 0.089781
0.732795 0.807684 0.089810
0.786422 0.808850 0.089843
0.826206 0.812215 0.089905
0.855979 0.816546 0.090012
0.872092 0.819180 0.090092
0.885499 0.823012 0.090209
0.896867 0.826207 0.090352
0.904875 0.829400 0.090543
0.910135 0.832364 0.091118
0.913249 0.837091 0.091976
0.915059 0.843113 0.095093
0.070871 0.886484 0.089582
0.070871 0.886341 0.089582
0.070871 0.885850 0.089582
0.070871 0.885041 0.089582
0.070874 0.884074 0.089582
0.070885 0.883268 0.089582
0.071008 0.882772 0.089582
0.071293 0.880898 0.089582
0.072010 0.879797 0.089591
0.073123 0.877509 0.089604
0.075426 0.875478 0.089618
0.078970 0.873176 0.089631
0.085241 0.870437 0.089644
0.093244 0.866895 0.089655
0.109699 0.863295 0.089667
0.142043 0.859686 0.089681
0.183475 0.855926 0.089700
0.260811 0.850951 0.089719
0.355510 0.846537 0.089739
0.455019 0.842411 0.089758
0.544654 0.838972 0.089778
0.618407 0.836441 0.089804
0.703421 0.835586 0.089839
0.758833 0.832689 0.089861
0.805019 0.834329 0.089932
0.843978 0.838291 0.090036
0.863852 0.840560 0.090111
0.878470 0.843329 0.090225
0.891505 0.846367 0.090360
0.900694 0.848621 0.090529
0.907287 0.851899 0.091024
0.911031 0.854962 0.091936
0.913204 0.859379 0.094113
0.070871 0.894454 0.089582
0.070871 0.894376 0.089582
0.070871 0.894094 0.089582
0.070871 0.893625 0.089582
0.070875 0.893050 0.089582
0.070885 0.892533 0.089582
0.070998 0.892352 0.089582
0.071273 0.891319 0.089590
0.071867 0.890433 0.089605
0.072928 0.889202 0.089619
0.075048 0.887494 0.089633
0.077834 0.885220 0.089646
0.083419 0.882898 0.089659
0.090918 0.880357 0.089671
0.104325 0.877656 0.089688
0.129686 0.874968 0.089709
0.175376 0.872259 0.089729
0.229888 0.869518 0.089748
0.320048 0.866421 0.089766
0.415644 0.863726 0.089786
0.503149 0.861224 0.089804
0.588292 0.859168 0.089829
0.666743 0.858211 0.089865
0.735309 0.856510 0.089900
0.785777 0.855083 0.089966
0.824659 0.856537 0.090058
0.855881 0.857930 0.090129
0.871278 0.859566 0.090245
0.885588 0.861489 0.090370
0.896325 0.863010 0.090525
0.904366 0.865007 0.090950
0.908829 0.867125 0.091799
0.911370 0.870785 0.093515
0.070871 0.904615 0.089582
0.070871 0.904494 0.089582
0.070871 0.904075 0.089582
0.070871 0.903371 0.089582
0.070875 0.902487 0.089582
0.070884 0.901636 0.089582
0.070953 0.901185 0.089590
0.071250 0.900117 0.089604
0.071743 0.898491 0.089616
0.072775 0.897237 0.089632
0.074455 0.895652 0.089645
0.077151 0.894543 0.089659
0.082158 0.893208 0.089673
0.088649 0.891546 0.089692
0.099988 0.889834 0.089713
0.120646 0.887401 0.089733
0.162776 0.884870 0.089754
0.203475 0.882370 0.089773
0.287916 0.879970 0.089792
0.378343 0.877711 0.089811
0.471617 0.875756 0.089837
0.559919 0.873994 0.089862
0.629853 0.872529 0.089907
0.706383 0.871091 0.089947
0.762914 0.870096 0.090010
0.806619 0.869611 0.090089
0.844969 0.869796 0.090146
0.863883 0.870999 0.090261
0.879497 0.872399 0.090382
0.891845 0.873627 0.090527
0.901015 0.875005 0.090886
0.906632 0.876755 0.091661
0.909672 0.879199 0.093053
0.070871 0.913043 0.089582
0.070871 0.912985 0.089582
0.070871 0.912782 0.089582
0.070871 0.912436 0.089582
0.070872 0.911987 0.089582
0.070881 0.911521 0.089582
0.070895 0.911185 0.089592
0.071177 0.910867 0.089607
0.071533 0.909753 0.089619
0.072360 0.908759 0.089635
0.073706 0.906800 0.089648
0.076188 0.904998 0.089663
0.079697 0.902562 0.089675
0.086136 0.900146 0.089699
0.094850 0.897511 0.089722
0.111557 0.895454 0.089741
0.140651 0.893901 0.089762
0.183332 0.892266 0.089782
0.250829 0.890689 0.089801
0.343272 0.888997 0.089824
0.433050 0.886981 0.089849
0.518666 0.885203 0.089876
0.595355 0.883694 0.089931
0.674222 0.882447 0.089986
0.740806 0.881223 0.090048
0.790125 0.880578 0.090124
0.828815 0.880136 0.090179
0.856592 0.880018 0.090274
0.873097 0.881272 0.090387
0.886977 0.882456 0.090533
0.897595 0.883757 0.090836
0.904410 0.885178 0.091519
0.908035 0.887580 0.092672
0.070871 0.918137 0.089582
0.070871 0.918089 0.089582
0.070871 0.917919 0.089582
0.070871 0.917627 0.089582
0.070871 0.917244 0.089582
0.070878 0.916835 0.089583
0.070889 0.916512 0.089595
0.071116 0.916455 0.089613
0.071366 0.915613 0.089623
0.072028 0.914948 0.089637
0.073241 0.914246 0.089653
0.075295 0.913229 0.089666
0.078356 0.912194 0.089684
0.084115 0.911033 0.089709
0.090947 0.909397 0.089730
0.103841 0.906839 0.089752
0.127846 0.904173 0.089774
0.172019 0.901450 0.089794
0.219760 0.898787 0.089815
0.302807 0.896305 0.089841
0.397110 0.895058 0.089866
0.479674 0.893881 0.089913
0.567745 0.892771 0.089966
0.636976 0.891876 0.090021
0.711165 0.891135 0.090076
0.769232 0.890498 0.090153
0.812740 0.890245 0.090212
0.849082 0.889794 0.090298
0.866471 0.889822 0.090389
0.881756 0.890531 0.090520
0.894144 0.891394 0.090788
0.901954 0.892265 0.091390
0.906469 0.893655 0.092325
0.070871 0.922784 0.089582
0.070871 0.922749 0.089582
0.070871 0.922624 0.089582
0.070871 0.922409 0.089582
0.070871 0.922100 0.089582
0.070874 0.921752 0.089587
0.070885 0.921462 0.089598
0.070997 0.921369 0.089615
0.071284 0.920877 0.089628
0.071802 0.920228 0.089641
0.072950 0.919816 0.089658
0.074567 0.918818 0.089670
0.077431 0.917990 0.089694
0.081810 0.916829 0.089716
0.088509 0.915691 0.089741
0.099423 0.914424 0.089763
0.118202 0.913086 0.089785
0.157968 0.911718 0.089806
0.193351 0.910252 0.089832
0.272843 0.908163 0.089858
0.358788 0.905816 0.089899
0.453022 0.903660 0.089954
0.536987 0.901700 0.090006
0.604003 0.899966 0.090058
0.684590 0.898606 0.090114
0.747358 0.897485 0.090177
0.796557 0.897181 0.090231
0.835051 0.896267 0.090316
0.860521 0.896154 0.090399
0.876402 0.896079 0.090505
0.890556 0.897015 0.090728
0.899521 0.898452 0.091258
0.905083 0.900586 0.092022
0.070871 0.928086 0.089582
0.070871 0.928052 0.089582
0.070871 0.927931 0.089582
0.070871 0.927720 0.089582
0.070871 0.927430 0.089582
0.070871 0.927092 0.089582
0.070875 0.926765 0.089587
0.070890 0.926545 0.089604
0.071121 0.926253 0.089621
0.071429 0.925630 0.089633
0.072176 0.925132 0.089649
0.073537 0.924457 0.089664
0.075803 0.923641 0.089682
0.079291 0.922752 0.089708
0.085476 0.921678 0.089733
0.092829 0.920465 0.089755
0.107531 0.919224 0.089779
0.134812 0.917921 0.089801
0.178957 0.916592 0.089825
0.232925 0.915304 0.089852
0.318309 0.914082 0.089887
0.408898 0.912944 0.089942
0.498680 0.911911 0.089997
0.578493 0.910997 0.090049
