LUTs/ektachrome100d/Ektachrome100D_Modern_ExtraPunchy.cube
TITLE "Kodak Ektachrome 100D Modern ExtraPunchy"
# Adobe RGB in/out. REPLACES AgX. Kodak Ektachrome 100D Modern ExtraPunchy.
LUT_3D_SIZE 5
DOMAIN_MIN 0.0 0.0 0.0
DOMAIN_MAX 1.0 1.0 1.0
0.069243 0.072709 0.079439
0.570097 0.072742 0.079439
0.982293 0.078087 0.079439
0.988672 0.088418 0.078770
0.988131 0.297668 0.957815
0.069243 0.144977 0.079439
0.072004 0.086840 0.079439
0.912825 0.138289 0.079439
0.985124 0.245756 0.079042
0.986865 0.246265 0.946655
0.069243 0.942953 0.079439
0.069732 0.917086 0.079439
0.281132 0.828600 0.079397
0.955893 0.860555 0.079054
0.983718 0.905183 0.087449
0.069243 0.993726 0.079439
0.069395 0.992845 0.079379
0.110432 0.989366 0.079165
0.797543 0.985834 0.078799
0.978935 0.986520 0.078135
0.069243 0.996805 0.079439
0.069243 0.997058 0.079439
0.070343 0.997020 0.079429
0.369013 0.996861 0.079212
0.974653 0.996812 0.079114
0.069243 0.072709 0.099723
0.445693 0.073313 0.848685
0.982569 0.081521 0.556231
0.987956 0.093768 0.644825
0.987659 0.283188 0.953663
0.069243 0.086516 0.078807
0.079916 0.077891 0.078257
0.939476 0.127498 0.082781
0.984590 0.239615 0.122526
0.986389 0.232450 0.944499
0.069499 0.896426 0.078575
0.073966 0.847868 0.078541
0.485839 0.713497 0.078478
0.961658 0.828133 0.079854
0.983272 0.902565 0.640411
0.069383 0.991679 0.078066
0.070956 0.990587 0.078182
0.171188 0.986627 0.078466
0.869126 0.983633 0.078869
0.978473 0.986091 0.082463
0.069243 0.996822 0.079234
0.069243 0.997069 0.079256
0.072104 0.996985 0.079049
0.453230 0.996839 0.078449
0.975103 0.996805 0.078052
0.069243 0.074264 0.974706
0.330875 0.087392 0.993644
0.984079 0.164322 0.993610
0.988201 0.172320 0.991627
0.987447 0.273770 0.991843
0.069514 0.215115 0.969083
0.178084 0.246198 0.982857
0.954799 0.286289 0.976304
0.984730 0.368780 0.976650
0.986097 0.224902 0.988528
0.070910 0.799546 0.732305
0.080784 0.741994 0.704941
0.573152 0.609847 0.632211
0.963474 0.810824 0.845947
0.982722 0.911736 0.968092
0.071168 0.987107 0.540803
0.076276 0.986341 0.546328
0.300681 0.982288 0.549600
0.915608 0.979032 0.582208
0.977062 0.985615 0.876084
0.069243 0.996943 0.260916
0.069243 0.996983 0.234506
0.079615 0.996902 0.155979
0.584293 0.996793 0.217658
0.975020 0.996800 0.468973
0.069243 0.107839 0.995524
0.169021 0.235932 0.995851
0.983191 0.477928 0.995870
0.989441 0.463260 0.995371
0.987995 0.293407 0.994311
0.069801 0.482871 0.995546
0.197706 0.642469 0.995778
0.968932 0.683355 0.995544
0.986472 0.636202 0.994708
0.986607 0.238066 0.993692
0.072673 0.863371 0.991656
0.099500 0.863978 0.991931
0.786111 0.859867 0.991802
0.970402 0.887062 0.991860
0.982939 0.934898 0.992516
0.072342 0.985270 0.968297
0.079909 0.984296 0.968741
0.371077 0.980132 0.969165
0.921752 0.976142 0.967579
0.976293 0.985945 0.986019
0.069243 0.996879 0.866123
0.069243 0.996939 0.858159
0.079872 0.996872 0.915345
0.601104 0.996782 0.920132
0.974681 0.996816 0.970010
0.095751 0.238703 0.996101
0.750360 0.301391 0.996101
0.989309 0.499632 0.996101
0.991538 0.454090 0.996101
0.988647 0.354994 0.995629
0.159128 0.593080 0.996101
0.768085 0.645049 0.996101
0.988350 0.760753 0.996101
0.989468 0.624068 0.995921
0.987383 0.318274 0.995489
0.159049 0.936001 0.995825
0.482997 0.931030 0.995751
0.962396 0.922362 0.995547
0.983251 0.907176 0.995195
0.983876 0.939516 0.994806
0.076569 0.985598 0.994711
0.115255 0.985119 0.994533
0.789188 0.982712 0.994036
0.965014 0.981282 0.993635
0.978636 0.986184 0.993612
0.069243 0.996749 0.986019
0.069243 0.996893 0.991638
0.069989 0.996938 0.993141
0.515240 0.996828 0.993393
0.974582 0.996852 0.993312
