LUTs/ektachrome100d/Ektachrome100D_Modern_Soft.cube
TITLE "Kodak Ektachrome 100D Modern Soft"
# Adobe RGB in/out. REPLACES AgX. Kodak Ektachrome 100D Modern Soft.
LUT_3D_SIZE 5
DOMAIN_MIN 0.0 0.0 0.0
DOMAIN_MAX 1.0 1.0 1.0
0.070871 0.073418 0.089582
0.540307 0.073464 0.089582
0.914243 0.080932 0.089582
0.939799 0.093327 0.090124
0.937925 0.317608 0.873279
0.070871 0.149964 0.089582
0.077234 0.091723 0.089582
0.813752 0.141717 0.089582
0.925895 0.264291 0.089860
0.933058 0.264877 0.857425
0.070871 0.813072 0.089582
0.072479 0.791199 0.089582
0.311259 0.714952 0.089611
0.868174 0.741682 0.089851
0.920145 0.782018 0.121970
0.070871 0.918137 0.089582
0.071366 0.915613 0.089623
0.127846 0.904173 0.089774
0.711165 0.891135 0.090076
0.906469 0.893655 0.092325
0.070871 0.932497 0.089582
0.070871 0.942576 0.089582
0.073675 0.941071 0.089588
0.399251 0.934719 0.089740
0.899733 0.932767 0.089809
0.070871 0.073418 0.140702
0.449623 0.074484 0.752869
0.915463 0.085542 0.530926
0.937321 0.099140 0.599964
0.936294 0.302215 0.867368
0.070871 0.091257 0.096284
0.092152 0.080608 0.093023
0.847895 0.130494 0.112129
0.923707 0.257234 0.164126
0.931094 0.249017 0.854374
0.071707 0.775605 0.094750
0.082137 0.731074 0.094534
0.477853 0.643724 0.094248
0.878163 0.714561 0.100882
0.918327 0.780102 0.596925
0.071328 0.912281 0.091936
0.075001 0.908713 0.092593
0.190596 0.894049 0.094197
0.773504 0.884872 0.096701
0.905742 0.892078 0.111333
0.070871 0.933178 0.089725
0.070871 0.943036 0.089709
0.077434 0.939670 0.089855
0.454935 0.933857 0.090760
0.900440 0.932482 0.091780
0.070871 0.075913 0.902244
0.362735 0.092289 0.950917
0.921619 0.170509 0.950618
0.938167 0.179021 0.933553
0.935462 0.292905 0.935394
0.071758 0.229209 0.891300
0.199192 0.264799 0.918233
0.866285 0.305591 0.905366
0.924284 0.383057 0.906043
0.929894 0.240379 0.928717
0.074901 0.695595 0.665843
0.093469 0.659187 0.644196
0.542994 0.564106 0.591242
0.881321 0.702642 0.750511
0.916087 0.786810 0.889378
0.075464 0.895818 0.519332
0.086281 0.892995 0.523492
0.336502 0.881813 0.525951
0.817298 0.874440 0.550293
0.903520 0.890330 0.776458
0.070871 0.937970 0.291655
0.070871 0.939565 0.268339
0.091696 0.936350 0.198337
0.552786 0.932021 0.252883
0.900310 0.932300 0.465541
0.070871 0.112912 0.964118
0.187903 0.253008 0.966127
0.917994 0.472252 0.966240
0.942467 0.461891 0.963181
0.937454 0.313561 0.956706
0.072671 0.475723 0.964251
0.223861 0.586051 0.965679
0.890765 0.619326 0.964242
0.931439 0.581031 0.959124
0.931992 0.255456 0.951325
0.078772 0.744037 0.933799
0.117177 0.744545 0.936148
0.703002 0.741108 0.935046
0.893066 0.767148 0.935542
0.916969 0.806055 0.941166
0.077923 0.889066 0.889776
0.092142 0.886380 0.890635
0.400528 0.876928 0.891458
0.825142 0.867928 0.888372
0.902310 0.891542 0.924474
0.070871 0.935441 0.767884
0.070871 0.937826 0.761028
0.092086 0.935154 0.820198
0.567536 0.931566 0.826103
0.899777 0.932928 0.893099
0.113309 0.256188 0.967665
0.673264 0.320886 0.967665
0.942008 0.487416 0.967665
0.949771 0.455365 0.967665
0.939714 0.371948 0.964761
0.183032 0.553225 0.967665
0.686010 0.588156 0.967665
0.938684 0.671139 0.967665
0.942562 0.573265 0.966554
0.935198 0.336737 0.963907
0.182945 0.806975 0.965967
0.475636 0.802830 0.965511
0.879445 0.795601 0.964260
0.918240 0.783476 0.962107
0.920791 0.809905 0.959723
0.086806 0.890269 0.959144
0.132706 0.888514 0.958056
0.705201 0.882778 0.954324
0.884002 0.879532 0.950832
0.905998 0.892419 0.950633
0.070871 0.930253 0.924474
0.070871 0.935984 0.933643
0.072994 0.937769 0.946556
0.500643 0.933416 0.948732
0.899621 0.934336 0.948035
