LUTs/ektachrome100d/Ektachrome100D_Classic_ExtraSoft.cube
TITLE "Kodak Ektachrome 100D Classic ExtraSoft"
# Adobe RGB in/out. REPLACES AgX. Kodak Ektachrome 100D Classic ExtraSoft.
LUT_3D_SIZE 5
DOMAIN_MIN 0.0 0.0 0.0
DOMAIN_MAX 1.0 1.0 1.0
0.068633 0.069845 0.084864
0.149829 0.069845 0.084864
0.784966 0.070405 0.084864
0.865399 0.072894 0.084896
0.879684 0.116901 0.702837
0.068633 0.072926 0.084864
0.070760 0.075830 0.084864
0.623467 0.083799 0.084864
0.858264 0.100942 0.084886
0.879684 0.116912 0.702832
0.068633 0.454107 0.084864
0.068658 0.525832 0.084864
0.212842 0.564695 0.084864
0.806409 0.613621 0.085011
0.879181 0.670996 0.100863
0.068633 0.820165 0.084864
0.068645 0.831471 0.084864
0.102196 0.848331 0.084942
0.633258 0.854000 0.085239
0.876555 0.865462 0.087149
0.068633 0.893758 0.084864
0.068633 0.912348 0.084864
0.070663 0.916108 0.084864
0.367802 0.915175 0.085026
0.878056 0.916936 0.085174
0.068633 0.069845 0.086486
0.111654 0.069845 0.130455
0.796315 0.071105 0.110257
0.865222 0.073912 0.150715
0.879684 0.116912 0.702892
0.068633 0.072660 0.085643
0.094167 0.078529 0.088826
0.718055 0.086413 0.090564
0.860333 0.106627 0.099866
0.879684 0.116912 0.702833
0.068634 0.428350 0.085478
0.072202 0.482727 0.086037
0.393648 0.541001 0.087575
0.831729 0.607134 0.090947
0.879120 0.679175 0.425440
0.068640 0.814193 0.085321
0.069862 0.824717 0.085701
0.149084 0.840605 0.087243
0.714299 0.850237 0.090281
0.877177 0.865204 0.103121
0.068633 0.896335 0.084922
0.068633 0.913910 0.084922
0.073671 0.915528 0.085117
0.419795 0.914813 0.086118
0.879136 0.916861 0.087228
0.068633 0.069879 0.507302
0.096616 0.070914 0.779212
0.773067 0.073725 0.779108
0.863221 0.083591 0.798203
0.879684 0.116912 0.847160
0.068633 0.076729 0.493565
0.088736 0.083521 0.683643
0.714918 0.096815 0.730409
0.859368 0.138781 0.771509
0.879684 0.116918 0.840802
0.069538 0.430761 0.304270
0.082276 0.477998 0.418462
0.530076 0.562965 0.583185
0.842574 0.617438 0.653354
0.878896 0.703860 0.821584
0.070135 0.809931 0.201315
0.076649 0.819015 0.245469
0.272768 0.834233 0.389362
0.782358 0.847861 0.494835
0.877648 0.866723 0.730281
0.068633 0.907954 0.168811
0.068633 0.912597 0.168807
0.087970 0.913974 0.156584
0.518829 0.914195 0.229554
0.879739 0.917098 0.459897
0.068633 0.071929 0.862951
0.080084 0.076469 0.893907
0.748698 0.087295 0.895933
0.861405 0.108860 0.899218
0.879684 0.116893 0.904152
0.068633 0.087526 0.864915
0.083625 0.101339 0.886197
0.707440 0.142367 0.892006
0.858333 0.216967 0.896513
0.879683 0.116733 0.903077
0.070977 0.495416 0.837411
0.088071 0.535590 0.856329
0.555430 0.593836 0.875387
0.846322 0.645563 0.885243
0.878721 0.728401 0.903193
0.072317 0.816448 0.795637
0.083865 0.824123 0.809734
0.348285 0.838419 0.838391
0.801883 0.851678 0.858611
0.877862 0.870759 0.894592
0.068633 0.908740 0.674713
0.068633 0.913789 0.675667
0.089361 0.914891 0.766936
0.538146 0.915116 0.787992
0.879870 0.917995 0.863723
0.072217 0.076612 0.928231
0.227144 0.079184 0.928242
0.827974 0.088297 0.928305
0.868459 0.096726 0.928569
0.879684 0.126788 0.928179
0.078674 0.094975 0.927969
0.237077 0.101920 0.928008
0.820507 0.133101 0.928136
0.867585 0.168288 0.928457
0.879684 0.132067 0.928662
0.092594 0.532401 0.927283
0.218963 0.545748 0.927439
0.782151 0.584734 0.927738
0.863789 0.620180 0.928193
0.879829 0.718768 0.929251
0.078464 0.826463 0.926991
0.108493 0.830060 0.927284
0.616325 0.838847 0.927771
0.853415 0.848256 0.928300
0.879734 0.868873 0.929333
0.068633 0.904959 0.881618
0.068633 0.914443 0.903718
0.070712 0.918594 0.923022
0.492221 0.917494 0.929132
0.880008 0.919335 0.929726
