LUTs/ektachrome100d/Ektachrome100D_Modern_Punchy.cube
TITLE "Kodak Ektachrome 100D Modern Punchy"
# Adobe RGB in/out. REPLACES AgX. Kodak Ektachrome 100D Modern Punchy.
LUT_3D_SIZE 9
DOMAIN_MIN 0.0 0.0 0.0
DOMAIN_MAX 1.0 1.0 1.0
0.091497 0.087999 0.082099
0.107987 0.087999 0.082099
0.552240 0.088038 0.082099
0.936589 0.089744 0.082099
0.976078 0.095135 0.082099
0.983904 0.104845 0.082179
0.985762 0.109887 0.082582
0.986289 0.088859 0.722324
0.985287 0.316069 0.943909
0.091497 0.088147 0.082099
0.091497 0.088054 0.082099
0.263043 0.088624 0.082099
0.862866 0.091761 0.082099
0.965424 0.101494 0.082099
0.981299 0.117350 0.082170
0.985160 0.124986 0.082497
0.985993 0.088770 0.706284
0.985027 0.307765 0.941801
0.091497 0.178672 0.082099
0.091497 0.151942 0.082099
0.104102 0.107807 0.082099
0.374223 0.121335 0.082099
0.896223 0.172682 0.082099
0.967550 0.244415 0.082158
0.980887 0.272789 0.082346
0.984964 0.089610 0.663076
0.983851 0.273201 0.934931
0.091497 0.651123 0.082099
0.091497 0.621849 0.082099
0.097273 0.525337 0.082099
0.181991 0.403118 0.082099
0.573700 0.420798 0.082099
0.923741 0.509739 0.082164
0.970796 0.579644 0.082320
0.980085 0.592109 0.082941
0.981366 0.240959 0.647737
0.091497 0.895168 0.082099
0.091497 0.887127 0.082099
0.095061 0.872998 0.082099
0.136027 0.833114 0.082099
0.325179 0.791293 0.082125
0.767185 0.784936 0.082194
0.945218 0.817613 0.082339
0.974531 0.837721 0.082794
0.978498 0.860080 0.116591
0.091497 0.959454 0.082099
0.091504 0.957403 0.082099
0.094017 0.953761 0.082108
0.118597 0.945779 0.082154
0.240786 0.933514 0.082204
0.557081 0.921357 0.082273
0.885942 0.916667 0.082410
0.962419 0.928003 0.082792
0.975715 0.936323 0.086041
0.091497 0.977379 0.082099
0.091497 0.976823 0.082099
0.092589 0.975805 0.082136
0.106080 0.973670 0.082190
0.183479 0.969602 0.082270
0.388752 0.965218 0.082352
0.774300 0.963323 0.082539
0.943840 0.962292 0.082817
0.971835 0.964540 0.084411
0.091497 0.987147 0.082099
0.091497 0.987025 0.082099
0.091525 0.986746 0.082111
0.096959 0.985989 0.082169
0.133232 0.984026 0.082255
0.280232 0.981369 0.082347
0.602712 0.979122 0.082533
0.910001 0.977930 0.082757
0.968455 0.977847 0.083512
0.091497 0.986301 0.082099
0.091497 0.986036 0.082099
0.091497 0.988341 0.082099
0.091497 0.987977 0.082099
0.097593 0.988068 0.082105
0.178858 0.987417 0.082170
0.391423 0.986908 0.082240
0.788821 0.986612 0.082287
0.967605 0.986469 0.082301
0.091497 0.087999 0.082301
0.095809 0.087999 0.095004
0.467919 0.088127 0.083442
0.941428 0.090081 0.082758
0.976416 0.095402 0.082472
0.983372 0.104775 0.082583
0.985531 0.110378 0.083742
0.986131 0.088813 0.713736
0.985152 0.311752 0.942818
0.091497 0.088057 0.082099
0.091851 0.088008 0.082099
0.281984 0.088737 0.082199
0.880012 0.092196 0.082341
0.967388 0.101427 0.082347
0.980902 0.116464 0.082504
0.984884 0.125341 0.083203
0.985835 0.088726 0.697936
0.984893 0.303560 0.940717
0.091497 0.141531 0.082124
0.091539 0.114981 0.082103
0.119869 0.098614 0.082099
0.487857 0.112222 0.082160
0.910999 0.164234 0.082253
0.968590 0.233516 0.082357
0.980526 0.267159 0.082801
0.984773 0.089912 0.657528
0.983598 0.269602 0.934267
0.091497 0.597854 0.082141
0.091570 0.555116 0.082146
0.104284 0.441730 0.082149
0.224727 0.334003 0.082158
0.638554 0.380318 0.082219
0.931328 0.488625 0.082326
0.971078 0.564927 0.082652
0.979773 0.584459 0.084058
0.981129 0.236907 0.921617
0.091502 0.879319 0.082139
0.091563 0.875835 0.082152
0.099082 0.852154 0.082185
0.153952 0.810252 0.082227
0.366177 0.751386 0.082274
0.798591 0.759480 0.082344
0.947565 0.809967 0.082640
0.974363 0.832602 0.083381
0.978287 0.858843 0.162166
0.091509 0.955606 0.082146
0.091540 0.953631 0.082157
0.096080 0.949731 0.082211
0.124888 0.940668 0.082276
0.259262 0.928844 0.082344
0.589367 0.913767 0.082497
0.896693 0.911646 0.082709
0.963042 0.925856 0.083229
0.975561 0.935613 0.088079
0.091497 0.976383 0.082149
0.091519 0.975832 0.082158
0.093527 0.974757 0.082211
0.110127 0.972559 0.082292
0.195817 0.968071 0.082419
0.417725 0.964493 0.082602
0.797980 0.962359 0.082839
0.945738 0.961363 0.083207
0.971718 0.964345 0.085609
0.091497 0.987016 0.082099
0.091497 0.986901 0.082099
0.091540 0.986629 0.082154
0.098378 0.985563 0.082235
0.140657 0.983505 0.082337
0.291328 0.980912 0.082539
0.619137 0.978716 0.082768
0.915399 0.977623 0.083021
0.968507 0.977679 0.084124
0.091497 0.986756 0.082232
0.091497 0.986678 0.082229
0.091497 0.988548 0.082218
0.091497 0.988131 0.082200
0.098584 0.988020 0.082130
0.183469 0.987375 0.082213
0.402047 0.986876 0.082293
0.801527 0.986591 0.082351
0.967799 0.986431 0.082386
0.091497 0.087999 0.140112
0.101576 0.088096 0.874383
0.449141 0.089068 0.827491
0.943384 0.092261 0.701541
0.976546 0.099388 0.536248
0.982873 0.110933 0.517476
0.985133 0.117428 0.618414
0.985853 0.089361 0.760662
0.984873 0.302930 0.940571
0.091497 0.089253 0.136237
0.099582 0.090223 0.402248
0.339659 0.090705 0.393500
0.894400 0.095414 0.338641
0.968640 0.105506 0.305463
0.980522 0.124779 0.363625
0.984420 0.136054 0.483614
0.985552 0.089513 0.751684
0.984611 0.291610 0.938443
0.091497 0.107204 0.087748
0.092391 0.101164 0.086385
0.130581 0.094904 0.085047
0.545441 0.108563 0.090603
0.925625 0.162536 0.103782
0.970162 0.232864 0.128691
0.979979 0.267810 0.175156
0.984131 0.107112 0.718816
0.983040 0.261958 0.933194
0.092171 0.478535 0.087711
0.094239 0.432117 0.087058
0.119118 0.318110 0.085909
0.267953 0.248378 0.085158
0.744202 0.324138 0.087357
0.940594 0.455538 0.094316
0.971644 0.543396 0.103558
0.979125 0.572233 0.177644
0.980567 0.227872 0.916542
0.093344 0.850694 0.086567
0.095486 0.839704 0.086547
0.113210 0.807966 0.086425
0.213630 0.729729 0.086134
0.481843 0.672494 0.086164
0.859820 0.708785 0.088208
0.953288 0.790613 0.091540
0.974063 0.820339 0.105552
0.977741 0.857272 0.614132
0.093628 0.947412 0.085711
0.095133 0.945387 0.085795
0.106658 0.939151 0.086167
0.164618 0.928539 0.086432
0.335384 0.908655 0.086672
0.703082 0.894945 0.087337
0.921169 0.898996 0.088918
0.964720 0.917006 0.095395
0.975025 0.933799 0.147633
0.092504 0.973724 0.084056
0.093351 0.973184 0.084073
0.100004 0.971777 0.084655
0.129073 0.968308 0.085439
0.246212 0.964731 0.086117
0.517716 0.961492 0.086750
0.852867 0.958082 0.088099
0.951749 0.958287 0.090718
0.971379 0.963779 0.102996
0.091512 0.986117 0.082762
0.091531 0.985858 0.082810
0.093740 0.985232 0.083150
0.107001 0.983876 0.084053
0.173807 0.981708 0.084943
0.346414 0.979280 0.085886
0.705471 0.977339 0.086714
0.932931 0.976573 0.088299
0.968596 0.977146 0.091332
0.091497 0.986626 0.082227
0.091497 0.988682 0.082223
0.091497 0.988425 0.082213
0.091497 0.988018 0.082195
0.104472 0.987812 0.082342
0.211421 0.987209 0.082742
0.454663 0.986750 0.083053
0.833588 0.986317 0.083523
0.968049 0.986292 0.083914
0.091497 0.088230 0.802043
0.092750 0.089847 0.965939
0.428474 0.092929 0.977469
0.940441 0.102830 0.975863
0.977565 0.118342 0.958933
0.983162 0.138186 0.944911
0.985034 0.146868 0.944457
0.985520 0.104401 0.963460
0.984686 0.295255 0.959990
0.091497 0.091033 0.821200
0.095421 0.095076 0.936476
0.417175 0.103666 0.965404
0.913759 0.115005 0.953763
0.971152 0.134702 0.936939
0.980784 0.159084 0.932459
0.984181 0.169381 0.934438
0.985111 0.112200 0.958310
0.984320 0.282693 0.958257
0.091575 0.126864 0.484984
0.095344 0.125467 0.514414
0.193146 0.123819 0.604158
0.628270 0.144461 0.663542
0.934833 0.197421 0.734536
0.970944 0.262509 0.797486
0.979677 0.305142 0.859546
0.982673 0.280249 0.930804
0.982618 0.256645 0.952343
0.093452 0.375164 0.254779
0.096835 0.344164 0.239043
0.125764 0.266471 0.191023
0.285910 0.216029 0.159144
0.767697 0.316254 0.278148
0.942852 0.453934 0.454581
0.971331 0.545784 0.596972
0.978529 0.585392 0.804110
0.980075 0.220355 0.941871
0.096948 0.808597 0.217385
0.100544 0.798859 0.210508
0.124707 0.737751 0.191551
0.240723 0.654218 0.163955
0.536971 0.614540 0.154189
0.875757 0.670049 0.210053
0.954914 0.764555 0.322843
0.973188 0.814266 0.512512
0.977168 0.859458 0.899688
0.098379 0.935924 0.165572
0.101046 0.933633 0.164767
0.120560 0.927426 0.165265
0.203809 0.907516 0.159779
0.402248 0.886500 0.155175
0.766520 0.878055 0.160264
0.932118 0.886918 0.196217
0.964857 0.908475 0.289306
0.974097 0.932481 0.723600
0.096437 0.969809 0.122267
0.098288 0.969070 0.123195
0.109779 0.967092 0.128016
0.156520 0.964643 0.133083
0.298618 0.960961 0.137072
0.604479 0.955579 0.144101
0.883385 0.953273 0.156740
0.955247 0.955169 0.188720
0.970775 0.963212 0.451181
0.092355 0.984335 0.096183
0.092908 0.984052 0.096877
0.098511 0.983320 0.101205
0.120710 0.981836 0.104999
0.215505 0.979769 0.111482
0.418264 0.977409 0.119199
0.771967 0.975808 0.127262
0.940786 0.975408 0.137335
0.968407 0.976583 0.224307
0.091497 0.987451 0.084286
0.091497 0.988576 0.084222
0.091497 0.988331 0.084076
0.091518 0.988287 0.082912
0.120075 0.987467 0.088672
0.241880 0.986957 0.091922
0.515065 0.986526 0.095983
0.869377 0.985885 0.098289
0.968074 0.986147 0.107114
0.091497 0.090522 0.962976
0.091518 0.093454 0.982211
0.362058 0.108540 0.988100
0.929140 0.143630 0.988112
0.979111 0.198560 0.987980
0.984405 0.207994 0.983783
0.985348 0.207503 0.981105
0.985511 0.155561 0.981237
0.984687 0.295284 0.981850
0.091497 0.096818 0.966045
0.092420 0.103818 0.980654
0.351705 0.142660 0.987650
0.917107 0.195581 0.987980
0.974574 0.224099 0.984886
0.982074 0.238092 0.981167
0.984649 0.239663 0.979755
0.985089 0.178147 0.980077
0.984305 0.282349 0.981057
0.093457 0.247588 0.954616
0.100839 0.256651 0.961643
0.251992 0.273146 0.975137
0.759793 0.275994 0.971244
0.943690 0.305692 0.965355
0.973598 0.349394 0.963543
0.980219 0.379720 0.965871
0.982686 0.365120 0.974210
0.982544 0.255738 0.979142
0.095544 0.412902 0.819429
0.100310 0.402315 0.820653
0.148025 0.372508 0.829812
0.381172 0.356822 0.843455
0.822256 0.417916 0.873281
0.947467 0.516892 0.903269
0.972040 0.588461 0.931319
0.978430 0.620943 0.947697
0.979919 0.596328 0.975193
0.099822 0.757866 0.705377
0.103894 0.743114 0.699286
0.133091 0.696435 0.680694
0.256774 0.629842 0.633842
0.555232 0.584932 0.606179
0.885293 0.668559 0.720253
0.955834 0.769974 0.824299
0.972701 0.818919 0.897240
0.976807 0.867110 0.953145
0.102528 0.924139 0.632110
0.106140 0.920598 0.629880
0.130668 0.909475 0.625511
0.228952 0.890008 0.604197
0.454510 0.874328 0.580321
0.781455 0.863916 0.581880
0.935268 0.879304 0.660423
0.964465 0.904602 0.777043
0.973306 0.932673 0.928737
0.100851 0.965584 0.522198
0.103241 0.965245 0.521965
0.120284 0.964222 0.527232
0.185929 0.961482 0.530106
0.339904 0.955479 0.530212
0.664871 0.950615 0.535304
0.899845 0.949195 0.558614
0.956655 0.952836 0.628517
0.969985 0.962723 0.859544
0.094179 0.982383 0.352492
0.095409 0.982119 0.355829
0.103417 0.981392 0.379232
0.132898 0.979987 0.404797
0.241980 0.977860 0.430519
0.480272 0.975753 0.451251
0.817667 0.974453 0.466641
0.945192 0.974426 0.493133
0.968061 0.976320 0.697452
0.091497 0.987502 0.302347
0.091497 0.987611 0.297429
0.091497 0.987793 0.281447
0.094193 0.987660 0.173387
0.129715 0.987206 0.214793
0.265277 0.986753 0.245764
0.566145 0.986007 0.268244
0.891198 0.985550 0.283151
0.967967 0.986180 0.465653
0.091497 0.099519 0.987391
0.091503 0.103926 0.990753
0.315792 0.171079 0.991908
0.908618 0.235285 0.991945
0.978541 0.327926 0.991962
0.985287 0.337947 0.991344
0.985846 0.318228 0.989058
0.985752 0.251257 0.987980
0.984868 0.302781 0.985958
0.091497 0.113062 0.987766
0.091667 0.125963 0.990486
0.309680 0.222972 0.991823
0.899197 0.301871 0.991884
0.976919 0.398502 0.991844
0.983816 0.370988 0.990768
0.985252 0.347656 0.987990
0.985382 0.279238 0.987238
0.984586 0.290392 0.985505
0.094812 0.367640 0.987758
0.101920 0.403948 0.988800
0.297770 0.527757 0.991443
0.818170 0.510825 0.990623
0.953585 0.497052 0.987988
0.976539 0.497260 0.986345
0.981492 0.498829 0.984939
0.983283 0.481650 0.984465
0.982842 0.259469 0.984011
0.099533 0.556510 0.971373
0.105317 0.557367 0.973407
0.187480 0.573643 0.977680
0.510546 0.575058 0.978104
0.874156 0.590518 0.977660
0.955420 0.619120 0.977695
0.974374 0.650508 0.978443
0.978955 0.671479 0.979747
0.980075 0.675132 0.981160
0.102568 0.767479 0.933998
0.107483 0.759157 0.933953
0.148763 0.740193 0.934491
0.300337 0.704900 0.934147
0.658414 0.695136 0.934486
0.907010 0.742221 0.941569
0.958961 0.806221 0.952614
0.973276 0.835370 0.964772
0.976801 0.877279 0.977798
0.105457 0.910314 0.903261
0.110640 0.907546 0.902427
0.140786 0.899342 0.901154
0.243430 0.883486 0.896726
0.479727 0.869007 0.889351
0.796891 0.853619 0.882175
0.937190 0.880560 0.915963
0.964555 0.907655 0.938693
0.972963 0.934843 0.964891
0.103934 0.963584 0.867237
0.107055 0.963272 0.866536
0.126605 0.961598 0.866637
0.205992 0.957368 0.865875
0.367166 0.951880 0.864283
0.698459 0.947144 0.863679
0.905024 0.946117 0.871451
0.956998 0.951803 0.899856
0.969359 0.962854 0.947682
0.095879 0.980779 0.791683
0.097274 0.980547 0.791413
0.107071 0.979876 0.797233
0.145088 0.978433 0.801349
0.260816 0.976491 0.806470
0.521302 0.974593 0.812428
0.839942 0.973507 0.821383
0.947198 0.973781 0.840696
0.967640 0.976318 0.924938
0.091497 0.987341 0.575908
0.091497 0.987433 0.585390
0.091497 0.987568 0.623388
0.094755 0.987477 0.649402
0.134071 0.987039 0.671717
0.277388 0.986624 0.684426
0.586125 0.985728 0.693843
0.901211 0.985418 0.699600
0.967786 0.986309 0.864183
0.091497 0.137192 0.992182
0.091526 0.148225 0.992410
0.244376 0.264808 0.992606
0.894256 0.354185 0.992622
0.977602 0.475881 0.992630
0.986030 0.519093 0.992470
0.986436 0.462804 0.991984
0.986128 0.369658 0.991485
0.985167 0.312190 0.990420
0.091497 0.174211 0.992196
0.091845 0.189018 0.992392
0.248675 0.327813 0.992592
0.884877 0.432451 0.992612
0.976690 0.539946 0.992621
0.985144 0.541516 0.992332
0.985908 0.494431 0.991819
0.985780 0.410573 0.991310
0.984885 0.303248 0.989932
0.095490 0.479326 0.992210
0.101229 0.501228 0.992321
0.267956 0.613131 0.992511
0.856141 0.677482 0.992563
0.961952 0.647392 0.992208
0.979089 0.626776 0.991701
0.983182 0.607960 0.991125
0.984278 0.579465 0.990025
0.983411 0.266549 0.988263
0.104751 0.708071 0.990761
0.113998 0.709602 0.990882
0.221924 0.733182 0.991082
0.603695 0.734142 0.990765
0.911149 0.728515 0.989353
0.963148 0.730852 0.987990
0.976727 0.736077 0.987815
0.979992 0.742656 0.987263
0.980515 0.794898 0.987229
0.106858 0.819750 0.981204
0.114273 0.818723 0.981415
0.169669 0.820211 0.982155
0.361467 0.817533 0.982171
0.763978 0.817091 0.981709
0.930823 0.825798 0.981543
0.963404 0.840670 0.981910
0.975013 0.858463 0.982777
0.977175 0.888061 0.984182
0.108645 0.910723 0.970152
0.114748 0.908982 0.970263
0.148277 0.904834 0.971287
0.266044 0.895879 0.971324
0.552686 0.885673 0.969697
0.850803 0.884483 0.969513
0.943068 0.898077 0.974181
0.966086 0.918410 0.978046
0.973286 0.938748 0.980522
0.105355 0.961649 0.953449
0.109266 0.961058 0.953441
0.130560 0.959365 0.954108
0.218037 0.955972 0.954799
0.393017 0.951316 0.954737
0.726758 0.946751 0.953607
0.906475 0.943635 0.952384
0.957838 0.952726 0.963965
0.969225 0.963520 0.977721
0.095956 0.979798 0.934652
0.097438 0.979572 0.934573
0.107876 0.978914 0.935195
0.148308 0.977633 0.936149
0.270287 0.975880 0.937543
0.546826 0.974124 0.938987
0.851368 0.973112 0.940890
0.947735 0.973521 0.945395
0.967301 0.976577 0.969330
0.091497 0.987040 0.847867
0.091497 0.987284 0.845498
0.091497 0.987476 0.838551
0.092729 0.987473 0.900517
0.130454 0.986988 0.901339
0.272629 0.986594 0.903757
0.582616 0.985725 0.906144
0.900119 0.985537 0.907493
0.967632 0.986569 0.955992
0.091526 0.232435 0.992919
0.092194 0.243848 0.992930
0.274134 0.358006 0.992930
0.910775 0.467390 0.992930
0.979130 0.562526 0.992930
0.986985 0.626033 0.992930
0.987118 0.559933 0.992634
0.986605 0.455920 0.992322
0.985496 0.374521 0.991935
0.091660 0.277401 0.992915
0.093031 0.294603 0.992930
0.283404 0.429288 0.992930
0.905177 0.527768 0.992930
0.978442 0.615334 0.992930
0.986262 0.639650 0.992867
0.986636 0.585029 0.992571
0.986273 0.492293 0.992256
0.985228 0.380009 0.991861
0.099539 0.596976 0.992900
0.105777 0.608923 0.992918
0.323674 0.683134 0.992930
0.882762 0.754224 0.992930
0.971746 0.770765 0.992845
0.982334 0.724792 0.992587
0.984890 0.679062 0.992279
0.985066 0.632059 0.991950
0.984106 0.514674 0.991614
0.116513 0.829503 0.992670
0.126445 0.828601 0.992659
0.288922 0.837625 0.992609
0.743800 0.832429 0.992456
0.940215 0.822689 0.992244
0.971963 0.813979 0.991945
0.979263 0.805331 0.991631
0.981444 0.796440 0.991345
0.981204 0.823159 0.991021
0.116469 0.869403 0.991482
0.123720 0.868976 0.991480
0.218479 0.873132 0.991449
0.482514 0.872336 0.991200
0.851891 0.869922 0.990815
0.947095 0.869930 0.989965
0.969717 0.872282 0.989193
0.976693 0.875921 0.988722
0.977844 0.900580 0.988553
0.113662 0.924531 0.987510
0.119499 0.923785 0.987555
0.169349 0.923758 0.987634
0.312463 0.920046 0.987186
0.653273 0.915554 0.986452
0.896571 0.915530 0.985888
0.952953 0.921242 0.985741
0.969397 0.928770 0.986003
0.974280 0.943164 0.986587
0.106091 0.961659 0.982713
0.110316 0.961236 0.982809
0.136077 0.960370 0.983235
0.230012 0.957990 0.983363
0.449336 0.954625 0.982934
0.777239 0.951861 0.982247
0.928062 0.952108 0.982023
0.960878 0.956483 0.982858
0.969914 0.964373 0.984309
0.094094 0.979901 0.977671
0.095437 0.979681 0.977743
0.105236 0.978996 0.978296
0.145440 0.977790 0.979021
0.271942 0.976180 0.979711
0.560668 0.974582 0.979747
0.859715 0.973563 0.979754
0.947472 0.973155 0.979742
0.967319 0.977094 0.982363
0.091497 0.986607 0.946763
0.091497 0.987387 0.947059
0.091497 0.987340 0.950773
0.091533 0.987492 0.957214
0.118009 0.987101 0.959501
0.247667 0.986696 0.962174
0.548821 0.986097 0.964188
0.883165 0.985950 0.964871
0.967538 0.986691 0.980316
0.163974 0.267068 0.992930
0.215038 0.275178 0.992930
0.730191 0.319451 0.992930
0.974727 0.396878 0.992930
0.986320 0.490931 0.992930
0.989006 0.562218 0.992930
0.988277 0.454514 0.992930
0.987262 0.249395 0.992655
0.985740 0.367529 0.992318
0.175850 0.314949 0.992930
0.225695 0.324278 0.992930
0.731154 0.368550 0.992930
0.973847 0.454161 0.992930
0.986223 0.540417 0.992930
0.988471 0.582368 0.992930
0.987859 0.481577 0.992881
0.986956 0.266375 0.992614
0.985520 0.373945 0.992290
0.235170 0.569148 0.992930
0.282794 0.579313 0.992930
0.746921 0.615300 0.992930
0.969691 0.663774 0.992930
0.985479 0.716392 0.992930
0.986541 0.661906 0.992930
0.986460 0.598313 0.992696
0.985923 0.424799 0.992437
0.984631 0.334717 0.992137
0.302384 0.858243 0.992930
0.348688 0.855866 0.992930
0.696355 0.849464 0.992930
0.947138 0.838613 0.992930
0.976552 0.823608 0.992766
0.981865 0.805394 0.992587
0.983572 0.760979 0.992353
0.983588 0.682575 0.992115
0.982006 0.824617 0.991779
0.235092 0.888993 0.992572
0.261685 0.887776 0.992551
0.479158 0.884792 0.992476
0.867479 0.880300 0.992356
0.954322 0.877463 0.992212
0.972791 0.872711 0.991996
0.977705 0.862217 0.991757
0.979203 0.848294 0.991537
0.978767 0.891961 0.991252
0.169046 0.932389 0.991848
0.188872 0.931819 0.991819
0.303765 0.930441 0.991723
0.664664 0.928394 0.991572
0.907064 0.925413 0.991368
0.955376 0.922415 0.991051
0.969213 0.919601 0.990761
0.974850 0.917100 0.990191
0.975648 0.940777 0.989661
0.121136 0.962672 0.991129
0.127636 0.962346 0.991079
0.189137 0.961180 0.990898
0.382632 0.959008 0.990397
0.766757 0.956300 0.989463
0.925598 0.954321 0.988623
0.957995 0.953535 0.988066
0.968355 0.953659 0.987988
0.971540 0.963944 0.987986
0.093440 0.979511 0.989608
0.094346 0.979326 0.989588
0.103960 0.978785 0.989377
0.168982 0.977693 0.988832
0.382999 0.976123 0.988094
0.782029 0.974683 0.987982
0.936076 0.973890 0.987523
0.962197 0.973677 0.987235
0.968486 0.976830 0.987295
0.091497 0.984911 0.977721
0.091497 0.987284 0.981502
0.091497 0.987139 0.981141
0.091497 0.987017 0.980560
0.096216 0.987466 0.986350
0.205871 0.986946 0.987513
0.509584 0.986669 0.987224
0.883555 0.986632 0.986995
0.967534 0.986838 0.986944
