LUTs/ektachrome100d/Ektachrome100D_Modern_Soft.cube
TITLE "Kodak Ektachrome 100D Modern Soft"
# Adobe RGB in/out. REPLACES AgX. Kodak Ektachrome 100D Modern Soft.
LUT_3D_SIZE 9
DOMAIN_MIN 0.0 0.0 0.0
DOMAIN_MAX 1.0 1.0 1.0
0.070871 0.073418 0.089582
0.079374 0.073418 0.089582
0.540307 0.073464 0.089582
0.857783 0.075149 0.089582
0.914243 0.080932 0.089582
0.933186 0.089739 0.089672
0.939799 0.093327 0.090124
0.941883 0.074279 0.679718
0.937925 0.317608 0.873279
0.070871 0.073591 0.089582
0.070871 0.073483 0.089582
0.216123 0.074049 0.089582
0.785143 0.077161 0.089582
0.896269 0.087164 0.089582
0.926887 0.099079 0.089662
0.937426 0.104983 0.090028
0.940715 0.074192 0.666637
0.936900 0.308130 0.869543
0.070871 0.149964 0.089582
0.070871 0.123981 0.089582
0.077234 0.091723 0.089582
0.378267 0.102277 0.089582
0.813752 0.141717 0.089582
0.899647 0.224898 0.089648
0.925895 0.264291 0.089860
0.936653 0.075017 0.631329
0.933058 0.264877 0.857425
0.070871 0.622951 0.089582
0.070871 0.594515 0.089582
0.073498 0.522111 0.089582
0.126574 0.405258 0.089582
0.559556 0.423809 0.089582
0.845651 0.506378 0.089655
0.904813 0.560470 0.089830
0.923961 0.569027 0.090566
0.927050 0.220218 0.620622
0.070871 0.813072 0.089582
0.070871 0.805134 0.089582
0.072479 0.791199 0.089582
0.095002 0.758786 0.089582
0.311259 0.714952 0.089611
0.705540 0.711294 0.089688
0.868174 0.741682 0.089851
0.910773 0.763883 0.090363
0.920145 0.782018 0.121970
0.070871 0.886484 0.089582
0.070874 0.884074 0.089582
0.072010 0.879797 0.089591
0.085241 0.870437 0.089644
0.183475 0.855926 0.089700
0.544654 0.838972 0.089778
0.805019 0.834329 0.089932
0.891505 0.846367 0.090360
0.913204 0.859379 0.094113
0.070871 0.918137 0.089582
0.070871 0.917244 0.089582
0.071366 0.915613 0.089623
0.078356 0.912194 0.089684
0.127846 0.904173 0.089774
0.397110 0.895058 0.089866
0.711165 0.891135 0.090076
0.866471 0.889822 0.090389
0.906469 0.893655 0.092325
0.070871 0.936027 0.089582
0.070871 0.935360 0.089582
0.070884 0.933835 0.089595
0.073325 0.931992 0.089660
0.093543 0.928826 0.089757
0.243277 0.924546 0.089861
0.584311 0.920935 0.090069
0.829322 0.919021 0.090321
0.901085 0.918887 0.091339
0.070871 0.932497 0.089582
0.070871 0.932069 0.089582
0.070871 0.942576 0.089582
0.070871 0.940576 0.089582
0.073675 0.941071 0.089588
0.124068 0.937504 0.089661
0.399251 0.934719 0.089740
0.722625 0.933105 0.089792
0.899733 0.932767 0.089809
0.070871 0.073418 0.089809
0.072813 0.073418 0.104183
0.466332 0.073568 0.091262
0.863514 0.075480 0.090322
0.915151 0.081305 0.090001
0.931898 0.089685 0.090126
0.938889 0.093706 0.091591
0.941257 0.074234 0.673161
0.937394 0.313022 0.871344
0.070871 0.073486 0.089582
0.071032 0.073428 0.089582
0.246103 0.074159 0.089694
0.799979 0.077707 0.089854
0.899389 0.087113 0.089860
0.925929 0.098394 0.090037
0.936337 0.105184 0.090999
0.940091 0.074149 0.659323
0.936373 0.302984 0.867627
0.070871 0.116572 0.089610
0.070890 0.097244 0.089587
0.086026 0.084945 0.089582
0.482812 0.095125 0.089651
0.830505 0.131519 0.089755
0.901300 0.210249 0.089872
0.925024 0.256316 0.090370
0.935869 0.075313 0.627464
0.932445 0.259767 0.856257
0.070871 0.572952 0.089629
0.070904 0.543477 0.089635
0.077332 0.445254 0.089638
0.171456 0.335799 0.089648
0.605073 0.383601 0.089717
0.852941 0.485092 0.089836
0.905262 0.550299 0.090203
0.923211 0.563781 0.091937
0.926478 0.214772 0.842011
0.070873 0.797431 0.089627
0.070901 0.793995 0.089642
0.074495 0.776604 0.089678
0.106555 0.733586 0.089726
0.367620 0.691806 0.089779
0.730318 0.696536 0.089858
0.871076 0.733272 0.090189
0.910505 0.758220 0.091195
0.919639 0.781174 0.155290
0.070876 0.881963 0.089635
0.070890 0.879644 0.089647
0.072934 0.875068 0.089707
0.089142 0.864457 0.089781
0.210257 0.847823 0.089856
0.573572 0.831459 0.090029
0.814151 0.829360 0.090267
0.892492 0.843427 0.091029
0.912764 0.858549 0.096677
0.070871 0.916539 0.089637
0.070881 0.915657 0.089648
0.071790 0.913935 0.089708
0.080511 0.910347 0.089799
0.139892 0.900983 0.089941
0.420179 0.893556 0.090146
0.729838 0.889901 0.090413
0.868816 0.888729 0.091004
0.906282 0.893250 0.093639
0.070871 0.935307 0.089582
0.070871 0.934681 0.089582
0.070891 0.933197 0.089643
0.074108 0.931304 0.089735
0.097830 0.927985 0.089850
0.261430 0.923812 0.090076
0.593884 0.920283 0.090334
0.835727 0.918528 0.090703
0.901168 0.918618 0.092010
0.070871 0.933889 0.089731
0.070871 0.933464 0.089728
0.070871 0.943715 0.089715
0.070871 0.941422 0.089695
0.074221 0.940808 0.089617
0.127838 0.937272 0.089710
0.407740 0.934542 0.089800
0.732628 0.932987 0.089865
0.900042 0.932705 0.089905
0.070871 0.073418 0.140702
0.075860 0.073531 0.787322
0.449623 0.074484 0.752869
0.865908 0.077789 0.662482
0.915463 0.085542 0.530926
0.930690 0.094133 0.515423
0.937321 0.099140 0.599964
0.940162 0.074772 0.708503
0.936294 0.302215 0.867368
0.070871 0.074666 0.137729
0.074769 0.075619 0.401259
0.336074 0.076094 0.392085
0.812204 0.081322 0.329721
0.901380 0.090151 0.295154
0.925013 0.104866 0.355698
0.934437 0.111887 0.483133
0.938973 0.074921 0.701789
0.935106 0.288450 0.863611
0.070871 0.091257 0.096284
0.071277 0.086910 0.094490
0.092152 0.080608 0.093023
0.534195 0.092307 0.099680
0.847895 0.130494 0.112129
0.903803 0.209382 0.131003
0.923707 0.257234 0.164126
0.933735 0.091186 0.677069
0.931094 0.249017 0.854374
0.071177 0.474926 0.096239
0.072110 0.435703 0.095465
0.085562 0.319586 0.093968
0.223856 0.230284 0.093144
0.683942 0.325427 0.095819
0.862525 0.456173 0.103529
0.906164 0.535282 0.111903
0.921650 0.555358 0.165788
0.925122 0.202789 0.838016
0.071707 0.775605 0.094750
0.072668 0.766077 0.094719
0.082137 0.731074 0.094534
0.159411 0.679058 0.094215
0.477853 0.643724 0.094248
0.781593 0.666598 0.096830
0.878163 0.714561 0.100882
0.910026 0.744686 0.113798
0.918327 0.780102 0.596925
0.071835 0.872350 0.093751
0.072511 0.869979 0.093844
0.078665 0.862683 0.094251
0.113747 0.847294 0.094543
0.328649 0.826402 0.094917
0.652502 0.812852 0.095795
0.842588 0.816854 0.097674
0.895153 0.834664 0.104555
0.911562 0.856421 0.145342
0.071328 0.912281 0.091936
0.071710 0.911418 0.091954
0.075001 0.908713 0.092593
0.091358 0.901476 0.093453
0.190596 0.894049 0.094197
0.507577 0.888881 0.095041
0.773504 0.884872 0.096701
0.876255 0.885113 0.099817
0.905742 0.892078 0.111333
0.070878 0.932200 0.090327
0.070886 0.931780 0.090381
0.071886 0.930771 0.090928
0.078849 0.928584 0.091933
0.120270 0.925093 0.092909
0.345545 0.921188 0.093943
0.654337 0.918073 0.094985
0.854161 0.916844 0.096938
0.901309 0.917763 0.100548
0.070871 0.933178 0.089725
0.070871 0.944449 0.089721
0.070871 0.943036 0.089709
0.070871 0.940796 0.089690
0.077434 0.939670 0.089855
0.157045 0.936364 0.090305
0.454935 0.933857 0.090760
0.757771 0.932522 0.091350
0.900440 0.932482 0.091780
0.070871 0.073662 0.734019
0.071439 0.075250 0.906133
0.429717 0.078526 0.923595
0.862343 0.088192 0.919189
0.917906 0.099847 0.896947
0.931389 0.113809 0.875056
0.936930 0.120404 0.874251
0.938846 0.089398 0.902879
0.935460 0.292870 0.898331
0.070871 0.076417 0.748220
0.072639 0.080849 0.860143
0.419744 0.088834 0.905429
0.833780 0.097263 0.890186
0.905381 0.110668 0.860959
0.925646 0.128402 0.853085
0.933857 0.136787 0.856557
0.937234 0.095109 0.896131
0.934195 0.277355 0.896061
0.070907 0.106043 0.484446
0.072605 0.105255 0.512627
0.136890 0.104322 0.589515
0.599164 0.118701 0.631653
0.855707 0.169429 0.688919
0.905049 0.249788 0.730632
0.922978 0.304918 0.776459
0.930206 0.274311 0.850183
0.930072 0.241632 0.888298
0.071756 0.378910 0.237086
0.073270 0.349210 0.220755
0.089607 0.255346 0.177216
0.252491 0.187421 0.153077
0.705945 0.317787 0.264683
0.865251 0.454909 0.454643
0.905665 0.536955 0.583366
0.920218 0.564422 0.735554
0.923938 0.192990 0.869667
0.073320 0.731767 0.200603
0.075296 0.721083 0.194560
0.089031 0.683796 0.177687
0.183471 0.625959 0.156560
0.526573 0.587419 0.149427
0.796361 0.641347 0.194156
0.880179 0.699492 0.314778
0.908627 0.737999 0.510807
0.916953 0.781594 0.818171
0.074108 0.858913 0.157661
0.075571 0.856134 0.157113
0.086452 0.845369 0.157452
0.148978 0.825275 0.153543
0.407900 0.804515 0.150155
0.705013 0.796184 0.153898
0.853542 0.804928 0.181846
0.895370 0.826224 0.277075
0.910079 0.854130 0.680681
0.073093 0.904604 0.126238
0.074058 0.903062 0.126930
0.080326 0.898947 0.130506
0.108352 0.893868 0.134599
0.273684 0.888257 0.138557
0.585345 0.881931 0.143174
0.802846 0.879224 0.151310
0.880593 0.881450 0.175161
0.904780 0.890905 0.451481
0.071260 0.929325 0.105303
0.071510 0.928868 0.105962
0.074181 0.927689 0.109516
0.086544 0.925298 0.113361
0.161428 0.921974 0.118130
0.420605 0.918185 0.123938
0.709321 0.915618 0.129949
0.862753 0.914977 0.138818
0.901010 0.916861 0.206650
0.070871 0.937688 0.092187
0.070871 0.943868 0.092118
0.070871 0.942516 0.091958
0.070880 0.942274 0.090516
0.086152 0.937778 0.097381
0.184273 0.934985 0.101247
0.505121 0.932858 0.105114
0.790934 0.931825 0.107206
0.900480 0.932247 0.114946
0.070871 0.075913 0.902244
0.070880 0.079033 0.936286
0.362735 0.092289 0.950917
0.851275 0.118112 0.950946
0.921619 0.170509 0.950618
0.934401 0.179490 0.940178
0.938167 0.179021 0.933553
0.938812 0.126255 0.933879
0.935462 0.292905 0.935394
0.070871 0.083302 0.906272
0.071290 0.088950 0.932442
0.351351 0.117424 0.949795
0.837758 0.167683 0.950617
0.910842 0.197851 0.942916
0.928758 0.216361 0.933707
0.935286 0.218472 0.930226
0.937145 0.149339 0.931019
0.934159 0.276927 0.933434
0.071758 0.229209 0.891300
0.075457 0.241641 0.900496
0.199192 0.264799 0.918233
0.698591 0.268866 0.913106
0.866285 0.305591 0.905366
0.909282 0.355356 0.902988
0.924284 0.383057 0.906043
0.930239 0.369749 0.917011
0.929894 0.240379 0.928717
0.072694 0.415519 0.746910
0.075168 0.404416 0.747815
0.102408 0.376490 0.754583
0.387520 0.362162 0.764639
0.748900 0.420783 0.786516
0.870955 0.513592 0.822569
0.906796 0.566528 0.851085
0.919982 0.593635 0.880008
0.923561 0.571910 0.918307
0.074901 0.695595 0.665843
0.077121 0.686953 0.660506
0.093469 0.659187 0.644196
0.206437 0.602277 0.610866
0.542994 0.564106 0.591242
0.804468 0.639898 0.678154
0.881321 0.702642 0.750511
0.907851 0.743121 0.815169
0.916087 0.786810 0.889378
0.076379 0.841726 0.609645
0.078388 0.838220 0.608073
0.092198 0.827212 0.604987
0.176112 0.807977 0.589548
0.454788 0.792511 0.569084
0.716816 0.784634 0.570424
0.856220 0.797416 0.629482
0.894747 0.822394 0.720383
0.908816 0.854465 0.847609
0.075464 0.895818 0.519332
0.076767 0.895114 0.519139
0.086281 0.892995 0.523492
0.129947 0.888869 0.525864
0.336502 0.881813 0.525951
0.623002 0.876105 0.530149
0.817298 0.874440 0.550293
0.882339 0.878711 0.607111
0.903520 0.890330 0.776458
0.072083 0.926178 0.343338
0.072634 0.925754 0.347037
0.076862 0.924583 0.374227
0.093368 0.922325 0.403857
0.184416 0.918908 0.430182
0.476556 0.915530 0.451549
0.745303 0.913447 0.466513
0.868141 0.913404 0.492256
0.900459 0.916438 0.658898
0.070871 0.937970 0.291655
0.070871 0.938567 0.286144
0.070871 0.939565 0.268339
0.072089 0.938833 0.162940
0.091696 0.936350 0.198337
0.219626 0.933873 0.227715
0.552786 0.932021 0.252883
0.809484 0.931284 0.270229
0.900310 0.932300 0.465541
0.070871 0.085643 0.949148
0.070874 0.089033 0.957374
0.295631 0.139312 0.962820
0.827681 0.212605 0.962997
0.920247 0.329095 0.963077
0.937925 0.340989 0.960157
0.940132 0.319700 0.953310
0.939761 0.234217 0.950617
0.936274 0.302033 0.945580
0.070871 0.095756 0.950083
0.070948 0.105535 0.956822
0.288506 0.196383 0.962421
0.816532 0.300923 0.962707
0.916355 0.400420 0.962520
0.932973 0.375104 0.957441
0.937788 0.353762 0.950641
0.938302 0.273054 0.948766
0.934987 0.286976 0.944453
0.072367 0.372050 0.950062
0.076048 0.406128 0.952666
0.272245 0.524265 0.960626
0.745697 0.507473 0.957063
0.878531 0.493586 0.950636
0.915446 0.493796 0.946541
0.927353 0.495378 0.943046
0.931682 0.478064 0.941870
0.930615 0.245549 0.940742
0.074742 0.544449 0.913275
0.077896 0.545045 0.915954
0.131279 0.556332 0.924333
0.501430 0.557309 0.925812
0.795000 0.567937 0.924263
0.880807 0.591865 0.924386
0.910523 0.622353 0.926999
0.921244 0.642736 0.930205
0.923937 0.646288 0.933689
0.076401 0.701193 0.855785
0.079105 0.696348 0.855706
0.102924 0.685235 0.856651
0.276611 0.664272 0.856046
0.617988 0.658405 0.856642
0.825776 0.686428 0.869133
0.885558 0.729158 0.888685
0.908768 0.761281 0.904601
0.916073 0.795420 0.924745
0.077993 0.828042 0.822559
0.080782 0.825306 0.821534
0.097909 0.817195 0.819970
0.186522 0.801541 0.814538
0.476105 0.788101 0.805512
0.728981 0.777606 0.796754
0.858494 0.798655 0.837561
0.894891 0.825413 0.864051
0.908269 0.857651 0.904757
0.077143 0.891676 0.782094
0.078877 0.891030 0.781581
0.090053 0.889006 0.781655
0.151277 0.884032 0.781097
0.368924 0.877589 0.779931
0.648948 0.872036 0.779488
0.823424 0.870834 0.785178
0.882765 0.877499 0.818377
0.902525 0.890483 0.879983
0.072844 0.923598 0.727522
0.073499 0.923225 0.727392
0.078886 0.922146 0.730444
0.100549 0.919828 0.733503
0.212659 0.916713 0.737306
0.511463 0.913672 0.741725
0.762738 0.911933 0.748355
0.870622 0.912371 0.762607
0.899789 0.916435 0.844622
0.070871 0.937087 0.565291
0.070871 0.937590 0.573437
0.070871 0.938329 0.603487
0.072341 0.937833 0.621788
0.093982 0.935437 0.636941
0.238720 0.933171 0.647472
0.570674 0.931570 0.655734
0.818913 0.931070 0.660781
0.900022 0.932508 0.779858
0.070871 0.112912 0.964118
0.070884 0.121362 0.965197
0.187903 0.253008 0.966127
0.812081 0.359748 0.966205
0.917994 0.472252 0.966240
0.940861 0.515812 0.965484
0.942467 0.461891 0.963181
0.941249 0.373891 0.960825
0.937454 0.313561 0.956706
0.070871 0.144028 0.964187
0.071029 0.161473 0.965116
0.194237 0.328986 0.966063
0.804114 0.436054 0.966158
0.915808 0.532859 0.966201
0.937362 0.533962 0.964829
0.940379 0.490945 0.962404
0.939874 0.413076 0.959998
0.936342 0.302603 0.955498
0.072671 0.475723 0.964251
0.075671 0.497796 0.964779
0.223861 0.586051 0.965679
0.777310 0.647721 0.965923
0.890765 0.619326 0.964242
0.921564 0.599300 0.961844
0.931439 0.581031 0.959124
0.934092 0.560347 0.955730
0.931992 0.255456 0.951325
0.077585 0.666170 0.957411
0.082551 0.667086 0.957982
0.168389 0.681100 0.958925
0.584886 0.681666 0.957429
0.830683 0.678339 0.954048
0.892660 0.679722 0.950643
0.915895 0.682809 0.950205
0.923738 0.686684 0.948828
0.924998 0.717022 0.948743
0.078772 0.744037 0.933799
0.082696 0.742905 0.934318
0.117177 0.744545 0.936148
0.362084 0.741595 0.936186
0.703002 0.741108 0.935046
0.852557 0.750705 0.934635
0.893066 0.767148 0.935542
0.911543 0.780914 0.937687
0.916969 0.806055 0.941166
0.079724 0.828447 0.911669
0.082944 0.826726 0.911816
0.102585 0.822624 0.913163
0.220835 0.813774 0.913211
0.540707 0.803699 0.911071
0.771215 0.802524 0.910829
0.865517 0.815946 0.916974
0.897321 0.836054 0.925608
0.908784 0.862212 0.932115
0.077923 0.889066 0.889776
0.080054 0.888371 0.889765
0.092142 0.886380 0.890635
0.164163 0.882393 0.891539
0.400528 0.876928 0.891458
0.670642 0.871576 0.889981
0.825142 0.867928 0.888372
0.883808 0.878582 0.903541
0.902310 0.891542 0.924474
0.072878 0.922021 0.856934
0.073590 0.921658 0.856795
0.079315 0.920600 0.857890
0.102606 0.918545 0.859568
0.227519 0.915733 0.862023
0.535441 0.912922 0.864570
0.771762 0.911302 0.867933
0.871286 0.911956 0.875916
0.899251 0.916850 0.910588
0.070871 0.935441 0.767884
0.070871 0.936775 0.766141
0.070871 0.937826 0.761028
0.071430 0.937811 0.819189
0.092086 0.935154 0.820198
0.231185 0.933003 0.823168
0.567536 0.931566 0.826103
0.817621 0.931263 0.827764
0.899777 0.932928 0.893099
0.070884 0.208814 0.967614
0.071187 0.224128 0.967665
0.233557 0.363246 0.967665
0.830239 0.465490 0.967665
0.921664 0.548633 0.967665
0.944640 0.598577 0.967665
0.945167 0.546831 0.966259
0.943136 0.456474 0.964780
0.938751 0.378324 0.962951
0.070945 0.270773 0.967595
0.071566 0.292078 0.967665
0.248404 0.432730 0.967665
0.823606 0.524273 0.967665
0.920009 0.588189 0.967665
0.941775 0.611804 0.967366
0.943257 0.564173 0.965961
0.941819 0.488789 0.964471
0.937692 0.383320 0.962601
0.074746 0.572353 0.967521
0.078194 0.581965 0.967607
0.308730 0.651153 0.967665
0.802317 0.693467 0.967665
0.906327 0.703101 0.967264
0.929386 0.676133 0.966040
0.936362 0.648682 0.964579
0.937056 0.604430 0.963022
0.933674 0.511355 0.961433
0.083952 0.754796 0.966434
0.089968 0.753800 0.966381
0.257444 0.763776 0.966140
0.683637 0.758029 0.965417
0.862076 0.747276 0.964412
0.906673 0.737684 0.962999
0.921984 0.728181 0.961515
0.927237 0.718434 0.960163
0.926660 0.747794 0.958635
0.083925 0.788371 0.960810
0.088395 0.788080 0.960799
0.164641 0.791332 0.960654
0.478407 0.790547 0.959481
0.772370 0.788724 0.957666
0.870495 0.788730 0.955580
0.903094 0.790494 0.953647
0.915814 0.794081 0.952470
0.918575 0.818419 0.952049
0.082375 0.842114 0.949444
0.085798 0.841376 0.949558
0.116960 0.841349 0.949754
0.291463 0.837674 0.948637
0.613991 0.833227 0.946809
0.814048 0.833204 0.945405
0.877747 0.838857 0.945040
0.902585 0.847694 0.945690
0.910371 0.867376 0.947145
0.078362 0.889077 0.937528
0.080611 0.888580 0.937766
0.095028 0.887562 0.938820
0.177285 0.884764 0.939138
0.449810 0.880810 0.938076
0.713487 0.877567 0.936374
0.850455 0.877857 0.935822
0.888945 0.882993 0.937887
0.903408 0.893307 0.941482
0.072045 0.922186 0.924302
0.072647 0.921833 0.924552
0.077847 0.920732 0.926482
0.100765 0.918797 0.928418
0.230108 0.916214 0.930116
0.547873 0.913654 0.930207
0.781471 0.912024 0.930224
0.870960 0.911371 0.930192
0.899279 0.917680 0.936663
0.070871 0.933078 0.878348
0.070871 0.937337 0.878874
0.070871 0.937083 0.885493
0.070887 0.937916 0.894697
0.084877 0.935775 0.897691
0.192742 0.933561 0.901192
0.537234 0.932167 0.903834
0.802659 0.931929 0.904730
0.899627 0.933537 0.931607
0.113309 0.256188 0.967665
0.160925 0.267698 0.967665
0.673264 0.320886 0.967665
0.911087 0.398718 0.967665
0.942008 0.487416 0.967665
0.952677 0.548419 0.967665
0.949771 0.455365 0.967665
0.945738 0.231671 0.966362
0.939714 0.371948 0.964761
0.121805 0.316521 0.967665
0.172519 0.325562 0.967665
0.673999 0.372880 0.967665
0.909680 0.455087 0.967665
0.941623 0.533190 0.967665
0.950543 0.562344 0.967665
0.948109 0.477990 0.967431
0.944526 0.255211 0.966165
0.938847 0.377800 0.964632
0.183032 0.553225 0.967665
0.247416 0.560243 0.967665
0.686010 0.588156 0.967665
0.903052 0.635247 0.967665
0.938684 0.671139 0.967665
0.942881 0.633431 0.967665
0.942562 0.573265 0.966554
0.940437 0.428011 0.965325
0.935198 0.336737 0.963907
0.280115 0.780764 0.967665
0.348039 0.779141 0.967665
0.647329 0.774764 0.967665
0.870548 0.764870 0.967665
0.915479 0.748289 0.966889
0.928255 0.728250 0.966040
0.932383 0.697410 0.964930
0.932421 0.650814 0.963804
0.928595 0.749402 0.962214
0.182945 0.806975 0.965967
0.214008 0.805774 0.965865
0.475636 0.802830 0.965511
0.789319 0.798399 0.964944
0.879445 0.795601 0.964260
0.907995 0.790917 0.963239
0.918240 0.783476 0.962107
0.921839 0.773962 0.961071
0.920791 0.809905 0.959723
0.116754 0.853971 0.962541
0.132478 0.852981 0.962404
0.282236 0.850590 0.961950
0.622841 0.847044 0.961235
0.825840 0.842989 0.960270
0.880752 0.840019 0.958776
0.902291 0.837233 0.957410
0.911283 0.834757 0.956145
0.913014 0.864585 0.954817
0.086806 0.890269 0.959144
0.090599 0.889886 0.958908
0.132706 0.888514 0.958056
0.389471 0.885959 0.956660
0.705201 0.882778 0.954324
0.847864 0.880454 0.952222
0.884002 0.879532 0.950832
0.900927 0.879676 0.950637
0.905998 0.892419 0.950633
0.071751 0.921559 0.954685
0.072158 0.921263 0.954636
0.077156 0.920394 0.954107
0.116710 0.918640 0.952745
0.389962 0.916123 0.950903
0.717268 0.913816 0.950622
0.857177 0.912546 0.949478
0.891153 0.912205 0.948760
0.901135 0.917257 0.948909
0.070871 0.930253 0.924474
0.070871 0.936776 0.934535
0.070871 0.935984 0.933643
0.070871 0.935312 0.932208
0.072994 0.937769 0.946556
0.151150 0.934927 0.949453
0.500643 0.933416 0.948732
0.802990 0.933213 0.948161
0.899621 0.934336 0.948035
