LUTs/ektachrome100d/Ektachrome100D_Classic_Normal.cube
TITLE "Kodak Ektachrome 100D Classic Normal"
# Adobe RGB in/out. REPLACES AgX. Kodak Ektachrome 100D Classic Normal.
LUT_3D_SIZE 9
DOMAIN_MIN 0.0 0.0 0.0
DOMAIN_MAX 1.0 1.0 1.0
0.086071 0.084324 0.090717
0.086460 0.084324 0.090717
0.189770 0.084324 0.090717
0.599930 0.084356 0.090717
0.877899 0.085063 0.090717
0.933106 0.087138 0.090717
0.949118 0.088347 0.090728
0.958199 0.084432 0.257133
0.958711 0.148583 0.777999
0.086071 0.084324 0.090717
0.086071 0.084324 0.090717
0.132252 0.084360 0.090717
0.486055 0.084867 0.090717
0.847033 0.086545 0.090717
0.929544 0.088672 0.090717
0.948451 0.091061 0.090724
0.958199 0.084433 0.257213
0.958711 0.148595 0.777994
0.086071 0.088390 0.090717
0.086071 0.089815 0.090717
0.088619 0.092656 0.090717
0.237700 0.096426 0.090717
0.681789 0.102870 0.090717
0.906157 0.114545 0.090717
0.944303 0.128072 0.090724
0.958225 0.084776 0.266854
0.958711 0.148596 0.777993
0.086071 0.164104 0.090717
0.086071 0.179069 0.090717
0.086348 0.213065 0.090717
0.119539 0.223068 0.090717
0.394203 0.246909 0.090717
0.819806 0.280118 0.090717
0.931973 0.327152 0.090741
0.953206 0.340411 0.090841
0.958711 0.148697 0.363801
0.086071 0.453333 0.090717
0.086071 0.471040 0.090717
0.086093 0.527021 0.090717
0.099511 0.564818 0.090717
0.243164 0.579391 0.090717
0.619628 0.606399 0.090726
0.902577 0.637316 0.090769
0.948458 0.670916 0.090856
0.958374 0.721878 0.100746
0.086071 0.765705 0.090717
0.086071 0.773036 0.090717
0.086090 0.803400 0.090717
0.092577 0.826665 0.090717
0.170963 0.834863 0.090719
0.436314 0.839549 0.090756
0.825383 0.848221 0.090813
0.939964 0.857511 0.090925
0.957591 0.878236 0.091815
0.086071 0.906192 0.090717
0.086071 0.908872 0.090717
0.086082 0.920495 0.090717
0.089861 0.928297 0.090717
0.129844 0.931286 0.090744
0.315347 0.932786 0.090791
0.692323 0.934518 0.090849
0.922902 0.936889 0.090993
0.956615 0.941022 0.091517
0.086071 0.950386 0.090717
0.086071 0.950428 0.090717
0.086071 0.951704 0.090717
0.087315 0.954403 0.090717
0.107878 0.956199 0.090748
0.237424 0.956948 0.090799
0.534846 0.957782 0.090859
0.881909 0.959273 0.090991
0.956000 0.961399 0.091293
0.086071 0.958613 0.090717
0.086071 0.958614 0.090717
0.086071 0.971127 0.090717
0.086071 0.971421 0.090717
0.088498 0.974470 0.090717
0.147786 0.973832 0.090737
0.363330 0.973602 0.090774
0.759689 0.974123 0.090810
0.957621 0.975239 0.090826
0.086071 0.084324 0.090717
0.086071 0.084324 0.090868
0.159262 0.084324 0.090721
0.657658 0.084406 0.090717
0.888587 0.085182 0.090717
0.934016 0.087334 0.090718
0.949111 0.088537 0.090799
0.958199 0.084433 0.257224
0.958711 0.148595 0.778001
0.086071 0.084324 0.090717
0.086245 0.084346 0.090717
0.151770 0.084409 0.090717
0.554900 0.085018 0.090717
0.868742 0.086817 0.090717
0.930983 0.088834 0.090718
0.948487 0.091758 0.090788
0.958199 0.084434 0.257351
0.958711 0.148596 0.777995
0.086071 0.088032 0.090717
0.086071 0.088762 0.090717
0.096761 0.090828 0.090717
0.321954 0.096531 0.090717
0.747391 0.103635 0.090717
0.913855 0.115086 0.090728
0.944767 0.129023 0.090779
0.958232 0.084906 0.271166
0.958711 0.148596 0.777994
0.086071 0.156654 0.090717
0.086071 0.168966 0.090717
0.087982 0.198234 0.090717
0.155358 0.214164 0.090717
0.476476 0.241558 0.090726
0.843136 0.278964 0.090749
0.934302 0.326098 0.090799
0.953306 0.341056 0.090983
0.958711 0.148626 0.777986
0.086071 0.437141 0.090717
0.086071 0.456287 0.090717
0.086621 0.507683 0.090717
0.108935 0.546290 0.090717
0.283210 0.566372 0.090749
0.676371 0.599413 0.090783
0.911451 0.634161 0.090833
0.948970 0.668443 0.090997
0.958366 0.723769 0.114197
0.086071 0.757683 0.090717
0.086071 0.765475 0.090717
0.086281 0.795316 0.090717
0.096214 0.821408 0.090727
0.192534 0.830801 0.090764
0.474223 0.836666 0.090820
0.841525 0.846496 0.090902
0.941553 0.857074 0.091075
0.957612 0.878461 0.092775
0.086071 0.903844 0.090717
0.086071 0.906680 0.090717
0.086093 0.918098 0.090717
0.091222 0.927304 0.090739
0.138465 0.930321 0.090786
0.335190 0.932014 0.090846
0.720892 0.933953 0.090973
0.925645 0.936612 0.091147
0.956719 0.940982 0.092033
0.086071 0.950135 0.090717
0.086071 0.950206 0.090717
0.086071 0.951322 0.090717
0.087746 0.953915 0.090733
0.110958 0.955701 0.090780
0.246728 0.956529 0.090842
0.554980 0.957477 0.090965
0.889018 0.959117 0.091130
0.956214 0.961345 0.091608
0.086071 0.960352 0.090737
0.086071 0.960353 0.090737
0.086071 0.972427 0.090737
0.086071 0.972427 0.090737
0.089003 0.974406 0.090717
0.155097 0.973757 0.090755
0.371154 0.973551 0.090804
0.766398 0.974100 0.090842
0.957895 0.975228 0.090864
0.086071 0.084324 0.091286
0.086087 0.084324 0.170237
0.143385 0.084324 0.137283
0.631559 0.084628 0.116631
0.890958 0.085985 0.110180
0.934705 0.088162 0.117530
0.948999 0.089693 0.163755
0.958213 0.084605 0.322369
0.958711 0.148596 0.778058
0.086071 0.084324 0.091251
0.086082 0.084362 0.093994
0.141466 0.084602 0.098305
0.563913 0.085515 0.098726
0.876806 0.087658 0.099316
0.932470 0.090570 0.105763
0.948479 0.094639 0.131233
0.958218 0.084669 0.331720
0.958711 0.148596 0.778005
0.086071 0.088038 0.090991
0.086076 0.088670 0.091132
0.119725 0.096272 0.092385
0.383128 0.097989 0.092498
0.805629 0.106228 0.093197
0.921683 0.120045 0.095057
0.945701 0.135056 0.099776
0.957878 0.091817 0.356995
0.958711 0.148596 0.777995
0.086071 0.151098 0.090952
0.086086 0.160882 0.091016
0.094052 0.184402 0.091204
0.231018 0.206245 0.091548
0.610764 0.239916 0.092215
0.883271 0.282824 0.093138
0.939165 0.328529 0.094282
0.953617 0.345107 0.109622
0.958711 0.148600 0.778002
0.086072 0.423243 0.090933
0.086093 0.438794 0.090976
0.090408 0.482074 0.091129
0.143064 0.519821 0.091396
0.387074 0.547315 0.091764
0.789953 0.589162 0.092721
0.923575 0.630107 0.093375
0.950398 0.663017 0.097738
0.958334 0.731195 0.426256
0.086082 0.747464 0.090939
0.086110 0.754440 0.090971
0.089004 0.780228 0.091106
0.114233 0.803877 0.091341
0.263595 0.821222 0.091733
0.599891 0.830419 0.092535
0.883900 0.842570 0.093214
0.944999 0.855863 0.095632
0.957683 0.879434 0.122828
0.086078 0.898648 0.090878
0.086089 0.901368 0.090906
0.087505 0.911947 0.091011
0.100260 0.923342 0.091193
0.188904 0.927630 0.091550
0.427036 0.929851 0.092227
0.800273 0.932374 0.093066
0.934214 0.935706 0.094731
0.957031 0.940876 0.102448
0.086071 0.948593 0.090816
0.086071 0.948836 0.090826
0.086276 0.949902 0.090912
0.091532 0.951896 0.091083
0.131908 0.953751 0.091352
0.300071 0.954908 0.091811
0.634180 0.956298 0.092700
0.913396 0.958505 0.093505
0.956792 0.961160 0.096337
0.086071 0.960353 0.090737
0.086071 0.972427 0.090737
0.086071 0.972427 0.090737
0.086071 0.972429 0.090737
0.092229 0.973931 0.090806
0.180144 0.973349 0.090968
0.416396 0.973266 0.091158
0.810664 0.973917 0.091339
0.958344 0.975169 0.091544
0.086071 0.084324 0.126172
0.086071 0.084329 0.537947
0.138982 0.084578 0.632658
0.569934 0.085174 0.613894
0.881143 0.087379 0.610502
0.933050 0.090122 0.625248
0.948436 0.095129 0.700972
0.956937 0.088749 0.833714
0.958711 0.148595 0.848174
0.086071 0.084438 0.134270
0.086071 0.084716 0.334253
0.136747 0.085277 0.534200
0.513510 0.086769 0.529798
0.869248 0.088952 0.545240
0.931073 0.095373 0.584433
0.947951 0.100363 0.671788
0.956769 0.091636 0.826431
0.958711 0.148596 0.848549
0.086071 0.089276 0.112397
0.086092 0.091375 0.130722
0.116063 0.096132 0.219781
0.386374 0.101341 0.282784
0.810273 0.110858 0.343139
0.922213 0.130619 0.419197
0.945566 0.149833 0.532267
0.955344 0.149640 0.741631
0.958711 0.148596 0.850033
0.086081 0.153316 0.102394
0.086471 0.162436 0.105831
0.101282 0.185911 0.119760
0.289936 0.234523 0.172224
0.669190 0.250320 0.189928
0.895023 0.292795 0.235896
0.940819 0.339362 0.329726
0.953571 0.362976 0.562122
0.958711 0.148630 0.850618
0.086297 0.418431 0.099401
0.087046 0.431944 0.101127
0.096513 0.472426 0.107944
0.190247 0.509693 0.118869
0.478441 0.542447 0.137992
0.829435 0.589258 0.166050
0.929025 0.632044 0.211230
0.950995 0.670079 0.341107
0.958271 0.745003 0.798850
0.086618 0.740637 0.097179
0.087334 0.747043 0.097968
0.093535 0.771208 0.102143
0.139895 0.793303 0.109755
0.331844 0.812323 0.120074
0.700478 0.826674 0.137535
0.907713 0.840623 0.164113
0.946956 0.855468 0.220955
0.957715 0.882491 0.620358
0.086541 0.894544 0.095225
0.086992 0.897051 0.095672
0.090978 0.906954 0.097964
0.115682 0.917492 0.103072
0.242723 0.925613 0.110623
0.525116 0.928228 0.122021
0.847522 0.931228 0.139652
0.940315 0.935143 0.169581
0.957259 0.941052 0.382608
0.086086 0.947818 0.093062
0.086103 0.948080 0.093223
0.087727 0.949180 0.094333
0.098521 0.950371 0.097093
0.167232 0.952217 0.102275
0.359129 0.953652 0.109848
0.723192 0.955365 0.118684
0.924680 0.957965 0.134753
0.957239 0.961128 0.216454
0.086071 0.966404 0.091189
0.086071 0.972921 0.091189
0.086071 0.972922 0.091189
0.086071 0.974630 0.090981
0.103145 0.972911 0.093170
0.221935 0.972708 0.095455
0.479051 0.972856 0.098686
0.849759 0.973636 0.102086
0.958607 0.975156 0.112510
0.086071 0.084369 0.517521
0.086071 0.084606 0.751651
0.122257 0.085733 0.859973
0.508086 0.087309 0.860093
0.867235 0.089445 0.859873
0.930608 0.096984 0.865464
0.947650 0.102673 0.878189
0.956097 0.099736 0.905253
0.958711 0.148597 0.930524
0.086071 0.084850 0.538692
0.086071 0.085298 0.718107
0.120416 0.087276 0.845588
0.474125 0.088838 0.848563
0.852666 0.094682 0.849919
0.928769 0.102224 0.859210
0.947187 0.108781 0.873534
0.955935 0.104559 0.903443
0.958711 0.148597 0.928426
0.086071 0.093859 0.501134
0.086092 0.096291 0.587268
0.113026 0.102606 0.751457
0.377632 0.109294 0.792642
0.801158 0.122319 0.807772
0.921011 0.150263 0.829514
0.945049 0.174933 0.852567
0.954897 0.185690 0.886325
0.958711 0.148604 0.921752
0.086157 0.172383 0.403605
0.087104 0.181503 0.448307
0.106974 0.210309 0.557349
0.290622 0.235748 0.652943
0.682382 0.271295 0.703749
0.898239 0.323180 0.752087
0.940975 0.361431 0.801851
0.953380 0.398671 0.859085
0.958776 0.388033 0.921812
0.087102 0.426047 0.314722
0.088454 0.439491 0.337533
0.103172 0.477546 0.419441
0.222319 0.516543 0.499827
0.550331 0.577033 0.598784
0.847060 0.602030 0.632546
0.931371 0.643488 0.704744
0.951163 0.688924 0.800581
0.958184 0.763705 0.900541
0.087928 0.741036 0.264781
0.089332 0.747064 0.277862
0.100423 0.769407 0.328478
0.172153 0.791170 0.404634
0.385286 0.811406 0.472044
0.753249 0.827214 0.530093
0.916222 0.841865 0.599831
0.947973 0.856348 0.694456
0.957690 0.887918 0.868127
0.087844 0.893269 0.221233
0.088877 0.895668 0.228975
0.095862 0.904738 0.262270
0.134853 0.915042 0.318567
0.288409 0.923993 0.387341
0.596978 0.927696 0.452902
0.874898 0.931018 0.502838
0.943049 0.935151 0.577681
0.957347 0.941735 0.807633
0.086452 0.947559 0.167735
0.086727 0.947802 0.172972
0.090050 0.948778 0.197631
0.108246 0.949929 0.235449
0.207452 0.951378 0.289315
0.424470 0.953008 0.348164
0.771042 0.954963 0.409395
0.931441 0.957806 0.463588
0.957472 0.961438 0.668497
0.086071 0.968178 0.187274
0.086071 0.969114 0.187274
0.086071 0.971294 0.187269
0.086987 0.972540 0.135043
0.111698 0.972486 0.171645
0.245635 0.972439 0.211233
0.533712 0.972691 0.247029
0.875242 0.973568 0.276484
0.958748 0.975389 0.459862
0.086071 0.084992 0.842585
0.086071 0.085313 0.887709
0.113802 0.088173 0.933464
0.456962 0.090922 0.935309
0.850077 0.097924 0.935873
0.928115 0.105507 0.937521
0.946839 0.114234 0.941137
0.955538 0.113988 0.947640
0.958711 0.148597 0.950450
0.086071 0.086044 0.846585
0.086071 0.086620 0.884429
0.112636 0.090027 0.927984
0.429906 0.095756 0.931904
0.838117 0.102758 0.933714
0.926438 0.112174 0.936080
0.946407 0.126754 0.940067
0.955382 0.126269 0.947054
0.958711 0.148597 0.950450
0.086071 0.100539 0.846515
0.086089 0.102410 0.867088
0.110332 0.112373 0.906318
0.360591 0.126152 0.915384
0.790508 0.148847 0.920312
0.919530 0.178166 0.926166
0.944503 0.209573 0.935459
0.954515 0.224881 0.943842
0.958711 0.148604 0.950450
0.086395 0.197802 0.810697
0.087424 0.206880 0.830024
0.109222 0.237234 0.868867
0.295759 0.273228 0.891406
0.690547 0.310897 0.902366
0.898881 0.349408 0.907613
0.940851 0.398756 0.919505
0.953181 0.444353 0.937512
0.958672 0.474250 0.950341
0.087961 0.458725 0.760262
0.089731 0.469020 0.774675
0.109013 0.506695 0.817454
0.239574 0.546287 0.850962
0.563426 0.583691 0.870829
0.856409 0.620908 0.883997
0.932542 0.662533 0.900191
0.951236 0.710363 0.920291
0.958100 0.783372 0.947614
0.089509 0.748752 0.702335
0.091257 0.754787 0.713054
0.107214 0.775505 0.752823
0.196394 0.796797 0.795177
0.432423 0.817810 0.831345
0.788157 0.835186 0.853771
0.920299 0.846079 0.870143
0.948532 0.858511 0.896982
0.957670 0.895107 0.940561
0.089462 0.895559 0.647408
0.090794 0.897800 0.656868
0.101111 0.906327 0.689795
0.155008 0.916026 0.731374
0.322896 0.925083 0.776109
0.652379 0.928217 0.807280
0.888434 0.931729 0.834164
0.944507 0.935831 0.861114
0.957398 0.942789 0.922767
0.087034 0.947825 0.583508
0.087582 0.948052 0.590313
0.092045 0.948944 0.618536
0.115642 0.950002 0.654421
0.229681 0.951481 0.699372
0.470834 0.953212 0.739172
0.812164 0.955304 0.774579
0.935417 0.958263 0.803058
0.957583 0.962039 0.888760
0.086071 0.968789 0.425072
0.086071 0.969606 0.439624
0.086071 0.971438 0.479688
0.087346 0.972760 0.535945
0.115894 0.972617 0.583440
0.259665 0.972602 0.621712
0.561260 0.972922 0.653121
0.886439 0.973828 0.678581
0.958795 0.975738 0.836287
0.086071 0.087072 0.943668
0.086071 0.087464 0.954850
0.100116 0.093511 0.965219
0.419136 0.099830 0.966181
0.840180 0.107413 0.966620
0.926768 0.120082 0.967334
0.946425 0.137797 0.968889
0.955208 0.142985 0.971654
0.958711 0.148573 0.972992
0.086071 0.088264 0.944381
0.086071 0.088657 0.954003
0.101127 0.097914 0.964357
0.400388 0.104258 0.965604
0.830664 0.113916 0.966138
0.925373 0.133903 0.966917
0.946031 0.155538 0.968534
0.955064 0.161937 0.971418
0.958711 0.148564 0.972806
0.086071 0.107724 0.945044
0.086086 0.109685 0.950507
0.105088 0.128559 0.959877
0.352953 0.150801 0.962683
0.790485 0.178544 0.963903
0.919457 0.212129 0.965128
0.944350 0.242752 0.967020
0.954328 0.271209 0.970148
0.958710 0.148368 0.971963
0.086586 0.225424 0.937523
0.087611 0.233427 0.941859
0.108893 0.272986 0.951539
0.301924 0.313282 0.956857
0.704866 0.347817 0.959330
0.902329 0.390728 0.961398
0.941204 0.439070 0.964197
0.953171 0.484594 0.968053
0.958489 0.566017 0.973501
0.088887 0.494213 0.917080
0.090710 0.503316 0.923212
0.111871 0.540055 0.939023
0.252383 0.580206 0.947554
0.588351 0.616106 0.952359
0.867373 0.648607 0.955582
0.934057 0.689614 0.959215
0.951475 0.728669 0.964743
0.958066 0.801537 0.972074
0.090896 0.766990 0.898341
0.092627 0.772302 0.902516
0.111380 0.789923 0.912787
0.218105 0.811918 0.932505
0.469785 0.827971 0.942002
0.807342 0.839491 0.947346
0.923215 0.852017 0.952066
0.949107 0.865017 0.958813
0.957703 0.902306 0.969536
0.090550 0.901495 0.875731
0.092024 0.903670 0.878507
0.105430 0.911196 0.889224
0.169854 0.920264 0.904848
0.347994 0.926665 0.918429
0.687679 0.929707 0.933900
0.897367 0.933196 0.940625
0.945582 0.936957 0.949365
0.957491 0.944014 0.965692
0.087244 0.948745 0.851776
0.087804 0.948949 0.853775
0.092808 0.949699 0.862363
0.119122 0.950837 0.874070
0.241599 0.952602 0.888810
0.502869 0.954298 0.903740
0.827107 0.956419 0.912556
0.937597 0.959028 0.927750
0.957680 0.962856 0.957429
0.086071 0.968706 0.736855
0.086071 0.970291 0.736911
0.086071 0.972314 0.738409
0.086467 0.973930 0.838798
0.114113 0.973338 0.848166
0.258316 0.973246 0.859766
0.562350 0.973548 0.868401
0.886640 0.974380 0.874223
0.958836 0.976223 0.944209
0.086071 0.090718 0.975789
0.086071 0.091533 0.976258
0.106269 0.100034 0.976941
0.461278 0.106804 0.977049
0.856349 0.117530 0.977124
0.929146 0.138287 0.977252
0.947018 0.158448 0.977507
0.955483 0.161765 0.978173
0.958718 0.168704 0.978558
0.086071 0.094501 0.975719
0.086071 0.095369 0.976161
0.107837 0.104020 0.976856
0.447465 0.112374 0.976980
0.849029 0.129286 0.977062
0.928112 0.154123 0.977197
0.946727 0.176666 0.977459
0.955361 0.181800 0.978121
0.958720 0.175496 0.978558
0.086079 0.123941 0.975453
0.086161 0.127176 0.975766
0.115289 0.152118 0.976419
0.396104 0.176415 0.976636
0.818495 0.207200 0.976770
0.923367 0.237989 0.976941
0.945367 0.272351 0.977233
0.954755 0.290021 0.977865
0.958743 0.261612 0.978558
0.087148 0.265621 0.974732
0.088389 0.270682 0.975025
0.119252 0.305987 0.975738
0.341372 0.340474 0.976111
0.754682 0.374946 0.976332
0.913704 0.421009 0.976560
0.942949 0.466433 0.976901
0.953827 0.503160 0.977527
0.958513 0.602479 0.978554
0.089922 0.531531 0.974245
0.091956 0.538201 0.974389
0.120445 0.572185 0.974733
0.289703 0.607697 0.975357
0.656106 0.636356 0.975749
0.886401 0.669402 0.976060
0.938064 0.706963 0.976452
0.952474 0.737603 0.977108
0.958196 0.812910 0.978141
0.092001 0.785967 0.969765
0.094523 0.789828 0.971067
0.117880 0.807312 0.973917
0.239667 0.824261 0.974438
0.529179 0.835182 0.974925
0.836743 0.845984 0.975403
0.928820 0.856312 0.975874
0.950562 0.868746 0.976592
0.957923 0.907198 0.977756
0.091191 0.909978 0.959868
0.092612 0.911603 0.961346
0.108691 0.918429 0.966410
0.184357 0.925775 0.971762
0.379920 0.928640 0.974270
0.737669 0.931504 0.974455
0.911604 0.934696 0.975018
0.947493 0.937894 0.975872
0.957758 0.944933 0.977314
0.086681 0.950459 0.945888
0.087242 0.950719 0.946888
0.092088 0.951704 0.951319
0.118676 0.953123 0.957954
0.245999 0.954595 0.965400
0.517544 0.956147 0.970823
0.840189 0.958135 0.973858
0.938688 0.959560 0.974394
0.957881 0.963685 0.976633
0.086071 0.967824 0.902145
0.086071 0.972239 0.903782
0.086071 0.972881 0.909921
0.086080 0.974923 0.929921
0.104136 0.974682 0.938805
0.237750 0.974400 0.945589
0.527802 0.974540 0.950601
0.872616 0.975183 0.953267
0.958877 0.976805 0.974934
0.090425 0.093702 0.980990
0.095068 0.094380 0.980991
0.254289 0.097151 0.980994
0.813025 0.102014 0.981001
0.920868 0.108761 0.981014
0.942072 0.117472 0.981038
0.951178 0.122146 0.981098
0.957221 0.106939 0.981208
0.958711 0.161256 0.980974
0.091389 0.096735 0.980977
0.096838 0.097593 0.980978
0.254725 0.100586 0.980982
0.808024 0.105856 0.980990
0.920089 0.113979 0.981005
0.941839 0.127313 0.981030
0.951079 0.133472 0.981092
0.957170 0.111303 0.981204
0.958711 0.167969 0.981128
0.098370 0.118762 0.980907
0.107746 0.120650 0.980909
0.261887 0.129274 0.980919
0.768692 0.146236 0.980937
0.915470 0.169175 0.980960
0.940620 0.192930 0.980995
0.950590 0.204374 0.981063
0.956896 0.170682 0.981182
0.958711 0.168028 0.981128
0.113097 0.266413 0.980788
0.123904 0.269418 0.980795
0.265824 0.281493 0.980818
0.710683 0.308566 0.980852
0.901790 0.338428 0.980888
0.937165 0.364378 0.980937
0.949577 0.385048 0.981015
0.956370 0.379445 0.981138
0.958808 0.588737 0.981266
0.118092 0.535786 0.980687
0.131750 0.539300 0.980699
0.247952 0.553706 0.980737
0.604327 0.577781 0.980782
0.874660 0.606525 0.980833
0.931710 0.629603 0.980893
0.948033 0.647934 0.980978
0.955815 0.659362 0.981110
0.958808 0.786624 0.981316
0.112590 0.789954 0.980621
0.120016 0.791884 0.980638
0.213406 0.800019 0.980693
0.477155 0.812880 0.980755
0.819385 0.824700 0.980814
0.922617 0.833543 0.980882
0.945603 0.840807 0.980969
0.955084 0.847280 0.981100
0.958752 0.894793 0.981315
0.098110 0.914155 0.980594
0.102860 0.915018 0.980617
0.138598 0.918708 0.980688
0.314075 0.924112 0.980769
0.674103 0.926854 0.980843
0.892753 0.929090 0.980917
0.941023 0.931243 0.981012
0.954006 0.933098 0.981135
0.958744 0.942950 0.981342
0.086517 0.951833 0.980322
0.086931 0.952046 0.980430
0.091697 0.952919 0.980651
0.137229 0.953958 0.980809
0.348622 0.954810 0.980928
0.750547 0.955915 0.981020
0.921345 0.957525 0.981110
0.951194 0.958641 0.981223
0.958805 0.962924 0.981396
0.086071 0.966164 0.956696
0.086071 0.972922 0.972577
0.086071 0.972922 0.972577
0.086071 0.973526 0.972608
0.088559 0.976780 0.979323
0.190851 0.975845 0.981055
0.495446 0.975758 0.981278
0.873603 0.976333 0.981395
0.958928 0.977467 0.981468
