LUTs/ektachrome100d/Ektachrome100D_Modern_IlfochromeP.cube
TITLE "Kodak Ektachrome 100D Modern IlfochromeP"
# Adobe RGB in/out. REPLACES AgX. Kodak Ektachrome 100D Modern IlfochromeP.
LUT_3D_SIZE 9
DOMAIN_MIN 0.0 0.0 0.0
DOMAIN_MAX 1.0 1.0 1.0
0.138981 0.101282 0.098429
0.189439 0.113652 0.101417
0.507387 0.141421 0.105309
0.875135 0.184102 0.112542
0.982270 0.231680 0.123929
0.996682 0.268472 0.141709
0.997097 0.278496 0.168945
0.997262 0.170494 0.556202
0.996958 0.407651 0.783850
0.139040 0.151607 0.100954
0.144933 0.142952 0.101846
0.341286 0.167029 0.105340
0.752628 0.210722 0.112311
0.954308 0.257278 0.123269
0.994332 0.289939 0.140286
0.996926 0.298879 0.165371
0.997169 0.169169 0.548298
0.996892 0.403746 0.777844
0.140003 0.339709 0.105128
0.143792 0.321012 0.106041
0.182180 0.274750 0.107387
0.419219 0.294914 0.113226
0.800295 0.335687 0.123258
0.959532 0.374714 0.138425
0.993379 0.390960 0.158732
0.996876 0.181971 0.528286
0.996676 0.391176 0.758498
0.142183 0.553130 0.110905
0.145148 0.534970 0.112354
0.167845 0.487203 0.114985
0.274486 0.439818 0.118032
0.521128 0.445968 0.125816
0.846295 0.480195 0.139358
0.967538 0.512813 0.156456
0.991520 0.518480 0.184627
0.994489 0.373051 0.522699
0.143994 0.727814 0.117741
0.147044 0.718563 0.119099
0.162864 0.696866 0.123411
0.229388 0.657484 0.128369
0.385449 0.619505 0.133626
0.651868 0.616804 0.143119
0.898634 0.642302 0.158082
0.978413 0.662010 0.177961
0.987851 0.684734 0.320957
0.145827 0.845199 0.124080
0.148023 0.839721 0.125556
0.160022 0.830051 0.131469
0.204006 0.809118 0.137925
0.323052 0.781785 0.144052
0.510500 0.758184 0.151666
0.785883 0.752719 0.161823
0.946956 0.768376 0.177836
0.981433 0.788678 0.228283
0.145723 0.915093 0.128468
0.147390 0.912672 0.129639
0.155815 0.908258 0.135199
0.186235 0.899052 0.142810
0.275810 0.884895 0.151246
0.426426 0.870301 0.159226
0.661475 0.857444 0.167155
0.894975 0.853043 0.178993
0.970506 0.865806 0.209426
0.142644 0.962187 0.125329
0.143161 0.961077 0.125807
0.149385 0.958101 0.131850
0.167172 0.951991 0.140100
0.227277 0.942343 0.149602
0.353397 0.931188 0.158833
0.541186 0.922228 0.166889
0.822048 0.917492 0.176294
0.961759 0.917129 0.195385
0.140237 0.953662 0.120579
0.140230 0.952246 0.120418
0.143568 0.973103 0.119893
0.143419 0.969765 0.124442
0.168379 0.970591 0.131114
0.271685 0.964646 0.140224
0.427689 0.960013 0.147919
0.674928 0.955678 0.153154
0.959665 0.954556 0.154866
0.139020 0.109776 0.154812
0.164559 0.121418 0.276637
0.464499 0.150080 0.194457
0.888596 0.189541 0.176351
0.983048 0.232928 0.164354
0.996613 0.268268 0.169007
0.997025 0.279378 0.198460
0.997212 0.169804 0.551978
0.996924 0.405629 0.780736
0.139980 0.143201 0.125329
0.152288 0.135932 0.123165
0.354612 0.168665 0.143593
0.777284 0.213925 0.158318
0.959133 0.257053 0.158797
0.993412 0.288850 0.165689
0.996856 0.299172 0.191316
0.997120 0.168512 0.544159
0.996858 0.401743 0.774770
0.143479 0.313150 0.133512
0.150305 0.287009 0.130955
0.206182 0.247527 0.126734
0.476803 0.282678 0.138838
0.823708 0.329855 0.149360
0.962092 0.369791 0.159665
0.992541 0.387986 0.178256
0.996828 0.186789 0.526274
0.996642 0.389281 0.755572
0.146419 0.521033 0.135916
0.150903 0.501267 0.136701
0.182570 0.453026 0.137154
0.308235 0.415865 0.138476
0.564127 0.432388 0.145675
0.862046 0.470529 0.156947
0.968293 0.505914 0.171727
0.990799 0.515053 0.203235
0.993939 0.371285 0.727282
0.147870 0.709613 0.135733
0.150850 0.700575 0.137608
0.171650 0.676794 0.142334
0.250230 0.635118 0.146530
0.413773 0.602379 0.151773
0.680052 0.605886 0.158575
0.904886 0.634840 0.171185
0.977919 0.656982 0.193655
0.987364 0.683622 0.356980
0.148319 0.834941 0.136692
0.150388 0.829706 0.138365
0.165174 0.819437 0.144741
0.215413 0.798470 0.151990
0.338576 0.770413 0.158494
0.531832 0.749345 0.165394
0.800850 0.746879 0.174196
0.948478 0.764267 0.191667
0.981080 0.786931 0.245938
0.147401 0.910762 0.137066
0.149014 0.908376 0.138468
0.158515 0.903733 0.144775
0.192108 0.894292 0.153810
0.286620 0.880366 0.162181
0.439868 0.865484 0.169796
0.679419 0.853307 0.179971
0.900015 0.850319 0.191377
0.970163 0.864490 0.223160
0.143067 0.960990 0.129235
0.143613 0.959950 0.130055
0.150431 0.955983 0.137839
0.170078 0.949719 0.147433
0.233522 0.940147 0.157957
0.361312 0.929283 0.167133
0.552634 0.920728 0.176794
0.831047 0.916153 0.187504
0.961888 0.916397 0.206218
0.140234 0.958282 0.147068
0.140227 0.956870 0.146708
0.143554 0.975007 0.145507
0.143406 0.971176 0.143694
0.170538 0.970152 0.134432
0.275801 0.964259 0.144972
0.432663 0.959718 0.153867
0.683100 0.955287 0.159170
0.960143 0.954354 0.160843
0.139329 0.124778 0.344211
0.177244 0.146984 0.661833
0.453788 0.173676 0.617178
0.893767 0.214407 0.545949
0.983347 0.250139 0.484533
0.996546 0.280372 0.479154
0.996919 0.290035 0.509645
0.997126 0.178217 0.574839
0.996853 0.401442 0.774355
0.142385 0.176522 0.341271
0.172768 0.191870 0.440914
0.395619 0.199987 0.438417
0.798141 0.232985 0.422267
0.962215 0.270051 0.412991
0.992531 0.298709 0.429565
0.996750 0.308428 0.468743
0.997031 0.180444 0.570505
0.996786 0.397559 0.768346
0.147015 0.273660 0.244000
0.154863 0.256157 0.232424
0.223521 0.230308 0.216632
0.503812 0.276114 0.260977
0.849973 0.328660 0.300054
0.965971 0.369502 0.333693
0.991276 0.388332 0.363490
0.996712 0.273492 0.554479
0.996569 0.385136 0.749160
0.153812 0.465859 0.243781
0.160774 0.449813 0.239568
0.204842 0.408600 0.226705
0.344781 0.377109 0.217907
0.629926 0.411382 0.241674
0.886395 0.457560 0.274609
0.969946 0.495665 0.299056
0.989299 0.509350 0.364689
0.992636 0.367269 0.719832
0.157956 0.675176 0.234639
0.163825 0.663959 0.234400
0.196218 0.632890 0.232910
0.297788 0.592910 0.229400
0.473273 0.565217 0.229758
0.748279 0.583208 0.246694
0.920249 0.619217 0.266419
0.977038 0.644967 0.305030
0.986103 0.682211 0.508357
0.158827 0.813372 0.224359
0.163027 0.808186 0.225359
0.187207 0.795360 0.229791
0.258691 0.769673 0.233003
0.392640 0.743409 0.235928
0.604080 0.727557 0.241531
0.841287 0.732230 0.250883
0.952584 0.753113 0.277787
0.979865 0.782481 0.348725
0.155408 0.899287 0.203113
0.157977 0.896971 0.204715
0.173713 0.891352 0.212171
0.221380 0.881066 0.221172
0.327986 0.867090 0.229194
0.491762 0.850666 0.236934
0.738392 0.841533 0.246056
0.916100 0.842080 0.261674
0.969172 0.860616 0.296812
0.148512 0.952678 0.176540
0.149786 0.951291 0.178680
0.159171 0.947957 0.190467
0.187783 0.941712 0.202823
0.267126 0.932608 0.215442
0.400296 0.922812 0.226437
0.605604 0.914918 0.236473
0.866091 0.911586 0.247228
0.962106 0.914076 0.265345
0.140222 0.955919 0.146469
0.143601 0.976234 0.146118
0.143510 0.973873 0.144947
0.143368 0.970132 0.143274
0.182974 0.968254 0.158387
0.295939 0.962748 0.175655
0.456116 0.958175 0.188467
0.719244 0.953747 0.195527
0.960760 0.953613 0.200785
0.139913 0.155329 0.597392
0.156220 0.185747 0.836260
0.444720 0.218775 0.867505
0.885992 0.261835 0.859052
0.985697 0.291161 0.819867
0.996585 0.310413 0.786715
0.996894 0.317226 0.785418
0.997021 0.267170 0.830435
0.996805 0.398670 0.822327
0.143143 0.205162 0.612284
0.163678 0.231329 0.762818
0.439618 0.264698 0.834999
0.828308 0.287046 0.807843
0.968510 0.307137 0.764118
0.993139 0.326205 0.744956
0.996719 0.333431 0.756599
0.996914 0.282640 0.818383
0.996737 0.394708 0.818256
0.150939 0.300419 0.469292
0.163504 0.299275 0.478264
0.284304 0.297915 0.505335
0.558972 0.315399 0.528455
0.870200 0.351746 0.562176
0.967905 0.385456 0.593851
0.990575 0.402498 0.645003
0.996516 0.393910 0.740385
0.996507 0.382026 0.804899
0.158285 0.430741 0.396448
0.166890 0.420394 0.390681
0.216664 0.387620 0.370918
0.357372 0.361826 0.355311
0.652558 0.407737 0.404741
0.892360 0.457038 0.456690
0.969031 0.496811 0.503138
0.987921 0.515478 0.598998
0.991498 0.363838 0.778043
0.167147 0.633505 0.382243
0.174923 0.624028 0.379417
0.215115 0.596433 0.371157
0.322995 0.555037 0.357931
0.500166 0.530399 0.352521
0.771136 0.564075 0.379226
0.924643 0.608076 0.417944
0.974467 0.639033 0.477709
0.984781 0.684176 0.695351
0.170081 0.787697 0.358751
0.176051 0.782077 0.358343
0.207414 0.766980 0.358596
0.291880 0.742087 0.355663
0.432756 0.717843 0.353082
0.650973 0.705929 0.355932
0.864039 0.718323 0.373246
0.952919 0.743200 0.408185
0.977137 0.779260 0.556828
0.165984 0.885508 0.327026
0.169877 0.883318 0.328002
0.191689 0.877481 0.333002
0.253548 0.866500 0.338135
0.366565 0.849241 0.342094
0.542420 0.834867 0.346627
0.782170 0.828761 0.353966
0.925547 0.833781 0.369870
0.967487 0.856673 0.455128
0.154693 0.943649 0.280101
0.156622 0.942455 0.282143
0.170376 0.939371 0.292710
0.207682 0.933141 0.304041
0.299584 0.924621 0.314753
0.440113 0.915221 0.323767
0.658319 0.908271 0.332227
0.886902 0.906540 0.342352
0.961642 0.911632 0.385008
0.141778 0.964950 0.208001
0.143530 0.975263 0.207262
0.143443 0.973004 0.205049
0.148908 0.972600 0.183301
0.206548 0.965101 0.249425
0.324050 0.960454 0.267545
0.490567 0.954861 0.279515
0.761953 0.951438 0.286001
0.960822 0.952836 0.307631
0.140886 0.196872 0.829301
0.148917 0.221804 0.904057
0.410989 0.276072 0.942647
0.856856 0.314765 0.942700
0.989268 0.352496 0.938739
0.996748 0.358010 0.913068
0.996974 0.357781 0.897759
0.997019 0.323662 0.898509
0.996806 0.398679 0.901999
0.143655 0.240390 0.836510
0.155004 0.265217 0.895208
0.403934 0.314020 0.937009
0.833906 0.350528 0.938492
0.978539 0.365557 0.920770
0.996130 0.371804 0.898114
0.996796 0.372489 0.885730
0.996908 0.339361 0.891654
0.996735 0.394596 0.897487
0.158301 0.376635 0.809614
0.175585 0.382030 0.826181
0.333205 0.391147 0.857223
0.641942 0.392507 0.848735
0.894577 0.402761 0.834886
0.975671 0.422250 0.830629
0.991830 0.432198 0.836099
0.996518 0.427483 0.855006
0.996496 0.381492 0.878794
0.163957 0.443243 0.610907
0.174398 0.439534 0.611859
0.242525 0.429885 0.618985
0.422816 0.424742 0.629605
0.706812 0.444977 0.660578
0.904625 0.483422 0.700520
0.971105 0.516852 0.741804
0.987694 0.534404 0.794724
0.991135 0.520356 0.857364
0.173306 0.605188 0.547849
0.181733 0.598778 0.544830
0.227078 0.577016 0.535553
0.336781 0.539951 0.517755
0.509312 0.515272 0.505950
0.784940 0.563377 0.555185
0.927138 0.610407 0.614695
0.973041 0.643579 0.691828
0.983948 0.691057 0.806559
0.179107 0.761895 0.516630
0.186335 0.757298 0.515181
0.223645 0.744359 0.512338
0.312165 0.721873 0.505347
0.456052 0.698604 0.497981
0.671190 0.688183 0.498468
0.871419 0.709596 0.527325
0.951958 0.738711 0.583167
0.974815 0.779729 0.736340
0.175612 0.872345 0.480519
0.180332 0.870451 0.480452
0.206922 0.863662 0.481966
0.277980 0.850639 0.482787
0.395790 0.834602 0.482817
0.579274 0.821757 0.484265
0.805235 0.818032 0.491116
0.929365 0.827607 0.514294
0.965533 0.854744 0.645001
0.160532 0.935433 0.426128
0.163652 0.934329 0.427167
0.180707 0.931284 0.434254
0.226804 0.925431 0.441634
0.324140 0.917186 0.448718
0.472287 0.908034 0.455155
0.701204 0.902419 0.461867
0.898563 0.902302 0.471976
0.960789 0.910489 0.543918
0.142194 0.965422 0.412080
0.142445 0.966416 0.410627
0.142956 0.968078 0.405770
0.160589 0.966858 0.362631
0.222292 0.962725 0.381191
0.342880 0.958227 0.393179
0.516308 0.952088 0.401337
0.793535 0.949652 0.406298
0.960558 0.953010 0.461463
0.142820 0.250581 0.935893
0.147948 0.265587 0.954695
0.378735 0.334594 0.970080
0.819748 0.370573 0.970456
0.987949 0.413114 0.970627
0.996958 0.417633 0.962210
0.997123 0.408655 0.946906
0.997094 0.378833 0.938549
0.996852 0.401370 0.928540
0.144796 0.284059 0.937506
0.151417 0.299683 0.953282
0.374436 0.365042 0.969229
0.804167 0.400934 0.969838
0.984206 0.438183 0.969439
0.996671 0.429394 0.954868
0.996949 0.421661 0.941959
0.996983 0.393578 0.935236
0.996780 0.397186 0.925249
0.162302 0.428306 0.937472
0.178018 0.440111 0.945760
0.365957 0.488280 0.963696
0.701818 0.480687 0.953898
0.921051 0.474413 0.941263
0.983331 0.474508 0.931353
0.994779 0.475228 0.921149
0.996601 0.467289 0.917732
0.996541 0.383684 0.914464
0.172658 0.501930 0.849007
0.184792 0.502337 0.853306
0.279347 0.510011 0.868926
0.485581 0.510673 0.871775
0.768827 0.517770 0.868791
0.926015 0.533264 0.869029
0.977952 0.552751 0.874066
0.988908 0.564743 0.885167
0.991497 0.566448 0.898073
0.179174 0.609334 0.753962
0.188592 0.605746 0.753692
0.243487 0.597501 0.756918
0.367797 0.581265 0.754852
0.575042 0.576363 0.756889
0.817079 0.598388 0.777185
0.936423 0.631190 0.805460
0.974725 0.659700 0.833514
0.983935 0.703446 0.869720
0.185095 0.745333 0.700508
0.192724 0.742123 0.699304
0.233671 0.732629 0.697464
0.325460 0.714386 0.691089
0.471945 0.692764 0.680531
0.678289 0.678418 0.672187
0.876829 0.711034 0.718985
0.952179 0.742248 0.769049
0.973809 0.785042 0.833794
0.181818 0.859262 0.653709
0.187873 0.857092 0.652914
0.217865 0.850952 0.653029
0.293054 0.839626 0.652164
0.414440 0.825086 0.650360
0.601124 0.812672 0.649676
0.813788 0.809998 0.658496
0.930297 0.824883 0.695593
0.963989 0.855259 0.794682
0.164718 0.928728 0.590605
0.167847 0.927762 0.590469
0.187901 0.925018 0.593655
0.238683 0.919683 0.596852
0.339692 0.911231 0.600831
0.493340 0.903025 0.605463
0.725277 0.898352 0.612426
0.903906 0.899528 0.627456
0.959752 0.910481 0.731659
0.142278 0.963950 0.496599
0.142489 0.964788 0.499561
0.142904 0.966019 0.511134
0.162171 0.965192 0.523309
0.228430 0.961206 0.531403
0.351416 0.955898 0.537422
0.529553 0.950597 0.542123
0.807487 0.948946 0.544985
0.960112 0.953701 0.650247
0.144736 0.309509 0.972880
0.149441 0.318247 0.976413
0.326320 0.386733 0.979692
0.797971 0.423862 0.980049
0.985782 0.464653 0.980212
0.997181 0.484411 0.977353
0.997308 0.459944 0.970847
0.997212 0.428963 0.964820
0.996928 0.405835 0.952985
0.147332 0.336722 0.973106
0.152256 0.346124 0.976146
0.330215 0.413062 0.979395
0.784335 0.449926 0.979835
0.983679 0.494004 0.980033
0.996922 0.494761 0.975208
0.997143 0.473209 0.969193
0.997103 0.442433 0.961748
0.996856 0.401594 0.950807
0.163836 0.466217 0.973316
0.176462 0.476324 0.975044
0.344783 0.529516 0.977992
0.743041 0.567543 0.978793
0.945815 0.550828 0.973285
0.989215 0.538042 0.968002
0.996588 0.526272 0.959216
0.996731 0.512730 0.951221
0.996618 0.387662 0.943373
0.183574 0.582851 0.954789
0.197300 0.583616 0.956253
0.305618 0.594428 0.958672
0.541872 0.594850 0.954837
0.823958 0.592376 0.948221
0.948737 0.593404 0.942158
0.983764 0.595699 0.937717
0.991305 0.598577 0.935343
0.992516 0.621033 0.935196
0.187543 0.644392 0.898326
0.197677 0.643387 0.899520
0.263351 0.644842 0.903738
0.410588 0.642224 0.903826
0.647555 0.641792 0.901195
0.860776 0.650310 0.900249
0.949363 0.664910 0.902340
0.979830 0.683281 0.907294
0.984796 0.719636 0.915692
0.190319 0.745808 0.846216
0.198327 0.743788 0.846481
0.242853 0.738981 0.848828
0.343426 0.728633 0.848905
0.507674 0.716894 0.845138
0.735600 0.715529 0.844702
0.892930 0.731170 0.854945
0.955934 0.754749 0.871383
0.974755 0.794536 0.894457
0.184875 0.851090 0.807191
0.191069 0.849501 0.807175
0.223492 0.844962 0.808558
0.301971 0.835912 0.809994
0.428440 0.823601 0.809866
0.619120 0.811649 0.807518
0.816192 0.804570 0.804984
0.932582 0.827316 0.831619
0.963657 0.858812 0.869198
0.164891 0.924731 0.757718
0.168121 0.923893 0.757411
0.189252 0.921459 0.759236
0.242893 0.916199 0.761903
0.346432 0.908582 0.765813
0.504406 0.901007 0.769879
0.736267 0.896661 0.775260
0.905341 0.898413 0.788104
0.958919 0.911604 0.844267
0.142155 0.961213 0.633041
0.142582 0.963431 0.631195
0.143055 0.965181 0.625786
0.156172 0.965156 0.696546
0.223342 0.960736 0.697732
0.348082 0.955340 0.701225
0.527083 0.950583 0.704682
0.805685 0.949581 0.706640
0.959733 0.955093 0.812816
0.149480 0.369311 0.985488
0.153921 0.374368 0.985901
0.349140 0.425136 0.986504
0.823335 0.461586 0.986599
0.989312 0.504780 0.986665
0.997479 0.537579 0.986002
0.997521 0.503553 0.980302
0.997361 0.457684 0.975047
0.997014 0.430534 0.970358
0.151382 0.392973 0.985426
0.156999 0.398472 0.985816
0.355595 0.448859 0.986428
0.814042 0.488285 0.986538
0.987721 0.530896 0.986611
0.997253 0.546040 0.984693
0.997370 0.515316 0.978929
0.997257 0.472224 0.974037
0.996943 0.432290 0.969612
0.172672 0.520644 0.985191
0.185725 0.526876 0.985467
0.384376 0.570300 0.986043
0.781267 0.603611 0.986235
0.970244 0.610747 0.984370
0.996465 0.590734 0.979291
0.996857 0.568279 0.974388
0.996902 0.541330 0.970509
0.996709 0.482424 0.967127
0.200740 0.653942 0.981108
0.217636 0.653057 0.980866
0.359567 0.661915 0.979753
0.629678 0.656812 0.977134
0.885389 0.647267 0.973841
0.970880 0.638754 0.970460
0.989619 0.630324 0.967301
0.994668 0.622075 0.962227
0.994113 0.647726 0.957930
0.200679 0.693121 0.964735
0.213157 0.692737 0.964676
0.302386 0.697041 0.963851
0.473693 0.696002 0.960249
0.737008 0.693588 0.955443
0.903632 0.693595 0.950954
0.964872 0.695932 0.947506
0.983685 0.700688 0.945410
0.986342 0.734060 0.944661
0.196839 0.762436 0.936405
0.205523 0.761407 0.936602
0.263058 0.761370 0.936939
0.376398 0.756655 0.935014
0.571666 0.751422 0.931864
0.800706 0.751395 0.928028
0.919345 0.758049 0.926961
0.964083 0.770233 0.928863
0.977673 0.803599 0.932443
0.186253 0.851115 0.906926
0.192336 0.849979 0.907476
0.229412 0.847654 0.909917
0.313147 0.841287 0.910654
0.453870 0.832337 0.908193
0.665459 0.825036 0.904260
0.854742 0.825687 0.902986
0.943199 0.837271 0.907757
0.965359 0.864675 0.916606
0.160261 0.925111 0.868866
0.163716 0.924296 0.869347
0.184618 0.921761 0.873068
0.239144 0.916884 0.877970
0.347599 0.909881 0.882836
0.512802 0.902976 0.885218
0.748130 0.898595 0.885657
0.904636 0.896844 0.884840
0.958962 0.913852 0.904927
0.141801 0.955588 0.792035
0.142987 0.964367 0.792886
0.143084 0.963944 0.801651
0.149926 0.965331 0.815749
0.203061 0.961768 0.821187
0.329303 0.957191 0.827423
0.505259 0.952571 0.832142
0.781851 0.951783 0.833746
0.959502 0.957112 0.893292
0.258093 0.387938 0.990610
0.299143 0.392210 0.990611
0.621268 0.409222 0.990614
0.978990 0.437604 0.990621
0.997272 0.471596 0.990635
0.998146 0.504635 0.990662
0.997892 0.457227 0.985757
0.997566 0.377720 0.980777
0.997090 0.428270 0.974986
0.268977 0.407127 0.990595
0.309137 0.411446 0.990596
0.621864 0.428602 0.990600
0.976402 0.457112 0.990610
0.997241 0.494231 0.990625
0.997960 0.514081 0.989605
0.997752 0.467255 0.984904
0.997470 0.387569 0.979867
0.997021 0.430349 0.974561
0.317907 0.507902 0.990518
0.355173 0.512660 0.990521
0.631601 0.530875 0.990532
0.964807 0.560909 0.990551
0.997008 0.587001 0.989979
0.997340 0.559763 0.985893
0.997315 0.521236 0.981661
0.997147 0.447335 0.976833
0.996791 0.416186 0.972329
0.369258 0.683083 0.989552
0.401863 0.680911 0.989161
0.599763 0.673815 0.987848
0.903746 0.662887 0.985744
0.983362 0.648166 0.983169
0.995646 0.630385 0.979290
0.996639 0.606534 0.975538
0.996641 0.570016 0.972128
0.995973 0.649153 0.968789
0.317836 0.720707 0.978953
0.340315 0.719309 0.978605
0.471588 0.715884 0.977443
0.759230 0.710736 0.975583
0.923043 0.704034 0.973345
0.973306 0.696492 0.970972
0.986019 0.686656 0.968560
0.989480 0.672519 0.966215
0.988473 0.724120 0.960951
0.262779 0.779035 0.969485
0.280571 0.777644 0.969193
0.370242 0.774289 0.968226
0.579139 0.769322 0.966707
0.817169 0.763656 0.962538
0.925896 0.759516 0.958289
0.963628 0.756136 0.954787
0.979351 0.753223 0.951961
0.981281 0.798693 0.949593
0.208442 0.854542 0.959274
0.219334 0.853257 0.958629
0.280803 0.849828 0.956442
0.423515 0.844004 0.952882
0.651293 0.836784 0.948713
0.849921 0.831533 0.944970
0.933009 0.829454 0.942497
0.961514 0.829780 0.941270
0.969642 0.861765 0.940769
0.158250 0.923666 0.949357
0.161207 0.922983 0.949270
0.181873 0.920984 0.948326
0.262720 0.916458 0.945900
0.423690 0.909636 0.942623
0.671971 0.903411 0.939205
0.873692 0.899998 0.936463
0.946414 0.899083 0.935225
0.961836 0.912705 0.935482
0.141242 0.946251 0.869198
0.143071 0.963432 0.900019
0.143020 0.962115 0.897966
0.144040 0.960998 0.894672
0.165482 0.965085 0.931396
0.292989 0.960358 0.936421
0.484520 0.956710 0.935177
0.782416 0.956036 0.934193
0.959491 0.959376 0.933976
