LUTs/ektachrome100d/Ektachrome100D_Classic_ExtraPunchy.cube
TITLE "Kodak Ektachrome 100D Classic ExtraPunchy"
# Adobe RGB in/out. REPLACES AgX. Kodak Ektachrome 100D Classic ExtraPunchy.
LUT_3D_SIZE 9
DOMAIN_MIN 0.0 0.0 0.0
DOMAIN_MAX 1.0 1.0 1.0
0.069243 0.072709 0.079439
0.069341 0.072709 0.079439
0.120097 0.072709 0.079439
0.624356 0.072720 0.079439
0.904557 0.072964 0.079439
0.954139 0.073675 0.079439
0.966006 0.074310 0.079407
0.973944 0.072746 0.187531
0.974392 0.106647 0.818407
0.069243 0.072709 0.079439
0.069243 0.072709 0.079439
0.084785 0.072721 0.079439
0.493755 0.072896 0.079439
0.875007 0.073473 0.079439
0.951988 0.074481 0.079439
0.965422 0.075542 0.079417
0.973945 0.072746 0.187625
0.974392 0.106654 0.818401
0.069243 0.074332 0.079439
0.069243 0.075078 0.079439
0.069775 0.076186 0.079439
0.162238 0.077963 0.079439
0.704469 0.081613 0.079439
0.928476 0.087415 0.079439
0.961793 0.094300 0.079418
0.973968 0.072865 0.199018
0.974392 0.106654 0.818399
0.069243 0.116028 0.079439
0.069243 0.127701 0.079439
0.069318 0.159258 0.079439
0.079835 0.168880 0.079439
0.364331 0.191915 0.079439
0.852578 0.230143 0.079439
0.953455 0.288555 0.079370
0.969581 0.305760 0.079089
0.974392 0.106712 0.332055
0.069243 0.452330 0.079439
0.069243 0.476435 0.079439
0.069250 0.554617 0.079439
0.073057 0.596335 0.079439
0.167678 0.612457 0.079439
0.644682 0.641406 0.079414
0.925740 0.676466 0.079292
0.965429 0.714706 0.079045
0.974098 0.774885 0.080455
0.069243 0.830238 0.079439
0.069243 0.837451 0.079439
0.069249 0.867264 0.079439
0.071275 0.889223 0.079439
0.106082 0.898780 0.079431
0.424974 0.904246 0.079328
0.857184 0.914131 0.079167
0.958272 0.923629 0.078852
0.973413 0.943872 0.078094
0.069243 0.961448 0.079439
0.069243 0.963122 0.079439
0.069246 0.969130 0.079439
0.070246 0.972569 0.079439
0.083864 0.974750 0.079361
0.260090 0.975843 0.079230
0.716409 0.977105 0.079065
0.947135 0.978832 0.078767
0.972561 0.981838 0.078139
0.069243 0.987237 0.079439
0.069243 0.987255 0.079439
0.069243 0.987830 0.079439
0.069514 0.989045 0.079439
0.075487 0.989852 0.079349
0.161977 0.990188 0.079205
0.555338 0.990562 0.079038
0.909320 0.991231 0.078769
0.972023 0.992183 0.078406
0.069243 0.990935 0.079439
0.069243 0.990935 0.079439
0.069243 0.996526 0.079439
0.069243 0.996655 0.079439
0.069751 0.996754 0.079439
0.091979 0.996734 0.079380
0.324559 0.996726 0.079277
0.793147 0.996743 0.079176
0.973440 0.996779 0.079130
0.069243 0.072709 0.079439
0.069243 0.072709 0.079012
0.097948 0.072709 0.079426
0.677184 0.072737 0.079439
0.915020 0.073005 0.079439
0.954689 0.073778 0.079435
0.966000 0.074410 0.079208
0.973945 0.072746 0.187637
0.974392 0.106654 0.818410
0.069243 0.072709 0.079439
0.069293 0.072716 0.079439
0.094036 0.072738 0.079439
0.577870 0.072949 0.079439
0.893692 0.073566 0.079439
0.952857 0.074565 0.079434
0.965454 0.075779 0.079237
0.973945 0.072747 0.187786
0.974392 0.106654 0.818401
0.069243 0.074145 0.079439
0.069243 0.074528 0.079439
0.072348 0.075462 0.079439
0.270315 0.078012 0.079439
0.780418 0.081987 0.079439
0.936171 0.087786 0.079407
0.962198 0.094883 0.079262
0.973974 0.072910 0.204195
0.974392 0.106654 0.818400
0.069243 0.111180 0.079439
0.069243 0.119809 0.079439
0.069648 0.145223 0.079439
0.095869 0.160309 0.079439
0.482387 0.186052 0.079412
0.871806 0.228781 0.079347
0.954861 0.287201 0.079207
0.969669 0.306605 0.078779
0.974392 0.106671 0.818388
0.069243 0.433102 0.079439
0.069243 0.455853 0.079439
0.069374 0.531721 0.079439
0.075886 0.575869 0.079439
0.213492 0.598054 0.079346
0.698335 0.634635 0.079253
0.933260 0.672883 0.079110
0.965876 0.711887 0.078763
0.974091 0.777370 0.084009
0.069243 0.822179 0.079439
0.069243 0.830011 0.079439
0.069303 0.859337 0.079439
0.072205 0.883098 0.079410
0.122303 0.894043 0.079305
0.479719 0.900883 0.079146
0.870482 0.912354 0.078917
0.959385 0.923182 0.078668
0.973432 0.944014 0.078368
0.069243 0.959981 0.079439
0.069243 0.961753 0.079439
0.069249 0.968515 0.079439
0.070763 0.971844 0.079376
0.087132 0.974046 0.079244
0.287300 0.975281 0.079074
0.748879 0.976694 0.078792
0.949629 0.978631 0.078581
0.972652 0.981809 0.078157
0.069243 0.987123 0.079439
0.069243 0.987156 0.079439
0.069243 0.987658 0.079439
0.069600 0.988825 0.079394
0.076543 0.989628 0.079261
0.171537 0.990000 0.079084
0.577953 0.990426 0.078801
0.915352 0.991161 0.078602
0.972211 0.992159 0.078061
0.069243 0.991714 0.079381
0.069243 0.991715 0.079381
0.069243 0.996688 0.079381
0.069243 0.996688 0.079381
0.069918 0.996752 0.079439
0.095746 0.996731 0.079331
0.335190 0.996725 0.079191
0.800090 0.996742 0.079084
0.973680 0.996779 0.079024
0.069243 0.072709 0.078414
0.069248 0.072709 0.110447
0.089697 0.072709 0.092449
0.656074 0.072814 0.084868
0.916840 0.073281 0.082740
0.955104 0.074213 0.085162
0.965902 0.075014 0.106608
0.973957 0.072806 0.273836
0.974392 0.106654 0.818491
0.069243 0.072709 0.078457
0.069247 0.072722 0.078752
0.088698 0.072805 0.079952
0.587178 0.073120 0.080051
0.903259 0.073948 0.080170
0.953756 0.075374 0.081539
0.965447 0.077124 0.090186
0.973962 0.072828 0.288268
0.974392 0.106654 0.818416
0.069243 0.074148 0.078770
0.069245 0.074479 0.078600
0.079916 0.077891 0.078257
0.350382 0.078756 0.078289
0.840697 0.083186 0.078501
0.945657 0.090249 0.078981
0.963016 0.098562 0.080262
0.973665 0.075799 0.323300
0.974392 0.106654 0.818401
0.069243 0.108066 0.078817
0.069248 0.113536 0.078739
0.071642 0.132394 0.078513
0.155948 0.152769 0.078101
0.635537 0.184630 0.078209
0.910936 0.233351 0.078479
0.957791 0.290327 0.078814
0.969941 0.311928 0.082562
0.974392 0.106657 0.818412
0.069244 0.416708 0.078840
0.069250 0.435059 0.078788
0.070455 0.492879 0.078603
0.089530 0.546686 0.078283
0.355335 0.577000 0.078080
0.824464 0.623276 0.078353
0.947951 0.668281 0.078565
0.967125 0.705703 0.079784
0.974062 0.787143 0.414891
0.069246 0.808629 0.078833
0.069254 0.817875 0.078794
0.069919 0.844522 0.078631
0.077551 0.867732 0.078349
0.190225 0.882882 0.078071
0.624317 0.893598 0.078300
0.911420 0.907772 0.078507
0.962401 0.921944 0.079194
0.973494 0.944630 0.086868
0.069245 0.956728 0.078984
0.069248 0.958432 0.078906
0.069552 0.965039 0.078745
0.073249 0.969858 0.078527
0.119407 0.972082 0.078100
0.411225 0.973703 0.078212
0.835141 0.975543 0.078453
0.954808 0.977970 0.078911
0.972925 0.981732 0.080842
0.069243 0.986428 0.079159
0.069243 0.986538 0.079131
0.069301 0.987018 0.078890
0.070881 0.987917 0.078659
0.084654 0.988752 0.078335
0.236895 0.989271 0.078093
0.658127 0.989896 0.078347
0.935615 0.990887 0.078612
0.972716 0.992077 0.079400
0.069243 0.991715 0.079381
0.069243 0.996688 0.079381
0.069243 0.996688 0.079381
0.069243 0.996688 0.079381
0.071143 0.996737 0.079187
0.112514 0.996718 0.078797
0.395651 0.996715 0.078569
0.845012 0.996737 0.078351
0.974071 0.996777 0.078106
0.069243 0.072709 0.087944
0.069243 0.072710 0.560869
0.087342 0.072796 0.669222
0.593394 0.073003 0.648712
0.908411 0.073801 0.645006
0.954105 0.075220 0.661120
0.965409 0.077355 0.737876
0.972842 0.074521 0.875758
0.974392 0.106654 0.890310
0.069243 0.072748 0.091327
0.069243 0.072844 0.292234
0.086487 0.073038 0.555843
0.526546 0.073549 0.549951
0.894292 0.074627 0.570681
0.952912 0.077469 0.616551
0.964985 0.080150 0.705215
0.972695 0.075737 0.868971
0.974392 0.106654 0.890708
0.069243 0.074796 0.083444
0.069249 0.075649 0.089993
0.078313 0.077825 0.148539
0.354455 0.080722 0.218391
0.844689 0.085462 0.305693
0.946299 0.095858 0.405506
0.962898 0.107353 0.553254
0.971450 0.107244 0.780193
0.974392 0.106655 0.892281
0.069246 0.109312 0.080829
0.069343 0.114733 0.081548
0.073482 0.133781 0.085885
0.222414 0.179969 0.111621
0.690212 0.195744 0.123601
0.919957 0.245285 0.164438
0.958786 0.304387 0.285164
0.969900 0.335749 0.592233
0.974392 0.106674 0.892901
0.069307 0.411056 0.080187
0.069460 0.426959 0.080531
0.072283 0.478490 0.082022
0.120477 0.534810 0.085597
0.484716 0.571627 0.092711
0.860527 0.623382 0.107969
0.951674 0.670479 0.140304
0.967648 0.713751 0.303084
0.974008 0.805372 0.843203
0.069373 0.799600 0.079621
0.069518 0.808072 0.079852
0.071517 0.835654 0.080766
0.087877 0.857363 0.082604
0.282973 0.876005 0.085987
0.725665 0.889232 0.092542
0.929664 0.905499 0.106821
0.964115 0.921540 0.149680
0.973522 0.946562 0.655775
0.069357 0.954152 0.079044
0.069449 0.955726 0.079208
0.070671 0.961924 0.079851
0.078145 0.968359 0.080997
0.167203 0.970609 0.082881
0.541280 0.972519 0.086611
0.875409 0.974707 0.093323
0.958483 0.977561 0.110059
0.973124 0.981860 0.356598
0.069248 0.986078 0.078452
0.069252 0.986197 0.078510
0.069597 0.986693 0.078826
0.072804 0.987230 0.079599
0.103481 0.988061 0.080799
0.318900 0.988707 0.082634
0.751499 0.989477 0.085537
0.949044 0.990644 0.091508
0.973106 0.992062 0.145318
0.069243 0.994421 0.078531
0.069243 0.996704 0.078531
0.069243 0.996704 0.078531
0.069243 0.996760 0.078781
0.073891 0.996704 0.078491
0.147509 0.996697 0.079129
0.485439 0.996702 0.080043
0.877245 0.996727 0.080752
0.974301 0.996777 0.083479
0.069243 0.072724 0.533593
0.069243 0.072806 0.789436
0.081015 0.073195 0.902820
0.520044 0.073764 0.902947
0.891905 0.074885 0.902714
0.952630 0.078223 0.908643
0.964722 0.081498 0.922137
0.972108 0.079783 0.944291
0.974392 0.106655 0.959148
0.069243 0.072891 0.561870
0.069243 0.073045 0.758434
0.080216 0.073747 0.887370
0.479603 0.074567 0.890722
0.879629 0.077145 0.892161
0.951519 0.081237 0.902011
0.964316 0.084446 0.917200
0.971967 0.082365 0.943220
0.974392 0.106655 0.957921
0.069243 0.076756 0.514709
0.069249 0.077900 0.619643
0.077181 0.081459 0.789258
0.343514 0.084697 0.837389
0.836056 0.091337 0.851549
0.944841 0.107595 0.871845
0.962446 0.124465 0.894968
0.971059 0.133578 0.930766
0.974392 0.106659 0.954011
0.069268 0.122474 0.384593
0.069471 0.129739 0.444579
0.075143 0.156629 0.587035
0.223333 0.181027 0.689405
0.705141 0.219781 0.741208
0.922420 0.283403 0.789838
0.958880 0.333668 0.846011
0.969734 0.384945 0.901879
0.974449 0.370064 0.954046
0.069471 0.420007 0.262280
0.069742 0.435884 0.297404
0.073897 0.486109 0.405829
0.147863 0.543076 0.513375
0.573152 0.609847 0.632211
0.875030 0.637367 0.669099
0.953092 0.683480 0.742402
0.967795 0.735256 0.844823
0.973931 0.828269 0.941501
0.069637 0.800127 0.196547
0.070044 0.808100 0.212334
0.073290 0.833881 0.283228
0.106913 0.855269 0.385982
0.353088 0.875108 0.477149
0.786482 0.889862 0.550345
0.939037 0.906949 0.633353
0.965005 0.922440 0.730067
0.973501 0.949985 0.911466
0.069620 0.953352 0.149950
0.069870 0.954858 0.157550
0.072113 0.960540 0.193569
0.085773 0.966967 0.268063
0.220375 0.970025 0.362853
0.621310 0.972130 0.450836
0.900994 0.974554 0.516448
0.960694 0.977567 0.609189
0.973201 0.982357 0.851419
0.069339 0.985962 0.108967
0.069395 0.986071 0.112063
0.070318 0.986511 0.129153
0.075626 0.987031 0.163990
0.134330 0.987683 0.226529
0.407450 0.988417 0.312045
0.804897 0.989296 0.392422
0.953134 0.990573 0.465475
0.973310 0.992201 0.702460
0.069243 0.995212 0.121694
0.069243 0.995630 0.121693
0.069243 0.996601 0.121690
0.069448 0.996692 0.091616
0.076772 0.996690 0.111279
0.170350 0.996688 0.140308
0.553695 0.996697 0.175866
0.901402 0.996725 0.210650
0.974424 0.996784 0.460356
0.069243 0.072940 0.884017
0.069243 0.073050 0.932233
0.077419 0.074219 0.960864
0.456133 0.075494 0.962284
0.877506 0.078718 0.962930
0.951124 0.082828 0.964816
0.964012 0.087201 0.967896
0.971620 0.087032 0.971917
0.974392 0.106655 0.973652
0.069243 0.073301 0.888626
0.069243 0.073498 0.928755
0.077061 0.075188 0.957662
0.415461 0.077649 0.959954
0.867679 0.081548 0.961011
0.950109 0.086102 0.963166
0.963634 0.093491 0.967234
0.971484 0.093211 0.971556
0.974392 0.106655 0.973652
0.069243 0.080253 0.888551
0.069248 0.081345 0.910365
0.076348 0.086199 0.944921
0.320865 0.093155 0.950269
0.825038 0.106796 0.953166
0.943046 0.126994 0.956598
0.961968 0.155928 0.962456
0.970726 0.170637 0.969570
0.974392 0.106659 0.973651
0.069328 0.144819 0.854283
0.069536 0.153371 0.872320
0.075994 0.182311 0.912251
0.230531 0.222040 0.936075
0.714395 0.267407 0.942582
0.922912 0.317612 0.945686
0.958806 0.385064 0.952691
0.969559 0.441649 0.964807
0.974358 0.481200 0.973584
0.069643 0.458763 0.797367
0.070197 0.473443 0.813717
0.075916 0.530206 0.860595
0.164014 0.575865 0.893266
0.586675 0.617217 0.914331
0.882698 0.657845 0.928297
0.953799 0.705153 0.941294
0.967859 0.759786 0.953153
0.973858 0.847611 0.971901
0.070112 0.810334 0.739512
0.070777 0.818336 0.752384
0.075235 0.839880 0.790517
0.125397 0.860790 0.839764
0.419189 0.880246 0.873551
0.822606 0.899157 0.896244
0.943978 0.911867 0.913604
0.965494 0.924650 0.939390
0.973483 0.954507 0.967540
0.070094 0.954790 0.684744
0.070601 0.956196 0.692705
0.073444 0.961533 0.724487
0.095700 0.967578 0.770717
0.271511 0.970303 0.815740
0.672323 0.972510 0.851089
0.914903 0.975073 0.876177
0.961971 0.978062 0.904030
0.973245 0.983122 0.954606
0.069457 0.986081 0.615543
0.069567 0.986184 0.622966
0.071074 0.986586 0.653784
0.078127 0.987063 0.690648
0.154697 0.987730 0.735959
0.475710 0.988509 0.777923
0.846255 0.989450 0.813582
0.955533 0.990778 0.847141
0.973407 0.992470 0.933348
0.069243 0.995485 0.413312
0.069243 0.995849 0.432823
0.069243 0.996656 0.487768
0.069520 0.996699 0.558182
0.078238 0.996694 0.615468
0.185808 0.996694 0.657254
0.584438 0.996704 0.689555
0.913371 0.996734 0.711084
0.974466 0.996796 0.878155
0.069243 0.073652 0.969463
0.069243 0.073846 0.976363
0.073212 0.076592 0.982733
0.399641 0.079838 0.983322
0.869376 0.083772 0.983591
0.950309 0.090266 0.984029
0.963650 0.100224 0.984981
0.971331 0.103472 0.986672
0.974392 0.106641 0.987490
0.069243 0.074266 0.969904
0.069243 0.074472 0.975842
0.073448 0.078712 0.982204
0.372613 0.082242 0.982969
0.861540 0.086983 0.983296
0.949464 0.097861 0.983773
0.963305 0.110557 0.984764
0.971205 0.114346 0.986528
0.974392 0.106636 0.987377
0.069243 0.083925 0.970314
0.069248 0.084888 0.973687
0.074423 0.094599 0.979454
0.310641 0.107898 0.981178
0.825014 0.127290 0.981926
0.942957 0.158364 0.982677
0.961833 0.187282 0.983837
0.970562 0.219681 0.985751
0.974392 0.106525 0.986861
0.069367 0.171164 0.964819
0.069573 0.178972 0.968343
0.075871 0.221756 0.974323
0.239654 0.270364 0.977598
0.730649 0.315505 0.979118
0.925550 0.373816 0.980389
0.959079 0.435386 0.982106
0.969550 0.496660 0.984469
0.974198 0.597661 0.987981
0.069874 0.511174 0.951266
0.070569 0.525032 0.954867
0.076825 0.568987 0.966536
0.177725 0.613359 0.971864
0.612406 0.652401 0.974828
0.892069 0.689301 0.976813
0.954713 0.736043 0.979047
0.968067 0.783815 0.982441
0.973829 0.865438 0.986929
0.070640 0.831503 0.940197
0.071293 0.836729 0.942671
0.076673 0.854045 0.948739
0.143991 0.875609 0.960305
0.474470 0.890744 0.968432
0.842259 0.904178 0.971736
0.947514 0.918013 0.974648
0.965997 0.931298 0.978801
0.973511 0.959019 0.985376
0.070509 0.958511 0.919531
0.071066 0.959872 0.922474
0.074554 0.964571 0.933840
0.105308 0.969070 0.944051
0.304063 0.971378 0.952059
0.711143 0.973598 0.961119
0.921752 0.976142 0.967579
0.962912 0.978882 0.972982
0.973326 0.984012 0.983023
0.069500 0.986497 0.894130
0.069612 0.986588 0.896248
0.071341 0.986927 0.905355
0.079653 0.987440 0.917768
0.165993 0.988234 0.933401
0.513801 0.988998 0.943396
0.858607 0.989950 0.948603
0.956847 0.991121 0.957525
0.973492 0.992835 0.977950
0.069243 0.995448 0.775783
0.069243 0.996154 0.775834
0.069243 0.996684 0.777218
0.069342 0.996737 0.880493
0.077514 0.996718 0.890302
0.184301 0.996715 0.902601
0.585563 0.996725 0.911757
0.913525 0.996752 0.917930
0.974501 0.996811 0.969797
0.069243 0.075424 0.991644
0.069243 0.075702 0.991782
0.074875 0.079957 0.991983
0.462743 0.083471 0.992015
0.882649 0.089036 0.992037
0.951747 0.100520 0.992074
0.964169 0.112181 0.992149
0.971572 0.114212 0.992345
0.974398 0.119606 0.992458
0.069243 0.077059 0.991623
0.069243 0.077467 0.991753
0.075471 0.082145 0.991958
0.441708 0.086199 0.991994
0.876646 0.095043 0.992019
0.951122 0.109764 0.992058
0.963914 0.125820 0.992135
0.971465 0.130011 0.992330
0.974400 0.124905 0.992458
0.069246 0.092109 0.991494
0.069269 0.093750 0.991637
0.077972 0.108639 0.991829
0.366739 0.125624 0.991893
0.851494 0.153674 0.991933
0.947699 0.182963 0.991983
0.962724 0.221014 0.992069
0.970936 0.241946 0.992255
0.974420 0.208579 0.992458
0.069480 0.213195 0.990196
0.069729 0.219068 0.990724
0.079710 0.261349 0.991629
0.295354 0.305843 0.991739
0.787965 0.352011 0.991804
0.935988 0.414083 0.991871
0.960607 0.469622 0.991971
0.970124 0.524794 0.992155
0.974220 0.637755 0.992457
0.070270 0.559588 0.989319
0.071041 0.566942 0.989578
0.080229 0.604482 0.990198
0.222102 0.642875 0.991321
0.675432 0.675376 0.991632
0.913342 0.712979 0.991724
0.957128 0.755337 0.991839
0.968941 0.795593 0.992032
0.973942 0.876579 0.992336
0.071058 0.850161 0.985517
0.071761 0.853951 0.986313
0.079110 0.871097 0.988729
0.164103 0.886421 0.989666
0.547138 0.899151 0.990544
0.866548 0.911757 0.991404
0.951550 0.922403 0.991669
0.967269 0.935107 0.991880
0.973704 0.962077 0.992222
0.070752 0.963812 0.979449
0.071287 0.964825 0.980357
0.075794 0.968600 0.983462
0.115801 0.970727 0.986738
0.346369 0.972820 0.989365
0.769927 0.974909 0.989697
0.933446 0.977235 0.990711
0.964584 0.979563 0.991668
0.973560 0.984679 0.992093
0.069386 0.987269 0.970835
0.069499 0.987387 0.971453
0.071091 0.987830 0.974188
0.079459 0.988469 0.978272
0.170745 0.989131 0.982844
0.531390 0.989828 0.986164
0.869384 0.990720 0.988623
0.957504 0.991360 0.989587
0.973667 0.993206 0.991892
0.069243 0.995054 0.942452
0.069243 0.996682 0.943421
0.069243 0.996703 0.947049
0.069246 0.996769 0.958795
0.074107 0.996761 0.966286
0.162285 0.996752 0.970650
0.545149 0.996757 0.973745
0.898286 0.996778 0.975388
0.974537 0.996830 0.990560
0.070461 0.076682 0.993172
0.071905 0.077002 0.993172
0.179828 0.078301 0.993173
0.846968 0.081115 0.993175
0.944668 0.084435 0.993179
0.959839 0.089008 0.993186
0.967808 0.091255 0.993204
0.973091 0.083538 0.993236
0.974392 0.113818 0.993167
0.070827 0.078107 0.993168
0.072368 0.078523 0.993169
0.180310 0.080281 0.993170
0.842824 0.083002 0.993172
0.943724 0.087026 0.993176
0.959635 0.093834 0.993184
0.967721 0.097598 0.993202
0.973046 0.085678 0.993235
0.974392 0.119033 0.993212
0.072765 0.089631 0.993148
0.075436 0.090539 0.993148
0.188300 0.095036 0.993151
0.802464 0.105319 0.993156
0.938126 0.119972 0.993163
0.958666 0.140273 0.993174
0.967293 0.150999 0.993193
0.972806 0.121146 0.993228
0.974392 0.119079 0.993212
0.077203 0.214112 0.993113
0.081587 0.217596 0.993115
0.192745 0.231772 0.993122
0.737261 0.264525 0.993131
0.925138 0.303167 0.993142
0.956587 0.337640 0.993156
0.966408 0.365921 0.993179
0.972347 0.358185 0.993215
0.974477 0.622805 0.993253
0.079203 0.564279 0.993083
0.084594 0.568155 0.993087
0.172870 0.584056 0.993098
0.628894 0.610674 0.993111
0.900712 0.641549 0.993126
0.953296 0.667709 0.993144
0.965057 0.688536 0.993169
0.971862 0.701541 0.993207
0.974477 0.850806 0.993268
0.077047 0.854076 0.993064
0.080042 0.855969 0.993069
0.139706 0.863950 0.993085
0.483192 0.876550 0.993103
0.852230 0.886933 0.993120
0.946789 0.897241 0.993140
0.962930 0.905714 0.993166
0.971223 0.913169 0.993204
0.974428 0.954309 0.993267
0.072698 0.966414 0.993056
0.073829 0.966951 0.993063
0.087182 0.968671 0.993083
0.258120 0.970055 0.993107
0.695769 0.971515 0.993129
0.918217 0.973148 0.993151
0.958920 0.974719 0.993179
0.970281 0.976071 0.993214
0.974421 0.983239 0.993275
0.069353 0.987888 0.992976
0.069436 0.987984 0.993008
0.070943 0.988377 0.993073
0.086669 0.988845 0.993119
0.304894 0.989227 0.993154
0.783686 0.989724 0.993181
0.945246 0.990447 0.993207
0.967822 0.990948 0.993240
0.974474 0.992866 0.993291
0.069243 0.994314 0.977499
0.069243 0.996704 0.987236
0.069243 0.996704 0.987236
0.069243 0.996724 0.987256
0.069763 0.996829 0.992683
0.120959 0.996799 0.993191
0.504936 0.996796 0.993256
0.899458 0.996815 0.993291
0.974582 0.996852 0.993312
