LUTs/ektachrome100d/Ektachrome100D_Modern_RadianceIII.cube
TITLE "Kodak Ektachrome 100D Modern RadianceIII"
# Adobe RGB in/out. REPLACES AgX. Kodak Ektachrome 100D Modern RadianceIII.
LUT_3D_SIZE 5
DOMAIN_MIN 0.0 0.0 0.0
DOMAIN_MAX 1.0 1.0 1.0
0.081523 0.088043 0.083657
0.508464 0.112831 0.087179
0.974478 0.214738 0.102298
0.987051 0.267305 0.156708
0.986392 0.405368 0.794561
0.085348 0.334134 0.087090
0.159153 0.262957 0.088133
0.796987 0.329854 0.101649
0.982672 0.387905 0.141007
0.984826 0.388130 0.764579
0.093923 0.729194 0.095656
0.130467 0.690560 0.101799
0.384222 0.608206 0.112315
0.906777 0.631252 0.140031
0.980068 0.675232 0.323237
0.097608 0.935135 0.106971
0.119168 0.930748 0.113741
0.271665 0.906335 0.130652
0.650135 0.878933 0.153907
0.968209 0.885861 0.204477
0.086414 0.962031 0.099029
0.092560 0.974000 0.098361
0.138668 0.972325 0.109713
0.427188 0.965259 0.127284
0.962054 0.962643 0.135249
0.083122 0.099760 0.346615
0.453601 0.141607 0.617288
0.975557 0.235802 0.487313
0.986177 0.280775 0.514685
0.985809 0.398865 0.783759
0.099969 0.261694 0.241927
0.211024 0.213127 0.212202
0.855238 0.322387 0.302075
0.982011 0.385169 0.366100
0.984237 0.381843 0.753319
0.122997 0.664624 0.232195
0.178715 0.621734 0.230266
0.473865 0.555923 0.226755
0.929946 0.607914 0.266722
0.978317 0.672053 0.513279
0.118321 0.922569 0.197486
0.146509 0.913616 0.207400
0.325677 0.886948 0.226128
0.726422 0.864221 0.244043
0.967574 0.881523 0.298782
0.086355 0.963544 0.125819
0.092415 0.974513 0.124285
0.160269 0.970766 0.140487
0.456021 0.964299 0.180265
0.963178 0.961997 0.194798
0.087500 0.172960 0.855677
0.410182 0.264490 0.971896
0.981380 0.347768 0.969144
0.986479 0.353427 0.933886
0.985547 0.395973 0.937827
0.123568 0.373004 0.826414
0.331057 0.388100 0.889543
0.902183 0.400246 0.864185
0.982185 0.431127 0.866037
0.983876 0.378053 0.914067
0.145910 0.593744 0.553145
0.215079 0.566507 0.541317
0.510410 0.510442 0.510651
0.934394 0.599015 0.615055
0.976159 0.683211 0.821983
0.149319 0.892200 0.482950
0.192258 0.884044 0.484522
0.394717 0.855621 0.485448
0.802963 0.835118 0.494478
0.965749 0.876727 0.642251
0.089551 0.968875 0.414579
0.091026 0.970649 0.408556
0.209667 0.967073 0.384026
0.517484 0.960953 0.404322
0.962971 0.961585 0.461799
0.095829 0.301923 0.987134
0.323960 0.383505 0.988545
0.977996 0.464383 0.988653
0.987434 0.459966 0.986164
0.986224 0.403466 0.979159
0.131878 0.465887 0.987225
0.343004 0.523652 0.988194
0.947838 0.542990 0.987218
0.984340 0.520645 0.982020
0.984506 0.384471 0.972407
0.166751 0.633365 0.934413
0.258531 0.633821 0.939443
0.637415 0.630736 0.937080
0.951479 0.654175 0.938144
0.977008 0.719342 0.950542
0.162954 0.873740 0.822899
0.210991 0.868482 0.824881
0.427953 0.841999 0.826779
0.816246 0.818526 0.819700
0.964806 0.880050 0.903151
0.089490 0.966062 0.631534
0.091273 0.968715 0.625024
0.210822 0.965742 0.695731
0.528186 0.959922 0.703198
0.962124 0.963010 0.831066
0.252461 0.384759 0.990997
0.613386 0.407015 0.990999
0.987368 0.470910 0.991005
0.988437 0.457172 0.989756
0.987039 0.427002 0.987571
0.315274 0.503828 0.990968
0.622840 0.524911 0.990973
0.986671 0.575448 0.990799
0.987447 0.515976 0.988916
0.985468 0.414316 0.987020
0.315199 0.720658 0.988393
0.472111 0.714736 0.988080
0.931752 0.699651 0.987231
0.978233 0.677655 0.984834
0.980690 0.724819 0.982400
0.194087 0.876562 0.982032
0.276941 0.872707 0.981410
0.640826 0.858327 0.976161
0.938175 0.849241 0.971790
0.967810 0.882460 0.970574
0.088055 0.956952 0.903150
0.091184 0.966665 0.934078
0.134283 0.968651 0.963985
0.485352 0.963809 0.966632
0.961876 0.964833 0.965784
