LUTs/ektachrome100d/Ektachrome100D_Modern_ExtraPunchy.cube
TITLE "Kodak Ektachrome 100D Modern ExtraPunchy"
# Adobe RGB in/out. REPLACES AgX. Kodak Ektachrome 100D Modern ExtraPunchy.
LUT_3D_SIZE 9
DOMAIN_MIN 0.0 0.0 0.0
DOMAIN_MAX 1.0 1.0 1.0
0.069243 0.072709 0.079439
0.072907 0.072709 0.079439
0.570097 0.072742 0.079439
0.949712 0.073658 0.079439
0.982293 0.078087 0.079439
0.986896 0.085218 0.079309
0.988672 0.088418 0.078770
0.989273 0.073206 0.751132
0.988131 0.297668 0.957815
0.069243 0.072834 0.079439
0.069243 0.072756 0.079439
0.191576 0.073086 0.079439
0.879440 0.075243 0.079439
0.972446 0.082832 0.079439
0.985365 0.093702 0.079324
0.987987 0.099846 0.078828
0.988936 0.073161 0.733312
0.987835 0.288557 0.955192
0.069243 0.144977 0.079439
0.069243 0.118437 0.079439
0.072004 0.086840 0.079439
0.346941 0.097106 0.079439
0.912825 0.138289 0.079439
0.974598 0.211330 0.079344
0.985124 0.245756 0.079042
0.987763 0.073590 0.688969
0.986865 0.246265 0.946655
0.069243 0.687825 0.079439
0.069243 0.652845 0.079439
0.070261 0.546586 0.079439
0.109240 0.396686 0.079439
0.592005 0.416982 0.079439
0.937734 0.527158 0.079334
0.977883 0.604228 0.079084
0.984652 0.617475 0.078525
0.985405 0.207215 0.675048
0.069243 0.942953 0.079439
0.069243 0.933793 0.079439
0.069732 0.917086 0.079439
0.081809 0.879994 0.079439
0.281132 0.828600 0.079397
0.789661 0.824230 0.079286
0.955893 0.860555 0.079054
0.981578 0.884304 0.078625
0.983718 0.905183 0.087449
0.069243 0.984342 0.079439
0.069244 0.983283 0.079439
0.069591 0.981399 0.079425
0.075694 0.977257 0.079350
0.164898 0.970860 0.079270
0.575040 0.962120 0.079159
0.903250 0.958700 0.078940
0.969405 0.967553 0.078627
0.982079 0.972329 0.078448
0.069243 0.993726 0.079439
0.069243 0.993415 0.079439
0.069395 0.992845 0.079379
0.072511 0.991648 0.079292
0.110432 0.989366 0.079165
0.365562 0.986901 0.079033
0.797543 0.985834 0.078799
0.954907 0.985476 0.078609
0.978935 0.986520 0.078135
0.069243 0.996894 0.079439
0.069243 0.996877 0.079439
0.069247 0.996839 0.079420
0.070180 0.996793 0.079326
0.080833 0.996713 0.079188
0.214105 0.995957 0.079040
0.621609 0.994701 0.078803
0.925019 0.994034 0.078650
0.975514 0.993988 0.078223
0.069243 0.996805 0.079439
0.069243 0.996794 0.079439
0.069243 0.997058 0.079439
0.069243 0.997008 0.079439
0.070343 0.997020 0.079429
0.106743 0.996931 0.079325
0.369013 0.996861 0.079212
0.813647 0.996821 0.079138
0.974653 0.996812 0.079114
0.069243 0.072709 0.079114
0.069883 0.072709 0.080499
0.471113 0.072817 0.078253
0.953180 0.073915 0.078649
0.982492 0.078314 0.078845
0.986584 0.085169 0.078769
0.988409 0.088792 0.078125
0.989092 0.073182 0.741587
0.987977 0.292926 0.956457
0.069243 0.072758 0.079439
0.069293 0.072716 0.079439
0.216653 0.073143 0.079278
0.897131 0.075586 0.079050
0.974434 0.082785 0.079041
0.985132 0.093021 0.078823
0.987672 0.100050 0.078355
0.988756 0.073138 0.724049
0.987682 0.283959 0.953845
0.069243 0.110700 0.079398
0.069249 0.092048 0.079431
0.076133 0.081066 0.079439
0.492206 0.090197 0.079340
0.925943 0.129008 0.079192
0.975651 0.198431 0.079025
0.984911 0.238815 0.078620
0.987546 0.073781 0.684572
0.986716 0.241820 0.945830
0.069243 0.623581 0.079372
0.069254 0.578181 0.079363
0.072053 0.439985 0.079358
0.148585 0.317481 0.079344
0.656961 0.369459 0.079245
0.944748 0.496288 0.079075
0.978169 0.588597 0.078722
0.984468 0.609344 0.078067
0.985266 0.202419 0.935547
0.069244 0.924556 0.079374
0.069253 0.920438 0.079353
0.070722 0.897789 0.079301
0.090180 0.850871 0.079233
0.336598 0.793501 0.079157
0.824493 0.801050 0.079045
0.957571 0.850497 0.078730
0.981494 0.879515 0.078279
0.983594 0.904030 0.113522
0.069245 0.982354 0.079363
0.069249 0.981331 0.079345
0.069954 0.979310 0.079259
0.077921 0.974597 0.079154
0.186915 0.968413 0.079047
0.607993 0.956582 0.078828
0.913138 0.955032 0.078683
0.970036 0.965395 0.078343
0.981988 0.971957 0.078866
0.069243 0.993168 0.079359
0.069246 0.992860 0.079344
0.069524 0.992258 0.079259
0.073345 0.991025 0.079128
0.121373 0.988506 0.078926
0.403468 0.986493 0.078756
0.823815 0.985498 0.078594
0.956264 0.985178 0.078353
0.978816 0.986410 0.078365
0.069243 0.996876 0.079439
0.069243 0.996860 0.079439
0.069249 0.996823 0.079351
0.070543 0.996775 0.079219
0.083726 0.996691 0.079056
0.230483 0.995702 0.078799
0.638361 0.994474 0.078643
0.930016 0.993862 0.078471
0.975567 0.993894 0.078080
0.069243 0.996840 0.079225
0.069243 0.996830 0.079230
0.069243 0.997086 0.079248
0.069243 0.997029 0.079276
0.070596 0.997014 0.079388
0.110424 0.996925 0.079256
0.382830 0.996857 0.079128
0.827756 0.996818 0.079034
0.974850 0.996811 0.078978
0.069243 0.072709 0.099723
0.071350 0.072791 0.888517
0.445693 0.073313 0.848685
0.954581 0.075638 0.728048
0.982569 0.081521 0.556231
0.986291 0.089215 0.535623
0.987956 0.093768 0.644825
0.988777 0.073463 0.785535
0.987659 0.283188 0.953663
0.069243 0.073408 0.097807
0.070849 0.074027 0.389400
0.300352 0.074408 0.377536
0.911608 0.078324 0.307728
0.975701 0.085601 0.264932
0.984908 0.099727 0.337835
0.987199 0.107035 0.495629
0.988433 0.073540 0.777892
0.987361 0.269273 0.951018
0.069243 0.086516 0.078807
0.069367 0.082596 0.078531
0.079916 0.077891 0.078257
0.563154 0.087409 0.079550
0.939476 0.127498 0.082781
0.977242 0.197666 0.093083
0.984590 0.239615 0.122526
0.987029 0.086466 0.747232
0.986389 0.232450 0.944499
0.069337 0.481735 0.078800
0.069621 0.429405 0.078683
0.075874 0.299914 0.078422
0.197702 0.216058 0.078279
0.765203 0.306560 0.078737
0.952583 0.455222 0.080372
0.978741 0.565743 0.082691
0.984087 0.596356 0.124300
0.984935 0.191840 0.930491
0.069499 0.896426 0.078575
0.069799 0.886158 0.078570
0.073966 0.847868 0.078541
0.137651 0.773255 0.078471
0.485839 0.713497 0.078478
0.876297 0.753610 0.078889
0.961658 0.828133 0.079854
0.981190 0.864147 0.083446
0.983272 0.902565 0.640411
0.069538 0.978106 0.078384
0.069742 0.977053 0.078400
0.072632 0.973805 0.078478
0.096087 0.968233 0.078543
0.294642 0.952845 0.078600
0.721666 0.942790 0.078733
0.935355 0.945765 0.079039
0.971734 0.958947 0.080571
0.981740 0.971009 0.104348
0.069383 0.991679 0.078066
0.069500 0.991376 0.078070
0.070956 0.990587 0.078182
0.079391 0.988639 0.078333
0.171188 0.986627 0.078466
0.524255 0.985220 0.078619
0.869126 0.983633 0.078869
0.960559 0.983739 0.079585
0.978473 0.986091 0.082463
0.069245 0.996798 0.078647
0.069248 0.996787 0.078614
0.069553 0.996762 0.078383
0.072703 0.996706 0.078066
0.102745 0.996146 0.078237
0.309451 0.994789 0.078418
0.724194 0.993704 0.078611
0.946230 0.993275 0.078905
0.975656 0.993595 0.079785
0.069243 0.996822 0.079234
0.069243 0.997104 0.079239
0.069243 0.997069 0.079256
0.069243 0.997013 0.079284
0.072104 0.996985 0.079049
0.135509 0.996902 0.078660
0.453230 0.996839 0.078449
0.855131 0.996806 0.078218
0.975103 0.996805 0.078052
0.069243 0.072884 0.823152
0.069417 0.073730 0.976696
0.417787 0.076210 0.985574
0.952473 0.083785 0.983342
0.983169 0.094548 0.971989
0.986460 0.108542 0.959061
0.987843 0.114118 0.958497
0.988397 0.084903 0.975031
0.987447 0.273735 0.972700
0.069243 0.074667 0.843287
0.069782 0.078037 0.948574
0.402739 0.084380 0.976336
0.928498 0.092063 0.968509
0.978244 0.106077 0.949149
0.985063 0.124539 0.943587
0.987059 0.134642 0.946042
0.987931 0.090180 0.971570
0.987141 0.258095 0.971534
0.069254 0.100921 0.497680
0.069771 0.100122 0.532266
0.118914 0.099176 0.630127
0.647674 0.112492 0.689338
0.948107 0.163306 0.763248
0.978033 0.233123 0.817239
0.984411 0.285687 0.876086
0.986173 0.255035 0.941533
0.986140 0.225998 0.967552
0.069513 0.363619 0.200558
0.070148 0.328786 0.181239
0.078230 0.237970 0.133843
0.222414 0.179969 0.111621
0.790228 0.297872 0.230422
0.954200 0.453450 0.452774
0.978424 0.568277 0.622716
0.983736 0.610335 0.825837
0.984646 0.183860 0.955279
0.070177 0.848697 0.158441
0.071091 0.835926 0.151901
0.077847 0.780763 0.134220
0.164833 0.691536 0.114614
0.551615 0.644145 0.108498
0.892740 0.710555 0.151466
0.962818 0.805778 0.287701
0.980304 0.856149 0.530180
0.982935 0.904604 0.913699
0.070544 0.972120 0.115700
0.071217 0.970922 0.115127
0.076371 0.966821 0.115482
0.128797 0.952011 0.112021
0.383092 0.933050 0.109120
0.788925 0.923062 0.112326
0.945479 0.933545 0.138394
0.971873 0.952713 0.244329
0.981224 0.970319 0.752551
0.070046 0.989482 0.089987
0.070520 0.989067 0.090438
0.073274 0.987955 0.092760
0.091811 0.986578 0.095786
0.241553 0.985049 0.098342
0.623410 0.982339 0.102105
0.900611 0.981146 0.110107
0.963056 0.982127 0.132199
0.977862 0.985772 0.448128
0.069363 0.996725 0.080744
0.069439 0.996714 0.080904
0.070577 0.996684 0.081731
0.076423 0.996217 0.083273
0.139480 0.995063 0.085625
0.404183 0.993743 0.088490
0.794958 0.992846 0.092398
0.952720 0.992622 0.098510
0.975466 0.993281 0.165059
0.069243 0.996936 0.078111
0.069243 0.997090 0.078098
0.069243 0.997056 0.078070
0.069246 0.997050 0.078544
0.076204 0.996938 0.078971
0.166095 0.996868 0.079926
0.521058 0.996814 0.080698
0.886157 0.996788 0.081203
0.975129 0.996799 0.083901
0.069243 0.074264 0.974706
0.069246 0.076656 0.991947
0.330875 0.087392 0.993644
0.942726 0.111984 0.993648
0.984079 0.164322 0.993610
0.987190 0.172760 0.992401
0.988201 0.172320 0.991627
0.988387 0.121526 0.991666
0.987447 0.273770 0.991843
0.069243 0.079811 0.976767
0.069371 0.084488 0.991201
0.316643 0.111391 0.993515
0.931597 0.161665 0.993610
0.981592 0.187468 0.992719
0.985821 0.203819 0.991645
0.987405 0.205678 0.989611
0.987905 0.144388 0.990180
0.987132 0.257665 0.991613
0.069514 0.215115 0.969083
0.071165 0.226006 0.973811
0.178084 0.246198 0.982857
0.781479 0.249731 0.980252
0.954799 0.286289 0.976304
0.980719 0.334628 0.975087
0.984730 0.368780 0.976650
0.986181 0.352279 0.982237
0.986097 0.224902 0.988528
0.069814 0.408336 0.841767
0.071032 0.395619 0.842817
0.086738 0.360615 0.850675
0.355814 0.342949 0.862353
0.847213 0.413824 0.887775
0.957501 0.537633 0.917268
0.979142 0.613597 0.942172
0.983678 0.651765 0.962530
0.984554 0.621958 0.982895
0.070910 0.799546 0.732305
0.071947 0.785777 0.725547
0.080784 0.741994 0.704941
0.183872 0.662374 0.660730
0.573152 0.609847 0.632211
0.902580 0.708762 0.748830
0.963474 0.810824 0.845947
0.979811 0.862275 0.911260
0.982722 0.911736 0.968092
0.071587 0.964145 0.658944
0.072524 0.961566 0.656646
0.079946 0.953444 0.652142
0.152821 0.937203 0.630167
0.453021 0.918658 0.605539
0.805475 0.908759 0.607148
0.948731 0.924538 0.686867
0.971476 0.949877 0.799440
0.980424 0.970420 0.939708
0.071168 0.987107 0.540803
0.071770 0.986916 0.540547
0.076276 0.986341 0.546328
0.112401 0.985216 0.549484
0.300681 0.982288 0.549600
0.681280 0.979768 0.555194
0.915608 0.979032 0.582208
0.964059 0.980920 0.655241
0.977062 0.985615 0.876084
0.069613 0.996523 0.323370
0.069780 0.996376 0.327686
0.071818 0.995970 0.358416
0.080717 0.995185 0.392877
0.166211 0.993995 0.423926
0.484176 0.992816 0.448210
0.843997 0.992087 0.470426
0.955874 0.992072 0.508965
0.975115 0.993133 0.723512
0.069243 0.996943 0.260916
0.069243 0.996958 0.254619
0.069243 0.996983 0.234506
0.069615 0.996964 0.121266
0.079615 0.996902 0.155979
0.194354 0.996840 0.189402
0.584293 0.996793 0.217658
0.908673 0.996775 0.236624
0.975020 0.996800 0.468973
0.069243 0.081598 0.993440
0.069244 0.084565 0.994421
0.268603 0.136514 0.995312
0.923737 0.200509 0.995341
0.983743 0.310747 0.995354
0.988131 0.321862 0.994877
0.988768 0.300044 0.993920
0.988661 0.219507 0.993610
0.987653 0.283003 0.993028
0.069243 0.090786 0.993548
0.069267 0.100406 0.994330
0.258820 0.186216 0.995247
0.915008 0.281879 0.995294
0.982788 0.390565 0.995263
0.986844 0.358898 0.994432
0.988091 0.332685 0.993613
0.988240 0.253773 0.993396
0.987332 0.267786 0.992897
0.069699 0.355119 0.993546
0.071436 0.397789 0.993846
0.240253 0.549153 0.994954
0.844350 0.528761 0.994370
0.961870 0.508542 0.993612
0.982564 0.508845 0.993139
0.985479 0.511138 0.992734
0.986531 0.486214 0.992598
0.986272 0.229422 0.992467
0.070837 0.579661 0.980338
0.072331 0.580571 0.981700
0.113754 0.597854 0.985947
0.516261 0.599357 0.986695
0.891088 0.615783 0.985912
0.963179 0.649594 0.985974
0.981505 0.687088 0.987294
0.983987 0.712275 0.989596
0.984646 0.716674 0.991643
0.071597 0.808501 0.945497
0.072803 0.800749 0.945441
0.087037 0.783047 0.946108
0.244200 0.749958 0.945681
0.674462 0.740771 0.946102
0.922248 0.784942 0.954904
0.965906 0.845577 0.967735
0.980393 0.882105 0.975912
0.982719 0.922145 0.986156
0.072369 0.954058 0.917260
0.073449 0.952033 0.916429
0.083779 0.946019 0.915160
0.167909 0.929485 0.910748
0.483599 0.913373 0.903398
0.822606 0.899157 0.896244
0.950143 0.926024 0.929915
0.971567 0.952112 0.951328
0.980077 0.971555 0.975992
0.071958 0.985981 0.882635
0.072714 0.985806 0.882039
0.078527 0.985254 0.882125
0.130672 0.983264 0.881476
0.337976 0.980424 0.880121
0.716776 0.977967 0.879606
0.920408 0.977433 0.886220
0.964303 0.980384 0.913867
0.976429 0.985657 0.962512
0.069902 0.995627 0.811824
0.070261 0.995498 0.811597
0.072717 0.995123 0.816911
0.085543 0.994316 0.822250
0.188825 0.993229 0.828904
0.529321 0.992166 0.835749
0.859556 0.991557 0.843444
0.957309 0.991711 0.859993
0.974689 0.993132 0.937589
0.069243 0.996921 0.600987
0.069243 0.996933 0.610769
0.069243 0.996952 0.649954
0.069691 0.996939 0.676764
0.081121 0.996879 0.695801
0.209998 0.996822 0.709074
0.604685 0.996782 0.719510
0.916875 0.996769 0.725895
0.974837 0.996806 0.880036
0.069243 0.107839 0.995524
0.069247 0.115271 0.995700
0.169021 0.235932 0.995851
0.911512 0.339992 0.995864
0.983191 0.477928 0.995870
0.988978 0.539967 0.995746
0.989441 0.463260 0.995371
0.989090 0.357396 0.994986
0.987995 0.293407 0.994311
0.069243 0.139988 0.995535
0.069292 0.155821 0.995686
0.174113 0.310622 0.995841
0.902150 0.429773 0.995856
0.982653 0.562082 0.995863
0.987968 0.563748 0.995640
0.988839 0.504722 0.995244
0.988693 0.405789 0.994851
0.987673 0.283581 0.994171
0.069801 0.482871 0.995546
0.071263 0.514647 0.995632
0.197706 0.642469 0.995778
0.872502 0.719505 0.995818
0.968932 0.683355 0.995544
0.984066 0.658717 0.995153
0.986472 0.636202 0.994708
0.987116 0.604039 0.994198
0.986607 0.238066 0.993692
0.072179 0.752939 0.994427
0.074123 0.754377 0.994520
0.145797 0.776488 0.994675
0.622610 0.777386 0.994430
0.926082 0.772119 0.994005
0.970143 0.774307 0.993613
0.982675 0.779197 0.993562
0.984597 0.785348 0.993404
0.984905 0.831073 0.993394
0.072673 0.863371 0.991656
0.074182 0.862017 0.991717
0.099500 0.863978 0.991931
0.330057 0.860450 0.991935
0.786111 0.859867 0.991802
0.944282 0.871349 0.991754
0.970402 0.887062 0.991860
0.981736 0.903675 0.992111
0.982939 0.934898 0.992516
0.073042 0.954357 0.979520
0.074349 0.953084 0.979595
0.086840 0.950047 0.980281
0.195311 0.943476 0.980305
0.570552 0.932071 0.979216
0.867093 0.930663 0.979092
0.954354 0.945091 0.982218
0.973117 0.959971 0.986592
0.980403 0.973595 0.990966
0.072342 0.985270 0.968297
0.073169 0.985080 0.968292
0.079909 0.984296 0.968741
0.141960 0.982543 0.969206
0.371077 0.980132 0.969165
0.746725 0.977763 0.968403
0.921752 0.976142 0.967579
0.964902 0.980863 0.975370
0.976293 0.985945 0.986019
0.069921 0.995079 0.946308
0.070303 0.994953 0.946210
0.072884 0.994585 0.946983
0.086852 0.993868 0.948168
0.200642 0.992887 0.949899
0.564568 0.991903 0.951694
0.867579 0.991336 0.954060
0.957693 0.991565 0.959664
0.974346 0.993277 0.978969
0.069243 0.996879 0.866123
0.069243 0.996913 0.864098
0.069243 0.996939 0.858159
0.069414 0.996939 0.914526
0.079872 0.996872 0.915345
0.203608 0.996818 0.917754
0.601104 0.996782 0.920132
0.915862 0.996774 0.921477
0.974681 0.996816 0.970010
0.069247 0.197164 0.996093
0.069340 0.210653 0.996101
0.205525 0.344278 0.996101
0.925735 0.468340 0.996101
0.984090 0.586048 0.996101
0.990066 0.657830 0.996101
0.990218 0.583294 0.995873
0.989634 0.455644 0.995632
0.988369 0.362892 0.995333
0.069266 0.251482 0.996090
0.069456 0.272935 0.996101
0.218728 0.426298 0.996101
0.920550 0.549165 0.996101
0.983685 0.645089 0.996101
0.989242 0.674090 0.996053
0.989668 0.609951 0.995824
0.989254 0.501611 0.995581
0.988064 0.369108 0.995276
0.070838 0.622647 0.996078
0.072448 0.637468 0.996092
0.279149 0.726320 0.996101
0.899968 0.796149 0.996101
0.978844 0.811560 0.996036
0.985974 0.768631 0.995837
0.987679 0.721409 0.995599
0.987879 0.665020 0.995345
0.987014 0.534452 0.995085
0.074968 0.876244 0.995901
0.078470 0.875052 0.995893
0.226884 0.884214 0.995853
0.764778 0.879353 0.995736
0.952312 0.867246 0.995572
0.979064 0.855772 0.995341
0.984168 0.844410 0.995099
0.985451 0.832760 0.994878
0.985310 0.867866 0.994628
0.074953 0.913696 0.994984
0.077452 0.913348 0.994982
0.142394 0.917245 0.994958
0.486549 0.916305 0.994766
0.868119 0.914120 0.994469
0.957235 0.914126 0.994181
0.976791 0.916241 0.993959
0.982655 0.920540 0.993823
0.983333 0.946928 0.993775
0.074056 0.964431 0.993475
0.076006 0.963888 0.993488
0.099250 0.963868 0.993510
0.263253 0.961164 0.993382
0.669035 0.957887 0.993170
0.913057 0.957870 0.993008
0.961419 0.962035 0.992965
0.976468 0.968374 0.993041
0.981409 0.975897 0.993209
0.072513 0.985273 0.992092
0.073383 0.985137 0.992120
0.081829 0.984815 0.992243
0.153889 0.983586 0.992280
0.445957 0.981846 0.992156
0.800800 0.980415 0.991957
0.941730 0.980542 0.991893
0.967846 0.982807 0.992134
0.976991 0.986425 0.992553
0.069601 0.995137 0.985931
0.069787 0.995014 0.986058
0.072310 0.994630 0.987033
0.085686 0.993956 0.988313
0.202737 0.993055 0.989532
0.578702 0.992160 0.989597
0.876190 0.991589 0.989609
0.957504 0.991360 0.989587
0.974364 0.993567 0.991991
0.069243 0.996820 0.961368
0.069243 0.996927 0.961736
0.069243 0.996921 0.966363
0.069248 0.996941 0.970833
0.075489 0.996888 0.972371
0.172913 0.996832 0.974168
0.566606 0.996797 0.975520
0.900384 0.996791 0.975979
0.974586 0.996831 0.990602
0.095751 0.238703 0.996101
0.139023 0.248717 0.996101
0.750360 0.301391 0.996101
0.981642 0.388418 0.996101
0.989309 0.499632 0.996101
0.992369 0.585721 0.996101
0.991538 0.454090 0.996101
0.990382 0.217275 0.995889
0.988647 0.354994 0.995629
0.104358 0.296436 0.996101
0.149551 0.306714 0.996101
0.751380 0.356145 0.996101
0.980971 0.453700 0.996101
0.989198 0.562582 0.996101
0.991759 0.607122 0.996101
0.991062 0.486108 0.996063
0.990033 0.237852 0.995857
0.988397 0.362241 0.995608
0.159128 0.593080 0.996101
0.217836 0.603877 0.996101
0.768085 0.645049 0.996101
0.976765 0.703009 0.996101
0.988350 0.760753 0.996101
0.989560 0.700765 0.996101
0.989468 0.624068 0.995921
0.988856 0.421369 0.995721
0.987383 0.318274 0.995489
0.247369 0.903470 0.996101
0.312536 0.901253 0.996101
0.714551 0.895278 0.996101
0.957266 0.885138 0.996101
0.982572 0.868458 0.995975
0.985698 0.844492 0.995837
0.986701 0.802448 0.995656
0.986711 0.725645 0.995473
0.985781 0.869789 0.995213
0.159049 0.936001 0.995825
0.189897 0.934561 0.995809
0.482997 0.931030 0.995751
0.884199 0.925716 0.995658
0.962396 0.922362 0.995547
0.979903 0.916748 0.995380
0.983251 0.907176 0.995195
0.984133 0.894185 0.995026
0.983876 0.939516 0.994806
0.099013 0.970271 0.995266
0.115014 0.969973 0.995244
0.249517 0.969251 0.995170
0.681061 0.968049 0.995053
0.922298 0.965073 0.994895
0.963147 0.962890 0.994651
0.976281 0.960839 0.994427
0.981683 0.959016 0.994245
0.982040 0.974653 0.994093
0.076569 0.985598 0.994711
0.078889 0.985494 0.994672
0.115255 0.985119 0.994533
0.357686 0.984111 0.994305
0.789188 0.982712 0.994036
0.939452 0.981689 0.993795
0.965014 0.981282 0.993635
0.975413 0.981346 0.993612
0.978636 0.986184 0.993612
0.069512 0.994918 0.994078
0.069635 0.994815 0.994072
0.071965 0.994513 0.994012
0.098963 0.993902 0.993855
0.358157 0.993023 0.993643
0.806111 0.992216 0.993610
0.949345 0.991772 0.993479
0.969181 0.991652 0.993396
0.975545 0.993419 0.993413
0.069243 0.996749 0.986019
0.069243 0.996913 0.991742
0.069243 0.996893 0.991638
0.069243 0.996876 0.991033
0.069989 0.996938 0.993141
0.130568 0.996866 0.993476
0.515240 0.996828 0.993393
0.900786 0.996823 0.993327
0.974582 0.996852 0.993312
