LUTs/ektachrome100d/Ektachrome100D_Modern_IlfochromeP.cube
TITLE "Kodak Ektachrome 100D Modern IlfochromeP"
# Adobe RGB in/out. REPLACES AgX. Kodak Ektachrome 100D Modern IlfochromeP.
LUT_3D_SIZE 5
DOMAIN_MIN 0.0 0.0 0.0
DOMAIN_MAX 1.0 1.0 1.0
0.138981 0.101282 0.098429
0.507387 0.141421 0.105309
0.982270 0.231680 0.123929
0.997097 0.278496 0.168945
0.996958 0.407651 0.783850
0.140003 0.339709 0.105128
0.182180 0.274750 0.107387
0.800295 0.335687 0.123258
0.993379 0.390960 0.158732
0.996676 0.391176 0.758498
0.143994 0.727814 0.117741
0.162864 0.696866 0.123411
0.385449 0.619505 0.133626
0.898634 0.642302 0.158082
0.987851 0.684734 0.320957
0.145723 0.915093 0.128468
0.155815 0.908258 0.135199
0.275810 0.884895 0.151246
0.661475 0.857444 0.167155
0.970506 0.865806 0.209426
0.140237 0.953662 0.120579
0.143568 0.973103 0.119893
0.168379 0.970591 0.131114
0.427689 0.960013 0.147919
0.959665 0.954556 0.154866
0.139329 0.124778 0.344211
0.453788 0.173676 0.617178
0.983347 0.250139 0.484533
0.996919 0.290035 0.509645
0.996853 0.401442 0.774355
0.147015 0.273660 0.244000
0.223521 0.230308 0.216632
0.849973 0.328660 0.300054
0.991276 0.388332 0.363490
0.996569 0.385136 0.749160
0.157956 0.675176 0.234639
0.196218 0.632890 0.232910
0.473273 0.565217 0.229758
0.920249 0.619217 0.266419
0.986103 0.682211 0.508357
0.155408 0.899287 0.203113
0.173713 0.891352 0.212171
0.327986 0.867090 0.229194
0.738392 0.841533 0.246056
0.969172 0.860616 0.296812
0.140222 0.955919 0.146469
0.143510 0.973873 0.144947
0.182974 0.968254 0.158387
0.456116 0.958175 0.188467
0.960760 0.953613 0.200785
0.140886 0.196872 0.829301
0.410989 0.276072 0.942647
0.989268 0.352496 0.938739
0.996974 0.357781 0.897759
0.996806 0.398679 0.901999
0.158301 0.376635 0.809614
0.333205 0.391147 0.857223
0.894577 0.402761 0.834886
0.991830 0.432198 0.836099
0.996496 0.381492 0.878794
0.173306 0.605188 0.547849
0.227078 0.577016 0.535553
0.509312 0.515272 0.505950
0.927138 0.610407 0.614695
0.983948 0.691057 0.806559
0.175612 0.872345 0.480519
0.206922 0.863662 0.481966
0.395790 0.834602 0.482817
0.805235 0.818032 0.491116
0.965533 0.854744 0.645001
0.142194 0.965422 0.412080
0.142956 0.968078 0.405770
0.222292 0.962725 0.381191
0.516308 0.952088 0.401337
0.960558 0.953010 0.461463
0.144736 0.309509 0.972880
0.326320 0.386733 0.979692
0.985782 0.464653 0.980212
0.997308 0.459944 0.970847
0.996928 0.405835 0.952985
0.163836 0.466217 0.973316
0.344783 0.529516 0.977992
0.945815 0.550828 0.973285
0.996588 0.526272 0.959216
0.996618 0.387662 0.943373
0.187543 0.644392 0.898326
0.263351 0.644842 0.903738
0.647555 0.641792 0.901195
0.949363 0.664910 0.902340
0.984796 0.719636 0.915692
0.184875 0.851090 0.807191
0.223492 0.844962 0.808558
0.428440 0.823601 0.809866
0.816192 0.804570 0.804984
0.963657 0.858812 0.869198
0.142155 0.961213 0.633041
0.143055 0.965181 0.625786
0.223342 0.960736 0.697732
0.527083 0.950583 0.704682
0.959733 0.955093 0.812816
0.258093 0.387938 0.990610
0.621268 0.409222 0.990614
0.997272 0.471596 0.990635
0.997892 0.457227 0.985757
0.997090 0.428270 0.974986
0.317907 0.507902 0.990518
0.631601 0.530875 0.990532
0.997008 0.587001 0.989979
0.997315 0.521236 0.981661
0.996791 0.416186 0.972329
0.317836 0.720707 0.978953
0.471588 0.715884 0.977443
0.923043 0.704034 0.973345
0.986019 0.686656 0.968560
0.988473 0.724120 0.960951
0.208442 0.854542 0.959274
0.280803 0.849828 0.956442
0.651293 0.836784 0.948713
0.933009 0.829454 0.942497
0.969642 0.861765 0.940769
0.141242 0.946251 0.869198
0.143020 0.962115 0.897966
0.165482 0.965085 0.931396
0.484520 0.956710 0.935177
0.959491 0.959376 0.933976
