LUTs/ektachrome100d/Ektachrome100D_Classic_ExtraPunchy.cube
TITLE "Kodak Ektachrome 100D Classic ExtraPunchy"
# Adobe RGB in/out. REPLACES AgX. Kodak Ektachrome 100D Classic ExtraPunchy.
LUT_3D_SIZE 33
DOMAIN_MIN 0.0 0.0 0.0
DOMAIN_MAX 1.0 1.0 1.0
0.069243 0.072709 0.079439
0.069243 0.072709 0.079439
0.069243 0.072709 0.079439
0.069243 0.072709 0.079439
0.069341 0.072709 0.079439
0.069723 0.072709 0.079439
0.073151 0.072709 0.079439
0.088880 0.072709 0.079439
0.120097 0.072709 0.079439
0.187617 0.072709 0.079439
0.353833 0.072709 0.079439
0.515382 0.072709 0.079439
0.624356 0.072720 0.079439
0.739755 0.072759 0.079439
0.838459 0.072833 0.079439
0.873915 0.072902 0.079439
0.904557 0.072964 0.079439
0.925247 0.073130 0.079439
0.940756 0.073381 0.079439
0.950020 0.073509 0.079439
0.954139 0.073675 0.079439
0.957553 0.073959 0.079439
0.960743 0.074188 0.079439
0.963792 0.074241 0.079439
0.966006 0.074310 0.079407
0.967933 0.074318 0.079322
0.970311 0.073872 0.079161
0.971530 0.073598 0.078483
0.973944 0.072746 0.187531
0.973944 0.072745 0.187375
0.973944 0.072745 0.187366
0.973944 0.072745 0.187360
0.974392 0.106647 0.818407
0.069243 0.072709 0.079439
0.069243 0.072709 0.079439
0.069243 0.072709 0.079439
0.069243 0.072709 0.079439
0.069434 0.072709 0.079439
0.069918 0.072709 0.079439
0.073400 0.072709 0.079439
0.088875 0.072709 0.079439
0.119031 0.072709 0.079439
0.184454 0.072709 0.079439
0.346664 0.072709 0.079439
0.512278 0.072709 0.079439
0.619232 0.072722 0.079439
0.734153 0.072765 0.079439
0.835448 0.072843 0.079439
0.872474 0.072911 0.079439
0.903388 0.072972 0.079439
0.924659 0.073152 0.079439
0.940372 0.073401 0.079439
0.949905 0.073534 0.079439
0.954054 0.073710 0.079439
0.957489 0.073993 0.079439
0.960697 0.074221 0.079439
0.963759 0.074273 0.079439
0.965982 0.074341 0.079407
0.967916 0.074348 0.079323
0.970300 0.073903 0.079165
0.971523 0.073618 0.078510
0.973944 0.072746 0.187535
0.973944 0.072745 0.187375
0.973944 0.072745 0.187366
0.973944 0.072745 0.187360
0.974392 0.106649 0.818406
0.069243 0.072709 0.079439
0.069243 0.072709 0.079439
0.069243 0.072709 0.079439
0.069243 0.072709 0.079439
0.069311 0.072709 0.079439
0.070061 0.072709 0.079439
0.073887 0.072709 0.079439
0.090499 0.072709 0.079439
0.117271 0.072709 0.079439
0.175840 0.072709 0.079439
0.326504 0.072709 0.079439
0.480409 0.072718 0.079439
0.600832 0.072736 0.079439
0.713758 0.072790 0.079439
0.823665 0.072880 0.079439
0.867092 0.072944 0.079439
0.899013 0.073025 0.079439
0.922455 0.073234 0.079439
0.938936 0.073477 0.079439
0.949478 0.073625 0.079439
0.953735 0.073843 0.079439
0.957254 0.074118 0.079439
0.960525 0.074340 0.079439
0.963635 0.074389 0.079439
0.965894 0.074454 0.079409
0.967852 0.074459 0.079327
0.970256 0.074017 0.079180
0.971497 0.073697 0.078578
0.973944 0.072746 0.187547
0.973944 0.072745 0.187377
0.973944 0.072745 0.187367
0.973944 0.072745 0.187361
0.974392 0.106651 0.818404
0.069243 0.072709 0.079439
0.069243 0.072709 0.079439
0.069243 0.072709 0.079439
0.069243 0.072709 0.079439
0.069243 0.072709 0.079439
0.069354 0.072709 0.079439
0.071621 0.072709 0.079439
0.082840 0.072709 0.079439
0.105397 0.072709 0.079439
0.161442 0.072709 0.079439
0.295020 0.072726 0.079439
0.435572 0.072761 0.079439
0.566932 0.072792 0.079439
0.675602 0.072846 0.079439
0.794529 0.072951 0.079439
0.856317 0.073041 0.079439
0.890200 0.073198 0.079439
0.918000 0.073390 0.079439
0.936038 0.073657 0.079439
0.948435 0.073864 0.079439
0.953095 0.074092 0.079439
0.956784 0.074352 0.079439
0.960182 0.074564 0.079439
0.963388 0.074607 0.079439
0.965718 0.074707 0.079413
0.967727 0.074710 0.079333
0.970169 0.074232 0.079206
0.971444 0.073908 0.078693
0.973945 0.072746 0.187574
0.973944 0.072745 0.187380
0.973944 0.072745 0.187369
0.973944 0.072745 0.187362
0.974392 0.106653 0.818402
0.069243 0.072709 0.079439
0.069243 0.072709 0.079439
0.069243 0.072709 0.079439
0.069243 0.072709 0.079439
0.069243 0.072709 0.079439
0.069245 0.072709 0.079439
0.069709 0.072709 0.079439
0.074319 0.072722 0.079439
0.084785 0.072721 0.079439
0.130475 0.072735 0.079439
0.243839 0.072813 0.079439
0.357258 0.072854 0.079439
0.493755 0.072896 0.079439
0.623107 0.072968 0.079439
0.754090 0.073228 0.079439
0.836151 0.073352 0.079439
0.875007 0.073473 0.079439
0.909859 0.073680 0.079439
0.930624 0.074101 0.079439
0.945433 0.074283 0.079439
0.951988 0.074481 0.079439
0.955978 0.074797 0.079439
0.959597 0.075312 0.079439
0.962969 0.075404 0.079439
0.965422 0.075542 0.079417
0.967517 0.075533 0.079341
0.970022 0.074568 0.079237
0.971353 0.074240 0.078817
0.973945 0.072746 0.187625
0.973944 0.072745 0.187386
0.973944 0.072745 0.187372
0.973945 0.072746 0.187363
0.974392 0.106654 0.818401
0.069243 0.072710 0.079439
0.069243 0.072711 0.079439
0.069243 0.072719 0.079439
0.069243 0.072726 0.079439
0.069243 0.072737 0.079439
0.069243 0.072742 0.079439
0.069345 0.072795 0.079439
0.071315 0.072877 0.079439
0.075554 0.072841 0.079439
0.091436 0.072873 0.079439
0.171681 0.072977 0.079439
0.283553 0.073063 0.079439
0.415297 0.073152 0.079439
0.571186 0.073321 0.079439
0.695602 0.073602 0.079439
0.791716 0.073805 0.079439
0.854057 0.074053 0.079439
0.890313 0.074399 0.079439
0.920825 0.074893 0.079439
0.939562 0.075243 0.079439
0.950127 0.075670 0.079439
0.954640 0.076395 0.079439
0.958637 0.077067 0.079439
0.962286 0.077141 0.079439
0.964943 0.077280 0.079421
0.967178 0.077243 0.079350
0.969784 0.075710 0.079268
0.971204 0.074807 0.079028
0.973945 0.072747 0.187729
0.973944 0.072745 0.187399
0.973944 0.072745 0.187379
0.974392 0.106595 0.187366
0.974392 0.106654 0.818400
0.069243 0.072876 0.079439
0.069243 0.072880 0.079439
0.069243 0.072913 0.079439
0.069243 0.072953 0.079439
0.069243 0.072989 0.079439
0.069243 0.073026 0.079439
0.069249 0.073045 0.079439
0.069934 0.073352 0.079439
0.072142 0.073206 0.079439
0.078739 0.073251 0.079439
0.122148 0.073534 0.079439
0.198171 0.073625 0.079439
0.311827 0.073659 0.079439
0.478286 0.073914 0.079439
0.630249 0.074395 0.079439
0.737860 0.074620 0.079439
0.825364 0.074860 0.079439
0.872221 0.075587 0.079439
0.909944 0.076997 0.079439
0.930858 0.077646 0.079439
0.945675 0.078567 0.079439
0.952366 0.079798 0.079439
0.957026 0.080497 0.079439
0.961147 0.080485 0.079439
0.964156 0.080565 0.079424
0.966624 0.080473 0.079358
0.969389 0.078426 0.079292
0.970955 0.077047 0.079121
0.973945 0.072747 0.187977
0.973944 0.072746 0.187427
0.973944 0.072745 0.187393
0.974392 0.106651 0.187373
0.974392 0.106654 0.818400
0.069243 0.073584 0.079439
0.069243 0.073598 0.079439
0.069243 0.073726 0.079439
0.069243 0.073923 0.079439
0.069243 0.074122 0.079439
0.069243 0.074273 0.079439
0.069247 0.074351 0.079439
0.069505 0.074382 0.079439
0.070658 0.074061 0.079439
0.073978 0.074102 0.079439
0.090291 0.074598 0.079439
0.145867 0.074677 0.079439
0.223154 0.074658 0.079439
0.362038 0.075111 0.079439
0.564584 0.076441 0.079439
0.667718 0.076964 0.079439
0.777301 0.077467 0.079439
0.848359 0.078694 0.079439
0.889407 0.080618 0.079439
0.920342 0.081075 0.079439
0.939541 0.081815 0.079439
0.950254 0.083052 0.079439
0.955171 0.084420 0.079439
0.959526 0.085096 0.079439
0.962783 0.086101 0.079423
0.965670 0.085892 0.079362
0.968691 0.083862 0.079304
0.970510 0.081934 0.079165
0.973946 0.072751 0.188838
0.973944 0.072746 0.187525
0.973944 0.072746 0.187435
0.974392 0.106654 0.187390
0.974392 0.106654 0.818400
0.069243 0.074332 0.079439
0.069243 0.074347 0.079439
0.069243 0.074450 0.079439
0.069243 0.074655 0.079439
0.069243 0.075078 0.079439
0.069243 0.075521 0.079439
0.069243 0.075856 0.079439
0.069303 0.076080 0.079439
0.069775 0.076186 0.079439
0.072000 0.076305 0.079439
0.079880 0.078195 0.079439
0.106043 0.078213 0.079439
0.162238 0.077963 0.079439
0.273398 0.078681 0.079439
0.463210 0.080683 0.079439
0.597324 0.081117 0.079439
0.704469 0.081613 0.079439
0.802033 0.082832 0.079439
0.868068 0.084868 0.079439
0.904934 0.085730 0.079439
0.928476 0.087415 0.079439
0.945812 0.089373 0.079439
0.953097 0.091552 0.079439
0.958089 0.092363 0.079439
0.961793 0.094300 0.079418
0.964753 0.096914 0.079361
0.967791 0.096154 0.079303
0.969714 0.096086 0.079175
0.973968 0.072865 0.199018
0.973945 0.072750 0.188518
0.973945 0.072746 0.187701
0.974392 0.106654 0.187470
0.974392 0.106654 0.818399
0.069243 0.076921 0.079439
0.069243 0.076963 0.079439
0.069243 0.077235 0.079439
0.069243 0.077887 0.079439
0.069243 0.078772 0.079439
0.069243 0.079763 0.079439
0.069243 0.080435 0.079439
0.069249 0.080890 0.079439
0.069532 0.081152 0.079439
0.070893 0.081298 0.079439
0.075675 0.084084 0.079439
0.086816 0.083997 0.079439
0.123299 0.083383 0.079439
0.195932 0.084009 0.079439
0.343975 0.086438 0.079439
0.511817 0.086848 0.079439
0.629731 0.087524 0.079439
0.753080 0.089880 0.079439
0.844377 0.095252 0.079439
0.883119 0.097314 0.079439
0.917134 0.099540 0.079439
0.937703 0.104575 0.079439
0.950120 0.110263 0.079439
0.955819 0.111818 0.079439
0.960263 0.113111 0.079410
0.963727 0.115810 0.079357
0.967127 0.113503 0.079305
0.969285 0.112588 0.079190
0.971401 0.108574 0.079025
0.972787 0.104434 0.078500
0.974075 0.088532 0.117286
0.974392 0.106656 0.202411
0.974392 0.106655 0.818399
0.069243 0.084409 0.079439
0.069243 0.084469 0.079439
0.069243 0.084808 0.079439
0.069243 0.086079 0.079439
0.069243 0.087862 0.079439
0.069243 0.089933 0.079439
0.069243 0.091972 0.079439
0.069249 0.094000 0.079439
0.069498 0.095694 0.079439
0.070647 0.096677 0.079439
0.073266 0.097354 0.079439
0.079590 0.096705 0.079439
0.097808 0.094111 0.079439
0.153799 0.095772 0.079439
0.268491 0.103524 0.079439
0.403342 0.103674 0.079439
0.558844 0.104017 0.079439
0.676849 0.107777 0.079439
0.795585 0.117225 0.079439
0.860139 0.118899 0.079439
0.899014 0.123520 0.079439
0.926381 0.132943 0.079439
0.945478 0.141567 0.079439
0.953467 0.145445 0.079439
0.958268 0.153385 0.079399
0.962070 0.161724 0.079350
0.966066 0.157329 0.079302
0.968613 0.153667 0.079200
0.970970 0.143487 0.079065
0.972537 0.131289 0.078686
0.974000 0.095571 0.083363
0.974392 0.106657 0.257333
0.974392 0.106660 0.280402
0.069243 0.095903 0.079439
0.069243 0.096082 0.079439
0.069243 0.097020 0.079439
0.069243 0.100142 0.079439
0.069243 0.103723 0.079439
0.069243 0.108023 0.079439
0.069243 0.112524 0.079439
0.069247 0.116817 0.079439
0.069381 0.120601 0.079439
0.070010 0.123268 0.079439
0.071981 0.124846 0.079439
0.076270 0.126100 0.079439
0.085639 0.120318 0.079439
0.121786 0.123456 0.079439
0.201458 0.138953 0.079439
0.312550 0.137350 0.079439
0.467481 0.136933 0.079439
0.607735 0.144398 0.079439
0.739931 0.159840 0.079439
0.830984 0.160793 0.079439
0.876219 0.166434 0.079439
0.914094 0.175270 0.079439
0.936630 0.189763 0.079439
0.950341 0.198976 0.079425
0.956133 0.205755 0.079385
0.960638 0.215804 0.079340
0.964863 0.218062 0.079292
0.967624 0.223700 0.079201
0.970235 0.218722 0.079083
0.972111 0.196449 0.078783
0.973814 0.122630 0.078663
0.974392 0.106662 0.257645
0.974392 0.106667 0.303656
0.069243 0.116028 0.079439
0.069243 0.116288 0.079439
0.069243 0.117577 0.079439
0.069243 0.121612 0.079439
0.069243 0.127701 0.079439
0.069243 0.136429 0.079439
0.069243 0.145140 0.079439
0.069245 0.153473 0.079439
0.069318 0.159258 0.079439
0.069635 0.163106 0.079439
0.071039 0.165842 0.079439
0.073593 0.167413 0.079439
0.079835 0.168880 0.079439
0.100423 0.172995 0.079439
0.162575 0.198812 0.079439
0.248429 0.194762 0.079439
0.364331 0.191915 0.079439
0.525983 0.202956 0.079439
0.669084 0.223967 0.079439
0.782214 0.223807 0.079439
0.852578 0.230143 0.079439
0.894542 0.243255 0.079439
0.925177 0.269240 0.079436
0.945590 0.274969 0.079407
0.953455 0.288555 0.079370
0.958462 0.304558 0.079327
0.963478 0.302130 0.079277
0.966748 0.304202 0.079195
0.969581 0.305760 0.079089
0.971548 0.307104 0.078815
0.973079 0.314678 0.078417
0.974392 0.106737 0.258042
0.974392 0.106712 0.332055
0.069243 0.162964 0.079439
0.069243 0.163252 0.079439
0.069243 0.164599 0.079439
0.069243 0.168498 0.079439
0.069243 0.179099 0.079439
0.069243 0.190055 0.079439
0.069243 0.204711 0.079439
0.069244 0.217353 0.079439
0.069287 0.227133 0.079439
0.069547 0.234610 0.079439
0.070539 0.240884 0.079439
0.072603 0.245479 0.079439
0.077034 0.248282 0.079439
0.088131 0.252023 0.079439
0.138548 0.291605 0.079439
0.195401 0.287983 0.079439
0.297682 0.283247 0.079439
0.455297 0.291151 0.079439
0.605796 0.313465 0.079439
0.716110 0.312767 0.079439
0.811824 0.318376 0.079439
0.872284 0.333462 0.079439
0.912849 0.355151 0.079415
0.936583 0.364286 0.079387
0.950400 0.382272 0.079353
0.956353 0.399999 0.079313
0.961769 0.407043 0.079258
0.965389 0.420736 0.079184
0.968764 0.416973 0.079089
0.971079 0.411863 0.078839
0.972827 0.412221 0.078572
0.973887 0.426979 0.078961
0.974446 0.500327 0.364462
0.069243 0.256099 0.079439
0.069243 0.256980 0.079439
0.069243 0.260861 0.079439
0.069243 0.271303 0.079439
0.069243 0.289800 0.079439
0.069243 0.300655 0.079439
0.069243 0.315992 0.079439
0.069244 0.330956 0.079439
0.069286 0.348825 0.079439
0.069529 0.364371 0.079439
0.070403 0.377062 0.079439
0.072277 0.386076 0.079439
0.076154 0.392317 0.079439
0.085263 0.396893 0.079439
0.113726 0.400664 0.079439
0.162815 0.392694 0.079439
0.242350 0.385581 0.079439
0.362734 0.397190 0.079439
0.534968 0.426410 0.079439
0.649134 0.423315 0.079439
0.771022 0.429543 0.079439
0.849586 0.447230 0.079429
0.893356 0.467028 0.079393
0.924993 0.477722 0.079367
0.945510 0.490993 0.079335
0.953637 0.515140 0.079292
0.959803 0.523028 0.079236
0.964151 0.531044 0.079168
0.967792 0.541058 0.079080
0.970346 0.550972 0.078855
0.972421 0.546484 0.078641
0.973697 0.543973 0.078226
0.974427 0.534390 0.315421
0.069243 0.344908 0.079439
0.069243 0.345613 0.079439
0.069243 0.348620 0.079439
0.069243 0.356279 0.079439
0.069243 0.373954 0.079439
0.069243 0.393454 0.079439
0.069243 0.416765 0.079439
0.069244 0.433148 0.079439
0.069258 0.451529 0.079439
0.069452 0.469283 0.079439
0.070019 0.482900 0.079439
0.071498 0.493540 0.079439
0.074141 0.502192 0.079439
0.080175 0.507755 0.079439
0.096992 0.512445 0.079439
0.142584 0.516418 0.079439
0.196509 0.508260 0.079439
0.303925 0.519297 0.079439
0.470021 0.549237 0.079439
0.595006 0.545870 0.079439
0.704532 0.548824 0.079439
0.805426 0.561800 0.079405
0.872033 0.576107 0.079371
0.912593 0.582002 0.079347
0.936757 0.593064 0.079317
0.950712 0.610491 0.079263
0.957616 0.615619 0.079212
0.962433 0.628156 0.079149
0.966690 0.634807 0.079065
0.969717 0.637685 0.078856
0.971956 0.646418 0.078674
0.973344 0.664767 0.078050
0.974334 0.621407 0.125833
0.069243 0.452330 0.079439
0.069243 0.452972 0.079439
0.069243 0.455641 0.079439
0.069243 0.462157 0.079439
0.069243 0.476435 0.079439
0.069243 0.497721 0.079439
0.069243 0.516586 0.079439
0.069243 0.538396 0.079439
0.069250 0.554617 0.079439
0.069387 0.568010 0.079439
0.069744 0.579549 0.079439
0.071018 0.588823 0.079439
0.073057 0.596335 0.079439
0.077351 0.601821 0.079439
0.087207 0.605790 0.079439
0.117709 0.609215 0.079439
0.167678 0.612457 0.079439
0.255705 0.620372 0.079439
0.391300 0.642608 0.079439
0.524580 0.639333 0.079438
0.644682 0.641406 0.079414
0.770427 0.650910 0.079382
0.850286 0.662790 0.079349
0.893334 0.666706 0.079326
0.925740 0.676466 0.079292
0.946364 0.689072 0.079234
0.954998 0.696279 0.079187
0.960609 0.704351 0.079129
0.965429 0.714706 0.079045
0.968800 0.726954 0.078845
0.971455 0.733061 0.078695
0.973108 0.744079 0.078283
0.974098 0.774885 0.080455
0.069243 0.570757 0.079439
0.069243 0.571234 0.079439
0.069243 0.573160 0.079439
0.069243 0.577633 0.079439
0.069243 0.586876 0.079439
0.069243 0.604610 0.079439
0.069243 0.615368 0.079439
0.069243 0.633541 0.079439
0.069249 0.646419 0.079439
0.069369 0.657622 0.079439
0.069652 0.668330 0.079439
0.070726 0.677315 0.079439
0.072517 0.684847 0.079439
0.076004 0.689988 0.079439
0.083798 0.694416 0.079439
0.104803 0.697640 0.079439
0.150159 0.700370 0.079439
0.212696 0.703386 0.079439
0.329391 0.727892 0.079433
0.470419 0.723620 0.079414
0.595670 0.724820 0.079390
0.709773 0.736463 0.079359
0.813056 0.748466 0.079327
0.872596 0.751590 0.079306
0.913742 0.761286 0.079259
0.938458 0.772989 0.079204
0.952209 0.780268 0.079160
0.958505 0.788518 0.079104
0.963854 0.800236 0.079017
0.967923 0.804661 0.078833
0.970876 0.815393 0.078701
0.972728 0.830933 0.078417
0.973957 0.842722 0.078699
0.069243 0.672246 0.079439
0.069243 0.672670 0.079439
0.069243 0.674334 0.079439
0.069243 0.678005 0.079439
0.069243 0.685138 0.079439
0.069243 0.698486 0.079439
0.069243 0.710942 0.079439
0.069244 0.729202 0.079439
0.069250 0.743745 0.079439
0.069370 0.756929 0.079439
0.069637 0.768313 0.079439
0.070626 0.778217 0.079439
0.072241 0.785932 0.079439
0.075316 0.792236 0.079439
0.081029 0.796927 0.079439
0.098358 0.801125 0.079439
0.140123 0.804292 0.079439
0.190845 0.806687 0.079437
0.285991 0.809962 0.079409
0.400246 0.806536 0.079391
0.535843 0.807833 0.079368
0.655175 0.816053 0.079338
0.778342 0.825946 0.079307
0.851903 0.828105 0.079273
0.895941 0.834438 0.079227
0.928472 0.842221 0.079174
0.949210 0.846359 0.079134
0.956105 0.852849 0.079072
0.962287 0.858477 0.078965
0.966806 0.864024 0.078818
0.970220 0.871401 0.078696
0.972422 0.878052 0.078478
0.973775 0.890620 0.078361
0.069243 0.754766 0.079439
0.069243 0.755138 0.079439
0.069243 0.756585 0.079439
0.069243 0.759716 0.079439
0.069243 0.765652 0.079439
0.069243 0.776461 0.079439
0.069243 0.788832 0.079439
0.069243 0.799770 0.079439
0.069249 0.813696 0.079439
0.069348 0.825958 0.079439
0.069567 0.834041 0.079439
0.070237 0.840863 0.079439
0.071617 0.846413 0.079439
0.073878 0.850932 0.079439
0.078595 0.854625 0.079439
0.089106 0.857363 0.079439
0.118688 0.859754 0.079439
0.164829 0.861913 0.079422
0.238874 0.863573 0.079396
0.340987 0.865851 0.079369
0.480304 0.866092 0.079347
0.608339 0.871343 0.079317
0.724715 0.877555 0.079274
0.824139 0.878750 0.079240
0.876605 0.882160 0.079196
0.917096 0.886967 0.079146
0.942971 0.889885 0.079105
0.953511 0.894429 0.079041
0.960406 0.898132 0.078909
0.965516 0.902099 0.078801
0.969517 0.906086 0.078688
0.972002 0.912323 0.078504
0.973605 0.919951 0.078194
0.069243 0.830238 0.079439
0.069243 0.830509 0.079439
0.069243 0.831546 0.079439
0.069243 0.833737 0.079439
0.069243 0.837451 0.079439
0.069243 0.843328 0.079439
0.069243 0.852106 0.079439
0.069243 0.857693 0.079439
0.069249 0.867264 0.079439
0.069324 0.873594 0.079439
0.069522 0.880294 0.079439
0.070066 0.885343 0.079439
0.071275 0.889223 0.079439
0.073133 0.892507 0.079439
0.076956 0.895178 0.079439
0.085093 0.897246 0.079439
0.106082 0.898780 0.079431
0.148323 0.900149 0.079404
0.203493 0.901575 0.079378
0.296859 0.902720 0.079353
0.424974 0.904246 0.079328
0.567148 0.906768 0.079294
0.673176 0.910635 0.079243
0.785207 0.911762 0.079209
0.857184 0.914131 0.079167
0.902555 0.917652 0.079118
0.934070 0.919833 0.079071
0.950759 0.922130 0.078993
0.958272 0.923629 0.078852
0.964137 0.925740 0.078784
0.968651 0.930763 0.078676
0.971590 0.935768 0.078513
0.973413 0.943872 0.078094
0.069243 0.881209 0.079439
0.069243 0.881371 0.079439
0.069243 0.881984 0.079439
0.069243 0.883242 0.079439
0.069243 0.885468 0.079439
0.069243 0.889217 0.079439
0.069243 0.895219 0.079439
0.069243 0.898891 0.079439
0.069248 0.903838 0.079439
0.069317 0.908665 0.079439
0.069500 0.913539 0.079439
0.069893 0.916986 0.079439
0.071025 0.920373 0.079439
0.072690 0.922217 0.079439
0.075945 0.923147 0.079439
0.082510 0.923952 0.079434
0.097633 0.924990 0.079407
0.136711 0.926440 0.079380
0.180143 0.927670 0.079355
0.266081 0.929097 0.079329
0.367138 0.930321 0.079306
0.512671 0.931870 0.079265
0.627617 0.935080 0.079214
0.740006 0.936345 0.079182
0.836128 0.938633 0.079140
0.884181 0.942268 0.079084
0.923469 0.943944 0.079038
0.946779 0.945990 0.078927
0.955976 0.948510 0.078825
0.962541 0.950661 0.078766
0.967721 0.953546 0.078662
0.971111 0.956732 0.078515
0.973196 0.962198 0.078067
0.069243 0.915505 0.079439
0.069243 0.915627 0.079439
0.069243 0.916084 0.079439
0.069243 0.917005 0.079439
0.069243 0.918589 0.079439
0.069243 0.921174 0.079439
0.069243 0.923084 0.079439
0.069243 0.925271 0.079439
0.069248 0.929393 0.079439
0.069314 0.934873 0.079439
0.069460 0.938841 0.079439
0.069779 0.942968 0.079439
0.070860 0.945542 0.079439
0.072313 0.947402 0.079439
0.074988 0.949049 0.079439
0.079894 0.950467 0.079412
0.091199 0.951661 0.079384
0.121289 0.952626 0.079358
0.164883 0.953439 0.079332
0.234127 0.954148 0.079308
0.329108 0.955000 0.079268
0.466395 0.955834 0.079228
0.588727 0.956824 0.079188
0.691268 0.957574 0.079157
0.795652 0.958778 0.079116
0.865731 0.960682 0.079053
0.912297 0.962347 0.078990
0.939572 0.963939 0.078869
0.953567 0.965948 0.078802
0.960778 0.967823 0.078743
0.966687 0.968985 0.078648
0.970557 0.970137 0.078514
0.973007 0.971719 0.078045
0.069243 0.942430 0.079439
0.069243 0.942506 0.079439
0.069243 0.942788 0.079439
0.069243 0.943350 0.079439
0.069243 0.944305 0.079439
0.069243 0.945836 0.079439
0.069243 0.948249 0.079439
0.069243 0.951232 0.079439
0.069247 0.953295 0.079439
0.069290 0.956390 0.079439
0.069406 0.958769 0.079439
0.069688 0.961534 0.079439
0.070488 0.963437 0.079439
0.071805 0.965218 0.079439
0.073947 0.966713 0.079429
0.078012 0.967830 0.079402
0.086492 0.968491 0.079374
0.108986 0.968832 0.079348
0.150085 0.969128 0.079323
0.202148 0.969391 0.079294
0.291675 0.969648 0.079252
0.405557 0.969932 0.079213
0.534170 0.970266 0.079174
0.645989 0.970649 0.079136
0.764094 0.970958 0.079089
0.847531 0.971504 0.079026
0.895373 0.972090 0.078936
0.930471 0.972636 0.078835
0.950880 0.973403 0.078783
0.958885 0.974165 0.078718
0.965525 0.975029 0.078633
0.969980 0.975999 0.078515
0.972792 0.977465 0.078091
0.069243 0.961448 0.079439
0.069243 0.961522 0.079439
0.069243 0.961796 0.079439
0.069243 0.962334 0.079439
0.069243 0.963122 0.079439
0.069243 0.964297 0.079439
0.069243 0.966091 0.079439
0.069243 0.968499 0.079439
0.069246 0.969130 0.079439
0.069265 0.970030 0.079439
0.069384 0.970995 0.079439
0.069602 0.971768 0.079439
0.070246 0.972569 0.079439
0.071442 0.973282 0.079439
0.073200 0.973837 0.079416
0.076725 0.974337 0.079388
0.083864 0.974750 0.079361
0.100619 0.975074 0.079334
0.138695 0.975352 0.079309
0.180436 0.975604 0.079270
0.260090 0.975843 0.079230
0.353610 0.976095 0.079191
0.486448 0.976362 0.079153
0.607257 0.976713 0.079115
0.716409 0.977105 0.079065
0.818123 0.977431 0.078978
0.877786 0.977938 0.078890
0.919843 0.978269 0.078817
0.947135 0.978832 0.078767
0.956821 0.979383 0.078702
0.964262 0.980059 0.078620
0.969361 0.980768 0.078515
0.972561 0.981838 0.078139
0.069243 0.971941 0.079439
0.069243 0.971966 0.079439
0.069243 0.972060 0.079439
0.069243 0.972241 0.079439
0.069243 0.972535 0.079439
0.069243 0.972981 0.079439
0.069243 0.973642 0.079439
0.069243 0.974620 0.079439
0.069246 0.975404 0.079439
0.069253 0.976175 0.079439
0.069371 0.977216 0.079439
0.069553 0.977728 0.079439
0.070112 0.978391 0.079439
0.071136 0.978853 0.079431
0.072748 0.979333 0.079401
0.075782 0.979715 0.079373
0.080724 0.980024 0.079347
0.093330 0.980276 0.079321
0.122983 0.980479 0.079288
0.165050 0.980664 0.079246
0.230166 0.980836 0.079205
0.320352 0.981015 0.079166
0.451343 0.981202 0.079129
0.573149 0.981409 0.079085
0.672546 0.981692 0.079035
0.785740 0.982006 0.078939
0.860250 0.982565 0.078857
0.908013 0.982820 0.078803
0.940169 0.983319 0.078756
0.954560 0.983808 0.078690
0.962840 0.984421 0.078613
0.968687 0.985041 0.078517
0.972398 0.985572 0.078178
0.069243 0.978957 0.079439
0.069243 0.978973 0.079439
0.069243 0.979032 0.079439
0.069243 0.979144 0.079439
0.069243 0.979323 0.079439
0.069243 0.979593 0.079439
0.069243 0.979990 0.079439
0.069243 0.980578 0.079439
0.069244 0.981213 0.079439
0.069248 0.981690 0.079439
0.069320 0.982330 0.079439
0.069475 0.982894 0.079439
0.069770 0.983394 0.079439
0.070757 0.983864 0.079430
0.072143 0.984257 0.079401
0.074261 0.984588 0.079373
0.078754 0.984883 0.079346
0.087539 0.985043 0.079319
0.110483 0.985151 0.079287
0.150378 0.985249 0.079245
0.200141 0.985344 0.079204
0.285785 0.985435 0.079165
0.392172 0.985509 0.079127
