LUTs/ektachrome100d/Ektachrome100D_Classic_ExtraSoft.cube
TITLE "Kodak Ektachrome 100D Classic ExtraSoft"
# Adobe RGB in/out. REPLACES AgX. Kodak Ektachrome 100D Classic ExtraSoft.
LUT_3D_SIZE 9
DOMAIN_MIN 0.0 0.0 0.0
DOMAIN_MAX 1.0 1.0 1.0
0.068633 0.069845 0.084864
0.069020 0.069845 0.084864
0.149829 0.069845 0.084864
0.563053 0.069869 0.084864
0.784966 0.070405 0.084864
0.844994 0.071979 0.084864
0.865399 0.072894 0.084896
0.878919 0.069926 0.240092
0.879684 0.116901 0.702837
0.068633 0.069845 0.084864
0.068633 0.069845 0.084864
0.103931 0.069872 0.084864
0.483671 0.070257 0.084864
0.754774 0.071530 0.084864
0.840028 0.073140 0.084864
0.864409 0.074677 0.084886
0.878919 0.069927 0.240176
0.879684 0.116911 0.702833
0.068633 0.072926 0.084864
0.068633 0.074004 0.084864
0.070760 0.075830 0.084864
0.205926 0.078644 0.084864
0.623467 0.083799 0.084864
0.809518 0.092585 0.084864
0.858264 0.100942 0.084886
0.878959 0.070188 0.250278
0.879684 0.116912 0.702832
0.068633 0.129008 0.084864
0.068633 0.142890 0.084864
0.068929 0.178492 0.084864
0.093987 0.190642 0.084864
0.399582 0.222264 0.084864
0.730629 0.264127 0.084864
0.843412 0.322161 0.084933
0.871476 0.338714 0.085215
0.879684 0.116991 0.364771
0.068633 0.454107 0.084864
0.068633 0.471206 0.084864
0.068658 0.525832 0.084864
0.079595 0.553971 0.084864
0.212842 0.564695 0.084864
0.575920 0.584614 0.084890
0.806409 0.613621 0.085011
0.864420 0.634246 0.085260
0.879181 0.670996 0.100863
0.068633 0.705166 0.084864
0.068633 0.709945 0.084864
0.068654 0.729600 0.084864
0.073964 0.747166 0.084864
0.133729 0.756026 0.084872
0.438145 0.761097 0.084975
0.735575 0.770272 0.085137
0.852323 0.778561 0.085455
0.878011 0.797048 0.087652
0.068633 0.820165 0.084864
0.068633 0.822285 0.084864
0.068645 0.831471 0.084864
0.071761 0.842119 0.084864
0.102196 0.848331 0.084942
0.307501 0.850959 0.085074
0.633258 0.854000 0.085239
0.830795 0.858169 0.085649
0.876555 0.865462 0.087149
0.068633 0.881615 0.084864
0.068633 0.881676 0.084864
0.068633 0.883555 0.084864
0.069709 0.887537 0.084864
0.085583 0.890188 0.084954
0.205578 0.891296 0.085099
0.519599 0.892529 0.085267
0.788451 0.894735 0.085644
0.875638 0.897885 0.086505
0.068633 0.893758 0.084864
0.068633 0.893760 0.084864
0.068633 0.912348 0.084864
0.068633 0.912786 0.084864
0.070663 0.916108 0.084864
0.114451 0.915422 0.084923
0.367802 0.915175 0.085026
0.685741 0.915735 0.085128
0.878056 0.916936 0.085174
0.068633 0.069845 0.084864
0.068633 0.069845 0.085293
0.123789 0.069845 0.084877
0.601046 0.069907 0.084864
0.794255 0.070496 0.084864
0.846265 0.072128 0.084868
0.865389 0.073038 0.085096
0.878919 0.069927 0.240187
0.879684 0.116911 0.702839
0.068633 0.069845 0.084864
0.068828 0.069861 0.084864
0.117179 0.069909 0.084864
0.533150 0.070371 0.084864
0.775007 0.071736 0.084864
0.842032 0.073262 0.084869
0.864463 0.075158 0.085066
0.878919 0.069928 0.240320
0.879684 0.116911 0.702833
0.068633 0.072656 0.084864
0.068633 0.073208 0.084864
0.077374 0.074562 0.084864
0.315668 0.078722 0.084864
0.677022 0.084481 0.084864
0.818277 0.092985 0.084896
0.858950 0.101716 0.085042
0.878969 0.070287 0.254917
0.879684 0.116912 0.702832
0.068633 0.123198 0.084864
0.068633 0.132896 0.084864
0.070247 0.161185 0.084864
0.120488 0.179795 0.084864
0.474935 0.215451 0.084891
0.751318 0.262656 0.084956
0.846586 0.320852 0.085097
0.871624 0.339524 0.085621
0.879684 0.116935 0.702824
0.068633 0.440279 0.084864
0.068633 0.456622 0.084864
0.069150 0.509512 0.084864
0.086322 0.540238 0.084864
0.265649 0.555118 0.084957
0.618432 0.579320 0.085051
0.814961 0.610983 0.085195
0.865179 0.632741 0.085660
0.879168 0.672657 0.113453
0.068633 0.699921 0.084864
0.068633 0.705015 0.084864
0.068868 0.724389 0.084864
0.076933 0.741494 0.084894
0.152207 0.751634 0.084998
0.472879 0.757977 0.085158
0.749890 0.768627 0.085389
0.854198 0.778171 0.085883
0.878043 0.797249 0.089657
0.068633 0.818307 0.084864
0.068633 0.820551 0.084864
0.068657 0.829578 0.084864
0.072859 0.839867 0.084927
0.108397 0.846642 0.085059
0.332163 0.849607 0.085230
0.659776 0.853007 0.085591
0.834604 0.857683 0.086088
0.876710 0.865392 0.088078
0.068633 0.881245 0.084864
0.068633 0.881350 0.084864
0.068633 0.882992 0.084864
0.070056 0.886816 0.084909
0.087543 0.889452 0.085042
0.217393 0.890676 0.085221
0.533204 0.892078 0.085570
0.794630 0.894505 0.086040
0.875958 0.897805 0.087337
0.068633 0.896332 0.084922
0.068633 0.896334 0.084922
0.068633 0.913910 0.084922
0.068633 0.913910 0.084922
0.071070 0.916039 0.084864
0.120265 0.915342 0.084972
0.377844 0.915119 0.085113
0.690484 0.915710 0.085220
0.878466 0.916924 0.085281
0.068633 0.069845 0.086486
0.068651 0.069845 0.155541
0.111654 0.069845 0.130455
0.583653 0.070075 0.115505
0.796315 0.071105 0.110257
0.846994 0.072754 0.116178
0.865222 0.073912 0.150715
0.878940 0.070058 0.313548
0.879684 0.116912 0.702892
0.068633 0.069845 0.086384
0.068646 0.069873 0.092071
0.110429 0.070056 0.098359
0.539192 0.070748 0.098838
0.784016 0.072373 0.099416
0.844107 0.074433 0.106899
0.864451 0.077312 0.126034
0.878948 0.070107 0.324972
0.879684 0.116912 0.702842
0.068633 0.072660 0.085643
0.068639 0.073139 0.086044
0.094167 0.078529 0.088826
0.390355 0.079807 0.089065
0.718055 0.086413 0.090564
0.829105 0.095641 0.093456
0.860333 0.106627 0.099866
0.878440 0.075203 0.356250
0.879684 0.116912 0.702833
0.068633 0.118864 0.085532
0.068649 0.126496 0.085715
0.075187 0.147885 0.086252
0.197553 0.170470 0.087239
0.570146 0.213374 0.088464
0.789635 0.267587 0.090436
0.851513 0.323871 0.092446
0.872088 0.344618 0.109835
0.879684 0.116915 0.702840
0.068634 0.428350 0.085478
0.068658 0.441695 0.085601
0.072202 0.482727 0.086037
0.111449 0.520417 0.086802
0.393648 0.541001 0.087575
0.707067 0.571848 0.089542
0.831729 0.607134 0.090947
0.867300 0.629431 0.097548
0.879120 0.679175 0.425440
0.068645 0.693216 0.085495
0.068676 0.697796 0.085586
0.071071 0.714620 0.085971
0.089430 0.729908 0.086642
0.239329 0.741293 0.087527
0.563028 0.751221 0.089145
0.790182 0.764371 0.090600
0.859293 0.777090 0.094443
0.878149 0.798116 0.120119
0.068640 0.814193 0.085321
0.068653 0.816347 0.085400
0.069862 0.824717 0.085701
0.080200 0.833719 0.086218
0.149084 0.840605 0.087243
0.429607 0.845650 0.088489
0.714299 0.850237 0.090281
0.846496 0.856087 0.093031
0.877177 0.865204 0.103121
0.068633 0.878897 0.085145
0.068633 0.879329 0.085173
0.068863 0.880902 0.085417
0.073110 0.883839 0.085905
0.103684 0.886575 0.086675
0.288790 0.888281 0.087646
0.585347 0.890335 0.089496
0.817643 0.893598 0.091226
0.876820 0.897531 0.095551
0.068633 0.896335 0.084922
0.068633 0.913910 0.084922
0.068633 0.913910 0.084922
0.068633 0.913912 0.084922
0.073671 0.915528 0.085117
0.141569 0.914903 0.085578
0.419795 0.914813 0.086118
0.722521 0.915514 0.086637
0.879136 0.916861 0.087228
0.068633 0.069845 0.122586
0.068633 0.069848 0.526943
0.108768 0.070037 0.603852
0.543212 0.070490 0.592455
0.787786 0.072161 0.590381
0.844915 0.074211 0.599366
0.864387 0.077677 0.650189
0.877035 0.073198 0.754454
0.879684 0.116911 0.766944
0.068633 0.069931 0.128259
0.068633 0.070142 0.328080
0.107164 0.070568 0.523341
0.505930 0.071699 0.519109
0.775658 0.073352 0.533952
0.842158 0.077859 0.571589
0.863667 0.081572 0.627227
0.876785 0.075068 0.747702
0.879684 0.116911 0.767334
0.068633 0.073597 0.111931
0.068656 0.074872 0.125687
0.090646 0.078425 0.199702
0.393064 0.082297 0.267583
0.722175 0.089854 0.339031
0.829840 0.103014 0.418212
0.860133 0.117877 0.521483
0.874661 0.117726 0.677640
0.879684 0.116912 0.768875
0.068645 0.120594 0.103049
0.069029 0.127707 0.106951
0.080944 0.149275 0.117842
0.274870 0.206591 0.157013
0.611759 0.226640 0.171306
0.799847 0.280436 0.217742
0.853190 0.337398 0.322529
0.872019 0.367273 0.550170
0.879684 0.116938 0.769483
0.068887 0.424205 0.099499
0.069492 0.435825 0.101368
0.077174 0.472652 0.108562
0.150239 0.511617 0.117178
0.476729 0.537375 0.130970
0.739168 0.571918 0.152428
0.839304 0.608973 0.191382
0.868187 0.633736 0.336521
0.879027 0.691285 0.722144
0.069148 0.687457 0.096750
0.069724 0.692939 0.097876
0.074770 0.708755 0.102716
0.109423 0.723089 0.109936
0.327976 0.735335 0.118076
0.640841 0.747175 0.130638
0.810869 0.762261 0.150983
0.862193 0.776738 0.201006
0.878197 0.800842 0.596395
0.069085 0.810941 0.093677
0.069449 0.812928 0.094520
0.072662 0.820768 0.097870
0.090281 0.829099 0.103952
0.212282 0.836040 0.110592
0.512971 0.841963 0.119522
0.755208 0.848229 0.132173
0.852679 0.855098 0.155054
0.877517 0.865515 0.385118
0.068650 0.877516 0.090272
0.068669 0.877984 0.090620
0.070042 0.879840 0.092513
0.078796 0.881593 0.096628
0.130553 0.884312 0.102892
0.362434 0.886428 0.110006
0.661069 0.888957 0.117040
0.833262 0.892799 0.128612
0.877486 0.897483 0.196319
0.068633 0.905315 0.086209
0.068633 0.914442 0.086209
0.068633 0.914443 0.086209
0.068633 0.916280 0.085616
0.082257 0.914431 0.090506
0.186310 0.914212 0.094093
0.477285 0.914372 0.098799
0.757192 0.915211 0.102640
0.879528 0.916847 0.112015
0.068633 0.069879 0.507302
0.068633 0.070059 0.683761
0.096616 0.070914 0.779212
0.502792 0.072108 0.779338
0.773067 0.073725 0.779108
0.841509 0.079060 0.784931
0.863221 0.083591 0.798203
0.875782 0.081106 0.826525
0.879684 0.116912 0.847160
0.068633 0.070244 0.527659
0.068633 0.070584 0.663163
0.094834 0.072083 0.764259
0.472790 0.073265 0.767348
0.759769 0.077344 0.768757
0.838949 0.083119 0.778418
0.862534 0.088312 0.793344
0.875541 0.085169 0.824626
0.879684 0.116912 0.845641
0.068633 0.076729 0.493565
0.068657 0.078544 0.574309
0.088736 0.083521 0.683643
0.385758 0.088693 0.716395
0.714918 0.096815 0.730409
0.828172 0.118212 0.750560
0.859368 0.138781 0.771509
0.873993 0.149072 0.806703
0.879684 0.116918 0.840802
0.068729 0.136260 0.403908
0.069539 0.145220 0.448042
0.084948 0.175238 0.545586
0.275816 0.208126 0.616034
0.624018 0.252929 0.652519
0.802640 0.317235 0.684027
0.853348 0.365303 0.724924
0.871735 0.407111 0.778289
0.879782 0.397856 0.840845
0.069538 0.430761 0.304270
0.070627 0.442291 0.332114
0.082276 0.477998 0.418462
0.186781 0.517944 0.492590
0.530076 0.562965 0.583185
0.754799 0.581223 0.603784
0.842574 0.617438 0.653354
0.868437 0.645148 0.723748
0.878896 0.703860 0.821584
0.070203 0.687807 0.248102
0.071335 0.692953 0.262208
0.080332 0.707581 0.321002
0.134742 0.721710 0.404827
0.392156 0.734747 0.471712
0.681179 0.747759 0.519392
0.821546 0.763607 0.583830
0.863701 0.777523 0.644718
0.878160 0.805682 0.787706
0.070135 0.809931 0.201315
0.070969 0.811832 0.209960
0.076649 0.819015 0.245469
0.105804 0.827164 0.308927
0.272768 0.834233 0.389362
0.561114 0.840755 0.452755
0.782358 0.847861 0.494835
0.856408 0.855112 0.565109
0.877648 0.866723 0.730281
0.069014 0.877056 0.153683
0.069235 0.877489 0.157567
0.071914 0.879226 0.178555
0.085840 0.880942 0.217238
0.168819 0.883075 0.274740
0.427242 0.885478 0.345256
0.693762 0.888363 0.409071
0.842671 0.892565 0.463721
0.877835 0.897942 0.625280
0.068633 0.907954 0.168811
0.068633 0.909347 0.168811
0.068633 0.912597 0.168807
0.069445 0.914031 0.128824
0.087970 0.913974 0.156584
0.215994 0.913923 0.191385
0.518829 0.914195 0.229554
0.782657 0.915138 0.260705
0.879739 0.917098 0.459897
0.068633 0.070352 0.761939
0.068633 0.070595 0.808150
0.089183 0.072763 0.849288
0.457094 0.074608 0.851048
0.757474 0.079759 0.851850
0.838038 0.085876 0.854192
0.862019 0.092355 0.859340
0.874950 0.092173 0.868626
0.879684 0.116912 0.872650
0.068633 0.071150 0.765294
0.068633 0.071587 0.804721
0.088512 0.074163 0.845320
0.432249 0.078144 0.848160
0.746868 0.083681 0.849469
0.835705 0.090829 0.852144
0.861379 0.099871 0.857816
0.874717 0.099476 0.867789
0.879684 0.116912 0.872650
0.068633 0.081702 0.765221
0.068653 0.083314 0.786623
0.087181 0.090977 0.827641
0.364300 0.099381 0.836179
0.707457 0.117107 0.839757
0.826121 0.141991 0.844003
0.858560 0.174371 0.851262
0.873425 0.193152 0.863199
0.879684 0.116918 0.872650
0.068968 0.160689 0.733120
0.069797 0.171212 0.751033
0.086523 0.209993 0.788477
0.283206 0.255372 0.812018
0.631608 0.303469 0.823497
0.803198 0.350044 0.829001
0.853222 0.407185 0.839171
0.871438 0.446448 0.854180
0.879626 0.474556 0.872494
0.070230 0.458696 0.688999
0.071657 0.469097 0.699760
0.086377 0.508478 0.739381
0.208289 0.540235 0.769841
0.538867 0.567847 0.790522
0.763088 0.598398 0.804270
0.844207 0.629136 0.821218
0.868545 0.660881 0.839742
0.878771 0.716660 0.868589
0.071478 0.694062 0.651333
0.072887 0.698024 0.660033
0.085117 0.711552 0.684475
0.155774 0.725345 0.718742
0.434566 0.738853 0.752258
0.705807 0.756376 0.772761
0.827186 0.768175 0.789807
0.864530 0.779453 0.817855
0.878130 0.811388 0.858520
0.071440 0.811746 0.612724
0.072514 0.813521 0.618375
0.080823 0.820272 0.640802
0.120182 0.827941 0.671347
0.316836 0.835093 0.701088
0.597045 0.841936 0.729953
0.794122 0.849106 0.754871
0.858565 0.856308 0.780400
0.877723 0.868588 0.841538
0.069483 0.877529 0.570702
0.069924 0.877933 0.577232
0.073523 0.879492 0.595286
0.090243 0.881049 0.616916
0.195885 0.883228 0.648846
0.469784 0.885778 0.676134
0.723852 0.888867 0.699671
0.847715 0.893240 0.726042
0.878000 0.898833 0.809249
0.068633 0.908864 0.424228
0.068633 0.910080 0.439139
0.068633 0.912812 0.477485
0.069734 0.914269 0.525018
0.090484 0.914115 0.570636
0.234159 0.914099 0.597219
0.537416 0.914443 0.616140
0.792388 0.915418 0.631369
0.879810 0.917473 0.756840
0.068633 0.071929 0.862951
0.068633 0.072226 0.878964
0.080084 0.076469 0.893907
0.422323 0.081176 0.895299
0.748698 0.087295 0.895933
0.836165 0.095660 0.896967
0.861405 0.108860 0.899218
0.874457 0.113002 0.902755
0.879684 0.116893 0.904152
0.068633 0.072831 0.863969
0.068633 0.073129 0.877748
0.080835 0.079751 0.892662
0.404992 0.084945 0.894464
0.740258 0.092120 0.895237
0.834225 0.105688 0.896363
0.860822 0.122328 0.898705
0.874242 0.127318 0.902508
0.879684 0.116887 0.903958
0.068633 0.087526 0.864915
0.068650 0.088983 0.872732
0.083625 0.101339 0.886197
0.354572 0.118632 0.890245
0.707440 0.142367 0.892006
0.826020 0.177384 0.893776
0.858333 0.216967 0.896513
0.873147 0.252821 0.901043
0.879683 0.116733 0.903077
0.069122 0.193905 0.854195
0.069948 0.205146 0.860369
0.086293 0.255065 0.874211
0.291047 0.306028 0.881849
0.644921 0.348034 0.885409
0.806193 0.400204 0.888391
0.853683 0.441931 0.892431
0.871423 0.485360 0.898008
0.879352 0.554856 0.904993
0.070977 0.495416 0.837411
0.072446 0.504940 0.841861
0.088071 0.535590 0.856329
0.224674 0.565293 0.868504
0.555430 0.593836 0.875387
0.773245 0.620595 0.880015
0.846322 0.645563 0.885243
0.868900 0.676958 0.893220
0.878721 0.728401 0.903193
0.072597 0.706004 0.819279
0.074026 0.709467 0.823655
0.087787 0.720904 0.834291
0.181631 0.735076 0.848594
0.468825 0.748576 0.860574
0.719575 0.761035 0.868205
0.831229 0.773659 0.874966
0.865383 0.785258 0.884665
0.878179 0.817090 0.900155
0.072317 0.816448 0.795637
0.073506 0.818169 0.798534
0.083865 0.824123 0.809734
0.132784 0.831289 0.826099
0.348285 0.838419 0.838391
0.628942 0.845324 0.849604
0.801883 0.851678 0.858611
0.860157 0.858290 0.871095
0.877862 0.870759 0.894592
0.069652 0.879167 0.770687
0.070103 0.879499 0.772764
0.074183 0.880603 0.781701
0.093586 0.882278 0.793903
0.210854 0.884879 0.809302
0.498969 0.887382 0.824938
0.737104 0.890513 0.834123
0.849924 0.894372 0.845151
0.878145 0.900045 0.882672
0.068633 0.908740 0.674713
0.068633 0.911101 0.674748
0.068633 0.913789 0.675667
0.069025 0.915528 0.759169
0.089361 0.914891 0.766936
0.232392 0.914791 0.778998
0.538146 0.915116 0.787992
0.792563 0.916011 0.794062
0.879870 0.917995 0.863723
0.068633 0.074507 0.912049
0.068633 0.074991 0.913499
0.084454 0.081327 0.915615
0.461046 0.086841 0.915951
0.763035 0.094333 0.916182
0.839473 0.109260 0.916579
0.862284 0.124597 0.917372
0.874867 0.127184 0.919442
0.879694 0.132639 0.920638
0.068633 0.077208 0.911833
0.068633 0.077856 0.913199
0.085554 0.084768 0.915351
0.448388 0.090978 0.915736
0.756544 0.101929 0.915992
0.838034 0.121224 0.916409
0.861853 0.140499 0.917221
0.874685 0.145493 0.919280
0.879697 0.139339 0.920638
0.068642 0.097648 0.911010
0.068734 0.100213 0.911976
0.090036 0.119660 0.913997
0.401160 0.140251 0.914671
0.729466 0.171587 0.915084
0.831440 0.210943 0.915614
0.859838 0.254263 0.916521
0.873783 0.276845 0.918483
0.879733 0.240787 0.920638
0.069575 0.245795 0.908784
0.070575 0.252157 0.909689
0.093711 0.297674 0.911891
0.339928 0.338793 0.913046
0.682195 0.382614 0.913730
0.818069 0.426427 0.914434
0.856261 0.466399 0.915490
0.872400 0.504777 0.917433
0.879389 0.581549 0.920625
0.071811 0.529216 0.907283
0.073451 0.534206 0.907726
0.094862 0.559401 0.908788
0.274549 0.585847 0.910714
0.599604 0.613027 0.911924
0.792355 0.633324 0.912887
0.850397 0.657892 0.914102
0.870387 0.684796 0.916134
0.878915 0.735712 0.919342
0.073488 0.718343 0.900488
0.075568 0.720842 0.902141
0.092390 0.732117 0.906272
0.208408 0.744571 0.907876
0.515743 0.756371 0.909381
0.745649 0.768072 0.910856
0.839020 0.777492 0.912311
0.867544 0.788584 0.914534
0.878508 0.820961 0.918144
0.072834 0.823161 0.886185
0.074007 0.824445 0.888315
0.086152 0.829839 0.895629
0.145179 0.836405 0.902867
0.387674 0.842898 0.907361
0.670109 0.848713 0.907929
0.815173 0.854311 0.909668
0.862988 0.859940 0.912305
0.878261 0.872389 0.916773
0.069198 0.881722 0.866121
0.069650 0.882105 0.867550
0.073558 0.883556 0.873896
0.093156 0.885648 0.883427
0.216459 0.887820 0.894170
0.508256 0.890112 0.901886
0.748705 0.893051 0.906091
0.851030 0.895161 0.907741
0.878444 0.901276 0.914661
0.068633 0.907427 0.823266
0.068633 0.913708 0.824982
0.068633 0.914399 0.831423
0.068643 0.916596 0.846723
0.082955 0.916337 0.856018
0.205988 0.916034 0.865694
0.514804 0.916184 0.872866
0.779998 0.916876 0.876691
0.879932 0.918622 0.909408
0.072217 0.076612 0.928231
0.076008 0.077118 0.928234
0.227144 0.079184 0.928242
0.724615 0.082897 0.928264
0.827974 0.088297 0.928305
0.854965 0.094303 0.928380
0.868459 0.096726 0.928569
0.877460 0.086942 0.928913
0.879684 0.126788 0.928179
0.072994 0.078874 0.928190
0.077436 0.079513 0.928193
0.227711 0.081737 0.928204
0.720179 0.086136 0.928231
0.826896 0.092166 0.928276
0.854620 0.100325 0.928357
0.868312 0.105337 0.928550
0.877384 0.090184 0.928901
0.879684 0.132021 0.928662
0.078674 0.094975 0.927969
0.085489 0.095954 0.927978
0.237077 0.101920 0.928008
0.692104 0.115070 0.928064
0.820507 0.133101 0.928136
0.852988 0.155762 0.928246
0.867585 0.168288 0.928457
0.876975 0.134583 0.928830
0.879684 0.132067 0.928662
0.088778 0.246789 0.927597
0.097903 0.250564 0.927619
0.242276 0.265884 0.927691
0.650331 0.300968 0.927797
0.805725 0.336228 0.927911
0.849486 0.369063 0.928063
0.866081 0.395253 0.928310
0.876190 0.388413 0.928692
0.879830 0.571537 0.929095
0.092594 0.532401 0.927283
0.103570 0.535027 0.927319
0.218963 0.545748 0.927439
0.565936 0.563513 0.927578
0.782151 0.584734 0.927738
0.843046 0.606655 0.927927
0.863789 0.620180 0.928193
0.875362 0.627196 0.928606
0.879829 0.718768 0.929251
0.088486 0.720924 0.927077
0.094447 0.722172 0.927130
0.175943 0.727423 0.927301
0.475556 0.735693 0.927493
0.730256 0.745045 0.927678
0.830400 0.754599 0.927891
0.860188 0.762461 0.928164
0.874273 0.769432 0.928574
0.879745 0.811139 0.929249
0.078464 0.826463 0.926991
0.082057 0.827144 0.927064
0.108493 0.830060 0.927284
0.305933 0.834327 0.927538
0.616325 0.838847 0.927771
0.797875 0.843921 0.928001
0.853415 0.848256 0.928300
0.872667 0.851506 0.928683
0.879734 0.868873 0.929333
0.069066 0.883746 0.926140
0.069400 0.884060 0.926478
0.073242 0.885347 0.927170
0.107510 0.886880 0.927662
0.349081 0.888137 0.928037
0.679263 0.889769 0.928324
0.828635 0.892148 0.928605
0.868483 0.893800 0.928959
0.879825 0.900147 0.929503
0.068633 0.904959 0.881618
0.068633 0.914443 0.903718
0.068633 0.914443 0.903718
0.068633 0.915093 0.903752
0.070712 0.918594 0.923022
0.150759 0.917589 0.928432
0.492221 0.917494 0.929132
0.781232 0.918113 0.929499
0.880008 0.919335 0.929726
