LUTs/ektachrome100d/Ektachrome100D_Classic_Normal.cube
TITLE "Kodak Ektachrome 100D Classic Normal"
# Adobe RGB in/out. REPLACES AgX. Kodak Ektachrome 100D Classic Normal.
LUT_3D_SIZE 33
DOMAIN_MIN 0.0 0.0 0.0
DOMAIN_MAX 1.0 1.0 1.0
0.086071 0.084324 0.090717
0.086071 0.084324 0.090717
0.086071 0.084324 0.090717
0.086071 0.084324 0.090717
0.086460 0.084324 0.090717
0.088357 0.084324 0.090717
0.099875 0.084324 0.090717
0.141817 0.084324 0.090717
0.189770 0.084324 0.090717
0.261279 0.084324 0.090717
0.385879 0.084324 0.090717
0.504191 0.084324 0.090717
0.599930 0.084356 0.090717
0.712876 0.084468 0.090717
0.803481 0.084684 0.090717
0.845702 0.084884 0.090717
0.877899 0.085063 0.090717
0.901933 0.085544 0.090717
0.917641 0.086276 0.090717
0.926290 0.086650 0.090717
0.933106 0.087138 0.090717
0.938769 0.087679 0.090717
0.943105 0.088115 0.090717
0.946588 0.088216 0.090717
0.949118 0.088347 0.090728
0.951321 0.088362 0.090758
0.954041 0.087513 0.090815
0.955436 0.086913 0.091229
0.958199 0.084432 0.257133
0.958198 0.084430 0.256999
0.958198 0.084430 0.256991
0.958198 0.084430 0.256986
0.958711 0.148583 0.777999
0.086071 0.084324 0.090717
0.086071 0.084324 0.090717
0.086071 0.084324 0.090717
0.086071 0.084324 0.090717
0.086921 0.084324 0.090717
0.089003 0.084324 0.090717
0.100911 0.084324 0.090717
0.141806 0.084324 0.090717
0.188430 0.084324 0.090717
0.258453 0.084324 0.090717
0.380156 0.084324 0.090717
0.501595 0.084324 0.090717
0.594964 0.084363 0.090717
0.707949 0.084487 0.090717
0.800570 0.084713 0.090717
0.843949 0.084910 0.090717
0.876915 0.085086 0.090717
0.901164 0.085609 0.090717
0.917324 0.086336 0.090717
0.926102 0.086723 0.090717
0.932965 0.087207 0.090717
0.938664 0.087744 0.090717
0.943052 0.088178 0.090717
0.946550 0.088277 0.090717
0.949091 0.088406 0.090728
0.951301 0.088420 0.090758
0.954028 0.087573 0.090814
0.955428 0.086971 0.091207
0.958199 0.084432 0.257136
0.958198 0.084430 0.256999
0.958198 0.084430 0.256992
0.958198 0.084430 0.256986
0.958711 0.148586 0.777998
0.086071 0.084324 0.090717
0.086071 0.084324 0.090717
0.086071 0.084324 0.090717
0.086071 0.084324 0.090717
0.086312 0.084324 0.090717
0.089375 0.084324 0.090717
0.103124 0.084324 0.090717
0.144929 0.084324 0.090717
0.186214 0.084324 0.090717
0.250668 0.084324 0.090717
0.364768 0.084324 0.090717
0.474806 0.084351 0.090717
0.577138 0.084402 0.090717
0.689985 0.084558 0.090717
0.789181 0.084820 0.090717
0.837403 0.085004 0.090717
0.873228 0.085241 0.090717
0.898284 0.085848 0.090717
0.916138 0.086556 0.090717
0.925396 0.086991 0.090717
0.932437 0.087458 0.090717
0.938273 0.087981 0.090717
0.942855 0.088404 0.090717
0.946408 0.088497 0.090717
0.948990 0.088621 0.090727
0.951229 0.088631 0.090756
0.953977 0.087789 0.090808
0.955397 0.087182 0.091150
0.958199 0.084432 0.257146
0.958198 0.084430 0.257001
0.958198 0.084430 0.256992
0.958198 0.084430 0.256987
0.958711 0.148591 0.777997
0.086071 0.084324 0.090717
0.086071 0.084324 0.090717
0.086071 0.084324 0.090717
0.086071 0.084324 0.090717
0.086071 0.084324 0.090717
0.086522 0.084324 0.090717
0.093967 0.084324 0.090717
0.127191 0.084324 0.090717
0.169981 0.084324 0.090717
0.236859 0.084324 0.090717
0.341117 0.084373 0.090717
0.443393 0.084476 0.090717
0.544308 0.084565 0.090717
0.656256 0.084721 0.090717
0.761024 0.085025 0.090717
0.824333 0.085286 0.090717
0.865577 0.085744 0.090717
0.892471 0.086304 0.090717
0.913746 0.087085 0.090717
0.923974 0.087499 0.090717
0.931377 0.087932 0.090717
0.937493 0.088428 0.090717
0.942464 0.088831 0.090717
0.946126 0.088913 0.090717
0.948789 0.089105 0.090726
0.951086 0.089111 0.090754
0.953878 0.088199 0.090799
0.955337 0.087583 0.091055
0.958199 0.084432 0.257169
0.958198 0.084430 0.257003
0.958198 0.084430 0.256994
0.958198 0.084430 0.256988
0.958711 0.148594 0.777995
0.086071 0.084324 0.090717
0.086071 0.084324 0.090717
0.086071 0.084324 0.090717
0.086071 0.084324 0.090717
0.086071 0.084324 0.090717
0.086076 0.084324 0.090717
0.088288 0.084324 0.090717
0.104817 0.084363 0.090717
0.132252 0.084360 0.090717
0.202691 0.084402 0.090717
0.304715 0.084626 0.090717
0.388602 0.084744 0.090717
0.486055 0.084867 0.090717
0.598719 0.085075 0.090717
0.725467 0.085831 0.090717
0.801250 0.086193 0.090717
0.847033 0.086545 0.090717
0.882362 0.087150 0.090717
0.908971 0.087949 0.090717
0.921499 0.088295 0.090717
0.929544 0.088672 0.090717
0.936155 0.089277 0.090717
0.941796 0.090390 0.090717
0.945648 0.090659 0.090717
0.948451 0.091061 0.090724
0.950845 0.091036 0.090751
0.953710 0.088840 0.090788
0.955233 0.088214 0.090952
0.958199 0.084433 0.257213
0.958198 0.084430 0.257009
0.958198 0.084430 0.256997
0.958199 0.084432 0.256989
0.958711 0.148595 0.777994
0.086071 0.084328 0.090717
0.086071 0.084332 0.090717
0.086071 0.084355 0.090717
0.086071 0.084376 0.090717
0.086071 0.084405 0.090717
0.086071 0.084419 0.090717
0.086478 0.084573 0.090717
0.092701 0.084810 0.090717
0.108055 0.084705 0.090717
0.146737 0.084798 0.090717
0.246860 0.085101 0.090717
0.332293 0.085350 0.090717
0.429795 0.085607 0.090717
0.548428 0.086101 0.090717
0.673956 0.086924 0.090717
0.758306 0.087386 0.090717
0.821596 0.087857 0.090717
0.865715 0.088517 0.090717
0.896156 0.089461 0.090717
0.916655 0.090187 0.090717
0.926469 0.091437 0.090717
0.933936 0.093097 0.090717
0.940571 0.094518 0.090717
0.944867 0.094674 0.090717
0.947903 0.094971 0.090723
0.950457 0.094890 0.090748
0.953437 0.091557 0.090777
0.955062 0.089297 0.090862
0.958199 0.084434 0.257302
0.958198 0.084430 0.257019
0.958198 0.084430 0.257002
0.958711 0.148492 0.256992
0.958711 0.148596 0.777994
0.086071 0.084807 0.090717
0.086071 0.084821 0.090717
0.086071 0.084916 0.090717
0.086071 0.085029 0.090717
0.086071 0.085135 0.090717
0.086071 0.085242 0.090717
0.086089 0.085298 0.090717
0.089044 0.086193 0.090717
0.095973 0.085766 0.090717
0.117034 0.085897 0.090717
0.192340 0.086726 0.090717
0.270585 0.086991 0.090717
0.353843 0.087090 0.090717
0.473012 0.087593 0.090717
0.605640 0.088510 0.090717
0.711210 0.088939 0.090717
0.790823 0.089397 0.090717
0.843640 0.091196 0.090717
0.882433 0.094368 0.090717
0.909277 0.095750 0.090717
0.921698 0.097667 0.090717
0.930170 0.099762 0.090717
0.937894 0.100956 0.090717
0.943566 0.100935 0.090717
0.947004 0.101073 0.090722
0.949825 0.100915 0.090745
0.952987 0.097421 0.090769
0.954777 0.094476 0.090829
0.958199 0.084436 0.257514
0.958198 0.084431 0.257044
0.958198 0.084430 0.257014
0.958711 0.148589 0.256997
0.958711 0.148596 0.777994
0.086071 0.086871 0.090717
0.086071 0.086911 0.090717
0.086071 0.087236 0.090717
0.086071 0.087610 0.090717
0.086071 0.087990 0.090717
0.086071 0.088276 0.090717
0.086083 0.088425 0.090717
0.087273 0.088485 0.090717
0.090944 0.087872 0.090717
0.103543 0.087950 0.090717
0.144528 0.088897 0.090717
0.220150 0.089047 0.090717
0.290488 0.089011 0.090717
0.392391 0.089879 0.090717
0.542035 0.093193 0.090717
0.646462 0.094298 0.090717
0.744379 0.095369 0.090717
0.814705 0.097884 0.090717
0.864607 0.101162 0.090717
0.895526 0.101947 0.090717
0.916637 0.103217 0.090717
0.926677 0.105957 0.090717
0.934816 0.108729 0.090717
0.941714 0.110109 0.090717
0.945435 0.112171 0.090722
0.948734 0.111742 0.090744
0.952188 0.107596 0.090765
0.954269 0.103504 0.090814
0.958200 0.084447 0.258250
0.958199 0.084432 0.257127
0.958198 0.084431 0.257050
0.958711 0.148594 0.257012
0.958711 0.148596 0.777994
0.086071 0.088390 0.090717
0.086071 0.088417 0.090717
0.086071 0.088613 0.090717
0.086071 0.089005 0.090717
0.086071 0.089815 0.090717
0.086071 0.091000 0.090717
0.086071 0.091962 0.090717
0.086283 0.092433 0.090717
0.088619 0.092656 0.090717
0.095430 0.092906 0.090717
0.119642 0.096925 0.090717
0.170907 0.096964 0.090717
0.237700 0.096426 0.090717
0.324378 0.097861 0.090717
0.461583 0.101274 0.090717
0.573741 0.102018 0.090717
0.681789 0.102870 0.090717
0.768275 0.105514 0.090717
0.838589 0.109642 0.090717
0.878217 0.111410 0.090717
0.906157 0.114545 0.090717
0.921812 0.118227 0.090717
0.931379 0.122771 0.090717
0.939660 0.124477 0.090717
0.944303 0.128072 0.090724
0.947686 0.132348 0.090744
0.951159 0.131103 0.090765
0.953358 0.130992 0.090810
0.958225 0.084776 0.266854
0.958199 0.084443 0.257976
0.958199 0.084433 0.257278
0.958711 0.148596 0.257080
0.958711 0.148596 0.777993
0.086071 0.094207 0.090717
0.086071 0.094298 0.090717
0.086071 0.094875 0.090717
0.086071 0.096264 0.090717
0.086071 0.098016 0.090717
0.086071 0.099701 0.090717
0.086071 0.100849 0.090717
0.086093 0.101630 0.090717
0.087407 0.102079 0.090717
0.091566 0.102329 0.090717
0.108376 0.108046 0.090717
0.137621 0.107870 0.090717
0.193779 0.106625 0.090717
0.268626 0.107893 0.090717
0.378001 0.112867 0.090717
0.501210 0.113715 0.090717
0.605138 0.114704 0.090717
0.724580 0.119279 0.090717
0.809897 0.129626 0.090717
0.856924 0.133005 0.090717
0.891341 0.136668 0.090717
0.915121 0.144925 0.090717
0.926455 0.155014 0.090717
0.935890 0.157797 0.090717
0.942557 0.160119 0.090727
0.946513 0.163823 0.090746
0.950400 0.160824 0.090764
0.952867 0.159177 0.090805
0.955288 0.152001 0.090863
0.956873 0.144676 0.091215
0.958348 0.116491 0.181126
0.958711 0.148599 0.269685
0.958711 0.148597 0.777993
0.086071 0.108707 0.090717
0.086071 0.108830 0.090717
0.086071 0.109521 0.090717
0.086071 0.112127 0.090717
0.086071 0.115198 0.090717
0.086071 0.119390 0.090717
0.086071 0.123653 0.090717
0.086092 0.127582 0.090717
0.087238 0.130350 0.090717
0.090916 0.131961 0.090717
0.100327 0.133071 0.090717
0.118976 0.132006 0.090717
0.159060 0.127764 0.090717
0.228718 0.130478 0.090717
0.320721 0.143076 0.090717
0.421668 0.143340 0.090717
0.537261 0.143943 0.090717
0.657361 0.150587 0.090717
0.762044 0.165645 0.090717
0.828964 0.167796 0.090717
0.873229 0.173724 0.090717
0.903416 0.184999 0.090717
0.921536 0.194320 0.090717
0.931992 0.198471 0.090717
0.939958 0.206895 0.090731
0.944620 0.215640 0.090748
0.949187 0.211045 0.090765
0.952099 0.207192 0.090801
0.954794 0.196378 0.090849
0.956588 0.183197 0.091060
0.958262 0.130148 0.112143
0.958711 0.148601 0.311403
0.958711 0.148606 0.326650
0.086071 0.130692 0.090717
0.086071 0.130985 0.090717
0.086071 0.132522 0.090717
0.086071 0.137661 0.090717
0.086071 0.143425 0.090717
0.086071 0.151022 0.090717
0.086071 0.159063 0.090717
0.086084 0.165120 0.090717
0.086659 0.169982 0.090717
0.089243 0.173401 0.090717
0.095360 0.175421 0.090717
0.110080 0.177024 0.090717
0.134500 0.169619 0.090717
0.191887 0.173641 0.090717
0.273447 0.191508 0.090717
0.354386 0.189779 0.090717
0.464360 0.189328 0.090717
0.583826 0.197353 0.090717
0.713030 0.213674 0.090717
0.796255 0.214670 0.090717
0.848509 0.220537 0.090717
0.887380 0.229643 0.090717
0.914234 0.244981 0.090717
0.926821 0.253185 0.090722
0.936412 0.259146 0.090736
0.942985 0.267875 0.090752
0.947811 0.269818 0.090769
0.950967 0.274646 0.090801
0.953953 0.270386 0.090843
0.956101 0.250947 0.090980
0.958049 0.172584 0.093648
0.958711 0.148609 0.311613
0.958711 0.148618 0.341521
0.086071 0.164104 0.090717
0.086071 0.164439 0.090717
0.086071 0.166098 0.090717
0.086071 0.171278 0.090717
0.086071 0.179069 0.090717
0.086071 0.188782 0.090717
0.086071 0.198145 0.090717
0.086076 0.206988 0.090717
0.086348 0.213065 0.090717
0.087920 0.217081 0.090717
0.091951 0.219923 0.090717
0.101784 0.221552 0.090717
0.119539 0.223068 0.090717
0.162833 0.227308 0.090717
0.238056 0.253039 0.090717
0.307751 0.249448 0.090717
0.394203 0.246909 0.090717
0.513041 0.256692 0.090717
0.648215 0.274873 0.090717
0.749126 0.274737 0.090717
0.819806 0.280118 0.090717
0.869459 0.291110 0.090717
0.901842 0.312376 0.090718
0.921628 0.316979 0.090728
0.931973 0.327152 0.090741
0.940280 0.339492 0.090756
0.946228 0.337633 0.090774
0.949966 0.339220 0.090803
0.953206 0.340411 0.090841
0.955456 0.341437 0.090954
0.957208 0.347191 0.091284
0.958711 0.148742 0.311880
0.958711 0.148697 0.363801
0.086071 0.216933 0.090717
0.086071 0.217233 0.090717
0.086071 0.218633 0.090717
0.086071 0.222674 0.090717
0.086071 0.233557 0.090717
0.086071 0.245243 0.090717
0.086071 0.258232 0.090717
0.086073 0.269209 0.090717
0.086223 0.277568 0.090717
0.087479 0.283883 0.090717
0.090629 0.289136 0.090717
0.097742 0.292957 0.090717
0.112550 0.295276 0.090717
0.140379 0.298360 0.090717
0.212129 0.329520 0.090717
0.268160 0.326707 0.090717
0.343149 0.323072 0.090717
0.456414 0.329169 0.090717
0.581948 0.346272 0.090717
0.692059 0.345743 0.090717
0.777737 0.349985 0.090717
0.843717 0.361278 0.090717
0.885760 0.377238 0.090725
0.914196 0.383867 0.090735
0.926919 0.396770 0.090747
0.936777 0.409301 0.090761
0.944277 0.415009 0.090781
0.948412 0.426666 0.090807
0.952271 0.423469 0.090841
0.954920 0.419119 0.090934
0.956920 0.419424 0.091155
0.958132 0.431961 0.094963
0.958772 0.487033 0.388554
0.086071 0.301704 0.090717
0.086071 0.302425 0.090717
0.086071 0.305590 0.090717
0.086071 0.314037 0.090717
0.086071 0.328120 0.090717
0.086071 0.336502 0.090717
0.086071 0.348185 0.090717
0.086075 0.359414 0.090717
0.086220 0.372615 0.090717
0.087393 0.383928 0.090717
0.090272 0.393053 0.090717
0.096489 0.399474 0.090717
0.109709 0.403893 0.090717
0.133507 0.407118 0.090717
0.181727 0.409768 0.090717
0.238309 0.404159 0.090717
0.303725 0.399123 0.090717
0.392941 0.407328 0.090717
0.520520 0.431479 0.090717
0.623943 0.428855 0.090717
0.738419 0.434132 0.090717
0.816189 0.449049 0.090720
0.868459 0.464674 0.090733
0.901601 0.471908 0.090742
0.921562 0.480814 0.090753
0.932274 0.496826 0.090769
0.942031 0.502004 0.090788
0.946998 0.507242 0.090813
0.951160 0.514710 0.090844
0.954080 0.523713 0.090924
0.956455 0.519638 0.091098
0.957915 0.517358 0.092277
0.958751 0.509420 0.350823
0.086071 0.369740 0.090717
0.086071 0.370258 0.090717
0.086071 0.372465 0.090717
0.086071 0.378059 0.090717
0.086071 0.390827 0.090717
0.086071 0.404695 0.090717
0.086071 0.423291 0.090717
0.086072 0.437180 0.090717
0.086122 0.452661 0.090717
0.087009 0.466204 0.090717
0.089266 0.475393 0.090717
0.093458 0.482515 0.090717
0.104293 0.488270 0.090717
0.120321 0.491955 0.090717
0.157774 0.495051 0.090717
0.216566 0.497666 0.090717
0.269131 0.492289 0.090717
0.347890 0.499558 0.090717
0.466018 0.522138 0.090717
0.571496 0.519080 0.090717
0.681844 0.521763 0.090717
0.771554 0.533538 0.090729
0.843411 0.546506 0.090741
0.885427 0.551846 0.090749
0.914339 0.561858 0.090760
0.927434 0.577615 0.090779
0.938874 0.582248 0.090797
0.945035 0.593566 0.090819
0.949900 0.599567 0.090849
0.953361 0.602397 0.090924
0.955923 0.610825 0.091070
0.957512 0.627011 0.091626
0.958644 0.587475 0.193028
0.086071 0.453333 0.090717
0.086071 0.453872 0.090717
0.086071 0.456110 0.090717
0.086071 0.461362 0.090717
0.086071 0.471040 0.090717
0.086071 0.485300 0.090717
0.086071 0.497777 0.090717
0.086071 0.512291 0.090717
0.086093 0.527021 0.090717
0.086689 0.539168 0.090717
0.088466 0.549624 0.090717
0.091897 0.558021 0.090717
0.099511 0.564818 0.090717
0.113579 0.569779 0.090717
0.138667 0.573367 0.090717
0.186766 0.576462 0.090717
0.243164 0.579391 0.090717
0.312510 0.586540 0.090717
0.413398 0.607461 0.090717
0.511871 0.604303 0.090717
0.619628 0.606399 0.090726
0.738012 0.614790 0.090737
0.817034 0.625268 0.090748
0.868440 0.628720 0.090756
0.902577 0.637316 0.090769
0.922267 0.648406 0.090789
0.934529 0.654740 0.090806
0.942952 0.661829 0.090827
0.948458 0.670916 0.090856
0.952312 0.681654 0.090929
0.955350 0.687002 0.091053
0.957241 0.697510 0.091396
0.958374 0.721878 0.100746
0.086071 0.541658 0.090717
0.086071 0.542091 0.090717
0.086071 0.543836 0.090717
0.086071 0.547889 0.090717
0.086071 0.556258 0.090717
0.086071 0.572300 0.090717
0.086071 0.582021 0.090717
0.086071 0.598425 0.090717
0.086092 0.610826 0.090717
0.086596 0.620712 0.090717
0.088003 0.630150 0.090717
0.091122 0.638063 0.090717
0.097410 0.644690 0.090717
0.109248 0.649211 0.090717
0.129673 0.653103 0.090717
0.169130 0.655936 0.090717
0.224802 0.658334 0.090717
0.282604 0.660982 0.090717
0.366897 0.682475 0.090719
0.466356 0.678732 0.090726
0.572138 0.679784 0.090734
0.686470 0.689981 0.090745
0.778928 0.701703 0.090756
0.844097 0.704096 0.090764
0.886921 0.711509 0.090780
0.915744 0.720434 0.090800
0.929909 0.725973 0.090815
0.940351 0.732238 0.090835
0.946658 0.741119 0.090866
0.951309 0.744465 0.090939
0.954687 0.752568 0.091048
0.956806 0.766411 0.091284
0.958213 0.778396 0.093747
0.086071 0.633600 0.090717
0.086071 0.633973 0.090717
0.086071 0.635439 0.090717
0.086071 0.638670 0.090717
0.086071 0.644947 0.090717
0.086071 0.656679 0.090717
0.086071 0.667614 0.090717
0.086073 0.683623 0.090717
0.086093 0.697134 0.090717
0.086603 0.708180 0.090717
0.087927 0.716872 0.090717
0.090858 0.724413 0.090717
0.096351 0.730276 0.090717
0.107428 0.735059 0.090717
0.122290 0.738613 0.090717
0.159855 0.741791 0.090717
0.213864 0.744186 0.090717
0.264145 0.745996 0.090717
0.334179 0.748470 0.090727
0.419551 0.745882 0.090734
0.521248 0.746862 0.090742
0.630412 0.753066 0.090752
0.745385 0.761347 0.090763
0.818990 0.763538 0.090776
0.870639 0.769973 0.090792
0.906152 0.777886 0.090810
0.924953 0.782096 0.090825
0.936366 0.788705 0.090847
0.944869 0.794439 0.090885
0.950032 0.800094 0.090951
0.953937 0.807622 0.091052
0.956456 0.814642 0.091233
0.958005 0.827864 0.092750
0.086071 0.706526 0.090717
0.086071 0.706811 0.090717
0.086071 0.707917 0.090717
0.086071 0.710310 0.090717
0.086071 0.714842 0.090717
0.086071 0.723078 0.090717
0.086071 0.732477 0.090717
0.086071 0.740766 0.090717
0.086091 0.751289 0.090717
0.086493 0.761358 0.090717
0.087579 0.769569 0.090717
0.089836 0.776505 0.090717
0.093950 0.782151 0.090717
0.103083 0.786753 0.090717
0.116706 0.790514 0.090717
0.142250 0.793304 0.090717
0.187999 0.795741 0.090717
0.240431 0.797942 0.090723
0.301402 0.799635 0.090732
0.375602 0.801958 0.090741
0.474717 0.802204 0.090749
0.584411 0.807562 0.090760
0.699641 0.813925 0.090775
0.789639 0.815650 0.090787
0.848979 0.820579 0.090803
0.891291 0.824729 0.090821
0.919469 0.827233 0.090835
0.932065 0.831132 0.090858
0.942720 0.834308 0.090905
0.948558 0.837708 0.090965
0.953133 0.841126 0.091059
0.955975 0.846469 0.091212
0.957810 0.853914 0.092164
0.086071 0.765705 0.090717
0.086071 0.765980 0.090717
0.086071 0.767034 0.090717
0.086071 0.769260 0.090717
0.086071 0.773036 0.090717
0.086071 0.779013 0.090717
0.086071 0.787948 0.090717
0.086071 0.793640 0.090717
0.086090 0.803400 0.090717
0.086377 0.809861 0.090717
0.087353 0.817880 0.090717
0.089388 0.823335 0.090717
0.092577 0.826665 0.090717
0.099807 0.829483 0.090717
0.112294 0.831774 0.090717
0.133061 0.833548 0.090717
0.170963 0.834863 0.090719
0.222817 0.836037 0.090729
0.275210 0.837260 0.090738
0.342521 0.838241 0.090747
0.436314 0.839549 0.090756
0.544517 0.841710 0.090768
0.653477 0.845023 0.090786
0.752017 0.845989 0.090798
0.825383 0.848221 0.090813
0.876213 0.851664 0.090830
0.912119 0.853798 0.090847
0.927512 0.856045 0.090875
0.939964 0.857511 0.090925
0.946982 0.859577 0.090979
0.952142 0.864493 0.091069
0.955504 0.869394 0.091205
0.957591 0.878236 0.091815
0.086071 0.819203 0.090717
0.086071 0.819437 0.090717
0.086071 0.820324 0.090717
0.086071 0.821532 0.090717
0.086071 0.823442 0.090717
0.086071 0.826660 0.090717
0.086071 0.831809 0.090717
0.086071 0.834958 0.090717
0.086088 0.839199 0.090717
0.086340 0.843336 0.090717
0.087245 0.847641 0.090717
0.088936 0.851013 0.090717
0.091913 0.854326 0.090717
0.098080 0.856130 0.090717
0.109090 0.857040 0.090717
0.126341 0.857828 0.090718
0.158807 0.858843 0.090728
0.210096 0.860263 0.090737
0.254574 0.861466 0.090746
0.319188 0.862863 0.090755
0.396418 0.864061 0.090764
0.501924 0.865577 0.090778
0.603090 0.868720 0.090796
0.713096 0.869959 0.090808
0.801228 0.872199 0.090823
0.858220 0.875760 0.090842
0.899609 0.878350 0.090859
0.922609 0.881586 0.090898
0.936152 0.885578 0.090945
0.945158 0.888991 0.090995
0.951079 0.893578 0.091081
0.954956 0.898655 0.091202
0.957342 0.907392 0.091721
0.086071 0.849564 0.090717
0.086071 0.849683 0.090717
0.086071 0.850131 0.090717
0.086071 0.851031 0.090717
0.086071 0.852581 0.090717
0.086071 0.855109 0.090717
0.086071 0.856978 0.090717
0.086071 0.859118 0.090717
0.086087 0.863152 0.090717
0.086326 0.868518 0.090717
0.087047 0.872404 0.090717
0.088639 0.876808 0.090717
0.091477 0.880877 0.090717
0.096628 0.883822 0.090717
0.106566 0.886433 0.090717
0.119675 0.888683 0.090726
0.146279 0.890581 0.090736
0.191265 0.892114 0.090745
0.240488 0.893408 0.090754
0.298202 0.894536 0.090763
0.366688 0.895894 0.090777
0.463654 0.897222 0.090791
0.565414 0.898801 0.090805
0.670125 0.899998 0.090816
0.762110 0.901921 0.090831
0.835750 0.904965 0.090853
0.885041 0.907630 0.090876
0.916663 0.910182 0.090919
0.932159 0.913405 0.090964
0.943145 0.916419 0.091013
0.949896 0.919931 0.091092
0.954322 0.924433 0.091204
0.957125 0.927132 0.091645
0.086071 0.875959 0.090717
0.086071 0.876079 0.090717
0.086071 0.876524 0.090717
0.086071 0.877412 0.090717
0.086071 0.878920 0.090717
0.086071 0.881342 0.090717
0.086071 0.885165 0.090717
0.086071 0.889898 0.090717
0.086084 0.893178 0.090717
0.086236 0.898109 0.090717
0.086783 0.901906 0.090717
0.088186 0.906329 0.090717
0.090496 0.909378 0.090717
0.094689 0.912234 0.090717
0.103401 0.914635 0.090720
0.115381 0.916431 0.090730
0.136759 0.918006 0.090740
0.175116 0.919333 0.090749
0.224722 0.920489 0.090758
0.274045 0.921514 0.090768
0.338555 0.922518 0.090783
0.423180 0.923631 0.090797
0.519857 0.924938 0.090811
0.620895 0.925668 0.090824
0.733669 0.926091 0.090841
0.813705 0.926838 0.090863
0.870160 0.927641 0.090895
0.908770 0.928389 0.090937
0.927712 0.929440 0.090980
0.940983 0.930484 0.091034
0.948568 0.931668 0.091104
0.953662 0.932999 0.091203
0.956880 0.935012 0.091560
0.086071 0.906192 0.090717
0.086071 0.906310 0.090717
0.086071 0.906749 0.090717
0.086071 0.907610 0.090717
0.086071 0.908872 0.090717
0.086071 0.910756 0.090717
0.086071 0.913636 0.090717
0.086071 0.918039 0.090717
0.086082 0.920495 0.090717
0.086147 0.924012 0.090717
0.086673 0.926141 0.090717
0.087754 0.927200 0.090717
0.089861 0.928297 0.090717
0.093226 0.929273 0.090717
0.100069 0.930034 0.090725
0.111546 0.930720 0.090735
0.129844 0.931286 0.090744
0.163115 0.931731 0.090754
0.212291 0.932112 0.090762
0.254839 0.932457 0.090776
0.315347 0.932786 0.090791
0.385702 0.933132 0.090805
0.479901 0.933497 0.090818
0.583363 0.933979 0.090831
0.692323 0.934518 0.090849
0.783825 0.934964 0.090880
0.850417 0.935661 0.090911
0.894874 0.936116 0.090952
0.922902 0.936889 0.090993
0.937554 0.937646 0.091047
0.947125 0.938575 0.091115
0.952954 0.939550 0.091203
0.956615 0.941022 0.091517
0.086071 0.927436 0.090717
0.086071 0.927471 0.090717
0.086071 0.927599 0.090717
0.086071 0.927847 0.090717
0.086071 0.928250 0.090717
0.086071 0.928861 0.090717
0.086071 0.929766 0.090717
0.086071 0.931107 0.090717
0.086080 0.932183 0.090717
0.086105 0.933241 0.090717
0.086610 0.934669 0.090717
0.087509 0.935373 0.090717
0.089508 0.936284 0.090717
0.092208 0.936918 0.090720
0.098306 0.937578 0.090730
0.108658 0.938103 0.090740
0.121585 0.938527 0.090749
0.150402 0.938874 0.090759
0.193384 0.939152 0.090770
0.240664 0.939407 0.090785
0.295510 0.939643 0.090799
0.360210 0.939890 0.090813
0.453820 0.940147 0.090827
0.550328 0.940432 0.090842
0.652666 0.940822 0.090860
0.752532 0.941253 0.090894
0.829099 0.942021 0.090923
0.880809 0.942373 0.090964
0.917156 0.943060 0.091002
0.933803 0.943732 0.091057
0.945500 0.944577 0.091121
0.952184 0.945522 0.091201
0.956428 0.946697 0.091484
0.086071 0.937061 0.090717
0.086071 0.937083 0.090717
0.086071 0.937164 0.090717
0.086071 0.937317 0.090717
0.086071 0.937564 0.090717
0.086071 0.937935 0.090717
0.086071 0.938481 0.090717
0.086071 0.939289 0.090717
0.086075 0.940162 0.090717
0.086089 0.940818 0.090717
0.086355 0.941699 0.090717
0.087125 0.942475 0.090717
0.088596 0.943163 0.090717
0.091206 0.943809 0.090720
0.095975 0.944351 0.090730
0.104665 0.944807 0.090740
0.117066 0.945214 0.090750
0.139319 0.945527 0.090759
0.177251 0.945765 0.090770
0.225039 0.945981 0.090785
0.272302 0.946192 0.090800
0.334020 0.946392 0.090814
0.414000 0.946556 0.090827
0.507007 0.946745 0.090843
