LUTs/ektachrome100d/Ektachrome100D_Modern_IlfochromeP.cube
TITLE "Kodak Ektachrome 100D Modern IlfochromeP"
# Adobe RGB in/out. REPLACES AgX. Kodak Ektachrome 100D Modern IlfochromeP.
LUT_3D_SIZE 33
DOMAIN_MIN 0.0 0.0 0.0
DOMAIN_MAX 1.0 1.0 1.0
0.138981 0.101282 0.098429
0.139823 0.103954 0.099650
0.140186 0.104551 0.099823
0.148318 0.108187 0.100665
0.189439 0.113652 0.101417
0.226834 0.117469 0.101946
0.322459 0.124380 0.103280
0.443072 0.135291 0.104647
0.507387 0.141421 0.105309
0.608572 0.150846 0.106362
0.747793 0.166363 0.108699
0.822275 0.175802 0.110802
0.875135 0.184102 0.112542
0.916276 0.196315 0.114847
0.951960 0.212731 0.118690
0.969802 0.222717 0.121220
0.982270 0.231680 0.123929
0.988077 0.242927 0.128171
0.993069 0.256879 0.133611
0.996497 0.262596 0.137421
0.996682 0.268472 0.141709
0.996815 0.275427 0.147564
0.996933 0.280498 0.154494
0.997041 0.279202 0.160730
0.997097 0.278496 0.168945
0.997134 0.275607 0.182944
0.997200 0.257159 0.201847
0.997194 0.243957 0.263515
0.997262 0.170494 0.556202
0.997179 0.169180 0.548982
0.997096 0.167959 0.541931
0.997013 0.166773 0.534982
0.996958 0.407651 0.783850
0.138991 0.108127 0.099140
0.139222 0.107230 0.099321
0.140879 0.105452 0.099501
0.150426 0.108909 0.100572
0.192435 0.114986 0.101430
0.227380 0.118255 0.101950
0.318576 0.125035 0.103276
0.434700 0.136371 0.104642
0.498903 0.142512 0.105304
0.598362 0.151778 0.106350
0.738968 0.167356 0.108678
0.815407 0.176705 0.110769
0.870652 0.185157 0.112512
0.912606 0.197300 0.114810
0.950007 0.213823 0.118654
0.968160 0.223745 0.121176
0.981673 0.232653 0.123877
0.987588 0.243906 0.128114
0.992670 0.257845 0.133541
0.996475 0.263527 0.137348
0.996667 0.269377 0.141631
0.996802 0.276318 0.147459
0.996922 0.281383 0.154372
0.997032 0.280081 0.160584
0.997089 0.279367 0.168755
0.997127 0.276474 0.182571
0.997194 0.258020 0.201129
0.997188 0.244771 0.261174
0.997257 0.170428 0.555814
0.997174 0.169119 0.548631
0.997092 0.167905 0.541613
0.997009 0.166724 0.534693
0.996955 0.407463 0.783559
0.138996 0.110006 0.099322
0.139020 0.109937 0.099606
0.139397 0.108786 0.099549
0.143388 0.111533 0.100364
0.167873 0.118802 0.101350
0.210657 0.121634 0.101861
0.301649 0.129037 0.103259
0.414392 0.142281 0.104686
0.474522 0.147249 0.105320
0.566040 0.155997 0.106339
0.708023 0.171421 0.108627
0.790201 0.180400 0.110676
0.849686 0.189255 0.112420
0.899477 0.201076 0.114697
0.942948 0.217970 0.118537
0.962204 0.227617 0.121029
0.978473 0.236369 0.123733
0.985812 0.247551 0.127918
0.991221 0.261427 0.133330
0.995688 0.266970 0.137096
0.996610 0.272716 0.141359
0.996754 0.279596 0.147091
0.996882 0.284635 0.153946
0.996998 0.283309 0.160072
0.997060 0.282562 0.168089
0.997102 0.279653 0.181271
0.997172 0.261185 0.198677
0.997169 0.247767 0.253153
0.997241 0.170196 0.554433
0.997160 0.168902 0.547378
0.997078 0.167711 0.540477
0.996997 0.166549 0.533660
0.996944 0.406789 0.782517
0.139014 0.121407 0.099892
0.139030 0.121430 0.100147
0.139439 0.120793 0.100438
0.140266 0.118510 0.100539
0.149222 0.124728 0.101359
0.167561 0.126417 0.101831
0.233064 0.136495 0.103178
0.347364 0.150785 0.104646
0.422461 0.155413 0.105325
0.513577 0.164620 0.106367
0.649508 0.180666 0.108612
0.741854 0.190808 0.110599
0.811098 0.198176 0.112323
0.874856 0.209141 0.114588
0.922472 0.226593 0.118374
0.950987 0.235574 0.120811
0.969085 0.244017 0.123509
0.982448 0.254824 0.127603
0.988488 0.268508 0.132984
0.993429 0.273726 0.136671
0.996497 0.279228 0.140895
0.996666 0.285959 0.146457
0.996808 0.290923 0.153206
0.996936 0.289537 0.159182
0.997006 0.288714 0.166935
0.997056 0.285771 0.179044
0.997132 0.267311 0.194635
0.997134 0.253583 0.240029
0.997212 0.169775 0.551934
0.997133 0.168509 0.545106
0.997054 0.167359 0.538415
0.996974 0.166237 0.531785
0.996923 0.405557 0.780623
0.139040 0.151607 0.100954
0.139170 0.151646 0.101149
0.139638 0.151644 0.101395
0.140826 0.148300 0.101621
0.144933 0.142952 0.101846
0.152329 0.137135 0.102005
0.181922 0.148661 0.103170
0.264254 0.163518 0.104616
0.341286 0.167029 0.105340
0.438164 0.175261 0.106402
0.571491 0.194272 0.108690
0.670645 0.203276 0.110648
0.752628 0.210722 0.112311
0.827812 0.223953 0.114533
0.890862 0.242589 0.118251
0.928405 0.250168 0.120606
0.954308 0.257278 0.123269
0.973032 0.267214 0.127236
0.984192 0.280394 0.132556
0.989897 0.284937 0.136126
0.994332 0.289939 0.140286
0.996528 0.296518 0.145608
0.996695 0.301458 0.152204
0.996841 0.299885 0.157974
0.996926 0.298879 0.165371
0.996987 0.295776 0.176074
0.997072 0.277265 0.189566
0.997082 0.263091 0.224681
0.997169 0.169169 0.548298
0.997094 0.167944 0.541791
0.997018 0.166843 0.535401
0.996941 0.165861 0.529040
0.996892 0.403746 0.777844
0.139229 0.179741 0.101653
0.139314 0.179236 0.101758
0.139698 0.179251 0.101956
0.140382 0.175201 0.102398
0.143270 0.167190 0.102460
0.148924 0.160230 0.102770
0.162559 0.165416 0.103432
0.207144 0.180185 0.104842
0.267617 0.181663 0.105402
0.352430 0.191010 0.106443
0.476089 0.209994 0.108702
0.578473 0.219924 0.110714
0.675989 0.227656 0.112430
0.768455 0.239786 0.114603
0.849522 0.257851 0.118212
0.895560 0.266528 0.120482
0.930527 0.275015 0.123093
0.955260 0.286848 0.126929
0.974654 0.299579 0.132143
0.984710 0.302872 0.135558
0.990137 0.307014 0.139618
0.994304 0.312925 0.144644
0.996535 0.317448 0.151042
0.996710 0.315586 0.156566
0.996816 0.314286 0.163544
0.996892 0.311073 0.172672
0.996990 0.292472 0.184230
0.997011 0.277702 0.209821
0.997113 0.168398 0.543576
0.997042 0.167209 0.537463
0.996970 0.166167 0.531457
0.996925 0.405607 0.525440
0.996852 0.401365 0.774188
0.139532 0.237375 0.103001
0.139636 0.238347 0.103167
0.139969 0.237193 0.103527
0.141080 0.229474 0.103749
0.143655 0.216671 0.103898
0.148900 0.204932 0.104030
0.157241 0.196447 0.104337
0.180918 0.204619 0.105209
0.217670 0.203433 0.105659
0.287066 0.210918 0.106733
0.390273 0.232073 0.108901
0.486028 0.241271 0.110936
0.579997 0.246875 0.112501
0.689910 0.258552 0.114645
0.791446 0.277415 0.118283
0.852884 0.286780 0.120568
0.897523 0.292460 0.123045
0.934676 0.302707 0.126723
0.958600 0.317653 0.131820
0.975698 0.323406 0.135090
0.984416 0.330408 0.139024
0.989498 0.337549 0.143772
0.993951 0.341184 0.149868
0.996528 0.338759 0.155124
0.996669 0.336915 0.161655
0.996769 0.333529 0.169555
0.996884 0.315911 0.179421
0.996921 0.300140 0.198289
0.997045 0.167552 0.537898
0.996979 0.166317 0.532201
0.996912 0.165342 0.526645
0.996871 0.402521 0.521185
0.996802 0.398443 0.769696
0.139869 0.305113 0.104430
0.139940 0.305977 0.104569
0.140264 0.308416 0.105027
0.141979 0.298019 0.105281
0.144270 0.285026 0.105441
0.149675 0.271380 0.105661
0.157586 0.258563 0.105805
0.172802 0.248391 0.106127
0.191988 0.231216 0.106089
0.238256 0.236317 0.107188
0.325660 0.257960 0.109414
0.406686 0.265079 0.111269
0.491122 0.269374 0.112785
0.596164 0.280357 0.114897
0.719377 0.298852 0.118418
0.796375 0.306414 0.120618
0.856043 0.313077 0.123084
0.900333 0.324836 0.126732
0.938109 0.339657 0.131690
0.959721 0.343063 0.134796
0.976581 0.348337 0.138606
0.984603 0.356382 0.143218
0.989549 0.364351 0.148951
0.993758 0.366880 0.153905
0.996459 0.370666 0.159957
0.996607 0.366880 0.167307
0.996746 0.351407 0.175909
0.996806 0.335446 0.190648
0.996965 0.166984 0.531587
0.996905 0.165311 0.526136
0.996843 0.164389 0.521213
0.996808 0.398810 0.516547
0.996743 0.395026 0.764436
0.140003 0.339709 0.105128
0.140055 0.340364 0.105229
0.140308 0.338934 0.105504
0.141885 0.331556 0.105776
0.143792 0.321012 0.106041
0.148046 0.308379 0.106275
0.154123 0.295743 0.106650
0.164566 0.284065 0.106959
0.182180 0.274750 0.107387
0.210712 0.268424 0.107891
0.278568 0.286556 0.110123
0.345454 0.291997 0.111778
0.419219 0.294914 0.113226
0.510492 0.304721 0.115288
0.629727 0.322929 0.118726
0.725535 0.329429 0.120899
0.800295 0.335687 0.123258
0.863025 0.346471 0.126844
0.906856 0.361171 0.131692
0.940533 0.366778 0.134707
0.959532 0.374714 0.138425
0.976398 0.380802 0.142856
0.984714 0.387140 0.148285
0.989819 0.388200 0.152986
0.993379 0.390960 0.158732
0.996014 0.394151 0.165613
0.996585 0.390192 0.173524
0.996659 0.387427 0.187009
0.996876 0.181971 0.528286
0.996822 0.164720 0.520018
0.996766 0.163423 0.515651
0.996736 0.394637 0.511358
0.996676 0.391176 0.758498
0.140213 0.391119 0.106117
0.140266 0.389854 0.106180
0.140832 0.384655 0.106428
0.142215 0.378654 0.106905
0.143856 0.369068 0.107330
0.147778 0.357728 0.107681
0.152828 0.345267 0.108018
0.161419 0.332927 0.108335
0.175987 0.321767 0.108672
0.198511 0.312574 0.109233
0.246987 0.323069 0.111289
0.301897 0.321960 0.112504
0.361399 0.323012 0.113747
0.443140 0.331415 0.115860
0.546892 0.349301 0.119165
0.641925 0.354734 0.121313
0.732871 0.359897 0.123586
0.809899 0.370089 0.127144
0.873150 0.386332 0.131918
0.909805 0.391665 0.134844
0.943043 0.396688 0.138345
0.961256 0.405913 0.142658
0.976786 0.415790 0.147870
0.984828 0.417534 0.152298
0.989377 0.418387 0.157688
0.992728 0.420140 0.164135
0.995913 0.415269 0.170678
0.996523 0.411399 0.182576
0.996617 0.402034 0.198644
0.996658 0.391918 0.238781
0.996689 0.354135 0.469926
0.996656 0.390090 0.510896
0.996601 0.386965 0.751989
0.141138 0.462458 0.108219
0.141286 0.460428 0.108264
0.141865 0.455260 0.108455
0.143085 0.451158 0.108930
0.144977 0.442410 0.109597
0.148734 0.430672 0.110217
0.153875 0.418160 0.110807
0.162412 0.404704 0.111336
0.176370 0.391705 0.111842
0.197647 0.379891 0.112464
0.229991 0.370157 0.113178
0.272444 0.360327 0.113769
0.320070 0.352854 0.114428
0.387708 0.360162 0.116560
0.480362 0.378421 0.119737
0.564499 0.382623 0.121933
0.656163 0.386621 0.124068
0.748209 0.396237 0.127576
0.825842 0.412705 0.132297
0.878226 0.416473 0.135119
0.914138 0.423002 0.138528
0.944670 0.433136 0.142700
0.963183 0.440438 0.147647
0.978906 0.443166 0.151865
0.984785 0.448506 0.156967
0.988655 0.455300 0.162949
0.992639 0.449168 0.168871
0.994922 0.443764 0.178788
0.996476 0.433619 0.192272
0.996543 0.421203 0.218464
0.996593 0.367948 0.389684
0.996571 0.385257 0.520673
0.996516 0.382480 0.522670
0.141759 0.512651 0.109630
0.141881 0.510817 0.109692
0.142347 0.505407 0.109945
0.143342 0.500506 0.110542
0.145054 0.491161 0.111150
0.148543 0.480315 0.111826
0.153128 0.467936 0.112552
0.160152 0.454078 0.113109
0.172063 0.441104 0.113655
0.189780 0.428715 0.114194
0.215997 0.417381 0.114813
0.253600 0.407994 0.115731
0.293642 0.393171 0.115995
0.345725 0.391698 0.117411
0.426904 0.409319 0.120603
0.500232 0.412036 0.122652
0.583717 0.415364 0.124891
0.681007 0.424466 0.128312
0.772166 0.440066 0.132738
0.834774 0.443310 0.135541
0.884224 0.450552 0.138930
0.919818 0.458704 0.142891
0.947960 0.469571 0.147722
0.965285 0.474943 0.151764
0.979665 0.478239 0.156581
0.984799 0.483872 0.162251
0.989158 0.484074 0.167638
0.991799 0.486261 0.175951
0.994185 0.480332 0.187919
0.995677 0.464098 0.206287
0.996476 0.404049 0.301396
0.996471 0.380235 0.514189
0.996039 0.377794 0.521695
0.142183 0.553130 0.110905
0.142286 0.551584 0.110959
0.142673 0.546845 0.111176
0.143475 0.541593 0.111667
0.145148 0.534970 0.112354
0.148310 0.526142 0.113073
0.151941 0.514513 0.113729
0.158153 0.501141 0.114360
0.167845 0.487203 0.114985
0.182544 0.472825 0.115686
0.203515 0.459519 0.116411
0.233834 0.448702 0.117145
0.274486 0.439818 0.118032
0.320814 0.434324 0.119078
0.383237 0.441853 0.121677
0.450141 0.443715 0.123571
0.521128 0.445968 0.125816
0.612632 0.454409 0.129207
0.716236 0.470408 0.133603
0.786523 0.473320 0.136222
0.846295 0.480195 0.139358
0.892298 0.490551 0.143279
0.926313 0.502971 0.148088
0.951881 0.505739 0.151824
0.967538 0.512813 0.156456
0.979920 0.522070 0.161895
0.985473 0.519664 0.166775
0.988783 0.519444 0.173894
0.991520 0.518480 0.184627
0.993215 0.516988 0.200214
0.994351 0.518694 0.231546
0.995176 0.375225 0.507582
0.994489 0.373051 0.522699
0.142717 0.603603 0.112600
0.142805 0.602382 0.112653
0.143133 0.598534 0.112860
0.143800 0.593727 0.113312
0.145794 0.589970 0.114041
0.148521 0.581345 0.114701
0.151789 0.570755 0.115555
0.157523 0.559195 0.116426
0.166282 0.546321 0.117229
0.178872 0.532435 0.117925
0.197378 0.518882 0.118595
0.224136 0.505898 0.119347
0.259486 0.493860 0.120128
0.301959 0.483839 0.121247
0.357226 0.490865 0.123858
0.408938 0.480508 0.124955
0.473252 0.480063 0.126982
0.552269 0.488496 0.130139
0.651044 0.505112 0.134544
0.733302 0.507906 0.137160
0.803241 0.513884 0.140138
0.861517 0.523906 0.143837
0.901519 0.534444 0.148543
0.934394 0.539178 0.152159
0.954755 0.546699 0.156581
0.969589 0.553343 0.161678
0.981467 0.555792 0.166242
0.985253 0.560758 0.172391
0.988678 0.557602 0.181896
0.990849 0.553423 0.194980
0.992315 0.551237 0.217707
0.992949 0.554850 0.303580
0.992965 0.581005 0.523983
0.143391 0.663821 0.114894
0.143467 0.662748 0.114958
0.143751 0.659297 0.115207
0.144510 0.654649 0.115738
0.146860 0.652141 0.116716
0.149200 0.644007 0.117515
0.152656 0.636336 0.118455
0.158093 0.626593 0.119293
0.166443 0.615617 0.120212
0.178624 0.603764 0.121193
0.196390 0.591614 0.122179
0.221129 0.578527 0.123045
0.254466 0.565685 0.124052
0.294306 0.554196 0.125249
0.337241 0.544321 0.126650
0.382326 0.531973 0.127576
0.435031 0.521507 0.128627
0.503342 0.525885 0.131324
0.593427 0.541093 0.135683
0.675802 0.542870 0.138104
0.753990 0.548197 0.141027
0.821412 0.557805 0.144738
0.875695 0.567643 0.149247
0.910602 0.573260 0.152704
0.941759 0.579294 0.156855
0.958024 0.588611 0.161767
0.973328 0.591073 0.166012
0.981906 0.593089 0.171479
0.985698 0.595747 0.180019
0.988210 0.598694 0.191175
0.990116 0.594859 0.208736
0.991068 0.591545 0.256953
0.991350 0.584913 0.505387
0.143703 0.698108 0.116402
0.143770 0.697344 0.116460
0.144068 0.694841 0.116680
0.144957 0.691261 0.117141
0.146937 0.688559 0.117969
0.149221 0.683882 0.118832
0.152550 0.678960 0.119862
0.157134 0.668997 0.120844
0.164561 0.658986 0.121915
0.175490 0.648444 0.123030
0.190545 0.636663 0.123947
0.211190 0.624723 0.125108
0.240364 0.613383 0.126292
0.277381 0.602472 0.127553
0.317151 0.592835 0.128831
0.360690 0.584141 0.130270
0.408159 0.571890 0.131140
0.467129 0.567997 0.133028
0.542979 0.578404 0.136995
0.620877 0.579665 0.139304
0.705243 0.583760 0.141983
0.779408 0.592161 0.145789
0.841481 0.600640 0.150149
0.887332 0.604797 0.153398
0.920231 0.610904 0.157370
0.946298 0.619417 0.162061
0.963415 0.621861 0.165981
0.975290 0.627153 0.171033
0.982634 0.629344 0.178768
0.985729 0.629546 0.188513
0.987882 0.632857 0.203277
0.989027 0.641039 0.235558
0.989665 0.616437 0.433242
0.143994 0.727814 0.117741
0.144078 0.727142 0.117793
0.144386 0.724910 0.117988
0.145345 0.721574 0.118390
0.147044 0.718563 0.119099
0.149303 0.715649 0.120063
0.151865 0.709916 0.121155
0.156223 0.703780 0.122297
0.162864 0.696866 0.123411
0.172336 0.688878 0.124632
0.185546 0.679954 0.125932
0.203414 0.668651 0.127165
0.229388 0.657484 0.128369
0.261701 0.646594 0.129639
0.299656 0.636375 0.130895
0.339634 0.627312 0.132183
0.385449 0.619505 0.133626
0.440161 0.614984 0.135663
0.506273 0.618342 0.139011
0.571630 0.613478 0.140494
0.651868 0.616804 0.143119
0.735047 0.624026 0.146969
0.805320 0.632283 0.151212
0.860382 0.635885 0.154264
0.898634 0.642302 0.158082
0.929935 0.649843 0.162510
0.952766 0.654038 0.166209
0.966609 0.658256 0.170831
0.978413 0.662010 0.177961
0.982997 0.666155 0.186609
0.985660 0.667459 0.199127
0.987153 0.670891 0.223165
0.987851 0.684734 0.320957
0.144447 0.761927 0.119381
0.144554 0.761341 0.119427
0.145018 0.759375 0.119602
0.145921 0.756344 0.119985
0.147405 0.753303 0.120789
0.149667 0.752026 0.122064
0.151865 0.745792 0.122983
0.156204 0.741381 0.124351
0.162168 0.734864 0.125746
0.170541 0.727329 0.127089
0.182528 0.719448 0.128525
0.199156 0.710978 0.129857
0.222526 0.702375 0.131197
0.251568 0.693441 0.132350
0.287319 0.685124 0.133689
0.325090 0.676368 0.135137
0.366951 0.667665 0.136625
0.416444 0.660325 0.138287
0.478702 0.662707 0.141554
0.534865 0.653930 0.142547
0.604335 0.650008 0.144290
0.688860 0.656800 0.148247
0.764734 0.664497 0.152377
0.826101 0.667615 0.155267
0.876659 0.674015 0.158949
0.910649 0.681142 0.163161
0.942057 0.684669 0.166610
0.957536 0.688291 0.170954
0.970649 0.693062 0.177599
0.980390 0.694349 0.185355
0.983418 0.697988 0.196294
0.985176 0.704487 0.215189
0.986186 0.710345 0.275880
0.145353 0.799157 0.121826
0.145467 0.798744 0.121881
0.145886 0.797346 0.122089
0.146697 0.795141 0.122509
0.148014 0.792539 0.123226
0.150025 0.791034 0.124503
0.152455 0.786590 0.125773
0.156454 0.782462 0.127377
0.162019 0.776509 0.128865
0.170315 0.770507 0.130438
0.181731 0.763315 0.131865
0.197554 0.755468 0.133336
0.218714 0.746943 0.134816
0.246190 0.738368 0.136298
0.279948 0.729828 0.137705
0.317198 0.721944 0.139293
0.355913 0.714521 0.140788
0.402085 0.707676 0.142269
0.454357 0.702083 0.143976
0.506066 0.694427 0.145023
0.568456 0.689527 0.146775
0.642152 0.688428 0.149576
0.725484 0.694195 0.153567
0.792366 0.696444 0.156345
0.848320 0.700853 0.159856
0.891295 0.706566 0.163936
0.924772 0.709733 0.167136
0.948065 0.714206 0.171376
0.963184 0.717798 0.177424
0.974156 0.721025 0.184538
0.981173 0.725160 0.194314
0.983347 0.728633 0.209766
0.984533 0.739043 0.252158
0.145590 0.822095 0.122897
0.145694 0.821724 0.122948
0.146076 0.820460 0.123140
0.146812 0.818417 0.123523
0.147996 0.816080 0.124246
0.149778 0.814407 0.125538
0.152160 0.812076 0.126998
0.155590 0.808038 0.128405
0.160652 0.804383 0.130048
0.168078 0.799892 0.131650
0.177929 0.794106 0.133033
0.191589 0.786928 0.134629
0.209921 0.779212 0.136256
0.234717 0.771173 0.137800
0.266096 0.763146 0.139322
0.301343 0.755170 0.140768
0.337973 0.747753 0.142324
0.379633 0.741000 0.143863
0.427836 0.734717 0.145621
0.481022 0.729628 0.147666
0.537413 0.723874 0.149304
0.607455 0.722115 0.152013
0.683321 0.721531 0.154938
0.754354 0.722891 0.157446
0.817681 0.726813 0.160844
0.870848 0.731870 0.164750
0.907082 0.734950 0.167757
0.936293 0.739435 0.171956
0.955231 0.743179 0.177529
0.967635 0.746926 0.184015
0.977239 0.750408 0.192735
0.981470 0.755969 0.205900
0.982958 0.763830 0.237353
0.145827 0.845199 0.124080
0.145923 0.844873 0.124141
0.146275 0.843755 0.124365
0.146948 0.841916 0.124810
0.148023 0.839721 0.125556
0.149624 0.837894 0.126747
0.152041 0.836770 0.128421
0.155036 0.832534 0.129653
0.160022 0.830051 0.131469
0.166142 0.824905 0.132807
0.175457 0.820354 0.134513
0.188167 0.815212 0.136285
0.204006 0.809118 0.137925
0.226468 0.802753 0.139458
0.254815 0.796431 0.141053
0.288260 0.789325 0.142587
0.323052 0.781785 0.144052
0.361042 0.774796 0.145902
0.406524 0.768613 0.147816
0.456153 0.762850 0.149645
0.510500 0.758184 0.151666
0.575396 0.755204 0.154287
0.648266 0.754198 0.157134
0.720534 0.750791 0.158807
0.785883 0.752719 0.161823
0.843559 0.757382 0.165634
0.889350 0.760269 0.168449
0.920918 0.764131 0.172580
0.946956 0.768376 0.177836
0.961153 0.771530 0.183656
0.972007 0.776125 0.191607
0.978887 0.780428 0.203154
0.981433 0.788678 0.228283
0.146130 0.868421 0.125806
0.146219 0.868155 0.125863
0.146545 0.867236 0.126074
0.147167 0.865710 0.126499
0.148153 0.863841 0.127228
0.149606 0.862146 0.128360
0.151931 0.861539 0.130064
0.154823 0.858064 0.131316
0.159043 0.855091 0.132914
0.165144 0.851400 0.134611
0.173907 0.847499 0.136490
0.184564 0.842324 0.138155
0.199563 0.837057 0.139910
0.220194 0.831315 0.141590
0.246094 0.825235 0.143147
0.277712 0.819213 0.144951
0.311547 0.813168 0.146800
0.347500 0.807373 0.148663
0.389133 0.801919 0.150530
0.437252 0.797188 0.152486
0.487901 0.792571 0.154371
0.545940 0.788234 0.156369
0.615891 0.786220 0.159148
0.686642 0.782645 0.160695
0.753404 0.780598 0.163085
0.815515 0.782703 0.166473
0.870614 0.785628 0.169153
0.905323 0.789074 0.173324
0.936490 0.793132 0.178254
0.954394 0.795932 0.183541
0.966844 0.799435 0.190731
0.974837 0.803157 0.201013
0.979512 0.809890 0.221831
0.146283 0.885523 0.127333
0.146367 0.885351 0.127390
0.146672 0.884756 0.127600
0.147251 0.883756 0.128013
0.148165 0.882500 0.128695
0.149503 0.881293 0.129746
0.151461 0.880653 0.131315
0.154582 0.879139 0.132799
0.158196 0.876833 0.134334
0.164368 0.875058 0.136404
0.171489 0.871899 0.138026
0.181850 0.868739 0.139893
0.196273 0.864354 0.141811
0.213979 0.858826 0.143448
0.237548 0.853085 0.145261
0.267581 0.847287 0.147250
0.300763 0.841528 0.149269
0.335373 0.835860 0.151209
0.374043 0.830441 0.153109
0.419259 0.825360 0.155019
0.468530 0.820976 0.156974
0.521386 0.817037 0.158933
0.585052 0.813769 0.160923
0.653304 0.810571 0.162396
0.725492 0.808394 0.164702
0.788620 0.807538 0.167629
0.845180 0.807864 0.169762
0.889419 0.810366 0.173969
0.923156 0.813481 0.178706
0.947480 0.816217 0.183599
0.961649 0.819295 0.189970
0.970803 0.823214 0.199317
0.976387 0.828705 0.216951
0.145981 0.901333 0.127806
0.146060 0.901176 0.127859
0.146348 0.900631 0.128054
0.146893 0.899701 0.128436
0.147752 0.898496 0.129066
0.148999 0.897246 0.130034
0.150756 0.896346 0.131478
0.153807 0.895496 0.133198
0.156774 0.893078 0.134620
0.162263 0.891419 0.136706
0.168473 0.888630 0.138403
0.178520 0.886067 0.140397
0.190258 0.882607 0.142112
0.206501 0.879179 0.143974
0.229246 0.875446 0.146124
0.255917 0.871366 0.148056
0.287200 0.866606 0.150094
0.320626 0.861249 0.152071
0.356629 0.855947 0.154047
0.398865 0.850931 0.155957
0.446267 0.846331 0.157896
0.496356 0.842284 0.159806
0.554398 0.838859 0.161799
0.622045 0.836035 0.163818
0.694220 0.833269 0.166084
0.760588 0.831813 0.168946
0.821338 0.830815 0.170793
0.872301 0.830550 0.174476
0.909254 0.833379 0.178911
0.939544 0.836056 0.183748
0.956357 0.839002 0.189386
0.966913 0.842228 0.197570
0.973380 0.847697 0.212981
0.145723 0.915093 0.128468
0.145798 0.914961 0.128517
0.146069 0.914500 0.128699
0.146584 0.913709 0.129054
0.147390 0.912672 0.129639
0.148558 0.911564 0.130535
0.150189 0.910689 0.131866
0.153170 0.910535 0.133864
0.155815 0.908258 0.135199
0.160143 0.906463 0.137069
0.166745 0.904571 0.139101
0.174920 0.901833 0.140872
0.186235 0.899052 0.142810
0.201100 0.895940 0.144899
0.220272 0.892352 0.146979
0.245193 0.888686 0.149122
0.275810 0.884895 0.151246
0.308713 0.881029 0.153336
0.342941 0.877254 0.155313
0.381840 0.873658 0.157303
0.426426 0.870301 0.159226
0.474655 0.866541 0.161151
0.527247 0.862934 0.163061
0.591053 0.859935 0.165098
0.661475 0.857444 0.167155
0.733182 0.855308 0.169980
0.798887 0.854461 0.172047
0.851920 0.852950 0.175386
0.894975 0.853043 0.178993
0.928090 0.855417 0.183395
0.951026 0.858316 0.188823
0.963105 0.861243 0.196004
0.970506 0.865806 0.209426
0.145356 0.926619 0.129013
0.145427 0.926527 0.129059
0.145686 0.926204 0.129230
0.146174 0.925648 0.129565
0.146937 0.924912 0.130113
0.148039 0.924111 0.130952
0.149572 0.923443 0.132198
0.151926 0.923229 0.134100
0.154946 0.922096 0.135791
0.158597 0.920603 0.137489
0.165255 0.919656 0.139858
0.171943 0.916941 0.141455
0.182962 0.914694 0.143617
0.195363 0.911548 0.145630
0.213526 0.908470 0.148033
0.236495 0.905050 0.150236
0.264616 0.901448 0.152371
0.296449 0.897776 0.154513
0.329675 0.894097 0.156592
0.366210 0.890570 0.158633
0.408555 0.887231 0.160642
0.455279 0.884167 0.162618
0.505141 0.881383 0.164556
0.563222 0.878924 0.166484
0.630450 0.876996 0.168565
0.704406 0.875410 0.170724
0.771467 0.874979 0.172811
0.830095 0.873556 0.176122
0.881667 0.873250 0.179393
0.916420 0.873050 0.182998
0.945494 0.874744 0.187920
0.959338 0.876778 0.194409
0.967964 0.879803 0.206328
0.144240 0.940410 0.128073
0.144280 0.940321 0.128114
0.144429 0.940006 0.128268
0.144872 0.939453 0.128570
0.145614 0.938696 0.129071
0.146687 0.937815 0.129851
0.148189 0.936961 0.131033
0.150274 0.936389 0.132812
0.153225 0.935627 0.134868
0.156170 0.934006 0.136424
0.161336 0.932711 0.138615
0.167963 0.930955 0.140645
0.177010 0.928840 0.142607
0.189178 0.926536 0.144774
0.204593 0.923940 0.147193
0.225348 0.921148 0.149443
0.252034 0.918045 0.151790
0.282682 0.914507 0.153993
0.314540 0.910905 0.156090
0.348859 0.907423 0.158165
0.388411 0.904128 0.160205
0.433338 0.901066 0.162215
0.481876 0.898293 0.164195
0.535699 0.895844 0.166150
