kodachrome64/Kodachrome64_Modern_RadianceIII.cube
TITLE "Kodachrome 64 Modern RadianceIII"
# Adobe RGB in/out. REPLACES AgX. Kodachrome 64 Modern RadianceIII.
LUT_3D_SIZE 33
DOMAIN_MIN 0.0 0.0 0.0
DOMAIN_MAX 1.0 1.0 1.0
0.078336 0.088005 0.085647
0.085626 0.089830 0.086054
0.107886 0.092852 0.086775
0.141922 0.099597 0.087509
0.183201 0.110273 0.088247
0.243546 0.125306 0.090158
0.300680 0.145872 0.092422
0.348659 0.172443 0.096185
0.394422 0.198410 0.100149
0.439422 0.223738 0.104181
0.482871 0.251013 0.110442
0.524082 0.277024 0.116409
0.563204 0.300942 0.123725
0.597302 0.323664 0.130923
0.628279 0.345668 0.138222
0.658140 0.367255 0.145909
0.686972 0.388367 0.154570
0.714751 0.408074 0.163701
0.740487 0.426296 0.172655
0.765282 0.443845 0.181433
0.789187 0.460834 0.190018
0.808907 0.477360 0.198073
0.827717 0.493005 0.205973
0.845871 0.508222 0.213817
0.863035 0.523043 0.221679
0.875416 0.537248 0.229390
0.885284 0.550932 0.236822
0.894758 0.564250 0.243953
0.903860 0.577211 0.250931
0.912610 0.589865 0.258538
0.921024 0.602212 0.265467
0.928709 0.614227 0.272247
0.933140 0.625916 0.278879
0.078448 0.091519 0.085894
0.082605 0.091148 0.086009
0.099022 0.093304 0.086653
0.133048 0.100357 0.087399
0.175552 0.111336 0.088144
0.235265 0.126096 0.089963
0.294374 0.146907 0.092201
0.343661 0.173370 0.095857
0.390319 0.199263 0.099906
0.436025 0.224573 0.103921
0.480058 0.251876 0.110154
0.521650 0.277758 0.116168
0.561130 0.301578 0.123452
0.595747 0.324247 0.130686
0.626904 0.346208 0.137982
0.656907 0.367761 0.145694
0.685864 0.388838 0.154327
0.713750 0.408474 0.163478
0.739613 0.426669 0.172450
0.764485 0.444190 0.181243
0.788456 0.461157 0.189850
0.808344 0.477665 0.197918
0.827201 0.493286 0.205830
0.845398 0.508489 0.213680
0.862634 0.523297 0.221551
0.875173 0.537483 0.229271
0.885061 0.551157 0.236715
0.894553 0.564466 0.243853
0.903671 0.577418 0.250838
0.912435 0.590064 0.258444
0.920862 0.602404 0.265383
0.928623 0.614412 0.272168
0.933061 0.626095 0.278805
0.080231 0.100114 0.086474
0.084944 0.099506 0.086555
0.093764 0.098439 0.086708
0.117204 0.102248 0.087201
0.155759 0.114057 0.087881
0.210761 0.128293 0.089396
0.274345 0.150071 0.091521
0.327605 0.176517 0.094835
0.377076 0.202193 0.099127
0.424695 0.227467 0.103069
0.470352 0.254890 0.109192
0.513350 0.280331 0.115356
0.553990 0.303816 0.122524
0.590351 0.326301 0.129869
0.622106 0.348118 0.137151
0.652587 0.369553 0.144947
0.681969 0.390516 0.153479
0.710219 0.409895 0.162697
0.736523 0.427996 0.171729
0.761662 0.445418 0.180574
0.785868 0.462309 0.189235
0.806344 0.478734 0.197370
0.825371 0.494289 0.205322
0.843718 0.509443 0.213192
0.861205 0.524205 0.221097
0.874309 0.538328 0.228849
0.884267 0.551964 0.236336
0.893823 0.565238 0.243499
0.902997 0.578158 0.250508
0.911812 0.590780 0.258092
0.920285 0.603092 0.265083
0.928318 0.615075 0.271887
0.932778 0.626734 0.278542
0.082471 0.118264 0.086978
0.086790 0.117581 0.087038
0.099897 0.115597 0.087192
0.115743 0.114012 0.087386
0.141030 0.118841 0.087762
0.185415 0.131790 0.088802
0.247798 0.155795 0.090871
0.305451 0.182139 0.093496
0.357573 0.207328 0.098016
0.407084 0.232600 0.102023
0.454705 0.260033 0.107692
0.499702 0.284870 0.114051
0.542017 0.307781 0.121000
0.581158 0.329956 0.128506
0.613828 0.351528 0.135745
0.645070 0.372763 0.143667
0.675140 0.393534 0.152014
0.703991 0.412456 0.161338
0.731046 0.430392 0.170465
0.756637 0.447639 0.179397
0.781246 0.464399 0.188138
0.802762 0.480657 0.196397
0.822083 0.496115 0.204418
0.840693 0.511180 0.212322
0.858629 0.525861 0.220286
0.872746 0.539868 0.228091
0.882831 0.553437 0.235655
0.892498 0.566649 0.242863
0.901774 0.579513 0.249912
0.910680 0.592089 0.257457
0.919235 0.604352 0.264541
0.927459 0.616288 0.271380
0.932263 0.627904 0.278065
0.085837 0.148563 0.087611
0.089998 0.147377 0.087642
0.105700 0.143609 0.087735
0.124426 0.138671 0.087874
0.145042 0.135915 0.088121
0.173631 0.143994 0.088746
0.225907 0.166637 0.090577
0.284334 0.191220 0.092768
0.336826 0.215235 0.096960
0.386997 0.240755 0.101041
0.435855 0.266979 0.105988
0.482581 0.291046 0.112487
0.526477 0.313456 0.119109
0.567712 0.335197 0.126762
0.602646 0.356467 0.134084
0.634820 0.377396 0.141961
0.665678 0.397902 0.150037
0.695279 0.416169 0.159481
0.723322 0.433843 0.168721
0.749503 0.450877 0.177757
0.774659 0.467460 0.186601
0.797628 0.483478 0.195025
0.817353 0.498799 0.203138
0.836325 0.513738 0.211084
0.854590 0.528305 0.219127
0.870475 0.542144 0.227006
0.880737 0.555616 0.234675
0.890565 0.568739 0.241945
0.899986 0.581519 0.249052
0.909022 0.594030 0.256538
0.917697 0.606221 0.263756
0.926029 0.618091 0.270642
0.931506 0.629419 0.277372
0.091172 0.209728 0.088595
0.097738 0.208299 0.088666
0.115567 0.203319 0.088877
0.138057 0.194883 0.089137
0.158681 0.184427 0.089374
0.181314 0.179460 0.089833
0.214421 0.184700 0.090691
0.268446 0.204753 0.092610
0.319077 0.226936 0.096323
0.368240 0.252056 0.100275
0.416684 0.276309 0.104471
0.463942 0.299052 0.110966
0.508862 0.320818 0.117160
0.551345 0.342010 0.124880
0.589504 0.362884 0.132289
0.622542 0.383417 0.140006
0.654168 0.403131 0.147889
0.684546 0.421009 0.157271
0.713659 0.438344 0.166613
0.740540 0.455118 0.175752
0.766333 0.471488 0.184707
0.791089 0.487200 0.193320
0.811298 0.502348 0.201535
0.830709 0.517128 0.209570
0.849374 0.531472 0.217660
0.866666 0.545168 0.225625
0.878012 0.558516 0.233421
0.888042 0.571523 0.240768
0.897645 0.584203 0.247945
0.906849 0.596623 0.255351
0.915675 0.608721 0.262739
0.924146 0.620503 0.269684
0.930508 0.631447 0.276470
0.100052 0.268750 0.090634
0.106613 0.269556 0.090750
0.124512 0.263685 0.090861
0.148325 0.250531 0.090919
0.171552 0.234710 0.090981
0.195657 0.224757 0.091235
0.226097 0.221403 0.091908
0.259657 0.223994 0.092856
0.306546 0.244212 0.096292
0.353155 0.266477 0.099923
0.399713 0.288331 0.103703
0.446222 0.309230 0.109765
0.491380 0.329976 0.115816
0.534462 0.350450 0.123116
0.575383 0.370789 0.130520
0.609131 0.390819 0.138006
0.641373 0.409451 0.145934
0.672407 0.426943 0.154892
0.702189 0.443868 0.164298
0.730168 0.460347 0.173520
0.756616 0.476469 0.182573
0.782074 0.491811 0.191378
0.804114 0.506752 0.199690
0.824008 0.521342 0.207822
0.843118 0.535405 0.215945
0.861271 0.548940 0.224001
0.874708 0.562138 0.231884
0.884973 0.575006 0.239369
0.894791 0.587576 0.246624
0.904190 0.599875 0.253930
0.913196 0.611859 0.261516
0.921832 0.623534 0.268529
0.929277 0.633997 0.275379
0.108253 0.316249 0.092580
0.114260 0.316880 0.092707
0.132813 0.314766 0.092948
0.156068 0.301708 0.092901
0.181949 0.287881 0.092941
0.210255 0.275801 0.093204
0.241066 0.268205 0.094057
0.271337 0.265759 0.095359
0.300959 0.267934 0.097038
0.342443 0.284126 0.100048
0.386265 0.302646 0.103473
0.431016 0.321798 0.109081
0.475390 0.341170 0.114893
0.518111 0.360710 0.121695
0.559142 0.380256 0.128976
0.595476 0.399569 0.136163
0.628094 0.416934 0.144056
0.659529 0.433922 0.152536
0.689841 0.450400 0.161951
0.718879 0.466556 0.171220
0.745923 0.482259 0.180336
0.771964 0.497295 0.189292
0.796055 0.511999 0.197704
0.816437 0.526370 0.205919
0.836006 0.540104 0.214063
0.854811 0.553453 0.222203
0.870903 0.566478 0.230171
0.881424 0.579185 0.237799
0.891477 0.591628 0.245133
0.901094 0.603785 0.252321
0.910301 0.615636 0.260125
0.919122 0.627186 0.267210
0.927580 0.637070 0.274129
0.116852 0.362296 0.096068
0.122308 0.362832 0.096268
0.140246 0.358885 0.096476
0.163925 0.347397 0.096403
0.190816 0.334425 0.096449
0.223081 0.322380 0.096717
0.254537 0.313029 0.097287
0.283316 0.307385 0.098199
0.310903 0.305702 0.099444
0.339218 0.307577 0.100965
0.376492 0.319864 0.103764
0.418797 0.336821 0.108997
0.461482 0.354583 0.114453
0.503387 0.372895 0.120775
0.544061 0.391405 0.127814
0.582344 0.408929 0.134731
0.614989 0.425615 0.142412
0.646559 0.441944 0.150389
0.677233 0.457979 0.159752
0.706877 0.473755 0.169008
0.734698 0.488914 0.178138
0.761233 0.503650 0.187126
0.786820 0.518081 0.195683
0.808242 0.532111 0.203957
0.828253 0.545559 0.212101
0.847480 0.558697 0.220312
0.865402 0.571527 0.228352
0.877477 0.584057 0.236120
0.887777 0.596353 0.243527
0.897623 0.608349 0.250763
0.907044 0.620050 0.258609
0.916064 0.630998 0.265765
0.924707 0.640665 0.272754
0.126414 0.407840 0.099750
0.131636 0.406749 0.099783
0.147474 0.400995 0.099730
0.171215 0.391113 0.099685
0.200051 0.379020 0.099720
0.233942 0.366893 0.099907
0.265548 0.356377 0.100309
0.293840 0.348607 0.100968
0.320724 0.344111 0.101899
0.347809 0.342893 0.103258
0.375217 0.344632 0.105510
0.409643 0.354296 0.109495
0.450333 0.370315 0.114529
0.490930 0.387079 0.120437
0.530739 0.403835 0.127137
0.569296 0.419689 0.133799
0.602637 0.435509 0.141132
0.634165 0.451148 0.148623
0.664903 0.466654 0.157856
0.694776 0.481856 0.167028
0.723367 0.496497 0.176111
0.750268 0.510884 0.185082
0.776252 0.525002 0.193736
0.799681 0.538574 0.202036
0.820086 0.551766 0.210176
0.839704 0.564668 0.218409
0.858570 0.577279 0.226503
0.873225 0.589639 0.234396
0.883771 0.601744 0.241866
0.893849 0.613562 0.249165
0.903488 0.625095 0.256874
0.912713 0.635249 0.264241
0.921548 0.644777 0.271296
0.135801 0.443870 0.102722
0.140400 0.442459 0.102706
0.154558 0.437651 0.102662
0.178181 0.429752 0.102630
0.208352 0.419767 0.102673
0.242935 0.409153 0.102870
0.274634 0.399202 0.103286
0.302916 0.390134 0.103973
0.329758 0.383590 0.105183
0.356141 0.379895 0.106958
0.382684 0.379017 0.109134
0.409968 0.380695 0.111658
0.441766 0.388142 0.115091
0.480826 0.402860 0.120690
0.519204 0.417196 0.126987
0.556927 0.431922 0.133335
0.591523 0.446723 0.140328
0.622740 0.461611 0.147595
0.653285 0.476482 0.156384
0.683162 0.490862 0.165401
0.712218 0.505039 0.174373
0.739422 0.519019 0.183269
0.765674 0.532668 0.191962
0.791005 0.545826 0.200247
0.811735 0.558727 0.208391
0.831686 0.571364 0.216578
0.850890 0.583735 0.224700
0.868549 0.595903 0.232666
0.879547 0.607797 0.240210
0.889849 0.619418 0.247559
0.899702 0.630396 0.255105
0.909131 0.640026 0.262687
0.918160 0.649421 0.269799
0.144782 0.477465 0.107133
0.148796 0.476272 0.107120
0.162672 0.472170 0.107087
0.184947 0.465303 0.107070
0.216231 0.456435 0.107135
0.250827 0.446615 0.107358
0.282399 0.436903 0.107811
0.310730 0.428169 0.108556
0.337789 0.421061 0.109635
0.363914 0.416052 0.111071
0.389982 0.413303 0.112864
0.416517 0.412767 0.114990
0.443449 0.414257 0.117556
0.472774 0.419214 0.121501
0.509826 0.432182 0.127385
0.546578 0.445583 0.133384
0.581898 0.459369 0.140051
0.612563 0.473389 0.147047
0.642706 0.487233 0.155425
0.672361 0.500941 0.164219
0.701338 0.514576 0.173017
0.728999 0.528083 0.181782
0.755375 0.541089 0.190450
0.780963 0.553881 0.198675
0.803410 0.566453 0.206783
0.823623 0.578792 0.214896
0.843105 0.590933 0.223016
0.861630 0.602850 0.230993
0.875194 0.614511 0.238621
0.885705 0.625915 0.246000
0.895760 0.635871 0.253373
0.905384 0.645324 0.261152
0.914600 0.654579 0.268311
0.153289 0.508603 0.111797
0.157135 0.507615 0.111791
0.170751 0.504192 0.111777
0.192111 0.498371 0.111782
0.223802 0.490673 0.111855
0.257927 0.481871 0.112052
0.288933 0.472650 0.112432
0.317413 0.463837 0.113046
0.344755 0.456186 0.113932
0.370875 0.450148 0.115117
0.396826 0.445997 0.116613
0.422949 0.443832 0.118890
0.449212 0.443604 0.121668
0.475854 0.445164 0.124802
0.502529 0.448549 0.128302
0.538201 0.460737 0.133932
0.573423 0.473436 0.140311
0.603775 0.486244 0.146992
0.633376 0.499132 0.155026
0.662592 0.512126 0.163541
0.691315 0.525141 0.172110
0.719237 0.537860 0.180691
0.745591 0.550382 0.189247
0.771237 0.562757 0.197389
0.795300 0.574958 0.205420
0.815692 0.586984 0.213432
0.835382 0.598846 0.221516
0.854385 0.610483 0.229474
0.870799 0.621887 0.237155
0.881494 0.632386 0.244544
0.891733 0.641880 0.251781
0.901537 0.651169 0.259686
0.910930 0.660242 0.266875
0.162520 0.538039 0.116160
0.166271 0.537211 0.116159
0.178662 0.534323 0.116159
0.200279 0.529352 0.116182
0.231118 0.522497 0.116263
0.263923 0.514447 0.116447
0.294457 0.505901 0.116781
0.323113 0.497523 0.117421
0.350628 0.489884 0.118416
0.377062 0.483429 0.119749
0.403136 0.478465 0.121444
0.429127 0.475078 0.123511
0.454969 0.473443 0.125945
0.481001 0.473521 0.128725
0.506723 0.475183 0.131818
0.532719 0.478250 0.135183
0.565702 0.488521 0.141084
0.596386 0.500208 0.147428
0.625328 0.512212 0.155202
0.653978 0.524425 0.163399
0.682302 0.536539 0.171694
0.710126 0.548570 0.180045
0.736502 0.560564 0.188411
0.762081 0.572471 0.196443
0.787008 0.584261 0.204359
0.808047 0.595960 0.212242
0.827867 0.607482 0.220256
0.847032 0.618810 0.228165
0.865019 0.629668 0.235864
0.877292 0.639151 0.243237
0.887689 0.648435 0.250472
0.897654 0.657531 0.258319
0.907206 0.666408 0.265537
0.171710 0.565680 0.121340
0.175094 0.564963 0.121342
0.186411 0.562453 0.121358
0.208417 0.558093 0.121409
0.238140 0.552133 0.121531
0.269564 0.545016 0.121771
0.299489 0.537276 0.122179
0.328161 0.529460 0.122802
0.355807 0.521890 0.123682
0.382526 0.515158 0.124853
0.408818 0.509604 0.126340
0.434803 0.505442 0.128156
0.460473 0.502787 0.130306
0.486026 0.501660 0.132781
0.511297 0.502008 0.135600
0.536660 0.503725 0.139111
0.561872 0.506672 0.142913
0.590314 0.515330 0.148327
0.618542 0.526424 0.155940
0.646546 0.537572 0.163793
0.674369 0.548848 0.171785
0.701800 0.560228 0.179870
0.728226 0.571642 0.188008
0.753627 0.583033 0.195875
0.778455 0.594422 0.203641
0.800809 0.605704 0.211371
0.820683 0.616850 0.219283
0.839940 0.627837 0.227112
0.858584 0.637249 0.234792
0.873164 0.646473 0.242125
0.883693 0.655541 0.249333
0.893795 0.664410 0.257004
0.903486 0.673076 0.264336
0.180553 0.592208 0.126518
0.183625 0.591580 0.126525
0.195147 0.589376 0.126553
0.216727 0.585518 0.126621
0.245013 0.580200 0.126758
0.275004 0.573769 0.127001
0.304157 0.566639 0.127391
0.332684 0.559268 0.127967
0.360357 0.552091 0.128766
0.387299 0.545489 0.129817
0.413831 0.539768 0.131144
0.439890 0.535156 0.132764
0.465553 0.531799 0.134684
0.490798 0.529770 0.137138
0.515774 0.529073 0.140023
0.540632 0.529658 0.143229
0.565390 0.531437 0.146730
0.588265 0.534295 0.150976
0.612927 0.541338 0.157205
0.640280 0.551604 0.164706
0.667516 0.562123 0.172375
0.694477 0.572815 0.180172
0.720824 0.583611 0.188055
0.745956 0.594508 0.195708
0.770594 0.605392 0.203291
0.794069 0.616220 0.210852
0.813925 0.626954 0.218630
0.833206 0.636312 0.226350
0.851911 0.645403 0.233974
0.869161 0.654378 0.241242
0.879800 0.663181 0.248401
0.890012 0.671805 0.255902
0.899819 0.680242 0.263308
0.189061 0.617727 0.131461
0.192475 0.617179 0.131471
0.204474 0.615247 0.131509
0.225080 0.611844 0.131592
0.251832 0.607094 0.131743
0.280294 0.601261 0.131992
0.308547 0.594691 0.132372
0.336783 0.587770 0.132917
0.364365 0.580889 0.133657
0.391458 0.574403 0.134620
0.418191 0.568576 0.135901
0.444364 0.563636 0.137582
0.470105 0.559750 0.139577
0.495176 0.557020 0.141891
0.519990 0.555491 0.144522
0.544474 0.555158 0.147459
0.568885 0.555973 0.151216
0.590897 0.557859 0.155596
0.611912 0.560719 0.160302
0.635065 0.566539 0.166101
0.661690 0.576297 0.173444
0.688137 0.586303 0.180939
0.714293 0.596511 0.188549
0.739105 0.606816 0.195946
0.763480 0.617162 0.203324
0.787391 0.627502 0.210707
0.807659 0.636508 0.218321
0.826903 0.645374 0.225906
0.845610 0.654170 0.233436
0.863381 0.662834 0.240616
0.876058 0.671352 0.247704
0.886351 0.679712 0.255045
0.896251 0.687905 0.262482
0.199223 0.640321 0.136307
0.202463 0.639903 0.136321
0.213734 0.638428 0.136375
0.233363 0.635814 0.136485
0.258583 0.632136 0.136672
0.285467 0.627515 0.136966
0.312722 0.621525 0.137398
0.340543 0.615113 0.138000
0.367921 0.608604 0.138803
0.395073 0.602305 0.139833
0.421943 0.596484 0.141115
0.448229 0.591366 0.142665
0.474087 0.587122 0.144499
0.499075 0.583874 0.146624
0.523828 0.581703 0.149163
0.548056 0.580625 0.152545
0.572224 0.580623 0.156292
0.593472 0.581653 0.160388
0.614176 0.583652 0.164811
0.634908 0.586547 0.169537
0.656803 0.591336 0.174956
0.682724 0.600678 0.182147
0.708412 0.610227 0.189476
0.733069 0.619922 0.196585
0.757127 0.629474 0.203740
0.780785 0.638020 0.210926
0.801926 0.646552 0.218366
0.821078 0.655067 0.225795
0.839735 0.663502 0.233190
0.857888 0.671836 0.240270
0.872504 0.680049 0.247265
0.882852 0.688128 0.254458
0.892818 0.696060 0.261884
0.209174 0.660701 0.141486
0.212229 0.660333 0.141503
0.223034 0.659032 0.141565
0.241249 0.656719 0.141688
0.264663 0.653441 0.141890
0.290265 0.649334 0.142194
0.316726 0.644594 0.142628
0.344032 0.639468 0.143217
0.371102 0.634178 0.143989
0.398214 0.628955 0.144967
0.425149 0.623440 0.146172
0.451517 0.618309 0.147621
0.477494 0.613890 0.149518
0.502454 0.610312 0.151980
0.527214 0.607665 0.154789
0.551281 0.605998 0.157949
0.575297 0.605325 0.161454
0.595893 0.605630 0.165297
0.616352 0.606872 0.169462
0.636814 0.608991 0.173929
0.657347 0.611916 0.178676
0.678151 0.615795 0.183763
0.703365 0.624693 0.190761
0.727812 0.633015 0.197606
0.751521 0.641023 0.204529
0.774885 0.649105 0.211524
0.796742 0.657226 0.218769
0.815758 0.665330 0.226023
0.834319 0.673387 0.233266
0.852415 0.681372 0.240214
0.869155 0.689263 0.247099
0.879543 0.697045 0.254162
0.889551 0.704701 0.261533
0.219106 0.680166 0.146456
0.222012 0.679843 0.146475
0.232137 0.678699 0.146544
0.249006 0.676658 0.146677
0.270657 0.673750 0.146892
0.294913 0.670080 0.147207
0.320547 0.665802 0.147644
0.347219 0.661105 0.148226
0.373974 0.656193 0.149082
0.400952 0.651270 0.150254
0.427873 0.646526 0.151686
0.454275 0.642149 0.153399
0.480279 0.638269 0.155411
0.505306 0.634996 0.157736
0.530072 0.632418 0.160381
0.554086 0.630592 0.163354
0.577764 0.629546 0.166653
0.598081 0.629288 0.170273
0.618360 0.629801 0.174206
0.638607 0.631051 0.178436
0.658911 0.632993 0.182947
0.679249 0.635573 0.187716
0.699582 0.638731 0.192589
0.723278 0.645644 0.198988
0.746624 0.653172 0.205674
0.769668 0.660789 0.212482
0.792103 0.668455 0.219521
0.810948 0.676137 0.226589
0.829378 0.683803 0.233657
0.847378 0.691425 0.240454
0.864450 0.698981 0.247213
0.876445 0.706451 0.254168
0.886472 0.713818 0.261440
0.228799 0.698733 0.151885
0.231519 0.698449 0.151911
0.240742 0.697442 0.152005
0.256618 0.695639 0.152184
0.276553 0.693059 0.152466
0.299472 0.689783 0.152872
0.324247 0.685933 0.153426
0.350218 0.681667 0.154153
0.376589 0.677156 0.155076
0.403348 0.672576 0.156221
0.430177 0.668096 0.157607
0.456557 0.663869 0.159254
0.482550 0.660032 0.161178
0.507646 0.656697 0.163391
0.532406 0.653953 0.165902
0.556438 0.651865 0.168719
0.579733 0.650475 0.171842
0.599980 0.649802 0.175271
0.620134 0.649845 0.178999
0.640220 0.650589 0.183016
0.660343 0.652001 0.187309
0.680473 0.654042 0.191767
0.700589 0.656663 0.196343
0.720459 0.659816 0.201126
0.742379 0.665851 0.207151
0.765094 0.672987 0.213783
0.787510 0.680200 0.220611
0.806639 0.687455 0.227484
0.824911 0.694722 0.234348
0.842785 0.701973 0.240990
0.860124 0.709183 0.247611
0.873571 0.716268 0.254481
0.883598 0.723061 0.261613
0.238016 0.716376 0.157621
0.240470 0.716136 0.157648
0.249068 0.715282 0.157749
0.263558 0.713712 0.157940
0.282337 0.711424 0.158236
0.303941 0.708502 0.158656
0.327840 0.705046 0.159221
0.353079 0.701184 0.159952
0.378990 0.697063 0.160871
0.405454 0.692832 0.161996
0.432105 0.688640 0.163349
0.458417 0.684625 0.164945
0.484363 0.680913 0.166798
0.509502 0.677610 0.168921
0.534263 0.674804 0.171323
0.558327 0.672563 0.174010
0.581334 0.670936 0.176985
0.601548 0.669952 0.180249
0.621624 0.669622 0.183799
0.641597 0.669944 0.187628
0.661583 0.670899 0.191636
0.681546 0.672459 0.195793
0.701481 0.674589 0.200175
0.721134 0.677246 0.204767
0.740236 0.680389 0.209550
0.761110 0.685644 0.215402
0.783229 0.692411 0.222018
0.802808 0.699244 0.228694
0.820902 0.706112 0.235336
0.838630 0.712987 0.241815
0.855977 0.719647 0.248288
0.870926 0.726200 0.255100
0.880934 0.732693 0.262054
0.246757 0.732606 0.163154
0.249061 0.732395 0.163183
0.257153 0.731643 0.163290
0.270151 0.730290 0.163491
0.287892 0.728341 0.163800
0.308315 0.725840 0.164233
0.331335 0.722865 0.164809
0.355821 0.719517 0.165546
0.381211 0.715914 0.166463
0.407315 0.712078 0.167576
0.433715 0.708188 0.168903
0.459905 0.704415 0.170460
0.485766 0.700873 0.172258
0.510911 0.697662 0.174308
0.535666 0.694866 0.176620
0.559761 0.692554 0.179200
0.582561 0.690779 0.182052
0.602766 0.689575 0.185176
0.622797 0.688963 0.188572
0.642695 0.688949 0.192123
0.662583 0.689527 0.195868
0.682419 0.690680 0.199849
0.702207 0.692381 0.204053
0.721679 0.694599 0.208467
0.740622 0.697298 0.213150
0.759510 0.700440 0.218105
0.779484 0.705039 0.223721
0.799421 0.711458 0.230199
0.817328 0.717808 0.236606
0.834896 0.724057 0.242918
0.852108 0.730307 0.249237
0.868157 0.736536 0.256021
0.878485 0.742724 0.262761
0.255193 0.748064 0.168486
0.257361 0.747878 0.168517
0.264392 0.747215 0.168629
0.276557 0.746022 0.168838
0.293049 0.744297 0.169158
0.312588 0.742075 0.169604
0.334735 0.739418 0.170191
0.358449 0.736411 0.170935
0.383277 0.733152 0.171851
0.408967 0.729747 0.172957
0.435059 0.726304 0.174266
0.461067 0.722929 0.175792
0.486801 0.719719 0.177547
0.511913 0.716764 0.179539
0.536644 0.714117 0.181778
0.560757 0.711802 0.184269
0.583420 0.709951 0.187016
0.603625 0.708606 0.190009
0.623634 0.707792 0.193127
0.643486 0.707523 0.196486
0.663308 0.707800 0.200082
0.683050 0.708616 0.203905
0.702726 0.709954 0.207948
0.722055 0.711790 0.212243
0.740864 0.714096 0.216842
0.759614 0.716758 0.221632
0.778302 0.719785 0.226598
0.796441 0.723688 0.231979
0.814158 0.729539 0.238142
0.831557 0.735431 0.244285
0.848624 0.741341 0.250446
0.864829 0.747247 0.257233
0.876246 0.753130 0.263726
0.262881 0.762780 0.173617
0.264735 0.762616 0.173650
0.271262 0.762033 0.173766
0.282765 0.760981 0.173983
0.298064 0.759457 0.174313
0.316754 0.757486 0.174770
0.338039 0.755121 0.175367
0.360972 0.752429 0.176118
0.385208 0.749495 0.177037
0.410439 0.746407 0.178138
0.436173 0.743260 0.179434
0.461946 0.740148 0.180937
0.487511 0.737156 0.182657
0.512546 0.734368 0.184603
0.537231 0.731854 0.186782
0.561340 0.729676 0.189199
0.583923 0.727885 0.191765
0.604129 0.726521 0.194540
0.624128 0.725612 0.197547
0.643954 0.725176 0.200785
0.663733 0.725221 0.204249
0.683410 0.725747 0.207933
0.703002 0.726744 0.211863
0.722224 0.728197 0.216107
0.740926 0.730085 0.220553
0.759560 0.732384 0.225190
0.778128 0.735066 0.230004
0.795698 0.738103 0.234927
0.811356 0.741592 0.239923
0.828584 0.747137 0.245898
0.845500 0.752714 0.251900
0.861825 0.758302 0.258701
0.874210 0.763882 0.264940
0.269976 0.776782 0.178550
0.271722 0.776638 0.178583
0.277878 0.776126 0.178704
0.288611 0.775200 0.178927
0.302928 0.773855 0.179267
0.320759 0.772113 0.179733
0.341246 0.770013 0.180339
0.363395 0.767613 0.181097
0.387017 0.764982 0.182020
0.411753 0.762198 0.183119
0.437087 0.759342 0.184406
0.462577 0.756495 0.185891
0.487934 0.753734 0.187584
0.512849 0.751134 0.189492
0.537460 0.748761 0.191537
0.561539 0.746673 0.193789
0.584084 0.744918 0.196259
0.604287 0.743537 0.198951
0.624281 0.742559 0.201863
0.644093 0.742007 0.204996
0.663844 0.741892 0.208345
0.683477 0.742220 0.211943
0.703010 0.742986 0.215843
0.722159 0.744181 0.219951
0.740777 0.745791 0.224258
0.759318 0.747797 0.228753
0.777786 0.750176 0.233426
0.795322 0.752904 0.238086
0.810776 0.755957 0.242889
0.826111 0.759310 0.247824
0.842708 0.764388 0.253788
0.859122 0.769666 0.260295
0.872366 0.774948 0.266391
0.276778 0.790096 0.183285
0.278425 0.789970 0.183319
0.284240 0.789520 0.183443
0.294018 0.788707 0.183672
0.307634 0.787525 0.184019
0.324639 0.785988 0.184495
0.344352 0.784131 0.185109
0.365721 0.782000 0.185875
0.388716 0.779654 0.186801
0.412929 0.777159 0.187900
0.437827 0.774583 0.189181
0.462990 0.772000 0.190611
0.488103 0.769477 0.192208
0.512856 0.767081 0.194001
0.537366 0.764871 0.195996
0.561385 0.762903 0.198197
0.583926 0.761222 0.200607
0.604116 0.759867 0.203228
0.624102 0.758870 0.206060
0.643903 0.758254 0.209102
0.663636 0.758033 0.212404
0.683240 0.758217 0.215979
0.702730 0.758806 0.219764
0.721839 0.759796 0.223750
