kodachrome64/Kodachrome64_Modern_ExtraSoft.cube
TITLE "Kodachrome 64 Modern ExtraSoft"
# Adobe RGB in/out. REPLACES AgX. Kodachrome 64 Modern ExtraSoft.
LUT_3D_SIZE 9
DOMAIN_MIN 0.0 0.0 0.0
DOMAIN_MAX 1.0 1.0 1.0
0.063616 0.080450 0.086035
0.064734 0.080450 0.086035
0.228193 0.081118 0.086035
0.820295 0.094461 0.086035
0.976903 0.219399 0.086144
0.992181 0.468082 0.086402
0.996664 0.692014 0.086738
0.997605 0.853533 0.087252
0.997605 0.924329 0.088505
0.063616 0.080522 0.086035
0.063769 0.080476 0.086035
0.124753 0.081441 0.086035
0.705383 0.100377 0.086035
0.965764 0.238308 0.086108
0.991105 0.495372 0.086386
0.996246 0.706955 0.086711
0.997605 0.861687 0.087192
0.997605 0.927362 0.088346
0.063616 0.159211 0.086035
0.065100 0.117783 0.086035
0.093909 0.096295 0.086035
0.467553 0.141892 0.086035
0.922120 0.327228 0.086061
0.986500 0.585697 0.086342
0.994972 0.768011 0.086633
0.997736 0.889742 0.087038
0.997605 0.936551 0.087928
0.063894 0.651058 0.086035
0.066784 0.591976 0.086035
0.136368 0.448967 0.086035
0.414508 0.396535 0.086035
0.847896 0.520316 0.086048
0.978269 0.697972 0.086289
0.992670 0.849286 0.086560
0.997036 0.920323 0.086915
0.997605 0.954545 0.087734
0.065027 0.916176 0.086035
0.070099 0.905537 0.086035
0.172886 0.860493 0.086035
0.501285 0.811197 0.086043
0.830931 0.799574 0.086116
0.963653 0.851805 0.086301
0.990264 0.915612 0.086540
0.995816 0.950671 0.086869
0.997627 0.972631 0.087600
0.067306 0.978413 0.086122
0.076180 0.975898 0.086127
0.192998 0.965652 0.086149
0.550957 0.954407 0.086198
0.861203 0.947611 0.086286
0.962938 0.949311 0.086387
0.987908 0.958245 0.086576
0.994808 0.976941 0.086881
0.997791 0.983488 0.087573
0.072662 0.989134 0.086302
0.084544 0.988603 0.086308
0.208311 0.987489 0.086333
0.576100 0.985860 0.086381
0.870633 0.984304 0.086424
0.964735 0.983854 0.086549
0.987642 0.984675 0.086726
0.993976 0.986595 0.086950
0.997258 0.989264 0.087675
0.080722 0.993264 0.086428
0.098318 0.993134 0.086436
0.221961 0.992728 0.086463
0.577044 0.992183 0.086515
0.868028 0.991714 0.086596
0.963962 0.991507 0.086724
0.987263 0.991656 0.086889
0.993744 0.992164 0.087286
0.996863 0.992966 0.087913
0.093130 0.995233 0.086573
0.118101 0.995208 0.086581
0.234349 0.995127 0.086613
0.566608 0.995012 0.086673
0.856300 0.994893 0.086760
0.960618 0.994846 0.086883
0.986099 0.994907 0.087155
0.993282 0.995077 0.087656
0.996610 0.995312 0.088906
0.063616 0.080450 0.086406
0.065079 0.080450 0.086448
0.228196 0.081177 0.086525
0.800270 0.093006 0.086615
0.972036 0.206396 0.086804
0.991612 0.448718 0.087159
0.996433 0.681780 0.087832
0.997605 0.848585 0.089935
0.997605 0.922378 0.094347
0.063616 0.080488 0.086145
0.063616 0.080450 0.086035
0.110072 0.081337 0.086214
0.656987 0.096689 0.086449
0.960358 0.224538 0.086706
0.990521 0.474900 0.087009
0.996013 0.696536 0.087716
0.997610 0.856638 0.089615
0.997605 0.926071 0.094060
0.063616 0.129952 0.086419
0.064536 0.101060 0.086265
0.080953 0.088925 0.086082
0.387988 0.125106 0.086246
0.908673 0.301539 0.086498
0.985062 0.564152 0.086808
0.994734 0.755897 0.087386
0.997763 0.884476 0.088762
0.997605 0.934588 0.092591
0.063827 0.608993 0.086507
0.066042 0.539916 0.086422
0.120353 0.395081 0.086316
0.349426 0.350613 0.086272
0.819060 0.485012 0.086387
0.975369 0.681106 0.086672
0.992306 0.841136 0.087051
0.996909 0.917515 0.087891
0.997605 0.953411 0.090587
0.064887 0.908090 0.086583
0.069479 0.895181 0.086549
0.163566 0.846215 0.086473
0.471482 0.788198 0.086428
0.816180 0.778785 0.086469
0.960738 0.842094 0.086631
0.989942 0.911913 0.086926
0.995685 0.949179 0.087671
0.997640 0.971606 0.089790
0.067036 0.976686 0.086683
0.075549 0.973158 0.086668
0.187802 0.962917 0.086631
0.528454 0.951782 0.086612
0.852696 0.943204 0.086648
0.960874 0.945438 0.086750
0.987371 0.956611 0.086935
0.994702 0.975771 0.087620
0.997803 0.983274 0.089435
0.072291 0.988678 0.086783
0.083776 0.988313 0.086779
0.204676 0.987206 0.086772
0.567518 0.985458 0.086780
0.865977 0.983916 0.086823
0.963565 0.983498 0.086921
0.987276 0.984376 0.087215
0.993871 0.986395 0.087731
0.997219 0.989176 0.089626
0.080399 0.993158 0.086884
0.097597 0.993029 0.086886
0.219669 0.992627 0.086897
0.572601 0.992086 0.086925
0.865469 0.991624 0.087016
0.963329 0.991425 0.087242
0.987063 0.991587 0.087608
0.993681 0.992111 0.088370
0.996840 0.992932 0.090329
0.092754 0.995212 0.087002
0.117376 0.995186 0.087012
0.232865 0.995106 0.087058
0.562744 0.994989 0.087152
0.854995 0.994872 0.087327
0.960303 0.994828 0.087593
0.986008 0.994894 0.087962
0.993256 0.995070 0.089425
0.996602 0.995309 0.092292
0.063616 0.080450 0.209919
0.065086 0.080450 0.214631
0.249313 0.081479 0.232204
0.830507 0.099702 0.208513
0.971231 0.214290 0.170853
0.991115 0.440665 0.165926
0.996114 0.671446 0.176321
0.997609 0.840707 0.191743
0.997605 0.918884 0.212036
0.063616 0.080930 0.213293
0.065173 0.081257 0.198256
0.175812 0.083785 0.130434
0.690311 0.102622 0.125445
0.958169 0.225753 0.130832
0.989941 0.462019 0.141407
0.995675 0.684706 0.158144
0.997654 0.848998 0.181417
0.997605 0.922480 0.204115
0.063616 0.098715 0.104318
0.064138 0.089914 0.093931
0.069605 0.083705 0.087031
0.326662 0.115060 0.090256
0.889048 0.280568 0.098495
0.983046 0.535214 0.109550
0.994290 0.734617 0.125239
0.997737 0.875388 0.148510
0.997605 0.930711 0.181126
0.063718 0.493194 0.115572
0.065267 0.430704 0.103327
0.094823 0.306016 0.091989
0.261543 0.264814 0.088395
0.764595 0.420364 0.090413
0.968074 0.651199 0.097222
0.991525 0.822486 0.105815
0.996620 0.911793 0.123066
0.997605 0.951050 0.148773
0.064531 0.877220 0.117068
0.068079 0.859336 0.109918
0.137730 0.799405 0.098844
0.394620 0.730147 0.093525
0.765417 0.722006 0.090900
0.952964 0.812288 0.093882
0.989114 0.903331 0.099346
0.995360 0.943090 0.110484
0.997680 0.969108 0.128261
0.066397 0.969032 0.113655
0.073727 0.965604 0.110132
0.174061 0.955738 0.102579
0.488005 0.941945 0.097944
0.822303 0.931684 0.095522
0.954701 0.935059 0.095338
0.985928 0.952392 0.097934
0.994398 0.972666 0.104778
0.997643 0.982616 0.120421
0.071248 0.987825 0.109118
0.081867 0.987473 0.107422
0.195520 0.986314 0.103725
0.531131 0.984330 0.100672
0.852511 0.982761 0.098839
0.960133 0.982365 0.098676
0.986205 0.983519 0.100244
0.993570 0.985826 0.104362
0.997103 0.988725 0.118008
0.079410 0.992836 0.104844
0.095410 0.992712 0.104451
0.212955 0.992323 0.103272
0.552956 0.991800 0.101940
0.857707 0.991357 0.101244
0.961399 0.991183 0.101675
0.986453 0.991382 0.103720
0.993486 0.991955 0.109500
0.996769 0.992831 0.119927
0.091562 0.995143 0.102356
0.115093 0.995119 0.102270
0.228210 0.995043 0.102049
0.550708 0.994916 0.101939
0.850907 0.994807 0.102316
0.959315 0.994769 0.103692
0.985719 0.994852 0.107170
0.993173 0.995048 0.114561
0.996574 0.995301 0.125270
0.063616 0.080450 0.855049
0.065100 0.080535 0.856524
0.249678 0.082904 0.861804
0.881477 0.121123 0.871434
0.979264 0.273319 0.809432
0.991668 0.483441 0.737656
0.996133 0.683081 0.694612
0.997625 0.842432 0.671668
0.997605 0.918051 0.665561
0.063616 0.081302 0.856108
0.065239 0.082349 0.857581
0.256072 0.091470 0.862854
0.828047 0.147427 0.824922
0.968342 0.287230 0.742386
0.990422 0.500712 0.693189
0.995668 0.694570 0.670171
0.997676 0.849741 0.663861
0.997605 0.921443 0.658647
0.063616 0.108145 0.662606
0.064409 0.104428 0.599294
0.100478 0.108833 0.484685
0.470942 0.165985 0.483766
0.907916 0.320978 0.526743
0.983427 0.558406 0.565953
0.994138 0.738670 0.592057
0.997593 0.873711 0.607464
0.997605 0.929223 0.618221
0.063649 0.392022 0.561375
0.064876 0.351947 0.494074
0.084354 0.258146 0.295812
0.193466 0.196234 0.142395
0.732217 0.402235 0.257981
0.964678 0.643106 0.386165
0.991058 0.813456 0.471072
0.996376 0.908812 0.514480
0.997605 0.949520 0.550950
0.064353 0.832373 0.578943
0.066657 0.809687 0.539147
0.116785 0.741638 0.441140
0.321711 0.674276 0.284327
0.681585 0.666324 0.217628
0.941146 0.780609 0.263835
0.987366 0.892343 0.357538
0.995045 0.938007 0.444475
0.997720 0.966932 0.487503
0.065719 0.959029 0.560100
0.071399 0.955974 0.538369
0.156084 0.945786 0.478909
0.447106 0.928927 0.390331
0.788155 0.922229 0.307833
0.943991 0.926614 0.276211
0.984211 0.946799 0.305804
0.993945 0.969238 0.378272
0.997451 0.981910 0.447727
0.069952 0.986649 0.518932
0.079528 0.986203 0.506969
0.183717 0.984749 0.476573
0.507620 0.982815 0.429192
0.827403 0.981156 0.367731
0.955078 0.980855 0.333870
0.984753 0.982265 0.329543
0.993178 0.985133 0.356077
0.996952 0.988397 0.418461
0.077972 0.992372 0.474775
0.092280 0.992257 0.470031
0.203671 0.991895 0.452808
0.522900 0.991407 0.421476
0.845720 0.990987 0.385573
0.958658 0.990788 0.363529
0.985593 0.991105 0.360504
0.993209 0.991745 0.377066
0.996670 0.992703 0.412361
0.089998 0.995042 0.419118
0.111684 0.995017 0.415395
0.221554 0.994929 0.403724
0.533116 0.994812 0.386640
0.840157 0.994662 0.372045
0.957803 0.994628 0.365725
0.985296 0.994794 0.371452
0.993050 0.995017 0.391864
0.996533 0.995293 0.426372
0.063616 0.080623 0.980638
0.065121 0.080963 0.980716
0.250224 0.085626 0.980991
0.881693 0.141237 0.981495
0.985096 0.385344 0.980612
0.993029 0.574884 0.964276
0.996532 0.721348 0.947577
0.997605 0.855976 0.929560
0.997605 0.921542 0.917375
0.063616 0.082980 0.980694
0.065246 0.084749 0.980771
0.256647 0.099828 0.981046
0.884177 0.222245 0.981549
0.980385 0.402782 0.971586
0.991826 0.588184 0.956280
0.996055 0.734364 0.938496
0.997653 0.862266 0.923668
0.997605 0.924695 0.914172
0.063616 0.208722 0.977346
0.065520 0.212602 0.971963
0.188860 0.232442 0.960891
0.667304 0.306949 0.943783
0.944892 0.448813 0.927396
0.986533 0.629084 0.917868
0.994535 0.773693 0.912318
0.997666 0.883882 0.907841
0.997605 0.931406 0.903796
0.063641 0.399152 0.908119
0.064921 0.381398 0.894280
0.096201 0.347085 0.838320
0.331720 0.369987 0.783543
0.811350 0.510403 0.795526
0.970025 0.679152 0.830207
0.991313 0.831830 0.850054
0.996368 0.911728 0.861103
0.997605 0.950055 0.866107
0.064154 0.780770 0.888074
0.065751 0.763593 0.871127
0.102642 0.705143 0.814502
0.289831 0.650893 0.708276
0.611213 0.611524 0.607149
0.935592 0.775643 0.692865
0.986748 0.891462 0.762117
0.994900 0.937357 0.799685
0.997745 0.966413 0.823751
0.065386 0.949195 0.881192
0.069573 0.944914 0.870787
0.136124 0.932035 0.838540
0.386652 0.920381 0.777507
0.743038 0.909739 0.706305
0.927778 0.913880 0.670274
0.982637 0.940536 0.698795
0.993527 0.966983 0.746714
0.997294 0.981480 0.780689
0.069054 0.984784 0.863108
0.076983 0.984371 0.857009
0.171062 0.983062 0.837520
0.468732 0.981102 0.798962
0.808154 0.979401 0.757336
0.949350 0.979093 0.720000
0.983134 0.980921 0.706412
0.992782 0.984507 0.721829
0.996803 0.988124 0.754550
0.076314 0.991838 0.836095
0.089184 0.991736 0.832265
0.194503 0.991415 0.816047
0.510926 0.990961 0.792316
0.827399 0.990444 0.767422
0.955210 0.990304 0.742506
0.984629 0.990726 0.729464
0.992896 0.991528 0.730552
0.996559 0.992608 0.744641
0.087098 0.994895 0.791030
0.108184 0.994870 0.788519
0.214461 0.994794 0.780320
0.517858 0.994619 0.767855
0.829887 0.994476 0.751700
0.955854 0.994478 0.738477
0.984806 0.994696 0.732741
0.992908 0.994983 0.736048
0.996487 0.995289 0.748001
0.063616 0.081322 0.993753
0.065150 0.082428 0.993754
0.250964 0.091734 0.993760
0.881985 0.188403 0.993770
0.986899 0.474004 0.993785
0.994508 0.662930 0.992218
0.997085 0.785312 0.989405
0.997605 0.879583 0.984401
0.997605 0.927827 0.980686
0.063616 0.086927 0.993754
0.065257 0.089836 0.993755
0.257425 0.120139 0.993761
0.884469 0.273832 0.993771
0.986217 0.557676 0.993762
0.993501 0.673939 0.991430
0.996687 0.795409 0.987661
0.997605 0.885492 0.983251
0.997605 0.928875 0.979826
0.063616 0.286585 0.993758
0.066336 0.312314 0.993759
0.282085 0.422692 0.993765
0.819138 0.499914 0.992175
0.967291 0.606491 0.989959
0.989940 0.706264 0.985741
0.995197 0.828372 0.982245
0.997776 0.903120 0.979403
0.997605 0.938206 0.974203
0.063696 0.535635 0.985423
0.065370 0.533253 0.984339
0.136506 0.538427 0.981312
0.518203 0.581543 0.976569
0.896892 0.657360 0.970702
0.979389 0.763952 0.968203
0.992280 0.863655 0.967488
0.996628 0.921242 0.966760
0.997605 0.953056 0.965667
0.064100 0.774733 0.970276
0.065662 0.765156 0.967749
0.106585 0.733994 0.959389
0.333521 0.709888 0.941958
0.747394 0.739708 0.928197
0.952157 0.833898 0.932646
0.988127 0.906477 0.942468
0.995026 0.943333 0.949904
0.997742 0.968299 0.952684
0.065223 0.936688 0.966325
0.068565 0.933466 0.964266
0.125157 0.927284 0.955914
0.353825 0.915129 0.937651
0.714617 0.905112 0.915468
0.911827 0.902106 0.894030
0.982100 0.940538 0.914165
0.993399 0.967480 0.925909
0.997228 0.981588 0.934547
0.068228 0.982977 0.962046
0.075097 0.982583 0.960395
0.158773 0.981347 0.954992
0.439421 0.979551 0.943380
0.785496 0.977832 0.927527
0.939833 0.977027 0.915520
0.981465 0.979524 0.910712
0.992446 0.984092 0.915569
0.996688 0.987998 0.922969
0.075097 0.991297 0.954876
0.085077 0.991211 0.953883
0.185354 0.990905 0.950123
0.480011 0.990380 0.941046
0.814954 0.989952 0.930975
0.951762 0.989874 0.922259
0.983652 0.990350 0.917429
0.992579 0.991334 0.916522
0.996455 0.992549 0.919185
0.085226 0.994702 0.941032
0.102417 0.994664 0.940041
0.207113 0.994548 0.936752
0.511290 0.994397 0.931673
0.822526 0.994297 0.925990
0.953833 0.994340 0.921060
0.984303 0.994602 0.918374
0.992765 0.994959 0.917925
0.996442 0.995294 0.919418
0.063616 0.084888 0.996446
0.065183 0.087343 0.996450
0.251905 0.109669 0.996464
0.882356 0.244679 0.996489
0.986919 0.547436 0.996527
0.995421 0.754271 0.996127
0.997654 0.846026 0.994942
0.997605 0.905611 0.993768
0.997605 0.936125 0.992526
0.063616 0.097541 0.996449
0.065271 0.105355 0.996453
0.258416 0.165112 0.996467
0.884839 0.340683 0.996492
0.987051 0.630362 0.996530
0.994783 0.767477 0.995793
0.997274 0.852309 0.994689
0.997605 0.908646 0.993645
0.997605 0.938920 0.992276
0.063616 0.355660 0.996459
0.066416 0.385469 0.996463
0.283145 0.498105 0.996477
0.892678 0.660476 0.996491
0.979623 0.718828 0.995582
0.991781 0.803614 0.994632
0.995942 0.872536 0.993741
0.997696 0.918813 0.992485
0.997605 0.948561 0.991447
0.063809 0.681016 0.995057
0.066552 0.682999 0.994934
0.186593 0.693270 0.994470
0.653932 0.722168 0.993775
0.936946 0.780594 0.993011
0.984356 0.847689 0.992111
0.993528 0.902575 0.991355
0.997011 0.931537 0.990457
0.997605 0.958513 0.989591
0.064210 0.827778 0.991733
0.066149 0.824702 0.991513
0.125536 0.818922 0.990605
0.452353 0.824906 0.988949
0.835889 0.849865 0.986726
0.966532 0.891833 0.985688
0.989956 0.926222 0.985394
0.995400 0.952806 0.985246
0.997713 0.972637 0.984920
0.065179 0.933659 0.988933
0.068204 0.931660 0.988254
0.123037 0.928051 0.986079
0.366852 0.923174 0.982929
0.756940 0.921173 0.979728
0.939770 0.928759 0.976861
0.984136 0.952472 0.978607
0.993739 0.972197 0.979976
0.997290 0.982412 0.980846
0.067626 0.981482 0.986572
0.073686 0.981185 0.986096
0.145768 0.980251 0.984520
0.410738 0.978680 0.982073
0.771914 0.976818 0.979110
0.934914 0.975961 0.972364
0.979859 0.978150 0.967562
0.992335 0.984252 0.972493
0.996648 0.988145 0.976536
0.073905 0.990729 0.984331
0.082830 0.990632 0.984028
0.176912 0.990327 0.983018
0.463053 0.989916 0.981430
0.804228 0.989596 0.979478
0.948519 0.989584 0.975924
0.982753 0.990076 0.972416
0.992275 0.991181 0.971362
0.996369 0.992546 0.973389
0.083591 0.994423 0.981452
0.099288 0.994394 0.981277
0.200293 0.994306 0.980688
0.487094 0.994199 0.979675
0.814914 0.994147 0.978265
0.951917 0.994236 0.975410
0.983831 0.994539 0.973449
0.992631 0.994950 0.972786
0.996405 0.995311 0.973434
0.063616 0.095707 0.997669
0.065199 0.102923 0.997669
0.253058 0.157292 0.997667
0.882810 0.330040 0.997663
0.986943 0.623450 0.997658
0.996089 0.835853 0.997681
0.997733 0.889015 0.996906
0.997605 0.923468 0.996296
0.997605 0.949094 0.995516
0.063616 0.129787 0.997669
0.065289 0.148225 0.997668
0.259629 0.235081 0.997666
0.885291 0.433602 0.997663
0.987075 0.682472 0.997658
0.995510 0.845599 0.997552
0.997793 0.895616 0.996904
0.997605 0.926460 0.996161
0.997605 0.950693 0.995392
0.063616 0.447300 0.997667
0.066514 0.478456 0.997667
0.284444 0.584910 0.997665
0.894154 0.712703 0.997662
0.983849 0.828248 0.997535
0.993240 0.869890 0.996905
0.996633 0.908943 0.996326
0.997618 0.932177 0.995633
0.997605 0.956036 0.994978
0.063944 0.809313 0.997333
0.068299 0.812125 0.997249
0.228909 0.823517 0.996974
0.760733 0.842624 0.996833
0.958883 0.868053 0.996342
0.988537 0.902230 0.995816
0.994609 0.925954 0.995258
0.997438 0.948569 0.994766
0.997605 0.965435 0.994097
0.064373 0.884506 0.995637
0.067297 0.884695 0.995560
0.153925 0.886869 0.995314
0.544339 0.895530 0.994960
0.897687 0.908333 0.994538
0.978097 0.925683 0.994002
0.991291 0.944551 0.993772
0.995889 0.962096 0.993599
0.997667 0.978077 0.993185
0.065206 0.942701 0.993961
0.068488 0.941869 0.993839
0.130512 0.939729 0.993757
0.424758 0.938750 0.993219
0.810999 0.942756 0.992554
0.957111 0.952489 0.992104
0.987074 0.964707 0.991917
0.994364 0.978589 0.991870
0.997460 0.983780 0.991824
0.067293 0.980989 0.993245
0.072936 0.980799 0.993125
0.141513 0.980217 0.992727
0.406222 0.979320 0.992106
0.778855 0.978848 0.991389
0.942439 0.979542 0.990526
0.982618 0.981921 0.990095
0.992751 0.985640 0.990281
0.996732 0.988674 0.990576
0.072933 0.990239 0.992457
0.081271 0.990169 0.992375
0.170384 0.989953 0.992099
0.448727 0.989675 0.991659
0.794492 0.989492 0.991058
0.945786 0.989581 0.990282
0.982310 0.990090 0.989667
0.991986 0.991085 0.988987
0.996339 0.992654 0.989794
0.082311 0.994188 0.991613
0.096825 0.994169 0.991564
0.194647 0.994111 0.991387
0.476351 0.994050 0.991052
0.808226 0.994050 0.990572
0.950296 0.994187 0.990119
0.983431 0.994529 0.989789
0.992523 0.994963 0.989656
0.996380 0.995345 0.989747
0.063616 0.133100 0.997486
0.065218 0.154701 0.997486
0.254440 0.240413 0.997486
0.883348 0.441288 0.997485
0.986971 0.686791 0.997483
0.996462 0.883653 0.997481
0.997658 0.916432 0.997563
0.997605 0.937052 0.997595
0.997605 0.956994 0.996907
0.063616 0.211956 0.997486
0.065341 0.232880 0.997486
0.261073 0.334245 0.997485
0.885828 0.540660 0.997484
0.987103 0.749912 0.997483
0.995986 0.894103 0.997497
0.997726 0.920009 0.997591
0.997605 0.940027 0.997479
0.997605 0.958551 0.996906
0.063616 0.554419 0.997486
0.066629 0.582438 0.997486
0.285989 0.658542 0.997485
0.894686 0.781106 0.997484
0.986464 0.886925 0.997491
0.994269 0.910828 0.997559
0.997104 0.928541 0.997698
0.997605 0.949640 0.997072
0.997605 0.963874 0.996770
0.064123 0.885692 0.997497
0.069788 0.887416 0.997503
0.271515 0.893919 0.997522
0.815080 0.903778 0.997564
0.969126 0.914619 0.997658
0.990298 0.927943 0.997403
0.995272 0.944204 0.996907
0.997798 0.958951 0.996699
0.997605 0.972922 0.996267
0.064558 0.922871 0.997360
0.068613 0.923333 0.997312
0.180270 0.925347 0.997146
0.622555 0.928133 0.996907
0.922809 0.934859 0.996856
0.981812 0.948504 0.996532
0.992463 0.959268 0.996225
0.996369 0.971862 0.995922
0.997621 0.980599 0.995587
0.065281 0.955711 0.996345
0.069314 0.955658 0.996304
0.143892 0.955755 0.996170
0.478010 0.956913 0.995952
0.854089 0.960351 0.995666
0.966513 0.966930 0.995407
0.989427 0.976598 0.995199
0.994854 0.981578 0.995031
0.997673 0.985300 0.994877
0.067299 0.981742 0.995496
0.072993 0.981656 0.995451
0.143278 0.981421 0.995299
0.426976 0.981254 0.995062
0.802470 0.981535 0.994795
0.952312 0.982674 0.994488
0.984892 0.984704 0.994242
0.993352 0.987224 0.994135
0.996884 0.989598 0.994082
0.072309 0.990049 0.994972
0.080353 0.990008 0.994938
0.166361 0.989886 0.994822
0.439986 0.989754 0.994608
0.792544 0.989744 0.994230
0.946991 0.990013 0.993864
0.982915 0.990713 0.993775
0.992444 0.991704 0.993762
0.996416 0.992953 0.993768
0.081289 0.994027 0.994446
0.094779 0.994016 0.994410
0.190008 0.993988 0.994285
0.467345 0.993974 0.994085
0.802994 0.994028 0.993845
0.949093 0.994215 0.993778
0.983198 0.994596 0.993756
0.992467 0.995012 0.993746
0.996371 0.995397 0.993752
