kodachrome64/Kodachrome64_Modern_Soft.cube
TITLE "Kodachrome 64 Modern Soft"
# Adobe RGB in/out. REPLACES AgX. Kodachrome 64 Modern Soft.
LUT_3D_SIZE 5
DOMAIN_MIN 0.0 0.0 0.0
DOMAIN_MAX 1.0 1.0 1.0
0.081099 0.084717 0.091118
0.279426 0.087765 0.091118
0.933714 0.267333 0.091282
0.985265 0.645177 0.092975
0.989973 0.852578 0.098360
0.081099 0.211029 0.091118
0.133675 0.122149 0.091118
0.867438 0.357568 0.091156
0.981489 0.708822 0.092592
0.989973 0.866302 0.097304
0.085414 0.843443 0.091118
0.223756 0.787540 0.091118
0.770070 0.732552 0.091240
0.965328 0.842813 0.092252
0.989733 0.926343 0.095822
0.101051 0.951075 0.091520
0.259247 0.948022 0.091576
0.810671 0.942128 0.091838
0.957460 0.942813 0.092931
0.986593 0.951499 0.096159
0.132580 0.975990 0.092373
0.285035 0.975218 0.092519
0.796864 0.973526 0.093054
0.954204 0.973633 0.094399
0.985145 0.976557 0.099316
0.081099 0.084717 0.254956
0.298119 0.089448 0.276539
0.926956 0.262268 0.216515
0.984036 0.627791 0.221433
0.989973 0.846475 0.257030
0.081099 0.127115 0.134176
0.095541 0.097062 0.094003
0.826017 0.322835 0.120731
0.979931 0.681871 0.168790
0.989973 0.859740 0.226116
0.084065 0.805082 0.154551
0.187060 0.732426 0.121743
0.716448 0.671016 0.104112
0.960570 0.829088 0.123121
0.989162 0.921083 0.173934
0.098679 0.948647 0.142242
0.246266 0.945847 0.132634
0.792856 0.939278 0.121729
0.954426 0.940678 0.124904
0.986246 0.950315 0.156092
0.130374 0.975339 0.129138
0.279441 0.974609 0.128519
0.791159 0.972910 0.129057
0.953404 0.973229 0.139430
0.985064 0.976480 0.168850
0.081099 0.085497 0.935013
0.298870 0.101228 0.935812
0.952090 0.400920 0.934954
0.984969 0.670450 0.875720
0.989973 0.849453 0.847380
0.081099 0.256716 0.924014
0.239647 0.279939 0.895648
0.891169 0.450195 0.856782
0.980515 0.713107 0.841431
0.989973 0.860520 0.828593
0.083046 0.718436 0.815314
0.146104 0.656480 0.752569
0.578966 0.572921 0.568598
0.955572 0.820056 0.705027
0.988457 0.915527 0.761036
0.094047 0.943015 0.794374
0.221931 0.939833 0.772857
0.752181 0.933088 0.701646
0.947965 0.935885 0.659928
0.985575 0.949200 0.699674
0.123008 0.973541 0.731079
0.265702 0.972815 0.721270
0.768971 0.971530 0.697655
0.951480 0.972383 0.684177
0.984870 0.976390 0.695032
0.081099 0.099852 0.981145
0.300253 0.146963 0.981197
0.955933 0.522471 0.981383
0.987479 0.772407 0.976750
0.989973 0.865824 0.970168
0.081099 0.377804 0.981182
0.325201 0.486997 0.981234
0.940432 0.668279 0.978618
0.983653 0.800164 0.974361
0.989973 0.879827 0.964720
0.083197 0.753612 0.966161
0.173610 0.747013 0.960489
0.775298 0.776419 0.948843
0.964221 0.854701 0.945808
0.988799 0.926348 0.944728
0.091078 0.936919 0.948491
0.196627 0.934651 0.943818
0.722754 0.929369 0.928549
0.941099 0.930786 0.907100
0.985230 0.949240 0.922609
0.118532 0.971325 0.936856
0.250980 0.970873 0.935126
0.757290 0.970257 0.925609
0.949429 0.971775 0.917260
0.984686 0.976554 0.917234
0.081099 0.182463 0.987841
0.302333 0.287314 0.987851
0.956044 0.640767 0.987885
0.989401 0.843730 0.986754
0.989973 0.896249 0.982494
0.081099 0.527446 0.987848
0.327402 0.616857 0.987858
0.954973 0.815282 0.987766
0.986248 0.857303 0.984840
0.989973 0.910309 0.982092
0.084137 0.850942 0.983822
0.231104 0.853720 0.983196
0.868155 0.864401 0.982345
0.973255 0.900883 0.980499
0.989803 0.935291 0.978633
0.090513 0.937398 0.978368
0.193504 0.936806 0.977791
0.747880 0.937017 0.976323
0.951662 0.942868 0.975224
0.985758 0.952775 0.974949
0.115111 0.969790 0.975577
0.240792 0.969643 0.975299
0.748276 0.969796 0.974539
0.948098 0.971994 0.974386
0.984611 0.977172 0.974378
