kodachrome64/Kodachrome64_Classic_Normal.cube
TITLE "Kodachrome 64 Classic Normal"
# Adobe RGB in/out. REPLACES AgX. Kodachrome 64 Classic Normal.
LUT_3D_SIZE 9
DOMAIN_MIN 0.0 0.0 0.0
DOMAIN_MAX 1.0 1.0 1.0
0.081099 0.084717 0.091118
0.081099 0.084717 0.091118
0.092837 0.084717 0.091118
0.228273 0.086628 0.091118
0.545072 0.098647 0.091118
0.829156 0.139724 0.091118
0.932513 0.264679 0.091274
0.967319 0.422204 0.091718
0.983059 0.602675 0.092605
0.081099 0.084717 0.091118
0.081099 0.084717 0.091118
0.093427 0.085110 0.091118
0.229689 0.088597 0.091118
0.546695 0.103802 0.091118
0.829837 0.159913 0.091118
0.932689 0.285818 0.091288
0.967378 0.449993 0.091721
0.983075 0.619481 0.092638
0.081099 0.088870 0.091118
0.081263 0.089652 0.091118
0.095518 0.095960 0.091118
0.234787 0.107746 0.091118
0.552528 0.149155 0.091118
0.832282 0.246079 0.091118
0.933322 0.376461 0.091336
0.967591 0.536999 0.091732
0.983134 0.680321 0.092753
0.081099 0.151247 0.091118
0.081935 0.157513 0.091118
0.099245 0.180871 0.091118
0.244095 0.229566 0.091118
0.563172 0.310904 0.091118
0.836758 0.410862 0.091145
0.934480 0.541461 0.091419
0.967982 0.660900 0.091902
0.983242 0.774372 0.092958
0.081251 0.392152 0.091118
0.083437 0.399925 0.091118
0.105867 0.428253 0.091118
0.258880 0.481781 0.091118
0.578675 0.552851 0.091118
0.843404 0.632976 0.091238
0.936131 0.720414 0.091550
0.968562 0.799034 0.092198
0.983402 0.852358 0.093248
0.082889 0.679948 0.091118
0.085801 0.686115 0.091118
0.114791 0.705663 0.091118
0.282717 0.733110 0.091118
0.599630 0.773044 0.091186
0.852274 0.817204 0.091414
0.938327 0.848819 0.091735
0.969340 0.877809 0.092608
0.983617 0.916272 0.093677
0.085851 0.854953 0.091118
0.089901 0.855936 0.091118
0.132540 0.858060 0.091132
0.313216 0.868473 0.091212
0.627568 0.883964 0.091394
0.863100 0.904999 0.091706
0.941049 0.927184 0.092239
0.970318 0.936653 0.093133
0.983887 0.944613 0.094593
0.091329 0.934830 0.091281
0.099976 0.935204 0.091300
0.164893 0.936538 0.091366
0.350595 0.938945 0.091483
0.668482 0.942125 0.091720
0.873049 0.946020 0.092155
0.943317 0.949344 0.092888
0.971497 0.955316 0.093806
0.984215 0.961552 0.096053
0.105395 0.957770 0.091645
0.116683 0.958085 0.091678
0.209966 0.958912 0.091726
0.399965 0.960334 0.091921
0.705692 0.962414 0.092326
0.883437 0.965134 0.092917
0.945951 0.968421 0.093650
0.972858 0.971871 0.095353
0.984598 0.975509 0.098538
0.081099 0.084717 0.091118
0.081099 0.084717 0.091118
0.092842 0.084717 0.091118
0.228285 0.086709 0.091118
0.545087 0.098877 0.091199
0.829162 0.140514 0.091433
0.932514 0.265595 0.091772
0.967319 0.423323 0.092660
0.983059 0.603605 0.093727
0.081099 0.084717 0.091118
0.081099 0.084717 0.091118
0.093432 0.085136 0.091118
0.229702 0.088685 0.091118
0.546710 0.104124 0.091207
0.829843 0.160816 0.091445
0.932691 0.286770 0.091804
0.967378 0.451240 0.092693
0.983075 0.620184 0.093766
0.081099 0.088955 0.091118
0.081264 0.089832 0.091118
0.095523 0.096202 0.091118
0.234799 0.108059 0.091118
0.552542 0.150032 0.091251
0.832287 0.247432 0.091495
0.933323 0.377547 0.091918
0.967592 0.537947 0.092806
0.983134 0.681194 0.093947
0.081099 0.152129 0.091118
0.081935 0.158407 0.091118
0.099251 0.181895 0.091118
0.244107 0.230718 0.091177
0.563186 0.312550 0.091341
0.836764 0.411973 0.091607
0.934481 0.542410 0.092118
0.967982 0.661569 0.093009
0.983242 0.774844 0.094342
0.081252 0.393250 0.091126
0.083438 0.401028 0.091139
0.105873 0.429480 0.091183
0.258895 0.482813 0.091289
0.578689 0.553801 0.091466
0.843410 0.633676 0.091732
0.936133 0.721001 0.092399
0.968563 0.799501 0.093303
0.983402 0.852597 0.094990
0.082890 0.680821 0.091257
0.085803 0.686988 0.091277
0.114797 0.706255 0.091344
0.282733 0.733694 0.091460
0.599644 0.773517 0.091715
0.852280 0.817663 0.092105
0.938328 0.849059 0.092835
0.969341 0.878030 0.093730
0.983617 0.916488 0.095900
0.085851 0.855190 0.091479
0.089904 0.856032 0.091498
0.132550 0.858142 0.091574
0.313231 0.868699 0.091725
0.627588 0.884182 0.092056
0.863106 0.905219 0.092622
0.941050 0.927255 0.093350
0.970319 0.936705 0.094713
0.983888 0.944654 0.097490
0.091332 0.934883 0.091788
0.099981 0.935257 0.091833
0.164907 0.936590 0.091989
0.350610 0.938996 0.092260
0.668496 0.942167 0.092691
0.873053 0.946060 0.093254
0.943318 0.949370 0.094207
0.971497 0.955362 0.096206
0.984215 0.961581 0.100352
0.105401 0.957815 0.092536
0.116690 0.958130 0.092582
0.209978 0.958942 0.092744
0.399986 0.960365 0.093028
0.705704 0.962443 0.093451
0.883441 0.965163 0.094264
0.945952 0.968446 0.095823
0.972859 0.971894 0.098813
0.984598 0.975526 0.104827
0.081099 0.084717 0.093556
0.081099 0.084717 0.093600
0.092860 0.084717 0.093762
0.228330 0.086993 0.094280
0.545138 0.099687 0.095183
0.829183 0.143629 0.096621
0.932520 0.268891 0.099410
0.967321 0.427357 0.104448
0.983060 0.606574 0.113886
0.081099 0.084717 0.093588
0.081099 0.084717 0.093631
0.093451 0.085269 0.093813
0.229746 0.088995 0.094339
0.546761 0.105275 0.095251
0.829865 0.164073 0.096708
0.932696 0.290408 0.099569
0.967380 0.455729 0.104623
0.983076 0.622708 0.114207
0.081099 0.089265 0.093700
0.081266 0.090699 0.093743
0.095541 0.097062 0.094003
0.234844 0.109174 0.094549
0.552594 0.153200 0.095491
0.832309 0.252110 0.097060
0.933329 0.381456 0.100136
0.967593 0.541354 0.105719
0.983135 0.684329 0.115459
0.081099 0.155310 0.094015
0.081939 0.161645 0.094099
0.099270 0.185722 0.094397
0.244150 0.235017 0.095007
0.563235 0.318500 0.095961
0.836785 0.415971 0.097727
0.934487 0.545820 0.101271
0.967984 0.664481 0.107848
0.983242 0.776540 0.117946
0.081254 0.397200 0.094609
0.083444 0.404998 0.094707
0.105894 0.433899 0.095053
0.258949 0.486521 0.095670
0.578738 0.557216 0.096845
0.843431 0.636186 0.098995
0.936138 0.723109 0.103057
0.968565 0.801175 0.110295
0.983402 0.853451 0.121666
0.082894 0.683957 0.095522
0.085810 0.690124 0.095614
0.114819 0.708382 0.095984
0.282791 0.735787 0.096802
0.599693 0.775215 0.098244
0.852300 0.819310 0.101191
0.938334 0.849920 0.106000
0.969343 0.878823 0.113918
0.983617 0.917261 0.126692
0.085854 0.855697 0.096942
0.089915 0.856334 0.097082
0.132588 0.858853 0.097581
0.313289 0.869509 0.098666
0.627658 0.884963 0.100892
0.863126 0.906011 0.104240
0.941054 0.927510 0.110530
0.970321 0.936892 0.120162
0.983888 0.944801 0.134861
0.091343 0.935073 0.099489
0.100001 0.935447 0.099710
0.164957 0.936777 0.100497
0.350664 0.939178 0.102163
0.668545 0.942319 0.104616
0.873067 0.946205 0.110043
0.943322 0.949463 0.117085
0.971499 0.955526 0.127971
0.984215 0.961688 0.146514
0.105422 0.957975 0.103778
0.116713 0.958269 0.104025
0.210021 0.959053 0.105112
0.400063 0.960473 0.108051
0.705750 0.962548 0.111078
0.883454 0.965264 0.117446
0.945956 0.968532 0.126357
0.972860 0.971976 0.141028
0.984599 0.975589 0.163096
0.081099 0.084717 0.168366
0.081099 0.084717 0.169524
0.092895 0.084819 0.173719
0.228412 0.087507 0.181570
0.545232 0.101140 0.193624
0.829223 0.149524 0.210523
0.932530 0.274977 0.232851
0.967324 0.435485 0.263591
0.983061 0.611241 0.303425
0.081099 0.084717 0.169196
0.081099 0.084763 0.170358
0.093485 0.085711 0.174563
0.229829 0.089833 0.182432
0.546855 0.107366 0.194513
0.829904 0.170123 0.211450
0.932707 0.297909 0.233811
0.967384 0.463366 0.264709
0.983077 0.627345 0.304549
0.081099 0.090577 0.172198
0.081271 0.092425 0.173369
0.095575 0.098607 0.177611
0.234927 0.111515 0.185544
0.552688 0.159085 0.197726
0.832348 0.260605 0.214798
0.933339 0.388675 0.237274
0.967597 0.547628 0.268746
0.983136 0.690099 0.308602
0.081099 0.161233 0.177789
0.081945 0.167665 0.178979
0.099306 0.193455 0.183286
0.244231 0.243830 0.191338
0.563326 0.325459 0.203705
0.836824 0.423353 0.221026
0.934497 0.552098 0.244180
0.967988 0.670248 0.276307
0.983243 0.779679 0.316129
0.081259 0.404494 0.186313
0.083454 0.412329 0.187530
0.105933 0.442066 0.191935
0.259050 0.493357 0.200171
0.578829 0.563505 0.212814
0.843470 0.640799 0.230368
0.936148 0.726984 0.254904
0.968568 0.804249 0.287865
0.983403 0.855017 0.327558
0.082902 0.689726 0.198141
0.085823 0.695894 0.199396
0.114859 0.712287 0.203936
0.282897 0.739631 0.212422
0.599784 0.778345 0.225376
0.852337 0.821644 0.243711
0.938343 0.851501 0.269786
0.969346 0.880277 0.303535
0.983618 0.918682 0.343524
0.085859 0.856296 0.213707
0.089936 0.856886 0.215010
0.132658 0.860378 0.219722
0.313394 0.870995 0.228416
0.627788 0.886397 0.241968
0.863162 0.907465 0.262275
0.941060 0.927977 0.289542
0.970324 0.937235 0.322912
0.983889 0.945071 0.364419
0.091362 0.935423 0.233330
0.100036 0.935795 0.234669
0.165051 0.937121 0.239591
0.350765 0.939514 0.249476
0.668636 0.942597 0.264661
0.873092 0.946434 0.286085
0.943328 0.949635 0.313513
0.971502 0.955827 0.347656
0.984216 0.961883 0.390793
0.105462 0.958255 0.259373
0.116757 0.958474 0.260919
0.210099 0.959255 0.266512
0.400204 0.960672 0.277024
0.705835 0.962742 0.293226
0.883478 0.965451 0.314609
0.945962 0.968691 0.342446
0.972863 0.972127 0.378345
0.984600 0.975704 0.423043
0.081099 0.084717 0.529788
0.081099 0.084717 0.530856
0.092946 0.085063 0.534695
0.228535 0.088436 0.541764
0.545373 0.103250 0.552355
0.829282 0.158284 0.566696
0.932545 0.284133 0.584983
0.967330 0.447735 0.607252
0.983062 0.618206 0.623783
0.081099 0.084827 0.530554
0.081099 0.084996 0.531622
0.093536 0.086404 0.535462
0.229952 0.092346 0.542532
0.546996 0.110575 0.553124
0.829964 0.179308 0.567467
0.932722 0.314017 0.585756
0.967389 0.473514 0.608021
0.983078 0.634266 0.624131
0.081099 0.093144 0.533308
0.081278 0.094910 0.534376
0.095625 0.100816 0.538217
0.235050 0.115193 0.545291
0.552829 0.168071 0.555888
0.832407 0.270377 0.570237
0.933354 0.399538 0.588535
0.967602 0.557024 0.610784
0.983137 0.698731 0.625379
0.081099 0.170258 0.538378
0.081954 0.176807 0.539447
0.099359 0.205289 0.543292
0.244351 0.256756 0.550371
0.563462 0.334420 0.560977
0.836883 0.435130 0.575338
0.934512 0.561500 0.593627
0.967993 0.678877 0.615675
0.983245 0.784364 0.629717
0.081266 0.415470 0.545970
0.083470 0.423360 0.547041
0.105992 0.454375 0.550890
0.259200 0.503613 0.557979
0.578966 0.572921 0.568598
0.843528 0.647685 0.582976
0.936162 0.732762 0.601220
0.968573 0.808831 0.619151
0.983405 0.856209 0.637264
0.082915 0.698359 0.556244
0.085838 0.703119 0.557317
0.114920 0.718111 0.561173
0.283056 0.745365 0.568273
0.599921 0.783036 0.578910
0.852393 0.824314 0.593291
0.938357 0.853853 0.611492
0.969351 0.882444 0.623817
0.983620 0.920799 0.647474
0.085865 0.857120 0.569337
0.089967 0.857706 0.570412
0.132762 0.862649 0.574276
0.313552 0.873210 0.581391
0.627982 0.888536 0.592041
0.863217 0.909632 0.606345
0.941070 0.928674 0.619647
0.970329 0.937746 0.634211
0.983890 0.945473 0.660370
0.091392 0.935943 0.585369
0.100089 0.936314 0.586447
0.165190 0.937632 0.590320
0.350915 0.940013 0.597398
0.668771 0.943011 0.607988
0.873129 0.946705 0.618622
0.943337 0.949890 0.627972
0.971507 0.956275 0.650076
0.984218 0.962175 0.676080
0.105520 0.958561 0.604336
0.116823 0.958779 0.605408
0.210217 0.959558 0.609258
0.400415 0.960968 0.615893
0.705961 0.963030 0.620731
0.883515 0.965729 0.628704
0.945971 0.968929 0.646793
0.972868 0.972353 0.668731
0.984601 0.975876 0.689698
0.081099 0.084717 0.796575
0.081099 0.084771 0.796983
0.093016 0.085733 0.798446
0.228702 0.089895 0.801131
0.545564 0.107474 0.805128
0.829362 0.170442 0.810491
0.932566 0.298465 0.817252
0.967337 0.463720 0.825421
0.983064 0.627588 0.832386
0.081099 0.085161 0.796867
0.081099 0.085573 0.797275
0.093605 0.087453 0.798738
0.230118 0.095687 0.801422
0.547187 0.115597 0.805417
0.830044 0.194098 0.810778
0.932743 0.329131 0.817536
0.967396 0.487286 0.825701
0.983080 0.643589 0.832578
0.081099 0.096444 0.797918
0.081288 0.098114 0.798325
0.095692 0.103857 0.799786
0.235217 0.122143 0.802466
0.553020 0.180488 0.806454
0.832487 0.282721 0.811807
0.933375 0.414341 0.818555
0.967609 0.569740 0.826652
0.983139 0.707104 0.833264
0.081099 0.182927 0.799847
0.081967 0.190946 0.800253
0.099431 0.217871 0.801710
0.244514 0.270828 0.804382
0.563647 0.346540 0.808359
0.836962 0.451705 0.813697
0.934533 0.574224 0.820426
0.968000 0.690540 0.827933
0.983246 0.790664 0.834523
0.081275 0.430716 0.802722
0.083490 0.439427 0.803126
0.106071 0.469180 0.804577
0.259403 0.517527 0.807237
0.579150 0.585666 0.811198
0.843607 0.656960 0.816514
0.936181 0.740538 0.823215
0.968580 0.814992 0.829841
0.983407 0.857322 0.836399
0.082931 0.706851 0.806588
0.085847 0.711029 0.806990
0.115001 0.725952 0.808432
0.283272 0.753082 0.811078
0.600105 0.789343 0.815016
0.852468 0.827722 0.820302
0.938376 0.856088 0.826831
0.969358 0.885354 0.832405
0.983621 0.923646 0.838920
0.085875 0.858255 0.811473
0.090008 0.859887 0.811872
0.132903 0.865698 0.813304
0.313766 0.876183 0.815931
0.628245 0.891580 0.819841
0.863291 0.912544 0.825089
0.941083 0.929608 0.830114
0.970336 0.938433 0.835642
0.983892 0.946014 0.842103
0.091432 0.936642 0.817393
0.100161 0.937010 0.817789
0.165378 0.938319 0.819208
0.351119 0.940615 0.821812
0.668954 0.943568 0.825689
0.873179 0.947069 0.829551
0.943350 0.950234 0.834088
0.971514 0.956879 0.839559
0.984220 0.962568 0.845444
0.105600 0.958973 0.824355
0.116912 0.959190 0.824747
0.210375 0.959964 0.826152
0.400701 0.961367 0.828053
0.706131 0.963418 0.830709
0.883563 0.966103 0.834270
0.945983 0.969248 0.838753
0.972874 0.972656 0.844159
0.984603 0.976107 0.848245
0.081099 0.085007 0.896567
0.081099 0.085189 0.896731
0.093104 0.087005 0.897319
0.228913 0.094226 0.898397
0.545806 0.113353 0.900002
0.829464 0.187167 0.902157
0.932593 0.323773 0.904500
0.967345 0.481187 0.905998
0.983066 0.639470 0.907676
0.081099 0.086225 0.896685
0.081099 0.086811 0.896848
0.093693 0.089008 0.897436
0.230330 0.099664 0.898513
0.547430 0.125014 0.900118
0.830145 0.213022 0.902272
0.932769 0.344534 0.904553
0.967405 0.504897 0.906047
0.983083 0.655399 0.907724
0.081099 0.100358 0.897107
0.081299 0.101891 0.897270
0.095778 0.109221 0.897857
0.235429 0.133984 0.898933
0.553262 0.199898 0.900535
0.832589 0.301872 0.902686
0.933401 0.433938 0.904744
0.967618 0.585946 0.906224
0.983141 0.717132 0.907898
0.081099 0.202761 0.897881
0.081982 0.210611 0.898044
0.099523 0.235220 0.898629
0.244721 0.286558 0.899702
0.563881 0.363095 0.901300
0.837063 0.470715 0.903445
0.934559 0.590440 0.905095
0.968008 0.703696 0.906548
0.983249 0.798624 0.908217
0.081287 0.451764 0.899035
0.083517 0.460583 0.899198
0.106171 0.486680 0.899780
0.259661 0.535316 0.900849
0.579384 0.601907 0.902441
0.843707 0.670211 0.904361
0.936206 0.750375 0.905611
0.968589 0.821909 0.907031
0.983409 0.859656 0.908851
0.082952 0.716881 0.900588
0.085859 0.721033 0.900750
0.115105 0.735876 0.901329
0.283546 0.762846 0.902393
0.600339 0.797313 0.903976
0.852564 0.831998 0.905072
0.938401 0.857504 0.906269
0.969366 0.889060 0.907681
0.983624 0.925948 0.910232
0.085886 0.862170 0.902551
0.090061 0.863786 0.902712
0.133082 0.869543 0.903287
0.314038 0.879936 0.904252
0.628578 0.895422 0.904985
0.863386 0.916224 0.905940
0.941099 0.930786 0.907100
0.970344 0.939299 0.908501
0.983895 0.946589 0.911978
0.091482 0.937524 0.904526
0.100252 0.937889 0.904601
0.165618 0.939186 0.904867
0.351377 0.941343 0.905355
0.669186 0.944270 0.906045
0.873242 0.947528 0.906958
0.943366 0.950878 0.908107
0.971522 0.957641 0.910582
0.984222 0.963064 0.914096
0.105700 0.959494 0.905811
0.117025 0.959709 0.905880
0.210577 0.960478 0.906126
0.401064 0.961871 0.906578
0.706348 0.963909 0.907251
0.883626 0.966577 0.908153
0.945999 0.969652 0.910140
0.972882 0.973040 0.913107
0.984605 0.976399 0.916589
0.081099 0.086057 0.947681
0.081099 0.086638 0.947733
0.093212 0.088825 0.947918
0.229172 0.099184 0.948259
0.546102 0.123551 0.948766
0.829588 0.211092 0.949448
0.932625 0.342589 0.950318
0.967356 0.502672 0.951387
0.983069 0.653913 0.952642
0.081099 0.087966 0.947718
0.081099 0.088609 0.947770
0.093800 0.093468 0.947955
0.230589 0.104558 0.948296
0.547726 0.140287 0.948803
0.830270 0.232801 0.949484
0.932801 0.364946 0.950355
0.967416 0.526555 0.951424
0.983086 0.671534 0.952679
0.081099 0.105558 0.947852
0.081314 0.107786 0.947903
0.095882 0.117397 0.948088
0.235689 0.151220 0.948428
0.553559 0.220288 0.948934
0.832713 0.329105 0.949615
0.933433 0.459756 0.950489
0.967629 0.605632 0.951556
0.983144 0.729308 0.952809
0.081099 0.222255 0.948096
0.082002 0.229713 0.948147
0.099635 0.262465 0.948332
0.244974 0.314779 0.948671
0.564167 0.386411 0.949176
0.837186 0.492122 0.949855
0.934591 0.608956 0.950733
0.968019 0.715966 0.951798
0.983252 0.808272 0.953049
0.081302 0.474636 0.948461
0.083543 0.481913 0.948512
0.106294 0.508206 0.948696
0.259977 0.555084 0.949034
0.579670 0.617411 0.949537
0.843829 0.688331 0.950222
0.936236 0.762315 0.951098
0.968600 0.827340 0.952159
0.983412 0.864417 0.953406
0.082978 0.729059 0.948951
0.085874 0.733185 0.949002
0.115232 0.747920 0.949186
0.283881 0.774156 0.949522
0.600626 0.806972 0.950026
0.852681 0.837162 0.950717
0.938431 0.861028 0.951589
0.969377 0.893776 0.952646
0.983627 0.927455 0.953887
0.085901 0.866903 0.949572
0.090125 0.868502 0.949623
0.133301 0.874195 0.949805
0.314369 0.884476 0.950146
0.628986 0.900075 0.950657
0.863501 0.920681 0.951344
0.941119 0.932211 0.952211
0.970355 0.940325 0.953262
0.983898 0.947154 0.954496
0.091544 0.938591 0.950337
0.100363 0.938951 0.950389
0.165911 0.940230 0.950574
0.351693 0.942224 0.950915
0.669470 0.945121 0.951422
0.873320 0.948084 0.952104
0.943386 0.951861 0.952966
0.971533 0.958462 0.954010
0.984225 0.963666 0.955236
0.105823 0.960125 0.951248
0.117163 0.960338 0.951299
0.210823 0.961100 0.951483
0.401508 0.962483 0.951821
0.706613 0.964504 0.952324
0.883701 0.967151 0.953001
0.946018 0.970142 0.953855
0.972892 0.973506 0.954891
0.984608 0.976754 0.956108
0.081099 0.088128 0.972550
0.081099 0.088761 0.972577
0.093340 0.093904 0.972672
0.229478 0.105116 0.972847
0.546454 0.141667 0.973108
0.829736 0.234955 0.973387
0.932663 0.367018 0.973537
0.967369 0.528380 0.973721
0.983073 0.673055 0.973936
0.081099 0.091469 0.972569
0.081099 0.093284 0.972596
0.093927 0.099376 0.972691
0.230896 0.112778 0.972866
0.548077 0.162134 0.973127
0.830417 0.264402 0.973393
0.932839 0.392375 0.973544
0.967429 0.550834 0.973727
0.983089 0.693046 0.973942
0.081099 0.113942 0.972637
0.081331 0.117017 0.972664
0.096006 0.133045 0.972759
0.235997 0.173516 0.972934
0.553911 0.249392 0.973195
0.832860 0.351470 0.973416
0.933471 0.485221 0.973567
0.967642 0.622996 0.973750
0.983148 0.743653 0.973965
0.081099 0.252423 0.972763
0.082024 0.261512 0.972790
0.099768 0.285352 0.972885
0.245274 0.339771 0.973059
0.564506 0.413593 0.973320
0.837332 0.517740 0.973458
0.934628 0.626298 0.973609
0.968032 0.730420 0.973791
0.983255 0.819618 0.974006
0.081319 0.500101 0.972951
0.083555 0.507442 0.972977
0.106440 0.533961 0.973072
0.260351 0.578553 0.973246
0.580010 0.634694 0.973402
0.843974 0.706732 0.973521
0.936272 0.775553 0.973671
0.968612 0.833533 0.973853
0.983415 0.870000 0.974068
0.083008 0.743406 0.973204
0.085891 0.747496 0.973230
0.115382 0.762106 0.973324
0.284278 0.785829 0.973400
0.600965 0.818331 0.973488
0.852820 0.843207 0.973606
0.938466 0.866656 0.973755
0.969390 0.899314 0.973937
0.983630 0.929190 0.974150
0.085918 0.872454 0.973408
0.090202 0.874031 0.973417
0.133560 0.879652 0.973449
0.314764 0.889884 0.973508
0.629470 0.905541 0.973595
0.863638 0.925486 0.973713
0.941143 0.933882 0.973862
0.970367 0.941383 0.974043
0.983901 0.947818 0.974255
0.091617 0.939842 0.973541
0.100498 0.940198 0.973550
0.166259 0.941288 0.973581
0.352069 0.943258 0.973640
0.669808 0.946119 0.973727
0.873413 0.948736 0.973844
0.943409 0.953016 0.973992
0.971545 0.959221 0.974171
0.984228 0.964374 0.974363
0.105969 0.960867 0.973697
0.117327 0.961078 0.973706
0.211116 0.961833 0.973737
0.402035 0.963202 0.973795
0.706927 0.965204 0.973881
0.883792 0.967827 0.973998
0.946041 0.970719 0.974145
0.972903 0.974055 0.974323
0.984611 0.977172 0.974378
