kodachrome64/Kodachrome64_Modern_Punchy.cube
TITLE "Kodachrome 64 Modern Punchy"
# Adobe RGB in/out. REPLACES AgX. Kodachrome 64 Modern Punchy.
LUT_3D_SIZE 33
DOMAIN_MIN 0.0 0.0 0.0
DOMAIN_MAX 1.0 1.0 1.0
0.093920 0.090395 0.084157
0.093920 0.090395 0.084157
0.093920 0.090395 0.084157
0.093920 0.090395 0.084157
0.094313 0.090395 0.084157
0.102601 0.090395 0.084157
0.128214 0.090403 0.084157
0.197225 0.090451 0.084157
0.303650 0.090865 0.084157
0.418689 0.091956 0.084157
0.515892 0.094246 0.084157
0.599824 0.099972 0.084157
0.681455 0.112943 0.084157
0.753447 0.128963 0.084193
0.804543 0.161262 0.084250
0.844758 0.202118 0.084311
0.880449 0.256182 0.084377
0.909195 0.304445 0.084443
0.926660 0.366598 0.084513
0.942452 0.410691 0.084583
0.951639 0.464283 0.084659
0.959284 0.500939 0.084791
0.964423 0.544336 0.084995
0.968703 0.586566 0.085218
0.972767 0.619683 0.085690
0.975871 0.645462 0.086175
0.977547 0.671850 0.086793
0.979142 0.698522 0.087567
0.980631 0.724590 0.088249
0.981708 0.749914 0.089303
0.982736 0.774864 0.090379
0.983716 0.795806 0.091420
0.984589 0.808086 0.093246
0.093920 0.090395 0.084157
0.093920 0.090395 0.084157
0.093920 0.090395 0.084157
0.093920 0.090395 0.084157
0.094191 0.090395 0.084157
0.100856 0.090395 0.084157
0.123746 0.090404 0.084157
0.188661 0.090453 0.084157
0.287823 0.090889 0.084157
0.411766 0.092003 0.084157
0.508498 0.094366 0.084157
0.594781 0.100331 0.084157
0.676821 0.113323 0.084157
0.751407 0.129637 0.084191
0.802630 0.162198 0.084248
0.843113 0.203300 0.084310
0.879092 0.257508 0.084375
0.908362 0.305768 0.084441
0.926209 0.367565 0.084512
0.942113 0.411504 0.084581
0.951381 0.465093 0.084658
0.959122 0.501746 0.084787
0.964300 0.545098 0.084991
0.968592 0.587323 0.085215
0.972667 0.620133 0.085682
0.975829 0.645898 0.086168
0.977510 0.672298 0.086784
0.979108 0.698957 0.087555
0.980608 0.725002 0.088234
0.981687 0.750315 0.089290
0.982716 0.775254 0.090366
0.983698 0.795976 0.091408
0.984580 0.808300 0.093221
0.093920 0.090395 0.084157
0.093920 0.090395 0.084157
0.093920 0.090395 0.084157
0.093920 0.090395 0.084157
0.093987 0.090395 0.084157
0.096996 0.090395 0.084157
0.113559 0.090409 0.084157
0.160465 0.090460 0.084157
0.257081 0.090973 0.084157
0.378332 0.092167 0.084157
0.483412 0.094782 0.084157
0.577720 0.101592 0.084157
0.660978 0.114598 0.084157
0.742003 0.132034 0.084184
0.795713 0.165540 0.084241
0.837349 0.207530 0.084304
0.874324 0.262258 0.084369
0.905420 0.310510 0.084436
0.924612 0.371022 0.084506
0.940911 0.415787 0.084575
0.950466 0.467989 0.084652
0.958543 0.504635 0.084773
0.963864 0.547828 0.084978
0.968199 0.590035 0.085201
0.972311 0.621746 0.085653
0.975682 0.647458 0.086141
0.977375 0.673903 0.086751
0.978985 0.700516 0.087516
0.980517 0.726481 0.088183
0.981611 0.751753 0.089243
0.982646 0.776596 0.090320
0.983634 0.796588 0.091366
0.984550 0.809067 0.093133
0.093920 0.090395 0.084157
0.093920 0.090395 0.084157
0.093920 0.090395 0.084157
0.093920 0.090395 0.084157
0.093920 0.090395 0.084157
0.094559 0.090395 0.084157
0.103568 0.090419 0.084157
0.132800 0.090472 0.084157
0.213274 0.091116 0.084157
0.333441 0.092448 0.084157
0.450621 0.095507 0.084157
0.550064 0.103827 0.084157
0.637318 0.116867 0.084157
0.724090 0.136360 0.084173
0.778425 0.171633 0.084231
0.827321 0.215278 0.084294
0.865959 0.270229 0.084358
0.900219 0.318922 0.084426
0.921615 0.377216 0.084496
0.938765 0.424138 0.084565
0.948828 0.473269 0.084643
0.957178 0.509909 0.084747
0.963066 0.552814 0.084955
0.967490 0.594992 0.085177
0.971667 0.624689 0.085601
0.975415 0.650308 0.086094
0.977132 0.676837 0.086693
0.978763 0.703369 0.087444
0.980313 0.729187 0.088090
0.981472 0.754386 0.089157
0.982518 0.778802 0.090236
0.983516 0.797707 0.091288
0.984468 0.810473 0.092974
0.093920 0.090407 0.084157
0.093920 0.090405 0.084157
0.093920 0.090400 0.084157
0.093920 0.090395 0.084157
0.093920 0.090395 0.084157
0.094171 0.090400 0.084157
0.098958 0.090438 0.084157
0.117761 0.090680 0.084157
0.176156 0.091484 0.084157
0.280215 0.092972 0.084157
0.411420 0.096540 0.084157
0.515129 0.107546 0.084157
0.604789 0.120141 0.084157
0.691581 0.143208 0.084158
0.766813 0.180231 0.084218
0.813590 0.226844 0.084280
0.854363 0.281130 0.084343
0.890615 0.331406 0.084413
0.916597 0.386179 0.084482
0.931296 0.436550 0.084553
0.946420 0.479778 0.084629
0.955056 0.517708 0.084711
0.961714 0.560194 0.084923
0.966462 0.602337 0.085142
0.970733 0.629040 0.085527
0.974779 0.654525 0.086027
0.976777 0.681185 0.086608
0.978438 0.707601 0.087341
0.980016 0.733203 0.087956
0.981268 0.758297 0.089033
0.982330 0.782078 0.090114
0.983343 0.799367 0.091175
0.984308 0.812561 0.092745
0.093920 0.091183 0.084157
0.093920 0.091143 0.084157
0.093920 0.091004 0.084157
0.093920 0.090769 0.084157
0.094017 0.090519 0.084157
0.094252 0.090467 0.084157
0.097350 0.090525 0.084157
0.110481 0.091044 0.084157
0.148749 0.092137 0.084157
0.232756 0.094391 0.084157
0.356898 0.099622 0.084157
0.469468 0.111901 0.084157
0.568587 0.125702 0.084157
0.655521 0.154810 0.084157
0.740530 0.192119 0.084204
0.796570 0.242579 0.084264
0.839458 0.292674 0.084327
0.877479 0.348235 0.084397
0.908286 0.397851 0.084465
0.926688 0.450091 0.084538
0.942898 0.487814 0.084612
0.952340 0.528110 0.084689
0.959974 0.570041 0.084881
0.965134 0.609219 0.085098
0.969520 0.634829 0.085436
0.973670 0.660431 0.085940
0.976313 0.686989 0.086500
0.978013 0.713255 0.087208
0.979625 0.738574 0.087782
0.981000 0.763532 0.088873
0.982084 0.786463 0.089956
0.983115 0.801587 0.091028
0.984097 0.815356 0.092497
0.093920 0.096802 0.084157
0.093920 0.096925 0.084157
0.093920 0.096051 0.084157
0.093920 0.094179 0.084157
0.094148 0.092552 0.084157
0.095539 0.092014 0.084157
0.098994 0.091825 0.084157
0.106486 0.091971 0.084157
0.133877 0.093344 0.084157
0.204927 0.096466 0.084157
0.316011 0.105802 0.084157
0.432742 0.117700 0.084157
0.533133 0.136384 0.084157
0.621351 0.169689 0.084157
0.708965 0.210487 0.084189
0.770972 0.263123 0.084248
0.822367 0.309021 0.084312
0.862611 0.368277 0.084379
0.898711 0.410745 0.084447
0.921106 0.463064 0.084520
0.938756 0.498589 0.084593
0.949122 0.541101 0.084672
0.957735 0.582403 0.084834
0.963539 0.616667 0.085046
0.968059 0.642064 0.085333
0.972327 0.667896 0.085838
0.975750 0.694266 0.086372
0.977495 0.720196 0.087049
0.979147 0.745323 0.087713
0.980672 0.770117 0.088680
0.981780 0.791979 0.089766
0.982834 0.805225 0.090851
0.983837 0.818872 0.092198
0.093920 0.121796 0.084157
0.093920 0.122196 0.084157
0.093920 0.120901 0.084157
0.093990 0.113397 0.084157
0.094259 0.105488 0.084157
0.096948 0.099395 0.084157
0.102078 0.096721 0.084157
0.111972 0.096359 0.084157
0.128480 0.096681 0.084157
0.186388 0.103460 0.084157
0.278477 0.113931 0.084157
0.401486 0.126819 0.084157
0.496361 0.153260 0.084157
0.587480 0.187290 0.084157
0.672392 0.234218 0.084177
0.750934 0.284638 0.084234
0.804285 0.334023 0.084297
0.846613 0.386385 0.084362
0.883960 0.434702 0.084430
0.912764 0.477991 0.084502
0.929459 0.514330 0.084573
0.945283 0.556054 0.084653
0.954404 0.597336 0.084782
0.961451 0.625593 0.084994
0.966386 0.650745 0.085225
0.970784 0.676868 0.085724
0.974940 0.703023 0.086223
0.976893 0.728531 0.086876
0.978591 0.753459 0.087687
0.980200 0.777808 0.088461
0.981425 0.797105 0.089549
0.982504 0.809610 0.090648
0.983530 0.823110 0.091854
0.093920 0.190803 0.084157
0.093920 0.192004 0.084157
0.093920 0.183949 0.084157
0.094069 0.164272 0.084157
0.095122 0.142120 0.084157
0.098427 0.127485 0.084157
0.105085 0.119894 0.084157
0.117107 0.116639 0.084157
0.138391 0.115675 0.084157
0.180462 0.116750 0.084157
0.255760 0.124620 0.084157
0.362205 0.145518 0.084157
0.464480 0.177190 0.084157
0.557536 0.215600 0.084157
0.641671 0.264674 0.084167
0.727227 0.307281 0.084223
0.780841 0.364835 0.084284
0.829308 0.406225 0.084345
0.868523 0.457162 0.084415
0.902631 0.492393 0.084485
0.923666 0.532942 0.084556
0.940728 0.573681 0.084634
0.950803 0.610901 0.084728
0.959092 0.636001 0.084944
0.964550 0.661204 0.085170
0.969079 0.687353 0.085603
0.973356 0.713264 0.086110
0.976222 0.738284 0.086733
0.977968 0.762987 0.087519
0.979621 0.785811 0.088222
0.981024 0.801170 0.089314
0.982131 0.814737 0.090425
0.983183 0.828070 0.091498
0.093920 0.303823 0.084157
0.093920 0.301215 0.084157
0.093920 0.287797 0.084157
0.094145 0.263919 0.084157
0.095963 0.231009 0.084157
0.100575 0.201275 0.084157
0.109044 0.180093 0.084157
0.123605 0.166404 0.084157
0.150850 0.158586 0.084157
0.195812 0.156452 0.084157
0.252897 0.159477 0.084157
0.339592 0.176662 0.084157
0.441357 0.209350 0.084157
0.532223 0.252586 0.084157
0.613550 0.294322 0.084161
0.695152 0.343580 0.084216
0.766806 0.390561 0.084274
0.812712 0.437599 0.084332
0.853413 0.478184 0.084401
0.889999 0.513217 0.084469
0.916636 0.553862 0.084540
0.932100 0.594146 0.084616
0.947049 0.623160 0.084693
0.955905 0.647914 0.084894
0.962496 0.673509 0.085115
0.967257 0.699364 0.085481
0.971654 0.724725 0.085995
0.975497 0.749461 0.086584
0.977291 0.773912 0.087332
0.978989 0.794977 0.087973
0.980585 0.807099 0.089079
0.981721 0.820599 0.090189
0.982799 0.833648 0.091275
0.093920 0.410750 0.084157
0.093920 0.407431 0.084157
0.093974 0.396247 0.084157
0.094219 0.375586 0.084157
0.096768 0.343855 0.084157
0.102469 0.308026 0.084157
0.113712 0.283828 0.084157
0.130352 0.261171 0.084157
0.163972 0.243043 0.084157
0.210543 0.233278 0.084157
0.269995 0.231002 0.084157
0.340377 0.235366 0.084157
0.423506 0.255551 0.084157
0.510510 0.292041 0.084157
0.589730 0.334924 0.084160
0.667473 0.381164 0.084212
0.744042 0.420679 0.084267
0.796845 0.466233 0.084325
0.838280 0.498624 0.084390
0.875784 0.538466 0.084455
0.907085 0.577576 0.084527
0.926111 0.612557 0.084599
0.942618 0.637026 0.084677
0.952305 0.661732 0.084848
0.960100 0.687413 0.085063
0.965365 0.712932 0.085371
0.969873 0.737640 0.085882
0.974137 0.762077 0.086437
0.976575 0.784842 0.087145
0.978317 0.800589 0.087729
0.979968 0.813907 0.088839
0.981281 0.827189 0.089948
0.982387 0.839916 0.091046
0.093920 0.501217 0.084157
0.093920 0.498071 0.084157
0.094057 0.489189 0.084157
0.094508 0.475517 0.084157
0.097531 0.453338 0.084157
0.104252 0.420273 0.084157
0.116520 0.394254 0.084157
0.138176 0.371475 0.084157
0.177880 0.348419 0.084157
0.224725 0.331007 0.084157
0.287047 0.321738 0.084157
0.356483 0.319956 0.084157
0.426981 0.324932 0.084157
0.489613 0.341920 0.084157
0.570544 0.381840 0.084163
0.647046 0.416403 0.084212
0.726046 0.460622 0.084265
0.775797 0.491652 0.084320
0.824153 0.528203 0.084383
0.862553 0.566127 0.084446
0.897830 0.604481 0.084516
0.920427 0.628644 0.084586
0.938224 0.652569 0.084663
0.948727 0.677722 0.084807
0.957445 0.702972 0.085015
0.963447 0.727745 0.085270
0.968056 0.752061 0.085775
0.972417 0.776159 0.086294
0.975833 0.796068 0.086964
0.977618 0.808084 0.087702
0.979310 0.821457 0.088604
0.980820 0.834390 0.089709
0.981952 0.846875 0.090818
0.093959 0.587646 0.084157
0.094001 0.584844 0.084157
0.094139 0.575200 0.084157
0.095234 0.559014 0.084157
0.098563 0.537927 0.084157
0.105912 0.513257 0.084157
0.120845 0.490159 0.084157
0.146587 0.471845 0.084157
0.190738 0.452722 0.084157
0.243400 0.433728 0.084157
0.309227 0.417952 0.084157
0.372465 0.410659 0.084157
0.439000 0.410123 0.084157
0.497565 0.414838 0.084157
0.555813 0.427599 0.084171
0.629232 0.464041 0.084217
0.704504 0.491747 0.084267
0.767555 0.525424 0.084320
0.811630 0.561114 0.084380
0.850701 0.597703 0.084442
0.885765 0.623407 0.084509
0.913073 0.646593 0.084576
0.929289 0.670757 0.084652
0.944975 0.695512 0.084773
0.954091 0.720099 0.084981
0.961238 0.744137 0.085208
0.966239 0.768031 0.085680
0.970685 0.789560 0.086180
0.974901 0.803248 0.086821
0.976905 0.816651 0.087633
0.978634 0.829721 0.088381
0.980274 0.842274 0.089480
0.981502 0.854519 0.090597
0.094055 0.646925 0.084157
0.094092 0.645394 0.084157
0.094224 0.640071 0.084157
0.095985 0.630942 0.084157
0.099992 0.618715 0.084157
0.108240 0.604219 0.084157
0.123768 0.580004 0.084157
0.153931 0.556680 0.084157
0.200525 0.535688 0.084157
0.257049 0.517571 0.084157
0.324123 0.503899 0.084157
0.394454 0.495076 0.084157
0.451183 0.491762 0.084157
0.510970 0.491920 0.084175
0.564258 0.495289 0.084200
0.617693 0.503313 0.084227
0.687058 0.531830 0.084273
0.752360 0.564091 0.084323
0.800441 0.597949 0.084382
0.839204 0.622135 0.084441
0.874731 0.644154 0.084506
0.905342 0.667162 0.084570
0.924601 0.691099 0.084645
0.941090 0.715157 0.084748
0.950870 0.738691 0.084954
0.959036 0.762193 0.085174
0.964459 0.784289 0.085600
0.968974 0.800029 0.086099
0.973261 0.812904 0.086711
0.976191 0.825982 0.087486
0.977953 0.838585 0.088177
0.979626 0.850860 0.089273
0.981044 0.862845 0.090390
0.094150 0.701408 0.084157
0.094186 0.699960 0.084157
0.094670 0.694900 0.084157
0.096774 0.686141 0.084157
0.101464 0.674239 0.084157
0.111039 0.660131 0.084157
0.127083 0.645515 0.084157
0.161366 0.631138 0.084157
0.209910 0.617639 0.084157
0.269626 0.605659 0.084157
0.337600 0.590492 0.084157
0.409290 0.578711 0.084170
0.462443 0.571268 0.084188
0.522368 0.568125 0.084208
0.573535 0.569094 0.084230
0.625979 0.573890 0.084257
0.678476 0.582178 0.084288
0.741939 0.606008 0.084330
0.788252 0.625690 0.084387
0.829291 0.646062 0.084443
0.865014 0.667714 0.084507
0.898369 0.690425 0.084569
0.919978 0.713498 0.084642
0.936930 0.736239 0.084733
0.947834 0.759087 0.084936
0.956372 0.781171 0.085150
0.962666 0.798224 0.085537
0.967313 0.810391 0.086033
0.971657 0.823358 0.086618
0.975486 0.835938 0.087361
0.977278 0.848174 0.087999
0.978980 0.860147 0.089096
0.980585 0.871818 0.090204
0.094244 0.754626 0.084157
0.094360 0.753363 0.084157
0.095495 0.748934 0.084157
0.097580 0.741203 0.084157
0.102935 0.730562 0.084158
0.113907 0.717734 0.084160
0.131547 0.703347 0.084164
0.168867 0.688497 0.084168
0.218262 0.674156 0.084175
0.280903 0.661066 0.084184
0.349818 0.650122 0.084194
0.419649 0.641604 0.084208
0.472748 0.635429 0.084223
0.531957 0.631706 0.084241
0.582680 0.630429 0.084265
0.634378 0.631502 0.084290
0.686355 0.634764 0.084318
0.738377 0.640019 0.084350
0.776552 0.653031 0.084396
0.820903 0.673186 0.084450
0.856616 0.694234 0.084511
0.889633 0.715838 0.084571
0.914443 0.737392 0.084642
0.929477 0.759261 0.084729
0.944704 0.780624 0.084927
0.953580 0.797643 0.085135
0.960730 0.809332 0.085495
0.965725 0.822065 0.085986
0.970111 0.834496 0.086548
0.974289 0.846604 0.087261
0.976618 0.858487 0.087854
0.978345 0.870135 0.088947
0.979988 0.878490 0.090045
0.094961 0.799032 0.084197
0.095266 0.798527 0.084197
0.096395 0.796746 0.084197
0.098803 0.791953 0.084198
0.104478 0.783609 0.084199
0.115761 0.772930 0.084201
0.135910 0.759632 0.084204
0.176078 0.745712 0.084209
0.225554 0.731940 0.084215
0.291957 0.718996 0.084222
0.360677 0.707271 0.084232
0.428879 0.697284 0.084245
0.482784 0.689465 0.084261
0.540826 0.683993 0.084280
0.591351 0.680936 0.084301
0.642551 0.680270 0.084324
0.694225 0.681899 0.084352
0.742954 0.685672 0.084384
0.774444 0.691412 0.084419
0.813918 0.703146 0.084461
0.849497 0.722767 0.084520
0.881875 0.742774 0.084578
0.908813 0.763307 0.084646
0.925947 0.783121 0.084735
0.941685 0.798512 0.084928
0.951005 0.809989 0.085131
0.958924 0.822336 0.085476
0.964229 0.834456 0.085958
0.968642 0.846323 0.086502
0.972853 0.858019 0.087191
0.975980 0.869523 0.087744
0.977728 0.877997 0.088831
0.979392 0.884688 0.089916
0.095881 0.827597 0.084235
0.096199 0.827020 0.084235
0.097281 0.824984 0.084235
0.100453 0.821379 0.084236
0.106119 0.816306 0.084237
0.118489 0.810005 0.084240
0.140648 0.802812 0.084243
0.182882 0.796623 0.084248
0.232157 0.786259 0.084255
0.305154 0.775052 0.084263
0.369978 0.763253 0.084273
0.436938 0.752931 0.084286
0.492992 0.744413 0.084300
0.548781 0.737918 0.084317
0.599296 0.733571 0.084336
0.650213 0.731412 0.084362
0.701782 0.731408 0.084390
0.747437 0.733472 0.084419
0.779148 0.737475 0.084451
0.813707 0.743262 0.084489
0.842975 0.752871 0.084531
0.875248 0.771747 0.084589
0.903912 0.789110 0.084654
0.922788 0.801053 0.084752
0.938975 0.812637 0.084938
0.948664 0.824422 0.085137
0.956833 0.836045 0.085478
0.962779 0.847534 0.085951
0.967265 0.858921 0.086481
0.971496 0.870177 0.087151
0.975373 0.878311 0.087724
0.977136 0.884859 0.088752
0.978816 0.890949 0.089823
0.096846 0.855139 0.084276
0.097131 0.854642 0.084277
0.098418 0.852886 0.084277
0.102116 0.849763 0.084278
0.108606 0.845340 0.084280
0.121771 0.839798 0.084282
0.145703 0.833399 0.084286
0.189359 0.826420 0.084290
0.243876 0.819121 0.084296
0.312477 0.811921 0.084304
0.379962 0.805112 0.084314
0.443857 0.799568 0.084325
0.501829 0.795494 0.084339
0.555662 0.789259 0.084357
0.606281 0.784610 0.084379
0.655420 0.781686 0.084402
0.708769 0.780506 0.084427
0.751660 0.781041 0.084454
0.783681 0.783218 0.084488
0.816259 0.786937 0.084523
0.843700 0.792080 0.084560
0.869648 0.797252 0.084604
0.899695 0.806617 0.084666
0.919737 0.817518 0.084779
0.934385 0.828560 0.084958
0.946515 0.839489 0.085154
0.954689 0.850448 0.085504
0.961256 0.861389 0.085965
0.965988 0.872108 0.086487
0.970228 0.879540 0.087145
0.974288 0.885733 0.087721
0.976574 0.891703 0.088711
0.978267 0.897552 0.089768
0.097816 0.878419 0.084316
0.098226 0.878119 0.084316
0.100201 0.877055 0.084316
0.103841 0.875155 0.084317
0.111614 0.872447 0.084319
0.123890 0.867804 0.084322
0.150623 0.862026 0.084325
0.194836 0.855684 0.084329
0.250124 0.849054 0.084335
0.318952 0.842410 0.084344
0.389843 0.836011 0.084355
0.449706 0.830086 0.084368
0.509079 0.824764 0.084383
0.561399 0.820251 0.084400
0.612157 0.816695 0.084419
0.661188 0.814177 0.084440
0.714992 0.812736 0.084466
0.754370 0.812380 0.084495
0.787872 0.813087 0.084526
0.818662 0.814811 0.084558
0.845788 0.817488 0.084596
0.870992 0.821045 0.084639
0.895785 0.825403 0.084683
0.916559 0.834820 0.084815
0.929819 0.844977 0.084987
0.944312 0.855257 0.085181
0.952762 0.865610 0.085552
0.959873 0.874671 0.086001
0.964818 0.881527 0.086521
0.969055 0.887394 0.087172
0.973120 0.893185 0.087723
0.976046 0.898885 0.088712
0.977748 0.904483 0.089754
0.099513 0.892995 0.084357
0.100074 0.892778 0.084357
0.102010 0.892007 0.084358
0.105549 0.890627 0.084359
0.114726 0.888649 0.084361
0.127067 0.886132 0.084364
0.155406 0.883170 0.084368
0.199834 0.879815 0.084374
0.255979 0.875620 0.084381
0.324617 0.871177 0.084389
0.398350 0.865125 0.084399
0.454576 0.859417 0.084411
0.515045 0.854236 0.084425
0.566125 0.849734 0.084441
0.617038 0.846031 0.084459
0.666389 0.843214 0.084482
0.720315 0.841338 0.084507
0.757948 0.840429 0.084534
0.791582 0.840488 0.084562
0.820822 0.841491 0.084597
0.847699 0.843396 0.084635
0.872491 0.846150 0.084675
0.896958 0.849688 0.084746
0.914128 0.853944 0.084871
0.927636 0.862093 0.085026
0.942372 0.871732 0.085217
0.951047 0.878451 0.085622
0.958629 0.884342 0.086056
0.963755 0.889924 0.086580
0.967981 0.895471 0.087233
0.972041 0.900964 0.087730
0.975556 0.906387 0.088755
0.977262 0.910765 0.089781
0.101437 0.906472 0.084399
0.101953 0.906282 0.084400
0.103855 0.905610 0.084400
0.108059 0.904402 0.084402
0.116480 0.902666 0.084404
0.131339 0.900445 0.084407
0.160845 0.897814 0.084411
0.204784 0.894869 0.084416
0.261440 0.891717 0.084423
0.329561 0.888474 0.084431
0.403854 0.885253 0.084440
0.458303 0.882162 0.084452
0.519046 0.879114 0.084467
0.569887 0.876042 0.084484
0.620934 0.873429 0.084503
0.670581 0.871159 0.084524
0.724555 0.868961 0.084547
0.763982 0.867631 0.084572
0.794703 0.867187 0.084604
0.822667 0.867621 0.084638
0.849353 0.868911 0.084674
0.873805 0.871019 0.084731
0.897997 0.873228 0.084846
0.914710 0.875704 0.084964
0.926531 0.878627 0.085097
0.940676 0.882947 0.085300
0.949532 0.888152 0.085712
0.957197 0.893386 0.086132
0.962729 0.898627 0.086665
0.967005 0.903853 0.087326
0.971054 0.908604 0.087836
0.974949 0.912747 0.088839
0.976810 0.916834 0.089850
0.103332 0.916780 0.084439
0.103853 0.916647 0.084439
0.105673 0.916175 0.084440
0.111348 0.915324 0.084441
0.120122 0.914097 0.084443
0.135674 0.912520 0.084447
0.166576 0.910641 0.084451
0.209937 0.908521 0.084457
0.266561 0.906107 0.084464
0.333993 0.903162 0.084473
0.407094 0.900207 0.084484
0.461296 0.897334 0.084496
0.521847 0.894631 0.084510
0.572750 0.892176 0.084526
0.623884 0.890034 0.084544
0.673769 0.888261 0.084564
0.727803 0.886898 0.084588
0.766892 0.885972 0.084616
0.796924 0.885502 0.084647
0.824138 0.885491 0.084678
0.850689 0.885936 0.084733
0.874874 0.886822 0.084838
0.898727 0.888128 0.084946
0.915181 0.889830 0.085065
0.926730 0.891897 0.085200
0.939993 0.894300 0.085463
0.948201 0.897810 0.085820
0.955798 0.902692 0.086225
0.961707 0.907437 0.086774
0.966124 0.911394 0.087450
0.970156 0.915335 0.087984
0.974040 0.919245 0.088963
0.976394 0.923114 0.089960
0.105231 0.926439 0.084480
0.105735 0.926324 0.084481
0.108472 0.925912 0.084482
0.114728 0.925169 0.084483
0.123403 0.924095 0.084486
0.140482 0.922709 0.084489
0.172449 0.921049 0.084494
0.214846 0.919167 0.084500
0.271389 0.917123 0.084507
0.337959 0.914983 0.084516
0.409809 0.912813 0.084526
0.463642 0.910681 0.084538
0.523920 0.908649 0.084551
0.574789 0.906775 0.084566
0.625945 0.904710 0.084586
0.675988 0.902953 0.084608
0.729974 0.901547 0.084633
0.767457 0.900525 0.084659
0.798086 0.899906 0.084687
0.825198 0.899701 0.084749
0.851470 0.899912 0.084844
0.875647 0.900533 0.084942
0.899161 0.901549 0.085050
0.915505 0.902944 0.085174
0.926855 0.904693 0.085387
0.940038 0.906771 0.085687
0.947780 0.908691 0.086001
0.954564 0.911161 0.086380
0.960797 0.914852 0.086909
0.965334 0.918553 0.087604
0.969345 0.922251 0.088173
0.973214 0.925932 0.089127
0.976012 0.928438 0.090109
0.107725 0.931437 0.084521
0.108642 0.931393 0.084521
0.111932 0.931237 0.084522
0.116754 0.930955 0.084524
0.125737 0.930547 0.084526
0.145738 0.929980 0.084530
0.178331 0.929144 0.084535
0.219370 0.928190 0.084540
0.275955 0.927146 0.084547
0.341519 0.925409 0.084556
0.412066 0.923449 0.084566
0.465419 0.921505 0.084578
0.525344 0.919634 0.084594
0.576080 0.917886 0.084611
0.627183 0.916307 0.084631
0.677289 0.914938 0.084652
0.730845 0.913810 0.084675
0.767788 0.912950 0.084700
0.798772 0.912376 0.084777
0.825825 0.912101 0.084862
0.851942 0.912130 0.084951
0.876088 0.912462 0.085049
0.899392 0.913091 0.085164
0.915651 0.914007 0.085343
0.926887 0.915195 0.085619
0.940015 0.916641 0.085913
0.947718 0.918324 0.086213
0.954256 0.920227 0.086630
0.959991 0.922407 0.087112
0.964629 0.925863 0.087700
0.968616 0.928291 0.088399
0.972466 0.930237 0.089327
0.975665 0.931731 0.090298
0.111256 0.934783 0.084559
0.112175 0.934767 0.084559
0.115340 0.934712 0.084560
0.120621 0.934612 0.084562
0.130364 0.934380 0.084564
0.150894 0.933919 0.084568
0.184173 0.933363 0.084573
0.223774 0.932725 0.084580
0.280262 0.932025 0.084588
0.344719 0.931281 0.084598
0.413924 0.930516 0.084610
0.466697 0.929630 0.084623
0.526192 0.928652 0.084638
0.576697 0.927730 0.084655
0.627667 0.926873 0.084673
0.677734 0.925574 0.084693
0.731124 0.924482 0.084743
0.767892 0.923621 0.084814
0.798985 0.923011 0.084890
0.826011 0.922667 0.084970
0.852083 0.922595 0.085061
0.876170 0.922799 0.085166
0.899398 0.923277 0.085327
0.915595 0.924023 0.085580
0.926810 0.925025 0.085854
0.939911 0.926273 0.086135
0.947596 0.927389 0.086501
0.954100 0.928358 0.086903
0.959823 0.929440 0.087447
0.964041 0.930507 0.087763
0.967962 0.931866 0.088660
0.971791 0.933271 0.089575
0.975349 0.934585 0.090522
0.114846 0.936633 0.084600
0.115436 0.936596 0.084600
0.117700 0.936461 0.084601
0.123651 0.936217 0.084603
0.134980 0.935936 0.084606
0.155919 0.935772 0.084610
0.189960 0.935574 0.084616
0.228058 0.935345 0.084623
0.284140 0.935093 0.084631
0.347598 0.934824 0.084641
0.415430 0.934545 0.084652
0.467535 0.933890 0.084665
0.526531 0.933221 0.084679
0.576713 0.932584 0.084695
0.627469 0.931995 0.084736
0.677390 0.931469 0.084795
0.730850 0.931020 0.084857
0.767780 0.930657 0.084925
0.798736 0.930389 0.084997
0.825757 0.930224 0.085084
0.851818 0.930165 0.085179
0.875880 0.930214 0.085335
0.899164 0.930372 0.085568
0.915319 0.930638 0.085822
