kodachrome64/Kodachrome64_Classic_IlfochromeM.cube
TITLE "Kodachrome 64 Classic IlfochromeM"
# Adobe RGB in/out. REPLACES AgX. Kodachrome 64 Classic IlfochromeM.
LUT_3D_SIZE 33
DOMAIN_MIN 0.0 0.0 0.0
DOMAIN_MAX 1.0 1.0 1.0
0.117094 0.082435 0.080060
0.119624 0.084153 0.081207
0.127593 0.087399 0.081800
0.140456 0.092676 0.083090
0.156696 0.099918 0.085103
0.176819 0.108546 0.087648
0.200675 0.117774 0.090763
0.229186 0.127747 0.093667
0.260523 0.138125 0.096883
0.289583 0.149960 0.100315
0.319161 0.163984 0.104177
0.346168 0.180026 0.108311
0.373584 0.196312 0.112292
0.401464 0.212527 0.116083
0.429128 0.228713 0.120349
0.456594 0.245001 0.124558
0.483876 0.261127 0.129015
0.510986 0.277227 0.133456
0.537936 0.293508 0.137990
0.564736 0.309572 0.142521
0.591394 0.324804 0.147069
0.617917 0.341436 0.151837
0.644314 0.357070 0.156771
0.670590 0.370872 0.162758
0.694839 0.386094 0.169007
0.716708 0.401968 0.175863
0.737469 0.417835 0.182801
0.757181 0.433296 0.189870
0.772800 0.447894 0.196664
0.788175 0.462446 0.203320
0.803320 0.476953 0.209991
0.816206 0.491418 0.216657
0.826321 0.505841 0.223430
0.118245 0.086089 0.081094
0.119729 0.087063 0.081377
0.127713 0.090227 0.081930
0.140560 0.094991 0.083235
0.156795 0.102074 0.085259
0.176908 0.110285 0.087764
0.200766 0.119417 0.090880
0.229278 0.129216 0.093753
0.260590 0.139385 0.096977
0.289642 0.151266 0.100409
0.319212 0.165455 0.104253
0.346211 0.181371 0.108386
0.373622 0.197523 0.112356
0.401499 0.213623 0.116138
0.429160 0.229722 0.120407
0.456623 0.245936 0.124615
0.483903 0.261967 0.129066
0.511011 0.278032 0.133506
0.537959 0.294250 0.138036
0.564757 0.310229 0.142565
0.591414 0.325421 0.147110
0.617936 0.342088 0.151879
0.644331 0.357570 0.156810
0.670606 0.371344 0.162806
0.694852 0.386611 0.169052
0.716720 0.402461 0.175911
0.737480 0.418304 0.182847
0.757190 0.433709 0.189914
0.772807 0.448289 0.196704
0.788182 0.462823 0.203358
0.803327 0.477314 0.210028
0.816210 0.491764 0.216693
0.826325 0.506173 0.223465
0.118738 0.095375 0.081640
0.120210 0.096207 0.081768
0.128140 0.098863 0.082431
0.140930 0.103340 0.083691
0.157151 0.109381 0.085782
0.177228 0.116728 0.088190
0.201094 0.125053 0.091288
0.229606 0.134138 0.094056
0.260829 0.144158 0.097309
0.289850 0.156339 0.100740
0.319395 0.170608 0.104527
0.346362 0.186111 0.108654
0.373762 0.201799 0.112585
0.401624 0.217505 0.116353
0.429274 0.233300 0.120615
0.456728 0.249259 0.124820
0.483999 0.264957 0.129251
0.511100 0.280902 0.133686
0.538042 0.296896 0.138199
0.564834 0.312575 0.142723
0.591485 0.327622 0.147255
0.618003 0.344417 0.152030
0.644395 0.359360 0.156951
0.670666 0.373030 0.162977
0.694900 0.388463 0.169215
0.716764 0.404223 0.176080
0.737521 0.419986 0.183013
0.757219 0.435191 0.190073
0.772835 0.449703 0.196847
0.788209 0.464175 0.203495
0.803352 0.478609 0.210160
0.816227 0.493005 0.216820
0.826340 0.507365 0.223590
0.119182 0.109561 0.082455
0.120970 0.110088 0.082604
0.129088 0.112150 0.083369
0.141596 0.115794 0.084676
0.157798 0.120809 0.086703
0.177811 0.127079 0.089165
0.201695 0.134421 0.091995
0.230210 0.142733 0.094590
0.261267 0.153214 0.097899
0.290234 0.165613 0.101336
0.319731 0.179784 0.105090
0.346642 0.194484 0.109139
0.374018 0.209391 0.113003
0.401855 0.224438 0.116783
0.429484 0.239727 0.120994
0.456920 0.255190 0.125195
0.484175 0.270378 0.129588
0.511263 0.286093 0.134014
0.538193 0.301689 0.138499
0.564975 0.316832 0.143011
0.591618 0.332046 0.147521
0.618127 0.348657 0.152307
0.644512 0.362616 0.157227
0.670776 0.376257 0.163290
0.694988 0.391841 0.169542
0.716843 0.407442 0.176391
0.737596 0.423058 0.183319
0.757274 0.437899 0.190365
0.772887 0.452289 0.197111
0.788257 0.466648 0.203748
0.803398 0.480978 0.210403
0.816257 0.495278 0.217053
0.826369 0.509548 0.223819
0.120191 0.125959 0.083791
0.122343 0.126421 0.083941
0.130392 0.128093 0.084792
0.142556 0.131017 0.086144
0.158749 0.135133 0.087931
0.178676 0.140420 0.090453
0.202589 0.147618 0.092963
0.231110 0.156423 0.095581
0.261921 0.167144 0.098741
0.290806 0.179504 0.102194
0.320232 0.192630 0.105922
0.347059 0.206211 0.109848
0.374401 0.220126 0.113614
0.402201 0.234397 0.117414
0.429798 0.249018 0.121553
0.457206 0.263583 0.125750
0.484439 0.278451 0.130088
0.511507 0.293576 0.134501
0.538420 0.308677 0.138944
0.565186 0.323058 0.143439
0.591815 0.338622 0.147916
0.618313 0.354150 0.152719
0.644686 0.367403 0.157664
0.670941 0.381496 0.163757
0.695120 0.396829 0.170030
0.716962 0.412200 0.176856
0.737708 0.427604 0.183775
0.757355 0.441905 0.190801
0.772964 0.456118 0.197504
0.788330 0.470314 0.204124
0.803466 0.484492 0.210766
0.816301 0.498650 0.217402
0.826411 0.512788 0.224163
0.121929 0.144132 0.085846
0.124190 0.144569 0.086033
0.131975 0.146120 0.086737
0.143794 0.148893 0.087884
0.160003 0.153039 0.089790
0.179828 0.158762 0.091950
0.203787 0.166207 0.094132
0.232320 0.175273 0.096893
0.262802 0.185524 0.099808
0.291577 0.196656 0.103299
0.320909 0.208462 0.107002
0.347621 0.220828 0.110775
0.374918 0.233742 0.114419
0.402667 0.247151 0.118250
0.430221 0.260736 0.122295
0.457594 0.274572 0.126488
0.484795 0.288921 0.130755
0.511836 0.303300 0.135151
0.538725 0.317343 0.139539
0.565471 0.331602 0.144012
0.592082 0.347292 0.148446
0.618563 0.360834 0.153272
0.644922 0.373719 0.158252
0.671163 0.388439 0.164385
0.695298 0.403450 0.170686
0.717122 0.418524 0.177481
0.737859 0.433259 0.184389
0.757466 0.447239 0.191389
0.773068 0.461222 0.198034
0.788428 0.475204 0.204632
0.803559 0.489183 0.211255
0.816362 0.503156 0.217871
0.826468 0.517121 0.224625
0.124232 0.167831 0.088038
0.126533 0.168274 0.088225
0.134057 0.169851 0.088970
0.145353 0.172705 0.090200
0.161550 0.176973 0.091780
0.181267 0.182553 0.093564
0.205295 0.189376 0.095726
0.233850 0.197330 0.098407
0.263915 0.206263 0.101365
0.292553 0.216063 0.104627
0.321765 0.226639 0.108313
0.348334 0.237931 0.111909
0.375574 0.249883 0.115409
0.403258 0.262089 0.119284
0.430759 0.274763 0.123216
0.458085 0.288039 0.127408
0.485248 0.301455 0.131588
0.512254 0.314779 0.135966
0.539114 0.327925 0.140285
0.565834 0.342834 0.144733
0.592421 0.356658 0.149120
0.618881 0.369062 0.153969
0.645221 0.382530 0.159042
0.671446 0.397055 0.165179
0.695524 0.411683 0.171517
0.717326 0.426402 0.178273
0.738052 0.440216 0.185166
0.757606 0.453896 0.192132
0.773200 0.467599 0.198706
0.788553 0.481322 0.205279
0.803677 0.495059 0.211875
0.816439 0.508806 0.218468
0.826541 0.522559 0.225212
0.127068 0.195488 0.090822
0.129252 0.195866 0.090983
0.136448 0.197213 0.091541
0.147613 0.199658 0.092488
0.163374 0.203250 0.093749
0.182989 0.207983 0.095425
0.207115 0.213807 0.097698
0.235704 0.220663 0.100122
0.265266 0.228503 0.103124
0.293740 0.237241 0.106373
0.322808 0.246830 0.109826
0.349202 0.257035 0.113230
0.376373 0.267656 0.116629
0.403979 0.279105 0.120505
0.431414 0.291061 0.124355
0.458685 0.303322 0.128505
0.485800 0.315545 0.132637
0.512765 0.327779 0.136944
0.539588 0.341738 0.141225
0.566276 0.355072 0.145602
0.592834 0.366851 0.150023
0.619270 0.379309 0.154812
0.645587 0.393218 0.160059
0.671792 0.407279 0.166141
0.695801 0.421474 0.172525
0.717574 0.435229 0.179233
0.738286 0.448509 0.186111
0.757777 0.461845 0.192985
0.773361 0.475228 0.199522
0.788705 0.488651 0.206065
0.803821 0.502106 0.212629
0.816533 0.515590 0.219210
0.826630 0.529071 0.225926
0.130304 0.223137 0.093333
0.132262 0.223456 0.093457
0.139035 0.224603 0.093890
0.150138 0.226698 0.094638
0.165684 0.229789 0.096038
0.184982 0.233888 0.097783
0.209243 0.238984 0.099740
0.237884 0.245072 0.102321
0.266858 0.252072 0.105101
0.295140 0.259740 0.108297
0.324040 0.268122 0.111513
0.350229 0.277440 0.114717
0.377318 0.287452 0.118189
0.404833 0.297913 0.121902
0.432191 0.308861 0.125752
0.459396 0.319673 0.129772
0.486454 0.331188 0.133877
0.513370 0.344105 0.138080
0.540150 0.356181 0.142321
0.566800 0.367205 0.146616
0.593325 0.378917 0.151081
0.619730 0.392086 0.155799
0.646021 0.405461 0.161254
0.672201 0.419021 0.167272
0.696129 0.432423 0.173712
0.717869 0.445206 0.180366
0.738565 0.458081 0.187225
0.757980 0.471038 0.193991
0.773552 0.484065 0.200485
0.788886 0.497154 0.206993
0.803992 0.510296 0.213520
0.816645 0.523484 0.220086
0.826735 0.536613 0.226770
0.133757 0.250946 0.095962
0.135730 0.251226 0.096101
0.142012 0.252231 0.096589
0.152856 0.254053 0.097446
0.168340 0.256694 0.098642
0.187428 0.260208 0.100184
0.211634 0.264593 0.102295
0.240221 0.269841 0.104607
0.268690 0.276088 0.107435
0.296755 0.283141 0.110363
0.325463 0.290909 0.113345
0.351416 0.299307 0.116364
0.378412 0.308345 0.119916
0.405821 0.317452 0.123458
0.433090 0.327046 0.127318
0.460220 0.338174 0.131198
0.487212 0.349913 0.135278
0.514072 0.359992 0.139368
0.540802 0.370155 0.143567
0.567408 0.381412 0.147771
0.593894 0.393733 0.152289
0.620265 0.406317 0.156930
0.646524 0.419139 0.162627
0.672677 0.431896 0.168573
0.696509 0.444088 0.175079
0.718212 0.456414 0.181706
0.738889 0.468860 0.188510
0.758216 0.481411 0.195152
0.773774 0.494055 0.201597
0.789095 0.506782 0.208064
0.804190 0.519583 0.214549
0.816775 0.532392 0.221099
0.826858 0.545190 0.227746
0.137449 0.278382 0.098916
0.139206 0.278630 0.099030
0.145030 0.279517 0.099431
0.156052 0.281139 0.100213
0.171234 0.283547 0.101467
0.190224 0.286761 0.103045
0.214227 0.290749 0.104935
0.242688 0.295513 0.107308
0.270763 0.301050 0.109860
0.298586 0.307331 0.112537
0.326921 0.314003 0.115294
0.352765 0.321241 0.118436
0.379656 0.329180 0.121790
0.406946 0.338555 0.125295
0.434115 0.348518 0.129038
0.461158 0.357503 0.132839
0.488077 0.366409 0.136831
0.514872 0.375723 0.140824
0.541546 0.386766 0.144958
0.568102 0.398156 0.149065
0.594544 0.409865 0.153644
0.620875 0.421863 0.158353
0.647099 0.433694 0.164174
0.673219 0.445213 0.170128
0.696943 0.456908 0.176625
0.718603 0.468764 0.183226
0.739258 0.480762 0.189965
0.758485 0.492889 0.196467
0.774028 0.505131 0.202857
0.789335 0.517477 0.209279
0.804417 0.529883 0.215717
0.816923 0.542285 0.222250
0.826997 0.554759 0.228855
0.141335 0.306052 0.102118
0.142948 0.306270 0.102236
0.148953 0.307050 0.102656
0.159634 0.308476 0.103407
0.174338 0.310485 0.104481
0.193277 0.313172 0.106046
0.217088 0.316545 0.107922
0.245429 0.320602 0.110039
0.273045 0.325330 0.112343
0.300632 0.331025 0.114788
0.328547 0.337759 0.117532
0.354276 0.345179 0.120630
0.381052 0.352814 0.123788
0.408210 0.359867 0.127323
0.435266 0.367359 0.130898
0.462213 0.375279 0.134675
0.489049 0.384862 0.138526
0.515772 0.394873 0.142469
0.542383 0.405281 0.146486
0.568883 0.416054 0.150663
0.595275 0.427165 0.155142
0.621562 0.437807 0.160129
0.647746 0.448584 0.165893
0.673830 0.459582 0.171933
0.697432 0.470779 0.178348
0.719043 0.482157 0.184921
0.739674 0.493700 0.191590
0.758788 0.505393 0.197936
0.774313 0.517221 0.204266
0.789605 0.529146 0.210639
0.804672 0.541094 0.217024
0.817089 0.553139 0.223538
0.827155 0.565272 0.230097
0.145186 0.332662 0.105474
0.146989 0.332869 0.105591
0.152921 0.333612 0.106007
0.163324 0.334972 0.106755
0.178039 0.336997 0.107833
0.196567 0.339711 0.109220
0.220206 0.343129 0.110881
0.248436 0.347256 0.112776
0.275558 0.351864 0.114860
0.302891 0.356350 0.117249
0.330346 0.361369 0.120033
0.355950 0.366900 0.122924
0.382600 0.372916 0.126113
0.409612 0.380067 0.129475
0.436544 0.388084 0.132956
0.463385 0.396592 0.136644
0.490129 0.405563 0.140353
0.516773 0.414966 0.144247
0.543313 0.424775 0.148143
0.569752 0.434464 0.152403
0.596089 0.444171 0.156775
0.622327 0.454159 0.162116
0.648467 0.464406 0.167780
0.674511 0.474892 0.173917
0.697977 0.485596 0.180244
0.719534 0.496500 0.186791
0.740137 0.507587 0.193311
0.759125 0.518842 0.199557
0.774632 0.530214 0.205829
0.789905 0.541652 0.212142
0.804957 0.553215 0.218471
0.817275 0.564892 0.224964
0.827330 0.576673 0.231472
0.149975 0.359724 0.109035
0.151589 0.359877 0.109136
0.157392 0.360425 0.109498
0.167574 0.361430 0.110150
0.181921 0.362924 0.111095
0.200564 0.364929 0.112320
0.223566 0.367454 0.113800
0.251702 0.370502 0.115501
0.278297 0.374070 0.117601
0.305361 0.378627 0.120025
0.332315 0.383934 0.122601
0.357787 0.389812 0.125451
0.384301 0.396242 0.128552
0.411153 0.403202 0.131733
0.437951 0.410669 0.135204
0.464676 0.418618 0.138732
0.491320 0.427026 0.142390
0.517876 0.435299 0.146147
0.544340 0.443817 0.150026
0.570710 0.452674 0.154276
0.596987 0.461847 0.158752
0.623170 0.471312 0.164271
0.649262 0.481049 0.169895
0.675262 0.491038 0.176078
0.698578 0.501260 0.182367
0.720075 0.511697 0.188831
0.740648 0.522333 0.195159
0.759498 0.533089 0.201329
0.774983 0.543972 0.207539
0.790237 0.555007 0.213787
0.805271 0.566182 0.220092
0.817480 0.577486 0.226526
0.827524 0.588909 0.232987
0.154706 0.384488 0.112439
0.156407 0.384648 0.112528
0.162038 0.385224 0.112845
0.171985 0.386281 0.113419
0.185998 0.387855 0.114255
0.205050 0.389970 0.115344
0.227893 0.392640 0.116745
0.255205 0.395872 0.118564
0.281257 0.399667 0.120604
0.308042 0.404022 0.122833
0.334453 0.408928 0.125364
0.359785 0.414375 0.128160
0.386153 0.420347 0.131075
0.412834 0.426829 0.134246
0.439486 0.433395 0.137555
0.466086 0.440254 0.140957
0.492621 0.447517 0.144540
0.519081 0.455164 0.148161
0.545462 0.463173 0.152149
0.571758 0.471522 0.156275
0.597969 0.480192 0.161186
0.624094 0.489162 0.166587
0.650132 0.498412 0.172332
0.676084 0.507923 0.178411
0.699236 0.517679 0.184667
0.720668 0.527650 0.191040
0.741208 0.537748 0.197158
0.759906 0.548038 0.203249
0.775367 0.558507 0.209394
0.790600 0.569141 0.215571
0.805615 0.579929 0.221852
0.817705 0.590859 0.228224
0.827736 0.601920 0.234797
0.160034 0.411583 0.115703
0.161550 0.411731 0.115782
0.167034 0.412260 0.116063
0.176716 0.413233 0.116631
0.190666 0.414683 0.117512
0.209768 0.416632 0.118668
0.232845 0.419095 0.120083
0.258891 0.422080 0.121737
0.284430 0.425591 0.123604
0.310928 0.429543 0.125852
0.336756 0.433744 0.128313
0.361942 0.438413 0.130926
0.388157 0.443539 0.133798
0.414655 0.449107 0.136851
0.441149 0.455104 0.139997
0.467614 0.461513 0.143356
0.494032 0.468317 0.146792
0.520390 0.475497 0.150428
0.546680 0.483035 0.154389
0.572897 0.490913 0.158571
0.599037 0.499112 0.163777
0.625097 0.507614 0.169056
0.651078 0.516403 0.174939
0.676978 0.525459 0.180923
0.699951 0.534688 0.187135
0.721312 0.544141 0.193338
0.741817 0.553812 0.199306
0.760349 0.563685 0.205318
0.775786 0.573748 0.211390
0.790996 0.583987 0.217494
0.805989 0.594392 0.223750
0.817949 0.604950 0.230057
0.827967 0.615651 0.236751
0.165378 0.437870 0.119322
0.166945 0.437996 0.119406
0.172251 0.438447 0.119703
0.181790 0.439276 0.120244
0.195466 0.440512 0.121038
0.214512 0.442175 0.122083
0.238084 0.444276 0.123368
0.262800 0.446825 0.124986
0.287721 0.449824 0.126891
0.314013 0.453274 0.129001
0.339222 0.457171 0.131291
0.364257 0.461509 0.133872
0.390311 0.466281 0.136639
0.416614 0.471474 0.139527
0.442941 0.477079 0.142622
0.469262 0.483081 0.145842
0.495555 0.489466 0.149145
0.521803 0.496218 0.152911
0.547996 0.503323 0.156738
0.574127 0.510764 0.161434
0.600190 0.518524 0.166517
0.626182 0.526587 0.171931
0.652100 0.534860 0.177710
0.677945 0.543402 0.183659
0.700725 0.552197 0.189765
0.722009 0.561231 0.195724
0.742476 0.570489 0.201600
0.760829 0.579959 0.207535
0.776238 0.589627 0.213526
0.791423 0.599480 0.219579
0.806394 0.609508 0.225783
0.818213 0.619700 0.232021
0.828217 0.630044 0.238850
0.171136 0.462737 0.122925
0.172558 0.462853 0.123000
0.177801 0.463271 0.123269
0.187049 0.464038 0.123757
0.200933 0.465182 0.124540
0.219382 0.466722 0.125595
0.243013 0.468670 0.126899
0.266923 0.471034 0.128439
0.291403 0.473820 0.130197
0.317292 0.477027 0.132175
0.341848 0.480655 0.134465
0.366728 0.484700 0.136924
0.392614 0.489155 0.139530
0.418710 0.494013 0.142355
0.444861 0.499264 0.145332
0.471029 0.504898 0.148405
0.497188 0.510902 0.151868
0.523319 0.517263 0.155493
0.549409 0.523969 0.159589
0.575448 0.530962 0.164447
0.601429 0.538244 0.169417
0.627348 0.545825 0.174979
0.653200 0.553690 0.180643
0.678985 0.561825 0.186555
0.701557 0.570216 0.192528
0.722759 0.578850 0.198253
0.743184 0.587714 0.204034
0.761345 0.596795 0.209891
0.776725 0.606081 0.215797
0.791883 0.615560 0.221822
0.806829 0.625221 0.227950
0.818498 0.635053 0.234240
0.828486 0.645047 0.241091
0.177059 0.487475 0.126702
0.178524 0.487583 0.126777
0.183557 0.487971 0.127049
0.192796 0.488684 0.127543
0.207001 0.489747 0.128273
0.224412 0.491179 0.129238
0.248028 0.492992 0.130436
0.271244 0.495194 0.131855
0.295290 0.497791 0.133602
0.320759 0.500783 0.135554
0.344629 0.504173 0.137695
0.369352 0.507956 0.140002
0.395063 0.512128 0.142561
0.420943 0.516684 0.145272
0.446908 0.521617 0.148102
0.472915 0.526911 0.151278
0.498933 0.532515 0.154675
0.524940 0.538461 0.158311
0.550920 0.544739 0.162873
0.576861 0.551336 0.167591
0.602755 0.558241 0.172745
0.628595 0.565441 0.178178
0.654377 0.572923 0.183809
0.680098 0.580675 0.189605
0.702447 0.588684 0.195299
0.723562 0.596938 0.200921
0.743943 0.605426 0.206614
0.761898 0.614134 0.212381
0.777246 0.623052 0.218199
0.792376 0.632169 0.224197
0.807296 0.641474 0.230246
0.818803 0.650957 0.236693
0.828774 0.660608 0.243471
0.183255 0.512090 0.130489
0.184603 0.512191 0.130558
0.189693 0.512553 0.130806
0.198744 0.513218 0.131259
0.213081 0.514211 0.131934
0.231053 0.515548 0.132887
0.253238 0.517241 0.134072
0.275707 0.519299 0.135482
0.299368 0.521728 0.137105
0.324409 0.524530 0.138926
0.347635 0.527693 0.140959
0.372182 0.531209 0.143233
0.397657 0.535090 0.145662
0.423312 0.539333 0.148231
0.449081 0.543931 0.151152
0.474918 0.548879 0.154299
0.500787 0.554167 0.157622
0.526664 0.559786 0.161817
0.552528 0.565728 0.166278
0.578366 0.571981 0.171031
0.604168 0.578536 0.176216
0.629925 0.585381 0.181551
0.655632 0.592505 0.187124
0.681285 0.599897 0.192763
0.703397 0.607546 0.198205
0.724418 0.615440 0.203722
0.744753 0.623569 0.209329
0.762487 0.631922 0.215002
0.777803 0.640487 0.220784
0.792902 0.649256 0.226701
0.807794 0.658217 0.232669
0.819128 0.667361 0.239285
0.829081 0.676679 0.245989
0.189782 0.536494 0.134358
0.191179 0.536588 0.134426
0.196029 0.536923 0.134671
0.205745 0.537540 0.135119
0.219072 0.538461 0.135782
0.237982 0.539701 0.136663
0.258553 0.541273 0.137761
0.280349 0.543185 0.139071
0.303629 0.545441 0.140596
0.327961 0.548047 0.142380
0.350870 0.551002 0.144351
0.375190 0.554307 0.146492
0.400393 0.557960 0.148788
0.425813 0.561958 0.151491
0.451379 0.566295 0.154372
0.477039 0.570967 0.157422
0.502752 0.575967 0.161292
0.528491 0.581287 0.165474
0.554234 0.586919 0.169856
0.579963 0.592854 0.174770
0.605667 0.599084 0.179821
0.631337 0.605599 0.185130
0.656965 0.612389 0.190579
0.682546 0.619443 0.195909
0.704406 0.626753 0.201240
0.725327 0.634307 0.206661
0.745613 0.642096 0.212171
0.763114 0.650110 0.217747
0.778394 0.658338 0.223502
0.793461 0.666773 0.229332
0.808323 0.675403 0.235455
0.819474 0.684220 0.242015
0.829408 0.693215 0.248642
0.196489 0.560648 0.138244
0.197807 0.560736 0.138308
0.203281 0.561051 0.138534
0.212699 0.561630 0.138949
0.225283 0.562494 0.139562
0.244331 0.563660 0.140383
0.264007 0.565137 0.141453
0.285145 0.566934 0.142732
0.308068 0.569056 0.144213
0.331552 0.571509 0.145886
0.354255 0.574292 0.147739
0.378347 0.577408 0.149845
0.403270 0.580854 0.152287
0.428447 0.584629 0.154889
0.453801 0.588729 0.157712
0.479275 0.593150 0.161305
0.504826 0.597886 0.165190
0.530422 0.602931 0.169234
0.556036 0.608278 0.173857
0.581652 0.613920 0.178634
0.607254 0.619848 0.183644
0.632831 0.626056 0.188843
0.658376 0.632533 0.194051
0.683881 0.639271 0.199178
0.705474 0.646261 0.204397
0.726291 0.653495 0.209727
0.746524 0.660962 0.215135
0.763777 0.668654 0.220666
0.779020 0.676561 0.226343
0.794053 0.684676 0.232083
0.808885 0.692988 0.238401
0.819840 0.701490 0.244878
0.829754 0.710174 0.251302
0.204234 0.584690 0.142139
0.205707 0.584772 0.142200
0.210866 0.585069 0.142421
0.219434 0.585614 0.142824
0.233266 0.586428 0.143422
0.250679 0.587526 0.144220
0.269611 0.588918 0.145219
0.290098 0.590612 0.146415
0.312678 0.592614 0.147803
0.335286 0.594928 0.149415
0.357787 0.597557 0.151375
0.381649 0.600500 0.153521
0.406283 0.603759 0.155839
0.431209 0.607332 0.158486
0.456345 0.611215 0.161853
0.481627 0.615406 0.165427
0.507009 0.619900 0.169173
0.532454 0.624692 0.173485
0.557936 0.629776 0.177970
0.583432 0.635146 0.182677
0.608927 0.640796 0.187608
0.634408 0.646717 0.192649
0.659865 0.652902 0.197553
0.685134 0.659344 0.202564
0.706602 0.666035 0.207688
0.727308 0.672965 0.212911
0.747486 0.680128 0.218216
0.764478 0.687514 0.223720
0.779682 0.695116 0.229303
0.794679 0.702926 0.235164
0.809477 0.710934 0.241479
0.820227 0.717888 0.247873
0.830120 0.724079 0.254059
0.212113 0.608625 0.146061
0.213434 0.608703 0.146118
0.218069 0.608983 0.146324
0.226635 0.609498 0.146700
0.241090 0.610267 0.147258
0.257102 0.611303 0.148004
0.275300 0.612618 0.148939
0.295367 0.614219 0.150184
0.317446 0.616112 0.151650
0.339157 0.618301 0.153315
0.361460 0.620789 0.155170
0.385091 0.623577 0.157221
0.409430 0.626665 0.159874
0.434099 0.630052 0.162927
0.459009 0.633737 0.166180
0.484093 0.637718 0.169664
0.509300 0.641989 0.173657
0.534589 0.646548 0.177837
0.559931 0.651390 0.182240
0.585303 0.656508 0.186887
0.610686 0.661898 0.191690
0.636066 0.667553 0.196380
0.661432 0.673466 0.201165
0.686393 0.679630 0.206068
0.707789 0.686039 0.211090
0.728379 0.692684 0.216207
0.748500 0.699559 0.221480
0.765216 0.706657 0.226890
0.780378 0.713968 0.232377
0.795338 0.719627 0.238460
0.810102 0.725323 0.244686
0.820635 0.731144 0.250892
0.830505 0.737084 0.256933
0.219618 0.632459 0.150024
0.220864 0.632533 0.150084
0.225415 0.632798 0.150300
0.235443 0.633285 0.150696
0.248265 0.634013 0.151283
0.263560 0.634994 0.152069
0.281100 0.636240 0.153056
0.300782 0.637756 0.154243
0.322365 0.639550 0.155626
0.343157 0.641625 0.157217
0.365269 0.643984 0.159295
0.388670 0.646630 0.161791
0.412709 0.649562 0.164510
0.437114 0.652780 0.167439
0.461792 0.656284 0.170708
0.486672 0.660070 0.174371
0.511697 0.664137 0.178233
0.536825 0.668481 0.182336
0.562023 0.673098 0.186685
0.587266 0.677983 0.191204
0.612532 0.683132 0.195667
0.637807 0.688538 0.200211
0.663077 0.694196 0.204881
0.687713 0.700101 0.209687
0.709036 0.706245 0.214599
0.729504 0.712622 0.219637
0.749564 0.717956 0.224860
0.765991 0.722996 0.230170
0.781110 0.728180 0.235837
0.796031 0.733503 0.241881
0.810759 0.738958 0.248017
0.821063 0.744539 0.253963
0.830911 0.750241 0.259922
0.227776 0.656197 0.154294
0.229307 0.656267 0.154351
0.234717 0.656518 0.154554
0.243657 0.656980 0.154926
0.255494 0.657671 0.155479
0.270113 0.658602 0.156219
0.286949 0.659784 0.157159
0.306332 0.661223 0.158435
0.327233 0.662927 0.160096
0.347341 0.664898 0.162025
0.369210 0.667140 0.164188
0.392382 0.669655 0.166577
0.416115 0.672444 0.169182
0.440252 0.675507 0.172287
0.464692 0.678844 0.175615
0.489361 0.682452 0.179153
0.514199 0.686330 0.182962
0.539161 0.690475 0.187002
0.564210 0.694884 0.191225
0.589318 0.699552 0.195420
0.614464 0.704476 0.199711
0.639630 0.709651 0.204138
0.664801 0.714881 0.208712
0.689097 0.719069 0.213406
0.710342 0.723422 0.218209
0.730682 0.727935 0.223225
0.750680 0.732601 0.228345
0.766803 0.737416 0.233623
0.781878 0.742374 0.239473
0.796757 0.747470 0.245424
0.811447 0.752697 0.251342
0.821513 0.758050 0.257146
0.831336 0.763525 0.263021
0.237420 0.679842 0.158718
0.238884 0.679909 0.158787
0.243423 0.680147 0.159034
0.251444 0.680587 0.159487
0.262665 0.681243 0.160160
0.276682 0.682128 0.161064
0.293099 0.683252 0.162202
0.312019 0.684622 0.163577
0.331904 0.686242 0.165188
0.351797 0.688118 0.167030
0.373368 0.690253 0.169099
0.396222 0.692648 0.171615
0.419646 0.695306 0.174380
0.443509 0.698226 0.177374
0.467707 0.701408 0.180590
0.492160 0.704852 0.184109
0.516806 0.708556 0.187834
0.541595 0.712516 0.191753
0.566491 0.716110 0.195641
0.591461 0.719414 0.199667
0.616482 0.722896 0.203841
0.641534 0.726551 0.208171
0.666602 0.730376 0.212634
0.690543 0.734365 0.217218
