kodachrome64/Kodachrome64_Modern_RadianceIII.cube
TITLE "Kodachrome 64 Modern RadianceIII"
# Adobe RGB in/out. REPLACES AgX. Kodachrome 64 Modern RadianceIII.
LUT_3D_SIZE 9
DOMAIN_MIN 0.0 0.0 0.0
DOMAIN_MAX 1.0 1.0 1.0
0.078336 0.088005 0.085647
0.183201 0.110273 0.088247
0.394422 0.198410 0.100149
0.563204 0.300942 0.123725
0.686972 0.388367 0.154570
0.789187 0.460834 0.190018
0.863035 0.523043 0.221679
0.903860 0.577211 0.250931
0.933140 0.625916 0.278879
0.085837 0.148563 0.087611
0.145042 0.135915 0.088121
0.336826 0.215235 0.096960
0.526477 0.313456 0.119109
0.665678 0.397902 0.150037
0.774659 0.467460 0.186601
0.854590 0.528305 0.219127
0.899986 0.581519 0.249052
0.931506 0.629419 0.277372
0.116852 0.362296 0.096068
0.190816 0.334425 0.096449
0.310903 0.305702 0.099444
0.461482 0.354583 0.114453
0.614989 0.425615 0.142412
0.734698 0.488914 0.178138
0.828253 0.545559 0.212101
0.887777 0.596353 0.243527
0.924707 0.640665 0.272754
0.153289 0.508603 0.111797
0.223802 0.490673 0.111855
0.344755 0.456186 0.113932
0.449212 0.443604 0.121668
0.573423 0.473436 0.140311
0.691315 0.525141 0.172110
0.795300 0.574958 0.205420
0.870799 0.621887 0.237155
0.910930 0.660242 0.266875
0.189061 0.617727 0.131461
0.251832 0.607094 0.131743
0.364365 0.580889 0.133657
0.470105 0.559750 0.139577
0.568885 0.555973 0.151216
0.661690 0.576297 0.173444
0.763480 0.617162 0.203324
0.845610 0.654170 0.233436
0.896251 0.687905 0.262482
0.228799 0.698733 0.151885
0.276553 0.693059 0.152466
0.376589 0.677156 0.155076
0.482550 0.660032 0.161178
0.579733 0.650475 0.171842
0.660343 0.652001 0.187309
0.742379 0.665851 0.207151
0.824911 0.694722 0.234348
0.883598 0.723061 0.261613
0.262881 0.762780 0.173617
0.298064 0.759457 0.174313
0.385208 0.749495 0.177037
0.487511 0.737156 0.182657
0.583923 0.727885 0.191765
0.663733 0.725221 0.204249
0.740926 0.730085 0.220553
0.811356 0.741592 0.239923
0.874210 0.763882 0.264940
0.289308 0.810982 0.192058
0.316547 0.809330 0.192788
0.391818 0.804189 0.195492
0.487792 0.797328 0.200710
0.582746 0.791480 0.208831
0.662273 0.788597 0.220358
0.738853 0.790765 0.235043
0.808491 0.797091 0.251945
0.867626 0.807195 0.272302
0.309890 0.846188 0.206802
0.332061 0.845309 0.207564
0.396867 0.842532 0.210327
0.485178 0.838739 0.215644
0.577573 0.835466 0.223711
0.656067 0.834188 0.234569
0.732520 0.835870 0.247729
0.802789 0.840838 0.264314
0.861985 0.848880 0.282687
0.078383 0.092025 0.190346
0.190273 0.115854 0.193946
0.394423 0.201349 0.201744
0.553793 0.297031 0.210520
0.677615 0.382670 0.227847
0.781480 0.456124 0.247852
0.858517 0.519479 0.270007
0.901713 0.574582 0.291495
0.932264 0.623953 0.311265
0.084982 0.139647 0.154697
0.125964 0.123022 0.120101
0.326210 0.209634 0.163233
0.513877 0.306644 0.194129
0.655595 0.391085 0.218695
0.766880 0.462457 0.242440
0.849712 0.524633 0.266263
0.897848 0.578852 0.289029
0.930636 0.627670 0.309473
0.113636 0.345916 0.191359
0.179260 0.314644 0.169494
0.289907 0.285575 0.146025
0.444124 0.341428 0.167353
0.603912 0.417172 0.199014
0.726915 0.483342 0.228256
0.823463 0.541712 0.255391
0.885689 0.593574 0.281315
0.923228 0.638932 0.303906
0.149509 0.495376 0.199885
0.215456 0.478007 0.191597
0.333676 0.443228 0.175215
0.435609 0.431338 0.170241
0.562596 0.464912 0.187659
0.684014 0.519243 0.215584
0.790874 0.570956 0.243996
0.868673 0.619069 0.271685
0.909562 0.658527 0.296543
0.186228 0.609641 0.207731
0.247174 0.599219 0.204308
0.358759 0.573315 0.196448
0.462755 0.552248 0.192068
0.561179 0.549141 0.196123
0.656287 0.571383 0.211876
0.759229 0.613460 0.237991
0.842894 0.651872 0.264792
0.895071 0.686320 0.290379
0.226350 0.694316 0.216586
0.273972 0.688720 0.215205
0.373445 0.672971 0.211897
0.478663 0.655943 0.210245
0.575922 0.646553 0.213451
0.656535 0.648541 0.222807
0.739440 0.663370 0.238766
0.822886 0.692858 0.263136
0.882684 0.721804 0.287654
0.261462 0.760137 0.225854
0.296569 0.756852 0.225499
0.383377 0.746987 0.224870
0.485329 0.734751 0.225624
0.581830 0.725590 0.229582
0.661526 0.723121 0.237660
0.738924 0.728312 0.249819
0.810063 0.740372 0.266766
0.873603 0.763011 0.289113
0.288468 0.809636 0.234641
0.315634 0.808002 0.234804
0.390751 0.802914 0.235642
0.486570 0.796124 0.237979
0.581607 0.790310 0.242755
0.661080 0.787398 0.250631
0.737759 0.789777 0.262757
0.807704 0.796436 0.277598
0.867092 0.806766 0.294541
0.309398 0.845444 0.242159
0.331545 0.844576 0.242592
0.396282 0.841834 0.244247
0.484535 0.838096 0.247615
0.576998 0.834893 0.253348
0.655493 0.833701 0.262280
0.732023 0.835491 0.273595
0.802465 0.840593 0.287575
0.861815 0.848784 0.302952
0.078456 0.102509 0.401762
0.190468 0.126979 0.403365
0.402604 0.216528 0.409066
0.568594 0.312280 0.401270
0.676075 0.385746 0.386708
0.774791 0.454120 0.385132
0.851814 0.515851 0.388780
0.897931 0.570765 0.394980
0.930449 0.620443 0.402486
0.087827 0.187028 0.402913
0.192675 0.205456 0.397474
0.366181 0.247578 0.368437
0.522566 0.317342 0.364676
0.651631 0.391723 0.368684
0.759220 0.459375 0.375024
0.842678 0.520501 0.382558
0.893989 0.574803 0.390875
0.928809 0.624055 0.399662
0.106252 0.310554 0.340827
0.163335 0.288690 0.308667
0.248162 0.246471 0.243265
0.428466 0.331736 0.293973
0.592224 0.409962 0.326041
0.716292 0.476920 0.347844
0.815442 0.536131 0.364471
0.881605 0.588771 0.378386
0.919977 0.635512 0.390756
0.141236 0.466927 0.354607
0.198798 0.451757 0.338691
0.312086 0.418682 0.301930
0.406983 0.406066 0.277835
0.542089 0.449491 0.295195
0.670058 0.508653 0.321346
0.780301 0.563391 0.343529
0.862184 0.613339 0.362299
0.906328 0.654774 0.378508
0.179142 0.589740 0.356169
0.235814 0.580278 0.348264
0.345627 0.555918 0.327330
0.445454 0.534946 0.306891
0.542362 0.532775 0.298176
0.643494 0.560103 0.308361
0.749018 0.604898 0.329074
0.836189 0.646452 0.348908
0.892043 0.682467 0.367081
0.219667 0.682351 0.352485
0.266969 0.677084 0.348508
0.365097 0.662047 0.337075
0.468203 0.645433 0.324009
0.564191 0.636370 0.315613
0.646196 0.639348 0.315020
0.731594 0.656919 0.323972
0.817393 0.687958 0.341817
0.880157 0.718465 0.359621
0.257198 0.752493 0.347350
0.292215 0.749357 0.345397
0.378112 0.739886 0.339550
0.479132 0.728039 0.332385
0.575826 0.719196 0.327311
0.655184 0.717198 0.326710
0.733091 0.723248 0.331316
0.806338 0.736957 0.340923
0.871828 0.760555 0.357142
0.285857 0.805554 0.341959
0.312841 0.803985 0.341113
0.387513 0.799093 0.338573
0.482889 0.792556 0.335541
0.578194 0.786406 0.333810
0.657493 0.783866 0.334882
0.734441 0.786765 0.339539
0.805297 0.794483 0.347786
0.865447 0.805492 0.359115
0.307833 0.843107 0.336573
0.329904 0.842276 0.336360
0.394428 0.839660 0.335811
0.482507 0.836110 0.335539
0.574991 0.833136 0.336474
0.653695 0.832215 0.339480
0.730464 0.834341 0.345104
0.801444 0.839854 0.353501
0.861274 0.848513 0.364501
0.079510 0.125669 0.585165
0.190827 0.151610 0.585984
0.402740 0.235518 0.588913
0.588818 0.337654 0.594247
0.696469 0.408008 0.564156
0.782226 0.464522 0.538971
0.852221 0.519934 0.525943
0.896455 0.571534 0.518665
0.929241 0.619607 0.514506
0.088301 0.207834 0.585753
0.196923 0.228357 0.586571
0.405074 0.292894 0.589495
0.567011 0.357090 0.570061
0.670568 0.412288 0.540374
0.765560 0.468757 0.525511
0.842550 0.523937 0.517646
0.892344 0.575201 0.513347
0.927098 0.623013 0.510938
0.107609 0.324710 0.512492
0.175903 0.320338 0.494785
0.319161 0.325422 0.466417
0.462581 0.365283 0.466128
0.603305 0.423608 0.477687
0.718241 0.482093 0.486895
0.813368 0.537202 0.492931
0.879375 0.587883 0.496859
0.917527 0.634003 0.499561
0.133730 0.442422 0.485849
0.186016 0.431673 0.469494
0.297695 0.404506 0.425566
0.376873 0.378634 0.375500
0.533230 0.445038 0.416615
0.663626 0.505743 0.443666
0.774024 0.560481 0.462096
0.857314 0.610362 0.474744
0.903510 0.652335 0.483444
0.170801 0.567044 0.489828
0.222434 0.559261 0.480623
0.331122 0.537984 0.453666
0.426839 0.516847 0.422993
0.520318 0.514041 0.404370
0.630819 0.549745 0.418145
0.739414 0.597724 0.438177
0.829745 0.641952 0.454571
0.888949 0.679121 0.467322
0.211016 0.667043 0.485556
0.257905 0.662404 0.480431
0.354700 0.648850 0.464594
0.455578 0.633269 0.444419
0.549850 0.623804 0.428097
0.633235 0.628176 0.421117
0.722346 0.649752 0.427679
0.810980 0.682668 0.442214
0.877177 0.714913 0.455495
0.250880 0.742063 0.475819
0.286190 0.739214 0.472917
0.370982 0.730524 0.463852
0.470745 0.719470 0.451506
0.566695 0.710994 0.440184
0.646786 0.709429 0.433329
0.725251 0.716696 0.432412
0.801516 0.732812 0.437886
0.869511 0.757607 0.449552
0.281835 0.799705 0.463280
0.308778 0.798260 0.461763
0.382867 0.793738 0.456929
0.477678 0.787141 0.450105
0.572915 0.781172 0.443558
0.652500 0.779152 0.439362
0.729781 0.782725 0.438766
0.801885 0.791866 0.441984
0.863159 0.803873 0.448422
0.305449 0.839628 0.449672
0.327410 0.838867 0.448986
0.391629 0.836472 0.446799
0.479479 0.833251 0.443752
0.571851 0.830656 0.441021
0.651056 0.830152 0.439792
0.728175 0.832767 0.440906
0.799938 0.838876 0.444694
0.860478 0.848221 0.450996
0.080560 0.163218 0.740229
0.191364 0.189320 0.740692
0.402943 0.263076 0.742351
0.588915 0.354271 0.745385
0.727097 0.440644 0.740072
0.799684 0.485857 0.694240
0.860448 0.532599 0.665486
0.898335 0.578503 0.646772
0.929250 0.623113 0.632288
0.088970 0.236541 0.740561
0.197445 0.256753 0.741024
0.405276 0.312500 0.742681
0.590034 0.389876 0.745712
0.702312 0.445175 0.715066
0.784372 0.489612 0.678907
0.850584 0.536064 0.656032
0.894072 0.581824 0.640385
0.927019 0.626284 0.627657
0.116234 0.383603 0.726722
0.205918 0.385102 0.715825
0.374078 0.395070 0.687722
0.516598 0.418994 0.661531
0.634013 0.456148 0.644540
0.734876 0.500818 0.633002
0.819863 0.547451 0.624984
0.880502 0.593261 0.618554
0.917106 0.636125 0.612775
0.132814 0.444264 0.618952
0.186915 0.439583 0.606858
0.313856 0.430440 0.575920
0.430097 0.436466 0.554171
0.558799 0.471087 0.558811
0.673773 0.518559 0.572064
0.777446 0.566801 0.582394
0.857161 0.613275 0.588525
0.902468 0.653186 0.591298
0.163981 0.549798 0.603438
0.211880 0.544083 0.594077
0.321296 0.527668 0.566094
0.416235 0.508544 0.530138
0.498015 0.496068 0.496779
0.626190 0.548099 0.525413
0.736043 0.597260 0.546167
0.826786 0.641377 0.560414
0.887119 0.678324 0.569616
0.202534 0.651886 0.599641
0.247912 0.648075 0.593889
0.344599 0.636680 0.576037
0.443854 0.621946 0.551822
0.536066 0.611287 0.529538
0.619688 0.615427 0.517716
0.714179 0.644187 0.527212
0.805806 0.679199 0.541652
0.874766 0.712679 0.553062
0.243871 0.730733 0.589636
0.279059 0.728283 0.586253
0.363223 0.720716 0.575495
0.461865 0.710714 0.560135
0.557222 0.702768 0.544772
0.637899 0.701507 0.533689
0.716743 0.709774 0.529571
0.796666 0.729090 0.534239
0.866220 0.755159 0.543956
0.277127 0.793023 0.574738
0.304031 0.791754 0.572843
0.377499 0.787249 0.566683
0.471615 0.780909 0.557571
0.566693 0.775687 0.547992
0.646992 0.774275 0.540409
0.724589 0.778526 0.536530
0.798060 0.788912 0.536855
0.860986 0.802675 0.541040
0.302548 0.835524 0.557074
0.324378 0.834860 0.556102
0.388254 0.832776 0.552918
0.475806 0.830016 0.548155
0.568169 0.827936 0.543120
0.648000 0.827960 0.539215
0.725538 0.831149 0.537508
0.798208 0.837943 0.538493
0.859580 0.848087 0.542032
0.081649 0.208856 0.861654
0.192086 0.229320 0.861933
0.403218 0.293606 0.862934
0.589047 0.375512 0.864768
0.736866 0.462245 0.867495
0.819372 0.512838 0.831268
0.871549 0.551298 0.793623
0.902939 0.590990 0.763124
0.930432 0.630550 0.740512
0.089806 0.272309 0.861854
0.198149 0.288469 0.862133
0.405549 0.336708 0.863133
0.590165 0.408123 0.864967
0.733158 0.481934 0.863307
0.805483 0.516729 0.817021
0.863540 0.554612 0.783378
0.898619 0.594110 0.756058
0.928659 0.633139 0.735762
0.118811 0.412064 0.862573
0.219024 0.420777 0.862851
0.413788 0.450005 0.863849
0.562635 0.468564 0.830486
0.668573 0.494690 0.798885
0.759211 0.528062 0.771423
0.832837 0.565279 0.749931
0.884738 0.604688 0.733562
0.918852 0.642127 0.720346
0.139472 0.477017 0.769446
0.202150 0.476464 0.762736
0.344844 0.477664 0.744280
0.476015 0.487744 0.725142
0.595743 0.510856 0.713232
0.697118 0.544203 0.707526
0.790550 0.582557 0.704324
0.862340 0.622811 0.701079
0.903621 0.657980 0.696928
0.161864 0.547797 0.712341
0.209529 0.544606 0.705492
0.323614 0.535966 0.684843
0.430673 0.529350 0.659630
0.537200 0.537476 0.645364
0.642241 0.567726 0.649965
0.743582 0.608032 0.660162
0.829343 0.646667 0.667914
0.887293 0.681223 0.672083
0.195808 0.640786 0.699234
0.240102 0.637942 0.694220
0.337112 0.629252 0.678212
0.436927 0.616678 0.655155
0.528852 0.606672 0.629529
0.606458 0.603679 0.606720
0.711334 0.644189 0.627647
0.804227 0.679962 0.643013
0.873752 0.713243 0.651934
0.237154 0.720290 0.689942
0.272231 0.718302 0.686771
0.355928 0.711988 0.676457
0.453874 0.703380 0.661111
0.548980 0.696368 0.644675
0.629724 0.694860 0.629603
0.707983 0.703269 0.622673
0.792569 0.726632 0.629675
0.863565 0.754032 0.639562
0.272232 0.785528 0.676238
0.299096 0.784279 0.674353
0.371971 0.780343 0.668142
0.465503 0.775039 0.658682
0.560575 0.770745 0.648235
0.641630 0.769966 0.638726
0.719400 0.774739 0.632366
0.794187 0.786070 0.631053
0.858947 0.801932 0.634913
0.299385 0.831230 0.658667
0.321076 0.830683 0.657637
0.384607 0.828982 0.654221
0.471829 0.826788 0.648958
0.564300 0.825333 0.643096
0.644844 0.825966 0.637316
0.722838 0.829766 0.633736
0.796450 0.837269 0.633085
0.858711 0.848261 0.635252
0.083037 0.257822 0.928605
0.193002 0.275043 0.928674
0.403567 0.326283 0.928922
0.589214 0.400538 0.929377
0.736974 0.479682 0.930053
0.837448 0.541289 0.919009
0.880324 0.573214 0.889961
0.908881 0.607168 0.864488
0.932388 0.640289 0.836928
0.090777 0.308473 0.928654
0.199041 0.321795 0.928723
0.405896 0.364876 0.928971
0.590332 0.428935 0.929426
0.737692 0.501265 0.930102
0.824406 0.545381 0.910214
0.874457 0.576564 0.883515
0.904611 0.610196 0.857776
0.930611 0.642758 0.832331
0.119744 0.432603 0.928832
0.219875 0.440678 0.928901
0.414126 0.468125 0.929149
0.593854 0.511966 0.929401
0.698333 0.531924 0.905149
0.783758 0.557289 0.882503
0.848238 0.587261 0.859663
0.890780 0.620372 0.836157
0.922183 0.651321 0.817279
0.148165 0.519212 0.892677
0.221317 0.519905 0.889785
0.372719 0.523478 0.880060
0.512750 0.532819 0.865601
0.627318 0.549740 0.845902
0.723125 0.574104 0.829315
0.805813 0.604146 0.815886
0.870424 0.636240 0.804649
0.906602 0.666258 0.794642
0.165645 0.565089 0.822435
0.216749 0.564103 0.818454
0.337378 0.562245 0.806378
0.456729 0.564168 0.791230
0.571030 0.575267 0.777574
0.667133 0.597455 0.771091
0.759421 0.627823 0.769266
0.837006 0.657581 0.768347
0.889499 0.687914 0.766326
0.192839 0.638112 0.791144
0.236939 0.636349 0.787037
0.335608 0.631102 0.773527
0.439756 0.624753 0.754091
0.539671 0.622741 0.735250
0.629672 0.632854 0.725737
0.721947 0.657047 0.729435
0.808426 0.687234 0.736545
0.874698 0.717438 0.741477
0.231730 0.712691 0.776607
0.266813 0.711146 0.773638
0.350399 0.706304 0.763853
0.448512 0.699819 0.748884
0.544514 0.694526 0.732042
0.625625 0.693160 0.716634
0.699566 0.697661 0.704658
0.791231 0.727578 0.716894
0.862728 0.755353 0.725076
0.267654 0.778558 0.762689
0.294484 0.777581 0.760827
0.366858 0.774505 0.754634
0.460014 0.770388 0.744994
0.555320 0.767193 0.733954
0.637143 0.767071 0.723834
0.714794 0.771982 0.716738
0.790476 0.783843 0.714611
0.857181 0.801897 0.718701
0.296208 0.827166 0.745130
0.317758 0.826749 0.744070
0.380957 0.825472 0.740527
0.467897 0.823914 0.734974
0.560555 0.823164 0.728592
0.641870 0.824455 0.722792
0.720318 0.828859 0.718823
0.794825 0.837027 0.717485
0.857930 0.848867 0.718792
0.084792 0.304284 0.960348
0.194116 0.317855 0.960399
0.403994 0.361452 0.960582
0.589418 0.426388 0.960917
0.737105 0.499304 0.961418
0.851292 0.568599 0.959121
0.888021 0.595969 0.940738
0.914784 0.625050 0.924264
0.934591 0.651797 0.903575
0.092038 0.345765 0.960384
0.200127 0.357445 0.960435
0.406319 0.396350 0.960618
0.590535 0.452385 0.960954
0.737823 0.519721 0.961454
0.839286 0.572985 0.954351
0.882475 0.599448 0.937362
0.910644 0.628041 0.920070
0.932839 0.654205 0.900610
0.121140 0.455773 0.960516
0.220910 0.463297 0.960567
0.414539 0.488693 0.960749
0.594516 0.530276 0.961084
0.720410 0.565239 0.954013
0.802275 0.585860 0.939310
0.862421 0.610492 0.925193
0.897143 0.636805 0.906372
0.926179 0.662498 0.890802
0.155884 0.559140 0.949924
0.237785 0.560050 0.948360
0.394709 0.563723 0.943254
0.540805 0.571619 0.935526
0.652909 0.584887 0.925694
0.745837 0.603802 0.910768
0.821189 0.627552 0.897423
0.876976 0.651329 0.885500
0.910532 0.676824 0.874449
0.172578 0.593590 0.906477
0.228723 0.593690 0.904636
0.354006 0.594838 0.898769
0.481420 0.599403 0.890398
0.596099 0.609883 0.881088
0.690430 0.627280 0.873036
0.777153 0.647751 0.865192
0.847130 0.671715 0.856899
0.893012 0.697364 0.849144
0.194587 0.646106 0.872414
0.239493 0.645366 0.870602
0.340828 0.643474 0.862478
0.451089 0.642608 0.849784
0.558625 0.646154 0.837444
0.649970 0.657073 0.829176
0.737820 0.675708 0.825769
0.816772 0.699448 0.824923
0.877319 0.724782 0.824088
0.228688 0.710127 0.850257
0.263935 0.709142 0.848028
0.347998 0.706127 0.840637
0.447667 0.702434 0.829224
0.546801 0.700505 0.816405
0.631898 0.703343 0.805449
0.714078 0.714969 0.800449
0.796285 0.735839 0.802606
0.864579 0.760100 0.806034
0.263924 0.773618 0.835648
0.290734 0.772923 0.834142
0.362795 0.770757 0.829090
0.455935 0.767971 0.821089
0.551916 0.766148 0.811670
0.634784 0.767037 0.802624
0.712445 0.772126 0.795512
0.786542 0.782437 0.791425
0.856540 0.803256 0.796974
0.293262 0.823759 0.820266
0.314653 0.823476 0.819373
0.377586 0.822639 0.816368
0.464324 0.821754 0.811595
0.557257 0.821755 0.805991
0.639361 0.823737 0.800729
0.718265 0.828705 0.796916
0.793504 0.837401 0.795391
0.857399 0.850015 0.796437
0.086421 0.348679 0.975789
0.195431 0.360270 0.975808
0.404499 0.398854 0.975876
0.589661 0.454276 0.976000
0.737261 0.521228 0.976187
0.859086 0.593140 0.976437
0.893718 0.617984 0.967338
0.919658 0.641108 0.955225
0.936571 0.663951 0.941845
0.094009 0.384854 0.975802
0.201409 0.395283 0.975821
0.406820 0.427402 0.975889
0.590777 0.478174 0.976014
0.737979 0.540152 0.976200
0.849155 0.598651 0.974462
0.888545 0.621572 0.965752
0.915700 0.643737 0.952863
0.934866 0.666315 0.940125
0.122769 0.481221 0.975851
0.222134 0.487997 0.975870
0.415028 0.511278 0.975938
0.594754 0.549909 0.976063
0.734498 0.594867 0.975115
0.815065 0.612375 0.967555
0.871838 0.632314 0.957524
0.902710 0.652525 0.945065
0.929190 0.674434 0.934388
0.162752 0.594216 0.974357
0.249595 0.595126 0.973621
0.410363 0.598554 0.971154
0.560637 0.605343 0.967228
0.672059 0.616167 0.961398
0.763919 0.630836 0.951331
0.834376 0.647443 0.941771
0.883041 0.666924 0.933114
0.914481 0.688355 0.923347
0.179752 0.624449 0.950459
0.240468 0.624913 0.949531
0.368907 0.626941 0.946450
0.501369 0.631305 0.941631
0.615561 0.639171 0.935936
0.709813 0.651271 0.930139
0.792774 0.667406 0.922058
0.857173 0.686716 0.913319
0.896842 0.708102 0.905274
0.199676 0.662007 0.925780
0.245891 0.661926 0.924509
0.349510 0.662074 0.920342
0.464856 0.663829 0.914054
0.576598 0.669055 0.907158
0.667096 0.679119 0.900979
0.752549 0.694175 0.896042
0.825861 0.713190 0.892066
0.880610 0.733810 0.888348
0.228738 0.714044 0.903108
0.264153 0.713596 0.902020
0.349207 0.712370 0.898400
0.451490 0.711506 0.892794
0.554506 0.712966 0.886245
0.642482 0.718760 0.880339
0.726003 0.730260 0.876626
0.803654 0.747149 0.875022
0.868114 0.767210 0.874236
0.261530 0.771715 0.890671
0.288348 0.771303 0.889862
0.360376 0.770080 0.886918
0.454000 0.768763 0.882141
0.551282 0.768668 0.876454
0.635824 0.771351 0.870976
0.715621 0.778394 0.865669
0.792551 0.791350 0.863309
0.858153 0.807033 0.864375
0.290781 0.821418 0.879704
0.312029 0.821267 0.879150
0.374765 0.820867 0.877280
0.461414 0.820661 0.874277
0.554730 0.821441 0.870691
0.637640 0.824151 0.866235
0.717067 0.829683 0.862293
0.792827 0.838745 0.860510
0.857224 0.851808 0.861482
