kodachrome64/Kodachrome64_Modern_IlfochromeM.cube
TITLE "Kodachrome 64 Modern IlfochromeM"
# Adobe RGB in/out. REPLACES AgX. Kodachrome 64 Modern IlfochromeM.
LUT_3D_SIZE 33
DOMAIN_MIN 0.0 0.0 0.0
DOMAIN_MAX 1.0 1.0 1.0
0.117094 0.082435 0.080060
0.119523 0.084003 0.080926
0.130502 0.087103 0.081564
0.150981 0.093572 0.082505
0.181533 0.104192 0.084366
0.229921 0.118358 0.087682
0.286694 0.134816 0.091838
0.337655 0.152840 0.095548
0.386655 0.176242 0.099928
0.436820 0.201696 0.104958
0.486538 0.227126 0.110309
0.535650 0.252710 0.115312
0.584046 0.277778 0.120706
0.631654 0.302939 0.126210
0.678422 0.326646 0.131791
0.717925 0.352086 0.137515
0.753829 0.372807 0.143139
0.780649 0.395940 0.148676
0.806266 0.419067 0.154624
0.824889 0.440779 0.161187
0.841048 0.461326 0.168482
0.856492 0.481470 0.176306
0.871299 0.501248 0.184190
0.885509 0.520661 0.192077
0.898258 0.539581 0.199399
0.906471 0.558078 0.206598
0.914330 0.576206 0.213692
0.921856 0.593967 0.220706
0.929070 0.611361 0.227700
0.935988 0.628390 0.234733
0.942627 0.645055 0.242172
0.947200 0.661357 0.249463
0.950144 0.677298 0.256261
0.117941 0.084896 0.080748
0.119102 0.084527 0.080876
0.125735 0.087881 0.081438
0.145104 0.094505 0.082320
0.175324 0.105149 0.084007
0.222135 0.119181 0.087369
0.280214 0.135445 0.091488
0.332579 0.153592 0.095187
0.382126 0.177106 0.099645
0.432974 0.202524 0.104657
0.483212 0.227913 0.110066
0.532731 0.253457 0.115112
0.581455 0.278481 0.120505
0.629332 0.303590 0.126018
0.676325 0.327223 0.131624
0.716394 0.352581 0.137356
0.752445 0.373270 0.142990
0.779689 0.396445 0.148542
0.805397 0.419543 0.154488
0.824347 0.441194 0.161026
0.840557 0.461719 0.168333
0.856047 0.481844 0.176153
0.870895 0.501605 0.184045
0.885140 0.521003 0.191941
0.898046 0.539905 0.199280
0.906277 0.558389 0.206487
0.914153 0.576506 0.213588
0.921694 0.594256 0.220607
0.928920 0.611640 0.227607
0.935850 0.628659 0.234637
0.942499 0.645315 0.242082
0.947144 0.661609 0.249383
0.950091 0.677542 0.256185
0.118542 0.094143 0.081314
0.119354 0.093494 0.081366
0.123576 0.092587 0.081490
0.136099 0.097335 0.081985
0.161092 0.107596 0.083505
0.202700 0.121522 0.086458
0.260203 0.137361 0.090416
0.315722 0.156142 0.094262
0.367574 0.180080 0.098785
0.420255 0.205399 0.103794
0.472025 0.230662 0.109255
0.522793 0.256006 0.114433
0.572550 0.280956 0.119819
0.621294 0.305891 0.125357
0.669024 0.329409 0.131042
0.710868 0.354339 0.136801
0.747584 0.374913 0.142470
0.776303 0.398239 0.148072
0.802326 0.421240 0.154008
0.822426 0.442674 0.160458
0.838815 0.463119 0.167807
0.854468 0.483179 0.175614
0.869457 0.502881 0.183529
0.883828 0.522225 0.191461
0.897291 0.541066 0.198857
0.905588 0.559504 0.206091
0.913521 0.577579 0.213218
0.921114 0.595289 0.220253
0.928386 0.612637 0.227275
0.935357 0.629622 0.234294
0.942044 0.646246 0.241759
0.946941 0.662511 0.249095
0.949903 0.678416 0.255915
0.119096 0.111523 0.081748
0.120008 0.110783 0.081786
0.126168 0.108980 0.081970
0.135157 0.107556 0.082297
0.150391 0.112149 0.083194
0.183320 0.125259 0.085611
0.234309 0.140792 0.089147
0.291731 0.160687 0.093215
0.346745 0.185309 0.097562
0.400671 0.210439 0.102513
0.454174 0.235496 0.107988
0.506511 0.260503 0.113340
0.557668 0.285349 0.118691
0.607654 0.309904 0.124251
0.656483 0.333499 0.130056
0.701114 0.357489 0.135851
0.739069 0.378299 0.141569
0.770324 0.401474 0.147253
0.796878 0.424306 0.153166
0.818999 0.445353 0.159458
0.835701 0.465659 0.166876
0.851636 0.485606 0.174659
0.866873 0.505204 0.182612
0.881464 0.524451 0.190603
0.895450 0.543183 0.198102
0.904341 0.561540 0.205381
0.912378 0.579539 0.212554
0.920062 0.597179 0.219616
0.927417 0.614461 0.226678
0.934463 0.631385 0.233676
0.941217 0.647952 0.241177
0.946571 0.664163 0.248547
0.949562 0.680017 0.255426
0.119575 0.136450 0.082729
0.121507 0.135731 0.082825
0.129260 0.133469 0.083110
0.140378 0.130595 0.083493
0.153036 0.128975 0.083960
0.173820 0.133692 0.085535
0.214875 0.148495 0.088463
0.269956 0.169072 0.092385
0.325812 0.193261 0.096400
0.378453 0.217805 0.101156
0.432782 0.242506 0.106545
0.486196 0.266960 0.112028
0.538524 0.291606 0.117286
0.589686 0.315477 0.122940
0.639652 0.339399 0.128763
0.687788 0.362036 0.134581
0.727291 0.383254 0.140349
0.761952 0.406177 0.146130
0.789189 0.428759 0.152000
0.814121 0.449264 0.158131
0.831249 0.469384 0.165573
0.847570 0.489171 0.173313
0.863151 0.508622 0.181313
0.878047 0.527721 0.189383
0.892307 0.546310 0.197022
0.902528 0.564550 0.204364
0.910711 0.582440 0.211599
0.918528 0.599979 0.218698
0.926001 0.617166 0.225815
0.933153 0.634002 0.232792
0.940003 0.650485 0.240332
0.946028 0.666618 0.247750
0.949059 0.682399 0.254714
0.122233 0.187763 0.085331
0.125095 0.186301 0.085427
0.135043 0.181225 0.085712
0.148412 0.172677 0.086063
0.162987 0.162680 0.086423
0.180005 0.158523 0.087158
0.205706 0.162934 0.088729
0.254445 0.182683 0.092135
0.306392 0.204872 0.095699
0.358124 0.228077 0.100101
0.411333 0.251982 0.105259
0.464702 0.275692 0.110750
0.517430 0.299759 0.115896
0.569257 0.322739 0.121557
0.620035 0.347094 0.127315
0.669688 0.367946 0.133122
0.712921 0.389720 0.138979
0.750800 0.412326 0.144788
0.779602 0.434161 0.150588
0.806318 0.454395 0.156678
0.825603 0.474296 0.163966
0.842384 0.493883 0.171641
0.858379 0.513149 0.179710
0.873647 0.532035 0.187848
0.888242 0.550464 0.195656
0.900173 0.568555 0.203076
0.908540 0.586306 0.210379
0.916523 0.603714 0.217542
0.924146 0.620779 0.224705
0.931434 0.637500 0.231745
0.938408 0.653875 0.239239
0.945086 0.669906 0.246716
0.948396 0.685590 0.253789
0.126245 0.244302 0.088596
0.129817 0.245120 0.088867
0.140429 0.239170 0.089124
0.155402 0.226686 0.089260
0.172310 0.212323 0.089406
0.191136 0.202707 0.089967
0.215022 0.199379 0.091026
0.245719 0.201950 0.092525
0.292905 0.220939 0.095666
0.342234 0.241998 0.099663
0.392505 0.264072 0.104429
0.444531 0.286958 0.109738
0.496622 0.309926 0.114817
0.548313 0.332204 0.120257
0.599303 0.355552 0.125884
0.649398 0.375225 0.131640
0.696303 0.397677 0.137533
0.735665 0.419893 0.143336
0.768593 0.440806 0.149035
0.796004 0.460735 0.155199
0.818985 0.480380 0.162155
0.836259 0.499731 0.169738
0.852705 0.518779 0.177895
0.868386 0.537409 0.186069
0.883360 0.555647 0.194060
0.897326 0.573560 0.201563
0.905906 0.591143 0.208937
0.914082 0.608395 0.216176
0.921882 0.625312 0.223381
0.929331 0.641893 0.230491
0.936451 0.658137 0.237927
0.943263 0.674042 0.245471
0.947578 0.689609 0.252671
0.130699 0.294675 0.092087
0.134194 0.295370 0.092288
0.144968 0.293045 0.092672
0.161293 0.278624 0.092597
0.180520 0.263594 0.092660
0.202270 0.251465 0.092987
0.227366 0.243749 0.093654
0.257267 0.241271 0.094671
0.286976 0.243475 0.096485
0.331374 0.259765 0.099801
0.377643 0.279661 0.104198
0.427311 0.300853 0.109161
0.477791 0.321843 0.114045
0.528491 0.344484 0.119206
0.578973 0.364843 0.124632
0.628928 0.385252 0.130350
0.678140 0.407148 0.136140
0.719650 0.428853 0.141890
0.756718 0.448687 0.147623
0.784764 0.468284 0.153669
0.811666 0.487630 0.160256
0.829424 0.506707 0.167855
0.846324 0.525501 0.175942
0.862430 0.543833 0.184135
0.877797 0.561852 0.192308
0.892478 0.579559 0.199888
0.902870 0.596950 0.207331
0.911258 0.614019 0.214645
0.919252 0.630765 0.221888
0.926879 0.647184 0.229070
0.934164 0.663274 0.236434
0.941127 0.679035 0.244048
0.946617 0.694463 0.251390
0.135873 0.346388 0.095420
0.139138 0.347033 0.095639
0.149870 0.342295 0.095867
0.166730 0.328545 0.095788
0.187660 0.314656 0.095838
0.212687 0.301503 0.096133
0.240994 0.291137 0.096759
0.268962 0.284910 0.097763
0.297578 0.283044 0.099135
0.328180 0.285123 0.101051
0.366949 0.298693 0.104490
0.413685 0.317207 0.109090
0.461895 0.337146 0.113677
0.510900 0.357618 0.118524
0.560205 0.375887 0.123711
0.609416 0.397019 0.129285
0.658237 0.418197 0.134917
0.703046 0.438489 0.140566
0.741677 0.457862 0.146294
0.773095 0.477063 0.152193
0.800510 0.496056 0.158416
0.822134 0.514813 0.166019
0.839456 0.533250 0.173958
0.855967 0.551305 0.182144
0.871720 0.569074 0.190385
0.886765 0.586548 0.198125
0.899507 0.603720 0.205625
0.908114 0.620584 0.213007
0.916312 0.637136 0.220281
0.924128 0.653371 0.227531
0.931588 0.669288 0.234810
0.938715 0.684883 0.242493
0.945527 0.700155 0.249982
0.141534 0.395646 0.099473
0.144349 0.394271 0.099509
0.154738 0.387038 0.099450
0.172065 0.375557 0.099401
0.194272 0.363630 0.099439
0.221081 0.351730 0.099645
0.251567 0.339291 0.100148
0.279660 0.329995 0.101056
0.308192 0.324983 0.102340
0.336788 0.323682 0.103983
0.365584 0.325539 0.106141
0.403510 0.336803 0.109511
0.449201 0.355087 0.113740
0.496087 0.371543 0.118273
0.543713 0.390604 0.123215
0.591668 0.410647 0.128534
0.639638 0.430756 0.133963
0.686938 0.449591 0.139511
0.726328 0.468403 0.145144
0.761468 0.487121 0.150867
0.789235 0.505691 0.156916
0.814645 0.524072 0.164284
0.832327 0.542084 0.172048
0.849197 0.559830 0.180203
0.865303 0.577315 0.188465
0.880691 0.594526 0.196354
0.895404 0.611452 0.203896
0.904724 0.628086 0.211327
0.913126 0.644422 0.218619
0.921134 0.660452 0.225928
0.928774 0.676175 0.233108
0.936069 0.691586 0.240854
0.943040 0.706683 0.248457
0.146900 0.440808 0.103447
0.149973 0.439109 0.103431
0.160239 0.433328 0.103387
0.177464 0.423488 0.103353
0.200653 0.410746 0.103398
0.229291 0.397301 0.103595
0.260485 0.384792 0.104011
0.289017 0.374539 0.104717
0.318082 0.368116 0.105863
0.345262 0.364489 0.107367
0.373684 0.363627 0.109206
0.403870 0.365274 0.111332
0.439476 0.372587 0.114211
0.484120 0.389379 0.118461
0.529800 0.407480 0.123105
0.576210 0.426282 0.128160
0.623037 0.444247 0.133362
0.669988 0.462270 0.138762
0.711774 0.480396 0.144248
0.749072 0.498527 0.149774
0.778219 0.516588 0.155765
0.805208 0.534445 0.162746
0.825156 0.552039 0.170311
0.842317 0.569428 0.178442
0.858723 0.586588 0.186648
0.874413 0.603501 0.194649
0.889424 0.620151 0.202215
0.901165 0.636528 0.209671
0.909763 0.652622 0.216997
0.917959 0.668427 0.224318
0.925776 0.683935 0.231528
0.933239 0.699143 0.239184
0.940368 0.714047 0.246841
0.152866 0.481599 0.107515
0.155769 0.480140 0.107504
0.165806 0.475128 0.107476
0.182943 0.466758 0.107462
0.207188 0.455991 0.107517
0.237439 0.444117 0.107706
0.268066 0.432429 0.108089
0.297391 0.421462 0.108718
0.326765 0.412392 0.109628
0.353505 0.406029 0.110838
0.381754 0.402546 0.112345
0.411148 0.401868 0.114127
0.441384 0.403754 0.116147
0.474797 0.410044 0.119062
0.518582 0.426620 0.123397
0.563330 0.442873 0.128199
0.608753 0.459549 0.133155
0.654573 0.476616 0.138357
0.698037 0.493925 0.143662
0.735607 0.511355 0.148987
0.767776 0.528787 0.154864
0.794841 0.546026 0.161483
0.818138 0.563154 0.168865
0.835510 0.580129 0.176896
0.852148 0.596916 0.185013
0.868084 0.613490 0.193084
0.883349 0.629829 0.200645
0.897515 0.645918 0.208101
0.906294 0.661744 0.215446
0.914664 0.677297 0.222756
0.922651 0.692569 0.229999
0.930275 0.707554 0.237536
0.937560 0.720188 0.245235
0.159258 0.521148 0.111448
0.161986 0.519883 0.111443
0.171728 0.515506 0.111432
0.188592 0.508077 0.111436
0.213246 0.498286 0.111497
0.244053 0.487140 0.111663
0.274581 0.475714 0.111983
0.304578 0.464975 0.112498
0.333673 0.455688 0.113240
0.360940 0.448382 0.114232
0.389312 0.443372 0.115483
0.418309 0.440762 0.117123
0.447927 0.440488 0.119186
0.478323 0.442367 0.121500
0.509878 0.446452 0.124086
0.552940 0.461209 0.128641
0.596842 0.476673 0.133350
0.641345 0.492671 0.138317
0.685914 0.509047 0.143418
0.723455 0.525665 0.148580
0.758138 0.542262 0.154262
0.785120 0.558886 0.160556
0.811337 0.575475 0.167817
0.828931 0.591971 0.175633
0.845726 0.608329 0.183629
0.861843 0.624516 0.191697
0.877308 0.640502 0.199247
0.892147 0.656268 0.206677
0.902787 0.671795 0.214016
0.911314 0.687070 0.221298
0.919454 0.702082 0.228554
0.927230 0.716177 0.235963
0.934661 0.726853 0.243689
0.165694 0.559123 0.115105
0.168453 0.558029 0.115104
0.177854 0.554220 0.115104
0.194435 0.547675 0.115123
0.218895 0.538884 0.115191
0.249953 0.528622 0.115345
0.280300 0.517691 0.115623
0.310803 0.506997 0.116062
0.339665 0.497286 0.116770
0.367559 0.489109 0.117762
0.396294 0.482839 0.119020
0.425200 0.478680 0.120549
0.454474 0.476682 0.122341
0.484327 0.476777 0.124429
0.514877 0.478808 0.126934
0.546159 0.482568 0.129649
0.587170 0.495556 0.133927
0.630285 0.510418 0.138639
0.673925 0.525775 0.143525
0.712674 0.541346 0.148494
0.747999 0.557142 0.153985
0.776213 0.573068 0.160008
0.802305 0.589040 0.167108
0.822711 0.604988 0.174704
0.839583 0.620858 0.182552
0.855813 0.636606 0.190524
0.871417 0.652195 0.198074
0.886416 0.667597 0.205450
0.899305 0.682791 0.212757
0.907966 0.697757 0.219990
0.916242 0.712482 0.227239
0.924153 0.723663 0.234515
0.931717 0.734115 0.242248
0.172425 0.595880 0.118943
0.174951 0.594921 0.118945
0.184123 0.591564 0.118957
0.200708 0.585741 0.118994
0.224424 0.577803 0.119084
0.255538 0.568353 0.119262
0.285494 0.558115 0.119564
0.316331 0.547816 0.120025
0.344924 0.538109 0.120675
0.373509 0.529527 0.121538
0.402594 0.522430 0.122630
0.431592 0.517104 0.123967
0.460745 0.513711 0.125711
0.490274 0.512271 0.127713
0.520339 0.512716 0.129955
0.551033 0.514908 0.132452
0.582381 0.518677 0.135290
0.621239 0.529746 0.139303
0.663616 0.543903 0.143976
0.703029 0.558507 0.148732
0.738108 0.573438 0.154045
0.768220 0.588592 0.159859
0.794072 0.603875 0.166767
0.816943 0.619209 0.174147
0.833816 0.634530 0.181823
0.850090 0.649784 0.189666
0.865773 0.664927 0.197167
0.880876 0.679925 0.204463
0.895414 0.694747 0.211712
0.904675 0.709372 0.218878
0.913064 0.721321 0.226096
0.921091 0.731762 0.233235
0.928773 0.741972 0.240956
0.179389 0.631546 0.122761
0.181875 0.630701 0.122766
0.190771 0.627733 0.122787
0.207594 0.622546 0.122837
0.231434 0.615388 0.122937
0.260845 0.606731 0.123116
0.290346 0.597165 0.123401
0.321293 0.587309 0.123823
0.349712 0.577748 0.124462
0.378788 0.568981 0.125315
0.408161 0.561408 0.126389
0.437350 0.555318 0.127698
0.466541 0.550895 0.129247
0.495931 0.548224 0.131033
0.525692 0.547308 0.133134
0.555952 0.548078 0.135525
0.586779 0.550418 0.138123
0.618195 0.554183 0.140929
0.655122 0.563484 0.144748
0.694882 0.577099 0.149307
0.729577 0.591122 0.154438
0.761180 0.605449 0.160116
0.786702 0.619985 0.166806
0.811689 0.634646 0.173982
0.828496 0.649361 0.181469
0.844749 0.664069 0.189154
0.860450 0.678718 0.196560
0.875605 0.693266 0.203753
0.890220 0.707678 0.210916
0.901487 0.719952 0.218005
0.909965 0.730314 0.225162
0.918088 0.740474 0.232231
0.925869 0.750423 0.239850
0.186333 0.666122 0.126645
0.188854 0.665375 0.126653
0.197410 0.662744 0.126684
0.214235 0.658117 0.126751
0.238478 0.651669 0.126874
0.266010 0.643768 0.127075
0.295050 0.634894 0.127382
0.325769 0.625573 0.127822
0.353987 0.616316 0.128419
0.383382 0.607584 0.129195
0.413010 0.599761 0.130166
0.442423 0.593146 0.131344
0.471743 0.587953 0.132801
0.501129 0.584311 0.134529
0.530742 0.582274 0.136486
0.560717 0.581830 0.138662
0.591154 0.582915 0.141077
0.622107 0.585429 0.143766
0.653589 0.589248 0.146628
0.688107 0.597031 0.150245
0.722334 0.610131 0.155148
0.755078 0.623601 0.160767
0.780209 0.637349 0.167225
0.804892 0.651292 0.174216
0.823663 0.665353 0.181502
0.839840 0.679466 0.189005
0.855506 0.693575 0.196271
0.870660 0.707632 0.203339
0.885306 0.719707 0.210393
0.898440 0.729905 0.217394
0.906983 0.739941 0.224463
0.915179 0.749798 0.231474
0.923040 0.759467 0.238964
0.193683 0.699611 0.130451
0.195986 0.698948 0.130461
0.205143 0.696612 0.130498
0.220622 0.692479 0.130575
0.244654 0.686675 0.130707
0.271060 0.679485 0.130913
0.299530 0.671300 0.131215
0.329493 0.662562 0.131636
0.357783 0.653717 0.132222
0.387375 0.645181 0.132993
0.417188 0.637313 0.133950
0.446811 0.630412 0.135106
0.476299 0.624701 0.136469
0.505765 0.620338 0.138044
0.535344 0.617414 0.139831
0.565166 0.615960 0.141896
0.595339 0.615958 0.144191
0.625939 0.617348 0.146679
0.657008 0.620040 0.149378
0.687902 0.623929 0.152546
0.716265 0.630371 0.156151
0.748525 0.642979 0.161793
0.774568 0.655920 0.168011
0.798890 0.669114 0.174843
0.819334 0.682486 0.181924
0.835389 0.695967 0.189227
0.850974 0.709497 0.196314
0.866083 0.720762 0.203235
0.880715 0.730692 0.210162
0.894874 0.740511 0.217056
0.904148 0.750196 0.224023
0.912395 0.759730 0.230957
0.920316 0.769099 0.238322
0.201352 0.727394 0.134227
0.203909 0.726961 0.134240
0.212651 0.725429 0.134286
0.227553 0.722706 0.134378
0.250688 0.718850 0.134528
0.275959 0.713907 0.134755
0.303834 0.706392 0.135078
0.332948 0.698259 0.135516
0.361183 0.689895 0.136090
0.390847 0.681669 0.136816
0.420762 0.673914 0.137710
0.450547 0.666914 0.138781
0.480201 0.660898 0.140040
0.509789 0.656036 0.141548
0.539410 0.652443 0.143273
0.569177 0.650182 0.145200
0.599195 0.649270 0.147324
0.629549 0.649684 0.149704
0.660299 0.651367 0.152496
0.690377 0.654242 0.155470
0.716940 0.658215 0.158845
0.742822 0.663491 0.163165
0.769723 0.675626 0.169141
0.793660 0.688061 0.175847
0.815503 0.700723 0.182724
0.831402 0.713545 0.189816
0.846868 0.723303 0.196688
0.861895 0.732845 0.203448
0.876476 0.742339 0.210233
0.890613 0.751756 0.217001
0.901484 0.761071 0.223857
0.909760 0.770262 0.230695
0.917722 0.779313 0.237944
0.209538 0.750333 0.137920
0.211858 0.749952 0.137934
0.219679 0.748603 0.137985
0.235556 0.746195 0.138084
0.256604 0.742767 0.138242
0.280772 0.738441 0.138475
0.307998 0.733400 0.138798
0.336186 0.727869 0.139229
0.364254 0.722088 0.139783
0.393876 0.716296 0.140483
0.423801 0.709457 0.141367
0.453685 0.702509 0.142421
0.483474 0.696360 0.143654
0.513188 0.691187 0.145071
0.542890 0.687120 0.146675
0.572669 0.684243 0.148467
0.602617 0.682599 0.150615
0.632818 0.682193 0.153038
0.663341 0.683000 0.155654
0.692707 0.684967 0.158641
0.718883 0.688027 0.162472
0.744190 0.692097 0.166519
0.766089 0.697092 0.170924
0.789146 0.708059 0.177204
0.812147 0.718533 0.183886
0.827867 0.727497 0.190761
0.843189 0.736527 0.197389
0.858103 0.745582 0.203976
0.872603 0.754625 0.210607
0.886686 0.763624 0.217236
0.899005 0.772551 0.223971
0.907291 0.781325 0.230700
0.915275 0.789341 0.237845
0.217108 0.772258 0.141490
0.219204 0.771922 0.141505
0.227032 0.770732 0.141563
0.242872 0.768602 0.141673
0.262358 0.765554 0.141847
0.285477 0.761684 0.142097
0.312043 0.757139 0.142437
0.339246 0.752105 0.142883
0.367053 0.746784 0.143449
0.396529 0.741384 0.144148
0.426373 0.736103 0.144993
0.456283 0.731125 0.145993
0.486159 0.726606 0.147157
0.515979 0.722681 0.148490
0.545772 0.719452 0.150111
0.575600 0.716996 0.151999
0.605536 0.715361 0.154083
0.635657 0.714569 0.156360
0.666031 0.714620 0.159119
0.694804 0.715494 0.162531
0.720660 0.717156 0.166174
0.745716 0.719556 0.170119
0.767057 0.722641 0.174606
0.786338 0.726352 0.179307
0.808146 0.733458 0.185387
0.824761 0.741868 0.192043
0.839920 0.750373 0.198404
0.854701 0.758936 0.204812
0.869096 0.767519 0.211280
0.883100 0.776088 0.217760
0.896709 0.784298 0.224370
0.904999 0.792074 0.230976
0.912988 0.799761 0.238031
0.224326 0.792197 0.145001
0.226752 0.791925 0.145018
0.235621 0.790959 0.145079
0.249591 0.789226 0.145195
0.268006 0.786736 0.145375
0.290114 0.783557 0.145630
0.315979 0.779721 0.145973
0.342157 0.775156 0.146416
0.369624 0.770284 0.146971
0.398863 0.765285 0.147650
0.428542 0.760335 0.148465
0.458401 0.755596 0.149467
0.488305 0.751215 0.150712
0.518195 0.747318 0.152134
0.548068 0.744010 0.153737
0.577957 0.741368 0.155524
0.607915 0.739450 0.157550
0.638007 0.738290 0.160182
0.668292 0.737902 0.163196
0.696594 0.738281 0.166444
0.722201 0.739406 0.169991
0.747055 0.741245 0.174066
0.767913 0.743756 0.178372
0.787010 0.746890 0.182965
0.806016 0.750597 0.187827
0.822050 0.756798 0.193554
0.837038 0.764789 0.199715
0.851672 0.772862 0.205945
0.865945 0.780957 0.212243
0.879851 0.788437 0.218568
0.893386 0.795897 0.225049
0.902888 0.803313 0.231523
0.910868 0.809836 0.238504
0.233234 0.809751 0.148347
0.235614 0.809542 0.148365
0.243355 0.808801 0.148429
0.256111 0.807469 0.148550
0.273504 0.805548 0.148735
0.294801 0.802906 0.148996
0.319813 0.799539 0.149376
0.344938 0.795750 0.149872
0.372057 0.791673 0.150487
0.400927 0.787448 0.151234
0.430362 0.783215 0.152123
0.460097 0.778975 0.153162
0.489965 0.774787 0.154360
0.519878 0.770992 0.155722
0.549803 0.767688 0.157276
0.579746 0.764958 0.159290
0.609740 0.762860 0.161712
0.639832 0.761439 0.164364
0.670074 0.760716 0.167244
0.698023 0.760700 0.170468
0.723444 0.761382 0.174140
0.748144 0.762743 0.178051
0.768611 0.764753 0.182242
0.787554 0.767373 0.186725
0.806400 0.770562 0.191420
0.820960 0.774275 0.196070
0.834511 0.779714 0.201302
0.848991 0.786773 0.207357
0.863132 0.793816 0.213481
0.876928 0.800888 0.219671
0.890374 0.807485 0.226000
0.900959 0.813620 0.232336
0.908917 0.819709 0.239263
0.241586 0.824960 0.151843
0.243542 0.824777 0.151864
0.250419 0.824125 0.151939
0.262361 0.822952 0.152079
0.278841 0.821256 0.152293
0.299387 0.819071 0.152591
0.323547 0.816457 0.152983
0.347679 0.813498 0.153479
0.374340 0.810288 0.154089
0.402759 0.806934 0.154825
0.431882 0.803431 0.155694
0.461422 0.799611 0.156705
0.491192 0.795979 0.157972
0.521075 0.792635 0.159578
0.551013 0.789667 0.161480
0.580989 0.787147 0.163595
0.611015 0.785134 0.165925
0.641121 0.783670 0.168474
0.671347 0.782785 0.171452
0.699052 0.782492 0.174747
0.724344 0.782794 0.178280
0.748932 0.783681 0.182091
0.769109 0.785137 0.186197
0.787927 0.787134 0.190525
0.806641 0.789643 0.194895
0.821031 0.792628 0.199356
0.833713 0.796053 0.203984
0.846630 0.800470 0.209026
0.860634 0.806729 0.214979
0.874311 0.812533 0.221038
0.887657 0.818349 0.227213
0.899205 0.824157 0.233457
0.907133 0.829936 0.240300
0.248919 0.839407 0.155263
0.250759 0.839246 0.155285
0.257194 0.838674 0.155362
0.268423 0.837642 0.155506
0.284038 0.836147 0.155725
0.303864 0.834213 0.156028
0.327013 0.831891 0.156423
0.350367 0.829248 0.156920
0.376474 0.826365 0.157589
0.404393 0.823331 0.158417
0.433142 0.820237 0.159489
0.462425 0.817175 0.160766
0.492034 0.814231 0.162226
0.521832 0.811486 0.163878
0.551739 0.809009 0.165726
0.581717 0.806864 0.167776
0.611758 0.805099 0.170117
0.641876 0.803676 0.172837
0.672098 0.802648 0.175789
0.699661 0.802154 0.178972
0.724873 0.802206 0.182440
0.749382 0.802801 0.186182
0.769375 0.803929 0.190150
0.788096 0.805406 0.194210
0.806702 0.807267 0.198351
0.820994 0.809532 0.202671
0.833596 0.812173 0.207174
0.846041 0.815163 0.211844
0.858424 0.818595 0.216717
0.871979 0.824048 0.222653
0.885219 0.829528 0.228673
0.897619 0.835014 0.234908
0.905509 0.840487 0.241605
0.255940 0.850596 0.158738
0.257643 0.850500 0.158766
0.263651 0.850158 0.158868
0.274248 0.849539 0.159058
0.289030 0.848640 0.159347
0.308229 0.847474 0.159743
0.330188 0.846068 0.160258
0.352952 0.844145 0.160902
0.378476 0.841566 0.161685
0.405853 0.838836 0.162619
0.434176 0.836034 0.163711
0.463144 0.833240 0.164971
0.492534 0.830530 0.166407
0.522194 0.827976 0.168024
0.552023 0.825645 0.169895
0.581966 0.823592 0.172100
0.611997 0.821867 0.174524
0.642114 0.820509 0.177168
0.672330 0.819547 0.180033
0.699842 0.819004 0.183198
0.725011 0.818891 0.186602
0.749466 0.819213 0.190229
0.769382 0.819967 0.193964
0.788032 0.821142 0.197789
0.806554 0.822725 0.201802
0.820829 0.824697 0.206001
0.833364 0.827034 0.210384
0.845743 0.829715 0.214925
0.857967 0.832712 0.219642
0.870038 0.836003 0.224584
0.883039 0.840983 0.230365
0.895866 0.845835 0.236616
0.904038 0.849371 0.243167
0.262577 0.859458 0.162759
0.264185 0.859374 0.162788
0.269865 0.859076 0.162894
0.279845 0.858537 0.163088
0.294070 0.857752 0.163383
0.312473 0.856731 0.163786
0.333264 0.855495 0.164308
0.355435 0.854077 0.164957
0.380356 0.852513 0.165743
0.407158 0.850848 0.166675
0.435014 0.849127 0.167760
0.463616 0.847399 0.169008
0.492734 0.845709 0.170551
0.522203 0.843623 0.172308
0.551907 0.841457 0.174265
0.581774 0.839527 0.176427
0.611763 0.837878 0.178797
0.641857 0.836550 0.181404
0.672058 0.835571 0.184278
0.699595 0.834967 0.187372
0.724752 0.834750 0.190683
0.749169 0.834930 0.194092
0.769114 0.835508 0.197615
0.787712 0.836480 0.201329
