kodachrome64/Kodachrome64_Classic_RadianceIII.cube
TITLE "Kodachrome 64 Classic RadianceIII"
# Adobe RGB in/out. REPLACES AgX. Kodachrome 64 Classic RadianceIII.
LUT_3D_SIZE 5
DOMAIN_MIN 0.0 0.0 0.0
DOMAIN_MAX 1.0 1.0 1.0
0.078336 0.088005 0.085647
0.329170 0.093199 0.086793
0.822347 0.123544 0.090524
0.945782 0.157973 0.108743
0.964478 0.216333 0.538128
0.080021 0.173241 0.087032
0.121326 0.190946 0.088032
0.594220 0.220401 0.092901
0.936527 0.263497 0.110391
0.964479 0.216341 0.538123
0.087737 0.469150 0.091656
0.108045 0.501513 0.095477
0.308812 0.507806 0.105042
0.826363 0.528156 0.126022
0.964432 0.532264 0.216507
0.102419 0.791100 0.105935
0.116661 0.807139 0.111868
0.231838 0.821999 0.128699
0.574573 0.825265 0.151218
0.962426 0.850287 0.197155
0.107623 0.933565 0.115298
0.124678 0.953380 0.115328
0.174602 0.957378 0.141850
0.407943 0.954328 0.166296
0.964003 0.958589 0.186520
0.078415 0.092151 0.176364
0.313992 0.101408 0.249718
0.845580 0.134131 0.251250
0.945603 0.174996 0.288440
0.964479 0.216342 0.538182
0.085680 0.164787 0.158597
0.204115 0.206288 0.206263
0.724552 0.235363 0.217918
0.939450 0.274297 0.251382
0.964479 0.216341 0.538124
0.100236 0.449231 0.167257
0.137396 0.474012 0.180434
0.410640 0.494896 0.205344
0.886648 0.527416 0.233168
0.964393 0.541317 0.369790
0.113772 0.773621 0.180424
0.134722 0.789646 0.189874
0.280480 0.806635 0.213317
0.659763 0.817273 0.240563
0.963318 0.849145 0.285500
0.109209 0.936526 0.186629
0.126188 0.956012 0.186626
0.188625 0.956023 0.197030
0.432984 0.953523 0.229403
0.965153 0.958432 0.247866
0.079925 0.115316 0.484163
0.235472 0.141349 0.639566
0.809345 0.187368 0.639777
0.943164 0.227899 0.672230
0.964479 0.222066 0.784830
0.089994 0.205233 0.478559
0.190445 0.235190 0.556920
0.723234 0.274585 0.587797
0.938311 0.312655 0.633118
0.964479 0.221334 0.765300
0.118091 0.450250 0.431614
0.171401 0.471825 0.457339
0.511736 0.511883 0.512744
0.908367 0.539392 0.548978
0.964250 0.571363 0.714289
0.135765 0.762880 0.417761
0.166875 0.775764 0.429220
0.348982 0.796121 0.460512
0.776708 0.813639 0.494070
0.963752 0.854283 0.604660
0.118384 0.950093 0.455286
0.123407 0.955532 0.455284
0.229438 0.953476 0.424040
0.490615 0.952756 0.445301
0.965604 0.959645 0.498514
0.082584 0.177448 0.834938
0.167398 0.217793 0.886830
0.777517 0.261006 0.890927
0.940963 0.296357 0.897078
0.964478 0.232712 0.911612
0.092146 0.263566 0.836526
0.174540 0.295105 0.874799
0.714139 0.330740 0.883941
0.937088 0.363540 0.892193
0.964477 0.232125 0.909111
0.130178 0.485082 0.795874
0.188652 0.505373 0.823647
0.545186 0.536810 0.856985
0.915663 0.567839 0.875089
0.964152 0.609959 0.905814
0.149097 0.775877 0.737801
0.186071 0.787215 0.756987
0.391188 0.805756 0.801189
0.825163 0.825095 0.831801
0.963919 0.868223 0.891027
0.119119 0.951704 0.604434
0.125210 0.957995 0.605216
0.234680 0.956497 0.697165
0.506258 0.955777 0.729755
0.965714 0.962960 0.842857
0.153086 0.240279 0.964884
0.430504 0.251717 0.964920
0.891208 0.282945 0.965090
0.949754 0.300184 0.965479
0.964479 0.274457 0.963200
0.176325 0.298050 0.964799
0.409907 0.308317 0.964851
0.881208 0.336786 0.965053
0.948819 0.354212 0.965469
0.964479 0.282135 0.964745
0.208470 0.507626 0.964552
0.342147 0.515428 0.964694
0.817998 0.536834 0.965006
0.944544 0.554315 0.965503
0.964986 0.575192 0.966669
0.173185 0.795943 0.964705
0.241569 0.800213 0.964955
0.606640 0.810534 0.965408
0.931721 0.822336 0.965965
0.965219 0.855498 0.967030
0.115865 0.948681 0.898766
0.126189 0.960122 0.932427
0.178910 0.964930 0.965338
0.473711 0.963131 0.967128
0.965837 0.965630 0.967750
