kodachrome64/Kodachrome64_Modern_Soft.cube
TITLE "Kodachrome 64 Modern Soft"
# Adobe RGB in/out. REPLACES AgX. Kodachrome 64 Modern Soft.
LUT_3D_SIZE 33
DOMAIN_MIN 0.0 0.0 0.0
DOMAIN_MAX 1.0 1.0 1.0
0.081099 0.084717 0.091118
0.081099 0.084717 0.091118
0.081099 0.084717 0.091118
0.081566 0.084717 0.091118
0.084615 0.084717 0.091118
0.093934 0.084717 0.091118
0.121416 0.084990 0.091118
0.192497 0.085951 0.091118
0.279426 0.087765 0.091118
0.389765 0.091164 0.091118
0.533998 0.098188 0.091118
0.662705 0.105775 0.091118
0.761351 0.118296 0.091118
0.835439 0.142927 0.091118
0.884085 0.177219 0.091118
0.915688 0.219053 0.091188
0.933714 0.267333 0.091282
0.947147 0.317218 0.091393
0.957291 0.359330 0.091507
0.965818 0.410387 0.091685
0.972235 0.465539 0.091773
0.978021 0.515087 0.092067
0.981430 0.563523 0.092344
0.983399 0.609606 0.092662
0.985265 0.645177 0.092975
0.986768 0.685505 0.093274
0.988194 0.721017 0.093607
0.989550 0.751663 0.094064
0.989973 0.780255 0.094707
0.989973 0.805329 0.095427
0.989973 0.826076 0.096232
0.989973 0.839533 0.097224
0.989973 0.852578 0.098360
0.081099 0.084717 0.091118
0.081099 0.084717 0.091118
0.081099 0.084717 0.091118
0.081213 0.084717 0.091118
0.083723 0.084717 0.091118
0.091754 0.084717 0.091118
0.117357 0.085009 0.091118
0.183748 0.085995 0.091118
0.270184 0.087844 0.091118
0.378302 0.091396 0.091118
0.522594 0.098401 0.091118
0.655629 0.106074 0.091118
0.758171 0.118791 0.091118
0.832551 0.143943 0.091118
0.882364 0.178120 0.091118
0.914886 0.219846 0.091186
0.933029 0.268210 0.091279
0.946751 0.318793 0.091390
0.956953 0.360437 0.091504
0.965601 0.411415 0.091680
0.972041 0.466477 0.091767
0.977856 0.516034 0.092061
0.981373 0.564381 0.092339
0.983348 0.610237 0.092656
0.985219 0.645795 0.092970
0.986733 0.686275 0.093269
0.988162 0.721530 0.093602
0.989520 0.752164 0.094055
0.989973 0.780664 0.094697
0.989973 0.805726 0.095418
0.989973 0.826292 0.096220
0.989973 0.839739 0.097211
0.989973 0.852776 0.098346
0.081099 0.084717 0.091118
0.081099 0.084717 0.091118
0.081099 0.084717 0.091118
0.081099 0.084717 0.091118
0.082471 0.084717 0.091118
0.087675 0.084717 0.091118
0.106652 0.085068 0.091118
0.158317 0.086169 0.091118
0.244565 0.088113 0.091118
0.350658 0.092197 0.091118
0.495486 0.099142 0.091118
0.621927 0.107124 0.091118
0.746675 0.120542 0.091118
0.822548 0.146990 0.091118
0.876357 0.181427 0.091118
0.912070 0.222674 0.091179
0.930619 0.271339 0.091268
0.945351 0.322690 0.091381
0.955758 0.364398 0.091494
0.964833 0.415094 0.091664
0.971353 0.469831 0.091745
0.977269 0.519424 0.092042
0.981173 0.567452 0.092322
0.983168 0.612498 0.092637
0.985056 0.648009 0.092952
0.986607 0.689033 0.093251
0.988048 0.723371 0.093585
0.989416 0.753958 0.094024
0.989973 0.782130 0.094662
0.989973 0.807147 0.095386
0.989973 0.827064 0.096179
0.989973 0.840480 0.097166
0.989973 0.853488 0.098299
0.081099 0.084717 0.091118
0.081099 0.084717 0.091118
0.081099 0.084717 0.091118
0.081099 0.084717 0.091118
0.081515 0.084717 0.091118
0.084919 0.084744 0.091118
0.095415 0.085172 0.091118
0.127869 0.086562 0.091118
0.213191 0.088576 0.091118
0.308364 0.093591 0.091118
0.446214 0.100423 0.091118
0.583604 0.108978 0.091118
0.715439 0.124031 0.091118
0.805491 0.152380 0.091118
0.865847 0.188192 0.091118
0.904526 0.229274 0.091168
0.926374 0.277019 0.091250
0.942871 0.328239 0.091365
0.953631 0.371627 0.091477
0.963440 0.421804 0.091635
0.970121 0.475953 0.091734
0.976214 0.525619 0.092007
0.980788 0.573066 0.092290
0.982841 0.616625 0.092601
0.984760 0.652054 0.092920
0.986380 0.694083 0.093223
0.987841 0.726739 0.093554
0.989227 0.757242 0.093967
0.989973 0.784812 0.094599
0.989973 0.809750 0.095327
0.989973 0.828477 0.096104
0.989973 0.841836 0.097086
0.989973 0.854792 0.098213
0.081099 0.085040 0.091118
0.081099 0.085018 0.091118
0.081099 0.084946 0.091118
0.081099 0.084871 0.091118
0.081740 0.084833 0.091118
0.083667 0.084954 0.091118
0.089974 0.085668 0.091118
0.111472 0.087181 0.091118
0.172737 0.089268 0.091118
0.263026 0.095634 0.091118
0.377874 0.102256 0.091118
0.532817 0.112057 0.091118
0.669710 0.130393 0.091118
0.768269 0.160355 0.091118
0.845383 0.198823 0.091118
0.892146 0.240567 0.091152
0.920453 0.285372 0.091227
0.938643 0.336366 0.091343
0.950611 0.381309 0.091453
0.960756 0.432137 0.091594
0.968354 0.485013 0.091728
0.974696 0.534798 0.091957
0.980205 0.581383 0.092246
0.982369 0.622728 0.092551
0.984331 0.658044 0.092874
0.986049 0.701116 0.093181
0.987539 0.731732 0.093510
0.988951 0.762114 0.093896
0.989973 0.788791 0.094516
0.989973 0.813614 0.095243
0.989973 0.830572 0.095995
0.989973 0.843849 0.096968
0.989973 0.855980 0.098088
0.081099 0.088789 0.091118
0.081099 0.088663 0.091118
0.081099 0.088215 0.091118
0.081386 0.087437 0.091118
0.082678 0.086719 0.091118
0.084354 0.086376 0.091118
0.088201 0.086738 0.091118
0.103762 0.088345 0.091118
0.143076 0.092050 0.091118
0.230016 0.098445 0.091118
0.331468 0.105483 0.091118
0.471761 0.116830 0.091118
0.609168 0.139127 0.091118
0.740500 0.171194 0.091118
0.820981 0.212021 0.091118
0.876904 0.256237 0.091134
0.913102 0.298260 0.091205
0.932215 0.347128 0.091316
0.946715 0.394212 0.091427
0.957311 0.446626 0.091548
0.966104 0.497108 0.091722
0.972753 0.545978 0.091895
0.978721 0.592495 0.092190
0.981757 0.630860 0.092487
0.983775 0.666830 0.092816
0.985618 0.707937 0.093128
0.987144 0.738400 0.093453
0.988590 0.768628 0.093809
0.989899 0.794110 0.094418
0.989973 0.818785 0.095133
0.989973 0.833372 0.095854
0.989973 0.846542 0.096816
0.989973 0.856910 0.097926
0.081099 0.102721 0.091118
0.081099 0.102932 0.091118
0.081099 0.101389 0.091118
0.081921 0.098069 0.091118
0.083605 0.094111 0.091118
0.085943 0.091447 0.091118
0.090010 0.090515 0.091118
0.099610 0.091235 0.091118
0.129006 0.096499 0.091118
0.204061 0.102124 0.091118
0.291664 0.110600 0.091118
0.414728 0.125636 0.091118
0.560926 0.152410 0.091118
0.693555 0.185913 0.091118
0.791955 0.224912 0.091118
0.857316 0.271907 0.091118
0.900064 0.321733 0.091188
0.924668 0.361252 0.091286
0.942150 0.410454 0.091400
0.953288 0.464128 0.091518
0.963433 0.512332 0.091713
0.970342 0.559885 0.091824
0.976613 0.606130 0.092124
0.981023 0.641043 0.092412
0.983103 0.679515 0.092748
0.985063 0.716485 0.093065
0.986665 0.746767 0.093385
0.988149 0.775909 0.093722
0.989554 0.800789 0.094301
0.989973 0.823391 0.095002
0.989973 0.836884 0.095726
0.989973 0.849922 0.096653
0.989973 0.858066 0.097729
0.081099 0.133599 0.091118
0.081099 0.134330 0.091118
0.081205 0.131891 0.091118
0.082493 0.118892 0.091118
0.084442 0.110369 0.091118
0.087600 0.105276 0.091118
0.093069 0.102578 0.091118
0.105176 0.101935 0.091118
0.121597 0.102507 0.091118
0.181753 0.108674 0.091118
0.261475 0.119625 0.091118
0.365837 0.140395 0.091118
0.506700 0.169831 0.091118
0.640896 0.208306 0.091118
0.755124 0.248154 0.091118
0.832048 0.288976 0.091118
0.883853 0.338053 0.091171
0.916581 0.381532 0.091257
0.935447 0.430528 0.091372
0.948840 0.482327 0.091487
0.959383 0.530819 0.091658
0.967627 0.576715 0.091747
0.974230 0.618575 0.092054
0.980091 0.653297 0.092342
0.982334 0.694859 0.092672
0.984355 0.726774 0.092995
0.986111 0.756843 0.093309
0.987638 0.784162 0.093651
0.989081 0.808834 0.094169
0.989973 0.827840 0.094852
0.989973 0.841107 0.095586
0.989973 0.853992 0.096472
0.989973 0.861724 0.097522
0.081099 0.211029 0.091118
0.081099 0.211934 0.091118
0.081470 0.204186 0.091118
0.083042 0.180116 0.091118
0.085612 0.159159 0.091118
0.089509 0.141152 0.091118
0.097756 0.129908 0.091118
0.110927 0.123643 0.091118
0.133675 0.122149 0.091118
0.176538 0.123814 0.091118
0.243607 0.137899 0.091118
0.336708 0.162895 0.091118
0.465719 0.194717 0.091118
0.593814 0.229567 0.091118
0.721426 0.273004 0.091118
0.807753 0.320475 0.091118
0.867438 0.357568 0.091156
0.906315 0.404746 0.091231
0.927677 0.456595 0.091346
0.944022 0.504000 0.091457
0.955050 0.551123 0.091603
0.964716 0.596608 0.091730
0.971607 0.633156 0.091981
0.977826 0.668880 0.092274
0.981489 0.708822 0.092592
0.983572 0.738819 0.092921
0.985496 0.768638 0.093233
0.987067 0.793822 0.093575
0.988552 0.818246 0.094026
0.989896 0.832956 0.094689
0.989973 0.846036 0.095434
0.989973 0.856706 0.096273
0.989973 0.866302 0.097304
0.081099 0.316300 0.091118
0.081163 0.312046 0.091118
0.081875 0.292309 0.091118
0.083595 0.272457 0.091118
0.086125 0.244853 0.091118
0.091497 0.218485 0.091118
0.102348 0.198625 0.091118
0.117016 0.182330 0.091118
0.145321 0.174637 0.091118
0.190944 0.172635 0.091118
0.241527 0.175497 0.091118
0.314413 0.194096 0.091118
0.429860 0.223884 0.091118
0.559681 0.264946 0.091118
0.682448 0.300902 0.091118
0.770701 0.344170 0.091118
0.845365 0.386048 0.091144
0.891354 0.433051 0.091212
0.919966 0.482617 0.091323
0.938348 0.529509 0.091432
0.950629 0.574247 0.091553
0.961048 0.615921 0.091723
0.968782 0.649952 0.091910
0.975304 0.689839 0.092207
0.980542 0.722918 0.092513
0.982735 0.752632 0.092846
0.984754 0.780389 0.093162
0.986450 0.804881 0.093497
0.987976 0.825551 0.093891
0.989420 0.838789 0.094526
0.989973 0.851662 0.095274
0.989973 0.859405 0.096063
0.989973 0.871537 0.097072
0.081309 0.410460 0.091118
0.081479 0.406267 0.091118
0.082377 0.392206 0.091118
0.083959 0.369689 0.091118
0.087314 0.344345 0.091118
0.093721 0.321092 0.091118
0.106794 0.288121 0.091118
0.123934 0.270625 0.091118
0.161657 0.256682 0.091118
0.211053 0.247187 0.091118
0.253978 0.244846 0.091118
0.315185 0.249322 0.091118
0.398776 0.266916 0.091118
0.525689 0.297247 0.091118
0.645438 0.338632 0.091118
0.751730 0.375891 0.091118
0.824717 0.419028 0.091137
0.877151 0.467797 0.091203
0.912526 0.512373 0.091305
0.931358 0.557006 0.091413
0.946144 0.601010 0.091530
0.956880 0.635419 0.091717
0.965925 0.670671 0.091845
0.972727 0.709426 0.092144
0.978849 0.738888 0.092436
0.981864 0.768255 0.092773
0.983937 0.793185 0.093092
0.985800 0.817348 0.093419
0.987367 0.832337 0.093768
0.988849 0.845331 0.094384
0.989973 0.856432 0.095111
0.989973 0.865489 0.095847
0.989973 0.877422 0.096834
0.081726 0.515413 0.091118
0.081947 0.511725 0.091118
0.082956 0.499174 0.091118
0.084855 0.478616 0.091118
0.088459 0.451195 0.091118
0.096468 0.418701 0.091118
0.110436 0.390047 0.091118
0.133487 0.364918 0.091118
0.174260 0.347244 0.091118
0.223034 0.336109 0.091118
0.269435 0.330089 0.091118
0.331058 0.328919 0.091118
0.404746 0.332174 0.091118
0.503104 0.343112 0.091118
0.611897 0.376621 0.091118
0.728832 0.415590 0.091118
0.806914 0.461305 0.091134
0.863548 0.502883 0.091198
0.901673 0.546077 0.091293
0.924639 0.588076 0.091399
0.941810 0.624733 0.091512
0.952833 0.657499 0.091694
0.962978 0.698101 0.091789
0.970045 0.727755 0.092088
0.976405 0.756785 0.092372
0.980978 0.783383 0.092705
0.983102 0.807452 0.093027
0.985104 0.826791 0.093345
0.986736 0.839850 0.093688
0.988254 0.852576 0.094246
0.989674 0.860197 0.094950
0.989973 0.872234 0.095689
0.989973 0.883950 0.096623
0.082268 0.610507 0.091118
0.082569 0.608169 0.091118
0.083581 0.598323 0.091118
0.085751 0.580053 0.091118
0.089625 0.556431 0.091118
0.098932 0.529557 0.091118
0.114042 0.500633 0.091118
0.140955 0.474301 0.091118
0.185570 0.450327 0.091118
0.234333 0.429679 0.091118
0.284943 0.416836 0.091118
0.346541 0.410346 0.091118
0.425695 0.409668 0.091118
0.507339 0.414330 0.091118
0.591429 0.424577 0.091118
0.704341 0.465259 0.091118
0.787976 0.503025 0.091137
0.847486 0.543120 0.091197
0.890399 0.582420 0.091288
0.918513 0.618879 0.091391
0.936315 0.650292 0.091499
0.948987 0.687504 0.091667
0.959256 0.719764 0.091745
0.967431 0.748201 0.092042
0.974006 0.775814 0.092325
0.979999 0.799615 0.092646
0.982266 0.822172 0.092968
0.984310 0.835344 0.093278
0.986096 0.848087 0.093622
0.987648 0.857336 0.094117
0.989118 0.867849 0.094798
0.989973 0.879634 0.095542
0.989973 0.891274 0.096426
0.082946 0.688090 0.091118
0.083255 0.685385 0.091118
0.084012 0.676010 0.091118
0.086146 0.660579 0.091118
0.090963 0.643850 0.091118
0.101557 0.624424 0.091118
0.117410 0.603724 0.091118
0.149575 0.577422 0.091118
0.197239 0.554047 0.091118
0.244541 0.534636 0.091118
0.299296 0.518560 0.091118
0.361255 0.508051 0.091118
0.447171 0.503048 0.091118
0.526398 0.503285 0.091118
0.603142 0.508373 0.091118
0.688493 0.517872 0.091118
0.765184 0.549938 0.091144
0.833736 0.585779 0.091201
0.880392 0.619084 0.091290
0.912978 0.648543 0.091389
0.930825 0.683197 0.091494
0.945314 0.715645 0.091651
0.955750 0.743126 0.091735
0.964947 0.770853 0.092008
0.971656 0.794226 0.092288
0.977769 0.817462 0.092598
0.981446 0.831984 0.092919
0.983524 0.844652 0.093225
0.985459 0.856101 0.093564
0.987040 0.864375 0.094000
0.988539 0.876174 0.094658
0.989900 0.887686 0.095406
0.989973 0.899545 0.096242
0.083610 0.754985 0.091118
0.083709 0.753318 0.091118
0.085055 0.747496 0.091118
0.087324 0.737426 0.091118
0.092311 0.723757 0.091118
0.104308 0.707594 0.091118
0.120645 0.685598 0.091118
0.159175 0.660841 0.091118
0.210557 0.642375 0.091118
0.253651 0.626127 0.091118
0.312453 0.612879 0.091118
0.375235 0.602293 0.091118
0.463256 0.593881 0.091118
0.546104 0.590331 0.091118
0.616073 0.591426 0.091118
0.699886 0.596843 0.091126
0.759307 0.605943 0.091161
0.822480 0.626540 0.091209
0.871892 0.653432 0.091299
0.906299 0.686565 0.091394
0.925893 0.716278 0.091495
0.941995 0.742351 0.091647
0.952531 0.768908 0.091733
0.962331 0.791798 0.091988
0.969373 0.814395 0.092263
0.975637 0.829992 0.092562
0.980616 0.842464 0.092881
0.982760 0.854717 0.093185
0.984756 0.861952 0.093515
0.986441 0.873689 0.093910
0.987965 0.885168 0.094540
0.989412 0.896865 0.095286
0.989973 0.908488 0.096076
0.084248 0.809987 0.091118
0.084674 0.808739 0.091118
0.085923 0.804360 0.091118
0.088530 0.796711 0.091118
0.094445 0.786175 0.091118
0.106975 0.773491 0.091118
0.126623 0.757217 0.091118
0.166275 0.740134 0.091118
0.217393 0.723662 0.091118
0.263669 0.708664 0.091118
0.324484 0.693754 0.091118
0.391582 0.678705 0.091118
0.475741 0.667879 0.091118
0.559314 0.661599 0.091118
0.631254 0.659897 0.091134
0.711400 0.661326 0.091164
0.764704 0.666717 0.091195
0.818689 0.675920 0.091237
0.864208 0.698923 0.091315
0.898745 0.722548 0.091405
0.921607 0.746731 0.091503
0.938173 0.771628 0.091654
0.949630 0.792940 0.091733
0.959396 0.814567 0.091982
0.967258 0.829643 0.092251
0.973640 0.841759 0.092541
0.979489 0.853734 0.092855
0.982029 0.860759 0.093156
0.984046 0.872334 0.093478
0.985859 0.883696 0.093844
0.987403 0.895216 0.094458
0.988872 0.906783 0.095184
0.989973 0.918099 0.095933
0.085414 0.843443 0.091118
0.085790 0.842831 0.091118
0.086727 0.840672 0.091118
0.089829 0.836867 0.091118
0.096817 0.831550 0.091118
0.109316 0.825009 0.091118
0.131138 0.814932 0.091118
0.172669 0.801173 0.091118
0.223756 0.787540 0.091118
0.272727 0.774730 0.091118
0.335199 0.761734 0.091118
0.408022 0.750239 0.091118
0.493456 0.741247 0.091130
0.571207 0.734958 0.091151
0.648721 0.731446 0.091175
0.722639 0.730682 0.091201
0.770070 0.732552 0.091240
0.823559 0.736888 0.091295
0.862363 0.743485 0.091352
0.892442 0.756985 0.091421
0.917944 0.778448 0.091517
0.934433 0.798267 0.091673
0.946965 0.818562 0.091735
0.956757 0.831238 0.091990
0.965328 0.842813 0.092252
0.971758 0.854344 0.092535
0.977655 0.861008 0.092842
0.981341 0.872297 0.093139
0.983371 0.883433 0.093453
0.985301 0.894751 0.093798
0.986861 0.906176 0.094397
0.988347 0.917388 0.095105
0.989733 0.926343 0.095822
0.086089 0.865865 0.091118
0.086420 0.865333 0.091118
0.088103 0.863454 0.091118
0.091385 0.860125 0.091118
0.099163 0.857222 0.091118
0.112080 0.854359 0.091118
0.135654 0.847682 0.091118
0.178669 0.840522 0.091118
0.229496 0.833241 0.091123
0.280913 0.826180 0.091132
0.344183 0.818509 0.091144
0.422067 0.808312 0.091158
0.504908 0.799888 0.091175
0.581879 0.793460 0.091194
0.661963 0.789155 0.091217
0.732854 0.787016 0.091257
0.781860 0.787013 0.091304
0.828329 0.789058 0.091354
0.866418 0.793021 0.091406
0.892252 0.798749 0.091464
0.914819 0.808252 0.091538
0.931086 0.824343 0.091703
0.944633 0.835058 0.091753
0.954418 0.845894 0.092013
0.963593 0.856009 0.092267
0.969997 0.862935 0.092544
0.975967 0.873789 0.092844
0.980665 0.884568 0.093135
0.982738 0.895647 0.093443
0.984682 0.906825 0.093772
0.986345 0.917840 0.094358
0.987844 0.926447 0.095051
0.989273 0.930063 0.095762
0.087438 0.891890 0.091148
0.087888 0.891396 0.091148
0.089502 0.889651 0.091148
0.093133 0.886658 0.091150
0.101917 0.882511 0.091151
0.114813 0.877311 0.091154
0.140090 0.871304 0.091158
0.184361 0.864779 0.091164
0.234708 0.858148 0.091170
0.288161 0.855737 0.091179
0.351736 0.849817 0.091190
0.434296 0.844093 0.091203
0.510621 0.839155 0.091221
0.591220 0.835153 0.091249
0.671875 0.832189 0.091285
0.740350 0.830321 0.091324
0.791781 0.829567 0.091366
0.832821 0.829909 0.091412
0.869147 0.831300 0.091463
0.894556 0.833674 0.091524
0.915172 0.836948 0.091617
0.928248 0.841285 0.091719
0.942621 0.851215 0.091801
0.952369 0.857621 0.092050
0.961528 0.866758 0.092294
0.968414 0.877022 0.092569
0.974434 0.887300 0.092860
0.980007 0.898098 0.093143
0.982151 0.908905 0.093446
0.984100 0.919614 0.093768
0.985858 0.926978 0.094343
0.987366 0.930508 0.095023
0.988806 0.933956 0.095727
0.088867 0.917997 0.091193
0.089337 0.917564 0.091193
0.091155 0.916029 0.091193
0.095835 0.913292 0.091195
0.104843 0.909392 0.091196
0.117702 0.904469 0.091199
0.145078 0.898731 0.091203
0.189871 0.892431 0.091208
0.239474 0.885993 0.091216
0.294486 0.879763 0.091229
0.358237 0.873757 0.091246
0.444659 0.868192 0.091267
0.523486 0.863251 0.091293
0.599170 0.859083 0.091321
0.680420 0.857350 0.091353
0.746897 0.856521 0.091389
0.797322 0.856046 0.091428
0.836887 0.855911 0.091474
0.871664 0.856161 0.091528
0.896723 0.856730 0.091611
0.916189 0.857611 0.091716
0.928930 0.859817 0.091732
0.941106 0.863840 0.091868
0.950594 0.872639 0.092099
0.959652 0.882170 0.092334
0.967007 0.892007 0.092608
0.973055 0.902291 0.092890
0.978619 0.912594 0.093165
0.981612 0.922874 0.093463
0.983561 0.927962 0.093786
0.985404 0.931382 0.094354
0.986917 0.934703 0.095024
0.988365 0.937318 0.095718
0.090524 0.931271 0.091248
0.091038 0.931142 0.091249
0.092956 0.930688 0.091250
0.098478 0.929873 0.091252
0.107661 0.928704 0.091256
0.120634 0.927215 0.091261
0.153374 0.925421 0.091268
0.196147 0.920011 0.091277
0.243766 0.913961 0.091288
0.299765 0.907818 0.091303
0.363797 0.901808 0.091320
0.452963 0.896139 0.091340
0.532688 0.890992 0.091363
0.605739 0.886631 0.091389
0.687536 0.883159 0.091419
0.750981 0.880516 0.091453
0.802055 0.878756 0.091496
0.840417 0.877904 0.091542
0.873887 0.877959 0.091625
0.898672 0.878900 0.091716
0.917095 0.880688 0.091730
0.929690 0.883270 0.091838
0.941510 0.886588 0.092005
0.949486 0.890703 0.092175
0.958020 0.898797 0.092385
0.965767 0.908369 0.092661
0.971790 0.918042 0.092933
0.977355 0.926133 0.093199
0.981122 0.929458 0.093495
0.983067 0.932730 0.093826
0.984932 0.935676 0.094389
0.986500 0.938205 0.095053
0.987951 0.940620 0.095735
0.092287 0.938245 0.091320
0.092861 0.938157 0.091320
0.095856 0.937844 0.091321
0.101380 0.937281 0.091324
0.110403 0.936471 0.091327
0.126415 0.935433 0.091333
0.158679 0.934110 0.091339
0.203851 0.932375 0.091348
0.247717 0.930516 0.091359
0.304552 0.928601 0.091373
0.368524 0.926687 0.091389
0.458256 0.923978 0.091408
0.540124 0.918999 0.091429
0.610980 0.914569 0.091455
0.692985 0.910805 0.091489
0.753875 0.907800 0.091525
0.805842 0.905618 0.091574
0.843338 0.904298 0.091656
0.875754 0.903856 0.091719
0.900334 0.904287 0.091732
0.917876 0.905568 0.091833
0.930356 0.907661 0.091985
0.941867 0.910517 0.092142
0.949752 0.914082 0.092303
0.957194 0.918296 0.092486
0.964682 0.925285 0.092726
0.970650 0.928410 0.092988
0.976227 0.931501 0.093246
0.980643 0.934583 0.093540
0.982618 0.937024 0.093887
0.984479 0.939443 0.094448
0.986115 0.941602 0.095110
0.987567 0.943623 0.095779
0.095052 0.943597 0.091387
0.095854 0.943531 0.091387
0.098664 0.943297 0.091388
0.104595 0.942877 0.091391
0.113441 0.942270 0.091394
0.130889 0.941489 0.091399
0.164136 0.940558 0.091406
0.210577 0.939395 0.091415
0.251404 0.938075 0.091425
0.308906 0.936702 0.091438
0.372520 0.935322 0.091455
0.461870 0.933827 0.091477
0.545388 0.932235 0.091501
0.614976 0.930787 0.091529
0.697019 0.929523 0.091565
0.756072 0.928475 0.091630
0.808156 0.927668 0.091700
0.845606 0.927120 0.091723
0.877223 0.926838 0.091735
0.901660 0.926831 0.091851
0.918507 0.927099 0.091988
0.930897 0.927623 0.092130
0.942158 0.928396 0.092278
0.949966 0.929402 0.092440
0.957343 0.930623 0.092635
0.964245 0.932040 0.092834
0.969649 0.934107 0.093054
0.975227 0.936483 0.093310
0.980202 0.938770 0.093597
0.982213 0.940932 0.093972
0.984067 0.942882 0.094532
0.985762 0.944813 0.095195
0.987213 0.946605 0.095857
0.097984 0.947724 0.091449
0.098736 0.947685 0.091450
0.101785 0.947546 0.091451
0.107662 0.947297 0.091454
0.116511 0.946935 0.091459
0.135508 0.946469 0.091465
0.169459 0.945703 0.091473
0.214506 0.944775 0.091483
0.255211 0.943766 0.091496
0.312806 0.942708 0.091511
0.375878 0.941634 0.091528
0.464706 0.940578 0.091549
0.548237 0.939469 0.091589
0.617825 0.938387 0.091638
0.699839 0.937424 0.091694
0.757598 0.936604 0.091720
0.809744 0.935948 0.091729
0.847207 0.935470 0.091773
0.878270 0.935181 0.091888
0.902615 0.935085 0.092010
0.918963 0.935184 0.092138
0.931288 0.935474 0.092273
0.942365 0.935949 0.092417
0.950114 0.936600 0.092598
0.957436 0.937416 0.092784
0.964274 0.938385 0.092973
0.969332 0.939493 0.093165
0.974344 0.940816 0.093389
0.979557 0.942643 0.093667
0.981850 0.944472 0.094094
0.983694 0.946295 0.094655
0.985441 0.947553 0.095307
0.986889 0.948779 0.095991
0.101051 0.951075 0.091520
0.101952 0.951012 0.091520
0.105139 0.950788 0.091522
0.110632 0.950403 0.091525
0.119726 0.950089 0.091529
0.140125 0.949682 0.091535
0.174658 0.949192 0.091543
0.218362 0.948634 0.091553
0.259247 0.948022 0.091576
0.316309 0.947377 0.091603
0.378675 0.946718 0.091636
0.466856 0.945928 0.091673
0.550195 0.945005 0.091715
0.619630 0.944143 0.091721
0.701533 0.943363 0.091729
0.758492 0.942686 0.091744
0.810671 0.942128 0.091838
0.848146 0.941702 0.091939
0.878889 0.941418 0.092048
0.903180 0.941282 0.092163
0.919230 0.941296 0.092285
0.931511 0.941460 0.092417
0.942476 0.941772 0.092583
0.950180 0.942225 0.092754
0.957460 0.942813 0.092931
0.964259 0.943527 0.093111
0.969286 0.944359 0.093301
0.974124 0.945297 0.093521
0.978738 0.946367 0.093747
0.981525 0.947530 0.094237
0.983359 0.948693 0.094810
0.985127 0.949850 0.095443
0.986593 0.951499 0.096159
0.104510 0.956424 0.091614
0.105365 0.956370 0.091615
0.108246 0.956175 0.091618
0.113857 0.955823 0.091623
0.123963 0.955312 0.091632
0.145368 0.954648 0.091643
0.179805 0.953847 0.091658
0.222205 0.952929 0.091677
0.263069 0.951921 0.091699
0.319460 0.950852 0.091717
0.381041 0.950065 0.091721
0.468402 0.949477 0.091726
0.551363 0.948905 0.091731
0.620495 0.948364 0.091754
0.702197 0.947869 0.091829
0.758797 0.947433 0.091912
0.810968 0.947065 0.092002
0.848441 0.946776 0.092098
0.879080 0.946570 0.092201
0.903347 0.946454 0.092311
0.919300 0.946430 0.092434
0.931553 0.946499 0.092586
0.942479 0.946660 0.092744
0.950155 0.946911 0.092907
0.957403 0.947248 0.093075
0.964193 0.947668 0.093248
0.969194 0.948164 0.093453
0.974012 0.948732 0.093664
0.978568 0.949365 0.093969
0.981254 0.950058 0.094408
0.983059 0.951693 0.094989
0.984817 0.953714 0.095603
0.986325 0.955728 0.096359
0.107760 0.960473 0.091717
0.108488 0.960440 0.091717
0.111422 0.960323 0.091718
0.117130 0.960110 0.091718
0.130162 0.959800 0.091720
0.153913 0.959397 0.091721
0.184888 0.958908 0.091723
0.225935 0.958347 0.091726
0.266693 0.957513 0.091729
0.322296 0.956567 0.091733
0.383627 0.955589 0.091743
0.469418 0.954605 0.091795
0.551829 0.953642 0.091854
0.620516 0.952725 0.091920
0.701925 0.951878 0.091992
0.758561 0.951122 0.092071
0.810677 0.950472 0.092157
0.848123 0.950173 0.092249
0.878856 0.949968 0.092347
0.903118 0.949840 0.092467
0.919169 0.949795 0.092605
0.931406 0.949833 0.092749
0.942367 0.949954 0.092899
0.950029 0.950159 0.093056
0.957255 0.950455 0.093216
