kodachrome64/Kodachrome64_Classic_ExtraSoft.cube
TITLE "Kodachrome 64 Classic ExtraSoft"
# Adobe RGB in/out. REPLACES AgX. Kodachrome 64 Classic ExtraSoft.
LUT_3D_SIZE 5
DOMAIN_MIN 0.0 0.0 0.0
DOMAIN_MAX 1.0 1.0 1.0
0.065698 0.081183 0.086406
0.068746 0.081183 0.086406
0.528581 0.083265 0.086406
0.924535 0.224140 0.086451
0.988572 0.609698 0.086601
0.065698 0.081451 0.086406
0.069393 0.082500 0.086406
0.536243 0.109304 0.086406
0.925874 0.369898 0.086458
0.988661 0.683810 0.086631
0.065698 0.384819 0.086406
0.073723 0.429181 0.086406
0.563856 0.556063 0.086418
0.930642 0.719225 0.086482
0.988981 0.856613 0.086777
0.066183 0.860186 0.086419
0.088789 0.870684 0.086431
0.607142 0.903967 0.086465
0.939175 0.936501 0.086553
0.989342 0.960955 0.087194
0.073475 0.973732 0.086488
0.153842 0.974137 0.086498
0.657866 0.977387 0.086564
0.950286 0.980254 0.086911
0.989717 0.983756 0.089019
0.065698 0.081183 0.086879
0.068752 0.081183 0.086948
0.528648 0.083575 0.087417
0.924547 0.230948 0.089427
0.988573 0.614129 0.098292
0.065698 0.081535 0.086929
0.069398 0.082806 0.087040
0.536311 0.112011 0.087534
0.925886 0.374650 0.089766
0.988662 0.686645 0.099064
0.065698 0.389615 0.087200
0.073737 0.436988 0.087368
0.563924 0.561620 0.087956
0.930654 0.722107 0.091190
0.988981 0.858116 0.103027
0.066186 0.861681 0.088020
0.088819 0.872158 0.088436
0.607197 0.904732 0.090091
0.939185 0.937068 0.096286
0.989343 0.961172 0.112808
0.073489 0.973790 0.091817
0.153925 0.974194 0.092851
0.657905 0.977539 0.096810
0.950292 0.980307 0.104948
0.989717 0.983803 0.133510
0.065698 0.081183 0.569013
0.068771 0.081188 0.576658
0.528890 0.085236 0.600058
0.924589 0.254793 0.630151
0.988576 0.629843 0.661040
0.065698 0.082087 0.574494
0.069419 0.083912 0.582166
0.536553 0.122608 0.604180
0.925928 0.391836 0.632905
0.988665 0.696716 0.663115
0.065698 0.409298 0.592613
0.073789 0.455354 0.598349
0.564167 0.579701 0.617388
0.930695 0.732425 0.641807
0.988984 0.863490 0.672568
0.066196 0.867028 0.617966
0.088924 0.877425 0.621822
0.607393 0.907464 0.635625
0.939224 0.939095 0.655673
0.989344 0.961949 0.690526
0.073541 0.973996 0.643671
0.154223 0.974398 0.646605
0.658045 0.977877 0.657077
0.950313 0.980497 0.679959
0.989718 0.983973 0.716710
0.065698 0.081186 0.920653
0.068807 0.081256 0.921153
0.529335 0.092783 0.922936
0.924667 0.291243 0.926169
0.988581 0.650279 0.930896
0.065698 0.083775 0.921012
0.069457 0.088940 0.921510
0.536998 0.147982 0.923290
0.926006 0.437037 0.926516
0.988670 0.715716 0.931234
0.065698 0.453354 0.922294
0.073883 0.484211 0.922789
0.564615 0.608925 0.924555
0.930772 0.751277 0.927758
0.988989 0.873270 0.932443
0.066215 0.876760 0.924628
0.089118 0.886940 0.925116
0.607754 0.912424 0.926859
0.939295 0.942779 0.930021
0.989346 0.963363 0.934645
0.073636 0.974372 0.928062
0.154773 0.975191 0.928541
0.658304 0.978268 0.930250
0.950351 0.980843 0.933351
0.989720 0.984282 0.937868
0.065698 0.081372 0.977248
0.068861 0.082193 0.977368
0.530001 0.105145 0.977799
0.924784 0.361286 0.978570
0.988589 0.678659 0.979027
0.065698 0.093211 0.977334
0.069513 0.101630 0.977455
0.537665 0.206758 0.977885
0.926122 0.482932 0.978603
0.988678 0.744079 0.979060
0.065698 0.496023 0.977644
0.074024 0.532394 0.977763
0.565285 0.645962 0.978192
0.930886 0.774304 0.978723
0.988997 0.887565 0.979178
0.066242 0.890922 0.978210
0.089434 0.900663 0.978328
0.608295 0.919693 0.978636
0.939402 0.948188 0.978942
0.989349 0.965440 0.979387
0.073777 0.975632 0.978753
0.155598 0.976728 0.978799
0.658691 0.978845 0.978964
0.950409 0.981354 0.979266
0.989724 0.984740 0.979680
