kodachrome64/Kodachrome64_Classic_IlfochromeM.cube
TITLE "Kodachrome 64 Classic IlfochromeM"
# Adobe RGB in/out. REPLACES AgX. Kodachrome 64 Classic IlfochromeM.
LUT_3D_SIZE 9
DOMAIN_MIN 0.0 0.0 0.0
DOMAIN_MAX 1.0 1.0 1.0
0.117094 0.082435 0.080060
0.156696 0.099918 0.085103
0.260523 0.138125 0.096883
0.373584 0.196312 0.112292
0.483876 0.261127 0.129015
0.591394 0.324804 0.147069
0.694839 0.386094 0.169007
0.772800 0.447894 0.196664
0.826321 0.505841 0.223430
0.120191 0.125959 0.083791
0.158749 0.135133 0.087931
0.261921 0.167144 0.098741
0.374401 0.220126 0.113614
0.484439 0.278451 0.130088
0.591815 0.338622 0.147916
0.695120 0.396829 0.170030
0.772964 0.456118 0.197504
0.826411 0.512788 0.224163
0.130304 0.223137 0.093333
0.165684 0.229789 0.096038
0.266858 0.252072 0.105101
0.377318 0.287452 0.118189
0.486454 0.331188 0.133877
0.593325 0.378917 0.151081
0.696129 0.432423 0.173712
0.773552 0.484065 0.200485
0.826735 0.536613 0.226770
0.145186 0.332662 0.105474
0.178039 0.336997 0.107833
0.275558 0.351864 0.114860
0.382600 0.372916 0.126113
0.490129 0.405563 0.140353
0.596089 0.444171 0.156775
0.697977 0.485596 0.180244
0.774632 0.530214 0.205829
0.827330 0.576673 0.231472
0.165378 0.437870 0.119322
0.195466 0.440512 0.121038
0.287721 0.449824 0.126891
0.390311 0.466281 0.136639
0.495555 0.489466 0.149145
0.600190 0.518524 0.166517
0.700725 0.552197 0.189765
0.776238 0.589627 0.213526
0.828217 0.630044 0.238850
0.189782 0.536494 0.134358
0.219072 0.538461 0.135782
0.303629 0.545441 0.140596
0.400393 0.557960 0.148788
0.502752 0.575967 0.161292
0.605667 0.599084 0.179821
0.704406 0.626753 0.201240
0.778394 0.658338 0.223502
0.829408 0.693215 0.248642
0.219618 0.632459 0.150024
0.248265 0.634013 0.151283
0.322365 0.639550 0.155626
0.412709 0.649562 0.164510
0.511697 0.664137 0.178233
0.612532 0.683132 0.195667
0.709036 0.706245 0.214599
0.781110 0.728180 0.235837
0.830911 0.750241 0.259922
0.254448 0.723602 0.169508
0.277078 0.724541 0.170954
0.341560 0.727890 0.176028
0.427069 0.733961 0.185043
0.522326 0.742835 0.197469
0.620771 0.754453 0.212375
0.714614 0.768663 0.229858
0.784392 0.784877 0.250965
0.832730 0.802056 0.272887
0.286904 0.790340 0.193433
0.306583 0.791043 0.194629
0.362763 0.793557 0.198846
0.443257 0.798129 0.206322
0.534552 0.804772 0.216922
0.630351 0.812476 0.230537
0.720837 0.821958 0.248002
0.788237 0.833100 0.266938
0.834866 0.845560 0.287270
0.117856 0.085805 0.135994
0.156714 0.101883 0.137372
0.260536 0.139286 0.142113
0.373591 0.197428 0.150230
0.483881 0.261901 0.162912
0.591397 0.325372 0.181395
0.694841 0.386570 0.202547
0.772801 0.448257 0.224676
0.826321 0.506147 0.249754
0.120214 0.127352 0.136986
0.158766 0.136361 0.138337
0.261934 0.168467 0.143037
0.374409 0.221093 0.151133
0.484444 0.279189 0.163909
0.591819 0.339227 0.182378
0.695123 0.397290 0.203355
0.772965 0.456472 0.225403
0.826412 0.513088 0.250429
0.130327 0.224090 0.140401
0.165701 0.230713 0.141725
0.266870 0.252904 0.146236
0.377325 0.288159 0.154283
0.486459 0.331808 0.167420
0.593329 0.379404 0.185859
0.696131 0.432805 0.206234
0.773554 0.484391 0.227993
0.826736 0.536892 0.252838
0.145204 0.333280 0.146416
0.178056 0.337605 0.147606
0.275570 0.352336 0.152015
0.382607 0.373347 0.160297
0.490134 0.406011 0.174072
0.596093 0.444538 0.192069
0.697979 0.485920 0.211407
0.774633 0.530497 0.232664
0.827331 0.576925 0.257202
0.165396 0.438245 0.155036
0.195481 0.440884 0.156208
0.287731 0.450186 0.160986
0.390318 0.466624 0.170086
0.495560 0.489787 0.183808
0.600193 0.518820 0.200427
0.700727 0.552464 0.218860
0.776240 0.589870 0.240121
0.828218 0.630266 0.263574
0.189797 0.536773 0.167864
0.219086 0.538738 0.169192
0.303639 0.545714 0.174328
0.400400 0.558224 0.183399
0.502757 0.576219 0.196039
0.605671 0.599322 0.211069
0.704408 0.626976 0.228651
0.778395 0.658546 0.249820
0.829408 0.693408 0.271858
0.219632 0.632679 0.184736
0.248279 0.634232 0.186075
0.322374 0.639767 0.190796
0.412715 0.649774 0.198732
0.511701 0.664343 0.209807
0.612536 0.683329 0.223814
0.709038 0.706433 0.241174
0.781112 0.728311 0.261019
0.830912 0.750363 0.281964
0.254461 0.723735 0.202951
0.277089 0.724673 0.204073
0.341567 0.728021 0.208059
0.427074 0.734090 0.215146
0.522330 0.742960 0.225373
0.620774 0.754574 0.238995
0.714616 0.768778 0.255701
0.784394 0.784978 0.273916
0.832731 0.802152 0.293573
0.286914 0.790440 0.221889
0.306593 0.791143 0.222918
0.362770 0.793656 0.226568
0.443263 0.798226 0.233115
0.534556 0.804855 0.243458
0.630354 0.812556 0.256332
0.720839 0.822036 0.271316
0.788239 0.833174 0.288221
0.834867 0.845608 0.306606
0.118229 0.094330 0.245850
0.156780 0.108739 0.246860
0.260580 0.143640 0.250381
0.373617 0.201372 0.256508
0.483899 0.264657 0.265368
0.591411 0.327400 0.276727
0.694850 0.388276 0.290295
0.772806 0.449560 0.305743
0.826324 0.507245 0.322838
0.120294 0.132079 0.246575
0.158830 0.140551 0.247582
0.261978 0.173122 0.251054
0.374434 0.224530 0.257162
0.484462 0.281820 0.265993
0.591832 0.341392 0.277321
0.695131 0.398940 0.290847
0.772970 0.457742 0.306257
0.826415 0.514165 0.323322
0.130411 0.227486 0.249158
0.165764 0.233994 0.250101
0.266913 0.255800 0.253456
0.377350 0.290659 0.259499
0.486476 0.334026 0.268222
0.593342 0.381149 0.279445
0.696140 0.434174 0.292820
0.773559 0.485559 0.308094
0.826739 0.537892 0.325055
0.145269 0.335487 0.253595
0.178114 0.339781 0.254519
0.275610 0.354023 0.257808
0.382632 0.374887 0.263736
0.490152 0.407617 0.272268
0.596106 0.445856 0.283292
0.697988 0.487083 0.296409
0.774638 0.531515 0.311440
0.827334 0.577827 0.328214
0.165459 0.439590 0.260070
0.195534 0.442218 0.260968
0.287768 0.451480 0.264164
0.390342 0.467855 0.269893
0.495577 0.490936 0.278191
0.600206 0.519880 0.288856
0.700736 0.553424 0.301673
0.776245 0.590744 0.316364
0.828220 0.631060 0.332871
0.189854 0.537774 0.268507
0.219136 0.539734 0.269365
0.303675 0.546691 0.272421
0.400423 0.559170 0.277941
0.502774 0.577122 0.285911
0.605684 0.600177 0.296173
0.704417 0.627777 0.308563
0.778400 0.659293 0.322886
0.829411 0.694101 0.339041
0.219682 0.633470 0.278757
0.248327 0.635020 0.279578
0.322407 0.640545 0.282504
0.412737 0.650534 0.287712
0.511718 0.665079 0.295292
0.612548 0.684036 0.305135
0.709047 0.707108 0.317061
0.781117 0.728782 0.330997
0.830914 0.750803 0.346756
0.254508 0.724212 0.290571
0.277129 0.725149 0.291339
0.341595 0.728492 0.294079
0.427096 0.734552 0.299041
0.522346 0.743410 0.306235
0.620787 0.755008 0.315618
0.714624 0.769194 0.327125
0.784399 0.785343 0.340590
0.832734 0.802496 0.355972
0.286951 0.790797 0.303784
0.306629 0.791500 0.304506
0.362796 0.794010 0.307081
0.443283 0.798575 0.311751
0.534572 0.805152 0.318580
0.630366 0.812845 0.327582
0.720847 0.822314 0.338634
0.788244 0.833442 0.351699
0.834870 0.845783 0.366559
0.118485 0.107976 0.369279
0.156902 0.119335 0.369862
0.260661 0.151940 0.371947
0.373664 0.208392 0.375780
0.483932 0.269640 0.381440
0.591435 0.331449 0.388517
0.694867 0.391390 0.396950
0.772816 0.451943 0.406927
0.826329 0.509256 0.418351
0.120436 0.140038 0.369697
0.158946 0.148900 0.370279
0.262058 0.181501 0.372362
0.374482 0.230719 0.376194
0.484494 0.286586 0.381847
0.591856 0.345337 0.388879
0.695148 0.401953 0.397300
0.772980 0.460065 0.407266
0.826420 0.516138 0.418677
0.130564 0.233581 0.371195
0.165880 0.239901 0.371775
0.266991 0.260992 0.373860
0.377397 0.295191 0.377677
0.486509 0.338065 0.383304
0.593366 0.384335 0.390172
0.696156 0.436676 0.398556
0.773568 0.487697 0.408480
0.826744 0.539726 0.419846
0.145389 0.339507 0.373947
0.178221 0.343746 0.374527
0.275684 0.357094 0.376603
0.382678 0.378102 0.380388
0.490184 0.410553 0.385823
0.596130 0.448267 0.392537
0.698004 0.489212 0.400853
0.774648 0.533380 0.410701
0.827339 0.579482 0.421984
0.165576 0.442049 0.378040
0.195631 0.444656 0.378613
0.287837 0.453849 0.380663
0.390387 0.470108 0.384399
0.495608 0.493042 0.389407
0.600230 0.521822 0.396037
0.700752 0.555184 0.404255
0.776254 0.592347 0.413992
0.828226 0.632519 0.425156
0.189957 0.539608 0.383491
0.219229 0.541558 0.384054
0.303742 0.548482 0.385915
0.400466 0.560904 0.389256
0.502805 0.578780 0.394180
0.605707 0.601744 0.400701
0.704433 0.629246 0.408790
0.778410 0.660662 0.418383
0.829416 0.695373 0.429390
0.219774 0.634920 0.389752
0.248416 0.636465 0.390253
0.322469 0.641972 0.392046
0.412779 0.651931 0.395315
0.511748 0.666432 0.400136
0.612572 0.685336 0.406527
0.709063 0.708347 0.414460
0.781126 0.729646 0.423877
0.830919 0.751610 0.434694
0.254593 0.725089 0.397125
0.277202 0.726023 0.397613
0.341645 0.729357 0.399360
0.427135 0.735401 0.402548
0.522376 0.744236 0.407252
0.620810 0.755805 0.413492
0.714639 0.769958 0.421246
0.784408 0.786012 0.430459
0.832739 0.803129 0.441055
0.287019 0.791454 0.405639
0.306695 0.792155 0.406113
0.362845 0.794660 0.407810
0.443320 0.799216 0.410908
0.534600 0.805698 0.415482
0.630389 0.813375 0.421556
0.720862 0.822826 0.429110
0.788253 0.833932 0.438097
0.834875 0.846103 0.448446
0.118666 0.123502 0.483494
0.157083 0.132897 0.483866
0.260783 0.164711 0.485200
0.373735 0.218359 0.487642
0.483980 0.277108 0.491264
0.591472 0.337522 0.496066
0.694891 0.395993 0.502063
0.772830 0.455475 0.509257
0.826337 0.512243 0.517615
0.120634 0.152399 0.483761
0.159119 0.161342 0.484133
0.262179 0.193244 0.485466
0.374553 0.239628 0.487906
0.484543 0.293466 0.491525
0.591893 0.351058 0.496321
0.695172 0.406409 0.502314
0.772994 0.463510 0.509503
0.826428 0.519069 0.517856
0.130790 0.242382 0.484719
0.166053 0.248464 0.485090
0.267109 0.268523 0.486420
0.377467 0.301816 0.488853
0.486557 0.344009 0.492462
0.593403 0.389040 0.497237
0.696181 0.440382 0.503214
0.773583 0.490872 0.510385
0.826752 0.542451 0.518718
0.145580 0.345424 0.486475
0.178381 0.349585 0.486844
0.275795 0.361611 0.488167
0.382747 0.382901 0.490589
0.490232 0.414896 0.494166
0.596167 0.451840 0.498915
0.698029 0.492372 0.504865
0.774662 0.536152 0.512003
0.827347 0.581944 0.520300
0.165750 0.445692 0.489086
0.195777 0.448269 0.489452
0.287944 0.457360 0.490765
0.390454 0.473450 0.493164
0.495656 0.496168 0.496695
0.600266 0.524709 0.501411
0.700776 0.557802 0.507320
0.776268 0.594734 0.514411
0.828233 0.634691 0.522654
0.190112 0.542334 0.492583
0.219367 0.544270 0.492943
0.303842 0.551146 0.494231
0.400531 0.563484 0.496588
0.502851 0.581247 0.500085
0.605743 0.604077 0.504756
0.704457 0.631435 0.510611
0.778424 0.662704 0.517639
0.829424 0.697270 0.525811
0.219912 0.637081 0.496939
0.248549 0.638619 0.497294
0.322561 0.644099 0.498566
0.412840 0.654012 0.500894
0.511793 0.668448 0.504349
0.612607 0.687273 0.508966
0.709086 0.710194 0.514754
0.781140 0.730934 0.521704
0.830927 0.752814 0.529789
0.254719 0.726396 0.502188
0.277313 0.727326 0.502538
0.341721 0.730646 0.503792
0.427194 0.736666 0.506086
0.522420 0.745467 0.509492
0.620844 0.756994 0.514044
0.714661 0.771098 0.519753
0.784422 0.787009 0.526611
0.832746 0.804073 0.534593
0.287121 0.792435 0.508322
0.306793 0.793134 0.508666
0.362917 0.795630 0.509898
0.443376 0.800172 0.512155
0.534643 0.806513 0.515504
0.630422 0.814167 0.519983
0.720884 0.823589 0.525602
0.788266 0.834665 0.532354
0.834882 0.846581 0.540217
0.119033 0.140428 0.593146
0.157327 0.149324 0.593423
0.260948 0.181926 0.594416
0.373832 0.231038 0.596237
0.484047 0.286833 0.598948
0.591521 0.345542 0.602583
0.694924 0.402110 0.607162
0.772849 0.460186 0.612671
0.826348 0.516241 0.619007
0.120909 0.169784 0.593345
0.159352 0.178851 0.593621
0.262343 0.207823 0.594614
0.374648 0.251132 0.596435
0.484609 0.302438 0.599144
0.591943 0.357345 0.602777
0.695205 0.412338 0.607354
0.773013 0.468108 0.612857
0.826438 0.522994 0.619190
0.131089 0.253732 0.594058
0.166287 0.259332 0.594334
0.267268 0.278577 0.595325
0.377562 0.310383 0.597142
0.486623 0.351687 0.599847
0.593452 0.395289 0.603474
0.696213 0.445320 0.608044
0.773602 0.495115 0.613524
0.826762 0.546104 0.619847
0.145858 0.352809 0.595366
0.178597 0.356108 0.595642
0.275945 0.367578 0.596630
0.382840 0.389272 0.598442
0.490297 0.420678 0.601138
0.596215 0.456604 0.604754
0.698061 0.496598 0.609311
0.774681 0.539865 0.614748
0.827357 0.585248 0.621053
0.165984 0.450549 0.597316
0.195973 0.453087 0.597590
0.288089 0.462045 0.598574
0.390544 0.477914 0.600378
0.495720 0.500348 0.603062
0.600315 0.528554 0.606662
0.700809 0.561312 0.611199
0.776287 0.597937 0.616572
0.828244 0.637610 0.622851
0.190320 0.545988 0.599937
0.219553 0.547905 0.600210
0.303976 0.554716 0.601187
0.400618 0.566943 0.602980
0.502914 0.584556 0.605648
0.605791 0.607210 0.609227
0.704489 0.634375 0.613694
0.778442 0.665448 0.619025
0.829435 0.699822 0.625268
0.220097 0.639985 0.603248
0.248728 0.641512 0.603518
0.322685 0.646958 0.604488
0.412923 0.656808 0.606267
0.511854 0.671159 0.608915
0.612654 0.689878 0.612452
0.709118 0.712680 0.616833
0.781159 0.732667 0.622125
0.830937 0.754434 0.628323
0.254889 0.728153 0.607258
0.277462 0.729078 0.607526
0.341822 0.732380 0.608487
0.427273 0.738368 0.610250
0.522479 0.747123 0.612849
0.620890 0.758593 0.616294
0.714691 0.772631 0.620636
0.784440 0.788353 0.625881
0.832757 0.805207 0.632026
0.287258 0.793755 0.611966
0.306927 0.794450 0.612225
0.363014 0.796937 0.613156
0.443451 0.801460 0.614862
0.534700 0.807610 0.617402
0.630467 0.815232 0.620811
0.720913 0.824617 0.625107
0.788284 0.835651 0.630298
0.834892 0.847225 0.636381
0.119132 0.161847 0.698825
0.157635 0.171283 0.699039
0.261157 0.201539 0.699807
0.373954 0.246124 0.701215
0.484131 0.298511 0.703315
0.591584 0.354604 0.706138
0.694966 0.409729 0.709705
0.772874 0.466082 0.714027
0.826361 0.521263 0.719110
0.121397 0.190832 0.698979
0.159647 0.198832 0.699193
0.262550 0.224677 0.699960
0.374770 0.264580 0.701368
0.484693 0.313131 0.703467
0.592005 0.365047 0.706289
0.695247 0.419730 0.709855
0.773038 0.473866 0.714176
0.826452 0.527912 0.719257
0.131460 0.266953 0.699530
0.166582 0.272300 0.699743
0.267470 0.290765 0.700509
0.377683 0.320430 0.701916
0.486706 0.359580 0.704013
0.593515 0.403067 0.706832
0.696255 0.451492 0.710393
0.773626 0.500440 0.714710
0.826776 0.550699 0.719785
0.146209 0.360664 0.700541
0.178871 0.363851 0.700754
0.276136 0.374953 0.701519
0.382958 0.397194 0.702923
0.490379 0.427894 0.705015
0.596278 0.462565 0.707828
0.698103 0.501900 0.711383
0.774705 0.544536 0.715691
0.827371 0.589412 0.720756
0.166281 0.456621 0.702051
0.196221 0.459112 0.702263
0.288273 0.467908 0.703025
0.390659 0.483507 0.704425
0.495801 0.505595 0.706511
0.600376 0.533368 0.709315
0.700850 0.565731 0.712859
0.776311 0.601975 0.717154
0.828257 0.641296 0.722204
0.190585 0.550584 0.704083
0.219790 0.552479 0.704295
0.304148 0.559210 0.705054
0.400728 0.571300 0.706447
0.502993 0.588727 0.708524
0.605852 0.611161 0.711317
0.704530 0.638087 0.714847
0.778466 0.668915 0.719124
0.829448 0.703049 0.724155
0.220333 0.643650 0.706655
0.248956 0.645166 0.706866
0.322843 0.650567 0.707621
0.413029 0.660341 0.709007
0.511931 0.674584 0.711073
0.612713 0.693171 0.713852
0.709158 0.715438 0.717363
0.781182 0.734857 0.721619
0.830951 0.756482 0.726625
0.255106 0.730374 0.709780
0.277651 0.731293 0.709989
0.341952 0.734572 0.710739
0.427374 0.740520 0.712117
0.522554 0.749218 0.714170
0.620949 0.760616 0.716931
0.714729 0.774571 0.720420
0.784464 0.790053 0.724650
0.832770 0.806608 0.729625
0.287433 0.795425 0.713463
0.307096 0.796117 0.713671
0.363138 0.798590 0.714415
0.443546 0.803089 0.715782
0.534773 0.808999 0.717820
0.630525 0.816581 0.720561
0.720950 0.825919 0.724025
0.788307 0.836901 0.728225
0.834905 0.848041 0.733165
0.119380 0.188322 0.781539
0.158009 0.196455 0.781660
0.261412 0.222634 0.782092
0.374103 0.262941 0.782887
0.484233 0.311849 0.784072
0.591661 0.364090 0.785667
0.695017 0.418807 0.787683
0.772904 0.473145 0.790129
0.826378 0.527300 0.793009
0.121933 0.213266 0.781626
0.160005 0.220249 0.781746
0.262803 0.243504 0.782179
0.374919 0.280181 0.782973
0.484796 0.325210 0.784158
0.592082 0.374121 0.785752
0.695298 0.428549 0.787768
0.773068 0.480768 0.790213
0.826468 0.533794 0.793093
0.131900 0.282466 0.781936
0.166940 0.287543 0.782057
0.267717 0.304719 0.782489
0.377830 0.332644 0.783282
0.486808 0.368866 0.784466
0.593591 0.412325 0.786059
0.696306 0.458873 0.788072
0.773656 0.506838 0.790516
0.826792 0.556239 0.793392
0.146633 0.369907 0.782507
0.179203 0.372971 0.782627
0.276369 0.385022 0.783058
0.383102 0.406616 0.783851
0.490480 0.435895 0.785032
0.596354 0.469702 0.786622
0.698154 0.508272 0.788632
0.774735 0.550165 0.791071
0.827387 0.594443 0.793943
0.166641 0.463888 0.783358
0.196524 0.466324 0.783478
0.288498 0.474932 0.783909
0.390799 0.490219 0.784699
0.495900 0.511902 0.785877
0.600452 0.539165 0.787463
0.700900 0.571064 0.789468
0.776341 0.606857 0.791900
0.828273 0.645757 0.794764
0.190907 0.556126 0.784506
0.220079 0.557994 0.784625
0.304356 0.564631 0.785054
0.400863 0.576558 0.785841
0.503090 0.593766 0.787015
0.605926 0.615939 0.788595
0.704580 0.642581 0.790593
0.778496 0.673116 0.793017
0.829464 0.706962 0.795872
0.220621 0.648088 0.785959
0.249234 0.649589 0.786078
0.323036 0.654938 0.786505
0.413159 0.664620 0.787288
0.512026 0.678735 0.788457
0.612787 0.697164 0.790030
0.709208 0.718260 0.792019
0.781211 0.737512 0.794432
0.830967 0.758968 0.797274
0.255369 0.733067 0.787725
0.277881 0.733978 0.787844
0.342110 0.737230 0.788268
0.427497 0.743129 0.789047
0.522646 0.751759 0.790210
0.621020 0.763072 0.791774
0.714776 0.776927 0.793752
0.784492 0.792117 0.796153
0.832786 0.808310 0.798980
0.287646 0.797454 0.789810
0.307302 0.798142 0.789927
0.363290 0.800598 0.790349
0.443663 0.804966 0.791123
0.534862 0.810685 0.792278
0.630595 0.818220 0.793832
0.720996 0.827501 0.795798
0.788336 0.838419 0.798183
0.834921 0.849032 0.800992
0.119774 0.215015 0.840153
0.158449 0.221931 0.840209
0.261714 0.245013 0.840409
0.374280 0.281456 0.840776
0.484355 0.326197 0.841324
0.591752 0.374868 0.842061
0.695078 0.429224 0.842994
0.772939 0.481341 0.844126
0.826397 0.534284 0.845461
0.122498 0.236621 0.840193
0.160426 0.242865 0.840249
0.263103 0.263594 0.840449
0.375095 0.297473 0.840816
0.484918 0.340107 0.841363
0.592173 0.385949 0.842100
0.695359 0.437946 0.843033
0.773103 0.488784 0.844165
0.826488 0.540658 0.845500
0.132404 0.299570 0.840337
0.167363 0.304239 0.840392
0.268009 0.319681 0.840592
0.378004 0.347507 0.840959
0.486929 0.380113 0.841506
0.593682 0.422994 0.842242
0.696367 0.467424 0.843174
0.773691 0.514288 0.844305
0.826812 0.562714 0.845639
0.147130 0.381268 0.840600
0.179597 0.384670 0.840656
0.276645 0.396599 0.840855
0.383273 0.417464 0.841221
0.490600 0.445074 0.841767
0.596444 0.477981 0.842503
0.698214 0.515693 0.843433
0.774770 0.556743 0.844563
0.827407 0.600336 0.845894
0.167066 0.472311 0.840994
0.196883 0.474687 0.841049
0.288765 0.483086 0.841248
0.390965 0.498022 0.841613
0.496018 0.519250 0.842158
0.600541 0.545933 0.842892
0.700960 0.577302 0.843820
0.776376 0.612580 0.844947
0.828293 0.650996 0.846275
0.191287 0.562603 0.841524
0.220421 0.564440 0.841579
0.304604 0.570971 0.841777
0.401023 0.582713 0.842142
0.503206 0.599669 0.842685
0.606014 0.621542 0.843416
0.704639 0.647857 0.844341
0.778530 0.678055 0.845465
0.829483 0.711568 0.846789
0.220961 0.653301 0.842196
0.249563 0.654784 0.842251
0.323264 0.660073 0.842448
0.413312 0.669649 0.842811
0.512139 0.683616 0.843352
0.612873 0.701862 0.844080
0.709266 0.721578 0.845002
0.781246 0.740636 0.846121
0.830986 0.761895 0.847441
0.255682 0.736234 0.843013
0.278155 0.737136 0.843068
0.342298 0.740357 0.843264
0.427643 0.746200 0.843625
0.522755 0.754750 0.844164
0.621105 0.765963 0.844889
0.714831 0.779702 0.845806
0.784526 0.794550 0.846920
0.832804 0.810316 0.848233
0.287903 0.799845 0.843978
0.307547 0.800528 0.844033
0.363469 0.802966 0.844228
0.443801 0.806998 0.844587
0.534967 0.812673 0.845122
0.630678 0.820152 0.845843
0.721050 0.829367 0.846755
0.788369 0.840211 0.847863
0.834940 0.850201 0.849169
