kodachrome64/Kodachrome64_Classic_ExtraPunchy.cube
TITLE "Kodachrome 64 Classic ExtraPunchy"
# Adobe RGB in/out. REPLACES AgX. Kodachrome 64 Classic ExtraPunchy.
LUT_3D_SIZE 9
DOMAIN_MIN 0.0 0.0 0.0
DOMAIN_MAX 1.0 1.0 1.0
0.069399 0.072436 0.066853
0.069399 0.072436 0.066853
0.085962 0.072436 0.066853
0.216285 0.073581 0.066853
0.549424 0.080028 0.066853
0.846206 0.113322 0.066853
0.944756 0.236165 0.067236
0.976530 0.419566 0.068140
0.986928 0.608209 0.069305
0.069399 0.072436 0.066853
0.069399 0.072436 0.066853
0.086490 0.072672 0.066853
0.217623 0.074753 0.066853
0.551204 0.084537 0.066853
0.846799 0.131448 0.066853
0.944918 0.257720 0.067270
0.976572 0.450767 0.068144
0.986942 0.624886 0.069348
0.069399 0.074914 0.066853
0.069605 0.075377 0.066853
0.088669 0.078566 0.066853
0.222438 0.087171 0.066853
0.557604 0.121842 0.066853
0.848923 0.217394 0.066853
0.945498 0.366825 0.067388
0.976721 0.546353 0.068159
0.986991 0.687768 0.069499
0.069399 0.123705 0.066853
0.070446 0.129300 0.066853
0.092971 0.150282 0.066853
0.231228 0.200383 0.066853
0.569299 0.284496 0.066853
0.852812 0.406393 0.066918
0.946560 0.551417 0.067593
0.976995 0.667681 0.068382
0.987082 0.802841 0.069770
0.069589 0.384799 0.066853
0.072341 0.393749 0.066853
0.099893 0.426617 0.066853
0.245190 0.484104 0.066853
0.586368 0.564363 0.066853
0.858581 0.638822 0.067146
0.948075 0.739337 0.067917
0.977402 0.822905 0.068770
0.987217 0.876826 0.070230
0.071648 0.687383 0.066853
0.076256 0.693764 0.066853
0.109477 0.716705 0.066853
0.267694 0.759003 0.066853
0.609503 0.801757 0.067018
0.866269 0.837602 0.067580
0.950088 0.873491 0.068163
0.977947 0.900769 0.069309
0.987399 0.930020 0.070993
0.076348 0.879270 0.066853
0.082028 0.880195 0.066853
0.127821 0.882194 0.066887
0.298010 0.891993 0.067083
0.636912 0.906551 0.067531
0.875636 0.923997 0.068126
0.952611 0.937726 0.068823
0.978632 0.952150 0.070025
0.987627 0.962525 0.072025
0.083977 0.949367 0.067253
0.093818 0.949938 0.067300
0.157899 0.951974 0.067462
0.336711 0.955652 0.067752
0.674421 0.960356 0.068144
0.886872 0.963751 0.068713
0.955396 0.966646 0.069678
0.979457 0.971845 0.071180
0.987903 0.977268 0.073532
0.099411 0.973979 0.068045
0.111733 0.974254 0.068088
0.198991 0.974972 0.068151
0.388658 0.976210 0.068407
0.717933 0.978017 0.068938
0.897204 0.980381 0.069716
0.957872 0.983236 0.070944
0.980410 0.985681 0.072844
0.988227 0.986614 0.076626
0.069399 0.072436 0.066853
0.069399 0.072436 0.066853
0.085967 0.072436 0.066853
0.216297 0.073629 0.066853
0.549439 0.080236 0.067051
0.846211 0.114128 0.067628
0.944758 0.237094 0.068212
0.976531 0.420869 0.069378
0.986928 0.608942 0.071082
0.069399 0.072436 0.066853
0.069399 0.072436 0.066853
0.086495 0.072688 0.066853
0.217635 0.074805 0.066853
0.551219 0.084743 0.067071
0.846804 0.132257 0.067657
0.944919 0.258696 0.068254
0.976572 0.451902 0.069420
0.986942 0.625612 0.071137
0.069399 0.074965 0.066853
0.069606 0.075483 0.066853
0.088675 0.078685 0.066853
0.222449 0.087432 0.066853
0.557620 0.122623 0.067178
0.848929 0.218750 0.067780
0.945500 0.368065 0.068402
0.976722 0.547428 0.069570
0.986992 0.688671 0.071332
0.069399 0.124491 0.066853
0.070448 0.130099 0.066853
0.092977 0.151134 0.066853
0.231240 0.201678 0.066997
0.569314 0.286275 0.067400
0.852817 0.407680 0.067996
0.946562 0.552494 0.068664
0.976995 0.668372 0.069838
0.987082 0.803226 0.071756
0.069590 0.386061 0.066871
0.072343 0.395022 0.066903
0.099899 0.428050 0.067012
0.245204 0.485260 0.067271
0.586383 0.565445 0.067708
0.858586 0.639545 0.068159
0.948076 0.740242 0.069034
0.977402 0.823283 0.070326
0.987218 0.877050 0.072452
0.071649 0.688286 0.067194
0.076259 0.694668 0.067242
0.109484 0.717609 0.067408
0.267709 0.759910 0.067693
0.609519 0.802143 0.068137
0.866274 0.837972 0.068648
0.950089 0.873717 0.069608
0.977947 0.900977 0.071087
0.987399 0.930135 0.073414
0.076349 0.879492 0.067741
0.082032 0.880286 0.067788
0.127830 0.882272 0.067952
0.298027 0.892205 0.068150
0.636928 0.906756 0.068584
0.875641 0.924115 0.069327
0.952612 0.937834 0.070410
0.978632 0.952230 0.072154
0.987627 0.962560 0.075175
0.083981 0.949448 0.068233
0.093825 0.950019 0.068291
0.157911 0.952054 0.068496
0.336727 0.955730 0.068850
0.674437 0.960393 0.069418
0.886876 0.963786 0.070239
0.955396 0.966669 0.071610
0.979458 0.971885 0.073651
0.987904 0.977293 0.078397
0.099417 0.974018 0.069214
0.111741 0.974292 0.069275
0.199002 0.974999 0.069488
0.388683 0.976236 0.069862
0.717948 0.978042 0.070589
0.897207 0.980406 0.071671
0.957873 0.983257 0.073351
0.980410 0.985686 0.076893
0.988227 0.986618 0.083591
0.069399 0.072436 0.070777
0.069399 0.072436 0.070855
0.085983 0.072436 0.071133
0.216339 0.073798 0.071688
0.549496 0.080966 0.072661
0.846230 0.117044 0.073972
0.944763 0.240441 0.077476
0.976532 0.425572 0.083217
0.986929 0.611564 0.091726
0.069399 0.072436 0.070833
0.069399 0.072436 0.070911
0.086511 0.072767 0.071187
0.217677 0.074988 0.071752
0.551276 0.085479 0.072734
0.846823 0.135178 0.074073
0.944925 0.262483 0.077631
0.976574 0.455985 0.083440
0.986943 0.628217 0.092048
0.069399 0.075148 0.071033
0.069609 0.075936 0.071110
0.088696 0.079109 0.071391
0.222492 0.088362 0.071978
0.557676 0.125447 0.072993
0.848947 0.223458 0.074568
0.945505 0.372533 0.078185
0.976723 0.551295 0.084239
0.986992 0.691916 0.093191
0.069399 0.127331 0.071404
0.070452 0.133000 0.071495
0.093000 0.154319 0.071814
0.231281 0.206367 0.072471
0.569369 0.292722 0.073461
0.852836 0.412319 0.075510
0.946567 0.556367 0.079296
0.976997 0.671383 0.085783
0.987083 0.804610 0.095406
0.069593 0.390608 0.072043
0.072350 0.399607 0.072148
0.099921 0.433213 0.072521
0.245256 0.489417 0.073187
0.586438 0.569333 0.074265
0.858604 0.642138 0.077071
0.948081 0.743497 0.081459
0.977404 0.824640 0.088126
0.987218 0.877854 0.098875
0.071655 0.691531 0.073026
0.076272 0.697913 0.073126
0.109510 0.720859 0.073479
0.267764 0.763170 0.074205
0.609573 0.803529 0.076245
0.866291 0.839301 0.079218
0.950094 0.874529 0.084443
0.977949 0.901722 0.091757
0.987399 0.930547 0.103585
0.076353 0.879970 0.074402
0.082048 0.880570 0.074600
0.127864 0.882942 0.075305
0.298085 0.892967 0.076750
0.636985 0.907489 0.078925
0.875658 0.924539 0.082953
0.952617 0.938221 0.088361
0.978634 0.952516 0.097470
0.987628 0.962688 0.110156
0.083996 0.949738 0.077553
0.093847 0.950308 0.077769
0.157956 0.952340 0.078539
0.336784 0.956009 0.080336
0.674494 0.960525 0.083430
0.886893 0.963912 0.087875
0.955400 0.966750 0.094606
0.979459 0.972027 0.104789
0.987904 0.977386 0.120694
0.099439 0.974158 0.082369
0.111769 0.974414 0.082681
0.199042 0.975095 0.083798
0.388773 0.976330 0.085931
0.718002 0.978134 0.088909
0.897219 0.980494 0.094942
0.957876 0.983333 0.103270
0.980412 0.985708 0.114713
0.988228 0.986635 0.138582
0.069399 0.072436 0.143923
0.069399 0.072436 0.145093
0.086014 0.072498 0.149343
0.216417 0.074105 0.157348
0.549599 0.082280 0.169758
0.846264 0.122170 0.187426
0.944772 0.246637 0.211501
0.976534 0.435069 0.242956
0.986930 0.616380 0.288187
0.069399 0.072436 0.144762
0.069399 0.072464 0.145937
0.086542 0.073032 0.150200
0.217755 0.075484 0.158231
0.551379 0.086854 0.170680
0.846857 0.140618 0.188416
0.944934 0.270508 0.212546
0.976576 0.463521 0.244088
0.986943 0.633006 0.289589
0.069399 0.075874 0.147800
0.069615 0.076805 0.148988
0.088735 0.079992 0.153303
0.222570 0.090316 0.161424
0.557780 0.130707 0.174014
0.848982 0.232037 0.191998
0.945514 0.380805 0.216326
0.976725 0.558423 0.248398
0.986993 0.697887 0.294659
0.069399 0.132631 0.153484
0.070460 0.138406 0.154699
0.093041 0.160779 0.159106
0.231357 0.215147 0.167394
0.569469 0.301230 0.180246
0.852870 0.420904 0.198691
0.946576 0.563506 0.223381
0.976999 0.677348 0.256899
0.987084 0.807169 0.304131
0.069599 0.399024 0.162214
0.072363 0.408094 0.163466
0.099961 0.442781 0.168011
0.245350 0.497089 0.176559
0.586538 0.576501 0.189874
0.858638 0.646904 0.208800
0.948090 0.749491 0.234178
0.977406 0.827130 0.269990
0.987219 0.879330 0.318459
0.071665 0.697502 0.174446
0.076296 0.703887 0.175751
0.109558 0.726839 0.180488
0.267864 0.769170 0.189455
0.609674 0.806082 0.203388
0.866323 0.841739 0.222910
0.950102 0.876017 0.249564
0.977951 0.903088 0.288324
0.987400 0.931304 0.335488
0.076362 0.880534 0.190830
0.082076 0.881089 0.192225
0.127927 0.884377 0.197286
0.298193 0.894365 0.206682
0.637089 0.908835 0.221160
0.875690 0.925318 0.241624
0.952625 0.938932 0.271899
0.978636 0.953040 0.312726
0.987629 0.962924 0.357886
0.084023 0.950272 0.212022
0.093888 0.950840 0.213482
0.158037 0.952864 0.218775
0.336888 0.956522 0.228707
0.674600 0.960767 0.244040
0.886924 0.964112 0.267967
0.955406 0.966899 0.300831
0.979461 0.972289 0.339907
0.987905 0.977556 0.386329
0.099479 0.974402 0.238691
0.111822 0.974592 0.240253
0.199117 0.975271 0.245915
0.388939 0.976503 0.257708
0.718101 0.978302 0.276101
0.897241 0.980656 0.302212
0.957882 0.983471 0.334336
0.980414 0.985746 0.372881
0.988228 0.986664 0.422311
0.069399 0.072436 0.535345
0.069399 0.072436 0.536574
0.086060 0.072644 0.540994
0.216533 0.074657 0.549146
0.549754 0.084184 0.561386
0.846316 0.129989 0.578012
0.944786 0.255994 0.599297
0.976538 0.448712 0.625341
0.986931 0.623570 0.644761
0.069399 0.072502 0.536227
0.069399 0.072604 0.537456
0.086587 0.073447 0.541878
0.217871 0.076765 0.550033
0.551534 0.089532 0.562277
0.846909 0.148911 0.578907
0.944948 0.287863 0.600199
0.976580 0.474852 0.626243
0.986945 0.640155 0.645171
0.069399 0.077165 0.539397
0.069623 0.078045 0.540628
0.088792 0.081987 0.545055
0.222686 0.093388 0.553219
0.557934 0.138771 0.565477
0.849033 0.241952 0.582127
0.945528 0.393303 0.603442
0.976729 0.569114 0.629485
0.986994 0.706823 0.646640
0.069399 0.140740 0.545239
0.070471 0.146649 0.546473
0.093103 0.173543 0.550910
0.231471 0.228145 0.559091
0.569619 0.312522 0.571375
0.852921 0.434653 0.588059
0.946590 0.574214 0.609391
0.977003 0.686275 0.635227
0.987085 0.810986 0.651537
0.069608 0.411738 0.554003
0.072383 0.420912 0.555240
0.100020 0.454754 0.559691
0.245492 0.508622 0.567899
0.586689 0.584610 0.580221
0.858688 0.654019 0.596956
0.948103 0.758461 0.618274
0.977410 0.830837 0.639312
0.987220 0.880452 0.657867
0.071681 0.706438 0.565889
0.076324 0.712825 0.567132
0.109630 0.735787 0.571602
0.268015 0.778148 0.579844
0.609825 0.809905 0.592218
0.866372 0.845371 0.608998
0.950115 0.878233 0.630316
0.977955 0.905123 0.644801
0.987401 0.932430 0.666409
0.076375 0.881310 0.581080
0.082118 0.881861 0.582329
0.128020 0.886514 0.586823
0.298355 0.896446 0.595109
0.637246 0.910844 0.607537
0.875737 0.926477 0.624278
0.952638 0.939990 0.639896
0.978640 0.953820 0.655308
0.987630 0.963274 0.677160
0.084063 0.951066 0.599747
0.093950 0.951632 0.601005
0.158160 0.953646 0.605527
0.337045 0.957286 0.613800
0.674757 0.961128 0.626205
0.886971 0.964348 0.638690
0.955414 0.967122 0.649694
0.979465 0.972679 0.668581
0.987906 0.977810 0.690206
0.099539 0.974668 0.621924
0.111901 0.974857 0.623179
0.199227 0.975534 0.627694
0.389188 0.976761 0.635484
0.718249 0.978553 0.641171
0.897274 0.980898 0.650556
0.957890 0.983677 0.665840
0.980417 0.985804 0.684110
0.988229 0.986708 0.705648
0.069399 0.072436 0.826745
0.069399 0.072469 0.827234
0.086122 0.073046 0.828989
0.216690 0.075521 0.832210
0.549963 0.086944 0.837007
0.846385 0.140905 0.843450
0.944805 0.271104 0.851582
0.976543 0.463916 0.861421
0.986932 0.633256 0.867548
0.069399 0.072703 0.827096
0.069399 0.072950 0.827585
0.086649 0.074073 0.829340
0.218028 0.078431 0.832559
0.551743 0.093709 0.837354
0.846978 0.161467 0.843795
0.944967 0.305844 0.851923
0.976584 0.490275 0.861759
0.986946 0.649787 0.867686
0.069399 0.078805 0.828356
0.069635 0.079626 0.828844
0.088869 0.084573 0.830596
0.222844 0.098175 0.833811
0.558144 0.149964 0.838600
0.849102 0.254548 0.845032
0.945547 0.410427 0.853150
0.976734 0.582072 0.862905
0.986996 0.718905 0.868183
0.069399 0.151993 0.830669
0.070487 0.158667 0.831156
0.093186 0.187346 0.832904
0.231624 0.242411 0.836111
0.569821 0.327967 0.840888
0.852990 0.452325 0.847305
0.946609 0.585649 0.855403
0.977008 0.698344 0.864320
0.987086 0.816110 0.869095
0.069620 0.429492 0.834119
0.072409 0.439686 0.834604
0.100101 0.470009 0.836345
0.245684 0.524313 0.839541
0.586892 0.594751 0.844300
0.858757 0.663607 0.850694
0.948121 0.770587 0.858763
0.977414 0.835817 0.865704
0.987222 0.881500 0.870452
0.071702 0.718519 0.838760
0.076342 0.724910 0.839243
0.109727 0.747893 0.840976
0.268218 0.785411 0.844155
0.610029 0.815036 0.848892
0.866437 0.850011 0.855254
0.950133 0.880338 0.863121
0.977959 0.907856 0.867562
0.987403 0.933941 0.872274
0.076392 0.882378 0.844630
0.082174 0.883915 0.845110
0.128147 0.889382 0.846832
0.298573 0.899241 0.849992
0.637457 0.913700 0.854699
0.875802 0.928033 0.861022
0.952655 0.941411 0.865902
0.978644 0.954869 0.869904
0.987631 0.963745 0.874572
0.084118 0.952134 0.851752
0.094033 0.952695 0.852228
0.158325 0.954696 0.853937
0.337256 0.958208 0.857073
0.674970 0.961614 0.861745
0.887034 0.964664 0.865493
0.955426 0.967421 0.868780
0.979469 0.973204 0.872736
0.987907 0.978151 0.877351
0.099620 0.975026 0.860137
0.112007 0.975215 0.860609
0.199377 0.975887 0.862303
0.389524 0.977107 0.864407
0.718449 0.978890 0.866333
0.897318 0.981223 0.868912
0.957902 0.983954 0.872153
0.980421 0.985882 0.876055
0.988231 0.986767 0.880610
0.069399 0.072610 0.929733
0.069399 0.072720 0.929819
0.086201 0.073806 0.930125
0.216890 0.077705 0.930688
0.550229 0.091851 0.931524
0.846474 0.155522 0.932647
0.944829 0.299118 0.933865
0.976549 0.483438 0.934643
0.986934 0.645531 0.935514
0.069399 0.073340 0.929794
0.069399 0.073690 0.929880
0.086727 0.074996 0.930186
0.218228 0.080946 0.930749
0.552009 0.100122 0.931585
0.847067 0.181998 0.932706
0.944991 0.325397 0.933893
0.976591 0.510069 0.934669
0.986948 0.661993 0.935540
0.069399 0.081573 0.930015
0.069650 0.082959 0.930100
0.088968 0.088401 0.930406
0.223045 0.107498 0.930967
0.558410 0.167702 0.931802
0.849190 0.274762 0.932922
0.945571 0.433259 0.933992
0.976740 0.594973 0.934761
0.986998 0.734281 0.935630
0.069399 0.170798 0.930419
0.070506 0.179353 0.930504
0.093293 0.206570 0.930809
0.231820 0.258479 0.931368
0.570079 0.349374 0.932201
0.853077 0.471724 0.933317
0.946633 0.598537 0.934174
0.977014 0.713705 0.934929
0.987088 0.822572 0.935795
0.069635 0.452378 0.931021
0.072443 0.460419 0.931105
0.100204 0.489595 0.931409
0.245928 0.544444 0.931966
0.587150 0.607603 0.932794
0.858843 0.677310 0.933793
0.948143 0.783187 0.934442
0.977421 0.842100 0.935180
0.987224 0.883697 0.936124
0.071728 0.733895 0.931830
0.076363 0.740291 0.931914
0.109851 0.763310 0.932216
0.268477 0.793417 0.932769
0.610288 0.821509 0.933593
0.866520 0.855843 0.934162
0.950155 0.881671 0.934784
0.977965 0.911336 0.935517
0.987405 0.935848 0.936840
0.076413 0.886063 0.932852
0.082246 0.887584 0.932935
0.128308 0.893000 0.933235
0.298853 0.902767 0.933736
0.637726 0.917305 0.934117
0.875883 0.929995 0.934613
0.952677 0.943205 0.935216
0.978650 0.956193 0.935942
0.987633 0.964246 0.937744
0.084187 0.953481 0.933879
0.094139 0.954038 0.933917
0.158536 0.956021 0.934056
0.337525 0.959322 0.934309
0.675241 0.962226 0.934668
0.887114 0.965064 0.935142
0.955442 0.967982 0.935738
0.979475 0.973868 0.937021
0.987909 0.978582 0.938839
0.099723 0.975479 0.934546
0.112142 0.975666 0.934582
0.199568 0.976334 0.934710
0.389951 0.977546 0.934945
0.718704 0.979316 0.935294
0.897374 0.981634 0.935762
0.957917 0.984305 0.936792
0.980427 0.985981 0.938328
0.988233 0.986842 0.940127
0.069399 0.073240 0.962460
0.069399 0.073587 0.962512
0.086297 0.074887 0.962698
0.217134 0.080513 0.963039
0.550553 0.099131 0.963548
0.846582 0.179879 0.964232
0.944859 0.322910 0.965106
0.976557 0.507563 0.966178
0.986937 0.660457 0.967437
0.069399 0.074378 0.962497
0.069399 0.074759 0.962549
0.086823 0.077327 0.962735
0.218472 0.085021 0.963076
0.552334 0.113897 0.963585
0.847175 0.204024 0.964269
0.945021 0.351789 0.965143
0.976598 0.534520 0.966215
0.986951 0.678678 0.967474
0.069399 0.085659 0.962631
0.069668 0.087204 0.962682
0.089088 0.094941 0.962868
0.223290 0.123682 0.963209
0.558736 0.190024 0.963717
0.849298 0.305811 0.964400
0.945600 0.459644 0.965276
0.976748 0.610591 0.966347
0.987000 0.753096 0.967605
0.069399 0.192210 0.962876
0.070530 0.200548 0.962928
0.093423 0.233920 0.963113
0.232058 0.288688 0.963453
0.570393 0.378207 0.963960
0.853184 0.495702 0.964641
0.946662 0.614022 0.965522
0.977021 0.732487 0.966590
0.987091 0.830385 0.967845
0.069653 0.476106 0.963242
0.072475 0.484251 0.963293
0.100329 0.513797 0.963478
0.246226 0.566906 0.963817
0.587465 0.622748 0.964322
0.858949 0.696058 0.965009
0.948171 0.792983 0.965888
0.977428 0.849490 0.966953
0.987226 0.888178 0.968204
0.071760 0.752709 0.963734
0.076390 0.759118 0.963785
0.110002 0.781169 0.963969
0.268793 0.802664 0.964307
0.610604 0.829334 0.964813
0.866621 0.862500 0.965506
0.950183 0.884988 0.966381
0.977973 0.915761 0.967441
0.987407 0.938138 0.968686
0.076440 0.890516 0.964357
0.082334 0.892020 0.964408
0.128504 0.897373 0.964591
0.299195 0.907031 0.964932
0.638055 0.921355 0.965445
0.875983 0.932367 0.966134
0.952704 0.945375 0.967005
0.978658 0.957764 0.968059
0.987636 0.964739 0.969297
0.084272 0.955111 0.965124
0.094268 0.955662 0.965176
0.158793 0.957617 0.965362
0.337854 0.960442 0.965704
0.675572 0.962967 0.966213
0.887212 0.965548 0.966897
0.955460 0.968838 0.967762
0.979482 0.974582 0.968809
0.987912 0.979105 0.970039
0.099849 0.976027 0.966038
0.112307 0.976213 0.966089
0.199801 0.976875 0.966274
0.390473 0.978077 0.966613
0.719015 0.979833 0.967118
0.897442 0.982133 0.967797
0.957935 0.984730 0.968654
0.980434 0.986100 0.969693
0.988235 0.986933 0.970914
0.069399 0.074474 0.979277
0.069399 0.074850 0.979287
0.086412 0.077545 0.979323
0.217424 0.085377 0.979389
0.550939 0.115307 0.979488
0.846711 0.206306 0.979620
0.944894 0.354497 0.979788
0.976566 0.536586 0.979991
0.986940 0.680252 0.980230
0.069399 0.076324 0.979284
0.069399 0.077235 0.979294
0.086936 0.080686 0.979330
0.218762 0.091370 0.979396
0.552720 0.133439 0.979495
0.847303 0.235883 0.979627
0.945056 0.385055 0.979795
0.976607 0.562069 0.979998
0.986954 0.700938 0.980237
0.069399 0.092343 0.979310
0.069689 0.094681 0.979320
0.089231 0.106551 0.979356
0.223581 0.143677 0.979422
0.559122 0.220721 0.979520
0.849426 0.334304 0.979653
0.945635 0.487959 0.979820
0.976757 0.628515 0.980023
0.987003 0.775465 0.980262
0.069399 0.223773 0.979358
0.070559 0.232955 0.979368
0.093577 0.257243 0.979403
0.232342 0.319317 0.979469
0.570767 0.409559 0.979568
0.853311 0.524554 0.979700
0.946697 0.631924 0.979867
0.977030 0.754822 0.980069
0.987094 0.839549 0.980308
0.069674 0.504670 0.979428
0.072491 0.512936 0.979438
0.100478 0.542908 0.979474
0.246579 0.589097 0.979540
0.587840 0.640597 0.979638
0.859075 0.718337 0.979769
0.948204 0.803805 0.979936
0.977437 0.857938 0.980138
0.987229 0.893429 0.980376
0.071798 0.775077 0.979524
0.076421 0.780820 0.979534
0.110181 0.792811 0.979569
0.269168 0.812178 0.979635
0.610980 0.838511 0.979732
0.866742 0.868202 0.979864
0.950215 0.890284 0.980030
0.977982 0.920946 0.980231
0.987410 0.940776 0.980468
0.076471 0.895736 0.979645
0.082437 0.897219 0.979654
0.128738 0.902501 0.979690
0.299602 0.912109 0.979755
0.638445 0.924287 0.979852
0.876101 0.935148 0.979983
0.952736 0.947921 0.980148
0.978666 0.959382 0.980348
0.987639 0.965317 0.980584
0.084372 0.957025 0.979791
0.094422 0.957569 0.979801
0.159098 0.959238 0.979836
0.338245 0.961343 0.979901
0.675965 0.963837 0.979998
0.887328 0.966117 0.980128
0.955482 0.969844 0.980292
0.979491 0.975242 0.980491
0.987915 0.979720 0.980703
0.099998 0.976673 0.979964
0.112503 0.976856 0.979974
0.200077 0.977512 0.980009
0.391093 0.978702 0.980074
0.719384 0.980442 0.980170
0.897523 0.982720 0.980299
0.957956 0.985231 0.980462
0.980441 0.986241 0.980660
0.988238 0.987040 0.980721
