kodachrome64/Kodachrome64_Modern_IlfochromeM.cube
TITLE "Kodachrome 64 Modern IlfochromeM"
# Adobe RGB in/out. REPLACES AgX. Kodachrome 64 Modern IlfochromeM.
LUT_3D_SIZE 5
DOMAIN_MIN 0.0 0.0 0.0
DOMAIN_MAX 1.0 1.0 1.0
0.117094 0.082435 0.080060
0.386655 0.176242 0.099928
0.753829 0.372807 0.143139
0.898258 0.539581 0.199399
0.950144 0.677298 0.256261
0.135873 0.346388 0.095420
0.297578 0.283044 0.099135
0.658237 0.418197 0.134917
0.871720 0.569074 0.190385
0.945527 0.700155 0.249982
0.186333 0.666122 0.126645
0.353987 0.616316 0.128419
0.591154 0.582915 0.141077
0.823663 0.665353 0.181502
0.923040 0.759467 0.238964
0.248919 0.839407 0.155263
0.376474 0.826365 0.157589
0.611758 0.805099 0.170117
0.806702 0.807267 0.198351
0.905509 0.840487 0.241605
0.296490 0.902966 0.185032
0.389357 0.900150 0.188619
0.602334 0.894701 0.201293
0.798344 0.895013 0.224488
0.897703 0.905036 0.260173
0.117997 0.097728 0.392864
0.395705 0.194545 0.400626
0.740234 0.370234 0.376152
0.890144 0.530409 0.378571
0.948356 0.669824 0.393633
0.129604 0.288421 0.323904
0.234685 0.222988 0.220019
0.624081 0.398323 0.307500
0.861646 0.556604 0.350571
0.941802 0.692002 0.380874
0.178244 0.628223 0.341129
0.334562 0.582842 0.308923
0.558097 0.552180 0.276927
0.813789 0.648691 0.310850
0.919701 0.753049 0.353554
0.243396 0.829311 0.331226
0.368683 0.816917 0.322474
0.599859 0.795387 0.308902
0.798912 0.799972 0.313330
0.903609 0.837224 0.342221
0.294284 0.900593 0.319156
0.386662 0.897937 0.318310
0.598810 0.892901 0.319046
0.796299 0.893832 0.328703
0.897327 0.904754 0.350605
0.118609 0.146015 0.815182
0.396081 0.238554 0.817603
0.792948 0.436926 0.815004
0.896891 0.551948 0.731609
0.947560 0.673467 0.682757
0.135474 0.368129 0.799781
0.364365 0.380040 0.756528
0.686740 0.455642 0.699403
0.865127 0.571584 0.673062
0.939537 0.692969 0.656913
0.166771 0.574699 0.644613
0.308816 0.545495 0.595390
0.504504 0.505144 0.505721
0.801848 0.638360 0.568998
0.915789 0.748161 0.600081
0.230257 0.807905 0.626513
0.352768 0.797107 0.607928
0.576577 0.777028 0.567159
0.782635 0.784941 0.547210
0.899938 0.831929 0.566085
0.288623 0.894746 0.583413
0.379844 0.892623 0.577911
0.590258 0.888879 0.564984
0.791396 0.891365 0.557608
0.896251 0.904426 0.563552
0.119118 0.233336 0.944598
0.396772 0.305870 0.944898
0.802773 0.484375 0.945969
0.910382 0.605985 0.917966
0.949645 0.699560 0.882700
0.137726 0.427165 0.944813
0.408489 0.470195 0.945113
0.764888 0.551059 0.931689
0.887356 0.624889 0.895356
0.943540 0.716356 0.871633
0.167995 0.595090 0.874548
0.326359 0.591285 0.864655
0.593842 0.608746 0.844275
0.820899 0.679905 0.838881
0.917681 0.759478 0.836966
0.219366 0.788115 0.843648
0.339430 0.781165 0.835354
0.560766 0.767286 0.805846
0.766073 0.770990 0.775081
0.898096 0.832119 0.797905
0.282114 0.888283 0.820773
0.371777 0.886971 0.815523
0.580738 0.885182 0.801913
0.786198 0.889594 0.790779
0.894906 0.905026 0.790744
0.119798 0.330081 0.986525
0.397804 0.384356 0.986584
0.803059 0.537263 0.986795
0.921031 0.666472 0.980766
0.952419 0.731221 0.957126
0.139409 0.486318 0.986567
0.409492 0.524576 0.986626
0.800311 0.635131 0.986066
0.903616 0.686956 0.971946
0.947520 0.743573 0.950072
0.178739 0.675292 0.965270
0.358836 0.678700 0.961480
0.659103 0.697789 0.951536
0.843722 0.735290 0.940881
0.923509 0.783122 0.931757
0.217061 0.789587 0.929914
0.338215 0.787766 0.925638
0.573192 0.788413 0.914833
0.791859 0.807439 0.906819
0.900936 0.843750 0.904825
0.276493 0.883828 0.909384
0.365101 0.883401 0.907364
0.573471 0.883846 0.901866
0.782958 0.890231 0.896809
0.894357 0.907285 0.896362
