kodachrome64/Kodachrome64_Modern_IlfochromeP.cube
TITLE "Kodachrome 64 Modern IlfochromeP"
# Adobe RGB in/out. REPLACES AgX. Kodachrome 64 Modern IlfochromeP.
LUT_3D_SIZE 33
DOMAIN_MIN 0.0 0.0 0.0
DOMAIN_MAX 1.0 1.0 1.0
0.138776 0.101263 0.100261
0.139828 0.104992 0.100877
0.147369 0.110717 0.101814
0.163046 0.118455 0.102902
0.189007 0.127237 0.104050
0.235398 0.143086 0.105671
0.291564 0.160608 0.107538
0.341331 0.177300 0.109379
0.389258 0.199129 0.112325
0.437803 0.222521 0.115720
0.484659 0.245949 0.119524
0.530701 0.269440 0.123980
0.579070 0.292532 0.128335
0.623628 0.315870 0.132533
0.662439 0.338762 0.137870
0.700124 0.361321 0.143289
0.731556 0.383149 0.149413
0.758681 0.403375 0.155471
0.784753 0.423099 0.161314
0.807514 0.442330 0.166951
0.826905 0.461250 0.173094
0.845516 0.481757 0.180330
0.863431 0.501907 0.187422
0.876917 0.521478 0.194372
0.888686 0.540228 0.201180
0.899977 0.558606 0.207848
0.910654 0.576614 0.214563
0.920267 0.593481 0.221531
0.929501 0.608846 0.228366
0.938376 0.623840 0.235068
0.945090 0.638469 0.241905
0.950200 0.652737 0.248651
0.955103 0.666651 0.255264
0.138867 0.108101 0.100681
0.139199 0.107552 0.100818
0.144098 0.111705 0.101613
0.158676 0.119343 0.102690
0.182931 0.128344 0.103901
0.228842 0.143975 0.105512
0.284812 0.161273 0.107372
0.336137 0.177869 0.109182
0.384865 0.199927 0.112113
0.434090 0.223275 0.115504
0.481562 0.246679 0.119353
0.527785 0.270119 0.123798
0.576480 0.293182 0.128174
0.621690 0.316475 0.132396
0.660708 0.339325 0.137699
0.698566 0.361867 0.143138
0.730472 0.383612 0.149250
0.757705 0.403807 0.155325
0.783868 0.423503 0.161181
0.806865 0.442709 0.166830
0.826314 0.461650 0.172943
0.844979 0.482138 0.180191
0.862940 0.502271 0.187293
0.876599 0.521815 0.194253
0.888395 0.540551 0.201070
0.899711 0.558916 0.207745
0.910428 0.576911 0.214458
0.920059 0.593736 0.221434
0.929309 0.609091 0.228275
0.938199 0.624076 0.234983
0.944987 0.638696 0.241821
0.950106 0.652957 0.248573
0.955016 0.666863 0.255190
0.138970 0.119058 0.101336
0.139701 0.118364 0.101453
0.142757 0.117345 0.101704
0.150861 0.121552 0.102308
0.170996 0.131174 0.103589
0.210055 0.146447 0.105046
0.264292 0.163294 0.106864
0.319617 0.179789 0.108672
0.370895 0.202682 0.111445
0.421797 0.225890 0.114794
0.471132 0.249229 0.118780
0.518337 0.272497 0.123181
0.567577 0.295469 0.127624
0.614972 0.318609 0.131925
0.654674 0.341317 0.137108
0.693111 0.363802 0.142615
0.726662 0.385254 0.148681
0.754261 0.405343 0.154810
0.780740 0.424943 0.160714
0.804565 0.444062 0.166403
0.824221 0.463074 0.172410
0.843073 0.483497 0.179698
0.861199 0.503571 0.186838
0.875466 0.523018 0.193830
0.887360 0.541704 0.200677
0.898762 0.560023 0.207380
0.909622 0.577977 0.214088
0.919317 0.594650 0.221087
0.928625 0.609971 0.227951
0.937567 0.624923 0.234679
0.944622 0.639513 0.241523
0.949768 0.653745 0.248293
0.954703 0.667625 0.254928
0.139161 0.135536 0.102073
0.140043 0.134829 0.102128
0.144315 0.132772 0.102297
0.150263 0.131127 0.102663
0.162558 0.136133 0.103393
0.190821 0.150381 0.104559
0.238863 0.166905 0.106258
0.296682 0.184240 0.108184
0.350605 0.207521 0.110544
0.402844 0.230460 0.113966
0.454457 0.253703 0.117882
0.503232 0.276691 0.122186
0.552703 0.299522 0.126718
0.602663 0.322406 0.131135
0.644286 0.344876 0.136105
0.683633 0.367272 0.141717
0.719977 0.388206 0.147697
0.748184 0.408111 0.153914
0.775194 0.427543 0.159894
0.800467 0.446509 0.165651
0.820479 0.465660 0.171467
0.839656 0.485969 0.178824
0.858069 0.505939 0.186027
0.873425 0.525210 0.193076
0.885491 0.543808 0.199975
0.897046 0.562046 0.206725
0.908123 0.579924 0.213423
0.917974 0.596322 0.220465
0.927384 0.611579 0.227368
0.936418 0.626472 0.234132
0.943958 0.641007 0.240985
0.949154 0.655188 0.247787
0.954133 0.669020 0.254452
0.139867 0.162333 0.103100
0.141010 0.161574 0.103161
0.146575 0.159148 0.103340
0.154643 0.155927 0.103581
0.164742 0.154108 0.103874
0.181551 0.159397 0.104528
0.221602 0.173711 0.106013
0.274236 0.192396 0.107795
0.329214 0.214818 0.109844
0.381300 0.237233 0.113107
0.433903 0.260142 0.116855
0.484341 0.282697 0.120991
0.533572 0.305328 0.125625
0.584709 0.327856 0.130119
0.630297 0.349997 0.134789
0.670683 0.372283 0.140516
0.709662 0.392478 0.146364
0.739677 0.412128 0.152685
0.767368 0.431327 0.158758
0.793877 0.450080 0.164601
0.815136 0.469452 0.170231
0.834756 0.489601 0.177592
0.853565 0.509423 0.184877
0.870474 0.528442 0.192003
0.882781 0.546914 0.198972
0.894552 0.565035 0.205787
0.905823 0.582805 0.212467
0.916013 0.598797 0.219567
0.925570 0.613962 0.226525
0.934737 0.628771 0.233340
0.942984 0.643226 0.240205
0.948251 0.657333 0.247052
0.953295 0.671094 0.253760
0.141725 0.209779 0.104445
0.143776 0.208434 0.104484
0.150191 0.203744 0.104620
0.160918 0.195829 0.104833
0.172707 0.186280 0.105028
0.187456 0.182109 0.105404
0.212692 0.186524 0.106107
0.258424 0.205095 0.107678
0.310748 0.225411 0.109462
0.361695 0.246832 0.112436
0.413166 0.268778 0.115935
0.464297 0.290613 0.119834
0.513365 0.312917 0.124510
0.564285 0.334950 0.129016
0.613918 0.356655 0.133342
0.655223 0.378288 0.139135
0.695106 0.398039 0.144799
0.729184 0.417369 0.151216
0.757616 0.436275 0.157382
0.784806 0.454761 0.163312
0.808369 0.474452 0.169032
0.828513 0.494402 0.176061
0.847795 0.514038 0.183438
0.866278 0.532730 0.190650
0.879276 0.551042 0.197701
0.891315 0.569014 0.204593
0.902829 0.586644 0.211246
0.913452 0.602097 0.218416
0.923196 0.617144 0.225440
0.932532 0.631842 0.232317
0.941485 0.646194 0.239195
0.947062 0.660203 0.246099
0.952191 0.673873 0.252860
0.144354 0.261783 0.106060
0.146931 0.262529 0.106155
0.154687 0.257090 0.106247
0.166507 0.245540 0.106312
0.180077 0.232168 0.106382
0.198915 0.223442 0.106650
0.221748 0.220408 0.107154
0.249691 0.222752 0.107861
0.297859 0.240176 0.109444
0.346018 0.259677 0.112127
0.394931 0.280013 0.115322
0.445247 0.301004 0.119121
0.494042 0.322427 0.123530
0.543353 0.343750 0.127975
0.594325 0.365138 0.132301
0.638404 0.385551 0.137716
0.678957 0.404863 0.143306
0.717299 0.423801 0.149627
0.746425 0.442355 0.155864
0.774304 0.460649 0.161873
0.800450 0.480647 0.167677
0.821150 0.500361 0.174316
0.840946 0.519624 0.181782
0.859902 0.538070 0.189081
0.875062 0.556191 0.196216
0.887407 0.573985 0.203189
0.899200 0.590981 0.209939
0.910338 0.606229 0.217049
0.920300 0.621133 0.224146
0.929835 0.635696 0.231092
0.938971 0.649922 0.237982
0.945600 0.663812 0.244950
0.950829 0.677370 0.251772
0.147494 0.308188 0.107655
0.149652 0.308834 0.107750
0.158574 0.306670 0.107930
0.171177 0.293315 0.107895
0.187978 0.279568 0.107924
0.209685 0.268308 0.108077
0.233439 0.261278 0.108389
0.261299 0.259012 0.108882
0.291863 0.261027 0.109890
0.334903 0.276003 0.112237
0.380514 0.294273 0.115131
0.428618 0.313934 0.118714
0.476510 0.334075 0.122829
0.523616 0.354399 0.127132
0.573998 0.375184 0.131408
0.621353 0.394198 0.136403
0.662206 0.412956 0.141990
0.701881 0.431414 0.148048
0.734361 0.449554 0.154318
0.762866 0.468332 0.160384
0.790254 0.488031 0.166252
0.812948 0.507471 0.172458
0.833255 0.526244 0.179998
0.852692 0.544454 0.187373
0.870258 0.562355 0.194585
0.882929 0.579944 0.201634
0.895022 0.596119 0.208522
0.906577 0.611189 0.215516
0.916938 0.625927 0.222686
0.926695 0.640334 0.229705
0.936034 0.654412 0.236601
0.943887 0.668164 0.243637
0.949229 0.681498 0.250526
0.150717 0.356045 0.109309
0.153571 0.356602 0.109429
0.162127 0.352505 0.109554
0.175742 0.340565 0.109510
0.195297 0.327054 0.109538
0.219419 0.314537 0.109698
0.244959 0.304892 0.110039
0.273222 0.299117 0.110693
0.302341 0.297396 0.111707
0.331636 0.299314 0.113041
0.370286 0.311926 0.115373
0.415442 0.329546 0.118663
0.461675 0.348043 0.122493
0.507307 0.367414 0.126584
0.555237 0.386124 0.130733
0.604405 0.404299 0.135320
0.645741 0.422360 0.140834
0.685510 0.440236 0.146601
0.722026 0.457922 0.152864
0.751001 0.477270 0.158946
0.778892 0.496616 0.164845
0.804216 0.515719 0.170598
0.824991 0.533937 0.178183
0.844882 0.551877 0.185613
0.863941 0.569529 0.192884
0.878001 0.586884 0.199997
0.890400 0.602102 0.206951
0.902241 0.616972 0.213877
0.913183 0.631522 0.221115
0.923173 0.645753 0.228201
0.932730 0.659664 0.235136
0.941880 0.673257 0.242201
0.947416 0.685496 0.249155
0.155641 0.403123 0.111976
0.158063 0.401945 0.112005
0.166051 0.395734 0.111958
0.179888 0.385838 0.111919
0.202179 0.373970 0.111949
0.227791 0.360930 0.112113
0.255543 0.349904 0.112466
0.284241 0.341828 0.113043
0.312460 0.337139 0.113857
0.340444 0.335870 0.114951
0.368958 0.337682 0.116566
0.405594 0.347745 0.118961
0.449752 0.364626 0.122551
0.493545 0.381885 0.126382
0.538757 0.398798 0.130338
0.586691 0.415938 0.134556
0.630285 0.433157 0.139931
0.669856 0.450379 0.145406
0.708681 0.468453 0.151605
0.739185 0.487513 0.157654
0.767415 0.506435 0.163544
0.794650 0.524837 0.169270
0.816430 0.542715 0.176434
0.836716 0.560347 0.183888
0.856168 0.577715 0.191194
0.872757 0.593975 0.198350
0.885451 0.608926 0.205353
0.897572 0.623573 0.212195
0.909118 0.637913 0.219490
0.919344 0.651946 0.226635
0.929123 0.665672 0.233630
0.938481 0.679089 0.240687
0.945421 0.690070 0.247703
0.159858 0.442357 0.114554
0.162212 0.440803 0.114544
0.170224 0.435513 0.114516
0.184875 0.426849 0.114495
0.208293 0.416023 0.114523
0.234916 0.404541 0.114647
0.264579 0.393802 0.114975
0.293962 0.384881 0.115547
0.321857 0.378458 0.116368
0.349118 0.374829 0.117441
0.376739 0.373967 0.118745
0.405942 0.375615 0.120355
0.440368 0.382929 0.122979
0.482407 0.397747 0.126533
0.524856 0.413240 0.130250
0.571236 0.429217 0.134175
0.616430 0.445500 0.139362
0.655471 0.462211 0.144550
0.693992 0.480664 0.150625
0.727829 0.499134 0.156588
0.756210 0.517467 0.162424
0.783675 0.535125 0.168120
0.807833 0.552606 0.174841
0.828432 0.569881 0.182282
0.848212 0.586924 0.189592
0.867206 0.601909 0.196764
0.880295 0.616591 0.203794
0.892678 0.630989 0.210585
0.904515 0.645097 0.217871
0.915286 0.658912 0.225061
0.925283 0.672432 0.232105
0.934848 0.684785 0.239144
0.943277 0.695215 0.246214
0.164602 0.481888 0.117546
0.166758 0.480402 0.117538
0.175021 0.475299 0.117518
0.190439 0.466779 0.117508
0.214103 0.456216 0.117547
0.241604 0.445381 0.117681
0.272309 0.434690 0.117954
0.302163 0.425132 0.118400
0.330189 0.417425 0.119044
0.357195 0.412002 0.119904
0.384504 0.409027 0.121279
0.412987 0.408448 0.122902
0.442210 0.410059 0.124738
0.473718 0.415424 0.127016
0.514433 0.429503 0.130483
0.558361 0.444244 0.134215
0.603750 0.459458 0.139166
0.642701 0.476814 0.144087
0.680643 0.494444 0.149984
0.717254 0.512209 0.155812
0.745594 0.529501 0.161548
0.773121 0.546632 0.167173
0.799437 0.563649 0.173482
0.820250 0.580510 0.180870
0.840274 0.596089 0.188149
0.859535 0.610722 0.195307
0.875053 0.625104 0.202337
0.887667 0.639224 0.209203
0.899734 0.653075 0.216319
0.911081 0.666649 0.223535
0.921283 0.679944 0.230612
0.931047 0.690679 0.237620
0.940395 0.700927 0.244732
0.169337 0.521958 0.120461
0.171804 0.520712 0.120457
0.179626 0.516401 0.120446
0.196267 0.508868 0.120450
0.219976 0.498889 0.120506
0.248023 0.487532 0.120657
0.278998 0.475896 0.120949
0.309020 0.464964 0.121419
0.337256 0.455940 0.122096
0.364437 0.449276 0.122999
0.391835 0.444700 0.124135
0.419915 0.442314 0.125500
0.448523 0.442064 0.127116
0.477006 0.443782 0.128969
0.506358 0.447513 0.131017
0.547978 0.461131 0.134665
0.591865 0.476872 0.139351
0.631706 0.493167 0.144046
0.668861 0.509856 0.149717
0.705756 0.526405 0.155367
0.735803 0.542892 0.160961
0.763229 0.559410 0.166478
0.789919 0.575887 0.172420
0.812357 0.591714 0.179715
0.832534 0.606171 0.186926
0.851983 0.620433 0.194038
0.869835 0.634477 0.201039
0.882643 0.648287 0.207920
0.894908 0.661852 0.214887
0.906654 0.675161 0.222109
0.917197 0.686847 0.229200
0.927144 0.697150 0.236165
0.936672 0.707200 0.243305
0.174934 0.559645 0.123792
0.177085 0.558558 0.123791
0.185271 0.554774 0.123791
0.202348 0.548271 0.123808
0.225612 0.539536 0.123870
0.253928 0.529338 0.124010
0.284901 0.518553 0.124263
0.314944 0.507767 0.124661
0.343389 0.497869 0.125230
0.370880 0.489538 0.125989
0.398603 0.483152 0.126983
0.426578 0.478916 0.128209
0.454738 0.476882 0.129641
0.482600 0.476978 0.131262
0.510997 0.479046 0.133048
0.541201 0.482876 0.135691
0.582193 0.496107 0.139897
0.622486 0.511254 0.144410
0.658725 0.526514 0.149835
0.694866 0.541982 0.155273
0.726988 0.557677 0.160691
0.754170 0.573497 0.166065
0.780719 0.589119 0.171701
0.804907 0.603222 0.178866
0.825143 0.617214 0.185974
0.844696 0.631057 0.193007
0.863574 0.644723 0.199949
0.877699 0.658188 0.206789
0.890124 0.671436 0.213627
0.902037 0.683813 0.220831
0.913094 0.694123 0.227916
0.923205 0.704197 0.234875
0.932895 0.714033 0.241975
0.180166 0.595173 0.126920
0.182603 0.594324 0.126922
0.191637 0.591354 0.126932
0.208340 0.586084 0.126962
0.231123 0.578200 0.127034
0.259536 0.568814 0.127177
0.290287 0.558643 0.127419
0.320196 0.548411 0.127789
0.348771 0.538766 0.128310
0.376575 0.530237 0.129000
0.404706 0.523220 0.129872
0.432754 0.517975 0.130931
0.460600 0.514611 0.132177
0.488137 0.513143 0.133720
0.516063 0.513596 0.136002
0.546071 0.515813 0.138501
0.577405 0.519524 0.141187
0.614926 0.530455 0.145168
0.650198 0.544523 0.150328
0.685494 0.559032 0.155532
0.719221 0.573865 0.160750
0.746046 0.588722 0.165953
0.772337 0.602239 0.171356
0.798009 0.615762 0.178356
0.818216 0.629235 0.185329
0.837792 0.642612 0.192252
0.856737 0.655856 0.199107
0.872917 0.668939 0.205879
0.885460 0.681697 0.212581
0.897505 0.691950 0.219743
0.909039 0.701993 0.226800
0.919289 0.711819 0.233742
0.929121 0.721424 0.240782
0.186830 0.626614 0.129976
0.189355 0.625871 0.129980
0.198535 0.623263 0.129997
0.214489 0.618699 0.130037
0.236555 0.612396 0.130117
0.264947 0.604760 0.130259
0.295294 0.596309 0.130486
0.324905 0.587586 0.130822
0.353497 0.578145 0.131286
0.381625 0.569437 0.131895
0.410097 0.561914 0.132661
0.438316 0.555864 0.133705
0.466014 0.551470 0.135282
0.493399 0.548817 0.137099
0.521024 0.547906 0.139147
0.550987 0.548671 0.141409
0.581802 0.550996 0.143862
0.612378 0.554737 0.146997
0.643157 0.563977 0.151172
0.677577 0.577501 0.156132
0.711991 0.590963 0.161133
0.738893 0.603629 0.166146
0.764838 0.616445 0.171396
0.790288 0.629337 0.178205
0.811835 0.642242 0.185015
0.831359 0.655107 0.191801
0.850299 0.667888 0.198542
0.868363 0.680550 0.205220
0.880982 0.690766 0.211783
0.893120 0.700704 0.218880
0.904793 0.710457 0.225886
0.915451 0.720015 0.232792
0.925401 0.729370 0.239760
0.193916 0.656900 0.132843
0.196540 0.656247 0.132849
0.205445 0.653949 0.132871
0.220963 0.649904 0.132919
0.242513 0.644262 0.133005
0.270212 0.637340 0.133148
0.299927 0.629554 0.133402
0.329170 0.621362 0.133832
0.357664 0.613213 0.134439
0.386084 0.605513 0.135229
0.414789 0.598604 0.136217
0.443213 0.592754 0.137415
0.470869 0.588156 0.138831
0.498232 0.584663 0.140467
0.525797 0.582640 0.142317
0.555750 0.582199 0.144436
0.586177 0.583277 0.147159
0.615652 0.585774 0.150098
0.641885 0.589303 0.153229
0.670992 0.596191 0.157047
0.704614 0.607761 0.161824
0.732696 0.619628 0.166636
0.758234 0.631710 0.171820
0.783354 0.643932 0.178419
0.806046 0.656228 0.185044
0.825453 0.668540 0.191670
0.844326 0.680819 0.198274
0.862656 0.690734 0.204836
0.876742 0.700474 0.211260
0.888937 0.710072 0.218269
0.900683 0.719513 0.225204
0.911737 0.728782 0.232053
0.921781 0.737870 0.238940
0.201566 0.685114 0.136506
0.203962 0.684649 0.136516
0.212156 0.683008 0.136555
0.227334 0.679866 0.136633
0.248623 0.674817 0.136767
0.275364 0.668556 0.136977
0.304205 0.661420 0.137284
0.332979 0.653790 0.137712
0.361362 0.646055 0.138282
0.389956 0.638579 0.139013
0.418831 0.631678 0.139919
0.447446 0.625617 0.141012
0.475119 0.620596 0.142301
0.502539 0.616756 0.143789
0.530396 0.614181 0.145772
0.560196 0.612900 0.148054
0.590361 0.612898 0.150563
0.618856 0.614122 0.153285
0.644722 0.616494 0.156201
0.670793 0.619916 0.159290
0.698435 0.625581 0.162800
0.727400 0.636649 0.167406
0.752498 0.647983 0.172616
0.777242 0.659512 0.178993
0.800867 0.671170 0.185418
0.820105 0.682555 0.191865
0.838858 0.692038 0.198313
0.857112 0.701467 0.204740
0.872778 0.710813 0.211029
0.884994 0.720049 0.217930
0.896780 0.729156 0.224774
0.908146 0.738118 0.231548
0.918298 0.745838 0.238347
0.208895 0.707709 0.140181
0.211093 0.707302 0.140193
0.219382 0.705860 0.140237
0.233583 0.703297 0.140324
0.254664 0.699667 0.140466
0.280420 0.695118 0.140681
0.308311 0.689866 0.140986
0.336514 0.684165 0.141401
0.364673 0.677619 0.141943
0.393324 0.670459 0.142629
0.422287 0.663700 0.143473
0.451051 0.657592 0.144572
0.478756 0.652336 0.146012
0.506275 0.648084 0.147674
0.534457 0.644940 0.149559
0.564205 0.642961 0.151667
0.594217 0.642162 0.153991
0.621871 0.642524 0.156520
0.647451 0.643998 0.159241
0.673198 0.646514 0.162137
0.699122 0.649990 0.165190
0.722925 0.654601 0.168433
0.747573 0.665193 0.173762
0.771918 0.676023 0.179911
0.795918 0.685894 0.186126
0.815320 0.694865 0.192384
0.833911 0.703859 0.198661
0.852045 0.712838 0.204938
0.869116 0.721769 0.211100
0.881320 0.730623 0.217875
0.893116 0.739274 0.224611
0.904510 0.746788 0.231292
0.914983 0.754175 0.237998
0.216338 0.729285 0.143671
0.218591 0.728927 0.143684
0.226393 0.727659 0.143733
0.239956 0.725395 0.143826
0.260623 0.722171 0.143976
0.285388 0.718102 0.144222
0.312276 0.713361 0.144592
0.339828 0.708156 0.145084
0.367663 0.702715 0.145717
0.396260 0.697262 0.146510
0.425225 0.692010 0.147475
0.454000 0.687146 0.148627
0.481806 0.682831 0.149975
0.509430 0.678743 0.151525
0.537934 0.675205 0.153281
0.567696 0.672701 0.155243
0.597639 0.671269 0.157408
0.624600 0.670915 0.159769
0.649970 0.671618 0.162316
0.675463 0.673331 0.165036
0.701099 0.675993 0.167915
0.723999 0.679534 0.171105
0.743880 0.683346 0.175404
0.767324 0.691033 0.181151
0.790963 0.699369 0.187154
0.811082 0.707806 0.193215
0.829481 0.716302 0.199313
0.847462 0.724818 0.205427
0.865012 0.733320 0.211474
0.877932 0.741362 0.218110
0.889711 0.748657 0.224723
0.901107 0.755862 0.231297
0.911860 0.762959 0.237906
0.223829 0.748418 0.147610
0.225919 0.748144 0.147627
0.233183 0.747172 0.147690
0.246840 0.745432 0.147811
0.266489 0.742941 0.148000
0.290269 0.739775 0.148273
0.316122 0.735683 0.148645
0.342960 0.730951 0.149133
0.370387 0.725948 0.149751
0.398831 0.720870 0.150516
0.427712 0.715903 0.151440
0.456429 0.711219 0.152534
0.484306 0.706968 0.153808
0.512019 0.703273 0.155268
0.540815 0.700234 0.156917
0.570626 0.697922 0.158757
0.600559 0.696382 0.160787
0.626968 0.695636 0.163003
0.652197 0.695685 0.165396
0.677500 0.696508 0.167959
0.702909 0.698072 0.170755
0.725197 0.700332 0.174665
0.744863 0.703236 0.178776
0.764467 0.706729 0.183071
0.786668 0.713415 0.188479
0.807361 0.721325 0.194342
0.825549 0.729323 0.200256
0.843354 0.737372 0.206201
0.860761 0.744547 0.212148
0.874837 0.751544 0.218634
0.886576 0.758495 0.225112
0.897951 0.765378 0.231567
0.908942 0.772177 0.238078
0.231024 0.765487 0.151449
0.232968 0.765246 0.151467
0.240012 0.764391 0.151534
0.253566 0.762857 0.151661
0.272247 0.760654 0.151858
0.295062 0.757838 0.152137
0.319861 0.754507 0.152512
0.345939 0.750783 0.152997
0.372889 0.746806 0.153605
0.401093 0.742721 0.154349
0.429807 0.738671 0.155240
0.458409 0.734232 0.156289
0.486304 0.730114 0.157503
0.514075 0.726451 0.158889
0.543108 0.723340 0.160451
0.572982 0.720855 0.162189
0.602921 0.719051 0.164105
0.628926 0.717960 0.166196
0.654069 0.717595 0.168456
0.679240 0.717952 0.171028
0.704478 0.719010 0.174547
0.726248 0.720740 0.178282
0.745734 0.723101 0.182217
0.765151 0.726048 0.186339
0.784499 0.729533 0.190632
0.804116 0.735363 0.195745
0.822085 0.742315 0.201474
0.839700 0.748911 0.207246
0.856945 0.755535 0.213112
0.872032 0.762159 0.219441
0.883712 0.768761 0.225776
0.895047 0.775317 0.232101
0.906039 0.781810 0.238515
0.237929 0.781724 0.155112
0.240006 0.781513 0.155131
0.247323 0.780761 0.155201
0.260120 0.779409 0.155333
0.277887 0.777459 0.155537
0.299689 0.774958 0.155822
0.323501 0.771981 0.156200
0.348786 0.768631 0.156684
0.375204 0.765023 0.157284
0.403092 0.761283 0.158012
0.431566 0.757535 0.158878
0.459994 0.753899 0.159890
0.487850 0.750483 0.161057
0.515635 0.747384 0.162382
0.544842 0.744685 0.163871
0.574770 0.742453 0.165525
0.604725 0.740738 0.167345
0.630446 0.739575 0.169329
0.655543 0.738984 0.171840
0.680629 0.738970 0.174985
0.705744 0.739529 0.178350
0.727102 0.740642 0.181925
0.746443 0.742286 0.185699
0.765704 0.744428 0.189660
0.784890 0.747033 0.193794
0.802812 0.750065 0.198087
0.819050 0.754501 0.202947
0.836468 0.760687 0.208546
0.853541 0.766920 0.214352
0.869506 0.773174 0.220519
0.881114 0.779425 0.226706
0.892395 0.785652 0.232894
0.903348 0.791835 0.239217
0.245552 0.796608 0.158605
0.247511 0.796454 0.158626
0.254395 0.795907 0.158699
0.266492 0.794922 0.158835
0.283395 0.793406 0.159044
0.304068 0.791187 0.159334
0.327043 0.788533 0.159715
0.351515 0.785528 0.160199
0.377359 0.782270 0.160793
0.404867 0.778865 0.161509
0.433034 0.775422 0.162355
0.461233 0.772045 0.163338
0.488991 0.768833 0.164466
0.516745 0.765874 0.165742
0.546051 0.763248 0.167171
0.576013 0.761017 0.168754
0.605985 0.759235 0.170503
0.631519 0.757939 0.173086
0.656595 0.757154 0.175887
0.681629 0.756895 0.178905
0.706661 0.757162 0.182133
0.727720 0.757949 0.185566
0.746949 0.759237 0.189194
0.766085 0.761006 0.193007
0.785135 0.763227 0.196993
0.802896 0.765868 0.201140
0.818092 0.768899 0.205435
0.833624 0.772804 0.210017
0.850521 0.778658 0.215851
0.867084 0.784548 0.221856
0.878771 0.790454 0.227891
0.889986 0.795934 0.233939
0.900889 0.800786 0.240175
0.252893 0.808728 0.161936
0.254736 0.808593 0.161957
0.261224 0.808114 0.162032
0.272673 0.807249 0.162172
0.288761 0.805996 0.162385
0.308339 0.804374 0.162680
0.330442 0.802427 0.163065
0.354136 0.800209 0.163548
0.379379 0.797788 0.164139
0.406449 0.795240 0.164845
0.434251 0.792371 0.165675
0.462169 0.789261 0.166635
0.489774 0.786272 0.167730
0.517446 0.783485 0.168966
0.546777 0.780972 0.170345
0.576741 0.778794 0.172379
0.606720 0.777003 0.174664
0.632148 0.775638 0.177156
0.657216 0.774729 0.179857
0.682221 0.774293 0.182764
0.707199 0.774339 0.185874
0.728072 0.774864 0.189181
0.747219 0.775862 0.192678
0.766257 0.777315 0.196356
0.785197 0.779203 0.200206
0.802852 0.781502 0.204217
0.817952 0.784183 0.208378
0.832914 0.787219 0.212713
0.847850 0.790704 0.217591
0.864256 0.795843 0.223435
0.876667 0.800444 0.229317
0.887809 0.805046 0.235223
0.898653 0.809633 0.241382
0.259946 0.820211 0.165109
0.261682 0.820094 0.165130
0.267807 0.819674 0.165207
0.278655 0.818916 0.165351
0.293974 0.817815 0.165568
0.312496 0.816387 0.165866
0.333691 0.814666 0.166253
0.356655 0.812697 0.166737
0.381322 0.810537 0.167325
0.407862 0.808250 0.168024
0.435251 0.805901 0.168841
0.462842 0.803558 0.169782
0.490240 0.801284 0.170991
0.517782 0.799141 0.172630
0.547061 0.797183 0.174459
0.576990 0.795459 0.176482
0.606956 0.794010 0.178701
0.632346 0.792647 0.181118
0.657408 0.791671 0.183733
0.682396 0.791119 0.186545
0.707340 0.791004 0.189551
0.728138 0.791331 0.192747
0.747226 0.792097 0.196127
0.766191 0.793290 0.199685
0.785047 0.794731 0.203411
0.802655 0.796387 0.207297
0.817674 0.798350 0.211251
0.832555 0.800600 0.215797
0.847298 0.803115 0.220491
0.861903 0.805875 0.225321
0.874785 0.810049 0.230970
0.885849 0.814381 0.236769
0.896628 0.818710 0.242824
0.266713 0.831087 0.168130
0.268351 0.830984 0.168151
0.274143 0.830618 0.168230
0.284431 0.829955 0.168376
0.298991 0.828990 0.168596
0.316531 0.827736 0.168897
0.336838 0.826220 0.169287
0.359074 0.824479 0.169771
0.383147 0.822561 0.170357
0.409126 0.820520 0.171262
0.436059 0.818411 0.172363
0.463282 0.816295 0.173627
0.490426 0.814226 0.175061
0.517790 0.812260 0.176672
0.546945 0.810446 0.178464
0.576798 0.808829 0.180441
0.606724 0.807447 0.182605
0.632132 0.806333 0.184958
0.657183 0.805513 0.187500
0.682157 0.805006 0.190230
0.707076 0.804825 0.193147
0.727905 0.804976 0.196246
0.746954 0.805460 0.199523
0.765866 0.806275 0.202972
