kodachrome64/Kodachrome64_Classic_Normal.cube
TITLE "Kodachrome 64 Classic Normal"
# Adobe RGB in/out. REPLACES AgX. Kodachrome 64 Classic Normal.
LUT_3D_SIZE 5
DOMAIN_MIN 0.0 0.0 0.0
DOMAIN_MAX 1.0 1.0 1.0
0.081099 0.084717 0.091118
0.092837 0.084717 0.091118
0.545072 0.098647 0.091118
0.932513 0.264679 0.091274
0.983059 0.602675 0.092605
0.081099 0.088870 0.091118
0.095518 0.095960 0.091118
0.552528 0.149155 0.091118
0.933322 0.376461 0.091336
0.983134 0.680321 0.092753
0.081251 0.392152 0.091118
0.105867 0.428253 0.091118
0.578675 0.552851 0.091118
0.936131 0.720414 0.091550
0.983402 0.852358 0.093248
0.085851 0.854953 0.091118
0.132540 0.858060 0.091132
0.627568 0.883964 0.091394
0.941049 0.927184 0.092239
0.983887 0.944613 0.094593
0.105395 0.957770 0.091645
0.209966 0.958912 0.091726
0.705692 0.962414 0.092326
0.945951 0.968421 0.093650
0.984598 0.975509 0.098538
0.081099 0.084717 0.093556
0.092860 0.084717 0.093762
0.545138 0.099687 0.095183
0.932520 0.268891 0.099410
0.983060 0.606574 0.113886
0.081099 0.089265 0.093700
0.095541 0.097062 0.094003
0.552594 0.153200 0.095491
0.933329 0.381456 0.100136
0.983135 0.684329 0.115459
0.081254 0.397200 0.094609
0.105894 0.433899 0.095053
0.578738 0.557216 0.096845
0.936138 0.723109 0.103057
0.983402 0.853451 0.121666
0.085854 0.855697 0.096942
0.132588 0.858853 0.097581
0.627658 0.884963 0.100892
0.941054 0.927510 0.110530
0.983888 0.944801 0.134861
0.105422 0.957975 0.103778
0.210021 0.959053 0.105112
0.705750 0.962548 0.111078
0.945956 0.968532 0.126357
0.984599 0.975589 0.163096
0.081099 0.084717 0.529788
0.092946 0.085063 0.534695
0.545373 0.103250 0.552355
0.932545 0.284133 0.584983
0.983062 0.618206 0.623783
0.081099 0.093144 0.533308
0.095625 0.100816 0.538217
0.552829 0.168071 0.555888
0.933354 0.399538 0.588535
0.983137 0.698731 0.625379
0.081266 0.415470 0.545970
0.105992 0.454375 0.550890
0.578966 0.572921 0.568598
0.936162 0.732762 0.601220
0.983405 0.856209 0.637264
0.085865 0.857120 0.569337
0.132762 0.862649 0.574276
0.627982 0.888536 0.592041
0.941070 0.928674 0.619647
0.983890 0.945473 0.660370
0.105520 0.958561 0.604336
0.210217 0.959558 0.609258
0.705961 0.963030 0.620731
0.945971 0.968929 0.646793
0.984601 0.975876 0.689698
0.081099 0.085007 0.896567
0.093104 0.087005 0.897319
0.545806 0.113353 0.900002
0.932593 0.323773 0.904500
0.983066 0.639470 0.907676
0.081099 0.100358 0.897107
0.095778 0.109221 0.897857
0.553262 0.199898 0.900535
0.933401 0.433938 0.904744
0.983141 0.717132 0.907898
0.081287 0.451764 0.899035
0.106171 0.486680 0.899780
0.579384 0.601907 0.902441
0.936206 0.750375 0.905611
0.983409 0.859656 0.908851
0.085886 0.862170 0.902551
0.133082 0.869543 0.903287
0.628578 0.895422 0.904985
0.941099 0.930786 0.907100
0.983895 0.946589 0.911978
0.105700 0.959494 0.905811
0.210577 0.960478 0.906126
0.706348 0.963909 0.907251
0.945999 0.969652 0.910140
0.984605 0.976399 0.916589
0.081099 0.088128 0.972550
0.093340 0.093904 0.972672
0.546454 0.141667 0.973108
0.932663 0.367018 0.973537
0.983073 0.673055 0.973936
0.081099 0.113942 0.972637
0.096006 0.133045 0.972759
0.553911 0.249392 0.973195
0.933471 0.485221 0.973567
0.983148 0.743653 0.973965
0.081319 0.500101 0.972951
0.106440 0.533961 0.973072
0.580010 0.634694 0.973402
0.936272 0.775553 0.973671
0.983415 0.870000 0.974068
0.085918 0.872454 0.973408
0.133560 0.879652 0.973449
0.629470 0.905541 0.973595
0.941143 0.933882 0.973862
0.983901 0.947818 0.974255
0.105969 0.960867 0.973697
0.211116 0.961833 0.973737
0.706927 0.965204 0.973881
0.946041 0.970719 0.974145
0.984611 0.977172 0.974378
