kodachrome64/Kodachrome64_Classic_IlfochromeP.cube
TITLE "Kodachrome 64 Classic IlfochromeP"
# Adobe RGB in/out. REPLACES AgX. Kodachrome 64 Classic IlfochromeP.
LUT_3D_SIZE 5
DOMAIN_MIN 0.0 0.0 0.0
DOMAIN_MAX 1.0 1.0 1.0
0.138776 0.101263 0.100261
0.349846 0.120140 0.103602
0.742001 0.164528 0.111243
0.856404 0.198556 0.133480
0.881462 0.251290 0.518709
0.139446 0.212284 0.104136
0.167291 0.227880 0.107023
0.572303 0.254928 0.115820
0.842140 0.290467 0.135249
0.881462 0.251297 0.518705
0.144562 0.467721 0.113543
0.157993 0.496590 0.118744
0.331574 0.502229 0.130627
0.744656 0.520241 0.150732
0.881357 0.523860 0.230266
0.154124 0.723462 0.131306
0.163973 0.735392 0.136838
0.262957 0.745392 0.153310
0.554766 0.747493 0.172843
0.878067 0.763509 0.212287
0.157735 0.837044 0.140518
0.169530 0.867671 0.140550
0.212678 0.872802 0.165031
0.416880 0.869147 0.185962
0.880382 0.874224 0.203137
0.138927 0.116426 0.194569
0.336208 0.134815 0.261632
0.757315 0.177701 0.263110
0.856128 0.213843 0.296994
0.881462 0.251298 0.518751
0.143062 0.204714 0.179299
0.239192 0.242096 0.220859
0.673980 0.267884 0.231536
0.846634 0.299940 0.263237
0.881462 0.251297 0.518706
0.152534 0.451201 0.186788
0.178600 0.471977 0.198015
0.419121 0.490654 0.219996
0.792097 0.519603 0.245634
0.881267 0.531852 0.376409
0.161734 0.712351 0.198007
0.176796 0.722489 0.205949
0.305703 0.735018 0.227388
0.626725 0.742347 0.252787
0.879057 0.762781 0.294177
0.158701 0.841591 0.203228
0.170714 0.871200 0.203226
0.226695 0.871213 0.212169
0.437608 0.867894 0.242113
0.882994 0.874040 0.259844
0.139385 0.153516 0.477794
0.266054 0.183386 0.604826
0.733381 0.224713 0.605011
0.852359 0.261595 0.634294
0.881462 0.256413 0.724377
0.146544 0.241107 0.473508
0.228296 0.267746 0.534176
0.672996 0.300192 0.560105
0.844881 0.334713 0.599146
0.881462 0.255760 0.710418
0.165071 0.452005 0.434526
0.209715 0.470063 0.457573
0.501368 0.505878 0.499485
0.812110 0.530154 0.527473
0.880943 0.558279 0.670657
0.177502 0.705519 0.422185
0.205580 0.713711 0.432391
0.367332 0.727202 0.460018
0.712638 0.740003 0.485345
0.879814 0.766054 0.574124
0.165295 0.862559 0.455738
0.168530 0.870637 0.455736
0.260948 0.867820 0.427782
0.484279 0.866699 0.446806
0.884018 0.875464 0.488720
0.140311 0.216014 0.757444
0.206060 0.252597 0.796814
0.713234 0.288337 0.799765
0.848965 0.319710 0.804444
0.881462 0.265777 0.815483
0.148223 0.290526 0.758477
0.212616 0.318553 0.785075
0.666213 0.351386 0.794010
0.843001 0.381427 0.800728
0.881459 0.265322 0.813585
0.173691 0.481837 0.731861
0.226722 0.500050 0.750085
0.528855 0.527875 0.771732
0.818460 0.555187 0.785359
0.880722 0.591365 0.811083
0.188663 0.713783 0.689033
0.224156 0.720955 0.703967
0.402892 0.734366 0.735362
0.743864 0.747383 0.755402
0.880193 0.774906 0.799841
0.165857 0.865064 0.573936
0.169948 0.873527 0.574586
0.265369 0.871769 0.656804
0.496948 0.870925 0.682751
0.884267 0.879358 0.762588
0.192523 0.271817 0.875612
0.435548 0.280873 0.875702
0.797010 0.307484 0.876116
0.862557 0.323243 0.877069
0.881462 0.300080 0.871892
0.214411 0.321274 0.875406
0.418513 0.330731 0.875531
0.786244 0.356950 0.876027
0.861107 0.373466 0.877044
0.881462 0.306780 0.875274
0.243074 0.502068 0.874800
0.361458 0.509049 0.875149
0.739122 0.527896 0.875911
0.854491 0.543302 0.877128
0.882615 0.561637 0.879983
0.211338 0.727069 0.875174
0.271312 0.730246 0.875786
0.583359 0.737912 0.876895
0.834772 0.745608 0.878258
0.883143 0.766827 0.880868
0.163358 0.860367 0.805728
0.170714 0.876024 0.833686
0.217004 0.883410 0.876723
0.470612 0.879558 0.881109
0.884548 0.885093 0.882636
