kodachrome64/Kodachrome64_Classic_Soft.cube
TITLE "Kodachrome 64 Classic Soft"
# Adobe RGB in/out. REPLACES AgX. Kodachrome 64 Classic Soft.
LUT_3D_SIZE 33
DOMAIN_MIN 0.0 0.0 0.0
DOMAIN_MAX 1.0 1.0 1.0
0.067153 0.073606 0.090377
0.067153 0.073606 0.090377
0.067153 0.073606 0.090377
0.067153 0.073606 0.090377
0.067598 0.073606 0.090377
0.068909 0.073606 0.090377
0.075801 0.073606 0.090377
0.105200 0.073606 0.090377
0.160370 0.073606 0.090377
0.286851 0.073606 0.090377
0.512159 0.073606 0.090377
0.627799 0.073606 0.090377
0.711841 0.073606 0.090377
0.781046 0.073606 0.090377
0.829289 0.073664 0.090377
0.856250 0.073747 0.090377
0.872366 0.073843 0.090377
0.886978 0.074041 0.090377
0.898641 0.074411 0.090377
0.908547 0.074639 0.090377
0.916297 0.074912 0.090377
0.921828 0.075213 0.090377
0.926781 0.075473 0.090377
0.931528 0.075505 0.090377
0.934992 0.075554 0.090377
0.937584 0.075483 0.090423
0.940430 0.074800 0.090575
0.941918 0.074360 0.091165
0.944926 0.073606 0.099745
0.944925 0.073606 0.099732
0.944925 0.073606 0.099731
0.944925 0.073606 0.099730
0.946080 0.083263 0.606537
0.067153 0.073606 0.090377
0.067153 0.073606 0.090377
0.067153 0.073606 0.090377
0.067153 0.073606 0.090377
0.067677 0.073606 0.090377
0.068902 0.073606 0.090377
0.075245 0.073606 0.090377
0.101761 0.073606 0.090377
0.149902 0.073606 0.090377
0.272146 0.073606 0.090377
0.501957 0.073606 0.090377
0.618973 0.073606 0.090377
0.708381 0.073606 0.090377
0.777304 0.073606 0.090377
0.827239 0.073675 0.090377
0.855372 0.073761 0.090377
0.871685 0.073855 0.090377
0.886480 0.074075 0.090377
0.898309 0.074442 0.090377
0.908306 0.074682 0.090377
0.916148 0.074952 0.090377
0.921724 0.075251 0.090377
0.926706 0.075522 0.090377
0.931475 0.075554 0.090377
0.934955 0.075601 0.090377
0.937565 0.075530 0.090422
0.940417 0.074836 0.090572
0.941910 0.074384 0.091152
0.944926 0.073606 0.099746
0.944925 0.073606 0.099732
0.944925 0.073606 0.099731
0.944925 0.073606 0.099730
0.946080 0.083263 0.606536
0.067153 0.073606 0.090377
0.067153 0.073606 0.090377
0.067153 0.073606 0.090377
0.067153 0.073606 0.090377
0.067153 0.073606 0.090377
0.068356 0.073606 0.090377
0.073218 0.073606 0.090377
0.093328 0.073606 0.090377
0.125492 0.073606 0.090377
0.218975 0.073606 0.090377
0.459473 0.073606 0.090377
0.590503 0.073606 0.090377
0.689404 0.073606 0.090377
0.763234 0.073607 0.090377
0.819492 0.073714 0.090377
0.852052 0.073811 0.090377
0.869117 0.073901 0.090377
0.884537 0.074197 0.090377
0.897061 0.074583 0.090377
0.907404 0.074839 0.090377
0.915590 0.075098 0.090377
0.921336 0.075395 0.090377
0.926428 0.075703 0.090377
0.931279 0.075729 0.090377
0.934818 0.075772 0.090377
0.937493 0.075699 0.090418
0.940367 0.074966 0.090563
0.941882 0.074469 0.091110
0.944926 0.073606 0.099747
0.944925 0.073606 0.099732
0.944925 0.073606 0.099731
0.944925 0.073606 0.099730
0.946080 0.083264 0.606535
0.067153 0.073606 0.090377
0.067153 0.073606 0.090377
0.067153 0.073606 0.090377
0.067153 0.073606 0.090377
0.067153 0.073606 0.090377
0.067153 0.073606 0.090377
0.069357 0.073606 0.090377
0.080546 0.073606 0.090377
0.098554 0.073606 0.090377
0.167230 0.073606 0.090377
0.361375 0.073606 0.090377
0.526506 0.073606 0.090377
0.634211 0.073610 0.090377
0.734595 0.073677 0.090377
0.803148 0.073823 0.090377
0.842431 0.073916 0.090377
0.863707 0.074145 0.090377
0.880543 0.074428 0.090377
0.894523 0.074903 0.090377
0.905576 0.075135 0.090377
0.914391 0.075376 0.090377
0.920521 0.075750 0.090377
0.925871 0.076042 0.090377
0.930888 0.076060 0.090377
0.934545 0.076095 0.090377
0.937351 0.076018 0.090413
0.940270 0.075212 0.090548
0.941824 0.074700 0.091042
0.944926 0.073606 0.099749
0.944925 0.073606 0.099732
0.944925 0.073606 0.099731
0.944925 0.073606 0.099731
0.946080 0.083264 0.606534
0.067153 0.073606 0.090377
0.067153 0.073606 0.090377
0.067153 0.073606 0.090377
0.067153 0.073606 0.090377
0.067153 0.073606 0.090377
0.067153 0.073606 0.090377
0.067593 0.073606 0.090377
0.071652 0.073606 0.090377
0.080651 0.073606 0.090377
0.107892 0.073606 0.090377
0.241313 0.073637 0.090377
0.418493 0.073685 0.090377
0.561963 0.073735 0.090377
0.678560 0.073849 0.090377
0.769461 0.074190 0.090377
0.820013 0.074375 0.090377
0.854155 0.074582 0.090377
0.873406 0.074945 0.090377
0.890019 0.075419 0.090377
0.902281 0.075681 0.090377
0.912047 0.075964 0.090377
0.919112 0.076304 0.090377
0.924916 0.076578 0.090377
0.930221 0.076584 0.090377
0.934083 0.076613 0.090377
0.937110 0.076515 0.090406
0.940106 0.075680 0.090532
0.941726 0.075085 0.090959
0.944926 0.073606 0.099754
0.944925 0.073606 0.099733
0.944925 0.073606 0.099731
0.944926 0.073606 0.099731
0.946080 0.083264 0.606533
0.067153 0.073606 0.090377
0.067153 0.073606 0.090377
0.067153 0.073606 0.090377
0.067153 0.073606 0.090377
0.067153 0.073606 0.090377
0.067153 0.073606 0.090377
0.067153 0.073622 0.090377
0.068882 0.073714 0.090377
0.072285 0.073672 0.090377
0.084426 0.073704 0.090377
0.142820 0.073862 0.090377
0.275413 0.073941 0.090377
0.452974 0.074073 0.090377
0.596489 0.074326 0.090377
0.719000 0.074819 0.090377
0.790569 0.075087 0.090377
0.833313 0.075359 0.090377
0.861035 0.075875 0.090377
0.881106 0.076419 0.090377
0.896536 0.076614 0.090377
0.908060 0.077092 0.090377
0.916749 0.077902 0.090377
0.923331 0.078558 0.090377
0.929120 0.078513 0.090377
0.933329 0.078517 0.090377
0.936719 0.078267 0.090402
0.939837 0.076441 0.090521
0.941563 0.075746 0.090884
0.944926 0.073606 0.099763
0.944925 0.073606 0.099734
0.944925 0.073606 0.099732
0.946079 0.082712 0.099731
0.946080 0.083264 0.606533
0.067153 0.073801 0.090377
0.067153 0.073811 0.090377
0.067153 0.073868 0.090377
0.067153 0.073970 0.090377
0.067153 0.074063 0.090377
0.067153 0.074069 0.090377
0.067153 0.074030 0.090377
0.067779 0.074441 0.090377
0.069444 0.074192 0.090377
0.074762 0.074240 0.090377
0.097131 0.074716 0.090377
0.167231 0.074863 0.090377
0.297228 0.074917 0.090377
0.497534 0.075209 0.090377
0.649233 0.075880 0.090377
0.742117 0.076211 0.090377
0.803880 0.076412 0.090377
0.848414 0.077064 0.090377
0.870931 0.078696 0.090377
0.888715 0.079374 0.090377
0.901621 0.080293 0.090377
0.912231 0.081560 0.090377
0.920594 0.082307 0.090377
0.927262 0.082114 0.090377
0.932073 0.082001 0.090377
0.936016 0.081596 0.090403
0.939390 0.079061 0.090523
0.941289 0.077132 0.090841
0.944926 0.073606 0.099785
0.944925 0.073606 0.099736
0.944925 0.073606 0.099733
0.946080 0.082724 0.099732
0.946080 0.083264 0.606533
0.067153 0.075241 0.090377
0.067153 0.075271 0.090377
0.067153 0.075526 0.090377
0.067153 0.075833 0.090377
0.067153 0.076083 0.090377
0.067153 0.076194 0.090377
0.067153 0.076179 0.090377
0.067339 0.076108 0.090377
0.068395 0.075529 0.090377
0.071039 0.075531 0.090377
0.082445 0.076248 0.090377
0.107566 0.076298 0.090377
0.182244 0.076266 0.090377
0.353679 0.076569 0.090377
0.560753 0.078151 0.090377
0.677330 0.078709 0.090377
0.760399 0.079248 0.090377
0.818097 0.080568 0.090377
0.857159 0.082770 0.090377
0.878682 0.083278 0.090377
0.895368 0.084118 0.090377
0.907573 0.085411 0.090377
0.917259 0.086727 0.090377
0.924562 0.087248 0.090377
0.929839 0.087978 0.090377
0.934503 0.087483 0.090413
0.938584 0.084912 0.090553
0.940791 0.082210 0.090865
0.944929 0.073606 0.099860
0.944926 0.073606 0.099745
0.944925 0.073606 0.099737
0.946080 0.082725 0.099733
0.946080 0.083264 0.606533
0.067153 0.076413 0.090377
0.067153 0.076443 0.090377
0.067153 0.076663 0.090377
0.067153 0.077420 0.090377
0.067153 0.078196 0.090377
0.067153 0.078668 0.090377
0.067153 0.078849 0.090377
0.067153 0.078758 0.090377
0.067714 0.078579 0.090377
0.069346 0.078480 0.090377
0.075523 0.080549 0.090377
0.088250 0.080398 0.090377
0.121871 0.079956 0.090377
0.217867 0.080725 0.090377
0.443192 0.083001 0.090377
0.588226 0.083488 0.090377
0.703114 0.084059 0.090377
0.782759 0.085426 0.090377
0.836969 0.087564 0.090377
0.865121 0.088319 0.090377
0.884787 0.089540 0.090377
0.900755 0.090700 0.090377
0.913161 0.092369 0.090377
0.922116 0.092725 0.090377
0.928194 0.093553 0.090377
0.933021 0.094472 0.090430
0.937530 0.093200 0.090593
0.939882 0.092176 0.090975
0.944989 0.073606 0.100863
0.944928 0.073606 0.099832
0.944926 0.073606 0.099760
0.946080 0.082725 0.099740
0.946080 0.083264 0.606533
0.067153 0.080759 0.090377
0.067153 0.080855 0.090377
0.067153 0.081389 0.090377
0.067153 0.082563 0.090377
0.067153 0.083673 0.090377
0.067153 0.084587 0.090377
0.067153 0.085046 0.090377
0.067153 0.085147 0.090377
0.067420 0.085010 0.090377
0.068688 0.084790 0.090377
0.072297 0.087680 0.090377
0.080249 0.087314 0.090377
0.095678 0.086431 0.090377
0.155456 0.086981 0.090377
0.311493 0.089285 0.090377
0.480924 0.089550 0.090377
0.614787 0.089903 0.090377
0.730535 0.091584 0.090377
0.804340 0.095312 0.090377
0.849806 0.096519 0.090377
0.873305 0.098035 0.090377
0.892316 0.101829 0.090377
0.906405 0.106538 0.090377
0.917999 0.107367 0.090377
0.925606 0.107827 0.090377
0.931331 0.108753 0.090451
0.936740 0.105579 0.090610
0.939388 0.103003 0.090968
0.942005 0.096753 0.091372
0.943759 0.091681 0.091954
0.945474 0.080448 0.098731
0.946080 0.082736 0.101294
0.946080 0.083264 0.606532
0.067153 0.090618 0.090377
0.067153 0.090733 0.090377
0.067153 0.091488 0.090377
0.067153 0.093738 0.090377
0.067153 0.095863 0.090377
0.067153 0.098239 0.090377
0.067153 0.100362 0.090377
0.067153 0.101354 0.090377
0.067417 0.101459 0.090377
0.068555 0.100919 0.090377
0.070777 0.100339 0.090377
0.075456 0.098815 0.090377
0.085490 0.096093 0.090377
0.113606 0.096807 0.090377
0.202857 0.102937 0.090377
0.365251 0.102666 0.090377
0.530821 0.102616 0.090377
0.659527 0.105760 0.090377
0.762875 0.114031 0.090377
0.820563 0.115141 0.090377
0.858400 0.118605 0.090377
0.880716 0.124792 0.090377
0.899192 0.128824 0.090377
0.913304 0.130127 0.090377
0.922140 0.133539 0.090377
0.928539 0.145387 0.090491
0.935188 0.132687 0.090653
0.938602 0.128263 0.090987
0.941518 0.118423 0.091353
0.943490 0.105616 0.091934
0.945391 0.083876 0.093912
0.946080 0.082767 0.108054
0.946080 0.082780 0.111301
0.067153 0.105509 0.090377
0.067153 0.105776 0.090377
0.067153 0.107052 0.090377
0.067153 0.110882 0.090377
0.067153 0.116120 0.090377
0.067153 0.121442 0.090377
0.067153 0.125783 0.090377
0.067153 0.127875 0.090377
0.067295 0.128788 0.090377
0.068107 0.128725 0.090377
0.069619 0.127970 0.090377
0.072872 0.127234 0.090377
0.079506 0.121389 0.090377
0.094224 0.122728 0.090377
0.159105 0.131295 0.090377
0.261010 0.129741 0.090377
0.426396 0.128959 0.090377
0.583627 0.132398 0.090377
0.708631 0.152861 0.090377
0.786448 0.153445 0.090377
0.837027 0.161134 0.090377
0.867765 0.168672 0.090377
0.889719 0.178932 0.090377
0.905993 0.184635 0.090377
0.918165 0.188449 0.090414
0.926061 0.197929 0.090544
0.933192 0.195137 0.090721
0.937414 0.196265 0.091037
0.940667 0.179148 0.091401
0.943018 0.151624 0.091920
0.945188 0.092817 0.092042
0.946080 0.082769 0.108089
0.946080 0.082792 0.113555
0.067153 0.129104 0.090377
0.067153 0.129382 0.090377
0.067153 0.130648 0.090377
0.067153 0.136049 0.090377
0.067153 0.149630 0.090377
0.067153 0.161551 0.090377
0.067153 0.168877 0.090377
0.067153 0.174093 0.090377
0.067204 0.177811 0.090377
0.067725 0.179107 0.090377
0.068900 0.178541 0.090377
0.071089 0.176509 0.090377
0.075952 0.175219 0.090377
0.086672 0.176421 0.090377
0.120879 0.203098 0.090377
0.184008 0.195173 0.090377
0.326626 0.189356 0.090377
0.499434 0.199457 0.090377
0.640726 0.225407 0.090377
0.738827 0.223966 0.090377
0.805337 0.229491 0.090377
0.852648 0.241460 0.090377
0.877336 0.258231 0.090377
0.898102 0.259892 0.090378
0.912582 0.271286 0.090462
0.922187 0.292902 0.090609
0.930838 0.281419 0.090813
0.936322 0.276026 0.091097
0.939899 0.264814 0.091445
0.942379 0.251713 0.091934
0.944361 0.234555 0.092650
0.946080 0.082793 0.108135
0.946080 0.082821 0.118085
0.067153 0.192956 0.090377
0.067153 0.193862 0.090377
0.067153 0.197844 0.090377
0.067153 0.208405 0.090377
0.067153 0.226882 0.090377
0.067153 0.238985 0.090377
0.067153 0.251011 0.090377
0.067153 0.262401 0.090377
0.067179 0.271811 0.090377
0.067610 0.276963 0.090377
0.068690 0.278272 0.090377
0.070613 0.276858 0.090377
0.073816 0.273291 0.090377
0.081838 0.270340 0.090377
0.102022 0.306215 0.090377
0.152529 0.298823 0.090377
0.238001 0.286400 0.090377
0.406271 0.295974 0.090377
0.574949 0.317961 0.090377
0.685084 0.315927 0.090377
0.767920 0.319229 0.090377
0.827211 0.329608 0.090377
0.863952 0.345004 0.090377
0.887957 0.350411 0.090433
0.905187 0.362363 0.090539
0.918144 0.371714 0.090706
0.927849 0.372669 0.090919
0.934086 0.378404 0.091180
0.938916 0.366641 0.091503
0.941841 0.347171 0.091933
0.944086 0.323561 0.092476
0.945524 0.295592 0.094223
0.946393 0.265282 0.124463
0.067153 0.317187 0.090377
0.067153 0.317813 0.090377
0.067153 0.320430 0.090377
0.067153 0.326888 0.090377
0.067153 0.344430 0.090377
0.067153 0.358899 0.090377
0.067153 0.374621 0.090377
0.067153 0.387151 0.090377
0.067218 0.396838 0.090377
0.067646 0.403100 0.090377
0.068692 0.406210 0.090377
0.070407 0.406423 0.090377
0.073247 0.404825 0.090377
0.080096 0.402584 0.090377
0.092109 0.400398 0.090377
0.121973 0.390905 0.090377
0.183354 0.382622 0.090377
0.322382 0.387601 0.090377
0.500220 0.408178 0.090377
0.614708 0.403400 0.090377
0.717107 0.406393 0.090377
0.797232 0.418655 0.090377
0.849230 0.432857 0.090432
0.875126 0.439715 0.090508
0.896742 0.447252 0.090617
0.912262 0.460344 0.090840
0.924292 0.461555 0.091036
0.931947 0.462094 0.091273
0.937719 0.462054 0.091586
0.940976 0.460464 0.091938
0.943629 0.435990 0.092436
0.945318 0.395310 0.093715
0.946377 0.305097 0.118318
0.067153 0.398727 0.090377
0.067153 0.399449 0.090377
0.067153 0.402399 0.090377
0.067153 0.409401 0.090377
0.067153 0.424342 0.090377
0.067153 0.440911 0.090377
0.067153 0.457448 0.090377
0.067153 0.467753 0.090377
0.067197 0.477778 0.090377
0.067564 0.485745 0.090377
0.068408 0.489811 0.090377
0.069640 0.491361 0.090377
0.072117 0.491447 0.090377
0.077029 0.489751 0.090377
0.086447 0.488019 0.090377
0.105526 0.486336 0.090377
0.156245 0.477367 0.090377
0.247227 0.481310 0.090377
0.421438 0.500661 0.090377
0.558594 0.495180 0.090377
0.668061 0.495589 0.090377
0.760037 0.505752 0.090419
0.823000 0.517678 0.090514
0.861601 0.521332 0.090596
0.886471 0.528010 0.090753
0.904941 0.537723 0.090979
0.920126 0.538460 0.091157
0.928883 0.543339 0.091391
0.936305 0.542948 0.091687
0.940221 0.538502 0.091945
0.943096 0.534634 0.092456
0.944923 0.532312 0.093734
0.946278 0.416007 0.103891
0.067153 0.481456 0.090377
0.067153 0.482064 0.090377
0.067153 0.484501 0.090377
0.067153 0.490081 0.090377
0.067153 0.501453 0.090377
0.067153 0.517349 0.090377
0.067153 0.528317 0.090377
0.067153 0.537609 0.090377
0.067188 0.545417 0.090377
0.067504 0.551270 0.090377
0.068224 0.555214 0.090377
0.069141 0.557301 0.090377
0.071228 0.558094 0.090377
0.074896 0.557815 0.090377
0.082337 0.556780 0.090377
0.094747 0.555744 0.090377
0.127294 0.554958 0.090377
0.192011 0.557340 0.090377
0.350043 0.569571 0.090377
0.490260 0.565169 0.090377
0.606612 0.565085 0.090414
0.714306 0.570866 0.090498
0.794894 0.578538 0.090610
0.846164 0.580089 0.090728
0.874022 0.586001 0.090909
0.896551 0.593799 0.091120
0.914735 0.596998 0.091288
0.925508 0.600485 0.091525
0.934155 0.602588 0.091799
0.939088 0.604448 0.091956
0.942512 0.599100 0.092482
0.944665 0.592261 0.093516
0.946029 0.592283 0.097242
0.067153 0.557324 0.090377
0.067153 0.557719 0.090377
0.067153 0.559267 0.090377
0.067153 0.562674 0.090377
0.067153 0.569281 0.090377
0.067153 0.581152 0.090377
0.067153 0.587679 0.090377
0.067153 0.597871 0.090377
0.067215 0.605557 0.090377
0.067506 0.611637 0.090377
0.068168 0.616561 0.090377
0.068968 0.619688 0.090377
0.070857 0.621470 0.090377
0.073777 0.621592 0.090377
0.079952 0.621288 0.090377
0.089832 0.620391 0.090377
0.114313 0.619418 0.090377
0.170158 0.618989 0.090377
0.284484 0.630853 0.090393
0.422055 0.626185 0.090432
0.557738 0.625066 0.090493
0.669798 0.630467 0.090597
0.760294 0.637556 0.090764
0.820708 0.638696 0.090894
0.860959 0.646332 0.091068
0.886788 0.652314 0.091266
0.907597 0.655200 0.091439
0.921453 0.658473 0.091668
0.931316 0.663043 0.091925
0.937976 0.661963 0.092005
0.941822 0.662555 0.092558
0.944236 0.665076 0.093468
0.945884 0.659946 0.096026
0.067153 0.626563 0.090377
0.067153 0.626962 0.090377
0.067153 0.628497 0.090377
0.067153 0.631749 0.090377
0.067153 0.637847 0.090377
0.067153 0.649427 0.090377
0.067153 0.655983 0.090377
0.067153 0.663926 0.090377
0.067265 0.670260 0.090377
0.067576 0.676547 0.090377
0.068252 0.681120 0.090377
0.069015 0.684361 0.090377
0.070813 0.686090 0.090377
0.073409 0.686921 0.090377
0.078893 0.686851 0.090377
0.088105 0.686627 0.090377
0.106300 0.686081 0.090377
0.155201 0.685278 0.090406
0.228323 0.685242 0.090467
0.357472 0.681404 0.090521
0.499545 0.680581 0.090594
0.614651 0.684085 0.090743
0.717334 0.689362 0.090935
0.794466 0.689834 0.091059
0.846344 0.693772 0.091222
0.875121 0.699932 0.091429
0.899507 0.702508 0.091601
0.916393 0.707314 0.091819
0.928375 0.710552 0.091947
0.936513 0.712914 0.092164
0.941023 0.715291 0.092665
0.943892 0.714629 0.093446
0.945696 0.720975 0.095607
0.067153 0.678186 0.090377
0.067153 0.678472 0.090377
0.067153 0.679563 0.090377
0.067153 0.681837 0.090377
0.067153 0.685943 0.090377
0.067153 0.693014 0.090377
0.067153 0.700659 0.090377
0.067153 0.706888 0.090377
0.067281 0.714262 0.090377
0.067571 0.720590 0.090377
0.068154 0.724290 0.090377
0.068912 0.727339 0.090377
0.070534 0.729400 0.090377
0.072591 0.730562 0.090377
0.076941 0.731087 0.090377
0.084780 0.730951 0.090377
0.098058 0.730742 0.090405
0.128455 0.730527 0.090459
0.183494 0.730103 0.090538
0.299650 0.730356 0.090622
0.441236 0.729126 0.090735
0.571904 0.732136 0.090917
0.681953 0.736066 0.091104
0.762679 0.736338 0.091219
0.823050 0.739270 0.091384
0.862793 0.743883 0.091603
0.890372 0.746136 0.091763
0.909880 0.750441 0.091936
0.924690 0.753692 0.091972
0.934262 0.756818 0.092332
0.940141 0.758694 0.092779
0.943405 0.762248 0.093503
0.945523 0.766383 0.095195
0.067153 0.725984 0.090377
0.067153 0.726209 0.090377
0.067153 0.727058 0.090377
0.067153 0.728795 0.090377
0.067153 0.731849 0.090377
0.067153 0.736953 0.090377
0.067153 0.744189 0.090377
0.067153 0.748411 0.090377
0.067316 0.755332 0.090377
0.067570 0.759247 0.090377
0.068138 0.763826 0.090377
0.068891 0.767404 0.090377
0.070231 0.769418 0.090377
0.072107 0.770684 0.090377
0.075682 0.771436 0.090377
0.082360 0.771617 0.090413
0.092043 0.771509 0.090469
0.116071 0.771377 0.090549
0.168059 0.771384 0.090634
0.246791 0.771287 0.090762
0.378397 0.771591 0.090907
0.519202 0.772747 0.091081
0.631796 0.775017 0.091263
0.729718 0.775227 0.091384
0.798870 0.776634 0.091564
0.850541 0.779176 0.091777
0.879357 0.780476 0.091926
0.902374 0.782660 0.091957
0.920263 0.785124 0.092179
0.931649 0.786729 0.092499
0.939018 0.789087 0.092914
0.942919 0.790733 0.093578
0.945325 0.794536 0.094989
0.067153 0.769071 0.090377
0.067153 0.769280 0.090377
0.067153 0.770061 0.090377
0.067153 0.771507 0.090377
0.067153 0.773157 0.090377
0.067153 0.775815 0.090377
0.067153 0.780015 0.090377
0.067192 0.782578 0.090377
0.067343 0.785840 0.090377
0.067627 0.788746 0.090377
0.068198 0.791507 0.090377
0.068876 0.793327 0.090377
0.070060 0.794909 0.090377
0.071850 0.795334 0.090387
0.075014 0.795545 0.090438
0.080813 0.795674 0.090509
0.089288 0.795695 0.090587
0.106896 0.795673 0.090690
0.148917 0.795628 0.090827
0.210803 0.795670 0.090969
0.337406 0.795698 0.091104
0.469071 0.795839 0.091241
0.590017 0.796459 0.091433
0.694810 0.796572 0.091561
0.771414 0.796985 0.091737
0.829904 0.798736 0.091933
0.867845 0.800179 0.091952
0.893980 0.802158 0.092101
0.915099 0.804629 0.092386
0.928475 0.806484 0.092678
0.937765 0.808883 0.093060
0.942338 0.811163 0.093684
0.945095 0.815706 0.094902
0.067153 0.795317 0.090377
0.067153 0.795366 0.090377
0.067153 0.795529 0.090377
0.067153 0.795841 0.090377
0.067153 0.796362 0.090377
0.067153 0.797177 0.090377
0.067153 0.800555 0.090377
0.067250 0.803639 0.090377
0.067394 0.806258 0.090377
0.067705 0.809566 0.090377
0.068221 0.811615 0.090377
0.068886 0.813797 0.090377
0.070061 0.815577 0.090417
0.071641 0.816520 0.090471
0.074430 0.817173 0.090547
0.079485 0.817586 0.090626
0.087438 0.817805 0.090757
0.101902 0.817845 0.090897
0.132842 0.817806 0.091033
0.185556 0.817737 0.091167
0.291835 0.817944 0.091301
0.423165 0.818218 0.091453
0.550677 0.818752 0.091610
0.648976 0.819052 0.091732
0.740696 0.819973 0.091901
0.807351 0.821811 0.091954
0.855954 0.823362 0.092054
0.884324 0.825268 0.092317
0.908459 0.827816 0.092591
0.924776 0.830073 0.092863
0.936285 0.832517 0.093237
0.941641 0.835587 0.093814
0.944900 0.839786 0.094876
0.067153 0.817282 0.090377
0.067153 0.817383 0.090377
0.067153 0.817758 0.090377
0.067153 0.818489 0.090377
0.067153 0.819695 0.090377
0.067153 0.821557 0.090377
0.067170 0.824445 0.090377
0.067291 0.827920 0.090377
0.067433 0.830073 0.090377
0.067725 0.833196 0.090377
0.068221 0.835282 0.090377
0.068879 0.837561 0.090421
0.069772 0.838955 0.090474
0.071295 0.840250 0.090552
0.073776 0.841097 0.090633
0.078073 0.841478 0.090753
0.085242 0.841708 0.090891
0.096755 0.841793 0.091026
0.121593 0.841820 0.091160
0.172397 0.841829 0.091289
0.248750 0.841918 0.091436
0.368766 0.842214 0.091588
0.500706 0.842770 0.091742
0.605648 0.843578 0.091895
0.707687 0.844177 0.091948
0.785094 0.845733 0.092079
0.840793 0.847449 0.092270
0.873431 0.849067 0.092525
0.900803 0.851505 0.092780
0.920555 0.853896 0.093056
0.934013 0.856478 0.093426
0.940889 0.858318 0.093930
0.944670 0.861396 0.094917
0.067153 0.842100 0.090377
0.067153 0.842202 0.090377
0.067153 0.842575 0.090377
0.067153 0.843295 0.090377
0.067153 0.844459 0.090377
0.067153 0.846212 0.090377
0.067213 0.848777 0.090377
0.067338 0.852505 0.090377
0.067488 0.854329 0.090377
0.067748 0.856719 0.090392
0.068275 0.858389 0.090439
0.068862 0.859515 0.090497
0.069712 0.860593 0.090571
0.071116 0.861422 0.090663
0.073185 0.861915 0.090787
0.077126 0.862271 0.090920
0.083600 0.862459 0.091054
0.092644 0.862503 0.091187
0.114189 0.862513 0.091315
0.158653 0.862525 0.091466
0.213720 0.862576 0.091615
0.331700 0.862720 0.091764
0.458516 0.862951 0.091909
0.572236 0.863438 0.091948
0.671718 0.864068 0.092009
0.755669 0.864759 0.092295
0.819691 0.866063 0.092475
0.862088 0.866843 0.092716
0.892416 0.868356 0.092964
0.915573 0.869830 0.093255
0.931329 0.871334 0.093617
0.940041 0.872768 0.094059
0.944415 0.875026 0.094984
0.067153 0.863188 0.090377
0.067153 0.863251 0.090377
0.067153 0.863481 0.090377
0.067153 0.863919 0.090377
0.067153 0.864616 0.090377
0.067182 0.865639 0.090377
0.067256 0.867094 0.090377
0.067371 0.869144 0.090385
0.067550 0.870548 0.090423
0.067808 0.871628 0.090464
0.068358 0.873064 0.090543
0.068867 0.873766 0.090603
0.069754 0.874664 0.090714
0.070916 0.875153 0.090837
0.072981 0.875623 0.090973
0.076551 0.875901 0.091102
0.082235 0.876053 0.091230
0.090189 0.876106 0.091364
0.106320 0.876090 0.091516
0.139580 0.876087 0.091666
0.189752 0.876107 0.091815
0.290482 0.876193 0.091935
0.413323 0.876343 0.091954
0.534647 0.876579 0.092059
0.630881 0.877037 0.092280
0.726196 0.877599 0.092498
0.798579 0.878802 0.092666
0.850938 0.879260 0.092901
0.882636 0.880217 0.093153
0.909071 0.881130 0.093452
0.928085 0.882297 0.093787
0.939059 0.883579 0.094190
0.944245 0.885430 0.095086
0.067153 0.879798 0.090377
0.067153 0.879830 0.090377
0.067153 0.879946 0.090377
0.067153 0.880165 0.090377
0.067172 0.880507 0.090377
0.067216 0.880998 0.090377
0.067281 0.881684 0.090388
0.067393 0.882640 0.090430
0.067590 0.883592 0.090482
0.067829 0.884226 0.090535
0.068306 0.885046 0.090606
0.068858 0.885682 0.090704
0.069522 0.886162 0.090827
0.070821 0.886550 0.090956
0.072584 0.886793 0.091085
0.075550 0.886950 0.091209
0.080767 0.887046 0.091339
0.087999 0.887056 0.091490
0.100907 0.887011 0.091636
0.126938 0.886972 0.091781
0.177354 0.886968 0.091925
0.251743 0.887015 0.091949
0.365566 0.887136 0.092006
0.490779 0.887346 0.092212
0.594013 0.887671 0.092416
