kodachrome64/Kodachrome64_Classic_RadianceIII.cube
TITLE "Kodachrome 64 Classic RadianceIII"
# Adobe RGB in/out. REPLACES AgX. Kodachrome 64 Classic RadianceIII.
LUT_3D_SIZE 9
DOMAIN_MIN 0.0 0.0 0.0
DOMAIN_MAX 1.0 1.0 1.0
0.078336 0.088005 0.085647
0.118927 0.089490 0.085950
0.329170 0.093199 0.086793
0.605025 0.104067 0.087873
0.822347 0.123544 0.090524
0.915121 0.144703 0.096539
0.945782 0.157973 0.108743
0.963363 0.101056 0.234651
0.964478 0.216333 0.538128
0.078418 0.098984 0.086030
0.085581 0.101015 0.086481
0.219536 0.104262 0.087181
0.507868 0.119118 0.088180
0.777320 0.137758 0.090931
0.906616 0.165112 0.097115
0.944544 0.176651 0.108639
0.963363 0.101066 0.234703
0.964479 0.216341 0.538124
0.080021 0.173241 0.087032
0.083172 0.188337 0.087404
0.121326 0.190946 0.088032
0.303189 0.200167 0.089946
0.594220 0.220401 0.092901
0.852753 0.249118 0.099692
0.936527 0.263497 0.110391
0.963480 0.106342 0.240855
0.964479 0.216341 0.538123
0.083174 0.316443 0.088321
0.085872 0.328623 0.088861
0.108564 0.345691 0.090622
0.196807 0.344198 0.092920
0.407760 0.350971 0.098422
0.699211 0.365664 0.104550
0.907618 0.383178 0.115900
0.954158 0.381100 0.135870
0.964479 0.214092 0.294680
0.087737 0.469150 0.091656
0.089974 0.478191 0.092323
0.108045 0.501513 0.095477
0.165621 0.509869 0.099902
0.308812 0.507806 0.105042
0.537371 0.514454 0.114217
0.826363 0.528156 0.126022
0.944642 0.538955 0.142576
0.964432 0.532264 0.216507
0.093571 0.630400 0.098260
0.096646 0.635806 0.099093
0.112420 0.657536 0.102252
0.154190 0.670754 0.108506
0.261436 0.672922 0.116064
0.429858 0.673053 0.125992
0.690054 0.681082 0.138097
0.924068 0.694695 0.154118
0.963799 0.709928 0.197204
0.102419 0.791100 0.105935
0.104531 0.794186 0.107044
0.116661 0.807139 0.111868
0.150408 0.818220 0.119026
0.231838 0.821999 0.128699
0.365727 0.822236 0.139062
0.574573 0.825265 0.151218
0.871018 0.834006 0.168139
0.962426 0.850287 0.197155
0.108445 0.913747 0.114395
0.109608 0.913548 0.114879
0.119389 0.913417 0.120586
0.146410 0.915584 0.129017
0.208083 0.915792 0.138950
0.322021 0.914939 0.150450
0.487555 0.915547 0.164187
0.765111 0.919637 0.178555
0.961339 0.926887 0.199438
0.107623 0.933565 0.115298
0.107624 0.933567 0.115299
0.124678 0.953380 0.115328
0.125020 0.953973 0.130526
0.174602 0.957378 0.141850
0.277059 0.955128 0.153846
0.407943 0.954328 0.166296
0.616413 0.955435 0.177352
0.964003 0.958589 0.186520
0.078359 0.088932 0.095726
0.102890 0.090837 0.101539
0.344130 0.095254 0.102951
0.650377 0.108276 0.103678
0.840959 0.126204 0.102500
0.917416 0.148026 0.107355
0.945780 0.161127 0.122406
0.963363 0.101066 0.234709
0.964479 0.216341 0.538130
0.079609 0.097983 0.092756
0.104212 0.104723 0.101166
0.282899 0.108583 0.100075
0.577273 0.123687 0.102600
0.808604 0.142897 0.102977
0.910265 0.168357 0.107981
0.944628 0.179686 0.121834
0.963364 0.101082 0.234791
0.964479 0.216341 0.538124
0.082275 0.164953 0.093465
0.088052 0.175971 0.095505
0.152133 0.185254 0.099188
0.379255 0.203029 0.103288
0.657282 0.224959 0.106387
0.871327 0.251698 0.111588
0.937502 0.265246 0.123371
0.963513 0.108430 0.243547
0.964479 0.216341 0.538123
0.085961 0.307615 0.097023
0.089671 0.317619 0.098437
0.121393 0.333852 0.101855
0.238440 0.338251 0.107353
0.460436 0.350330 0.112945
0.739559 0.366457 0.118488
0.914143 0.383472 0.129648
0.954362 0.381954 0.150368
0.964479 0.216366 0.538115
0.090038 0.459881 0.100221
0.092853 0.468301 0.101379
0.115545 0.490025 0.105975
0.182089 0.500375 0.113208
0.336996 0.502525 0.121660
0.570800 0.512256 0.129305
0.847563 0.527197 0.139688
0.945773 0.538297 0.157514
0.964424 0.534068 0.241964
0.096398 0.623117 0.105186
0.099749 0.628621 0.106755
0.116734 0.649103 0.112577
0.163221 0.662695 0.120497
0.277015 0.666795 0.130268
0.452949 0.669163 0.141026
0.714894 0.678957 0.152926
0.929088 0.693303 0.169685
0.963821 0.710238 0.213267
0.104131 0.786456 0.113935
0.106390 0.790028 0.115117
0.119308 0.802566 0.121119
0.155251 0.813548 0.130096
0.241825 0.817976 0.140529
0.378532 0.819231 0.152788
0.592472 0.823131 0.167495
0.879662 0.832668 0.182864
0.962651 0.849977 0.211120
0.109190 0.911809 0.119489
0.110518 0.911720 0.120541
0.121142 0.911788 0.128515
0.149317 0.913930 0.137966
0.214023 0.914329 0.149376
0.328762 0.913773 0.163610
0.497990 0.914698 0.177723
0.780172 0.918995 0.192237
0.961845 0.926621 0.211933
0.109207 0.936523 0.186621
0.109209 0.936525 0.186622
0.126188 0.956011 0.186624
0.126190 0.956011 0.186614
0.176675 0.957208 0.148908
0.280389 0.954946 0.163829
0.412344 0.954192 0.176895
0.623894 0.955350 0.188147
0.964519 0.958557 0.196206
0.078415 0.092151 0.176364
0.101676 0.095417 0.260951
0.313992 0.101408 0.249718
0.640102 0.116711 0.249790
0.845580 0.134131 0.251250
0.919277 0.162278 0.266058
0.945603 0.174996 0.288440
0.963426 0.103406 0.273519
0.964479 0.216342 0.538182
0.080581 0.102077 0.174997
0.096717 0.107754 0.212801
0.277409 0.115982 0.224309
0.590223 0.130697 0.232785
0.823135 0.156749 0.238979
0.914103 0.182021 0.254856
0.944656 0.192850 0.275809
0.963450 0.104996 0.278680
0.964479 0.216341 0.538133
0.085680 0.164787 0.158597
0.094794 0.174269 0.168665
0.204115 0.206288 0.206263
0.445523 0.209880 0.205623
0.724552 0.235363 0.217918
0.888610 0.262417 0.235544
0.939450 0.274297 0.251382
0.963003 0.156155 0.309239
0.964479 0.216341 0.538124
0.091430 0.300494 0.161852
0.100321 0.308517 0.166624
0.147581 0.323844 0.179563
0.303446 0.333749 0.192825
0.558889 0.352327 0.207453
0.815261 0.372106 0.223829
0.927229 0.387828 0.236801
0.954994 0.386578 0.277634
0.964479 0.216345 0.538131
0.100236 0.449231 0.167257
0.106268 0.456032 0.170410
0.137396 0.474012 0.180434
0.232378 0.486805 0.193130
0.410640 0.494896 0.205344
0.668842 0.510132 0.221592
0.886648 0.527416 0.233168
0.948854 0.537699 0.261546
0.964393 0.541317 0.369790
0.108084 0.610326 0.176455
0.112584 0.615117 0.178677
0.136122 0.631974 0.187222
0.197157 0.645734 0.198660
0.328589 0.653767 0.211077
0.529322 0.660921 0.224296
0.794009 0.674512 0.235959
0.937524 0.689814 0.257870
0.963894 0.711751 0.302945
0.113772 0.773621 0.180424
0.116890 0.776954 0.182253
0.134722 0.789646 0.189874
0.179184 0.800369 0.200755
0.280480 0.806635 0.213317
0.430035 0.810828 0.226883
0.659763 0.817273 0.240563
0.907436 0.828402 0.259254
0.963318 0.849145 0.285500
0.116127 0.900783 0.186480
0.118190 0.901446 0.188141
0.132940 0.904170 0.196862
0.166192 0.907165 0.207318
0.243456 0.908634 0.219818
0.361568 0.909324 0.232912
0.545432 0.911490 0.245882
0.833148 0.916559 0.260030
0.963170 0.925736 0.275281
0.109209 0.936526 0.186629
0.126188 0.956011 0.186627
0.126188 0.956012 0.186626
0.126201 0.956014 0.186627
0.188625 0.956023 0.197030
0.295853 0.954018 0.215818
0.432984 0.953523 0.229403
0.657980 0.954909 0.240104
0.965153 0.958432 0.247866
0.078876 0.099513 0.321907
0.087568 0.107856 0.431378
0.281368 0.117918 0.460885
0.599457 0.130454 0.451882
0.830656 0.157297 0.454558
0.915597 0.184442 0.465176
0.944590 0.198523 0.496476
0.960963 0.156047 0.592050
0.964479 0.217639 0.613694
0.081153 0.113869 0.328192
0.090789 0.121798 0.386918
0.257936 0.131470 0.428077
0.561073 0.150136 0.427600
0.811739 0.178434 0.436136
0.911019 0.202432 0.450267
0.943703 0.215000 0.483319
0.960664 0.171030 0.582450
0.964479 0.217654 0.614497
0.088399 0.183376 0.307511
0.100352 0.192775 0.325602
0.197719 0.208468 0.361647
0.452533 0.224523 0.377000
0.733111 0.251809 0.392996
0.890195 0.277326 0.409999
0.939249 0.290640 0.440574
0.958097 0.277402 0.519339
0.964479 0.217707 0.617417
0.098882 0.302795 0.290714
0.109155 0.310076 0.298116
0.165253 0.325651 0.318595
0.352976 0.354358 0.353614
0.601409 0.359503 0.358648
0.838114 0.380096 0.375779
0.930090 0.396785 0.399767
0.954925 0.398972 0.454199
0.964479 0.217750 0.618293
0.110441 0.446036 0.289707
0.117746 0.451887 0.293514
0.156562 0.468386 0.306579
0.273067 0.482624 0.322906
0.468416 0.494089 0.338059
0.726634 0.512240 0.354998
0.901941 0.530661 0.374033
0.950118 0.542522 0.408470
0.964333 0.554415 0.561079
0.118848 0.603443 0.290158
0.124830 0.607745 0.292603
0.154293 0.622722 0.302146
0.233877 0.636602 0.315362
0.375566 0.646927 0.329660
0.593200 0.657166 0.343669
0.843312 0.673117 0.360151
0.941983 0.689461 0.383269
0.963930 0.716925 0.481532
0.124772 0.765155 0.291444
0.129307 0.768147 0.293167
0.151456 0.779251 0.300425
0.207544 0.791192 0.311680
0.318052 0.798640 0.324755
0.485692 0.804960 0.338277
0.727959 0.813449 0.351938
0.926605 0.826085 0.369098
0.963656 0.850140 0.428735
0.124636 0.895487 0.291512
0.127777 0.896267 0.292699
0.145678 0.899287 0.298957
0.184493 0.902331 0.308129
0.272705 0.904451 0.319777
0.399051 0.906121 0.332125
0.596759 0.909189 0.344629
0.876517 0.914918 0.357906
0.963828 0.925597 0.393616
0.116166 0.946469 0.312426
0.126186 0.957575 0.312426
0.126188 0.957577 0.312425
0.142508 0.959820 0.278495
0.213526 0.953999 0.309259
0.318724 0.952773 0.319607
0.465006 0.952760 0.329700
0.709739 0.954416 0.338247
0.965451 0.958617 0.354544
0.079925 0.115316 0.484163
0.084028 0.122399 0.558884
0.235472 0.141349 0.639566
0.559099 0.162435 0.639814
0.809345 0.187368 0.639777
0.910106 0.212438 0.649901
0.943164 0.227899 0.672230
0.959370 0.204365 0.725002
0.964479 0.222066 0.784830
0.081584 0.127935 0.490762
0.087067 0.135664 0.545964
0.220550 0.162704 0.619041
0.530112 0.182935 0.624319
0.792668 0.206005 0.627013
0.905839 0.229689 0.639874
0.942312 0.245353 0.664186
0.959094 0.219893 0.719258
0.964479 0.221888 0.780152
0.089994 0.205233 0.478559
0.100875 0.214134 0.502935
0.190445 0.235190 0.556920
0.445408 0.253821 0.577681
0.723234 0.274585 0.587797
0.887590 0.298541 0.604745
0.938311 0.312655 0.633118
0.957274 0.307867 0.687310
0.964479 0.221334 0.765300
0.105024 0.319351 0.450720
0.115374 0.325875 0.462158
0.176464 0.342950 0.495470
0.356464 0.357745 0.524323
0.614225 0.373142 0.541253
0.844666 0.394447 0.561608
0.930405 0.412603 0.589506
0.954585 0.418211 0.642996
0.964712 0.347269 0.765432
0.118091 0.450250 0.431614
0.127106 0.455897 0.437592
0.171401 0.471825 0.457339
0.296926 0.487186 0.481741
0.511736 0.511883 0.512744
0.755682 0.520322 0.524168
0.908367 0.539392 0.548978
0.950498 0.553262 0.592709
0.964250 0.571363 0.714289
0.129373 0.603678 0.423700
0.136811 0.607643 0.427160
0.171027 0.621454 0.440319
0.262232 0.635431 0.458719
0.412934 0.647358 0.478403
0.637796 0.659459 0.495981
0.869782 0.676682 0.517821
0.944235 0.694227 0.550303
0.963912 0.725756 0.660241
0.135765 0.762880 0.417761
0.141257 0.765678 0.420017
0.166875 0.775764 0.429220
0.234323 0.787427 0.443606
0.348982 0.796121 0.460512
0.530560 0.803798 0.477511
0.776708 0.813639 0.494070
0.933495 0.826962 0.517323
0.963752 0.854283 0.604660
0.133064 0.893919 0.410862
0.137012 0.894614 0.412175
0.156663 0.897229 0.418892
0.203073 0.900189 0.429715
0.296814 0.902592 0.443500
0.433415 0.904898 0.458338
0.642807 0.908607 0.473105
0.898193 0.914903 0.488997
0.964079 0.927055 0.550997
0.118384 0.950093 0.455286
0.119676 0.951718 0.455286
0.123407 0.955532 0.455284
0.157526 0.955204 0.413602
0.229438 0.953476 0.424040
0.335522 0.952572 0.435054
0.490615 0.952756 0.445301
0.749416 0.954607 0.454074
0.965604 0.959645 0.498514
0.081176 0.136399 0.660868
0.083692 0.144098 0.713890
0.201619 0.181255 0.786353
0.516730 0.200185 0.790765
0.790258 0.222386 0.792516
0.904499 0.246042 0.797657
0.941691 0.263743 0.809168
0.958354 0.249945 0.833917
0.964479 0.225419 0.856543
0.082454 0.154033 0.664916
0.085876 0.162618 0.708661
0.195282 0.198190 0.776629
0.495286 0.216597 0.783529
0.774227 0.239550 0.786856
0.900595 0.263420 0.793218
0.940894 0.279311 0.805701
0.958089 0.266238 0.831304
0.964479 0.225419 0.856543
0.091189 0.233248 0.663079
0.099962 0.241013 0.685409
0.185140 0.268082 0.738694
0.430172 0.285431 0.756085
0.713516 0.303932 0.764171
0.884410 0.323017 0.774162
0.937320 0.338074 0.791634
0.956585 0.338322 0.818120
0.964479 0.225425 0.856541
0.108882 0.339029 0.635153
0.117903 0.344533 0.647689
0.181990 0.363853 0.687304
0.361687 0.379933 0.715823
0.621452 0.395843 0.730680
0.846494 0.413928 0.744226
0.930325 0.432711 0.764580
0.954236 0.441048 0.798172
0.964623 0.394067 0.850541
0.125041 0.465668 0.606352
0.134467 0.470541 0.613854
0.183068 0.487272 0.640824
0.313492 0.503280 0.669480
0.524508 0.517824 0.691615
0.771386 0.533558 0.708779
0.911618 0.552712 0.731011
0.950688 0.567992 0.767625
0.964174 0.590766 0.832443
0.137822 0.610102 0.583921
0.145613 0.614006 0.588652
0.182970 0.627246 0.605992
0.280805 0.641194 0.629712
0.438832 0.654098 0.653250
0.671158 0.672474 0.676870
0.879439 0.685038 0.695631
0.945473 0.703499 0.730263
0.963901 0.737233 0.808326
0.144102 0.766625 0.567373
0.149912 0.769185 0.570312
0.178653 0.778581 0.582154
0.253743 0.789934 0.600604
0.373256 0.798667 0.621813
0.562907 0.807083 0.642110
0.806259 0.817733 0.661064
0.936962 0.831517 0.689412
0.963813 0.860689 0.775268
0.139023 0.895539 0.549801
0.143261 0.896155 0.551626
0.165412 0.898427 0.560315
0.217632 0.901103 0.573737
0.313901 0.903541 0.590808
0.459264 0.906161 0.608803
0.677141 0.910222 0.626191
0.911229 0.916797 0.645438
0.964203 0.929123 0.726393
0.119230 0.951396 0.511825
0.120499 0.952829 0.514864
0.123655 0.956087 0.526445
0.160504 0.956186 0.540397
0.237055 0.954303 0.553647
0.344751 0.953466 0.566733
0.505238 0.953782 0.578521
0.772152 0.955679 0.587527
0.965661 0.961063 0.670753
0.082584 0.177448 0.834938
0.084876 0.182501 0.863405
0.167398 0.217793 0.886830
0.490990 0.237559 0.889704
0.777517 0.261006 0.890927
0.901492 0.282385 0.892876
0.940963 0.296357 0.897078
0.957774 0.289701 0.904770
0.964478 0.232712 0.911612
0.083854 0.191763 0.836135
0.086424 0.197090 0.860721
0.168692 0.232219 0.884602
0.475149 0.253560 0.888080
0.764626 0.275505 0.889666
0.898243 0.296125 0.891779
0.940236 0.310057 0.896121
0.957532 0.303611 0.904066
0.964478 0.232625 0.911161
0.092146 0.263566 0.836526
0.099500 0.269040 0.850511
0.174540 0.295105 0.874799
0.424659 0.312622 0.881043
0.714139 0.330740 0.883941
0.884449 0.349098 0.887059
0.937088 0.363540 0.892193
0.956270 0.366791 0.900502
0.964477 0.232125 0.909111
0.111798 0.362149 0.819957
0.119607 0.366700 0.829039
0.181941 0.385829 0.853373
0.368326 0.403094 0.868935
0.633424 0.420005 0.874278
0.852930 0.437910 0.878878
0.931032 0.453690 0.885220
0.954257 0.463430 0.895094
0.964451 0.454952 0.911097
0.130178 0.485082 0.795874
0.139370 0.489237 0.802442
0.188652 0.505373 0.823647
0.325981 0.522007 0.843622
0.545186 0.536810 0.856985
0.789536 0.552267 0.866681
0.915663 0.567839 0.875089
0.951208 0.583430 0.887099
0.964152 0.609959 0.905814
0.144419 0.624151 0.767247
0.151933 0.627651 0.772861
0.191580 0.640237 0.792630
0.295812 0.654831 0.813803
0.463440 0.668025 0.831817
0.694707 0.681471 0.845361
0.887736 0.696452 0.858568
0.946729 0.714527 0.875440
0.963945 0.748966 0.899553
0.149097 0.775877 0.737801
0.155135 0.778338 0.741793
0.186071 0.787215 0.756987
0.266229 0.796981 0.779480
0.391188 0.805756 0.801189
0.587401 0.814431 0.818160
0.825163 0.825095 0.831801
0.939472 0.838633 0.853947
0.963919 0.868223 0.891027
0.140941 0.900642 0.704874
0.145339 0.901136 0.707564
0.169034 0.902895 0.719546
0.224980 0.905142 0.737415
0.323638 0.907347 0.759106
0.475839 0.909903 0.780370
0.699739 0.914035 0.798274
0.918539 0.920521 0.815641
0.964316 0.931280 0.875339
0.119119 0.951704 0.604434
0.121691 0.954456 0.604462
0.125210 0.957995 0.605216
0.154304 0.959399 0.677835
0.234680 0.956497 0.697165
0.344386 0.955502 0.715243
0.506258 0.955777 0.729755
0.772808 0.957663 0.739325
0.965714 0.962960 0.842857
0.085245 0.218925 0.933728
0.087245 0.221966 0.935742
0.181674 0.250572 0.938598
0.519807 0.270382 0.939108
0.797207 0.290167 0.939527
0.907012 0.308775 0.940180
0.942123 0.321002 0.941320
0.958342 0.313085 0.943992
0.964502 0.260424 0.943207
0.086404 0.230957 0.933495
0.089012 0.234580 0.935394
0.184340 0.264117 0.938317
0.506969 0.283230 0.938889
0.788693 0.302141 0.939339
0.904623 0.320701 0.940018
0.941595 0.333051 0.941191
0.958140 0.326173 0.943864
0.964510 0.264884 0.943207
0.097947 0.297614 0.932629
0.104625 0.300951 0.933967
0.197927 0.321768 0.936728
0.461830 0.337617 0.937696
0.746702 0.354494 0.938350
0.893581 0.371922 0.939181
0.939094 0.385013 0.940509
0.957123 0.385033 0.943137
0.964595 0.309889 0.943207
0.116929 0.386210 0.930003
0.125275 0.389494 0.931211
0.204879 0.407280 0.934170
0.405133 0.422905 0.935798
0.678746 0.439010 0.936822
0.873697 0.456003 0.937902
0.934540 0.470568 0.939477
0.955558 0.477793 0.942181
0.964495 0.479466 0.945122
0.136527 0.505097 0.923793
0.145473 0.508325 0.925986
0.208074 0.523545 0.930360
0.355183 0.537936 0.932982
0.592288 0.551900 0.934730
0.824751 0.566720 0.936172
0.925740 0.581094 0.937988
0.953216 0.593287 0.940915
0.964297 0.622604 0.944493
0.149642 0.640565 0.913395
0.157413 0.643423 0.915719
0.205906 0.655864 0.922786
0.315910 0.668677 0.928905
0.501919 0.680933 0.931716
0.741725 0.694006 0.933832
0.902793 0.707711 0.935970
0.949747 0.721926 0.939213
0.964179 0.757359 0.943762
0.152084 0.789410 0.898074
0.158525 0.791425 0.900438
0.193339 0.798856 0.908612
0.277953 0.807257 0.918048
0.414062 0.815145 0.925962
0.624425 0.823347 0.930231
0.856680 0.833148 0.932920
0.943714 0.845104 0.936682
0.964199 0.872489 0.942686
0.137527 0.910379 0.872752
0.141973 0.910579 0.874931
0.166708 0.911083 0.884175
0.224841 0.912216 0.896316
0.327721 0.913638 0.908471
0.487835 0.915834 0.918275
0.720736 0.919635 0.925726
0.922912 0.923639 0.929068
0.964534 0.933523 0.940546
0.117937 0.950802 0.768063
0.125023 0.958416 0.771435
0.126119 0.959599 0.793956
0.146809 0.962599 0.829419
0.217611 0.960375 0.851941
0.331274 0.958874 0.872211
0.489362 0.958896 0.883323
0.744943 0.960575 0.889122
0.965770 0.964357 0.933931
0.153086 0.240279 0.964884
0.183128 0.242553 0.964892
0.430504 0.251717 0.964920
0.759758 0.266448 0.964989
0.891208 0.282945 0.965090
0.933351 0.296683 0.965218
0.949754 0.300184 0.965479
0.961569 0.267787 0.965893
0.964479 0.274457 0.963200
0.156748 0.250299 0.964878
0.186171 0.252661 0.964886
0.425946 0.261809 0.964916
0.753687 0.276276 0.964986
0.889468 0.292615 0.965088
0.932933 0.306311 0.965221
0.949599 0.309855 0.965481
0.961492 0.276894 0.965895
0.964479 0.282097 0.964745
0.176325 0.298050 0.964799
0.205394 0.300130 0.964811
0.409907 0.308317 0.964851
0.725814 0.321676 0.964938
0.881208 0.336786 0.965053
0.930930 0.350103 0.965207
0.948819 0.354212 0.965469
0.961088 0.325579 0.965885
0.964479 0.282135 0.964745
0.201917 0.389063 0.964646
0.228844 0.390820 0.964667
0.381119 0.397700 0.964737
0.671354 0.409333 0.964856
0.861294 0.422891 0.964995
0.925353 0.435460 0.965175
0.947162 0.441162 0.965459
0.960347 0.427826 0.965870
0.964859 0.455199 0.966148
0.208470 0.507626 0.964552
0.230039 0.509189 0.964585
0.342147 0.515428 0.964694
0.595493 0.525456 0.964831
0.817998 0.536834 0.965006
0.913080 0.547748 0.965214
0.944544 0.554315 0.965503
0.959615 0.549879 0.965941
0.964986 0.575192 0.966669
0.196827 0.643811 0.964563
0.213194 0.645112 0.964611
0.299836 0.650499 0.964764
0.497552 0.658859 0.964944
0.742072 0.668316 0.965133
0.892231 0.678014 0.965359
0.940247 0.684921 0.965648
0.958598 0.684922 0.966074
0.965057 0.725358 0.966789
0.173185 0.795943 0.964705
0.182398 0.796765 0.964767
0.241569 0.800213 0.964955
0.377741 0.805080 0.965181
0.606640 0.810534 0.965408
0.838172 0.816954 0.965647
0.931721 0.822336 0.965965
0.956976 0.823189 0.966363
0.965219 0.855498 0.967030
0.135501 0.915728 0.964515
0.139881 0.915832 0.964707
0.164879 0.916124 0.965143
0.248190 0.915962 0.965519
0.400009 0.915963 0.965858
0.647094 0.917383 0.966143
0.886429 0.920374 0.966438
0.952049 0.921741 0.966815
0.965482 0.930593 0.967367
0.115865 0.948681 0.898766
0.126188 0.960122 0.932427
0.126189 0.960122 0.932427
0.131141 0.960930 0.932479
0.178910 0.964930 0.965338
0.304398 0.963560 0.966577
0.473711 0.963131 0.967128
0.753637 0.964080 0.967503
0.965837 0.965630 0.967750
