kodachrome64/Kodachrome64_Classic_IlfochromeP.cube
TITLE "Kodachrome 64 Classic IlfochromeP"
# Adobe RGB in/out. REPLACES AgX. Kodachrome 64 Classic IlfochromeP.
LUT_3D_SIZE 9
DOMAIN_MIN 0.0 0.0 0.0
DOMAIN_MAX 1.0 1.0 1.0
0.138776 0.101263 0.100261
0.165711 0.108312 0.101613
0.349846 0.120140 0.103602
0.581923 0.139706 0.106604
0.742001 0.164528 0.111243
0.817988 0.186414 0.119861
0.856404 0.198556 0.133480
0.879107 0.134059 0.247061
0.881462 0.251290 0.518709
0.138931 0.129644 0.101771
0.142981 0.133970 0.102729
0.252596 0.139946 0.104446
0.498248 0.158949 0.107414
0.713089 0.180425 0.112178
0.810586 0.205007 0.120644
0.854491 0.215309 0.133383
0.879108 0.134081 0.247111
0.881462 0.251297 0.518706
0.139446 0.212284 0.104136
0.140992 0.225556 0.105084
0.167291 0.227880 0.107023
0.326460 0.236344 0.110060
0.572303 0.254928 0.115820
0.762020 0.278826 0.124169
0.842140 0.290467 0.135249
0.879237 0.142509 0.253070
0.881462 0.251297 0.518705
0.140995 0.338184 0.107788
0.143218 0.349435 0.108529
0.158309 0.365399 0.111457
0.233324 0.363978 0.115861
0.416728 0.370423 0.122430
0.655443 0.383234 0.130252
0.811458 0.398062 0.141164
0.868894 0.396309 0.160100
0.881462 0.249279 0.303088
0.144562 0.467721 0.113543
0.146527 0.475636 0.114614
0.157993 0.496590 0.118744
0.204430 0.504075 0.124456
0.331574 0.502229 0.130627
0.522128 0.508178 0.139360
0.744656 0.520241 0.150732
0.854642 0.529768 0.165626
0.881357 0.523860 0.230266
0.148985 0.607156 0.122209
0.150423 0.611438 0.123348
0.160678 0.628538 0.127752
0.193671 0.638868 0.133258
0.288484 0.640559 0.141339
0.435016 0.640661 0.150702
0.648811 0.646913 0.161944
0.825772 0.657483 0.175388
0.879921 0.669268 0.212334
0.154124 0.723462 0.131306
0.155645 0.725761 0.132148
0.163973 0.735392 0.136838
0.189935 0.742958 0.143964
0.262957 0.745392 0.153310
0.381339 0.745544 0.162740
0.554766 0.747493 0.172843
0.775298 0.753103 0.187546
0.878067 0.763509 0.212287
0.158236 0.816220 0.139551
0.158943 0.816046 0.140070
0.166063 0.815932 0.145463
0.186051 0.817820 0.153616
0.242730 0.818002 0.162647
0.343419 0.817259 0.172166
0.481793 0.817788 0.184144
0.704088 0.821350 0.196426
0.876859 0.827664 0.214440
0.157735 0.837044 0.140518
0.157735 0.837047 0.140520
0.169530 0.867671 0.140550
0.169799 0.868595 0.155064
0.212678 0.872802 0.165031
0.302708 0.870164 0.175150
0.416880 0.869147 0.185962
0.592047 0.870524 0.195408
0.880382 0.874224 0.203137
0.138846 0.107105 0.119006
0.154465 0.112087 0.126721
0.363227 0.123552 0.128637
0.619835 0.144887 0.129396
0.754278 0.167854 0.128112
0.819985 0.189483 0.132383
0.856401 0.201404 0.147231
0.879108 0.134080 0.247118
0.881462 0.251297 0.518711
0.139185 0.127532 0.115511
0.155416 0.140515 0.126189
0.307817 0.145264 0.124693
0.557158 0.164707 0.128257
0.732888 0.184738 0.128664
0.813762 0.207923 0.132856
0.854620 0.217988 0.146676
0.879108 0.134115 0.247197
0.881462 0.251297 0.518706
0.140220 0.204864 0.116622
0.144840 0.214707 0.118774
0.191603 0.222870 0.123478
0.392827 0.239038 0.128988
0.624906 0.258987 0.131649
0.775630 0.280859 0.136537
0.843638 0.291993 0.148168
0.879274 0.145076 0.255673
0.881462 0.251297 0.518705
0.143290 0.330086 0.120518
0.146261 0.339266 0.122451
0.167331 0.354251 0.127178
0.268617 0.358308 0.132381
0.460051 0.369814 0.137996
0.685158 0.383908 0.143530
0.817137 0.398310 0.154222
0.869121 0.397030 0.172095
0.881462 0.251319 0.518699
0.146583 0.459592 0.124893
0.148663 0.466976 0.126489
0.163111 0.486280 0.131337
0.220185 0.495570 0.138277
0.356857 0.497498 0.146507
0.551446 0.506211 0.153892
0.758617 0.519414 0.163255
0.856391 0.529187 0.178355
0.881338 0.525453 0.254143
0.150308 0.601500 0.130737
0.152177 0.605745 0.131928
0.164029 0.621928 0.137600
0.202220 0.632574 0.145376
0.302669 0.635777 0.154817
0.454068 0.637627 0.164356
0.666762 0.645260 0.174343
0.830746 0.656404 0.188872
0.879971 0.669507 0.227343
0.155358 0.720476 0.139058
0.156970 0.722730 0.140326
0.166001 0.731995 0.145981
0.194826 0.739944 0.154652
0.271532 0.742801 0.163947
0.392215 0.743609 0.174222
0.570746 0.746120 0.186993
0.784582 0.752245 0.200066
0.878316 0.763312 0.225402
0.158689 0.814531 0.144393
0.159492 0.814454 0.145419
0.167181 0.814513 0.153134
0.188877 0.816380 0.161836
0.247904 0.816727 0.171219
0.349480 0.816243 0.183645
0.490261 0.817049 0.195722
0.714977 0.820791 0.208010
0.877422 0.827433 0.226137
0.158700 0.841587 0.203222
0.158701 0.841591 0.203223
0.170714 0.871200 0.203224
0.170715 0.871200 0.203216
0.214762 0.872604 0.170806
0.305623 0.869951 0.183834
0.420536 0.868936 0.195020
0.598690 0.870424 0.204500
0.881554 0.874187 0.211391
0.138927 0.116426 0.194569
0.153584 0.123721 0.271617
0.336208 0.134815 0.261632
0.612247 0.155503 0.261701
0.757315 0.177701 0.263110
0.821604 0.202447 0.276344
0.856128 0.213843 0.296994
0.879177 0.138839 0.283205
0.881462 0.251298 0.518751
0.139660 0.136256 0.193407
0.150455 0.144245 0.226922
0.303014 0.154459 0.237339
0.568742 0.173574 0.245276
0.742523 0.197448 0.251254
0.817101 0.220040 0.266264
0.854663 0.229620 0.285306
0.879204 0.140852 0.287937
0.881462 0.251297 0.518713
0.143062 0.204714 0.179299
0.149561 0.213198 0.187998
0.239192 0.242096 0.220859
0.448011 0.245455 0.220258
0.673980 0.267884 0.231536
0.794211 0.289543 0.247927
0.846634 0.299940 0.263237
0.878707 0.196910 0.317282
0.881462 0.251297 0.518706
0.147775 0.323530 0.182125
0.152596 0.330914 0.186244
0.187191 0.345025 0.197279
0.326698 0.354157 0.208523
0.540952 0.371708 0.221975
0.737308 0.388703 0.236888
0.828522 0.401977 0.249145
0.869822 0.400925 0.286979
0.881462 0.251301 0.518712
0.152534 0.451201 0.186788
0.156884 0.456564 0.189492
0.178600 0.471977 0.198015
0.263409 0.483387 0.208778
0.419121 0.490654 0.219996
0.633368 0.504311 0.234840
0.792097 0.519603 0.245634
0.861161 0.528659 0.272168
0.881267 0.531852 0.376409
0.158017 0.591648 0.194646
0.160806 0.595343 0.196530
0.177743 0.608403 0.203725
0.233600 0.619284 0.213707
0.349325 0.625586 0.225363
0.515515 0.631187 0.237326
0.723166 0.641797 0.248329
0.843672 0.653698 0.268810
0.880136 0.670675 0.311149
0.161734 0.712351 0.198007
0.164149 0.714465 0.199550
0.176796 0.722489 0.205949
0.217279 0.730362 0.215681
0.305703 0.735018 0.227388
0.435162 0.738130 0.239752
0.626725 0.742347 0.252787
0.811300 0.749508 0.270044
0.879057 0.762781 0.294177
0.163561 0.804925 0.203104
0.165147 0.805503 0.204495
0.175585 0.807877 0.212010
0.204954 0.810486 0.221849
0.272933 0.811766 0.233246
0.377829 0.812367 0.245394
0.529073 0.814254 0.257929
0.749135 0.818670 0.270763
0.878892 0.826662 0.284821
0.158701 0.841591 0.203228
0.170713 0.871199 0.203227
0.170714 0.871200 0.203226
0.170724 0.871202 0.203227
0.226695 0.871213 0.212169
0.319664 0.868665 0.229645
0.437608 0.867894 0.242113
0.625418 0.869907 0.252343
0.882994 0.874040 0.259844
0.139010 0.130766 0.329645
0.144438 0.144370 0.434314
0.306480 0.157231 0.460298
0.576968 0.173264 0.452695
0.747491 0.197944 0.455088
0.818402 0.222160 0.463514
0.854562 0.234793 0.487173
0.876443 0.196812 0.563646
0.881462 0.252460 0.582011
0.139877 0.151747 0.335816
0.147237 0.162342 0.392994
0.285275 0.174560 0.431374
0.542878 0.191421 0.430950
0.734971 0.216884 0.438588
0.814418 0.238477 0.451251
0.853192 0.250094 0.477150
0.876110 0.210314 0.555647
0.881462 0.252473 0.582720
0.145145 0.221227 0.315598
0.152619 0.229552 0.333274
0.234041 0.244136 0.368511
0.453735 0.258599 0.383394
0.680361 0.280946 0.398879
0.795918 0.302588 0.414992
0.846325 0.314420 0.442569
0.873262 0.302655 0.504451
0.881462 0.252521 0.585298
0.151539 0.325650 0.299215
0.158668 0.332346 0.306441
0.204091 0.346693 0.326392
0.370682 0.373591 0.360711
0.578705 0.377986 0.365600
0.752406 0.395462 0.382211
0.832277 0.409468 0.405479
0.869745 0.411281 0.454767
0.881462 0.252560 0.586071
0.159446 0.448675 0.298232
0.164807 0.453297 0.301950
0.196049 0.467051 0.314691
0.299203 0.479626 0.330626
0.466406 0.489930 0.345493
0.675534 0.506198 0.362056
0.806516 0.522443 0.380521
0.863122 0.532915 0.413571
0.881131 0.543390 0.537682
0.165650 0.586233 0.298672
0.169650 0.589655 0.301060
0.193784 0.601196 0.310371
0.264674 0.612068 0.323235
0.389702 0.620220 0.337256
0.571394 0.628249 0.350989
0.755825 0.640710 0.367059
0.850537 0.653424 0.389462
0.880218 0.674734 0.475784
0.169604 0.706969 0.299929
0.173089 0.708873 0.301611
0.190949 0.715920 0.308693
0.242251 0.723531 0.319658
0.339841 0.729076 0.332442
0.480278 0.733774 0.345707
0.676522 0.739880 0.359083
0.827979 0.748020 0.375737
0.879596 0.763415 0.431960
0.169497 0.800310 0.299995
0.171952 0.800989 0.301154
0.185337 0.803621 0.307261
0.222584 0.806274 0.316201
0.298885 0.808121 0.327554
0.409470 0.809576 0.339674
0.574565 0.812249 0.351930
0.781201 0.817240 0.364880
0.879987 0.826541 0.399514
0.163591 0.856937 0.320384
0.170712 0.873033 0.320384
0.170714 0.873037 0.320383
0.182528 0.875669 0.287768
0.247480 0.868635 0.317301
0.340447 0.866726 0.327387
0.463694 0.866705 0.337295
0.663044 0.869285 0.345677
0.883669 0.874256 0.361615
0.139385 0.153516 0.477794
0.141712 0.163095 0.535832
0.266054 0.183386 0.604826
0.541138 0.202589 0.605044
0.733381 0.224713 0.605011
0.813623 0.247792 0.614106
0.852359 0.261595 0.634294
0.874675 0.240293 0.679035
0.881462 0.256413 0.724377
0.140039 0.170051 0.482828
0.144174 0.178940 0.524926
0.253456 0.202832 0.586731
0.516165 0.220842 0.591389
0.722270 0.241831 0.593764
0.809909 0.263178 0.605096
0.851045 0.275849 0.627025
0.874368 0.254475 0.674539
0.881462 0.256254 0.721236
0.146544 0.241107 0.473508
0.153001 0.249317 0.492072
0.228296 0.267746 0.534176
0.447916 0.282526 0.551644
0.672996 0.300192 0.560105
0.793112 0.321728 0.574194
0.844881 0.334713 0.599146
0.872349 0.330318 0.647912
0.881462 0.255760 0.710418
0.155998 0.340869 0.451656
0.162979 0.346900 0.461253
0.214551 0.362789 0.486409
0.373588 0.376486 0.508194
0.590103 0.389581 0.521101
0.756714 0.407516 0.538127
0.832758 0.422168 0.561529
0.869369 0.426624 0.607847
0.881993 0.366902 0.710520
0.165071 0.452005 0.434526
0.171430 0.456458 0.439895
0.209715 0.470063 0.457573
0.320660 0.483729 0.475943
0.501368 0.505878 0.499485
0.697117 0.513422 0.508078
0.812110 0.530154 0.527473
0.863712 0.542376 0.564194
0.880943 0.558279 0.670657
0.173135 0.586436 0.427479
0.178207 0.589577 0.430559
0.209374 0.600222 0.442341
0.289223 0.611141 0.458672
0.421026 0.620559 0.473389
0.610536 0.630044 0.486797
0.773972 0.643488 0.503309
0.854013 0.657121 0.528592
0.880177 0.681672 0.623458
0.177502 0.705519 0.422185
0.181463 0.707302 0.424197
0.205580 0.713711 0.432391
0.265060 0.721089 0.445287
0.367332 0.727202 0.460018
0.516533 0.732911 0.472717
0.712638 0.740003 0.485345
0.837488 0.748583 0.502935
0.879814 0.766054 0.574124
0.175669 0.798943 0.415793
0.178342 0.799549 0.417012
0.196143 0.801828 0.423194
0.238260 0.804408 0.432832
0.320556 0.806501 0.445192
0.437966 0.808511 0.458386
0.614252 0.811742 0.469436
0.803253 0.817227 0.481483
0.880557 0.827810 0.529178
0.165295 0.862559 0.455738
0.166282 0.865084 0.455738
0.168530 0.870637 0.455736
0.196947 0.870253 0.418336
0.260948 0.867820 0.427782
0.355538 0.866413 0.437616
0.484279 0.866699 0.446806
0.692476 0.869553 0.454655
0.884018 0.875464 0.488720
0.139885 0.179412 0.624026
0.141435 0.185854 0.670356
0.237092 0.219367 0.725399
0.505390 0.236361 0.728373
0.720696 0.256699 0.729645
0.808742 0.276395 0.733036
0.850087 0.290677 0.740606
0.873547 0.279478 0.756780
0.881462 0.259395 0.771447
0.140268 0.194982 0.627685
0.143220 0.202754 0.666410
0.232124 0.234479 0.718867
0.488069 0.251526 0.723504
0.710811 0.271235 0.725736
0.805344 0.290401 0.730109
0.848858 0.304320 0.738329
0.873253 0.292866 0.755079
0.881462 0.259395 0.771447
0.147585 0.266192 0.626024
0.152333 0.272401 0.646196
0.223229 0.294489 0.689730
0.435275 0.309644 0.703266
0.665765 0.326698 0.709543
0.789688 0.344260 0.717206
0.843359 0.358139 0.729061
0.871586 0.358376 0.746472
0.881462 0.259401 0.771446
0.158503 0.359051 0.600938
0.164927 0.364297 0.612105
0.220086 0.381693 0.647906
0.377928 0.395324 0.671847
0.596522 0.408682 0.683474
0.757915 0.423222 0.694041
0.832636 0.438099 0.709860
0.868981 0.444724 0.733375
0.881789 0.407200 0.767567
0.169815 0.464669 0.575528
0.176623 0.468939 0.582153
0.221163 0.483806 0.605933
0.335761 0.498174 0.631809
0.511641 0.511190 0.651797
0.708718 0.525003 0.666498
0.814939 0.541892 0.683732
0.864007 0.555322 0.712221
0.880771 0.575230 0.755820
0.178886 0.591475 0.556876
0.185273 0.594487 0.560818
0.221066 0.604672 0.575229
0.305988 0.615700 0.596144
0.442467 0.625846 0.617136
0.635060 0.640209 0.638485
0.784341 0.649989 0.655420
0.855927 0.664300 0.683148
0.880153 0.689085 0.740053
0.183881 0.707905 0.542981
0.189454 0.709533 0.545453
0.216747 0.715496 0.555398
0.281718 0.722671 0.570756
0.387742 0.729096 0.589178
0.544494 0.735351 0.607065
0.731330 0.742644 0.624203
0.842807 0.751507 0.649809
0.879953 0.770127 0.717951
0.179689 0.800355 0.528168
0.183168 0.800892 0.529709
0.204238 0.802872 0.537038
0.250980 0.805204 0.548332
0.336127 0.807328 0.562612
0.459116 0.809611 0.577691
0.639423 0.813149 0.593039
0.814601 0.818876 0.610068
0.880838 0.830241 0.680123
0.165942 0.864584 0.498792
0.166795 0.866812 0.501083
0.168725 0.871288 0.509785
0.199711 0.871405 0.520446
0.267422 0.869110 0.531415
0.363766 0.867805 0.542443
0.496124 0.868297 0.552350
0.709282 0.870809 0.559880
0.884148 0.877129 0.632960
0.140311 0.216014 0.757444
0.142407 0.220461 0.775874
0.206060 0.252597 0.796814
0.484583 0.269644 0.798834
0.713234 0.288337 0.799765
0.806125 0.306997 0.801248
0.848965 0.319710 0.804444
0.872904 0.313549 0.810290
0.881462 0.265777 0.815483
0.141569 0.228627 0.758222
0.143665 0.233480 0.774143
0.207244 0.265395 0.794656
0.471752 0.282321 0.797684
0.703730 0.300996 0.798805
0.803297 0.319496 0.800413
0.847844 0.332330 0.803717
0.872636 0.326402 0.809755
0.881462 0.265709 0.815141
0.148223 0.290526 0.758477
0.151994 0.295331 0.767548
0.212616 0.318553 0.785075
0.430730 0.334683 0.791177
0.666213 0.351386 0.794010
0.789730 0.368642 0.796973
0.843001 0.381427 0.800728
0.871236 0.384192 0.807048
0.881459 0.265322 0.813585
0.160261 0.380242 0.747674
0.166229 0.384114 0.753603
0.220038 0.400295 0.769399
0.383552 0.414582 0.779434
0.607079 0.428046 0.784566
0.762136 0.442234 0.789061
0.833718 0.454719 0.795260
0.869005 0.462706 0.802935
0.881399 0.455714 0.815092
0.173691 0.481837 0.731861
0.179921 0.485573 0.736186
0.226722 0.500050 0.750085
0.346982 0.514928 0.763085
0.528855 0.527875 0.771732
0.720287 0.541500 0.777984
0.818460 0.555187 0.785359
0.864814 0.568851 0.797001
0.880722 0.591365 0.811083
0.184150 0.602295 0.711927
0.191410 0.604982 0.716276
0.229197 0.614943 0.729721
0.319627 0.626420 0.743646
0.462446 0.636738 0.755412
0.652184 0.647215 0.764212
0.793269 0.658845 0.772755
0.857869 0.672817 0.785701
0.880253 0.696625 0.806327
0.188663 0.713783 0.689033
0.194715 0.715342 0.692146
0.224156 0.720955 0.703967
0.292929 0.727842 0.720784
0.402892 0.734366 0.735362
0.566226 0.740514 0.746498
0.743864 0.747383 0.755402
0.846669 0.756067 0.769770
0.880193 0.774906 0.799841
0.181193 0.804802 0.663548
0.185006 0.805233 0.665581
0.207557 0.806766 0.674764
0.257200 0.808724 0.688732
0.344875 0.810644 0.705612
0.472299 0.812871 0.721382
0.655825 0.816470 0.733442
0.820961 0.822120 0.744850
0.881093 0.833542 0.785603
0.165857 0.865064 0.573936
0.167509 0.869348 0.573960
0.169948 0.873527 0.574586
0.193796 0.875175 0.639357
0.265369 0.871769 0.656804
0.363454 0.870602 0.671392
0.496948 0.870925 0.682751
0.709766 0.873137 0.690222
0.884267 0.879358 0.762588
0.142707 0.253610 0.835418
0.144268 0.256324 0.838100
0.219771 0.279972 0.841907
0.507865 0.296509 0.842589
0.725300 0.313982 0.843148
0.810930 0.331151 0.844021
0.850754 0.342397 0.845544
0.873534 0.335108 0.849008
0.881515 0.287838 0.848067
0.143649 0.264299 0.835106
0.145684 0.267257 0.837636
0.222432 0.290998 0.841533
0.497522 0.307732 0.842297
0.719810 0.325048 0.842897
0.808850 0.342119 0.843804
0.849939 0.353514 0.845371
0.873310 0.347175 0.848856
0.881533 0.291674 0.848067
0.151021 0.320872 0.833955
0.155712 0.323951 0.835735
0.234204 0.343106 0.839413
0.461163 0.357713 0.840704
0.690463 0.373707 0.841577
0.799237 0.388547 0.842687
0.846087 0.399608 0.844459
0.872182 0.399625 0.847972
0.881726 0.332175 0.848067
0.164179 0.400615 0.830463
0.169999 0.403377 0.832068
0.239875 0.417926 0.836005
0.414542 0.430343 0.838173
0.640592 0.443107 0.839540
0.778173 0.456541 0.840980
0.839091 0.468962 0.843082
0.870447 0.475283 0.846694
0.881500 0.476784 0.850350
0.178016 0.499802 0.824714
0.185136 0.502694 0.826374
0.242722 0.516266 0.830938
0.372521 0.528869 0.834425
0.570582 0.541177 0.836751
0.743591 0.554205 0.838673
0.827227 0.566807 0.841095
0.867852 0.577420 0.845002
0.881050 0.601105 0.849603
0.189192 0.615202 0.816835
0.196842 0.617461 0.818598
0.240791 0.627229 0.823951
0.337921 0.637247 0.829005
0.493441 0.646797 0.832740
0.686768 0.656950 0.835556
0.807258 0.667556 0.838404
0.862546 0.678740 0.842729
0.880782 0.701996 0.848735
0.191555 0.722341 0.805202
0.197875 0.723704 0.806999
0.230590 0.729237 0.813207
0.303491 0.735480 0.820363
0.421962 0.740975 0.826355
0.599162 0.746259 0.830767
0.764591 0.752553 0.834341
0.853208 0.760203 0.839352
0.880829 0.778690 0.847370
0.178688 0.813286 0.783076
0.182073 0.813461 0.785205
0.205427 0.813899 0.794238
0.257083 0.814886 0.803865
0.348546 0.816125 0.813100
0.482020 0.818038 0.820535
0.671130 0.821349 0.826177
0.824766 0.824836 0.829221
0.881587 0.836979 0.844509
0.164953 0.863660 0.712560
0.169801 0.874021 0.715172
0.170659 0.875409 0.730596
0.186440 0.878933 0.753851
0.250961 0.876320 0.768473
0.351733 0.874559 0.782547
0.483261 0.874584 0.793406
0.689157 0.876555 0.798410
0.884395 0.882032 0.835688
0.192523 0.271817 0.875612
0.221223 0.273627 0.875631
0.435548 0.280873 0.875702
0.700133 0.293052 0.875870
0.797010 0.307484 0.876116
0.837267 0.320012 0.876430
0.862557 0.323243 0.877069
0.877115 0.294229 0.878082
0.881462 0.300080 0.871892
0.196222 0.279757 0.875598
0.224256 0.281615 0.875618
0.431792 0.289023 0.875691
0.695640 0.301671 0.875863
0.795135 0.316249 0.876112
0.836627 0.328887 0.876436
0.862316 0.332144 0.877073
0.877030 0.302211 0.878086
0.881462 0.306747 0.875274
0.214411 0.321274 0.875406
0.240334 0.323194 0.875434
0.418513 0.330731 0.875531
0.674922 0.343021 0.875744
0.786244 0.356950 0.876027
0.833561 0.369598 0.876403
0.861107 0.373466 0.877044
0.876581 0.346627 0.878062
0.881462 0.306780 0.875274
0.237324 0.403016 0.875032
0.260450 0.404486 0.875082
0.394404 0.410230 0.875254
0.635203 0.419564 0.875543
0.767754 0.430332 0.875884
0.826890 0.440287 0.876323
0.858540 0.444814 0.877018
0.875759 0.434232 0.878026
0.882325 0.455908 0.878706
0.243074 0.502068 0.874800
0.261451 0.503466 0.874882
0.361458 0.509049 0.875149
0.573437 0.517914 0.875484
0.739122 0.527896 0.875911
0.816211 0.537521 0.876421
0.854491 0.543302 0.877128
0.874946 0.539397 0.878200
0.882615 0.561637 0.879983
0.233340 0.617767 0.874828
0.247196 0.618794 0.874946
0.323357 0.623024 0.875320
0.489906 0.629573 0.875759
0.687026 0.636965 0.876222
0.798062 0.644525 0.876775
0.847862 0.649897 0.877481
0.873818 0.649898 0.878524
0.882775 0.681414 0.880278
0.211338 0.727069 0.875174
0.220494 0.727681 0.875327
0.271312 0.730246 0.875786
0.391545 0.733863 0.876340
0.583359 0.737912 0.876895
0.752444 0.742142 0.877480
0.834772 0.745608 0.878258
0.872019 0.746157 0.879232
0.883143 0.766827 0.880868
0.177324 0.817946 0.874711
0.180287 0.818036 0.875179
0.203748 0.818290 0.876245
0.276986 0.818150 0.877166
0.410270 0.818150 0.877997
0.617420 0.819387 0.878693
0.791862 0.821992 0.879417
0.866120 0.823183 0.880340
0.883742 0.832491 0.881695
0.163358 0.860367 0.805728
0.170714 0.876024 0.833685
0.170714 0.876024 0.833686
0.174353 0.876973 0.833754
0.217004 0.883410 0.876723
0.327579 0.880120 0.879758
0.470612 0.879558 0.881109
0.695603 0.881368 0.882030
0.884548 0.885093 0.882636
