kodachrome64/Kodachrome64_Modern_ExtraPunchy.cube
TITLE "Kodachrome 64 Modern ExtraPunchy"
# Adobe RGB in/out. REPLACES AgX. Kodachrome 64 Modern ExtraPunchy.
LUT_3D_SIZE 33
DOMAIN_MIN 0.0 0.0 0.0
DOMAIN_MAX 1.0 1.0 1.0
0.078962 0.074438 0.068230
0.078962 0.074438 0.068230
0.078962 0.074438 0.068230
0.078962 0.074438 0.068230
0.079320 0.074438 0.068230
0.086912 0.074438 0.068230
0.113113 0.074445 0.068230
0.182879 0.074488 0.068230
0.293035 0.074858 0.068230
0.415458 0.075904 0.068230
0.512833 0.078128 0.068230
0.603736 0.084238 0.068230
0.684095 0.097400 0.068230
0.753974 0.114554 0.068261
0.809614 0.147197 0.068312
0.848953 0.191529 0.068366
0.885582 0.247810 0.068424
0.912718 0.299808 0.068482
0.930860 0.366706 0.068544
0.944957 0.410088 0.068606
0.954914 0.463366 0.068673
0.961092 0.500309 0.068790
0.966679 0.547508 0.068970
0.971336 0.589137 0.069167
0.974638 0.619455 0.069584
0.976805 0.647468 0.070040
0.978627 0.676240 0.070773
0.980360 0.705419 0.071491
0.981979 0.734030 0.072097
0.983150 0.761908 0.073036
0.983760 0.784976 0.073994
0.984309 0.797164 0.075680
0.984832 0.810521 0.077405
0.078962 0.074438 0.068230
0.078962 0.074438 0.068230
0.078962 0.074438 0.068230
0.078962 0.074438 0.068230
0.079210 0.074438 0.068230
0.085309 0.074438 0.068230
0.108462 0.074446 0.068230
0.173828 0.074490 0.068230
0.276501 0.074880 0.068230
0.408008 0.075960 0.068230
0.506816 0.078236 0.068230
0.598230 0.084566 0.068230
0.679048 0.097755 0.068230
0.751972 0.115204 0.068260
0.807526 0.148124 0.068310
0.847748 0.192744 0.068365
0.884101 0.249202 0.068422
0.911810 0.301222 0.068481
0.930544 0.367614 0.068543
0.944588 0.410968 0.068604
0.954675 0.464046 0.068672
0.960915 0.501184 0.068786
0.966546 0.548340 0.068966
0.971215 0.589715 0.069164
0.974578 0.619944 0.069577
0.976760 0.647942 0.070031
0.978586 0.676729 0.070762
0.980323 0.705896 0.071481
0.981954 0.734483 0.072084
0.983127 0.762350 0.073024
0.983749 0.785201 0.073982
0.984298 0.797349 0.075660
0.984823 0.810754 0.077383
0.078962 0.074438 0.068230
0.078962 0.074438 0.068230
0.078962 0.074438 0.068230
0.078962 0.074438 0.068230
0.079023 0.074438 0.068230
0.081772 0.074438 0.068230
0.097791 0.074450 0.068230
0.145820 0.074496 0.068230
0.244611 0.074955 0.068230
0.372183 0.076150 0.068230
0.485594 0.078610 0.068230
0.579633 0.085721 0.068230
0.661816 0.098949 0.068230
0.745027 0.117516 0.068254
0.799977 0.151438 0.068304
0.843522 0.197101 0.068359
0.878899 0.254193 0.068417
0.908606 0.306294 0.068476
0.929424 0.370857 0.068538
0.943281 0.415610 0.068599
0.953679 0.466476 0.068667
0.960286 0.504316 0.068773
0.966072 0.551321 0.068955
0.970787 0.591785 0.069152
0.974361 0.621693 0.069551
0.976600 0.649640 0.070000
0.978440 0.678482 0.070723
0.980190 0.707604 0.071445
0.981855 0.736108 0.072038
0.983044 0.763935 0.072982
0.983710 0.785974 0.073941
0.984262 0.798014 0.075590
0.984790 0.811589 0.077304
0.078962 0.074438 0.068230
0.078962 0.074438 0.068230
0.078962 0.074438 0.068230
0.078962 0.074438 0.068230
0.078962 0.074438 0.068230
0.079546 0.074438 0.068230
0.087954 0.074459 0.068230
0.117509 0.074507 0.068230
0.199737 0.075083 0.068230
0.324510 0.076479 0.068230
0.449953 0.079261 0.068230
0.549587 0.088118 0.068230
0.640056 0.101076 0.068230
0.730661 0.122285 0.068244
0.781135 0.157495 0.068295
0.834516 0.205100 0.068351
0.869779 0.262645 0.068407
0.902944 0.315310 0.068467
0.926256 0.376663 0.068529
0.940947 0.424675 0.068590
0.951895 0.470900 0.068659
0.959157 0.510037 0.068751
0.965204 0.556768 0.068935
0.970015 0.595563 0.069130
0.973969 0.624888 0.069505
0.976310 0.652743 0.069944
0.978176 0.681688 0.070654
0.979948 0.710732 0.071382
0.981634 0.739084 0.071956
0.982892 0.766839 0.072905
0.983638 0.787242 0.073866
0.984196 0.799230 0.075464
0.984729 0.813119 0.077160
0.078962 0.074448 0.068230
0.078962 0.074447 0.068230
0.078962 0.074442 0.068230
0.078962 0.074438 0.068230
0.078962 0.074438 0.068230
0.079191 0.074443 0.068230
0.083569 0.074476 0.068230
0.101723 0.074693 0.068230
0.161359 0.075412 0.068230
0.268581 0.076984 0.068230
0.407637 0.080590 0.068230
0.512213 0.091896 0.068230
0.609160 0.104486 0.068230
0.695132 0.129406 0.068231
0.768498 0.167642 0.068284
0.819498 0.217087 0.068339
0.857147 0.274615 0.068394
0.894878 0.328727 0.068456
0.920784 0.385055 0.068517
0.934108 0.438174 0.068579
0.949275 0.477418 0.068647
0.957532 0.518508 0.068719
0.963733 0.564837 0.068906
0.968897 0.601149 0.069099
0.973400 0.629611 0.069440
0.975862 0.657338 0.069881
0.977790 0.686441 0.070554
0.979595 0.715373 0.071290
0.981310 0.743502 0.071836
0.982671 0.771154 0.072795
0.983533 0.789123 0.073758
0.984100 0.801036 0.075280
0.984639 0.815393 0.076953
0.078962 0.075143 0.068230
0.078962 0.075107 0.068230
0.078962 0.074983 0.068230
0.078962 0.074772 0.068230
0.079051 0.074549 0.068230
0.079265 0.074502 0.068230
0.082096 0.074555 0.068230
0.094919 0.075019 0.068230
0.132898 0.076116 0.068230
0.219605 0.078258 0.068230
0.349358 0.083918 0.068230
0.470412 0.096328 0.068230
0.569697 0.111415 0.068230
0.655889 0.140818 0.068230
0.743937 0.181266 0.068271
0.800912 0.233551 0.068325
0.845069 0.287249 0.068380
0.882341 0.346881 0.068441
0.911727 0.396195 0.068502
0.930879 0.451419 0.068566
0.945443 0.486102 0.068632
0.955452 0.529821 0.068699
0.961841 0.575618 0.068869
0.967452 0.608113 0.069060
0.972225 0.635901 0.069359
0.975188 0.663777 0.069805
0.977286 0.692789 0.070426
0.979133 0.721578 0.071172
0.980885 0.749414 0.071682
0.982380 0.776933 0.072652
0.983395 0.791636 0.073617
0.983972 0.803450 0.075041
0.984521 0.818437 0.076729
0.078962 0.081027 0.068230
0.078962 0.081233 0.068230
0.078962 0.079778 0.068230
0.078962 0.078068 0.068230
0.079170 0.076601 0.068230
0.080440 0.075972 0.068230
0.083601 0.075752 0.068230
0.091201 0.075921 0.068230
0.118544 0.077318 0.068230
0.191269 0.080467 0.068230
0.306054 0.090280 0.068230
0.430613 0.101858 0.068230
0.531256 0.122312 0.068230
0.627283 0.155561 0.068230
0.714114 0.200151 0.068258
0.773023 0.255103 0.068310
0.829095 0.304701 0.068366
0.866130 0.368282 0.068426
0.901303 0.410145 0.068486
0.925700 0.462342 0.068550
0.940937 0.497763 0.068615
0.952215 0.543978 0.068684
0.959584 0.585953 0.068827
0.965719 0.616185 0.069015
0.970635 0.643769 0.069268
0.974371 0.671921 0.069714
0.976674 0.700756 0.070273
0.978570 0.729201 0.071031
0.980366 0.756848 0.071620
0.982023 0.782239 0.072481
0.983226 0.794787 0.073447
0.983815 0.807407 0.074753
0.984376 0.822267 0.076458
0.078962 0.106820 0.068230
0.078962 0.107386 0.068230
0.078962 0.105556 0.068230
0.079026 0.097825 0.068230
0.079271 0.089989 0.068230
0.081729 0.083710 0.068230
0.086431 0.080892 0.068230
0.096309 0.080290 0.068230
0.113368 0.080826 0.068230
0.171557 0.087674 0.068230
0.266774 0.098324 0.068230
0.396966 0.112489 0.068230
0.496904 0.139289 0.068230
0.590267 0.176327 0.068230
0.674228 0.224789 0.068247
0.751623 0.278481 0.068297
0.809333 0.331545 0.068353
0.850311 0.385248 0.068410
0.889415 0.436163 0.068471
0.916606 0.475489 0.068534
0.932822 0.514838 0.068597
0.948037 0.560308 0.068667
0.957033 0.597348 0.068781
0.963448 0.625869 0.068968
0.968815 0.653219 0.069173
0.973431 0.681721 0.069614
0.975960 0.710352 0.070097
0.977916 0.738363 0.070872
0.979762 0.765817 0.071597
0.981511 0.786671 0.072286
0.982842 0.798576 0.073254
0.983631 0.812180 0.074424
0.984205 0.826887 0.076147
0.078962 0.179919 0.068230
0.078962 0.181148 0.068230
0.078962 0.172481 0.068230
0.079098 0.150180 0.068230
0.080059 0.128340 0.068230
0.083082 0.113130 0.068230
0.089751 0.104139 0.068230
0.101111 0.100863 0.068230
0.122887 0.099959 0.068230
0.165645 0.100967 0.068230
0.243249 0.110375 0.068230
0.354999 0.131673 0.068230
0.464991 0.163713 0.068230
0.557693 0.205433 0.068230
0.643516 0.256734 0.068239
0.734066 0.302840 0.068288
0.783766 0.364862 0.068342
0.836692 0.405252 0.068396
0.872573 0.457379 0.068457
0.905569 0.491055 0.068519
0.928492 0.535084 0.068582
0.943083 0.579265 0.068651
0.954045 0.609935 0.068734
0.960883 0.637176 0.068924
0.966818 0.664620 0.069125
0.971745 0.693188 0.069507
0.974997 0.721588 0.069964
0.977187 0.749094 0.070701
0.979084 0.776331 0.071448
0.980881 0.791263 0.072074
0.982406 0.802997 0.073045
0.983422 0.817763 0.074064
0.984010 0.832295 0.075806
0.078962 0.299143 0.068230
0.078962 0.296357 0.068230
0.078962 0.281966 0.068230
0.079167 0.255940 0.068230
0.080827 0.221433 0.068230
0.085051 0.190661 0.068230
0.093580 0.167464 0.068230
0.108276 0.152296 0.068230
0.135140 0.144549 0.068230
0.181320 0.142440 0.068230
0.240295 0.145430 0.068230
0.331012 0.163033 0.068230
0.439924 0.198978 0.068230
0.530272 0.244038 0.068230
0.618741 0.289005 0.068234
0.699029 0.341852 0.068282
0.768492 0.389153 0.068333
0.818539 0.439317 0.068385
0.856113 0.475698 0.068445
0.894396 0.513629 0.068505
0.920827 0.557913 0.068568
0.934670 0.594919 0.068635
0.949959 0.623228 0.068703
0.958183 0.650136 0.068881
0.964584 0.678051 0.069076
0.969763 0.706342 0.069399
0.973961 0.734178 0.069853
0.976399 0.761408 0.070525
0.978349 0.784428 0.071282
0.980194 0.796497 0.071852
0.981929 0.809447 0.072835
0.983164 0.824149 0.073825
0.983796 0.838380 0.075443
0.078962 0.410151 0.068230
0.078962 0.406557 0.068230
0.079011 0.394467 0.068230
0.079235 0.375136 0.068230
0.081563 0.342149 0.068230
0.086790 0.303636 0.068230
0.097934 0.277587 0.068230
0.115161 0.253051 0.068230
0.149282 0.234039 0.068230
0.196963 0.223805 0.068230
0.257971 0.221426 0.068230
0.331842 0.225990 0.068230
0.420647 0.247149 0.068230
0.508455 0.286575 0.068230
0.592720 0.332515 0.068233
0.668876 0.380361 0.068278
0.746535 0.420918 0.068327
0.801212 0.465003 0.068378
0.844205 0.497801 0.068436
0.880492 0.541105 0.068493
0.910419 0.582254 0.068556
0.930475 0.611730 0.068620
0.945138 0.638289 0.068689
0.955425 0.665196 0.068840
0.961978 0.693254 0.069030
0.967704 0.721223 0.069302
0.972609 0.748386 0.069753
0.975472 0.775327 0.070351
0.977570 0.790708 0.071116
0.979464 0.802365 0.071635
0.981258 0.816858 0.072622
0.982686 0.831334 0.073610
0.983565 0.845223 0.075070
0.078962 0.500611 0.068230
0.078962 0.497202 0.068230
0.079087 0.487589 0.068230
0.079498 0.472819 0.068230
0.082262 0.454158 0.068230
0.088763 0.420478 0.068230
0.100561 0.392605 0.068230
0.122681 0.371282 0.068230
0.163074 0.347081 0.068230
0.211397 0.328298 0.068230
0.275693 0.318333 0.068230
0.348917 0.316419 0.068230
0.424395 0.321764 0.068230
0.491375 0.340059 0.068230
0.571826 0.380994 0.068236
0.647783 0.416278 0.068279
0.732803 0.460289 0.068325
0.778274 0.490253 0.068374
0.831050 0.529923 0.068429
0.866067 0.571331 0.068485
0.900527 0.602983 0.068547
0.924960 0.629182 0.068608
0.940359 0.655207 0.068677
0.951785 0.682655 0.068804
0.959361 0.710297 0.068988
0.965619 0.737499 0.069212
0.970631 0.764275 0.069659
0.974425 0.785722 0.070181
0.976764 0.797448 0.070955
0.978704 0.810519 0.071611
0.980542 0.825084 0.072413
0.982184 0.839189 0.073397
0.983322 0.852824 0.074699
0.078998 0.589961 0.068230
0.079036 0.587820 0.068230
0.079162 0.580431 0.068230
0.080162 0.563546 0.068230
0.083207 0.540517 0.068230
0.090667 0.513673 0.068230
0.104654 0.488637 0.068230
0.130804 0.469708 0.068230
0.175907 0.453638 0.068230
0.230521 0.435102 0.068230
0.298880 0.417959 0.068230
0.365924 0.410052 0.068230
0.437374 0.409472 0.068230
0.497890 0.414582 0.068230
0.555823 0.428435 0.068242
0.633614 0.463162 0.068283
0.709239 0.490355 0.068327
0.769306 0.526899 0.068374
0.817356 0.565843 0.068427
0.853300 0.597627 0.068481
0.891075 0.623497 0.068541
0.916943 0.648699 0.068600
0.932702 0.675046 0.068667
0.947703 0.702121 0.068774
0.956793 0.729094 0.068957
0.963215 0.755541 0.069157
0.968655 0.781034 0.069575
0.973371 0.793406 0.070046
0.975936 0.805256 0.070807
0.977929 0.819848 0.071549
0.979808 0.834096 0.072215
0.981591 0.847797 0.073193
0.982926 0.861181 0.074341
0.079086 0.649060 0.068230
0.079119 0.647393 0.068230
0.079240 0.641601 0.068230
0.080848 0.631677 0.068230
0.084516 0.618406 0.068230
0.092832 0.602700 0.068230
0.108491 0.584116 0.068230
0.138782 0.560993 0.068230
0.186529 0.538076 0.068230
0.244578 0.518359 0.068230
0.314651 0.503518 0.068230
0.389426 0.493958 0.068230
0.450563 0.490372 0.068230
0.508830 0.490542 0.068245
0.564992 0.494189 0.068268
0.623277 0.502883 0.068291
0.690200 0.533872 0.068332
0.752794 0.569102 0.068377
0.805136 0.597814 0.068428
0.844883 0.622116 0.068480
0.879343 0.646044 0.068538
0.908521 0.671121 0.068595
0.929416 0.697289 0.068661
0.943475 0.723666 0.068752
0.954118 0.749543 0.068933
0.960822 0.775454 0.069128
0.966718 0.790391 0.069504
0.971631 0.801756 0.069950
0.974939 0.815767 0.070675
0.977153 0.830018 0.071419
0.979068 0.843770 0.072033
0.980887 0.857180 0.073009
0.982428 0.867593 0.074007
0.079172 0.708582 0.068230
0.079205 0.706995 0.068230
0.079646 0.701450 0.068230
0.081569 0.691862 0.068230
0.085867 0.678849 0.068230
0.095439 0.663450 0.068230
0.112031 0.647524 0.068230
0.146709 0.631891 0.068230
0.196321 0.617239 0.068230
0.257588 0.604258 0.068230
0.328905 0.592134 0.068230
0.405346 0.583125 0.068241
0.462778 0.576962 0.068257
0.519627 0.573519 0.068274
0.575079 0.574581 0.068294
0.631018 0.579425 0.068318
0.680850 0.585781 0.068345
0.744980 0.604636 0.068383
0.791841 0.625975 0.068433
0.836673 0.648121 0.068483
0.868748 0.671724 0.068538
0.900948 0.696551 0.068593
0.924469 0.721845 0.068658
0.938953 0.746843 0.068738
0.950814 0.772026 0.068917
0.958540 0.788603 0.069106
0.964769 0.799793 0.069449
0.969823 0.813030 0.069887
0.973963 0.827157 0.070566
0.976387 0.840880 0.071308
0.978334 0.854244 0.071875
0.980184 0.865560 0.072851
0.981929 0.874366 0.073838
0.079258 0.767104 0.068230
0.079364 0.765711 0.068230
0.080400 0.760827 0.068230
0.082307 0.752309 0.068230
0.087219 0.740597 0.068231
0.098116 0.726496 0.068233
0.116308 0.710708 0.068236
0.154125 0.694440 0.068240
0.204809 0.678759 0.068246
0.269297 0.664469 0.068253
0.341843 0.652542 0.068263
0.416492 0.643269 0.068274
0.473980 0.636554 0.068288
0.529985 0.632508 0.068304
0.585035 0.631121 0.068325
0.637716 0.632286 0.068347
0.689435 0.635831 0.068372
0.742343 0.641545 0.068400
0.779096 0.655710 0.068441
0.827494 0.677699 0.068488
0.859600 0.700722 0.068542
0.894109 0.724414 0.068595
0.918436 0.748113 0.068658
0.932834 0.772218 0.068735
0.947407 0.788289 0.068909
0.956402 0.799161 0.069093
0.962663 0.811878 0.069411
0.968096 0.825748 0.069845
0.972867 0.839305 0.070482
0.975564 0.852528 0.071219
0.977617 0.864309 0.071746
0.979494 0.873076 0.072719
0.981280 0.881630 0.073696
0.079912 0.800672 0.068265
0.080190 0.800122 0.068265
0.081222 0.798186 0.068265
0.083427 0.794772 0.068266
0.089031 0.790001 0.068267
0.099850 0.783862 0.068269
0.120499 0.772627 0.068272
0.161281 0.757276 0.068275
0.212243 0.742112 0.068281
0.280813 0.727882 0.068287
0.353373 0.715011 0.068296
0.426442 0.704062 0.068307
0.484910 0.695500 0.068322
0.539579 0.689512 0.068338
0.594488 0.686169 0.068357
0.644216 0.685441 0.068377
0.698017 0.687221 0.068402
0.745730 0.691349 0.068431
0.776801 0.697631 0.068461
0.819857 0.710487 0.068498
0.852420 0.732026 0.068550
0.887139 0.754040 0.068602
0.912302 0.776684 0.068662
0.930360 0.789721 0.068740
0.944124 0.800106 0.068910
0.954265 0.812593 0.069090
0.960700 0.826042 0.069394
0.966469 0.839262 0.069820
0.971269 0.852221 0.070427
0.974691 0.863956 0.071156
0.976924 0.872617 0.071649
0.978823 0.881093 0.072615
0.980632 0.888381 0.073581
0.080753 0.831778 0.068298
0.081044 0.831149 0.068298
0.082033 0.828929 0.068299
0.084939 0.824999 0.068299
0.090860 0.819471 0.068300
0.102406 0.812610 0.068303
0.125064 0.804782 0.068306
0.168057 0.798052 0.068310
0.218992 0.791519 0.068316
0.294610 0.785085 0.068323
0.363273 0.776624 0.068333
0.435145 0.765235 0.068344
0.494146 0.755845 0.068356
0.548196 0.748691 0.068371
0.603159 0.743907 0.068388
0.650294 0.741531 0.068410
0.706266 0.741528 0.068435
0.749043 0.743799 0.068461
0.781922 0.748204 0.068489
0.819626 0.754577 0.068523
0.847647 0.765168 0.068560
0.879906 0.783180 0.068611
0.906964 0.793149 0.068669
0.927535 0.802869 0.068755
0.941175 0.815476 0.068919
0.951716 0.828316 0.069095
0.958893 0.840997 0.069397
0.964892 0.853544 0.069814
0.969771 0.864636 0.070403
0.973865 0.873108 0.071122
0.976264 0.881435 0.071630
0.978180 0.888568 0.072544
0.980006 0.895206 0.073499
0.081635 0.861783 0.068335
0.081895 0.861316 0.068335
0.083074 0.859395 0.068336
0.086466 0.855981 0.068337
0.093173 0.851147 0.068338
0.105865 0.845093 0.068340
0.129948 0.838109 0.068343
0.174526 0.830495 0.068347
0.231011 0.822539 0.068353
0.302315 0.814696 0.068360
0.373924 0.807285 0.068368
0.442628 0.801254 0.068378
0.501375 0.796825 0.068390
0.555659 0.793235 0.068407
0.610791 0.790575 0.068425
0.655780 0.788898 0.068446
0.713900 0.788221 0.068468
0.752159 0.788528 0.068492
0.786860 0.789777 0.068522
0.822416 0.791907 0.068553
0.848178 0.794845 0.068585
0.873799 0.798735 0.068624
0.902374 0.808923 0.068679
0.924207 0.820792 0.068779
0.936269 0.832829 0.068937
0.949378 0.844757 0.069110
0.957251 0.856730 0.069419
0.963236 0.866496 0.069827
0.968382 0.874682 0.070410
0.972995 0.882773 0.071116
0.975563 0.889520 0.071628
0.977569 0.896029 0.072509
0.979409 0.902408 0.073450
0.082522 0.881552 0.068370
0.082897 0.881225 0.068370
0.084708 0.880067 0.068370
0.088277 0.877999 0.068371
0.095976 0.875050 0.068373
0.108652 0.871324 0.068375
0.134873 0.866976 0.068378
0.180243 0.862195 0.068382
0.237438 0.855206 0.068387
0.309169 0.847947 0.068395
0.384488 0.840959 0.068405
0.448962 0.834493 0.068416
0.507289 0.828690 0.068429
0.561886 0.823770 0.068444
0.617217 0.819896 0.068461
0.662044 0.817153 0.068480
0.720703 0.815584 0.068502
0.754976 0.815196 0.068528
0.791427 0.815966 0.068555
0.825043 0.817843 0.068584
0.849707 0.820760 0.068618
0.875265 0.824636 0.068655
0.898927 0.829386 0.068694
0.920743 0.839660 0.068811
0.933074 0.850750 0.068963
0.946981 0.861873 0.069134
0.955775 0.869674 0.069462
0.961732 0.877471 0.069858
0.967109 0.884938 0.070450
0.971719 0.891331 0.071140
0.974853 0.897644 0.071629
0.976996 0.903862 0.072509
0.978845 0.909972 0.073437
0.084077 0.897438 0.068406
0.084592 0.897201 0.068406
0.086369 0.896360 0.068407
0.090304 0.894855 0.068408
0.098883 0.892699 0.068410
0.112016 0.889955 0.068413
0.140533 0.886727 0.068416
0.185765 0.883072 0.068421
0.243475 0.878504 0.068427
0.315174 0.873859 0.068435
0.393602 0.869309 0.068444
0.454241 0.865010 0.068454
0.512145 0.860871 0.068466
0.567021 0.855949 0.068480
0.622559 0.851902 0.068497
0.667698 0.848824 0.068517
0.726528 0.846775 0.068539
0.758862 0.845783 0.068562
0.795471 0.845847 0.068588
0.827406 0.846943 0.068618
0.851105 0.849024 0.068652
0.876900 0.852032 0.068687
0.899845 0.855899 0.068749
0.918092 0.860552 0.068860
0.931544 0.867026 0.068997
0.944870 0.874276 0.069166
0.954311 0.881587 0.069524
0.960379 0.888004 0.069908
0.965953 0.894089 0.070520
0.970550 0.900138 0.071194
0.974197 0.906131 0.071636
0.976463 0.912051 0.072547
0.978317 0.916833 0.073461
0.085843 0.912144 0.068444
0.086317 0.911937 0.068444
0.088293 0.911203 0.068444
0.092664 0.909884 0.068446
0.100524 0.907989 0.068448
0.116108 0.905565 0.068450
0.146195 0.902694 0.068454
0.191125 0.899481 0.068459
0.249114 0.896044 0.068464
0.320414 0.892508 0.068471
0.399508 0.888998 0.068480
0.458284 0.885629 0.068490
0.516041 0.882309 0.068503
0.571111 0.878964 0.068518
0.626826 0.876119 0.068535
0.672257 0.873846 0.068554
0.731170 0.872194 0.068574
0.765420 0.871194 0.068596
0.798876 0.870860 0.068624
0.829424 0.871186 0.068655
0.852315 0.872156 0.068686
0.878333 0.873740 0.068737
0.900657 0.875901 0.068838
0.918727 0.878596 0.068943
0.930770 0.881779 0.069060
0.943026 0.886485 0.069239
0.952661 0.892157 0.069603
0.959171 0.897864 0.069989
0.964837 0.903581 0.070621
0.969488 0.909284 0.071277
0.973596 0.914472 0.071730
0.975965 0.918998 0.072622
0.977826 0.922384 0.073522
0.087675 0.922350 0.068479
0.088292 0.922267 0.068479
0.090445 0.921971 0.068479
0.095727 0.921438 0.068481
0.103938 0.920473 0.068483
0.120272 0.918750 0.068485
0.151857 0.916697 0.068489
0.196348 0.914382 0.068494
0.254413 0.911746 0.068501
0.325093 0.908531 0.068509
0.402987 0.905305 0.068518
0.461533 0.902170 0.068529
0.519064 0.899221 0.068542
0.574225 0.896544 0.068556
0.629344 0.894209 0.068572
0.675726 0.892276 0.068589
0.734495 0.890790 0.068611
0.768584 0.889781 0.068635
0.801298 0.889269 0.068662
0.831033 0.889257 0.068690
0.853291 0.889742 0.068738
0.879499 0.890707 0.068831
0.901319 0.892131 0.068927
0.919240 0.893986 0.069031
0.930909 0.896240 0.069151
0.942283 0.898860 0.069383
0.951213 0.902689 0.069699
0.958101 0.908017 0.070099
0.963725 0.913198 0.070751
0.968530 0.917520 0.071387
0.972917 0.921445 0.071862
0.975413 0.923891 0.072733
0.977374 0.926308 0.073620
0.089925 0.928382 0.068515
0.090503 0.928310 0.068515
0.093048 0.928053 0.068516
0.098884 0.927590 0.068518
0.108009 0.926920 0.068520
0.124903 0.926055 0.068523
0.157677 0.925019 0.068527
0.201334 0.923843 0.068532
0.259416 0.922564 0.068539
0.329285 0.921224 0.068547
0.405904 0.919070 0.068556
0.464081 0.916741 0.068566
0.521302 0.914522 0.068578
0.576443 0.912475 0.068591
0.630990 0.910220 0.068608
0.678141 0.908302 0.068628
0.736109 0.906768 0.068650
0.769199 0.905652 0.068673
0.802567 0.904976 0.068698
0.832193 0.904753 0.068753
0.853998 0.904983 0.068836
0.880343 0.905660 0.068923
0.901792 0.906770 0.069018
0.919593 0.908292 0.069128
0.930997 0.910202 0.069316
0.942331 0.912471 0.069581
0.950755 0.914568 0.069859
0.957156 0.917266 0.070283
0.962736 0.921142 0.070907
0.967671 0.923459 0.071524
0.972035 0.925769 0.072030
0.974910 0.928066 0.072879
0.976959 0.930341 0.073754
0.092353 0.933601 0.068551
0.093206 0.933554 0.068551
0.096273 0.933384 0.068552
0.100780 0.933078 0.068554
0.110744 0.932634 0.068556
0.129983 0.932018 0.068559
0.163522 0.931108 0.068563
0.205937 0.930071 0.068568
0.264154 0.928936 0.068574
0.333051 0.927740 0.068582
0.408331 0.926517 0.068591
0.466011 0.925304 0.068602
0.522839 0.924134 0.068615
0.577848 0.923042 0.068631
0.631978 0.922054 0.068648
0.679557 0.921196 0.068667
0.736755 0.920159 0.068687
0.769559 0.919220 0.068710
0.803315 0.918593 0.068778
0.832880 0.918292 0.068852
0.854512 0.918324 0.068931
0.880823 0.918686 0.069018
0.902043 0.919374 0.069119
0.919752 0.920374 0.069277
0.931019 0.921357 0.069521
0.942306 0.922262 0.069781
0.950687 0.923315 0.070085
0.956919 0.924505 0.070580
0.961859 0.925867 0.071087
0.966904 0.928023 0.071609
0.971241 0.930180 0.072231
0.974455 0.932297 0.073057
0.976581 0.933921 0.073921
0.095642 0.937241 0.068585
0.096499 0.937224 0.068585
0.099457 0.937164 0.068586
0.104407 0.937055 0.068587
0.115172 0.936803 0.068589
0.135192 0.936302 0.068593
0.169345 0.935696 0.068597
0.210427 0.935003 0.068603
0.268630 0.934241 0.068610
0.336439 0.933432 0.068619
0.410329 0.932600 0.068629
0.467399 0.931637 0.068641
0.523755 0.930574 0.068654
0.578520 0.929570 0.068669
0.632365 0.928652 0.068685
0.680042 0.927843 0.068703
0.736963 0.927162 0.068747
0.769672 0.926624 0.068810
0.803547 0.926244 0.068877
0.833083 0.926029 0.068948
0.854666 0.925984 0.069028
0.880913 0.926112 0.069121
0.902050 0.926410 0.069263
0.919691 0.926875 0.069486
0.930965 0.927501 0.069729
0.942194 0.928279 0.069993
0.950555 0.929200 0.070426
0.956800 0.930254 0.070901
0.961678 0.931430 0.071384
0.966264 0.932591 0.071665
0.970530 0.934068 0.072463
0.974044 0.935596 0.073278
0.976239 0.937025 0.074220
0.098994 0.939254 0.068620
0.099546 0.939213 0.068621
0.101667 0.939067 0.068622
0.108337 0.938802 0.068623
0.119604 0.938496 0.068626
0.141144 0.938318 0.068630
0.175128 0.938101 0.068635
0.214800 0.937853 0.068641
0.272665 0.937578 0.068648
0.339489 0.937285 0.068657
0.411950 0.936982 0.068667
0.468310 0.936269 0.068678
0.524121 0.935542 0.068691
0.578537 0.934849 0.068705
0.632207 0.934209 0.068741
0.679667 0.933637 0.068793
0.736759 0.933148 0.068848
0.769550 0.932753 0.068908
0.803276 0.932463 0.068972
0.832805 0.932283 0.069048
0.854377 0.932218 0.069132
0.880596 0.932272 0.069270
0.901796 0.932444 0.069476
0.919390 0.932733 0.069700
