kodachrome64/Kodachrome64_Classic_Soft.cube
TITLE "Kodachrome 64 Classic Soft"
# Adobe RGB in/out. REPLACES AgX. Kodachrome 64 Classic Soft.
LUT_3D_SIZE 9
DOMAIN_MIN 0.0 0.0 0.0
DOMAIN_MAX 1.0 1.0 1.0
0.067153 0.073606 0.090377
0.067598 0.073606 0.090377
0.160370 0.073606 0.090377
0.711841 0.073606 0.090377
0.872366 0.073843 0.090377
0.916297 0.074912 0.090377
0.934992 0.075554 0.090377
0.944926 0.073606 0.099745
0.946080 0.083263 0.606537
0.067153 0.073606 0.090377
0.067153 0.073606 0.090377
0.080651 0.073606 0.090377
0.561963 0.073735 0.090377
0.854155 0.074582 0.090377
0.912047 0.075964 0.090377
0.934083 0.076613 0.090377
0.944926 0.073606 0.099754
0.946080 0.083264 0.606533
0.067153 0.076413 0.090377
0.067153 0.078196 0.090377
0.067714 0.078579 0.090377
0.121871 0.079956 0.090377
0.703114 0.084059 0.090377
0.884787 0.089540 0.090377
0.928194 0.093553 0.090377
0.944989 0.073606 0.100863
0.946080 0.083264 0.606533
0.067153 0.129104 0.090377
0.067153 0.149630 0.090377
0.067204 0.177811 0.090377
0.075952 0.175219 0.090377
0.326626 0.189356 0.090377
0.805337 0.229491 0.090377
0.912582 0.271286 0.090462
0.939899 0.264814 0.091445
0.946080 0.082821 0.118085
0.067153 0.481456 0.090377
0.067153 0.501453 0.090377
0.067188 0.545417 0.090377
0.071228 0.558094 0.090377
0.127294 0.554958 0.090377
0.606612 0.565085 0.090414
0.874022 0.586001 0.090909
0.934155 0.602588 0.091799
0.946029 0.592283 0.097242
0.067153 0.725984 0.090377
0.067153 0.731849 0.090377
0.067316 0.755332 0.090377
0.070231 0.769418 0.090377
0.092043 0.771509 0.090469
0.378397 0.771591 0.090907
0.798870 0.776634 0.091564
0.920263 0.785124 0.092179
0.945325 0.794536 0.094989
0.067153 0.842100 0.090377
0.067153 0.844459 0.090377
0.067488 0.854329 0.090377
0.069712 0.860593 0.090571
0.083600 0.862459 0.091054
0.213720 0.862576 0.091615
0.671718 0.864068 0.092009
0.892416 0.868356 0.092964
0.944415 0.875026 0.094984
0.067200 0.903259 0.090419
0.067234 0.903124 0.090432
0.067624 0.903036 0.090620
0.069241 0.904499 0.091071
0.078031 0.904640 0.091610
0.145722 0.904064 0.091966
0.518518 0.904475 0.092749
0.849610 0.907234 0.093631
0.943822 0.911132 0.095222
0.067176 0.914976 0.090444
0.067176 0.914977 0.090444
0.067925 0.926798 0.090445
0.067948 0.927126 0.091152
0.072342 0.929010 0.091761
0.100446 0.927766 0.092163
0.327181 0.927322 0.092864
0.729065 0.927936 0.093554
0.945551 0.929680 0.094131
0.067153 0.073606 0.090377
0.067153 0.073606 0.090377
0.180988 0.073606 0.090377
0.764156 0.073606 0.090377
0.880002 0.073909 0.090377
0.917316 0.075065 0.090377
0.934990 0.075737 0.090708
0.944926 0.073606 0.099755
0.946080 0.083264 0.606538
0.067153 0.073606 0.090377
0.067153 0.073606 0.090377
0.103782 0.073606 0.090377
0.676369 0.073846 0.090377
0.866654 0.074827 0.090377
0.913995 0.076146 0.090377
0.934145 0.076955 0.090680
0.944926 0.073606 0.099768
0.946080 0.083264 0.606534
0.067153 0.075955 0.090377
0.067153 0.076563 0.090377
0.069928 0.077750 0.090377
0.248276 0.080526 0.090377
0.771158 0.084943 0.090377
0.892591 0.090103 0.090377
0.928911 0.094126 0.090763
0.945007 0.073606 0.101569
0.946080 0.083264 0.606533
0.067153 0.121736 0.090377
0.067153 0.130061 0.090377
0.067717 0.159979 0.090377
0.085363 0.166788 0.090377
0.461749 0.187567 0.090378
0.833578 0.231183 0.090555
0.915862 0.272330 0.091105
0.940010 0.267007 0.091966
0.946080 0.083269 0.606527
0.067153 0.461413 0.090377
0.067153 0.479600 0.090377
0.067435 0.527450 0.090377
0.073312 0.543698 0.090386
0.170862 0.546950 0.090672
0.665284 0.561731 0.091087
0.882686 0.584570 0.091648
0.934985 0.601572 0.092375
0.946020 0.595056 0.101155
0.067153 0.717759 0.090377
0.067153 0.724069 0.090377
0.067492 0.746244 0.090377
0.070923 0.760888 0.090617
0.100422 0.765302 0.091138
0.444049 0.767796 0.091719
0.816343 0.775302 0.092109
0.922717 0.784260 0.093050
0.945349 0.794727 0.096786
0.067153 0.839036 0.090406
0.067153 0.841349 0.090439
0.067619 0.850849 0.090646
0.070385 0.858281 0.091129
0.086236 0.860473 0.091693
0.246329 0.861093 0.092101
0.701437 0.863017 0.092929
0.897286 0.867701 0.093904
0.944537 0.874907 0.096526
0.067222 0.901949 0.090586
0.067261 0.901889 0.090618
0.067706 0.901935 0.091044
0.069585 0.903383 0.091557
0.079350 0.903652 0.091959
0.159844 0.903276 0.092717
0.543978 0.903902 0.093577
0.855190 0.906801 0.094492
0.944098 0.911036 0.096621
0.067223 0.916829 0.094138
0.067223 0.916830 0.094138
0.068029 0.928254 0.094138
0.068029 0.928254 0.094137
0.072593 0.928916 0.091956
0.102251 0.927665 0.092729
0.340742 0.927248 0.093524
0.736938 0.927888 0.094231
0.946125 0.929662 0.094885
0.067153 0.073606 0.093490
0.067153 0.073606 0.106218
0.132854 0.073606 0.103177
0.753693 0.073683 0.103195
0.881882 0.074421 0.103574
0.918141 0.075803 0.107702
0.934861 0.076508 0.115564
0.944960 0.073606 0.110299
0.946080 0.083264 0.606578
0.067153 0.073606 0.093401
0.067153 0.073606 0.096722
0.100630 0.073669 0.098321
0.698770 0.074207 0.099464
0.872691 0.075482 0.100437
0.915844 0.077278 0.104531
0.934165 0.078865 0.111281
0.944973 0.073606 0.111997
0.946080 0.083264 0.606541
0.067153 0.075946 0.092436
0.067153 0.076469 0.092992
0.077284 0.081214 0.095935
0.422106 0.081968 0.095857
0.823123 0.086937 0.097439
0.902304 0.093199 0.099889
0.930343 0.097620 0.103608
0.944729 0.075447 0.125262
0.946080 0.083264 0.606534
0.067153 0.115285 0.092619
0.067153 0.122546 0.092882
0.069380 0.138839 0.093695
0.122105 0.159772 0.094535
0.645011 0.193179 0.096081
0.869431 0.243490 0.098255
0.921644 0.288155 0.100090
0.940356 0.283540 0.111767
0.946080 0.083265 0.606539
0.067153 0.437467 0.092916
0.067153 0.453225 0.093098
0.068797 0.492149 0.093751
0.083751 0.521499 0.094559
0.335444 0.535437 0.095829
0.782857 0.558496 0.097948
0.901205 0.584896 0.099515
0.936993 0.600649 0.106391
0.945985 0.606237 0.194402
0.067189 0.701776 0.093496
0.067320 0.707758 0.093639
0.068697 0.727692 0.094175
0.076016 0.742612 0.095142
0.159622 0.751272 0.096521
0.594567 0.758978 0.098319
0.860399 0.772509 0.099955
0.928927 0.782089 0.105334
0.945430 0.795215 0.121946
0.067354 0.830689 0.093750
0.067499 0.832862 0.093866
0.068586 0.841102 0.094337
0.072913 0.849176 0.095359
0.102307 0.853946 0.096794
0.378853 0.856908 0.098671
0.773671 0.860125 0.100787
0.912485 0.865609 0.105723
0.944901 0.874587 0.114250
0.067463 0.895354 0.094129
0.067560 0.895595 0.094231
0.068453 0.896778 0.094954
0.071300 0.898807 0.096064
0.086655 0.899801 0.097703
0.203953 0.900269 0.099481
0.620897 0.901734 0.102179
0.876810 0.905158 0.105949
0.944820 0.910719 0.111055
0.067223 0.916830 0.094138
0.068029 0.928254 0.094138
0.068029 0.928254 0.094138
0.068030 0.928256 0.094138
0.074590 0.928261 0.094971
0.115297 0.927151 0.097146
0.389643 0.926877 0.099011
0.771865 0.927644 0.100666
0.946830 0.929593 0.102696
0.067153 0.073606 0.133033
0.067153 0.073606 0.373341
0.102847 0.073707 0.462953
0.707350 0.074191 0.444594
0.875787 0.075514 0.450993
0.916508 0.077632 0.470316
0.934117 0.079712 0.531340
0.943617 0.075440 0.683641
0.946080 0.083519 0.711025
0.067153 0.073635 0.138373
0.067153 0.073801 0.230944
0.090771 0.074259 0.361529
0.648785 0.075160 0.359993
0.867966 0.076808 0.391331
0.914397 0.080399 0.439215
0.933466 0.083000 0.503966
0.943454 0.076293 0.670638
0.946080 0.083522 0.712043
0.067153 0.077476 0.124350
0.067153 0.078853 0.136139
0.076120 0.081673 0.179532
0.442842 0.084858 0.208092
0.829096 0.090128 0.247452
0.903190 0.099229 0.303300
0.930195 0.107267 0.406174
0.942052 0.099270 0.576526
0.946080 0.083532 0.715745
0.067153 0.117462 0.116525
0.067221 0.123953 0.119436
0.071181 0.143134 0.130966
0.187665 0.198993 0.166084
0.708926 0.213778 0.174261
0.878841 0.262254 0.205726
0.923456 0.313655 0.268619
0.940319 0.318112 0.450131
0.946080 0.083541 0.716856
0.067259 0.428740 0.116129
0.067539 0.444492 0.117626
0.070546 0.479786 0.123858
0.098344 0.511716 0.133833
0.475324 0.534202 0.147532
0.824579 0.561708 0.167997
0.909547 0.589821 0.202378
0.937686 0.608102 0.297903
0.945918 0.626584 0.638212
0.067593 0.693186 0.116306
0.067935 0.698554 0.117268
0.070246 0.717265 0.121527
0.084172 0.732712 0.128971
0.238468 0.743898 0.139659
0.702273 0.754934 0.153879
0.880960 0.771631 0.176889
0.932203 0.781869 0.222007
0.945471 0.796387 0.500026
0.067931 0.825154 0.116812
0.068237 0.827113 0.117489
0.069834 0.834357 0.120624
0.077909 0.842170 0.126725
0.138455 0.847857 0.135412
0.512706 0.852672 0.147740
0.825504 0.858232 0.163999
0.921381 0.864471 0.193121
0.945165 0.874969 0.363720
0.067922 0.893427 0.116839
0.068138 0.893711 0.117306
0.069172 0.894811 0.119856
0.073760 0.895917 0.124676
0.098154 0.896968 0.131703
0.299300 0.898100 0.141945
0.705169 0.900177 0.155034
0.895516 0.904050 0.172974
0.945357 0.910669 0.249332
0.067465 0.922964 0.127179
0.068029 0.929119 0.127179
0.068029 0.929120 0.127179
0.068945 0.930359 0.111956
0.079243 0.927140 0.125273
0.139482 0.926461 0.131597
0.469504 0.926454 0.139696
0.812733 0.927372 0.147711
0.947161 0.929695 0.167248
0.067153 0.073656 0.505832
0.067153 0.073815 0.634903
0.084596 0.074754 0.735254
0.645391 0.075812 0.735451
0.866968 0.078056 0.735422
0.913910 0.082490 0.743612
0.933071 0.085508 0.761681
0.942748 0.080809 0.794038
0.946080 0.084383 0.834978
0.067153 0.074021 0.519754
0.067153 0.074485 0.613465
0.080894 0.075828 0.717805
0.595545 0.077412 0.722875
0.859830 0.081155 0.725121
0.911632 0.085851 0.735499
0.932445 0.088811 0.755193
0.942597 0.083960 0.790334
0.946080 0.084348 0.831815
0.067153 0.080992 0.493506
0.067153 0.082829 0.544660
0.074911 0.086904 0.631812
0.421827 0.090582 0.663367
0.822202 0.097773 0.678073
0.901733 0.113423 0.699692
0.929506 0.126064 0.730123
0.941603 0.121962 0.772747
0.946080 0.084241 0.821735
0.067153 0.131486 0.440810
0.067427 0.143673 0.465352
0.072568 0.173427 0.529281
0.193877 0.208788 0.586146
0.723525 0.245797 0.608912
0.881510 0.307970 0.639009
0.923688 0.348202 0.680320
0.940133 0.363007 0.737979
0.946340 0.180992 0.821824
0.067555 0.440272 0.374221
0.068092 0.452938 0.396432
0.071950 0.487324 0.456302
0.116190 0.522395 0.500485
0.568950 0.561163 0.563875
0.844081 0.574067 0.585849
0.912982 0.603263 0.618497
0.937894 0.624786 0.684473
0.945826 0.653212 0.787541
0.068241 0.693479 0.347607
0.068751 0.698427 0.358580
0.071903 0.715680 0.405336
0.092336 0.731442 0.458885
0.342217 0.744363 0.493165
0.751336 0.757404 0.530326
0.891718 0.773874 0.573603
0.933856 0.784834 0.620714
0.945450 0.800418 0.752002
0.068669 0.823663 0.329212
0.068914 0.825497 0.336150
0.071386 0.832087 0.365468
0.084301 0.839665 0.416257
0.183398 0.845936 0.462252
0.596099 0.851787 0.491250
0.853932 0.858326 0.526419
0.925963 0.864902 0.572647
0.945272 0.876561 0.699584
0.068460 0.892855 0.306378
0.068767 0.893108 0.311110
0.070559 0.894062 0.332677
0.077096 0.895139 0.367260
0.116097 0.896011 0.415901
0.391310 0.897271 0.458171
0.756456 0.899783 0.483110
0.907538 0.904040 0.516325
0.945636 0.911192 0.621876
0.067569 0.924976 0.452471
0.067640 0.925877 0.452471
0.067836 0.927989 0.452467
0.070658 0.927808 0.316250
0.083005 0.926851 0.348674
0.168815 0.926350 0.387179
0.526858 0.926452 0.421990
0.840347 0.927477 0.449831
0.947331 0.930263 0.535526
0.067153 0.074515 0.752509
0.067153 0.074884 0.787324
0.076832 0.077165 0.836007
0.578022 0.079959 0.838067
0.858831 0.084445 0.838956
0.910915 0.088939 0.841559
0.931989 0.093634 0.847354
0.942193 0.089719 0.856080
0.946080 0.085031 0.865599
0.067153 0.075334 0.755783
0.067153 0.075823 0.784479
0.075677 0.079662 0.829428
0.539000 0.083315 0.834099
0.853029 0.087727 0.836346
0.908825 0.093528 0.839312
0.931404 0.100289 0.845613
0.942048 0.094451 0.855517
0.946080 0.085031 0.865599
0.067153 0.086537 0.754298
0.067153 0.088002 0.771694
0.073890 0.095054 0.803510
0.379209 0.103831 0.815449
0.815376 0.118459 0.820966
0.899951 0.136908 0.827753
0.928777 0.166517 0.838508
0.941226 0.166887 0.851832
0.946080 0.085033 0.865598
0.067213 0.167876 0.731744
0.067547 0.175701 0.741813
0.073298 0.225660 0.772744
0.204229 0.261841 0.788398
0.734369 0.311356 0.797974
0.882253 0.352193 0.807319
0.923629 0.396375 0.821245
0.939941 0.416408 0.841819
0.946240 0.307054 0.862855
0.067950 0.473873 0.701726
0.068566 0.484503 0.711228
0.073475 0.522598 0.736253
0.132310 0.548093 0.759466
0.588751 0.570239 0.775127
0.851993 0.594272 0.784543
0.914716 0.623928 0.798203
0.937998 0.649010 0.823316
0.945742 0.677392 0.855763
0.068827 0.701495 0.672876
0.069166 0.706371 0.679197
0.073459 0.722614 0.701270
0.102505 0.737693 0.727368
0.406034 0.751629 0.746334
0.785174 0.771170 0.765414
0.897160 0.779110 0.777341
0.934765 0.790575 0.797686
0.945438 0.807646 0.846932
0.069024 0.826117 0.647720
0.069654 0.827792 0.652172
0.072840 0.833921 0.670185
0.089369 0.841289 0.694452
0.232478 0.847878 0.720782
0.651885 0.854287 0.737274
0.865630 0.860353 0.752668
0.928514 0.867137 0.773911
0.945340 0.879012 0.828504
0.068858 0.893446 0.619873
0.068964 0.893670 0.622930
0.071202 0.894498 0.637059
0.080194 0.895471 0.657370
0.132755 0.896355 0.682031
0.459769 0.898127 0.704830
0.789692 0.900876 0.724435
0.914509 0.905318 0.739980
0.945774 0.912191 0.795003
0.067615 0.925698 0.562122
0.067678 0.926492 0.567929
0.067853 0.928296 0.590235
0.070790 0.928351 0.608261
0.085005 0.927309 0.626320
0.181863 0.926845 0.646752
0.557230 0.927020 0.664647
0.852272 0.928070 0.677718
0.947395 0.930948 0.760492
0.067153 0.076693 0.856299
0.067153 0.077348 0.868724
0.071452 0.083549 0.882746
0.527884 0.087352 0.884472
0.854226 0.092737 0.885266
0.909306 0.102033 0.886532
0.931455 0.111362 0.889032
0.941876 0.106619 0.892663
0.946080 0.086438 0.895880
0.067153 0.078702 0.856556
0.067153 0.079498 0.867503
0.071614 0.086348 0.881419
0.497165 0.090523 0.883490
0.849332 0.098261 0.884447
0.907564 0.111145 0.885819
0.930920 0.123937 0.888579
0.941744 0.118177 0.892332
0.946080 0.086422 0.895669
0.067153 0.093576 0.856640
0.067153 0.095368 0.862841
0.072334 0.110191 0.875198
0.365593 0.126037 0.879298
0.815811 0.153756 0.881026
0.899973 0.184730 0.882883
0.928606 0.225002 0.886089
0.941054 0.231899 0.890651
0.946079 0.086330 0.894706
0.067298 0.221469 0.852748
0.067636 0.231702 0.855029
0.073292 0.280802 0.864151
0.219999 0.325838 0.871232
0.746863 0.367271 0.874841
0.884858 0.408796 0.877993
0.924150 0.448280 0.881788
0.939953 0.469034 0.887971
0.946049 0.450941 0.895638
0.068289 0.517454 0.840657
0.068866 0.526145 0.843973
0.074595 0.551264 0.853833
0.154920 0.576654 0.859678
0.620460 0.599279 0.865801
0.858571 0.623234 0.870211
0.916538 0.648819 0.875397
0.938283 0.668274 0.882906
0.945717 0.701317 0.893155
0.069054 0.719052 0.823059
0.069898 0.723035 0.826871
0.075092 0.736655 0.839014
0.115263 0.752418 0.849676
0.466840 0.766626 0.855628
0.802160 0.776878 0.860478
0.901814 0.786215 0.866523
0.935686 0.795846 0.875637
0.945487 0.814986 0.890202
0.069559 0.832160 0.802895
0.070370 0.833763 0.805645
0.074077 0.839528 0.816066
0.093810 0.846592 0.831359
0.282237 0.853278 0.843342
0.694108 0.858718 0.851852
0.873528 0.863984 0.855624
0.930359 0.870524 0.864413
0.945458 0.881538 0.885331
0.068906 0.895303 0.782412
0.069140 0.895483 0.783881
0.071656 0.896121 0.790496
0.081949 0.897436 0.802628
0.149424 0.898930 0.817513
0.498051 0.900660 0.831962
0.805709 0.903453 0.841870
0.917814 0.907830 0.850595
0.945899 0.913544 0.875568
0.067608 0.925869 0.699298
0.067730 0.927394 0.699334
0.067961 0.929351 0.700288
0.070248 0.930127 0.766189
0.084393 0.928523 0.778185
0.181357 0.927972 0.788071
0.559063 0.928125 0.797334
0.852512 0.929168 0.803945
0.947453 0.931792 0.859326
0.067153 0.083771 0.908365
0.067153 0.084363 0.910048
0.073255 0.089854 0.912433
0.583096 0.095878 0.912859
0.861752 0.106940 0.913209
0.912259 0.122778 0.913755
0.932307 0.132851 0.914706
0.942186 0.126407 0.916617
0.946106 0.092546 0.916108
0.067153 0.086092 0.908170
0.067153 0.086788 0.909757
0.073729 0.093756 0.912198
0.560343 0.102531 0.912677
0.858268 0.116869 0.913052
0.910982 0.132602 0.913619
0.931918 0.158359 0.914598
0.942076 0.144394 0.916534
0.946115 0.094007 0.916108
0.067153 0.112546 0.907447
0.067153 0.115723 0.908565
0.076158 0.134035 0.910871
0.464109 0.165817 0.911680
0.838525 0.199388 0.912226
0.905060 0.243082 0.912921
0.930081 0.277845 0.914029
0.941520 0.277918 0.916062
0.946209 0.123784 0.916108
0.067501 0.282191 0.905251
0.067966 0.294395 0.906261
0.077422 0.334193 0.908734
0.318210 0.373785 0.910094
0.790837 0.411455 0.910950
0.893927 0.453162 0.911852
0.926733 0.484561 0.913168
0.940665 0.500551 0.915424
0.946099 0.504392 0.917350
0.068729 0.550846 0.901628
0.069153 0.555747 0.902675
0.078029 0.579019 0.905550
0.191579 0.601016 0.907742
0.701224 0.622662 0.909202
0.873358 0.647424 0.910408
0.921002 0.665358 0.911924
0.939383 0.680527 0.914368
0.945878 0.717117 0.916942
0.069623 0.737011 0.896716
0.070651 0.740109 0.897805
0.077607 0.753531 0.901146
0.135316 0.767300 0.904333
0.551243 0.776541 0.906684
0.835080 0.784696 0.908452
0.910003 0.793172 0.910239
0.937482 0.797995 0.912947
0.945747 0.820205 0.916468
0.069920 0.840949 0.889503
0.070703 0.842348 0.890620
0.075370 0.848022 0.894471
0.100918 0.854419 0.898895
0.344427 0.859072 0.902663
0.737497 0.863123 0.905442
0.886368 0.867936 0.907690
0.933474 0.873029 0.910833
0.945770 0.883486 0.915770
0.068807 0.900982 0.873793
0.068932 0.901118 0.875289
0.071365 0.901458 0.881165
0.081917 0.902224 0.888671
0.158509 0.903185 0.894405
0.519279 0.904668 0.899001
0.820452 0.907233 0.902551
0.919751 0.909758 0.904469
0.946141 0.914950 0.914060
0.067548 0.925369 0.823614
0.067949 0.929584 0.825904
0.068024 0.930237 0.839686
0.069288 0.931631 0.855111
0.080189 0.930641 0.863496
0.163097 0.929837 0.873422
0.523432 0.929849 0.880658
0.837308 0.930730 0.884110
0.947516 0.932802 0.908535
0.070069 0.087864 0.928318
0.073486 0.088290 0.928324
0.380178 0.090107 0.928347
0.846503 0.094519 0.928400
0.903756 0.102363 0.928478
0.925857 0.111669 0.928578
0.937486 0.114988 0.928780
0.943947 0.094957 0.929102
0.946080 0.097705 0.927135
0.070569 0.089795 0.928314
0.074098 0.090320 0.928320
0.368723 0.093000 0.928343
0.842894 0.098671 0.928398
0.902784 0.108635 0.928477
0.925549 0.120569 0.928580
0.937401 0.123754 0.928782
0.943906 0.099000 0.929103
0.946080 0.101864 0.928211
0.072551 0.112958 0.928253
0.077515 0.114937 0.928261
0.333184 0.122366 0.928292
0.824006 0.133834 0.928360
0.898154 0.164551 0.928450
0.924075 0.186934 0.928569
0.936973 0.198572 0.928773
0.943685 0.142960 0.929095
0.946080 0.101886 0.928211
0.076886 0.292774 0.928134
0.082865 0.299292 0.928150
0.253347 0.315678 0.928204
0.785366 0.339551 0.928296
0.888240 0.373751 0.928404
0.920830 0.402914 0.928544
0.936004 0.416686 0.928764
0.943281 0.384996 0.929084
0.946503 0.451463 0.929300
0.078119 0.554685 0.928060
0.083146 0.557060 0.928086
0.178135 0.566574 0.928171
0.704145 0.581959 0.928277
0.870566 0.599317 0.928413
0.915389 0.616205 0.928575
0.934083 0.626428 0.928799
0.942881 0.619516 0.929139
0.946645 0.657989 0.929704
0.075956 0.740530 0.928069
0.079170 0.741940 0.928106
0.118771 0.747750 0.928225
0.543170 0.756757 0.928365
0.835320 0.766932 0.928512
0.904328 0.774710 0.928687
0.930929 0.779036 0.928911
0.942326 0.779037 0.929242
0.946723 0.800166 0.929797
0.072169 0.845800 0.928179
0.073362 0.846427 0.928228
0.086170 0.849057 0.928373
0.244214 0.852763 0.928549
0.713141 0.856759 0.928725
0.878865 0.859968 0.928911
0.924658 0.862625 0.929158
0.941440 0.863045 0.929466
0.946903 0.877027 0.929984
0.068648 0.904597 0.928032
0.068879 0.904667 0.928181
0.071134 0.904864 0.928519
0.087867 0.904755 0.928811
0.302221 0.904755 0.929075
0.760824 0.905714 0.929295
0.901083 0.907731 0.929525
0.938744 0.908652 0.929817
0.947196 0.913113 0.930123
0.067450 0.924192 0.889830
0.068029 0.930526 0.907278
0.068029 0.930526 0.907278
0.068347 0.930889 0.907321
0.072876 0.933322 0.928671
0.122977 0.932080 0.929633
0.489020 0.931868 0.930060
0.842864 0.932552 0.930134
0.947591 0.933957 0.930154
