kodachrome64/Kodachrome64_Classic_Punchy.cube
TITLE "Kodachrome 64 Classic Punchy"
# Adobe RGB in/out. REPLACES AgX. Kodachrome 64 Classic Punchy.
LUT_3D_SIZE 9
DOMAIN_MIN 0.0 0.0 0.0
DOMAIN_MAX 1.0 1.0 1.0
0.084019 0.088159 0.082807
0.084019 0.088159 0.082807
0.101567 0.088159 0.082807
0.229510 0.089436 0.082807
0.549913 0.096202 0.082807
0.841008 0.127684 0.082807
0.942267 0.245067 0.083082
0.975618 0.419433 0.084056
0.986521 0.609307 0.085374
0.084019 0.088159 0.082807
0.084019 0.088159 0.082807
0.102142 0.088419 0.082807
0.230818 0.090747 0.082807
0.551555 0.100300 0.082807
0.841817 0.145289 0.082807
0.942416 0.265610 0.083107
0.975656 0.449319 0.084060
0.986534 0.624687 0.085423
0.084019 0.090928 0.082807
0.084248 0.091445 0.082807
0.104173 0.094733 0.082807
0.235521 0.103043 0.082807
0.557454 0.135963 0.082807
0.844718 0.227139 0.082807
0.942949 0.366724 0.083203
0.975794 0.543277 0.084077
0.986579 0.682399 0.085595
0.084019 0.137630 0.082807
0.085186 0.143099 0.082807
0.108389 0.164375 0.082807
0.244088 0.210712 0.082807
0.568221 0.290089 0.082807
0.850033 0.407280 0.082854
0.943925 0.547916 0.083435
0.976046 0.664010 0.084329
0.986663 0.801027 0.085900
0.084231 0.385905 0.082807
0.087296 0.395478 0.082807
0.115806 0.425926 0.082807
0.257641 0.485966 0.082807
0.583903 0.559761 0.082807
0.855680 0.637516 0.083018
0.945317 0.729417 0.083802
0.976420 0.819457 0.084769
0.986788 0.874078 0.086335
0.086525 0.682046 0.082807
0.090949 0.687879 0.082807
0.124513 0.708815 0.082807
0.279361 0.747279 0.082807
0.605103 0.800030 0.082926
0.862738 0.832935 0.083420
0.947167 0.870687 0.084082
0.976922 0.896050 0.085379
0.986955 0.928144 0.087007
0.091050 0.876322 0.082807
0.097276 0.877172 0.082807
0.143503 0.879008 0.082831
0.308399 0.888001 0.082972
0.633369 0.901349 0.083365
0.871332 0.919414 0.084039
0.949485 0.935229 0.084829
0.977552 0.948480 0.086162
0.987166 0.959658 0.088168
0.099404 0.945923 0.083094
0.109300 0.946448 0.083128
0.172673 0.948318 0.083286
0.344976 0.951694 0.083615
0.672570 0.956160 0.084060
0.881630 0.961638 0.084704
0.952267 0.964979 0.085796
0.978311 0.969761 0.087217
0.987420 0.974746 0.089861
0.115292 0.971723 0.083948
0.126772 0.971975 0.083997
0.212540 0.972636 0.084067
0.393737 0.973774 0.084358
0.712458 0.975435 0.084959
0.893584 0.977608 0.085840
0.955499 0.980231 0.086951
0.979188 0.982982 0.089088
0.987718 0.985881 0.092384
0.084019 0.088159 0.082807
0.084019 0.088159 0.082807
0.101572 0.088159 0.082807
0.229522 0.089490 0.082807
0.549928 0.096327 0.082949
0.841016 0.128521 0.083474
0.942268 0.245953 0.084137
0.975618 0.420634 0.085457
0.986521 0.609984 0.087107
0.084019 0.088159 0.082807
0.084019 0.088159 0.082807
0.102147 0.088436 0.082807
0.230830 0.090805 0.082807
0.551569 0.100525 0.082964
0.841824 0.146113 0.083508
0.942417 0.266538 0.084184
0.975656 0.450664 0.085505
0.986534 0.625356 0.087168
0.084019 0.090984 0.082807
0.084249 0.091564 0.082807
0.104178 0.094866 0.082807
0.235533 0.103259 0.082807
0.557469 0.136663 0.083041
0.844725 0.228441 0.083648
0.942950 0.368045 0.084353
0.975794 0.544263 0.085675
0.986580 0.683225 0.087388
0.084019 0.138332 0.082807
0.085188 0.143915 0.082807
0.108396 0.165234 0.082807
0.244099 0.211966 0.082911
0.568235 0.291760 0.083216
0.850040 0.408469 0.083892
0.943927 0.548903 0.084649
0.976046 0.664643 0.085977
0.986663 0.801381 0.087865
0.084232 0.387254 0.082820
0.087298 0.396764 0.082843
0.115813 0.427244 0.082921
0.257655 0.487035 0.083108
0.583917 0.560749 0.083565
0.855684 0.638180 0.084076
0.945318 0.730240 0.085068
0.976420 0.819804 0.086417
0.986788 0.874284 0.088648
0.086527 0.682872 0.083052
0.090953 0.688705 0.083087
0.124518 0.709639 0.083225
0.279376 0.748102 0.083549
0.605117 0.800385 0.084052
0.862743 0.833274 0.084630
0.947168 0.870988 0.085718
0.976922 0.896240 0.087113
0.986955 0.928249 0.089728
0.091052 0.876527 0.083603
0.097281 0.877256 0.083656
0.143513 0.879079 0.083843
0.308415 0.888196 0.084067
0.633389 0.901536 0.084558
0.871337 0.919603 0.085400
0.949486 0.935328 0.086487
0.977552 0.948553 0.088313
0.987166 0.959716 0.091111
0.099408 0.945998 0.084161
0.109307 0.946522 0.084227
0.172685 0.948391 0.084458
0.344991 0.951766 0.084860
0.672585 0.956219 0.085503
0.881635 0.961695 0.086343
0.952268 0.965000 0.087701
0.978312 0.969797 0.089994
0.987420 0.974770 0.094341
0.115298 0.971759 0.085271
0.126780 0.972011 0.085340
0.212551 0.972661 0.085581
0.393760 0.973798 0.086005
0.712472 0.975458 0.086638
0.893589 0.977630 0.087770
0.955500 0.980250 0.089658
0.979188 0.983000 0.092679
0.987718 0.985895 0.099448
0.084019 0.088159 0.086796
0.084019 0.088159 0.086862
0.101590 0.088159 0.087164
0.229563 0.089680 0.087789
0.549979 0.096766 0.088882
0.841041 0.131545 0.090355
0.942273 0.249152 0.093323
0.975619 0.424964 0.099039
0.986522 0.612404 0.107149
0.084019 0.088159 0.086843
0.084019 0.088159 0.086914
0.102165 0.088525 0.087226
0.230871 0.091010 0.087861
0.551621 0.101328 0.088964
0.841850 0.149085 0.090431
0.942422 0.270081 0.093495
0.975658 0.455507 0.099283
0.986534 0.627756 0.107495
0.084019 0.091189 0.087052
0.084252 0.091983 0.087138
0.104195 0.095337 0.087454
0.235574 0.104029 0.088115
0.557521 0.139184 0.089256
0.844750 0.232946 0.090737
0.942955 0.372809 0.094107
0.975795 0.547805 0.100155
0.986580 0.686191 0.108720
0.084019 0.141090 0.087470
0.085192 0.146870 0.087571
0.108420 0.168441 0.087931
0.244139 0.216503 0.088669
0.568285 0.297808 0.089781
0.850066 0.412751 0.091317
0.943931 0.552448 0.095334
0.976047 0.667402 0.101840
0.986664 0.802653 0.110686
0.084235 0.392117 0.088188
0.087306 0.401007 0.088306
0.115836 0.431992 0.088725
0.257705 0.490879 0.089473
0.583967 0.564303 0.090550
0.855701 0.640564 0.092876
0.945323 0.733198 0.097268
0.976422 0.821049 0.103770
0.986788 0.875022 0.113638
0.086533 0.685838 0.089293
0.090967 0.691670 0.089405
0.124538 0.712600 0.089801
0.279429 0.751059 0.090513
0.605167 0.801660 0.091962
0.862759 0.834492 0.095247
0.947173 0.871967 0.100378
0.976923 0.896923 0.107183
0.986955 0.928628 0.118601
0.091057 0.876965 0.090634
0.097297 0.877517 0.090756
0.143548 0.879694 0.091190
0.308471 0.888895 0.092521
0.633460 0.902208 0.094924
0.871352 0.920282 0.098751
0.949491 0.935684 0.103955
0.977553 0.948815 0.112432
0.987166 0.959923 0.125493
0.099424 0.946265 0.093409
0.109331 0.946788 0.093647
0.172730 0.948653 0.094498
0.345045 0.952022 0.096299
0.672637 0.956432 0.099273
0.881650 0.961898 0.103572
0.952272 0.965075 0.110006
0.978313 0.969928 0.119866
0.987421 0.974855 0.134459
0.115321 0.971887 0.098113
0.126810 0.972123 0.098454
0.212591 0.972749 0.099674
0.393845 0.973884 0.102001
0.712521 0.975542 0.104386
0.893604 0.977711 0.110292
0.955504 0.980319 0.118270
0.979189 0.983066 0.130254
0.987719 0.985945 0.150529
0.084019 0.088159 0.155524
0.084019 0.088159 0.156611
0.101624 0.088223 0.160547
0.229639 0.090023 0.168246
0.550075 0.097830 0.180397
0.841088 0.136257 0.197539
0.942282 0.255064 0.220484
0.975621 0.433697 0.250419
0.986522 0.616847 0.290326
0.084019 0.088159 0.156304
0.084019 0.088185 0.157393
0.102198 0.088822 0.161339
0.230947 0.091564 0.169113
0.551717 0.102779 0.181296
0.841897 0.154607 0.198483
0.942430 0.277395 0.221484
0.975660 0.464468 0.251491
0.986535 0.632165 0.291623
0.084019 0.091930 0.159119
0.084259 0.092772 0.160219
0.104228 0.096180 0.164270
0.235650 0.105841 0.172245
0.557616 0.144534 0.184546
0.844797 0.241135 0.201894
0.942964 0.381638 0.225098
0.975797 0.554329 0.255358
0.986581 0.691646 0.296308
0.084019 0.146494 0.164448
0.085201 0.152364 0.165643
0.108465 0.174906 0.169972
0.244213 0.224975 0.178088
0.568377 0.305776 0.190608
0.850112 0.420666 0.208253
0.943940 0.558978 0.231830
0.976049 0.672865 0.262604
0.986664 0.805006 0.305042
0.084242 0.400468 0.173019
0.087321 0.408851 0.174246
0.115879 0.440779 0.178690
0.257796 0.497967 0.187024
0.584060 0.570846 0.199872
0.855732 0.644945 0.217897
0.945331 0.738644 0.242099
0.976424 0.823333 0.273683
0.986789 0.876378 0.318386
0.086544 0.691294 0.184967
0.090993 0.697123 0.186238
0.124574 0.718046 0.190842
0.279525 0.756499 0.199473
0.605259 0.804006 0.212706
0.862789 0.836726 0.231381
0.947181 0.873335 0.256355
0.976925 0.898175 0.290453
0.986956 0.929324 0.337188
0.091066 0.877484 0.200782
0.097328 0.877993 0.202110
0.143612 0.881012 0.206920
0.308574 0.890177 0.215866
0.633592 0.903442 0.229713
0.871381 0.921528 0.249159
0.949499 0.936337 0.275290
0.977556 0.949296 0.312950
0.987167 0.960302 0.359807
0.099454 0.946755 0.220983
0.109375 0.947276 0.222380
0.172812 0.949135 0.227437
0.345143 0.952492 0.236901
0.672734 0.956823 0.251445
0.881679 0.962221 0.271976
0.952280 0.965212 0.302002
0.978315 0.970169 0.342083
0.987421 0.975011 0.385990
0.115364 0.972111 0.246380
0.126865 0.972286 0.247860
0.212664 0.972911 0.253219
0.394000 0.974043 0.263291
0.712612 0.975697 0.279126
0.893632 0.977860 0.303275
0.955512 0.980446 0.335913
0.979191 0.983186 0.373632
0.987719 0.986036 0.419074
0.084019 0.088159 0.530519
0.084019 0.088159 0.531819
0.101674 0.088387 0.536498
0.229753 0.090640 0.545132
0.550217 0.099914 0.557119
0.841158 0.143803 0.572253
0.942295 0.263970 0.591577
0.975625 0.446885 0.615146
0.986523 0.623475 0.632667
0.084019 0.088228 0.531452
0.084019 0.088342 0.532753
0.102248 0.089286 0.537433
0.231061 0.092728 0.546072
0.551859 0.104994 0.557930
0.841967 0.162992 0.573067
0.942443 0.293250 0.592395
0.975663 0.477401 0.615960
0.986536 0.638741 0.633036
0.084019 0.093173 0.534807
0.084269 0.094153 0.536110
0.104276 0.097510 0.540797
0.235764 0.109153 0.549449
0.557759 0.152734 0.560846
0.844867 0.250595 0.575993
0.942977 0.395001 0.595333
0.975801 0.564102 0.618888
0.986582 0.699804 0.634360
0.084019 0.154730 0.540993
0.085214 0.160708 0.542300
0.108531 0.184761 0.547001
0.244324 0.237423 0.555027
0.568515 0.316323 0.566216
0.850182 0.433316 0.581382
0.943953 0.568760 0.600721
0.976053 0.681033 0.624071
0.986665 0.808513 0.638963
0.084252 0.412215 0.550280
0.087343 0.420673 0.551515
0.115943 0.454046 0.555574
0.257934 0.508605 0.563051
0.584197 0.580650 0.574261
0.855779 0.651479 0.589455
0.945343 0.746787 0.608758
0.976427 0.826734 0.627755
0.986790 0.877408 0.646972
0.086562 0.699452 0.561221
0.091025 0.705278 0.562353
0.124629 0.726189 0.566422
0.279670 0.764633 0.573919
0.605397 0.807519 0.585156
0.862833 0.840052 0.600366
0.947193 0.875371 0.619638
0.976928 0.900040 0.632704
0.986957 0.930359 0.657815
0.091080 0.878196 0.575042
0.097374 0.878702 0.576177
0.143709 0.882974 0.580259
0.308728 0.892086 0.587779
0.633788 0.905281 0.599042
0.871425 0.923384 0.614185
0.949510 0.937310 0.628282
0.977559 0.950013 0.643731
0.987168 0.960868 0.671522
0.099498 0.947484 0.591985
0.109441 0.948003 0.593125
0.172936 0.949853 0.597222
0.345291 0.953193 0.604711
0.672879 0.957406 0.615926
0.881721 0.962602 0.627194
0.952291 0.965417 0.637111
0.978318 0.970528 0.660579
0.987422 0.975244 0.684181
0.115428 0.972356 0.612058
0.126947 0.972531 0.613192
0.212773 0.973153 0.617271
0.394231 0.974280 0.624302
0.712747 0.975927 0.629431
0.893673 0.978082 0.637888
0.955523 0.980636 0.657092
0.979194 0.983366 0.678630
0.987721 0.986173 0.698227
0.084019 0.088159 0.818621
0.084019 0.088190 0.819066
0.101742 0.088837 0.820662
0.229906 0.091605 0.823589
0.550410 0.102855 0.827948
0.841253 0.154898 0.833799
0.942312 0.277938 0.841178
0.975629 0.464939 0.850099
0.986525 0.632395 0.857711
0.084019 0.088453 0.818940
0.084019 0.088729 0.819385
0.102315 0.089987 0.820980
0.231215 0.094582 0.823906
0.552052 0.109466 0.828263
0.842062 0.175442 0.834112
0.942461 0.310089 0.841488
0.975668 0.491672 0.850406
0.986538 0.647593 0.857920
0.084019 0.094999 0.820086
0.084282 0.095912 0.820530
0.104341 0.100338 0.822122
0.235918 0.113771 0.825044
0.557952 0.164054 0.829395
0.844962 0.262596 0.835235
0.942994 0.411005 0.842601
0.975805 0.577338 0.851444
0.986583 0.710820 0.858670
0.084019 0.166099 0.822189
0.085231 0.172810 0.822631
0.108621 0.198049 0.824220
0.244473 0.251033 0.827134
0.568701 0.330700 0.831473
0.850276 0.451165 0.837297
0.943970 0.582006 0.844643
0.976057 0.692063 0.852844
0.986667 0.813219 0.860046
0.084265 0.428571 0.825324
0.087372 0.437938 0.825765
0.116029 0.472205 0.827347
0.258119 0.523048 0.830249
0.584384 0.593924 0.834571
0.855841 0.660275 0.840373
0.945359 0.757783 0.847690
0.976431 0.831299 0.854929
0.986791 0.878371 0.862097
0.086585 0.710468 0.829540
0.091044 0.716290 0.829979
0.124702 0.737193 0.831552
0.279866 0.775618 0.834439
0.605583 0.812234 0.838737
0.862893 0.844300 0.844508
0.947209 0.877304 0.851639
0.976933 0.902545 0.857731
0.986959 0.931749 0.864853
0.091099 0.879177 0.834870
0.097435 0.880588 0.835306
0.143840 0.885606 0.836868
0.308936 0.894649 0.839736
0.634054 0.907897 0.844005
0.871484 0.925878 0.849737
0.949526 0.938616 0.855227
0.977563 0.950975 0.861269
0.987169 0.961629 0.868334
0.099558 0.948464 0.841333
0.109530 0.948980 0.841765
0.173102 0.950816 0.843314
0.345491 0.954039 0.846158
0.673075 0.958188 0.850393
0.881779 0.963114 0.854612
0.952307 0.965692 0.859570
0.978322 0.971011 0.865552
0.987424 0.975558 0.872549
0.115515 0.972686 0.848936
0.127058 0.972859 0.849363
0.212921 0.973477 0.850898
0.394545 0.974599 0.852975
0.712930 0.976237 0.855878
0.893730 0.978381 0.859770
0.955538 0.980890 0.864670
0.979198 0.983608 0.870583
0.987722 0.986357 0.876298
0.084019 0.088349 0.927724
0.084019 0.088472 0.927899
0.101828 0.089687 0.928525
0.230102 0.093775 0.929673
0.550655 0.107497 0.930520
0.841374 0.169650 0.931550
0.942334 0.303799 0.932668
0.975635 0.485350 0.933382
0.986527 0.643683 0.934180
0.084019 0.089167 0.927849
0.084019 0.089558 0.928024
0.102400 0.091019 0.928649
0.231410 0.096753 0.929797
0.552297 0.115849 0.930576
0.842183 0.192834 0.931605
0.942483 0.328312 0.932693
0.975673 0.509938 0.933405
0.986540 0.658795 0.934203
0.084019 0.097128 0.928299
0.084298 0.098574 0.928473
0.104425 0.104062 0.929097
0.236114 0.122274 0.930009
0.558197 0.180277 0.930775
0.845082 0.281263 0.931802
0.943016 0.432034 0.932784
0.975811 0.594216 0.933489
0.986585 0.724819 0.934286
0.084019 0.182659 0.929123
0.085253 0.190250 0.929297
0.108735 0.216698 0.929864
0.244663 0.266331 0.930377
0.568938 0.350540 0.931141
0.850396 0.474253 0.932165
0.943992 0.598899 0.932951
0.976063 0.706080 0.933643
0.986669 0.819151 0.934438
0.084281 0.451228 0.930058
0.087409 0.460776 0.930136
0.116139 0.491044 0.930415
0.258355 0.541528 0.930925
0.584621 0.608748 0.931686
0.855921 0.672830 0.932602
0.945380 0.771759 0.933197
0.976437 0.837056 0.933874
0.986793 0.880388 0.934739
0.086614 0.724467 0.930801
0.091068 0.730284 0.930878
0.124802 0.751186 0.931155
0.280114 0.789579 0.931662
0.605820 0.818176 0.932418
0.862969 0.849636 0.932940
0.947229 0.878528 0.933511
0.976938 0.905732 0.934183
0.986960 0.933503 0.935396
0.091123 0.882560 0.931738
0.097514 0.883956 0.931815
0.144007 0.888925 0.932089
0.309201 0.897881 0.932549
0.634391 0.911198 0.932899
0.871559 0.928120 0.933354
0.949546 0.940264 0.933906
0.977569 0.952191 0.934573
0.987171 0.962438 0.936225
0.099633 0.949701 0.932680
0.109644 0.950212 0.932716
0.173314 0.952033 0.932843
0.345745 0.955062 0.933075
0.673324 0.959176 0.933404
0.881852 0.963524 0.933838
0.952327 0.966208 0.934386
0.978328 0.971621 0.935562
0.987426 0.975954 0.937229
0.115625 0.973102 0.933293
0.127199 0.973274 0.933325
0.213108 0.973888 0.933443
0.394943 0.975002 0.933658
0.713163 0.976629 0.933978
0.893801 0.978759 0.934408
0.955558 0.981212 0.935352
0.979203 0.983914 0.936761
0.987724 0.986586 0.938410
0.084019 0.089054 0.958864
0.084019 0.089443 0.958912
0.101932 0.090898 0.959082
0.230340 0.096494 0.959394
0.550955 0.114792 0.959860
0.841522 0.190764 0.960486
0.942361 0.325999 0.961285
0.975642 0.507629 0.962266
0.986529 0.657387 0.963418
0.084019 0.090327 0.958898
0.084019 0.090754 0.958946
0.102505 0.093354 0.959116
0.231649 0.100828 0.959428
0.552597 0.128281 0.959894
0.842330 0.214236 0.960519
0.942510 0.352772 0.961319
0.975680 0.532424 0.962299
0.986542 0.674083 0.963451
0.084019 0.101525 0.959021
0.084319 0.103070 0.959068
0.104526 0.110613 0.959238
0.236353 0.137609 0.959550
0.558497 0.200655 0.960015
0.845229 0.310058 0.960639
0.943043 0.459854 0.961441
0.975818 0.611506 0.962420
0.986587 0.741917 0.963571
0.084019 0.202781 0.959245
0.085280 0.210871 0.959292
0.108875 0.242930 0.959462
0.244895 0.294025 0.959773
0.569227 0.378864 0.960237
0.850542 0.496686 0.960860
0.944019 0.614672 0.961666
0.976070 0.723186 0.962643
0.986671 0.826319 0.963791
0.084302 0.478563 0.959580
0.087446 0.486103 0.959627
0.116272 0.513372 0.959796
0.258644 0.562085 0.960106
0.584910 0.622718 0.960568
0.856018 0.689975 0.961196
0.945406 0.788818 0.962001
0.976444 0.843823 0.962974
0.986796 0.884501 0.964119
0.086650 0.741566 0.960030
0.091097 0.747383 0.960077
0.124960 0.768266 0.960245
0.280418 0.800865 0.960554
0.606110 0.825355 0.961017
0.863062 0.856088 0.961651
0.947254 0.881574 0.962451
0.976945 0.909784 0.963421
0.986963 0.935607 0.964560
0.091152 0.886646 0.960600
0.097610 0.888026 0.960647
0.144210 0.892936 0.960814
0.309525 0.901789 0.961126
0.634804 0.915191 0.961595
0.871650 0.930301 0.962226
0.949571 0.942257 0.963022
0.977575 0.953632 0.963986
0.987173 0.963224 0.965119
0.099726 0.951198 0.961302
0.109783 0.951703 0.961349
0.173573 0.953498 0.961520
0.346055 0.956299 0.961832
0.673628 0.960372 0.962298
0.881942 0.963969 0.962924
0.952351 0.966995 0.963715
0.978334 0.972277 0.964672
0.987428 0.976435 0.965797
0.115759 0.973606 0.962138
0.127372 0.973777 0.962185
0.213337 0.974386 0.962354
0.395431 0.975490 0.962664
0.713448 0.977104 0.963126
0.893889 0.979217 0.963746
0.955582 0.981603 0.964531
0.979209 0.984285 0.965481
0.987726 0.986670 0.966597
0.084019 0.090435 0.978401
0.084019 0.090855 0.978411
0.102057 0.093596 0.978444
0.230624 0.101217 0.978504
0.551311 0.129744 0.978595
0.841697 0.216444 0.978716
0.942394 0.355274 0.978870
0.975650 0.534321 0.979056
0.986532 0.675523 0.979276
0.084019 0.092315 0.978408
0.084019 0.093251 0.978417
0.102628 0.096597 0.978450
0.231932 0.106979 0.978511
0.552953 0.147316 0.978601
0.842505 0.244799 0.978723
0.942542 0.386179 0.978876
0.975689 0.557664 0.979063
0.986545 0.694432 0.979282
0.084019 0.108027 0.978432
0.084342 0.110371 0.978441
0.104646 0.121607 0.978474
0.236637 0.157704 0.978534
0.558853 0.230328 0.978625
0.845404 0.336584 0.978746
0.943075 0.489531 0.978900
0.975826 0.628030 0.979086
0.986590 0.762202 0.979305
0.084019 0.233247 0.978475
0.085312 0.242011 0.978484
0.109040 0.265157 0.978517
0.245171 0.322654 0.978578
0.569571 0.410204 0.978668
0.850716 0.523269 0.978789
0.944051 0.631169 0.978942
0.976078 0.743484 0.979128
0.986674 0.834719 0.979347
0.084326 0.504962 0.978540
0.087463 0.512579 0.978549
0.116431 0.540120 0.978582
0.258986 0.586514 0.978642
0.585254 0.639147 0.978732
0.856133 0.710302 0.978853
0.945436 0.801913 0.979006
0.976452 0.851553 0.979191
0.986798 0.889319 0.979410
0.086692 0.761851 0.978628
0.091131 0.767662 0.978637
0.125148 0.788519 0.978669
0.280779 0.809608 0.978729
0.606454 0.833768 0.978819
0.863172 0.863654 0.978939
0.947284 0.886434 0.979092
0.976953 0.914538 0.979276
0.986965 0.938032 0.979494
0.091186 0.891435 0.978738
0.097723 0.892795 0.978748
0.144452 0.897637 0.978780
0.309910 0.906440 0.978840
0.635294 0.919879 0.978929
0.871759 0.932858 0.979049
0.949600 0.944596 0.979200
0.977583 0.955117 0.979384
0.987176 0.963756 0.979601
0.099835 0.952954 0.978873
0.109947 0.953453 0.978882
0.173881 0.954984 0.978914
0.346424 0.957752 0.978974
0.673989 0.961777 0.979062
0.882048 0.964492 0.979182
0.952380 0.967920 0.979332
0.978342 0.972884 0.979515
0.987430 0.977000 0.979710
0.115918 0.974199 0.979032
0.127576 0.974368 0.979041
0.213609 0.974971 0.979073
0.396010 0.976065 0.979132
0.713785 0.977663 0.979220
0.893992 0.979757 0.979339
0.955610 0.982064 0.979488
0.979217 0.984723 0.979670
0.987729 0.986768 0.979726
