kodachrome64/Kodachrome64_Modern_Soft.cube
TITLE "Kodachrome 64 Modern Soft"
# Adobe RGB in/out. REPLACES AgX. Kodachrome 64 Modern Soft.
LUT_3D_SIZE 9
DOMAIN_MIN 0.0 0.0 0.0
DOMAIN_MAX 1.0 1.0 1.0
0.081099 0.084717 0.091118
0.084615 0.084717 0.091118
0.279426 0.087765 0.091118
0.761351 0.118296 0.091118
0.933714 0.267333 0.091282
0.972235 0.465539 0.091773
0.985265 0.645177 0.092975
0.989973 0.780255 0.094707
0.989973 0.852578 0.098360
0.081099 0.085040 0.091118
0.081740 0.084833 0.091118
0.172737 0.089268 0.091118
0.669710 0.130393 0.091118
0.920453 0.285372 0.091227
0.968354 0.485013 0.091728
0.984331 0.658044 0.092874
0.989973 0.788791 0.094516
0.989973 0.855980 0.098088
0.081099 0.211029 0.091118
0.085612 0.159159 0.091118
0.133675 0.122149 0.091118
0.465719 0.194717 0.091118
0.867438 0.357568 0.091156
0.955050 0.551123 0.091603
0.981489 0.708822 0.092592
0.988552 0.818246 0.094026
0.989973 0.866302 0.097304
0.082268 0.610507 0.091118
0.089625 0.556431 0.091118
0.185570 0.450327 0.091118
0.425695 0.409668 0.091118
0.787976 0.503025 0.091137
0.936315 0.650292 0.091499
0.974006 0.775814 0.092325
0.986096 0.848087 0.093622
0.989973 0.891274 0.096426
0.085414 0.843443 0.091118
0.096817 0.831550 0.091118
0.223756 0.787540 0.091118
0.493456 0.741247 0.091130
0.770070 0.732552 0.091240
0.917944 0.778448 0.091517
0.965328 0.842813 0.092252
0.983371 0.883433 0.093453
0.989733 0.926343 0.095822
0.090524 0.931271 0.091248
0.107661 0.928704 0.091256
0.243766 0.913961 0.091288
0.532688 0.890992 0.091363
0.802055 0.878756 0.091496
0.917095 0.880688 0.091730
0.958020 0.898797 0.092385
0.981122 0.929458 0.093495
0.987951 0.940620 0.095735
0.101051 0.951075 0.091520
0.119726 0.950089 0.091529
0.259247 0.948022 0.091576
0.550195 0.945005 0.091715
0.810671 0.942128 0.091838
0.919230 0.941296 0.092285
0.957460 0.942813 0.092931
0.978738 0.946367 0.093747
0.986593 0.951499 0.096159
0.114259 0.966845 0.091849
0.139873 0.966343 0.091875
0.273536 0.964778 0.091974
0.550971 0.962678 0.092161
0.808497 0.960876 0.092455
0.918311 0.960081 0.092923
0.956660 0.960655 0.093527
0.977899 0.962605 0.094815
0.985711 0.965694 0.097232
0.132580 0.975990 0.092373
0.165284 0.975805 0.092401
0.285035 0.975218 0.092519
0.543488 0.974389 0.092736
0.796864 0.973526 0.093054
0.914340 0.973188 0.093505
0.954204 0.973633 0.094399
0.976222 0.974859 0.096073
0.985145 0.976557 0.099316
0.081099 0.084717 0.091785
0.085553 0.084717 0.091918
0.279428 0.088035 0.092197
0.746213 0.115310 0.092527
0.927914 0.254326 0.093213
0.970183 0.450114 0.094410
0.984749 0.636532 0.096867
0.989973 0.775081 0.101913
0.989973 0.850390 0.110627
0.081099 0.084884 0.091284
0.081099 0.084717 0.091118
0.156177 0.088781 0.091387
0.623506 0.122984 0.091924
0.914032 0.272406 0.092857
0.966252 0.470261 0.093933
0.983811 0.649052 0.096342
0.989923 0.783504 0.101100
0.989973 0.854531 0.110045
0.081099 0.177632 0.091823
0.084078 0.131751 0.091463
0.114606 0.109266 0.091189
0.407160 0.170250 0.091436
0.847743 0.338579 0.092100
0.952018 0.534354 0.093229
0.980958 0.700145 0.095137
0.988252 0.812707 0.098956
0.989973 0.864096 0.107088
0.081985 0.570789 0.092131
0.088349 0.517096 0.091832
0.167815 0.408550 0.091541
0.377258 0.374255 0.091474
0.760419 0.477463 0.091732
0.931885 0.635963 0.092733
0.972688 0.767300 0.094068
0.985812 0.844942 0.097134
0.989973 0.888973 0.103575
0.085030 0.834401 0.092408
0.095197 0.822615 0.092287
0.214972 0.772605 0.092008
0.468841 0.724019 0.091849
0.758245 0.716942 0.091997
0.914483 0.768301 0.092583
0.964169 0.838675 0.093660
0.983079 0.880525 0.096139
0.989592 0.925602 0.101545
0.090059 0.929274 0.092773
0.106468 0.926724 0.092718
0.238591 0.908347 0.092584
0.516086 0.885676 0.092515
0.793050 0.873791 0.092647
0.914644 0.876308 0.093019
0.956887 0.895469 0.093695
0.980887 0.928613 0.095909
0.987819 0.940225 0.100647
0.100376 0.950229 0.093137
0.118764 0.949551 0.093123
0.255418 0.947499 0.093099
0.544113 0.944261 0.093128
0.806785 0.941411 0.093282
0.917840 0.940639 0.093645
0.956687 0.942261 0.094589
0.978360 0.945997 0.096411
0.986505 0.951164 0.101128
0.113774 0.966436 0.093508
0.138860 0.965940 0.093516
0.271146 0.964389 0.093554
0.547601 0.962307 0.093659
0.806362 0.960529 0.093957
0.917559 0.959767 0.094675
0.956237 0.960390 0.095857
0.977668 0.962403 0.098129
0.985659 0.965563 0.102916
0.132051 0.975833 0.093912
0.164467 0.975650 0.093944
0.283686 0.975070 0.094090
0.540829 0.974220 0.094389
0.795483 0.973375 0.094948
0.913965 0.973059 0.095802
0.954011 0.973533 0.097437
0.976126 0.974807 0.100621
0.985125 0.976537 0.106492
0.081099 0.084717 0.254956
0.085574 0.084717 0.259565
0.298119 0.089448 0.276539
0.769624 0.129058 0.253555
0.926956 0.262268 0.216515
0.968389 0.443186 0.212830
0.984036 0.627791 0.221433
0.989933 0.766853 0.236363
0.989973 0.846475 0.257030
0.081099 0.086895 0.258258
0.085811 0.088408 0.242938
0.226676 0.097337 0.176655
0.658291 0.134870 0.169189
0.911434 0.273602 0.177154
0.964166 0.461322 0.190321
0.983056 0.639005 0.206916
0.989440 0.775513 0.226398
0.989973 0.850504 0.249013
0.081099 0.127115 0.134176
0.083002 0.110784 0.109784
0.095541 0.097062 0.094003
0.359663 0.155055 0.102729
0.826017 0.322835 0.120731
0.947780 0.513725 0.142866
0.979931 0.681871 0.168790
0.987664 0.803158 0.197595
0.989973 0.859740 0.226116
0.081527 0.483428 0.152101
0.086070 0.435115 0.131604
0.134960 0.341926 0.105887
0.308127 0.309405 0.098172
0.715651 0.427474 0.103131
0.923200 0.610626 0.117079
0.969868 0.749670 0.137478
0.985168 0.838540 0.164598
0.989973 0.884197 0.197863
0.084065 0.805082 0.154551
0.091861 0.786328 0.143398
0.187060 0.732426 0.121743
0.411947 0.678025 0.108965
0.716448 0.671016 0.104112
0.902624 0.742062 0.109685
0.960570 0.829088 0.123121
0.982354 0.873662 0.144216
0.989162 0.921083 0.173934
0.088958 0.920927 0.148976
0.103041 0.913864 0.143707
0.224931 0.893694 0.129680
0.482334 0.872372 0.119143
0.762865 0.860832 0.113021
0.905880 0.864625 0.112644
0.953844 0.886911 0.119114
0.980210 0.926368 0.135380
0.987455 0.939010 0.160066
0.098679 0.948647 0.142242
0.115980 0.947994 0.139794
0.246266 0.945847 0.132634
0.518322 0.942176 0.125759
0.792856 0.939278 0.121729
0.913764 0.938546 0.121256
0.954426 0.940678 0.124904
0.977267 0.944944 0.134293
0.986246 0.950315 0.156092
0.112290 0.965194 0.135553
0.135785 0.964716 0.134523
0.264123 0.963219 0.131463
0.534072 0.961209 0.128300
0.798353 0.959506 0.126903
0.915267 0.958839 0.127768
0.954951 0.959601 0.132621
0.976961 0.961803 0.142793
0.985500 0.965175 0.159249
0.130374 0.975339 0.129138
0.161886 0.975164 0.128965
0.279441 0.974609 0.128519
0.532515 0.973696 0.128299
0.791159 0.972910 0.129057
0.912793 0.972666 0.132551
0.953404 0.973229 0.139430
0.975825 0.974650 0.150452
0.985064 0.976480 0.168850
0.081099 0.084717 0.787603
0.085613 0.085096 0.788843
0.298420 0.094315 0.793279
0.819711 0.164208 0.801363
0.939341 0.316960 0.747928
0.970382 0.476315 0.687679
0.984079 0.637632 0.648039
0.989757 0.768654 0.625316
0.989973 0.845542 0.619276
0.081099 0.088621 0.788493
0.085991 0.092442 0.789731
0.303668 0.113059 0.794161
0.767192 0.200194 0.762108
0.923519 0.327873 0.691044
0.965894 0.488888 0.646628
0.983042 0.647354 0.623836
0.989205 0.776290 0.617595
0.989973 0.849342 0.612442
0.081099 0.144684 0.616355
0.083733 0.138508 0.562558
0.143190 0.145713 0.479119
0.468412 0.215972 0.478400
0.846610 0.352995 0.512953
0.948579 0.530280 0.539059
0.979326 0.685356 0.556979
0.987342 0.801398 0.568840
0.989973 0.858069 0.577088
0.081237 0.406158 0.535991
0.085001 0.375194 0.486817
0.119488 0.303440 0.331110
0.244231 0.243830 0.191338
0.690023 0.413953 0.300399
0.919163 0.603236 0.403197
0.968183 0.742934 0.468433
0.984621 0.835208 0.503641
0.989973 0.881110 0.528977
0.083583 0.758160 0.547724
0.089405 0.740119 0.520988
0.163799 0.687908 0.444839
0.355761 0.630185 0.321944
0.650096 0.623453 0.262488
0.887261 0.718315 0.305255
0.956876 0.820843 0.379965
0.981652 0.867941 0.447365
0.988720 0.916596 0.481376
0.087713 0.900396 0.535135
0.098925 0.894174 0.520459
0.208340 0.876700 0.474592
0.449386 0.857736 0.406546
0.737020 0.850223 0.340435
0.890229 0.855140 0.315402
0.950228 0.877841 0.338881
0.978628 0.921353 0.396829
0.987024 0.937708 0.449955
0.096486 0.946466 0.507298
0.112468 0.945640 0.497462
0.234510 0.942950 0.472759
0.498745 0.939378 0.436059
0.766707 0.936318 0.388276
0.906588 0.935763 0.360464
0.951368 0.938362 0.356865
0.975846 0.943660 0.378770
0.985908 0.949707 0.428116
0.110135 0.963407 0.471346
0.131385 0.962964 0.467613
0.254358 0.961573 0.453993
0.511463 0.959699 0.430354
0.785677 0.958088 0.402721
0.912013 0.957323 0.384853
0.953138 0.958538 0.382387
0.975955 0.960995 0.395853
0.985279 0.964682 0.423576
0.127868 0.974602 0.428604
0.158016 0.974423 0.425837
0.273111 0.973792 0.417117
0.519977 0.972940 0.403580
0.779802 0.972252 0.391783
0.910999 0.972119 0.386642
0.952511 0.972812 0.391302
0.975380 0.974426 0.407777
0.984972 0.976419 0.433977
0.081099 0.085497 0.935013
0.085671 0.087049 0.935188
0.298870 0.101228 0.935812
0.819892 0.194042 0.936951
0.952090 0.400920 0.934954
0.975305 0.541968 0.901451
0.984969 0.670450 0.875720
0.989973 0.782811 0.858812
0.989973 0.849453 0.847380
0.081099 0.094574 0.935138
0.086011 0.099594 0.935313
0.304138 0.129308 0.935936
0.821961 0.270146 0.937074
0.942200 0.414363 0.914039
0.970955 0.553226 0.887772
0.983904 0.681653 0.867197
0.989452 0.789397 0.853284
0.989973 0.852988 0.844234
0.081099 0.256716 0.924014
0.086947 0.260590 0.914690
0.239647 0.279939 0.895648
0.634642 0.342621 0.872159
0.891169 0.450195 0.856782
0.955119 0.587689 0.847843
0.980515 0.713107 0.841431
0.987505 0.812083 0.834677
0.989973 0.860520 0.828593
0.081205 0.411638 0.835095
0.085123 0.397814 0.820511
0.136897 0.371763 0.773531
0.363602 0.388790 0.724222
0.754598 0.495894 0.735195
0.925521 0.634310 0.766946
0.969103 0.757595 0.783405
0.984605 0.838468 0.792691
0.989973 0.882188 0.796892
0.083046 0.718436 0.815314
0.087837 0.705487 0.801105
0.146104 0.656480 0.752569
0.330363 0.610367 0.661830
0.578966 0.572921 0.568598
0.881470 0.714576 0.646307
0.955572 0.820056 0.705027
0.981328 0.867209 0.739004
0.988457 0.915527 0.761036
0.086431 0.880542 0.809547
0.095454 0.875717 0.800820
0.185303 0.861227 0.773716
0.406193 0.848152 0.718694
0.698171 0.836244 0.659819
0.873329 0.840874 0.623937
0.946920 0.870786 0.652186
0.977110 0.916700 0.694118
0.986674 0.936915 0.721608
0.094047 0.943015 0.794374
0.108769 0.942252 0.789251
0.221931 0.939833 0.772857
0.466657 0.936219 0.738341
0.752181 0.933088 0.701646
0.895867 0.932520 0.673799
0.947965 0.935885 0.659928
0.974411 0.942503 0.675668
0.985575 0.949200 0.699674
0.107914 0.961353 0.771658
0.126501 0.960961 0.768658
0.245259 0.959727 0.753983
0.501501 0.957988 0.732256
0.766704 0.956009 0.709457
0.906835 0.955472 0.691129
0.951108 0.957086 0.681839
0.974824 0.960163 0.682615
0.985031 0.964316 0.692646
0.123008 0.973541 0.731079
0.153554 0.973366 0.728779
0.265702 0.972815 0.721270
0.507273 0.972083 0.709854
0.768971 0.971530 0.697655
0.908044 0.971536 0.688263
0.951480 0.972383 0.684177
0.974868 0.974180 0.686534
0.984870 0.976390 0.695032
0.081099 0.088712 0.974380
0.085748 0.092708 0.974383
0.299478 0.113445 0.974392
0.820135 0.235667 0.974410
0.955891 0.469642 0.974436
0.980454 0.620577 0.968609
0.986206 0.721851 0.954967
0.989973 0.807564 0.943549
0.989973 0.856502 0.935120
0.081099 0.103853 0.974382
0.086041 0.110671 0.974385
0.304773 0.162718 0.974394
0.822204 0.317411 0.974412
0.954452 0.529762 0.974396
0.977015 0.629900 0.964634
0.985316 0.729430 0.950977
0.989973 0.813775 0.940934
0.989973 0.857677 0.931714
0.081099 0.327387 0.974389
0.088854 0.346606 0.974392
0.324379 0.429199 0.974401
0.760478 0.488309 0.968393
0.922269 0.568681 0.957252
0.964163 0.657448 0.946598
0.981989 0.754054 0.938653
0.988115 0.828853 0.929843
0.989973 0.868164 0.918564
0.081434 0.514027 0.945874
0.086372 0.512317 0.943406
0.185721 0.516029 0.936537
0.507560 0.547608 0.922665
0.832543 0.615855 0.912513
0.939721 0.705758 0.908203
0.972594 0.790852 0.906972
0.985185 0.849117 0.905720
0.989973 0.888254 0.903840
0.082901 0.713891 0.911777
0.087491 0.706667 0.907422
0.151408 0.681335 0.893079
0.365001 0.660574 0.870446
0.701444 0.686249 0.857534
0.901112 0.759750 0.861708
0.958484 0.832600 0.870925
0.981608 0.873935 0.877903
0.988482 0.919415 0.881652
0.085948 0.866457 0.904972
0.092733 0.862835 0.901434
0.173188 0.855892 0.887149
0.380620 0.842271 0.866405
0.676717 0.831076 0.845592
0.852468 0.827722 0.820302
0.945794 0.870789 0.844223
0.976646 0.917724 0.855387
0.986526 0.937115 0.863491
0.092120 0.939677 0.897627
0.105614 0.938950 0.894800
0.210736 0.936671 0.885577
0.443209 0.933362 0.871781
0.734999 0.930202 0.856905
0.885891 0.929520 0.845641
0.944462 0.933313 0.839006
0.973194 0.941737 0.845687
0.985318 0.948966 0.852629
0.105614 0.959276 0.885381
0.120392 0.958947 0.883690
0.236143 0.957774 0.878109
0.475617 0.955762 0.869590
0.757320 0.954126 0.860140
0.900374 0.953829 0.851962
0.949054 0.955648 0.847431
0.973675 0.959418 0.846580
0.984797 0.964088 0.849078
0.120578 0.972405 0.869577
0.145802 0.972260 0.868647
0.257986 0.971808 0.865560
0.501805 0.971224 0.860795
0.763033 0.970836 0.855463
0.904253 0.971005 0.850837
0.950421 0.972016 0.848318
0.974347 0.974002 0.847897
0.984770 0.976427 0.849298
0.081099 0.099852 0.981145
0.085840 0.104967 0.981156
0.300253 0.146963 0.981197
0.820444 0.291238 0.981271
0.955933 0.522471 0.981383
0.982490 0.698760 0.980211
0.987479 0.772407 0.976750
0.989973 0.831633 0.974407
0.989973 0.865824 0.970168
0.081099 0.124796 0.981153
0.086081 0.140391 0.981164
0.305582 0.215340 0.981205
0.822512 0.367219 0.981280
0.956211 0.589090 0.981391
0.981066 0.708420 0.979234
0.986629 0.778975 0.976012
0.989973 0.835023 0.974195
0.989973 0.868968 0.968903
0.081099 0.377804 0.981182
0.088992 0.401018 0.981193
0.325201 0.486997 0.981234
0.829038 0.618497 0.981276
0.940432 0.668279 0.978618
0.970791 0.735577 0.975897
0.983653 0.800164 0.974361
0.988982 0.846396 0.969956
0.989973 0.879827 0.964720
0.081912 0.635886 0.977086
0.089225 0.637563 0.976728
0.237383 0.646237 0.975617
0.620213 0.671156 0.974418
0.882881 0.718303 0.972623
0.950534 0.774145 0.968070
0.977112 0.828245 0.964257
0.986042 0.860667 0.959744
0.989973 0.899344 0.955410
0.083197 0.753612 0.966161
0.088533 0.751321 0.965051
0.173610 0.747013 0.960489
0.453592 0.751473 0.953925
0.775298 0.776419 0.948843
0.921367 0.820447 0.946477
0.964221 0.854701 0.945808
0.982442 0.887749 0.945471
0.988799 0.926348 0.944728
0.085828 0.863051 0.953887
0.092079 0.860806 0.952334
0.170822 0.856753 0.947368
0.391060 0.851282 0.940203
0.708605 0.849039 0.931279
0.885826 0.857548 0.923173
0.950071 0.887073 0.926328
0.977880 0.926029 0.932379
0.986664 0.938634 0.935483
0.091078 0.936919 0.948491
0.102965 0.936372 0.947408
0.196627 0.934651 0.943818
0.423108 0.931760 0.938261
0.722754 0.929369 0.928549
0.880763 0.928750 0.915384
0.941099 0.930786 0.907100
0.972795 0.942032 0.915606
0.985230 0.949240 0.922609
0.103375 0.957098 0.943388
0.117427 0.956728 0.942701
0.227771 0.955559 0.940405
0.462137 0.953990 0.936805
0.749211 0.952768 0.930176
0.894954 0.952722 0.921547
0.947165 0.954598 0.915473
0.972576 0.958833 0.913651
0.984607 0.964078 0.917155
0.118532 0.971325 0.936856
0.141393 0.971214 0.936458
0.250980 0.970873 0.935126
0.481570 0.970458 0.931044
0.757290 0.970257 0.925609
0.900664 0.970602 0.920657
0.949429 0.971775 0.917260
0.973865 0.973938 0.916113
0.984686 0.976554 0.917234
0.081099 0.120910 0.985245
0.085883 0.135476 0.985252
0.301199 0.209611 0.985278
0.820822 0.359602 0.985326
0.955983 0.582956 0.985398
0.983980 0.761789 0.985069
0.988587 0.817481 0.982492
0.989973 0.851612 0.980706
0.989973 0.880429 0.978426
0.081099 0.177380 0.985250
0.086129 0.200979 0.985257
0.306570 0.282387 0.985283
0.822889 0.437248 0.985331
0.956261 0.637117 0.985403
0.982689 0.771962 0.984383
0.987789 0.822886 0.982485
0.989973 0.854968 0.980311
0.989973 0.883477 0.978063
0.081099 0.448895 0.985269
0.089160 0.472716 0.985276
0.326207 0.550457 0.985302
0.830266 0.663000 0.985350
0.949467 0.753961 0.984335
0.976070 0.797389 0.982489
0.985195 0.835354 0.980794
0.989839 0.861386 0.978767
0.989973 0.894300 0.976854
0.082480 0.739839 0.983742
0.092242 0.741940 0.983496
0.280080 0.750439 0.982691
0.711903 0.768854 0.982278
0.912281 0.795462 0.980841
0.959350 0.827860 0.979302
0.980678 0.854400 0.977671
0.986994 0.879837 0.976238
0.989973 0.913515 0.974974
0.083636 0.812738 0.978780
0.090510 0.812937 0.978555
0.206408 0.815224 0.977837
0.528095 0.822832 0.976804
0.833204 0.834673 0.975735
0.935794 0.854096 0.974811
0.969024 0.875308 0.974414
0.983534 0.906663 0.974115
0.989301 0.930652 0.973402
0.085901 0.873224 0.974739
0.092571 0.872287 0.974529
0.179128 0.869879 0.974388
0.432687 0.868777 0.973461
0.754332 0.873285 0.970310
0.910179 0.887106 0.968031
0.956260 0.912019 0.967087
0.980133 0.931593 0.966853
0.987044 0.941159 0.966621
0.090503 0.936011 0.973505
0.101563 0.935661 0.973201
0.191288 0.934588 0.971185
0.420000 0.932937 0.968044
0.729492 0.932069 0.964430
0.888610 0.933346 0.960089
0.946880 0.937728 0.957930
0.974298 0.944598 0.958862
0.985417 0.950221 0.960341
0.101558 0.955222 0.969816
0.115084 0.954957 0.969402
0.221251 0.954131 0.968007
0.450687 0.953066 0.965786
0.741832 0.952368 0.962764
0.892102 0.952709 0.958870
0.946234 0.954653 0.955788
0.971533 0.958462 0.954010
0.984539 0.964493 0.956423
0.116647 0.970416 0.965556
0.137774 0.970341 0.965307
0.245402 0.970117 0.964418
0.472702 0.969880 0.962733
0.752235 0.969880 0.960323
0.897634 0.970410 0.958051
0.948589 0.971734 0.956398
0.973472 0.974037 0.955736
0.984630 0.976796 0.956190
0.081099 0.182463 0.987841
0.085934 0.207307 0.987843
0.302333 0.287314 0.987851
0.821270 0.443723 0.987865
0.956044 0.640767 0.987885
0.984813 0.811841 0.987911
0.989401 0.843730 0.986754
0.989973 0.866867 0.984509
0.989973 0.896249 0.982494
0.081099 0.259947 0.987843
0.086271 0.280345 0.987845
0.307745 0.362622 0.987852
0.823336 0.517628 0.987866
0.956322 0.695017 0.987887
0.983751 0.821942 0.987694
0.988662 0.847735 0.986349
0.989973 0.870214 0.984169
0.989973 0.899420 0.982491
0.081099 0.527446 0.987848
0.089357 0.548366 0.987850
0.327402 0.616857 0.987858
0.830708 0.718688 0.987872
0.954973 0.815282 0.987766
0.979821 0.837461 0.986802
0.986248 0.857303 0.984840
0.989973 0.881351 0.982977
0.989973 0.910309 0.982092
0.082962 0.813985 0.987682
0.096040 0.815799 0.987600
0.316127 0.821827 0.987326
0.757415 0.829587 0.986731
0.924451 0.841701 0.985395
0.965448 0.856632 0.983948
0.982157 0.874917 0.982494
0.987871 0.900236 0.981884
0.989973 0.926554 0.980620
0.084137 0.850942 0.983822
0.092860 0.851460 0.983680
0.231104 0.853720 0.983196
0.588210 0.856845 0.982494
0.868155 0.864401 0.982345
0.945190 0.879764 0.981397
0.973255 0.900883 0.980499
0.984606 0.925787 0.979611
0.989803 0.935291 0.978633
0.086109 0.893641 0.980849
0.094751 0.893533 0.980729
0.194274 0.893731 0.980337
0.474016 0.896085 0.979700
0.794524 0.903095 0.978863
0.921343 0.916592 0.978108
0.961920 0.929210 0.977501
0.981226 0.937096 0.977011
0.987520 0.943970 0.976562
0.090513 0.937398 0.978368
0.101669 0.937240 0.978235
0.193504 0.936806 0.977791
0.434193 0.936500 0.977101
0.747880 0.937017 0.976323
0.901403 0.939118 0.975649
0.951662 0.942868 0.975224
0.976477 0.947533 0.975040
0.985758 0.952775 0.974949
0.100405 0.954496 0.976838
0.113705 0.954339 0.976738
0.217423 0.953873 0.976399
0.443664 0.953369 0.975855
0.740354 0.953333 0.975204
0.893360 0.954358 0.974572
0.947504 0.957036 0.974419
0.973188 0.960836 0.974396
0.984710 0.965645 0.974406
0.115111 0.969790 0.975577
0.134898 0.969750 0.975513
0.240792 0.969643 0.975299
0.465554 0.969588 0.974954
0.748276 0.969796 0.974539
0.895554 0.970521 0.974424
0.948098 0.971994 0.974386
0.973270 0.974391 0.974369
0.984611 0.977172 0.974378
