kodachrome64/Kodachrome64_Modern_Punchy.cube
TITLE "Kodachrome 64 Modern Punchy"
# Adobe RGB in/out. REPLACES AgX. Kodachrome 64 Modern Punchy.
LUT_3D_SIZE 9
DOMAIN_MIN 0.0 0.0 0.0
DOMAIN_MAX 1.0 1.0 1.0
0.093920 0.090395 0.084157
0.094313 0.090395 0.084157
0.303650 0.090865 0.084157
0.681455 0.112943 0.084157
0.880449 0.256182 0.084377
0.951639 0.464283 0.084659
0.972767 0.619683 0.085690
0.980631 0.724590 0.088249
0.984589 0.808086 0.093246
0.093920 0.090407 0.084157
0.093920 0.090395 0.084157
0.176156 0.091484 0.084157
0.604789 0.120141 0.084157
0.854363 0.281130 0.084343
0.946420 0.479778 0.084629
0.970733 0.629040 0.085527
0.980016 0.733203 0.087956
0.984308 0.812561 0.092745
0.093920 0.190803 0.084157
0.095122 0.142120 0.084157
0.138391 0.115675 0.084157
0.464480 0.177190 0.084157
0.780841 0.364835 0.084284
0.923666 0.532942 0.084556
0.964550 0.661204 0.085170
0.977968 0.762987 0.087519
0.983183 0.828070 0.091498
0.093959 0.587646 0.084157
0.098563 0.537927 0.084157
0.190738 0.452722 0.084157
0.439000 0.410123 0.084157
0.704504 0.491747 0.084267
0.885765 0.623407 0.084509
0.954091 0.720099 0.084981
0.974901 0.803248 0.086821
0.981502 0.854519 0.090597
0.094961 0.799032 0.084197
0.104478 0.783609 0.084199
0.225554 0.731940 0.084215
0.482784 0.689465 0.084261
0.694225 0.681899 0.084352
0.849497 0.722767 0.084520
0.941685 0.798512 0.084928
0.968642 0.846323 0.086502
0.979392 0.884688 0.089916
0.099513 0.892995 0.084357
0.114726 0.888649 0.084361
0.255979 0.875620 0.084381
0.515045 0.854236 0.084425
0.720315 0.841338 0.084507
0.847699 0.843396 0.084635
0.927636 0.862093 0.085026
0.963755 0.889924 0.086580
0.977262 0.910765 0.089781
0.107725 0.931437 0.084521
0.125737 0.930547 0.084526
0.275955 0.927146 0.084547
0.525344 0.919634 0.084594
0.730845 0.913810 0.084675
0.851942 0.912130 0.084951
0.926887 0.915195 0.085619
0.959991 0.922407 0.087112
0.975665 0.931731 0.090298
0.121105 0.943904 0.084678
0.145475 0.943352 0.084684
0.294152 0.941564 0.084723
0.525908 0.939158 0.084860
0.728291 0.937095 0.085076
0.850274 0.936184 0.085606
0.925817 0.936842 0.086640
0.959164 0.939074 0.088406
0.973909 0.942614 0.091429
0.137285 0.955480 0.085016
0.167790 0.955195 0.085038
0.309320 0.954294 0.085120
0.520672 0.953060 0.085315
0.714477 0.951991 0.085819
0.841993 0.951574 0.086599
0.922470 0.952123 0.087748
0.957189 0.953743 0.090201
0.972506 0.956351 0.094517
0.093920 0.090395 0.084662
0.095074 0.090395 0.084695
0.303653 0.090949 0.084887
0.660542 0.110841 0.085125
0.868990 0.240583 0.086079
0.948910 0.452571 0.087768
0.971641 0.613371 0.091078
0.980303 0.719353 0.097548
0.984468 0.805729 0.108128
0.093920 0.090395 0.084378
0.093920 0.090395 0.084157
0.158219 0.091180 0.084440
0.578797 0.116214 0.084696
0.841362 0.263848 0.085499
0.943130 0.468361 0.087397
0.969599 0.622505 0.090502
0.979659 0.727867 0.096680
0.984124 0.810192 0.106809
0.093920 0.161691 0.084671
0.094231 0.120830 0.084488
0.121522 0.104176 0.084312
0.428380 0.153735 0.084471
0.767645 0.334841 0.084816
0.919215 0.517332 0.086104
0.963409 0.653724 0.088878
0.977616 0.757378 0.094058
0.983003 0.825680 0.103396
0.093922 0.550792 0.084839
0.097454 0.502652 0.084674
0.170594 0.409238 0.084533
0.410923 0.379648 0.084494
0.680096 0.474569 0.084639
0.876827 0.612955 0.085311
0.952251 0.712103 0.087571
0.974168 0.800268 0.091335
0.981334 0.852204 0.099738
0.094649 0.788079 0.085043
0.103426 0.768787 0.084953
0.215399 0.716832 0.084748
0.467059 0.674468 0.084678
0.676930 0.668294 0.084740
0.842286 0.712972 0.085164
0.939873 0.794797 0.086893
0.968006 0.843223 0.090275
0.979194 0.883467 0.097155
0.099041 0.889613 0.085372
0.113362 0.885315 0.085288
0.248951 0.871710 0.085165
0.504856 0.848716 0.085117
0.710194 0.836047 0.085208
0.842616 0.838728 0.085762
0.926120 0.858742 0.086981
0.963272 0.888494 0.090018
0.977107 0.909970 0.096196
0.107103 0.930729 0.085954
0.124458 0.929756 0.085932
0.271623 0.925770 0.085893
0.520974 0.918127 0.085940
0.725867 0.912363 0.086187
0.849277 0.910803 0.086864
0.925853 0.914079 0.088075
0.959618 0.921645 0.090580
0.975561 0.931498 0.096709
0.120522 0.943454 0.086605
0.144314 0.942895 0.086620
0.288818 0.941118 0.086692
0.523457 0.938734 0.086892
0.725278 0.936698 0.087432
0.848682 0.935923 0.088202
0.925251 0.936538 0.089959
0.958937 0.938844 0.092818
0.973776 0.942464 0.098838
0.136781 0.955239 0.087365
0.166924 0.954957 0.087414
0.307958 0.954067 0.087600
0.519387 0.952850 0.087731
0.712925 0.951804 0.088601
0.841226 0.951414 0.089885
0.922182 0.952000 0.091707
0.957055 0.953663 0.096168
0.972463 0.956320 0.102894
0.093920 0.090395 0.260809
0.095091 0.090395 0.265169
0.322886 0.091556 0.281674
0.693569 0.119460 0.259483
0.867105 0.248902 0.222067
0.946476 0.447641 0.218259
0.970088 0.606968 0.227150
0.979673 0.711715 0.242832
0.984084 0.801532 0.262772
0.093920 0.090581 0.263934
0.095283 0.091064 0.249366
0.228910 0.093785 0.181143
0.596679 0.122490 0.173483
0.836073 0.265499 0.181655
0.939869 0.460637 0.195176
0.967955 0.615179 0.212153
0.979013 0.719792 0.232362
0.983737 0.805851 0.255180
0.093920 0.118463 0.134645
0.094063 0.106043 0.106219
0.103650 0.093640 0.087489
0.392020 0.138493 0.098583
0.745264 0.310734 0.121147
0.910528 0.499777 0.144211
0.961166 0.643402 0.173073
0.976924 0.747719 0.202649
0.982608 0.820962 0.232066
0.093920 0.478724 0.155141
0.095839 0.439971 0.132278
0.139857 0.340062 0.102357
0.333199 0.299590 0.092897
0.637472 0.431199 0.099132
0.859732 0.587790 0.116427
0.948491 0.696790 0.137600
0.972555 0.794585 0.168772
0.980936 0.847139 0.202924
0.094229 0.749664 0.157739
0.100972 0.730717 0.144874
0.192215 0.681789 0.122463
0.431144 0.641217 0.104973
0.638052 0.637223 0.100475
0.825208 0.690174 0.105996
0.931048 0.779758 0.123829
0.966430 0.835910 0.145897
0.978686 0.880496 0.178352
0.097871 0.880406 0.151662
0.109748 0.875552 0.145261
0.226903 0.856956 0.130504
0.478171 0.834536 0.119090
0.683667 0.822145 0.111384
0.828825 0.826253 0.110934
0.921933 0.850033 0.119052
0.961725 0.884729 0.135752
0.976678 0.907855 0.163622
0.105686 0.928212 0.143432
0.123132 0.927097 0.140388
0.259432 0.921342 0.133227
0.506080 0.913907 0.125636
0.709975 0.908318 0.122444
0.840814 0.907051 0.121829
0.922801 0.910883 0.125052
0.958542 0.919509 0.134753
0.975234 0.930841 0.159374
0.118740 0.942041 0.135911
0.140798 0.941493 0.134964
0.281390 0.939778 0.132148
0.515940 0.937475 0.128835
0.716151 0.935817 0.126968
0.843895 0.935545 0.128122
0.923533 0.935855 0.133215
0.958222 0.938156 0.144119
0.973367 0.942020 0.162727
0.135183 0.954481 0.129957
0.164213 0.954211 0.129725
0.303666 0.953360 0.129128
0.514934 0.952202 0.128833
0.708072 0.951229 0.129849
0.838827 0.950927 0.133150
0.921278 0.951623 0.139935
0.956634 0.953423 0.153320
0.972328 0.956232 0.173134
0.093920 0.090395 0.759326
0.095123 0.090411 0.759953
0.323202 0.092597 0.762193
0.739338 0.146900 0.769839
0.892071 0.304228 0.726723
0.949176 0.473581 0.678240
0.970183 0.614175 0.644013
0.979426 0.713278 0.625240
0.983829 0.800763 0.617028
0.093920 0.091130 0.759776
0.095653 0.092216 0.760402
0.328661 0.108683 0.762638
0.690000 0.181184 0.738055
0.860357 0.318365 0.681042
0.942570 0.482350 0.642866
0.967925 0.621269 0.623223
0.978737 0.720584 0.614752
0.983472 0.804599 0.610028
0.093920 0.130175 0.613073
0.094195 0.125157 0.578166
0.148856 0.131005 0.484130
0.466705 0.197558 0.483175
0.767246 0.357538 0.522384
0.912213 0.513872 0.555414
0.960570 0.645378 0.572885
0.976545 0.745939 0.582710
0.982310 0.818880 0.587915
0.093920 0.407345 0.552053
0.094626 0.380518 0.494377
0.125390 0.295900 0.339890
0.256620 0.230014 0.196221
0.618765 0.414370 0.306380
0.851806 0.579558 0.404141
0.946152 0.690932 0.469990
0.971363 0.789346 0.512203
0.980588 0.843847 0.543297
0.094140 0.704167 0.564113
0.098305 0.688484 0.532960
0.166222 0.646822 0.441132
0.386071 0.608724 0.330025
0.592030 0.603211 0.267930
0.808074 0.669492 0.311810
0.926107 0.765759 0.384496
0.964905 0.829819 0.444598
0.978166 0.877448 0.487129
0.097020 0.863702 0.551115
0.105905 0.857438 0.532263
0.207821 0.839146 0.478129
0.452483 0.817868 0.406843
0.653176 0.805549 0.349635
0.811435 0.810848 0.322972
0.915755 0.840363 0.348169
0.959882 0.880652 0.398970
0.976171 0.905319 0.448160
0.104264 0.922702 0.515904
0.118954 0.920922 0.505949
0.243624 0.915471 0.475703
0.484417 0.908492 0.432937
0.689289 0.902339 0.391761
0.829611 0.901151 0.367363
0.918246 0.906723 0.364187
0.956663 0.916909 0.383449
0.974417 0.930023 0.425620
0.116153 0.939993 0.473836
0.136146 0.939485 0.468909
0.270424 0.937893 0.453449
0.502308 0.935896 0.427682
0.703351 0.935256 0.403755
0.837233 0.935039 0.388771
0.920881 0.935423 0.386615
0.956816 0.937231 0.398155
0.972798 0.941454 0.421433
0.132798 0.953349 0.426069
0.160149 0.953101 0.423518
0.292999 0.952320 0.415470
0.506985 0.951267 0.404449
0.700934 0.950416 0.394756
0.835306 0.950251 0.390334
0.919948 0.951108 0.394353
0.956012 0.953104 0.407835
0.972129 0.956138 0.431020
0.093920 0.090432 0.908975
0.095169 0.090634 0.909248
0.323675 0.095960 0.910222
0.739507 0.176616 0.912000
0.919321 0.403189 0.908884
0.955906 0.524342 0.881887
0.972122 0.636899 0.858385
0.979740 0.727168 0.838178
0.983831 0.804719 0.821272
0.093920 0.092669 0.909171
0.095705 0.095038 0.909443
0.329139 0.119587 0.910416
0.741452 0.260442 0.912192
0.898814 0.414879 0.894054
0.949937 0.534918 0.871694
0.969802 0.643278 0.848974
0.979027 0.733815 0.830373
0.983463 0.808528 0.816059
0.093920 0.243079 0.900999
0.096534 0.247136 0.894508
0.250355 0.274290 0.878039
0.584370 0.341150 0.854452
0.812508 0.452628 0.835309
0.923759 0.565784 0.822075
0.962432 0.664946 0.813049
0.976737 0.756747 0.805821
0.982258 0.821807 0.799456
0.093920 0.411680 0.806258
0.094725 0.400720 0.791106
0.142069 0.377338 0.749356
0.398052 0.393094 0.707694
0.671629 0.487005 0.716515
0.864284 0.611746 0.741913
0.947475 0.703676 0.757199
0.971328 0.794471 0.761896
0.980429 0.844996 0.764885
0.094070 0.669598 0.785326
0.097099 0.658291 0.769553
0.151583 0.627905 0.730437
0.355779 0.587478 0.655311
0.546612 0.552686 0.582557
0.801638 0.666229 0.642604
0.924363 0.764820 0.692558
0.964201 0.829040 0.719572
0.977857 0.876706 0.737200
0.096206 0.843241 0.778918
0.103594 0.838099 0.769237
0.190433 0.822572 0.749583
0.427820 0.803318 0.703241
0.624726 0.790973 0.653660
0.790649 0.796913 0.623362
0.908718 0.832848 0.647386
0.958387 0.877520 0.683601
0.975760 0.903619 0.705589
0.102675 0.915603 0.762745
0.115546 0.914060 0.760159
0.223459 0.909281 0.748535
0.465255 0.902127 0.719041
0.668126 0.896078 0.689859
0.817713 0.895115 0.665121
0.910918 0.901412 0.653750
0.954657 0.914569 0.666649
0.973559 0.929157 0.688220
0.115031 0.937640 0.747071
0.131425 0.937192 0.743414
0.258039 0.935907 0.731567
0.486640 0.935228 0.714155
0.689285 0.934665 0.695998
0.829886 0.934491 0.681114
0.917689 0.934971 0.673028
0.955235 0.936279 0.673937
0.972256 0.941034 0.682376
0.129999 0.952010 0.713209
0.155577 0.951793 0.711360
0.283080 0.951111 0.705317
0.497440 0.950206 0.696307
0.692610 0.949522 0.686542
0.831230 0.949530 0.678727
0.918413 0.950578 0.675321
0.955296 0.952800 0.677286
0.971905 0.956094 0.684361
0.093920 0.091158 0.945270
0.095232 0.092270 0.945326
0.324315 0.109053 0.945525
0.739736 0.222085 0.945891
0.924789 0.467827 0.946433
0.962292 0.599746 0.938652
0.975149 0.672578 0.930978
0.980507 0.752175 0.921163
0.984081 0.814120 0.909142
0.093920 0.097877 0.945310
0.095775 0.105898 0.945365
0.329786 0.145358 0.945565
0.741680 0.304607 0.945930
0.922840 0.513431 0.945600
0.958294 0.608515 0.935449
0.972893 0.679181 0.929086
0.979788 0.758459 0.918227
0.983706 0.817689 0.906346
0.093920 0.317627 0.945453
0.097808 0.347413 0.945509
0.349712 0.433178 0.945708
0.680182 0.481966 0.938477
0.857912 0.548920 0.931830
0.939865 0.628607 0.924475
0.965638 0.700599 0.914658
0.977455 0.779390 0.905048
0.982471 0.830057 0.897207
0.093920 0.500035 0.923688
0.096169 0.498576 0.921008
0.190918 0.501742 0.911353
0.497981 0.529641 0.900061
0.751399 0.594066 0.892989
0.892865 0.658527 0.889671
0.952120 0.735284 0.887802
0.972594 0.804357 0.885904
0.980602 0.851466 0.883468
0.094049 0.665631 0.892472
0.096880 0.659322 0.888484
0.154581 0.643098 0.876333
0.400200 0.630937 0.852560
0.627118 0.645883 0.836371
0.823530 0.705548 0.842276
0.928255 0.785254 0.853089
0.964809 0.836201 0.860797
0.977887 0.879402 0.864934
0.095552 0.828238 0.884822
0.101876 0.824313 0.881875
0.176665 0.812330 0.871006
0.413597 0.798066 0.848099
0.609613 0.782867 0.818167
0.769297 0.777623 0.790873
0.906349 0.832850 0.816048
0.957781 0.878230 0.833339
0.975587 0.904046 0.844802
0.101256 0.909011 0.879352
0.112443 0.907751 0.877476
0.210139 0.903094 0.869269
0.448852 0.896544 0.854034
0.651813 0.891185 0.835483
0.806551 0.890030 0.818251
0.903554 0.896460 0.810445
0.952956 0.913020 0.818331
0.972899 0.928758 0.829449
0.112444 0.935723 0.869052
0.126712 0.935589 0.867185
0.245705 0.935167 0.861024
0.472646 0.934594 0.851615
0.675583 0.933557 0.840056
0.822711 0.933350 0.828509
0.913214 0.934562 0.821359
0.953629 0.935781 0.819882
0.971747 0.940774 0.824224
0.126985 0.950604 0.851600
0.151301 0.950425 0.850574
0.274527 0.949866 0.847167
0.487187 0.949144 0.840983
0.683912 0.948665 0.833446
0.827017 0.948874 0.826925
0.916180 0.950124 0.822900
0.954568 0.952580 0.822168
0.971688 0.956151 0.824606
0.093920 0.095184 0.961409
0.095311 0.099065 0.961420
0.325130 0.132012 0.961459
0.740026 0.286782 0.961532
0.924845 0.507230 0.961640
0.966726 0.652939 0.960330
0.976707 0.716631 0.952981
0.981250 0.783739 0.945835
0.984494 0.827552 0.939912
0.093920 0.117264 0.961417
0.095863 0.126815 0.961428
0.330609 0.196628 0.961467
0.741970 0.373481 0.961540
0.925217 0.567025 0.961648
0.963634 0.660853 0.958302
0.975707 0.723299 0.951054
0.980724 0.789055 0.944494
0.984119 0.830912 0.938889
0.093920 0.382935 0.961445
0.097892 0.403267 0.961456
0.350546 0.481096 0.961496
0.748104 0.597242 0.961536
0.894329 0.635658 0.957092
0.949719 0.684531 0.950753
0.969256 0.744692 0.944872
0.978474 0.801467 0.939741
0.982877 0.842479 0.935508
0.093920 0.612899 0.953859
0.098094 0.614125 0.952924
0.247347 0.620455 0.950026
0.576496 0.637303 0.946056
0.803206 0.669482 0.941896
0.916427 0.718400 0.938215
0.958389 0.778440 0.935192
0.974760 0.821966 0.932757
0.980970 0.862643 0.931144
0.094086 0.700215 0.936671
0.097583 0.698225 0.935773
0.177143 0.694480 0.933034
0.454919 0.698357 0.930590
0.699076 0.720715 0.926913
0.856147 0.765216 0.924343
0.939955 0.810374 0.923616
0.966622 0.850928 0.923250
0.978258 0.884695 0.922444
0.095297 0.824548 0.930576
0.101210 0.822116 0.929996
0.173989 0.814881 0.925310
0.419374 0.806689 0.917083
0.632342 0.804273 0.906044
0.806478 0.817296 0.900414
0.915412 0.850206 0.902607
0.959145 0.884171 0.906808
0.975748 0.907203 0.909709
0.100118 0.903628 0.926531
0.109671 0.902455 0.925354
0.200138 0.898773 0.921455
0.437530 0.893825 0.914047
0.642635 0.889774 0.904150
0.800853 0.888726 0.894992
0.895766 0.892175 0.887997
0.952399 0.913616 0.895147
0.972691 0.929226 0.900022
0.110088 0.934975 0.920989
0.123775 0.934869 0.920243
0.230170 0.934537 0.917399
0.461517 0.933462 0.911771
0.663915 0.932614 0.905280
0.816701 0.932581 0.899284
0.909233 0.933885 0.895054
0.952094 0.935543 0.893783
0.971332 0.940762 0.896226
0.124236 0.949269 0.911851
0.147035 0.949132 0.911230
0.265971 0.948711 0.909151
0.477543 0.948197 0.905882
0.675539 0.947949 0.902108
0.823033 0.948375 0.898664
0.914007 0.949826 0.896299
0.953894 0.952501 0.895500
0.971506 0.956346 0.896281
0.093920 0.114864 0.970210
0.095407 0.122820 0.970225
0.326125 0.188928 0.970279
0.740381 0.366835 0.970379
0.924913 0.561589 0.970527
0.969967 0.707318 0.969845
0.978009 0.762212 0.964343
0.981975 0.807045 0.960909
0.984704 0.843121 0.956715
0.093920 0.161430 0.970221
0.095970 0.181728 0.970236
0.331615 0.277709 0.970290
0.742324 0.442422 0.970390
0.925285 0.613799 0.970538
0.967159 0.716178 0.968425
0.977072 0.769251 0.963236
0.981467 0.810662 0.960447
0.984556 0.846370 0.956003
0.093920 0.451705 0.970260
0.098017 0.470479 0.970275
0.351566 0.532317 0.970329
0.749258 0.632634 0.970429
0.914086 0.700519 0.968324
0.956977 0.741888 0.963902
0.972614 0.789575 0.961011
0.979541 0.822745 0.957385
0.983361 0.857565 0.953253
0.093988 0.688240 0.967102
0.101389 0.690068 0.966634
0.304312 0.697458 0.965101
0.634745 0.713452 0.962608
0.837779 0.739941 0.961066
0.929415 0.777839 0.958435
0.962811 0.810050 0.955235
0.976137 0.842489 0.951644
0.981453 0.875310 0.948348
0.094159 0.757410 0.957410
0.099497 0.757611 0.956969
0.206516 0.759926 0.955560
0.512072 0.769160 0.953123
0.752020 0.788505 0.950332
0.884681 0.809723 0.947925
0.947370 0.837663 0.945975
0.968997 0.870014 0.944305
0.978849 0.891947 0.942609
0.095447 0.835443 0.947738
0.101748 0.834446 0.947194
0.183403 0.831881 0.945434
0.442951 0.830708 0.942749
0.671243 0.835509 0.940027
0.833858 0.850242 0.938184
0.925283 0.874271 0.937421
0.961547 0.893542 0.937231
0.976195 0.911852 0.937043
0.099490 0.901681 0.942853
0.108246 0.900932 0.942364
0.196126 0.898638 0.940734
0.435759 0.895823 0.938195
0.647524 0.894350 0.935310
0.809574 0.896516 0.932885
0.908634 0.905363 0.932082
0.954499 0.918809 0.932429
0.973152 0.930719 0.932979
0.108241 0.934318 0.939628
0.122098 0.934134 0.939293
0.222679 0.933560 0.938165
0.453245 0.932821 0.936368
0.656417 0.932335 0.934235
0.813541 0.932572 0.932432
0.907274 0.933923 0.931284
0.950705 0.935392 0.930621
0.971184 0.941238 0.931521
0.123457 0.948146 0.936183
0.143072 0.948052 0.935981
0.258237 0.947776 0.935301
0.470244 0.947483 0.934218
0.668204 0.947483 0.932972
0.819671 0.948138 0.932127
0.912233 0.949775 0.931512
0.953345 0.952623 0.931265
0.971383 0.956718 0.931434
0.093920 0.166532 0.976529
0.095519 0.186324 0.976532
0.327308 0.283062 0.976542
0.740803 0.448023 0.976561
0.924993 0.616466 0.976588
0.971782 0.756502 0.976625
0.978968 0.799269 0.973418
0.982570 0.828675 0.968686
0.984860 0.859527 0.964677
0.093920 0.246460 0.976531
0.096096 0.274857 0.976534
0.332811 0.369472 0.976544
0.742744 0.503105 0.976563
0.925365 0.650834 0.976590
0.969469 0.767637 0.976205
0.978098 0.802869 0.972502
0.982087 0.832238 0.967981
0.984725 0.862720 0.964158
0.093920 0.511463 0.976539
0.098249 0.530353 0.976541
0.352777 0.595271 0.976552
0.749674 0.669819 0.976570
0.923562 0.759986 0.976430
0.961057 0.792887 0.973503
0.975237 0.816551 0.969370
0.980469 0.844103 0.965645
0.983818 0.873084 0.962330
0.094058 0.758672 0.976165
0.103974 0.760509 0.975877
0.341334 0.767441 0.974912
0.675722 0.780537 0.973375
0.862184 0.797595 0.970522
0.941872 0.814513 0.967523
0.966001 0.837247 0.964654
0.977168 0.863541 0.962128
0.981938 0.885034 0.960808
0.094236 0.806324 0.967262
0.101953 0.806882 0.966984
0.234010 0.809316 0.966061
0.553485 0.815160 0.964612
0.782032 0.826010 0.962748
0.905081 0.842412 0.961654
0.953041 0.864193 0.960667
0.971331 0.883773 0.959042
0.979491 0.900141 0.957122
0.095926 0.856901 0.961076
0.103135 0.856793 0.960936
0.198647 0.856992 0.960477
0.471327 0.859362 0.959217
0.711849 0.866420 0.957573
0.856102 0.877445 0.956091
0.935666 0.889505 0.954902
0.963981 0.904006 0.953662
0.976755 0.917536 0.952489
0.099500 0.904654 0.956603
0.108354 0.904314 0.956341
0.198140 0.903384 0.955471
0.443799 0.902728 0.953897
0.662115 0.903836 0.951865
0.823853 0.908042 0.950109
0.918684 0.915306 0.949000
0.957546 0.925871 0.948520
0.974030 0.932618 0.948284
0.107126 0.933814 0.953211
0.120439 0.933705 0.952949
0.218296 0.933381 0.952065
0.449120 0.933031 0.950645
0.655422 0.933006 0.948948
0.814934 0.933718 0.947306
0.909948 0.934957 0.946070
0.952948 0.937049 0.945600
0.971557 0.942558 0.945812
0.122130 0.947372 0.949919
0.139786 0.947322 0.949754
0.251887 0.947190 0.949195
0.464344 0.947122 0.948297
0.662610 0.947380 0.947221
0.817366 0.948275 0.946183
0.911199 0.950096 0.945397
0.953063 0.953062 0.945041
0.971343 0.957296 0.945236
