kodachrome64/Kodachrome64_Classic_IlfochromeM.cube
TITLE "Kodachrome 64 Classic IlfochromeM"
# Adobe RGB in/out. REPLACES AgX. Kodachrome 64 Classic IlfochromeM.
LUT_3D_SIZE 5
DOMAIN_MIN 0.0 0.0 0.0
DOMAIN_MAX 1.0 1.0 1.0
0.117094 0.082435 0.080060
0.260523 0.138125 0.096883
0.483876 0.261127 0.129015
0.694839 0.386094 0.169007
0.826321 0.505841 0.223430
0.130304 0.223137 0.093333
0.266858 0.252072 0.105101
0.486454 0.331188 0.133877
0.696129 0.432423 0.173712
0.826735 0.536613 0.226770
0.165378 0.437870 0.119322
0.287721 0.449824 0.126891
0.495555 0.489466 0.149145
0.700725 0.552197 0.189765
0.828217 0.630044 0.238850
0.219618 0.632459 0.150024
0.322365 0.639550 0.155626
0.511697 0.664137 0.178233
0.709036 0.706245 0.214599
0.830911 0.750241 0.259922
0.286904 0.790340 0.193433
0.362763 0.793557 0.198846
0.534552 0.804772 0.216922
0.720837 0.821958 0.248002
0.834866 0.845560 0.287270
0.118229 0.094330 0.245850
0.260580 0.143640 0.250381
0.483899 0.264657 0.265368
0.694850 0.388276 0.290295
0.826324 0.507245 0.322838
0.130411 0.227486 0.249158
0.266913 0.255800 0.253456
0.486476 0.334026 0.268222
0.696140 0.434174 0.292820
0.826739 0.537892 0.325055
0.165459 0.439590 0.260070
0.287768 0.451480 0.264164
0.495577 0.490936 0.278191
0.700736 0.553424 0.301673
0.828220 0.631060 0.332871
0.219682 0.633470 0.278757
0.322407 0.640545 0.282504
0.511718 0.665079 0.295292
0.709047 0.707108 0.317061
0.830914 0.750803 0.346756
0.286951 0.790797 0.303784
0.362796 0.794010 0.307081
0.534572 0.805152 0.318580
0.720847 0.822314 0.338634
0.834870 0.845783 0.366559
0.118666 0.123502 0.483494
0.260783 0.164711 0.485200
0.483980 0.277108 0.491264
0.694891 0.395993 0.502063
0.826337 0.512243 0.517615
0.130790 0.242382 0.484719
0.267109 0.268523 0.486420
0.486557 0.344009 0.492462
0.696181 0.440382 0.503214
0.826752 0.542451 0.518718
0.165750 0.445692 0.489086
0.287944 0.457360 0.490765
0.495656 0.496168 0.496695
0.700776 0.557802 0.507320
0.828233 0.634691 0.522654
0.219912 0.637081 0.496939
0.322561 0.644099 0.498566
0.511793 0.668448 0.504349
0.709086 0.710194 0.514754
0.830927 0.752814 0.529789
0.287121 0.792435 0.508322
0.362917 0.795630 0.509898
0.534643 0.806513 0.515504
0.720884 0.823589 0.525602
0.834882 0.846581 0.540217
0.119132 0.161847 0.698825
0.261157 0.201539 0.699807
0.484131 0.298511 0.703315
0.694966 0.409729 0.709705
0.826361 0.521263 0.719110
0.131460 0.266953 0.699530
0.267470 0.290765 0.700509
0.486706 0.359580 0.704013
0.696255 0.451492 0.710393
0.826776 0.550699 0.719785
0.166281 0.456621 0.702051
0.288273 0.467908 0.703025
0.495801 0.505595 0.706511
0.700850 0.565731 0.712859
0.828257 0.641296 0.722204
0.220333 0.643650 0.706655
0.322843 0.650567 0.707621
0.511931 0.674584 0.711073
0.709158 0.715438 0.717363
0.830951 0.756482 0.726625
0.287433 0.795425 0.713463
0.363138 0.798590 0.714415
0.534773 0.808999 0.717820
0.720950 0.825919 0.724025
0.834905 0.848041 0.733165
0.119774 0.215015 0.840153
0.261714 0.245013 0.840409
0.484355 0.326197 0.841324
0.695078 0.429224 0.842994
0.826397 0.534284 0.845461
0.132404 0.299570 0.840337
0.268009 0.319681 0.840592
0.486929 0.380113 0.841506
0.696367 0.467424 0.843174
0.826812 0.562714 0.845639
0.167066 0.472311 0.840994
0.288765 0.483086 0.841248
0.496018 0.519250 0.842158
0.700960 0.577302 0.843820
0.828293 0.650996 0.846275
0.220961 0.653301 0.842196
0.323264 0.660073 0.842448
0.512139 0.683616 0.843352
0.709266 0.721578 0.845002
0.830986 0.761895 0.847441
0.287903 0.799845 0.843978
0.363469 0.802966 0.844228
0.534967 0.812673 0.845122
0.721050 0.829367 0.846755
0.834940 0.850201 0.849169
