kodachrome64/Kodachrome64_Modern_ExtraPunchy.cube
TITLE "Kodachrome 64 Modern ExtraPunchy"
# Adobe RGB in/out. REPLACES AgX. Kodachrome 64 Modern ExtraPunchy.
LUT_3D_SIZE 9
DOMAIN_MIN 0.0 0.0 0.0
DOMAIN_MAX 1.0 1.0 1.0
0.078962 0.074438 0.068230
0.079320 0.074438 0.068230
0.293035 0.074858 0.068230
0.684095 0.097400 0.068230
0.885582 0.247810 0.068424
0.954914 0.463366 0.068673
0.974638 0.619455 0.069584
0.981979 0.734030 0.072097
0.984832 0.810521 0.077405
0.078962 0.074448 0.068230
0.078962 0.074438 0.068230
0.161359 0.075412 0.068230
0.609160 0.104486 0.068230
0.857147 0.274615 0.068394
0.949275 0.477418 0.068647
0.973400 0.629611 0.069440
0.981310 0.743502 0.071836
0.984639 0.815393 0.076953
0.078962 0.179919 0.068230
0.080059 0.128340 0.068230
0.122887 0.099959 0.068230
0.464991 0.163713 0.068230
0.783766 0.364862 0.068342
0.928492 0.535084 0.068582
0.966818 0.664620 0.069125
0.979084 0.776331 0.071448
0.984010 0.832295 0.075806
0.078998 0.589961 0.068230
0.083207 0.540517 0.068230
0.175907 0.453638 0.068230
0.437374 0.409472 0.068230
0.709239 0.490355 0.068327
0.891075 0.623497 0.068541
0.956793 0.729094 0.068957
0.975936 0.805256 0.070807
0.982926 0.861181 0.074341
0.079912 0.800672 0.068265
0.089031 0.790001 0.068267
0.212243 0.742112 0.068281
0.484910 0.695500 0.068322
0.698017 0.687221 0.068402
0.852420 0.732026 0.068550
0.944124 0.800106 0.068910
0.971269 0.852221 0.070427
0.980632 0.888381 0.073581
0.084077 0.897438 0.068406
0.098883 0.892699 0.068410
0.243475 0.878504 0.068427
0.512145 0.860871 0.068466
0.726528 0.846775 0.068539
0.851105 0.849024 0.068652
0.931544 0.867026 0.068997
0.965953 0.894089 0.070520
0.978317 0.916833 0.073461
0.092353 0.933601 0.068551
0.110744 0.932634 0.068556
0.264154 0.928936 0.068574
0.522839 0.924134 0.068615
0.736755 0.920159 0.068687
0.854512 0.918324 0.068931
0.931019 0.921357 0.069521
0.961859 0.925867 0.071087
0.976581 0.933921 0.073921
0.104994 0.947167 0.068689
0.129727 0.946566 0.068695
0.283104 0.944621 0.068729
0.523448 0.942001 0.068850
0.734858 0.939756 0.069041
0.852988 0.938766 0.069510
0.930269 0.939481 0.070591
0.960961 0.941910 0.072237
0.975333 0.945763 0.075693
0.121822 0.959778 0.068988
0.153058 0.959467 0.069008
0.298979 0.958485 0.069080
0.517796 0.957140 0.069252
0.720140 0.955976 0.069698
0.846927 0.955521 0.070543
0.927188 0.956120 0.071652
0.959165 0.957885 0.073835
0.974479 0.960474 0.078556
0.078962 0.074438 0.068676
0.080016 0.074438 0.068704
0.293038 0.074933 0.068874
0.661343 0.095187 0.069085
0.873083 0.231457 0.069928
0.951985 0.453511 0.071669
0.973953 0.612612 0.075122
0.981623 0.728274 0.081783
0.984729 0.807956 0.092638
0.078962 0.074438 0.068425
0.078962 0.074438 0.068230
0.143606 0.075141 0.068479
0.580806 0.100465 0.068706
0.846465 0.255866 0.069415
0.945695 0.466788 0.071339
0.972311 0.622518 0.074188
0.980922 0.737632 0.080777
0.984537 0.812813 0.091409
0.078962 0.147622 0.068684
0.079245 0.105456 0.068522
0.105539 0.088540 0.068367
0.425904 0.139758 0.068507
0.769404 0.332426 0.068812
0.923638 0.518099 0.069956
0.965577 0.656465 0.072657
0.978701 0.770140 0.078141
0.983910 0.829688 0.087653
0.078964 0.554558 0.068832
0.082191 0.502165 0.068686
0.155836 0.408514 0.068562
0.407102 0.378941 0.068528
0.682615 0.471988 0.068655
0.881630 0.612161 0.069249
0.955383 0.720314 0.071495
0.975491 0.802015 0.075540
0.982743 0.858649 0.083857
0.079628 0.792560 0.069012
0.087787 0.781471 0.068932
0.201896 0.725506 0.068752
0.467793 0.679099 0.068690
0.679167 0.672356 0.068744
0.847142 0.721267 0.069119
0.942153 0.796394 0.070891
0.970577 0.848834 0.073901
0.980417 0.887052 0.081327
0.083645 0.893750 0.069302
0.097607 0.889065 0.069229
0.236230 0.874259 0.069119
0.503846 0.854836 0.069078
0.715457 0.840999 0.069158
0.847384 0.843926 0.069648
0.930482 0.864501 0.070970
0.965427 0.892530 0.073672
0.978149 0.915964 0.080217
0.091774 0.932832 0.069818
0.109404 0.931774 0.069798
0.259659 0.927965 0.069763
0.518122 0.923192 0.069805
0.732607 0.918578 0.070054
0.852259 0.916874 0.070858
0.930294 0.920454 0.071943
0.961454 0.925391 0.074314
0.976469 0.933668 0.080811
0.104314 0.946678 0.070550
0.128605 0.946070 0.070567
0.277539 0.944135 0.070653
0.520802 0.941540 0.070890
0.731962 0.939324 0.071371
0.851824 0.938481 0.072055
0.929872 0.939150 0.073619
0.960714 0.941659 0.077019
0.975252 0.945600 0.083033
0.121337 0.959515 0.071311
0.152201 0.959208 0.071355
0.297547 0.958238 0.071520
0.516410 0.956912 0.071636
0.718444 0.955772 0.072410
0.846365 0.955347 0.073553
0.926874 0.955985 0.076015
0.959063 0.957798 0.080185
0.974453 0.960455 0.087018
0.078962 0.074438 0.254789
0.080031 0.074438 0.259921
0.313338 0.075477 0.278846
0.697301 0.103531 0.253232
0.871027 0.240179 0.213155
0.949335 0.449350 0.209177
0.972843 0.605676 0.218475
0.980937 0.719888 0.234950
0.984514 0.803390 0.257097
0.078962 0.074604 0.258465
0.080206 0.075036 0.241843
0.215671 0.077714 0.170524
0.600302 0.107805 0.162687
0.842585 0.257603 0.171048
0.942148 0.460302 0.184954
0.970522 0.614571 0.202807
0.980220 0.728757 0.223939
0.984320 0.808089 0.248189
0.078962 0.102575 0.120982
0.079093 0.090503 0.090860
0.088051 0.077584 0.071422
0.386819 0.124671 0.082799
0.747438 0.306535 0.106008
0.914170 0.499050 0.132260
0.963137 0.645225 0.162269
0.977950 0.759488 0.192791
0.983689 0.824545 0.223628
0.078962 0.476281 0.143511
0.080714 0.441901 0.117343
0.124300 0.338055 0.086341
0.324255 0.294622 0.077090
0.640179 0.432351 0.083302
0.862994 0.590071 0.101520
0.951529 0.703521 0.125591
0.974509 0.796273 0.157883
0.982310 0.853113 0.193081
0.079244 0.761633 0.146310
0.085416 0.740767 0.132922
0.177386 0.687101 0.107263
0.428887 0.642848 0.089656
0.640640 0.638504 0.084531
0.832205 0.696275 0.090652
0.933934 0.787791 0.108566
0.968862 0.840849 0.133944
0.979865 0.883815 0.167665
0.082573 0.883717 0.139774
0.094236 0.878431 0.133309
0.213621 0.863154 0.114953
0.479884 0.839350 0.104050
0.686504 0.825834 0.096230
0.836163 0.830313 0.095699
0.926602 0.856276 0.104015
0.963746 0.888426 0.122700
0.977683 0.913654 0.152645
0.090457 0.930095 0.131482
0.107653 0.928883 0.128446
0.247040 0.925201 0.118795
0.504845 0.920266 0.110293
0.715218 0.914160 0.107245
0.846063 0.912776 0.106659
0.927549 0.916962 0.109734
0.960284 0.924057 0.121149
0.976139 0.932954 0.148075
0.102642 0.945140 0.122948
0.125208 0.944543 0.121476
0.269804 0.942676 0.117143
0.512872 0.940171 0.113354
0.721972 0.938366 0.111567
0.848321 0.938070 0.112671
0.928347 0.938408 0.118777
0.959956 0.940911 0.132168
0.975004 0.945116 0.151704
0.119799 0.958688 0.114429
0.149520 0.958395 0.114206
0.293051 0.957467 0.113634
0.512054 0.956205 0.113352
0.713138 0.955145 0.114325
0.844606 0.954817 0.118677
0.925887 0.955575 0.127996
0.958741 0.957536 0.141553
0.974371 0.960401 0.162331
0.078962 0.074438 0.773139
0.080060 0.074453 0.773834
0.313673 0.076648 0.776318
0.743054 0.133030 0.783258
0.896019 0.299576 0.737063
0.952274 0.471161 0.683682
0.972946 0.613483 0.655531
0.980669 0.721603 0.636523
0.984372 0.802554 0.627426
0.078962 0.075095 0.773638
0.080544 0.076209 0.774332
0.319465 0.092951 0.776811
0.693409 0.168878 0.749586
0.863675 0.314712 0.686758
0.945086 0.480196 0.654624
0.970490 0.621176 0.634288
0.979920 0.729627 0.624905
0.984172 0.806727 0.619678
0.078962 0.115722 0.623048
0.079213 0.110891 0.584518
0.133002 0.116523 0.486475
0.467408 0.186843 0.485430
0.768970 0.356950 0.527652
0.916005 0.514340 0.559516
0.962489 0.647375 0.578707
0.977538 0.757527 0.589523
0.983522 0.822276 0.595259
0.078962 0.406463 0.555830
0.079606 0.379756 0.497698
0.110413 0.290687 0.337928
0.244136 0.220394 0.186045
0.624450 0.414074 0.305583
0.854363 0.583774 0.406148
0.948983 0.697106 0.471023
0.973784 0.793284 0.517270
0.981932 0.849516 0.547414
0.079163 0.711607 0.569065
0.082971 0.694425 0.537652
0.151507 0.648947 0.441878
0.380453 0.607578 0.329011
0.595228 0.601812 0.263179
0.813471 0.673665 0.311486
0.930472 0.779392 0.384701
0.967204 0.834202 0.444941
0.979299 0.880495 0.489757
0.081794 0.868238 0.554802
0.090661 0.863518 0.536993
0.194202 0.844382 0.479911
0.451971 0.821174 0.409106
0.653344 0.807760 0.346884
0.817143 0.813527 0.322621
0.919866 0.845710 0.345393
0.961742 0.883984 0.400494
0.977132 0.910885 0.448087
0.088777 0.926051 0.521342
0.102842 0.924939 0.510396
0.230752 0.921530 0.477260
0.486690 0.914350 0.434622
0.692633 0.907632 0.392622
0.837023 0.906335 0.366075
0.922582 0.912418 0.362632
0.958763 0.922430 0.383561
0.975642 0.932064 0.428130
0.100218 0.942910 0.475221
0.120726 0.942358 0.469843
0.258416 0.940625 0.453000
0.501767 0.938452 0.429961
0.707979 0.937756 0.405727
0.843436 0.937519 0.389361
0.925455 0.937937 0.387010
0.958880 0.939905 0.399604
0.974657 0.944500 0.424410
0.117508 0.957456 0.428529
0.145508 0.957186 0.426263
0.281900 0.956334 0.418559
0.505583 0.955187 0.406486
0.705340 0.954260 0.395890
0.842021 0.954080 0.391065
0.924437 0.955014 0.395451
0.958264 0.957189 0.410191
0.974250 0.960342 0.432922
0.078962 0.074471 0.916426
0.080102 0.074652 0.916725
0.314175 0.079669 0.917794
0.743179 0.162974 0.919747
0.923753 0.401967 0.916325
0.958184 0.525721 0.886727
0.974246 0.638152 0.867995
0.981010 0.736864 0.848275
0.984373 0.806857 0.829660
0.078962 0.076713 0.916640
0.080592 0.078840 0.916939
0.319969 0.103710 0.918007
0.744619 0.252284 0.919958
0.901415 0.414626 0.900056
0.953102 0.537237 0.876787
0.972532 0.645091 0.860179
0.980235 0.744175 0.839677
0.984167 0.811002 0.823928
0.078962 0.234076 0.907673
0.081350 0.238332 0.900554
0.237676 0.267098 0.882515
0.586877 0.339229 0.865387
0.818316 0.453559 0.845113
0.928593 0.570955 0.830544
0.964514 0.668702 0.820619
0.977746 0.769443 0.812678
0.983493 0.825466 0.805691
0.078962 0.411159 0.813158
0.079697 0.399296 0.798533
0.126435 0.376778 0.762092
0.393283 0.391521 0.716072
0.673397 0.485227 0.725797
0.867952 0.610851 0.753853
0.950423 0.711068 0.770781
0.973762 0.796208 0.775989
0.981759 0.850772 0.779304
0.079099 0.673780 0.794393
0.081866 0.661443 0.783052
0.136004 0.628379 0.741165
0.348168 0.589833 0.664439
0.545846 0.556627 0.589354
0.806443 0.670102 0.654417
0.929249 0.778355 0.699412
0.966439 0.833353 0.729169
0.978964 0.879687 0.748640
0.081050 0.848855 0.789794
0.087985 0.843239 0.782824
0.175601 0.826300 0.762343
0.425300 0.805333 0.711167
0.630017 0.794214 0.663139
0.794455 0.798367 0.634441
0.912198 0.837507 0.658194
0.960117 0.880574 0.689568
0.976685 0.909029 0.713753
0.086980 0.921613 0.776930
0.099649 0.920433 0.774063
0.210106 0.915212 0.761182
0.465832 0.907401 0.728583
0.669587 0.900800 0.696444
0.824005 0.899749 0.672145
0.914595 0.906621 0.663210
0.957227 0.920965 0.673344
0.975120 0.931123 0.694643
0.099167 0.940350 0.759562
0.116191 0.939862 0.755514
0.245601 0.938464 0.742414
0.488934 0.937725 0.723194
0.692629 0.937112 0.703196
0.837324 0.936924 0.686837
0.921974 0.937446 0.678339
0.957669 0.938868 0.679050
0.974327 0.944044 0.688223
0.114823 0.955997 0.722151
0.140738 0.955760 0.720112
0.271562 0.955017 0.713454
0.497788 0.954031 0.703535
0.696255 0.953286 0.692799
0.838796 0.953295 0.684216
0.922764 0.954436 0.680479
0.957716 0.956857 0.682634
0.974114 0.960315 0.690403
0.078962 0.075120 0.947612
0.080160 0.076271 0.947673
0.314854 0.093295 0.947891
0.743349 0.212149 0.948290
0.929548 0.466340 0.948882
0.964362 0.599181 0.940391
0.976087 0.677035 0.932023
0.981844 0.764401 0.926512
0.984512 0.817090 0.916608
0.078962 0.082323 0.947656
0.080656 0.090369 0.947717
0.320652 0.131515 0.947934
0.744788 0.299981 0.948333
0.927591 0.513861 0.947972
0.960015 0.607351 0.936898
0.974715 0.684250 0.930400
0.981062 0.771333 0.925066
0.984303 0.820979 0.913540
0.078962 0.313921 0.947812
0.082515 0.345992 0.947873
0.341730 0.434503 0.948090
0.682708 0.479782 0.940201
0.861011 0.552513 0.932951
0.942144 0.629141 0.928139
0.968001 0.707696 0.922666
0.978527 0.787580 0.912115
0.983612 0.834462 0.903514
0.078962 0.499329 0.927753
0.081016 0.497749 0.926435
0.176087 0.501180 0.919036
0.498230 0.531489 0.906644
0.751967 0.594859 0.898889
0.896640 0.661701 0.895253
0.955283 0.745792 0.893205
0.974533 0.806463 0.891126
0.981947 0.857843 0.888459
0.079080 0.669449 0.898322
0.081666 0.662567 0.893953
0.139553 0.644895 0.880648
0.395586 0.631673 0.864131
0.631927 0.647926 0.846284
0.830368 0.713121 0.852792
0.931978 0.790943 0.864483
0.967100 0.841167 0.869592
0.978996 0.882623 0.872327
0.080452 0.832478 0.889941
0.086246 0.828198 0.886714
0.161865 0.815141 0.876334
0.409978 0.799621 0.859214
0.614434 0.789576 0.826246
0.771200 0.786564 0.798366
0.909618 0.837510 0.823915
0.959619 0.881347 0.842943
0.976496 0.909495 0.855578
0.085676 0.914917 0.883952
0.096749 0.913541 0.881899
0.196553 0.908456 0.875189
0.448036 0.901308 0.865110
0.651865 0.895464 0.845305
0.811807 0.894204 0.826338
0.906575 0.901217 0.817757
0.955924 0.919296 0.826426
0.974719 0.930689 0.838659
0.096750 0.938264 0.875046
0.111676 0.938118 0.873813
0.232891 0.937659 0.869742
0.473869 0.937036 0.863093
0.677701 0.935908 0.850345
0.829472 0.935683 0.837625
0.917097 0.937001 0.829757
0.956439 0.938327 0.828132
0.974018 0.943760 0.832908
0.111937 0.954465 0.863078
0.135671 0.954269 0.861945
0.262672 0.953661 0.858186
0.489384 0.952875 0.851367
0.686771 0.952352 0.843061
0.834184 0.952580 0.835881
0.920329 0.953941 0.831452
0.957158 0.956618 0.830647
0.973982 0.960350 0.833328
0.078962 0.078971 0.965241
0.080232 0.083408 0.965253
0.315718 0.117495 0.965296
0.743564 0.280845 0.965376
0.929587 0.507131 0.965494
0.969185 0.655610 0.964062
0.977713 0.725285 0.956032
0.982652 0.790075 0.948229
0.984744 0.831730 0.941766
0.078962 0.101449 0.965250
0.080736 0.112485 0.965262
0.321521 0.185888 0.965305
0.745002 0.373163 0.965384
0.929848 0.572315 0.965502
0.965822 0.664236 0.961846
0.976627 0.732610 0.953927
0.982080 0.793118 0.946766
0.984534 0.835394 0.940650
0.078962 0.382019 0.965281
0.082592 0.402051 0.965293
0.342615 0.478842 0.965336
0.749535 0.597277 0.965380
0.897787 0.636803 0.960523
0.952865 0.690101 0.953599
0.971937 0.756153 0.947178
0.979634 0.803320 0.941579
0.983839 0.848022 0.936962
0.078962 0.612100 0.956991
0.082777 0.613429 0.955970
0.234580 0.620293 0.952804
0.578301 0.638591 0.948471
0.808154 0.673654 0.943930
0.920599 0.727228 0.939915
0.960119 0.787034 0.936617
0.975851 0.825639 0.933962
0.982347 0.867440 0.932204
0.079113 0.707275 0.938231
0.082309 0.705093 0.937251
0.162341 0.700991 0.934264
0.454613 0.705238 0.931600
0.703311 0.729771 0.929336
0.859089 0.778792 0.928074
0.942241 0.813012 0.927717
0.969072 0.857254 0.927537
0.979400 0.888389 0.927141
0.080219 0.828454 0.931585
0.085634 0.825803 0.930952
0.159206 0.817919 0.928549
0.416196 0.809001 0.924502
0.636093 0.806372 0.913208
0.811728 0.820550 0.907031
0.919492 0.856466 0.909437
0.960941 0.887819 0.914046
0.976672 0.912942 0.917231
0.084631 0.909039 0.929148
0.094164 0.907759 0.928571
0.186101 0.903740 0.926655
0.435786 0.898343 0.921995
0.644283 0.893925 0.911129
0.805586 0.892783 0.901085
0.898911 0.896543 0.893419
0.955497 0.919948 0.901254
0.974592 0.931197 0.906601
0.094552 0.937450 0.926426
0.108501 0.937335 0.926059
0.216960 0.936973 0.924658
0.461773 0.935804 0.919496
0.665009 0.934881 0.912369
0.822899 0.934846 0.905791
0.912758 0.936264 0.901152
0.955263 0.938068 0.899760
0.973765 0.943747 0.902438
0.109110 0.953010 0.919583
0.131238 0.952861 0.918901
0.253803 0.952402 0.916618
0.479200 0.951843 0.913030
0.677653 0.951573 0.908889
0.829824 0.952037 0.905111
0.917960 0.953617 0.902518
0.956642 0.956532 0.901642
0.973871 0.960471 0.902498
0.078962 0.099199 0.974541
0.080320 0.108273 0.974547
0.316775 0.178001 0.974569
0.743827 0.366929 0.974611
0.929635 0.566363 0.974672
0.972711 0.715063 0.974389
0.979129 0.775475 0.968449
0.983334 0.809388 0.964695
0.984957 0.848723 0.960111
0.078962 0.147363 0.974545
0.080834 0.169586 0.974551
0.322583 0.270853 0.974574
0.745264 0.444573 0.974615
0.929896 0.613076 0.974677
0.969656 0.724787 0.972913
0.978110 0.781739 0.967239
0.982888 0.813325 0.964190
0.984797 0.852273 0.959333
0.078962 0.452780 0.974561
0.082706 0.468563 0.974568
0.343697 0.534403 0.974590
0.750387 0.633516 0.974631
0.918046 0.707608 0.972803
0.959003 0.753063 0.967967
0.974545 0.793415 0.964807
0.980794 0.826488 0.960843
0.984110 0.863614 0.956329
0.079025 0.694159 0.971466
0.085798 0.696160 0.970954
0.293728 0.704253 0.969277
0.638007 0.721794 0.966552
0.843837 0.750919 0.964867
0.932791 0.786689 0.961990
0.964926 0.812659 0.958495
0.977094 0.848033 0.954572
0.982873 0.878167 0.950973
0.079181 0.770175 0.960871
0.084062 0.770397 0.960389
0.192880 0.772952 0.958849
0.509726 0.781686 0.956187
0.752425 0.792803 0.953139
0.890202 0.812303 0.950510
0.950309 0.842763 0.948382
0.971655 0.872985 0.946559
0.980042 0.896295 0.944708
0.080356 0.840340 0.950306
0.086128 0.839251 0.949712
0.168577 0.836452 0.947792
0.441649 0.835173 0.944861
0.672978 0.840411 0.941891
0.840958 0.856504 0.939881
0.929894 0.877036 0.939048
0.963552 0.898034 0.938841
0.977158 0.918021 0.938636
0.084056 0.906914 0.944974
0.092837 0.906097 0.944441
0.181665 0.903593 0.942662
0.433872 0.900521 0.939893
0.648163 0.898915 0.936746
0.815110 0.901278 0.934102
0.912107 0.910933 0.933226
0.957106 0.923618 0.933605
0.974872 0.932821 0.934204
0.092832 0.936735 0.941455
0.106293 0.936535 0.941090
0.209310 0.935911 0.939860
0.452797 0.935107 0.937900
0.656863 0.934579 0.935573
0.819444 0.934836 0.933608
0.910626 0.936305 0.932357
0.953938 0.937904 0.931634
0.973675 0.944265 0.932615
0.108081 0.951787 0.937698
0.127404 0.951685 0.937478
0.245806 0.951384 0.936737
0.471256 0.951065 0.935555
0.669672 0.951065 0.934197
0.826147 0.951779 0.933276
0.916028 0.953562 0.932605
0.956222 0.956665 0.932336
0.973796 0.960702 0.932520
0.078962 0.152423 0.977237
0.080422 0.175340 0.977240
0.318030 0.276744 0.977251
0.744138 0.449674 0.977271
0.929691 0.615966 0.977301
0.974039 0.769174 0.977342
0.980171 0.800928 0.975870
0.983667 0.832955 0.973198
0.985127 0.865093 0.968814
0.078962 0.237625 0.977240
0.080949 0.267720 0.977243
0.323845 0.369403 0.977254
0.745575 0.502657 0.977274
0.929952 0.653316 0.977304
0.972170 0.780806 0.977023
0.979225 0.804844 0.975491
0.983397 0.836842 0.972427
0.984980 0.867498 0.968247
0.078962 0.511724 0.977247
0.082919 0.532264 0.977250
0.344982 0.595776 0.977261
0.750694 0.674021 0.977281
0.928379 0.773018 0.977129
0.963020 0.795306 0.975905
0.976140 0.819739 0.973947
0.981803 0.849796 0.969873
0.984366 0.875744 0.966248
0.079088 0.771568 0.977006
0.088434 0.773595 0.976888
0.332855 0.780692 0.976489
0.677851 0.788239 0.975852
0.865665 0.799109 0.974670
0.944327 0.817519 0.971926
0.968397 0.842308 0.968789
0.978214 0.868117 0.966027
0.983314 0.888759 0.964585
0.079250 0.808603 0.971641
0.086316 0.809210 0.971338
0.220889 0.811860 0.970327
0.553298 0.818224 0.968743
0.785064 0.830048 0.966706
0.908237 0.847948 0.965509
0.955989 0.868607 0.964430
0.973764 0.887384 0.962654
0.980739 0.905233 0.960556
0.080794 0.863113 0.964877
0.087443 0.863032 0.964725
0.184450 0.863181 0.964223
0.472434 0.864968 0.962845
0.717266 0.870283 0.961048
0.859040 0.880492 0.959430
0.937578 0.893632 0.958130
0.966199 0.909452 0.956776
0.977766 0.922823 0.955494
0.084065 0.910159 0.959989
0.092938 0.909788 0.959703
0.183890 0.908773 0.958752
0.442565 0.908057 0.957032
0.663052 0.909266 0.954813
0.830722 0.913858 0.952895
0.923059 0.921426 0.951684
0.959439 0.928028 0.951160
0.975406 0.934886 0.950903
0.091796 0.936187 0.956283
0.104236 0.936069 0.955997
0.204844 0.935716 0.955031
0.448327 0.935335 0.953481
0.655782 0.935308 0.951628
0.820967 0.936082 0.949835
0.913538 0.937430 0.948485
0.955918 0.939707 0.947972
0.973902 0.945702 0.948204
0.106336 0.950944 0.952688
0.124232 0.950890 0.952508
0.239254 0.950746 0.951898
0.464842 0.950671 0.950916
0.663590 0.950952 0.949742
0.823626 0.951928 0.948608
0.914900 0.953912 0.947751
0.956006 0.957142 0.947363
0.973771 0.961060 0.947575
