kodachrome64/Kodachrome64_Classic_Normal.cube
TITLE "Kodachrome 64 Classic Normal"
# Adobe RGB in/out. REPLACES AgX. Kodachrome 64 Classic Normal.
LUT_3D_SIZE 33
DOMAIN_MIN 0.0 0.0 0.0
DOMAIN_MAX 1.0 1.0 1.0
0.081099 0.084717 0.091118
0.081099 0.084717 0.091118
0.081099 0.084717 0.091118
0.081099 0.084717 0.091118
0.081099 0.084717 0.091118
0.081864 0.084717 0.091118
0.083668 0.084717 0.091118
0.086707 0.084717 0.091118
0.092837 0.084717 0.091118
0.106886 0.084783 0.091118
0.128946 0.085049 0.091118
0.173306 0.085634 0.091118
0.228273 0.086628 0.091118
0.285373 0.087896 0.091118
0.355903 0.089442 0.091118
0.452553 0.093900 0.091118
0.545072 0.098647 0.091118
0.624521 0.103297 0.091118
0.715801 0.110598 0.091118
0.771253 0.121367 0.091118
0.829156 0.139724 0.091118
0.869948 0.164140 0.091118
0.898194 0.193393 0.091145
0.918466 0.224156 0.091198
0.932513 0.264679 0.091274
0.944205 0.297963 0.091364
0.952787 0.340547 0.091451
0.960926 0.378946 0.091551
0.967319 0.422204 0.091718
0.972837 0.470364 0.091803
0.977957 0.514512 0.092064
0.981219 0.558651 0.092316
0.983059 0.602675 0.092605
0.081099 0.084717 0.091118
0.081099 0.084717 0.091118
0.081099 0.084717 0.091118
0.081099 0.084717 0.091118
0.081099 0.084717 0.091118
0.081869 0.084717 0.091118
0.083671 0.084717 0.091118
0.086721 0.084717 0.091118
0.092865 0.084717 0.091118
0.106918 0.084808 0.091118
0.129003 0.085078 0.091118
0.173380 0.085704 0.091118
0.228340 0.086716 0.091118
0.285461 0.087999 0.091118
0.355985 0.089639 0.091118
0.452668 0.094171 0.091118
0.545149 0.098899 0.091118
0.624627 0.103619 0.091118
0.715869 0.110996 0.091118
0.771287 0.121995 0.091118
0.829188 0.140582 0.091118
0.869968 0.165129 0.091118
0.898213 0.194678 0.091145
0.918475 0.225395 0.091198
0.932521 0.265674 0.091275
0.944211 0.299710 0.091364
0.952792 0.341532 0.091452
0.960930 0.380127 0.091552
0.967321 0.423419 0.091718
0.972839 0.471479 0.091805
0.977959 0.515644 0.092065
0.981220 0.559683 0.092318
0.983060 0.603684 0.092606
0.081099 0.084717 0.091118
0.081099 0.084717 0.091118
0.081099 0.084717 0.091118
0.081099 0.084717 0.091118
0.081099 0.084717 0.091118
0.081888 0.084717 0.091118
0.083680 0.084717 0.091118
0.086772 0.084717 0.091118
0.092966 0.084717 0.091118
0.107032 0.084891 0.091118
0.129206 0.085177 0.091118
0.173648 0.085946 0.091118
0.228581 0.087023 0.091118
0.285774 0.088358 0.091118
0.356281 0.090495 0.091118
0.453080 0.095141 0.091118
0.545426 0.099775 0.091118
0.625007 0.104874 0.091118
0.716116 0.112458 0.091118
0.771408 0.124348 0.091118
0.829304 0.144046 0.091118
0.870042 0.168698 0.091118
0.898279 0.199322 0.091147
0.918508 0.229870 0.091200
0.932551 0.269254 0.091277
0.944229 0.306032 0.091367
0.952808 0.345075 0.091454
0.960945 0.384380 0.091555
0.967331 0.427841 0.091718
0.972848 0.475491 0.091810
0.977968 0.519717 0.092070
0.981223 0.563395 0.092322
0.983062 0.606853 0.092612
0.081099 0.084717 0.091118
0.081099 0.084717 0.091118
0.081099 0.084717 0.091118
0.081099 0.084717 0.091118
0.081099 0.084717 0.091118
0.081921 0.084717 0.091118
0.083697 0.084717 0.091118
0.086864 0.084717 0.091118
0.093151 0.084840 0.091118
0.107215 0.085081 0.091118
0.129581 0.085622 0.091118
0.174140 0.086495 0.091118
0.229025 0.087602 0.091118
0.286350 0.088987 0.091118
0.356825 0.092375 0.091118
0.453837 0.096880 0.091118
0.545934 0.101349 0.091118
0.625706 0.107149 0.091118
0.716571 0.115122 0.091118
0.771630 0.129510 0.091118
0.829518 0.150369 0.091118
0.870176 0.175332 0.091118
0.898400 0.207997 0.091150
0.918568 0.238797 0.091202
0.932607 0.275866 0.091282
0.944262 0.317848 0.091371
0.952838 0.351606 0.091458
0.960973 0.392236 0.091562
0.967350 0.436673 0.091719
0.972865 0.482886 0.091820
0.977983 0.527224 0.092079
0.981229 0.570230 0.092331
0.983068 0.611920 0.092622
0.081099 0.084717 0.091118
0.081099 0.084717 0.091118
0.081099 0.084717 0.091118
0.081099 0.084717 0.091118
0.081099 0.084717 0.091118
0.081971 0.084717 0.091118
0.083723 0.084739 0.091118
0.087001 0.084892 0.091118
0.093427 0.085110 0.091118
0.107497 0.085607 0.091118
0.130141 0.086359 0.091118
0.174877 0.087335 0.091118
0.229689 0.088597 0.091118
0.287213 0.090817 0.091118
0.357640 0.095071 0.091118
0.454971 0.099372 0.091118
0.546695 0.103802 0.091118
0.626753 0.110633 0.091118
0.717250 0.120568 0.091118
0.771963 0.137317 0.091118
0.829837 0.159913 0.091118
0.870378 0.186037 0.091118
0.898582 0.217543 0.091154
0.918657 0.253025 0.091206
0.932689 0.285818 0.091288
0.944313 0.328848 0.091377
0.952883 0.362277 0.091465
0.961014 0.404065 0.091574
0.967378 0.449993 0.091721
0.972890 0.493985 0.091835
0.978006 0.538239 0.092093
0.981237 0.580467 0.092344
0.983075 0.619481 0.092638
0.081099 0.084717 0.091118
0.081099 0.084717 0.091118
0.081099 0.084717 0.091118
0.081099 0.084763 0.091118
0.081099 0.084837 0.091118
0.082037 0.084936 0.091118
0.083796 0.085092 0.091118
0.087186 0.085384 0.091118
0.093800 0.085917 0.091118
0.107876 0.086653 0.091118
0.130898 0.087514 0.091118
0.175875 0.088661 0.091118
0.230587 0.090625 0.091118
0.288381 0.094526 0.091118
0.358742 0.098531 0.091118
0.456090 0.102530 0.091118
0.547724 0.108398 0.091118
0.628168 0.116275 0.091118
0.718169 0.130140 0.091118
0.772413 0.149739 0.091118
0.830269 0.173177 0.091118
0.870650 0.203212 0.091118
0.898828 0.231716 0.091160
0.918778 0.269208 0.091211
0.932801 0.303246 0.091297
0.944381 0.341995 0.091384
0.952943 0.378842 0.091474
0.961070 0.420193 0.091589
0.967416 0.466756 0.091723
0.972923 0.509050 0.091855
0.978037 0.552012 0.092112
0.981248 0.594322 0.092362
0.983086 0.629662 0.092658
0.081099 0.085124 0.091118
0.081099 0.085132 0.091118
0.081099 0.085162 0.091118
0.081099 0.085246 0.091118
0.081099 0.085474 0.091118
0.082158 0.085765 0.091118
0.083957 0.086117 0.091118
0.087417 0.086702 0.091118
0.094271 0.087338 0.091118
0.108356 0.088225 0.091118
0.131863 0.089182 0.091118
0.177146 0.091853 0.091118
0.231730 0.095323 0.091118
0.289868 0.098935 0.091118
0.360144 0.102584 0.091118
0.457371 0.108005 0.091118
0.549032 0.114992 0.091118
0.629969 0.127003 0.091118
0.719336 0.144570 0.091118
0.773942 0.166268 0.091118
0.830818 0.192342 0.091118
0.870996 0.220658 0.091118
0.899140 0.255765 0.091167
0.918931 0.286273 0.091221
0.932943 0.327781 0.091308
0.944467 0.358904 0.091394
0.953020 0.399048 0.091485
0.961142 0.442228 0.091609
0.967463 0.485750 0.091725
0.972966 0.528319 0.091881
0.978077 0.569570 0.092136
0.981262 0.610196 0.092384
0.983099 0.642553 0.092684
0.081099 0.086568 0.091118
0.081099 0.086596 0.091118
0.081099 0.086693 0.091118
0.081099 0.086870 0.091118
0.081166 0.087126 0.091118
0.082316 0.087469 0.091118
0.084160 0.088016 0.091118
0.087697 0.088646 0.091118
0.094843 0.089401 0.091118
0.108941 0.091651 0.091118
0.133042 0.094432 0.091118
0.178703 0.097430 0.091118
0.233127 0.100563 0.091118
0.291687 0.104088 0.091118
0.361858 0.109353 0.091118
0.458936 0.116292 0.091118
0.550630 0.127935 0.091118
0.632172 0.144343 0.091118
0.720763 0.164598 0.091118
0.776429 0.188335 0.091118
0.831487 0.216515 0.091118
0.871418 0.247167 0.091123
0.899521 0.278590 0.091175
0.919119 0.317238 0.091233
0.933116 0.348229 0.091321
0.944572 0.384490 0.091407
0.953114 0.424099 0.091498
0.961229 0.468591 0.091633
0.967522 0.509125 0.091728
0.973017 0.550440 0.091911
0.978125 0.591078 0.092164
0.981279 0.626056 0.092415
0.983115 0.658211 0.092716
0.081099 0.088870 0.091118
0.081099 0.088899 0.091118
0.081099 0.089001 0.091118
0.081099 0.089187 0.091118
0.081263 0.089652 0.091118
0.082498 0.090668 0.091118
0.084447 0.092159 0.091118
0.088025 0.093921 0.091118
0.095518 0.095960 0.091118
0.109694 0.098235 0.091118
0.134444 0.100699 0.091118
0.180555 0.103382 0.091118
0.234787 0.107746 0.091118
0.293810 0.113022 0.091118
0.363896 0.120725 0.091118
0.460795 0.133035 0.091118
0.552528 0.149155 0.091118
0.634789 0.168218 0.091118
0.722456 0.191131 0.091118
0.779387 0.217174 0.091118
0.832282 0.246079 0.091118
0.871919 0.276348 0.091134
0.899973 0.310532 0.091185
0.919341 0.343039 0.091249
0.933322 0.376461 0.091336
0.944697 0.413994 0.091421
0.953225 0.456935 0.091514
0.961332 0.496197 0.091660
0.967591 0.536999 0.091732
0.973079 0.575912 0.091948
0.978183 0.613662 0.092198
0.981300 0.644757 0.092455
0.983134 0.680321 0.092753
0.081099 0.095633 0.091118
0.081099 0.095714 0.091118
0.081099 0.096007 0.091118
0.081099 0.096540 0.091118
0.081370 0.097328 0.091118
0.082701 0.098374 0.091118
0.084772 0.099668 0.091118
0.088399 0.101197 0.091118
0.096296 0.102956 0.091118
0.110657 0.105854 0.091118
0.136076 0.109286 0.091118
0.182715 0.113796 0.091118
0.236717 0.120290 0.091118
0.296146 0.130274 0.091118
0.366266 0.142967 0.091118
0.462955 0.159247 0.091118
0.554733 0.177332 0.091118
0.637835 0.200983 0.091118
0.724423 0.222724 0.091118
0.782829 0.252801 0.091118
0.833203 0.279613 0.091118
0.872500 0.313675 0.091147
0.900497 0.343287 0.091197
0.919599 0.374967 0.091268
0.933560 0.410613 0.091354
0.944842 0.451036 0.091437
0.953355 0.489562 0.091532
0.961452 0.528602 0.091692
0.967672 0.566547 0.091737
0.973150 0.605504 0.091989
0.978249 0.635483 0.092237
0.981323 0.667188 0.092501
0.983156 0.705117 0.092796
0.081099 0.103772 0.091118
0.081099 0.103880 0.091118
0.081099 0.104268 0.091118
0.081099 0.104978 0.091118
0.081512 0.106032 0.091118
0.082924 0.107443 0.091118
0.085133 0.109214 0.091118
0.088819 0.111693 0.091118
0.097177 0.114766 0.091118
0.111753 0.119478 0.091118
0.137943 0.126063 0.091118
0.185191 0.135006 0.091118
0.238926 0.146337 0.091118
0.298822 0.159813 0.091118
0.368979 0.175112 0.091118
0.465424 0.194505 0.091118
0.557254 0.215694 0.091118
0.641320 0.237357 0.091118
0.726670 0.265972 0.091118
0.786769 0.288676 0.091118
0.834255 0.324050 0.091118
0.873163 0.349056 0.091161
0.901095 0.380084 0.091209
0.919893 0.414014 0.091289
0.933832 0.452778 0.091374
0.945008 0.489270 0.091457
0.953502 0.526535 0.091553
0.961589 0.563047 0.091717
0.967763 0.600460 0.091785
0.973232 0.630503 0.092036
0.978325 0.660121 0.092281
0.981350 0.698204 0.092552
0.983181 0.726047 0.092844
0.081099 0.118457 0.091118
0.081099 0.118630 0.091118
0.081099 0.119253 0.091118
0.081099 0.120398 0.091118
0.081719 0.122240 0.091118
0.083203 0.125063 0.091118
0.085529 0.129158 0.091118
0.089349 0.134200 0.091118
0.098160 0.140455 0.091118
0.112982 0.148924 0.091118
0.140069 0.158633 0.091118
0.187995 0.169878 0.091118
0.241394 0.182937 0.091118
0.301845 0.200654 0.091118
0.372043 0.217462 0.091118
0.468209 0.236161 0.091118
0.560096 0.262031 0.091118
0.645257 0.281888 0.091118
0.729202 0.309874 0.091118
0.788974 0.336827 0.091118
0.835439 0.361044 0.091127
0.873909 0.391969 0.091176
0.901769 0.424331 0.091230
0.920224 0.461952 0.091313
0.934139 0.495404 0.091395
0.945194 0.530986 0.091481
0.953668 0.565481 0.091595
0.961743 0.601277 0.091722
0.967867 0.629899 0.091841
0.973323 0.658388 0.092088
0.978411 0.694423 0.092330
0.981381 0.722481 0.092610
0.983210 0.749349 0.092898
0.081099 0.151247 0.091118
0.081099 0.151542 0.091118
0.081099 0.152604 0.091118
0.081163 0.154565 0.091118
0.081935 0.157513 0.091118
0.083544 0.161540 0.091118
0.085880 0.166719 0.091118
0.089940 0.173121 0.091118
0.099245 0.180871 0.091118
0.114345 0.191559 0.091118
0.142713 0.204641 0.091118
0.191268 0.216605 0.091118
0.244095 0.229566 0.091118
0.305350 0.249272 0.091118
0.375467 0.268519 0.091118
0.471316 0.285339 0.091118
0.563172 0.310904 0.091118
0.649656 0.334565 0.091118
0.731933 0.355288 0.091118
0.790786 0.382290 0.091118
0.836758 0.410862 0.091145
0.874739 0.443142 0.091192
0.902518 0.476178 0.091256
0.920592 0.508079 0.091339
0.934480 0.541461 0.091419
0.945401 0.573926 0.091508
0.953853 0.607367 0.091642
0.961915 0.633727 0.091728
0.967982 0.660900 0.091902
0.973425 0.696193 0.092146
0.978506 0.722650 0.092384
0.981415 0.748503 0.092673
0.983242 0.774372 0.092958
0.081099 0.200278 0.091118
0.081099 0.200680 0.091118
0.081099 0.202127 0.091118
0.081339 0.204802 0.091118
0.082218 0.208757 0.091118
0.083665 0.212784 0.091118
0.086051 0.217639 0.091118
0.090696 0.223384 0.091118
0.100576 0.232662 0.091118
0.115868 0.245276 0.091118
0.145799 0.259524 0.091118
0.195514 0.271882 0.091118
0.247082 0.284633 0.091118
0.309248 0.302355 0.091118
0.379258 0.325697 0.091118
0.474752 0.342192 0.091118
0.566552 0.360651 0.091118
0.654528 0.384691 0.091118
0.734376 0.409797 0.091118
0.792785 0.438002 0.091118
0.838212 0.468596 0.091164
0.875655 0.497035 0.091210
0.903345 0.527449 0.091286
0.920999 0.557520 0.091367
0.934848 0.588469 0.091445
0.945630 0.616932 0.091537
0.954057 0.642015 0.091692
0.962104 0.669347 0.091736
0.968109 0.702471 0.091969
0.973538 0.726593 0.092208
0.978611 0.751382 0.092455
0.981452 0.775899 0.092742
0.983277 0.797660 0.093023
0.081099 0.261018 0.091118
0.081099 0.261452 0.091118
0.081108 0.263012 0.091118
0.081563 0.265039 0.091118
0.082586 0.268076 0.091118
0.083931 0.272192 0.091118
0.086509 0.277445 0.091118
0.091506 0.283890 0.091118
0.102212 0.292022 0.091118
0.117658 0.305303 0.091118
0.151178 0.322139 0.091118
0.201327 0.333340 0.091118
0.250363 0.345839 0.091118
0.313538 0.360099 0.091118
0.384490 0.379228 0.091118
0.478521 0.399160 0.091118
0.570260 0.421047 0.091118
0.658513 0.446648 0.091118
0.737053 0.472514 0.091118
0.794975 0.497680 0.091140
0.839804 0.524725 0.091185
0.876657 0.551950 0.091239
0.904250 0.579740 0.091318
0.921443 0.608148 0.091396
0.935241 0.630980 0.091478
0.945880 0.654765 0.091580
0.954280 0.683876 0.091719
0.962312 0.711319 0.091800
0.968248 0.734320 0.092041
0.973662 0.758002 0.092276
0.978727 0.780529 0.092534
0.981493 0.801395 0.092817
0.983315 0.821846 0.093093
0.081099 0.327576 0.091118
0.081099 0.327880 0.091118
0.081318 0.328972 0.091118
0.081858 0.330983 0.091118
0.082959 0.333978 0.091118
0.084517 0.338031 0.091118
0.087265 0.343195 0.091118
0.092366 0.349519 0.091118
0.103976 0.357046 0.091118
0.119596 0.368001 0.091118
0.156201 0.380227 0.091118
0.207813 0.393742 0.091118
0.254072 0.408958 0.091118
0.318230 0.425947 0.091118
0.391381 0.446440 0.091118
0.482630 0.467614 0.091118
0.574299 0.487917 0.091118
0.662524 0.509962 0.091118
0.739964 0.533798 0.091119
0.797355 0.557146 0.091163
0.841534 0.581879 0.091206
0.877745 0.607431 0.091275
0.905233 0.627968 0.091352
0.921927 0.649479 0.091427
0.935669 0.674314 0.091513
0.946152 0.702838 0.091642
0.954523 0.723961 0.091727
0.962535 0.745813 0.091882
0.968399 0.768354 0.092117
0.973796 0.788258 0.092347
0.978852 0.808174 0.092619
0.981538 0.825273 0.092896
0.983357 0.836851 0.093168
0.081251 0.392152 0.091118
0.081314 0.392520 0.091118
0.081580 0.393841 0.091118
0.082206 0.396276 0.091118
0.083437 0.399925 0.091118
0.085173 0.404869 0.091118
0.088055 0.411181 0.091118
0.093799 0.418926 0.091118
0.105867 0.428253 0.091118
0.121683 0.440073 0.091118
0.160620 0.453707 0.091118
0.212403 0.467602 0.091118
0.258880 0.481781 0.091118
0.323334 0.497534 0.091118
0.398766 0.514906 0.091118
0.493407 0.533946 0.091118
0.578675 0.552851 0.091118
0.666869 0.573075 0.091118
0.743113 0.594840 0.091145
0.799929 0.614753 0.091187
0.843404 0.632976 0.091238
0.878921 0.652186 0.091313
0.906296 0.674848 0.091387
0.922448 0.701234 0.091463
0.936131 0.720414 0.091550
0.946446 0.740356 0.091708
0.954785 0.761025 0.091737
0.962770 0.780586 0.091969
0.968562 0.799034 0.092198
0.973941 0.817967 0.092432
0.978988 0.830210 0.092709
0.981586 0.841221 0.092981
0.983402 0.852358 0.093248
0.081506 0.471224 0.091118
0.081601 0.471569 0.091118
0.081921 0.472806 0.091118
0.082670 0.475083 0.091118
0.083676 0.478493 0.091118
0.085839 0.483107 0.091118
0.088878 0.488986 0.091118
0.095546 0.496186 0.091118
0.107790 0.504755 0.091118
0.126980 0.514743 0.091118
0.165426 0.526195 0.091118
0.216472 0.538846 0.091118
0.264089 0.551931 0.091118
0.328861 0.566420 0.091118
0.406091 0.582344 0.091118
0.502048 0.599733 0.091118
0.583392 0.615075 0.091118
0.671552 0.629998 0.091131
0.746502 0.645916 0.091171
0.802698 0.662776 0.091212
0.845414 0.685435 0.091280
0.880185 0.706498 0.091353
0.907438 0.723693 0.091424
0.923009 0.741676 0.091505
0.936628 0.760412 0.091620
0.946762 0.778478 0.091723
0.955067 0.795375 0.091831
0.963022 0.812794 0.092060
0.968738 0.826499 0.092284
0.974097 0.836752 0.092533
0.979133 0.847170 0.092805
0.981638 0.856347 0.093071
0.983450 0.863660 0.093346
0.081878 0.546973 0.091118
0.081962 0.547291 0.091118
0.082368 0.548434 0.091118
0.083151 0.550537 0.091118
0.084145 0.553685 0.091118
0.086100 0.557940 0.091118
0.089854 0.563356 0.091118
0.097383 0.569978 0.091118
0.109783 0.577848 0.091118
0.130730 0.587002 0.091118
0.170487 0.597477 0.091118
0.220988 0.608222 0.091118
0.269749 0.617938 0.091118
0.334820 0.628633 0.091118
0.414014 0.640310 0.091118
0.504844 0.652972 0.091118
0.588454 0.667569 0.091122
0.676577 0.686115 0.091160
0.749444 0.704136 0.091199
0.805643 0.718528 0.091253
0.847566 0.733732 0.091324
0.881537 0.749727 0.091393
0.908660 0.766497 0.091466
0.923609 0.781948 0.091548
0.937160 0.797231 0.091696
0.947100 0.813071 0.091734
0.955369 0.825789 0.091933
0.963293 0.835212 0.092155
0.968926 0.844834 0.092374
0.974264 0.854642 0.092639
0.979290 0.859846 0.092905
0.981694 0.869958 0.093166
0.983502 0.880219 0.093452
0.082341 0.617850 0.091118
0.082463 0.618085 0.091118
0.082882 0.618932 0.091118
0.083613 0.620489 0.091118
0.084974 0.622816 0.091118
0.086993 0.625956 0.091118
0.091050 0.629946 0.091118
0.099317 0.634811 0.091118
0.112222 0.640575 0.091118
0.134866 0.647256 0.091118
0.175900 0.654869 0.091118
0.225858 0.663536 0.091118
0.276005 0.675564 0.091118
0.341052 0.688860 0.091118
0.422554 0.702383 0.091118
0.507820 0.713154 0.091118
0.593866 0.724742 0.091154
0.681948 0.737153 0.091190
0.752023 0.750367 0.091235
0.808113 0.764378 0.091301
0.849859 0.777881 0.091368
0.882977 0.790917 0.091435
0.909898 0.804552 0.091513
0.924248 0.818771 0.091626
0.937726 0.828086 0.091723
0.947460 0.836624 0.091819
0.955690 0.845391 0.092038
0.963564 0.854376 0.092254
0.969127 0.858792 0.092486
0.974443 0.868147 0.092750
0.979456 0.877680 0.093009
0.981753 0.887381 0.093266
0.983558 0.897771 0.093562
0.082889 0.679948 0.091118
0.082999 0.680241 0.091118
0.083496 0.681291 0.091118
0.084005 0.683224 0.091118
0.085801 0.686115 0.091118
0.088040 0.690022 0.091118
0.092287 0.694992 0.091118
0.101709 0.700763 0.091118
0.114791 0.705663 0.091118
0.139289 0.711337 0.091118
0.181719 0.717796 0.091118
0.231061 0.725051 0.091118
0.282717 0.733110 0.091118
0.347386 0.741971 0.091118
0.431730 0.751634 0.091118
0.515217 0.762098 0.091152
0.599630 0.773044 0.091186
0.687668 0.783112 0.091224
0.754706 0.793855 0.091286
0.810689 0.805222 0.091350
0.852274 0.817204 0.091414
0.884505 0.825977 0.091484
0.910769 0.833326 0.091568
0.924926 0.840944 0.091713
0.938327 0.848819 0.091735
0.947842 0.856062 0.091935
0.956032 0.860510 0.092147
0.963793 0.869056 0.092357
0.969340 0.877809 0.092608
0.974632 0.886758 0.092865
0.979633 0.896340 0.093118
0.981816 0.906217 0.093387
0.983617 0.916272 0.093677
0.083541 0.739063 0.091118
0.083587 0.739258 0.091118
0.083742 0.739957 0.091118
0.084921 0.741242 0.091118
0.086162 0.743164 0.091118
0.089135 0.745756 0.091118
0.094310 0.749048 0.091118
0.104382 0.753060 0.091118
0.117675 0.757812 0.091118
0.144589 0.763315 0.091118
0.187956 0.769582 0.091118
0.236603 0.775752 0.091118
0.289896 0.782289 0.091118
0.354140 0.789482 0.091124
0.441564 0.797317 0.091154
0.525688 0.805789 0.091186
0.605751 0.814894 0.091221
0.693462 0.823002 0.091277
0.757543 0.828878 0.091338
0.813413 0.834981 0.091399
0.854774 0.841381 0.091463
0.886121 0.848069 0.091537
0.911668 0.855033 0.091662
0.925643 0.857954 0.091727
0.938963 0.864955 0.091846
0.948247 0.872660 0.092053
0.956393 0.880595 0.092259
0.964036 0.888767 0.092481
0.969566 0.897639 0.092734
0.974833 0.906727 0.092984
0.979821 0.916019 0.093231
0.981883 0.925342 0.093513
0.983679 0.928666 0.093832
0.083844 0.789598 0.091118
0.084000 0.789755 0.091118
0.084664 0.790321 0.091118
0.085842 0.791362 0.091118
0.087329 0.792917 0.091118
0.090460 0.795015 0.091118
0.096687 0.797678 0.091118
0.107154 0.800922 0.091118
0.120778 0.804761 0.091118
0.153748 0.809204 0.091118
0.195514 0.814261 0.091118
0.242433 0.819934 0.091118
0.297242 0.823951 0.091135
0.361321 0.827854 0.091162
0.451572 0.832057 0.091190
0.535722 0.836586 0.091224
0.612233 0.841437 0.091277
0.699466 0.846600 0.091333
0.760533 0.852070 0.091391
0.816287 0.856382 0.091449
0.857412 0.859122 0.091520
0.887826 0.865441 0.091623
0.912509 0.872029 0.091721
0.926400 0.878878 0.091773
0.939634 0.885976 0.091975
0.948674 0.893606 0.092175
0.956775 0.901636 0.092374
0.964292 0.909902 0.092618
0.969804 0.918395 0.092864
0.975044 0.925900 0.093107
0.980005 0.928952 0.093363
0.981953 0.932023 0.093644
0.983745 0.935020 0.094058
0.084839 0.829254 0.091118
0.085023 0.829338 0.091118
0.085664 0.829642 0.091118
0.086315 0.830199 0.091118
0.088547 0.831031 0.091118
0.091949 0.832152 0.091118
0.099133 0.833574 0.091118
0.109829 0.835305 0.091118
0.127136 0.837349 0.091118
0.160501 0.839712 0.091118
0.206348 0.842395 0.091127
0.248478 0.845399 0.091150
0.304894 0.848724 0.091174
0.368939 0.852367 0.091199
0.459784 0.855815 0.091233
0.545698 0.857363 0.091283
0.619079 0.860396 0.091335
0.705802 0.865261 0.091389
0.763677 0.870419 0.091443
0.819309 0.875864 0.091510
0.860188 0.881589 0.091597
0.889586 0.887584 0.091716
0.913392 0.894168 0.091735
0.927195 0.901078 0.091911
0.940340 0.908252 0.092106
0.949123 0.915680 0.092299
0.957176 0.923353 0.092518
0.964561 0.927340 0.092758
0.970055 0.930091 0.092997
0.975267 0.932900 0.093233
0.980094 0.935516 0.093505
0.982027 0.937830 0.093801
0.983814 0.940178 0.094318
0.085851 0.854953 0.091118
0.085913 0.855033 0.091118
0.086177 0.855317 0.091118
0.087658 0.855616 0.091118
0.089901 0.855936 0.091118
0.094120 0.856324 0.091118
0.102125 0.856800 0.091118
0.113072 0.857377 0.091118
0.132540 0.858060 0.091132
0.167815 0.860008 0.091150
0.214064 0.862526 0.091169
0.255211 0.865348 0.091190
0.313216 0.868473 0.091212
0.377001 0.871899 0.091251
0.467098 0.875626 0.091297
0.553161 0.879649 0.091345
0.627568 0.883964 0.091394
0.712471 0.888573 0.091444
0.766974 0.893755 0.091507
0.822480 0.899233 0.091585
0.863100 0.904999 0.091706
0.891406 0.911046 0.091731
0.914318 0.917368 0.091865
0.928029 0.923956 0.092052
0.941049 0.927184 0.092239
0.949590 0.929586 0.092435
0.957597 0.932058 0.092668
0.964844 0.934587 0.092901
0.970318 0.936653 0.093133
0.975502 0.938764 0.093381
0.980187 0.940815 0.093650
0.982105 0.942699 0.094049
0.983887 0.944613 0.094593
0.086491 0.875533 0.091118
0.086726 0.875608 0.091118
0.087549 0.875875 0.091120
0.089004 0.876366 0.091125
0.091573 0.877100 0.091131
0.096900 0.878089 0.091139
0.105421 0.879344 0.091149
0.116515 0.880873 0.091161
0.138347 0.882680 0.091176
0.175378 0.884771 0.091192
0.220741 0.887147 0.091209
0.263561 0.889891 0.091239
0.322030 0.893021 0.091277
0.387651 0.896457 0.091318
0.474794 0.900197 0.091361
0.560996 0.904238 0.091406
0.638389 0.908577 0.091453
0.719477 0.913211 0.091511
0.770422 0.918136 0.091585
0.825799 0.923344 0.091700
0.866149 0.926502 0.091729
0.893309 0.928469 0.091836
0.915287 0.930505 0.092014
0.928901 0.932619 0.092194
0.941581 0.934758 0.092374
0.950064 0.936556 0.092596
0.958038 0.938407 0.092822
0.965140 0.940293 0.093047
0.970594 0.941970 0.093274
0.975747 0.943684 0.093537
0.980285 0.945434 0.093835
0.982187 0.946945 0.094337
0.983964 0.948186 0.094930
0.087955 0.901315 0.091164
0.088175 0.901390 0.091165
0.088958 0.901657 0.091167
0.090637 0.902149 0.091171
0.093742 0.902884 0.091176
0.099786 0.903876 0.091184
0.108625 0.905134 0.091193
0.120332 0.906666 0.091204
0.145146 0.908479 0.091221
0.183412 0.910577 0.091245
0.227901 0.912963 0.091276
0.272532 0.915639 0.091309
0.331350 0.918607 0.091345
0.400921 0.921865 0.091383
0.482878 0.925310 0.091423
0.568944 0.926648 0.091470
0.649801 0.928056 0.091523
0.726820 0.929547 0.091599
0.777640 0.931126 0.091706
0.829264 0.932793 0.091729
0.868386 0.934544 0.091824
0.895296 0.936005 0.091993
0.916296 0.937525 0.092165
0.929812 0.939105 0.092337
