kodachrome64/Kodachrome64_Modern_ExtraSoft.cube
TITLE "Kodachrome 64 Modern ExtraSoft"
# Adobe RGB in/out. REPLACES AgX. Kodachrome 64 Modern ExtraSoft.
LUT_3D_SIZE 5
DOMAIN_MIN 0.0 0.0 0.0
DOMAIN_MAX 1.0 1.0 1.0
0.063616 0.080450 0.086035
0.228193 0.081118 0.086035
0.976903 0.219399 0.086144
0.996664 0.692014 0.086738
0.997605 0.924329 0.088505
0.063616 0.159211 0.086035
0.093909 0.096295 0.086035
0.922120 0.327228 0.086061
0.994972 0.768011 0.086633
0.997605 0.936551 0.087928
0.065027 0.916176 0.086035
0.172886 0.860493 0.086035
0.830931 0.799574 0.086116
0.990264 0.915612 0.086540
0.997627 0.972631 0.087600
0.072662 0.989134 0.086302
0.208311 0.987489 0.086333
0.870633 0.984304 0.086424
0.987642 0.984675 0.086726
0.997258 0.989264 0.087675
0.093130 0.995233 0.086573
0.234349 0.995127 0.086613
0.856300 0.994893 0.086760
0.986099 0.994907 0.087155
0.996610 0.995312 0.088906
0.063616 0.080450 0.209919
0.249313 0.081479 0.232204
0.971231 0.214290 0.170853
0.996114 0.671446 0.176321
0.997605 0.918884 0.212036
0.063616 0.098715 0.104318
0.069605 0.083705 0.087031
0.889048 0.280568 0.098495
0.994290 0.734617 0.125239
0.997605 0.930711 0.181126
0.064531 0.877220 0.117068
0.137730 0.799405 0.098844
0.765417 0.722006 0.090900
0.989114 0.903331 0.099346
0.997680 0.969108 0.128261
0.071248 0.987825 0.109118
0.195520 0.986314 0.103725
0.852511 0.982761 0.098839
0.986205 0.983519 0.100244
0.997103 0.988725 0.118008
0.091562 0.995143 0.102356
0.228210 0.995043 0.102049
0.850907 0.994807 0.102316
0.985719 0.994852 0.107170
0.996574 0.995301 0.125270
0.063616 0.080623 0.980638
0.250224 0.085626 0.980991
0.985096 0.385344 0.980612
0.996532 0.721348 0.947577
0.997605 0.921542 0.917375
0.063616 0.208722 0.977346
0.188860 0.232442 0.960891
0.944892 0.448813 0.927396
0.994535 0.773693 0.912318
0.997605 0.931406 0.903796
0.064154 0.780770 0.888074
0.102642 0.705143 0.814502
0.611213 0.611524 0.607149
0.986748 0.891462 0.762117
0.997745 0.966413 0.823751
0.069054 0.984784 0.863108
0.171062 0.983062 0.837520
0.808154 0.979401 0.757336
0.983134 0.980921 0.706412
0.996803 0.988124 0.754550
0.087098 0.994895 0.791030
0.214461 0.994794 0.780320
0.829887 0.994476 0.751700
0.984806 0.994696 0.732741
0.996487 0.995289 0.748001
0.063616 0.084888 0.996446
0.251905 0.109669 0.996464
0.986919 0.547436 0.996527
0.997654 0.846026 0.994942
0.997605 0.936125 0.992526
0.063616 0.355660 0.996459
0.283145 0.498105 0.996477
0.979623 0.718828 0.995582
0.995942 0.872536 0.993741
0.997605 0.948561 0.991447
0.064210 0.827778 0.991733
0.125536 0.818922 0.990605
0.835889 0.849865 0.986726
0.989956 0.926222 0.985394
0.997713 0.972637 0.984920
0.067626 0.981482 0.986572
0.145768 0.980251 0.984520
0.771914 0.976818 0.979110
0.979859 0.978150 0.967562
0.996648 0.988145 0.976536
0.083591 0.994423 0.981452
0.200293 0.994306 0.980688
0.814914 0.994147 0.978265
0.983831 0.994539 0.973449
0.996405 0.995311 0.973434
0.063616 0.133100 0.997486
0.254440 0.240413 0.997486
0.986971 0.686791 0.997483
0.997658 0.916432 0.997563
0.997605 0.956994 0.996907
0.063616 0.554419 0.997486
0.285989 0.658542 0.997485
0.986464 0.886925 0.997491
0.997104 0.928541 0.997698
0.997605 0.963874 0.996770
0.064558 0.922871 0.997360
0.180270 0.925347 0.997146
0.922809 0.934859 0.996856
0.992463 0.959268 0.996225
0.997621 0.980599 0.995587
0.067299 0.981742 0.995496
0.143278 0.981421 0.995299
0.802470 0.981535 0.994795
0.984892 0.984704 0.994242
0.996884 0.989598 0.994082
0.081289 0.994027 0.994446
0.190008 0.993988 0.994285
0.802994 0.994028 0.993845
0.983198 0.994596 0.993756
0.996371 0.995397 0.993752
