kodachrome64/Kodachrome64_Classic_ExtraPunchy.cube
TITLE "Kodachrome 64 Classic ExtraPunchy"
# Adobe RGB in/out. REPLACES AgX. Kodachrome 64 Classic ExtraPunchy.
LUT_3D_SIZE 5
DOMAIN_MIN 0.0 0.0 0.0
DOMAIN_MAX 1.0 1.0 1.0
0.069399 0.072436 0.066853
0.085962 0.072436 0.066853
0.549424 0.080028 0.066853
0.944756 0.236165 0.067236
0.986928 0.608209 0.069305
0.069399 0.074914 0.066853
0.088669 0.078566 0.066853
0.557604 0.121842 0.066853
0.945498 0.366825 0.067388
0.986991 0.687768 0.069499
0.069589 0.384799 0.066853
0.099893 0.426617 0.066853
0.586368 0.564363 0.066853
0.948075 0.739337 0.067917
0.987217 0.876826 0.070230
0.076348 0.879270 0.066853
0.127821 0.882194 0.066887
0.636912 0.906551 0.067531
0.952611 0.937726 0.068823
0.987627 0.962525 0.072025
0.099411 0.973979 0.068045
0.198991 0.974972 0.068151
0.717933 0.978017 0.068938
0.957872 0.983236 0.070944
0.988227 0.986614 0.076626
0.069399 0.072436 0.070777
0.085983 0.072436 0.071133
0.549496 0.080966 0.072661
0.944763 0.240441 0.077476
0.986929 0.611564 0.091726
0.069399 0.075148 0.071033
0.088696 0.079109 0.071391
0.557676 0.125447 0.072993
0.945505 0.372533 0.078185
0.986992 0.691916 0.093191
0.069593 0.390608 0.072043
0.099921 0.433213 0.072521
0.586438 0.569333 0.074265
0.948081 0.743497 0.081459
0.987218 0.877854 0.098875
0.076353 0.879970 0.074402
0.127864 0.882942 0.075305
0.636985 0.907489 0.078925
0.952617 0.938221 0.088361
0.987628 0.962688 0.110156
0.099439 0.974158 0.082369
0.199042 0.975095 0.083798
0.718002 0.978134 0.088909
0.957876 0.983333 0.103270
0.988228 0.986635 0.138582
0.069399 0.072436 0.535345
0.086060 0.072644 0.540994
0.549754 0.084184 0.561386
0.944786 0.255994 0.599297
0.986931 0.623570 0.644761
0.069399 0.077165 0.539397
0.088792 0.081987 0.545055
0.557934 0.138771 0.565477
0.945528 0.393303 0.603442
0.986994 0.706823 0.646640
0.069608 0.411738 0.554003
0.100020 0.454754 0.559691
0.586689 0.584610 0.580221
0.948103 0.758461 0.618274
0.987220 0.880452 0.657867
0.076375 0.881310 0.581080
0.128020 0.886514 0.586823
0.637246 0.910844 0.607537
0.952638 0.939990 0.639896
0.987630 0.963274 0.677160
0.099539 0.974668 0.621924
0.199227 0.975534 0.627694
0.718249 0.978553 0.641171
0.957890 0.983677 0.665840
0.988229 0.986708 0.705648
0.069399 0.072610 0.929733
0.086201 0.073806 0.930125
0.550229 0.091851 0.931524
0.944829 0.299118 0.933865
0.986934 0.645531 0.935514
0.069399 0.081573 0.930015
0.088968 0.088401 0.930406
0.558410 0.167702 0.931802
0.945571 0.433259 0.933992
0.986998 0.734281 0.935630
0.069635 0.452378 0.931021
0.100204 0.489595 0.931409
0.587150 0.607603 0.932794
0.948143 0.783187 0.934442
0.987224 0.883697 0.936124
0.076413 0.886063 0.932852
0.128308 0.893000 0.933235
0.637726 0.917305 0.934117
0.952677 0.943205 0.935216
0.987633 0.964246 0.937744
0.099723 0.975479 0.934546
0.199568 0.976334 0.934710
0.718704 0.979316 0.935294
0.957917 0.984305 0.936792
0.988233 0.986842 0.940127
0.069399 0.074474 0.979277
0.086412 0.077545 0.979323
0.550939 0.115307 0.979488
0.944894 0.354497 0.979788
0.986940 0.680252 0.980230
0.069399 0.092343 0.979310
0.089231 0.106551 0.979356
0.559122 0.220721 0.979520
0.945635 0.487959 0.979820
0.987003 0.775465 0.980262
0.069674 0.504670 0.979428
0.100478 0.542908 0.979474
0.587840 0.640597 0.979638
0.948204 0.803805 0.979936
0.987229 0.893429 0.980376
0.076471 0.895736 0.979645
0.128738 0.902501 0.979690
0.638445 0.924287 0.979852
0.952736 0.947921 0.980148
0.987639 0.965317 0.980584
0.099998 0.976673 0.979964
0.200077 0.977512 0.980009
0.719384 0.980442 0.980170
0.957956 0.985231 0.980462
0.988238 0.987040 0.980721
