kodachrome64/Kodachrome64_Classic_RadianceIII.cube
TITLE "Kodachrome 64 Classic RadianceIII"
# Adobe RGB in/out. REPLACES AgX. Kodachrome 64 Classic RadianceIII.
LUT_3D_SIZE 33
DOMAIN_MIN 0.0 0.0 0.0
DOMAIN_MAX 1.0 1.0 1.0
0.078336 0.088005 0.085647
0.079153 0.088109 0.085695
0.079948 0.088152 0.085721
0.086136 0.088430 0.085819
0.118927 0.089490 0.085950
0.141069 0.090042 0.086088
0.195990 0.091224 0.086323
0.285213 0.092571 0.086664
0.329170 0.093199 0.086793
0.393612 0.095016 0.087032
0.485523 0.099179 0.087441
0.549303 0.101603 0.087676
0.605025 0.104067 0.087873
0.667051 0.109209 0.088235
0.733388 0.115719 0.089079
0.783098 0.119555 0.089826
0.822347 0.123544 0.090524
0.858255 0.128232 0.091415
0.882075 0.133938 0.092860
0.900076 0.138953 0.094493
0.915121 0.144703 0.096539
0.927666 0.151308 0.098934
0.934607 0.156598 0.101430
0.941063 0.157149 0.103921
0.945782 0.157973 0.108743
0.949932 0.156771 0.114544
0.955128 0.142318 0.119138
0.957851 0.133007 0.130772
0.963363 0.101056 0.234651
0.963363 0.101040 0.234565
0.963363 0.101039 0.234560
0.963363 0.101040 0.234557
0.964478 0.216333 0.538128
0.078345 0.088661 0.085677
0.078432 0.088762 0.085709
0.080733 0.088292 0.085708
0.088039 0.088738 0.085843
0.120481 0.089871 0.085999
0.140779 0.090274 0.086118
0.192548 0.091490 0.086363
0.279544 0.092767 0.086685
0.323845 0.093420 0.086808
0.387789 0.095507 0.087052
0.479920 0.099591 0.087455
0.544350 0.101950 0.087687
0.600735 0.104724 0.087887
0.663352 0.109800 0.088246
0.730445 0.116266 0.089105
0.780674 0.120125 0.089847
0.820701 0.124069 0.090543
0.856968 0.128726 0.091438
0.881483 0.134526 0.092878
0.899626 0.139847 0.094524
0.914786 0.145570 0.096564
0.927419 0.152160 0.098953
0.934505 0.157440 0.101442
0.940991 0.157973 0.103927
0.945731 0.158779 0.108732
0.949897 0.157563 0.114507
0.955104 0.143077 0.119049
0.957837 0.133417 0.130538
0.963363 0.101056 0.234653
0.963363 0.101040 0.234566
0.963363 0.101039 0.234561
0.963363 0.101040 0.234557
0.964479 0.216335 0.538127
0.078350 0.089147 0.085692
0.078370 0.089316 0.085735
0.078498 0.089339 0.085745
0.083483 0.090036 0.085899
0.104963 0.091264 0.086102
0.131301 0.091434 0.086191
0.181400 0.092447 0.086492
0.264924 0.093816 0.086765
0.307103 0.094966 0.086864
0.367906 0.097380 0.087123
0.459089 0.101143 0.087505
0.525963 0.103530 0.087725
0.584714 0.107184 0.087938
0.649468 0.111998 0.088288
0.719366 0.118291 0.089199
0.771547 0.122230 0.089926
0.814505 0.126005 0.090609
0.852134 0.130537 0.091521
0.879263 0.137794 0.092947
0.897944 0.143140 0.094639
0.913532 0.148762 0.096656
0.926498 0.155293 0.099022
0.934126 0.160531 0.101486
0.940724 0.160994 0.103951
0.945545 0.161736 0.108696
0.949766 0.160468 0.114379
0.955014 0.145870 0.118749
0.957785 0.135192 0.129744
0.963363 0.101058 0.234660
0.963363 0.101040 0.234566
0.963363 0.101039 0.234561
0.963363 0.101041 0.234558
0.964479 0.216338 0.538126
0.078374 0.091704 0.085805
0.078388 0.091866 0.085850
0.078465 0.092140 0.085906
0.080764 0.092095 0.085979
0.089604 0.093591 0.086239
0.106282 0.093163 0.086316
0.147388 0.094716 0.086616
0.219098 0.098227 0.086864
0.273467 0.098843 0.087006
0.334371 0.100734 0.087247
0.422582 0.105704 0.087600
0.490487 0.109381 0.087798
0.552885 0.112159 0.088034
0.621667 0.116380 0.088366
0.696106 0.122713 0.089379
0.752910 0.126355 0.090076
0.801841 0.129771 0.090735
0.842289 0.134262 0.091678
0.874753 0.144514 0.093077
0.894541 0.149564 0.094859
0.911009 0.154963 0.096833
0.924652 0.161356 0.099155
0.933370 0.166500 0.101575
0.940193 0.166823 0.104009
0.945174 0.167438 0.108651
0.949507 0.166071 0.114177
0.954837 0.151289 0.118280
0.957680 0.140211 0.128463
0.963363 0.101060 0.234674
0.963363 0.101041 0.234568
0.963363 0.101039 0.234562
0.963363 0.101043 0.234558
0.964479 0.216340 0.538124
0.078418 0.098984 0.086030
0.078433 0.099443 0.086083
0.078970 0.100744 0.086163
0.080960 0.101252 0.086270
0.085581 0.101015 0.086481
0.092646 0.099038 0.086539
0.118852 0.101075 0.086738
0.169000 0.104672 0.087044
0.219536 0.104262 0.087181
0.289188 0.107028 0.087397
0.376648 0.114035 0.087735
0.444032 0.116765 0.087953
0.507868 0.119118 0.088180
0.578525 0.123790 0.088546
0.655607 0.130445 0.089661
0.720109 0.133244 0.090311
0.777320 0.137758 0.090931
0.824867 0.145419 0.091924
0.865550 0.155690 0.093477
0.888569 0.160153 0.095205
0.906616 0.165112 0.097115
0.921468 0.171222 0.099373
0.932072 0.176174 0.101727
0.939284 0.176257 0.104127
0.944544 0.176651 0.108639
0.949068 0.175129 0.113951
0.954536 0.160140 0.117766
0.957500 0.148464 0.126942
0.963363 0.101066 0.234703
0.963363 0.101041 0.234572
0.963363 0.101040 0.234564
0.963363 0.101063 0.234559
0.964479 0.216341 0.538124
0.078442 0.104102 0.086176
0.078450 0.104618 0.086206
0.078964 0.107239 0.086255
0.080294 0.108960 0.086438
0.082853 0.109310 0.086558
0.088487 0.108818 0.086702
0.105210 0.112978 0.086886
0.139967 0.118310 0.087280
0.174137 0.116102 0.087361
0.234817 0.117792 0.087551
0.320731 0.124338 0.087889
0.388870 0.126772 0.088154
0.455997 0.128702 0.088366
0.530876 0.132490 0.088990
0.612643 0.142721 0.090022
0.678371 0.148515 0.090621
0.739178 0.154618 0.091207
0.795511 0.163531 0.092278
0.843673 0.173354 0.094080
0.878328 0.176664 0.095710
0.899166 0.180764 0.097531
0.916140 0.186301 0.099701
0.929920 0.190808 0.101970
0.937787 0.190508 0.104346
0.943516 0.190538 0.108726
0.948355 0.188837 0.113789
0.954046 0.173746 0.117412
0.957202 0.161278 0.125560
0.963364 0.101078 0.234760
0.963363 0.101043 0.234578
0.963363 0.101040 0.234567
0.964478 0.213544 0.234561
0.964479 0.216341 0.538123
0.078883 0.121789 0.086522
0.079009 0.122200 0.086548
0.079560 0.124622 0.086633
0.080700 0.127182 0.086727
0.082976 0.128560 0.086835
0.087551 0.128637 0.086976
0.097767 0.128069 0.087171
0.122604 0.134516 0.087513
0.148120 0.130465 0.087572
0.189526 0.131188 0.087730
0.270751 0.140553 0.088142
0.334372 0.143662 0.088382
0.398368 0.144811 0.088730
0.475307 0.151221 0.089457
0.561338 0.163622 0.090457
0.628820 0.169537 0.091021
0.697144 0.173216 0.091706
0.763031 0.180571 0.092698
0.818878 0.191722 0.094826
0.862429 0.196264 0.096374
0.887391 0.201935 0.098111
0.906960 0.207932 0.100180
0.924818 0.211528 0.102343
0.935260 0.210580 0.104866
0.941805 0.210040 0.109008
0.947179 0.208102 0.113815
0.953228 0.194164 0.117502
0.956699 0.181033 0.124790
0.963365 0.101109 0.234896
0.963363 0.101046 0.234594
0.963363 0.101042 0.234575
0.964479 0.213604 0.234564
0.964479 0.216341 0.538123
0.079689 0.151928 0.086834
0.079776 0.152617 0.086850
0.080298 0.157508 0.086954
0.081385 0.162802 0.087102
0.083603 0.167227 0.087251
0.087883 0.169231 0.087428
0.096681 0.168948 0.087573
0.113249 0.167672 0.087728
0.131954 0.157556 0.087769
0.164127 0.157577 0.087962
0.227068 0.170202 0.088406
0.288725 0.171128 0.088901
0.345028 0.170531 0.089324
0.418743 0.176056 0.089994
0.507197 0.188027 0.090925
0.577822 0.191813 0.091546
0.646675 0.195425 0.092274
0.717378 0.203228 0.093358
0.785616 0.213836 0.095766
0.837724 0.216413 0.097181
0.876254 0.220706 0.098805
0.898260 0.227392 0.100781
0.917287 0.234257 0.102942
0.931591 0.237010 0.105681
0.938764 0.240887 0.109626
0.945116 0.238251 0.114202
0.951757 0.224801 0.118426
0.955789 0.211046 0.125221
0.963369 0.101232 0.235367
0.963363 0.101056 0.234647
0.963363 0.101045 0.234598
0.964479 0.213607 0.234574
0.964479 0.216341 0.538123
0.080021 0.173241 0.087032
0.080123 0.173788 0.087053
0.080588 0.177198 0.087137
0.081463 0.182989 0.087267
0.083172 0.188337 0.087404
0.086431 0.191539 0.087541
0.091827 0.192745 0.087692
0.104376 0.192137 0.087822
0.121326 0.190946 0.088032
0.147297 0.190291 0.088245
0.194303 0.203137 0.089058
0.249690 0.202427 0.089563
0.303189 0.200167 0.089946
0.367450 0.203970 0.090547
0.452654 0.215003 0.091558
0.524072 0.217481 0.092240
0.594220 0.220401 0.092901
0.668745 0.227471 0.094509
0.744453 0.238682 0.096813
0.805098 0.242709 0.098144
0.852753 0.249118 0.099692
0.885845 0.254347 0.101539
0.908702 0.259884 0.103828
0.928271 0.260970 0.106671
0.936527 0.263497 0.110391
0.943096 0.266303 0.114799
0.949834 0.262420 0.119719
0.954128 0.259295 0.127221
0.963480 0.106342 0.240855
0.963367 0.101183 0.235192
0.963364 0.101073 0.234745
0.964479 0.213609 0.234617
0.964479 0.216341 0.538123
0.080731 0.204130 0.087333
0.080811 0.204583 0.087348
0.081148 0.207116 0.087408
0.081933 0.212803 0.087515
0.083537 0.218424 0.087635
0.086362 0.223119 0.087759
0.090810 0.225494 0.087922
0.100932 0.226020 0.088127
0.115228 0.225306 0.088325
0.136004 0.224167 0.088637
0.174234 0.239298 0.089757
0.217860 0.237357 0.090236
0.268174 0.232673 0.090552
0.326206 0.235598 0.091119
0.403005 0.247906 0.092350
0.471681 0.249162 0.092964
0.541993 0.250799 0.094072
0.617809 0.257393 0.095763
0.697796 0.268870 0.097996
0.765451 0.271883 0.099226
0.824624 0.275079 0.100625
0.870840 0.282037 0.102400
0.896084 0.289583 0.105130
0.918955 0.290786 0.107961
0.933009 0.291451 0.111417
0.940796 0.292786 0.115541
0.948394 0.288188 0.120276
0.953225 0.284030 0.127100
0.958011 0.272429 0.134622
0.961223 0.257719 0.148586
0.963934 0.202661 0.227330
0.964479 0.213661 0.242494
0.964479 0.216342 0.538122
0.081670 0.253984 0.087733
0.081753 0.254493 0.087744
0.082156 0.257072 0.087786
0.083093 0.264060 0.087902
0.084921 0.270348 0.088067
0.087362 0.275463 0.088250
0.091767 0.279448 0.088442
0.101829 0.281230 0.088948
0.115161 0.281407 0.089449
0.134327 0.280487 0.089956
0.160205 0.279406 0.090460
0.193879 0.276547 0.090873
0.238930 0.270885 0.091170
0.293810 0.272555 0.091935
0.361091 0.283918 0.093221
0.424499 0.283459 0.094376
0.492059 0.283374 0.095475
0.567415 0.288451 0.097063
0.649114 0.299181 0.099245
0.720894 0.300343 0.100363
0.789060 0.304098 0.101694
0.842712 0.311058 0.103671
0.883056 0.316096 0.106746
0.908970 0.317699 0.109414
0.928305 0.321531 0.112712
0.936996 0.326582 0.116603
0.946050 0.320803 0.121272
0.951789 0.315400 0.127445
0.957119 0.303891 0.134326
0.960730 0.288242 0.145593
0.963859 0.219462 0.182989
0.964479 0.213822 0.267273
0.964479 0.213883 0.275856
0.082505 0.288085 0.088038
0.082586 0.288475 0.088052
0.082905 0.290329 0.088106
0.083869 0.295844 0.088223
0.085393 0.301363 0.088363
0.087658 0.307287 0.088662
0.091540 0.312304 0.089171
0.100070 0.314918 0.089648
0.111700 0.316051 0.090125
0.127328 0.315973 0.090589
0.149614 0.315036 0.091049
0.178884 0.314119 0.091680
0.214737 0.307228 0.092031
0.266891 0.308719 0.092794
0.328186 0.319119 0.094861
0.383883 0.317229 0.095901
0.447096 0.316263 0.096958
0.520249 0.320455 0.098471
0.601044 0.330284 0.100492
0.672600 0.330582 0.101547
0.744536 0.334523 0.102928
0.811257 0.339596 0.105377
0.864831 0.346249 0.108599
0.895317 0.349052 0.111143
0.919330 0.350647 0.114209
0.933628 0.353990 0.118162
0.943330 0.353017 0.122632
0.949621 0.353411 0.128378
0.955562 0.346357 0.135093
0.959865 0.329652 0.144934
0.963676 0.261252 0.151781
0.964479 0.213830 0.267394
0.964479 0.213947 0.283867
0.083174 0.316443 0.088321
0.083257 0.316786 0.088333
0.083650 0.318334 0.088378
0.084527 0.322646 0.088503
0.085872 0.328623 0.088861
0.087973 0.334801 0.089277
0.091187 0.339742 0.089715
0.098421 0.343415 0.090175
0.108564 0.345691 0.090622
0.121568 0.346336 0.091061
0.140697 0.346055 0.091645
0.164525 0.345039 0.092268
0.196807 0.344198 0.092920
0.243522 0.344995 0.094140
0.302100 0.355763 0.096516
0.350891 0.353029 0.097477
0.407760 0.350971 0.098422
0.477293 0.354518 0.099899
0.556511 0.363733 0.101898
0.625690 0.363045 0.102873
0.699211 0.365664 0.104550
0.773182 0.371188 0.107484
0.834433 0.378503 0.110638
0.881114 0.379163 0.112936
0.907618 0.383178 0.115900
0.928368 0.389097 0.120246
0.940123 0.385998 0.124273
0.947663 0.384508 0.129493
0.954158 0.381100 0.135870
0.958694 0.375768 0.145654
0.962328 0.368025 0.162401
0.964479 0.213950 0.267551
0.964479 0.214092 0.294680
0.084355 0.352249 0.089026
0.084440 0.352568 0.089054
0.084769 0.353960 0.089160
0.085482 0.357609 0.089377
0.086717 0.364433 0.089719
0.088815 0.370062 0.090082
0.091735 0.375459 0.090475
0.098657 0.380154 0.090904
0.107723 0.383326 0.091406
0.119140 0.384768 0.092020
0.136029 0.385131 0.092620
0.157105 0.384739 0.093392
0.184773 0.383743 0.094573
0.224509 0.382910 0.095823
0.280011 0.393719 0.098093
0.324970 0.390664 0.099051
0.375388 0.387355 0.099917
0.438932 0.389913 0.101273
0.515042 0.398891 0.103455
0.582247 0.397829 0.104843
0.654087 0.399571 0.106929
0.730405 0.405085 0.109691
0.802421 0.411401 0.112689
0.860617 0.413414 0.114913
0.893818 0.417948 0.117992
0.919282 0.421987 0.122359
0.936058 0.422411 0.126199
0.944548 0.424943 0.131062
0.952363 0.419723 0.136944
0.957711 0.412216 0.145447
0.961823 0.401885 0.159306
0.963978 0.389812 0.188007
0.964760 0.381283 0.307725
0.085777 0.398482 0.090164
0.085851 0.398812 0.090189
0.086134 0.400215 0.090281
0.086733 0.403650 0.090468
0.088291 0.411184 0.090790
0.090186 0.416527 0.091108
0.093519 0.423275 0.091635
0.100529 0.428761 0.092208
0.109036 0.432907 0.092820
0.119795 0.435538 0.093753
0.136061 0.436836 0.094989
0.155430 0.436924 0.096143
0.181614 0.436258 0.097341
0.217223 0.435322 0.098485
0.261618 0.434406 0.099680
0.303301 0.430384 0.100534
0.348323 0.426791 0.101403
0.406429 0.428956 0.102743
0.478126 0.437653 0.105700
0.541948 0.435663 0.107277
0.611575 0.436912 0.109338
0.687744 0.441968 0.112033
0.764449 0.447549 0.114874
0.829045 0.450048 0.117013
0.878695 0.453202 0.120497
0.907018 0.459380 0.124767
0.931225 0.459947 0.128353
0.941633 0.460199 0.132824
0.950178 0.460180 0.138511
0.956127 0.459436 0.146196
0.960985 0.448693 0.158595
0.963793 0.432261 0.179869
0.964745 0.393254 0.295273
0.086665 0.433703 0.090857
0.086729 0.434007 0.090878
0.086972 0.435244 0.090958
0.087711 0.438161 0.091116
0.089115 0.444282 0.091478
0.090892 0.450481 0.091938
0.094750 0.458022 0.092497
0.100726 0.462835 0.092998
0.108341 0.467465 0.094035
0.118271 0.471107 0.095255
0.132182 0.472954 0.096371
0.149790 0.473656 0.097516
0.172757 0.473695 0.098662
0.202703 0.472927 0.099789
0.242647 0.472141 0.100890
0.285743 0.471376 0.102030
0.326535 0.467276 0.102892
0.378866 0.469083 0.104812
0.445247 0.477842 0.108336
0.505997 0.475380 0.109854
0.572430 0.475564 0.111735
0.646319 0.480054 0.114384
0.724375 0.485177 0.117206
0.796850 0.486734 0.119826
0.856947 0.490363 0.123192
0.893361 0.496414 0.127305
0.923759 0.496903 0.130626
0.937464 0.500137 0.134932
0.947636 0.499878 0.140421
0.954747 0.496931 0.147196
0.960009 0.494362 0.158940
0.963359 0.492953 0.180172
0.964657 0.440883 0.252464
0.087737 0.469150 0.091656
0.087823 0.469429 0.091683
0.088144 0.470540 0.091785
0.088803 0.473076 0.091986
0.089974 0.478191 0.092323
0.091788 0.485037 0.092769
0.095421 0.490548 0.093370
0.101052 0.496339 0.094399
0.108045 0.501513 0.095477
0.116997 0.505377 0.096589
0.129086 0.507975 0.097725
0.145345 0.509347 0.098825
0.165621 0.509869 0.099902
0.190350 0.509685 0.101008
0.226615 0.509005 0.102080
0.267383 0.508324 0.103334
0.308812 0.507806 0.105042
0.355425 0.509373 0.107417
0.416912 0.517388 0.110917
0.473931 0.514509 0.112344
0.537371 0.514454 0.114217
0.608089 0.518233 0.116761
0.684448 0.523233 0.120283
0.759187 0.524242 0.122751
0.826363 0.528156 0.126022
0.878355 0.533250 0.129927
0.911653 0.535329 0.133113
0.932876 0.537592 0.137366
0.944642 0.538955 0.142576
0.952676 0.540160 0.148861
0.958939 0.536694 0.159413
0.962885 0.532249 0.176763
0.964432 0.532264 0.216507
0.089148 0.509362 0.092758
0.089224 0.509622 0.092782
0.089508 0.510639 0.092871
0.090083 0.512874 0.093045
0.091083 0.517198 0.093585
0.093415 0.524932 0.094481
0.097106 0.529264 0.095269
0.102549 0.535896 0.096308
0.108968 0.540877 0.097322
0.117047 0.544805 0.098347
0.128228 0.547977 0.099445
0.143414 0.549989 0.100522
0.161919 0.551134 0.101618
0.184577 0.551212 0.102627
0.216626 0.551017 0.104124
0.255135 0.550441 0.105999
0.294666 0.549816 0.107954
0.336490 0.549540 0.110016
0.392372 0.557148 0.113483
0.445501 0.554159 0.114852
0.505521 0.553442 0.116634
0.573448 0.556901 0.119861
0.646572 0.561411 0.123403
0.721101 0.561987 0.125753
0.795331 0.565844 0.128946
0.857763 0.570642 0.132698
0.898304 0.572956 0.135751
0.926775 0.575579 0.140065
0.940774 0.579240 0.145047
0.950647 0.578375 0.151156
0.957676 0.578849 0.160758
0.962098 0.580868 0.176028
0.964302 0.576760 0.207008
0.090711 0.554402 0.094982
0.090780 0.554657 0.095026
0.091036 0.555640 0.095189
0.091622 0.557721 0.095505
0.092834 0.561558 0.096025
0.096018 0.568327 0.096823
0.099660 0.573584 0.097616
0.104598 0.579947 0.098581
0.110670 0.585029 0.099551
0.118527 0.590087 0.100600
0.129566 0.593763 0.101625
0.144002 0.596364 0.102743
0.161022 0.597752 0.104178
0.182678 0.598419 0.106081
0.211922 0.598362 0.107995
0.249123 0.598183 0.110055
0.286920 0.597744 0.112023
0.326099 0.597100 0.113941
0.371628 0.597071 0.116020
0.420641 0.593991 0.117426
0.477411 0.593330 0.119747
0.541916 0.596143 0.123025
0.611858 0.600376 0.126499
0.683847 0.600755 0.128785
0.759491 0.603913 0.131856
0.829033 0.608849 0.135574
0.883617 0.610913 0.138784
0.915339 0.614761 0.142963
0.936773 0.617353 0.147523
0.947980 0.619242 0.153859
0.956213 0.621143 0.162674
0.961468 0.620614 0.175694
0.964133 0.625688 0.203165
0.091900 0.591405 0.096582
0.091984 0.591635 0.096621
0.092298 0.592511 0.096766
0.092922 0.594338 0.097048
0.094603 0.597633 0.097507
0.097450 0.603305 0.098207
0.101077 0.609432 0.099017
0.105197 0.614420 0.099842
0.111201 0.620321 0.100812
0.118420 0.625380 0.101813
0.128022 0.628827 0.102815
0.141159 0.631649 0.104224
0.156462 0.633549 0.106127
0.176659 0.634619 0.108062
0.202218 0.635103 0.110008
0.236185 0.634978 0.111897
0.272521 0.634786 0.113884
0.309905 0.634588 0.115838
0.350439 0.634196 0.117964
0.399167 0.634430 0.120644
0.451994 0.633296 0.122877
0.513365 0.636071 0.126158
0.580462 0.639694 0.129630
0.648921 0.639945 0.131805
0.724447 0.642649 0.134813
0.799671 0.646913 0.138832
0.866475 0.649002 0.141889
0.902564 0.652996 0.145931
0.931765 0.656013 0.150609
0.944787 0.658915 0.156761
0.954601 0.660657 0.164747
0.960574 0.663958 0.176565
0.963978 0.667800 0.199169
0.093571 0.630400 0.098260
0.093697 0.630608 0.098296
0.094165 0.631390 0.098427
0.095090 0.632991 0.098681
0.096646 0.635806 0.099093
0.099139 0.640512 0.099715
0.102794 0.647197 0.100551
0.106309 0.651113 0.101267
0.112420 0.657536 0.102252
0.118403 0.661171 0.103275
0.127786 0.665424 0.104729
0.140350 0.668779 0.106624
0.154190 0.670754 0.108506
0.172682 0.671997 0.110352
0.195314 0.672807 0.112290
0.226712 0.673095 0.114199
0.261436 0.672922 0.116064
0.296783 0.672713 0.118312
0.334974 0.672725 0.120886
0.378704 0.672589 0.123359
0.429858 0.673053 0.125992
0.487807 0.674890 0.129202
0.551537 0.678502 0.132635
0.617033 0.678836 0.134822
0.690054 0.681082 0.138097
0.767420 0.685144 0.142155
0.839378 0.687227 0.145050
0.888735 0.690731 0.148970
0.924068 0.694695 0.154118
0.941228 0.697281 0.159714
0.952550 0.701091 0.167225
0.959684 0.703754 0.177737
0.963799 0.709928 0.197204
0.096107 0.670414 0.100118
0.096224 0.670619 0.100151
0.096656 0.671385 0.100272
0.097504 0.672920 0.100505
0.098916 0.675541 0.100881
0.101143 0.679775 0.101444
0.104630 0.686487 0.102262
0.108170 0.690600 0.103077
0.113396 0.695847 0.104271
0.119442 0.700539 0.105918
0.128668 0.705010 0.107727
0.139738 0.707962 0.109489
0.153031 0.710536 0.111372
0.170593 0.712223 0.113251
0.191089 0.713150 0.115083
0.220211 0.713738 0.117062
0.253480 0.713834 0.119529
0.287770 0.713736 0.122028
0.323419 0.713529 0.124534
0.364500 0.713721 0.127120
0.411273 0.713849 0.129626
0.464752 0.714498 0.132219
0.525560 0.717241 0.135638
0.587802 0.717744 0.138027
0.657535 0.719570 0.141381
0.734272 0.723096 0.145423
0.811448 0.725377 0.148221
0.873789 0.728511 0.152781
0.912430 0.732433 0.157716
0.936908 0.735383 0.162908
0.950263 0.739206 0.169831
0.958620 0.742845 0.179392
0.963592 0.750122 0.196373
0.098539 0.712156 0.101909
0.098647 0.712352 0.101939
0.099046 0.713076 0.102051
0.099825 0.714506 0.102266
0.101111 0.716811 0.102611
0.103113 0.720422 0.103315
0.106199 0.725973 0.104346
0.110149 0.730861 0.105767
0.114678 0.735024 0.107223
0.121112 0.740296 0.109023
0.129045 0.743568 0.110599
0.140146 0.747061 0.112413
0.153038 0.749916 0.114344
0.168911 0.751428 0.116129
0.187825 0.752479 0.118240
0.214641 0.753142 0.120719
0.246512 0.753494 0.123278
0.279810 0.753559 0.125798
0.313981 0.753496 0.128298
0.351774 0.753384 0.130811
0.396204 0.753717 0.133374
0.445958 0.754159 0.136020
0.501614 0.755017 0.138967
0.561186 0.755500 0.141281
0.627468 0.756984 0.144560
0.702072 0.759949 0.148594
0.782281 0.762422 0.151981
0.851607 0.765328 0.156514
0.899912 0.769222 0.161350
0.931882 0.772677 0.166279
0.947602 0.776425 0.172506
0.957344 0.781142 0.181430
0.963316 0.787614 0.196120
0.100497 0.752654 0.103498
0.100595 0.752817 0.103536
0.100955 0.753418 0.103676
0.101657 0.754595 0.103945
0.102809 0.756536 0.104384
0.104589 0.759539 0.105263
0.107435 0.764073 0.106537
0.111563 0.769380 0.108079
0.115489 0.772676 0.109368
0.121586 0.777467 0.111111
0.129037 0.780673 0.112667
0.139867 0.784182 0.114472
0.150922 0.786332 0.116187
0.166153 0.788331 0.118404
0.184572 0.789639 0.120861
0.208267 0.790227 0.123198
0.237969 0.790583 0.125693
0.269981 0.790699 0.128172
0.302884 0.790734 0.130681
0.338095 0.790746 0.133145
0.379430 0.790861 0.135696
0.425964 0.791249 0.138543
0.478627 0.791976 0.141485
0.536825 0.793033 0.144447
0.599874 0.793817 0.147679
0.671076 0.795855 0.152415
0.750164 0.798105 0.155687
0.824928 0.800227 0.160160
0.885930 0.803427 0.164764
0.924730 0.806569 0.169772
0.944448 0.809983 0.175389
0.955968 0.813622 0.183279
0.962895 0.819844 0.196517
0.102419 0.791100 0.105935
0.102509 0.791233 0.105983
0.102840 0.791721 0.106160
0.103483 0.792663 0.106500
0.104531 0.794186 0.107044
0.106139 0.796482 0.107855
0.108890 0.799846 0.109026
0.113188 0.804740 0.110705
0.116661 0.807139 0.111868
0.122097 0.810455 0.113423
0.129939 0.813767 0.115141
0.139177 0.816039 0.116742
0.150408 0.818220 0.119026
0.164734 0.819898 0.121482
0.181161 0.820896 0.123801
0.203240 0.821618 0.126227
0.231838 0.821999 0.128699
0.263069 0.822089 0.131201
0.294516 0.822108 0.133646
0.327834 0.822133 0.136256
0.365727 0.822236 0.139062
0.409424 0.822528 0.141894
0.458521 0.822998 0.144715
0.513548 0.823985 0.147693
0.574573 0.825265 0.151218
0.642036 0.826671 0.156132
0.719651 0.829326 0.159278
0.798002 0.830917 0.163592
0.871018 0.834006 0.168139
0.913494 0.837022 0.172765
0.940792 0.840723 0.178341
0.954418 0.844428 0.185351
0.962426 0.850287 0.197155
0.104240 0.823478 0.108721
0.104323 0.823606 0.108767
0.104628 0.824073 0.108933
0.105219 0.824964 0.109252
0.106179 0.826379 0.109762
0.107822 0.828462 0.110521
0.110355 0.831429 0.111616
0.114202 0.835618 0.113182
0.117985 0.838695 0.114539
0.123012 0.841480 0.115946
0.131341 0.845196 0.118122
0.139381 0.847015 0.120029
0.150763 0.849346 0.122498
0.163086 0.850617 0.124706
0.179672 0.851841 0.127196
0.200078 0.852563 0.129595
0.226183 0.852960 0.132016
0.256200 0.853096 0.134488
0.286948 0.853054 0.137189
0.318787 0.853048 0.140028
0.354157 0.853100 0.142878
0.395503 0.853324 0.145725
0.441886 0.853714 0.148549
0.493447 0.854331 0.152072
0.551026 0.855525 0.155863
0.615155 0.856993 0.159681
0.689644 0.860139 0.162695
0.768503 0.861340 0.166984
0.847440 0.864185 0.171236
0.901053 0.866973 0.175776
0.936379 0.870085 0.181011
0.952625 0.872679 0.187479
0.962114 0.876427 0.198126
0.105668 0.862907 0.110690
0.105740 0.863005 0.110730
0.106006 0.863359 0.110876
0.106530 0.864026 0.111157
0.107497 0.865069 0.111613
0.108979 0.866571 0.112299
0.111220 0.868673 0.113307
0.114660 0.870780 0.114786
0.118785 0.872704 0.116388
0.123315 0.873987 0.117868
0.130461 0.875648 0.120124
0.139039 0.876939 0.122320
0.148786 0.877913 0.124522
0.161194 0.878701 0.126879
0.176597 0.879194 0.129274
0.194475 0.879513 0.131620
0.220021 0.879708 0.134098
0.248705 0.879729 0.136699
0.277932 0.879636 0.139450
0.308475 0.879557 0.142232
0.341600 0.879550 0.145029
0.380533 0.879645 0.147838
0.424649 0.879891 0.151169
0.474023 0.880317 0.154687
