kodachrome64/Kodachrome64_Modern_ExtraSoft.cube
TITLE "Kodachrome 64 Modern ExtraSoft"
# Adobe RGB in/out. REPLACES AgX. Kodachrome 64 Modern ExtraSoft.
LUT_3D_SIZE 33
DOMAIN_MIN 0.0 0.0 0.0
DOMAIN_MAX 1.0 1.0 1.0
0.063616 0.080450 0.086035
0.063616 0.080450 0.086035
0.063616 0.080450 0.086035
0.063727 0.080450 0.086035
0.064734 0.080450 0.086035
0.069012 0.080450 0.086035
0.085896 0.080511 0.086035
0.142476 0.080723 0.086035
0.228193 0.081118 0.086035
0.365275 0.081965 0.086035
0.552849 0.084030 0.086035
0.696175 0.087643 0.086035
0.820295 0.094461 0.086035
0.900374 0.106968 0.086035
0.938100 0.129681 0.086035
0.961753 0.170269 0.086082
0.976903 0.219399 0.086144
0.982745 0.273612 0.086218
0.987562 0.329662 0.086294
0.990401 0.397490 0.086371
0.992181 0.468082 0.086402
0.993778 0.537113 0.086489
0.994946 0.600375 0.086565
0.995829 0.649997 0.086653
0.996664 0.692014 0.086738
0.997336 0.738843 0.086820
0.997769 0.784202 0.086911
0.997644 0.825161 0.087050
0.997605 0.853533 0.087252
0.997605 0.877455 0.087477
0.997605 0.900631 0.087691
0.997605 0.912681 0.087911
0.997605 0.924329 0.088505
0.063616 0.080450 0.086035
0.063616 0.080450 0.086035
0.063616 0.080450 0.086035
0.063643 0.080450 0.086035
0.064405 0.080450 0.086035
0.068017 0.080450 0.086035
0.082784 0.080515 0.086035
0.134707 0.080733 0.086035
0.218747 0.081135 0.086035
0.350791 0.082035 0.086035
0.536442 0.084105 0.086035
0.686743 0.087754 0.086035
0.816081 0.094698 0.086035
0.896901 0.107648 0.086035
0.936449 0.130271 0.086035
0.961078 0.171381 0.086080
0.976329 0.220286 0.086142
0.982556 0.275408 0.086216
0.987402 0.331201 0.086292
0.990340 0.398857 0.086369
0.992127 0.469433 0.086399
0.993733 0.538434 0.086487
0.994920 0.601391 0.086564
0.995806 0.650741 0.086651
0.996643 0.692746 0.086737
0.997321 0.739738 0.086819
0.997772 0.784885 0.086910
0.997647 0.825833 0.087047
0.997605 0.853924 0.087249
0.997605 0.877833 0.087474
0.997605 0.900824 0.087689
0.997605 0.912865 0.087908
0.997605 0.924506 0.088497
0.063616 0.080450 0.086035
0.063616 0.080450 0.086035
0.063616 0.080450 0.086035
0.063616 0.080450 0.086035
0.063942 0.080450 0.086035
0.065710 0.080450 0.086035
0.075646 0.080528 0.086035
0.111949 0.080771 0.086035
0.193803 0.081193 0.086035
0.315295 0.082275 0.086035
0.503715 0.084505 0.086035
0.655523 0.088141 0.086035
0.800880 0.095533 0.086035
0.884882 0.109687 0.086035
0.930685 0.132374 0.086035
0.958706 0.174701 0.086076
0.974306 0.223455 0.086135
0.981889 0.280378 0.086210
0.986836 0.336728 0.086285
0.990127 0.403756 0.086363
0.991937 0.474277 0.086392
0.993571 0.543170 0.086482
0.994830 0.605034 0.086559
0.995725 0.653403 0.086646
0.996570 0.695328 0.086732
0.997264 0.742947 0.086814
0.997782 0.787335 0.086905
0.997656 0.828243 0.087037
0.997605 0.855325 0.087238
0.997605 0.879186 0.087464
0.997605 0.901517 0.087680
0.997605 0.913528 0.087898
0.997605 0.925141 0.088470
0.063616 0.080450 0.086035
0.063616 0.080450 0.086035
0.063616 0.080450 0.086035
0.063616 0.080450 0.086035
0.063715 0.080450 0.086035
0.064846 0.080456 0.086035
0.069559 0.080551 0.086035
0.089999 0.080857 0.086035
0.161546 0.081293 0.086035
0.261835 0.082690 0.086035
0.443156 0.085195 0.086035
0.616900 0.088820 0.086035
0.764377 0.097182 0.086035
0.864446 0.113281 0.086035
0.920721 0.137128 0.086035
0.953979 0.181747 0.086068
0.970741 0.229303 0.086123
0.980706 0.287717 0.086199
0.985827 0.346894 0.086274
0.989744 0.412735 0.086353
0.991595 0.482948 0.086388
0.993280 0.551851 0.086472
0.994658 0.611696 0.086550
0.995579 0.658268 0.086636
0.996438 0.700013 0.086723
0.997163 0.748825 0.086806
0.997801 0.791822 0.086897
0.997674 0.831492 0.087019
0.997605 0.857887 0.087218
0.997605 0.881663 0.087446
0.997605 0.902783 0.087663
0.997605 0.914740 0.087880
0.997605 0.926304 0.088419
0.063616 0.080522 0.086035
0.063616 0.080517 0.086035
0.063616 0.080502 0.086035
0.063616 0.080485 0.086035
0.063769 0.080476 0.086035
0.064384 0.080503 0.086035
0.066987 0.080661 0.086035
0.078865 0.080992 0.086035
0.124753 0.081441 0.086035
0.211908 0.083291 0.086035
0.350231 0.086176 0.086035
0.551144 0.090785 0.086035
0.705383 0.100377 0.086035
0.829222 0.118575 0.086035
0.907096 0.146036 0.086035
0.945828 0.193093 0.086058
0.965764 0.238308 0.086108
0.979035 0.298581 0.086185
0.984393 0.360593 0.086258
0.989184 0.426666 0.086339
0.991105 0.495372 0.086386
0.992861 0.564778 0.086458
0.994396 0.621580 0.086538
0.995367 0.665468 0.086622
0.996246 0.706955 0.086711
0.997015 0.757560 0.086795
0.997681 0.798480 0.086885
0.997699 0.836165 0.086997
0.997605 0.861687 0.087192
0.997605 0.885339 0.087419
0.997605 0.904661 0.087639
0.997605 0.916539 0.087854
0.997605 0.927362 0.088346
0.063616 0.081339 0.086035
0.063616 0.081311 0.086035
0.063616 0.081215 0.086035
0.063684 0.081047 0.086035
0.064017 0.080891 0.086035
0.064638 0.080816 0.086035
0.065956 0.080895 0.086035
0.074111 0.081243 0.086035
0.100393 0.082231 0.086035
0.179173 0.084129 0.086035
0.291268 0.087535 0.086035
0.475163 0.093757 0.086035
0.643672 0.104733 0.086035
0.792737 0.125727 0.086035
0.883000 0.160561 0.086035
0.931211 0.208256 0.086046
0.959575 0.252386 0.086093
0.975645 0.313018 0.086167
0.982539 0.376833 0.086241
0.987572 0.444661 0.086321
0.990480 0.512087 0.086384
0.992324 0.579618 0.086441
0.993971 0.633434 0.086523
0.995093 0.675073 0.086604
0.995997 0.717146 0.086695
0.996822 0.766838 0.086780
0.997505 0.807389 0.086869
0.997732 0.842407 0.086970
0.997612 0.866763 0.087161
0.997605 0.890254 0.087385
0.997605 0.907168 0.087607
0.997605 0.918943 0.087821
0.997605 0.928190 0.088250
0.063616 0.086424 0.086035
0.063616 0.086536 0.086035
0.063616 0.085712 0.086035
0.063812 0.083995 0.086035
0.064361 0.082844 0.086035
0.065221 0.082050 0.086035
0.067008 0.081769 0.086035
0.071821 0.081987 0.086035
0.090675 0.083542 0.086035
0.151694 0.086105 0.086035
0.241675 0.089788 0.086035
0.398601 0.097962 0.086035
0.589163 0.113301 0.086035
0.736904 0.135526 0.086035
0.851660 0.177081 0.086035
0.915056 0.224031 0.086035
0.951596 0.279119 0.086082
0.969308 0.332336 0.086147
0.980362 0.397579 0.086223
0.985665 0.466051 0.086301
0.989743 0.533274 0.086381
0.991656 0.596064 0.086419
0.993390 0.645905 0.086505
0.994763 0.687118 0.086584
0.995696 0.731878 0.086676
0.996574 0.778178 0.086763
0.997290 0.818592 0.086850
0.997773 0.849377 0.086942
0.997644 0.873130 0.087125
0.997605 0.896426 0.087344
0.997605 0.910311 0.087570
0.997605 0.921961 0.087785
0.997605 0.929221 0.088134
0.063616 0.101987 0.086035
0.063616 0.102352 0.086035
0.063641 0.101131 0.086035
0.063948 0.094747 0.086035
0.064671 0.089629 0.086035
0.065690 0.087458 0.086035
0.068691 0.086347 0.086035
0.074864 0.086005 0.086035
0.086041 0.086310 0.086035
0.132892 0.088709 0.086035
0.210431 0.095096 0.086035
0.334600 0.105358 0.086035
0.517169 0.124830 0.086035
0.673088 0.155730 0.086035
0.812046 0.200410 0.086035
0.896296 0.242218 0.086035
0.937878 0.300838 0.086071
0.962505 0.360872 0.086127
0.977983 0.424488 0.086204
0.983551 0.491680 0.086281
0.988553 0.559166 0.086361
0.990903 0.616031 0.086392
0.992732 0.660567 0.086485
0.994345 0.701454 0.086565
0.995351 0.749728 0.086655
0.996257 0.791868 0.086744
0.997043 0.831109 0.086830
0.997725 0.857267 0.086923
0.997687 0.880792 0.087083
0.997605 0.902213 0.087297
0.997605 0.914088 0.087526
0.997605 0.925590 0.087745
0.997605 0.932478 0.088012
0.063616 0.159211 0.086035
0.063616 0.160442 0.086035
0.063704 0.151498 0.086035
0.064153 0.131578 0.086035
0.065100 0.117783 0.086035
0.066717 0.105729 0.086035
0.070679 0.100132 0.086035
0.078501 0.096999 0.086035
0.093909 0.096295 0.086035
0.128172 0.097080 0.086035
0.192838 0.104126 0.086035
0.297942 0.120255 0.086035
0.467553 0.141892 0.086035
0.629371 0.182061 0.086035
0.770546 0.225146 0.086035
0.867136 0.277466 0.086035
0.922120 0.327228 0.086061
0.954933 0.390219 0.086110
0.971836 0.456271 0.086187
0.981255 0.521675 0.086260
0.986500 0.585697 0.086342
0.990094 0.637141 0.086386
0.992007 0.677787 0.086465
0.993724 0.719525 0.086546
0.994972 0.768011 0.086633
0.995906 0.807948 0.086724
0.996767 0.842417 0.086809
0.997470 0.866489 0.086902
0.997736 0.889742 0.087038
0.997612 0.906796 0.087246
0.997605 0.918492 0.087479
0.997605 0.928009 0.087701
0.997605 0.936551 0.087928
0.063616 0.272573 0.086035
0.063631 0.267779 0.086035
0.063800 0.245846 0.086035
0.064358 0.224590 0.086035
0.065287 0.197221 0.086035
0.067868 0.169476 0.086035
0.073357 0.145836 0.086035
0.082557 0.133006 0.086035
0.102060 0.127988 0.086035
0.141239 0.126674 0.086035
0.190746 0.128553 0.086035
0.269336 0.141275 0.086035
0.420604 0.175987 0.086035
0.587645 0.216988 0.086035
0.722188 0.255320 0.086035
0.831529 0.309031 0.086035
0.907084 0.366538 0.086053
0.945069 0.427904 0.086097
0.965354 0.492079 0.086171
0.978938 0.557321 0.086244
0.984402 0.613098 0.086324
0.989245 0.657438 0.086384
0.991224 0.697578 0.086445
0.993029 0.743885 0.086527
0.994548 0.786733 0.086611
0.995531 0.826463 0.086703
0.996435 0.853661 0.086790
0.997194 0.877028 0.086881
0.997789 0.899891 0.086995
0.997656 0.912015 0.087195
0.997605 0.923513 0.087429
0.997605 0.930413 0.087654
0.997605 0.941203 0.087877
0.063666 0.397588 0.086035
0.063706 0.392161 0.086035
0.063919 0.374297 0.086035
0.064492 0.344157 0.086035
0.065616 0.309266 0.086035
0.068933 0.278276 0.086035
0.075722 0.241289 0.086035
0.087651 0.222731 0.086035
0.114890 0.208689 0.086035
0.159130 0.199475 0.086035
0.203312 0.197214 0.086035
0.270317 0.201541 0.086035
0.376457 0.218976 0.086035
0.540881 0.251265 0.086035
0.677285 0.301610 0.086035
0.807558 0.352937 0.086035
0.887487 0.409014 0.086048
0.931448 0.471338 0.086092
0.959090 0.533331 0.086159
0.974926 0.592656 0.086231
0.982267 0.641104 0.086309
0.987367 0.680464 0.086382
0.990430 0.721605 0.086427
0.992317 0.768811 0.086510
0.994006 0.808041 0.086591
0.995140 0.842050 0.086683
0.996069 0.865881 0.086771
0.996903 0.888889 0.086860
0.997604 0.906242 0.086957
0.997709 0.917862 0.087151
0.997605 0.927765 0.087378
0.997605 0.935827 0.087606
0.997605 0.946428 0.087825
0.063765 0.537568 0.086035
0.063818 0.532430 0.086035
0.064121 0.514957 0.086035
0.064822 0.486590 0.086035
0.066106 0.449978 0.086035
0.069945 0.408577 0.086035
0.078173 0.371571 0.086035
0.093775 0.337456 0.086035
0.126121 0.313176 0.086035
0.172163 0.298235 0.086035
0.218030 0.290177 0.086035
0.290735 0.288620 0.086035
0.384656 0.292959 0.086035
0.512849 0.307608 0.086035
0.646209 0.353976 0.086035
0.778176 0.404418 0.086035
0.866131 0.461994 0.086046
0.919197 0.520117 0.086088
0.952456 0.579735 0.086151
0.969284 0.629447 0.086222
0.980199 0.667835 0.086297
0.985448 0.706324 0.086374
0.989648 0.753504 0.086407
0.991574 0.793175 0.086495
0.993333 0.831053 0.086573
0.994743 0.856523 0.086664
0.995695 0.879476 0.086753
0.996592 0.901272 0.086840
0.997322 0.912964 0.086933
0.997763 0.924328 0.087107
0.997633 0.931118 0.087328
0.997605 0.941822 0.087558
0.997605 0.950928 0.087778
0.063894 0.651058 0.086035
0.063977 0.648305 0.086035
0.064353 0.638686 0.086035
0.065151 0.619998 0.086035
0.066784 0.591976 0.086035
0.071403 0.557389 0.086035
0.080578 0.516985 0.086035
0.099009 0.480689 0.086035
0.136368 0.448967 0.086035
0.183538 0.423340 0.086035
0.234246 0.406082 0.086035
0.310145 0.397435 0.086035
0.414508 0.396535 0.086035
0.517938 0.402738 0.086035
0.626511 0.416461 0.086035
0.751252 0.467678 0.086035
0.847896 0.520316 0.086048
0.908502 0.576243 0.086088
0.944154 0.622813 0.086148
0.964131 0.660927 0.086217
0.978269 0.697972 0.086289
0.983621 0.741168 0.086364
0.988492 0.782536 0.086392
0.990849 0.820514 0.086482
0.992670 0.849286 0.086560
0.994304 0.872012 0.086648
0.995321 0.894473 0.086737
0.996236 0.908934 0.086821
0.997036 0.920323 0.086915
0.997730 0.928570 0.087067
0.997684 0.937926 0.087280
0.997605 0.948390 0.087513
0.997605 0.954545 0.087734
0.064117 0.741850 0.086035
0.064232 0.738703 0.086035
0.064512 0.727806 0.086035
0.065295 0.709895 0.086035
0.067559 0.690442 0.086035
0.072933 0.667470 0.086035
0.082819 0.643546 0.086035
0.105221 0.616870 0.086035
0.146257 0.589155 0.086035
0.193779 0.564550 0.086035
0.250742 0.541962 0.086035
0.328703 0.527322 0.086035
0.444347 0.520348 0.086035
0.541899 0.520679 0.086035
0.638065 0.527769 0.086035
0.730190 0.541000 0.086035
0.825380 0.584297 0.086053
0.898327 0.626810 0.086091
0.934557 0.661168 0.086150
0.959470 0.695947 0.086216
0.974479 0.736159 0.086285
0.981871 0.777062 0.086359
0.986832 0.813713 0.086388
0.990158 0.844538 0.086473
0.992020 0.866874 0.086550
0.993709 0.888997 0.086635
0.994953 0.905926 0.086723
0.995884 0.917256 0.086807
0.996751 0.927470 0.086899
0.997458 0.934837 0.087030
0.997737 0.945319 0.087237
0.997612 0.952775 0.087470
0.997605 0.958612 0.087694
0.064363 0.829325 0.086035
0.064400 0.827383 0.086035
0.064896 0.819569 0.086035
0.065618 0.806086 0.086035
0.068338 0.787848 0.086035
0.074402 0.766383 0.086035
0.085280 0.738951 0.086035
0.112703 0.710198 0.086035
0.158571 0.688695 0.086035
0.203002 0.669481 0.086035
0.266886 0.653852 0.086035
0.346786 0.642259 0.086035
0.464458 0.634684 0.086035
0.570418 0.631482 0.086035
0.650089 0.632470 0.086035
0.745319 0.637353 0.086040
0.817587 0.645684 0.086064
0.884800 0.669969 0.086096
0.926398 0.701609 0.086156
0.954925 0.740076 0.086219
0.970337 0.777903 0.086286
0.980287 0.812675 0.086357
0.985305 0.842675 0.086388
0.989513 0.864557 0.086467
0.991388 0.886081 0.086543
0.993121 0.904141 0.086625
0.994581 0.915301 0.086712
0.995542 0.926236 0.086796
0.996436 0.932681 0.086886
0.997190 0.943114 0.087001
0.997790 0.951531 0.087200
0.997657 0.957297 0.087433
0.997605 0.962986 0.087657
0.064599 0.881889 0.086035
0.064756 0.880701 0.086035
0.065214 0.876532 0.086035
0.066147 0.869244 0.086035
0.069201 0.859189 0.086035
0.075818 0.847063 0.086035
0.089257 0.831467 0.086035
0.118981 0.809708 0.086035
0.166327 0.787722 0.086035
0.212521 0.767801 0.086035
0.282220 0.748442 0.086035
0.367488 0.730937 0.086035
0.480158 0.718364 0.086035
0.587198 0.711077 0.086035
0.664168 0.709103 0.086046
0.760214 0.710761 0.086066
0.824743 0.717015 0.086086
0.880250 0.727700 0.086114
0.919635 0.754461 0.086166
0.950891 0.786240 0.086226
0.966734 0.818543 0.086291
0.978880 0.845280 0.086360
0.983927 0.865647 0.086388
0.988559 0.886245 0.086465
0.990801 0.903828 0.086540
0.992569 0.914671 0.086619
0.994182 0.925361 0.086705
0.995215 0.931619 0.086788
0.996118 0.941911 0.086876
0.996930 0.950802 0.086981
0.997620 0.956486 0.087174
0.997706 0.962154 0.087401
0.997605 0.967661 0.087625
0.065027 0.916176 0.086035
0.065165 0.915629 0.086035
0.065463 0.913699 0.086035
0.066903 0.910296 0.086035
0.070099 0.905537 0.086035
0.077423 0.899021 0.086035
0.092104 0.886593 0.086035
0.124691 0.873497 0.086035
0.172886 0.860493 0.086035
0.221185 0.848249 0.086035
0.296081 0.835801 0.086035
0.389179 0.823249 0.086035
0.501285 0.811197 0.086043
0.601715 0.802787 0.086057
0.680316 0.798098 0.086073
0.771795 0.797078 0.086091
0.830931 0.799574 0.086116
0.886097 0.805366 0.086153
0.918410 0.814194 0.086191
0.946112 0.831245 0.086237
0.963653 0.851805 0.086301
0.977506 0.870727 0.086367
0.982658 0.890042 0.086388
0.987309 0.905257 0.086468
0.990264 0.915612 0.086540
0.992049 0.925904 0.086618
0.993677 0.931841 0.086702
0.994906 0.941878 0.086783
0.995816 0.950671 0.086869
0.996680 0.956257 0.086966
0.997378 0.961858 0.087155
0.997755 0.967317 0.087376
0.997627 0.972631 0.087600
0.065274 0.936162 0.086035
0.065383 0.935688 0.086035
0.065899 0.934017 0.086035
0.067804 0.931054 0.086035
0.071545 0.928469 0.086035
0.079270 0.925917 0.086035
0.095316 0.919961 0.086035
0.130097 0.913566 0.086035
0.178649 0.907051 0.086038
0.229821 0.900725 0.086045
0.307206 0.889992 0.086053
0.409223 0.880295 0.086062
0.515015 0.872272 0.086073
0.614783 0.866143 0.086086
0.695201 0.862035 0.086101
0.782676 0.859993 0.086127
0.842107 0.859990 0.086159
0.891827 0.861942 0.086192
0.921140 0.865725 0.086227
0.945930 0.871187 0.086265
0.961021 0.880238 0.086314
0.974699 0.897953 0.086377
0.981547 0.908678 0.086395
0.986200 0.918365 0.086474
0.989782 0.927388 0.086544
0.991561 0.933555 0.086620
0.993212 0.943203 0.086703
0.994602 0.951233 0.086782
0.995532 0.956698 0.086866
0.996403 0.962174 0.086958
0.997147 0.967536 0.087142
0.997801 0.972775 0.087359
0.997670 0.977756 0.087581
0.065648 0.954849 0.086055
0.065773 0.954606 0.086055
0.066713 0.953745 0.086055
0.068714 0.952267 0.086056
0.073126 0.950215 0.086057
0.081090 0.946329 0.086059
0.098460 0.940996 0.086062
0.135265 0.935196 0.086065
0.183918 0.929294 0.086070
0.237796 0.927145 0.086076
0.316647 0.921867 0.086083
0.427128 0.916756 0.086092
0.521886 0.912343 0.086104
0.626254 0.908763 0.086123
0.708234 0.906109 0.086146
0.792540 0.904436 0.086172
0.851495 0.903760 0.086200
0.897226 0.904067 0.086231
0.923762 0.905313 0.086265
0.948137 0.907438 0.086305
0.961319 0.910369 0.086347
0.972316 0.914247 0.086383
0.980586 0.923114 0.086411
0.985228 0.928824 0.086484
0.989345 0.936956 0.086551
0.991122 0.946072 0.086627
0.992788 0.952584 0.086707
0.994307 0.957902 0.086784
0.995269 0.963190 0.086867
0.996142 0.968396 0.086957
0.996929 0.973509 0.087138
0.997604 0.977998 0.087351
0.997712 0.979873 0.087570
0.066344 0.967612 0.086085
0.066617 0.967402 0.086085
0.067671 0.966657 0.086085
0.069713 0.965326 0.086086
0.074687 0.963427 0.086087
0.083013 0.961023 0.086089
0.101880 0.958213 0.086092
0.140305 0.955116 0.086095
0.188686 0.951938 0.086101
0.244919 0.948503 0.086109
0.324838 0.943174 0.086120
0.441222 0.938230 0.086135
0.537721 0.933837 0.086151
0.634365 0.930126 0.086170
0.719506 0.928583 0.086192
0.801173 0.927844 0.086215
0.856733 0.927421 0.086241
0.901402 0.927301 0.086272
0.926180 0.927524 0.086307
0.949808 0.928030 0.086345
0.962175 0.928816 0.086382
0.972889 0.930780 0.086387
0.979863 0.934361 0.086434
0.984385 0.942182 0.086498
0.988680 0.950046 0.086562
0.990731 0.954907 0.086638
0.992407 0.959958 0.086715
0.993943 0.964987 0.086790
0.995027 0.969975 0.086872
0.995901 0.974871 0.086963
0.996726 0.978474 0.087141
0.997403 0.980279 0.087351
0.997753 0.981699 0.087567
0.067306 0.978413 0.086122
0.067603 0.978344 0.086122
0.068648 0.978096 0.086123
0.071124 0.977516 0.086124
0.076180 0.975898 0.086127
0.085271 0.973837 0.086130
0.108050 0.971355 0.086135
0.145386 0.968588 0.086141
0.192998 0.965652 0.086149
0.251312 0.962659 0.086158
0.331970 0.959721 0.086169
0.451568 0.956940 0.086183
0.550957 0.954407 0.086198
0.640482 0.952254 0.086216
0.728922 0.950536 0.086235
0.806567 0.949172 0.086258
0.861203 0.947611 0.086286
0.903771 0.946855 0.086317
0.928315 0.946904 0.086350
0.950852 0.947738 0.086382
0.962938 0.949311 0.086387
0.973527 0.950591 0.086424
0.980056 0.952232 0.086472
0.983858 0.954264 0.086519
0.987908 0.958245 0.086576
0.990386 0.962928 0.086652
0.992057 0.967634 0.086727
0.993595 0.972341 0.086800
0.994808 0.976941 0.086881
0.995680 0.979207 0.086975
0.996515 0.980807 0.087152
0.997216 0.982180 0.087360
0.997791 0.983488 0.087573
0.068324 0.982201 0.086169
0.068613 0.982153 0.086170
0.069721 0.981983 0.086171
0.072838 0.981678 0.086172
0.078151 0.981239 0.086174
0.089133 0.980676 0.086178
0.112267 0.979957 0.086182
0.151528 0.979014 0.086188
0.196986 0.978003 0.086196
0.257153 0.975755 0.086205
0.338070 0.973106 0.086215
0.458187 0.970508 0.086228
0.561720 0.968098 0.086242
0.645357 0.965947 0.086260
0.736148 0.964116 0.086282
0.810394 0.962651 0.086306
0.864847 0.961585 0.086332
0.905727 0.960940 0.086361
0.930106 0.960723 0.086383
0.951741 0.960934 0.086387
0.963596 0.961561 0.086422
0.974086 0.962583 0.086466
0.980226 0.963975 0.086509
0.983984 0.965710 0.086554
0.987516 0.967757 0.086604
0.990085 0.971168 0.086670
0.991742 0.975491 0.086742
0.993284 0.978539 0.086812
0.994593 0.980214 0.086893
0.995479 0.981539 0.086994
0.996312 0.982850 0.087171
0.997044 0.984019 0.087378
0.997694 0.985113 0.087586
0.069425 0.985098 0.086214
0.069720 0.985063 0.086214
0.071238 0.984937 0.086215
0.074555 0.984709 0.086216
0.080177 0.984381 0.086219
0.091928 0.983959 0.086222
0.117083 0.983454 0.086227
0.158595 0.982824 0.086232
0.200723 0.982109 0.086240
0.262504 0.981364 0.086248
0.343253 0.980615 0.086259
0.462718 0.979803 0.086274
0.569375 0.978938 0.086290
0.649070 0.978150 0.086308
0.741506 0.977031 0.086329
0.813301 0.975580 0.086352
0.867619 0.974464 0.086376
0.907245 0.973707 0.086384
0.931516 0.973315 0.086388
0.952449 0.973306 0.086429
0.964126 0.973677 0.086467
0.974540 0.974402 0.086506
0.980365 0.975471 0.086547
0.984086 0.976864 0.086591
0.987587 0.978061 0.086645
0.989963 0.978832 0.086700
0.991464 0.979956 0.086760
0.993008 0.981245 0.086830
0.994395 0.982485 0.086908
0.995297 0.983657 0.087021
0.996128 0.984712 0.087197
0.996886 0.985756 0.087404
0.997535 0.986724 0.087608
0.070819 0.987327 0.086256
0.071282 0.987306 0.086256
0.073055 0.987232 0.086257
0.076181 0.987097 0.086259
0.082221 0.986902 0.086262
0.095213 0.986650 0.086266
0.121819 0.986237 0.086271
0.163037 0.985735 0.086278
0.204480 0.985190 0.086286
0.267325 0.984618 0.086296
0.347624 0.984037 0.086308
0.466279 0.983465 0.086322
0.573530 0.982864 0.086337
0.651716 0.982278 0.086354
0.745257 0.981756 0.086374
0.815322 0.981311 0.086383
0.869523 0.980955 0.086386
0.908316 0.980696 0.086401
0.932522 0.980539 0.086439
0.952959 0.980487 0.086473
0.964510 0.980540 0.086508
0.974868 0.980698 0.086545
0.980464 0.980956 0.086585
0.984157 0.981309 0.086635
0.987631 0.981752 0.086686
0.989971 0.982277 0.086738
0.991377 0.982877 0.086791
0.992764 0.983594 0.086852
0.994201 0.984583 0.086927
0.995134 0.985572 0.087059
0.995961 0.986556 0.087236
0.996743 0.987235 0.087439
0.997390 0.987897 0.087638
0.072662 0.989134 0.086302
0.073145 0.989100 0.086303
0.074844 0.988979 0.086304
0.078304 0.988772 0.086305
0.084544 0.988603 0.086308
0.098482 0.988383 0.086313
0.126478 0.988119 0.086318
0.167435 0.987818 0.086324
0.208311 0.987489 0.086333
0.271747 0.987141 0.086342
0.351278 0.986784 0.086354
0.468983 0.986358 0.086367
0.576100 0.985860 0.086381
0.653392 0.985394 0.086383
0.747512 0.984972 0.086386
0.816506 0.984606 0.086391
0.870633 0.984304 0.086424
0.908943 0.984074 0.086454
0.933115 0.983920 0.086484
0.953261 0.983846 0.086515
0.964735 0.983854 0.086549
0.975055 0.983943 0.086585
0.980517 0.984111 0.086631
0.984188 0.984357 0.086678
0.987642 0.984675 0.086726
0.989967 0.985061 0.086776
0.991364 0.985510 0.086828
0.992703 0.986018 0.086888
0.993976 0.986595 0.086950
0.994988 0.987223 0.087104
0.995811 0.987850 0.087284
0.996602 0.988474 0.087482
0.997258 0.989264 0.087675
0.074510 0.990553 0.086346
0.074964 0.990539 0.086346
0.076564 0.990488 0.086347
0.080454 0.990396 0.086349
0.087669 0.990262 0.086352
0.102095 0.990089 0.086356
0.131125 0.989879 0.086361
0.171336 0.989639 0.086368
0.211950 0.989374 0.086376
0.275768 0.989014 0.086382
0.354378 0.988590 0.086383
0.470930 0.988273 0.086385
0.577519 0.987964 0.086387
0.654194 0.987673 0.086395
0.748396 0.987406 0.086421
0.816911 0.987171 0.086446
0.870990 0.986972 0.086471
0.909140 0.986816 0.086497
0.933299 0.986705 0.086526
0.953350 0.986642 0.086556
0.964794 0.986629 0.086590
0.975090 0.986666 0.086632
0.980518 0.986753 0.086675
0.984176 0.986889 0.086720
0.987615 0.987071 0.086766
0.989949 0.987297 0.086813
0.991338 0.987565 0.086869
0.992672 0.987871 0.086927
0.993929 0.988213 0.087020
0.994867 0.988586 0.087158
0.995676 0.989315 0.087340
0.996464 0.989844 0.087532
0.997138 0.990371 0.087720
0.076232 0.991609 0.086382
0.076758 0.991600 0.086382
0.078831 0.991570 0.086382
0.082632 0.991514 0.086382
0.091411 0.991434 0.086383
0.108451 0.991329 0.086383
0.135746 0.991201 0.086384
0.175068 0.991055 0.086385
0.215407 0.990837 0.086386
0.279404 0.990590 0.086387
0.357775 0.990335 0.086391
0.472209 0.990077 0.086409
0.578086 0.989825 0.086430
0.654214 0.989585 0.086448
0.748034 0.989363 0.086468
0.816598 0.989159 0.086490
0.870640 0.988809 0.086514
0.908927 0.988648 0.086539
0.933084 0.988537 0.086566
0.953228 0.988469 0.086599
0.964684 0.988444 0.086637
0.974967 0.988465 0.086676
0.980465 0.988530 0.086718
0.984116 0.988640 0.086760
