kodachrome64/Kodachrome64_Modern_IlfochromeP.cube
TITLE "Kodachrome 64 Modern IlfochromeP"
# Adobe RGB in/out. REPLACES AgX. Kodachrome 64 Modern IlfochromeP.
LUT_3D_SIZE 9
DOMAIN_MIN 0.0 0.0 0.0
DOMAIN_MAX 1.0 1.0 1.0
0.138776 0.101263 0.100261
0.189007 0.127237 0.104050
0.389258 0.199129 0.112325
0.579070 0.292532 0.128335
0.731556 0.383149 0.149413
0.826905 0.461250 0.173094
0.888686 0.540228 0.201180
0.929501 0.608846 0.228366
0.955103 0.666651 0.255264
0.139867 0.162333 0.103100
0.164742 0.154108 0.103874
0.329214 0.214818 0.109844
0.533572 0.305328 0.125625
0.709662 0.392478 0.146364
0.815136 0.469452 0.170231
0.882781 0.546914 0.198972
0.925570 0.613962 0.226525
0.953295 0.671094 0.253760
0.150717 0.356045 0.109309
0.195297 0.327054 0.109538
0.302341 0.297396 0.111707
0.461675 0.348043 0.122493
0.645741 0.422360 0.140834
0.778892 0.496616 0.164845
0.863941 0.569529 0.192884
0.913183 0.631522 0.221115
0.947416 0.685496 0.249155
0.169337 0.521958 0.120461
0.219976 0.498889 0.120506
0.337256 0.455940 0.122096
0.448523 0.442064 0.127116
0.591865 0.476872 0.139351
0.735803 0.542892 0.160961
0.832534 0.606171 0.186926
0.894908 0.661852 0.214887
0.936672 0.707200 0.243305
0.193916 0.656900 0.132843
0.242513 0.644262 0.133005
0.357664 0.613213 0.134439
0.470869 0.588156 0.138831
0.586177 0.583277 0.147159
0.704614 0.607761 0.161824
0.806046 0.656228 0.185044
0.876742 0.700474 0.211260
0.921781 0.737870 0.238940
0.223829 0.748418 0.147610
0.266489 0.742941 0.148000
0.370387 0.725948 0.149751
0.484306 0.706968 0.153808
0.600559 0.696382 0.160787
0.702909 0.698072 0.170755
0.786668 0.713415 0.188479
0.860761 0.744547 0.212148
0.908942 0.772177 0.238078
0.252893 0.808728 0.161936
0.288761 0.805996 0.162385
0.379379 0.797788 0.164139
0.489774 0.786272 0.167730
0.606720 0.777003 0.174664
0.707199 0.774339 0.185874
0.785197 0.779203 0.200206
0.847850 0.790704 0.217591
0.898653 0.809633 0.241382
0.279398 0.851120 0.174927
0.308127 0.849531 0.175582
0.386470 0.844585 0.178012
0.490084 0.837979 0.182697
0.604996 0.832344 0.189987
0.705351 0.829865 0.200037
0.783099 0.831655 0.212826
0.845119 0.837750 0.229361
0.892010 0.847477 0.248706
0.301302 0.881063 0.188166
0.324256 0.880432 0.188850
0.391879 0.878437 0.191329
0.487202 0.875710 0.195955
0.597356 0.873353 0.202938
0.697505 0.872432 0.212364
0.776686 0.873644 0.225228
0.839681 0.877220 0.240760
0.887925 0.882994 0.259068
0.138817 0.108855 0.173389
0.194889 0.133039 0.176623
0.389260 0.201886 0.183626
0.567331 0.288614 0.191502
0.722399 0.377554 0.206514
0.820668 0.455872 0.225349
0.885415 0.535708 0.246421
0.927322 0.605726 0.268247
0.954133 0.664312 0.289547
0.139708 0.156567 0.149497
0.155416 0.140515 0.126189
0.318165 0.209691 0.155164
0.518921 0.298359 0.176788
0.696908 0.385812 0.198597
0.808815 0.463257 0.220051
0.879503 0.542247 0.242696
0.923401 0.610795 0.265601
0.952333 0.668741 0.287609
0.149392 0.339021 0.174299
0.185764 0.306545 0.159262
0.280038 0.277342 0.143370
0.442949 0.334344 0.157866
0.631878 0.413213 0.181175
0.771009 0.489426 0.206867
0.859382 0.564468 0.232351
0.911064 0.628231 0.257696
0.946483 0.683569 0.281604
0.167138 0.504980 0.181957
0.213499 0.482564 0.174513
0.325939 0.441650 0.162967
0.433635 0.428576 0.159748
0.578311 0.466295 0.171055
0.728662 0.535410 0.195903
0.828307 0.601425 0.221574
0.892768 0.658497 0.248091
0.935284 0.705300 0.273678
0.191486 0.647286 0.189000
0.238298 0.634919 0.185927
0.351837 0.604222 0.178870
0.463032 0.578352 0.174936
0.576540 0.574250 0.178578
0.697783 0.601932 0.192689
0.802582 0.651825 0.215704
0.874910 0.697929 0.241234
0.920584 0.736112 0.267049
0.221944 0.744155 0.196772
0.263921 0.738748 0.195575
0.367112 0.721307 0.192708
0.480027 0.702438 0.191256
0.595001 0.692039 0.194055
0.698096 0.694240 0.202156
0.783693 0.710666 0.216461
0.858834 0.742747 0.239589
0.907961 0.770919 0.264126
0.251483 0.806555 0.204791
0.287160 0.803852 0.204484
0.377463 0.795719 0.203940
0.487368 0.783868 0.204593
0.603650 0.774708 0.208013
0.704405 0.772237 0.215381
0.783170 0.777430 0.227276
0.846619 0.789485 0.243196
0.897987 0.808918 0.265691
0.278502 0.849825 0.212434
0.307191 0.848253 0.212593
0.385327 0.843357 0.213410
0.488737 0.836819 0.215692
0.603323 0.831262 0.220360
0.703842 0.828887 0.228072
0.781991 0.830827 0.239213
0.844369 0.837119 0.253985
0.891624 0.847064 0.271523
0.300798 0.880530 0.219776
0.323719 0.879906 0.220200
0.391252 0.877936 0.221819
0.486493 0.875247 0.225117
0.596504 0.872940 0.230590
0.696780 0.872080 0.238739
0.776184 0.873371 0.249994
0.839373 0.877043 0.264041
0.887802 0.882926 0.280577
0.138875 0.121857 0.390247
0.195036 0.144968 0.392056
0.398032 0.215991 0.398502
0.585813 0.304125 0.389692
0.720892 0.380576 0.373301
0.815244 0.453659 0.371526
0.880916 0.531114 0.375635
0.923486 0.601199 0.382605
0.952125 0.660132 0.391064
0.140182 0.188596 0.391545
0.196689 0.205757 0.385413
0.359552 0.243036 0.352810
0.528883 0.309311 0.348612
0.691904 0.386435 0.353086
0.802575 0.459464 0.360178
0.874765 0.537004 0.368632
0.919486 0.605988 0.377989
0.950311 0.664433 0.387878
0.146795 0.302358 0.322082
0.175403 0.280368 0.286739
0.239192 0.242096 0.220859
0.425865 0.324257 0.270912
0.617303 0.405416 0.305707
0.760244 0.481209 0.329886
0.851744 0.557142 0.348383
0.906776 0.622546 0.363947
0.944428 0.679451 0.377856
0.162671 0.468792 0.337410
0.201250 0.451051 0.319712
0.303553 0.414848 0.279477
0.402735 0.401207 0.254222
0.552792 0.448551 0.272227
0.714998 0.522022 0.300533
0.819713 0.592464 0.325083
0.888069 0.651681 0.345963
0.932004 0.701143 0.364084
0.185668 0.623693 0.339144
0.229278 0.612488 0.330354
0.338166 0.583204 0.307129
0.444406 0.555589 0.284822
0.553130 0.552747 0.275439
0.681639 0.588574 0.286409
0.793386 0.641655 0.309056
0.870381 0.691927 0.331072
0.917512 0.731838 0.351295
0.216774 0.731709 0.335056
0.256956 0.725868 0.330626
0.358425 0.709200 0.317917
0.468841 0.690799 0.303466
0.580304 0.680629 0.294253
0.685054 0.684031 0.293611
0.775748 0.703518 0.303425
0.853603 0.737930 0.323181
0.905185 0.767578 0.342981
0.247364 0.800261 0.329335
0.282504 0.797675 0.327162
0.371973 0.789000 0.320665
0.480543 0.777157 0.312718
0.594881 0.768309 0.307109
0.696390 0.766310 0.306445
0.777265 0.772364 0.311535
0.843067 0.786073 0.322189
0.896038 0.806899 0.340226
0.275753 0.845897 0.323339
0.304327 0.844388 0.322399
0.381855 0.839678 0.319580
0.484679 0.833382 0.316215
0.598276 0.828077 0.314296
0.699307 0.826003 0.315484
0.778632 0.828371 0.320653
0.842074 0.835238 0.329822
0.890433 0.845838 0.342419
0.299195 0.878850 0.317360
0.322010 0.878254 0.317124
0.389266 0.876372 0.316515
0.484259 0.873817 0.316213
0.593833 0.871673 0.317250
0.694509 0.871009 0.320588
0.774604 0.872542 0.326836
0.838398 0.876512 0.336183
0.887410 0.882732 0.348417
0.138928 0.143494 0.609057
0.195305 0.164270 0.610169
0.398179 0.232832 0.614150
0.613065 0.330414 0.621417
0.740839 0.403304 0.580540
0.821273 0.465812 0.548497
0.881190 0.536284 0.532301
0.921988 0.602110 0.523475
0.950790 0.659137 0.518841
0.140238 0.207997 0.609855
0.199857 0.226694 0.610966
0.400685 0.284524 0.614943
0.583831 0.350643 0.588527
0.715498 0.407929 0.550256
0.807740 0.471061 0.531776
0.874678 0.541363 0.522276
0.917817 0.606460 0.517574
0.948926 0.663192 0.514940
0.147274 0.316956 0.516639
0.183183 0.312418 0.497310
0.310836 0.317696 0.466834
0.462846 0.359192 0.466529
0.631119 0.420185 0.478712
0.762219 0.487818 0.488716
0.849769 0.558546 0.495290
0.904326 0.621496 0.499572
0.942877 0.677379 0.502518
0.158970 0.440762 0.487578
0.191313 0.428944 0.470076
0.288366 0.399523 0.417854
0.370682 0.373591 0.360711
0.541832 0.443643 0.407110
0.707063 0.518354 0.440120
0.814621 0.589020 0.462284
0.884609 0.648143 0.475610
0.929146 0.698441 0.484961
0.179655 0.596789 0.491910
0.218919 0.587578 0.481893
0.323278 0.559572 0.452560
0.424110 0.532375 0.414733
0.526191 0.528825 0.393191
0.665638 0.575047 0.408863
0.783667 0.633147 0.433321
0.865360 0.686927 0.453689
0.914373 0.728127 0.467787
0.210238 0.714736 0.487260
0.248002 0.709596 0.481685
0.347623 0.694583 0.464914
0.455387 0.676372 0.441054
0.562426 0.664134 0.420930
0.668684 0.669393 0.412459
0.766379 0.695582 0.420422
0.847492 0.732061 0.438320
0.901912 0.764022 0.454843
0.241652 0.791175 0.476742
0.276084 0.788329 0.473683
0.364548 0.779642 0.464133
0.471553 0.768584 0.449867
0.583435 0.760239 0.435805
0.685796 0.758732 0.427334
0.769324 0.765806 0.426203
0.838467 0.781930 0.432961
0.893493 0.804474 0.447433
0.271747 0.840268 0.463530
0.300163 0.838876 0.461933
0.376930 0.834520 0.456634
0.478953 0.828677 0.448122
0.591228 0.823802 0.439986
0.693001 0.822151 0.434787
0.773913 0.825071 0.434049
0.838819 0.832716 0.438035
0.888776 0.844280 0.446028
0.296681 0.876349 0.447584
0.319413 0.875802 0.446729
0.386267 0.874077 0.444009
0.480925 0.871756 0.440227
0.589893 0.869884 0.436841
0.691179 0.869520 0.435320
0.772286 0.871407 0.436699
0.836961 0.875808 0.441396
0.886832 0.882522 0.449232
0.138984 0.171574 0.790972
0.195707 0.190634 0.791439
0.398397 0.256525 0.793114
0.613186 0.347719 0.796176
0.771193 0.438806 0.790814
0.836718 0.492668 0.745250
0.886810 0.552516 0.714534
0.923896 0.610380 0.689487
0.950799 0.663310 0.671964
0.140378 0.233672 0.791307
0.200246 0.250804 0.791774
0.400902 0.304350 0.793447
0.614577 0.384629 0.796506
0.746545 0.443794 0.765546
0.823010 0.497518 0.730283
0.880089 0.557054 0.701858
0.919571 0.614325 0.681385
0.948876 0.667089 0.666582
0.150465 0.378471 0.777330
0.206507 0.379943 0.766313
0.367771 0.389708 0.738891
0.521938 0.415186 0.709226
0.669664 0.455898 0.686506
0.779072 0.512048 0.672795
0.855955 0.572022 0.663476
0.905564 0.627860 0.654778
0.942610 0.680292 0.646809
0.158574 0.442791 0.655327
0.192048 0.437638 0.638674
0.305368 0.427595 0.596478
0.427625 0.434209 0.567612
0.573570 0.473953 0.573470
0.718637 0.534543 0.591243
0.817398 0.596501 0.605292
0.884506 0.651605 0.613622
0.928088 0.699385 0.617397
0.175774 0.575117 0.633983
0.210847 0.567586 0.621185
0.313054 0.546104 0.583159
0.412684 0.521884 0.537447
0.501368 0.505878 0.499485
0.659809 0.572876 0.531656
0.780254 0.632597 0.557531
0.862545 0.686288 0.575497
0.912516 0.727243 0.587924
0.204014 0.697944 0.628784
0.238966 0.693724 0.620928
0.337092 0.681055 0.596637
0.442654 0.661921 0.564650
0.545336 0.649242 0.536698
0.651638 0.654164 0.522352
0.758123 0.689414 0.533841
0.842559 0.728214 0.551860
0.899264 0.761863 0.566212
0.235655 0.779851 0.615134
0.268983 0.777401 0.610535
0.356476 0.769831 0.595900
0.462083 0.759970 0.575145
0.571603 0.752311 0.555777
0.674568 0.751094 0.541884
0.760701 0.759064 0.536738
0.833838 0.778208 0.542572
0.890992 0.802458 0.554752
0.267060 0.833832 0.594871
0.295158 0.832608 0.592299
0.371335 0.828765 0.583956
0.472480 0.823587 0.571904
0.583433 0.819315 0.559826
0.686056 0.818159 0.550301
0.768653 0.821638 0.545439
0.835169 0.830122 0.545846
0.887200 0.843127 0.551092
0.293567 0.873394 0.571276
0.316259 0.872916 0.570048
0.382650 0.871414 0.566031
0.476954 0.869408 0.560031
0.585280 0.867411 0.553702
0.687326 0.867434 0.548803
0.769614 0.870239 0.546664
0.835310 0.875137 0.547898
0.886181 0.882426 0.552336
0.139027 0.208959 0.882759
0.196248 0.227563 0.882961
0.398692 0.285227 0.883685
0.613350 0.370245 0.885011
0.781087 0.462994 0.886980
0.855488 0.527304 0.860665
0.895731 0.577097 0.831053
0.928566 0.625172 0.809048
0.952107 0.672644 0.791257
0.140893 0.265078 0.882904
0.200769 0.280149 0.883106
0.401195 0.329430 0.883830
0.614740 0.403428 0.885155
0.777333 0.487613 0.883955
0.842251 0.532225 0.850224
0.889052 0.581477 0.823435
0.924184 0.628866 0.803999
0.950145 0.676194 0.786462
0.151642 0.407688 0.883424
0.216275 0.417117 0.883625
0.410050 0.449118 0.884347
0.578359 0.470821 0.860094
0.713331 0.504091 0.835433
0.802567 0.546605 0.814958
0.868113 0.594699 0.799609
0.910100 0.641406 0.784240
0.943716 0.687122 0.770885
0.161701 0.481330 0.813552
0.203731 0.480641 0.808771
0.337349 0.482136 0.795061
0.477177 0.495104 0.775733
0.621685 0.524802 0.763747
0.741473 0.567744 0.758195
0.828006 0.615196 0.755077
0.888182 0.662951 0.751917
0.929258 0.704695 0.747871
0.174555 0.572478 0.762881
0.209155 0.568274 0.756215
0.315464 0.556926 0.736080
0.428247 0.548268 0.706678
0.546739 0.558905 0.687609
0.680055 0.597596 0.693748
0.787885 0.645376 0.707390
0.864978 0.692166 0.717654
0.912692 0.730458 0.722532
0.199027 0.685631 0.750118
0.232677 0.682467 0.745231
0.329503 0.670865 0.729603
0.435075 0.655652 0.700684
0.536430 0.643760 0.668757
0.635060 0.640209 0.638485
0.755349 0.689416 0.666570
0.841053 0.729060 0.684462
0.898150 0.762405 0.696378
0.230341 0.769404 0.741058
0.262189 0.767414 0.737963
0.348897 0.761197 0.727654
0.453572 0.752900 0.708662
0.561345 0.746135 0.686687
0.664258 0.744680 0.668844
0.752080 0.752794 0.660472
0.829926 0.775750 0.668927
0.889070 0.801530 0.680428
0.262189 0.827361 0.727398
0.289867 0.826340 0.725190
0.365577 0.823125 0.717921
0.465961 0.818784 0.705406
0.575787 0.815266 0.691439
0.679282 0.814627 0.679454
0.763395 0.818539 0.672055
0.831471 0.827803 0.670528
0.885722 0.842412 0.675018
0.290176 0.870298 0.705387
0.312825 0.869903 0.704007
0.378745 0.868415 0.699435
0.472709 0.866309 0.692403
0.580440 0.864912 0.684573
0.683347 0.865519 0.677813
0.766878 0.869168 0.673649
0.833632 0.874651 0.672892
0.885550 0.882550 0.675413
0.139324 0.251707 0.935048
0.196934 0.267608 0.935101
0.399067 0.318590 0.935294
0.613558 0.395242 0.935647
0.781196 0.484715 0.936172
0.871233 0.563912 0.929525
0.905368 0.604102 0.905423
0.934594 0.644350 0.884809
0.954271 0.685078 0.864798
0.141486 0.300229 0.935086
0.201431 0.313930 0.935140
0.401567 0.358754 0.935332
0.614948 0.425962 0.935685
0.781924 0.512629 0.936210
0.860280 0.569295 0.922242
0.898924 0.608077 0.900475
0.930262 0.647946 0.879953
0.952305 0.687824 0.861442
0.152251 0.429964 0.935224
0.216935 0.438842 0.935278
0.410414 0.470277 0.935470
0.619332 0.526203 0.935666
0.742660 0.551633 0.918043
0.822513 0.585019 0.899704
0.878511 0.620761 0.881319
0.916231 0.660048 0.864236
0.945822 0.697319 0.850414
0.166421 0.535369 0.907683
0.218053 0.536248 0.905277
0.366356 0.540781 0.897841
0.517672 0.552804 0.885613
0.661229 0.575040 0.871335
0.767169 0.605158 0.859237
0.842566 0.640762 0.849390
0.894496 0.680450 0.840225
0.932282 0.713867 0.831902
0.176728 0.594474 0.854198
0.214506 0.593306 0.851277
0.329773 0.591107 0.841661
0.456612 0.593384 0.829059
0.588864 0.606538 0.819324
0.711506 0.632828 0.814722
0.802738 0.668922 0.813424
0.870934 0.704253 0.812770
0.914931 0.737881 0.811330
0.196811 0.682657 0.828987
0.230170 0.680600 0.826021
0.327953 0.673401 0.816453
0.438169 0.665265 0.802592
0.549797 0.662868 0.785945
0.664192 0.675802 0.776334
0.765976 0.703661 0.780070
0.845058 0.737126 0.787252
0.899189 0.766550 0.792232
0.226081 0.761874 0.818639
0.256801 0.760386 0.816531
0.343148 0.755720 0.809568
0.447756 0.749466 0.798858
0.555799 0.744357 0.782704
0.659099 0.743038 0.767132
0.743864 0.747383 0.755402
0.828648 0.776696 0.767394
0.888464 0.802617 0.775666
0.257637 0.821665 0.808737
0.284929 0.820865 0.807409
0.360257 0.818347 0.802980
0.460111 0.814973 0.795781
0.569233 0.812352 0.784636
0.673614 0.812252 0.774411
0.758725 0.816280 0.767236
0.827947 0.825985 0.765089
0.884519 0.842378 0.769221
0.286774 0.866672 0.795918
0.309379 0.866272 0.794849
0.374939 0.865045 0.791273
0.468514 0.863549 0.785666
0.575762 0.862828 0.779219
0.679586 0.864069 0.773357
0.764325 0.868297 0.769345
0.832081 0.874477 0.767992
0.885022 0.882985 0.769314
0.139672 0.295946 0.959580
0.197766 0.309843 0.959619
0.399524 0.355169 0.959760
0.613812 0.423198 0.960019
0.781329 0.510079 0.960404
0.880566 0.598632 0.958636
0.913431 0.631068 0.944447
0.940581 0.665618 0.932881
0.956709 0.697845 0.916737
0.142135 0.338863 0.959608
0.202235 0.351011 0.959648
0.402021 0.390961 0.959788
0.615201 0.451744 0.960047
0.782057 0.536015 0.960432
0.872475 0.603832 0.954960
0.907732 0.635190 0.941835
0.936382 0.669208 0.930403
0.954770 0.700513 0.914276
0.152974 0.455485 0.959709
0.217738 0.464295 0.959749
0.410858 0.496330 0.959889
0.620156 0.549478 0.960147
0.764418 0.594652 0.954700
0.839191 0.619104 0.943343
0.888241 0.648298 0.933331
0.922686 0.681203 0.919058
0.948346 0.709700 0.906123
0.171069 0.587435 0.951545
0.230841 0.588512 0.950338
0.389566 0.592856 0.946393
0.551201 0.602212 0.940413
0.693518 0.617953 0.933574
0.790167 0.640355 0.922702
0.857218 0.668600 0.911628
0.901690 0.697327 0.901988
0.936268 0.725579 0.893556
0.180791 0.628250 0.919145
0.223771 0.628368 0.917617
0.346901 0.629727 0.912747
0.483062 0.635137 0.905786
0.622129 0.647574 0.898625
0.734937 0.668275 0.892417
0.817160 0.693366 0.885318
0.877765 0.719916 0.879317
0.918495 0.747096 0.873692
0.198118 0.691544 0.891735
0.232195 0.690725 0.889750
0.333267 0.688620 0.883356
0.450581 0.687657 0.874156
0.573354 0.691598 0.865175
0.689810 0.703690 0.859135
0.782053 0.724342 0.856641
0.853012 0.749108 0.856022
0.902067 0.773899 0.855410
0.223744 0.759404 0.874500
0.253941 0.758455 0.872881
0.340641 0.755550 0.867502
0.446830 0.751988 0.859170
0.558638 0.750128 0.849771
0.666998 0.752865 0.840890
0.758024 0.764077 0.836735
0.833474 0.784956 0.838528
0.889805 0.806525 0.841376
0.253930 0.817621 0.863864
0.280922 0.817051 0.862765
0.356032 0.815276 0.859072
0.455766 0.812991 0.853211
0.564996 0.811494 0.846052
0.670636 0.812225 0.838543
0.756431 0.816398 0.832626
0.824766 0.824836 0.829221
0.884089 0.843686 0.833843
0.283623 0.863400 0.852607
0.306185 0.863128 0.851951
0.371426 0.862324 0.849745
0.464704 0.861474 0.845991
0.571647 0.861475 0.841340
0.676415 0.863379 0.836967
0.762244 0.868149 0.833795
0.830819 0.874746 0.832525
0.884666 0.883808 0.833396
0.139975 0.341903 0.972005
0.198747 0.353943 0.972016
0.400067 0.393427 0.972056
0.614113 0.453832 0.972129
0.781487 0.537925 0.972238
0.885822 0.627717 0.972385
0.919212 0.657205 0.967036
0.944226 0.685989 0.955634
0.958900 0.711310 0.945304
0.142821 0.379700 0.972013
0.203184 0.389917 0.972024
0.402560 0.424299 0.972064
0.615501 0.482778 0.972137
0.782214 0.562419 0.972246
0.879128 0.634246 0.971226
0.913963 0.661476 0.965532
0.941511 0.688913 0.953813
0.957014 0.713930 0.943973
0.153805 0.486695 0.972042
0.218686 0.495430 0.972053
0.411385 0.525334 0.972092
0.620453 0.575264 0.972166
0.778689 0.629762 0.971609
0.851385 0.650535 0.967164
0.896048 0.675061 0.957405
0.928334 0.698652 0.947793
0.950733 0.722929 0.939532
0.175068 0.628991 0.971165
0.240490 0.630069 0.970732
0.406367 0.634131 0.969282
0.575864 0.642183 0.966972
0.716959 0.655044 0.960389
0.806404 0.673035 0.952630
0.869154 0.693024 0.945246
0.908354 0.714604 0.938545
0.940275 0.738370 0.932436
0.186170 0.664902 0.951958
0.232966 0.665456 0.951242
0.362388 0.667872 0.948862
0.505075 0.673678 0.945138
0.646459 0.683835 0.940731
0.753865 0.697264 0.936238
0.830122 0.715139 0.931811
0.884514 0.736551 0.924815
0.922381 0.757453 0.918146
0.201901 0.709155 0.933616
0.237246 0.709067 0.933000
0.342220 0.709230 0.930628
0.465271 0.711174 0.925424
0.595912 0.716967 0.919709
0.711459 0.728124 0.914582
0.796957 0.744018 0.910480
0.861665 0.762354 0.907175
0.905683 0.782928 0.904157
0.223783 0.763177 0.916349
0.254157 0.762745 0.915446
0.341904 0.761565 0.912440
0.451021 0.760732 0.907780
0.568219 0.762138 0.902556
0.680360 0.767873 0.898054
0.770085 0.779378 0.895220
0.840507 0.795853 0.893995
0.892363 0.812366 0.893394
0.251551 0.816061 0.906014
0.278374 0.815724 0.905340
0.353517 0.814721 0.903068
0.453706 0.813640 0.899428
0.564207 0.813563 0.895088
0.671949 0.815763 0.890160
0.759563 0.821531 0.885662
0.829909 0.832219 0.883956
0.885171 0.847321 0.884727
0.280971 0.861151 0.897569
0.303495 0.861006 0.897147
0.368487 0.860622 0.895719
0.461603 0.860424 0.893425
0.568498 0.861173 0.889848
0.674241 0.863776 0.886071
0.761030 0.869088 0.883222
0.830172 0.875714 0.881932
0.884548 0.885093 0.882636
