kodachrome64/Kodachrome64_Modern_Punchy.cube
TITLE "Kodachrome 64 Modern Punchy"
# Adobe RGB in/out. REPLACES AgX. Kodachrome 64 Modern Punchy.
LUT_3D_SIZE 5
DOMAIN_MIN 0.0 0.0 0.0
DOMAIN_MAX 1.0 1.0 1.0
0.093920 0.090395 0.084157
0.303650 0.090865 0.084157
0.880449 0.256182 0.084377
0.972767 0.619683 0.085690
0.984589 0.808086 0.093246
0.093920 0.190803 0.084157
0.138391 0.115675 0.084157
0.780841 0.364835 0.084284
0.964550 0.661204 0.085170
0.983183 0.828070 0.091498
0.094961 0.799032 0.084197
0.225554 0.731940 0.084215
0.694225 0.681899 0.084352
0.941685 0.798512 0.084928
0.979392 0.884688 0.089916
0.107725 0.931437 0.084521
0.275955 0.927146 0.084547
0.730845 0.913810 0.084675
0.926887 0.915195 0.085619
0.975665 0.931731 0.090298
0.137285 0.955480 0.085016
0.309320 0.954294 0.085120
0.714477 0.951991 0.085819
0.922470 0.952123 0.087748
0.972506 0.956351 0.094517
0.093920 0.090395 0.260809
0.322886 0.091556 0.281674
0.867105 0.248902 0.222067
0.970088 0.606968 0.227150
0.984084 0.801532 0.262772
0.093920 0.118463 0.134645
0.103650 0.093640 0.087489
0.745264 0.310734 0.121147
0.961166 0.643402 0.173073
0.982608 0.820962 0.232066
0.094229 0.749664 0.157739
0.192215 0.681789 0.122463
0.638052 0.637223 0.100475
0.931048 0.779758 0.123829
0.978686 0.880496 0.178352
0.105686 0.928212 0.143432
0.259432 0.921342 0.133227
0.709975 0.908318 0.122444
0.922801 0.910883 0.125052
0.975234 0.930841 0.159374
0.135183 0.954481 0.129957
0.303666 0.953360 0.129128
0.708072 0.951229 0.129849
0.921278 0.951623 0.139935
0.972328 0.956232 0.173134
0.093920 0.090432 0.908975
0.323675 0.095960 0.910222
0.919321 0.403189 0.908884
0.972122 0.636899 0.858385
0.983831 0.804719 0.821272
0.093920 0.243079 0.900999
0.250355 0.274290 0.878039
0.812508 0.452628 0.835309
0.962432 0.664946 0.813049
0.982258 0.821807 0.799456
0.094070 0.669598 0.785326
0.151583 0.627905 0.730437
0.546612 0.552686 0.582557
0.924363 0.764820 0.692558
0.977857 0.876706 0.737200
0.102675 0.915603 0.762745
0.223459 0.909281 0.748535
0.668126 0.896078 0.689859
0.910918 0.901412 0.653750
0.973559 0.929157 0.688220
0.129999 0.952010 0.713209
0.283080 0.951111 0.705317
0.692610 0.949522 0.686542
0.918413 0.950578 0.675321
0.971905 0.956094 0.684361
0.093920 0.095184 0.961409
0.325130 0.132012 0.961459
0.924845 0.507230 0.961640
0.976707 0.716631 0.952981
0.984494 0.827552 0.939912
0.093920 0.382935 0.961445
0.350546 0.481096 0.961496
0.894329 0.635658 0.957092
0.969256 0.744692 0.944872
0.982877 0.842479 0.935508
0.094086 0.700215 0.936671
0.177143 0.694480 0.933034
0.699076 0.720715 0.926913
0.939955 0.810374 0.923616
0.978258 0.884695 0.922444
0.100118 0.903628 0.926531
0.200138 0.898773 0.921455
0.642635 0.889774 0.904150
0.895766 0.892175 0.887997
0.972691 0.929226 0.900022
0.124236 0.949269 0.911851
0.265971 0.948711 0.909151
0.675539 0.947949 0.902108
0.914007 0.949826 0.896299
0.971506 0.956346 0.896281
0.093920 0.166532 0.976529
0.327308 0.283062 0.976542
0.924993 0.616466 0.976588
0.978968 0.799269 0.973418
0.984860 0.859527 0.964677
0.093920 0.511463 0.976539
0.352777 0.595271 0.976552
0.923562 0.759986 0.976430
0.975237 0.816551 0.969370
0.983818 0.873084 0.962330
0.094236 0.806324 0.967262
0.234010 0.809316 0.966061
0.782032 0.826010 0.962748
0.953041 0.864193 0.960667
0.979491 0.900141 0.957122
0.099500 0.904654 0.956603
0.198140 0.903384 0.955471
0.662115 0.903836 0.951865
0.918684 0.915306 0.949000
0.974030 0.932618 0.948284
0.122130 0.947372 0.949919
0.251887 0.947190 0.949195
0.662610 0.947380 0.947221
0.911199 0.950096 0.945397
0.971343 0.957296 0.945236
