kodachrome64/Kodachrome64_Classic_Punchy.cube
TITLE "Kodachrome 64 Classic Punchy"
# Adobe RGB in/out. REPLACES AgX. Kodachrome 64 Classic Punchy.
LUT_3D_SIZE 33
DOMAIN_MIN 0.0 0.0 0.0
DOMAIN_MAX 1.0 1.0 1.0
0.084019 0.088159 0.082807
0.084019 0.088159 0.082807
0.084019 0.088159 0.082807
0.084019 0.088159 0.082807
0.084019 0.088159 0.082807
0.085088 0.088159 0.082807
0.087623 0.088159 0.082807
0.092562 0.088159 0.082807
0.101567 0.088159 0.082807
0.116919 0.088198 0.082807
0.140153 0.088377 0.082807
0.180085 0.088771 0.082807
0.229510 0.089436 0.082807
0.281773 0.090282 0.082807
0.350189 0.091306 0.082807
0.451872 0.093594 0.082807
0.549913 0.096202 0.082807
0.630287 0.099947 0.082807
0.723319 0.105014 0.082807
0.781130 0.113208 0.082807
0.841008 0.127684 0.082807
0.878065 0.149146 0.082807
0.907159 0.174854 0.082854
0.928091 0.204838 0.082947
0.942267 0.245067 0.083082
0.953357 0.277448 0.083280
0.962231 0.323575 0.083524
0.969258 0.369748 0.083806
0.975618 0.419433 0.084056
0.979174 0.473785 0.084182
0.982467 0.519917 0.084569
0.985090 0.565795 0.084944
0.986521 0.609307 0.085374
0.084019 0.088159 0.082807
0.084019 0.088159 0.082807
0.084019 0.088159 0.082807
0.084019 0.088159 0.082807
0.084019 0.088159 0.082807
0.085095 0.088159 0.082807
0.087627 0.088159 0.082807
0.092583 0.088159 0.082807
0.101595 0.088159 0.082807
0.116953 0.088215 0.082807
0.140206 0.088397 0.082807
0.180151 0.088817 0.082807
0.229572 0.089495 0.082807
0.281852 0.090350 0.082807
0.350270 0.091436 0.082807
0.452000 0.093744 0.082807
0.549991 0.096339 0.082807
0.630394 0.100172 0.082807
0.723393 0.105373 0.082807
0.781161 0.113664 0.082807
0.841047 0.128593 0.082807
0.878089 0.150049 0.082807
0.907174 0.175926 0.082855
0.928103 0.206181 0.082948
0.942274 0.246029 0.083083
0.953363 0.279153 0.083282
0.962235 0.324744 0.083526
0.969261 0.371188 0.083808
0.975620 0.420737 0.084056
0.979176 0.475274 0.084185
0.982469 0.521093 0.084571
0.985091 0.566870 0.084946
0.986522 0.610042 0.085376
0.084019 0.088159 0.082807
0.084019 0.088159 0.082807
0.084019 0.088159 0.082807
0.084019 0.088159 0.082807
0.084019 0.088159 0.082807
0.085121 0.088159 0.082807
0.087640 0.088159 0.082807
0.092657 0.088159 0.082807
0.101693 0.088159 0.082807
0.117078 0.088271 0.082807
0.140396 0.088463 0.082807
0.180385 0.088980 0.082807
0.229795 0.089700 0.082807
0.282136 0.090588 0.082807
0.350560 0.091894 0.082807
0.452458 0.094281 0.082807
0.550271 0.096813 0.082807
0.630778 0.101048 0.082807
0.723658 0.106691 0.082807
0.781274 0.115368 0.082807
0.841185 0.131879 0.082807
0.878173 0.153307 0.082807
0.907229 0.179797 0.082857
0.928145 0.211043 0.082950
0.942299 0.249504 0.083088
0.953385 0.285326 0.083288
0.962249 0.328955 0.083533
0.969274 0.376380 0.083814
0.975626 0.425483 0.084057
0.979182 0.479448 0.084193
0.982474 0.525322 0.084578
0.985093 0.570733 0.084953
0.986524 0.612669 0.085385
0.084019 0.088159 0.082807
0.084019 0.088159 0.082807
0.084019 0.088159 0.082807
0.084019 0.088159 0.082807
0.084019 0.088159 0.082807
0.085168 0.088159 0.082807
0.087664 0.088159 0.082807
0.092792 0.088159 0.082807
0.101873 0.088237 0.082807
0.117278 0.088399 0.082807
0.140746 0.088762 0.082807
0.180817 0.089347 0.082807
0.230205 0.090085 0.082807
0.282659 0.091005 0.082807
0.351095 0.092744 0.082807
0.453301 0.095238 0.082807
0.550785 0.098037 0.082807
0.631486 0.102630 0.082807
0.724146 0.109090 0.082807
0.781482 0.119082 0.082807
0.841438 0.136931 0.082807
0.878328 0.159362 0.082807
0.907330 0.187454 0.082862
0.928224 0.220135 0.082955
0.942346 0.255928 0.083095
0.953426 0.297145 0.083299
0.962275 0.336747 0.083545
0.969298 0.386008 0.083826
0.975638 0.434975 0.084058
0.979192 0.487112 0.084208
0.982484 0.533119 0.084592
0.985097 0.577848 0.084966
0.986528 0.617493 0.085400
0.084019 0.088159 0.082807
0.084019 0.088159 0.082807
0.084019 0.088159 0.082807
0.084019 0.088159 0.082807
0.084019 0.088159 0.082807
0.085238 0.088159 0.082807
0.087699 0.088169 0.082807
0.092994 0.088272 0.082807
0.102142 0.088419 0.082807
0.117585 0.088752 0.082807
0.141268 0.089256 0.082807
0.181464 0.089907 0.082807
0.230818 0.090747 0.082807
0.283442 0.092034 0.082807
0.351895 0.094243 0.082807
0.454565 0.096595 0.082807
0.551555 0.100300 0.082807
0.632545 0.105046 0.082807
0.724877 0.112627 0.082807
0.781793 0.125137 0.082807
0.841817 0.145289 0.082807
0.878559 0.168704 0.082807
0.907480 0.197695 0.082870
0.928341 0.233827 0.082962
0.942416 0.265610 0.083107
0.953488 0.309756 0.083316
0.962314 0.349555 0.083564
0.969334 0.400009 0.083843
0.975656 0.449319 0.084060
0.979208 0.498618 0.084230
0.982499 0.544567 0.084613
0.985103 0.588508 0.084986
0.986534 0.624687 0.085423
0.084019 0.088159 0.082807
0.084019 0.088159 0.082807
0.084019 0.088159 0.082807
0.084019 0.088185 0.082807
0.084019 0.088235 0.082807
0.085330 0.088301 0.082807
0.087803 0.088406 0.082807
0.093264 0.088602 0.082807
0.102504 0.088960 0.082807
0.117998 0.089453 0.082807
0.141974 0.090027 0.082807
0.182338 0.090789 0.082807
0.231647 0.091951 0.082807
0.284500 0.093941 0.082807
0.352977 0.096139 0.082807
0.455811 0.099208 0.082807
0.552595 0.103494 0.082807
0.633976 0.109899 0.082807
0.725864 0.119533 0.082807
0.782213 0.136429 0.082807
0.842329 0.157395 0.082807
0.878872 0.183035 0.082807
0.907683 0.213054 0.082880
0.928499 0.249460 0.082971
0.942510 0.282605 0.083122
0.953571 0.325293 0.083338
0.962366 0.369622 0.083589
0.969383 0.417276 0.083866
0.975680 0.468976 0.084063
0.979230 0.514247 0.084259
0.982519 0.558889 0.084641
0.985112 0.602945 0.085012
0.986542 0.634367 0.085453
0.084019 0.088427 0.082807
0.084019 0.088433 0.082807
0.084019 0.088453 0.082807
0.084019 0.088510 0.082807
0.084019 0.088663 0.082807
0.085500 0.088858 0.082807
0.088030 0.089094 0.082807
0.093605 0.089485 0.082807
0.102962 0.089910 0.082807
0.118523 0.090500 0.082807
0.142873 0.091134 0.082807
0.183450 0.092480 0.082807
0.232702 0.094382 0.082807
0.285848 0.096358 0.082807
0.354354 0.099261 0.082807
0.457238 0.103222 0.082807
0.553918 0.108972 0.082807
0.635799 0.117282 0.082807
0.727119 0.132299 0.082807
0.783639 0.151088 0.082807
0.842980 0.173977 0.082807
0.879270 0.201054 0.082807
0.907941 0.236467 0.082892
0.928701 0.266053 0.082987
0.942630 0.308502 0.083141
0.953677 0.345495 0.083366
0.962432 0.394396 0.083620
0.969444 0.440952 0.083895
0.975711 0.490079 0.084067
0.979257 0.534257 0.084297
0.982545 0.577160 0.084676
0.985123 0.615852 0.085045
0.986552 0.646609 0.085492
0.084019 0.089396 0.082807
0.084019 0.089414 0.082807
0.084019 0.089480 0.082807
0.084019 0.089598 0.082807
0.084112 0.089769 0.082807
0.085721 0.089997 0.082807
0.088317 0.090361 0.082807
0.094017 0.090779 0.082807
0.103518 0.091279 0.082807
0.119161 0.092394 0.082807
0.143970 0.093889 0.082807
0.184811 0.095539 0.082807
0.233991 0.097259 0.082807
0.287497 0.100500 0.082807
0.356037 0.104153 0.082807
0.458983 0.109910 0.082807
0.555535 0.117952 0.082807
0.638027 0.132116 0.082807
0.728653 0.149565 0.082807
0.785959 0.170628 0.082807
0.843775 0.196588 0.082807
0.879755 0.228185 0.082815
0.908255 0.258577 0.082907
0.928946 0.296525 0.083009
0.942776 0.332714 0.083165
0.953807 0.376514 0.083400
0.962513 0.421466 0.083658
0.969520 0.471421 0.083930
0.975749 0.514326 0.084071
0.979290 0.557253 0.084343
0.982576 0.599564 0.084719
0.985136 0.630939 0.085092
0.986565 0.661461 0.085539
0.084019 0.090928 0.082807
0.084019 0.090947 0.082807
0.084019 0.091014 0.082807
0.084019 0.091138 0.082807
0.084248 0.091445 0.082807
0.085976 0.091969 0.082807
0.088722 0.092623 0.082807
0.094499 0.093606 0.082807
0.104173 0.094733 0.082807
0.119915 0.095978 0.082807
0.145273 0.097394 0.082807
0.186428 0.100006 0.082807
0.235521 0.103043 0.082807
0.289457 0.107199 0.082807
0.358038 0.112741 0.082807
0.461056 0.121599 0.082807
0.557454 0.135963 0.082807
0.640676 0.152868 0.082807
0.730474 0.172965 0.082807
0.788717 0.197297 0.082807
0.844718 0.227139 0.082807
0.880331 0.256397 0.082835
0.908629 0.289724 0.082925
0.929238 0.326534 0.083037
0.942949 0.366724 0.083203
0.953960 0.410633 0.083440
0.962610 0.456808 0.083702
0.969609 0.500913 0.083971
0.975794 0.543277 0.084077
0.979330 0.583764 0.084397
0.982612 0.619151 0.084769
0.985152 0.648701 0.085151
0.986579 0.682399 0.085595
0.084019 0.094553 0.082807
0.084019 0.094597 0.082807
0.084019 0.094758 0.082807
0.084019 0.095051 0.082807
0.084397 0.095483 0.082807
0.086261 0.096054 0.082807
0.089183 0.096756 0.082807
0.095052 0.097887 0.082807
0.104927 0.099630 0.082807
0.120787 0.101731 0.082807
0.146786 0.104106 0.082807
0.188310 0.107896 0.082807
0.237301 0.112445 0.082807
0.291738 0.119629 0.082807
0.360366 0.131013 0.082807
0.463466 0.144682 0.082807
0.559685 0.161187 0.082807
0.643758 0.181180 0.082807
0.732589 0.203288 0.082807
0.791926 0.233611 0.082807
0.845812 0.259571 0.082807
0.880999 0.292903 0.082857
0.909062 0.326829 0.082945
0.929576 0.364908 0.083071
0.943150 0.407013 0.083252
0.954138 0.450444 0.083485
0.962721 0.494032 0.083753
0.969712 0.534551 0.084018
0.975845 0.574013 0.084084
0.979376 0.611384 0.084458
0.982655 0.639896 0.084827
0.985171 0.669967 0.085219
0.986597 0.708056 0.085659
0.084019 0.100279 0.082807
0.084019 0.100354 0.082807
0.084019 0.100625 0.082807
0.084019 0.101120 0.082807
0.084596 0.101854 0.082807
0.086574 0.102833 0.082807
0.089695 0.104056 0.082807
0.095672 0.106002 0.082807
0.105816 0.108769 0.082807
0.121777 0.111932 0.082807
0.148515 0.116606 0.082807
0.190464 0.123001 0.082807
0.239334 0.133713 0.082807
0.294350 0.145198 0.082807
0.363030 0.159161 0.082807
0.466223 0.175782 0.082807
0.562234 0.195704 0.082807
0.647284 0.218751 0.082807
0.735006 0.246319 0.082807
0.795598 0.268395 0.082807
0.847061 0.304125 0.082807
0.881761 0.333700 0.082881
0.909556 0.371135 0.082968
0.929962 0.410655 0.083109
0.943380 0.452322 0.083308
0.954341 0.493729 0.083542
0.962849 0.532404 0.083810
0.969830 0.570370 0.084054
0.975905 0.607694 0.084155
0.979428 0.635165 0.084528
0.982704 0.663272 0.084892
0.985192 0.699306 0.085296
0.986616 0.737326 0.085731
0.084019 0.111286 0.082807
0.084019 0.111395 0.082807
0.084019 0.111790 0.082807
0.084019 0.112512 0.082807
0.084885 0.113842 0.082807
0.086967 0.115885 0.082807
0.090399 0.118830 0.082807
0.096457 0.122428 0.082807
0.107038 0.128459 0.082807
0.122885 0.135779 0.082807
0.150465 0.144121 0.082807
0.192896 0.154384 0.082807
0.241606 0.166108 0.082807
0.297302 0.180907 0.082807
0.366039 0.197608 0.082807
0.469334 0.217602 0.082807
0.565109 0.242511 0.082807
0.651136 0.261785 0.082807
0.737731 0.289081 0.082807
0.797652 0.319168 0.082807
0.848467 0.348069 0.082822
0.882618 0.385680 0.082908
0.910112 0.421715 0.083004
0.930396 0.462591 0.083151
0.943638 0.500089 0.083369
0.954569 0.537028 0.083610
0.962992 0.572904 0.083874
0.969963 0.608289 0.084062
0.975971 0.634592 0.084238
0.979487 0.661629 0.084606
0.982759 0.695734 0.084965
0.985216 0.732316 0.085381
0.986638 0.770299 0.085812
0.084019 0.137630 0.082807
0.084019 0.137865 0.082807
0.084019 0.138711 0.082807
0.084109 0.140410 0.082807
0.085186 0.143099 0.082807
0.087448 0.146774 0.082807
0.091110 0.151500 0.082807
0.097335 0.157343 0.082807
0.108389 0.164375 0.082807
0.124112 0.173323 0.082807
0.152639 0.184223 0.082807
0.195729 0.196685 0.082807
0.244088 0.210712 0.082807
0.300723 0.230212 0.082807
0.369401 0.248791 0.082807
0.472807 0.265144 0.082807
0.568221 0.290089 0.082807
0.654382 0.316495 0.082807
0.740770 0.341155 0.082807
0.799339 0.373826 0.082807
0.850033 0.407280 0.082854
0.883573 0.441937 0.082938
0.910731 0.480161 0.083050
0.930879 0.513240 0.083210
0.943925 0.547916 0.083435
0.954824 0.581696 0.083685
0.963152 0.613158 0.083943
0.970112 0.638229 0.084071
0.976046 0.664010 0.084329
0.979553 0.697406 0.084691
0.982820 0.732553 0.085045
0.985242 0.769095 0.085476
0.986663 0.801027 0.085900
0.084019 0.180593 0.082807
0.084019 0.180928 0.082807
0.084019 0.182132 0.082807
0.084354 0.184357 0.082807
0.085584 0.188266 0.082807
0.087619 0.192579 0.082807
0.091457 0.197798 0.082807
0.098459 0.204002 0.082807
0.110033 0.214085 0.082807
0.125754 0.226366 0.082807
0.155165 0.240093 0.082807
0.199393 0.252057 0.082807
0.246832 0.264457 0.082807
0.304527 0.281735 0.082807
0.373124 0.306055 0.082807
0.476651 0.325527 0.082807
0.571640 0.347597 0.082807
0.657970 0.376760 0.082807
0.744128 0.406140 0.082807
0.801201 0.436404 0.082807
0.851541 0.471426 0.082888
0.884627 0.501782 0.082969
0.911414 0.533354 0.083103
0.931412 0.564618 0.083288
0.944236 0.596845 0.083507
0.955104 0.622262 0.083766
0.963328 0.646099 0.084018
0.970275 0.672012 0.084082
0.976127 0.704378 0.084428
0.979626 0.738094 0.084784
0.982888 0.773194 0.085151
0.985271 0.802173 0.085579
0.986690 0.818434 0.085998
0.084019 0.241534 0.082807
0.084019 0.241952 0.082807
0.084031 0.243458 0.082807
0.084666 0.245414 0.082807
0.086100 0.248361 0.082807
0.087993 0.252358 0.082807
0.092272 0.257463 0.082807
0.099668 0.263734 0.082807
0.111818 0.271654 0.082807
0.127991 0.284614 0.082807
0.160110 0.301887 0.082807
0.204483 0.315048 0.082807
0.249842 0.329865 0.082807
0.308713 0.346932 0.082807
0.378261 0.370092 0.082807
0.480872 0.394534 0.082807
0.575390 0.418192 0.082807
0.661907 0.445713 0.082807
0.747810 0.476365 0.082807
0.803240 0.502450 0.082844
0.852810 0.530523 0.082924
0.885779 0.558824 0.083019
0.912161 0.587751 0.083160
0.931996 0.613902 0.083371
0.944567 0.635619 0.083600
0.955411 0.658194 0.083852
0.963521 0.685762 0.084058
0.970454 0.716694 0.084178
0.976217 0.748987 0.084535
0.979705 0.782644 0.084884
0.982962 0.805643 0.085269
0.985303 0.821213 0.085690
0.986720 0.836977 0.086102
0.084019 0.308261 0.082807
0.084019 0.308618 0.082807
0.084324 0.309902 0.082807
0.085079 0.312269 0.082807
0.086623 0.315801 0.082807
0.088822 0.320593 0.082807
0.093381 0.326720 0.082807
0.100957 0.334253 0.082807
0.113743 0.343264 0.082807
0.130419 0.356463 0.082807
0.164952 0.371309 0.082807
0.210537 0.387859 0.082807
0.253241 0.405242 0.082807
0.313292 0.423450 0.082807
0.385027 0.445489 0.082807
0.485477 0.470119 0.082807
0.579477 0.492326 0.082807
0.666196 0.515194 0.082807
0.751822 0.539951 0.082807
0.805456 0.564230 0.082885
0.854190 0.589979 0.082962
0.887032 0.613220 0.083083
0.912973 0.632757 0.083247
0.932630 0.653181 0.083459
0.944928 0.676714 0.083698
0.955745 0.704889 0.083944
0.963730 0.734394 0.084070
0.970646 0.765269 0.084299
0.976315 0.796506 0.084648
0.979791 0.811423 0.084991
0.983043 0.826247 0.085395
0.985338 0.841247 0.085809
0.986753 0.855699 0.086215
0.084231 0.385905 0.082807
0.084319 0.386357 0.082807
0.084691 0.387982 0.082807
0.085567 0.390978 0.082807
0.087296 0.395478 0.082807
0.089751 0.400869 0.082807
0.094543 0.407621 0.082807
0.102503 0.415918 0.082807
0.115806 0.425926 0.082807
0.133040 0.438633 0.082807
0.168886 0.453324 0.082807
0.214806 0.470103 0.082807
0.257641 0.485966 0.082807
0.318272 0.502298 0.082807
0.392421 0.520327 0.082807
0.497578 0.540104 0.082807
0.583903 0.559761 0.082807
0.670844 0.580809 0.082807
0.754833 0.603485 0.082853
0.807851 0.620189 0.082928
0.855680 0.637516 0.083018
0.888385 0.655749 0.083151
0.913850 0.677220 0.083346
0.933315 0.702661 0.083559
0.945317 0.729417 0.083802
0.956106 0.757527 0.084041
0.963957 0.786970 0.084084
0.970849 0.805685 0.084428
0.976420 0.819457 0.084769
0.979885 0.833499 0.085117
0.983130 0.847405 0.085530
0.985375 0.861167 0.085936
0.986788 0.874078 0.086335
0.084586 0.474934 0.082807
0.084720 0.475386 0.082807
0.085167 0.476667 0.082807
0.086218 0.479026 0.082807
0.087633 0.482559 0.082807
0.091026 0.487340 0.082807
0.095759 0.493435 0.082807
0.104200 0.500900 0.082807
0.117905 0.509790 0.082807
0.138315 0.520157 0.082807
0.173144 0.532051 0.082807
0.218584 0.545198 0.082807
0.262401 0.558804 0.082807
0.323663 0.573881 0.082807
0.400467 0.590464 0.082807
0.507304 0.607163 0.082807
0.588675 0.620495 0.082807
0.675856 0.634686 0.082829
0.758003 0.649801 0.082900
0.810427 0.665787 0.082971
0.857281 0.687236 0.083092
0.889839 0.709976 0.083249
0.914792 0.734019 0.083449
0.934051 0.759397 0.083675
0.945736 0.786093 0.083911
0.956494 0.804106 0.084064
0.964200 0.816732 0.084224
0.971067 0.829671 0.084563
0.976533 0.842775 0.084896
0.979985 0.855577 0.085267
0.983223 0.868619 0.085672
0.985416 0.877528 0.086070
0.986825 0.883847 0.086481
0.085107 0.553647 0.082807
0.085226 0.553978 0.082807
0.085794 0.555167 0.082807
0.086894 0.557354 0.082807
0.088295 0.560628 0.082807
0.091555 0.565056 0.082807
0.097207 0.570692 0.082807
0.106073 0.577585 0.082807
0.119996 0.585780 0.082807
0.141818 0.595317 0.082807
0.177608 0.605517 0.082807
0.222771 0.613973 0.082807
0.267564 0.623220 0.082807
0.329484 0.633388 0.082807
0.409187 0.644480 0.082807
0.510455 0.656494 0.082807
0.593796 0.670328 0.082813
0.681236 0.687880 0.082881
0.760755 0.706691 0.082949
0.813184 0.726774 0.083045
0.858993 0.748156 0.083170
0.891396 0.770837 0.083363
0.915800 0.794817 0.083565
0.934753 0.806705 0.083796
0.946184 0.818114 0.084024
0.956909 0.829876 0.084080
0.964461 0.841890 0.084375
0.971300 0.853651 0.084705
0.976655 0.865692 0.085030
0.980093 0.876053 0.085425
0.983324 0.880552 0.085821
0.985459 0.889283 0.086212
0.986866 0.898126 0.086639
0.085755 0.623136 0.082807
0.085928 0.623360 0.082807
0.086515 0.624165 0.082807
0.087545 0.625646 0.082807
0.089469 0.627858 0.082807
0.092981 0.630845 0.082807
0.098988 0.634636 0.082807
0.108478 0.639258 0.082807
0.122200 0.644731 0.082807
0.145664 0.651072 0.082807
0.182360 0.658293 0.082807
0.227278 0.666508 0.082807
0.273261 0.677898 0.082807
0.335604 0.690475 0.082807
0.418607 0.704256 0.082807
0.513810 0.719256 0.082807
0.599271 0.735492 0.082869
0.686989 0.752991 0.082933
0.763168 0.771748 0.083012
0.816102 0.791776 0.083130
0.860818 0.803659 0.083293
0.893054 0.813408 0.083480
0.916874 0.823558 0.083698
0.935293 0.834093 0.083921
0.946661 0.844754 0.084064
0.957351 0.855416 0.084206
0.964738 0.866390 0.084531
0.971549 0.875823 0.084852
0.976784 0.879642 0.085198
0.980208 0.887720 0.085590
0.983431 0.895939 0.085978
0.985505 0.904288 0.086361
0.986909 0.913214 0.086805
0.086525 0.682046 0.082807
0.086680 0.682323 0.082807
0.087380 0.683317 0.082807
0.088097 0.685145 0.082807
0.090949 0.687879 0.082807
0.094521 0.691574 0.082807
0.100839 0.696271 0.082807
0.111269 0.702007 0.082807
0.124513 0.708815 0.082807
0.149760 0.716720 0.082807
0.187443 0.725748 0.082807
0.232085 0.735927 0.082807
0.279361 0.747279 0.082807
0.341825 0.759815 0.082807
0.428755 0.773553 0.082807
0.520789 0.788507 0.082866
0.605103 0.800030 0.082926
0.693120 0.807576 0.082994
0.765676 0.815599 0.083103
0.819144 0.824056 0.083241
0.862738 0.832935 0.083420
0.894814 0.842124 0.083618
0.918013 0.851295 0.083834
0.935866 0.860820 0.084049
0.947167 0.870687 0.084082
0.957821 0.877281 0.084377
0.965033 0.881126 0.084693
0.971813 0.888505 0.085005
0.976922 0.896050 0.085379
0.980329 0.903752 0.085762
0.983544 0.911986 0.086140
0.985554 0.920458 0.086543
0.986955 0.928144 0.087007
0.087444 0.755695 0.082807
0.087508 0.755970 0.082807
0.087727 0.756961 0.082807
0.089393 0.758783 0.082807
0.091683 0.761508 0.082807
0.096140 0.765189 0.082807
0.103000 0.769870 0.082807
0.114186 0.775587 0.082807
0.128012 0.782372 0.082807
0.154176 0.790252 0.082807
0.192863 0.797429 0.082807
0.237196 0.802062 0.082807
0.285874 0.806961 0.082807
0.348458 0.812337 0.082817
0.439656 0.818178 0.082871
0.530308 0.824477 0.082926
0.611296 0.831226 0.082988
0.699334 0.838417 0.083088
0.768327 0.845742 0.083208
0.822365 0.853362 0.083379
0.864725 0.861367 0.083559
0.896676 0.869746 0.083766
0.919189 0.876391 0.083973
0.936471 0.878917 0.084069
0.947703 0.884965 0.084246
0.958307 0.891612 0.084554
0.965346 0.898449 0.084859
0.972092 0.905479 0.085190
0.977067 0.913101 0.085567
0.980459 0.920895 0.085940
0.983665 0.928020 0.086309
0.985606 0.932656 0.086732
0.987003 0.937299 0.087248
0.087870 0.812423 0.082807
0.088092 0.812541 0.082807
0.089030 0.812964 0.082807
0.091031 0.813740 0.082807
0.093475 0.814900 0.082807
0.098107 0.816464 0.082807
0.105306 0.818447 0.082807
0.117211 0.820861 0.082807
0.131902 0.823714 0.082807
0.162639 0.827011 0.082807
0.199393 0.830757 0.082807
0.242560 0.834953 0.082807
0.292808 0.839599 0.082836
0.355510 0.844464 0.082884
0.450780 0.849710 0.082934
0.540456 0.855369 0.082993
0.617853 0.861437 0.083086
0.705775 0.867905 0.083195
0.771121 0.873828 0.083355
0.825763 0.877558 0.083519
0.866820 0.879926 0.083717
0.898581 0.885384 0.083916
0.920288 0.891069 0.084060
0.937109 0.896970 0.084138
0.948268 0.903079 0.084437
0.958676 0.909638 0.084735
0.965675 0.916530 0.085031
0.972387 0.923616 0.085393
0.977221 0.929183 0.085760
0.980595 0.933436 0.086124
0.983792 0.937699 0.086507
0.985661 0.941994 0.086940
0.987055 0.946190 0.087521
0.089277 0.846211 0.082807
0.089539 0.846317 0.082807
0.090671 0.846695 0.082807
0.091988 0.847390 0.082807
0.095270 0.848429 0.082807
0.100332 0.849829 0.082807
0.108249 0.851605 0.082807
0.120038 0.853767 0.082807
0.138461 0.856323 0.082807
0.168780 0.859278 0.082807
0.209172 0.862637 0.082822
0.248113 0.866400 0.082862
0.300277 0.870568 0.082905
0.362990 0.874085 0.082949
0.459928 0.877067 0.083010
0.550546 0.878406 0.083098
0.624780 0.881028 0.083201
0.712577 0.885229 0.083351
0.774058 0.889680 0.083503
0.829340 0.894375 0.083689
0.869022 0.899304 0.083878
0.900039 0.904462 0.084054
0.921444 0.910120 0.084081
0.937781 0.916052 0.084343
0.948862 0.922202 0.084631
0.959065 0.927853 0.084919
0.966021 0.931606 0.085244
0.972698 0.935446 0.085602
0.977382 0.939292 0.085959
0.980738 0.943221 0.086313
0.983926 0.946885 0.086719
0.985718 0.950129 0.087211
0.987109 0.953425 0.087836
0.091050 0.876322 0.082807
0.091176 0.876391 0.082807
0.091713 0.876637 0.082807
0.093959 0.876895 0.082807
0.097276 0.877172 0.082807
0.102816 0.877508 0.082807
0.111723 0.877919 0.082807
0.122966 0.878419 0.082807
0.143503 0.879008 0.082831
0.175254 0.880692 0.082862
0.216349 0.882868 0.082896
0.254284 0.885304 0.082933
0.308399 0.888001 0.082972
0.370907 0.890957 0.083041
0.468092 0.894169 0.083122
0.558095 0.897634 0.083227
0.633369 0.901349 0.083365
0.719741 0.905312 0.083506
0.777136 0.909766 0.083681
0.833095 0.914468 0.083859
0.871332 0.919414 0.084039
0.901544 0.924596 0.084075
0.922657 0.928680 0.084274
0.938484 0.931901 0.084551
0.949485 0.935229 0.084829
0.959468 0.938585 0.085120
0.966385 0.942042 0.085469
0.973024 0.945584 0.085816
0.977552 0.948480 0.086162
0.980889 0.951440 0.086534
0.984066 0.954320 0.086952
0.985779 0.956967 0.087510
0.987166 0.959658 0.088168
0.092245 0.894089 0.082807
0.092589 0.894153 0.082807
0.093798 0.894384 0.082810
0.095945 0.894807 0.082818
0.099769 0.895439 0.082829
0.105513 0.896291 0.082843
0.115320 0.897372 0.082861
0.126562 0.898688 0.082883
0.148888 0.900244 0.082908
0.181902 0.902043 0.082936
0.222542 0.904086 0.082968
0.261919 0.906446 0.083019
0.316999 0.909136 0.083087
0.381365 0.912086 0.083159
0.476699 0.915296 0.083271
0.566020 0.918762 0.083397
0.644318 0.922481 0.083531
0.727270 0.926449 0.083693
0.780355 0.929056 0.083859
0.837028 0.931602 0.084029
0.873748 0.934277 0.084072
0.903119 0.937024 0.084230
0.923925 0.939870 0.084496
0.939221 0.942828 0.084762
0.950138 0.945823 0.085030
0.959878 0.948343 0.085360
0.966766 0.950939 0.085698
0.973365 0.953586 0.086034
0.977730 0.955942 0.086373
0.981047 0.958352 0.086768
0.984214 0.960813 0.087252
0.985843 0.962940 0.087859
0.987225 0.964051 0.088576
0.094397 0.916255 0.082887
0.094720 0.916319 0.082888
0.095877 0.916549 0.082892
0.098371 0.916971 0.082899
0.102448 0.917601 0.082909
0.109063 0.918451 0.082922
0.118816 0.919530 0.082939
0.131342 0.920843 0.082959
0.154631 0.922397 0.082988
0.188917 0.924194 0.083031
0.229166 0.926237 0.083085
0.270100 0.927833 0.083144
0.326090 0.929287 0.083227
0.394786 0.930880 0.083334
0.485756 0.932612 0.083447
0.574060 0.934481 0.083577
0.654489 0.936447 0.083726
0.735168 0.938530 0.083880
0.787088 0.940739 0.084038
0.841137 0.943071 0.084072
0.876271 0.945523 0.084213
0.904763 0.947571 0.084465
0.925247 0.949702 0.084719
0.939989 0.951918 0.084975
