kodachrome64/Kodachrome64_Modern_IlfochromeP.cube
TITLE "Kodachrome 64 Modern IlfochromeP"
# Adobe RGB in/out. REPLACES AgX. Kodachrome 64 Modern IlfochromeP.
LUT_3D_SIZE 5
DOMAIN_MIN 0.0 0.0 0.0
DOMAIN_MAX 1.0 1.0 1.0
0.138776 0.101263 0.100261
0.389258 0.199129 0.112325
0.731556 0.383149 0.149413
0.888686 0.540228 0.201180
0.955103 0.666651 0.255264
0.150717 0.356045 0.109309
0.302341 0.297396 0.111707
0.645741 0.422360 0.140834
0.863941 0.569529 0.192884
0.947416 0.685496 0.249155
0.193916 0.656900 0.132843
0.357664 0.613213 0.134439
0.586177 0.583277 0.147159
0.806046 0.656228 0.185044
0.921781 0.737870 0.238940
0.252893 0.808728 0.161936
0.379379 0.797788 0.164139
0.606720 0.777003 0.174664
0.785197 0.779203 0.200206
0.898653 0.809633 0.241382
0.301302 0.881063 0.188166
0.391879 0.878437 0.191329
0.597356 0.873353 0.202938
0.776686 0.873644 0.225228
0.887925 0.882994 0.259068
0.138875 0.121857 0.390247
0.398032 0.215991 0.398502
0.720892 0.380576 0.373301
0.880916 0.531114 0.375635
0.952125 0.660132 0.391064
0.146795 0.302358 0.322082
0.239192 0.242096 0.220859
0.617303 0.405416 0.305707
0.851744 0.557142 0.348383
0.944428 0.679451 0.377856
0.185668 0.623693 0.339144
0.338166 0.583204 0.307129
0.553130 0.552747 0.275439
0.793386 0.641655 0.309056
0.917512 0.731838 0.351295
0.247364 0.800261 0.329335
0.371973 0.789000 0.320665
0.594881 0.768309 0.307109
0.777265 0.772364 0.311535
0.896038 0.806899 0.340226
0.299195 0.878850 0.317360
0.389266 0.876372 0.316515
0.593833 0.871673 0.317250
0.774604 0.872542 0.326836
0.887410 0.882732 0.348417
0.138984 0.171574 0.790972
0.398397 0.256525 0.793114
0.771193 0.438806 0.790814
0.886810 0.552516 0.714534
0.950799 0.663310 0.671964
0.150465 0.378471 0.777330
0.367771 0.389708 0.738891
0.669664 0.455898 0.686506
0.855955 0.572022 0.663476
0.942610 0.680292 0.646809
0.175774 0.575117 0.633983
0.313054 0.546104 0.583159
0.501368 0.505878 0.499485
0.780254 0.632597 0.557531
0.912516 0.727243 0.587924
0.235655 0.779851 0.615134
0.356476 0.769831 0.595900
0.571603 0.752311 0.555777
0.760701 0.759064 0.536738
0.890992 0.802458 0.554752
0.293567 0.873394 0.571276
0.382650 0.871414 0.566031
0.585280 0.867411 0.553702
0.769614 0.870239 0.546664
0.886181 0.882426 0.552336
0.139324 0.251707 0.935048
0.399067 0.318590 0.935294
0.781196 0.484715 0.936172
0.905368 0.604102 0.905423
0.954271 0.685078 0.864798
0.152251 0.429964 0.935224
0.410414 0.470277 0.935470
0.742660 0.551633 0.918043
0.878511 0.620761 0.881319
0.945822 0.697319 0.850414
0.176728 0.594474 0.854198
0.329773 0.591107 0.841661
0.588864 0.606538 0.819324
0.802738 0.668922 0.813424
0.914931 0.737881 0.811330
0.226081 0.761874 0.818639
0.343148 0.755720 0.809568
0.555799 0.744357 0.782704
0.743864 0.747383 0.755402
0.888464 0.802617 0.775666
0.286774 0.866672 0.795918
0.374939 0.865045 0.791273
0.575762 0.862828 0.779219
0.764325 0.868297 0.769345
0.885022 0.882985 0.769314
0.139975 0.341903 0.972005
0.400067 0.393427 0.972056
0.781487 0.537925 0.972238
0.919212 0.657205 0.967036
0.958900 0.711310 0.945304
0.153805 0.486695 0.972042
0.411385 0.525334 0.972092
0.778689 0.629762 0.971609
0.896048 0.675061 0.957405
0.950733 0.722929 0.939532
0.186170 0.664902 0.951958
0.362388 0.667872 0.948862
0.646459 0.683835 0.940731
0.830122 0.715139 0.931811
0.922381 0.757453 0.918146
0.223783 0.763177 0.916349
0.341904 0.761565 0.912440
0.568219 0.762138 0.902556
0.770085 0.779378 0.895220
0.892363 0.812366 0.893394
0.280971 0.861151 0.897569
0.368487 0.860622 0.895719
0.568498 0.861173 0.889848
0.761030 0.869088 0.883222
0.884548 0.885093 0.882636
