kodachrome64/Kodachrome64_Classic_ExtraSoft.cube
TITLE "Kodachrome 64 Classic ExtraSoft"
# Adobe RGB in/out. REPLACES AgX. Kodachrome 64 Classic ExtraSoft.
LUT_3D_SIZE 33
DOMAIN_MIN 0.0 0.0 0.0
DOMAIN_MAX 1.0 1.0 1.0
0.065698 0.081183 0.086406
0.065698 0.081183 0.086406
0.065698 0.081183 0.086406
0.065698 0.081183 0.086406
0.065698 0.081183 0.086406
0.065698 0.081183 0.086406
0.065742 0.081183 0.086406
0.066595 0.081183 0.086406
0.068746 0.081183 0.086406
0.074259 0.081183 0.086406
0.086607 0.081187 0.086406
0.121916 0.081197 0.086406
0.178766 0.081213 0.086406
0.269459 0.081349 0.086406
0.368807 0.081558 0.086406
0.453821 0.082193 0.086406
0.528581 0.083265 0.086406
0.605293 0.085267 0.086406
0.664609 0.090383 0.086406
0.732613 0.097201 0.086406
0.788584 0.104348 0.086413
0.836000 0.119395 0.086423
0.871820 0.142018 0.086433
0.901638 0.181021 0.086442
0.924535 0.224140 0.086451
0.946822 0.269154 0.086461
0.959121 0.320408 0.086472
0.966294 0.372262 0.086482
0.978006 0.419796 0.086494
0.980993 0.469266 0.086506
0.983772 0.510203 0.086529
0.986380 0.563438 0.086563
0.988572 0.609698 0.086601
0.065698 0.081183 0.086406
0.065698 0.081183 0.086406
0.065698 0.081183 0.086406
0.065698 0.081183 0.086406
0.065698 0.081183 0.086406
0.065698 0.081183 0.086406
0.065743 0.081183 0.086406
0.066598 0.081183 0.086406
0.068752 0.081183 0.086406
0.074275 0.081183 0.086406
0.086642 0.081188 0.086406
0.122001 0.081198 0.086406
0.178850 0.081223 0.086406
0.269574 0.081359 0.086406
0.368963 0.081577 0.086406
0.453896 0.082230 0.086406
0.528660 0.083339 0.086406
0.605357 0.085469 0.086406
0.664655 0.090759 0.086406
0.732674 0.097466 0.086406
0.788613 0.104701 0.086413
0.836035 0.120203 0.086423
0.871840 0.143337 0.086433
0.901648 0.182361 0.086442
0.924549 0.225703 0.086451
0.946834 0.270363 0.086461
0.959125 0.322160 0.086472
0.966302 0.373386 0.086482
0.978008 0.421701 0.086494
0.980995 0.470308 0.086506
0.983773 0.511495 0.086529
0.986381 0.564686 0.086563
0.988573 0.610746 0.086601
0.065698 0.081183 0.086406
0.065698 0.081183 0.086406
0.065698 0.081183 0.086406
0.065698 0.081183 0.086406
0.065698 0.081183 0.086406
0.065698 0.081183 0.086406
0.065743 0.081183 0.086406
0.066611 0.081183 0.086406
0.068776 0.081183 0.086406
0.074335 0.081183 0.086406
0.086766 0.081191 0.086406
0.122308 0.081201 0.086406
0.179153 0.081258 0.086406
0.269985 0.081395 0.086406
0.369522 0.081712 0.086406
0.454161 0.082375 0.086406
0.528944 0.083601 0.086406
0.605588 0.086192 0.086406
0.664819 0.092068 0.086406
0.732894 0.098481 0.086406
0.788717 0.105964 0.086413
0.836158 0.123122 0.086423
0.871915 0.147493 0.086433
0.901687 0.187221 0.086442
0.924599 0.231556 0.086452
0.946879 0.274735 0.086461
0.959141 0.328500 0.086472
0.966348 0.377430 0.086483
0.978014 0.428585 0.086494
0.980999 0.474057 0.086506
0.983777 0.516142 0.086530
0.986384 0.569176 0.086564
0.988576 0.614510 0.086602
0.065698 0.081183 0.086406
0.065698 0.081183 0.086406
0.065698 0.081183 0.086406
0.065698 0.081183 0.086406
0.065698 0.081183 0.086406
0.065698 0.081183 0.086406
0.065744 0.081183 0.086406
0.066634 0.081183 0.086406
0.068818 0.081183 0.086406
0.074445 0.081188 0.086406
0.086993 0.081197 0.086406
0.122875 0.081208 0.086406
0.179712 0.081319 0.086406
0.270744 0.081477 0.086406
0.370552 0.081978 0.086406
0.454625 0.082755 0.086406
0.529467 0.084070 0.086406
0.606013 0.087615 0.086406
0.665122 0.094066 0.086406
0.733300 0.100360 0.086406
0.788909 0.110120 0.086414
0.836387 0.128404 0.086424
0.872052 0.154966 0.086434
0.901759 0.196385 0.086442
0.924690 0.242154 0.086452
0.946960 0.283128 0.086462
0.959170 0.340462 0.086472
0.966433 0.384899 0.086483
0.978025 0.440425 0.086495
0.981008 0.480884 0.086507
0.983786 0.524723 0.086531
0.986391 0.576988 0.086565
0.988582 0.621442 0.086603
0.065698 0.081183 0.086406
0.065698 0.081183 0.086406
0.065698 0.081183 0.086406
0.065698 0.081183 0.086406
0.065698 0.081183 0.086406
0.065698 0.081183 0.086406
0.065746 0.081183 0.086406
0.066668 0.081183 0.086406
0.068882 0.081189 0.086406
0.074609 0.081197 0.086406
0.087333 0.081206 0.086406
0.123725 0.081293 0.086406
0.180549 0.081419 0.086406
0.271880 0.081756 0.086406
0.372096 0.082365 0.086406
0.455320 0.083481 0.086406
0.530249 0.085575 0.086406
0.606648 0.090419 0.086406
0.665574 0.096842 0.086406
0.733906 0.103353 0.086406
0.789196 0.116478 0.086415
0.836728 0.136529 0.086424
0.872256 0.170992 0.086434
0.901866 0.210629 0.086443
0.924827 0.256770 0.086453
0.947082 0.299969 0.086463
0.959212 0.356614 0.086473
0.966559 0.396143 0.086484
0.978042 0.451997 0.086495
0.981022 0.490621 0.086507
0.983798 0.537548 0.086533
0.986401 0.587309 0.086567
0.988592 0.631172 0.086605
0.065698 0.081183 0.086406
0.065698 0.081183 0.086406
0.065698 0.081183 0.086406
0.065698 0.081183 0.086406
0.065698 0.081183 0.086406
0.065700 0.081185 0.086406
0.065748 0.081189 0.086406
0.066714 0.081194 0.086406
0.068967 0.081201 0.086406
0.074831 0.081216 0.086406
0.087793 0.081311 0.086406
0.124879 0.081425 0.086406
0.181683 0.081730 0.086406
0.273419 0.082281 0.086406
0.374188 0.083230 0.086406
0.456258 0.084728 0.086406
0.531305 0.088414 0.086406
0.607506 0.094718 0.086406
0.666185 0.100586 0.086406
0.734726 0.109697 0.086406
0.789584 0.126797 0.086416
0.837188 0.150797 0.086426
0.872532 0.189235 0.086435
0.902011 0.231479 0.086444
0.925012 0.272805 0.086454
0.947247 0.322984 0.086463
0.959270 0.372163 0.086474
0.966731 0.416651 0.086485
0.978065 0.465892 0.086496
0.981040 0.503980 0.086508
0.983815 0.554997 0.086535
0.986414 0.601278 0.086569
0.988604 0.641408 0.086608
0.065698 0.081190 0.086406
0.065698 0.081190 0.086406
0.065698 0.081191 0.086406
0.065698 0.081193 0.086406
0.065698 0.081195 0.086406
0.065703 0.081199 0.086406
0.065751 0.081204 0.086406
0.066771 0.081222 0.086406
0.069083 0.081294 0.086406
0.075025 0.081382 0.086406
0.088379 0.081519 0.086406
0.126356 0.081904 0.086406
0.183360 0.082403 0.086406
0.275384 0.083350 0.086406
0.376859 0.084758 0.086406
0.457451 0.088163 0.086406
0.532650 0.093972 0.086406
0.608597 0.099452 0.086406
0.666961 0.106217 0.086406
0.735768 0.121133 0.086408
0.790077 0.141046 0.086417
0.837774 0.175954 0.086427
0.872884 0.213607 0.086437
0.902195 0.257304 0.086445
0.925247 0.298129 0.086455
0.947457 0.353165 0.086465
0.959344 0.391370 0.086475
0.966949 0.446028 0.086486
0.978095 0.483395 0.086498
0.981063 0.525977 0.086510
0.983837 0.576322 0.086538
0.986431 0.619080 0.086572
0.988620 0.653065 0.086612
0.065698 0.081209 0.086406
0.065698 0.081210 0.086406
0.065698 0.081221 0.086406
0.065698 0.081241 0.086406
0.065698 0.081270 0.086406
0.065706 0.081307 0.086406
0.065754 0.081361 0.086406
0.066840 0.081424 0.086406
0.069226 0.081554 0.086406
0.075137 0.081876 0.086406
0.089094 0.082267 0.086406
0.128173 0.082909 0.086406
0.188432 0.083837 0.086406
0.277793 0.085740 0.086406
0.380136 0.089061 0.086406
0.458908 0.094727 0.086406
0.534292 0.099791 0.086406
0.609929 0.106066 0.086406
0.667909 0.119769 0.086406
0.737041 0.138176 0.086410
0.790679 0.169021 0.086419
0.838489 0.204559 0.086429
0.873312 0.246381 0.086438
0.902440 0.282551 0.086447
0.925534 0.334252 0.086456
0.947713 0.377535 0.086466
0.959434 0.422769 0.086477
0.967215 0.467609 0.086487
0.978130 0.504066 0.086499
0.981091 0.552999 0.086511
0.983863 0.598007 0.086542
0.986451 0.638023 0.086577
0.988639 0.667192 0.086620
0.065698 0.081451 0.086406
0.065698 0.081458 0.086406
0.065698 0.081480 0.086406
0.065698 0.081520 0.086406
0.065698 0.081578 0.086406
0.065711 0.081736 0.086406
0.065758 0.081948 0.086406
0.066925 0.082196 0.086406
0.069393 0.082500 0.086406
0.075269 0.083142 0.086406
0.090076 0.083877 0.086406
0.130350 0.085320 0.086406
0.193207 0.087997 0.086406
0.280666 0.092543 0.086406
0.384048 0.096916 0.086406
0.460639 0.101626 0.086406
0.536243 0.109304 0.086406
0.611510 0.122729 0.086406
0.669034 0.140179 0.086406
0.738551 0.170283 0.086412
0.791392 0.203493 0.086421
0.839337 0.242901 0.086431
0.873821 0.277852 0.086440
0.902817 0.324848 0.086448
0.925874 0.369898 0.086458
0.948016 0.407008 0.086468
0.959541 0.457311 0.086478
0.967531 0.492576 0.086489
0.978173 0.535982 0.086501
0.981125 0.582716 0.086513
0.983894 0.623828 0.086547
0.986476 0.655055 0.086582
0.988661 0.683810 0.086631
0.065698 0.082450 0.086406
0.065698 0.082462 0.086406
0.065698 0.082510 0.086406
0.065698 0.082660 0.086406
0.065698 0.082881 0.086406
0.065716 0.083184 0.086406
0.065830 0.083570 0.086406
0.067027 0.084025 0.086406
0.069584 0.084979 0.086406
0.075705 0.086783 0.086406
0.091291 0.088981 0.086406
0.132904 0.093105 0.086406
0.195939 0.096711 0.086406
0.284023 0.100634 0.086406
0.388463 0.105633 0.086406
0.462649 0.116038 0.086406
0.538511 0.129893 0.086406
0.613347 0.148903 0.086406
0.670339 0.178998 0.086406
0.740306 0.210386 0.086415
0.792221 0.247975 0.086424
0.840322 0.280022 0.086433
0.874410 0.325292 0.086441
0.903256 0.368476 0.086451
0.926269 0.402585 0.086460
0.948369 0.452797 0.086470
0.959665 0.486737 0.086480
0.967897 0.526299 0.086491
0.978222 0.572992 0.086503
0.981163 0.612668 0.086519
0.983930 0.646675 0.086552
0.986504 0.674487 0.086588
0.988688 0.702877 0.086643
0.065698 0.085558 0.086406
0.065698 0.085620 0.086406
0.065698 0.085843 0.086406
0.065698 0.086251 0.086406
0.065698 0.086898 0.086406
0.065721 0.087803 0.086406
0.065946 0.088935 0.086406
0.067142 0.091383 0.086406
0.069800 0.093808 0.086406
0.076341 0.096326 0.086406
0.092920 0.099110 0.086406
0.135857 0.102383 0.086406
0.199173 0.107408 0.086406
0.287829 0.116412 0.086406
0.391235 0.128241 0.086406
0.464946 0.143160 0.086406
0.541103 0.167457 0.086406
0.615446 0.194983 0.086406
0.671830 0.226173 0.086408
0.742311 0.259927 0.086417
0.793165 0.291718 0.086426
0.841445 0.335767 0.086436
0.875084 0.373345 0.086443
0.903746 0.407040 0.086453
0.926720 0.454131 0.086462
0.948771 0.486481 0.086472
0.959806 0.523936 0.086483
0.968316 0.568754 0.086493
0.978278 0.607466 0.086505
0.981208 0.642169 0.086525
0.983971 0.668973 0.086558
0.986536 0.696354 0.086594
0.988718 0.725246 0.086656
0.065698 0.095834 0.086406
0.065698 0.095922 0.086406
0.065698 0.096219 0.086406
0.065698 0.096761 0.086406
0.065698 0.097568 0.086406
0.065727 0.098743 0.086406
0.066073 0.100233 0.086406
0.067320 0.102074 0.086406
0.070043 0.104649 0.086406
0.077424 0.109148 0.086406
0.094769 0.115631 0.086406
0.138810 0.124089 0.086406
0.202851 0.134170 0.086406
0.292068 0.148624 0.086406
0.394365 0.170837 0.086406
0.467536 0.193820 0.086406
0.544027 0.220453 0.086406
0.617810 0.251561 0.086406
0.673508 0.277397 0.086412
0.744571 0.313834 0.086420
0.794229 0.355353 0.086430
0.842711 0.384645 0.086438
0.875842 0.423132 0.086446
0.904289 0.461398 0.086456
0.927227 0.491875 0.086465
0.949224 0.529009 0.086475
0.959965 0.571701 0.086485
0.968787 0.608289 0.086496
0.978341 0.641623 0.086508
0.981257 0.667358 0.086532
0.984018 0.693757 0.086565
0.986572 0.721435 0.086601
0.988752 0.750178 0.086672
0.065698 0.110707 0.086406
0.065698 0.110904 0.086406
0.065698 0.111614 0.086406
0.065698 0.112921 0.086406
0.065698 0.114885 0.086406
0.065734 0.117554 0.086406
0.066209 0.121502 0.086406
0.067586 0.126750 0.086406
0.070507 0.132512 0.086406
0.078632 0.140485 0.086406
0.096845 0.152013 0.086406
0.141845 0.169195 0.086406
0.206707 0.186889 0.086406
0.296731 0.206631 0.086406
0.397952 0.230325 0.086406
0.470424 0.256208 0.086406
0.547290 0.278109 0.086406
0.620446 0.309869 0.086407
0.675376 0.347293 0.086415
0.747090 0.375443 0.086424
0.795413 0.402829 0.086433
0.844121 0.446733 0.086441
0.876686 0.474699 0.086449
0.904894 0.503058 0.086458
0.927792 0.541619 0.086468
0.949537 0.580714 0.086478
0.960143 0.615212 0.086488
0.969312 0.645087 0.086499
0.978412 0.669699 0.086510
0.981313 0.694974 0.086540
0.984069 0.721616 0.086572
0.986613 0.749272 0.086610
0.988790 0.773161 0.086690
0.065698 0.148304 0.086406
0.065698 0.148646 0.086406
0.065698 0.149875 0.086406
0.065698 0.152151 0.086406
0.065704 0.155747 0.086406
0.065742 0.162309 0.086406
0.066365 0.171176 0.086406
0.067886 0.179975 0.086406
0.071034 0.190269 0.086406
0.079963 0.202707 0.086406
0.099089 0.217708 0.086406
0.144918 0.235985 0.086406
0.211001 0.255380 0.086406
0.301721 0.272190 0.086406
0.401956 0.294539 0.086406
0.473616 0.323336 0.086406
0.550899 0.354952 0.086406
0.623358 0.377726 0.086411
0.677439 0.401782 0.086419
0.749873 0.442073 0.086428
0.796720 0.467613 0.086436
0.845677 0.493316 0.086444
0.877617 0.524982 0.086453
0.905561 0.562007 0.086461
0.928416 0.595376 0.086471
0.949848 0.628316 0.086481
0.960338 0.652579 0.086491
0.969892 0.676023 0.086502
0.978490 0.700051 0.086516
0.981374 0.725829 0.086548
0.984126 0.752356 0.086582
0.986657 0.774639 0.086628
0.988831 0.795478 0.086709
0.065698 0.219343 0.086406
0.065698 0.219819 0.086406
0.065698 0.221532 0.086406
0.065698 0.224705 0.086406
0.065713 0.229585 0.086406
0.065750 0.236504 0.086406
0.066545 0.244600 0.086406
0.068226 0.254509 0.086406
0.071851 0.263556 0.086406
0.080601 0.274230 0.086406
0.101810 0.288408 0.086406
0.148317 0.307730 0.086406
0.215759 0.329889 0.086406
0.307235 0.354387 0.086406
0.406356 0.372531 0.086406
0.477116 0.391477 0.086406
0.554859 0.417985 0.086407
0.626550 0.449429 0.086415
0.679697 0.471276 0.086423
0.752924 0.493885 0.086432
0.798790 0.521865 0.086439
0.847381 0.554918 0.086447
0.878635 0.586576 0.086456
0.906290 0.616279 0.086465
0.929098 0.642601 0.086474
0.950189 0.664083 0.086484
0.960552 0.686324 0.086495
0.970526 0.709502 0.086506
0.978575 0.734091 0.086526
0.981441 0.759271 0.086558
0.984189 0.779083 0.086592
0.986706 0.799050 0.086648
0.988877 0.819391 0.086730
0.065698 0.297774 0.086406
0.065698 0.298299 0.086406
0.065698 0.300182 0.086406
0.065698 0.303636 0.086406
0.065722 0.308843 0.086406
0.065761 0.315955 0.086406
0.066733 0.325128 0.086406
0.068587 0.336617 0.086406
0.072734 0.350579 0.086406
0.081683 0.362165 0.086406
0.105006 0.373480 0.086406
0.152055 0.386329 0.086406
0.221000 0.400957 0.086406
0.313294 0.425674 0.086406
0.411165 0.449269 0.086406
0.480854 0.466695 0.086406
0.559176 0.485295 0.086412
0.629810 0.505019 0.086420
0.682153 0.532208 0.086428
0.756246 0.561531 0.086436
0.803826 0.588732 0.086443
0.848690 0.615300 0.086451
0.879743 0.639875 0.086460
0.907084 0.659316 0.086469
0.929840 0.679552 0.086478
0.950559 0.700444 0.086488
0.960785 0.723016 0.086499
0.971217 0.746391 0.086510
0.978667 0.767825 0.086536
0.981514 0.786481 0.086567
0.984257 0.805532 0.086603
0.986759 0.824985 0.086672
0.988927 0.838436 0.086753
0.065698 0.384819 0.086406
0.065698 0.385168 0.086406
0.065698 0.386424 0.086406
0.065704 0.388737 0.086406
0.065732 0.392203 0.086406
0.065959 0.396934 0.086406
0.066933 0.403143 0.086406
0.068966 0.414673 0.086406
0.073723 0.429181 0.086406
0.083311 0.444368 0.086406
0.108513 0.454842 0.086406
0.157578 0.466684 0.086406
0.227191 0.479915 0.086406
0.319918 0.493756 0.086406
0.416388 0.510653 0.086406
0.485479 0.532377 0.086410
0.563856 0.556063 0.086418
0.632660 0.579856 0.086425
0.685204 0.601800 0.086433
0.759574 0.625325 0.086440
0.809292 0.644408 0.086447
0.850015 0.661758 0.086456
0.880940 0.679931 0.086464
0.907941 0.698789 0.086473
0.930642 0.719225 0.086482
0.950960 0.740550 0.086492
0.961021 0.761771 0.086503
0.971631 0.779137 0.086516
0.978767 0.796792 0.086547
0.981593 0.814893 0.086579
0.984330 0.831461 0.086619
0.986817 0.843028 0.086697
0.988981 0.856613 0.086777
0.065698 0.470070 0.086406
0.065698 0.470392 0.086406
0.065698 0.471548 0.086406
0.065715 0.473676 0.086406
0.065743 0.476861 0.086406
0.066173 0.481078 0.086406
0.067157 0.486232 0.086406
0.069400 0.492565 0.086406
0.074781 0.500128 0.086406
0.085389 0.510466 0.086406
0.113042 0.523547 0.086406
0.163548 0.538314 0.086406
0.234212 0.554893 0.086406
0.327152 0.572839 0.086406
0.422033 0.589202 0.086409
0.490657 0.606733 0.086416
0.568905 0.625766 0.086423
0.635673 0.641712 0.086431
0.689238 0.656101 0.086437
0.762556 0.671343 0.086444
0.813120 0.687426 0.086452
0.851439 0.704352 0.086460
0.882227 0.722731 0.086468
0.908862 0.741962 0.086477
0.931504 0.761264 0.086486
0.951390 0.777119 0.086497
0.961263 0.793291 0.086507
0.971924 0.809949 0.086528
0.978862 0.827076 0.086559
0.981678 0.838333 0.086592
0.984409 0.849480 0.086645
0.986879 0.864025 0.086724
0.989038 0.878830 0.086806
0.065698 0.548599 0.086406
0.065698 0.549002 0.086406
0.065707 0.550452 0.086406
0.065727 0.553122 0.086406
0.065754 0.557123 0.086406
0.066408 0.562542 0.086406
0.067550 0.569128 0.086406
0.069851 0.576734 0.086406
0.075283 0.584668 0.086406
0.087691 0.593898 0.086406
0.118695 0.604458 0.086406
0.169699 0.616381 0.086406
0.241548 0.629564 0.086406
0.335058 0.640476 0.086409
0.428109 0.651038 0.086415
0.496221 0.662467 0.086422
0.574322 0.674758 0.086429
0.638856 0.687906 0.086435
0.693538 0.701829 0.086442
0.765669 0.717208 0.086449
0.814195 0.733462 0.086457
0.852963 0.750583 0.086464
0.883604 0.766292 0.086473
0.909848 0.780441 0.086482
0.932427 0.795067 0.086491
0.951850 0.810213 0.086502
0.961522 0.825865 0.086512
0.972239 0.836715 0.086541
0.978960 0.846826 0.086571
0.981768 0.859756 0.086605
0.984494 0.873534 0.086674
0.986945 0.887507 0.086752
0.989100 0.901098 0.086843
0.065707 0.629472 0.086406
0.065710 0.629717 0.086406
0.065720 0.630599 0.086406
0.065739 0.632222 0.086406
0.065895 0.634646 0.086406
0.066666 0.637920 0.086406
0.068035 0.641665 0.086406
0.070536 0.646067 0.086406
0.076752 0.651277 0.086406
0.090382 0.657310 0.086406
0.124909 0.664177 0.086406
0.175740 0.671885 0.086406
0.257462 0.680439 0.086410
0.343473 0.689843 0.086416
0.434624 0.699958 0.086421
0.502178 0.711463 0.086428
0.579079 0.723852 0.086434
0.642250 0.737122 0.086440
0.698026 0.751269 0.086447
0.768990 0.764542 0.086454
0.815340 0.776548 0.086462
0.854587 0.789026 0.086470
0.885072 0.802069 0.086478
0.910899 0.815661 0.086487
0.933411 0.829230 0.086497
0.952341 0.838198 0.086507
0.961799 0.847412 0.086525
0.972574 0.859391 0.086555
0.979064 0.872073 0.086586
0.981865 0.885030 0.086630
0.984584 0.898085 0.086705
0.987015 0.906582 0.086782
0.989166 0.914113 0.086881
0.065721 0.683546 0.086406
0.065723 0.683753 0.086406
0.065733 0.684496 0.086406
0.065752 0.685863 0.086406
0.066160 0.687906 0.086406
0.066929 0.690663 0.086406
0.068554 0.694148 0.086406
0.071599 0.698315 0.086406
0.079028 0.703460 0.086406
0.094099 0.709522 0.086406
0.131724 0.716426 0.086407
0.182283 0.724182 0.086412
0.266027 0.732798 0.086417
0.352400 0.742278 0.086422
0.440461 0.752626 0.086428
0.508466 0.762658 0.086434
0.584080 0.771877 0.086440
0.645855 0.781556 0.086445
0.702803 0.791837 0.086453
0.771978 0.802710 0.086460
0.816528 0.814163 0.086467
0.856311 0.826186 0.086475
0.886630 0.834733 0.086483
0.912015 0.842737 0.086492
0.934456 0.851745 0.086502
0.952862 0.862921 0.086512
0.962092 0.874456 0.086540
0.972930 0.886273 0.086569
0.979174 0.898262 0.086601
0.981968 0.906105 0.086662
0.984680 0.913084 0.086738
0.987091 0.920177 0.086821
0.989200 0.927375 0.086921
0.065734 0.739166 0.086406
0.065737 0.739374 0.086406
0.065747 0.740122 0.086406
0.065878 0.741498 0.086406
0.066444 0.743555 0.086406
0.067222 0.746330 0.086406
0.069093 0.749856 0.086406
0.072941 0.754154 0.086406
0.080606 0.759113 0.086407
0.098216 0.763664 0.086410
0.138770 0.768838 0.086414
0.195773 0.774496 0.086419
0.275421 0.780768 0.086424
0.365483 0.787653 0.086429
0.446635 0.795149 0.086435
0.514998 0.803252 0.086440
0.589385 0.811956 0.086445
0.649671 0.821256 0.086452
0.707871 0.830062 0.086458
0.774430 0.836472 0.086465
0.817755 0.843197 0.086473
0.858135 0.850714 0.086481
0.888279 0.860295 0.086489
0.913195 0.870271 0.086498
0.935562 0.880631 0.086508
0.953413 0.891204 0.086527
0.962403 0.901386 0.086555
0.973307 0.907630 0.086585
0.979291 0.914018 0.086625
0.982077 0.920543 0.086698
0.984781 0.927195 0.086772
0.987170 0.933369 0.086864
0.989233 0.939081 0.086975
0.065749 0.787763 0.086406
0.065752 0.787914 0.086406
0.065795 0.788456 0.086406
0.066175 0.789452 0.086406
0.066749 0.790940 0.086406
0.067786 0.792947 0.086407
0.069681 0.795494 0.086409
0.074406 0.798597 0.086412
0.082605 0.802268 0.086415
0.102958 0.806517 0.086418
0.144918 0.811350 0.086422
0.204334 0.816773 0.086426
0.285603 0.822786 0.086431
0.379109 0.828986 0.086436
0.453177 0.833400 0.086440
0.521923 0.838158 0.086445
0.594996 0.843255 0.086452
0.653699 0.848698 0.086458
0.713233 0.856216 0.086464
0.777014 0.864163 0.086471
0.819047 0.872530 0.086479
0.860059 0.881306 0.086487
0.890019 0.890341 0.086495
0.914441 0.899728 0.086505
0.936729 0.905507 0.086517
0.953995 0.911117 0.086544
0.962730 0.916890 0.086571
0.973705 0.922818 0.086603
0.979415 0.928892 0.086662
0.982192 0.934315 0.086735
0.984889 0.939580 0.086812
0.987254 0.944939 0.086909
0.989267 0.949906 0.087058
0.065852 0.830457 0.086411
0.065911 0.830545 0.086411
0.066116 0.830864 0.086411
0.066497 0.831449 0.086412
0.067068 0.832323 0.086413
0.068413 0.833500 0.086415
0.070458 0.834994 0.086417
0.075290 0.836812 0.086420
0.085488 0.838960 0.086422
0.108419 0.841443 0.086426
0.151214 0.844262 0.086430
0.213020 0.847420 0.086434
0.296148 0.851614 0.086438
0.391194 0.856625 0.086442
0.459697 0.862078 0.086447
0.529224 0.867970 0.086452
0.600914 0.874298 0.086458
0.657939 0.881056 0.086464
0.718891 0.888138 0.086471
0.779733 0.895595 0.086478
0.820405 0.902147 0.086485
0.862083 0.906738 0.086493
0.891850 0.911521 0.086502
0.915751 0.916490 0.086511
0.937946 0.921636 0.086534
0.954607 0.926952 0.086561
0.963075 0.932094 0.086590
0.974124 0.936772 0.086632
0.979545 0.941566 0.086702
0.982313 0.946471 0.086772
0.985001 0.950517 0.086861
0.987342 0.953367 0.086963
0.989304 0.955832 0.087099
0.066183 0.860186 0.086419
0.066238 0.860295 0.086419
0.066450 0.860687 0.086420
0.066831 0.861408 0.086421
0.067571 0.862485 0.086422
0.069046 0.863938 0.086423
0.071808 0.865782 0.086425
0.077503 0.868028 0.086428
0.088789 0.870684 0.086431
0.115675 0.873759 0.086434
0.160067 0.877255 0.086437
0.222356 0.881177 0.086440
0.306821 0.885476 0.086444
0.399572 0.890163 0.086449
0.466502 0.895268 0.086454
0.536894 0.900660 0.086459
0.607142 0.903967 0.086465
0.662391 0.907490 0.086471
0.724847 0.911224 0.086478
0.782583 0.915164 0.086484
0.825126 0.919304 0.086492
0.864187 0.923638 0.086500
0.893772 0.928159 0.086509
0.917127 0.932451 0.086527
0.939175 0.936501 0.086553
0.955249 0.940686 0.086579
0.963437 0.944999 0.086609
0.974563 0.949373 0.086673
0.979682 0.951917 0.086742
0.982440 0.954427 0.086819
0.985120 0.956566 0.086911
0.987435 0.958742 0.087055
0.989342 0.960955 0.087194
0.066541 0.895141 0.086428
0.066599 0.895243 0.086428
0.066804 0.895609 0.086429
0.067187 0.896283 0.086429
0.068255 0.897289 0.086431
0.069733 0.898647 0.086432
0.073489 0.900369 0.086434
0.080255 0.901599 0.086436
0.093273 0.902984 0.086438
0.124304 0.904585 0.086441
0.169394 0.906403 0.086444
0.233526 0.908440 0.086447
0.318222 0.910696 0.086452
0.408565 0.913168 0.086456
0.473656 0.915857 0.086461
0.544969 0.918758 0.086466
0.613681 0.921869 0.086472
0.667054 0.925187 0.086478
0.731103 0.928707 0.086484
0.785567 0.932089 0.086491
0.829655 0.935337 0.086499
0.866326 0.938738 0.086507
0.895784 0.942288 0.086522
0.918566 0.945980 0.086546
0.940461 0.949583 0.086571
0.955921 0.951797 0.086600
0.963816 0.954072 0.086650
0.975024 0.955962 0.086717
0.979825 0.957899 0.086784
0.982573 0.959881 0.086873
0.985244 0.961904 0.086976
0.987533 0.963965 0.087100
0.989383 0.966063 0.087321
0.066906 0.916660 0.086436
0.066966 0.916714 0.086436
0.067176 0.916906 0.086437
0.067860 0.917259 0.086437
0.068953 0.917787 0.086438
0.070724 0.918498 0.086439
0.075077 0.919401 0.086441
0.082257 0.920500 0.086443
0.098617 0.921799 0.086445
0.133733 0.923302 0.086448
0.178298 0.925009 0.086451
0.246540 0.926923 0.086455
0.330448 0.929043 0.086459
0.418051 0.931212 0.086463
0.481070 0.933315 0.086468
0.553453 0.935585 0.086474
0.620533 0.938019 0.086479
0.671929 0.940616 0.086485
0.737659 0.943372 0.086492
0.788681 0.946284 0.086499
0.833360 0.949324 0.086507
0.868560 0.951119 0.086519
0.897886 0.952991 0.086542
0.920070 0.954766 0.086566
