kodachrome64/Kodachrome64_Classic_Punchy.cube
TITLE "Kodachrome 64 Classic Punchy"
# Adobe RGB in/out. REPLACES AgX. Kodachrome 64 Classic Punchy.
LUT_3D_SIZE 5
DOMAIN_MIN 0.0 0.0 0.0
DOMAIN_MAX 1.0 1.0 1.0
0.084019 0.088159 0.082807
0.101567 0.088159 0.082807
0.549913 0.096202 0.082807
0.942267 0.245067 0.083082
0.986521 0.609307 0.085374
0.084019 0.090928 0.082807
0.104173 0.094733 0.082807
0.557454 0.135963 0.082807
0.942949 0.366724 0.083203
0.986579 0.682399 0.085595
0.084231 0.385905 0.082807
0.115806 0.425926 0.082807
0.583903 0.559761 0.082807
0.945317 0.729417 0.083802
0.986788 0.874078 0.086335
0.091050 0.876322 0.082807
0.143503 0.879008 0.082831
0.633369 0.901349 0.083365
0.949485 0.935229 0.084829
0.987166 0.959658 0.088168
0.115292 0.971723 0.083948
0.212540 0.972636 0.084067
0.712458 0.975435 0.084959
0.955499 0.980231 0.086951
0.987718 0.985881 0.092384
0.084019 0.088159 0.086796
0.101590 0.088159 0.087164
0.549979 0.096766 0.088882
0.942273 0.249152 0.093323
0.986522 0.612404 0.107149
0.084019 0.091189 0.087052
0.104195 0.095337 0.087454
0.557521 0.139184 0.089256
0.942955 0.372809 0.094107
0.986580 0.686191 0.108720
0.084235 0.392117 0.088188
0.115836 0.431992 0.088725
0.583967 0.564303 0.090550
0.945323 0.733198 0.097268
0.986788 0.875022 0.113638
0.091057 0.876965 0.090634
0.143548 0.879694 0.091190
0.633460 0.902208 0.094924
0.949491 0.935684 0.103955
0.987166 0.959923 0.125493
0.115321 0.971887 0.098113
0.212591 0.972749 0.099674
0.712521 0.975542 0.104386
0.955504 0.980319 0.118270
0.987719 0.985945 0.150529
0.084019 0.088159 0.530519
0.101674 0.088387 0.536498
0.550217 0.099914 0.557119
0.942295 0.263970 0.591577
0.986523 0.623475 0.632667
0.084019 0.093173 0.534807
0.104276 0.097510 0.540797
0.557759 0.152734 0.560846
0.942977 0.395001 0.595333
0.986582 0.699804 0.634360
0.084252 0.412215 0.550280
0.115943 0.454046 0.555574
0.584197 0.580650 0.574261
0.945343 0.746787 0.608758
0.986790 0.877408 0.646972
0.091080 0.878196 0.575042
0.143709 0.882974 0.580259
0.633788 0.905281 0.599042
0.949510 0.937310 0.628282
0.987168 0.960868 0.671522
0.115428 0.972356 0.612058
0.212773 0.973153 0.617271
0.712747 0.975927 0.629431
0.955523 0.980636 0.657092
0.987721 0.986173 0.698227
0.084019 0.088349 0.927724
0.101828 0.089687 0.928525
0.550655 0.107497 0.930520
0.942334 0.303799 0.932668
0.986527 0.643683 0.934180
0.084019 0.097128 0.928299
0.104425 0.104062 0.929097
0.558197 0.180277 0.930775
0.943016 0.432034 0.932784
0.986585 0.724819 0.934286
0.084281 0.451228 0.930058
0.116139 0.491044 0.930415
0.584621 0.608748 0.931686
0.945380 0.771759 0.933197
0.986793 0.880388 0.934739
0.091123 0.882560 0.931738
0.144007 0.888925 0.932089
0.634391 0.911198 0.932899
0.949546 0.940264 0.933906
0.987171 0.962438 0.936225
0.115625 0.973102 0.933293
0.213108 0.973888 0.933443
0.713163 0.976629 0.933978
0.955558 0.981212 0.935352
0.987724 0.986586 0.938410
0.084019 0.090435 0.978401
0.102057 0.093596 0.978444
0.551311 0.129744 0.978595
0.942394 0.355274 0.978870
0.986532 0.675523 0.979276
0.084019 0.108027 0.978432
0.104646 0.121607 0.978474
0.558853 0.230328 0.978625
0.943075 0.489531 0.978900
0.986590 0.762202 0.979305
0.084326 0.504962 0.978540
0.116431 0.540120 0.978582
0.585254 0.639147 0.978732
0.945436 0.801913 0.979006
0.986798 0.889319 0.979410
0.091186 0.891435 0.978738
0.144452 0.897637 0.978780
0.635294 0.919879 0.978929
0.949600 0.944596 0.979200
0.987176 0.963756 0.979601
0.115918 0.974199 0.979032
0.213609 0.974971 0.979073
0.713785 0.977663 0.979220
0.955610 0.982064 0.979488
0.987729 0.986768 0.979726
