kodachrome64/Kodachrome64_Modern_RadianceIII.cube
TITLE "Kodachrome 64 Modern RadianceIII"
# Adobe RGB in/out. REPLACES AgX. Kodachrome 64 Modern RadianceIII.
LUT_3D_SIZE 5
DOMAIN_MIN 0.0 0.0 0.0
DOMAIN_MAX 1.0 1.0 1.0
0.078336 0.088005 0.085647
0.394422 0.198410 0.100149
0.686972 0.388367 0.154570
0.863035 0.523043 0.221679
0.933140 0.625916 0.278879
0.116852 0.362296 0.096068
0.310903 0.305702 0.099444
0.614989 0.425615 0.142412
0.828253 0.545559 0.212101
0.924707 0.640665 0.272754
0.189061 0.617727 0.131461
0.364365 0.580889 0.133657
0.568885 0.555973 0.151216
0.763480 0.617162 0.203324
0.896251 0.687905 0.262482
0.262881 0.762780 0.173617
0.385208 0.749495 0.177037
0.583923 0.727885 0.191765
0.740926 0.730085 0.220553
0.874210 0.763882 0.264940
0.309890 0.846188 0.206802
0.396867 0.842532 0.210327
0.577573 0.835466 0.223711
0.732520 0.835870 0.247729
0.861985 0.848880 0.282687
0.078456 0.102509 0.401762
0.402604 0.216528 0.409066
0.676075 0.385746 0.386708
0.851814 0.515851 0.388780
0.930449 0.620443 0.402486
0.106252 0.310554 0.340827
0.248162 0.246471 0.243265
0.592224 0.409962 0.326041
0.815442 0.536131 0.364471
0.919977 0.635512 0.390756
0.179142 0.589740 0.356169
0.345627 0.555918 0.327330
0.542362 0.532775 0.298176
0.749018 0.604898 0.329074
0.892043 0.682467 0.367081
0.257198 0.752493 0.347350
0.378112 0.739886 0.339550
0.575826 0.719196 0.327311
0.733091 0.723248 0.331316
0.871828 0.760555 0.357142
0.307833 0.843107 0.336573
0.394428 0.839660 0.335811
0.574991 0.833136 0.336474
0.730464 0.834341 0.345104
0.861274 0.848513 0.364501
0.080560 0.163218 0.740229
0.402943 0.263076 0.742351
0.727097 0.440644 0.740072
0.860448 0.532599 0.665486
0.929250 0.623113 0.632288
0.116234 0.383603 0.726722
0.374078 0.395070 0.687722
0.634013 0.456148 0.644540
0.819863 0.547451 0.624984
0.917106 0.636125 0.612775
0.163981 0.549798 0.603438
0.321296 0.527668 0.566094
0.498015 0.496068 0.496779
0.736043 0.597260 0.546167
0.887119 0.678324 0.569616
0.243871 0.730733 0.589636
0.363223 0.720716 0.575495
0.557222 0.702768 0.544772
0.716743 0.709774 0.529571
0.866220 0.755159 0.543956
0.302548 0.835524 0.557074
0.388254 0.832776 0.552918
0.568169 0.827936 0.543120
0.725538 0.831149 0.537508
0.859580 0.848087 0.542032
0.083037 0.257822 0.928605
0.403567 0.326283 0.928922
0.736974 0.479682 0.930053
0.880324 0.573214 0.889961
0.932388 0.640289 0.836928
0.119744 0.432603 0.928832
0.414126 0.468125 0.929149
0.698333 0.531924 0.905149
0.848238 0.587261 0.859663
0.922183 0.651321 0.817279
0.165645 0.565089 0.822435
0.337378 0.562245 0.806378
0.571030 0.575267 0.777574
0.759421 0.627823 0.769266
0.889499 0.687914 0.766326
0.231730 0.712691 0.776607
0.350399 0.706304 0.763853
0.544514 0.694526 0.732042
0.699566 0.697661 0.704658
0.862728 0.755353 0.725076
0.296208 0.827166 0.745130
0.380957 0.825472 0.740527
0.560555 0.823164 0.728592
0.720318 0.828859 0.718823
0.857930 0.848867 0.718792
0.086421 0.348679 0.975789
0.404499 0.398854 0.975876
0.737261 0.521228 0.976187
0.893718 0.617984 0.967338
0.936571 0.663951 0.941845
0.122769 0.481221 0.975851
0.415028 0.511278 0.975938
0.734498 0.594867 0.975115
0.871838 0.632314 0.957524
0.929190 0.674434 0.934388
0.179752 0.624449 0.950459
0.368907 0.626941 0.946450
0.615561 0.639171 0.935936
0.792774 0.667406 0.922058
0.896842 0.708102 0.905274
0.228738 0.714044 0.903108
0.349207 0.712370 0.898400
0.554506 0.712966 0.886245
0.726003 0.730260 0.876626
0.868114 0.767210 0.874236
0.290781 0.821418 0.879704
0.374765 0.820867 0.877280
0.554730 0.821441 0.870691
0.717067 0.829683 0.862293
0.857224 0.851808 0.861482
