kodachrome64/Kodachrome64_Classic_ExtraSoft.cube
TITLE "Kodachrome 64 Classic ExtraSoft"
# Adobe RGB in/out. REPLACES AgX. Kodachrome 64 Classic ExtraSoft.
LUT_3D_SIZE 9
DOMAIN_MIN 0.0 0.0 0.0
DOMAIN_MAX 1.0 1.0 1.0
0.065698 0.081183 0.086406
0.065698 0.081183 0.086406
0.068746 0.081183 0.086406
0.178766 0.081213 0.086406
0.528581 0.083265 0.086406
0.788584 0.104348 0.086413
0.924535 0.224140 0.086451
0.978006 0.419796 0.086494
0.988572 0.609698 0.086601
0.065698 0.081183 0.086406
0.065698 0.081183 0.086406
0.068882 0.081189 0.086406
0.180549 0.081419 0.086406
0.530249 0.085575 0.086406
0.789196 0.116478 0.086415
0.924827 0.256770 0.086453
0.978042 0.451997 0.086495
0.988592 0.631172 0.086605
0.065698 0.081451 0.086406
0.065698 0.081578 0.086406
0.069393 0.082500 0.086406
0.193207 0.087997 0.086406
0.536243 0.109304 0.086406
0.791392 0.203493 0.086421
0.925874 0.369898 0.086458
0.978173 0.535982 0.086501
0.988661 0.683810 0.086631
0.065698 0.110707 0.086406
0.065698 0.114885 0.086406
0.070507 0.132512 0.086406
0.206707 0.186889 0.086406
0.547290 0.278109 0.086406
0.795413 0.402829 0.086433
0.927792 0.541619 0.086468
0.978412 0.669699 0.086510
0.988790 0.773161 0.086690
0.065698 0.384819 0.086406
0.065732 0.392203 0.086406
0.073723 0.429181 0.086406
0.227191 0.479915 0.086406
0.563856 0.556063 0.086418
0.809292 0.644408 0.086447
0.930642 0.719225 0.086482
0.978767 0.796792 0.086547
0.988981 0.856613 0.086777
0.065721 0.683546 0.086406
0.066160 0.687906 0.086406
0.079028 0.703460 0.086406
0.266027 0.732798 0.086417
0.584080 0.771877 0.086440
0.816528 0.814163 0.086467
0.934456 0.851745 0.086502
0.979174 0.898262 0.086601
0.989200 0.927375 0.086921
0.066183 0.860186 0.086419
0.067571 0.862485 0.086422
0.088789 0.870684 0.086431
0.306821 0.885476 0.086444
0.607142 0.903967 0.086465
0.825126 0.919304 0.086492
0.939175 0.936501 0.086553
0.979682 0.951917 0.086742
0.989342 0.960955 0.087194
0.068152 0.949671 0.086452
0.070800 0.950132 0.086454
0.112476 0.951775 0.086461
0.358840 0.954607 0.086475
0.633716 0.958079 0.086495
0.841253 0.962581 0.086541
0.944666 0.968023 0.086669
0.980292 0.972957 0.086965
0.989515 0.976409 0.087733
0.073475 0.973732 0.086488
0.080305 0.973821 0.086490
0.153842 0.974137 0.086498
0.417313 0.975028 0.086511
0.657866 0.977387 0.086564
0.855107 0.978814 0.086678
0.950286 0.980254 0.086911
0.981005 0.981904 0.087481
0.989717 0.983756 0.089019
0.065698 0.081183 0.086406
0.065698 0.081183 0.086406
0.068747 0.081183 0.086406
0.178781 0.081222 0.086420
0.528596 0.083333 0.086442
0.788589 0.104673 0.086469
0.924538 0.225579 0.086505
0.978006 0.421550 0.086608
0.988572 0.610663 0.086938
0.065698 0.081183 0.086406
0.065698 0.081183 0.086406
0.068883 0.081190 0.086406
0.180565 0.081427 0.086421
0.530263 0.085761 0.086443
0.789202 0.117075 0.086471
0.924830 0.257863 0.086506
0.978043 0.452953 0.086614
0.988592 0.631904 0.086949
0.065698 0.081470 0.086406
0.065698 0.081607 0.086406
0.069394 0.082565 0.086411
0.193225 0.088197 0.086428
0.536258 0.109894 0.086449
0.791398 0.204818 0.086476
0.925877 0.370932 0.086511
0.978173 0.537179 0.086646
0.988662 0.684427 0.087021
0.065698 0.111296 0.086412
0.065698 0.115480 0.086414
0.070510 0.133333 0.086423
0.206724 0.188145 0.086438
0.547305 0.279246 0.086459
0.795419 0.403923 0.086486
0.927795 0.542820 0.086536
0.978412 0.670322 0.086705
0.988790 0.773618 0.087100
0.065698 0.385862 0.086430
0.065732 0.393251 0.086432
0.073726 0.430958 0.086439
0.227212 0.480820 0.086453
0.563871 0.557272 0.086473
0.809309 0.645040 0.086501
0.930644 0.719853 0.086575
0.978767 0.797238 0.086791
0.988981 0.856940 0.087344
0.065721 0.684164 0.086449
0.066160 0.688522 0.086452
0.079033 0.704093 0.086459
0.266048 0.733421 0.086472
0.584092 0.772335 0.086493
0.816531 0.814602 0.086534
0.934458 0.852075 0.086654
0.979175 0.898565 0.086939
0.989200 0.927530 0.087689
0.066184 0.860512 0.086475
0.067572 0.862810 0.086477
0.088796 0.871005 0.086484
0.306841 0.885784 0.086498
0.607154 0.904134 0.086528
0.825135 0.919462 0.086603
0.939177 0.936625 0.086807
0.979682 0.951982 0.087239
0.989342 0.961002 0.088376
0.068153 0.949737 0.086505
0.070802 0.950198 0.086507
0.112491 0.951839 0.086519
0.358868 0.954658 0.086555
0.633725 0.958128 0.086614
0.841260 0.962628 0.086778
0.944668 0.968067 0.087093
0.980292 0.972988 0.087776
0.989515 0.976443 0.089865
0.073478 0.973745 0.086592
0.080307 0.973833 0.086598
0.153860 0.974150 0.086628
0.417330 0.975063 0.086711
0.657874 0.977420 0.086843
0.855111 0.978827 0.087096
0.950288 0.980265 0.087666
0.981005 0.981915 0.089148
0.989717 0.983766 0.092688
0.065698 0.081183 0.086879
0.065698 0.081183 0.086894
0.068752 0.081183 0.086948
0.178838 0.081255 0.087097
0.528648 0.083575 0.087417
0.788608 0.105836 0.087894
0.924547 0.230948 0.089427
0.978007 0.427885 0.092398
0.988573 0.614129 0.098292
0.065698 0.081183 0.086890
0.065698 0.081183 0.086905
0.068887 0.081193 0.086968
0.180621 0.081478 0.087100
0.530316 0.086422 0.087442
0.789221 0.119340 0.087919
0.924839 0.261804 0.089501
0.978044 0.456390 0.092569
0.988592 0.634534 0.098461
0.065698 0.081535 0.086929
0.065698 0.081740 0.086943
0.069398 0.082806 0.087040
0.193287 0.088910 0.087176
0.536311 0.112011 0.087534
0.791417 0.209637 0.088096
0.925886 0.374650 0.089766
0.978174 0.541484 0.093199
0.988662 0.686645 0.099064
0.065698 0.113418 0.087044
0.065698 0.117623 0.087071
0.070517 0.136303 0.087106
0.206787 0.192709 0.087350
0.547358 0.283746 0.087707
0.795438 0.410075 0.088524
0.927804 0.547137 0.090237
0.978413 0.672558 0.094349
0.988790 0.775258 0.100604
0.065698 0.389615 0.087200
0.065732 0.397061 0.087237
0.073737 0.436988 0.087368
0.227286 0.484072 0.087605
0.563924 0.561620 0.087956
0.809371 0.647311 0.089233
0.930654 0.722107 0.091190
0.978769 0.798839 0.096045
0.988981 0.858116 0.103027
0.065721 0.686381 0.087546
0.066162 0.690734 0.087583
0.079053 0.706364 0.087713
0.266122 0.735660 0.087945
0.584135 0.773977 0.088835
0.816541 0.816176 0.090207
0.934467 0.853259 0.093360
0.979176 0.899653 0.098309
0.989200 0.928082 0.105168
0.066186 0.861681 0.088020
0.067576 0.863976 0.088111
0.088819 0.872158 0.088436
0.306915 0.886892 0.089079
0.607197 0.904732 0.090091
0.825168 0.920030 0.092217
0.939185 0.937068 0.096286
0.979683 0.952212 0.102049
0.989343 0.961172 0.112808
0.068158 0.949971 0.089464
0.070810 0.950431 0.089567
0.112543 0.952070 0.089932
0.358970 0.954839 0.090581
0.633757 0.958303 0.092561
0.841283 0.962795 0.095788
0.944676 0.968225 0.100041
0.980293 0.973099 0.106604
0.989515 0.976563 0.121276
0.073489 0.973790 0.091817
0.080314 0.973878 0.092031
0.153925 0.974194 0.092851
0.417389 0.975186 0.094457
0.657905 0.977539 0.096810
0.855126 0.978872 0.100278
0.950292 0.980307 0.104948
0.981006 0.981955 0.117419
0.989717 0.983803 0.133510
0.065698 0.081183 0.137863
0.065698 0.081183 0.138810
0.068759 0.081183 0.142436
0.178941 0.081310 0.150231
0.528745 0.084008 0.164208
0.788644 0.109552 0.183506
0.924564 0.240782 0.206827
0.978010 0.438953 0.238984
0.988574 0.620512 0.282134
0.065698 0.081183 0.138542
0.065698 0.081183 0.139491
0.068895 0.081198 0.143270
0.180725 0.081608 0.151091
0.530413 0.087753 0.165397
0.789257 0.124290 0.184457
0.924856 0.269116 0.207847
0.978046 0.462721 0.240152
0.988593 0.639310 0.283474
0.065698 0.081723 0.140995
0.065698 0.081986 0.142091
0.069407 0.083253 0.146291
0.193403 0.091223 0.154207
0.536408 0.115931 0.169717
0.791453 0.218891 0.187897
0.925903 0.381514 0.211669
0.978176 0.549430 0.244376
0.988663 0.690717 0.288319
0.065698 0.117351 0.146468
0.065698 0.122277 0.147651
0.070532 0.142081 0.151945
0.206902 0.201294 0.161168
0.547455 0.294131 0.176535
0.795473 0.421597 0.194329
0.927821 0.555106 0.218913
0.978415 0.676664 0.252348
0.988792 0.778269 0.297103
0.065698 0.396565 0.154978
0.065732 0.404434 0.156201
0.073758 0.445904 0.161959
0.227423 0.490066 0.172938
0.564021 0.569308 0.185857
0.809485 0.651480 0.204191
0.930670 0.726247 0.229934
0.978771 0.801779 0.264794
0.988982 0.860274 0.310653
0.065721 0.690454 0.170278
0.066166 0.694768 0.171973
0.079089 0.710537 0.176770
0.266259 0.739773 0.185454
0.584214 0.776991 0.198908
0.816559 0.819065 0.218428
0.934484 0.855432 0.245466
0.979177 0.901142 0.282265
0.989200 0.929097 0.329627
0.066190 0.863829 0.186775
0.067584 0.866116 0.188115
0.088861 0.874273 0.192979
0.307051 0.888926 0.202122
0.607275 0.905829 0.216631
0.825227 0.921072 0.237610
0.939201 0.937882 0.266607
0.979684 0.952635 0.305104
0.989343 0.961484 0.352136
0.068166 0.950402 0.207336
0.070824 0.950860 0.208761
0.112640 0.952493 0.214181
0.359158 0.955172 0.224355
0.633816 0.958624 0.240102
0.841325 0.963102 0.262871
0.944692 0.968515 0.294079
0.980295 0.973184 0.334066
0.989516 0.976785 0.380693
0.073510 0.973873 0.234585
0.080327 0.973961 0.236196
0.154045 0.974276 0.242038
0.417498 0.975411 0.253117
0.657961 0.977748 0.270597
0.855153 0.978955 0.295345
0.950301 0.980383 0.328349
0.981008 0.982027 0.367218
0.989718 0.983871 0.413831
0.065698 0.081183 0.569013
0.065698 0.081183 0.570675
0.068771 0.081188 0.576658
0.179096 0.081403 0.587616
0.528890 0.085236 0.600058
0.788697 0.115398 0.615900
0.924589 0.254793 0.630151
0.978013 0.450264 0.645410
0.988576 0.629843 0.661040
0.065698 0.081183 0.570205
0.065698 0.081186 0.571868
0.068906 0.081207 0.577856
0.180881 0.081974 0.588608
0.530558 0.090359 0.600955
0.789310 0.131366 0.616503
0.924881 0.280258 0.630751
0.978049 0.472210 0.645868
0.988595 0.645574 0.661492
0.065698 0.082087 0.574494
0.065698 0.082340 0.576161
0.069419 0.083912 0.582166
0.193575 0.094118 0.591822
0.536553 0.122608 0.604180
0.791506 0.233443 0.618670
0.925928 0.391836 0.632905
0.978179 0.561375 0.647513
0.988665 0.696716 0.663115
0.065698 0.124401 0.582417
0.065698 0.129503 0.584093
0.070553 0.152566 0.589493
0.207074 0.214686 0.597744
0.547601 0.309615 0.610120
0.795526 0.438513 0.622651
0.927846 0.566882 0.636862
0.978419 0.682788 0.650531
0.988793 0.782754 0.666695
0.065698 0.409298 0.592613
0.065733 0.421608 0.593861
0.073789 0.455354 0.598349
0.227627 0.499121 0.606619
0.564167 0.579701 0.617388
0.809656 0.657697 0.628593
0.930695 0.732425 0.641807
0.978774 0.806160 0.655030
0.988984 0.863490 0.672568
0.065721 0.696460 0.604595
0.066172 0.700743 0.605847
0.079142 0.716762 0.610348
0.266463 0.745911 0.617134
0.584332 0.781483 0.625432
0.816587 0.823373 0.636600
0.934508 0.858670 0.647934
0.979180 0.902803 0.661085
0.989201 0.930580 0.680486
0.066196 0.867028 0.617966
0.067596 0.869305 0.618806
0.088924 0.877425 0.621822
0.307254 0.891957 0.627362
0.607393 0.907464 0.635625
0.825316 0.922625 0.644869
0.939224 0.939095 0.655673
0.979687 0.953264 0.670194
0.989344 0.961949 0.690526
0.068179 0.951043 0.630451
0.070845 0.951499 0.631287
0.112789 0.953124 0.634287
0.359439 0.955668 0.639516
0.633905 0.959103 0.645849
0.841388 0.963559 0.654344
0.944715 0.968900 0.665334
0.980298 0.973311 0.682499
0.989516 0.977116 0.702662
0.073541 0.973996 0.643671
0.080347 0.974084 0.644310
0.154223 0.974398 0.646605
0.417661 0.975747 0.650814
0.658045 0.977877 0.657077
0.855194 0.979079 0.665905
0.950313 0.980497 0.679959
0.981010 0.982135 0.697038
0.989718 0.983973 0.716710
0.065698 0.081183 0.812776
0.065698 0.081183 0.813231
0.068787 0.081198 0.814864
0.179305 0.081620 0.817859
0.529086 0.087823 0.822320
0.788769 0.124551 0.828309
0.924623 0.269501 0.835088
0.978017 0.463053 0.841560
0.988578 0.639530 0.849128
0.065698 0.081191 0.813102
0.065698 0.081196 0.813557
0.068922 0.081306 0.815189
0.181091 0.082458 0.818184
0.530754 0.094369 0.822642
0.789382 0.142741 0.828629
0.924915 0.300455 0.835313
0.978053 0.484742 0.841782
0.988597 0.654000 0.849346
0.065698 0.082633 0.814274
0.065698 0.083106 0.814729
0.069436 0.085607 0.816358
0.193808 0.097528 0.819348
0.536749 0.132232 0.823801
0.791577 0.252886 0.829779
0.925962 0.407547 0.836121
0.978184 0.576494 0.842579
0.988667 0.704999 0.850130
0.065698 0.134162 0.816426
0.065698 0.140046 0.816879
0.070582 0.171623 0.818504
0.207307 0.234203 0.821487
0.547797 0.331166 0.825927
0.795597 0.453309 0.831891
0.927880 0.581014 0.837604
0.978423 0.691027 0.844041
0.988796 0.788784 0.851569
0.065698 0.432749 0.819634
0.065733 0.443841 0.820086
0.073830 0.468159 0.821705
0.227903 0.513642 0.824675
0.564364 0.592551 0.829099
0.809886 0.666061 0.834503
0.930729 0.740744 0.839814
0.978778 0.812050 0.846220
0.988986 0.867812 0.853740
0.065722 0.704729 0.823950
0.066181 0.709192 0.824398
0.079215 0.725144 0.826009
0.266739 0.754177 0.828964
0.584492 0.787520 0.833314
0.816624 0.828848 0.837506
0.934542 0.863022 0.842783
0.979184 0.905031 0.849149
0.989202 0.932267 0.856695
0.066204 0.871328 0.829405
0.067612 0.873592 0.829851
0.089009 0.881663 0.831451
0.307530 0.896032 0.834040
0.607552 0.909657 0.837141
0.825437 0.924710 0.841298
0.939255 0.940723 0.846532
0.979690 0.954098 0.852852
0.989345 0.962574 0.860429
0.068195 0.951904 0.835200
0.070874 0.952357 0.835514
0.112991 0.953970 0.836640
0.359819 0.956335 0.838703
0.634024 0.959746 0.841773
0.841473 0.964174 0.845889
0.944745 0.969343 0.851071
0.980301 0.973481 0.857445
0.989517 0.977561 0.864951
0.073582 0.974162 0.840717
0.080373 0.974250 0.841027
0.154465 0.974608 0.842139
0.417881 0.976200 0.844178
0.658159 0.978050 0.847212
0.855249 0.979246 0.851280
0.950330 0.980649 0.856499
0.981013 0.982280 0.862842
0.989719 0.984109 0.870267
0.065698 0.081186 0.920653
0.065698 0.081192 0.920762
0.068807 0.081256 0.921153
0.179571 0.082238 0.921869
0.529335 0.092783 0.922936
0.788861 0.137339 0.924366
0.924667 0.291243 0.926169
0.978022 0.479376 0.928346
0.988581 0.650279 0.930896
0.065698 0.081205 0.920731
0.065698 0.081234 0.920840
0.068942 0.081481 0.921231
0.181358 0.083568 0.921947
0.531003 0.098725 0.923013
0.789473 0.162712 0.924443
0.924959 0.327525 0.926245
0.978059 0.500253 0.928421
0.988600 0.664654 0.930969
0.065698 0.083775 0.921012
0.065698 0.084370 0.921120
0.069457 0.088940 0.921510
0.194105 0.101991 0.922225
0.536998 0.147982 0.923290
0.791668 0.271856 0.924717
0.926006 0.437037 0.926516
0.978189 0.592833 0.928689
0.988670 0.715716 0.931234
0.065698 0.150413 0.921527
0.065699 0.158646 0.921635
0.070619 0.192907 0.922024
0.207604 0.257633 0.922737
0.548047 0.357450 0.923798
0.795688 0.469594 0.925221
0.927923 0.597364 0.927015
0.978428 0.701359 0.929182
0.988798 0.796399 0.931719
0.065698 0.453354 0.922294
0.065734 0.460117 0.922402
0.073883 0.484211 0.922789
0.228255 0.533936 0.923499
0.564615 0.608925 0.924555
0.810179 0.676638 0.925972
0.930772 0.751277 0.927758
0.978783 0.819493 0.929916
0.988989 0.873270 0.932443
0.065722 0.715447 0.923325
0.066191 0.719887 0.923432
0.079307 0.735756 0.923817
0.267091 0.763276 0.924523
0.584695 0.795145 0.925573
0.816671 0.833339 0.926982
0.934584 0.868518 0.928758
0.979188 0.907842 0.930903
0.989203 0.934397 0.933415
0.066215 0.876760 0.924628
0.067632 0.879006 0.924735
0.089118 0.886940 0.925116
0.307880 0.900880 0.925817
0.607754 0.912424 0.926859
0.825590 0.927341 0.928258
0.939295 0.942779 0.930021
0.979695 0.954959 0.932150
0.989346 0.963363 0.934645
0.068217 0.952991 0.926207
0.070910 0.953439 0.926312
0.113249 0.954847 0.926691
0.360302 0.957176 0.927385
0.634171 0.960559 0.928418
0.841581 0.964950 0.929804
0.944784 0.969902 0.931551
0.980305 0.973696 0.933662
0.989518 0.977892 0.936128
0.073636 0.974372 0.928062
0.080406 0.974459 0.928167
0.154773 0.975191 0.928541
0.418161 0.976771 0.929228
0.658304 0.978268 0.930250
0.855319 0.979450 0.931622
0.950351 0.980843 0.933351
0.981018 0.982463 0.935437
0.989720 0.984282 0.937868
0.065698 0.081203 0.960290
0.065698 0.081214 0.960321
0.068832 0.081442 0.960432
0.179897 0.083425 0.960635
0.529639 0.098161 0.960937
0.788973 0.159451 0.961343
0.924720 0.324044 0.961856
0.978029 0.498291 0.962361
0.988584 0.663315 0.962932
0.065698 0.081356 0.960313
0.065698 0.081420 0.960343
0.068967 0.082132 0.960454
0.181685 0.086010 0.960657
0.531307 0.104580 0.960959
0.789585 0.190421 0.961365
0.925012 0.359342 0.961877
0.978065 0.523958 0.962377
0.988604 0.677578 0.962949
0.065698 0.086593 0.960392
0.065698 0.088023 0.960423
0.069483 0.095293 0.960533
0.194468 0.110689 0.960736
0.537303 0.175412 0.961037
0.791780 0.300409 0.961443
0.926059 0.459466 0.961951
0.978196 0.612843 0.962437
0.988674 0.728732 0.963008
0.065698 0.178305 0.960538
0.065699 0.187049 0.960568
0.070663 0.220929 0.960678
0.207967 0.280784 0.960880
0.548352 0.379361 0.961181
0.795798 0.488978 0.961586
0.927976 0.617385 0.962063
0.978435 0.714468 0.962548
0.988802 0.805625 0.963117
0.065698 0.473258 0.960755
0.065734 0.480030 0.960785
0.073948 0.503169 0.960895
0.228684 0.558905 0.961097
0.564921 0.628974 0.961397
0.810537 0.689470 0.961800
0.930824 0.762837 0.962229
0.978790 0.828393 0.962712
0.988993 0.879882 0.963280
0.065723 0.728466 0.961047
0.066203 0.732877 0.961078
0.079420 0.748648 0.961187
0.267520 0.772952 0.961387
0.584943 0.804383 0.961686
0.816728 0.838763 0.962055
0.934636 0.875175 0.962453
0.979193 0.911239 0.962934
0.989205 0.936973 0.963499
0.066227 0.883330 0.961417
0.067656 0.885515 0.961448
0.089251 0.893307 0.961556
0.308307 0.904359 0.961755
0.608001 0.915769 0.962028
0.825778 0.930509 0.962341
0.939344 0.945267 0.962736
0.979700 0.956000 0.963214
0.989348 0.964318 0.963776
0.068243 0.954255 0.961866
0.070954 0.954613 0.961896
0.113565 0.955889 0.961990
0.360893 0.958194 0.962145
0.634352 0.961542 0.962377
0.841713 0.965890 0.962687
0.944832 0.970579 0.963080
0.980311 0.973956 0.963555
0.989520 0.978160 0.964112
0.073700 0.974791 0.962297
0.080447 0.975033 0.962320
0.155150 0.975897 0.962404
0.418504 0.977465 0.962558
0.658481 0.978533 0.962787
0.855405 0.979695 0.963096
0.950378 0.981077 0.963485
0.981023 0.982686 0.963956
0.989722 0.984492 0.964509
0.065698 0.081372 0.977248
0.065698 0.081435 0.977274
0.068861 0.082193 0.977368
0.180283 0.086331 0.977541
0.530001 0.105145 0.977799
0.789105 0.192650 0.978146
0.924784 0.361286 0.978570
0.978037 0.526047 0.978780
0.988589 0.678659 0.979027
0.065698 0.081850 0.977267
0.065698 0.082106 0.977293
0.068997 0.083482 0.977387
0.182074 0.092354 0.977560
0.531669 0.117946 0.977818
0.789717 0.223705 0.978165
0.925075 0.385031 0.978577
0.978073 0.553500 0.978787
0.988608 0.692793 0.979034
0.065698 0.093211 0.977334
0.065698 0.095098 0.977360
0.069513 0.101630 0.977455
0.194899 0.127052 0.977627
0.537665 0.206758 0.977885
0.791912 0.340210 0.978231
0.926122 0.482932 0.978603
0.978204 0.634834 0.978813
0.988678 0.744079 0.979060
0.065698 0.209976 0.977458
0.065700 0.219885 0.977485
0.070716 0.256223 0.977578
0.208397 0.319031 0.977751
0.548715 0.406388 0.978008
0.795930 0.513885 0.978354
0.928039 0.638276 0.978651
0.978443 0.729921 0.978861
0.988806 0.816470 0.979107
0.065698 0.496023 0.977644
0.065735 0.502497 0.977670
0.074024 0.532394 0.977763
0.229195 0.585379 0.977935
0.565285 0.645962 0.978192
0.810962 0.704602 0.978537
0.930886 0.774304 0.978723
0.978797 0.834951 0.978932
0.988997 0.887565 0.979178
0.065724 0.743814 0.977893
0.066218 0.748193 0.977919
0.079554 0.762665 0.978013
0.268031 0.784156 0.978184
0.585238 0.815240 0.978440
0.816797 0.845116 0.978648
0.934697 0.882993 0.978820
0.979200 0.915222 0.979028
0.989207 0.939995 0.979273
0.066242 0.890922 0.978210
0.067685 0.893083 0.978236
0.089434 0.900663 0.978328
0.308816 0.908435 0.978499
0.608295 0.919693 0.978636
0.826000 0.933614 0.978771
0.939402 0.948188 0.978942
0.979707 0.957221 0.979149
0.989349 0.965440 0.979387
0.068273 0.955499 0.978574
0.071007 0.955853 0.978584
0.113941 0.957112 0.978620
0.361595 0.959388 0.978687
0.634566 0.962696 0.978787
0.841870 0.966994 0.978921
0.944889 0.971375 0.979091
0.980317 0.974262 0.979297
0.989522 0.978475 0.979521
0.073777 0.975632 0.978753
0.080498 0.975872 0.978763
0.155598 0.976728 0.978799
0.418910 0.977953 0.978865
0.658691 0.978845 0.978964
0.855507 0.979984 0.979098
0.950409 0.981354 0.979266
0.981029 0.982948 0.979458
0.989724 0.984740 0.979680
