kodachrome64/Kodachrome64_Modern_ExtraPunchy.cube
TITLE "Kodachrome 64 Modern ExtraPunchy"
# Adobe RGB in/out. REPLACES AgX. Kodachrome 64 Modern ExtraPunchy.
LUT_3D_SIZE 5
DOMAIN_MIN 0.0 0.0 0.0
DOMAIN_MAX 1.0 1.0 1.0
0.078962 0.074438 0.068230
0.293035 0.074858 0.068230
0.885582 0.247810 0.068424
0.974638 0.619455 0.069584
0.984832 0.810521 0.077405
0.078962 0.179919 0.068230
0.122887 0.099959 0.068230
0.783766 0.364862 0.068342
0.966818 0.664620 0.069125
0.984010 0.832295 0.075806
0.079912 0.800672 0.068265
0.212243 0.742112 0.068281
0.698017 0.687221 0.068402
0.944124 0.800106 0.068910
0.980632 0.888381 0.073581
0.092353 0.933601 0.068551
0.264154 0.928936 0.068574
0.736755 0.920159 0.068687
0.931019 0.921357 0.069521
0.976581 0.933921 0.073921
0.121822 0.959778 0.068988
0.298979 0.958485 0.069080
0.720140 0.955976 0.069698
0.927188 0.956120 0.071652
0.974479 0.960474 0.078556
0.078962 0.074438 0.254789
0.313338 0.075477 0.278846
0.871027 0.240179 0.213155
0.972843 0.605676 0.218475
0.984514 0.803390 0.257097
0.078962 0.102575 0.120982
0.088051 0.077584 0.071422
0.747438 0.306535 0.106008
0.963137 0.645225 0.162269
0.983689 0.824545 0.223628
0.079244 0.761633 0.146310
0.177386 0.687101 0.107263
0.640640 0.638504 0.084531
0.933934 0.787791 0.108566
0.979865 0.883815 0.167665
0.090457 0.930095 0.131482
0.247040 0.925201 0.118795
0.715218 0.914160 0.107245
0.927549 0.916962 0.109734
0.976139 0.932954 0.148075
0.119799 0.958688 0.114429
0.293051 0.957467 0.113634
0.713138 0.955145 0.114325
0.925887 0.955575 0.127996
0.974371 0.960401 0.162331
0.078962 0.074471 0.916426
0.314175 0.079669 0.917794
0.923753 0.401967 0.916325
0.974246 0.638152 0.867995
0.984373 0.806857 0.829660
0.078962 0.234076 0.907673
0.237676 0.267098 0.882515
0.818316 0.453559 0.845113
0.964514 0.668702 0.820619
0.983493 0.825466 0.805691
0.079099 0.673780 0.794393
0.136004 0.628379 0.741165
0.545846 0.556627 0.589354
0.929249 0.778355 0.699412
0.978964 0.879687 0.748640
0.086980 0.921613 0.776930
0.210106 0.915212 0.761182
0.669587 0.900800 0.696444
0.914595 0.906621 0.663210
0.975120 0.931123 0.694643
0.114823 0.955997 0.722151
0.271562 0.955017 0.713454
0.696255 0.953286 0.692799
0.922764 0.954436 0.680479
0.974114 0.960315 0.690403
0.078962 0.078971 0.965241
0.315718 0.117495 0.965296
0.929587 0.507131 0.965494
0.977713 0.725285 0.956032
0.984744 0.831730 0.941766
0.078962 0.382019 0.965281
0.342615 0.478842 0.965336
0.897787 0.636803 0.960523
0.971937 0.756153 0.947178
0.983839 0.848022 0.936962
0.079113 0.707275 0.938231
0.162341 0.700991 0.934264
0.703311 0.729771 0.929336
0.942241 0.813012 0.927717
0.979400 0.888389 0.927141
0.084631 0.909039 0.929148
0.186101 0.903740 0.926655
0.644283 0.893925 0.911129
0.898911 0.896543 0.893419
0.974592 0.931197 0.906601
0.109110 0.953010 0.919583
0.253803 0.952402 0.916618
0.677653 0.951573 0.908889
0.917960 0.953617 0.902518
0.973871 0.960471 0.902498
0.078962 0.152423 0.977237
0.318030 0.276744 0.977251
0.929691 0.615966 0.977301
0.980171 0.800928 0.975870
0.985127 0.865093 0.968814
0.078962 0.511724 0.977247
0.344982 0.595776 0.977261
0.928379 0.773018 0.977129
0.976140 0.819739 0.973947
0.984366 0.875744 0.966248
0.079250 0.808603 0.971641
0.220889 0.811860 0.970327
0.785064 0.830048 0.966706
0.955989 0.868607 0.964430
0.980739 0.905233 0.960556
0.084065 0.910159 0.959989
0.183890 0.908773 0.958752
0.663052 0.909266 0.954813
0.923059 0.921426 0.951684
0.975406 0.934886 0.950903
0.106336 0.950944 0.952688
0.239254 0.950746 0.951898
0.663590 0.950952 0.949742
0.914900 0.953912 0.947751
0.973771 0.961060 0.947575
