kodachrome64/Kodachrome64_Modern_IlfochromeM.cube
TITLE "Kodachrome 64 Modern IlfochromeM"
# Adobe RGB in/out. REPLACES AgX. Kodachrome 64 Modern IlfochromeM.
LUT_3D_SIZE 9
DOMAIN_MIN 0.0 0.0 0.0
DOMAIN_MAX 1.0 1.0 1.0
0.117094 0.082435 0.080060
0.181533 0.104192 0.084366
0.386655 0.176242 0.099928
0.584046 0.277778 0.120706
0.753829 0.372807 0.143139
0.841048 0.461326 0.168482
0.898258 0.539581 0.199399
0.929070 0.611361 0.227700
0.950144 0.677298 0.256261
0.119575 0.136450 0.082729
0.153036 0.128975 0.083960
0.325812 0.193261 0.096400
0.538524 0.291606 0.117286
0.727291 0.383254 0.140349
0.831249 0.469384 0.165573
0.892307 0.546310 0.197022
0.926001 0.617166 0.225815
0.949059 0.682399 0.254714
0.135873 0.346388 0.095420
0.187660 0.314656 0.095838
0.297578 0.283044 0.099135
0.461895 0.337146 0.113677
0.658237 0.418197 0.134917
0.800510 0.496056 0.158416
0.871720 0.569074 0.190385
0.916312 0.637136 0.220281
0.945527 0.700155 0.249982
0.159258 0.521148 0.111448
0.213246 0.498286 0.111497
0.333673 0.455688 0.113240
0.447927 0.440488 0.119186
0.596842 0.476673 0.133350
0.758138 0.542262 0.154262
0.845726 0.608329 0.183629
0.902787 0.671795 0.214016
0.934661 0.726853 0.243689
0.186333 0.666122 0.126645
0.238478 0.651669 0.126874
0.353987 0.616316 0.128419
0.471743 0.587953 0.132801
0.591154 0.582915 0.141077
0.722334 0.610131 0.155148
0.823663 0.665353 0.181502
0.885306 0.719707 0.210393
0.923040 0.759467 0.238964
0.217108 0.772258 0.141490
0.262358 0.765554 0.141847
0.367053 0.746784 0.143449
0.486159 0.726606 0.147157
0.605536 0.715361 0.154083
0.720660 0.717156 0.166174
0.808146 0.733458 0.185387
0.869096 0.767519 0.211280
0.912988 0.799761 0.238031
0.248919 0.839407 0.155263
0.284038 0.836147 0.155725
0.376474 0.826365 0.157589
0.492034 0.814231 0.162226
0.611758 0.805099 0.170117
0.724873 0.802206 0.182440
0.806702 0.807267 0.198351
0.858424 0.818595 0.216717
0.905509 0.840487 0.241605
0.274969 0.875717 0.170405
0.303642 0.874430 0.171119
0.383780 0.870422 0.173771
0.492367 0.865061 0.178898
0.610014 0.860481 0.187096
0.723058 0.858464 0.198169
0.804642 0.859921 0.211957
0.856163 0.864875 0.228718
0.900679 0.872766 0.249520
0.296490 0.902966 0.185032
0.320609 0.902289 0.185806
0.389357 0.900150 0.188619
0.489269 0.897227 0.193780
0.602334 0.894701 0.201293
0.715352 0.893714 0.211495
0.798344 0.895013 0.224488
0.851657 0.898846 0.240932
0.897703 0.905036 0.260173
0.117583 0.085525 0.168773
0.187268 0.109211 0.172255
0.386656 0.179223 0.179916
0.572304 0.273463 0.188815
0.742153 0.367213 0.205152
0.835858 0.455614 0.224612
0.895363 0.535032 0.247066
0.927369 0.607825 0.269584
0.949562 0.674615 0.291252
0.119364 0.131166 0.143216
0.141273 0.116187 0.118023
0.314193 0.187667 0.148395
0.523423 0.284088 0.172434
0.714765 0.375526 0.196620
0.825975 0.463298 0.219193
0.888506 0.541613 0.243029
0.924307 0.613572 0.266882
0.948481 0.679697 0.289297
0.133787 0.326911 0.169720
0.178340 0.292911 0.152517
0.275589 0.261202 0.137601
0.442151 0.322118 0.151084
0.641551 0.407450 0.177230
0.792767 0.489000 0.205535
0.867958 0.563978 0.231780
0.914652 0.633387 0.258762
0.944363 0.697410 0.283238
0.156324 0.504263 0.178086
0.206554 0.482263 0.169953
0.322384 0.440035 0.156323
0.432504 0.425525 0.153016
0.583287 0.466283 0.166470
0.750135 0.534732 0.193723
0.842214 0.602954 0.220750
0.901230 0.667951 0.248878
0.933579 0.724835 0.275128
0.183975 0.655124 0.185977
0.233665 0.641007 0.182499
0.348009 0.606121 0.174709
0.463348 0.577956 0.170414
0.581516 0.573826 0.174390
0.715625 0.603527 0.190163
0.820768 0.660314 0.214832
0.883185 0.717004 0.241446
0.922104 0.757596 0.268360
0.215217 0.767039 0.194657
0.259839 0.760429 0.193371
0.363688 0.741848 0.190184
0.481565 0.721793 0.188535
0.599979 0.709499 0.191716
0.715932 0.712650 0.200450
0.805225 0.730536 0.215588
0.867505 0.765316 0.239666
0.912261 0.798338 0.265377
0.247510 0.836814 0.203290
0.282488 0.833590 0.202959
0.374450 0.823901 0.202373
0.489448 0.811863 0.203076
0.608653 0.802623 0.206778
0.722130 0.799829 0.214509
0.804712 0.805520 0.226584
0.857405 0.817396 0.243570
0.905025 0.839633 0.266974
0.274100 0.874669 0.211565
0.302661 0.873395 0.211724
0.382602 0.869426 0.212541
0.490919 0.864119 0.214820
0.608321 0.859600 0.219508
0.721576 0.857667 0.227399
0.803554 0.859247 0.239258
0.855542 0.864362 0.254946
0.900397 0.872432 0.272928
0.295962 0.902393 0.218912
0.320043 0.901724 0.219345
0.388710 0.899613 0.221001
0.488508 0.896731 0.224374
0.601481 0.894258 0.229977
0.714639 0.893338 0.238746
0.797850 0.894721 0.250843
0.851401 0.898656 0.265289
0.897613 0.904962 0.282194
0.117997 0.097728 0.392864
0.187409 0.120121 0.394566
0.395705 0.194545 0.400626
0.590790 0.290315 0.392342
0.740234 0.370234 0.376152
0.831339 0.453187 0.374313
0.890144 0.530409 0.378571
0.924372 0.602698 0.385668
0.948356 0.669824 0.393633
0.120438 0.165097 0.394086
0.188998 0.183399 0.388313
0.355925 0.223993 0.355106
0.533831 0.295881 0.350804
0.709626 0.376248 0.355389
0.820762 0.459556 0.362658
0.883016 0.536336 0.371327
0.921245 0.608122 0.381012
0.947267 0.674755 0.390634
0.129604 0.288421 0.323904
0.166295 0.264453 0.288419
0.234685 0.222988 0.220019
0.424463 0.311796 0.272304
0.624081 0.398323 0.307500
0.782186 0.480931 0.331782
0.861646 0.556604 0.350571
0.911402 0.626919 0.366522
0.941802 0.692002 0.380874
0.150528 0.468736 0.339378
0.193380 0.450327 0.321512
0.298847 0.409367 0.281065
0.400559 0.393411 0.255189
0.557758 0.447588 0.273647
0.732740 0.521213 0.302324
0.835063 0.592819 0.326934
0.897808 0.660150 0.348091
0.931022 0.720418 0.366663
0.178244 0.628223 0.341129
0.222573 0.615492 0.332254
0.334562 0.582842 0.308923
0.443660 0.555041 0.286485
0.558097 0.552180 0.276927
0.699062 0.588424 0.288086
0.813789 0.648691 0.310850
0.877941 0.709339 0.332979
0.919701 0.753049 0.353554
0.209996 0.752911 0.337002
0.252978 0.746698 0.332529
0.354768 0.728978 0.319713
0.469569 0.707726 0.305259
0.585280 0.693357 0.296001
0.702576 0.698068 0.295353
0.797423 0.722941 0.305217
0.863183 0.759530 0.325014
0.910249 0.794560 0.345037
0.243396 0.829311 0.331226
0.277978 0.826230 0.329032
0.368683 0.816917 0.322474
0.482119 0.805250 0.314513
0.599859 0.795387 0.308902
0.714242 0.793127 0.308239
0.798912 0.799972 0.313330
0.854463 0.814035 0.324012
0.903609 0.837224 0.342221
0.271437 0.871486 0.325173
0.299659 0.870262 0.324225
0.379024 0.866441 0.321380
0.486560 0.861325 0.318011
0.603253 0.857008 0.316092
0.717122 0.855319 0.317280
0.800255 0.857247 0.322462
0.853640 0.862834 0.331717
0.899530 0.871438 0.344461
0.294284 0.900593 0.319156
0.318243 0.899954 0.318920
0.386662 0.897937 0.318310
0.486109 0.895198 0.318009
0.598810 0.892901 0.319046
0.712306 0.892189 0.322396
0.796299 0.893832 0.328703
0.850592 0.898087 0.338139
0.897327 0.904754 0.350605
0.118269 0.118726 0.620669
0.187668 0.138288 0.621739
0.395856 0.213056 0.625567
0.619016 0.318094 0.632549
0.763096 0.395858 0.592812
0.836362 0.465809 0.559529
0.890462 0.535612 0.542563
0.923202 0.603729 0.533323
0.947554 0.668684 0.528056
0.120611 0.185826 0.621437
0.192042 0.206285 0.622505
0.398442 0.268928 0.626328
0.588808 0.340145 0.600674
0.733375 0.401261 0.561372
0.825078 0.470965 0.542013
0.882915 0.540723 0.532032
0.919940 0.608657 0.526590
0.946434 0.673331 0.523545
0.130353 0.304109 0.525509
0.175610 0.299223 0.503219
0.306484 0.304906 0.468076
0.463149 0.349980 0.467726
0.640640 0.415637 0.481776
0.784128 0.487421 0.493346
0.860012 0.558017 0.500896
0.909626 0.625725 0.505821
0.939869 0.689619 0.509214
0.145503 0.439064 0.492034
0.183805 0.425960 0.471810
0.283656 0.391448 0.419076
0.367356 0.363251 0.363205
0.546791 0.442216 0.408660
0.724740 0.517488 0.440632
0.830820 0.588929 0.462843
0.894427 0.656103 0.478193
0.928793 0.717548 0.489003
0.171764 0.597707 0.497013
0.212186 0.587300 0.485453
0.319579 0.559050 0.452660
0.422647 0.531678 0.416051
0.531136 0.528107 0.395634
0.682300 0.574629 0.410360
0.805200 0.638987 0.434054
0.872890 0.702196 0.453750
0.917244 0.749102 0.469174
0.202913 0.734862 0.491665
0.244033 0.729399 0.485212
0.343801 0.713141 0.465867
0.455168 0.688461 0.441536
0.567397 0.674411 0.422056
0.685731 0.680445 0.413847
0.788217 0.714511 0.421564
0.858128 0.753286 0.438890
0.907875 0.790541 0.454865
0.237493 0.819059 0.479500
0.271758 0.816256 0.475969
0.361055 0.807699 0.464968
0.472475 0.795698 0.450057
0.588412 0.786268 0.436457
0.703340 0.784566 0.428258
0.791111 0.792558 0.427163
0.850649 0.809953 0.433705
0.901758 0.834332 0.447704
0.267515 0.866920 0.464275
0.295297 0.865790 0.462439
0.373886 0.862251 0.456596
0.480412 0.857497 0.448370
0.596206 0.853525 0.440503
0.710754 0.852178 0.435472
0.795619 0.854559 0.434758
0.850941 0.860784 0.438615
0.898323 0.870175 0.446345
0.291729 0.897913 0.447850
0.315508 0.897326 0.447023
0.383571 0.895477 0.444394
0.482528 0.892990 0.440735
0.594870 0.890984 0.437460
0.708879 0.890594 0.435988
0.794021 0.892616 0.437322
0.849400 0.897333 0.441866
0.896906 0.904529 0.449443
0.118609 0.146015 0.815182
0.188054 0.167226 0.815711
0.396081 0.238554 0.817603
0.619160 0.336773 0.821064
0.792948 0.436926 0.815004
0.849199 0.492182 0.763669
0.896891 0.551948 0.731609
0.924693 0.613101 0.702820
0.947560 0.673467 0.682757
0.120865 0.213984 0.815561
0.192415 0.232361 0.816089
0.398666 0.290556 0.817980
0.620822 0.374288 0.821438
0.768712 0.442381 0.786499
0.837808 0.496941 0.746870
0.889186 0.556516 0.717024
0.921312 0.617578 0.693536
0.946404 0.677801 0.676607
0.135474 0.368129 0.799781
0.198580 0.369601 0.787363
0.364365 0.380040 0.756528
0.526679 0.409764 0.725497
0.686740 0.455642 0.699403
0.800688 0.511197 0.683707
0.865127 0.571584 0.673062
0.910524 0.632965 0.664548
0.939537 0.692969 0.656913
0.144968 0.441284 0.665074
0.184529 0.435649 0.649114
0.300749 0.424368 0.608497
0.426284 0.431904 0.579569
0.578545 0.473806 0.585715
0.737365 0.533860 0.603346
0.833134 0.597382 0.617048
0.894308 0.660062 0.625059
0.927967 0.718550 0.628687
0.166771 0.574699 0.644613
0.203623 0.567117 0.632326
0.308816 0.545495 0.595390
0.410834 0.521073 0.547952
0.504504 0.505144 0.505721
0.675237 0.572443 0.541888
0.801848 0.638360 0.568998
0.870568 0.701284 0.587842
0.915789 0.748161 0.600081
0.196036 0.717020 0.639624
0.234427 0.711910 0.632080
0.333513 0.693847 0.608653
0.441844 0.671875 0.576462
0.550297 0.657360 0.547167
0.665355 0.662990 0.532121
0.780100 0.705745 0.544176
0.854042 0.749193 0.563053
0.905953 0.788102 0.578101
0.230257 0.807905 0.626513
0.264804 0.805490 0.622091
0.352768 0.797107 0.607928
0.462332 0.785964 0.587472
0.576577 0.777028 0.567159
0.691786 0.775537 0.552599
0.782635 0.784941 0.547210
0.846808 0.806286 0.553321
0.899938 0.831929 0.566085
0.262918 0.861690 0.606916
0.290210 0.860696 0.604385
0.368027 0.857568 0.596175
0.473470 0.853350 0.584072
0.588410 0.849865 0.571404
0.703607 0.848921 0.561419
0.790451 0.851761 0.556324
0.847913 0.858672 0.556750
0.897175 0.869240 0.562248
0.288623 0.894746 0.583413
0.312187 0.894233 0.582125
0.379844 0.892623 0.577911
0.478268 0.890489 0.571619
0.590258 0.888879 0.564984
0.704914 0.888898 0.559849
0.791396 0.891365 0.557608
0.848030 0.896613 0.558901
0.896251 0.904426 0.563552
0.118831 0.186871 0.896456
0.188574 0.207243 0.896610
0.396386 0.269693 0.897163
0.619356 0.360187 0.898176
0.802667 0.463040 0.899679
0.864741 0.526576 0.879525
0.903386 0.576693 0.854984
0.928340 0.629905 0.834877
0.948346 0.684178 0.815505
0.121387 0.247915 0.896567
0.192917 0.264218 0.896721
0.398968 0.317087 0.897274
0.621017 0.396002 0.898285
0.798979 0.487219 0.897370
0.853787 0.531527 0.871486
0.898524 0.581103 0.848030
0.924918 0.634110 0.830224
0.947167 0.688257 0.810088
0.137130 0.400979 0.896964
0.209471 0.412031 0.897118
0.408113 0.448209 0.897669
0.583335 0.470730 0.879085
0.730892 0.503391 0.858979
0.820756 0.545999 0.840284
0.875315 0.595344 0.825605
0.913895 0.648407 0.807580
0.940914 0.702475 0.792515
0.149356 0.481051 0.838998
0.195764 0.480374 0.834624
0.333763 0.481842 0.819804
0.478507 0.494572 0.797981
0.629326 0.524036 0.784474
0.763720 0.567276 0.778224
0.841964 0.618567 0.774716
0.897891 0.673056 0.771161
0.928880 0.724191 0.766614
0.165209 0.572042 0.783498
0.201654 0.567810 0.775996
0.311351 0.556387 0.753373
0.426927 0.547672 0.722566
0.551701 0.558379 0.700667
0.697433 0.598621 0.707709
0.809341 0.652941 0.723385
0.872575 0.709680 0.734825
0.915927 0.751581 0.739393
0.191244 0.700347 0.769140
0.226373 0.695843 0.763647
0.326095 0.682135 0.746109
0.433995 0.664693 0.715675
0.541384 0.651096 0.679092
0.645375 0.647041 0.648932
0.777372 0.705748 0.676593
0.852794 0.750094 0.697060
0.905144 0.788715 0.710728
0.223640 0.796625 0.758960
0.258140 0.794375 0.755486
0.345046 0.787350 0.744186
0.453228 0.777751 0.724849
0.566315 0.769463 0.699610
0.680627 0.767681 0.679191
0.774157 0.777621 0.670000
0.843559 0.803802 0.679286
0.898538 0.830822 0.692440
0.258141 0.856425 0.743947
0.285099 0.855593 0.741881
0.362112 0.852972 0.735076
0.466484 0.849432 0.721103
0.580762 0.846558 0.705060
0.696637 0.846036 0.691325
0.785283 0.849231 0.682861
0.844843 0.856785 0.681116
0.895718 0.868660 0.686249
0.285390 0.891427 0.721081
0.308575 0.891005 0.719494
0.375809 0.889688 0.714239
0.473715 0.887990 0.706166
0.585417 0.886863 0.697187
0.700820 0.887354 0.689447
0.788707 0.890295 0.684683
0.846637 0.896093 0.683817
0.895520 0.904560 0.686700
0.119118 0.233336 0.944598
0.189233 0.250694 0.944663
0.396772 0.305870 0.944898
0.619604 0.386465 0.945329
0.802773 0.484375 0.945969
0.878926 0.563418 0.939229
0.910382 0.605985 0.917966
0.933041 0.651769 0.898021
0.949645 0.699560 0.882700
0.121989 0.286117 0.944645
0.193553 0.300849 0.944710
0.399353 0.349491 0.944945
0.621265 0.422441 0.945375
0.803488 0.511767 0.946016
0.868699 0.568838 0.934451
0.905706 0.610490 0.912559
0.929663 0.655878 0.894311
0.948464 0.703476 0.880122
0.137726 0.427165 0.944813
0.210166 0.436966 0.944879
0.408489 0.470195 0.945113
0.626508 0.525459 0.945352
0.764888 0.551059 0.931689
0.837394 0.584670 0.911717
0.887356 0.624889 0.895356
0.918698 0.669728 0.882269
0.943540 0.716356 0.871633
0.155277 0.534692 0.920436
0.211319 0.535576 0.917806
0.362911 0.540137 0.909682
0.522076 0.552237 0.898635
0.676956 0.574622 0.887715
0.788993 0.607181 0.878426
0.854048 0.647673 0.870843
0.902487 0.693152 0.863347
0.931239 0.733938 0.855758
0.167995 0.595090 0.874548
0.207612 0.593770 0.872298
0.326359 0.591285 0.864655
0.456478 0.593858 0.853164
0.593842 0.608746 0.844275
0.729101 0.638624 0.840067
0.820899 0.679905 0.838881
0.878580 0.723722 0.838282
0.917681 0.759478 0.836966
0.189115 0.696112 0.853099
0.223469 0.693324 0.850391
0.324507 0.685047 0.841650
0.437198 0.675709 0.828743
0.554761 0.672961 0.809504
0.680547 0.687807 0.798658
0.787820 0.723093 0.802874
0.856112 0.758674 0.810981
0.905898 0.793398 0.816606
0.219366 0.788115 0.843648
0.252823 0.786434 0.841722
0.339430 0.781165 0.835354
0.447132 0.773541 0.824814
0.560766 0.767286 0.805846
0.674377 0.765673 0.788285
0.766073 0.770990 0.775081
0.842497 0.804796 0.788581
0.898096 0.832119 0.797905
0.253659 0.851782 0.834593
0.280327 0.851130 0.833377
0.356648 0.849075 0.829152
0.460222 0.846319 0.820618
0.574207 0.843733 0.808026
0.690805 0.843613 0.796490
0.780692 0.847387 0.788404
0.841914 0.855304 0.785984
0.894323 0.868632 0.790640
0.282114 0.888283 0.820773
0.304954 0.887960 0.819564
0.371777 0.886971 0.815523
0.469219 0.885764 0.809190
0.580738 0.885182 0.801913
0.696949 0.886183 0.795302
0.786198 0.889594 0.790779
0.845349 0.895906 0.789254
0.894906 0.905026 0.790744
0.119316 0.281473 0.974613
0.190032 0.296453 0.974661
0.397245 0.345375 0.974834
0.619908 0.419184 0.975151
0.802904 0.509266 0.975623
0.889738 0.599792 0.973454
0.916506 0.636618 0.956079
0.937705 0.676113 0.942075
0.951106 0.716915 0.930338
0.122706 0.326750 0.974648
0.194326 0.340570 0.974696
0.399822 0.381493 0.974868
0.621568 0.451086 0.975185
0.803618 0.535341 0.975658
0.880364 0.605679 0.968948
0.912095 0.641316 0.952885
0.934434 0.680233 0.939805
0.949944 0.719748 0.927646
0.138449 0.455188 0.974772
0.211003 0.464318 0.974820
0.408948 0.495775 0.974992
0.627495 0.548889 0.975309
0.786289 0.595291 0.968629
0.851250 0.623006 0.954729
0.897933 0.656280 0.942576
0.923747 0.694045 0.932357
0.946085 0.729510 0.918731
0.161173 0.587139 0.964765
0.224142 0.588354 0.963286
0.386972 0.593262 0.958458
0.556166 0.603844 0.951148
0.711286 0.621698 0.942847
0.811581 0.647208 0.934753
0.866170 0.679536 0.924750
0.907714 0.716365 0.914212
0.934346 0.746392 0.905003
0.173056 0.633409 0.932414
0.217049 0.633543 0.931301
0.343097 0.635091 0.925973
0.484823 0.641255 0.918363
0.629857 0.655453 0.910538
0.757285 0.679163 0.903824
0.832936 0.711398 0.898410
0.886492 0.740369 0.893825
0.920470 0.770640 0.889520
0.190370 0.708791 0.903304
0.225746 0.707620 0.901792
0.329774 0.704612 0.896912
0.450060 0.703238 0.889876
0.578329 0.708868 0.882989
0.707471 0.723123 0.878348
0.803615 0.745076 0.876430
0.862694 0.773103 0.875953
0.907988 0.801709 0.875482
0.217022 0.785325 0.890139
0.249965 0.784254 0.888899
0.336980 0.780973 0.884776
0.446172 0.776633 0.878375
0.563607 0.774352 0.871137
0.683949 0.777708 0.863953
0.780003 0.790604 0.860166
0.846506 0.812934 0.861800
0.899073 0.836778 0.864395
0.249954 0.848482 0.881983
0.276445 0.848016 0.881138
0.352312 0.846567 0.878300
0.455574 0.844496 0.873788
0.569968 0.842709 0.868450
0.687741 0.843581 0.861814
0.778437 0.847483 0.856419
0.839269 0.854368 0.853313
0.893824 0.869694 0.857529
0.279062 0.885643 0.873323
0.301605 0.885424 0.872818
0.368120 0.884775 0.871116
0.465138 0.884088 0.868408
0.576621 0.884089 0.864363
0.693687 0.885626 0.860378
0.784152 0.889474 0.857485
0.844301 0.896194 0.856327
0.894493 0.905908 0.857122
0.119798 0.330081 0.986525
0.190975 0.343956 0.986538
0.397804 0.384356 0.986584
0.620268 0.453376 0.986669
0.803059 0.537263 0.986795
0.895835 0.632801 0.986966
0.921031 0.666472 0.980766
0.941550 0.700858 0.969774
0.952419 0.731221 0.957126
0.123666 0.369358 0.986534
0.195238 0.380282 0.986547
0.400378 0.420480 0.986593
0.621927 0.482472 0.986678
0.803773 0.561916 0.986804
0.888072 0.640239 0.985621
0.916923 0.671365 0.979684
0.938428 0.705031 0.967542
0.951289 0.734006 0.955499
0.139409 0.486318 0.986567
0.211953 0.494893 0.986580
0.409492 0.524576 0.986626
0.627851 0.574847 0.986711
0.800311 0.635131 0.986066
0.861349 0.658839 0.980914
0.903616 0.686956 0.971946
0.928159 0.717772 0.960171
0.947520 0.743573 0.950072
0.165865 0.634253 0.985550
0.236166 0.635480 0.985049
0.404308 0.640108 0.983368
0.580840 0.649294 0.980691
0.735232 0.663998 0.975605
0.823962 0.684628 0.966094
0.876521 0.710909 0.957056
0.912545 0.734722 0.948866
0.937466 0.759998 0.941578
0.178739 0.675292 0.965270
0.226749 0.675927 0.964393
0.358836 0.678700 0.961480
0.508496 0.685367 0.956924
0.659103 0.697789 0.951536
0.775913 0.716297 0.946050
0.843722 0.735290 0.940881
0.894317 0.758063 0.936140
0.923509 0.783122 0.931757
0.194005 0.728931 0.942894
0.232340 0.728837 0.942207
0.338524 0.729010 0.939952
0.465745 0.731077 0.936540
0.600889 0.737233 0.932786
0.729055 0.749098 0.927981
0.816206 0.766872 0.923495
0.869842 0.788657 0.919881
0.910610 0.810936 0.916582
0.217061 0.789587 0.929914
0.250181 0.789099 0.928926
0.338215 0.787766 0.925638
0.450516 0.786825 0.920542
0.573192 0.788413 0.914833
0.697746 0.794894 0.909914
0.791859 0.807439 0.906819
0.852341 0.824060 0.905481
0.900936 0.843750 0.904825
0.247578 0.847208 0.918612
0.273976 0.846932 0.917876
0.349732 0.846113 0.915392
0.453372 0.845230 0.911415
0.569178 0.845166 0.906675
0.689091 0.846964 0.902104
0.781517 0.851673 0.898672
0.843544 0.860379 0.897370
0.895079 0.872640 0.897959
0.276493 0.883828 0.909384
0.298787 0.883711 0.908923
0.365101 0.883401 0.907364
0.461818 0.883241 0.904859
0.573471 0.883846 0.901866
0.691450 0.885947 0.898985
0.782958 0.890231 0.896809
0.843763 0.897232 0.895824
0.894357 0.907285 0.896362
