kodachrome64/Kodachrome64_Classic_Soft.cube
TITLE "Kodachrome 64 Classic Soft"
# Adobe RGB in/out. REPLACES AgX. Kodachrome 64 Classic Soft.
LUT_3D_SIZE 5
DOMAIN_MIN 0.0 0.0 0.0
DOMAIN_MAX 1.0 1.0 1.0
0.067153 0.073606 0.090377
0.160370 0.073606 0.090377
0.872366 0.073843 0.090377
0.934992 0.075554 0.090377
0.946080 0.083263 0.606537
0.067153 0.076413 0.090377
0.067714 0.078579 0.090377
0.703114 0.084059 0.090377
0.928194 0.093553 0.090377
0.946080 0.083264 0.606533
0.067153 0.481456 0.090377
0.067188 0.545417 0.090377
0.127294 0.554958 0.090377
0.874022 0.586001 0.090909
0.946029 0.592283 0.097242
0.067153 0.842100 0.090377
0.067488 0.854329 0.090377
0.083600 0.862459 0.091054
0.671718 0.864068 0.092009
0.944415 0.875026 0.094984
0.067176 0.914976 0.090444
0.067925 0.926798 0.090445
0.072342 0.929010 0.091761
0.327181 0.927322 0.092864
0.945551 0.929680 0.094131
0.067153 0.073606 0.093490
0.132854 0.073606 0.103177
0.881882 0.074421 0.103574
0.934861 0.076508 0.115564
0.946080 0.083264 0.606578
0.067153 0.075946 0.092436
0.077284 0.081214 0.095935
0.823123 0.086937 0.097439
0.930343 0.097620 0.103608
0.946080 0.083264 0.606534
0.067153 0.437467 0.092916
0.068797 0.492149 0.093751
0.335444 0.535437 0.095829
0.901205 0.584896 0.099515
0.945985 0.606237 0.194402
0.067354 0.830689 0.093750
0.068586 0.841102 0.094337
0.102307 0.853946 0.096794
0.773671 0.860125 0.100787
0.944901 0.874587 0.114250
0.067223 0.916830 0.094138
0.068029 0.928254 0.094138
0.074590 0.928261 0.094971
0.389643 0.926877 0.099011
0.946830 0.929593 0.102696
0.067153 0.073656 0.505832
0.084596 0.074754 0.735254
0.866968 0.078056 0.735422
0.933071 0.085508 0.761681
0.946080 0.084383 0.834978
0.067153 0.080992 0.493506
0.074911 0.086904 0.631812
0.822202 0.097773 0.678073
0.929506 0.126064 0.730123
0.946080 0.084241 0.821735
0.067555 0.440272 0.374221
0.071950 0.487324 0.456302
0.568950 0.561163 0.563875
0.912982 0.603263 0.618497
0.945826 0.653212 0.787541
0.068669 0.823663 0.329212
0.071386 0.832087 0.365468
0.183398 0.845936 0.462252
0.853932 0.858326 0.526419
0.945272 0.876561 0.699584
0.067569 0.924976 0.452471
0.067836 0.927989 0.452467
0.083005 0.926851 0.348674
0.526858 0.926452 0.421990
0.947331 0.930263 0.535526
0.067153 0.076693 0.856299
0.071452 0.083549 0.882746
0.854226 0.092737 0.885266
0.931455 0.111362 0.889032
0.946080 0.086438 0.895880
0.067153 0.093576 0.856640
0.072334 0.110191 0.875198
0.815811 0.153756 0.881026
0.928606 0.225002 0.886089
0.946079 0.086330 0.894706
0.068289 0.517454 0.840657
0.074595 0.551264 0.853833
0.620460 0.599279 0.865801
0.916538 0.648819 0.875397
0.945717 0.701317 0.893155
0.069559 0.832160 0.802895
0.074077 0.839528 0.816066
0.282237 0.853278 0.843342
0.873528 0.863984 0.855624
0.945458 0.881538 0.885331
0.067608 0.925869 0.699298
0.067961 0.929351 0.700288
0.084393 0.928523 0.778185
0.559063 0.928125 0.797334
0.947453 0.931792 0.859326
0.070069 0.087864 0.928318
0.380178 0.090107 0.928347
0.903756 0.102363 0.928478
0.937486 0.114988 0.928780
0.946080 0.097705 0.927135
0.072551 0.112958 0.928253
0.333184 0.122366 0.928292
0.898154 0.164551 0.928450
0.936973 0.198572 0.928773
0.946080 0.101886 0.928211
0.078119 0.554685 0.928060
0.178135 0.566574 0.928171
0.870566 0.599317 0.928413
0.934083 0.626428 0.928799
0.946645 0.657989 0.929704
0.072169 0.845800 0.928179
0.086170 0.849057 0.928373
0.713141 0.856759 0.928725
0.924658 0.862625 0.929158
0.946903 0.877027 0.929984
0.067450 0.924192 0.889830
0.068029 0.930526 0.907278
0.072876 0.933322 0.928671
0.489020 0.931868 0.930060
0.947591 0.933957 0.930154
