kodachrome64/Kodachrome64_Classic_ExtraPunchy.cube
TITLE "Kodachrome 64 Classic ExtraPunchy"
# Adobe RGB in/out. REPLACES AgX. Kodachrome 64 Classic ExtraPunchy.
LUT_3D_SIZE 33
DOMAIN_MIN 0.0 0.0 0.0
DOMAIN_MAX 1.0 1.0 1.0
0.069399 0.072436 0.066853
0.069399 0.072436 0.066853
0.069399 0.072436 0.066853
0.069399 0.072436 0.066853
0.069399 0.072436 0.066853
0.070358 0.072436 0.066853
0.072635 0.072436 0.066853
0.077724 0.072436 0.066853
0.085962 0.072436 0.066853
0.100934 0.072476 0.066853
0.124587 0.072635 0.066853
0.165269 0.072987 0.066853
0.216285 0.073581 0.066853
0.270202 0.074336 0.066853
0.342236 0.075253 0.066853
0.451309 0.077543 0.066853
0.549424 0.080028 0.066853
0.634455 0.084214 0.066853
0.729816 0.089550 0.066853
0.784080 0.097648 0.066853
0.846206 0.113322 0.066853
0.882981 0.135238 0.066853
0.910500 0.160714 0.066918
0.931863 0.194328 0.067048
0.944756 0.236165 0.067236
0.956231 0.270566 0.067456
0.964296 0.320305 0.067672
0.971939 0.369662 0.067920
0.976530 0.419566 0.068140
0.980395 0.471332 0.068252
0.983610 0.520909 0.068593
0.985376 0.570967 0.068925
0.986928 0.608209 0.069305
0.069399 0.072436 0.066853
0.069399 0.072436 0.066853
0.069399 0.072436 0.066853
0.069399 0.072436 0.066853
0.069399 0.072436 0.066853
0.070364 0.072436 0.066853
0.072638 0.072436 0.066853
0.077743 0.072436 0.066853
0.085987 0.072436 0.066853
0.100967 0.072491 0.066853
0.124638 0.072653 0.066853
0.165334 0.073028 0.066853
0.216348 0.073633 0.066853
0.270284 0.074397 0.066853
0.342322 0.075369 0.066853
0.451447 0.077678 0.066853
0.549508 0.080255 0.066853
0.634540 0.084420 0.066853
0.729897 0.089883 0.066853
0.784115 0.098075 0.066853
0.846234 0.114198 0.066853
0.883006 0.136126 0.066853
0.910517 0.162088 0.066919
0.931871 0.195711 0.067049
0.944764 0.237174 0.067237
0.956235 0.272440 0.067458
0.964300 0.321561 0.067673
0.971943 0.371013 0.067922
0.976532 0.420981 0.068140
0.980397 0.472578 0.068254
0.983611 0.522188 0.068595
0.985376 0.572144 0.068927
0.986929 0.609005 0.069307
0.069399 0.072436 0.066853
0.069399 0.072436 0.066853
0.069399 0.072436 0.066853
0.069399 0.072436 0.066853
0.069399 0.072436 0.066853
0.070387 0.072436 0.066853
0.072650 0.072436 0.066853
0.077810 0.072436 0.066853
0.086077 0.072436 0.066853
0.101083 0.072541 0.066853
0.124821 0.072712 0.066853
0.165568 0.073173 0.066853
0.216576 0.073817 0.066853
0.270580 0.074611 0.066853
0.342630 0.075833 0.066853
0.451944 0.078160 0.066853
0.549811 0.081046 0.066853
0.634847 0.085222 0.066853
0.730188 0.091103 0.066853
0.784238 0.099671 0.066853
0.846335 0.117366 0.066853
0.883098 0.139336 0.066853
0.910576 0.167080 0.066923
0.931901 0.200725 0.067052
0.944791 0.240810 0.067243
0.956253 0.279239 0.067463
0.964315 0.326089 0.067679
0.971957 0.375880 0.067928
0.976539 0.426136 0.068141
0.980403 0.477063 0.068261
0.983614 0.526787 0.068602
0.985379 0.576376 0.068933
0.986931 0.611851 0.069314
0.069399 0.072436 0.066853
0.069399 0.072436 0.066853
0.069399 0.072436 0.066853
0.069399 0.072436 0.066853
0.069399 0.072436 0.066853
0.070430 0.072436 0.066853
0.072672 0.072436 0.066853
0.077934 0.072436 0.066853
0.086243 0.072510 0.066853
0.101271 0.072655 0.066853
0.125158 0.072979 0.066853
0.165999 0.073501 0.066853
0.216995 0.074161 0.066853
0.271124 0.074983 0.066853
0.343197 0.076780 0.066853
0.452859 0.079019 0.066853
0.550369 0.082469 0.066853
0.635411 0.086673 0.066853
0.730723 0.093329 0.066853
0.784464 0.103157 0.066853
0.846521 0.122923 0.066853
0.883267 0.145316 0.066853
0.910686 0.176494 0.066930
0.931956 0.210128 0.067058
0.944842 0.247544 0.067254
0.956284 0.292014 0.067473
0.964343 0.334480 0.067690
0.971984 0.384895 0.067938
0.976552 0.436460 0.068142
0.980415 0.485342 0.068274
0.983619 0.535277 0.068614
0.985383 0.582463 0.068944
0.986936 0.617081 0.069327
0.069399 0.072436 0.066853
0.069399 0.072436 0.066853
0.069399 0.072436 0.066853
0.069399 0.072436 0.066853
0.069399 0.072436 0.066853
0.070492 0.072436 0.066853
0.072703 0.072449 0.066853
0.078117 0.072541 0.066853
0.086490 0.072672 0.066853
0.101558 0.072970 0.066853
0.125662 0.073420 0.066853
0.166643 0.074002 0.066853
0.217623 0.074753 0.066853
0.271939 0.075995 0.066853
0.344046 0.078125 0.066853
0.454228 0.080683 0.066853
0.551204 0.084537 0.066853
0.636255 0.089580 0.066853
0.731523 0.097104 0.066853
0.784803 0.110872 0.066853
0.846799 0.131448 0.066853
0.883520 0.154581 0.066853
0.910849 0.186984 0.066940
0.932038 0.224380 0.067068
0.944918 0.257720 0.067270
0.956331 0.305488 0.067488
0.964385 0.348308 0.067706
0.972023 0.398528 0.067953
0.976572 0.450767 0.068144
0.980432 0.497794 0.068294
0.983628 0.547760 0.068632
0.985390 0.590620 0.068961
0.986942 0.624886 0.069348
0.069399 0.072436 0.066853
0.069399 0.072436 0.066853
0.069399 0.072436 0.066853
0.069399 0.072464 0.066853
0.069399 0.072508 0.066853
0.070575 0.072568 0.066853
0.072797 0.072661 0.066853
0.078364 0.072837 0.066853
0.086822 0.073156 0.066853
0.101946 0.073596 0.066853
0.126344 0.074109 0.066853
0.167514 0.074791 0.066853
0.218471 0.075898 0.066853
0.273041 0.077855 0.066853
0.345194 0.079924 0.066853
0.455580 0.083538 0.066853
0.552332 0.087715 0.066853
0.637396 0.094174 0.066853
0.732604 0.103634 0.066853
0.785260 0.122362 0.066853
0.847174 0.143371 0.066853
0.883861 0.171287 0.066853
0.911070 0.202801 0.066954
0.932149 0.240764 0.067080
0.945021 0.276240 0.067291
0.956395 0.322152 0.067507
0.964442 0.369544 0.067728
0.972075 0.417226 0.067973
0.976598 0.467303 0.068147
0.980455 0.514748 0.068320
0.983639 0.563409 0.068657
0.985400 0.601610 0.068984
0.986951 0.635399 0.069375
0.069399 0.072680 0.066853
0.069399 0.072685 0.066853
0.069399 0.072703 0.066853
0.069399 0.072754 0.066853
0.069399 0.072891 0.066853
0.070727 0.073065 0.066853
0.073001 0.073275 0.066853
0.078675 0.073625 0.066853
0.087243 0.074004 0.066853
0.102438 0.074532 0.066853
0.127212 0.075099 0.066853
0.168624 0.076518 0.066853
0.219550 0.078250 0.066853
0.274444 0.080288 0.066853
0.346655 0.083587 0.066853
0.457128 0.087387 0.066853
0.553767 0.093220 0.066853
0.638847 0.101467 0.066853
0.733979 0.117772 0.066853
0.786813 0.137150 0.066853
0.847651 0.159830 0.066853
0.884295 0.190435 0.066853
0.911351 0.227144 0.066972
0.932290 0.258186 0.067104
0.945151 0.304146 0.067318
0.956476 0.343921 0.067532
0.964515 0.392738 0.067756
0.972142 0.442970 0.067998
0.976632 0.488552 0.068150
0.980485 0.536517 0.068353
0.983653 0.581935 0.068688
0.985412 0.615301 0.069013
0.986962 0.648716 0.069409
0.069399 0.073545 0.066853
0.069399 0.073561 0.066853
0.069399 0.073620 0.066853
0.069399 0.073725 0.066853
0.069483 0.073878 0.066853
0.070926 0.074082 0.066853
0.073262 0.074407 0.066853
0.079050 0.074782 0.066853
0.087895 0.075229 0.066853
0.103036 0.076416 0.066853
0.128272 0.077808 0.066853
0.169982 0.079290 0.066853
0.220870 0.081758 0.066853
0.276162 0.084720 0.066853
0.348443 0.088512 0.066853
0.459022 0.094186 0.066853
0.555521 0.102096 0.066853
0.640620 0.117596 0.066853
0.735127 0.135650 0.066853
0.789342 0.156495 0.066853
0.848233 0.185847 0.066853
0.884825 0.218484 0.066865
0.911694 0.250325 0.066993
0.932462 0.291352 0.067134
0.945310 0.330135 0.067350
0.956575 0.376006 0.067562
0.964603 0.421773 0.067789
0.972224 0.469352 0.068029
0.976673 0.514833 0.068154
0.980521 0.561620 0.068394
0.983671 0.599042 0.068726
0.985426 0.631674 0.069055
0.986975 0.664900 0.069450
0.069399 0.074914 0.066853
0.069399 0.074931 0.066853
0.069399 0.074992 0.066853
0.069399 0.075102 0.066853
0.069605 0.075377 0.066853
0.071155 0.075920 0.066853
0.073780 0.076672 0.066853
0.079491 0.077553 0.066853
0.088669 0.078566 0.066853
0.103744 0.079685 0.066853
0.129532 0.081881 0.066853
0.171597 0.084268 0.066853
0.222438 0.087171 0.066853
0.278205 0.091574 0.066853
0.350569 0.097211 0.066853
0.461272 0.106541 0.066853
0.557604 0.121842 0.066853
0.642726 0.138903 0.066853
0.736480 0.158822 0.066853
0.792348 0.186575 0.066853
0.848923 0.217394 0.066853
0.885453 0.248036 0.066892
0.912101 0.284094 0.067017
0.932666 0.323486 0.067173
0.945498 0.366825 0.067388
0.956693 0.410024 0.067597
0.964707 0.457081 0.067828
0.972321 0.500281 0.068066
0.976721 0.546353 0.068159
0.980564 0.586994 0.068441
0.983691 0.618878 0.068770
0.985443 0.650993 0.069107
0.986991 0.687768 0.069499
0.069399 0.078404 0.066853
0.069399 0.078444 0.066853
0.069399 0.078589 0.066853
0.069399 0.078852 0.066853
0.069738 0.079240 0.066853
0.071411 0.079782 0.066853
0.074370 0.080950 0.066853
0.079995 0.082331 0.066853
0.089564 0.083924 0.066853
0.104579 0.085847 0.066853
0.130997 0.088455 0.066853
0.173477 0.092221 0.066853
0.224261 0.096915 0.066853
0.280584 0.103768 0.066853
0.353043 0.116531 0.066853
0.463889 0.130851 0.066853
0.560025 0.147123 0.066853
0.645174 0.168874 0.066853
0.738051 0.192732 0.066853
0.795846 0.224154 0.066853
0.849724 0.251369 0.066853
0.886182 0.287493 0.066922
0.912572 0.323803 0.067045
0.932903 0.364941 0.067220
0.945717 0.406105 0.067432
0.956829 0.451717 0.067637
0.964829 0.492828 0.067873
0.972434 0.536837 0.068107
0.976778 0.579520 0.068166
0.980614 0.610459 0.068496
0.983715 0.641411 0.068821
0.985463 0.674183 0.069167
0.987010 0.715872 0.069556
0.069399 0.084518 0.066853
0.069399 0.084587 0.066853
0.069399 0.084835 0.066853
0.069399 0.085289 0.066853
0.069916 0.085961 0.066853
0.071692 0.086918 0.066853
0.075030 0.088395 0.066853
0.080562 0.090465 0.066853
0.090579 0.093031 0.066853
0.105872 0.096361 0.066853
0.132672 0.100832 0.066853
0.175632 0.108531 0.066853
0.226347 0.119336 0.066853
0.283311 0.131358 0.066853
0.355876 0.145118 0.066853
0.466884 0.161903 0.066853
0.562794 0.184940 0.066853
0.647973 0.208694 0.066853
0.739844 0.237476 0.066853
0.799851 0.260652 0.066853
0.850638 0.299465 0.066853
0.887014 0.331197 0.066956
0.913111 0.370964 0.067076
0.933173 0.410048 0.067273
0.945967 0.453301 0.067480
0.956985 0.492501 0.067687
0.964967 0.534498 0.067924
0.972562 0.575978 0.068139
0.976842 0.606461 0.068228
0.980671 0.636267 0.068557
0.983742 0.666875 0.068879
0.985486 0.706278 0.069235
0.987031 0.748040 0.069620
0.069399 0.095665 0.066853
0.069399 0.095783 0.066853
0.069399 0.096208 0.066853
0.069399 0.096988 0.066853
0.070176 0.098241 0.066853
0.072045 0.100155 0.066853
0.075755 0.102920 0.066853
0.081279 0.107717 0.066853
0.091714 0.114068 0.066853
0.107327 0.121636 0.066853
0.134686 0.130302 0.066853
0.178107 0.140398 0.066853
0.228678 0.152002 0.066853
0.286394 0.168518 0.066853
0.359078 0.186894 0.066853
0.470266 0.207504 0.066853
0.565917 0.233480 0.066853
0.651130 0.253696 0.066853
0.741864 0.283384 0.066853
0.802092 0.315574 0.066853
0.851667 0.346702 0.066874
0.887950 0.384589 0.066994
0.913717 0.422043 0.067126
0.933477 0.461945 0.067331
0.946247 0.499389 0.067534
0.957160 0.539537 0.067747
0.965123 0.578668 0.067980
0.972707 0.607106 0.068146
0.976914 0.635643 0.068301
0.980736 0.665084 0.068626
0.983773 0.702364 0.068943
0.985512 0.742526 0.069311
0.987055 0.782344 0.069691
0.069399 0.123705 0.066853
0.069399 0.123968 0.066853
0.069399 0.124915 0.066853
0.069480 0.126665 0.066853
0.070446 0.129300 0.066853
0.072477 0.132906 0.066853
0.076402 0.137555 0.066853
0.082082 0.143320 0.066853
0.092971 0.150282 0.066853
0.108946 0.159178 0.066853
0.137252 0.172838 0.066853
0.181228 0.185947 0.066853
0.231228 0.200383 0.066853
0.289971 0.220600 0.066853
0.362658 0.240063 0.066853
0.474045 0.257229 0.066853
0.569299 0.284496 0.066853
0.654653 0.312706 0.066853
0.744114 0.339234 0.066853
0.803934 0.373487 0.066853
0.852812 0.406393 0.066918
0.888993 0.444044 0.067035
0.914391 0.477832 0.067191
0.933816 0.513654 0.067395
0.946560 0.551417 0.067593
0.957355 0.585412 0.067813
0.965297 0.612382 0.068041
0.972868 0.639598 0.068154
0.976995 0.667681 0.068382
0.980807 0.704196 0.068701
0.983807 0.742787 0.069014
0.985541 0.781649 0.069394
0.987082 0.802841 0.069770
0.069399 0.168112 0.066853
0.069399 0.168546 0.066853
0.069399 0.170111 0.066853
0.069700 0.173014 0.066853
0.070803 0.177324 0.066853
0.072631 0.181737 0.066853
0.076718 0.187090 0.066853
0.083112 0.193467 0.066853
0.094501 0.203867 0.066853
0.110761 0.216591 0.066853
0.140247 0.230943 0.066853
0.185276 0.243484 0.066853
0.234050 0.256506 0.066853
0.293953 0.275281 0.066853
0.366627 0.301528 0.066853
0.478228 0.322404 0.066853
0.573017 0.346192 0.066853
0.658549 0.376236 0.066853
0.746598 0.405159 0.066853
0.805966 0.438016 0.066853
0.854075 0.469357 0.066966
0.890143 0.501223 0.067078
0.915135 0.535533 0.067265
0.934189 0.569679 0.067463
0.946898 0.596974 0.067657
0.957569 0.622254 0.067884
0.965488 0.648160 0.068107
0.973046 0.676416 0.068164
0.977084 0.711838 0.068469
0.980886 0.748886 0.068783
0.983845 0.784014 0.069107
0.985572 0.804087 0.069485
0.987112 0.821790 0.069856
0.069399 0.232455 0.066853
0.069399 0.232894 0.066853
0.069410 0.234475 0.066853
0.069980 0.236530 0.066853
0.071266 0.239613 0.066853
0.072968 0.243800 0.066853
0.077460 0.249155 0.066853
0.084219 0.255745 0.066853
0.096166 0.264207 0.066853
0.112899 0.278454 0.066853
0.145470 0.297075 0.066853
0.190820 0.311155 0.066853
0.237148 0.327068 0.066853
0.298340 0.345473 0.066853
0.372108 0.369985 0.066853
0.482826 0.392867 0.066853
0.577098 0.418219 0.066853
0.662826 0.447722 0.066853
0.749319 0.473735 0.066853
0.808192 0.501948 0.066905
0.855457 0.532449 0.067016
0.891086 0.563338 0.067148
0.915949 0.590042 0.067344
0.934597 0.613187 0.067536
0.947259 0.636760 0.067738
0.957805 0.661338 0.067961
0.965698 0.691447 0.068143
0.973230 0.725354 0.068248
0.977182 0.760886 0.068563
0.980972 0.789448 0.068871
0.983887 0.807863 0.069212
0.985607 0.824818 0.069584
0.987144 0.842014 0.069954
0.069399 0.303887 0.066853
0.069399 0.304270 0.066853
0.069673 0.305644 0.066853
0.070350 0.308178 0.066853
0.071736 0.311963 0.066853
0.073908 0.317103 0.066853
0.078471 0.323685 0.066853
0.085402 0.331792 0.066853
0.097964 0.341510 0.066853
0.115225 0.355785 0.066853
0.150251 0.371127 0.066853
0.196957 0.386627 0.066853
0.240650 0.404188 0.066853
0.303177 0.423927 0.066853
0.379337 0.447532 0.066853
0.487846 0.468261 0.066853
0.581546 0.490983 0.066853
0.667488 0.515776 0.066853
0.752278 0.542724 0.066853
0.810611 0.569254 0.066962
0.856959 0.591742 0.067068
0.892069 0.612448 0.067237
0.916834 0.633650 0.067427
0.935041 0.655873 0.067614
0.947651 0.681554 0.067825
0.958060 0.712398 0.068042
0.965926 0.744813 0.068153
0.973347 0.778851 0.068356
0.977287 0.797925 0.068664
0.981066 0.814154 0.068966
0.983932 0.830306 0.069323
0.985644 0.846676 0.069689
0.987179 0.862206 0.070087
0.069589 0.384799 0.066853
0.069668 0.385222 0.066853
0.070002 0.386741 0.066853
0.070788 0.389543 0.066853
0.072341 0.393749 0.066853
0.075102 0.399458 0.066853
0.079531 0.406762 0.066853
0.086822 0.415752 0.066853
0.099893 0.426617 0.066853
0.117740 0.440444 0.066853
0.154144 0.454146 0.066853
0.201293 0.468248 0.066853
0.245190 0.484104 0.066853
0.308448 0.501783 0.066853
0.387249 0.521354 0.066853
0.497901 0.542891 0.066853
0.586368 0.564363 0.066853
0.672544 0.584733 0.066853
0.755479 0.602020 0.066917
0.813228 0.620005 0.067021
0.858581 0.638822 0.067146
0.893130 0.658672 0.067331
0.917789 0.682106 0.067514
0.935520 0.709955 0.067702
0.948075 0.739337 0.067917
0.958337 0.770304 0.068128
0.966172 0.791926 0.068166
0.973471 0.807908 0.068469
0.977402 0.822905 0.068770
0.981168 0.838218 0.069077
0.983980 0.853403 0.069442
0.985685 0.866328 0.069801
0.987217 0.876826 0.070230
0.069908 0.472293 0.066853
0.070028 0.472678 0.066853
0.070429 0.474060 0.066853
0.071373 0.476607 0.066853
0.072644 0.480422 0.066853
0.076326 0.485589 0.066853
0.080641 0.492182 0.066853
0.088701 0.500267 0.066853
0.101859 0.509909 0.066853
0.122815 0.521170 0.066853
0.158367 0.534113 0.066853
0.205137 0.548448 0.066853
0.250109 0.563316 0.066853
0.314162 0.579419 0.066853
0.395872 0.592113 0.066853
0.505843 0.605887 0.066853
0.591570 0.620337 0.066853
0.677998 0.635746 0.066883
0.758923 0.652191 0.066983
0.816042 0.669620 0.067082
0.860324 0.693060 0.067250
0.894270 0.717979 0.067429
0.918816 0.744400 0.067605
0.936035 0.772368 0.067805
0.948530 0.791424 0.068013
0.958634 0.806191 0.068148
0.966437 0.819936 0.068289
0.973603 0.834042 0.068588
0.977525 0.848345 0.068883
0.981277 0.862114 0.069210
0.984033 0.871937 0.069568
0.985729 0.880582 0.069920
0.987258 0.887465 0.070403
0.070375 0.557678 0.066853
0.070481 0.558039 0.066853
0.070991 0.559339 0.066853
0.071980 0.561731 0.066853
0.073240 0.565312 0.066853
0.076807 0.570158 0.066853
0.081965 0.576331 0.066853
0.090817 0.582262 0.066853
0.103820 0.588536 0.066853
0.126193 0.595811 0.066853
0.162803 0.604105 0.066853
0.209403 0.613264 0.066853
0.255452 0.623293 0.066853
0.320333 0.634336 0.066853
0.405236 0.646398 0.066853
0.508410 0.659484 0.066853
0.597156 0.674577 0.066861
0.683856 0.693764 0.066955
0.761913 0.714376 0.067050
0.819055 0.736430 0.067184
0.862189 0.759970 0.067357
0.895490 0.782655 0.067529
0.919915 0.796406 0.067708
0.936586 0.809018 0.067911
0.949017 0.821442 0.068112
0.958951 0.834265 0.068162
0.966721 0.847378 0.068422
0.973745 0.860232 0.068713
0.977657 0.869735 0.069000
0.981394 0.878976 0.069350
0.984089 0.883876 0.069700
0.985776 0.893390 0.070083
0.987302 0.903034 0.070591
0.070957 0.623202 0.066853
0.071111 0.623445 0.066853
0.071639 0.624319 0.066853
0.072565 0.625926 0.066853
0.074739 0.628329 0.066853
0.078106 0.631572 0.066853
0.083596 0.635692 0.066853
0.093054 0.640717 0.066853
0.106427 0.646672 0.066853
0.129911 0.653576 0.066853
0.167536 0.661445 0.066853
0.214004 0.670406 0.066853
0.261358 0.682847 0.066853
0.326795 0.696605 0.066853
0.415370 0.711705 0.066853
0.511141 0.728168 0.066853
0.603132 0.746021 0.066939
0.690125 0.765301 0.067029
0.764535 0.783181 0.067138
0.822244 0.794671 0.067302
0.864176 0.805704 0.067468
0.896788 0.816316 0.067632
0.921085 0.827375 0.067825
0.937172 0.838866 0.068021
0.949537 0.850507 0.068148
0.959290 0.861992 0.068273
0.967023 0.870261 0.068560
0.973897 0.878726 0.068843
0.977798 0.882884 0.069149
0.981518 0.891686 0.069495
0.984149 0.900648 0.069838
0.985826 0.909759 0.070260
0.987349 0.919508 0.070787
0.071648 0.687383 0.066853
0.071787 0.687685 0.066853
0.072417 0.688772 0.066853
0.073062 0.690772 0.066853
0.076256 0.693764 0.066853
0.079511 0.697808 0.066853
0.085294 0.702952 0.066853
0.095654 0.709239 0.066853
0.109477 0.716705 0.066853
0.133879 0.725383 0.066853
0.172611 0.735303 0.066853
0.218919 0.746500 0.066853
0.267694 0.759003 0.066853
0.333375 0.772830 0.066853
0.426308 0.784221 0.066853
0.517922 0.792805 0.066935
0.609503 0.801757 0.067018
0.696811 0.809966 0.067113
0.767262 0.818702 0.067264
0.825571 0.827918 0.067422
0.866269 0.837602 0.067580
0.898167 0.847634 0.067755
0.922328 0.857655 0.067945
0.937795 0.866068 0.068134
0.950088 0.873491 0.068163
0.959649 0.880313 0.068424
0.967344 0.884501 0.068703
0.974058 0.892541 0.068978
0.977947 0.900769 0.069309
0.981651 0.909174 0.069647
0.984212 0.918166 0.069999
0.985879 0.924649 0.070476
0.987399 0.930020 0.070993
0.072474 0.768283 0.066853
0.072531 0.768587 0.066853
0.072728 0.769680 0.066853
0.074641 0.771690 0.066853
0.076923 0.774698 0.066853
0.080990 0.778762 0.066853
0.087284 0.782096 0.066853
0.098378 0.785393 0.066853
0.112920 0.789292 0.066853
0.139073 0.793802 0.066853
0.178070 0.798928 0.066853
0.224153 0.803967 0.066853
0.274471 0.809296 0.066853
0.340401 0.815149 0.066867
0.438084 0.821511 0.066941
0.528202 0.828377 0.067018
0.616275 0.835738 0.067104
0.703592 0.843586 0.067244
0.770145 0.851587 0.067393
0.829093 0.859916 0.067543
0.868434 0.866480 0.067702
0.899624 0.872784 0.067885
0.923610 0.879344 0.068068
0.938453 0.882095 0.068152
0.950671 0.888684 0.068308
0.960030 0.895930 0.068580
0.967683 0.903387 0.068850
0.974228 0.911060 0.069142
0.978105 0.919384 0.069475
0.981791 0.924923 0.069805
0.984280 0.929886 0.070199
0.985935 0.934928 0.070701
0.987451 0.939978 0.071208
0.072857 0.815243 0.066853
0.073056 0.815371 0.066853
0.074175 0.815831 0.066853
0.076331 0.816677 0.066853
0.078556 0.817940 0.066853
0.082789 0.819644 0.066853
0.090014 0.821804 0.066853
0.101208 0.824435 0.066853
0.116648 0.827544 0.066853
0.147965 0.831140 0.066853
0.185277 0.835226 0.066853
0.229659 0.839805 0.066853
0.281701 0.844876 0.066893
0.347883 0.850191 0.066960
0.450125 0.855923 0.067029
0.539179 0.861957 0.067112
0.623452 0.866532 0.067242
0.710628 0.871400 0.067381
0.773185 0.876554 0.067523
0.832812 0.880615 0.067667
0.870717 0.883194 0.067842
0.901160 0.889141 0.068017
0.924808 0.895337 0.068145
0.939147 0.901773 0.068213
0.951286 0.908440 0.068477
0.960431 0.915601 0.068740
0.968041 0.922193 0.069001
0.974407 0.926621 0.069322
0.978272 0.931151 0.069646
0.981939 0.935776 0.069979
0.984351 0.940414 0.070434
0.985995 0.945089 0.070934
0.987507 0.949657 0.071450
0.074492 0.852099 0.066853
0.074828 0.852214 0.066853
0.076003 0.852628 0.066853
0.077201 0.853388 0.066853
0.080195 0.854523 0.066853
0.084828 0.856053 0.066853
0.092840 0.857994 0.066853
0.103859 0.860358 0.066853
0.122955 0.862677 0.066853
0.154039 0.864906 0.066853
0.195572 0.867436 0.066875
0.235368 0.870268 0.066930
0.289505 0.873401 0.066989
0.355834 0.876834 0.067051
0.460047 0.880081 0.067135
0.550110 0.881538 0.067258
0.630059 0.884394 0.067387
0.718062 0.888972 0.067518
0.776380 0.893823 0.067653
0.836727 0.898942 0.067817
0.873118 0.904320 0.067983
0.902747 0.909950 0.068139
0.926069 0.916128 0.068163
0.939877 0.921894 0.068394
0.951932 0.925739 0.068649
0.960853 0.929705 0.068903
0.968418 0.933786 0.069190
0.974596 0.937962 0.069506
0.978448 0.942147 0.069821
0.982095 0.946424 0.070203
0.984426 0.950414 0.070686
0.986057 0.953948 0.071174
0.987566 0.957538 0.071730
0.076348 0.879270 0.066853
0.076462 0.879344 0.066853
0.076950 0.879612 0.066853
0.078998 0.879893 0.066853
0.082028 0.880195 0.066853
0.087109 0.880561 0.066853
0.096078 0.881008 0.066853
0.107434 0.881552 0.066853
0.127821 0.882194 0.066887
0.160463 0.884028 0.066930
0.202862 0.886398 0.066977
0.241725 0.889053 0.067028
0.298010 0.891993 0.067083
0.364264 0.895215 0.067179
0.468916 0.898718 0.067292
0.558299 0.902498 0.067409
0.636912 0.906551 0.067531
0.725899 0.910878 0.067656
0.779731 0.915741 0.067809
0.840397 0.920879 0.067966
0.875636 0.923997 0.068126
0.904386 0.927233 0.068157
0.927391 0.930604 0.068333
0.940642 0.934106 0.068578
0.952611 0.937726 0.068823
0.961291 0.941378 0.069080
0.968814 0.945141 0.069388
0.974795 0.948997 0.069695
0.978632 0.952150 0.070025
0.982259 0.955375 0.070465
0.984504 0.958513 0.070945
0.986123 0.960856 0.071440
0.987627 0.962525 0.072025
0.077436 0.898631 0.066853
0.077749 0.898701 0.066853
0.078851 0.898952 0.066858
0.080811 0.899413 0.066868
0.084312 0.900103 0.066883
0.090260 0.901033 0.066903
0.099438 0.902212 0.066928
0.111533 0.903648 0.066958
0.133034 0.905345 0.066993
0.167080 0.907308 0.067033
0.209170 0.909539 0.067076
0.249610 0.912115 0.067148
0.307100 0.915053 0.067242
0.375423 0.918276 0.067343
0.478280 0.921420 0.067449
0.566907 0.923589 0.067559
0.645619 0.925913 0.067677
0.734098 0.928389 0.067821
0.783236 0.931013 0.067967
0.843286 0.933781 0.068117
0.878271 0.936690 0.068155
0.906101 0.939679 0.068295
0.928774 0.942776 0.068529
0.941443 0.945996 0.068764
0.953321 0.949257 0.069001
0.961737 0.952002 0.069293
0.969228 0.954830 0.069590
0.975002 0.957714 0.069888
0.978825 0.960220 0.070275
0.982431 0.961715 0.070743
0.984587 0.963240 0.071211
0.986192 0.964557 0.071750
0.987692 0.965638 0.072388
0.079397 0.922021 0.066965
0.079692 0.922061 0.066966
0.080749 0.922205 0.066971
0.083030 0.922469 0.066981
0.086771 0.922863 0.066995
0.093598 0.923395 0.067013
0.102713 0.924069 0.067036
0.116111 0.924890 0.067064
0.139613 0.925860 0.067104
0.174084 0.926982 0.067164
0.215934 0.928256 0.067239
0.258079 0.929683 0.067321
0.316738 0.931264 0.067410
0.389782 0.932996 0.067504
0.488150 0.934879 0.067604
0.575650 0.936912 0.067718
0.654769 0.939052 0.067850
0.739964 0.941318 0.067985
0.790573 0.943722 0.068125
0.846300 0.946261 0.068155
0.881023 0.948931 0.068279
0.907890 0.951161 0.068501
0.929869 0.953482 0.068726
0.942279 0.955896 0.068952
