kodachrome64/Kodachrome64_Classic_IlfochromeP.cube
TITLE "Kodachrome 64 Classic IlfochromeP"
# Adobe RGB in/out. REPLACES AgX. Kodachrome 64 Classic IlfochromeP.
LUT_3D_SIZE 33
DOMAIN_MIN 0.0 0.0 0.0
DOMAIN_MAX 1.0 1.0 1.0
0.138776 0.101263 0.100261
0.139026 0.102842 0.100721
0.139400 0.103358 0.100839
0.143432 0.105152 0.101193
0.165711 0.108312 0.101613
0.181302 0.109698 0.101887
0.232682 0.113250 0.102392
0.309836 0.117882 0.103230
0.349846 0.120140 0.103602
0.404923 0.123305 0.104137
0.480140 0.130058 0.105199
0.532492 0.135234 0.105934
0.581923 0.139706 0.106604
0.632060 0.146032 0.107560
0.680567 0.154084 0.108738
0.716639 0.159532 0.109868
0.742001 0.164528 0.111243
0.765622 0.170430 0.113158
0.787176 0.177505 0.115732
0.804892 0.181413 0.117707
0.817988 0.186414 0.119861
0.828903 0.192495 0.123131
0.839192 0.197311 0.126563
0.849119 0.197811 0.129649
0.856404 0.198556 0.133480
0.862834 0.197468 0.139711
0.869970 0.184199 0.144054
0.872990 0.176518 0.155300
0.879107 0.134059 0.247061
0.879107 0.134025 0.246978
0.879107 0.134023 0.246973
0.879107 0.134025 0.246970
0.881462 0.251290 0.518709
0.138817 0.106111 0.100618
0.138950 0.106481 0.100772
0.139718 0.104225 0.100766
0.144828 0.106392 0.101249
0.166784 0.109200 0.101710
0.181055 0.110435 0.101946
0.229964 0.114155 0.102477
0.304885 0.118594 0.103290
0.345061 0.120778 0.103645
0.400035 0.123815 0.104178
0.475577 0.130932 0.105242
0.528116 0.135982 0.105967
0.578105 0.140516 0.106641
0.629354 0.146758 0.107590
0.678375 0.154866 0.108762
0.715263 0.160246 0.109902
0.740912 0.165185 0.111283
0.764780 0.171060 0.113195
0.786539 0.178105 0.115772
0.804501 0.182150 0.117740
0.817696 0.187217 0.119892
0.828688 0.193274 0.123157
0.839036 0.198074 0.126580
0.849008 0.198555 0.129656
0.856326 0.199284 0.133469
0.862779 0.198185 0.139671
0.869944 0.184906 0.143982
0.872974 0.176972 0.155076
0.879107 0.134060 0.247063
0.879107 0.134025 0.246978
0.879107 0.134023 0.246973
0.879107 0.134025 0.246970
0.881462 0.251292 0.518709
0.138830 0.107605 0.100712
0.138869 0.107953 0.100915
0.138989 0.108001 0.100969
0.141263 0.109681 0.101449
0.155954 0.113384 0.101914
0.174463 0.113962 0.102091
0.219497 0.117451 0.102751
0.291720 0.121928 0.103520
0.330044 0.123253 0.103806
0.383194 0.126266 0.104326
0.458976 0.134247 0.105398
0.512808 0.139044 0.106086
0.563830 0.143544 0.106775
0.619167 0.149454 0.107699
0.670107 0.157764 0.108868
0.708836 0.162883 0.110029
0.736807 0.167605 0.111429
0.761614 0.173370 0.113328
0.784152 0.180454 0.115919
0.803036 0.184964 0.117861
0.816605 0.190160 0.120018
0.827886 0.196127 0.123251
0.838455 0.200862 0.126644
0.848597 0.201283 0.129681
0.856037 0.201956 0.133435
0.862576 0.200806 0.139534
0.869844 0.187494 0.143741
0.872916 0.178637 0.154314
0.879107 0.134063 0.247069
0.879107 0.134026 0.246979
0.879107 0.134023 0.246974
0.879107 0.134026 0.246970
0.881462 0.251294 0.518708
0.138874 0.114885 0.101159
0.138897 0.115444 0.101266
0.138987 0.116387 0.101479
0.139729 0.116232 0.101671
0.146203 0.121276 0.102189
0.156894 0.120034 0.102377
0.187003 0.122993 0.103091
0.252225 0.128045 0.103804
0.299555 0.129347 0.104082
0.354509 0.133369 0.104596
0.429014 0.141723 0.105696
0.484175 0.146245 0.106345
0.535655 0.149652 0.107030
0.596713 0.155029 0.107908
0.653197 0.163488 0.109154
0.695065 0.168043 0.110268
0.728389 0.172393 0.111709
0.755153 0.177836 0.113580
0.779307 0.186239 0.116197
0.800073 0.190897 0.118092
0.814409 0.195828 0.120259
0.826281 0.201611 0.123434
0.837296 0.206256 0.126773
0.847778 0.206547 0.129742
0.855464 0.207099 0.133394
0.862174 0.205870 0.139317
0.869647 0.192477 0.143362
0.872799 0.182450 0.153083
0.879107 0.134069 0.247084
0.879107 0.134026 0.246981
0.879107 0.134024 0.246975
0.879107 0.134031 0.246971
0.881462 0.251296 0.518707
0.138931 0.129644 0.101771
0.138951 0.130618 0.101876
0.139016 0.133391 0.102035
0.139804 0.134480 0.102268
0.142981 0.133970 0.102729
0.148534 0.129759 0.102872
0.165654 0.134099 0.103444
0.207525 0.140452 0.104161
0.252596 0.139946 0.104446
0.313469 0.143353 0.105062
0.390618 0.151949 0.106117
0.446777 0.155580 0.106814
0.498248 0.158949 0.107414
0.558283 0.164836 0.108229
0.623677 0.173253 0.109604
0.670662 0.176795 0.110776
0.713089 0.180425 0.112178
0.743668 0.187077 0.113974
0.770765 0.196488 0.116635
0.794167 0.200522 0.118457
0.810586 0.205007 0.120644
0.823510 0.210486 0.123731
0.835309 0.214887 0.126993
0.846379 0.214960 0.129865
0.854491 0.215309 0.133383
0.861493 0.213961 0.139075
0.869314 0.200511 0.142947
0.872600 0.189886 0.151619
0.879108 0.134081 0.247111
0.879107 0.134028 0.246984
0.879107 0.134024 0.246976
0.879107 0.134074 0.246972
0.881462 0.251297 0.518706
0.138962 0.139749 0.102061
0.138973 0.140385 0.102120
0.139015 0.143612 0.102231
0.139551 0.145727 0.102637
0.140594 0.146157 0.102925
0.145223 0.145553 0.103340
0.156130 0.150655 0.103856
0.180360 0.157791 0.104699
0.212210 0.154631 0.104948
0.265488 0.157050 0.105541
0.342256 0.165522 0.106646
0.400947 0.168567 0.107346
0.456506 0.171030 0.107907
0.516793 0.175859 0.108653
0.588698 0.184575 0.110182
0.640319 0.189933 0.111456
0.684875 0.195514 0.112824
0.724168 0.203581 0.114542
0.756062 0.212385 0.117271
0.783147 0.215320 0.118989
0.804100 0.218936 0.121213
0.818874 0.223783 0.124181
0.832017 0.227754 0.127344
0.844076 0.227479 0.130093
0.852902 0.227506 0.133463
0.860388 0.225990 0.138901
0.868770 0.212733 0.142660
0.872270 0.201540 0.150286
0.879108 0.134107 0.247166
0.879107 0.134030 0.246990
0.879107 0.134026 0.246980
0.881461 0.248786 0.246973
0.881462 0.251297 0.518706
0.139011 0.162331 0.102822
0.139018 0.162846 0.102896
0.139154 0.165877 0.103141
0.139705 0.169090 0.103410
0.140748 0.170849 0.103721
0.144429 0.170946 0.104021
0.150939 0.170221 0.104425
0.168053 0.178095 0.105423
0.187715 0.173278 0.105607
0.227553 0.174200 0.106103
0.297111 0.182732 0.107313
0.354509 0.185449 0.107951
0.408899 0.186515 0.108404
0.471877 0.192415 0.109279
0.543111 0.203662 0.111096
0.603044 0.208980 0.112392
0.653948 0.212262 0.113624
0.702552 0.218766 0.115386
0.739705 0.228589 0.118058
0.768558 0.232730 0.119687
0.792898 0.238009 0.122005
0.810885 0.243635 0.124838
0.826425 0.246972 0.127884
0.840194 0.246108 0.130492
0.850263 0.245605 0.133759
0.858566 0.243794 0.138929
0.867864 0.230818 0.142733
0.871712 0.219172 0.149541
0.879109 0.134172 0.247298
0.879107 0.134037 0.247006
0.879107 0.134028 0.246987
0.881462 0.248840 0.246977
0.881462 0.251297 0.518705
0.139236 0.193062 0.103719
0.139291 0.193691 0.103766
0.139552 0.198135 0.103976
0.139964 0.202921 0.104282
0.141363 0.206910 0.104606
0.144690 0.208707 0.105159
0.150439 0.208453 0.105611
0.161327 0.207309 0.106095
0.174911 0.198179 0.106225
0.203056 0.198198 0.106839
0.258957 0.209575 0.108013
0.313038 0.210402 0.108568
0.364000 0.209869 0.109067
0.425840 0.214782 0.110136
0.497706 0.225286 0.112162
0.557652 0.228672 0.113367
0.617111 0.231967 0.114535
0.668621 0.239225 0.116509
0.718067 0.249049 0.119048
0.752149 0.251362 0.120735
0.780919 0.255200 0.122955
0.803311 0.261146 0.125661
0.819873 0.266997 0.128627
0.834573 0.269204 0.131113
0.845579 0.272301 0.134426
0.855375 0.270197 0.139344
0.865667 0.258846 0.143480
0.870703 0.246538 0.149958
0.879113 0.134437 0.247755
0.879107 0.134059 0.247058
0.879107 0.134037 0.247010
0.881462 0.248843 0.246986
0.881462 0.251297 0.518705
0.139446 0.212284 0.104136
0.139486 0.212771 0.104179
0.139663 0.215792 0.104355
0.139994 0.220888 0.104656
0.140992 0.225556 0.105084
0.143670 0.228422 0.105512
0.148024 0.229524 0.105982
0.155533 0.228968 0.106445
0.167291 0.227880 0.107023
0.186915 0.227280 0.107586
0.231352 0.239139 0.108718
0.278267 0.238472 0.109448
0.326460 0.236344 0.110060
0.382806 0.239922 0.111292
0.453832 0.250097 0.113387
0.511290 0.252318 0.114482
0.572303 0.254928 0.115820
0.633298 0.261215 0.117724
0.688793 0.270542 0.120232
0.730557 0.273751 0.122051
0.762020 0.278826 0.124169
0.791233 0.282938 0.126721
0.812402 0.287375 0.129552
0.829499 0.288305 0.131865
0.842140 0.290467 0.135249
0.852254 0.292923 0.139984
0.862681 0.289546 0.144617
0.868862 0.286870 0.151888
0.879237 0.142509 0.253070
0.879112 0.134332 0.247585
0.879108 0.134095 0.247152
0.881462 0.248845 0.247028
0.881462 0.251297 0.518705
0.139717 0.240073 0.104862
0.139747 0.240497 0.104908
0.139875 0.242871 0.105095
0.140138 0.248120 0.105430
0.141308 0.253162 0.105805
0.143615 0.257351 0.106192
0.147255 0.259462 0.106733
0.153043 0.259929 0.107275
0.162865 0.259295 0.107798
0.177664 0.258283 0.108315
0.212308 0.271034 0.109758
0.251173 0.269483 0.110613
0.294729 0.265747 0.111303
0.347184 0.268073 0.112626
0.412769 0.277869 0.114658
0.469000 0.278861 0.115955
0.526032 0.280151 0.117263
0.593288 0.285323 0.119045
0.654420 0.295181 0.121848
0.704339 0.297825 0.123531
0.743507 0.300624 0.125447
0.775107 0.306694 0.127966
0.801417 0.313440 0.130694
0.821324 0.314555 0.132840
0.836744 0.315171 0.136354
0.848707 0.316407 0.140779
0.860449 0.312146 0.145160
0.867861 0.308428 0.151771
0.873167 0.298304 0.158980
0.876731 0.285577 0.170523
0.880226 0.238692 0.240171
0.881462 0.248892 0.254655
0.881462 0.251298 0.518705
0.140071 0.282654 0.106111
0.140095 0.283053 0.106145
0.140192 0.285072 0.106294
0.140893 0.290948 0.106680
0.142443 0.296479 0.107116
0.144329 0.300960 0.107599
0.147986 0.304439 0.108110
0.153696 0.305992 0.108613
0.162814 0.306146 0.109266
0.176529 0.305344 0.110076
0.199434 0.304402 0.111103
0.231017 0.301907 0.112039
0.269040 0.296950 0.112749
0.317767 0.298415 0.113991
0.377434 0.308330 0.116364
0.430597 0.307931 0.117584
0.485452 0.307858 0.118742
0.548466 0.312391 0.120573
0.618907 0.322318 0.123557
0.671248 0.323391 0.125088
0.720018 0.326850 0.126945
0.755431 0.333248 0.129389
0.788231 0.337866 0.131922
0.812635 0.339340 0.134197
0.829550 0.342886 0.137746
0.842861 0.347552 0.141916
0.856819 0.342213 0.146130
0.865716 0.337229 0.152103
0.872177 0.326660 0.158697
0.876183 0.312196 0.168087
0.880056 0.254090 0.200170
0.881462 0.249036 0.277463
0.881462 0.249091 0.285349
0.140286 0.312051 0.107038
0.140312 0.312413 0.107076
0.140659 0.314131 0.107220
0.141581 0.319236 0.107528
0.142828 0.324331 0.107899
0.144492 0.329784 0.108340
0.147844 0.334391 0.108826
0.152412 0.336787 0.109584
0.160202 0.337825 0.110370
0.171603 0.337754 0.111385
0.189165 0.336895 0.112459
0.216979 0.336055 0.113583
0.248513 0.329730 0.114146
0.293542 0.331101 0.115591
0.348963 0.340655 0.118095
0.396740 0.338905 0.119190
0.449312 0.338019 0.120430
0.508220 0.341891 0.122498
0.578380 0.350966 0.125264
0.636112 0.351240 0.126732
0.688855 0.354869 0.128612
0.734651 0.359592 0.130882
0.770257 0.365931 0.133345
0.800749 0.368598 0.136058
0.821650 0.370115 0.139352
0.837692 0.373276 0.143266
0.852616 0.372359 0.147451
0.862351 0.372731 0.153002
0.870451 0.366034 0.159428
0.875224 0.350383 0.167550
0.879641 0.288547 0.173338
0.881462 0.249044 0.277574
0.881462 0.249149 0.292684
0.140995 0.338184 0.107788
0.141077 0.338498 0.107819
0.141401 0.339928 0.107938
0.142121 0.343917 0.108187
0.143218 0.349435 0.108529
0.144770 0.355124 0.108991
0.147583 0.359731 0.109690
0.151238 0.363232 0.110479
0.158309 0.365399 0.111457
0.167436 0.366014 0.112487
0.180985 0.365746 0.113527
0.203422 0.364779 0.114526
0.233324 0.363978 0.115861
0.272990 0.364737 0.117335
0.325453 0.374792 0.119837
0.368937 0.372371 0.121139
0.416728 0.370423 0.122430
0.473451 0.373727 0.124453
0.538855 0.381591 0.127240
0.600284 0.381006 0.128556
0.655443 0.383234 0.130252
0.710041 0.387925 0.132480
0.749982 0.394117 0.135516
0.786143 0.394674 0.137986
0.811458 0.398062 0.141164
0.829647 0.403044 0.145132
0.847671 0.400437 0.149041
0.859316 0.399182 0.154073
0.868894 0.396309 0.160100
0.873925 0.391804 0.168136
0.877957 0.385241 0.182600
0.881462 0.249151 0.277719
0.881462 0.249279 0.303088
0.141980 0.371634 0.108687
0.142049 0.371936 0.108714
0.142319 0.373249 0.108815
0.142900 0.376369 0.109151
0.143902 0.382187 0.109697
0.145511 0.386970 0.110278
0.147966 0.391543 0.111136
0.151373 0.395511 0.112112
0.157796 0.398187 0.113144
0.165873 0.399402 0.114128
0.177680 0.399707 0.115220
0.196554 0.399377 0.116545
0.222864 0.398538 0.117792
0.256803 0.397836 0.119108
0.305293 0.406909 0.121981
0.346073 0.404355 0.123291
0.389550 0.401579 0.124476
0.442549 0.403727 0.126337
0.504031 0.411216 0.129163
0.561624 0.410338 0.130475
0.622561 0.411761 0.132060
0.678345 0.416173 0.134495
0.728776 0.421211 0.137721
0.767275 0.422813 0.140107
0.799444 0.426415 0.143129
0.821608 0.429616 0.147186
0.841420 0.429952 0.150902
0.854497 0.431955 0.155578
0.866608 0.427823 0.160990
0.872834 0.421860 0.167968
0.877397 0.413614 0.179915
0.880327 0.403643 0.204382
0.882101 0.396464 0.315807
0.143140 0.410882 0.110455
0.143200 0.411152 0.110509
0.143430 0.412277 0.110712
0.143915 0.415026 0.111120
0.145050 0.421039 0.111841
0.146712 0.425287 0.112600
0.148960 0.430636 0.113511
0.152748 0.434971 0.114431
0.158596 0.438255 0.115648
0.166372 0.440349 0.116927
0.177702 0.441380 0.118230
0.194993 0.441451 0.119445
0.219711 0.440922 0.120953
0.250632 0.440177 0.122516
0.288652 0.439448 0.124152
0.326564 0.436250 0.125322
0.366777 0.433415 0.126524
0.415621 0.435124 0.128419
0.474113 0.442030 0.131128
0.525992 0.440448 0.132323
0.587748 0.441441 0.134115
0.647134 0.445453 0.137016
0.703599 0.449871 0.140064
0.746428 0.451846 0.142336
0.783541 0.454334 0.145376
0.810935 0.459198 0.149519
0.834013 0.459649 0.152978
0.849998 0.459870 0.157263
0.863214 0.459854 0.162285
0.871078 0.459242 0.168576
0.876467 0.450776 0.179297
0.879907 0.437741 0.197538
0.882068 0.406520 0.303667
0.143860 0.438889 0.112001
0.143912 0.439131 0.112052
0.144108 0.440115 0.112241
0.144539 0.442433 0.112618
0.145775 0.447286 0.113259
0.147327 0.452188 0.113996
0.149540 0.458130 0.114957
0.152893 0.462184 0.116028
0.158173 0.466244 0.117224
0.165209 0.469434 0.118510
0.175066 0.471051 0.119685
0.189336 0.471665 0.121193
0.210949 0.471699 0.122759
0.237936 0.471027 0.124302
0.272238 0.470339 0.125810
0.310298 0.469670 0.127431
0.347480 0.466078 0.128575
0.392497 0.467662 0.130451
0.447783 0.475326 0.133123
0.496737 0.473173 0.134671
0.552880 0.473334 0.136695
0.616849 0.477313 0.139540
0.673848 0.481923 0.142493
0.725062 0.483323 0.144722
0.764766 0.486584 0.147994
0.799046 0.492017 0.151969
0.825504 0.492456 0.155160
0.843580 0.495357 0.159274
0.859275 0.495125 0.163859
0.869548 0.492481 0.169388
0.875384 0.490175 0.179598
0.879103 0.488911 0.197795
0.881867 0.444594 0.264238
0.144562 0.467721 0.113543
0.144637 0.467964 0.113587
0.144921 0.468938 0.113750
0.145501 0.471158 0.114073
0.146527 0.475636 0.114614
0.147999 0.481797 0.115539
0.149853 0.486750 0.116522
0.153130 0.491949 0.117608
0.157993 0.496590 0.118744
0.164231 0.500053 0.119927
0.172937 0.502380 0.121478
0.185012 0.503608 0.122982
0.204430 0.504075 0.124456
0.228220 0.503911 0.125972
0.258577 0.503302 0.127503
0.293997 0.502692 0.129037
0.331574 0.502229 0.130627
0.372723 0.503631 0.132429
0.424324 0.510801 0.135816
0.470786 0.508227 0.137350
0.522128 0.508178 0.139360
0.584648 0.511556 0.142085
0.644740 0.515997 0.145167
0.699710 0.516867 0.147566
0.744656 0.520241 0.150732
0.783176 0.524731 0.154490
0.814970 0.526567 0.157540
0.836540 0.528565 0.161339
0.854642 0.529768 0.165626
0.867096 0.530831 0.170765
0.874196 0.527772 0.180009
0.878576 0.523847 0.194907
0.881357 0.523860 0.230266
0.145804 0.503622 0.115514
0.145871 0.503854 0.115565
0.146120 0.504764 0.115755
0.146622 0.506765 0.116129
0.147493 0.510631 0.116748
0.148916 0.517462 0.117694
0.150635 0.521209 0.118525
0.154218 0.527068 0.119618
0.158554 0.531463 0.120927
0.164270 0.534927 0.122328
0.172303 0.537723 0.123831
0.183298 0.539494 0.125305
0.201019 0.540503 0.126835
0.222668 0.540572 0.128296
0.250124 0.540400 0.129861
0.282900 0.539892 0.131355
0.318562 0.539342 0.132835
0.356405 0.539099 0.134846
0.403884 0.545795 0.138573
0.447993 0.543165 0.140041
0.496352 0.542534 0.141949
0.553776 0.545577 0.144757
0.617035 0.549542 0.148198
0.671403 0.550048 0.150472
0.724048 0.553436 0.153547
0.765300 0.557647 0.157143
0.803350 0.559677 0.160001
0.828127 0.561976 0.163566
0.848674 0.565184 0.167642
0.863944 0.564426 0.172788
0.872795 0.564841 0.181177
0.877702 0.566610 0.194283
0.881062 0.563011 0.221558
0.147169 0.543378 0.118223
0.147229 0.543604 0.118269
0.147451 0.544468 0.118440
0.147895 0.546298 0.118774
0.148652 0.549671 0.119321
0.150131 0.555616 0.120246
0.152111 0.560227 0.121328
0.155693 0.565803 0.122648
0.159584 0.570242 0.123975
0.165405 0.574639 0.125413
0.173269 0.577833 0.126845
0.183797 0.580092 0.128420
0.200190 0.581296 0.129918
0.220773 0.581875 0.131417
0.246108 0.581826 0.132866
0.277783 0.581670 0.134888
0.311357 0.581289 0.137006
0.347087 0.580730 0.139064
0.386359 0.580705 0.141292
0.427410 0.578031 0.142671
0.473544 0.577457 0.144645
0.525964 0.579899 0.147832
0.588000 0.583573 0.151192
0.644303 0.583901 0.153392
0.699935 0.586639 0.156338
0.746420 0.590508 0.159854
0.788835 0.592101 0.162510
0.818177 0.595069 0.165942
0.842517 0.597065 0.169653
0.859807 0.598520 0.175161
0.871173 0.599982 0.182837
0.877003 0.599575 0.194000
0.880679 0.603475 0.217948
0.148069 0.575784 0.119916
0.148122 0.575984 0.119970
0.148318 0.576746 0.120168
0.148706 0.578332 0.120553
0.149471 0.581193 0.121180
0.150793 0.586113 0.122137
0.153148 0.590958 0.123244
0.156121 0.594806 0.124375
0.159903 0.599350 0.125703
0.165323 0.603239 0.127118
0.172143 0.605909 0.128495
0.181379 0.608146 0.129966
0.195956 0.609651 0.131453
0.214747 0.610498 0.132916
0.237559 0.610882 0.134837
0.266671 0.610782 0.136870
0.298723 0.610630 0.139003
0.332553 0.610473 0.141098
0.368557 0.610163 0.143106
0.409566 0.610348 0.145519
0.453304 0.609451 0.147689
0.502681 0.611647 0.150863
0.560022 0.614514 0.154205
0.618764 0.614712 0.156289
0.673902 0.616849 0.159161
0.726943 0.620209 0.162550
0.771419 0.621849 0.165063
0.807058 0.624982 0.168361
0.834840 0.627346 0.172306
0.854867 0.629618 0.177699
0.869386 0.630981 0.184627
0.876011 0.633561 0.194739
0.880326 0.636562 0.214186
0.148985 0.607156 0.122209
0.149044 0.607320 0.122258
0.149265 0.607941 0.122437
0.149699 0.609209 0.122785
0.150423 0.611438 0.123348
0.151729 0.615160 0.124200
0.154395 0.620432 0.125346
0.156913 0.623505 0.126328
0.160678 0.628538 0.127752
0.165310 0.631382 0.128975
0.171959 0.634707 0.130388
0.180688 0.637326 0.131829
0.193671 0.638868 0.133258
0.210880 0.639837 0.135207
0.232149 0.640469 0.137292
0.258658 0.640693 0.139341
0.288484 0.640559 0.141339
0.320527 0.640395 0.143388
0.355048 0.640404 0.145754
0.392360 0.640298 0.148156
0.435016 0.640661 0.150702
0.481997 0.642092 0.153793
0.534465 0.644905 0.157083
0.592598 0.645166 0.159170
0.648811 0.646913 0.161944
0.705792 0.650071 0.165281
0.753238 0.651689 0.167645
0.794345 0.654409 0.170862
0.825772 0.657483 0.175388
0.849373 0.659487 0.180270
0.866898 0.662437 0.186761
0.875023 0.664497 0.195733
0.879921 0.669268 0.212334
0.150173 0.638603 0.124752
0.150227 0.638763 0.124797
0.150427 0.639360 0.124963
0.150818 0.640557 0.125283
0.151564 0.642599 0.125798
0.153196 0.645896 0.126583
0.155716 0.651115 0.127768
0.158069 0.654308 0.128768
0.161441 0.658377 0.130015
0.166104 0.662010 0.131294
0.172644 0.665468 0.132663
0.180166 0.667749 0.134278
0.192470 0.669737 0.136305
0.208979 0.671039 0.138325
0.228807 0.671754 0.140288
0.253169 0.672208 0.142376
0.281495 0.672282 0.144433
0.312149 0.672207 0.146865
0.344677 0.672047 0.149293
0.380293 0.672195 0.151791
0.419647 0.672293 0.154200
0.463491 0.672794 0.156685
0.512485 0.674987 0.159907
0.566583 0.675390 0.161886
0.625092 0.676853 0.164646
0.681225 0.679678 0.167949
0.734778 0.681427 0.170218
0.778272 0.683455 0.174216
0.815645 0.685989 0.178531
0.842726 0.687892 0.183039
0.863347 0.690355 0.188997
0.873843 0.692696 0.197135
0.879452 0.697365 0.211548
0.151292 0.670988 0.127255
0.151366 0.671139 0.127300
0.151660 0.671698 0.127462
0.152233 0.672801 0.127773
0.153173 0.674643 0.128272
0.154625 0.677536 0.129017
0.156835 0.681813 0.130093
0.159270 0.684974 0.131179
0.162439 0.687660 0.132283
0.167163 0.691056 0.133776
0.172908 0.693160 0.135474
0.180514 0.695403 0.137425
0.192477 0.697233 0.139496
0.207444 0.698203 0.141409
0.225901 0.698875 0.143330
0.248432 0.699299 0.145592
0.275552 0.699525 0.148077
0.305117 0.699566 0.150515
0.336199 0.699526 0.152925
0.369679 0.699455 0.155337
0.407091 0.699668 0.157789
0.448371 0.699951 0.160224
0.493194 0.700499 0.162661
0.542977 0.700808 0.164565
0.601858 0.701756 0.167246
0.657512 0.703650 0.170529
0.716175 0.705228 0.173514
0.761269 0.707079 0.177484
0.804750 0.709557 0.181690
0.835019 0.711752 0.185947
0.859222 0.714130 0.191284
0.872427 0.717118 0.198857
0.879054 0.721207 0.211310
0.152725 0.698987 0.129208
0.152797 0.699091 0.129248
0.153060 0.699476 0.129394
0.153571 0.700229 0.129675
0.154405 0.701471 0.130125
0.155686 0.703388 0.130795
0.157619 0.706280 0.131763
0.160120 0.709657 0.132929
0.163068 0.711752 0.134147
0.167446 0.714790 0.136024
0.172903 0.716820 0.137697
0.180275 0.719040 0.139634
0.190432 0.720398 0.141471
0.204918 0.721660 0.143462
0.222663 0.722485 0.145730
0.242894 0.722856 0.148000
0.268211 0.723080 0.150414
0.296400 0.723163 0.152803
0.326178 0.723189 0.155213
0.357839 0.723198 0.157570
0.392975 0.723284 0.159955
0.431806 0.723573 0.162312
0.474522 0.724115 0.164732
0.521680 0.724903 0.167154
0.577339 0.725486 0.169780
0.635000 0.727003 0.173895
0.693031 0.728678 0.176761
0.743708 0.730256 0.180657
0.791325 0.732636 0.184641
0.826349 0.734969 0.188946
0.854342 0.737503 0.193740
0.870901 0.739992 0.200414
0.878587 0.744004 0.211684
0.154124 0.723462 0.131306
0.154189 0.723561 0.131343
0.154428 0.723925 0.131478
0.154892 0.724627 0.131735
0.155645 0.725761 0.132148
0.156792 0.727471 0.132760
0.158507 0.729973 0.133778
0.161279 0.733611 0.135587
0.163973 0.735392 0.136838
0.167751 0.737853 0.138508
0.173526 0.740085 0.140350
0.179793 0.741551 0.142064
0.189935 0.742958 0.143964
0.203614 0.744039 0.146334
0.219258 0.744682 0.148584
0.238410 0.745146 0.150929
0.262957 0.745392 0.153310
0.289999 0.745450 0.155711
0.318423 0.745462 0.158048
0.348647 0.745478 0.160420
0.381339 0.745544 0.162740
0.418111 0.745732 0.165067
0.458523 0.746034 0.167372
0.502828 0.746670 0.169791
0.554766 0.747493 0.172843
0.613681 0.748396 0.177150
0.670320 0.750102 0.179891
0.725830 0.751122 0.183630
0.775298 0.753103 0.187546
0.816572 0.755036 0.191505
0.848701 0.757403 0.196246
0.869184 0.759771 0.202156
0.878067 0.763509 0.212287
0.155436 0.746343 0.133459
0.155496 0.746426 0.133502
0.155714 0.746726 0.133678
0.156137 0.747299 0.134022
0.156821 0.748209 0.134572
0.157856 0.749547 0.135390
0.159394 0.751451 0.136567
0.162069 0.754136 0.138250
0.164990 0.756106 0.139706
0.168296 0.757887 0.141212
0.174490 0.760261 0.143234
0.179929 0.761422 0.144920
0.190278 0.762909 0.147321
0.202096 0.763719 0.149460
0.217768 0.764499 0.151864
0.235888 0.764959 0.154171
0.258213 0.765212 0.156491
0.283804 0.765299 0.158851
0.311383 0.765272 0.161193
0.340504 0.765268 0.163536
0.371667 0.765301 0.165873
0.406505 0.765444 0.168194
0.444999 0.765692 0.170490
0.486578 0.766085 0.173594
0.534014 0.766844 0.176915
0.590929 0.767778 0.180242
0.648513 0.769778 0.182855
0.706592 0.770540 0.186554
0.758536 0.772346 0.190199
0.805743 0.774114 0.194069
0.841913 0.776379 0.198503
0.867015 0.778873 0.203940
0.877720 0.782477 0.213203
0.156457 0.771535 0.135571
0.156508 0.771597 0.135614
0.156698 0.771821 0.135771
0.157064 0.772245 0.136074
0.157658 0.772906 0.136564
0.158562 0.773859 0.137302
0.159914 0.775190 0.138385
0.162425 0.777046 0.139970
0.165602 0.778897 0.141685
0.168476 0.780130 0.143029
0.173886 0.781728 0.145013
0.179701 0.782970 0.147148
0.188362 0.783907 0.149282
0.200349 0.784664 0.151559
0.214684 0.785139 0.153863
0.231488 0.785446 0.156112
0.253008 0.785633 0.158480
0.277426 0.785654 0.160787
0.303473 0.785564 0.163060
0.331273 0.785488 0.165344
0.360970 0.785482 0.167628
0.393908 0.785573 0.169908
0.430721 0.785809 0.172799
0.470859 0.786219 0.175886
