trix_classic/TriX_Blue47_ExtraPunchy.cube
TITLE "Tri-X Blue47 ExtraPunchy"
# Adobe RGB in/out. REPLACES AgX. R=0.0336 G=0.0311 B=0.9353
LUT_3D_SIZE 5
DOMAIN_MIN 0.0 0.0 0.0
DOMAIN_MAX 1.0 1.0 1.0
0.092237 0.092237 0.092237
0.092237 0.092237 0.092237
0.092237 0.092237 0.092237
0.092237 0.092237 0.092237
0.092237 0.092237 0.092237
0.092237 0.092237 0.092237
0.092237 0.092237 0.092237
0.092237 0.092237 0.092237
0.092237 0.092237 0.092237
0.092237 0.092237 0.092237
0.092237 0.092237 0.092237
0.092237 0.092237 0.092237
0.092237 0.092237 0.092237
0.092237 0.092237 0.092237
0.092237 0.092237 0.092237
0.092237 0.092237 0.092237
0.092237 0.092237 0.092237
0.092237 0.092237 0.092237
0.092237 0.092237 0.092237
0.092237 0.092237 0.092237
0.092237 0.092237 0.092237
0.092237 0.092237 0.092237
0.092237 0.092237 0.092237
0.092237 0.092237 0.092237
0.092237 0.092237 0.092237
0.092237 0.092237 0.092237
0.092237 0.092237 0.092237
0.092237 0.092237 0.092237
0.092237 0.092237 0.092237
0.092237 0.092237 0.092237
0.092237 0.092237 0.092237
0.134598 0.134598 0.134598
0.140006 0.140006 0.140006
0.143840 0.143840 0.143840
0.146624 0.146624 0.146624
0.092237 0.092237 0.092237
0.139535 0.139535 0.139535
0.146131 0.146131 0.146131
0.150133 0.150133 0.150133
0.153038 0.153038 0.153038
0.092237 0.092237 0.092237
0.143074 0.143074 0.143074
0.149837 0.149837 0.149837
0.153941 0.153941 0.153941
0.156920 0.156920 0.156920
0.092237 0.092237 0.092237
0.145639 0.145639 0.145639
0.152524 0.152524 0.152524
0.156701 0.156701 0.156701
0.159734 0.159734 0.159734
0.092237 0.092237 0.092237
0.092237 0.092237 0.092237
0.092237 0.092237 0.092237
0.092237 0.092237 0.092237
0.092237 0.092237 0.092237
0.092237 0.092237 0.092237
0.499654 0.499654 0.499654
0.523585 0.523585 0.523585
0.537586 0.537586 0.537586
0.547746 0.547746 0.547746
0.092237 0.092237 0.092237
0.521865 0.521865 0.521865
0.545947 0.545947 0.545947
0.560545 0.560545 0.560545
0.571139 0.571139 0.571139
0.092237 0.092237 0.092237
0.534789 0.534789 0.534789
0.559467 0.559467 0.559467
0.574427 0.574427 0.574427
0.585284 0.585284 0.585284
0.092237 0.092237 0.092237
0.544153 0.544153 0.544153
0.569263 0.569263 0.569263
0.584485 0.584485 0.584485
0.595532 0.595532 0.595532
0.092237 0.092237 0.092237
0.092237 0.092237 0.092237
0.092237 0.092237 0.092237
0.092237 0.092237 0.092237
0.092237 0.092237 0.092237
0.092237 0.092237 0.092237
0.865285 0.865285 0.865285
0.879179 0.879179 0.879179
0.886494 0.886494 0.886494
0.891717 0.891717 0.891717
0.092237 0.092237 0.092237
0.878268 0.878268 0.878268
0.890797 0.890797 0.890797
0.898203 0.898203 0.898203
0.903495 0.903495 0.903495
0.092237 0.092237 0.092237
0.885045 0.885045 0.885045
0.897661 0.897661 0.897661
0.905124 0.905124 0.905124
0.910456 0.910456 0.910456
0.092237 0.092237 0.092237
0.889878 0.889878 0.889878
0.902562 0.902562 0.902562
0.910066 0.910066 0.910066
0.915428 0.915428 0.915428
0.092237 0.092237 0.092237
0.092237 0.092237 0.092237
0.092237 0.092237 0.092237
0.092237 0.092237 0.092237
0.092237 0.092237 0.092237
0.092237 0.092237 0.092237
0.976231 0.976231 0.976231
0.980101 0.980101 0.980101
0.981312 0.981312 0.981312
0.982173 0.982173 0.982173
0.092237 0.092237 0.092237
0.979950 0.979950 0.979950
0.982022 0.982022 0.982022
0.983236 0.983236 0.983236
0.984098 0.984098 0.984098
0.092237 0.092237 0.092237
0.981073 0.981073 0.981073
0.983147 0.983147 0.983147
0.984363 0.984363 0.984363
0.985226 0.985226 0.985226
0.092237 0.092237 0.092237
0.981871 0.981871 0.981871
0.983947 0.983947 0.983947
0.985163 0.985163 0.985163
0.986028 0.986028 0.986028
