trix_classic/TriX_Blue47_ExtraPunchy.cube
TITLE "Tri-X Blue47 ExtraPunchy"
# Adobe RGB in/out. REPLACES AgX. R=0.0336 G=0.0311 B=0.9353
LUT_3D_SIZE 9
DOMAIN_MIN 0.0 0.0 0.0
DOMAIN_MAX 1.0 1.0 1.0
0.092237 0.092237 0.092237
0.092237 0.092237 0.092237
0.092237 0.092237 0.092237
0.092237 0.092237 0.092237
0.092237 0.092237 0.092237
0.092237 0.092237 0.092237
0.092237 0.092237 0.092237
0.092237 0.092237 0.092237
0.092237 0.092237 0.092237
0.092237 0.092237 0.092237
0.092237 0.092237 0.092237
0.092237 0.092237 0.092237
0.092237 0.092237 0.092237
0.092237 0.092237 0.092237
0.092237 0.092237 0.092237
0.092237 0.092237 0.092237
0.092237 0.092237 0.092237
0.092237 0.092237 0.092237
0.092237 0.092237 0.092237
0.092237 0.092237 0.092237
0.092237 0.092237 0.092237
0.092237 0.092237 0.092237
0.092237 0.092237 0.092237
0.092237 0.092237 0.092237
0.092237 0.092237 0.092237
0.092237 0.092237 0.092237
0.092237 0.092237 0.092237
0.092237 0.092237 0.092237
0.092237 0.092237 0.092237
0.092237 0.092237 0.092237
0.092237 0.092237 0.092237
0.092237 0.092237 0.092237
0.092237 0.092237 0.092237
0.092237 0.092237 0.092237
0.092237 0.092237 0.092237
0.092237 0.092237 0.092237
0.092237 0.092237 0.092237
0.092237 0.092237 0.092237
0.092237 0.092237 0.092237
0.092237 0.092237 0.092237
0.092237 0.092237 0.092237
0.092237 0.092237 0.092237
0.092237 0.092237 0.092237
0.092237 0.092237 0.092237
0.092237 0.092237 0.092237
0.092237 0.092237 0.092237
0.092237 0.092237 0.092237
0.092237 0.092237 0.092237
0.092237 0.092237 0.092237
0.092237 0.092237 0.092237
0.092237 0.092237 0.092237
0.092237 0.092237 0.092237
0.092237 0.092237 0.092237
0.092237 0.092237 0.092237
0.092237 0.092237 0.092237
0.092237 0.092237 0.092237
0.092237 0.092237 0.092237
0.092237 0.092237 0.092237
0.092237 0.092237 0.092237
0.092237 0.092237 0.092237
0.092237 0.092237 0.092237
0.092237 0.092237 0.092237
0.092237 0.092237 0.092237
0.092237 0.092237 0.092237
0.092237 0.092237 0.092237
0.092237 0.092237 0.092237
0.092237 0.092237 0.092237
0.092237 0.092237 0.092237
0.092237 0.092237 0.092237
0.092237 0.092237 0.092237
0.092237 0.092237 0.092237
0.092237 0.092237 0.092237
0.092237 0.092237 0.092237
0.092237 0.092237 0.092237
0.092237 0.092237 0.092237
0.092237 0.092237 0.092237
0.092237 0.092237 0.092237
0.092237 0.092237 0.092237
0.092237 0.092237 0.092237
0.092237 0.092237 0.092237
0.092237 0.092237 0.092237
0.092237 0.092237 0.092237
0.092237 0.092237 0.092237
0.092237 0.092237 0.092237
0.092237 0.092237 0.092237
0.092237 0.092237 0.092237
0.092237 0.092237 0.092237
0.092237 0.092237 0.092237
0.092237 0.092237 0.092237
0.092237 0.092237 0.092237
0.092237 0.092237 0.092237
0.092694 0.092694 0.092694
0.092738 0.092738 0.092738
0.092764 0.092764 0.092764
0.092783 0.092783 0.092783
0.092797 0.092797 0.092797
0.092809 0.092809 0.092809
0.092819 0.092819 0.092819
0.092827 0.092827 0.092827
0.092237 0.092237 0.092237
0.092735 0.092735 0.092735
0.092780 0.092780 0.092780
0.092806 0.092806 0.092806
0.092824 0.092824 0.092824
0.092838 0.092838 0.092838
0.092850 0.092850 0.092850
0.092866 0.092866 0.092866
0.092896 0.092896 0.092896
0.092237 0.092237 0.092237
0.092759 0.092759 0.092759
0.092804 0.092804 0.092804
0.092830 0.092830 0.092830
0.092848 0.092848 0.092848
0.092875 0.092875 0.092875
0.092915 0.092915 0.092915
0.092949 0.092949 0.092949
0.092978 0.092978 0.092978
0.092237 0.092237 0.092237
0.092776 0.092776 0.092776
0.092821 0.092821 0.092821
0.092847 0.092847 0.092847
0.092885 0.092885 0.092885
0.092934 0.092934 0.092934
0.092974 0.092974 0.092974
0.093008 0.093008 0.093008
0.093037 0.093037 0.093037
0.092237 0.092237 0.092237
0.092790 0.092790 0.092790
0.092834 0.092834 0.092834
0.092867 0.092867 0.092867
0.092930 0.092930 0.092930
0.092979 0.092979 0.092979
0.093019 0.093019 0.093019
0.093058 0.093058 0.093058
0.093098 0.093098 0.093098
0.092237 0.092237 0.092237
0.092800 0.092800 0.092800
0.092845 0.092845 0.092845
0.092904 0.092904 0.092904
0.092967 0.092967 0.092967
0.093016 0.093016 0.093016
0.093063 0.093063 0.093063
0.093108 0.093108 0.093108
0.093148 0.093148 0.093148
0.092237 0.092237 0.092237
0.092810 0.092810 0.092810
0.092854 0.092854 0.092854
0.092935 0.092935 0.092935
0.092999 0.092999 0.092999
0.093051 0.093051 0.093051
0.093105 0.093105 0.093105
0.093150 0.093150 0.093150
0.093190 0.093190 0.093190
0.092237 0.092237 0.092237
0.092817 0.092817 0.092817
0.092874 0.092874 0.092874
0.092963 0.092963 0.092963
0.093026 0.093026 0.093026
0.093088 0.093088 0.093088
0.093141 0.093141 0.093141
0.093187 0.093187 0.093187
0.093226 0.093226 0.093226
0.092237 0.092237 0.092237
0.092237 0.092237 0.092237
0.092237 0.092237 0.092237
0.092237 0.092237 0.092237
0.092237 0.092237 0.092237
0.092237 0.092237 0.092237
0.092237 0.092237 0.092237
0.092237 0.092237 0.092237
0.092237 0.092237 0.092237
0.092237 0.092237 0.092237
0.125018 0.125018 0.125018
0.129901 0.129901 0.129901
0.132846 0.132846 0.132846
0.134975 0.134975 0.134975
0.136651 0.136651 0.136651
0.138035 0.138035 0.138035
0.139234 0.139234 0.139234
0.140478 0.140478 0.140478
0.092237 0.092237 0.092237
0.129538 0.129538 0.129538
0.134598 0.134598 0.134598
0.137649 0.137649 0.137649
0.140006 0.140006 0.140006
0.142103 0.142103 0.142103
0.143840 0.143840 0.143840
0.145325 0.145325 0.145325
0.146624 0.146624 0.146624
0.092237 0.092237 0.092237
0.132258 0.132258 0.132258
0.137425 0.137425 0.137425
0.140831 0.140831 0.140831
0.143557 0.143557 0.143557
0.145707 0.145707 0.145707
0.147488 0.147488 0.147488
0.149011 0.149011 0.149011
0.150343 0.150343 0.150343
0.092237 0.092237 0.092237
0.134223 0.134223 0.134223
0.139535 0.139535 0.139535
0.143356 0.143356 0.143356
0.146131 0.146131 0.146131
0.148320 0.148320 0.148320
0.150133 0.150133 0.150133
0.151683 0.151683 0.151683
0.153038 0.153038 0.153038
0.092237 0.092237 0.092237
0.135766 0.135766 0.135766
0.141471 0.141471 0.141471
0.145346 0.145346 0.145346
0.148159 0.148159 0.148159
0.150378 0.150378 0.150378
0.152217 0.152217 0.152217
0.153788 0.153788 0.153788
0.155163 0.155163 0.155163
0.092237 0.092237 0.092237
0.137041 0.137041 0.137041
0.143074 0.143074 0.143074
0.146992 0.146992 0.146992
0.149837 0.149837 0.149837
0.152082 0.152082 0.152082
0.153941 0.153941 0.153941
0.155530 0.155530 0.155530
0.156920 0.156920 0.156920
0.092237 0.092237 0.092237
0.138128 0.138128 0.138128
0.144443 0.144443 0.144443
0.148398 0.148398 0.148398
0.151271 0.151271 0.151271
0.153537 0.153537 0.153537
0.155414 0.155414 0.155414
0.157018 0.157018 0.157018
0.158422 0.158422 0.158422
0.092237 0.092237 0.092237
0.139076 0.139076 0.139076
0.145639 0.145639 0.145639
0.149628 0.149628 0.149628
0.152524 0.152524 0.152524
0.154809 0.154809 0.154809
0.156701 0.156701 0.156701
0.158319 0.158319 0.158319
0.159734 0.159734 0.159734
0.092237 0.092237 0.092237
0.092237 0.092237 0.092237
0.092237 0.092237 0.092237
0.092237 0.092237 0.092237
0.092237 0.092237 0.092237
0.092237 0.092237 0.092237
0.092237 0.092237 0.092237
0.092237 0.092237 0.092237
0.092237 0.092237 0.092237
0.092237 0.092237 0.092237
0.263678 0.263678 0.263678
0.277103 0.277103 0.277103
0.285216 0.285216 0.285216
0.290807 0.290807 0.290807
0.295219 0.295219 0.295219
0.298873 0.298873 0.298873
0.301998 0.301998 0.301998
0.304732 0.304732 0.304732
0.092237 0.092237 0.092237
0.276101 0.276101 0.276101
0.289817 0.289817 0.289817
0.297855 0.297855 0.297855
0.303694 0.303694 0.303694
0.308301 0.308301 0.308301
0.312118 0.312118 0.312118
0.315381 0.315381 0.315381
0.318236 0.318236 0.318236
0.092237 0.092237 0.092237
0.283637 0.283637 0.283637
0.297261 0.297261 0.297261
0.305507 0.305507 0.305507
0.311495 0.311495 0.311495
0.316221 0.316221 0.316221
0.320135 0.320135 0.320135
0.323483 0.323483 0.323483
0.326411 0.326411 0.326411
0.092237 0.092237 0.092237
0.288829 0.288829 0.288829
0.302659 0.302659 0.302659
0.311055 0.311055 0.311055
0.317152 0.317152 0.317152
0.321963 0.321963 0.321963
0.325949 0.325949 0.325949
0.329357 0.329357 0.329357
0.332338 0.332338 0.332338
0.092237 0.092237 0.092237
0.292889 0.292889 0.292889
0.306914 0.306914 0.306914
0.315427 0.315427 0.315427
0.321610 0.321610 0.321610
0.326489 0.326489 0.326489
0.330531 0.330531 0.330531
0.333987 0.333987 0.333987
0.337010 0.337010 0.337010
0.092237 0.092237 0.092237
0.296249 0.296249 0.296249
0.310434 0.310434 0.310434
0.319045 0.319045 0.319045
0.325299 0.325299 0.325299
0.330234 0.330234 0.330234
0.334322 0.334322 0.334322
0.337818 0.337818 0.337818
0.340875 0.340875 0.340875
0.092237 0.092237 0.092237
0.299119 0.299119 0.299119
0.313442 0.313442 0.313442
0.322136 0.322136 0.322136
0.328451 0.328451 0.328451
0.333434 0.333434 0.333434
0.337561 0.337561 0.337561
0.341091 0.341091 0.341091
0.344178 0.344178 0.344178
0.092237 0.092237 0.092237
0.301628 0.301628 0.301628
0.316071 0.316071 0.316071
0.324839 0.324839 0.324839
0.331206 0.331206 0.331206
0.336231 0.336231 0.336231
0.340393 0.340393 0.340393
0.343952 0.343952 0.343952
0.347065 0.347065 0.347065
0.092237 0.092237 0.092237
0.092237 0.092237 0.092237
0.092237 0.092237 0.092237
0.092237 0.092237 0.092237
0.092237 0.092237 0.092237
0.092237 0.092237 0.092237
0.092237 0.092237 0.092237
0.092237 0.092237 0.092237
0.092237 0.092237 0.092237
0.092237 0.092237 0.092237
0.455554 0.455554 0.455554
0.477930 0.477930 0.477930
0.491525 0.491525 0.491525
0.501405 0.501405 0.501405
0.509204 0.509204 0.509204
0.515567 0.515567 0.515567
0.520766 0.520766 0.520766
0.525311 0.525311 0.525311
0.092237 0.092237 0.092237
0.476261 0.476261 0.476261
0.499654 0.499654 0.499654
0.513867 0.513867 0.513867
0.523585 0.523585 0.523585
0.531245 0.531245 0.531245
0.537586 0.537586 0.537586
0.543007 0.543007 0.543007
0.547746 0.547746 0.547746
0.092237 0.092237 0.092237
0.488807 0.488807 0.488807
0.512816 0.512816 0.512816
0.526600 0.526600 0.526600
0.536552 0.536552 0.536552
0.544401 0.544401 0.544401
0.550900 0.550900 0.550900
0.556454 0.556454 0.556454
0.561311 0.561311 0.561311
0.092237 0.092237 0.092237
0.497909 0.497909 0.497909
0.521865 0.521865 0.521865
0.535820 0.535820 0.535820
0.545947 0.545947 0.545947
0.553933 0.553933 0.553933
0.560545 0.560545 0.560545
0.566197 0.566197 0.566197
0.571139 0.571139 0.571139
0.092237 0.092237 0.092237
0.505085 0.505085 0.505085
0.528939 0.528939 0.528939
0.543082 0.543082 0.543082
0.553347 0.553347 0.553347
0.561441 0.561441 0.561441
0.568143 0.568143 0.568143
0.573872 0.573872 0.573872
0.578881 0.578881 0.578881
0.092237 0.092237 0.092237
0.511026 0.511026 0.511026
0.534789 0.534789 0.534789
0.549090 0.549090 0.549090
0.559467 0.559467 0.559467
0.567652 0.567652 0.567652
0.574427 0.574427 0.574427
0.580219 0.580219 0.580219
0.585284 0.585284 0.585284
0.092237 0.092237 0.092237
0.515976 0.515976 0.515976
0.539786 0.539786 0.539786
0.554220 0.554220 0.554220
0.564695 0.564695 0.564695
0.572956 0.572956 0.572956
0.579795 0.579795 0.579795
0.585641 0.585641 0.585641
0.590753 0.590753 0.590753
0.092237 0.092237 0.092237
0.520150 0.520150 0.520150
0.544153 0.544153 0.544153
0.558704 0.558704 0.558704
0.569263 0.569263 0.569263
0.577590 0.577590 0.577590
0.584485 0.584485 0.584485
0.590378 0.590378 0.590378
0.595532 0.595532 0.595532
0.092237 0.092237 0.092237
0.092237 0.092237 0.092237
0.092237 0.092237 0.092237
0.092237 0.092237 0.092237
0.092237 0.092237 0.092237
0.092237 0.092237 0.092237
0.092237 0.092237 0.092237
0.092237 0.092237 0.092237
0.092237 0.092237 0.092237
0.092237 0.092237 0.092237
0.680612 0.680612 0.680612
0.707432 0.707432 0.707432
0.723608 0.723608 0.723608
0.732507 0.732507 0.732507
0.739196 0.739196 0.739196
0.744708 0.744708 0.744708
0.749399 0.749399 0.749399
0.753487 0.753487 0.753487
0.092237 0.092237 0.092237
0.705440 0.705440 0.705440
0.730999 0.730999 0.730999
0.743175 0.743175 0.743175
0.751936 0.751936 0.751936
0.758803 0.758803 0.758803
0.764461 0.764461 0.764461
0.769277 0.769277 0.769277
0.773473 0.773473 0.773473
0.092237 0.092237 0.092237
0.720381 0.720381 0.720381
0.742280 0.742280 0.742280
0.754643 0.754643 0.754643
0.763540 0.763540 0.763540
0.770513 0.770513 0.770513
0.776258 0.776258 0.776258
0.781148 0.781148 0.781148
0.785409 0.785409 0.785409
0.092237 0.092237 0.092237
0.729495 0.729495 0.729495
0.750389 0.750389 0.750389
0.762887 0.762887 0.762887
0.771881 0.771881 0.771881
0.778930 0.778930 0.778930
0.784738 0.784738 0.784738
0.789682 0.789682 0.789682
0.793989 0.793989 0.793989
0.092237 0.092237 0.092237
0.735669 0.735669 0.735669
0.756740 0.756740 0.756740
0.769344 0.769344 0.769344
0.778414 0.778414 0.778414
0.785523 0.785523 0.785523
0.791379 0.791379 0.791379
0.796365 0.796365 0.796365
0.800709 0.800709 0.800709
0.092237 0.092237 0.092237
0.740752 0.740752 0.740752
0.761969 0.761969 0.761969
0.774660 0.774660 0.774660
0.783793 0.783793 0.783793
0.790951 0.790951 0.790951
0.796848 0.796848 0.796848
0.801868 0.801868 0.801868
0.805577 0.805577 0.805577
0.092237 0.092237 0.092237
0.745078 0.745078 0.745078
0.766418 0.766418 0.766418
0.779183 0.779183 0.779183
0.788369 0.788369 0.788369
0.795569 0.795569 0.795569
0.801500 0.801500 0.801500
0.805779 0.805779 0.805779
0.808665 0.808665 0.808665
0.092237 0.092237 0.092237
0.748845 0.748845 0.748845
0.770293 0.770293 0.770293
0.783123 0.783123 0.783123
0.792355 0.792355 0.792355
0.799591 0.799591 0.799591
0.805125 0.805125 0.805125
0.808454 0.808454 0.808454
0.811349 0.811349 0.811349
0.092237 0.092237 0.092237
0.092237 0.092237 0.092237
0.092237 0.092237 0.092237
0.092237 0.092237 0.092237
0.092237 0.092237 0.092237
0.092237 0.092237 0.092237
0.092237 0.092237 0.092237
0.092237 0.092237 0.092237
0.092237 0.092237 0.092237
0.092237 0.092237 0.092237
0.834894 0.834894 0.834894
0.850529 0.850529 0.850529
0.859811 0.859811 0.859811
0.866457 0.866457 0.866457
0.871648 0.871648 0.871648
0.874914 0.874914 0.874914
0.877684 0.877684 0.877684
0.880091 0.880091 0.880091
0.092237 0.092237 0.092237
0.849379 0.849379 0.849379
0.865285 0.865285 0.865285
0.874007 0.874007 0.874007
0.879179 0.879179 0.879179
0.883200 0.883200 0.883200
0.886494 0.886494 0.886494
0.889289 0.889289 0.889289
0.891717 0.891717 0.891717
0.092237 0.092237 0.092237
0.857968 0.857968 0.857968
0.873477 0.873477 0.873477
0.880770 0.880770 0.880770
0.885959 0.885959 0.885959
0.890005 0.890005 0.890005
0.893325 0.893325 0.893325
0.896141 0.896141 0.896141
0.898588 0.898588 0.898588
0.092237 0.092237 0.092237
0.864115 0.864115 0.864115
0.878268 0.878268 0.878268
0.885579 0.885579 0.885579
0.890797 0.890797 0.890797
0.894865 0.894865 0.894865
0.898203 0.898203 0.898203
0.901035 0.901035 0.901035
0.903495 0.903495 0.903495
0.092237 0.092237 0.092237
0.868913 0.868913 0.868913
0.881995 0.881995 0.881995
0.889328 0.889328 0.889328
0.894568 0.894568 0.894568
0.898653 0.898653 0.898653
0.902005 0.902005 0.902005
0.904849 0.904849 0.904849
0.907319 0.907319 0.907319
0.092237 0.092237 0.092237
0.872572 0.872572 0.872572
0.885045 0.885045 0.885045
0.892403 0.892403 0.892403
0.897661 0.897661 0.897661
0.901760 0.901760 0.901760
0.905124 0.905124 0.905124
0.907977 0.907977 0.907977
0.910456 0.910456 0.910456
0.092237 0.092237 0.092237
0.875133 0.875133 0.875133
0.887631 0.887631 0.887631
0.895011 0.895011 0.895011
0.900284 0.900284 0.900284
0.904395 0.904395 0.904395
0.907769 0.907769 0.907769
0.910631 0.910631 0.910631
0.913117 0.913117 0.913117
0.092237 0.092237 0.092237
0.877357 0.877357 0.877357
0.889878 0.889878 0.889878
0.897276 0.897276 0.897276
0.902562 0.902562 0.902562
0.906684 0.906684 0.906684
0.910066 0.910066 0.910066
0.912935 0.912935 0.912935
0.915428 0.915428 0.915428
0.092237 0.092237 0.092237
0.092237 0.092237 0.092237
0.092237 0.092237 0.092237
0.092237 0.092237 0.092237
0.092237 0.092237 0.092237
0.092237 0.092237 0.092237
0.092237 0.092237 0.092237
0.092237 0.092237 0.092237
0.092237 0.092237 0.092237
0.092237 0.092237 0.092237
0.919447 0.919447 0.919447
0.929199 0.929199 0.929199
0.934951 0.934951 0.934951
0.939053 0.939053 0.939053
0.942248 0.942248 0.942248
0.944866 0.944866 0.944866
0.947086 0.947086 0.947086
0.949012 0.949012 0.949012
0.092237 0.092237 0.092237
0.928484 0.928484 0.928484
0.938331 0.938331 0.938331
0.944139 0.944139 0.944139
0.948282 0.948282 0.948282
0.951508 0.951508 0.951508
0.954152 0.954152 0.954152
0.956386 0.956386 0.956386
0.957451 0.957451 0.957451
0.092237 0.092237 0.092237
0.933811 0.933811 0.933811
0.943714 0.943714 0.943714
0.949556 0.949556 0.949556
0.953723 0.953723 0.953723
0.956701 0.956701 0.956701
0.958155 0.958155 0.958155
0.959387 0.959387 0.959387
0.960455 0.960455 0.960455
0.092237 0.092237 0.092237
0.937609 0.937609 0.937609
0.947553 0.947553 0.947553
0.953418 0.953418 0.953418
0.957048 0.957048 0.957048
0.958829 0.958829 0.958829
0.960287 0.960287 0.960287
0.961521 0.961521 0.961521
0.962591 0.962591 0.962591
0.092237 0.092237 0.092237
0.940566 0.940566 0.940566
0.950541 0.950541 0.950541
0.956404 0.956404 0.956404
0.958699 0.958699 0.958699
0.960483 0.960483 0.960483
0.961943 0.961943 0.961943
0.963180 0.963180 0.963180
0.964252 0.964252 0.964252
0.092237 0.092237 0.092237
0.942988 0.942988 0.942988
0.952989 0.952989 0.952989
0.957751 0.957751 0.957751
0.960050 0.960050 0.960050
0.961837 0.961837 0.961837
0.963299 0.963299 0.963299
0.964537 0.964537 0.964537
0.965611 0.965611 0.965611
0.092237 0.092237 0.092237
0.945041 0.945041 0.945041
0.955064 0.955064 0.955064
0.958893 0.958893 0.958893
0.961194 0.961194 0.961194
0.962983 0.962983 0.962983
0.964447 0.964447 0.964447
0.965686 0.965686 0.965686
0.966761 0.966761 0.966761
0.092237 0.092237 0.092237
0.946824 0.946824 0.946824
0.956645 0.956645 0.956645
0.959882 0.959882 0.959882
0.962186 0.962186 0.962186
0.963976 0.963976 0.963976
0.965442 0.965442 0.965442
0.966683 0.966683 0.966683
0.967759 0.967759 0.967759
0.092237 0.092237 0.092237
0.092237 0.092237 0.092237
0.092237 0.092237 0.092237
0.092237 0.092237 0.092237
0.092237 0.092237 0.092237
0.092237 0.092237 0.092237
0.092237 0.092237 0.092237
0.092237 0.092237 0.092237
0.092237 0.092237 0.092237
0.092237 0.092237 0.092237
0.965426 0.965426 0.965426
0.971018 0.971018 0.971018
0.974304 0.974304 0.974304
0.976643 0.976643 0.976643
0.978460 0.978460 0.978460
0.979393 0.979393 0.979393
0.979853 0.979853 0.979853
0.980252 0.980252 0.980252
0.092237 0.092237 0.092237
0.970609 0.970609 0.970609
0.976231 0.976231 0.976231
0.979242 0.979242 0.979242
0.980101 0.980101 0.980101
0.980767 0.980767 0.980767
0.981312 0.981312 0.981312
0.981774 0.981774 0.981774
0.982173 0.982173 0.982173
0.092237 0.092237 0.092237
0.973654 0.973654 0.973654
0.979153 0.979153 0.979153
0.980364 0.980364 0.980364
0.981224 0.981224 0.981224
0.981892 0.981892 0.981892
0.982437 0.982437 0.982437
0.982899 0.982899 0.982899
0.983299 0.983299 0.983299
0.092237 0.092237 0.092237
0.975820 0.975820 0.975820
0.979950 0.979950 0.979950
0.981161 0.981161 0.981161
0.982022 0.982022 0.982022
0.982690 0.982690 0.982690
0.983236 0.983236 0.983236
0.983698 0.983698 0.983698
0.984098 0.984098 0.984098
0.092237 0.092237 0.092237
0.977503 0.977503 0.977503
0.980568 0.980568 0.980568
0.981780 0.981780 0.981780
0.982641 0.982641 0.982641
0.983310 0.983310 0.983310
0.983856 0.983856 0.983856
0.984318 0.984318 0.984318
0.984719 0.984719 0.984719
0.092237 0.092237 0.092237
0.978881 0.978881 0.978881
0.981073 0.981073 0.981073
0.982286 0.982286 0.982286
0.983147 0.983147 0.983147
0.983816 0.983816 0.983816
0.984363 0.984363 0.984363
0.984826 0.984826 0.984826
0.985226 0.985226 0.985226
0.092237 0.092237 0.092237
0.979429 0.979429 0.979429
0.981500 0.981500 0.981500
0.982714 0.982714 0.982714
0.983576 0.983576 0.983576
0.984245 0.984245 0.984245
0.984792 0.984792 0.984792
0.985255 0.985255 0.985255
0.985656 0.985656 0.985656
0.092237 0.092237 0.092237
0.979799 0.979799 0.979799
0.981871 0.981871 0.981871
0.983085 0.983085 0.983085
0.983947 0.983947 0.983947
0.984616 0.984616 0.984616
0.985163 0.985163 0.985163
0.985626 0.985626 0.985626
0.986028 0.986028 0.986028
