trix_classic/TriX_Yellow8_ExtraSoft.cube
TITLE "Tri-X Yellow8 ExtraSoft"
# Adobe RGB in/out. REPLACES AgX. R=0.5015 G=0.4679 B=0.0307
LUT_3D_SIZE 5
DOMAIN_MIN 0.0 0.0 0.0
DOMAIN_MAX 1.0 1.0 1.0
0.121260 0.121260 0.121260
0.121260 0.121260 0.121260
0.121260 0.121260 0.121260
0.121260 0.121260 0.121260
0.121260 0.121260 0.121260
0.121260 0.121260 0.121260
0.121260 0.121260 0.121260
0.121260 0.121260 0.121260
0.121260 0.121260 0.121260
0.121260 0.121260 0.121260
0.121260 0.121260 0.121260
0.121260 0.121260 0.121260
0.121260 0.121260 0.121260
0.121260 0.121260 0.121260
0.121260 0.121260 0.121260
0.121260 0.121260 0.121260
0.121260 0.121260 0.121260
0.121260 0.121260 0.121260
0.121260 0.121260 0.121260
0.121260 0.121260 0.121260
0.121260 0.121260 0.121260
0.121260 0.121260 0.121260
0.121260 0.121260 0.121260
0.121260 0.121260 0.121260
0.121260 0.121260 0.121260
0.121260 0.121260 0.121260
0.121260 0.121260 0.121260
0.121260 0.121260 0.121260
0.121260 0.121260 0.121260
0.121260 0.121260 0.121260
0.121260 0.121260 0.121260
0.262816 0.262816 0.262816
0.358679 0.358679 0.358679
0.430792 0.430792 0.430792
0.505689 0.505689 0.505689
0.121260 0.121260 0.121260
0.351372 0.351372 0.351372
0.493493 0.493493 0.493493
0.612461 0.612461 0.612461
0.712640 0.712640 0.712640
0.121260 0.121260 0.121260
0.413818 0.413818 0.413818
0.603238 0.603238 0.603238
0.743672 0.743672 0.743672
0.836620 0.836620 0.836620
0.121260 0.121260 0.121260
0.480763 0.480763 0.480763
0.697201 0.697201 0.697201
0.830670 0.830670 0.830670
0.906216 0.906216 0.906216
0.121260 0.121260 0.121260
0.121260 0.121260 0.121260
0.121260 0.121260 0.121260
0.121260 0.121260 0.121260
0.121260 0.121260 0.121260
0.121260 0.121260 0.121260
0.267888 0.267888 0.267888
0.365460 0.365460 0.365460
0.441110 0.441110 0.441110
0.517066 0.517066 0.517066
0.121260 0.121260 0.121260
0.358025 0.358025 0.358025
0.504596 0.504596 0.504596
0.627111 0.627111 0.627111
0.727008 0.727008 0.727008
0.121260 0.121260 0.121260
0.423493 0.423493 0.423493
0.617668 0.617668 0.617668
0.758600 0.758600 0.758600
0.849834 0.849834 0.849834
0.121260 0.121260 0.121260
0.492414 0.492414 0.492414
0.711258 0.711258 0.711258
0.843791 0.843791 0.843791
0.916871 0.916871 0.916871
0.121260 0.121260 0.121260
0.121260 0.121260 0.121260
0.121260 0.121260 0.121260
0.121260 0.121260 0.121260
0.121260 0.121260 0.121260
0.121260 0.121260 0.121260
0.270900 0.270900 0.270900
0.369371 0.369371 0.369371
0.447332 0.447332 0.447332
0.523839 0.523839 0.523839
0.121260 0.121260 0.121260
0.361975 0.361975 0.361975
0.511206 0.511206 0.511206
0.635843 0.635843 0.635843
0.735546 0.735546 0.735546
0.121260 0.121260 0.121260
0.429259 0.429259 0.429259
0.626268 0.626268 0.626268
0.767470 0.767470 0.767470
0.857285 0.857285 0.857285
0.121260 0.121260 0.121260
0.498877 0.498877 0.498877
0.719611 0.719611 0.719611
0.851562 0.851562 0.851562
0.923161 0.923161 0.923161
0.121260 0.121260 0.121260
0.121260 0.121260 0.121260
0.121260 0.121260 0.121260
0.121260 0.121260 0.121260
0.121260 0.121260 0.121260
0.121260 0.121260 0.121260
0.273057 0.273057 0.273057
0.372171 0.372171 0.372171
0.451800 0.451800 0.451800
0.528698 0.528698 0.528698
0.121260 0.121260 0.121260
0.364803 0.364803 0.364803
0.515948 0.515948 0.515948
0.642112 0.642112 0.642112
0.741639 0.741639 0.741639
0.121260 0.121260 0.121260
0.433397 0.433397 0.433397
0.632443 0.632443 0.632443
0.773827 0.773827 0.773827
0.861454 0.861454 0.861454
0.121260 0.121260 0.121260
0.503505 0.503505 0.503505
0.725598 0.725598 0.725598
0.856881 0.856881 0.856881
0.927107 0.927107 0.927107
