trix_classic/TriX_NoFilter_Punchy.cube
TITLE "Tri-X NoFilter Punchy"
# Adobe RGB in/out. REPLACES AgX. R=0.2974 G=0.2859 B=0.4167
LUT_3D_SIZE 9
DOMAIN_MIN 0.0 0.0 0.0
DOMAIN_MAX 1.0 1.0 1.0
0.092306 0.092306 0.092306
0.092306 0.092306 0.092306
0.092306 0.092306 0.092306
0.092306 0.092306 0.092306
0.092306 0.092306 0.092306
0.092306 0.092306 0.092306
0.092306 0.092306 0.092306
0.092306 0.092306 0.092306
0.092306 0.092306 0.092306
0.092306 0.092306 0.092306
0.092306 0.092306 0.092306
0.092306 0.092306 0.092306
0.092306 0.092306 0.092306
0.092306 0.092306 0.092306
0.092306 0.092306 0.092306
0.092306 0.092306 0.092306
0.092306 0.092306 0.092306
0.092306 0.092306 0.092306
0.092306 0.092306 0.092306
0.092306 0.092306 0.092306
0.092306 0.092306 0.092306
0.092306 0.092306 0.092306
0.092306 0.092306 0.092306
0.092306 0.092306 0.092306
0.092306 0.092306 0.092306
0.092306 0.092306 0.092306
0.092306 0.092306 0.092306
0.092306 0.092306 0.092306
0.092306 0.092306 0.092306
0.092306 0.092306 0.092306
0.092306 0.092306 0.092306
0.092306 0.092306 0.092306
0.092306 0.092306 0.092306
0.092306 0.092306 0.092306
0.092306 0.092306 0.092306
0.092306 0.092306 0.092306
0.092306 0.092306 0.092306
0.092306 0.092306 0.092306
0.092306 0.092306 0.092306
0.092306 0.092306 0.092306
0.092306 0.092306 0.092306
0.092306 0.092306 0.092306
0.092306 0.092306 0.092306
0.092306 0.092306 0.092306
0.092306 0.092306 0.092306
0.092306 0.092306 0.092306
0.092306 0.092306 0.092306
0.092306 0.092306 0.092306
0.092306 0.092306 0.092306
0.092306 0.092306 0.092306
0.092306 0.092306 0.092306
0.092306 0.092306 0.092306
0.092306 0.092306 0.092306
0.092306 0.092306 0.092306
0.092306 0.092306 0.092306
0.092306 0.092306 0.092306
0.092306 0.092306 0.092306
0.092306 0.092306 0.092306
0.092306 0.092306 0.092306
0.092306 0.092306 0.092306
0.092306 0.092306 0.092306
0.092306 0.092306 0.092306
0.092306 0.092306 0.092306
0.092306 0.092306 0.092306
0.092306 0.092306 0.092306
0.092306 0.092306 0.092306
0.092306 0.092306 0.092306
0.092306 0.092306 0.092306
0.092306 0.092306 0.092306
0.092306 0.092306 0.092306
0.092306 0.092306 0.092306
0.092306 0.092306 0.092306
0.092306 0.092306 0.092306
0.092306 0.092306 0.092306
0.092306 0.092306 0.092306
0.092306 0.092306 0.092306
0.092306 0.092306 0.092306
0.092306 0.092306 0.092306
0.092306 0.092306 0.092306
0.092306 0.092306 0.092306
0.092306 0.092306 0.092306
0.092306 0.092306 0.092306
0.092306 0.092306 0.092306
0.092306 0.092306 0.092306
0.092306 0.092306 0.092306
0.092306 0.092306 0.092306
0.092306 0.092306 0.092306
0.092306 0.092306 0.092306
0.092306 0.092306 0.092306
0.092306 0.092306 0.092306
0.092306 0.092306 0.092306
0.094164 0.094164 0.094164
0.098278 0.098278 0.098278
0.103243 0.103243 0.103243
0.109091 0.109091 0.109091
0.115920 0.115920 0.115920
0.124123 0.124123 0.124123
0.132101 0.132101 0.132101
0.141456 0.141456 0.141456
0.092306 0.092306 0.092306
0.098090 0.098090 0.098090
0.108319 0.108319 0.108319
0.122882 0.122882 0.122882
0.139527 0.139527 0.139527
0.156429 0.156429 0.156429
0.171748 0.171748 0.171748
0.186976 0.186976 0.186976
0.201881 0.201881 0.201881
0.092306 0.092306 0.092306
0.102635 0.102635 0.102635
0.122162 0.122162 0.122162
0.147022 0.147022 0.147022
0.170374 0.170374 0.170374
0.192791 0.192791 0.192791
0.214075 0.214075 0.214075
0.233894 0.233894 0.233894
0.251716 0.251716 0.251716
0.092306 0.092306 0.092306
0.107752 0.107752 0.107752
0.137625 0.137625 0.137625
0.169406 0.169406 0.169406
0.198798 0.198798 0.198798
0.225982 0.225982 0.225982
0.250129 0.250129 0.250129
0.273049 0.273049 0.273049
0.294595 0.294595 0.294595
0.092306 0.092306 0.092306
0.113899 0.113899 0.113899
0.153616 0.153616 0.153616
0.190617 0.190617 0.190617
0.224866 0.224866 0.224866
0.254752 0.254752 0.254752
0.282587 0.282587 0.282587
0.308482 0.308482 0.308482
0.330727 0.330727 0.330727
0.092306 0.092306 0.092306
0.120941 0.120941 0.120941
0.168051 0.168051 0.168051
0.210806 0.210806 0.210806
0.247909 0.247909 0.247909
0.281457 0.281457 0.281457
0.312211 0.312211 0.312211
0.337327 0.337327 0.337327
0.359334 0.359334 0.359334
0.092306 0.092306 0.092306
0.128047 0.128047 0.128047
0.181847 0.181847 0.181847
0.229535 0.229535 0.229535
0.269711 0.269711 0.269711
0.306208 0.306208 0.306208
0.336377 0.336377 0.336377
0.361836 0.361836 0.361836
0.385442 0.385442 0.385442
0.092306 0.092306 0.092306
0.135748 0.135748 0.135748
0.195762 0.195762 0.195762
0.246440 0.246440 0.246440
0.290139 0.290139 0.290139
0.327896 0.327896 0.327896
0.357447 0.357447 0.357447
0.384501 0.384501 0.384501
0.409586 0.409586 0.409586
0.092306 0.092306 0.092306
0.092306 0.092306 0.092306
0.092306 0.092306 0.092306
0.092306 0.092306 0.092306
0.092306 0.092306 0.092306
0.092306 0.092306 0.092306
0.092306 0.092306 0.092306
0.092306 0.092306 0.092306
0.092306 0.092306 0.092306
0.092306 0.092306 0.092306
0.101429 0.101429 0.101429
0.118334 0.118334 0.118334
0.140762 0.140762 0.140762
0.163120 0.163120 0.163120
0.183614 0.183614 0.183614
0.203885 0.203885 0.203885
0.222760 0.222760 0.222760
0.240360 0.240360 0.240360
0.092306 0.092306 0.092306
0.117150 0.117150 0.117150
0.160896 0.160896 0.160896
0.200772 0.200772 0.200772
0.236845 0.236845 0.236845
0.268187 0.268187 0.268187
0.297491 0.297491 0.297491
0.324039 0.324039 0.324039
0.345179 0.345179 0.345179
0.092306 0.092306 0.092306
0.137732 0.137732 0.137732
0.198972 0.198972 0.198972
0.250346 0.250346 0.250346
0.294850 0.294850 0.294850
0.332320 0.332320 0.332320
0.362270 0.362270 0.362270
0.389689 0.389689 0.389689
0.414544 0.414544 0.414544
0.092306 0.092306 0.092306
0.158702 0.158702 0.158702
0.233228 0.233228 0.233228
0.292991 0.292991 0.292991
0.340829 0.340829 0.340829
0.378795 0.378795 0.378795
0.412822 0.412822 0.412822
0.437598 0.437598 0.437598
0.460857 0.460857 0.460857
0.092306 0.092306 0.092306
0.177169 0.177169 0.177169
0.262838 0.262838 0.262838
0.329229 0.329229 0.329229
0.377251 0.377251 0.377251
0.417828 0.417828 0.417828
0.447964 0.447964 0.447964
0.475561 0.475561 0.475561
0.500838 0.500838 0.500838
0.092306 0.092306 0.092306
0.195934 0.195934 0.195934
0.290391 0.290391 0.290391
0.357705 0.357705 0.357705
0.409881 0.409881 0.409881
0.446741 0.446741 0.446741
0.479473 0.479473 0.479473
0.509012 0.509012 0.509012
0.536067 0.536067 0.536067
0.092306 0.092306 0.092306
0.213341 0.213341 0.213341
0.315928 0.315928 0.315928
0.383695 0.383695 0.383695
0.433942 0.433942 0.433942
0.473169 0.473169 0.473169
0.507837 0.507837 0.507837
0.539124 0.539124 0.539124
0.565368 0.565368 0.565368
0.092306 0.092306 0.092306
0.229666 0.229666 0.229666
0.336534 0.336534 0.336534
0.407730 0.407730 0.407730
0.456093 0.456093 0.456093
0.497322 0.497322 0.497322
0.533760 0.533760 0.533760
0.564370 0.564370 0.564370
0.590760 0.590760 0.590760
0.092306 0.092306 0.092306
0.092306 0.092306 0.092306
0.092306 0.092306 0.092306
0.092306 0.092306 0.092306
0.092306 0.092306 0.092306
0.092306 0.092306 0.092306
0.092306 0.092306 0.092306
0.092306 0.092306 0.092306
0.092306 0.092306 0.092306
0.092306 0.092306 0.092306
0.113659 0.113659 0.113659
0.152999 0.152999 0.152999
0.189759 0.189759 0.189759
0.223853 0.223853 0.223853
0.253616 0.253616 0.253616
0.281327 0.281327 0.281327
0.307107 0.307107 0.307107
0.329500 0.329500 0.329500
0.092306 0.092306 0.092306
0.150912 0.150912 0.150912
0.220435 0.220435 0.220435
0.277073 0.277073 0.277073
0.325348 0.325348 0.325348
0.361589 0.361589 0.361589
0.394177 0.394177 0.394177
0.421558 0.421558 0.421558
0.443632 0.443632 0.443632
0.092306 0.092306 0.092306
0.185186 0.185186 0.185186
0.274614 0.274614 0.274614
0.341457 0.341457 0.341457
0.391264 0.391264 0.391264
0.430058 0.430058 0.430058
0.461553 0.461553 0.461553
0.489988 0.489988 0.489988
0.516031 0.516031 0.516031
0.092306 0.092306 0.092306
0.217068 0.217068 0.217068
0.321248 0.321248 0.321248
0.389210 0.389210 0.389210
0.439046 0.439046 0.439046
0.478734 0.478734 0.478734
0.513811 0.513811 0.513811
0.545465 0.545465 0.545465
0.571232 0.571232 0.571232
0.092306 0.092306 0.092306
0.244993 0.244993 0.244993
0.355578 0.355578 0.355578
0.426890 0.426890 0.426890
0.477135 0.477135 0.477135
0.520267 0.520267 0.520267
0.557106 0.557106 0.557106
0.587286 0.587286 0.587286
0.614748 0.614748 0.614748
0.092306 0.092306 0.092306
0.270461 0.270461 0.270461
0.386333 0.386333 0.386333
0.456782 0.456782 0.456782
0.510697 0.510697 0.510697
0.555764 0.555764 0.555764
0.591547 0.591547 0.591547
0.623593 0.623593 0.623593
0.652753 0.652753 0.652753
0.092306 0.092306 0.092306
0.294245 0.294245 0.294245
0.413984 0.413984 0.413984
0.483803 0.483803 0.483803
0.540908 0.540908 0.540908
0.584678 0.584678 0.584678
0.622323 0.622323 0.622323
0.656036 0.656036 0.656036
0.686712 0.686712 0.686712
0.092306 0.092306 0.092306
0.316532 0.316532 0.316532
0.434507 0.434507 0.434507
0.508499 0.508499 0.508499
0.566018 0.566018 0.566018
0.610937 0.610937 0.610937
0.650273 0.650273 0.650273
0.685500 0.685500 0.685500
0.715717 0.715717 0.715717
0.092306 0.092306 0.092306
0.092306 0.092306 0.092306
0.092306 0.092306 0.092306
0.092306 0.092306 0.092306
0.092306 0.092306 0.092306
0.092306 0.092306 0.092306
0.092306 0.092306 0.092306
0.092306 0.092306 0.092306
0.092306 0.092306 0.092306
0.092306 0.092306 0.092306
0.131868 0.131868 0.131868
0.189501 0.189501 0.189501
0.239137 0.239137 0.239137
0.280949 0.280949 0.280949
0.318968 0.318968 0.318968
0.348000 0.348000 0.348000
0.374339 0.374339 0.374339
0.398760 0.398760 0.398760
0.092306 0.092306 0.092306
0.186607 0.186607 0.186607
0.276700 0.276700 0.276700
0.343615 0.343615 0.343615
0.393736 0.393736 0.393736
0.432269 0.432269 0.432269
0.463941 0.463941 0.463941
0.492523 0.492523 0.492523
0.518701 0.518701 0.518701
0.092306 0.092306 0.092306
0.233432 0.233432 0.233432
0.341075 0.341075 0.341075
0.413057 0.413057 0.413057
0.461129 0.461129 0.461129
0.502814 0.502814 0.502814
0.539655 0.539655 0.539655
0.569866 0.569866 0.569866
0.596513 0.596513 0.596513
0.092306 0.092306 0.092306
0.272515 0.272515 0.272515
0.388774 0.388774 0.388774
0.459145 0.459145 0.459145
0.513339 0.513339 0.513339
0.558300 0.558300 0.558300
0.594247 0.594247 0.594247
0.626439 0.626439 0.626439
0.655732 0.655732 0.655732
0.092306 0.092306 0.092306
0.307879 0.307879 0.307879
0.426512 0.426512 0.426512
0.498978 0.498978 0.498978
0.556655 0.556655 0.556655
0.600831 0.600831 0.600831
0.639516 0.639516 0.639516
0.674161 0.674161 0.674161
0.705523 0.705523 0.705523
0.092306 0.092306 0.092306
0.336777 0.336777 0.336777
0.456362 0.456362 0.456362
0.534076 0.534076 0.534076
0.591068 0.591068 0.591068
0.637976 0.637976 0.637976
0.679052 0.679052 0.679052
0.714245 0.714245 0.714245
0.742875 0.742875 0.742875
0.092306 0.092306 0.092306
0.361246 0.361246 0.361246
0.483359 0.483359 0.483359
0.563514 0.563514 0.563514
0.621819 0.621819 0.621819
0.671167 0.671167 0.671167
0.712993 0.712993 0.712993
0.746088 0.746088 0.746088
0.775974 0.775974 0.775974
0.092306 0.092306 0.092306
0.383875 0.383875 0.383875
0.508033 0.508033 0.508033
0.588823 0.588823 0.588823
0.649746 0.649746 0.649746
0.701311 0.701311 0.701311
0.740448 0.740448 0.740448
0.774801 0.774801 0.774801
0.805721 0.805721 0.805721
0.092306 0.092306 0.092306
0.092306 0.092306 0.092306
0.092306 0.092306 0.092306
0.092306 0.092306 0.092306
0.092306 0.092306 0.092306
0.092306 0.092306 0.092306
0.092306 0.092306 0.092306
0.092306 0.092306 0.092306
0.092306 0.092306 0.092306
0.092306 0.092306 0.092306
0.154782 0.154782 0.154782
0.226780 0.226780 0.226780
0.284970 0.284970 0.284970
0.333046 0.333046 0.333046
0.370145 0.370145 0.370145
0.403504 0.403504 0.403504
0.429429 0.429429 0.429429
0.452215 0.452215 0.452215
0.092306 0.092306 0.092306
0.223317 0.223317 0.223317
0.328850 0.328850 0.328850
0.398419 0.398419 0.398419
0.447541 0.447541 0.447541
0.487997 0.487997 0.487997
0.523752 0.523752 0.523752
0.555021 0.555021 0.555021
0.580974 0.580974 0.580974
0.092306 0.092306 0.092306
0.278169 0.278169 0.278169
0.395475 0.395475 0.395475
0.465619 0.465619 0.465619
0.520578 0.520578 0.520578
0.565242 0.565242 0.565242
0.601636 0.601636 0.601636
0.634228 0.634228 0.634228
0.663885 0.663885 0.663885
0.092306 0.092306 0.092306
0.324706 0.324706 0.324706
0.442914 0.442914 0.442914
0.518338 0.518338 0.518338
0.575671 0.575671 0.575671
0.621357 0.621357 0.621357
0.661363 0.661363 0.661363
0.697191 0.697191 0.697191
0.726202 0.726202 0.726202
0.092306 0.092306 0.092306
0.359405 0.359405 0.359405
0.481339 0.481339 0.481339
0.561435 0.561435 0.561435
0.619525 0.619525 0.619525
0.668691 0.668691 0.668691
0.710731 0.710731 0.710731
0.743720 0.743720 0.743720
0.773522 0.773522 0.773522
0.092306 0.092306 0.092306
0.390491 0.390491 0.390491
0.515197 0.515197 0.515197
0.596144 0.596144 0.596144
0.657825 0.657825 0.657825
0.709258 0.709258 0.709258
0.748358 0.748358 0.748358
0.783042 0.783042 0.783042
0.814264 0.814264 0.814264
0.092306 0.092306 0.092306
0.417504 0.417504 0.417504
0.545674 0.545674 0.545674
0.627159 0.627159 0.627159
0.692049 0.692049 0.692049
0.740878 0.740878 0.740878
0.781676 0.781676 0.781676
0.817165 0.817165 0.817165
0.844065 0.844065 0.844065
0.092306 0.092306 0.092306
0.438336 0.438336 0.438336
0.570416 0.570416 0.570416
0.655326 0.655326 0.655326
0.720498 0.720498 0.720498
0.769406 0.769406 0.769406
0.811642 0.811642 0.811642
0.843009 0.843009 0.843009
0.870760 0.870760 0.870760
0.092306 0.092306 0.092306
0.092306 0.092306 0.092306
0.092306 0.092306 0.092306
0.092306 0.092306 0.092306
0.092306 0.092306 0.092306
0.092306 0.092306 0.092306
0.092306 0.092306 0.092306
0.092306 0.092306 0.092306
0.092306 0.092306 0.092306
0.092306 0.092306 0.092306
0.176430 0.176430 0.176430
0.261666 0.261666 0.261666
0.328007 0.328007 0.328007
0.375851 0.375851 0.375851
0.416601 0.416601 0.416601
0.446601 0.446601 0.446601
0.474115 0.474115 0.474115
0.499315 0.499315 0.499315
0.092306 0.092306 0.092306
0.257709 0.257709 0.257709
0.371115 0.371115 0.371115
0.441984 0.441984 0.441984
0.494153 0.494153 0.494153
0.538823 0.538823 0.538823
0.574604 0.574604 0.574604
0.605732 0.605732 0.605732
0.634056 0.634056 0.634056
0.092306 0.092306 0.092306
0.321480 0.321480 0.321480
0.439306 0.439306 0.439306
0.514115 0.514115 0.514115
0.571530 0.571530 0.571530
0.616887 0.616887 0.616887
0.656606 0.656606 0.656606
0.692176 0.692176 0.692176
0.721707 0.721707 0.721707
0.092306 0.092306 0.092306
0.366439 0.366439 0.366439
0.489045 0.489045 0.489045
0.569359 0.569359 0.569359
0.628269 0.628269 0.628269
0.678129 0.678129 0.678129
0.719349 0.719349 0.719349
0.752738 0.752738 0.752738
0.782860 0.782860 0.782860
0.092306 0.092306 0.092306
0.405597 0.405597 0.405597
0.531472 0.531472 0.531472
0.612732 0.612732 0.612732
0.676130 0.676130 0.676130
0.726198 0.726198 0.726198
0.766232 0.766232 0.766232
0.801662 0.801662 0.801662
0.830258 0.830258 0.830258
0.092306 0.092306 0.092306
0.434764 0.434764 0.434764
0.566313 0.566313 0.566313
0.650612 0.650612 0.650612
0.716038 0.716038 0.716038
0.764644 0.764644 0.764644
0.806640 0.806640 0.806640
0.838707 0.838707 0.838707
0.866316 0.866316 0.866316
0.092306 0.092306 0.092306
0.460484 0.460484 0.460484
0.595776 0.595776 0.595776
0.684461 0.684461 0.684461
0.747961 0.747961 0.747961
0.798613 0.798613 0.798613
0.837495 0.837495 0.837495
0.869402 0.869402 0.869402
0.892334 0.892334 0.892334
0.092306 0.092306 0.092306
0.483989 0.483989 0.483989
0.622534 0.622534 0.622534
0.713698 0.713698 0.713698
0.776738 0.776738 0.776738
0.826607 0.826607 0.826607
0.863982 0.863982 0.863982
0.891493 0.891493 0.891493
0.913503 0.913503 0.913503
0.092306 0.092306 0.092306
0.092306 0.092306 0.092306
0.092306 0.092306 0.092306
0.092306 0.092306 0.092306
0.092306 0.092306 0.092306
0.092306 0.092306 0.092306
0.092306 0.092306 0.092306
0.092306 0.092306 0.092306
0.092306 0.092306 0.092306
0.092306 0.092306 0.092306
0.199667 0.199667 0.199667
0.295870 0.295870 0.295870
0.363313 0.363313 0.363313
0.415487 0.415487 0.415487
0.452471 0.452471 0.452471
0.485624 0.485624 0.485624
0.515542 0.515542 0.515542
0.542943 0.542943 0.542943
0.092306 0.092306 0.092306
0.291396 0.291396 0.291396
0.411061 0.411061 0.411061
0.480604 0.480604 0.480604
0.537331 0.537331 0.537331
0.581264 0.581264 0.581264
0.618689 0.618689 0.618689
0.652206 0.652206 0.652206
0.682703 0.682703 0.682703
0.092306 0.092306 0.092306
0.356083 0.356083 0.356083
0.477691 0.477691 0.477691
0.557678 0.557678 0.557678
0.615380 0.615380 0.615380
0.664217 0.664217 0.664217
0.706639 0.706639 0.706639
0.739438 0.739438 0.739438
0.769078 0.769078 0.769078
0.092306 0.092306 0.092306
0.405881 0.405881 0.405881
0.531776 0.531776 0.531776
0.613042 0.613042 0.613042
0.676471 0.676471 0.676471
0.726514 0.726514 0.726514
0.766565 0.766565 0.766565
0.802009 0.802009 0.802009
0.830555 0.830555 0.830555
0.092306 0.092306 0.092306
0.441685 0.441685 0.441685
0.574261 0.574261 0.574261
0.659743 0.659743 0.659743
0.724672 0.724672 0.724672
0.773853 0.773853 0.773853
0.815946 0.815946 0.815946
0.847032 0.847032 0.847032
0.874915 0.874915 0.874915
0.092306 0.092306 0.092306
0.472753 0.472753 0.472753
0.609762 0.609762 0.609762
0.700530 0.700530 0.700530
0.763037 0.763037 0.763037
0.814552 0.814552 0.814552
0.851383 0.851383 0.851383
0.881686 0.881686 0.881686
0.903453 0.903453 0.903453
0.092306 0.092306 0.092306
0.500720 0.500720 0.500720
0.641486 0.641486 0.641486
0.732344 0.732344 0.732344
0.796941 0.796941 0.796941
0.844364 0.844364 0.844364
0.880727 0.880727 0.880727
0.905876 0.905876 0.905876
0.927847 0.927847 0.927847
0.092306 0.092306 0.092306
0.526279 0.526279 0.526279
0.670297 0.670297 0.670297
0.760544 0.760544 0.760544
0.825175 0.825175 0.825175
0.871068 0.871068 0.871068
0.901620 0.901620 0.901620
0.927273 0.927273 0.927273
0.942239 0.942239 0.942239
0.092306 0.092306 0.092306
0.092306 0.092306 0.092306
0.092306 0.092306 0.092306
0.092306 0.092306 0.092306
0.092306 0.092306 0.092306
0.092306 0.092306 0.092306
0.092306 0.092306 0.092306
0.092306 0.092306 0.092306
0.092306 0.092306 0.092306
0.092306 0.092306 0.092306
0.222320 0.222320 0.222320
0.327640 0.327640 0.327640
0.396953 0.396953 0.396953
0.446191 0.446191 0.446191
0.486525 0.486525 0.486525
0.522172 0.522172 0.522172
0.553544 0.553544 0.553544
0.579427 0.579427 0.579427
0.092306 0.092306 0.092306
0.323511 0.323511 0.323511
0.441579 0.441579 0.441579
0.516775 0.516775 0.516775
0.574139 0.574139 0.574139
0.619703 0.619703 0.619703
0.659603 0.659603 0.659603
0.695336 0.695336 0.695336
0.724539 0.724539 0.724539
0.092306 0.092306 0.092306
0.389055 0.389055 0.389055
0.513643 0.513643 0.513643
0.594557 0.594557 0.594557
0.656074 0.656074 0.656074
0.707634 0.707634 0.707634
0.746645 0.746645 0.746645
0.781257 0.781257 0.781257
0.812435 0.812435 0.812435
0.092306 0.092306 0.092306
0.437014 0.437014 0.437014
0.568898 0.568898 0.568898
0.653582 0.653582 0.653582
0.718848 0.718848 0.718848
0.767645 0.767645 0.767645
0.809792 0.809792 0.809792
0.841418 0.841418 0.841418
0.869116 0.869116 0.869116
0.092306 0.092306 0.092306
0.474927 0.474927 0.474927
0.612236 0.612236 0.612236
0.703371 0.703371 0.703371
0.765698 0.765698 0.765698
0.816893 0.816893 0.816893
0.853829 0.853829 0.853829
0.883593 0.883593 0.883593
0.905407 0.905407 0.905407
0.092306 0.092306 0.092306
0.508333 0.508333 0.508333
0.650086 0.650086 0.650086
0.740780 0.740780 0.740780
0.806081 0.806081 0.806081
0.852371 0.852371 0.852371
0.887008 0.887008 0.887008
0.912337 0.912337 0.912337
0.932186 0.932186 0.932186
0.092306 0.092306 0.092306
0.538404 0.538404 0.538404
0.683907 0.683907 0.683907
0.773795 0.773795 0.773795
0.837015 0.837015 0.837015
0.881496 0.881496 0.881496
0.911344 0.911344 0.911344
0.933826 0.933826 0.933826
0.948897 0.948897 0.948897
0.092306 0.092306 0.092306
0.563705 0.563705 0.563705
0.713202 0.713202 0.713202
0.803458 0.803458 0.803458
0.863486 0.863486 0.863486
0.902408 0.902408 0.902408
0.930944 0.930944 0.930944
0.948310 0.948310 0.948310
0.961544 0.961544 0.961544
