trix_classic/TriX_Orange21_Normal.cube
TITLE "Tri-X Orange21 Normal"
# Adobe RGB in/out. REPLACES AgX. R=0.7239 G=0.2761 B=0.0000
LUT_3D_SIZE 33
DOMAIN_MIN 0.0 0.0 0.0
DOMAIN_MAX 1.0 1.0 1.0
0.093230 0.093230 0.093230
0.093230 0.093230 0.093230
0.093230 0.093230 0.093230
0.093230 0.093230 0.093230
0.093230 0.093230 0.093230
0.093230 0.093230 0.093230
0.093230 0.093230 0.093230
0.093230 0.093230 0.093230
0.093230 0.093230 0.093230
0.093230 0.093230 0.093230
0.093230 0.093230 0.093230
0.093230 0.093230 0.093230
0.093230 0.093230 0.093230
0.093230 0.093230 0.093230
0.093230 0.093230 0.093230
0.093230 0.093230 0.093230
0.093230 0.093230 0.093230
0.093230 0.093230 0.093230
0.093230 0.093230 0.093230
0.093230 0.093230 0.093230
0.093230 0.093230 0.093230
0.093230 0.093230 0.093230
0.093230 0.093230 0.093230
0.093230 0.093230 0.093230
0.093230 0.093230 0.093230
0.093230 0.093230 0.093230
0.093230 0.093230 0.093230
0.093230 0.093230 0.093230
0.093230 0.093230 0.093230
0.093230 0.093230 0.093230
0.093230 0.093230 0.093230
0.093230 0.093230 0.093230
0.093230 0.093230 0.093230
0.093230 0.093230 0.093230
0.093230 0.093230 0.093230
0.093240 0.093240 0.093240
0.093271 0.093271 0.093271
0.093531 0.093531 0.093531
0.093938 0.093938 0.093938
0.095337 0.095337 0.095337
0.097691 0.097691 0.097691
0.100691 0.100691 0.100691
0.105238 0.105238 0.105238
0.112079 0.112079 0.112079
0.120372 0.120372 0.120372
0.131219 0.131219 0.131219
0.142735 0.142735 0.142735
0.154832 0.154832 0.154832
0.167130 0.167130 0.167130
0.180854 0.180854 0.180854
0.194887 0.194887 0.194887
0.208681 0.208681 0.208681
0.222174 0.222174 0.222174
0.235780 0.235780 0.235780
0.249495 0.249495 0.249495
0.263314 0.263314 0.263314
0.275434 0.275434 0.275434
0.285584 0.285584 0.285584
0.295946 0.295946 0.295946
0.306255 0.306255 0.306255
0.316514 0.316514 0.316514
0.326725 0.326725 0.326725
0.336890 0.336890 0.336890
0.347341 0.347341 0.347341
0.357932 0.357932 0.357932
0.368495 0.368495 0.368495
0.093230 0.093230 0.093230
0.093230 0.093230 0.093230
0.093259 0.093259 0.093259
0.093504 0.093504 0.093504
0.094127 0.094127 0.094127
0.096173 0.096173 0.096173
0.100160 0.100160 0.100160
0.105813 0.105813 0.105813
0.115393 0.115393 0.115393
0.128216 0.128216 0.128216
0.143044 0.143044 0.143044
0.158822 0.158822 0.158822
0.175724 0.175724 0.175724
0.193946 0.193946 0.193946
0.211854 0.211854 0.211854
0.229488 0.229488 0.229488
0.247309 0.247309 0.247309
0.265307 0.265307 0.265307
0.279932 0.279932 0.279932
0.293348 0.293348 0.293348
0.306784 0.306784 0.306784
0.320134 0.320134 0.320134
0.333404 0.333404 0.333404
0.346908 0.346908 0.346908
0.360699 0.360699 0.360699
0.374442 0.374442 0.374442
0.388139 0.388139 0.388139
0.401792 0.401792 0.401792
0.415402 0.415402 0.415402
0.428626 0.428626 0.428626
0.441259 0.441259 0.441259
0.453833 0.453833 0.453833
0.466348 0.466348 0.466348
0.093230 0.093230 0.093230
0.093230 0.093230 0.093230
0.093272 0.093272 0.093272
0.093763 0.093763 0.093763
0.095465 0.095465 0.095465
0.099534 0.099534 0.099534
0.105834 0.105834 0.105834
0.117129 0.117129 0.117129
0.132987 0.132987 0.132987
0.150994 0.150994 0.150994
0.169827 0.169827 0.169827
0.190998 0.190998 0.190998
0.211972 0.211972 0.211972
0.232574 0.232574 0.232574
0.253429 0.253429 0.253429
0.273474 0.273474 0.273474
0.288970 0.288970 0.288970
0.304677 0.304677 0.304677
0.320267 0.320267 0.320267
0.335748 0.335748 0.335748
0.351664 0.351664 0.351664
0.367737 0.367737 0.367737
0.383746 0.383746 0.383746
0.399694 0.399694 0.399694
0.415584 0.415584 0.415584
0.430912 0.430912 0.430912
0.445640 0.445640 0.445640
0.460286 0.460286 0.460286
0.474855 0.474855 0.474855
0.489350 0.489350 0.489350
0.503773 0.503773 0.503773
0.518078 0.518078 0.518078
0.531771 0.531771 0.531771
0.093230 0.093230 0.093230
0.093231 0.093231 0.093231
0.093340 0.093340 0.093340
0.093981 0.093981 0.093981
0.097009 0.097009 0.097009
0.102758 0.102758 0.102758
0.113503 0.113503 0.113503
0.129883 0.129883 0.129883
0.149662 0.149662 0.149662
0.170740 0.170740 0.170740
0.194419 0.194419 0.194419
0.217622 0.217622 0.217622
0.240709 0.240709 0.240709
0.264103 0.264103 0.264103
0.283023 0.283023 0.283023
0.300595 0.300595 0.300595
0.318018 0.318018 0.318018
0.335304 0.335304 0.335304
0.353068 0.353068 0.353068
0.370994 0.370994 0.370994
0.388842 0.388842 0.388842
0.406614 0.406614 0.406614
0.424272 0.424272 0.424272
0.440744 0.440744 0.440744
0.457113 0.457113 0.457113
0.473385 0.473385 0.473385
0.489564 0.489564 0.489564
0.505655 0.505655 0.505655
0.521464 0.521464 0.521464
0.536719 0.536719 0.536719
0.551880 0.551880 0.551880
0.566952 0.566952 0.566952
0.581937 0.581937 0.581937
0.093230 0.093230 0.093230
0.093236 0.093236 0.093236
0.093438 0.093438 0.093438
0.094655 0.094655 0.094655
0.098897 0.098897 0.098897
0.106388 0.106388 0.106388
0.121287 0.121287 0.121287
0.141912 0.141912 0.141912
0.164317 0.164317 0.164317
0.189623 0.189623 0.189623
0.215061 0.215061 0.215061
0.240175 0.240175 0.240175
0.265655 0.265655 0.265655
0.285752 0.285752 0.285752
0.304851 0.304851 0.304851
0.323778 0.323778 0.323778
0.342654 0.342654 0.342654
0.362221 0.362221 0.362221
0.381691 0.381691 0.381691
0.401071 0.401071 0.401071
0.420365 0.420365 0.420365
0.438531 0.438531 0.438531
0.456365 0.456365 0.456365
0.474082 0.474082 0.474082
0.491690 0.491690 0.491690
0.509192 0.509192 0.509192
0.526194 0.526194 0.526194
0.542768 0.542768 0.542768
0.559232 0.559232 0.559232
0.575592 0.575592 0.575592
0.591852 0.591852 0.591852
0.608015 0.608015 0.608015
0.624085 0.624085 0.624085
0.093230 0.093230 0.093230
0.093240 0.093240 0.093240
0.093519 0.093519 0.093519
0.095252 0.095252 0.095252
0.100467 0.100467 0.100467
0.111301 0.111301 0.111301
0.129944 0.129944 0.129944
0.153168 0.153168 0.153168
0.178673 0.178673 0.178673
0.206315 0.206315 0.206315
0.233107 0.233107 0.233107
0.260328 0.260328 0.260328
0.283141 0.283141 0.283141
0.303635 0.303635 0.303635
0.323930 0.323930 0.323930
0.344224 0.344224 0.344224
0.365188 0.365188 0.365188
0.386041 0.386041 0.386041
0.406792 0.406792 0.406792
0.427200 0.427200 0.427200
0.446394 0.446394 0.446394
0.465452 0.465452 0.465452
0.484380 0.484380 0.484380
0.503185 0.503185 0.503185
0.521668 0.521668 0.521668
0.539464 0.539464 0.539464
0.557133 0.557133 0.557133
0.574681 0.574681 0.574681
0.592113 0.592113 0.592113
0.609435 0.609435 0.609435
0.626650 0.626650 0.626650
0.643764 0.643764 0.643764
0.660779 0.660779 0.660779
0.093230 0.093230 0.093230
0.093244 0.093244 0.093244
0.093615 0.093615 0.093615
0.095830 0.095830 0.095830
0.102362 0.102362 0.102362
0.116028 0.116028 0.116028
0.137945 0.137945 0.137945
0.163379 0.163379 0.163379
0.192101 0.192101 0.192101
0.220859 0.220859 0.220859
0.249540 0.249540 0.249540
0.276480 0.276480 0.276480
0.298052 0.298052 0.298052
0.319626 0.319626 0.319626
0.341021 0.341021 0.341021
0.363269 0.363269 0.363269
0.385392 0.385392 0.385392
0.407399 0.407399 0.407399
0.428931 0.428931 0.428931
0.449270 0.449270 0.449270
0.469456 0.469456 0.469456
0.489498 0.489498 0.489498
0.509404 0.509404 0.509404
0.528671 0.528671 0.528671
0.547486 0.547486 0.547486
0.566162 0.566162 0.566162
0.584706 0.584706 0.584706
0.603122 0.603122 0.603122
0.621417 0.621417 0.621417
0.639596 0.639596 0.639596
0.657664 0.657664 0.657664
0.674643 0.674643 0.674643
0.690109 0.690109 0.690109
0.093230 0.093230 0.093230
0.093247 0.093247 0.093247
0.093707 0.093707 0.093707
0.096498 0.096498 0.096498
0.104453 0.104453 0.104453
0.120917 0.120917 0.120917
0.145875 0.145875 0.145875
0.173503 0.173503 0.173503
0.204394 0.204394 0.204394
0.234285 0.234285 0.234285
0.264709 0.264709 0.264709
0.288808 0.288808 0.288808
0.311603 0.311603 0.311603
0.334157 0.334157 0.334157
0.357306 0.357306 0.357306
0.380616 0.380616 0.380616
0.403795 0.403795 0.403795
0.426646 0.426646 0.426646
0.448061 0.448061 0.448061
0.469307 0.469307 0.469307
0.490393 0.490393 0.490393
0.511329 0.511329 0.511329
0.531490 0.531490 0.531490
0.551262 0.551262 0.551262
0.570881 0.570881 0.570881
0.590355 0.590355 0.590355
0.609691 0.609691 0.609691
0.628894 0.628894 0.628894
0.647971 0.647971 0.647971
0.666927 0.666927 0.666927
0.683433 0.683433 0.683433
0.699620 0.699620 0.699620
0.715659 0.715659 0.715659
0.093230 0.093230 0.093230
0.093250 0.093250 0.093250
0.093788 0.093788 0.093788
0.097484 0.097484 0.097484
0.106433 0.106433 0.106433
0.126425 0.126425 0.126425
0.153249 0.153249 0.153249
0.183381 0.183381 0.183381
0.215315 0.215315 0.215315
0.246802 0.246802 0.246802
0.276604 0.276604 0.276604
0.300359 0.300359 0.300359
0.324065 0.324065 0.324065
0.347878 0.347878 0.347878
0.372314 0.372314 0.372314
0.396603 0.396603 0.396603
0.420756 0.420756 0.420756
0.443386 0.443386 0.443386
0.465642 0.465642 0.465642
0.487722 0.487722 0.487722
0.509636 0.509636 0.509636
0.530791 0.530791 0.530791
0.551473 0.551473 0.551473
0.571989 0.571989 0.571989
0.592346 0.592346 0.592346
0.612552 0.612552 0.612552
0.632614 0.632614 0.632614
0.652540 0.652540 0.652540
0.671788 0.671788 0.671788
0.688829 0.688829 0.688829
0.705704 0.705704 0.705704
0.722418 0.722418 0.722418
0.738979 0.738979 0.738979
0.093230 0.093230 0.093230
0.093253 0.093253 0.093253
0.093860 0.093860 0.093860
0.098376 0.098376 0.098376
0.109093 0.109093 0.109093
0.131564 0.131564 0.131564
0.160159 0.160159 0.160159
0.192692 0.192692 0.192692
0.225577 0.225577 0.225577
0.258566 0.258566 0.258566
0.286245 0.286245 0.286245
0.311083 0.311083 0.311083
0.335635 0.335635 0.335635
0.360921 0.360921 0.360921
0.386272 0.386272 0.386272
0.411472 0.411472 0.411472
0.435687 0.435687 0.435687
0.458917 0.458917 0.458917
0.481953 0.481953 0.481953
0.504806 0.504806 0.504806
0.527049 0.527049 0.527049
0.548608 0.548608 0.548608
0.569985 0.569985 0.569985
0.591189 0.591189 0.591189
0.612229 0.612229 0.612229
0.633114 0.633114 0.633114
0.653850 0.653850 0.653850
0.673619 0.673619 0.673619
0.691337 0.691337 0.691337
0.708874 0.708874 0.708874
0.726240 0.726240 0.726240
0.743441 0.743441 0.743441
0.760471 0.760471 0.760471
0.093230 0.093230 0.093230
0.093256 0.093256 0.093256
0.093933 0.093933 0.093933
0.099189 0.099189 0.099189
0.111934 0.111934 0.111934
0.136446 0.136446 0.136446
0.166779 0.166779 0.166779
0.201522 0.201522 0.201522
0.235281 0.235281 0.235281
0.269689 0.269689 0.269689
0.295474 0.295474 0.295474
0.321113 0.321113 0.321113
0.346760 0.346760 0.346760
0.373140 0.373140 0.373140
0.399350 0.399350 0.399350
0.425289 0.425289 0.425289
0.449470 0.449470 0.449470
0.473435 0.473435 0.473435
0.497199 0.497199 0.497199
0.520616 0.520616 0.520616
0.543027 0.543027 0.543027
0.565240 0.565240 0.565240
0.587265 0.587265 0.587265
0.609112 0.609112 0.609112
0.630790 0.630790 0.630790
0.652308 0.652308 0.652308
0.672949 0.672949 0.672949
0.691327 0.691327 0.691327
0.709510 0.709510 0.709510
0.727509 0.727509 0.727509
0.745331 0.745331 0.745331
0.762833 0.762833 0.762833
0.779148 0.779148 0.779148
0.093230 0.093230 0.093230
0.093258 0.093258 0.093258
0.094043 0.094043 0.094043
0.099937 0.099937 0.099937
0.114593 0.114593 0.114593
0.141508 0.141508 0.141508
0.173606 0.173606 0.173606
0.209452 0.209452 0.209452
0.244504 0.244504 0.244504
0.277620 0.277620 0.277620
0.304159 0.304159 0.304159
0.330552 0.330552 0.330552
0.357462 0.357462 0.357462
0.384656 0.384656 0.384656
0.411675 0.411675 0.411675
0.437554 0.437554 0.437554
0.462433 0.462433 0.462433
0.487089 0.487089 0.487089
0.511539 0.511539 0.511539
0.535006 0.535006 0.535006
0.558037 0.558037 0.558037
0.580864 0.580864 0.580864
0.603498 0.603498 0.603498
0.625949 0.625949 0.625949
0.648226 0.648226 0.648226
0.670055 0.670055 0.670055
0.689081 0.689081 0.689081
0.707899 0.707899 0.707899
0.726519 0.726519 0.726519
0.744949 0.744949 0.744949
0.763035 0.763035 0.763035
0.779699 0.779699 0.779699
0.792001 0.792001 0.792001
0.093230 0.093230 0.093230
0.093261 0.093261 0.093261
0.094304 0.094304 0.094304
0.100631 0.100631 0.100631
0.117094 0.117094 0.117094
0.146330 0.146330 0.146330
0.180262 0.180262 0.180262
0.216994 0.216994 0.216994
0.253308 0.253308 0.253308
0.284922 0.284922 0.284922
0.312374 0.312374 0.312374
0.339479 0.339479 0.339479
0.367598 0.367598 0.367598
0.395563 0.395563 0.395563
0.423348 0.423348 0.423348
0.449150 0.449150 0.449150
0.474687 0.474687 0.474687
0.499997 0.499997 0.499997
0.524756 0.524756 0.524756
0.548595 0.548595 0.548595
0.572211 0.572211 0.572211
0.595618 0.595618 0.595618
0.618826 0.618826 0.618826
0.641847 0.641847 0.641847
0.664691 0.664691 0.664691
0.684817 0.684817 0.684817
0.704262 0.704262 0.704262
0.723495 0.723495 0.723495
0.742525 0.742525 0.742525
0.761300 0.761300 0.761300
0.778829 0.778829 0.778829
0.791524 0.791524 0.791524
0.804013 0.804013 0.804013
0.093230 0.093230 0.093230
0.093263 0.093263 0.093263
0.094545 0.094545 0.094545
0.101420 0.101420 0.101420
0.119756 0.119756 0.119756
0.150941 0.150941 0.150941
0.186653 0.186653 0.186653
0.224218 0.224218 0.224218
0.261741 0.261741 0.261741
0.292040 0.292040 0.292040
0.320178 0.320178 0.320178
0.348339 0.348339 0.348339
0.377239 0.377239 0.377239
0.405937 0.405937 0.405937
0.433745 0.433745 0.433745
0.460159 0.460159 0.460159
0.486323 0.486323 0.486323
0.512253 0.512253 0.512253
0.537085 0.537085 0.537085
0.561484 0.561484 0.561484
0.585655 0.585655 0.585655
0.609612 0.609612 0.609612
0.633365 0.633365 0.633365
0.656927 0.656927 0.656927
0.678704 0.678704 0.678704
0.698774 0.698774 0.698774
0.718616 0.718616 0.718616
0.738240 0.738240 0.738240
0.757658 0.757658 0.757658
0.775949 0.775949 0.775949
0.789758 0.789758 0.789758
0.802632 0.802632 0.802632
0.815296 0.815296 0.815296
0.093230 0.093230 0.093230
0.093265 0.093265 0.093265
0.094770 0.094770 0.094770
0.102483 0.102483 0.102483
0.122922 0.122922 0.122922
0.155364 0.155364 0.155364
0.192806 0.192806 0.192806
0.231160 0.231160 0.231160
0.269845 0.269845 0.269845
0.298826 0.298826 0.298826
0.327618 0.327618 0.327618
0.356836 0.356836 0.356836
0.386441 0.386441 0.386441
0.415840 0.415840 0.415840
0.443634 0.443634 0.443634
0.470651 0.470651 0.470651
0.497411 0.497411 0.497411
0.523643 0.523643 0.523643
0.548823 0.548823 0.548823
0.573755 0.573755 0.573755
0.598455 0.598455 0.598455
0.622935 0.622935 0.622935
0.647208 0.647208 0.647208
0.670876 0.670876 0.670876
0.691572 0.691572 0.691572
0.712023 0.712023 0.712023
0.732241 0.732241 0.732241
0.752238 0.752238 0.752238
0.771368 0.771368 0.771368
0.786808 0.786808 0.786808
0.800071 0.800071 0.800071
0.813113 0.813113 0.813113
0.825943 0.825943 0.825943
0.093230 0.093230 0.093230
0.093267 0.093267 0.093267
0.094982 0.094982 0.094982
0.103487 0.103487 0.103487
0.125959 0.125959 0.125959
0.159619 0.159619 0.159619
0.198745 0.198745 0.198745
0.237848 0.237848 0.237848
0.275737 0.275737 0.275737
0.305317 0.305317 0.305317
0.334734 0.334734 0.334734
0.364973 0.364973 0.364973
0.395253 0.395253 0.395253
0.425213 0.425213 0.425213
0.453090 0.453090 0.453090
0.480682 0.480682 0.480682
0.508013 0.508013 0.508013
0.534341 0.534341 0.534341
0.560036 0.560036 0.560036
0.585477 0.585477 0.585477
0.610681 0.610681 0.610681
0.635661 0.635661 0.635661
0.660430 0.660430 0.660430
0.682768 0.682768 0.682768
0.703831 0.703831 0.703831
0.724645 0.724645 0.724645
0.745221 0.745221 0.745221
0.765277 0.765277 0.765277
0.782753 0.782753 0.782753
0.796415 0.796415 0.796415
0.809841 0.809841 0.809841
0.823041 0.823041 0.823041
0.836028 0.836028 0.836028
0.093230 0.093230 0.093230
0.093269 0.093269 0.093269
0.095180 0.095180 0.095180
0.104443 0.104443 0.104443
0.128880 0.128880 0.128880
0.163722 0.163722 0.163722
0.204341 0.204341 0.204341
0.244306 0.244306 0.244306
0.281163 0.281163 0.281163
0.311542 0.311542 0.311542
0.341619 0.341619 0.341619
0.372784 0.372784 0.372784
0.403713 0.403713 0.403713
0.433721 0.433721 0.433721
0.462155 0.462155 0.462155
0.490300 0.490300 0.490300
0.518125 0.518125 0.518125
0.544589 0.544589 0.544589
0.570777 0.570777 0.570777
0.596706 0.596706 0.596706
0.622394 0.622394 0.622394
0.647853 0.647853 0.647853
0.672449 0.672449 0.672449
0.694131 0.694131 0.694131
0.715545 0.715545 0.715545
0.736704 0.736704 0.736704
0.757623 0.757623 0.757623
0.777302 0.777302 0.777302
0.791728 0.791728 0.791728
0.805547 0.805547 0.805547
0.819126 0.819126 0.819126
0.832478 0.832478 0.832478
0.845613 0.845613 0.845613
0.093230 0.093230 0.093230
0.093271 0.093271 0.093271
0.095368 0.095368 0.095368
0.105399 0.105399 0.105399
0.131696 0.131696 0.131696
0.167836 0.167836 0.167836
0.209568 0.209568 0.209568
0.250556 0.250556 0.250556
0.286498 0.286498 0.286498
0.317528 0.317528 0.317528
0.348508 0.348508 0.348508
0.380303 0.380303 0.380303
0.411855 0.411855 0.411855
0.441898 0.441898 0.441898
0.470868 0.470868 0.470868
0.499543 0.499543 0.499543
0.527489 0.527489 0.527489
0.554431 0.554431 0.554431
0.581092 0.581092 0.581092
0.607490 0.607490 0.607490
0.633642 0.633642 0.633642
0.659561 0.659561 0.659561
0.682995 0.682995 0.682995
0.705017 0.705017 0.705017
0.726767 0.726767 0.726767
0.748258 0.748258 0.748258
0.768990 0.768990 0.768990
0.786060 0.786060 0.786060
0.800284 0.800284 0.800284
0.814252 0.814252 0.814252
0.827978 0.827978 0.827978
0.841474 0.841474 0.841474
0.854752 0.854752 0.854752
0.093230 0.093230 0.093230
0.093273 0.093273 0.093273
0.095576 0.095576 0.095576
0.106312 0.106312 0.106312
0.134416 0.134416 0.134416
0.172098 0.172098 0.172098
0.214636 0.214636 0.214636
0.256614 0.256614 0.256614
0.291703 0.291703 0.291703
0.323296 0.323296 0.323296
0.355153 0.355153 0.355153
0.387554 0.387554 0.387554
0.419708 0.419708 0.419708
0.449774 0.449774 0.449774
0.479261 0.479261 0.479261
0.508447 0.508447 0.508447
0.536502 0.536502 0.536502
0.563905 0.563905 0.563905
0.591021 0.591021 0.591021
0.617871 0.617871 0.617871
0.644469 0.644469 0.644469
0.670482 0.670482 0.670482
0.693123 0.693123 0.693123
0.715472 0.715472 0.715472
0.737544 0.737544 0.737544
0.759354 0.759354 0.759354
0.779452 0.779452 0.779452
0.794093 0.794093 0.794093
0.808462 0.808462 0.808462
0.822573 0.822573 0.822573
0.836439 0.836439 0.836439
0.850074 0.850074 0.850074
0.863487 0.863487 0.863487
0.093230 0.093230 0.093230
0.093274 0.093274 0.093274
0.095778 0.095778 0.095778
0.107306 0.107306 0.107306
0.137174 0.137174 0.137174
0.176299 0.176299 0.176299
0.219557 0.219557 0.219557
0.262498 0.262498 0.262498
0.296727 0.296727 0.296727
0.328864 0.328864 0.328864
0.361574 0.361574 0.361574
0.394561 0.394561 0.394561
0.427059 0.427059 0.427059
0.457377 0.457377 0.457377
0.487362 0.487362 0.487362
0.517034 0.517034 0.517034
0.545195 0.545195 0.545195
0.573042 0.573042 0.573042
0.600598 0.600598 0.600598
0.627882 0.627882 0.627882
0.654911 0.654911 0.654911
0.679911 0.679911 0.679911
0.702871 0.702871 0.702871
0.725533 0.725533 0.725533
0.747916 0.747916 0.747916
0.769488 0.769488 0.769488
0.787006 0.787006 0.787006
0.801790 0.801790 0.801790
0.816298 0.816298 0.816298
0.830546 0.830546 0.830546
0.844547 0.844547 0.844547
0.858313 0.858313 0.858313
0.871856 0.871856 0.871856
0.093230 0.093230 0.093230
0.093276 0.093276 0.093276
0.095970 0.095970 0.095970
0.108728 0.108728 0.108728
0.140004 0.140004 0.140004
0.180389 0.180389 0.180389
0.224342 0.224342 0.224342
0.268219 0.268219 0.268219
0.301587 0.301587 0.301587
0.334250 0.334250 0.334250
0.367790 0.367790 0.367790
0.401343 0.401343 0.401343
0.433922 0.433922 0.433922
0.464727 0.464727 0.464727
0.495194 0.495194 0.495194
0.525002 0.525002 0.525002
0.553594 0.553594 0.553594
0.581870 0.581870 0.581870
0.609851 0.609851 0.609851
0.637556 0.637556 0.637556
0.665001 0.665001 0.665001
0.689003 0.689003 0.689003
0.712269 0.712269 0.712269
0.735235 0.735235 0.735235
0.757917 0.757917 0.757917
0.779047 0.779047 0.779047
0.794260 0.794260 0.794260
0.809180 0.809180 0.809180
0.823822 0.823822 0.823822
0.838201 0.838201 0.838201
0.852331 0.852331 0.852331
0.866224 0.866224 0.866224
0.879771 0.879771 0.879771
0.093230 0.093230 0.093230
0.093290 0.093290 0.093290
0.096154 0.096154 0.096154
0.110101 0.110101 0.110101
0.142758 0.142758 0.142758
0.184377 0.184377 0.184377
0.229002 0.229002 0.229002
0.272943 0.272943 0.272943
0.306294 0.306294 0.306294
0.339468 0.339468 0.339468
0.373816 0.373816 0.373816
0.407919 0.407919 0.407919
0.440569 0.440569 0.440569
0.471845 0.471845 0.471845
0.502779 0.502779 0.502779
0.532711 0.532711 0.532711
0.561724 0.561724 0.561724
0.590415 0.590415 0.590415
0.618806 0.618806 0.618806
0.646918 0.646918 0.646918
0.673899 0.673899 0.673899
0.697785 0.697785 0.697785
0.721348 0.721348 0.721348
0.744606 0.744606 0.744606
0.767169 0.767169 0.767169
0.785892 0.785892 0.785892
0.801239 0.801239 0.801239
0.816290 0.816290 0.816290
0.831060 0.831060 0.831060
0.845566 0.845566 0.845566
0.859820 0.859820 0.859820
0.873835 0.873835 0.873835
0.885424 0.885424 0.885424
0.093230 0.093230 0.093230
0.093309 0.093309 0.093309
0.096438 0.096438 0.096438
0.111429 0.111429 0.111429
0.145439 0.145439 0.145439
0.188270 0.188270 0.188270
0.233545 0.233545 0.233545
0.276870 0.276870 0.276870
0.310861 0.310861 0.310861
0.344736 0.344736 0.344736
0.379666 0.379666 0.379666
0.414302 0.414302 0.414302
0.447015 0.447015 0.447015
0.478749 0.478749 0.478749
0.510135 0.510135 0.510135
0.540183 0.540183 0.540183
0.569603 0.569603 0.569603
0.598696 0.598696 0.598696
0.627486 0.627486 0.627486
0.655992 0.655992 0.655992
0.682104 0.682104 0.682104
0.706281 0.706281 0.706281
0.730131 0.730131 0.730131
0.753672 0.753672 0.753672
0.775990 0.775990 0.775990
0.792489 0.792489 0.792489
0.807965 0.807965 0.807965
0.823142 0.823142 0.823142
0.838036 0.838036 0.838036
0.852664 0.852664 0.852664
0.867037 0.867037 0.867037
0.880707 0.880707 0.880707
0.890858 0.890858 0.890858
0.093230 0.093230 0.093230
0.093328 0.093328 0.093328
0.096793 0.096793 0.096793
0.112716 0.112716 0.112716
0.148054 0.148054 0.148054
0.192075 0.192075 0.192075
0.237979 0.237979 0.237979
0.280684 0.280684 0.280684
0.315298 0.315298 0.315298
0.349900 0.349900 0.349900
0.385352 0.385352 0.385352
0.420508 0.420508 0.420508
0.453275 0.453275 0.453275
0.485454 0.485454 0.485454
0.517263 0.517263 0.517263
0.547436 0.547436 0.547436
0.577250 0.577250 0.577250
0.606735 0.606735 0.606735
0.635911 0.635911 0.635911
0.664799 0.664799 0.664799
0.690053 0.690053 0.690053
0.714512 0.714512 0.714512
0.738640 0.738640 0.738640
0.762333 0.762333 0.762333
0.782937 0.782937 0.782937
0.798857 0.798857 0.798857
0.814457 0.814457 0.814457
0.829756 0.829756 0.829756
0.844770 0.844770 0.844770
0.859515 0.859515 0.859515
0.874005 0.874005 0.874005
0.885882 0.885882 0.885882
0.896093 0.896093 0.896093
0.093230 0.093230 0.093230
0.093346 0.093346 0.093346
0.097135 0.097135 0.097135
0.113964 0.113964 0.113964
0.150606 0.150606 0.150606
0.195796 0.195796 0.195796
0.242311 0.242311 0.242311
0.284442 0.284442 0.284442
0.319612 0.319612 0.319612
0.354925 0.354925 0.354925
0.390887 0.390887 0.390887
0.426360 0.426360 0.426360
0.459362 0.459362 0.459362
0.491973 0.491973 0.491973
0.523924 0.523924 0.523924
0.554484 0.554484 0.554484
0.584682 0.584682 0.584682
0.614546 0.614546 0.614546
0.644098 0.644098 0.644098
0.672676 0.672676 0.672676
0.697765 0.697765 0.697765
0.722497 0.722497 0.722497
0.746895 0.746895 0.746895
0.770379 0.770379 0.770379
0.788971 0.788971 0.788971
0.805013 0.805013 0.805013
0.820734 0.820734 0.820734
0.836150 0.836150 0.836150
0.851280 0.851280 0.851280
0.866139 0.866139 0.866139
0.880392 0.880392 0.880392
0.890874 0.890874 0.890874
0.901143 0.901143 0.901143
0.093230 0.093230 0.093230
0.093364 0.093364 0.093364
0.097465 0.097465 0.097465
0.115177 0.115177 0.115177
0.153099 0.153099 0.153099
0.199440 0.199440 0.199440
0.246548 0.246548 0.246548
0.288180 0.288180 0.288180
0.323814 0.323814 0.323814
0.359822 0.359822 0.359822
0.396279 0.396279 0.396279
0.431859 0.431859 0.431859
0.465287 0.465287 0.465287
0.498319 0.498319 0.498319
0.530402 0.530402 0.530402
0.561340 0.561340 0.561340
0.591912 0.591912 0.591912
0.622145 0.622145 0.622145
0.652063 0.652063 0.652063
0.679898 0.679898 0.679898
0.705256 0.705256 0.705256
0.730253 0.730253 0.730253
0.754913 0.754913 0.754913
0.778189 0.778189 0.778189
0.794811 0.794811 0.794811
