trix_classic/TriX_Red25_Punchy.cube
TITLE "Tri-X Red25 Punchy"
# Adobe RGB in/out. REPLACES AgX. R=0.9735 G=0.0265 B=0.0000
LUT_3D_SIZE 5
DOMAIN_MIN 0.0 0.0 0.0
DOMAIN_MAX 1.0 1.0 1.0
0.092306 0.092306 0.092306
0.092306 0.092306 0.092306
0.092306 0.092306 0.092306
0.092306 0.092306 0.092306
0.092306 0.092306 0.092306
0.092306 0.092306 0.092306
0.160896 0.160896 0.160896
0.501190 0.501190 0.501190
0.783830 0.783830 0.783830
0.949449 0.949449 0.949449
0.092306 0.092306 0.092306
0.166069 0.166069 0.166069
0.513339 0.513339 0.513339
0.798145 0.798145 0.798145
0.956506 0.956506 0.956506
0.092306 0.092306 0.092306
0.169172 0.169172 0.169172
0.520582 0.520582 0.520582
0.806640 0.806640 0.806640
0.959498 0.959498 0.959498
0.092306 0.092306 0.092306
0.171409 0.171409 0.171409
0.525783 0.525783 0.525783
0.812722 0.812722 0.812722
0.961544 0.961544 0.961544
0.092306 0.092306 0.092306
0.092306 0.092306 0.092306
0.092306 0.092306 0.092306
0.092306 0.092306 0.092306
0.092306 0.092306 0.092306
0.092306 0.092306 0.092306
0.160896 0.160896 0.160896
0.501190 0.501190 0.501190
0.783830 0.783830 0.783830
0.949449 0.949449 0.949449
0.092306 0.092306 0.092306
0.166069 0.166069 0.166069
0.513339 0.513339 0.513339
0.798145 0.798145 0.798145
0.956506 0.956506 0.956506
0.092306 0.092306 0.092306
0.169172 0.169172 0.169172
0.520582 0.520582 0.520582
0.806640 0.806640 0.806640
0.959498 0.959498 0.959498
0.092306 0.092306 0.092306
0.171409 0.171409 0.171409
0.525783 0.525783 0.525783
0.812722 0.812722 0.812722
0.961544 0.961544 0.961544
0.092306 0.092306 0.092306
0.092306 0.092306 0.092306
0.092306 0.092306 0.092306
0.092306 0.092306 0.092306
0.092306 0.092306 0.092306
0.092306 0.092306 0.092306
0.160896 0.160896 0.160896
0.501190 0.501190 0.501190
0.783830 0.783830 0.783830
0.949449 0.949449 0.949449
0.092306 0.092306 0.092306
0.166069 0.166069 0.166069
0.513339 0.513339 0.513339
0.798145 0.798145 0.798145
0.956506 0.956506 0.956506
0.092306 0.092306 0.092306
0.169172 0.169172 0.169172
0.520582 0.520582 0.520582
0.806640 0.806640 0.806640
0.959498 0.959498 0.959498
0.092306 0.092306 0.092306
0.171409 0.171409 0.171409
0.525783 0.525783 0.525783
0.812722 0.812722 0.812722
0.961544 0.961544 0.961544
0.092306 0.092306 0.092306
0.092306 0.092306 0.092306
0.092306 0.092306 0.092306
0.092306 0.092306 0.092306
0.092306 0.092306 0.092306
0.092306 0.092306 0.092306
0.160896 0.160896 0.160896
0.501190 0.501190 0.501190
0.783830 0.783830 0.783830
0.949449 0.949449 0.949449
0.092306 0.092306 0.092306
0.166069 0.166069 0.166069
0.513339 0.513339 0.513339
0.798145 0.798145 0.798145
0.956506 0.956506 0.956506
0.092306 0.092306 0.092306
0.169172 0.169172 0.169172
0.520582 0.520582 0.520582
0.806640 0.806640 0.806640
0.959498 0.959498 0.959498
0.092306 0.092306 0.092306
0.171409 0.171409 0.171409
0.525783 0.525783 0.525783
0.812722 0.812722 0.812722
0.961544 0.961544 0.961544
0.092306 0.092306 0.092306
0.092306 0.092306 0.092306
0.092306 0.092306 0.092306
0.092306 0.092306 0.092306
0.092306 0.092306 0.092306
0.092306 0.092306 0.092306
0.160896 0.160896 0.160896
0.501190 0.501190 0.501190
0.783830 0.783830 0.783830
0.949449 0.949449 0.949449
0.092306 0.092306 0.092306
0.166069 0.166069 0.166069
0.513339 0.513339 0.513339
0.798145 0.798145 0.798145
0.956506 0.956506 0.956506
0.092306 0.092306 0.092306
0.169172 0.169172 0.169172
0.520582 0.520582 0.520582
0.806640 0.806640 0.806640
0.959498 0.959498 0.959498
0.092306 0.092306 0.092306
0.171409 0.171409 0.171409
0.525783 0.525783 0.525783
0.812722 0.812722 0.812722
0.961544 0.961544 0.961544
