trix_classic/TriX_Red25_Hard.cube
TITLE "Tri-X Red25 Hard"
# Adobe RGB in/out. REPLACES AgX. Tri-X Red25 Hard.
LUT_3D_SIZE 5
DOMAIN_MIN 0.0 0.0 0.0
DOMAIN_MAX 1.0 1.0 1.0
0.093024 0.093024 0.093024
0.094977 0.094977 0.094977
0.639861 0.639861 0.639861
0.993035 0.993035 0.993035
0.997914 0.997914 0.997914
0.093024 0.093024 0.093024
0.094465 0.094465 0.094465
0.656197 0.656197 0.656197
0.990054 0.990054 0.990054
0.997914 0.997914 0.997914
0.093071 0.093071 0.093071
0.093399 0.093399 0.093399
0.337252 0.337252 0.337252
0.979665 0.979665 0.979665
0.997881 0.997881 0.997881
0.093108 0.093108 0.093108
0.093321 0.093321 0.093321
0.147711 0.147711 0.147711
0.946865 0.946865 0.946865
0.997582 0.997582 0.997582
0.093024 0.093024 0.093024
0.093024 0.093024 0.093024
0.093359 0.093359 0.093359
0.805720 0.805720 0.805720
0.997870 0.997870 0.997870
0.093024 0.093024 0.093024
0.093885 0.093885 0.093885
0.598961 0.598961 0.598961
0.992891 0.992891 0.992891
0.997914 0.997914 0.997914
0.093117 0.093117 0.093117
0.099130 0.099130 0.099130
0.597017 0.597017 0.597017
0.990663 0.990663 0.990663
0.997914 0.997914 0.997914
0.093308 0.093308 0.093308
0.095011 0.095011 0.095011
0.489328 0.489328 0.489328
0.982739 0.982739 0.982739
0.997878 0.997878 0.997878
0.093317 0.093317 0.093317
0.093868 0.093868 0.093868
0.243313 0.243313 0.243313
0.964824 0.964824 0.964824
0.997705 0.997705 0.997705
0.093024 0.093024 0.093024
0.093024 0.093024 0.093024
0.094146 0.094146 0.094146
0.853657 0.853657 0.853657
0.997884 0.997884 0.997884
0.093024 0.093024 0.093024
0.095512 0.095512 0.095512
0.551995 0.551995 0.551995
0.992058 0.992058 0.992058
0.997914 0.997914 0.997914
0.093201 0.093201 0.093201
0.097195 0.097195 0.097195
0.566312 0.566312 0.566312
0.989784 0.989784 0.989784
0.997914 0.997914 0.997914
0.093715 0.093715 0.093715
0.098721 0.098721 0.098721
0.588577 0.588577 0.588577
0.984282 0.984282 0.984282
0.997866 0.997866 0.997866
0.093960 0.093960 0.093960
0.097137 0.097137 0.097137
0.410981 0.410981 0.410981
0.975105 0.975105 0.975105
0.997804 0.997804 0.997804
0.093024 0.093024 0.093024
0.093024 0.093024 0.093024
0.104621 0.104621 0.104621
0.922376 0.922376 0.922376
0.997902 0.997902 0.997902
0.093059 0.093059 0.093059
0.094945 0.094945 0.094945
0.544321 0.544321 0.544321
0.990631 0.990631 0.990631
0.997914 0.997914 0.997914
0.093237 0.093237 0.093237
0.096480 0.096480 0.096480
0.563648 0.563648 0.563648
0.988969 0.988969 0.988969
0.997914 0.997914 0.997914
0.094142 0.094142 0.094142
0.100842 0.100842 0.100842
0.590826 0.590826 0.590826
0.984737 0.984737 0.984737
0.997857 0.997857 0.997857
0.095011 0.095011 0.095011
0.100745 0.100745 0.100745
0.485745 0.485745 0.485745
0.977336 0.977336 0.977336
0.997812 0.997812 0.997812
0.093024 0.093024 0.093024
0.093024 0.093024 0.093024
0.107428 0.107428 0.107428
0.932554 0.932554 0.932554
0.997908 0.997908 0.997908
0.093396 0.093396 0.093396
0.095030 0.095030 0.095030
0.756083 0.756083 0.756083
0.994163 0.994163 0.994163
0.997914 0.997914 0.997914
0.093926 0.093926 0.093926
0.098330 0.098330 0.098330
0.758364 0.758364 0.758364
0.993812 0.993812 0.993812
0.997914 0.997914 0.997914
0.099086 0.099086 0.099086
0.142004 0.142004 0.142004
0.760803 0.760803 0.760803
0.992583 0.992583 0.992583
0.997911 0.997911 0.997911
0.097094 0.097094 0.097094
0.124952 0.124952 0.124952
0.686435 0.686435 0.686435
0.987918 0.987918 0.987918
0.997903 0.997903 0.997903
0.093024 0.093024 0.093024
0.093024 0.093024 0.093024
0.093285 0.093285 0.093285
0.892525 0.892525 0.892525
0.997914 0.997914 0.997914
