trix_classic/TriX_Orange21_ExtraSoft.cube
TITLE "Tri-X Orange21 ExtraSoft"
# Adobe RGB in/out. REPLACES AgX. R=0.7239 G=0.2761 B=0.0000
LUT_3D_SIZE 9
DOMAIN_MIN 0.0 0.0 0.0
DOMAIN_MAX 1.0 1.0 1.0
0.121260 0.121260 0.121260
0.121260 0.121260 0.121260
0.121260 0.121260 0.121260
0.121260 0.121260 0.121260
0.121260 0.121260 0.121260
0.121260 0.121260 0.121260
0.121260 0.121260 0.121260
0.121260 0.121260 0.121260
0.121260 0.121260 0.121260
0.121260 0.121260 0.121260
0.146378 0.146378 0.146378
0.220877 0.220877 0.220877
0.288093 0.288093 0.288093
0.347098 0.347098 0.347098
0.399192 0.399192 0.399192
0.457181 0.457181 0.457181
0.516568 0.516568 0.516568
0.571585 0.571585 0.571585
0.121260 0.121260 0.121260
0.167237 0.167237 0.167237
0.262816 0.262816 0.262816
0.341959 0.341959 0.341959
0.409517 0.409517 0.409517
0.488818 0.488818 0.488818
0.561561 0.561561 0.561561
0.634423 0.634423 0.634423
0.702054 0.702054 0.702054
0.121260 0.121260 0.121260
0.183998 0.183998 0.183998
0.290606 0.290606 0.290606
0.377097 0.377097 0.377097
0.462245 0.462245 0.462245
0.549897 0.549897 0.549897
0.634667 0.634667 0.634667
0.712199 0.712199 0.712199
0.779696 0.779696 0.779696
0.121260 0.121260 0.121260
0.198018 0.198018 0.198018
0.311857 0.311857 0.311857
0.403634 0.403634 0.403634
0.504596 0.504596 0.504596
0.598620 0.598620 0.598620
0.690998 0.690998 0.690998
0.767222 0.767222 0.767222
0.827862 0.827862 0.827862
0.121260 0.121260 0.121260
0.209534 0.209534 0.209534
0.329854 0.329854 0.329854
0.428710 0.428710 0.428710
0.538214 0.538214 0.538214
0.641082 0.641082 0.641082
0.732164 0.732164 0.732164
0.806729 0.806729 0.806729
0.863749 0.863749 0.863749
0.121260 0.121260 0.121260
0.219438 0.219438 0.219438
0.344922 0.344922 0.344922
0.453526 0.453526 0.453526
0.567337 0.567337 0.567337
0.678002 0.678002 0.678002
0.767470 0.767470 0.767470
0.837239 0.837239 0.837239
0.887997 0.887997 0.887997
0.121260 0.121260 0.121260
0.228208 0.228208 0.228208
0.358125 0.358125 0.358125
0.475806 0.475806 0.475806
0.593949 0.593949 0.593949
0.705764 0.705764 0.705764
0.795679 0.795679 0.795679
0.861957 0.861957 0.861957
0.909030 0.909030 0.909030
0.121260 0.121260 0.121260
0.236124 0.236124 0.236124
0.369825 0.369825 0.369825
0.495747 0.495747 0.495747
0.618812 0.618812 0.618812
0.730632 0.730632 0.730632
0.817608 0.817608 0.817608
0.879614 0.879614 0.879614
0.927107 0.927107 0.927107
0.121260 0.121260 0.121260
0.121260 0.121260 0.121260
0.121260 0.121260 0.121260
0.121260 0.121260 0.121260
0.121260 0.121260 0.121260
0.121260 0.121260 0.121260
0.121260 0.121260 0.121260
0.121260 0.121260 0.121260
0.121260 0.121260 0.121260
0.121260 0.121260 0.121260
0.146378 0.146378 0.146378
0.220877 0.220877 0.220877
0.288093 0.288093 0.288093
0.347098 0.347098 0.347098
0.399192 0.399192 0.399192
0.457181 0.457181 0.457181
0.516568 0.516568 0.516568
0.571585 0.571585 0.571585
0.121260 0.121260 0.121260
0.167237 0.167237 0.167237
0.262816 0.262816 0.262816
0.341959 0.341959 0.341959
0.409517 0.409517 0.409517
0.488818 0.488818 0.488818
0.561561 0.561561 0.561561
0.634423 0.634423 0.634423
0.702054 0.702054 0.702054
0.121260 0.121260 0.121260
0.183998 0.183998 0.183998
0.290606 0.290606 0.290606
0.377097 0.377097 0.377097
0.462245 0.462245 0.462245
0.549897 0.549897 0.549897
0.634667 0.634667 0.634667
0.712199 0.712199 0.712199
0.779696 0.779696 0.779696
0.121260 0.121260 0.121260
0.198018 0.198018 0.198018
0.311857 0.311857 0.311857
0.403634 0.403634 0.403634
0.504596 0.504596 0.504596
0.598620 0.598620 0.598620
0.690998 0.690998 0.690998
0.767222 0.767222 0.767222
0.827862 0.827862 0.827862
0.121260 0.121260 0.121260
0.209534 0.209534 0.209534
0.329854 0.329854 0.329854
0.428710 0.428710 0.428710
0.538214 0.538214 0.538214
0.641082 0.641082 0.641082
0.732164 0.732164 0.732164
0.806729 0.806729 0.806729
0.863749 0.863749 0.863749
0.121260 0.121260 0.121260
0.219438 0.219438 0.219438
0.344922 0.344922 0.344922
0.453526 0.453526 0.453526
0.567337 0.567337 0.567337
0.678002 0.678002 0.678002
0.767470 0.767470 0.767470
0.837239 0.837239 0.837239
0.887997 0.887997 0.887997
0.121260 0.121260 0.121260
0.228208 0.228208 0.228208
0.358125 0.358125 0.358125
0.475806 0.475806 0.475806
0.593949 0.593949 0.593949
0.705764 0.705764 0.705764
0.795679 0.795679 0.795679
0.861957 0.861957 0.861957
0.909030 0.909030 0.909030
0.121260 0.121260 0.121260
0.236124 0.236124 0.236124
0.369825 0.369825 0.369825
0.495747 0.495747 0.495747
0.618812 0.618812 0.618812
0.730632 0.730632 0.730632
0.817608 0.817608 0.817608
0.879614 0.879614 0.879614
0.927107 0.927107 0.927107
0.121260 0.121260 0.121260
0.121260 0.121260 0.121260
0.121260 0.121260 0.121260
0.121260 0.121260 0.121260
0.121260 0.121260 0.121260
0.121260 0.121260 0.121260
0.121260 0.121260 0.121260
0.121260 0.121260 0.121260
0.121260 0.121260 0.121260
0.121260 0.121260 0.121260
0.146378 0.146378 0.146378
0.220877 0.220877 0.220877
0.288093 0.288093 0.288093
0.347098 0.347098 0.347098
0.399192 0.399192 0.399192
0.457181 0.457181 0.457181
0.516568 0.516568 0.516568
0.571585 0.571585 0.571585
0.121260 0.121260 0.121260
0.167237 0.167237 0.167237
0.262816 0.262816 0.262816
0.341959 0.341959 0.341959
0.409517 0.409517 0.409517
0.488818 0.488818 0.488818
0.561561 0.561561 0.561561
0.634423 0.634423 0.634423
0.702054 0.702054 0.702054
0.121260 0.121260 0.121260
0.183998 0.183998 0.183998
0.290606 0.290606 0.290606
0.377097 0.377097 0.377097
0.462245 0.462245 0.462245
0.549897 0.549897 0.549897
0.634667 0.634667 0.634667
0.712199 0.712199 0.712199
0.779696 0.779696 0.779696
0.121260 0.121260 0.121260
0.198018 0.198018 0.198018
0.311857 0.311857 0.311857
0.403634 0.403634 0.403634
0.504596 0.504596 0.504596
0.598620 0.598620 0.598620
0.690998 0.690998 0.690998
0.767222 0.767222 0.767222
0.827862 0.827862 0.827862
0.121260 0.121260 0.121260
0.209534 0.209534 0.209534
0.329854 0.329854 0.329854
0.428710 0.428710 0.428710
0.538214 0.538214 0.538214
0.641082 0.641082 0.641082
0.732164 0.732164 0.732164
0.806729 0.806729 0.806729
0.863749 0.863749 0.863749
0.121260 0.121260 0.121260
0.219438 0.219438 0.219438
0.344922 0.344922 0.344922
0.453526 0.453526 0.453526
0.567337 0.567337 0.567337
0.678002 0.678002 0.678002
0.767470 0.767470 0.767470
0.837239 0.837239 0.837239
0.887997 0.887997 0.887997
0.121260 0.121260 0.121260
0.228208 0.228208 0.228208
0.358125 0.358125 0.358125
0.475806 0.475806 0.475806
0.593949 0.593949 0.593949
0.705764 0.705764 0.705764
0.795679 0.795679 0.795679
0.861957 0.861957 0.861957
0.909030 0.909030 0.909030
0.121260 0.121260 0.121260
0.236124 0.236124 0.236124
0.369825 0.369825 0.369825
0.495747 0.495747 0.495747
0.618812 0.618812 0.618812
0.730632 0.730632 0.730632
0.817608 0.817608 0.817608
0.879614 0.879614 0.879614
0.927107 0.927107 0.927107
0.121260 0.121260 0.121260
0.121260 0.121260 0.121260
0.121260 0.121260 0.121260
0.121260 0.121260 0.121260
0.121260 0.121260 0.121260
0.121260 0.121260 0.121260
0.121260 0.121260 0.121260
0.121260 0.121260 0.121260
0.121260 0.121260 0.121260
0.121260 0.121260 0.121260
0.146378 0.146378 0.146378
0.220877 0.220877 0.220877
0.288093 0.288093 0.288093
0.347098 0.347098 0.347098
0.399192 0.399192 0.399192
0.457181 0.457181 0.457181
0.516568 0.516568 0.516568
0.571585 0.571585 0.571585
0.121260 0.121260 0.121260
0.167237 0.167237 0.167237
0.262816 0.262816 0.262816
0.341959 0.341959 0.341959
0.409517 0.409517 0.409517
0.488818 0.488818 0.488818
0.561561 0.561561 0.561561
0.634423 0.634423 0.634423
0.702054 0.702054 0.702054
0.121260 0.121260 0.121260
0.183998 0.183998 0.183998
0.290606 0.290606 0.290606
0.377097 0.377097 0.377097
0.462245 0.462245 0.462245
0.549897 0.549897 0.549897
0.634667 0.634667 0.634667
0.712199 0.712199 0.712199
0.779696 0.779696 0.779696
0.121260 0.121260 0.121260
0.198018 0.198018 0.198018
0.311857 0.311857 0.311857
0.403634 0.403634 0.403634
0.504596 0.504596 0.504596
0.598620 0.598620 0.598620
0.690998 0.690998 0.690998
0.767222 0.767222 0.767222
0.827862 0.827862 0.827862
0.121260 0.121260 0.121260
0.209534 0.209534 0.209534
0.329854 0.329854 0.329854
0.428710 0.428710 0.428710
0.538214 0.538214 0.538214
0.641082 0.641082 0.641082
0.732164 0.732164 0.732164
0.806729 0.806729 0.806729
0.863749 0.863749 0.863749
0.121260 0.121260 0.121260
0.219438 0.219438 0.219438
0.344922 0.344922 0.344922
0.453526 0.453526 0.453526
0.567337 0.567337 0.567337
0.678002 0.678002 0.678002
0.767470 0.767470 0.767470
0.837239 0.837239 0.837239
0.887997 0.887997 0.887997
0.121260 0.121260 0.121260
0.228208 0.228208 0.228208
0.358125 0.358125 0.358125
0.475806 0.475806 0.475806
0.593949 0.593949 0.593949
0.705764 0.705764 0.705764
0.795679 0.795679 0.795679
0.861957 0.861957 0.861957
0.909030 0.909030 0.909030
0.121260 0.121260 0.121260
0.236124 0.236124 0.236124
0.369825 0.369825 0.369825
0.495747 0.495747 0.495747
0.618812 0.618812 0.618812
0.730632 0.730632 0.730632
0.817608 0.817608 0.817608
0.879614 0.879614 0.879614
0.927107 0.927107 0.927107
0.121260 0.121260 0.121260
0.121260 0.121260 0.121260
0.121260 0.121260 0.121260
0.121260 0.121260 0.121260
0.121260 0.121260 0.121260
0.121260 0.121260 0.121260
0.121260 0.121260 0.121260
0.121260 0.121260 0.121260
0.121260 0.121260 0.121260
0.121260 0.121260 0.121260
0.146378 0.146378 0.146378
0.220877 0.220877 0.220877
0.288093 0.288093 0.288093
0.347098 0.347098 0.347098
0.399192 0.399192 0.399192
0.457181 0.457181 0.457181
0.516568 0.516568 0.516568
0.571585 0.571585 0.571585
0.121260 0.121260 0.121260
0.167237 0.167237 0.167237
0.262816 0.262816 0.262816
0.341959 0.341959 0.341959
0.409517 0.409517 0.409517
0.488818 0.488818 0.488818
0.561561 0.561561 0.561561
0.634423 0.634423 0.634423
0.702054 0.702054 0.702054
0.121260 0.121260 0.121260
0.183998 0.183998 0.183998
0.290606 0.290606 0.290606
0.377097 0.377097 0.377097
0.462245 0.462245 0.462245
0.549897 0.549897 0.549897
0.634667 0.634667 0.634667
0.712199 0.712199 0.712199
0.779696 0.779696 0.779696
0.121260 0.121260 0.121260
0.198018 0.198018 0.198018
0.311857 0.311857 0.311857
0.403634 0.403634 0.403634
0.504596 0.504596 0.504596
0.598620 0.598620 0.598620
0.690998 0.690998 0.690998
0.767222 0.767222 0.767222
0.827862 0.827862 0.827862
0.121260 0.121260 0.121260
0.209534 0.209534 0.209534
0.329854 0.329854 0.329854
0.428710 0.428710 0.428710
0.538214 0.538214 0.538214
0.641082 0.641082 0.641082
0.732164 0.732164 0.732164
0.806729 0.806729 0.806729
0.863749 0.863749 0.863749
0.121260 0.121260 0.121260
0.219438 0.219438 0.219438
0.344922 0.344922 0.344922
0.453526 0.453526 0.453526
0.567337 0.567337 0.567337
0.678002 0.678002 0.678002
0.767470 0.767470 0.767470
0.837239 0.837239 0.837239
0.887997 0.887997 0.887997
0.121260 0.121260 0.121260
0.228208 0.228208 0.228208
0.358125 0.358125 0.358125
0.475806 0.475806 0.475806
0.593949 0.593949 0.593949
0.705764 0.705764 0.705764
0.795679 0.795679 0.795679
0.861957 0.861957 0.861957
0.909030 0.909030 0.909030
0.121260 0.121260 0.121260
0.236124 0.236124 0.236124
0.369825 0.369825 0.369825
0.495747 0.495747 0.495747
0.618812 0.618812 0.618812
0.730632 0.730632 0.730632
0.817608 0.817608 0.817608
0.879614 0.879614 0.879614
0.927107 0.927107 0.927107
0.121260 0.121260 0.121260
0.121260 0.121260 0.121260
0.121260 0.121260 0.121260
0.121260 0.121260 0.121260
0.121260 0.121260 0.121260
0.121260 0.121260 0.121260
0.121260 0.121260 0.121260
0.121260 0.121260 0.121260
0.121260 0.121260 0.121260
0.121260 0.121260 0.121260
0.146378 0.146378 0.146378
0.220877 0.220877 0.220877
0.288093 0.288093 0.288093
0.347098 0.347098 0.347098
0.399192 0.399192 0.399192
0.457181 0.457181 0.457181
0.516568 0.516568 0.516568
0.571585 0.571585 0.571585
0.121260 0.121260 0.121260
0.167237 0.167237 0.167237
0.262816 0.262816 0.262816
0.341959 0.341959 0.341959
0.409517 0.409517 0.409517
0.488818 0.488818 0.488818
0.561561 0.561561 0.561561
0.634423 0.634423 0.634423
0.702054 0.702054 0.702054
0.121260 0.121260 0.121260
0.183998 0.183998 0.183998
0.290606 0.290606 0.290606
0.377097 0.377097 0.377097
0.462245 0.462245 0.462245
0.549897 0.549897 0.549897
0.634667 0.634667 0.634667
0.712199 0.712199 0.712199
0.779696 0.779696 0.779696
0.121260 0.121260 0.121260
0.198018 0.198018 0.198018
0.311857 0.311857 0.311857
0.403634 0.403634 0.403634
0.504596 0.504596 0.504596
0.598620 0.598620 0.598620
0.690998 0.690998 0.690998
0.767222 0.767222 0.767222
0.827862 0.827862 0.827862
0.121260 0.121260 0.121260
0.209534 0.209534 0.209534
0.329854 0.329854 0.329854
0.428710 0.428710 0.428710
0.538214 0.538214 0.538214
0.641082 0.641082 0.641082
0.732164 0.732164 0.732164
0.806729 0.806729 0.806729
0.863749 0.863749 0.863749
0.121260 0.121260 0.121260
0.219438 0.219438 0.219438
0.344922 0.344922 0.344922
0.453526 0.453526 0.453526
0.567337 0.567337 0.567337
0.678002 0.678002 0.678002
0.767470 0.767470 0.767470
0.837239 0.837239 0.837239
0.887997 0.887997 0.887997
0.121260 0.121260 0.121260
0.228208 0.228208 0.228208
0.358125 0.358125 0.358125
0.475806 0.475806 0.475806
0.593949 0.593949 0.593949
0.705764 0.705764 0.705764
0.795679 0.795679 0.795679
0.861957 0.861957 0.861957
0.909030 0.909030 0.909030
0.121260 0.121260 0.121260
0.236124 0.236124 0.236124
0.369825 0.369825 0.369825
0.495747 0.495747 0.495747
0.618812 0.618812 0.618812
0.730632 0.730632 0.730632
0.817608 0.817608 0.817608
0.879614 0.879614 0.879614
0.927107 0.927107 0.927107
0.121260 0.121260 0.121260
0.121260 0.121260 0.121260
0.121260 0.121260 0.121260
0.121260 0.121260 0.121260
0.121260 0.121260 0.121260
0.121260 0.121260 0.121260
0.121260 0.121260 0.121260
0.121260 0.121260 0.121260
0.121260 0.121260 0.121260
0.121260 0.121260 0.121260
0.146378 0.146378 0.146378
0.220877 0.220877 0.220877
0.288093 0.288093 0.288093
0.347098 0.347098 0.347098
0.399192 0.399192 0.399192
0.457181 0.457181 0.457181
0.516568 0.516568 0.516568
0.571585 0.571585 0.571585
0.121260 0.121260 0.121260
0.167237 0.167237 0.167237
0.262816 0.262816 0.262816
0.341959 0.341959 0.341959
0.409517 0.409517 0.409517
0.488818 0.488818 0.488818
0.561561 0.561561 0.561561
0.634423 0.634423 0.634423
0.702054 0.702054 0.702054
0.121260 0.121260 0.121260
0.183998 0.183998 0.183998
0.290606 0.290606 0.290606
0.377097 0.377097 0.377097
0.462245 0.462245 0.462245
0.549897 0.549897 0.549897
0.634667 0.634667 0.634667
0.712199 0.712199 0.712199
0.779696 0.779696 0.779696
0.121260 0.121260 0.121260
0.198018 0.198018 0.198018
0.311857 0.311857 0.311857
0.403634 0.403634 0.403634
0.504596 0.504596 0.504596
0.598620 0.598620 0.598620
0.690998 0.690998 0.690998
0.767222 0.767222 0.767222
0.827862 0.827862 0.827862
0.121260 0.121260 0.121260
0.209534 0.209534 0.209534
0.329854 0.329854 0.329854
0.428710 0.428710 0.428710
0.538214 0.538214 0.538214
0.641082 0.641082 0.641082
0.732164 0.732164 0.732164
0.806729 0.806729 0.806729
0.863749 0.863749 0.863749
0.121260 0.121260 0.121260
0.219438 0.219438 0.219438
0.344922 0.344922 0.344922
0.453526 0.453526 0.453526
0.567337 0.567337 0.567337
0.678002 0.678002 0.678002
0.767470 0.767470 0.767470
0.837239 0.837239 0.837239
0.887997 0.887997 0.887997
0.121260 0.121260 0.121260
0.228208 0.228208 0.228208
0.358125 0.358125 0.358125
0.475806 0.475806 0.475806
0.593949 0.593949 0.593949
0.705764 0.705764 0.705764
0.795679 0.795679 0.795679
0.861957 0.861957 0.861957
0.909030 0.909030 0.909030
0.121260 0.121260 0.121260
0.236124 0.236124 0.236124
0.369825 0.369825 0.369825
0.495747 0.495747 0.495747
0.618812 0.618812 0.618812
0.730632 0.730632 0.730632
0.817608 0.817608 0.817608
0.879614 0.879614 0.879614
0.927107 0.927107 0.927107
0.121260 0.121260 0.121260
0.121260 0.121260 0.121260
0.121260 0.121260 0.121260
0.121260 0.121260 0.121260
0.121260 0.121260 0.121260
0.121260 0.121260 0.121260
0.121260 0.121260 0.121260
0.121260 0.121260 0.121260
0.121260 0.121260 0.121260
0.121260 0.121260 0.121260
0.146378 0.146378 0.146378
0.220877 0.220877 0.220877
0.288093 0.288093 0.288093
0.347098 0.347098 0.347098
0.399192 0.399192 0.399192
0.457181 0.457181 0.457181
0.516568 0.516568 0.516568
0.571585 0.571585 0.571585
0.121260 0.121260 0.121260
0.167237 0.167237 0.167237
0.262816 0.262816 0.262816
0.341959 0.341959 0.341959
0.409517 0.409517 0.409517
0.488818 0.488818 0.488818
0.561561 0.561561 0.561561
0.634423 0.634423 0.634423
0.702054 0.702054 0.702054
0.121260 0.121260 0.121260
0.183998 0.183998 0.183998
0.290606 0.290606 0.290606
0.377097 0.377097 0.377097
0.462245 0.462245 0.462245
0.549897 0.549897 0.549897
0.634667 0.634667 0.634667
0.712199 0.712199 0.712199
0.779696 0.779696 0.779696
0.121260 0.121260 0.121260
0.198018 0.198018 0.198018
0.311857 0.311857 0.311857
0.403634 0.403634 0.403634
0.504596 0.504596 0.504596
0.598620 0.598620 0.598620
0.690998 0.690998 0.690998
0.767222 0.767222 0.767222
0.827862 0.827862 0.827862
0.121260 0.121260 0.121260
0.209534 0.209534 0.209534
0.329854 0.329854 0.329854
0.428710 0.428710 0.428710
0.538214 0.538214 0.538214
0.641082 0.641082 0.641082
0.732164 0.732164 0.732164
0.806729 0.806729 0.806729
0.863749 0.863749 0.863749
0.121260 0.121260 0.121260
0.219438 0.219438 0.219438
0.344922 0.344922 0.344922
0.453526 0.453526 0.453526
0.567337 0.567337 0.567337
0.678002 0.678002 0.678002
0.767470 0.767470 0.767470
0.837239 0.837239 0.837239
0.887997 0.887997 0.887997
0.121260 0.121260 0.121260
0.228208 0.228208 0.228208
0.358125 0.358125 0.358125
0.475806 0.475806 0.475806
0.593949 0.593949 0.593949
0.705764 0.705764 0.705764
0.795679 0.795679 0.795679
0.861957 0.861957 0.861957
0.909030 0.909030 0.909030
0.121260 0.121260 0.121260
0.236124 0.236124 0.236124
0.369825 0.369825 0.369825
0.495747 0.495747 0.495747
0.618812 0.618812 0.618812
0.730632 0.730632 0.730632
0.817608 0.817608 0.817608
0.879614 0.879614 0.879614
0.927107 0.927107 0.927107
0.121260 0.121260 0.121260
0.121260 0.121260 0.121260
0.121260 0.121260 0.121260
0.121260 0.121260 0.121260
0.121260 0.121260 0.121260
0.121260 0.121260 0.121260
0.121260 0.121260 0.121260
0.121260 0.121260 0.121260
0.121260 0.121260 0.121260
0.121260 0.121260 0.121260
0.146378 0.146378 0.146378
0.220877 0.220877 0.220877
0.288093 0.288093 0.288093
0.347098 0.347098 0.347098
0.399192 0.399192 0.399192
0.457181 0.457181 0.457181
0.516568 0.516568 0.516568
0.571585 0.571585 0.571585
0.121260 0.121260 0.121260
0.167237 0.167237 0.167237
0.262816 0.262816 0.262816
0.341959 0.341959 0.341959
0.409517 0.409517 0.409517
0.488818 0.488818 0.488818
0.561561 0.561561 0.561561
0.634423 0.634423 0.634423
0.702054 0.702054 0.702054
0.121260 0.121260 0.121260
0.183998 0.183998 0.183998
0.290606 0.290606 0.290606
0.377097 0.377097 0.377097
0.462245 0.462245 0.462245
0.549897 0.549897 0.549897
0.634667 0.634667 0.634667
0.712199 0.712199 0.712199
0.779696 0.779696 0.779696
0.121260 0.121260 0.121260
0.198018 0.198018 0.198018
0.311857 0.311857 0.311857
0.403634 0.403634 0.403634
0.504596 0.504596 0.504596
0.598620 0.598620 0.598620
0.690998 0.690998 0.690998
0.767222 0.767222 0.767222
0.827862 0.827862 0.827862
0.121260 0.121260 0.121260
0.209534 0.209534 0.209534
0.329854 0.329854 0.329854
0.428710 0.428710 0.428710
0.538214 0.538214 0.538214
0.641082 0.641082 0.641082
0.732164 0.732164 0.732164
0.806729 0.806729 0.806729
0.863749 0.863749 0.863749
0.121260 0.121260 0.121260
0.219438 0.219438 0.219438
0.344922 0.344922 0.344922
0.453526 0.453526 0.453526
0.567337 0.567337 0.567337
0.678002 0.678002 0.678002
0.767470 0.767470 0.767470
0.837239 0.837239 0.837239
0.887997 0.887997 0.887997
0.121260 0.121260 0.121260
0.228208 0.228208 0.228208
0.358125 0.358125 0.358125
0.475806 0.475806 0.475806
0.593949 0.593949 0.593949
0.705764 0.705764 0.705764
0.795679 0.795679 0.795679
0.861957 0.861957 0.861957
0.909030 0.909030 0.909030
0.121260 0.121260 0.121260
0.236124 0.236124 0.236124
0.369825 0.369825 0.369825
0.495747 0.495747 0.495747
0.618812 0.618812 0.618812
0.730632 0.730632 0.730632
0.817608 0.817608 0.817608
0.879614 0.879614 0.879614
0.927107 0.927107 0.927107
