trix_classic/TriX_Orange21_Hard.cube
TITLE "Tri-X Orange21 Hard"
# Adobe RGB in/out. REPLACES AgX. R=0.7239 G=0.2761 B=0.0000
LUT_3D_SIZE 5
DOMAIN_MIN 0.0 0.0 0.0
DOMAIN_MAX 1.0 1.0 1.0
0.093288 0.093288 0.093288
0.093288 0.093288 0.093288
0.093288 0.093288 0.093288
0.093288 0.093288 0.093288
0.093288 0.093288 0.093288
0.093288 0.093288 0.093288
0.100098 0.100098 0.100098
0.325749 0.325749 0.325749
0.757447 0.757447 0.757447
0.946420 0.946420 0.946420
0.093288 0.093288 0.093288
0.128686 0.128686 0.128686
0.588577 0.588577 0.588577
0.935810 0.935810 0.935810
0.989869 0.989869 0.989869
0.093288 0.093288 0.093288
0.172196 0.172196 0.172196
0.769509 0.769509 0.769509
0.978028 0.978028 0.978028
0.995865 0.995865 0.995865
0.093288 0.093288 0.093288
0.220914 0.220914 0.220914
0.855621 0.855621 0.855621
0.988293 0.988293 0.988293
0.998062 0.998062 0.998062
0.093288 0.093288 0.093288
0.093288 0.093288 0.093288
0.093288 0.093288 0.093288
0.093288 0.093288 0.093288
0.093288 0.093288 0.093288
0.093288 0.093288 0.093288
0.100098 0.100098 0.100098
0.325749 0.325749 0.325749
0.757447 0.757447 0.757447
0.946420 0.946420 0.946420
0.093288 0.093288 0.093288
0.128686 0.128686 0.128686
0.588577 0.588577 0.588577
0.935810 0.935810 0.935810
0.989869 0.989869 0.989869
0.093288 0.093288 0.093288
0.172196 0.172196 0.172196
0.769509 0.769509 0.769509
0.978028 0.978028 0.978028
0.995865 0.995865 0.995865
0.093288 0.093288 0.093288
0.220914 0.220914 0.220914
0.855621 0.855621 0.855621
0.988293 0.988293 0.988293
0.998062 0.998062 0.998062
0.093288 0.093288 0.093288
0.093288 0.093288 0.093288
0.093288 0.093288 0.093288
0.093288 0.093288 0.093288
0.093288 0.093288 0.093288
0.093288 0.093288 0.093288
0.100098 0.100098 0.100098
0.325749 0.325749 0.325749
0.757447 0.757447 0.757447
0.946420 0.946420 0.946420
0.093288 0.093288 0.093288
0.128686 0.128686 0.128686
0.588577 0.588577 0.588577
0.935810 0.935810 0.935810
0.989869 0.989869 0.989869
0.093288 0.093288 0.093288
0.172196 0.172196 0.172196
0.769509 0.769509 0.769509
0.978028 0.978028 0.978028
0.995865 0.995865 0.995865
0.093288 0.093288 0.093288
0.220914 0.220914 0.220914
0.855621 0.855621 0.855621
0.988293 0.988293 0.988293
0.998062 0.998062 0.998062
0.093288 0.093288 0.093288
0.093288 0.093288 0.093288
0.093288 0.093288 0.093288
0.093288 0.093288 0.093288
0.093288 0.093288 0.093288
0.093288 0.093288 0.093288
0.100098 0.100098 0.100098
0.325749 0.325749 0.325749
0.757447 0.757447 0.757447
0.946420 0.946420 0.946420
0.093288 0.093288 0.093288
0.128686 0.128686 0.128686
0.588577 0.588577 0.588577
0.935810 0.935810 0.935810
0.989869 0.989869 0.989869
0.093288 0.093288 0.093288
0.172196 0.172196 0.172196
0.769509 0.769509 0.769509
0.978028 0.978028 0.978028
0.995865 0.995865 0.995865
0.093288 0.093288 0.093288
0.220914 0.220914 0.220914
0.855621 0.855621 0.855621
0.988293 0.988293 0.988293
0.998062 0.998062 0.998062
0.093288 0.093288 0.093288
0.093288 0.093288 0.093288
0.093288 0.093288 0.093288
0.093288 0.093288 0.093288
0.093288 0.093288 0.093288
0.093288 0.093288 0.093288
0.100098 0.100098 0.100098
0.325749 0.325749 0.325749
0.757447 0.757447 0.757447
0.946420 0.946420 0.946420
0.093288 0.093288 0.093288
0.128686 0.128686 0.128686
0.588577 0.588577 0.588577
0.935810 0.935810 0.935810
0.989869 0.989869 0.989869
0.093288 0.093288 0.093288
0.172196 0.172196 0.172196
0.769509 0.769509 0.769509
0.978028 0.978028 0.978028
0.995865 0.995865 0.995865
0.093288 0.093288 0.093288
0.220914 0.220914 0.220914
0.855621 0.855621 0.855621
0.988293 0.988293 0.988293
0.998062 0.998062 0.998062
