trix_classic/TriX_NoFilter_ExtraPunchy.cube
TITLE "Tri-X NoFilter ExtraPunchy"
# Adobe RGB in/out. REPLACES AgX. Tri-X NoFilter ExtraPunchy.
LUT_3D_SIZE 33
DOMAIN_MIN 0.0 0.0 0.0
DOMAIN_MAX 1.0 1.0 1.0
0.092237 0.092237 0.092237
0.092237 0.092237 0.092237
0.092237 0.092237 0.092237
0.092237 0.092237 0.092237
0.092237 0.092237 0.092237
0.092237 0.092237 0.092237
0.092237 0.092237 0.092237
0.092237 0.092237 0.092237
0.092237 0.092237 0.092237
0.092237 0.092237 0.092237
0.092436 0.092436 0.092436
0.092753 0.092753 0.092753
0.093422 0.093422 0.093422
0.094567 0.094567 0.094567
0.098360 0.098360 0.098360
0.103311 0.103311 0.103311
0.111232 0.111232 0.111232
0.126126 0.126126 0.126126
0.147135 0.147135 0.147135
0.169684 0.169684 0.169684
0.193928 0.193928 0.193928
0.220581 0.220581 0.220581
0.250269 0.250269 0.250269
0.282142 0.282142 0.282142
0.310199 0.310199 0.310199
0.339794 0.339794 0.339794
0.382897 0.382897 0.382897
0.443291 0.443291 0.443291
0.688041 0.688041 0.688041
0.688002 0.688002 0.688002
0.688000 0.688000 0.688000
0.688000 0.688000 0.688000
0.816654 0.816654 0.816654
0.092237 0.092237 0.092237
0.092237 0.092237 0.092237
0.092237 0.092237 0.092237
0.092237 0.092237 0.092237
0.092237 0.092237 0.092237
0.092237 0.092237 0.092237
0.092237 0.092237 0.092237
0.092237 0.092237 0.092237
0.092237 0.092237 0.092237
0.092237 0.092237 0.092237
0.092467 0.092467 0.092467
0.092776 0.092776 0.092776
0.093483 0.093483 0.093483
0.094683 0.094683 0.094683
0.098533 0.098533 0.098533
0.103440 0.103440 0.103440
0.111442 0.111442 0.111442
0.126353 0.126353 0.126353
0.147372 0.147372 0.147372
0.169863 0.169863 0.169863
0.194073 0.194073 0.194073
0.220720 0.220720 0.220720
0.250396 0.250396 0.250396
0.282241 0.282241 0.282241
0.310278 0.310278 0.310278
0.339824 0.339824 0.339824
0.382652 0.382652 0.382652
0.441833 0.441833 0.441833
0.688042 0.688042 0.688042
0.688003 0.688003 0.688003
0.688000 0.688000 0.688000
0.688000 0.688000 0.688000
0.816655 0.816655 0.816655
0.092237 0.092237 0.092237
0.092237 0.092237 0.092237
0.092237 0.092237 0.092237
0.092237 0.092237 0.092237
0.092237 0.092237 0.092237
0.092237 0.092237 0.092237
0.092237 0.092237 0.092237
0.092237 0.092237 0.092237
0.092237 0.092237 0.092237
0.092237 0.092237 0.092237
0.092583 0.092583 0.092583
0.092870 0.092870 0.092870
0.093714 0.093714 0.093714
0.095122 0.095122 0.095122
0.099185 0.099185 0.099185
0.103927 0.103927 0.103927
0.112234 0.112234 0.112234
0.127208 0.127208 0.127208
0.148259 0.148259 0.148259
0.170534 0.170534 0.170534
0.194617 0.194617 0.194617
0.221239 0.221239 0.221239
0.250867 0.250867 0.250867
0.282613 0.282613 0.282613
0.310579 0.310579 0.310579
0.339958 0.339958 0.339958
0.381862 0.381862 0.381862
0.436948 0.436948 0.436948
0.688045 0.688045 0.688045
0.688003 0.688003 0.688003
0.688000 0.688000 0.688000
0.688001 0.688001 0.688001
0.816655 0.816655 0.816655
0.092237 0.092237 0.092237
0.092237 0.092237 0.092237
0.092237 0.092237 0.092237
0.092237 0.092237 0.092237
0.092237 0.092237 0.092237
0.092237 0.092237 0.092237
0.092237 0.092237 0.092237
0.092237 0.092237 0.092237
0.092237 0.092237 0.092237
0.092391 0.092391 0.092391
0.092812 0.092812 0.092812
0.093500 0.093500 0.093500
0.094185 0.094185 0.094185
0.096017 0.096017 0.096017
0.100519 0.100519 0.100519
0.105376 0.105376 0.105376
0.113858 0.113858 0.113858
0.128962 0.128962 0.128962
0.150069 0.150069 0.150069
0.171898 0.171898 0.171898
0.195717 0.195717 0.195717
0.222279 0.222279 0.222279
0.251809 0.251809 0.251809
0.283365 0.283365 0.283365
0.311207 0.311207 0.311207
0.340316 0.340316 0.340316
0.380744 0.380744 0.380744
0.429389 0.429389 0.429389
0.688051 0.688051 0.688051
0.688004 0.688004 0.688004
0.688001 0.688001 0.688001
0.688003 0.688003 0.688003
0.816656 0.816656 0.816656
0.092237 0.092237 0.092237
0.092237 0.092237 0.092237
0.092237 0.092237 0.092237
0.092237 0.092237 0.092237
0.092237 0.092237 0.092237
0.092237 0.092237 0.092237
0.092237 0.092237 0.092237
0.092237 0.092237 0.092237
0.092373 0.092373 0.092373
0.092634 0.092634 0.092634
0.093497 0.093497 0.093497
0.094184 0.094184 0.094184
0.095210 0.095210 0.095210
0.097420 0.097420 0.097420
0.102896 0.102896 0.102896
0.108254 0.108254 0.108254
0.116995 0.116995 0.116995
0.132094 0.132094 0.132094
0.153269 0.153269 0.153269
0.174304 0.174304 0.174304
0.197638 0.197638 0.197638
0.224069 0.224069 0.224069
0.253415 0.253415 0.253415
0.284644 0.284644 0.284644
0.312332 0.312332 0.312332
0.341113 0.341113 0.341113
0.379764 0.379764 0.379764
0.421202 0.421202 0.421202
0.688065 0.688065 0.688065
0.688005 0.688005 0.688005
0.688002 0.688002 0.688002
0.688025 0.688025 0.688025
0.816656 0.816656 0.816656
0.092237 0.092237 0.092237
0.092237 0.092237 0.092237
0.092237 0.092237 0.092237
0.092237 0.092237 0.092237
0.092237 0.092237 0.092237
0.092237 0.092237 0.092237
0.092237 0.092237 0.092237
0.092407 0.092407 0.092407
0.092561 0.092561 0.092561
0.092828 0.092828 0.092828
0.094146 0.094146 0.094146
0.095382 0.095382 0.095382
0.096876 0.096876 0.096876
0.100040 0.100040 0.100040
0.105895 0.105895 0.105895
0.112532 0.112532 0.112532
0.122716 0.122716 0.122716
0.137448 0.137448 0.137448
0.158780 0.158780 0.158780
0.178425 0.178425 0.178425
0.200966 0.200966 0.200966
0.227022 0.227022 0.227022
0.256027 0.256027 0.256027
0.286646 0.286646 0.286646
0.314231 0.314231 0.314231
0.342684 0.342684 0.342684
0.379517 0.379517 0.379517
0.414728 0.414728 0.414728
0.688092 0.688092 0.688092
0.688008 0.688008 0.688008
0.688003 0.688003 0.688003
0.746810 0.746810 0.746810
0.816656 0.816656 0.816656
0.092237 0.092237 0.092237
0.092237 0.092237 0.092237
0.092237 0.092237 0.092237
0.092237 0.092237 0.092237
0.092237 0.092237 0.092237
0.092237 0.092237 0.092237
0.092237 0.092237 0.092237
0.092619 0.092619 0.092619
0.092743 0.092743 0.092743
0.093327 0.093327 0.093327
0.095024 0.095024 0.095024
0.096930 0.096930 0.096930
0.099014 0.099014 0.099014
0.102895 0.102895 0.102895
0.110952 0.110952 0.110952
0.119382 0.119382 0.119382
0.129168 0.129168 0.129168
0.143489 0.143489 0.143489
0.165110 0.165110 0.165110
0.184121 0.184121 0.184121
0.206323 0.206323 0.206323
0.231938 0.231938 0.231938
0.260270 0.260270 0.260270
0.289890 0.289890 0.289890
0.317355 0.317355 0.317355
0.345531 0.345531 0.345531
0.380692 0.380692 0.380692
0.411589 0.411589 0.411589
0.688158 0.688158 0.688158
0.688015 0.688015 0.688015
0.688006 0.688006 0.688006
0.746837 0.746837 0.746837
0.816656 0.816656 0.816656
0.092237 0.092237 0.092237
0.092237 0.092237 0.092237
0.092237 0.092237 0.092237
0.092237 0.092237 0.092237
0.092309 0.092309 0.092309
0.092469 0.092469 0.092469
0.092647 0.092647 0.092647
0.092846 0.092846 0.092846
0.093122 0.093122 0.093122
0.093913 0.093913 0.093913
0.096402 0.096402 0.096402
0.098787 0.098787 0.098787
0.101640 0.101640 0.101640
0.106537 0.106537 0.106537
0.117421 0.117421 0.117421
0.126997 0.126997 0.126997
0.136834 0.136834 0.136834
0.152798 0.152798 0.152798
0.173780 0.173780 0.173780
0.191035 0.191035 0.191035
0.212207 0.212207 0.212207
0.237394 0.237394 0.237394
0.265685 0.265685 0.265685
0.294618 0.294618 0.294618
0.322484 0.322484 0.322484
0.350457 0.350457 0.350457
0.384196 0.384196 0.384196
0.412830 0.412830 0.412830
0.688407 0.688407 0.688407
0.688040 0.688040 0.688040
0.688016 0.688016 0.688016
0.746840 0.746840 0.746840
0.816656 0.816656 0.816656
0.092332 0.092332 0.092332
0.092335 0.092335 0.092335
0.092367 0.092367 0.092367
0.092435 0.092435 0.092435
0.092530 0.092530 0.092530
0.092649 0.092649 0.092649
0.092798 0.092798 0.092798
0.093212 0.093212 0.093212
0.093851 0.093851 0.093851
0.094549 0.094549 0.094549
0.098040 0.098040 0.098040
0.101428 0.101428 0.101428
0.104242 0.104242 0.104242
0.111105 0.111105 0.111105
0.125399 0.125399 0.125399
0.135262 0.135262 0.135262
0.146595 0.146595 0.146595
0.162795 0.162795 0.162795
0.183444 0.183444 0.183444
0.200304 0.200304 0.200304
0.221238 0.221238 0.221238
0.245077 0.245077 0.245077
0.272359 0.272359 0.272359
0.299901 0.299901 0.299901
0.327371 0.327371 0.327371
0.355923 0.355923 0.355923
0.389703 0.389703 0.389703
0.419288 0.419288 0.419288
0.693512 0.693512 0.693512
0.688312 0.688312 0.688312
0.688082 0.688082 0.688082
0.746849 0.746849 0.746849
0.816656 0.816656 0.816656
0.092700 0.092700 0.092700
0.092703 0.092703 0.092703
0.092722 0.092722 0.092722
0.092777 0.092777 0.092777
0.092850 0.092850 0.092850
0.093178 0.093178 0.093178
0.093600 0.093600 0.093600
0.094085 0.094085 0.094085
0.094763 0.094763 0.094763
0.096272 0.096272 0.096272
0.101095 0.101095 0.101095
0.104298 0.104298 0.104298
0.108435 0.108435 0.108435
0.116700 0.116700 0.116700
0.133475 0.133475 0.133475
0.144631 0.144631 0.144631
0.157104 0.157104 0.157104
0.173504 0.173504 0.173504
0.195099 0.195099 0.195099
0.211566 0.211566 0.211566
0.230655 0.230655 0.230655
0.254460 0.254460 0.254460
0.281596 0.281596 0.281596
0.307496 0.307496 0.307496
0.334210 0.334210 0.334210
0.362372 0.362372 0.362372
0.395297 0.395297 0.395297
0.424150 0.424150 0.424150
0.460820 0.460820 0.460820
0.509835 0.509835 0.509835
0.702450 0.702450 0.702450
0.748311 0.748311 0.748311
0.816656 0.816656 0.816656
0.094014 0.094014 0.094014
0.094021 0.094021 0.094021
0.094067 0.094067 0.094067
0.094249 0.094249 0.094249
0.094464 0.094464 0.094464
0.095049 0.095049 0.095049
0.095968 0.095968 0.095968
0.097027 0.097027 0.097027
0.098816 0.098816 0.098816
0.101498 0.101498 0.101498
0.104602 0.104602 0.104602
0.109219 0.109219 0.109219
0.114198 0.114198 0.114198
0.124628 0.124628 0.124628
0.142502 0.142502 0.142502
0.155054 0.155054 0.155054
0.167784 0.167784 0.167784
0.184872 0.184872 0.184872
0.207985 0.207985 0.207985
0.223636 0.223636 0.223636
0.242714 0.242714 0.242714
0.266147 0.266147 0.266147
0.291312 0.291312 0.291312
0.316087 0.316087 0.316087
0.342852 0.342852 0.342852
0.371430 0.371430 0.371430
0.403232 0.403232 0.403232
0.431463 0.431463 0.431463
0.465719 0.465719 0.465719
0.504231 0.504231 0.504231
0.666038 0.666038 0.666038
0.752881 0.752881 0.752881
0.754535 0.754535 0.754535
0.095863 0.095863 0.095863
0.095875 0.095875 0.095875
0.095961 0.095961 0.095961
0.096307 0.096307 0.096307
0.096735 0.096735 0.096735
0.097363 0.097363 0.097363
0.098720 0.098720 0.098720
0.100506 0.100506 0.100506
0.102620 0.102620 0.102620
0.105511 0.105511 0.105511
0.109947 0.109947 0.109947
0.116364 0.116364 0.116364
0.122321 0.122321 0.122321
0.133497 0.133497 0.133497
0.153486 0.153486 0.153486
0.165887 0.165887 0.165887
0.179117 0.179117 0.179117
0.197014 0.197014 0.197014
0.221285 0.221285 0.221285
0.237030 0.237030 0.237030
0.256524 0.256524 0.256524
0.278830 0.278830 0.278830
0.303234 0.303234 0.303234
0.327166 0.327166 0.327166
0.352678 0.352678 0.352678
0.380533 0.380533 0.380533
0.412265 0.412265 0.412265
0.441407 0.441407 0.441407
0.474771 0.474771 0.474771
0.507842 0.507842 0.507842
0.609943 0.609943 0.609943
0.752905 0.752905 0.752905
0.756106 0.756106 0.756106
0.098454 0.098454 0.098454
0.098475 0.098475 0.098475
0.098604 0.098604 0.098604
0.099091 0.099091 0.099091
0.099912 0.099912 0.099912
0.101017 0.101017 0.101017
0.102332 0.102332 0.102332
0.103941 0.103941 0.103941
0.106865 0.106865 0.106865
0.110659 0.110659 0.110659
0.115853 0.115853 0.115853
0.123485 0.123485 0.123485
0.132436 0.132436 0.132436
0.143963 0.143963 0.143963
0.165754 0.165754 0.165754
0.178166 0.178166 0.178166
0.191345 0.191345 0.191345
0.210288 0.210288 0.210288
0.235480 0.235480 0.235480
0.251438 0.251438 0.251438
0.270671 0.270671 0.270671
0.292996 0.292996 0.292996
0.317107 0.317107 0.317107
0.339171 0.339171 0.339171
0.364560 0.364560 0.364560
0.392520 0.392520 0.392520
0.422603 0.422603 0.422603
0.451013 0.451013 0.451013
0.484181 0.484181 0.484181
0.517231 0.517231 0.517231
0.560610 0.560610 0.560610
0.752946 0.752946 0.752946
0.758392 0.758392 0.758392
0.103740 0.103740 0.103740
0.103759 0.103759 0.103759
0.103867 0.103867 0.103867
0.104277 0.104277 0.104277
0.105651 0.105651 0.105651
0.107096 0.107096 0.107096
0.109039 0.109039 0.109039
0.112111 0.112111 0.112111
0.115898 0.115898 0.115898
0.121557 0.121557 0.121557
0.128226 0.128226 0.128226
0.135908 0.135908 0.135908
0.145467 0.145467 0.145467
0.157260 0.157260 0.157260
0.179094 0.179094 0.179094
0.191666 0.191666 0.191666
0.204808 0.204808 0.204808
0.223980 0.223980 0.223980
0.250071 0.250071 0.250071
0.266794 0.266794 0.266794
0.286186 0.286186 0.286186
0.308131 0.308131 0.308131
0.331689 0.331689 0.331689
0.353486 0.353486 0.353486
0.378254 0.378254 0.378254
0.405031 0.405031 0.405031
0.434749 0.434749 0.434749
0.463521 0.463521 0.463521
0.495518 0.495518 0.495518
0.526268 0.526268 0.526268
0.563028 0.563028 0.563028
0.650064 0.650064 0.650064
0.791834 0.791834 0.791834
0.115568 0.115568 0.115568
0.115615 0.115615 0.115615
0.115848 0.115848 0.115848
0.116717 0.116717 0.116717
0.119275 0.119275 0.119275
0.121540 0.121540 0.121540
0.125123 0.125123 0.125123
0.129336 0.129336 0.129336
0.134422 0.134422 0.134422
0.140593 0.140593 0.140593
0.148936 0.148936 0.148936
0.158234 0.158234 0.158234
0.168858 0.168858 0.168858
0.180741 0.180741 0.180741
0.194197 0.194197 0.194197
0.206411 0.206411 0.206411
0.220036 0.220036 0.220036
0.239424 0.239424 0.239424
0.265978 0.265978 0.265978
0.282815 0.282815 0.282815
0.301840 0.301840 0.301840
0.324404 0.324404 0.324404
0.347968 0.347968 0.347968
0.369577 0.369577 0.369577
0.393268 0.393268 0.393268
0.419930 0.419930 0.419930
0.448546 0.448546 0.448546
0.476355 0.476355 0.476355
0.508599 0.508599 0.508599
0.539089 0.539089 0.539089
0.572035 0.572035 0.572035
0.623977 0.623977 0.623977
0.788667 0.788667 0.788667
0.129206 0.129206 0.129206
0.129266 0.129266 0.129266
0.129545 0.129545 0.129545
0.130362 0.130362 0.130362
0.132444 0.132444 0.132444
0.134965 0.134965 0.134965
0.138756 0.138756 0.138756
0.143006 0.143006 0.143006
0.148822 0.148822 0.148822
0.155984 0.155984 0.155984
0.163867 0.163867 0.163867
0.172874 0.172874 0.172874
0.183326 0.183326 0.183326
0.194986 0.194986 0.194986
0.208298 0.208298 0.208298
0.223342 0.223342 0.223342
0.236465 0.236465 0.236465
0.256048 0.256048 0.256048
0.283277 0.283277 0.283277
0.299485 0.299485 0.299485
0.318283 0.318283 0.318283
0.341424 0.341424 0.341424
0.365536 0.365536 0.365536
0.386730 0.386730 0.386730
0.410263 0.410263 0.410263
0.436406 0.436406 0.436406
0.463740 0.463740 0.463740
0.491743 0.491743 0.491743
0.522589 0.522589 0.522589
0.551424 0.551424 0.551424
0.584202 0.584202 0.584202
0.624467 0.624467 0.624467
0.764064 0.764064 0.764064
0.144588 0.144588 0.144588
0.144655 0.144655 0.144655
0.144960 0.144960 0.144960
0.145814 0.145814 0.145814
0.147911 0.147911 0.147911
0.151329 0.151329 0.151329
0.154828 0.154828 0.154828
0.159526 0.159526 0.159526
0.165328 0.165328 0.165328
0.172076 0.172076 0.172076
0.179868 0.179868 0.179868
0.188722 0.188722 0.188722
0.198956 0.198956 0.198956
0.210644 0.210644 0.210644
0.223813 0.223813 0.223813
0.238486 0.238486 0.238486
0.254718 0.254718 0.254718
0.274147 0.274147 0.274147
0.300552 0.300552 0.300552
0.316623 0.316623 0.316623
0.335850 0.335850 0.335850
0.359209 0.359209 0.359209
0.384051 0.384051 0.384051
0.405265 0.405265 0.405265
0.428874 0.428874 0.428874
0.454414 0.454414 0.454414
0.481057 0.481057 0.481057
0.508041 0.508041 0.508041
0.537604 0.537604 0.537604
0.566671 0.566671 0.566671
0.597710 0.597710 0.597710
0.631717 0.631717 0.631717
0.716708 0.716708 0.716708
0.165895 0.165895 0.165895
0.165966 0.165966 0.165966
0.166278 0.166278 0.166278
0.167093 0.167093 0.167093
0.168980 0.168980 0.168980
0.172963 0.172963 0.172963
0.175830 0.175830 0.175830
0.181080 0.181080 0.181080
0.186663 0.186663 0.186663
0.193137 0.193137 0.193137
0.201078 0.201078 0.201078
0.210345 0.210345 0.210345
0.221042 0.221042 0.221042
0.232451 0.232451 0.232451
0.245691 0.245691 0.245691
0.260136 0.260136 0.260136
0.276183 0.276183 0.276183
0.293422 0.293422 0.293422
0.319213 0.319213 0.319213
0.335314 0.335314 0.335314
0.354361 0.354361 0.354361
0.378189 0.378189 0.378189
0.403474 0.403474 0.403474
0.424697 0.424697 0.424697
0.448853 0.448853 0.448853
0.474247 0.474247 0.474247
0.500113 0.500113 0.500113
0.525648 0.525648 0.525648
0.554473 0.554473 0.554473
0.582358 0.582358 0.582358
0.613361 0.613361 0.613361
0.645311 0.645311 0.645311
0.696028 0.696028 0.696028
0.191957 0.191957 0.191957
0.192044 0.192044 0.192044
0.192403 0.192403 0.192403
0.193267 0.193267 0.193267
0.195118 0.195118 0.195118
0.198926 0.198926 0.198926
0.202615 0.202615 0.202615
0.208014 0.208014 0.208014
0.213821 0.213821 0.213821
0.221304 0.221304 0.221304
0.229643 0.229643 0.229643
0.239241 0.239241 0.239241
0.249739 0.249739 0.249739
0.261575 0.261575 0.261575
0.274698 0.274698 0.274698
0.289451 0.289451 0.289451
0.304539 0.304539 0.304539
0.320983 0.320983 0.320983
0.339331 0.339331 0.339331
0.355235 0.355235 0.355235
0.374537 0.374537 0.374537
0.398323 0.398323 0.398323
0.423785 0.423785 0.423785
0.445395 0.445395 0.445395
0.469528 0.469528 0.469528
0.495452 0.495452 0.495452
0.520277 0.520277 0.520277
0.544784 0.544784 0.544784
0.572302 0.572302 0.572302
0.600057 0.600057 0.600057
0.630731 0.630731 0.630731
0.657895 0.657895 0.657895
0.696651 0.696651 0.696651
0.214978 0.214978 0.214978
0.215062 0.215062 0.215062
0.215403 0.215403 0.215403
0.216206 0.216206 0.216206
0.217886 0.217886 0.217886
0.221249 0.221249 0.221249
0.225514 0.225514 0.225514
0.229892 0.229892 0.229892
0.236159 0.236159 0.236159
0.243402 0.243402 0.243402
0.251017 0.251017 0.251017
0.260228 0.260228 0.260228
0.270695 0.270695 0.270695
0.282376 0.282376 0.282376
0.294830 0.294830 0.294830
0.308380 0.308380 0.308380
0.323308 0.323308 0.323308
0.339734 0.339734 0.339734
0.357274 0.357274 0.357274
0.376855 0.376855 0.376855
0.395737 0.395737 0.395737
0.419681 0.419681 0.419681
0.445286 0.445286 0.445286
0.467232 0.467232 0.467232
0.491789 0.491789 0.491789
0.517510 0.517510 0.517510
0.541090 0.541090 0.541090
0.565310 0.565310 0.565310
0.591947 0.591947 0.591947
0.619073 0.619073 0.619073
0.647855 0.647855 0.647855
0.673525 0.673525 0.673525
0.705255 0.705255 0.705255
0.240767 0.240767 0.240767
0.240852 0.240852 0.240852
0.241191 0.241191 0.241191
0.241962 0.241962 0.241962
0.243516 0.243516 0.243516
0.246516 0.246516 0.246516
0.251450 0.251450 0.251450
0.255163 0.255163 0.255163
0.262038 0.262038 0.262038
0.267891 0.267891 0.267891
0.276108 0.276108 0.276108
0.285488 0.285488 0.285488
0.294915 0.294915 0.294915
0.305511 0.305511 0.305511
0.317652 0.317652 0.317652
0.331105 0.331105 0.331105
0.345517 0.345517 0.345517
0.361470 0.361470 0.361470
0.379286 0.379286 0.379286
0.398003 0.398003 0.398003
0.418652 0.418652 0.418652
0.441913 0.441913 0.441913
0.467814 0.467814 0.467814
0.490270 0.490270 0.490270
0.514946 0.514946 0.514946
0.539867 0.539867 0.539867
0.563401 0.563401 0.563401
0.587107 0.587107 0.587107
0.613226 0.613226 0.613226
0.639320 0.639320 0.639320
0.664974 0.664974 0.664974
0.689635 0.689635 0.689635
0.718524 0.718524 0.718524
0.269633 0.269633 0.269633
0.269730 0.269730 0.269730
0.270106 0.270106 0.270106
0.270924 0.270924 0.270924
0.272484 0.272484 0.272484
0.275345 0.275345 0.275345
0.280545 0.280545 0.280545
0.284506 0.284506 0.284506
0.290103 0.290103 0.290103
0.296499 0.296499 0.296499
0.304381 0.304381 0.304381
0.312411 0.312411 0.312411
0.322118 0.322118 0.322118
0.332939 0.332939 0.332939
0.344778 0.344778 0.344778
0.358118 0.358118 0.358118
0.372515 0.372515 0.372515
0.388292 0.388292 0.388292
0.405480 0.405480 0.405480
0.424460 0.424460 0.424460
0.444248 0.444248 0.444248
0.466020 0.466020 0.466020
0.491547 0.491547 0.491547
0.514352 0.514352 0.514352
0.537821 0.537821 0.537821
0.563000 0.563000 0.563000
0.586982 0.586982 0.586982
0.610649 0.610649 0.610649
0.636139 0.636139 0.636139
0.658523 0.658523 0.658523
0.683013 0.683013 0.683013
0.707292 0.707292 0.707292
0.731855 0.731855 0.731855
0.300185 0.300185 0.300185
0.300284 0.300284 0.300284
0.300660 0.300660 0.300660
0.301452 0.301452 0.301452
0.302906 0.302906 0.302906
0.305463 0.305463 0.305463
0.309929 0.309929 0.309929
0.314591 0.314591 0.314591
0.319521 0.319521 0.319521
0.326812 0.326812 0.326812
0.333454 0.333454 0.333454
0.342182 0.342182 0.342182
0.352265 0.352265 0.352265
0.362425 0.362425 0.362425
0.374046 0.374046 0.374046
0.387136 0.387136 0.387136
0.401662 0.401662 0.401662
0.417270 0.417270 0.417270
0.434202 0.434202 0.434202
0.452599 0.452599 0.452599
0.472678 0.472678 0.472678
0.493980 0.493980 0.493980
0.516823 0.516823 0.516823
0.538434 0.538434 0.538434
0.561894 0.561894 0.561894
0.587004 0.587004 0.587004
0.611557 0.611557 0.611557
0.635383 0.635383 0.635383
0.657958 0.657958 0.657958
0.678922 0.678922 0.678922
0.702313 0.702313 0.702313
0.725847 0.725847 0.725847
0.744343 0.744343 0.744343
0.330836 0.330836 0.330836
0.330927 0.330927 0.330927
0.331271 0.331271 0.331271
0.331987 0.331987 0.331987
0.333281 0.333281 0.333281
0.335521 0.335521 0.335521
0.339371 0.339371 0.339371
0.344620 0.344620 0.344620
0.348835 0.348835 0.348835
0.355784 0.355784 0.355784
0.362330 0.362330 0.362330
0.371158 0.371158 0.371158
0.379825 0.379825 0.379825
0.390522 0.390522 0.390522
0.402440 0.402440 0.402440
0.414746 0.414746 0.414746
0.428644 0.428644 0.428644
0.443942 0.443942 0.443942
0.460718 0.460718 0.460718
0.478889 0.478889 0.478889
0.498656 0.498656 0.498656
0.519424 0.519424 0.519424
0.540988 0.540988 0.540988
0.564041 0.564041 0.564041
0.587116 0.587116 0.587116
0.612177 0.612177 0.612177
0.637312 0.637312 0.637312
0.658341 0.658341 0.658341
0.679965 0.679965 0.679965
0.700681 0.700681 0.700681
0.723119 0.723119 0.723119
0.740117 0.740117 0.740117
0.758068 0.758068 0.758068
0.361671 0.361671 0.361671
0.361769 0.361769 0.361769
0.362140 0.362140 0.362140
0.362891 0.362891 0.362891
0.364202 0.364202 0.364202
0.366383 0.366383 0.366383
0.369989 0.369989 0.369989
0.376041 0.376041 0.376041
0.379935 0.379935 0.379935
0.386060 0.386060 0.386060
0.393661 0.393661 0.393661
0.401251 0.401251 0.401251
0.410555 0.410555 0.410555
0.421054 0.421054 0.421054
0.431958 0.431958 0.431958
0.444571 0.444571 0.444571
0.458552 0.458552 0.458552
0.473732 0.473732 0.473732
0.490113 0.490113 0.490113
0.508016 0.508016 0.508016
0.526538 0.526538 0.526538
0.546095 0.546095 0.546095
0.566979 0.566979 0.566979
0.589695 0.589695 0.589695
0.613686 0.613686 0.613686
0.638398 0.638398 0.638398
0.661133 0.661133 0.661133
0.681319 0.681319 0.681319
0.703091 0.703091 0.703091
0.723460 0.723460 0.723460
0.739784 0.739784 0.739784
0.755484 0.755484 0.755484
0.772364 0.772364 0.772364
0.393764 0.393764 0.393764
0.393873 0.393873 0.393873
0.394278 0.394278 0.394278
0.395082 0.395082 0.395082
0.396442 0.396442 0.396442
0.398625 0.398625 0.398625
0.402102 0.402102 0.402102
0.407677 0.407677 0.407677
0.412674 0.412674 0.412674
0.418223 0.418223 0.418223
0.426836 0.426836 0.426836
0.433563 0.433563 0.433563
0.443531 0.443531 0.443531
0.452797 0.452797 0.452797
0.464477 0.464477 0.464477
0.476906 0.476906 0.476906
0.490323 0.490323 0.490323
0.505239 0.505239 0.505239
0.521001 0.521001 0.521001
0.537623 0.537623 0.537623
0.555552 0.555552 0.555552
0.574826 0.574826 0.574826
0.595353 0.595353 0.595353
0.617217 0.617217 0.617217
0.641006 0.641006 0.641006
0.662209 0.662209 0.662209
0.685355 0.685355 0.685355
0.705525 0.705525 0.705525
0.726648 0.726648 0.726648
0.741374 0.741374 0.741374
0.756530 0.756530 0.756530
0.771646 0.771646 0.771646
0.787901 0.787901 0.787901
0.433053 0.433053 0.433053
0.433144 0.433144 0.433144
0.433478 0.433478 0.433478
0.434137 0.434137 0.434137
0.435242 0.435242 0.435242
0.437005 0.437005 0.437005
0.439815 0.439815 0.439815
0.444419 0.444419 0.444419
0.449974 0.449974 0.449974
0.454698 0.454698 0.454698
0.461918 0.461918 0.461918
0.469602 0.469602 0.469602
0.478059 0.478059 0.478059
0.487974 0.487974 0.487974
0.498921 0.498921 0.498921
0.510744 0.510744 0.510744
0.523868 0.523868 0.523868
0.537652 0.537652 0.537652
0.552272 0.552272 0.552272
0.568411 0.568411 0.568411
0.585997 0.585997 0.585997
0.605065 0.605065 0.605065
0.625632 0.625632 0.625632
0.646738 0.646738 0.646738
0.666900 0.666900 0.666900
