trix_classic/TriX_NoFilter_Normal.cube
TITLE "Tri-X NoFilter Normal"
# Adobe RGB in/out. REPLACES AgX. R=0.2974 G=0.2859 B=0.4167
LUT_3D_SIZE 9
DOMAIN_MIN 0.0 0.0 0.0
DOMAIN_MAX 1.0 1.0 1.0
0.095875 0.095875 0.095875
0.095875 0.095875 0.095875
0.095875 0.095875 0.095875
0.095875 0.095875 0.095875
0.095875 0.095875 0.095875
0.095875 0.095875 0.095875
0.095875 0.095875 0.095875
0.095875 0.095875 0.095875
0.095875 0.095875 0.095875
0.095875 0.095875 0.095875
0.095875 0.095875 0.095875
0.095875 0.095875 0.095875
0.095875 0.095875 0.095875
0.095875 0.095875 0.095875
0.095875 0.095875 0.095875
0.095875 0.095875 0.095875
0.095875 0.095875 0.095875
0.095875 0.095875 0.095875
0.095875 0.095875 0.095875
0.095875 0.095875 0.095875
0.095875 0.095875 0.095875
0.095875 0.095875 0.095875
0.095875 0.095875 0.095875
0.095875 0.095875 0.095875
0.095875 0.095875 0.095875
0.095875 0.095875 0.095875
0.095875 0.095875 0.095875
0.095875 0.095875 0.095875
0.095875 0.095875 0.095875
0.095875 0.095875 0.095875
0.095875 0.095875 0.095875
0.095875 0.095875 0.095875
0.095875 0.095875 0.095875
0.095875 0.095875 0.095875
0.095875 0.095875 0.095875
0.095875 0.095875 0.095875
0.095875 0.095875 0.095875
0.095875 0.095875 0.095875
0.095875 0.095875 0.095875
0.095875 0.095875 0.095875
0.095875 0.095875 0.095875
0.095875 0.095875 0.095875
0.095875 0.095875 0.095875
0.095875 0.095875 0.095875
0.095875 0.095875 0.095875
0.095875 0.095875 0.095875
0.095875 0.095875 0.095875
0.095875 0.095875 0.095875
0.095875 0.095875 0.095875
0.095875 0.095875 0.095875
0.095875 0.095875 0.095875
0.095875 0.095875 0.095875
0.095875 0.095875 0.095875
0.095875 0.095875 0.095875
0.095875 0.095875 0.095875
0.095875 0.095875 0.095875
0.095875 0.095875 0.095875
0.095875 0.095875 0.095875
0.095875 0.095875 0.095875
0.095875 0.095875 0.095875
0.095875 0.095875 0.095875
0.095875 0.095875 0.095875
0.095875 0.095875 0.095875
0.095875 0.095875 0.095875
0.095875 0.095875 0.095875
0.095875 0.095875 0.095875
0.095875 0.095875 0.095875
0.095875 0.095875 0.095875
0.095875 0.095875 0.095875
0.095875 0.095875 0.095875
0.095875 0.095875 0.095875
0.095875 0.095875 0.095875
0.095875 0.095875 0.095875
0.095875 0.095875 0.095875
0.095875 0.095875 0.095875
0.095875 0.095875 0.095875
0.095875 0.095875 0.095875
0.095875 0.095875 0.095875
0.095875 0.095875 0.095875
0.095875 0.095875 0.095875
0.095875 0.095875 0.095875
0.095875 0.095875 0.095875
0.095875 0.095875 0.095875
0.095875 0.095875 0.095875
0.095875 0.095875 0.095875
0.095875 0.095875 0.095875
0.095875 0.095875 0.095875
0.095875 0.095875 0.095875
0.095875 0.095875 0.095875
0.095875 0.095875 0.095875
0.095875 0.095875 0.095875
0.100863 0.100863 0.100863
0.110817 0.110817 0.110817
0.124632 0.124632 0.124632
0.139637 0.139637 0.139637
0.153607 0.153607 0.153607
0.166121 0.166121 0.166121
0.178666 0.178666 0.178666
0.190320 0.190320 0.190320
0.095875 0.095875 0.095875
0.110134 0.110134 0.110134
0.138047 0.138047 0.138047
0.164163 0.164163 0.164163
0.187922 0.187922 0.187922
0.208435 0.208435 0.208435
0.226045 0.226045 0.226045
0.242090 0.242090 0.242090
0.256907 0.256907 0.256907
0.095875 0.095875 0.095875
0.122606 0.122606 0.122606
0.163067 0.163067 0.163067
0.197225 0.197225 0.197225
0.224475 0.224475 0.224475
0.247901 0.247901 0.247901
0.268845 0.268845 0.268845
0.283123 0.283123 0.283123
0.295810 0.295810 0.295810
0.095875 0.095875 0.095875
0.136476 0.136476 0.136476
0.185555 0.185555 0.185555
0.223367 0.223367 0.223367
0.253863 0.253863 0.253863
0.277688 0.277688 0.277688
0.294673 0.294673 0.294673
0.310828 0.310828 0.310828
0.325536 0.325536 0.325536
0.095875 0.095875 0.095875
0.149577 0.149577 0.149577
0.205177 0.205177 0.205177
0.245733 0.245733 0.245733
0.276914 0.276914 0.276914
0.297976 0.297976 0.297976
0.317393 0.317393 0.317393
0.334793 0.334793 0.334793
0.351149 0.351149 0.351149
0.095875 0.095875 0.095875
0.161210 0.161210 0.161210
0.221815 0.221815 0.221815
0.265660 0.265660 0.265660
0.293078 0.293078 0.293078
0.316619 0.316619 0.316619
0.337251 0.337251 0.337251
0.356515 0.356515 0.356515
0.374235 0.374235 0.374235
0.095875 0.095875 0.095875
0.172419 0.172419 0.172419
0.236931 0.236931 0.236931
0.280139 0.280139 0.280139
0.308508 0.308508 0.308508
0.333289 0.333289 0.333289
0.355744 0.355744 0.355744
0.376233 0.376233 0.376233
0.394934 0.394934 0.394934
0.095875 0.095875 0.095875
0.183217 0.183217 0.183217
0.250855 0.250855 0.250855
0.292019 0.292019 0.292019
0.322530 0.322530 0.322530
0.348840 0.348840 0.348840
0.372726 0.372726 0.372726
0.394194 0.394194 0.394194
0.413787 0.413787 0.413787
0.095875 0.095875 0.095875
0.095875 0.095875 0.095875
0.095875 0.095875 0.095875
0.095875 0.095875 0.095875
0.095875 0.095875 0.095875
0.095875 0.095875 0.095875
0.095875 0.095875 0.095875
0.095875 0.095875 0.095875
0.095875 0.095875 0.095875
0.095875 0.095875 0.095875
0.118673 0.118673 0.118673
0.157256 0.157256 0.157256
0.189458 0.189458 0.189458
0.216153 0.216153 0.216153
0.238711 0.238711 0.238711
0.258880 0.258880 0.258880
0.275451 0.275451 0.275451
0.287612 0.287612 0.287612
0.095875 0.095875 0.095875
0.155466 0.155466 0.155466
0.213592 0.213592 0.213592
0.255812 0.255812 0.255812
0.285130 0.285130 0.285130
0.307446 0.307446 0.307446
0.327480 0.327480 0.327480
0.345686 0.345686 0.345686
0.362868 0.362868 0.362868
0.095875 0.095875 0.095875
0.185689 0.185689 0.185689
0.254035 0.254035 0.254035
0.294828 0.294828 0.294828
0.325708 0.325708 0.325708
0.352447 0.352447 0.352447
0.376580 0.376580 0.376580
0.398270 0.398270 0.398270
0.418066 0.418066 0.418066
0.095875 0.095875 0.095875
0.211062 0.211062 0.211062
0.282669 0.282669 0.282669
0.324456 0.324456 0.324456
0.359353 0.359353 0.359353
0.389696 0.389696 0.389696
0.416380 0.416380 0.416380
0.439491 0.439491 0.439491
0.460641 0.460641 0.460641
0.095875 0.095875 0.095875
0.232196 0.232196 0.232196
0.303699 0.303699 0.303699
0.349928 0.349928 0.349928
0.388477 0.388477 0.388477
0.421279 0.421279 0.421279
0.448929 0.448929 0.448929
0.473962 0.473962 0.473962
0.496772 0.496772 0.496772
0.095875 0.095875 0.095875
0.251025 0.251025 0.251025
0.322700 0.322700 0.322700
0.372933 0.372933 0.372933
0.414016 0.414016 0.414016
0.447817 0.447817 0.447817
0.477499 0.477499 0.477499
0.504125 0.504125 0.504125
0.527956 0.527956 0.527956
0.095875 0.095875 0.095875
0.268131 0.268131 0.268131
0.339690 0.339690 0.339690
0.393560 0.393560 0.393560
0.436157 0.436157 0.436157
0.471797 0.471797 0.471797
0.503068 0.503068 0.503068
0.530587 0.530587 0.530587
0.555159 0.555159 0.555159
0.095875 0.095875 0.095875
0.280229 0.280229 0.280229
0.355872 0.355872 0.355872
0.412347 0.412347 0.412347
0.456317 0.456317 0.456317
0.493605 0.493605 0.493605
0.525969 0.525969 0.525969
0.554188 0.554188 0.554188
0.579854 0.579854 0.579854
0.095875 0.095875 0.095875
0.095875 0.095875 0.095875
0.095875 0.095875 0.095875
0.095875 0.095875 0.095875
0.095875 0.095875 0.095875
0.095875 0.095875 0.095875
0.095875 0.095875 0.095875
0.095875 0.095875 0.095875
0.095875 0.095875 0.095875
0.095875 0.095875 0.095875
0.149076 0.149076 0.149076
0.204461 0.204461 0.204461
0.244876 0.244876 0.244876
0.276211 0.276211 0.276211
0.297167 0.297167 0.297167
0.316531 0.316531 0.316531
0.333884 0.333884 0.333884
0.350149 0.350149 0.350149
0.095875 0.095875 0.095875
0.202038 0.202038 0.202038
0.273827 0.273827 0.273827
0.313608 0.313608 0.313608
0.346757 0.346757 0.346757
0.376037 0.376037 0.376037
0.401786 0.401786 0.401786
0.424844 0.424844 0.424844
0.444988 0.444988 0.444988
0.095875 0.095875 0.095875
0.240293 0.240293 0.240293
0.311911 0.311911 0.311911
0.359861 0.359861 0.359861
0.399504 0.399504 0.399504
0.432612 0.432612 0.432612
0.461273 0.461273 0.461273
0.486993 0.486993 0.486993
0.510430 0.510430 0.510430
0.095875 0.095875 0.095875
0.271463 0.271463 0.271463
0.343398 0.343398 0.343398
0.397894 0.397894 0.397894
0.440811 0.440811 0.440811
0.476831 0.476831 0.476831
0.508436 0.508436 0.508436
0.536038 0.536038 0.536038
0.560863 0.560863 0.560863
0.095875 0.095875 0.095875
0.290974 0.290974 0.290974
0.371229 0.371229 0.371229
0.429719 0.429719 0.429719
0.475385 0.475385 0.475385
0.514231 0.514231 0.514231
0.547122 0.547122 0.547122
0.576476 0.576476 0.576476
0.603174 0.603174 0.603174
0.095875 0.095875 0.095875
0.309030 0.309030 0.309030
0.395635 0.395635 0.395635
0.456943 0.456943 0.456943
0.505639 0.505639 0.505639
0.545816 0.545816 0.545816
0.580619 0.580619 0.580619
0.611771 0.611771 0.611771
0.640103 0.640103 0.640103
0.095875 0.095875 0.095875
0.325301 0.325301 0.325301
0.417517 0.417517 0.417517
0.481411 0.481411 0.481411
0.532121 0.532121 0.532121
0.573940 0.573940 0.573940
0.610536 0.610536 0.610536
0.643293 0.643293 0.643293
0.672439 0.672439 0.672439
0.095875 0.095875 0.095875
0.340085 0.340085 0.340085
0.436673 0.436673 0.436673
0.503663 0.503663 0.503663
0.555791 0.555791 0.555791
0.599470 0.599470 0.599470
0.637694 0.637694 0.637694
0.671417 0.671417 0.671417
0.698352 0.698352 0.698352
0.095875 0.095875 0.095875
0.095875 0.095875 0.095875
0.095875 0.095875 0.095875
0.095875 0.095875 0.095875
0.095875 0.095875 0.095875
0.095875 0.095875 0.095875
0.095875 0.095875 0.095875
0.095875 0.095875 0.095875
0.095875 0.095875 0.095875
0.095875 0.095875 0.095875
0.178375 0.178375 0.178375
0.244618 0.244618 0.244618
0.286721 0.286721 0.286721
0.316271 0.316271 0.316271
0.341741 0.341741 0.341741
0.365142 0.365142 0.365142
0.386172 0.386172 0.386172
0.405367 0.405367 0.405367
0.095875 0.095875 0.095875
0.241720 0.241720 0.241720
0.313351 0.313351 0.313351
0.361605 0.361605 0.361605
0.401440 0.401440 0.401440
0.434630 0.434630 0.434630
0.463438 0.463438 0.463438
0.489280 0.489280 0.489280
0.512827 0.512827 0.512827
0.095875 0.095875 0.095875
0.282808 0.282808 0.282808
0.359552 0.359552 0.359552
0.416611 0.416611 0.416611
0.460889 0.460889 0.460889
0.498550 0.498550 0.498550
0.531043 0.531043 0.531043
0.559535 0.559535 0.559535
0.585448 0.585448 0.585448
0.095875 0.095875 0.095875
0.310457 0.310457 0.310457
0.397552 0.397552 0.397552
0.459088 0.459088 0.459088
0.508013 0.508013 0.508013
0.548284 0.548284 0.548284
0.583245 0.583245 0.583245
0.614537 0.614537 0.614537
0.642997 0.642997 0.642997
0.095875 0.095875 0.095875
0.334395 0.334395 0.334395
0.429373 0.429373 0.429373
0.495096 0.495096 0.495096
0.546683 0.546683 0.546683
0.589646 0.589646 0.589646
0.627244 0.627244 0.627244
0.660897 0.660897 0.660897
0.688398 0.688398 0.688398
0.095875 0.095875 0.095875
0.356069 0.356069 0.356069
0.456562 0.456562 0.456562
0.526241 0.526241 0.526241
0.580154 0.580154 0.580154
0.625747 0.625747 0.625747
0.665647 0.665647 0.665647
0.696915 0.696915 0.696915
0.724872 0.724872 0.724872
0.095875 0.095875 0.095875
0.375763 0.375763 0.375763
0.481010 0.481010 0.481010
0.553356 0.553356 0.553356
0.610046 0.610046 0.610046
0.657989 0.657989 0.657989
0.695693 0.695693 0.695693
0.728009 0.728009 0.728009
0.757194 0.757194 0.757194
0.095875 0.095875 0.095875
0.393701 0.393701 0.393701
0.503244 0.503244 0.503244
0.577971 0.577971 0.577971
0.637183 0.637183 0.637183
0.684724 0.684724 0.684724
0.722502 0.722502 0.722502
0.756049 0.756049 0.756049
0.784187 0.784187 0.784187
0.095875 0.095875 0.095875
0.095875 0.095875 0.095875
0.095875 0.095875 0.095875
0.095875 0.095875 0.095875
0.095875 0.095875 0.095875
0.095875 0.095875 0.095875
0.095875 0.095875 0.095875
0.095875 0.095875 0.095875
0.095875 0.095875 0.095875
0.095875 0.095875 0.095875
0.206528 0.206528 0.206528
0.278240 0.278240 0.278240
0.319019 0.319019 0.319019
0.353038 0.353038 0.353038
0.382847 0.382847 0.382847
0.409063 0.409063 0.409063
0.432038 0.432038 0.432038
0.452795 0.452795 0.452795
0.095875 0.095875 0.095875
0.275838 0.275838 0.275838
0.349618 0.349618 0.349618
0.405101 0.405101 0.405101
0.448545 0.448545 0.448545
0.485197 0.485197 0.485197
0.517338 0.517338 0.517338
0.545094 0.545094 0.545094
0.570338 0.570338 0.570338
0.095875 0.095875 0.095875
0.314363 0.314363 0.314363
0.402801 0.402801 0.402801
0.464960 0.464960 0.464960
0.514510 0.514510 0.514510
0.555037 0.555037 0.555037
0.590428 0.590428 0.590428
0.622106 0.622106 0.622106
0.650917 0.650917 0.650917
0.095875 0.095875 0.095875
0.346232 0.346232 0.346232
0.444334 0.444334 0.444334
0.512500 0.512500 0.512500
0.565181 0.565181 0.565181
0.609597 0.609597 0.609597
0.648467 0.648467 0.648467
0.681261 0.681261 0.681261
0.708590 0.708590 0.708590
0.095875 0.095875 0.095875
0.374292 0.374292 0.374292
0.479185 0.479185 0.479185
0.551334 0.551334 0.551334
0.607817 0.607817 0.607817
0.655584 0.655584 0.655584
0.693483 0.693483 0.693483
0.725697 0.725697 0.725697
0.754800 0.754800 0.754800
0.095875 0.095875 0.095875
0.398899 0.398899 0.398899
0.509681 0.509681 0.509681
0.585089 0.585089 0.585089
0.645031 0.645031 0.645031
0.692045 0.692045 0.692045
0.730226 0.730226 0.730226
0.764097 0.764097 0.764097
0.790282 0.790282 0.790282
0.095875 0.095875 0.095875
0.420962 0.420962 0.420962
0.536218 0.536218 0.536218
0.615236 0.615236 0.615236
0.676934 0.676934 0.676934
0.722922 0.722922 0.722922
0.762763 0.762763 0.762763
0.792771 0.792771 0.792771
0.815799 0.815799 0.815799
0.095875 0.095875 0.095875
0.440163 0.440163 0.440163
0.560070 0.560070 0.560070
0.642603 0.642603 0.642603
0.703020 0.703020 0.703020
0.750781 0.750781 0.750781
0.788400 0.788400 0.788400
0.814897 0.814897 0.814897
0.838568 0.838568 0.838568
0.095875 0.095875 0.095875
0.095875 0.095875 0.095875
0.095875 0.095875 0.095875
0.095875 0.095875 0.095875
0.095875 0.095875 0.095875
0.095875 0.095875 0.095875
0.095875 0.095875 0.095875
0.095875 0.095875 0.095875
0.095875 0.095875 0.095875
0.095875 0.095875 0.095875
0.231385 0.231385 0.231385
0.302874 0.302874 0.302874
0.348930 0.348930 0.348930
0.387369 0.387369 0.387369
0.420078 0.420078 0.420078
0.447690 0.447690 0.447690
0.472653 0.472653 0.472653
0.495400 0.495400 0.495400
0.095875 0.095875 0.095875
0.300077 0.300077 0.300077
0.383617 0.383617 0.383617
0.443487 0.443487 0.443487
0.490749 0.490749 0.490749
0.530327 0.530327 0.530327
0.564143 0.564143 0.564143
0.594410 0.594410 0.594410
0.621939 0.621939 0.621939
0.095875 0.095875 0.095875
0.343589 0.343589 0.343589
0.441047 0.441047 0.441047
0.508709 0.508709 0.508709
0.561153 0.561153 0.561153
0.605253 0.605253 0.605253
0.643846 0.643846 0.643846
0.677041 0.677041 0.677041
0.704201 0.704201 0.704201
0.095875 0.095875 0.095875
0.379902 0.379902 0.379902
0.486143 0.486143 0.486143
0.559042 0.559042 0.559042
0.616315 0.616315 0.616315
0.664750 0.664750 0.664750
0.701899 0.701899 0.701899
0.734503 0.734503 0.734503
0.763919 0.763919 0.763919
0.095875 0.095875 0.095875
0.410691 0.410691 0.410691
0.523997 0.523997 0.523997
0.601215 0.601215 0.601215
0.662808 0.662808 0.662808
0.708587 0.708587 0.708587
0.747681 0.747681 0.747681
0.781295 0.781295 0.781295
0.803990 0.803990 0.803990
0.095875 0.095875 0.095875
0.436907 0.436907 0.436907
0.556079 0.556079 0.556079
0.638024 0.638024 0.638024
0.698666 0.698666 0.698666
0.746130 0.746130 0.746130
0.784842 0.784842 0.784842
0.811219 0.811219 0.811219
0.834783 0.834783 0.834783
0.095875 0.095875 0.095875
0.460303 0.460303 0.460303
0.584731 0.584731 0.584731
0.670541 0.670541 0.670541
0.729838 0.729838 0.729838
0.779119 0.779119 0.779119
0.810183 0.810183 0.810183
0.837412 0.837412 0.837412
0.861737 0.861737 0.861737
0.095875 0.095875 0.095875
0.481579 0.481579 0.481579
0.610741 0.610741 0.610741
0.696381 0.696381 0.696381
0.757940 0.757940 0.757940
0.800864 0.800864 0.800864
0.832795 0.832795 0.832795
0.860784 0.860784 0.860784
0.884083 0.884083 0.884083
0.095875 0.095875 0.095875
0.095875 0.095875 0.095875
0.095875 0.095875 0.095875
0.095875 0.095875 0.095875
0.095875 0.095875 0.095875
0.095875 0.095875 0.095875
0.095875 0.095875 0.095875
0.095875 0.095875 0.095875
0.095875 0.095875 0.095875
0.095875 0.095875 0.095875
0.254722 0.254722 0.254722
0.326393 0.326393 0.326393
0.377412 0.377412 0.377412
0.418989 0.418989 0.418989
0.453028 0.453028 0.453028
0.483055 0.483055 0.483055
0.509990 0.509990 0.509990
0.533871 0.533871 0.533871
0.095875 0.095875 0.095875
0.323379 0.323379 0.323379
0.414930 0.414930 0.414930
0.478521 0.478521 0.478521
0.529044 0.529044 0.529044
0.570620 0.570620 0.570620
0.607005 0.607005 0.607005
0.639572 0.639572 0.639572
0.669059 0.669059 0.669059
0.095875 0.095875 0.095875
0.371634 0.371634 0.371634
0.475888 0.475888 0.475888
0.547679 0.547679 0.547679
0.603788 0.603788 0.603788
0.651239 0.651239 0.651239
0.689488 0.689488 0.689488
0.721516 0.721516 0.721516
0.750460 0.750460 0.750460
0.095875 0.095875 0.095875
0.410911 0.410911 0.410911
0.524260 0.524260 0.524260
0.601516 0.601516 0.601516
0.663140 0.663140 0.663140
0.708895 0.708895 0.708895
0.748006 0.748006 0.748006
0.781542 0.781542 0.781542
0.804245 0.804245 0.804245
0.095875 0.095875 0.095875
0.443215 0.443215 0.443215
0.563809 0.563809 0.563809
0.646894 0.646894 0.646894
0.707096 0.707096 0.707096
0.755123 0.755123 0.755123
0.791725 0.791725 0.791725
0.818334 0.818334 0.818334
0.842105 0.842105 0.842105
0.095875 0.095875 0.095875
0.471421 0.471421 0.471421
0.598328 0.598328 0.598328
0.684068 0.684068 0.684068
0.744561 0.744561 0.744561
0.790530 0.790530 0.790530
0.822049 0.822049 0.822049
0.849676 0.849676 0.849676
0.874358 0.874358 0.874358
0.095875 0.095875 0.095875
0.496665 0.496665 0.496665
0.629157 0.629157 0.629157
0.714589 0.714589 0.714589
0.777670 0.777670 0.777670
0.816054 0.816054 0.816054
0.848591 0.848591 0.848591
0.877111 0.877111 0.877111
0.896328 0.896328 0.896328
0.095875 0.095875 0.095875
0.519519 0.519519 0.519519
0.657144 0.657144 0.657144
0.742126 0.742126 0.742126
0.799637 0.799637 0.799637
0.838830 0.838830 0.838830
0.872275 0.872275 0.872275
0.895602 0.895602 0.895602
0.914573 0.914573 0.914573
0.095875 0.095875 0.095875
0.095875 0.095875 0.095875
0.095875 0.095875 0.095875
0.095875 0.095875 0.095875
0.095875 0.095875 0.095875
0.095875 0.095875 0.095875
0.095875 0.095875 0.095875
0.095875 0.095875 0.095875
0.095875 0.095875 0.095875
0.095875 0.095875 0.095875
0.275144 0.275144 0.275144
0.348630 0.348630 0.348630
0.403956 0.403956 0.403956
0.447317 0.447317 0.447317
0.483869 0.483869 0.483869
0.515940 0.515940 0.515940
0.543656 0.543656 0.543656
0.568834 0.568834 0.568834
0.095875 0.095875 0.095875
0.345254 0.345254 0.345254
0.443118 0.443118 0.443118
0.511097 0.511097 0.511097
0.563690 0.563690 0.563690
0.607990 0.607990 0.607990
0.646757 0.646757 0.646757
0.679700 0.679700 0.679700
0.706967 0.706967 0.706967
0.095875 0.095875 0.095875
0.397772 0.397772 0.397772
0.508285 0.508285 0.508285
0.583546 0.583546 0.583546
0.643330 0.643330 0.643330
0.690459 0.690459 0.690459
0.728553 0.728553 0.728553
0.762354 0.762354 0.762354
0.788964 0.788964 0.788964
0.095875 0.095875 0.095875
0.438958 0.438958 0.438958
0.558593 0.558593 0.558593
0.640909 0.640909 0.640909
0.701409 0.701409 0.701409
0.749060 0.749060 0.749060
0.787084 0.787084 0.787084
0.813537 0.813537 0.813537
0.837169 0.837169 0.837169
0.095875 0.095875 0.095875
0.473388 0.473388 0.473388
0.600733 0.600733 0.600733
0.686455 0.686455 0.686455
0.747160 0.747160 0.747160
0.792537 0.792537 0.792537
0.824137 0.824137 0.824137
0.851835 0.851835 0.851835
0.876579 0.876579 0.876579
0.095875 0.095875 0.095875
0.503514 0.503514 0.503514
0.637512 0.637512 0.637512
0.722826 0.722826 0.722826
0.784444 0.784444 0.784444
0.822892 0.822892 0.822892
0.855702 0.855702 0.855702
0.883113 0.883113 0.883113
0.901820 0.901820 0.901820
0.095875 0.095875 0.095875
0.529968 0.529968 0.529968
0.670074 0.670074 0.670074
0.755066 0.755066 0.755066
0.809772 0.809772 0.809772
0.849462 0.849462 0.849462
0.882287 0.882287 0.882287
0.903897 0.903897 0.903897
0.923044 0.923044 0.923044
0.095875 0.095875 0.095875
0.553542 0.553542 0.553542
0.695896 0.695896 0.695896
0.782575 0.782575 0.782575
0.832373 0.832373 0.832373
0.873170 0.873170 0.873170
0.900247 0.900247 0.900247
0.922297 0.922297 0.922297
0.941833 0.941833 0.941833
