trix_classic/TriX_Green58_Normal.cube
TITLE "Tri-X Green58 Normal"
# Adobe RGB in/out. REPLACES AgX. R=0.1714 G=0.8069 B=0.0217
LUT_3D_SIZE 5
DOMAIN_MIN 0.0 0.0 0.0
DOMAIN_MAX 1.0 1.0 1.0
0.095875 0.095875 0.095875
0.095875 0.095875 0.095875
0.095875 0.095875 0.095875
0.095875 0.095875 0.095875
0.095875 0.095875 0.095875
0.095875 0.095875 0.095875
0.095875 0.095875 0.095875
0.095875 0.095875 0.095875
0.095875 0.095875 0.095875
0.095875 0.095875 0.095875
0.095875 0.095875 0.095875
0.095875 0.095875 0.095875
0.095875 0.095875 0.095875
0.095875 0.095875 0.095875
0.095875 0.095875 0.095875
0.095875 0.095875 0.095875
0.095875 0.095875 0.095875
0.095875 0.095875 0.095875
0.095875 0.095875 0.095875
0.095875 0.095875 0.095875
0.095875 0.095875 0.095875
0.095875 0.095875 0.095875
0.095875 0.095875 0.095875
0.095875 0.095875 0.095875
0.095875 0.095875 0.095875
0.095875 0.095875 0.095875
0.095875 0.095875 0.095875
0.095875 0.095875 0.095875
0.095875 0.095875 0.095875
0.095875 0.095875 0.095875
0.095875 0.095875 0.095875
0.213592 0.213592 0.213592
0.255130 0.255130 0.255130
0.279646 0.279646 0.279646
0.295203 0.295203 0.295203
0.095875 0.095875 0.095875
0.433571 0.433571 0.433571
0.499030 0.499030 0.499030
0.540870 0.540870 0.540870
0.572142 0.572142 0.572142
0.095875 0.095875 0.095875
0.633645 0.633645 0.633645
0.717744 0.717744 0.717744
0.768814 0.768814 0.768814
0.799357 0.799357 0.799357
0.095875 0.095875 0.095875
0.796209 0.796209 0.796209
0.867418 0.867418 0.867418
0.903152 0.903152 0.903152
0.926965 0.926965 0.926965
0.095875 0.095875 0.095875
0.095875 0.095875 0.095875
0.095875 0.095875 0.095875
0.095875 0.095875 0.095875
0.095875 0.095875 0.095875
0.095875 0.095875 0.095875
0.218463 0.218463 0.218463
0.260947 0.260947 0.260947
0.284270 0.284270 0.284270
0.300429 0.300429 0.300429
0.095875 0.095875 0.095875
0.441376 0.441376 0.441376
0.508013 0.508013 0.508013
0.550244 0.550244 0.550244
0.582058 0.582058 0.582058
0.095875 0.095875 0.095875
0.644628 0.644628 0.644628
0.728540 0.728540 0.728540
0.779868 0.779868 0.779868
0.808092 0.808092 0.808092
0.095875 0.095875 0.095875
0.804910 0.804910 0.804910
0.876897 0.876897 0.876897
0.910366 0.910366 0.910366
0.934370 0.934370 0.934370
0.095875 0.095875 0.095875
0.095875 0.095875 0.095875
0.095875 0.095875 0.095875
0.095875 0.095875 0.095875
0.095875 0.095875 0.095875
0.095875 0.095875 0.095875
0.221363 0.221363 0.221363
0.264412 0.264412 0.264412
0.287010 0.287010 0.287010
0.303529 0.303529 0.303529
0.095875 0.095875 0.095875
0.446006 0.446006 0.446006
0.513342 0.513342 0.513342
0.555803 0.555803 0.555803
0.587939 0.587939 0.587939
0.095875 0.095875 0.095875
0.651140 0.651140 0.651140
0.734930 0.734930 0.734930
0.784842 0.784842 0.784842
0.813246 0.813246 0.813246
0.095875 0.095875 0.095875
0.810043 0.810043 0.810043
0.881672 0.881672 0.881672
0.914613 0.914613 0.914613
0.938728 0.938728 0.938728
0.095875 0.095875 0.095875
0.095875 0.095875 0.095875
0.095875 0.095875 0.095875
0.095875 0.095875 0.095875
0.095875 0.095875 0.095875
0.095875 0.095875 0.095875
0.223445 0.223445 0.223445
0.266898 0.266898 0.266898
0.288970 0.288970 0.288970
0.305747 0.305747 0.305747
0.095875 0.095875 0.095875
0.449321 0.449321 0.449321
0.517146 0.517146 0.517146
0.559781 0.559781 0.559781
0.592147 0.592147 0.592147
0.095875 0.095875 0.095875
0.655800 0.655800 0.655800
0.739498 0.739498 0.739498
0.788390 0.788390 0.788390
0.816923 0.816923 0.816923
0.095875 0.095875 0.095875
0.813706 0.813706 0.813706
0.884588 0.884588 0.884588
0.917638 0.917638 0.917638
0.941833 0.941833 0.941833
