trix_classic/TriX_Orange21_Soft.cube
TITLE "Tri-X Orange21 Soft"
# Adobe RGB in/out. REPLACES AgX. Tri-X Orange21 Soft.
LUT_3D_SIZE 5
DOMAIN_MIN 0.0 0.0 0.0
DOMAIN_MAX 1.0 1.0 1.0
0.093873 0.093873 0.093873
0.122978 0.122978 0.122978
0.385067 0.385067 0.385067
0.645265 0.645265 0.645265
0.828406 0.828406 0.828406
0.094217 0.094217 0.094217
0.218679 0.218679 0.218679
0.439474 0.439474 0.439474
0.651455 0.651455 0.651455
0.828410 0.828410 0.828410
0.171880 0.171880 0.171880
0.300928 0.300928 0.300928
0.501718 0.501718 0.501718
0.693791 0.693791 0.693791
0.869979 0.869979 0.869979
0.317604 0.317604 0.317604
0.397007 0.397007 0.397007
0.567718 0.567718 0.567718
0.748111 0.748111 0.748111
0.888588 0.888588 0.888588
0.421808 0.421808 0.421808
0.555588 0.555588 0.555588
0.656651 0.656651 0.656651
0.796339 0.796339 0.796339
0.909787 0.909787 0.909787
0.093873 0.093873 0.093873
0.112219 0.112219 0.112219
0.374235 0.374235 0.374235
0.643686 0.643686 0.643686
0.828410 0.828410 0.828410
0.098248 0.098248 0.098248
0.233250 0.233250 0.233250
0.414243 0.414243 0.414243
0.650343 0.650343 0.650343
0.828410 0.828410 0.828410
0.213933 0.213933 0.213933
0.310529 0.310529 0.310529
0.496454 0.496454 0.496454
0.684469 0.684469 0.684469
0.869488 0.869488 0.869488
0.343328 0.343328 0.343328
0.411012 0.411012 0.411012
0.568551 0.568551 0.568551
0.745578 0.745578 0.745578
0.888978 0.888978 0.888978
0.421830 0.421830 0.421830
0.555588 0.555588 0.555588
0.659178 0.659178 0.659178
0.798654 0.798654 0.798654
0.910011 0.910011 0.910011
0.093907 0.093907 0.093907
0.160406 0.160406 0.160406
0.377390 0.377390 0.377390
0.641097 0.641097 0.641097
0.828410 0.828410 0.828410
0.106113 0.106113 0.106113
0.224053 0.224053 0.224053
0.412013 0.412013 0.412013
0.648688 0.648688 0.648688
0.828411 0.828411 0.828411
0.238870 0.238870 0.238870
0.320007 0.320007 0.320007
0.499564 0.499564 0.499564
0.680565 0.680565 0.680565
0.868117 0.868117 0.868117
0.370029 0.370029 0.370029
0.427154 0.427154 0.427154
0.572448 0.572448 0.572448
0.740951 0.740951 0.740951
0.889099 0.889099 0.889099
0.501709 0.501709 0.501709
0.537461 0.537461 0.537461
0.666414 0.666414 0.666414
0.804014 0.804014 0.804014
0.910906 0.910906 0.910906
0.094151 0.094151 0.094151
0.176112 0.176112 0.176112
0.391260 0.391260 0.391260
0.641287 0.641287 0.641287
0.828403 0.828403 0.828403
0.114195 0.114195 0.114195
0.226142 0.226142 0.226142
0.419980 0.419980 0.419980
0.649311 0.649311 0.649311
0.828342 0.828342 0.828342
0.254414 0.254414 0.254414
0.327888 0.327888 0.327888
0.494107 0.494107 0.494107
0.680042 0.680042 0.680042
0.867721 0.867721 0.867721
0.380556 0.380556 0.380556
0.434014 0.434014 0.434014
0.574250 0.574250 0.574250
0.737280 0.737280 0.737280
0.889326 0.889326 0.889326
0.507962 0.507962 0.507962
0.548967 0.548967 0.548967
0.671094 0.671094 0.671094
0.806972 0.806972 0.806972
0.911539 0.911539 0.911539
0.103827 0.103827 0.103827
0.141747 0.141747 0.141747
0.404513 0.404513 0.404513
0.655509 0.655509 0.655509
0.828411 0.828411 0.828411
0.141776 0.141776 0.141776
0.193787 0.193787 0.193787
0.419653 0.419653 0.419653
0.662085 0.662085 0.662085
0.828418 0.828418 0.828418
0.276173 0.276173 0.276173
0.324859 0.324859 0.324859
0.476982 0.476982 0.476982
0.687862 0.687862 0.687862
0.881249 0.881249 0.881249
0.382007 0.382007 0.382007
0.430684 0.430684 0.430684
0.562600 0.562600 0.562600
0.727995 0.727995 0.727995
0.897718 0.897718 0.897718
0.480076 0.480076 0.480076
0.555589 0.555589 0.555589
0.671277 0.671277 0.671277
0.805364 0.805364 0.805364
0.912373 0.912373 0.912373
