trix_classic/TriX_Green58_ExtraSoft.cube
TITLE "Tri-X Green58 ExtraSoft"
# Adobe RGB in/out. REPLACES AgX. R=0.1714 G=0.8069 B=0.0217
LUT_3D_SIZE 5
DOMAIN_MIN 0.0 0.0 0.0
DOMAIN_MAX 1.0 1.0 1.0
0.099726 0.099726 0.099726
0.099726 0.099726 0.099726
0.099726 0.099726 0.099726
0.099726 0.099726 0.099726
0.099726 0.099726 0.099726
0.099726 0.099726 0.099726
0.099726 0.099726 0.099726
0.099726 0.099726 0.099726
0.099726 0.099726 0.099726
0.099726 0.099726 0.099726
0.099726 0.099726 0.099726
0.099726 0.099726 0.099726
0.099726 0.099726 0.099726
0.099726 0.099726 0.099726
0.099726 0.099726 0.099726
0.099726 0.099726 0.099726
0.099726 0.099726 0.099726
0.099726 0.099726 0.099726
0.099726 0.099726 0.099726
0.099726 0.099726 0.099726
0.099726 0.099726 0.099726
0.099726 0.099726 0.099726
0.099726 0.099726 0.099726
0.099726 0.099726 0.099726
0.099726 0.099726 0.099726
0.099726 0.099726 0.099726
0.099726 0.099726 0.099726
0.099726 0.099726 0.099726
0.099726 0.099726 0.099726
0.099726 0.099726 0.099726
0.099726 0.099726 0.099726
0.255950 0.255950 0.255950
0.286952 0.286952 0.286952
0.306555 0.306555 0.306555
0.321532 0.321532 0.321532
0.099726 0.099726 0.099726
0.434735 0.434735 0.434735
0.496695 0.496695 0.496695
0.534085 0.534085 0.534085
0.562253 0.562253 0.562253
0.099726 0.099726 0.099726
0.619607 0.619607 0.619607
0.702299 0.702299 0.702299
0.749077 0.749077 0.749077
0.782428 0.782428 0.782428
0.099726 0.099726 0.099726
0.778654 0.778654 0.778654
0.847239 0.847239 0.847239
0.880739 0.880739 0.880739
0.903594 0.903594 0.903594
0.099726 0.099726 0.099726
0.099726 0.099726 0.099726
0.099726 0.099726 0.099726
0.099726 0.099726 0.099726
0.099726 0.099726 0.099726
0.099726 0.099726 0.099726
0.259691 0.259691 0.259691
0.291094 0.291094 0.291094
0.310980 0.310980 0.310980
0.326342 0.326342 0.326342
0.099726 0.099726 0.099726
0.442182 0.442182 0.442182
0.504596 0.504596 0.504596
0.542544 0.542544 0.542544
0.571158 0.571158 0.571158
0.099726 0.099726 0.099726
0.630038 0.630038 0.630038
0.712270 0.712270 0.712270
0.759119 0.759119 0.759119
0.791185 0.791185 0.791185
0.099726 0.099726 0.099726
0.788174 0.788174 0.788174
0.856183 0.856183 0.856183
0.887664 0.887664 0.887664
0.910699 0.910699 0.910699
0.099726 0.099726 0.099726
0.099726 0.099726 0.099726
0.099726 0.099726 0.099726
0.099726 0.099726 0.099726
0.099726 0.099726 0.099726
0.099726 0.099726 0.099726
0.261904 0.261904 0.261904
0.293545 0.293545 0.293545
0.313599 0.313599 0.313599
0.329189 0.329189 0.329189
0.099726 0.099726 0.099726
0.446598 0.446598 0.446598
0.509275 0.509275 0.509275
0.547553 0.547553 0.547553
0.576431 0.576431 0.576431
0.099726 0.099726 0.099726
0.636221 0.636221 0.636221
0.718168 0.718168 0.718168
0.765056 0.765056 0.765056
0.796060 0.796060 0.796060
0.099726 0.099726 0.099726
0.793031 0.793031 0.793031
0.860115 0.860115 0.860115
0.891740 0.891740 0.891740
0.914881 0.914881 0.914881
0.099726 0.099726 0.099726
0.099726 0.099726 0.099726
0.099726 0.099726 0.099726
0.099726 0.099726 0.099726
0.099726 0.099726 0.099726
0.099726 0.099726 0.099726
0.263486 0.263486 0.263486
0.295297 0.295297 0.295297
0.315521 0.315521 0.315521
0.331205 0.331205 0.331205
0.099726 0.099726 0.099726
0.449758 0.449758 0.449758
0.512622 0.512622 0.512622
0.551136 0.551136 0.551136
0.580203 0.580203 0.580203
0.099726 0.099726 0.099726
0.640644 0.640644 0.640644
0.722382 0.722382 0.722382
0.769296 0.769296 0.769296
0.799537 0.799537 0.799537
0.099726 0.099726 0.099726
0.796495 0.796495 0.796495
0.862915 0.862915 0.862915
0.894643 0.894643 0.894643
0.917860 0.917860 0.917860
