trix_classic/TriX_Blue47_Soft.cube
TITLE "Tri-X Blue47 Soft"
# Adobe RGB in/out. REPLACES AgX. R=0.0336 G=0.0311 B=0.9353
LUT_3D_SIZE 5
DOMAIN_MIN 0.0 0.0 0.0
DOMAIN_MAX 1.0 1.0 1.0
0.097688 0.097688 0.097688
0.097688 0.097688 0.097688
0.097688 0.097688 0.097688
0.097688 0.097688 0.097688
0.097688 0.097688 0.097688
0.097688 0.097688 0.097688
0.097688 0.097688 0.097688
0.097688 0.097688 0.097688
0.097688 0.097688 0.097688
0.097688 0.097688 0.097688
0.097688 0.097688 0.097688
0.097688 0.097688 0.097688
0.097688 0.097688 0.097688
0.097688 0.097688 0.097688
0.097688 0.097688 0.097688
0.097688 0.097688 0.097688
0.097688 0.097688 0.097688
0.097688 0.097688 0.097688
0.097688 0.097688 0.097688
0.097688 0.097688 0.097688
0.097688 0.097688 0.097688
0.097688 0.097688 0.097688
0.097688 0.097688 0.097688
0.097688 0.097688 0.097688
0.097688 0.097688 0.097688
0.097688 0.097688 0.097688
0.097688 0.097688 0.097688
0.097688 0.097688 0.097688
0.097688 0.097688 0.097688
0.097688 0.097688 0.097688
0.097688 0.097688 0.097688
0.241770 0.241770 0.241770
0.248732 0.248732 0.248732
0.252897 0.252897 0.252897
0.255895 0.255895 0.255895
0.097688 0.097688 0.097688
0.248218 0.248218 0.248218
0.255365 0.255365 0.255365
0.259642 0.259642 0.259642
0.262719 0.262719 0.262719
0.097688 0.097688 0.097688
0.252069 0.252069 0.252069
0.259327 0.259327 0.259327
0.263670 0.263670 0.263670
0.266795 0.266795 0.266795
0.097688 0.097688 0.097688
0.254837 0.254837 0.254837
0.262176 0.262176 0.262176
0.266566 0.266566 0.266566
0.269663 0.269663 0.269663
0.097688 0.097688 0.097688
0.097688 0.097688 0.097688
0.097688 0.097688 0.097688
0.097688 0.097688 0.097688
0.097688 0.097688 0.097688
0.097688 0.097688 0.097688
0.477859 0.477859 0.477859
0.489002 0.489002 0.489002
0.495640 0.495640 0.495640
0.500405 0.500405 0.500405
0.097688 0.097688 0.097688
0.488180 0.488180 0.488180
0.499564 0.499564 0.499564
0.506346 0.506346 0.506346
0.511183 0.511183 0.511183
0.097688 0.097688 0.097688
0.494321 0.494321 0.494321
0.505848 0.505848 0.505848
0.512666 0.512666 0.512666
0.517533 0.517533 0.517533
0.097688 0.097688 0.097688
0.498725 0.498725 0.498725
0.510335 0.510335 0.510335
0.517177 0.517177 0.517177
0.522087 0.522087 0.522087
0.097688 0.097688 0.097688
0.097688 0.097688 0.097688
0.097688 0.097688 0.097688
0.097688 0.097688 0.097688
0.097688 0.097688 0.097688
0.097688 0.097688 0.097688
0.691459 0.691459 0.691459
0.706919 0.706919 0.706919
0.716089 0.716089 0.716089
0.722662 0.722662 0.722662
0.097688 0.097688 0.097688
0.705779 0.705779 0.705779
0.721502 0.721502 0.721502
0.730854 0.730854 0.730854
0.737563 0.737563 0.737563
0.097688 0.097688 0.097688
0.714268 0.714268 0.714268
0.730168 0.730168 0.730168
0.739633 0.739633 0.739633
0.746422 0.746422 0.746422
0.097688 0.097688 0.097688
0.720344 0.720344 0.720344
0.736380 0.736380 0.736380
0.745925 0.745925 0.745925
0.752772 0.752772 0.752772
0.097688 0.097688 0.097688
0.097688 0.097688 0.097688
0.097688 0.097688 0.097688
0.097688 0.097688 0.097688
0.097688 0.097688 0.097688
0.097688 0.097688 0.097688
0.876778 0.876778 0.876778
0.889939 0.889939 0.889939
0.896360 0.896360 0.896360
0.900944 0.900944 0.900944
0.097688 0.097688 0.097688
0.889141 0.889141 0.889141
0.900137 0.900137 0.900137
0.906631 0.906631 0.906631
0.911268 0.911268 0.911268
0.097688 0.097688 0.097688
0.895087 0.895087 0.895087
0.906156 0.906156 0.906156
0.912694 0.912694 0.912694
0.917362 0.917362 0.917362
0.097688 0.097688 0.097688
0.899330 0.899330 0.899330
0.910451 0.910451 0.910451
0.917020 0.917020 0.917020
0.921710 0.921710 0.921710
