trix_classic/TriX_Red25_ExtraPunchy.cube
TITLE "Tri-X Red25 ExtraPunchy"
# Adobe RGB in/out. REPLACES AgX. R=0.9735 G=0.0265 B=0.0000
LUT_3D_SIZE 5
DOMAIN_MIN 0.0 0.0 0.0
DOMAIN_MAX 1.0 1.0 1.0
0.092237 0.092237 0.092237
0.092237 0.092237 0.092237
0.092237 0.092237 0.092237
0.092237 0.092237 0.092237
0.092237 0.092237 0.092237
0.092237 0.092237 0.092237
0.134598 0.134598 0.134598
0.526862 0.526862 0.526862
0.889248 0.889248 0.889248
0.982747 0.982747 0.982747
0.092237 0.092237 0.092237
0.138729 0.138729 0.138729
0.545947 0.545947 0.545947
0.899232 0.899232 0.899232
0.984386 0.984386 0.984386
0.092237 0.092237 0.092237
0.141633 0.141633 0.141633
0.557429 0.557429 0.557429
0.905124 0.905124 0.905124
0.985346 0.985346 0.985346
0.092237 0.092237 0.092237
0.143791 0.143791 0.143791
0.565723 0.565723 0.565723
0.909327 0.909327 0.909327
0.986028 0.986028 0.986028
0.092237 0.092237 0.092237
0.092237 0.092237 0.092237
0.092237 0.092237 0.092237
0.092237 0.092237 0.092237
0.092237 0.092237 0.092237
0.092237 0.092237 0.092237
0.134598 0.134598 0.134598
0.526862 0.526862 0.526862
0.889248 0.889248 0.889248
0.982747 0.982747 0.982747
0.092237 0.092237 0.092237
0.138729 0.138729 0.138729
0.545947 0.545947 0.545947
0.899232 0.899232 0.899232
0.984386 0.984386 0.984386
0.092237 0.092237 0.092237
0.141633 0.141633 0.141633
0.557429 0.557429 0.557429
0.905124 0.905124 0.905124
0.985346 0.985346 0.985346
0.092237 0.092237 0.092237
0.143791 0.143791 0.143791
0.565723 0.565723 0.565723
0.909327 0.909327 0.909327
0.986028 0.986028 0.986028
0.092237 0.092237 0.092237
0.092237 0.092237 0.092237
0.092237 0.092237 0.092237
0.092237 0.092237 0.092237
0.092237 0.092237 0.092237
0.092237 0.092237 0.092237
0.134598 0.134598 0.134598
0.526862 0.526862 0.526862
0.889248 0.889248 0.889248
0.982747 0.982747 0.982747
0.092237 0.092237 0.092237
0.138729 0.138729 0.138729
0.545947 0.545947 0.545947
0.899232 0.899232 0.899232
0.984386 0.984386 0.984386
0.092237 0.092237 0.092237
0.141633 0.141633 0.141633
0.557429 0.557429 0.557429
0.905124 0.905124 0.905124
0.985346 0.985346 0.985346
0.092237 0.092237 0.092237
0.143791 0.143791 0.143791
0.565723 0.565723 0.565723
0.909327 0.909327 0.909327
0.986028 0.986028 0.986028
0.092237 0.092237 0.092237
0.092237 0.092237 0.092237
0.092237 0.092237 0.092237
0.092237 0.092237 0.092237
0.092237 0.092237 0.092237
0.092237 0.092237 0.092237
0.134598 0.134598 0.134598
0.526862 0.526862 0.526862
0.889248 0.889248 0.889248
0.982747 0.982747 0.982747
0.092237 0.092237 0.092237
0.138729 0.138729 0.138729
0.545947 0.545947 0.545947
0.899232 0.899232 0.899232
0.984386 0.984386 0.984386
0.092237 0.092237 0.092237
0.141633 0.141633 0.141633
0.557429 0.557429 0.557429
0.905124 0.905124 0.905124
0.985346 0.985346 0.985346
0.092237 0.092237 0.092237
0.143791 0.143791 0.143791
0.565723 0.565723 0.565723
0.909327 0.909327 0.909327
0.986028 0.986028 0.986028
0.092237 0.092237 0.092237
0.092237 0.092237 0.092237
0.092237 0.092237 0.092237
0.092237 0.092237 0.092237
0.092237 0.092237 0.092237
0.092237 0.092237 0.092237
0.134598 0.134598 0.134598
0.526862 0.526862 0.526862
0.889248 0.889248 0.889248
0.982747 0.982747 0.982747
0.092237 0.092237 0.092237
0.138729 0.138729 0.138729
0.545947 0.545947 0.545947
0.899232 0.899232 0.899232
0.984386 0.984386 0.984386
0.092237 0.092237 0.092237
0.141633 0.141633 0.141633
0.557429 0.557429 0.557429
0.905124 0.905124 0.905124
0.985346 0.985346 0.985346
0.092237 0.092237 0.092237
0.143791 0.143791 0.143791
0.565723 0.565723 0.565723
0.909327 0.909327 0.909327
0.986028 0.986028 0.986028
