trix_classic/TriX_Orange21_Punchy.cube
TITLE "Tri-X Orange21 Punchy"
# Adobe RGB in/out. REPLACES AgX. R=0.7239 G=0.2761 B=0.0000
LUT_3D_SIZE 9
DOMAIN_MIN 0.0 0.0 0.0
DOMAIN_MAX 1.0 1.0 1.0
0.092306 0.092306 0.092306
0.092306 0.092306 0.092306
0.092306 0.092306 0.092306
0.092306 0.092306 0.092306
0.092306 0.092306 0.092306
0.092306 0.092306 0.092306
0.092306 0.092306 0.092306
0.092306 0.092306 0.092306
0.092306 0.092306 0.092306
0.092306 0.092306 0.092306
0.094164 0.094164 0.094164
0.119354 0.119354 0.119354
0.193755 0.193755 0.193755
0.288362 0.288362 0.288362
0.379575 0.379575 0.379575
0.456969 0.456969 0.456969
0.528553 0.528553 0.528553
0.593209 0.593209 0.593209
0.092306 0.092306 0.092306
0.097929 0.097929 0.097929
0.160896 0.160896 0.160896
0.279191 0.279191 0.279191
0.398025 0.398025 0.398025
0.493758 0.493758 0.493758
0.581784 0.581784 0.581784
0.661507 0.661507 0.661507
0.734370 0.734370 0.734370
0.092306 0.092306 0.092306
0.102118 0.102118 0.102118
0.197448 0.197448 0.197448
0.341457 0.341457 0.341457
0.462832 0.462832 0.462832
0.568515 0.568515 0.568515
0.661771 0.661771 0.661771
0.745554 0.745554 0.745554
0.819139 0.819139 0.819139
0.092306 0.092306 0.092306
0.106790 0.106790 0.106790
0.230181 0.230181 0.230181
0.387463 0.387463 0.387463
0.513339 0.513339 0.513339
0.622926 0.622926 0.622926
0.722190 0.722190 0.722190
0.806365 0.806365 0.806365
0.873956 0.873956 0.873956
0.092306 0.092306 0.092306
0.112288 0.112288 0.112288
0.258353 0.258353 0.258353
0.424202 0.424202 0.424202
0.555252 0.555252 0.555252
0.668691 0.668691 0.668691
0.767591 0.767591 0.767591
0.849318 0.849318 0.849318
0.907978 0.907978 0.907978
0.092306 0.092306 0.092306
0.118286 0.118286 0.118286
0.284460 0.284460 0.284460
0.452744 0.452744 0.452744
0.588365 0.588365 0.588365
0.708002 0.708002 0.708002
0.806640 0.806640 0.806640
0.882506 0.882506 0.882506
0.933249 0.933249 0.933249
0.092306 0.092306 0.092306
0.124831 0.124831 0.124831
0.308580 0.308580 0.308580
0.478581 0.478581 0.478581
0.617898 0.617898 0.617898
0.738459 0.738459 0.738459
0.836462 0.836462 0.836462
0.905876 0.905876 0.905876
0.949399 0.949399 0.949399
0.092306 0.092306 0.092306
0.131108 0.131108 0.131108
0.329320 0.329320 0.329320
0.502150 0.502150 0.502150
0.644676 0.644676 0.644676
0.765899 0.765899 0.765899
0.861993 0.861993 0.861993
0.926619 0.926619 0.926619
0.961544 0.961544 0.961544
0.092306 0.092306 0.092306
0.092306 0.092306 0.092306
0.092306 0.092306 0.092306
0.092306 0.092306 0.092306
0.092306 0.092306 0.092306
0.092306 0.092306 0.092306
0.092306 0.092306 0.092306
0.092306 0.092306 0.092306
0.092306 0.092306 0.092306
0.092306 0.092306 0.092306
0.094164 0.094164 0.094164
0.119354 0.119354 0.119354
0.193755 0.193755 0.193755
0.288362 0.288362 0.288362
0.379575 0.379575 0.379575
0.456969 0.456969 0.456969
0.528553 0.528553 0.528553
0.593209 0.593209 0.593209
0.092306 0.092306 0.092306
0.097929 0.097929 0.097929
0.160896 0.160896 0.160896
0.279191 0.279191 0.279191
0.398025 0.398025 0.398025
0.493758 0.493758 0.493758
0.581784 0.581784 0.581784
0.661507 0.661507 0.661507
0.734370 0.734370 0.734370
0.092306 0.092306 0.092306
0.102118 0.102118 0.102118
0.197448 0.197448 0.197448
0.341457 0.341457 0.341457
0.462832 0.462832 0.462832
0.568515 0.568515 0.568515
0.661771 0.661771 0.661771
0.745554 0.745554 0.745554
0.819139 0.819139 0.819139
0.092306 0.092306 0.092306
0.106790 0.106790 0.106790
0.230181 0.230181 0.230181
0.387463 0.387463 0.387463
0.513339 0.513339 0.513339
0.622926 0.622926 0.622926
0.722190 0.722190 0.722190
0.806365 0.806365 0.806365
0.873956 0.873956 0.873956
0.092306 0.092306 0.092306
0.112288 0.112288 0.112288
0.258353 0.258353 0.258353
0.424202 0.424202 0.424202
0.555252 0.555252 0.555252
0.668691 0.668691 0.668691
0.767591 0.767591 0.767591
0.849318 0.849318 0.849318
0.907978 0.907978 0.907978
0.092306 0.092306 0.092306
0.118286 0.118286 0.118286
0.284460 0.284460 0.284460
0.452744 0.452744 0.452744
0.588365 0.588365 0.588365
0.708002 0.708002 0.708002
0.806640 0.806640 0.806640
0.882506 0.882506 0.882506
0.933249 0.933249 0.933249
0.092306 0.092306 0.092306
0.124831 0.124831 0.124831
0.308580 0.308580 0.308580
0.478581 0.478581 0.478581
0.617898 0.617898 0.617898
0.738459 0.738459 0.738459
0.836462 0.836462 0.836462
0.905876 0.905876 0.905876
0.949399 0.949399 0.949399
0.092306 0.092306 0.092306
0.131108 0.131108 0.131108
0.329320 0.329320 0.329320
0.502150 0.502150 0.502150
0.644676 0.644676 0.644676
0.765899 0.765899 0.765899
0.861993 0.861993 0.861993
0.926619 0.926619 0.926619
0.961544 0.961544 0.961544
0.092306 0.092306 0.092306
0.092306 0.092306 0.092306
0.092306 0.092306 0.092306
0.092306 0.092306 0.092306
0.092306 0.092306 0.092306
0.092306 0.092306 0.092306
0.092306 0.092306 0.092306
0.092306 0.092306 0.092306
0.092306 0.092306 0.092306
0.092306 0.092306 0.092306
0.094164 0.094164 0.094164
0.119354 0.119354 0.119354
0.193755 0.193755 0.193755
0.288362 0.288362 0.288362
0.379575 0.379575 0.379575
0.456969 0.456969 0.456969
0.528553 0.528553 0.528553
0.593209 0.593209 0.593209
0.092306 0.092306 0.092306
0.097929 0.097929 0.097929
0.160896 0.160896 0.160896
0.279191 0.279191 0.279191
0.398025 0.398025 0.398025
0.493758 0.493758 0.493758
0.581784 0.581784 0.581784
0.661507 0.661507 0.661507
0.734370 0.734370 0.734370
0.092306 0.092306 0.092306
0.102118 0.102118 0.102118
0.197448 0.197448 0.197448
0.341457 0.341457 0.341457
0.462832 0.462832 0.462832
0.568515 0.568515 0.568515
0.661771 0.661771 0.661771
0.745554 0.745554 0.745554
0.819139 0.819139 0.819139
0.092306 0.092306 0.092306
0.106790 0.106790 0.106790
0.230181 0.230181 0.230181
0.387463 0.387463 0.387463
0.513339 0.513339 0.513339
0.622926 0.622926 0.622926
0.722190 0.722190 0.722190
0.806365 0.806365 0.806365
0.873956 0.873956 0.873956
0.092306 0.092306 0.092306
0.112288 0.112288 0.112288
0.258353 0.258353 0.258353
0.424202 0.424202 0.424202
0.555252 0.555252 0.555252
0.668691 0.668691 0.668691
0.767591 0.767591 0.767591
0.849318 0.849318 0.849318
0.907978 0.907978 0.907978
0.092306 0.092306 0.092306
0.118286 0.118286 0.118286
0.284460 0.284460 0.284460
0.452744 0.452744 0.452744
0.588365 0.588365 0.588365
0.708002 0.708002 0.708002
0.806640 0.806640 0.806640
0.882506 0.882506 0.882506
0.933249 0.933249 0.933249
0.092306 0.092306 0.092306
0.124831 0.124831 0.124831
0.308580 0.308580 0.308580
0.478581 0.478581 0.478581
0.617898 0.617898 0.617898
0.738459 0.738459 0.738459
0.836462 0.836462 0.836462
0.905876 0.905876 0.905876
0.949399 0.949399 0.949399
0.092306 0.092306 0.092306
0.131108 0.131108 0.131108
0.329320 0.329320 0.329320
0.502150 0.502150 0.502150
0.644676 0.644676 0.644676
0.765899 0.765899 0.765899
0.861993 0.861993 0.861993
0.926619 0.926619 0.926619
0.961544 0.961544 0.961544
0.092306 0.092306 0.092306
0.092306 0.092306 0.092306
0.092306 0.092306 0.092306
0.092306 0.092306 0.092306
0.092306 0.092306 0.092306
0.092306 0.092306 0.092306
0.092306 0.092306 0.092306
0.092306 0.092306 0.092306
0.092306 0.092306 0.092306
0.092306 0.092306 0.092306
0.094164 0.094164 0.094164
0.119354 0.119354 0.119354
0.193755 0.193755 0.193755
0.288362 0.288362 0.288362
0.379575 0.379575 0.379575
0.456969 0.456969 0.456969
0.528553 0.528553 0.528553
0.593209 0.593209 0.593209
0.092306 0.092306 0.092306
0.097929 0.097929 0.097929
0.160896 0.160896 0.160896
0.279191 0.279191 0.279191
0.398025 0.398025 0.398025
0.493758 0.493758 0.493758
0.581784 0.581784 0.581784
0.661507 0.661507 0.661507
0.734370 0.734370 0.734370
0.092306 0.092306 0.092306
0.102118 0.102118 0.102118
0.197448 0.197448 0.197448
0.341457 0.341457 0.341457
0.462832 0.462832 0.462832
0.568515 0.568515 0.568515
0.661771 0.661771 0.661771
0.745554 0.745554 0.745554
0.819139 0.819139 0.819139
0.092306 0.092306 0.092306
0.106790 0.106790 0.106790
0.230181 0.230181 0.230181
0.387463 0.387463 0.387463
0.513339 0.513339 0.513339
0.622926 0.622926 0.622926
0.722190 0.722190 0.722190
0.806365 0.806365 0.806365
0.873956 0.873956 0.873956
0.092306 0.092306 0.092306
0.112288 0.112288 0.112288
0.258353 0.258353 0.258353
0.424202 0.424202 0.424202
0.555252 0.555252 0.555252
0.668691 0.668691 0.668691
0.767591 0.767591 0.767591
0.849318 0.849318 0.849318
0.907978 0.907978 0.907978
0.092306 0.092306 0.092306
0.118286 0.118286 0.118286
0.284460 0.284460 0.284460
0.452744 0.452744 0.452744
0.588365 0.588365 0.588365
0.708002 0.708002 0.708002
0.806640 0.806640 0.806640
0.882506 0.882506 0.882506
0.933249 0.933249 0.933249
0.092306 0.092306 0.092306
0.124831 0.124831 0.124831
0.308580 0.308580 0.308580
0.478581 0.478581 0.478581
0.617898 0.617898 0.617898
0.738459 0.738459 0.738459
0.836462 0.836462 0.836462
0.905876 0.905876 0.905876
0.949399 0.949399 0.949399
0.092306 0.092306 0.092306
0.131108 0.131108 0.131108
0.329320 0.329320 0.329320
0.502150 0.502150 0.502150
0.644676 0.644676 0.644676
0.765899 0.765899 0.765899
0.861993 0.861993 0.861993
0.926619 0.926619 0.926619
0.961544 0.961544 0.961544
0.092306 0.092306 0.092306
0.092306 0.092306 0.092306
0.092306 0.092306 0.092306
0.092306 0.092306 0.092306
0.092306 0.092306 0.092306
0.092306 0.092306 0.092306
0.092306 0.092306 0.092306
0.092306 0.092306 0.092306
0.092306 0.092306 0.092306
0.092306 0.092306 0.092306
0.094164 0.094164 0.094164
0.119354 0.119354 0.119354
0.193755 0.193755 0.193755
0.288362 0.288362 0.288362
0.379575 0.379575 0.379575
0.456969 0.456969 0.456969
0.528553 0.528553 0.528553
0.593209 0.593209 0.593209
0.092306 0.092306 0.092306
0.097929 0.097929 0.097929
0.160896 0.160896 0.160896
0.279191 0.279191 0.279191
0.398025 0.398025 0.398025
0.493758 0.493758 0.493758
0.581784 0.581784 0.581784
0.661507 0.661507 0.661507
0.734370 0.734370 0.734370
0.092306 0.092306 0.092306
0.102118 0.102118 0.102118
0.197448 0.197448 0.197448
0.341457 0.341457 0.341457
0.462832 0.462832 0.462832
0.568515 0.568515 0.568515
0.661771 0.661771 0.661771
0.745554 0.745554 0.745554
0.819139 0.819139 0.819139
0.092306 0.092306 0.092306
0.106790 0.106790 0.106790
0.230181 0.230181 0.230181
0.387463 0.387463 0.387463
0.513339 0.513339 0.513339
0.622926 0.622926 0.622926
0.722190 0.722190 0.722190
0.806365 0.806365 0.806365
0.873956 0.873956 0.873956
0.092306 0.092306 0.092306
0.112288 0.112288 0.112288
0.258353 0.258353 0.258353
0.424202 0.424202 0.424202
0.555252 0.555252 0.555252
0.668691 0.668691 0.668691
0.767591 0.767591 0.767591
0.849318 0.849318 0.849318
0.907978 0.907978 0.907978
0.092306 0.092306 0.092306
0.118286 0.118286 0.118286
0.284460 0.284460 0.284460
0.452744 0.452744 0.452744
0.588365 0.588365 0.588365
0.708002 0.708002 0.708002
0.806640 0.806640 0.806640
0.882506 0.882506 0.882506
0.933249 0.933249 0.933249
0.092306 0.092306 0.092306
0.124831 0.124831 0.124831
0.308580 0.308580 0.308580
0.478581 0.478581 0.478581
0.617898 0.617898 0.617898
0.738459 0.738459 0.738459
0.836462 0.836462 0.836462
0.905876 0.905876 0.905876
0.949399 0.949399 0.949399
0.092306 0.092306 0.092306
0.131108 0.131108 0.131108
0.329320 0.329320 0.329320
0.502150 0.502150 0.502150
0.644676 0.644676 0.644676
0.765899 0.765899 0.765899
0.861993 0.861993 0.861993
0.926619 0.926619 0.926619
0.961544 0.961544 0.961544
0.092306 0.092306 0.092306
0.092306 0.092306 0.092306
0.092306 0.092306 0.092306
0.092306 0.092306 0.092306
0.092306 0.092306 0.092306
0.092306 0.092306 0.092306
0.092306 0.092306 0.092306
0.092306 0.092306 0.092306
0.092306 0.092306 0.092306
0.092306 0.092306 0.092306
0.094164 0.094164 0.094164
0.119354 0.119354 0.119354
0.193755 0.193755 0.193755
0.288362 0.288362 0.288362
0.379575 0.379575 0.379575
0.456969 0.456969 0.456969
0.528553 0.528553 0.528553
0.593209 0.593209 0.593209
0.092306 0.092306 0.092306
0.097929 0.097929 0.097929
0.160896 0.160896 0.160896
0.279191 0.279191 0.279191
0.398025 0.398025 0.398025
0.493758 0.493758 0.493758
0.581784 0.581784 0.581784
0.661507 0.661507 0.661507
0.734370 0.734370 0.734370
0.092306 0.092306 0.092306
0.102118 0.102118 0.102118
0.197448 0.197448 0.197448
0.341457 0.341457 0.341457
0.462832 0.462832 0.462832
0.568515 0.568515 0.568515
0.661771 0.661771 0.661771
0.745554 0.745554 0.745554
0.819139 0.819139 0.819139
0.092306 0.092306 0.092306
0.106790 0.106790 0.106790
0.230181 0.230181 0.230181
0.387463 0.387463 0.387463
0.513339 0.513339 0.513339
0.622926 0.622926 0.622926
0.722190 0.722190 0.722190
0.806365 0.806365 0.806365
0.873956 0.873956 0.873956
0.092306 0.092306 0.092306
0.112288 0.112288 0.112288
0.258353 0.258353 0.258353
0.424202 0.424202 0.424202
0.555252 0.555252 0.555252
0.668691 0.668691 0.668691
0.767591 0.767591 0.767591
0.849318 0.849318 0.849318
0.907978 0.907978 0.907978
0.092306 0.092306 0.092306
0.118286 0.118286 0.118286
0.284460 0.284460 0.284460
0.452744 0.452744 0.452744
0.588365 0.588365 0.588365
0.708002 0.708002 0.708002
0.806640 0.806640 0.806640
0.882506 0.882506 0.882506
0.933249 0.933249 0.933249
0.092306 0.092306 0.092306
0.124831 0.124831 0.124831
0.308580 0.308580 0.308580
0.478581 0.478581 0.478581
0.617898 0.617898 0.617898
0.738459 0.738459 0.738459
0.836462 0.836462 0.836462
0.905876 0.905876 0.905876
0.949399 0.949399 0.949399
0.092306 0.092306 0.092306
0.131108 0.131108 0.131108
0.329320 0.329320 0.329320
0.502150 0.502150 0.502150
0.644676 0.644676 0.644676
0.765899 0.765899 0.765899
0.861993 0.861993 0.861993
0.926619 0.926619 0.926619
0.961544 0.961544 0.961544
0.092306 0.092306 0.092306
0.092306 0.092306 0.092306
0.092306 0.092306 0.092306
0.092306 0.092306 0.092306
0.092306 0.092306 0.092306
0.092306 0.092306 0.092306
0.092306 0.092306 0.092306
0.092306 0.092306 0.092306
0.092306 0.092306 0.092306
0.092306 0.092306 0.092306
0.094164 0.094164 0.094164
0.119354 0.119354 0.119354
0.193755 0.193755 0.193755
0.288362 0.288362 0.288362
0.379575 0.379575 0.379575
0.456969 0.456969 0.456969
0.528553 0.528553 0.528553
0.593209 0.593209 0.593209
0.092306 0.092306 0.092306
0.097929 0.097929 0.097929
0.160896 0.160896 0.160896
0.279191 0.279191 0.279191
0.398025 0.398025 0.398025
0.493758 0.493758 0.493758
0.581784 0.581784 0.581784
0.661507 0.661507 0.661507
0.734370 0.734370 0.734370
0.092306 0.092306 0.092306
0.102118 0.102118 0.102118
0.197448 0.197448 0.197448
0.341457 0.341457 0.341457
0.462832 0.462832 0.462832
0.568515 0.568515 0.568515
0.661771 0.661771 0.661771
0.745554 0.745554 0.745554
0.819139 0.819139 0.819139
0.092306 0.092306 0.092306
0.106790 0.106790 0.106790
0.230181 0.230181 0.230181
0.387463 0.387463 0.387463
0.513339 0.513339 0.513339
0.622926 0.622926 0.622926
0.722190 0.722190 0.722190
0.806365 0.806365 0.806365
0.873956 0.873956 0.873956
0.092306 0.092306 0.092306
0.112288 0.112288 0.112288
0.258353 0.258353 0.258353
0.424202 0.424202 0.424202
0.555252 0.555252 0.555252
0.668691 0.668691 0.668691
0.767591 0.767591 0.767591
0.849318 0.849318 0.849318
0.907978 0.907978 0.907978
0.092306 0.092306 0.092306
0.118286 0.118286 0.118286
0.284460 0.284460 0.284460
0.452744 0.452744 0.452744
0.588365 0.588365 0.588365
0.708002 0.708002 0.708002
0.806640 0.806640 0.806640
0.882506 0.882506 0.882506
0.933249 0.933249 0.933249
0.092306 0.092306 0.092306
0.124831 0.124831 0.124831
0.308580 0.308580 0.308580
0.478581 0.478581 0.478581
0.617898 0.617898 0.617898
0.738459 0.738459 0.738459
0.836462 0.836462 0.836462
0.905876 0.905876 0.905876
0.949399 0.949399 0.949399
0.092306 0.092306 0.092306
0.131108 0.131108 0.131108
0.329320 0.329320 0.329320
0.502150 0.502150 0.502150
0.644676 0.644676 0.644676
0.765899 0.765899 0.765899
0.861993 0.861993 0.861993
0.926619 0.926619 0.926619
0.961544 0.961544 0.961544
0.092306 0.092306 0.092306
0.092306 0.092306 0.092306
0.092306 0.092306 0.092306
0.092306 0.092306 0.092306
0.092306 0.092306 0.092306
0.092306 0.092306 0.092306
0.092306 0.092306 0.092306
0.092306 0.092306 0.092306
0.092306 0.092306 0.092306
0.092306 0.092306 0.092306
0.094164 0.094164 0.094164
0.119354 0.119354 0.119354
0.193755 0.193755 0.193755
0.288362 0.288362 0.288362
0.379575 0.379575 0.379575
0.456969 0.456969 0.456969
0.528553 0.528553 0.528553
0.593209 0.593209 0.593209
0.092306 0.092306 0.092306
0.097929 0.097929 0.097929
0.160896 0.160896 0.160896
0.279191 0.279191 0.279191
0.398025 0.398025 0.398025
0.493758 0.493758 0.493758
0.581784 0.581784 0.581784
0.661507 0.661507 0.661507
0.734370 0.734370 0.734370
0.092306 0.092306 0.092306
0.102118 0.102118 0.102118
0.197448 0.197448 0.197448
0.341457 0.341457 0.341457
0.462832 0.462832 0.462832
0.568515 0.568515 0.568515
0.661771 0.661771 0.661771
0.745554 0.745554 0.745554
0.819139 0.819139 0.819139
0.092306 0.092306 0.092306
0.106790 0.106790 0.106790
0.230181 0.230181 0.230181
0.387463 0.387463 0.387463
0.513339 0.513339 0.513339
0.622926 0.622926 0.622926
0.722190 0.722190 0.722190
0.806365 0.806365 0.806365
0.873956 0.873956 0.873956
0.092306 0.092306 0.092306
0.112288 0.112288 0.112288
0.258353 0.258353 0.258353
0.424202 0.424202 0.424202
0.555252 0.555252 0.555252
0.668691 0.668691 0.668691
0.767591 0.767591 0.767591
0.849318 0.849318 0.849318
0.907978 0.907978 0.907978
0.092306 0.092306 0.092306
0.118286 0.118286 0.118286
0.284460 0.284460 0.284460
0.452744 0.452744 0.452744
0.588365 0.588365 0.588365
0.708002 0.708002 0.708002
0.806640 0.806640 0.806640
0.882506 0.882506 0.882506
0.933249 0.933249 0.933249
0.092306 0.092306 0.092306
0.124831 0.124831 0.124831
0.308580 0.308580 0.308580
0.478581 0.478581 0.478581
0.617898 0.617898 0.617898
0.738459 0.738459 0.738459
0.836462 0.836462 0.836462
0.905876 0.905876 0.905876
0.949399 0.949399 0.949399
0.092306 0.092306 0.092306
0.131108 0.131108 0.131108
0.329320 0.329320 0.329320
0.502150 0.502150 0.502150
0.644676 0.644676 0.644676
0.765899 0.765899 0.765899
0.861993 0.861993 0.861993
0.926619 0.926619 0.926619
0.961544 0.961544 0.961544
0.092306 0.092306 0.092306
0.092306 0.092306 0.092306
0.092306 0.092306 0.092306
0.092306 0.092306 0.092306
0.092306 0.092306 0.092306
0.092306 0.092306 0.092306
0.092306 0.092306 0.092306
0.092306 0.092306 0.092306
0.092306 0.092306 0.092306
0.092306 0.092306 0.092306
0.094164 0.094164 0.094164
0.119354 0.119354 0.119354
0.193755 0.193755 0.193755
0.288362 0.288362 0.288362
0.379575 0.379575 0.379575
0.456969 0.456969 0.456969
0.528553 0.528553 0.528553
0.593209 0.593209 0.593209
0.092306 0.092306 0.092306
0.097929 0.097929 0.097929
0.160896 0.160896 0.160896
0.279191 0.279191 0.279191
0.398025 0.398025 0.398025
0.493758 0.493758 0.493758
0.581784 0.581784 0.581784
0.661507 0.661507 0.661507
0.734370 0.734370 0.734370
0.092306 0.092306 0.092306
0.102118 0.102118 0.102118
0.197448 0.197448 0.197448
0.341457 0.341457 0.341457
0.462832 0.462832 0.462832
0.568515 0.568515 0.568515
0.661771 0.661771 0.661771
0.745554 0.745554 0.745554
0.819139 0.819139 0.819139
0.092306 0.092306 0.092306
0.106790 0.106790 0.106790
0.230181 0.230181 0.230181
0.387463 0.387463 0.387463
0.513339 0.513339 0.513339
0.622926 0.622926 0.622926
0.722190 0.722190 0.722190
0.806365 0.806365 0.806365
0.873956 0.873956 0.873956
0.092306 0.092306 0.092306
0.112288 0.112288 0.112288
0.258353 0.258353 0.258353
0.424202 0.424202 0.424202
0.555252 0.555252 0.555252
0.668691 0.668691 0.668691
0.767591 0.767591 0.767591
0.849318 0.849318 0.849318
0.907978 0.907978 0.907978
0.092306 0.092306 0.092306
0.118286 0.118286 0.118286
0.284460 0.284460 0.284460
0.452744 0.452744 0.452744
0.588365 0.588365 0.588365
0.708002 0.708002 0.708002
0.806640 0.806640 0.806640
0.882506 0.882506 0.882506
0.933249 0.933249 0.933249
0.092306 0.092306 0.092306
0.124831 0.124831 0.124831
0.308580 0.308580 0.308580
0.478581 0.478581 0.478581
0.617898 0.617898 0.617898
0.738459 0.738459 0.738459
0.836462 0.836462 0.836462
0.905876 0.905876 0.905876
0.949399 0.949399 0.949399
0.092306 0.092306 0.092306
0.131108 0.131108 0.131108
0.329320 0.329320 0.329320
0.502150 0.502150 0.502150
0.644676 0.644676 0.644676
0.765899 0.765899 0.765899
0.861993 0.861993 0.861993
0.926619 0.926619 0.926619
0.961544 0.961544 0.961544
