trix_classic/TriX_NoFilter_ExtraSoft.cube
TITLE "Tri-X NoFilter ExtraSoft"
# Adobe RGB in/out. REPLACES AgX. R=0.2974 G=0.2859 B=0.4167
LUT_3D_SIZE 5
DOMAIN_MIN 0.0 0.0 0.0
DOMAIN_MAX 1.0 1.0 1.0
0.121260 0.121260 0.121260
0.121260 0.121260 0.121260
0.121260 0.121260 0.121260
0.121260 0.121260 0.121260
0.121260 0.121260 0.121260
0.121260 0.121260 0.121260
0.121260 0.121260 0.121260
0.121260 0.121260 0.121260
0.121260 0.121260 0.121260
0.121260 0.121260 0.121260
0.121260 0.121260 0.121260
0.121260 0.121260 0.121260
0.121260 0.121260 0.121260
0.121260 0.121260 0.121260
0.121260 0.121260 0.121260
0.121260 0.121260 0.121260
0.121260 0.121260 0.121260
0.121260 0.121260 0.121260
0.121260 0.121260 0.121260
0.121260 0.121260 0.121260
0.121260 0.121260 0.121260
0.121260 0.121260 0.121260
0.121260 0.121260 0.121260
0.121260 0.121260 0.121260
0.121260 0.121260 0.121260
0.121260 0.121260 0.121260
0.121260 0.121260 0.121260
0.121260 0.121260 0.121260
0.121260 0.121260 0.121260
0.121260 0.121260 0.121260
0.121260 0.121260 0.121260
0.262816 0.262816 0.262816
0.315979 0.315979 0.315979
0.352127 0.352127 0.352127
0.379303 0.379303 0.379303
0.121260 0.121260 0.121260
0.313750 0.313750 0.313750
0.376724 0.376724 0.376724
0.418753 0.418753 0.418753
0.460540 0.460540 0.460540
0.121260 0.121260 0.121260
0.348223 0.348223 0.348223
0.416635 0.416635 0.416635
0.476573 0.476573 0.476573
0.522455 0.522455 0.522455
0.121260 0.121260 0.121260
0.374162 0.374162 0.374162
0.456423 0.456423 0.456423
0.520649 0.520649 0.520649
0.569438 0.569438 0.569438
0.121260 0.121260 0.121260
0.121260 0.121260 0.121260
0.121260 0.121260 0.121260
0.121260 0.121260 0.121260
0.121260 0.121260 0.121260
0.121260 0.121260 0.121260
0.340548 0.340548 0.340548
0.407136 0.407136 0.407136
0.463202 0.463202 0.463202
0.508823 0.508823 0.508823
0.121260 0.121260 0.121260
0.404368 0.404368 0.404368
0.504596 0.504596 0.504596
0.572495 0.572495 0.572495
0.629068 0.629068 0.629068
0.121260 0.121260 0.121260
0.456656 0.456656 0.456656
0.569708 0.569708 0.569708
0.650681 0.650681 0.650681
0.709769 0.709769 0.709769
0.121260 0.121260 0.121260
0.500404 0.500404 0.500404
0.623517 0.623517 0.623517
0.707568 0.707568 0.707568
0.766640 0.766640 0.766640
0.121260 0.121260 0.121260
0.121260 0.121260 0.121260
0.121260 0.121260 0.121260
0.121260 0.121260 0.121260
0.121260 0.121260 0.121260
0.121260 0.121260 0.121260
0.394380 0.394380 0.394380
0.489155 0.489155 0.489155
0.555252 0.555252 0.555252
0.608956 0.608956 0.608956
0.121260 0.121260 0.121260
0.484783 0.484783 0.484783
0.603582 0.603582 0.603582
0.688418 0.688418 0.688418
0.745980 0.745980 0.745980
0.121260 0.121260 0.121260
0.547959 0.547959 0.547959
0.685411 0.685411 0.685411
0.767470 0.767470 0.767470
0.821315 0.821315 0.821315
0.121260 0.121260 0.121260
0.598256 0.598256 0.598256
0.740442 0.740442 0.740442
0.819314 0.819314 0.819314
0.868455 0.868455 0.868455
0.121260 0.121260 0.121260
0.121260 0.121260 0.121260
0.121260 0.121260 0.121260
0.121260 0.121260 0.121260
0.121260 0.121260 0.121260
0.121260 0.121260 0.121260
0.443844 0.443844 0.443844
0.554843 0.554843 0.554843
0.632657 0.632657 0.632657
0.693132 0.693132 0.693132
0.121260 0.121260 0.121260
0.550234 0.550234 0.550234
0.687963 0.687963 0.687963
0.770316 0.770316 0.770316
0.823715 0.823715 0.823715
0.121260 0.121260 0.121260
0.623831 0.623831 0.623831
0.766965 0.766965 0.766965
0.842371 0.842371 0.842371
0.886618 0.886618 0.886618
0.121260 0.121260 0.121260
0.682833 0.682833 0.682833
0.818889 0.818889 0.818889
0.885007 0.885007 0.885007
0.927107 0.927107 0.927107
