trix_classic/TriX_Red25_Normal.cube
TITLE "Tri-X Red25 Normal"
# Adobe RGB in/out. REPLACES AgX. R=0.9735 G=0.0265 B=0.0000
LUT_3D_SIZE 9
DOMAIN_MIN 0.0 0.0 0.0
DOMAIN_MAX 1.0 1.0 1.0
0.095875 0.095875 0.095875
0.095875 0.095875 0.095875
0.095875 0.095875 0.095875
0.095875 0.095875 0.095875
0.095875 0.095875 0.095875
0.095875 0.095875 0.095875
0.095875 0.095875 0.095875
0.095875 0.095875 0.095875
0.095875 0.095875 0.095875
0.095875 0.095875 0.095875
0.100863 0.100863 0.100863
0.207804 0.207804 0.207804
0.347290 0.347290 0.347290
0.486398 0.486398 0.486398
0.624474 0.624474 0.624474
0.751130 0.751130 0.751130
0.845099 0.845099 0.845099
0.914835 0.914835 0.914835
0.095875 0.095875 0.095875
0.101332 0.101332 0.101332
0.213592 0.213592 0.213592
0.355169 0.355169 0.355169
0.497088 0.497088 0.497088
0.637687 0.637687 0.637687
0.764866 0.764866 0.764866
0.856366 0.856366 0.856366
0.923747 0.923747 0.923747
0.095875 0.095875 0.095875
0.101706 0.101706 0.101706
0.217053 0.217053 0.217053
0.359861 0.359861 0.359861
0.503450 0.503450 0.503450
0.645546 0.645546 0.645546
0.773013 0.773013 0.773013
0.863026 0.863026 0.863026
0.929001 0.929001 0.929001
0.095875 0.095875 0.095875
0.101973 0.101973 0.101973
0.219542 0.219542 0.219542
0.363228 0.363228 0.363228
0.508013 0.508013 0.508013
0.651180 0.651180 0.651180
0.778785 0.778785 0.778785
0.867783 0.867783 0.867783
0.932747 0.932747 0.932747
0.095875 0.095875 0.095875
0.102180 0.102180 0.102180
0.221492 0.221492 0.221492
0.365861 0.365861 0.365861
0.511581 0.511581 0.511581
0.655584 0.655584 0.655584
0.782112 0.782112 0.782112
0.871490 0.871490 0.871490
0.935662 0.935662 0.935662
0.095875 0.095875 0.095875
0.102349 0.102349 0.102349
0.223099 0.223099 0.223099
0.368026 0.368026 0.368026
0.514514 0.514514 0.514514
0.659205 0.659205 0.659205
0.784842 0.784842 0.784842
0.874532 0.874532 0.874532
0.938051 0.938051 0.938051
0.095875 0.095875 0.095875
0.102493 0.102493 0.102493
0.224466 0.224466 0.224466
0.369867 0.369867 0.369867
0.517001 0.517001 0.517001
0.662282 0.662282 0.662282
0.787157 0.787157 0.787157
0.877111 0.877111 0.877111
0.940076 0.940076 0.940076
0.095875 0.095875 0.095875
0.102617 0.102617 0.102617
0.225657 0.225657 0.225657
0.371469 0.371469 0.371469
0.519091 0.519091 0.519091
0.664959 0.664959 0.664959
0.789168 0.789168 0.789168
0.879352 0.879352 0.879352
0.941833 0.941833 0.941833
0.095875 0.095875 0.095875
0.095875 0.095875 0.095875
0.095875 0.095875 0.095875
0.095875 0.095875 0.095875
0.095875 0.095875 0.095875
0.095875 0.095875 0.095875
0.095875 0.095875 0.095875
0.095875 0.095875 0.095875
0.095875 0.095875 0.095875
0.095875 0.095875 0.095875
0.100863 0.100863 0.100863
0.207804 0.207804 0.207804
0.347290 0.347290 0.347290
0.486398 0.486398 0.486398
0.624474 0.624474 0.624474
0.751130 0.751130 0.751130
0.845099 0.845099 0.845099
0.914835 0.914835 0.914835
0.095875 0.095875 0.095875
0.101332 0.101332 0.101332
0.213592 0.213592 0.213592
0.355169 0.355169 0.355169
0.497088 0.497088 0.497088
0.637687 0.637687 0.637687
0.764866 0.764866 0.764866
0.856366 0.856366 0.856366
0.923747 0.923747 0.923747
0.095875 0.095875 0.095875
0.101706 0.101706 0.101706
0.217053 0.217053 0.217053
0.359861 0.359861 0.359861
0.503450 0.503450 0.503450
0.645546 0.645546 0.645546
0.773013 0.773013 0.773013
0.863026 0.863026 0.863026
0.929001 0.929001 0.929001
0.095875 0.095875 0.095875
0.101973 0.101973 0.101973
0.219542 0.219542 0.219542
0.363228 0.363228 0.363228
0.508013 0.508013 0.508013
0.651180 0.651180 0.651180
0.778785 0.778785 0.778785
0.867783 0.867783 0.867783
0.932747 0.932747 0.932747
0.095875 0.095875 0.095875
0.102180 0.102180 0.102180
0.221492 0.221492 0.221492
0.365861 0.365861 0.365861
0.511581 0.511581 0.511581
0.655584 0.655584 0.655584
0.782112 0.782112 0.782112
0.871490 0.871490 0.871490
0.935662 0.935662 0.935662
0.095875 0.095875 0.095875
0.102349 0.102349 0.102349
0.223099 0.223099 0.223099
0.368026 0.368026 0.368026
0.514514 0.514514 0.514514
0.659205 0.659205 0.659205
0.784842 0.784842 0.784842
0.874532 0.874532 0.874532
0.938051 0.938051 0.938051
0.095875 0.095875 0.095875
0.102493 0.102493 0.102493
0.224466 0.224466 0.224466
0.369867 0.369867 0.369867
0.517001 0.517001 0.517001
0.662282 0.662282 0.662282
0.787157 0.787157 0.787157
0.877111 0.877111 0.877111
0.940076 0.940076 0.940076
0.095875 0.095875 0.095875
0.102617 0.102617 0.102617
0.225657 0.225657 0.225657
0.371469 0.371469 0.371469
0.519091 0.519091 0.519091
0.664959 0.664959 0.664959
0.789168 0.789168 0.789168
0.879352 0.879352 0.879352
0.941833 0.941833 0.941833
0.095875 0.095875 0.095875
0.095875 0.095875 0.095875
0.095875 0.095875 0.095875
0.095875 0.095875 0.095875
0.095875 0.095875 0.095875
0.095875 0.095875 0.095875
0.095875 0.095875 0.095875
0.095875 0.095875 0.095875
0.095875 0.095875 0.095875
0.095875 0.095875 0.095875
0.100863 0.100863 0.100863
0.207804 0.207804 0.207804
0.347290 0.347290 0.347290
0.486398 0.486398 0.486398
0.624474 0.624474 0.624474
0.751130 0.751130 0.751130
0.845099 0.845099 0.845099
0.914835 0.914835 0.914835
0.095875 0.095875 0.095875
0.101332 0.101332 0.101332
0.213592 0.213592 0.213592
0.355169 0.355169 0.355169
0.497088 0.497088 0.497088
0.637687 0.637687 0.637687
0.764866 0.764866 0.764866
0.856366 0.856366 0.856366
0.923747 0.923747 0.923747
0.095875 0.095875 0.095875
0.101706 0.101706 0.101706
0.217053 0.217053 0.217053
0.359861 0.359861 0.359861
0.503450 0.503450 0.503450
0.645546 0.645546 0.645546
0.773013 0.773013 0.773013
0.863026 0.863026 0.863026
0.929001 0.929001 0.929001
0.095875 0.095875 0.095875
0.101973 0.101973 0.101973
0.219542 0.219542 0.219542
0.363228 0.363228 0.363228
0.508013 0.508013 0.508013
0.651180 0.651180 0.651180
0.778785 0.778785 0.778785
0.867783 0.867783 0.867783
0.932747 0.932747 0.932747
0.095875 0.095875 0.095875
0.102180 0.102180 0.102180
0.221492 0.221492 0.221492
0.365861 0.365861 0.365861
0.511581 0.511581 0.511581
0.655584 0.655584 0.655584
0.782112 0.782112 0.782112
0.871490 0.871490 0.871490
0.935662 0.935662 0.935662
0.095875 0.095875 0.095875
0.102349 0.102349 0.102349
0.223099 0.223099 0.223099
0.368026 0.368026 0.368026
0.514514 0.514514 0.514514
0.659205 0.659205 0.659205
0.784842 0.784842 0.784842
0.874532 0.874532 0.874532
0.938051 0.938051 0.938051
0.095875 0.095875 0.095875
0.102493 0.102493 0.102493
0.224466 0.224466 0.224466
0.369867 0.369867 0.369867
0.517001 0.517001 0.517001
0.662282 0.662282 0.662282
0.787157 0.787157 0.787157
0.877111 0.877111 0.877111
0.940076 0.940076 0.940076
0.095875 0.095875 0.095875
0.102617 0.102617 0.102617
0.225657 0.225657 0.225657
0.371469 0.371469 0.371469
0.519091 0.519091 0.519091
0.664959 0.664959 0.664959
0.789168 0.789168 0.789168
0.879352 0.879352 0.879352
0.941833 0.941833 0.941833
0.095875 0.095875 0.095875
0.095875 0.095875 0.095875
0.095875 0.095875 0.095875
0.095875 0.095875 0.095875
0.095875 0.095875 0.095875
0.095875 0.095875 0.095875
0.095875 0.095875 0.095875
0.095875 0.095875 0.095875
0.095875 0.095875 0.095875
0.095875 0.095875 0.095875
0.100863 0.100863 0.100863
0.207804 0.207804 0.207804
0.347290 0.347290 0.347290
0.486398 0.486398 0.486398
0.624474 0.624474 0.624474
0.751130 0.751130 0.751130
0.845099 0.845099 0.845099
0.914835 0.914835 0.914835
0.095875 0.095875 0.095875
0.101332 0.101332 0.101332
0.213592 0.213592 0.213592
0.355169 0.355169 0.355169
0.497088 0.497088 0.497088
0.637687 0.637687 0.637687
0.764866 0.764866 0.764866
0.856366 0.856366 0.856366
0.923747 0.923747 0.923747
0.095875 0.095875 0.095875
0.101706 0.101706 0.101706
0.217053 0.217053 0.217053
0.359861 0.359861 0.359861
0.503450 0.503450 0.503450
0.645546 0.645546 0.645546
0.773013 0.773013 0.773013
0.863026 0.863026 0.863026
0.929001 0.929001 0.929001
0.095875 0.095875 0.095875
0.101973 0.101973 0.101973
0.219542 0.219542 0.219542
0.363228 0.363228 0.363228
0.508013 0.508013 0.508013
0.651180 0.651180 0.651180
0.778785 0.778785 0.778785
0.867783 0.867783 0.867783
0.932747 0.932747 0.932747
0.095875 0.095875 0.095875
0.102180 0.102180 0.102180
0.221492 0.221492 0.221492
0.365861 0.365861 0.365861
0.511581 0.511581 0.511581
0.655584 0.655584 0.655584
0.782112 0.782112 0.782112
0.871490 0.871490 0.871490
0.935662 0.935662 0.935662
0.095875 0.095875 0.095875
0.102349 0.102349 0.102349
0.223099 0.223099 0.223099
0.368026 0.368026 0.368026
0.514514 0.514514 0.514514
0.659205 0.659205 0.659205
0.784842 0.784842 0.784842
0.874532 0.874532 0.874532
0.938051 0.938051 0.938051
0.095875 0.095875 0.095875
0.102493 0.102493 0.102493
0.224466 0.224466 0.224466
0.369867 0.369867 0.369867
0.517001 0.517001 0.517001
0.662282 0.662282 0.662282
0.787157 0.787157 0.787157
0.877111 0.877111 0.877111
0.940076 0.940076 0.940076
0.095875 0.095875 0.095875
0.102617 0.102617 0.102617
0.225657 0.225657 0.225657
0.371469 0.371469 0.371469
0.519091 0.519091 0.519091
0.664959 0.664959 0.664959
0.789168 0.789168 0.789168
0.879352 0.879352 0.879352
0.941833 0.941833 0.941833
0.095875 0.095875 0.095875
0.095875 0.095875 0.095875
0.095875 0.095875 0.095875
0.095875 0.095875 0.095875
0.095875 0.095875 0.095875
0.095875 0.095875 0.095875
0.095875 0.095875 0.095875
0.095875 0.095875 0.095875
0.095875 0.095875 0.095875
0.095875 0.095875 0.095875
0.100863 0.100863 0.100863
0.207804 0.207804 0.207804
0.347290 0.347290 0.347290
0.486398 0.486398 0.486398
0.624474 0.624474 0.624474
0.751130 0.751130 0.751130
0.845099 0.845099 0.845099
0.914835 0.914835 0.914835
0.095875 0.095875 0.095875
0.101332 0.101332 0.101332
0.213592 0.213592 0.213592
0.355169 0.355169 0.355169
0.497088 0.497088 0.497088
0.637687 0.637687 0.637687
0.764866 0.764866 0.764866
0.856366 0.856366 0.856366
0.923747 0.923747 0.923747
0.095875 0.095875 0.095875
0.101706 0.101706 0.101706
0.217053 0.217053 0.217053
0.359861 0.359861 0.359861
0.503450 0.503450 0.503450
0.645546 0.645546 0.645546
0.773013 0.773013 0.773013
0.863026 0.863026 0.863026
0.929001 0.929001 0.929001
0.095875 0.095875 0.095875
0.101973 0.101973 0.101973
0.219542 0.219542 0.219542
0.363228 0.363228 0.363228
0.508013 0.508013 0.508013
0.651180 0.651180 0.651180
0.778785 0.778785 0.778785
0.867783 0.867783 0.867783
0.932747 0.932747 0.932747
0.095875 0.095875 0.095875
0.102180 0.102180 0.102180
0.221492 0.221492 0.221492
0.365861 0.365861 0.365861
0.511581 0.511581 0.511581
0.655584 0.655584 0.655584
0.782112 0.782112 0.782112
0.871490 0.871490 0.871490
0.935662 0.935662 0.935662
0.095875 0.095875 0.095875
0.102349 0.102349 0.102349
0.223099 0.223099 0.223099
0.368026 0.368026 0.368026
0.514514 0.514514 0.514514
0.659205 0.659205 0.659205
0.784842 0.784842 0.784842
0.874532 0.874532 0.874532
0.938051 0.938051 0.938051
0.095875 0.095875 0.095875
0.102493 0.102493 0.102493
0.224466 0.224466 0.224466
0.369867 0.369867 0.369867
0.517001 0.517001 0.517001
0.662282 0.662282 0.662282
0.787157 0.787157 0.787157
0.877111 0.877111 0.877111
0.940076 0.940076 0.940076
0.095875 0.095875 0.095875
0.102617 0.102617 0.102617
0.225657 0.225657 0.225657
0.371469 0.371469 0.371469
0.519091 0.519091 0.519091
0.664959 0.664959 0.664959
0.789168 0.789168 0.789168
0.879352 0.879352 0.879352
0.941833 0.941833 0.941833
0.095875 0.095875 0.095875
0.095875 0.095875 0.095875
0.095875 0.095875 0.095875
0.095875 0.095875 0.095875
0.095875 0.095875 0.095875
0.095875 0.095875 0.095875
0.095875 0.095875 0.095875
0.095875 0.095875 0.095875
0.095875 0.095875 0.095875
0.095875 0.095875 0.095875
0.100863 0.100863 0.100863
0.207804 0.207804 0.207804
0.347290 0.347290 0.347290
0.486398 0.486398 0.486398
0.624474 0.624474 0.624474
0.751130 0.751130 0.751130
0.845099 0.845099 0.845099
0.914835 0.914835 0.914835
0.095875 0.095875 0.095875
0.101332 0.101332 0.101332
0.213592 0.213592 0.213592
0.355169 0.355169 0.355169
0.497088 0.497088 0.497088
0.637687 0.637687 0.637687
0.764866 0.764866 0.764866
0.856366 0.856366 0.856366
0.923747 0.923747 0.923747
0.095875 0.095875 0.095875
0.101706 0.101706 0.101706
0.217053 0.217053 0.217053
0.359861 0.359861 0.359861
0.503450 0.503450 0.503450
0.645546 0.645546 0.645546
0.773013 0.773013 0.773013
0.863026 0.863026 0.863026
0.929001 0.929001 0.929001
0.095875 0.095875 0.095875
0.101973 0.101973 0.101973
0.219542 0.219542 0.219542
0.363228 0.363228 0.363228
0.508013 0.508013 0.508013
0.651180 0.651180 0.651180
0.778785 0.778785 0.778785
0.867783 0.867783 0.867783
0.932747 0.932747 0.932747
0.095875 0.095875 0.095875
0.102180 0.102180 0.102180
0.221492 0.221492 0.221492
0.365861 0.365861 0.365861
0.511581 0.511581 0.511581
0.655584 0.655584 0.655584
0.782112 0.782112 0.782112
0.871490 0.871490 0.871490
0.935662 0.935662 0.935662
0.095875 0.095875 0.095875
0.102349 0.102349 0.102349
0.223099 0.223099 0.223099
0.368026 0.368026 0.368026
0.514514 0.514514 0.514514
0.659205 0.659205 0.659205
0.784842 0.784842 0.784842
0.874532 0.874532 0.874532
0.938051 0.938051 0.938051
0.095875 0.095875 0.095875
0.102493 0.102493 0.102493
0.224466 0.224466 0.224466
0.369867 0.369867 0.369867
0.517001 0.517001 0.517001
0.662282 0.662282 0.662282
0.787157 0.787157 0.787157
0.877111 0.877111 0.877111
0.940076 0.940076 0.940076
0.095875 0.095875 0.095875
0.102617 0.102617 0.102617
0.225657 0.225657 0.225657
0.371469 0.371469 0.371469
0.519091 0.519091 0.519091
0.664959 0.664959 0.664959
0.789168 0.789168 0.789168
0.879352 0.879352 0.879352
0.941833 0.941833 0.941833
0.095875 0.095875 0.095875
0.095875 0.095875 0.095875
0.095875 0.095875 0.095875
0.095875 0.095875 0.095875
0.095875 0.095875 0.095875
0.095875 0.095875 0.095875
0.095875 0.095875 0.095875
0.095875 0.095875 0.095875
0.095875 0.095875 0.095875
0.095875 0.095875 0.095875
0.100863 0.100863 0.100863
0.207804 0.207804 0.207804
0.347290 0.347290 0.347290
0.486398 0.486398 0.486398
0.624474 0.624474 0.624474
0.751130 0.751130 0.751130
0.845099 0.845099 0.845099
0.914835 0.914835 0.914835
0.095875 0.095875 0.095875
0.101332 0.101332 0.101332
0.213592 0.213592 0.213592
0.355169 0.355169 0.355169
0.497088 0.497088 0.497088
0.637687 0.637687 0.637687
0.764866 0.764866 0.764866
0.856366 0.856366 0.856366
0.923747 0.923747 0.923747
0.095875 0.095875 0.095875
0.101706 0.101706 0.101706
0.217053 0.217053 0.217053
0.359861 0.359861 0.359861
0.503450 0.503450 0.503450
0.645546 0.645546 0.645546
0.773013 0.773013 0.773013
0.863026 0.863026 0.863026
0.929001 0.929001 0.929001
0.095875 0.095875 0.095875
0.101973 0.101973 0.101973
0.219542 0.219542 0.219542
0.363228 0.363228 0.363228
0.508013 0.508013 0.508013
0.651180 0.651180 0.651180
0.778785 0.778785 0.778785
0.867783 0.867783 0.867783
0.932747 0.932747 0.932747
0.095875 0.095875 0.095875
0.102180 0.102180 0.102180
0.221492 0.221492 0.221492
0.365861 0.365861 0.365861
0.511581 0.511581 0.511581
0.655584 0.655584 0.655584
0.782112 0.782112 0.782112
0.871490 0.871490 0.871490
0.935662 0.935662 0.935662
0.095875 0.095875 0.095875
0.102349 0.102349 0.102349
0.223099 0.223099 0.223099
0.368026 0.368026 0.368026
0.514514 0.514514 0.514514
0.659205 0.659205 0.659205
0.784842 0.784842 0.784842
0.874532 0.874532 0.874532
0.938051 0.938051 0.938051
0.095875 0.095875 0.095875
0.102493 0.102493 0.102493
0.224466 0.224466 0.224466
0.369867 0.369867 0.369867
0.517001 0.517001 0.517001
0.662282 0.662282 0.662282
0.787157 0.787157 0.787157
0.877111 0.877111 0.877111
0.940076 0.940076 0.940076
0.095875 0.095875 0.095875
0.102617 0.102617 0.102617
0.225657 0.225657 0.225657
0.371469 0.371469 0.371469
0.519091 0.519091 0.519091
0.664959 0.664959 0.664959
0.789168 0.789168 0.789168
0.879352 0.879352 0.879352
0.941833 0.941833 0.941833
0.095875 0.095875 0.095875
0.095875 0.095875 0.095875
0.095875 0.095875 0.095875
0.095875 0.095875 0.095875
0.095875 0.095875 0.095875
0.095875 0.095875 0.095875
0.095875 0.095875 0.095875
0.095875 0.095875 0.095875
0.095875 0.095875 0.095875
0.095875 0.095875 0.095875
0.100863 0.100863 0.100863
0.207804 0.207804 0.207804
0.347290 0.347290 0.347290
0.486398 0.486398 0.486398
0.624474 0.624474 0.624474
0.751130 0.751130 0.751130
0.845099 0.845099 0.845099
0.914835 0.914835 0.914835
0.095875 0.095875 0.095875
0.101332 0.101332 0.101332
0.213592 0.213592 0.213592
0.355169 0.355169 0.355169
0.497088 0.497088 0.497088
0.637687 0.637687 0.637687
0.764866 0.764866 0.764866
0.856366 0.856366 0.856366
0.923747 0.923747 0.923747
0.095875 0.095875 0.095875
0.101706 0.101706 0.101706
0.217053 0.217053 0.217053
0.359861 0.359861 0.359861
0.503450 0.503450 0.503450
0.645546 0.645546 0.645546
0.773013 0.773013 0.773013
0.863026 0.863026 0.863026
0.929001 0.929001 0.929001
0.095875 0.095875 0.095875
0.101973 0.101973 0.101973
0.219542 0.219542 0.219542
0.363228 0.363228 0.363228
0.508013 0.508013 0.508013
0.651180 0.651180 0.651180
0.778785 0.778785 0.778785
0.867783 0.867783 0.867783
0.932747 0.932747 0.932747
0.095875 0.095875 0.095875
0.102180 0.102180 0.102180
0.221492 0.221492 0.221492
0.365861 0.365861 0.365861
0.511581 0.511581 0.511581
0.655584 0.655584 0.655584
0.782112 0.782112 0.782112
0.871490 0.871490 0.871490
0.935662 0.935662 0.935662
0.095875 0.095875 0.095875
0.102349 0.102349 0.102349
0.223099 0.223099 0.223099
0.368026 0.368026 0.368026
0.514514 0.514514 0.514514
0.659205 0.659205 0.659205
0.784842 0.784842 0.784842
0.874532 0.874532 0.874532
0.938051 0.938051 0.938051
0.095875 0.095875 0.095875
0.102493 0.102493 0.102493
0.224466 0.224466 0.224466
0.369867 0.369867 0.369867
0.517001 0.517001 0.517001
0.662282 0.662282 0.662282
0.787157 0.787157 0.787157
0.877111 0.877111 0.877111
0.940076 0.940076 0.940076
0.095875 0.095875 0.095875
0.102617 0.102617 0.102617
0.225657 0.225657 0.225657
0.371469 0.371469 0.371469
0.519091 0.519091 0.519091
0.664959 0.664959 0.664959
0.789168 0.789168 0.789168
0.879352 0.879352 0.879352
0.941833 0.941833 0.941833
0.095875 0.095875 0.095875
0.095875 0.095875 0.095875
0.095875 0.095875 0.095875
0.095875 0.095875 0.095875
0.095875 0.095875 0.095875
0.095875 0.095875 0.095875
0.095875 0.095875 0.095875
0.095875 0.095875 0.095875
0.095875 0.095875 0.095875
0.095875 0.095875 0.095875
0.100863 0.100863 0.100863
0.207804 0.207804 0.207804
0.347290 0.347290 0.347290
0.486398 0.486398 0.486398
0.624474 0.624474 0.624474
0.751130 0.751130 0.751130
0.845099 0.845099 0.845099
0.914835 0.914835 0.914835
0.095875 0.095875 0.095875
0.101332 0.101332 0.101332
0.213592 0.213592 0.213592
0.355169 0.355169 0.355169
0.497088 0.497088 0.497088
0.637687 0.637687 0.637687
0.764866 0.764866 0.764866
0.856366 0.856366 0.856366
0.923747 0.923747 0.923747
0.095875 0.095875 0.095875
0.101706 0.101706 0.101706
0.217053 0.217053 0.217053
0.359861 0.359861 0.359861
0.503450 0.503450 0.503450
0.645546 0.645546 0.645546
0.773013 0.773013 0.773013
0.863026 0.863026 0.863026
0.929001 0.929001 0.929001
0.095875 0.095875 0.095875
0.101973 0.101973 0.101973
0.219542 0.219542 0.219542
0.363228 0.363228 0.363228
0.508013 0.508013 0.508013
0.651180 0.651180 0.651180
0.778785 0.778785 0.778785
0.867783 0.867783 0.867783
0.932747 0.932747 0.932747
0.095875 0.095875 0.095875
0.102180 0.102180 0.102180
0.221492 0.221492 0.221492
0.365861 0.365861 0.365861
0.511581 0.511581 0.511581
0.655584 0.655584 0.655584
0.782112 0.782112 0.782112
0.871490 0.871490 0.871490
0.935662 0.935662 0.935662
0.095875 0.095875 0.095875
0.102349 0.102349 0.102349
0.223099 0.223099 0.223099
0.368026 0.368026 0.368026
0.514514 0.514514 0.514514
0.659205 0.659205 0.659205
0.784842 0.784842 0.784842
0.874532 0.874532 0.874532
0.938051 0.938051 0.938051
0.095875 0.095875 0.095875
0.102493 0.102493 0.102493
0.224466 0.224466 0.224466
0.369867 0.369867 0.369867
0.517001 0.517001 0.517001
0.662282 0.662282 0.662282
0.787157 0.787157 0.787157
0.877111 0.877111 0.877111
0.940076 0.940076 0.940076
0.095875 0.095875 0.095875
0.102617 0.102617 0.102617
0.225657 0.225657 0.225657
0.371469 0.371469 0.371469
0.519091 0.519091 0.519091
0.664959 0.664959 0.664959
0.789168 0.789168 0.789168
0.879352 0.879352 0.879352
0.941833 0.941833 0.941833
