trix_classic/TriX_Green58_ExtraPunchy.cube
TITLE "Tri-X Green58 ExtraPunchy"
# Adobe RGB in/out. REPLACES AgX. R=0.1714 G=0.8069 B=0.0217
LUT_3D_SIZE 5
DOMAIN_MIN 0.0 0.0 0.0
DOMAIN_MAX 1.0 1.0 1.0
0.092237 0.092237 0.092237
0.092237 0.092237 0.092237
0.092237 0.092237 0.092237
0.092237 0.092237 0.092237
0.092237 0.092237 0.092237
0.092237 0.092237 0.092237
0.092237 0.092237 0.092237
0.092237 0.092237 0.092237
0.092237 0.092237 0.092237
0.092237 0.092237 0.092237
0.092237 0.092237 0.092237
0.092237 0.092237 0.092237
0.092237 0.092237 0.092237
0.092237 0.092237 0.092237
0.092237 0.092237 0.092237
0.092237 0.092237 0.092237
0.092237 0.092237 0.092237
0.092237 0.092237 0.092237
0.092237 0.092237 0.092237
0.092237 0.092237 0.092237
0.092237 0.092237 0.092237
0.092237 0.092237 0.092237
0.092237 0.092237 0.092237
0.092237 0.092237 0.092237
0.092237 0.092237 0.092237
0.092237 0.092237 0.092237
0.092237 0.092237 0.092237
0.092237 0.092237 0.092237
0.092237 0.092237 0.092237
0.092237 0.092237 0.092237
0.092237 0.092237 0.092237
0.128236 0.128236 0.128236
0.162274 0.162274 0.162274
0.188087 0.188087 0.188087
0.209324 0.209324 0.209324
0.092237 0.092237 0.092237
0.415987 0.415987 0.415987
0.530234 0.530234 0.530234
0.606450 0.606450 0.606450
0.663203 0.663203 0.663203
0.092237 0.092237 0.092237
0.756880 0.756880 0.756880
0.849201 0.849201 0.849201
0.890965 0.890965 0.890965
0.916312 0.916312 0.916312
0.092237 0.092237 0.092237
0.913674 0.913674 0.913674
0.959370 0.959370 0.959370
0.975118 0.975118 0.975118
0.981764 0.981764 0.981764
0.092237 0.092237 0.092237
0.092237 0.092237 0.092237
0.092237 0.092237 0.092237
0.092237 0.092237 0.092237
0.092237 0.092237 0.092237
0.092237 0.092237 0.092237
0.131685 0.131685 0.131685
0.167550 0.167550 0.167550
0.194231 0.194231 0.194231
0.216411 0.216411 0.216411
0.092237 0.092237 0.092237
0.429101 0.429101 0.429101
0.545947 0.545947 0.545947
0.624342 0.624342 0.624342
0.679930 0.679930 0.679930
0.092237 0.092237 0.092237
0.770782 0.770782 0.770782
0.859417 0.859417 0.859417
0.898710 0.898710 0.898710
0.922243 0.922243 0.922243
0.092237 0.092237 0.092237
0.920085 0.920085 0.920085
0.962764 0.962764 0.962764
0.978568 0.978568 0.978568
0.983033 0.983033 0.983033
0.092237 0.092237 0.092237
0.092237 0.092237 0.092237
0.092237 0.092237 0.092237
0.092237 0.092237 0.092237
0.092237 0.092237 0.092237
0.092237 0.092237 0.092237
0.133746 0.133746 0.133746
0.170715 0.170715 0.170715
0.197918 0.197918 0.197918
0.220668 0.220668 0.220668
0.092237 0.092237 0.092237
0.436963 0.436963 0.436963
0.555352 0.555352 0.555352
0.635051 0.635051 0.635051
0.689910 0.689910 0.689910
0.092237 0.092237 0.092237
0.779032 0.779032 0.779032
0.865450 0.865450 0.865450
0.903272 0.903272 0.903272
0.925729 0.925729 0.925729
0.092237 0.092237 0.092237
0.923563 0.923563 0.923563
0.964755 0.964755 0.964755
0.979628 0.979628 0.979628
0.983776 0.983776 0.983776
0.092237 0.092237 0.092237
0.092237 0.092237 0.092237
0.092237 0.092237 0.092237
0.092237 0.092237 0.092237
0.092237 0.092237 0.092237
0.092237 0.092237 0.092237
0.135227 0.135227 0.135227
0.172997 0.172997 0.172997
0.200649 0.200649 0.200649
0.223739 0.223739 0.223739
0.092237 0.092237 0.092237
0.442628 0.442628 0.442628
0.562124 0.562124 0.562124
0.642533 0.642533 0.642533
0.697080 0.697080 0.697080
0.092237 0.092237 0.092237
0.784939 0.784939 0.784939
0.869756 0.869756 0.869756
0.906522 0.906522 0.906522
0.928211 0.928211 0.928211
0.092237 0.092237 0.092237
0.926040 0.926040 0.926040
0.966170 0.966170 0.966170
0.980153 0.980153 0.980153
0.984304 0.984304 0.984304
