trix_classic/TriX_Red25_ExtraSoft.cube
TITLE "Tri-X Red25 ExtraSoft"
# Adobe RGB in/out. REPLACES AgX. Tri-X Red25 ExtraSoft.
LUT_3D_SIZE 5
DOMAIN_MIN 0.0 0.0 0.0
DOMAIN_MAX 1.0 1.0 1.0
0.099726 0.099726 0.099726
0.209587 0.209587 0.209587
0.521023 0.521023 0.521023
0.855814 0.855814 0.855814
0.917860 0.917860 0.917860
0.099726 0.099726 0.099726
0.197760 0.197760 0.197760
0.526673 0.526673 0.526673
0.829076 0.829076 0.829076
0.917860 0.917860 0.917860
0.101167 0.101167 0.101167
0.145257 0.145257 0.145257
0.413185 0.413185 0.413185
0.773209 0.773209 0.773209
0.915686 0.915686 0.915686
0.102953 0.102953 0.102953
0.127518 0.127518 0.127518
0.328460 0.328460 0.328460
0.702520 0.702520 0.702520
0.908021 0.908021 0.908021
0.099726 0.099726 0.099726
0.099726 0.099726 0.099726
0.136042 0.136042 0.136042
0.584700 0.584700 0.584700
0.914994 0.914994 0.914994
0.099726 0.099726 0.099726
0.181356 0.181356 0.181356
0.507805 0.507805 0.507805
0.853653 0.853653 0.853653
0.917860 0.917860 0.917860
0.103502 0.103502 0.103502
0.255950 0.255950 0.255950
0.507207 0.507207 0.507207
0.833069 0.833069 0.833069
0.917860 0.917860 0.917860
0.124801 0.124801 0.124801
0.210396 0.210396 0.210396
0.470349 0.470349 0.470349
0.784076 0.784076 0.784076
0.915485 0.915485 0.915485
0.126740 0.126740 0.126740
0.180307 0.180307 0.180307
0.379498 0.379498 0.379498
0.731169 0.731169 0.731169
0.909470 0.909470 0.909470
0.099726 0.099726 0.099726
0.099726 0.099726 0.099726
0.190701 0.190701 0.190701
0.617456 0.617456 0.617456
0.915916 0.915916 0.915916
0.099726 0.099726 0.099726
0.217761 0.217761 0.217761
0.492994 0.492994 0.492994
0.842289 0.842289 0.842289
0.917860 0.917860 0.917860
0.109813 0.109813 0.109813
0.242488 0.242488 0.242488
0.497591 0.497591 0.497591
0.827305 0.827305 0.827305
0.917860 0.917860 0.917860
0.170972 0.170972 0.170972
0.253086 0.253086 0.253086
0.504596 0.504596 0.504596
0.792008 0.792008 0.792008
0.914732 0.914732 0.914732
0.186181 0.186181 0.186181
0.241629 0.241629 0.241629
0.440553 0.440553 0.440553
0.757307 0.757307 0.757307
0.910642 0.910642 0.910642
0.099726 0.099726 0.099726
0.099726 0.099726 0.099726
0.279799 0.279799 0.279799
0.676777 0.676777 0.676777
0.917106 0.917106 0.917106
0.100801 0.100801 0.100801
0.208828 0.208828 0.208828
0.490339 0.490339 0.490339
0.832858 0.832858 0.832858
0.917860 0.917860 0.917860
0.113364 0.113364 0.113364
0.232135 0.232135 0.232135
0.496741 0.496741 0.496741
0.821995 0.821995 0.821995
0.917860 0.917860 0.917860
0.190620 0.190620 0.190620
0.268174 0.268174 0.268174
0.505294 0.505294 0.505294
0.794878 0.794878 0.794878
0.914120 0.914120 0.914120
0.210406 0.210406 0.210406
0.267474 0.267474 0.267474
0.468998 0.468998 0.468998
0.765056 0.765056 0.765056
0.911200 0.911200 0.911200
0.099726 0.099726 0.099726
0.099726 0.099726 0.099726
0.285811 0.285811 0.285811
0.687617 0.687617 0.687617
0.917466 0.917466 0.917466
0.144604 0.144604 0.144604
0.210849 0.210849 0.210849
0.560906 0.560906 0.560906
0.868563 0.868563 0.868563
0.917860 0.917860 0.917860
0.184003 0.184003 0.184003
0.250358 0.250358 0.250358
0.562001 0.562001 0.562001
0.864605 0.864605 0.864605
0.917860 0.917860 0.917860
0.255641 0.255641 0.255641
0.323783 0.323783 0.323783
0.563172 0.563172 0.563172
0.849078 0.849078 0.849078
0.917670 0.917670 0.917670
0.241007 0.241007 0.241007
0.307982 0.307982 0.307982
0.536921 0.536921 0.536921
0.815186 0.815186 0.815186
0.917115 0.917115 0.917115
0.099726 0.099726 0.099726
0.099726 0.099726 0.099726
0.120675 0.120675 0.120675
0.648191 0.648191 0.648191
0.917860 0.917860 0.917860
