trix_classic/TriX_Yellow8_Punchy.cube
TITLE "Tri-X Yellow8 Punchy"
# Adobe RGB in/out. REPLACES AgX. R=0.5015 G=0.4679 B=0.0307
LUT_3D_SIZE 9
DOMAIN_MIN 0.0 0.0 0.0
DOMAIN_MAX 1.0 1.0 1.0
0.091936 0.091936 0.091936
0.091936 0.091936 0.091936
0.091936 0.091936 0.091936
0.091936 0.091936 0.091936
0.091936 0.091936 0.091936
0.091936 0.091936 0.091936
0.091936 0.091936 0.091936
0.091936 0.091936 0.091936
0.091936 0.091936 0.091936
0.091936 0.091936 0.091936
0.091936 0.091936 0.091936
0.091936 0.091936 0.091936
0.091936 0.091936 0.091936
0.091936 0.091936 0.091936
0.091936 0.091936 0.091936
0.091936 0.091936 0.091936
0.091936 0.091936 0.091936
0.091936 0.091936 0.091936
0.091936 0.091936 0.091936
0.091936 0.091936 0.091936
0.091936 0.091936 0.091936
0.091936 0.091936 0.091936
0.091936 0.091936 0.091936
0.091936 0.091936 0.091936
0.091936 0.091936 0.091936
0.091936 0.091936 0.091936
0.091936 0.091936 0.091936
0.091936 0.091936 0.091936
0.091936 0.091936 0.091936
0.091936 0.091936 0.091936
0.091936 0.091936 0.091936
0.091936 0.091936 0.091936
0.091936 0.091936 0.091936
0.091936 0.091936 0.091936
0.091936 0.091936 0.091936
0.091936 0.091936 0.091936
0.091936 0.091936 0.091936
0.091936 0.091936 0.091936
0.091936 0.091936 0.091936
0.091936 0.091936 0.091936
0.091936 0.091936 0.091936
0.091936 0.091936 0.091936
0.091936 0.091936 0.091936
0.091936 0.091936 0.091936
0.091936 0.091936 0.091936
0.091936 0.091936 0.091936
0.091936 0.091936 0.091936
0.091936 0.091936 0.091936
0.091936 0.091936 0.091936
0.091936 0.091936 0.091936
0.091936 0.091936 0.091936
0.091936 0.091936 0.091936
0.091936 0.091936 0.091936
0.091936 0.091936 0.091936
0.091936 0.091936 0.091936
0.091936 0.091936 0.091936
0.091936 0.091936 0.091936
0.091936 0.091936 0.091936
0.091936 0.091936 0.091936
0.091936 0.091936 0.091936
0.091936 0.091936 0.091936
0.091936 0.091936 0.091936
0.091936 0.091936 0.091936
0.091936 0.091936 0.091936
0.091936 0.091936 0.091936
0.091936 0.091936 0.091936
0.091936 0.091936 0.091936
0.091936 0.091936 0.091936
0.091936 0.091936 0.091936
0.091936 0.091936 0.091936
0.091936 0.091936 0.091936
0.091936 0.091936 0.091936
0.091936 0.091936 0.091936
0.091936 0.091936 0.091936
0.091936 0.091936 0.091936
0.091936 0.091936 0.091936
0.091936 0.091936 0.091936
0.091936 0.091936 0.091936
0.091936 0.091936 0.091936
0.091936 0.091936 0.091936
0.091936 0.091936 0.091936
0.091936 0.091936 0.091936
0.091936 0.091936 0.091936
0.091936 0.091936 0.091936
0.091936 0.091936 0.091936
0.091936 0.091936 0.091936
0.091936 0.091936 0.091936
0.091936 0.091936 0.091936
0.091936 0.091936 0.091936
0.091936 0.091936 0.091936
0.091936 0.091936 0.091936
0.092784 0.092784 0.092784
0.101856 0.101856 0.101856
0.120963 0.120963 0.120963
0.153525 0.153525 0.153525
0.190185 0.190185 0.190185
0.229744 0.229744 0.229744
0.268356 0.268356 0.268356
0.306427 0.306427 0.306427
0.091936 0.091936 0.091936
0.100691 0.100691 0.100691
0.147064 0.147064 0.147064
0.218935 0.218935 0.218935
0.292594 0.292594 0.292594
0.357300 0.357300 0.357300
0.414793 0.414793 0.414793
0.458790 0.458790 0.458790
0.500657 0.500657 0.500657
0.091936 0.091936 0.091936
0.115269 0.115269 0.115269
0.212849 0.212849 0.212849
0.320148 0.320148 0.320148
0.406191 0.406191 0.406191
0.471503 0.471503 0.471503
0.531181 0.531181 0.531181
0.582456 0.582456 0.582456
0.628907 0.628907 0.628907
0.091936 0.091936 0.091936
0.140876 0.140876 0.140876
0.279385 0.279385 0.279385
0.399762 0.399762 0.399762
0.485662 0.485662 0.485662
0.560108 0.560108 0.560108
0.621971 0.621971 0.621971
0.679577 0.679577 0.679577
0.729607 0.729607 0.729607
0.091936 0.091936 0.091936
0.170779 0.170779 0.170779
0.339597 0.339597 0.339597
0.461055 0.461055 0.461055
0.555311 0.555311 0.555311
0.631280 0.631280 0.631280
0.701004 0.701004 0.701004
0.757022 0.757022 0.757022
0.806995 0.806995 0.806995
0.091936 0.091936 0.091936
0.202835 0.202835 0.202835
0.390873 0.390873 0.390873
0.515303 0.515303 0.515303
0.612326 0.612326 0.612326
0.696095 0.696095 0.696095
0.763009 0.763009 0.763009
0.819719 0.819719 0.819719
0.863122 0.863122 0.863122
0.091936 0.091936 0.091936
0.235501 0.235501 0.235501
0.434256 0.434256 0.434256
0.563741 0.563741 0.563741
0.665076 0.665076 0.665076
0.748625 0.748625 0.748625
0.816450 0.816450 0.816450
0.866556 0.866556 0.866556
0.903100 0.903100 0.903100
0.091936 0.091936 0.091936
0.266773 0.266773 0.266773
0.471116 0.471116 0.471116
0.605574 0.605574 0.605574
0.713034 0.713034 0.713034
0.795205 0.795205 0.795205
0.856710 0.856710 0.856710
0.900750 0.900750 0.900750
0.933215 0.933215 0.933215
0.091936 0.091936 0.091936
0.091936 0.091936 0.091936
0.091936 0.091936 0.091936
0.091936 0.091936 0.091936
0.091936 0.091936 0.091936
0.091936 0.091936 0.091936
0.091936 0.091936 0.091936
0.091936 0.091936 0.091936
0.091936 0.091936 0.091936
0.091936 0.091936 0.091936
0.092986 0.092986 0.092986
0.102931 0.102931 0.102931
0.124433 0.124433 0.124433
0.159660 0.159660 0.159660
0.198724 0.198724 0.198724
0.240150 0.240150 0.240150
0.279895 0.279895 0.279895
0.319603 0.319603 0.319603
0.091936 0.091936 0.091936
0.101752 0.101752 0.101752
0.152941 0.152941 0.152941
0.228765 0.228765 0.228765
0.305175 0.305175 0.305175
0.370039 0.370039 0.370039
0.426449 0.426449 0.426449
0.471682 0.471682 0.471682
0.514725 0.514725 0.514725
0.091936 0.091936 0.091936
0.118461 0.118461 0.118461
0.222406 0.222406 0.222406
0.331629 0.331629 0.331629
0.418930 0.418930 0.418930
0.484752 0.484752 0.484752
0.546041 0.546041 0.546041
0.596812 0.596812 0.596812
0.644407 0.644407 0.644407
0.091936 0.091936 0.091936
0.146505 0.146505 0.146505
0.291398 0.291398 0.291398
0.413677 0.413677 0.413677
0.499309 0.499309 0.499309
0.573913 0.573913 0.573913
0.637301 0.637301 0.637301
0.696327 0.696327 0.696327
0.745046 0.745046 0.745046
0.091936 0.091936 0.091936
0.177686 0.177686 0.177686
0.351705 0.351705 0.351705
0.474010 0.474010 0.474010
0.568998 0.568998 0.568998
0.646840 0.646840 0.646840
0.716341 0.716341 0.716341
0.773041 0.773041 0.773041
0.821562 0.821562 0.821562
0.091936 0.091936 0.091936
0.211942 0.211942 0.211942
0.404809 0.404809 0.404809
0.529757 0.529757 0.529757
0.627419 0.627419 0.627419
0.712025 0.712025 0.712025
0.779152 0.779152 0.779152
0.833250 0.833250 0.833250
0.876837 0.876837 0.876837
0.091936 0.091936 0.091936
0.245852 0.245852 0.245852
0.446459 0.446459 0.446459
0.577636 0.577636 0.577636
0.681468 0.681468 0.681468
0.764467 0.764467 0.764467
0.829928 0.829928 0.829928
0.879463 0.879463 0.879463
0.914303 0.914303 0.914303
0.091936 0.091936 0.091936
0.278243 0.278243 0.278243
0.484355 0.484355 0.484355
0.620500 0.620500 0.620500
0.728122 0.728122 0.728122
0.811092 0.811092 0.811092
0.870852 0.870852 0.870852
0.911923 0.911923 0.911923
0.940798 0.940798 0.940798
0.091936 0.091936 0.091936
0.091936 0.091936 0.091936
0.091936 0.091936 0.091936
0.091936 0.091936 0.091936
0.091936 0.091936 0.091936
0.091936 0.091936 0.091936
0.091936 0.091936 0.091936
0.091936 0.091936 0.091936
0.091936 0.091936 0.091936
0.091936 0.091936 0.091936
0.093104 0.093104 0.093104
0.103564 0.103564 0.103564
0.126565 0.126565 0.126565
0.163362 0.163362 0.163362
0.203895 0.203895 0.203895
0.246137 0.246137 0.246137
0.286873 0.286873 0.286873
0.326379 0.326379 0.326379
0.091936 0.091936 0.091936
0.102379 0.102379 0.102379
0.156487 0.156487 0.156487
0.234755 0.234755 0.234755
0.312783 0.312783 0.312783
0.377700 0.377700 0.377700
0.433418 0.433418 0.433418
0.479390 0.479390 0.479390
0.523137 0.523137 0.523137
0.091936 0.091936 0.091936
0.120437 0.120437 0.120437
0.228194 0.228194 0.228194
0.338495 0.338495 0.338495
0.425777 0.425777 0.425777
0.492674 0.492674 0.492674
0.554058 0.554058 0.554058
0.605373 0.605373 0.605373
0.653651 0.653651 0.653651
0.091936 0.091936 0.091936
0.149902 0.149902 0.149902
0.298663 0.298663 0.298663
0.420437 0.420437 0.420437
0.507469 0.507469 0.507469
0.582146 0.582146 0.582146
0.646443 0.646443 0.646443
0.706066 0.706066 0.706066
0.754228 0.754228 0.754228
0.091936 0.091936 0.091936
0.182310 0.182310 0.182310
0.358987 0.358987 0.358987
0.481757 0.481757 0.481757
0.577161 0.577161 0.577161
0.656118 0.656118 0.656118
0.725169 0.725169 0.725169
0.782376 0.782376 0.782376
0.829468 0.829468 0.829468
0.091936 0.091936 0.091936
0.217457 0.217457 0.217457
0.413025 0.413025 0.413025
0.538376 0.538376 0.538376
0.636419 0.636419 0.636419
0.720800 0.720800 0.720800
0.788220 0.788220 0.788220
0.841269 0.841269 0.841269
0.883183 0.883183 0.883183
0.091936 0.091936 0.091936
0.251982 0.251982 0.251982
0.453755 0.453755 0.453755
0.585922 0.585922 0.585922
0.691243 0.691243 0.691243
0.773888 0.773888 0.773888
0.837914 0.837914 0.837914
0.885829 0.885829 0.885829
0.920920 0.920920 0.920920
0.091936 0.091936 0.091936
0.285180 0.285180 0.285180
0.492270 0.492270 0.492270
0.629401 0.629401 0.629401
0.737096 0.737096 0.737096
0.819425 0.819425 0.819425
0.878239 0.878239 0.878239
0.918524 0.918524 0.918524
0.945263 0.945263 0.945263
0.091936 0.091936 0.091936
0.091936 0.091936 0.091936
0.091936 0.091936 0.091936
0.091936 0.091936 0.091936
0.091936 0.091936 0.091936
0.091936 0.091936 0.091936
0.091936 0.091936 0.091936
0.091936 0.091936 0.091936
0.091936 0.091936 0.091936
0.091936 0.091936 0.091936
0.093187 0.093187 0.093187
0.104016 0.104016 0.104016
0.128165 0.128165 0.128165
0.166040 0.166040 0.166040
0.207646 0.207646 0.207646
0.250476 0.250476 0.250476
0.291930 0.291930 0.291930
0.331159 0.331159 0.331159
0.091936 0.091936 0.091936
0.102826 0.102826 0.102826
0.159052 0.159052 0.159052
0.239168 0.239168 0.239168
0.318297 0.318297 0.318297
0.383232 0.383232 0.383232
0.438432 0.438432 0.438432
0.484936 0.484936 0.484936
0.529165 0.529165 0.529165
0.091936 0.091936 0.091936
0.121859 0.121859 0.121859
0.232391 0.232391 0.232391
0.343452 0.343452 0.343452
0.430702 0.430702 0.430702
0.498374 0.498374 0.498374
0.559685 0.559685 0.559685
0.611522 0.611522 0.611522
0.660290 0.660290 0.660290
0.091936 0.091936 0.091936
0.152359 0.152359 0.152359
0.303927 0.303927 0.303927
0.425301 0.425301 0.425301
0.513339 0.513339 0.513339
0.588059 0.588059 0.588059
0.653009 0.653009 0.653009
0.712229 0.712229 0.712229
0.760811 0.760811 0.760811
0.091936 0.091936 0.091936
0.185664 0.185664 0.185664
0.364244 0.364244 0.364244
0.487329 0.487329 0.487329
0.583023 0.583023 0.583023
0.662782 0.662782 0.662782
0.731499 0.731499 0.731499
0.788825 0.788825 0.788825
0.835124 0.835124 0.835124
0.091936 0.091936 0.091936
0.221458 0.221458 0.221458
0.417803 0.417803 0.417803
0.544577 0.544577 0.544577
0.642883 0.642883 0.642883
0.727091 0.727091 0.727091
0.794717 0.794717 0.794717
0.847005 0.847005 0.847005
0.887714 0.887714 0.887714
0.091936 0.091936 0.091936
0.256423 0.256423 0.256423
0.459004 0.459004 0.459004
0.591873 0.591873 0.591873
0.698264 0.698264 0.698264
0.780558 0.780558 0.780558
0.843628 0.843628 0.843628
0.890373 0.890373 0.890373
0.925645 0.925645 0.925645
0.091936 0.091936 0.091936
0.290207 0.290207 0.290207
0.497965 0.497965 0.497965
0.635794 0.635794 0.635794
0.743530 0.743530 0.743530
0.825013 0.825013 0.825013
0.882744 0.882744 0.882744
0.923236 0.923236 0.923236
0.948443 0.948443 0.948443
0.091936 0.091936 0.091936
0.091936 0.091936 0.091936
0.091936 0.091936 0.091936
0.091936 0.091936 0.091936
0.091936 0.091936 0.091936
0.091936 0.091936 0.091936
0.091936 0.091936 0.091936
0.091936 0.091936 0.091936
0.091936 0.091936 0.091936
0.091936 0.091936 0.091936
0.093253 0.093253 0.093253
0.104507 0.104507 0.104507
0.129420 0.129420 0.129420
0.168147 0.168147 0.168147
0.210603 0.210603 0.210603
0.253893 0.253893 0.253893
0.295913 0.295913 0.295913
0.334915 0.334915 0.334915
0.091936 0.091936 0.091936
0.103173 0.103173 0.103173
0.161071 0.161071 0.161071
0.242432 0.242432 0.242432
0.322285 0.322285 0.322285
0.387579 0.387579 0.387579
0.442361 0.442361 0.442361
0.489282 0.489282 0.489282
0.533887 0.533887 0.533887
0.091936 0.091936 0.091936
0.122973 0.122973 0.122973
0.235773 0.235773 0.235773
0.347348 0.347348 0.347348
0.434562 0.434562 0.434562
0.502840 0.502840 0.502840
0.564089 0.564089 0.564089
0.616334 0.616334 0.616334
0.665486 0.665486 0.665486
0.091936 0.091936 0.091936
0.154293 0.154293 0.154293
0.308075 0.308075 0.308075
0.429112 0.429112 0.429112
0.517939 0.517939 0.517939
0.592686 0.592686 0.592686
0.658148 0.658148 0.658148
0.717046 0.717046 0.717046
0.765957 0.765957 0.765957
0.091936 0.091936 0.091936
0.188307 0.188307 0.188307
0.368376 0.368376 0.368376
0.491697 0.491697 0.491697
0.587611 0.587611 0.587611
0.667998 0.667998 0.667998
0.736447 0.736447 0.736447
0.793865 0.793865 0.793865
0.839537 0.839537 0.839537
0.091936 0.091936 0.091936
0.224611 0.224611 0.224611
0.421547 0.421547 0.421547
0.549218 0.549218 0.549218
0.647942 0.647942 0.647942
0.732009 0.732009 0.732009
0.799794 0.799794 0.799794
0.851481 0.851481 0.851481
0.891244 0.891244 0.891244
0.091936 0.091936 0.091936
0.259922 0.259922 0.259922
0.463117 0.463117 0.463117
0.596531 0.596531 0.596531
0.703759 0.703759 0.703759
0.785544 0.785544 0.785544
0.848086 0.848086 0.848086
0.893914 0.893914 0.893914
0.928559 0.928559 0.928559
0.091936 0.091936 0.091936
0.294167 0.294167 0.294167
0.502427 0.502427 0.502427
0.640797 0.640797 0.640797
0.748559 0.748559 0.748559
0.829372 0.829372 0.829372
0.886254 0.886254 0.886254
0.926907 0.926907 0.926907
0.950917 0.950917 0.950917
0.091936 0.091936 0.091936
0.091936 0.091936 0.091936
0.091936 0.091936 0.091936
0.091936 0.091936 0.091936
0.091936 0.091936 0.091936
0.091936 0.091936 0.091936
0.091936 0.091936 0.091936
0.091936 0.091936 0.091936
0.091936 0.091936 0.091936
0.091936 0.091936 0.091936
0.093306 0.093306 0.093306
0.104913 0.104913 0.104913
0.130454 0.130454 0.130454
0.169889 0.169889 0.169889
0.213050 0.213050 0.213050
0.256720 0.256720 0.256720
0.299208 0.299208 0.299208
0.338015 0.338015 0.338015
0.091936 0.091936 0.091936
0.103458 0.103458 0.103458
0.162740 0.162740 0.162740
0.245131 0.245131 0.245131
0.325268 0.325268 0.325268
0.391166 0.391166 0.391166
0.445597 0.445597 0.445597
0.492861 0.492861 0.492861
0.537776 0.537776 0.537776
0.091936 0.091936 0.091936
0.123892 0.123892 0.123892
0.238596 0.238596 0.238596
0.350563 0.350563 0.350563
0.437741 0.437741 0.437741
0.506518 0.506518 0.506518
0.567714 0.567714 0.567714
0.620294 0.620294 0.620294
0.669762 0.669762 0.669762
0.091936 0.091936 0.091936
0.155892 0.155892 0.155892
0.311505 0.311505 0.311505
0.432251 0.432251 0.432251
0.521729 0.521729 0.521729
0.596494 0.596494 0.596494
0.662376 0.662376 0.662376
0.721006 0.721006 0.721006
0.770188 0.770188 0.770188
0.091936 0.091936 0.091936
0.190495 0.190495 0.190495
0.371786 0.371786 0.371786
0.495294 0.495294 0.495294
0.591386 0.591386 0.591386
0.672290 0.672290 0.672290
0.740514 0.740514 0.740514
0.798006 0.798006 0.798006
0.843161 0.843161 0.843161
0.091936 0.091936 0.091936
0.227221 0.227221 0.227221
0.424631 0.424631 0.424631
0.552747 0.552747 0.552747
0.652105 0.652105 0.652105
0.736052 0.736052 0.736052
0.803966 0.803966 0.803966
0.855156 0.855156 0.855156
0.894139 0.894139 0.894139
0.091936 0.091936 0.091936
0.262816 0.262816 0.262816
0.466505 0.466505 0.466505
0.600363 0.600363 0.600363
0.707755 0.707755 0.707755
0.789642 0.789642 0.789642
0.851746 0.851746 0.851746
0.896817 0.896817 0.896817
0.930538 0.930538 0.930538
0.091936 0.091936 0.091936
0.297443 0.297443 0.297443
0.506103 0.506103 0.506103
0.644914 0.644914 0.644914
0.752693 0.752693 0.752693
0.832952 0.832952 0.832952
0.889133 0.889133 0.889133
0.928947 0.928947 0.928947
0.952944 0.952944 0.952944
0.091936 0.091936 0.091936
0.091936 0.091936 0.091936
0.091936 0.091936 0.091936
0.091936 0.091936 0.091936
0.091936 0.091936 0.091936
0.091936 0.091936 0.091936
0.091936 0.091936 0.091936
0.091936 0.091936 0.091936
0.091936 0.091936 0.091936
0.091936 0.091936 0.091936
0.093351 0.093351 0.093351
0.105258 0.105258 0.105258
0.131348 0.131348 0.131348
0.171376 0.171376 0.171376
0.215141 0.215141 0.215141
0.259135 0.259135 0.259135
0.302022 0.302022 0.302022
0.340659 0.340659 0.340659
0.091936 0.091936 0.091936
0.103700 0.103700 0.103700
0.164164 0.164164 0.164164
0.247437 0.247437 0.247437
0.327812 0.327812 0.327812
0.394226 0.394226 0.394226
0.448352 0.448352 0.448352
0.495908 0.495908 0.495908
0.541086 0.541086 0.541086
0.091936 0.091936 0.091936
0.124673 0.124673 0.124673
0.240840 0.240840 0.240840
0.353305 0.353305 0.353305
0.440447 0.440447 0.440447
0.509650 0.509650 0.509650
0.570796 0.570796 0.570796
0.623662 0.623662 0.623662
0.673399 0.673399 0.673399
0.091936 0.091936 0.091936
0.157256 0.157256 0.157256
0.314435 0.314435 0.314435
0.434923 0.434923 0.434923
0.524949 0.524949 0.524949
0.599733 0.599733 0.599733
0.665973 0.665973 0.665973
0.724372 0.724372 0.724372
0.773783 0.773783 0.773783
0.091936 0.091936 0.091936
0.192365 0.192365 0.192365
0.374694 0.374694 0.374694
0.498356 0.498356 0.498356
0.594597 0.594597 0.594597
0.675940 0.675940 0.675940
0.743971 0.743971 0.743971
0.801524 0.801524 0.801524
0.846236 0.846236 0.846236
0.091936 0.091936 0.091936
0.229451 0.229451 0.229451
0.427256 0.427256 0.427256
0.555748 0.555748 0.555748
0.655646 0.655646 0.655646
0.739488 0.739488 0.739488
0.807511 0.807511 0.807511
0.858275 0.858275 0.858275
0.896594 0.896594 0.896594
0.091936 0.091936 0.091936
0.265288 0.265288 0.265288
0.469389 0.469389 0.469389
0.603623 0.603623 0.603623
0.711058 0.711058 0.711058
0.793123 0.793123 0.793123
0.854853 0.854853 0.854853
0.899279 0.899279 0.899279
0.932214 0.932214 0.932214
0.091936 0.091936 0.091936
0.300240 0.300240 0.300240
0.509231 0.509231 0.509231
0.648416 0.648416 0.648416
0.756206 0.756206 0.756206
0.835990 0.835990 0.835990
0.891574 0.891574 0.891574
0.930621 0.930621 0.930621
0.954661 0.954661 0.954661
0.091936 0.091936 0.091936
0.091936 0.091936 0.091936
0.091936 0.091936 0.091936
0.091936 0.091936 0.091936
0.091936 0.091936 0.091936
0.091936 0.091936 0.091936
0.091936 0.091936 0.091936
0.091936 0.091936 0.091936
0.091936 0.091936 0.091936
0.091936 0.091936 0.091936
0.093390 0.093390 0.093390
0.105558 0.105558 0.105558
0.132343 0.132343 0.132343
0.172675 0.172675 0.172675
0.216969 0.216969 0.216969
0.261246 0.261246 0.261246
0.304482 0.304482 0.304482
0.342966 0.342966 0.342966
0.091936 0.091936 0.091936
0.103910 0.103910 0.103910
0.165408 0.165408 0.165408
0.249452 0.249452 0.249452
0.330032 0.330032 0.330032
0.396895 0.396895 0.396895
0.450751 0.450751 0.450751
0.498562 0.498562 0.498562
0.543969 0.543969 0.543969
0.091936 0.091936 0.091936
0.125354 0.125354 0.125354
0.242802 0.242802 0.242802
0.355697 0.355697 0.355697
0.442805 0.442805 0.442805
0.512378 0.512378 0.512378
0.573480 0.573480 0.573480
0.626594 0.626594 0.626594
0.676565 0.676565 0.676565
0.091936 0.091936 0.091936
0.158447 0.158447 0.158447
0.316996 0.316996 0.316996
0.437251 0.437251 0.437251
0.527747 0.527747 0.527747
0.602553 0.602553 0.602553
0.669104 0.669104 0.669104
0.727300 0.727300 0.727300
0.776910 0.776910 0.776910
0.091936 0.091936 0.091936
0.194000 0.194000 0.194000
0.377231 0.377231 0.377231
0.501023 0.501023 0.501023
0.597393 0.597393 0.597393
0.679118 0.679118 0.679118
0.746978 0.746978 0.746978
0.804584 0.804584 0.804584
0.848910 0.848910 0.848910
0.091936 0.091936 0.091936
0.231400 0.231400 0.231400
0.429543 0.429543 0.429543
0.558361 0.558361 0.558361
0.658728 0.658728 0.658728
0.742477 0.742477 0.742477
0.810594 0.810594 0.810594
0.860987 0.860987 0.860987
0.898726 0.898726 0.898726
0.091936 0.091936 0.091936
0.267449 0.267449 0.267449
0.471902 0.471902 0.471902
0.606461 0.606461 0.606461
0.713932 0.713932 0.713932
0.796152 0.796152 0.796152
0.857553 0.857553 0.857553
0.901418 0.901418 0.901418
0.933669 0.933669 0.933669
0.091936 0.091936 0.091936
0.302685 0.302685 0.302685
0.511957 0.511957 0.511957
0.651464 0.651464 0.651464
0.759263 0.759263 0.759263
0.838631 0.838631 0.838631
0.893694 0.893694 0.893694
0.932073 0.932073 0.932073
0.956150 0.956150 0.956150
