trix_classic/TriX_NoFilter_ExtraSoft.cube
TITLE "Tri-X NoFilter ExtraSoft"
# Adobe RGB in/out. REPLACES AgX. R=0.2974 G=0.2859 B=0.4167
LUT_3D_SIZE 9
DOMAIN_MIN 0.0 0.0 0.0
DOMAIN_MAX 1.0 1.0 1.0
0.121260 0.121260 0.121260
0.121260 0.121260 0.121260
0.121260 0.121260 0.121260
0.121260 0.121260 0.121260
0.121260 0.121260 0.121260
0.121260 0.121260 0.121260
0.121260 0.121260 0.121260
0.121260 0.121260 0.121260
0.121260 0.121260 0.121260
0.121260 0.121260 0.121260
0.121260 0.121260 0.121260
0.121260 0.121260 0.121260
0.121260 0.121260 0.121260
0.121260 0.121260 0.121260
0.121260 0.121260 0.121260
0.121260 0.121260 0.121260
0.121260 0.121260 0.121260
0.121260 0.121260 0.121260
0.121260 0.121260 0.121260
0.121260 0.121260 0.121260
0.121260 0.121260 0.121260
0.121260 0.121260 0.121260
0.121260 0.121260 0.121260
0.121260 0.121260 0.121260
0.121260 0.121260 0.121260
0.121260 0.121260 0.121260
0.121260 0.121260 0.121260
0.121260 0.121260 0.121260
0.121260 0.121260 0.121260
0.121260 0.121260 0.121260
0.121260 0.121260 0.121260
0.121260 0.121260 0.121260
0.121260 0.121260 0.121260
0.121260 0.121260 0.121260
0.121260 0.121260 0.121260
0.121260 0.121260 0.121260
0.121260 0.121260 0.121260
0.121260 0.121260 0.121260
0.121260 0.121260 0.121260
0.121260 0.121260 0.121260
0.121260 0.121260 0.121260
0.121260 0.121260 0.121260
0.121260 0.121260 0.121260
0.121260 0.121260 0.121260
0.121260 0.121260 0.121260
0.121260 0.121260 0.121260
0.121260 0.121260 0.121260
0.121260 0.121260 0.121260
0.121260 0.121260 0.121260
0.121260 0.121260 0.121260
0.121260 0.121260 0.121260
0.121260 0.121260 0.121260
0.121260 0.121260 0.121260
0.121260 0.121260 0.121260
0.121260 0.121260 0.121260
0.121260 0.121260 0.121260
0.121260 0.121260 0.121260
0.121260 0.121260 0.121260
0.121260 0.121260 0.121260
0.121260 0.121260 0.121260
0.121260 0.121260 0.121260
0.121260 0.121260 0.121260
0.121260 0.121260 0.121260
0.121260 0.121260 0.121260
0.121260 0.121260 0.121260
0.121260 0.121260 0.121260
0.121260 0.121260 0.121260
0.121260 0.121260 0.121260
0.121260 0.121260 0.121260
0.121260 0.121260 0.121260
0.121260 0.121260 0.121260
0.121260 0.121260 0.121260
0.121260 0.121260 0.121260
0.121260 0.121260 0.121260
0.121260 0.121260 0.121260
0.121260 0.121260 0.121260
0.121260 0.121260 0.121260
0.121260 0.121260 0.121260
0.121260 0.121260 0.121260
0.121260 0.121260 0.121260
0.121260 0.121260 0.121260
0.121260 0.121260 0.121260
0.121260 0.121260 0.121260
0.121260 0.121260 0.121260
0.121260 0.121260 0.121260
0.121260 0.121260 0.121260
0.121260 0.121260 0.121260
0.121260 0.121260 0.121260
0.121260 0.121260 0.121260
0.121260 0.121260 0.121260
0.121260 0.121260 0.121260
0.146378 0.146378 0.146378
0.169211 0.169211 0.169211
0.188099 0.188099 0.188099
0.203461 0.203461 0.203461
0.216235 0.216235 0.216235
0.227266 0.227266 0.227266
0.237107 0.237107 0.237107
0.245730 0.245730 0.245730
0.121260 0.121260 0.121260
0.168144 0.168144 0.168144
0.201979 0.201979 0.201979
0.225610 0.225610 0.225610
0.243975 0.243975 0.243975
0.258981 0.258981 0.258981
0.271925 0.271925 0.271925
0.283373 0.283373 0.283373
0.293591 0.293591 0.293591
0.121260 0.121260 0.121260
0.185889 0.185889 0.185889
0.224647 0.224647 0.224647
0.250731 0.250731 0.250731
0.270788 0.270788 0.270788
0.287433 0.287433 0.287433
0.301621 0.301621 0.301621
0.314162 0.314162 0.314162
0.325613 0.325613 0.325613
0.121260 0.121260 0.121260
0.200507 0.200507 0.200507
0.242233 0.242233 0.242233
0.269983 0.269983 0.269983
0.291519 0.291519 0.291519
0.309227 0.309227 0.309227
0.324591 0.324591 0.324591
0.338467 0.338467 0.338467
0.350541 0.350541 0.350541
0.121260 0.121260 0.121260
0.212595 0.212595 0.212595
0.256539 0.256539 0.256539
0.285929 0.285929 0.285929
0.308523 0.308523 0.308523
0.327560 0.327560 0.327560
0.343873 0.343873 0.343873
0.358073 0.358073 0.358073
0.370675 0.370675 0.370675
0.121260 0.121260 0.121260
0.223011 0.223011 0.223011
0.268854 0.268854 0.268854
0.299493 0.299493 0.299493
0.323155 0.323155 0.323155
0.343237 0.343237 0.343237
0.360064 0.360064 0.360064
0.374636 0.374636 0.374636
0.387594 0.387594 0.387594
0.121260 0.121260 0.121260
0.232384 0.232384 0.232384
0.279726 0.279726 0.279726
0.311454 0.311454 0.311454
0.336550 0.336550 0.336550
0.356852 0.356852 0.356852
0.374068 0.374068 0.374068
0.389043 0.389043 0.389043
0.402499 0.402499 0.402499
0.121260 0.121260 0.121260
0.240503 0.240503 0.240503
0.289462 0.289462 0.289462
0.322202 0.322202 0.322202
0.348084 0.348084 0.348084
0.368964 0.368964 0.368964
0.386498 0.386498 0.386498
0.401971 0.401971 0.401971
0.416430 0.416430 0.416430
0.121260 0.121260 0.121260
0.121260 0.121260 0.121260
0.121260 0.121260 0.121260
0.121260 0.121260 0.121260
0.121260 0.121260 0.121260
0.121260 0.121260 0.121260
0.121260 0.121260 0.121260
0.121260 0.121260 0.121260
0.121260 0.121260 0.121260
0.121260 0.121260 0.121260
0.181495 0.181495 0.181495
0.219502 0.219502 0.219502
0.245100 0.245100 0.245100
0.264706 0.264706 0.264706
0.280988 0.280988 0.280988
0.294928 0.294928 0.294928
0.307191 0.307191 0.307191
0.318224 0.318224 0.318224
0.121260 0.121260 0.121260
0.217903 0.217903 0.217903
0.262816 0.262816 0.262816
0.292847 0.292847 0.292847
0.315979 0.315979 0.315979
0.335672 0.335672 0.335672
0.352127 0.352127 0.352127
0.366622 0.366622 0.366622
0.379303 0.379303 0.379303
0.121260 0.121260 0.121260
0.242331 0.242331 0.242331
0.291637 0.291637 0.291637
0.324731 0.324731 0.324731
0.350681 0.350681 0.350681
0.371634 0.371634 0.371634
0.389295 0.389295 0.389295
0.404880 0.404880 0.404880
0.420262 0.420262 0.420262
0.121260 0.121260 0.121260
0.260939 0.260939 0.260939
0.313750 0.313750 0.313750
0.349659 0.349659 0.349659
0.376724 0.376724 0.376724
0.398750 0.398750 0.398750
0.418753 0.418753 0.418753
0.440384 0.440384 0.440384
0.460540 0.460540 0.460540
0.121260 0.121260 0.121260
0.276351 0.276351 0.276351
0.332565 0.332565 0.332565
0.369770 0.369770 0.369770
0.397875 0.397875 0.397875
0.423138 0.423138 0.423138
0.449385 0.449385 0.449385
0.473211 0.473211 0.473211
0.494707 0.494707 0.494707
0.121260 0.121260 0.121260
0.289579 0.289579 0.289579
0.348223 0.348223 0.348223
0.386648 0.386648 0.386648
0.416635 0.416635 0.416635
0.448325 0.448325 0.448325
0.476573 0.476573 0.476573
0.501178 0.501178 0.501178
0.522455 0.522455 0.522455
0.121260 0.121260 0.121260
0.301145 0.301145 0.301145
0.362036 0.362036 0.362036
0.401517 0.401517 0.401517
0.437203 0.437203 0.437203
0.471153 0.471153 0.471153
0.500249 0.500249 0.500249
0.524845 0.524845 0.524845
0.547126 0.547126 0.547126
0.121260 0.121260 0.121260
0.311536 0.311536 0.311536
0.374162 0.374162 0.374162
0.415139 0.415139 0.415139
0.456423 0.456423 0.456423
0.491865 0.491865 0.491865
0.520649 0.520649 0.520649
0.546248 0.546248 0.546248
0.569438 0.569438 0.569438
0.121260 0.121260 0.121260
0.121260 0.121260 0.121260
0.121260 0.121260 0.121260
0.121260 0.121260 0.121260
0.121260 0.121260 0.121260
0.121260 0.121260 0.121260
0.121260 0.121260 0.121260
0.121260 0.121260 0.121260
0.121260 0.121260 0.121260
0.121260 0.121260 0.121260
0.212140 0.212140 0.212140
0.256001 0.256001 0.256001
0.285329 0.285329 0.285329
0.307883 0.307883 0.307883
0.326833 0.326833 0.326833
0.343164 0.343164 0.343164
0.357335 0.357335 0.357335
0.369934 0.369934 0.369934
0.121260 0.121260 0.121260
0.254172 0.254172 0.254172
0.305711 0.305711 0.305711
0.340759 0.340759 0.340759
0.367418 0.367418 0.367418
0.388901 0.388901 0.388901
0.407382 0.407382 0.407382
0.426400 0.426400 0.426400
0.445627 0.445627 0.445627
0.121260 0.121260 0.121260
0.282106 0.282106 0.282106
0.339360 0.339360 0.339360
0.377097 0.377097 0.377097
0.405759 0.405759 0.405759
0.433819 0.433819 0.433819
0.461141 0.461141 0.461141
0.485590 0.485590 0.485590
0.506719 0.506719 0.506719
0.121260 0.121260 0.121260
0.303554 0.303554 0.303554
0.364913 0.364913 0.364913
0.404612 0.404612 0.404612
0.441644 0.441644 0.441644
0.475938 0.475938 0.475938
0.504968 0.504968 0.504968
0.529796 0.529796 0.529796
0.552287 0.552287 0.552287
0.121260 0.121260 0.121260
0.321260 0.321260 0.321260
0.385409 0.385409 0.385409
0.431057 0.431057 0.431057
0.474564 0.474564 0.474564
0.510055 0.510055 0.510055
0.539848 0.539848 0.539848
0.566391 0.566391 0.566391
0.591022 0.591022 0.591022
0.121260 0.121260 0.121260
0.336982 0.336982 0.336982
0.403000 0.403000 0.403000
0.457019 0.457019 0.457019
0.502510 0.502510 0.502510
0.538664 0.538664 0.538664
0.570128 0.570128 0.570128
0.599240 0.599240 0.599240
0.626305 0.626305 0.626305
0.121260 0.121260 0.121260
0.350349 0.350349 0.350349
0.419771 0.419771 0.419771
0.480290 0.480290 0.480290
0.526239 0.526239 0.526239
0.564102 0.564102 0.564102
0.598060 0.598060 0.598060
0.629350 0.629350 0.629350
0.657775 0.657775 0.657775
0.121260 0.121260 0.121260
0.362355 0.362355 0.362355
0.437696 0.437696 0.437696
0.500773 0.500773 0.500773
0.547699 0.547699 0.547699
0.587480 0.587480 0.587480
0.624005 0.624005 0.624005
0.656653 0.656653 0.656653
0.685119 0.685119 0.685119
0.121260 0.121260 0.121260
0.121260 0.121260 0.121260
0.121260 0.121260 0.121260
0.121260 0.121260 0.121260
0.121260 0.121260 0.121260
0.121260 0.121260 0.121260
0.121260 0.121260 0.121260
0.121260 0.121260 0.121260
0.121260 0.121260 0.121260
0.121260 0.121260 0.121260
0.236889 0.236889 0.236889
0.285148 0.285148 0.285148
0.317418 0.317418 0.317418
0.342951 0.342951 0.342951
0.363639 0.363639 0.363639
0.380968 0.380968 0.380968
0.396219 0.396219 0.396219
0.409924 0.409924 0.409924
0.121260 0.121260 0.121260
0.283112 0.283112 0.283112
0.340548 0.340548 0.340548
0.378377 0.378377 0.378377
0.407136 0.407136 0.407136
0.435746 0.435746 0.435746
0.463202 0.463202 0.463202
0.487761 0.487761 0.487761
0.508823 0.508823 0.508823
0.121260 0.121260 0.121260
0.313876 0.313876 0.313876
0.376870 0.376870 0.376870
0.418960 0.418960 0.418960
0.460775 0.460775 0.460775
0.496273 0.496273 0.496273
0.525260 0.525260 0.525260
0.551085 0.551085 0.551085
0.574481 0.574481 0.574481
0.121260 0.121260 0.121260
0.338161 0.338161 0.338161
0.404368 0.404368 0.404368
0.459061 0.459061 0.459061
0.504596 0.504596 0.504596
0.540901 0.540901 0.540901
0.572495 0.572495 0.572495
0.601884 0.601884 0.601884
0.629068 0.629068 0.629068
0.121260 0.121260 0.121260
0.357749 0.357749 0.357749
0.430727 0.430727 0.430727
0.493231 0.493231 0.493231
0.539450 0.539450 0.539450
0.578263 0.578263 0.578263
0.614025 0.614025 0.614025
0.646150 0.646150 0.646150
0.675334 0.675334 0.675334
0.121260 0.121260 0.121260
0.374308 0.374308 0.374308
0.456656 0.456656 0.456656
0.520896 0.520896 0.520896
0.569708 0.569708 0.569708
0.612595 0.612595 0.612595
0.650681 0.650681 0.650681
0.683781 0.683781 0.683781
0.709769 0.709769 0.709769
0.121260 0.121260 0.121260
0.388702 0.388702 0.388702
0.479909 0.479909 0.479909
0.545494 0.545494 0.545494
0.597592 0.597592 0.597592
0.643376 0.643376 0.643376
0.682644 0.682644 0.682644
0.712682 0.712682 0.712682
0.739751 0.739751 0.739751
0.121260 0.121260 0.121260
0.401619 0.401619 0.401619
0.500404 0.500404 0.500404
0.567739 0.567739 0.567739
0.623517 0.623517 0.623517
0.671287 0.671287 0.671287
0.707568 0.707568 0.707568
0.738689 0.738689 0.738689
0.766640 0.766640 0.766640
0.121260 0.121260 0.121260
0.121260 0.121260 0.121260
0.121260 0.121260 0.121260
0.121260 0.121260 0.121260
0.121260 0.121260 0.121260
0.121260 0.121260 0.121260
0.121260 0.121260 0.121260
0.121260 0.121260 0.121260
0.121260 0.121260 0.121260
0.121260 0.121260 0.121260
0.257554 0.257554 0.257554
0.309729 0.309729 0.309729
0.345208 0.345208 0.345208
0.372071 0.372071 0.372071
0.393825 0.393825 0.393825
0.412540 0.412540 0.412540
0.433271 0.433271 0.433271
0.453068 0.453068 0.453068
0.121260 0.121260 0.121260
0.307544 0.307544 0.307544
0.369541 0.369541 0.369541
0.409735 0.409735 0.409735
0.449018 0.449018 0.449018
0.483885 0.483885 0.483885
0.512797 0.512797 0.512797
0.538009 0.538009 0.538009
0.560850 0.560850 0.560850
0.121260 0.121260 0.121260
0.341381 0.341381 0.341381
0.408103 0.408103 0.408103
0.464650 0.464650 0.464650
0.510300 0.510300 0.510300
0.547016 0.547016 0.547016
0.578967 0.578967 0.578967
0.609116 0.609116 0.609116
0.636627 0.636627 0.636627
0.121260 0.121260 0.121260
0.367028 0.367028 0.367028
0.445004 0.445004 0.445004
0.508537 0.508537 0.508537
0.556190 0.556190 0.556190
0.597162 0.597162 0.597162
0.634289 0.634289 0.634289
0.667475 0.667475 0.667475
0.694641 0.694641 0.694641
0.121260 0.121260 0.121260
0.387635 0.387635 0.387635
0.478175 0.478175 0.478175
0.543663 0.543663 0.543663
0.595461 0.595461 0.595461
0.641082 0.641082 0.641082
0.680588 0.680588 0.680588
0.710536 0.710536 0.710536
0.737532 0.737532 0.737532
0.121260 0.121260 0.121260
0.405328 0.405328 0.405328
0.506061 0.506061 0.506061
0.574157 0.574157 0.574157
0.631009 0.631009 0.631009
0.679249 0.679249 0.679249
0.714741 0.714741 0.714741
0.746145 0.746145 0.746145
0.774378 0.774378 0.774378
0.121260 0.121260 0.121260
0.422855 0.422855 0.422855
0.529958 0.529958 0.529958
0.602552 0.602552 0.602552
0.662716 0.662716 0.662716
0.707959 0.707959 0.707959
0.744909 0.744909 0.744909
0.777542 0.777542 0.777542
0.802216 0.802216 0.802216
0.121260 0.121260 0.121260
0.441026 0.441026 0.441026
0.551570 0.551570 0.551570
0.628692 0.628692 0.628692
0.689461 0.689461 0.689461
0.733807 0.733807 0.733807
0.771986 0.771986 0.771986
0.801308 0.801308 0.801308
0.825124 0.825124 0.825124
0.121260 0.121260 0.121260
0.121260 0.121260 0.121260
0.121260 0.121260 0.121260
0.121260 0.121260 0.121260
0.121260 0.121260 0.121260
0.121260 0.121260 0.121260
0.121260 0.121260 0.121260
0.121260 0.121260 0.121260
0.121260 0.121260 0.121260
0.121260 0.121260 0.121260
0.275770 0.275770 0.275770
0.331880 0.331880 0.331880
0.369031 0.369031 0.369031
0.397080 0.397080 0.397080
0.422064 0.422064 0.422064
0.448203 0.448203 0.448203
0.471967 0.471967 0.471967
0.493498 0.493498 0.493498
0.121260 0.121260 0.121260
0.329445 0.329445 0.329445
0.394380 0.394380 0.394380
0.444196 0.444196 0.444196
0.489155 0.489155 0.489155
0.524610 0.524610 0.524610
0.555252 0.555252 0.555252
0.582641 0.582641 0.582641
0.608956 0.608956 0.608956
0.121260 0.121260 0.121260
0.365059 0.365059 0.365059
0.441869 0.441869 0.441869
0.505208 0.505208 0.505208
0.552549 0.552549 0.552549
0.593010 0.593010 0.593010
0.629879 0.629879 0.629879
0.662834 0.662834 0.662834
0.690560 0.690560 0.690560
0.121260 0.121260 0.121260
0.391698 0.391698 0.391698
0.484783 0.484783 0.484783
0.550639 0.550639 0.550639
0.603582 0.603582 0.603582
0.649826 0.649826 0.649826
0.688418 0.688418 0.688418
0.718710 0.718710 0.718710
0.745980 0.745980 0.745980
0.121260 0.121260 0.121260
0.413690 0.413690 0.413690
0.518856 0.518856 0.518856
0.589148 0.589148 0.589148
0.647974 0.647974 0.647974
0.694638 0.694638 0.694638
0.730933 0.730933 0.730933
0.762974 0.762974 0.762974
0.790340 0.790340 0.790340
0.121260 0.121260 0.121260
0.437919 0.437919 0.437919
0.547959 0.547959 0.547959
0.624320 0.624320 0.624320
0.685411 0.685411 0.685411
0.729496 0.729496 0.729496
0.767470 0.767470 0.767470
0.797610 0.797610 0.797610
0.821315 0.821315 0.821315
0.121260 0.121260 0.121260
0.460218 0.460218 0.460218
0.573835 0.573835 0.573835
0.655690 0.655690 0.655690
0.714380 0.714380 0.714380
0.760219 0.760219 0.760219
0.796568 0.796568 0.796568
0.823960 0.823960 0.823960
0.848449 0.848449 0.848449
0.121260 0.121260 0.121260
0.480449 0.480449 0.480449
0.598256 0.598256 0.598256
0.683285 0.683285 0.683285
0.740442 0.740442 0.740442
0.787197 0.787197 0.787197
0.819314 0.819314 0.819314
0.847489 0.847489 0.847489
0.868455 0.868455 0.868455
0.121260 0.121260 0.121260
0.121260 0.121260 0.121260
0.121260 0.121260 0.121260
0.121260 0.121260 0.121260
0.121260 0.121260 0.121260
0.121260 0.121260 0.121260
0.121260 0.121260 0.121260
0.121260 0.121260 0.121260
0.121260 0.121260 0.121260
0.121260 0.121260 0.121260
0.292105 0.292105 0.292105
0.351240 0.351240 0.351240
0.389897 0.389897 0.389897
0.421089 0.421089 0.421089
0.453290 0.453290 0.453290
0.481851 0.481851 0.481851
0.506333 0.506333 0.506333
0.527828 0.527828 0.527828
0.121260 0.121260 0.121260
0.348779 0.348779 0.348779
0.417454 0.417454 0.417454
0.477543 0.477543 0.477543
0.523443 0.523443 0.523443
0.561104 0.561104 0.561104
0.594684 0.594684 0.594684
0.625798 0.625798 0.625798
0.654063 0.654063 0.654063
0.121260 0.121260 0.121260
0.385703 0.385703 0.385703
0.475042 0.475042 0.475042
0.540353 0.540353 0.540353
0.591609 0.591609 0.591609
0.636935 0.636935 0.636935
0.676535 0.676535 0.676535
0.706653 0.706653 0.706653
0.733510 0.733510 0.733510
0.121260 0.121260 0.121260
0.413851 0.413851 0.413851
0.519095 0.519095 0.519095
0.589436 0.589436 0.589436
0.648291 0.648291 0.648291
0.694924 0.694924 0.694924
0.731235 0.731235 0.731235
0.763288 0.763288 0.763288
0.790597 0.790597 0.790597
0.121260 0.121260 0.121260
0.443937 0.443937 0.443937
0.554951 0.554951 0.554951
0.632787 0.632787 0.632787
0.693252 0.693252 0.693252
0.737831 0.737831 0.737831
0.776212 0.776212 0.776212
0.804765 0.804765 0.804765
0.828683 0.828683 0.828683
0.121260 0.121260 0.121260
0.470795 0.470795 0.470795
0.586388 0.586388 0.586388
0.670564 0.670564 0.670564
0.728040 0.728040 0.728040
0.774692 0.774692 0.774692
0.808502 0.808502 0.808502
0.836305 0.836305 0.836305
0.859893 0.859893 0.859893
0.121260 0.121260 0.121260
0.494612 0.494612 0.494612
0.615852 0.615852 0.615852
0.700217 0.700217 0.700217
0.758709 0.758709 0.758709
0.802473 0.802473 0.802473
0.835213 0.835213 0.835213
0.861957 0.861957 0.861957
0.880993 0.880993 0.880993
0.121260 0.121260 0.121260
0.514782 0.514782 0.514782
0.642570 0.642570 0.642570
0.725782 0.725782 0.725782
0.785964 0.785964 0.785964
0.825388 0.825388 0.825388
0.858330 0.858330 0.858330
0.880249 0.880249 0.880249
0.899688 0.899688 0.899688
0.121260 0.121260 0.121260
0.121260 0.121260 0.121260
0.121260 0.121260 0.121260
0.121260 0.121260 0.121260
0.121260 0.121260 0.121260
0.121260 0.121260 0.121260
0.121260 0.121260 0.121260
0.121260 0.121260 0.121260
0.121260 0.121260 0.121260
0.121260 0.121260 0.121260
0.306911 0.306911 0.306911
0.368809 0.368809 0.368809
0.408923 0.408923 0.408923
0.447848 0.447848 0.447848
0.482624 0.482624 0.482624
0.511555 0.511555 0.511555
0.536706 0.536706 0.536706
0.559491 0.559491 0.559491
0.121260 0.121260 0.121260
0.366301 0.366301 0.366301
0.443844 0.443844 0.443844
0.507305 0.507305 0.507305
0.554843 0.554843 0.554843
0.595626 0.595626 0.595626
0.632657 0.632657 0.632657
0.665758 0.665758 0.665758
0.693132 0.693132 0.693132
0.121260 0.121260 0.121260
0.404525 0.404525 0.404525
0.504835 0.504835 0.504835
0.572767 0.572767 0.572767
0.629386 0.629386 0.629386
0.677606 0.677606 0.677606
0.713188 0.713188 0.713188
0.744530 0.744530 0.744530
0.772702 0.772702 0.772702
0.121260 0.121260 0.121260
0.439877 0.439877 0.439877
0.550234 0.550234 0.550234
0.627074 0.627074 0.627074
0.687963 0.687963 0.687963
0.732212 0.732212 0.732212
0.770316 0.770316 0.770316
0.799941 0.799941 0.799941
0.823715 0.823715 0.823715
0.121260 0.121260 0.121260
0.472665 0.472665 0.472665
0.588687 0.588687 0.588687
0.673194 0.673194 0.673194
0.730450 0.730450 0.730450
0.777245 0.777245 0.777245
0.810603 0.810603 0.810603
0.838478 0.838478 0.838478
0.861558 0.861558 0.861558
0.121260 0.121260 0.121260
0.500641 0.500641 0.500641
0.623831 0.623831 0.623831
0.707869 0.707869 0.707869
0.766965 0.766965 0.766965
0.809351 0.809351 0.809351
0.842371 0.842371 0.842371
0.867461 0.867461 0.867461
0.886618 0.886618 0.886618
0.121260 0.121260 0.121260
0.524283 0.524283 0.524283
0.655177 0.655177 0.655177
0.737779 0.737779 0.737779
0.796154 0.796154 0.796154
0.836089 0.836089 0.836089
0.866616 0.866616 0.866616
0.888747 0.888747 0.888747
0.908374 0.908374 0.908374
0.121260 0.121260 0.121260
0.545663 0.545663 0.545663
0.682833 0.682833 0.682833
0.764597 0.764597 0.764597
0.818889 0.818889 0.818889
0.859002 0.859002 0.859002
0.885007 0.885007 0.885007
0.907607 0.907607 0.907607
0.927107 0.927107 0.927107
