trix_classic/TriX_Blue47_Punchy.cube
TITLE "Tri-X Blue47 Punchy"
# Adobe RGB in/out. REPLACES AgX. R=0.0336 G=0.0311 B=0.9353
LUT_3D_SIZE 9
DOMAIN_MIN 0.0 0.0 0.0
DOMAIN_MAX 1.0 1.0 1.0
0.091936 0.091936 0.091936
0.091936 0.091936 0.091936
0.091936 0.091936 0.091936
0.091936 0.091936 0.091936
0.091936 0.091936 0.091936
0.091936 0.091936 0.091936
0.091936 0.091936 0.091936
0.091936 0.091936 0.091936
0.091936 0.091936 0.091936
0.091936 0.091936 0.091936
0.091936 0.091936 0.091936
0.091936 0.091936 0.091936
0.091936 0.091936 0.091936
0.091936 0.091936 0.091936
0.091936 0.091936 0.091936
0.091936 0.091936 0.091936
0.091936 0.091936 0.091936
0.091936 0.091936 0.091936
0.091936 0.091936 0.091936
0.091936 0.091936 0.091936
0.091936 0.091936 0.091936
0.091936 0.091936 0.091936
0.091936 0.091936 0.091936
0.091936 0.091936 0.091936
0.091936 0.091936 0.091936
0.091936 0.091936 0.091936
0.091936 0.091936 0.091936
0.091936 0.091936 0.091936
0.091936 0.091936 0.091936
0.091936 0.091936 0.091936
0.091936 0.091936 0.091936
0.091936 0.091936 0.091936
0.091936 0.091936 0.091936
0.091936 0.091936 0.091936
0.091936 0.091936 0.091936
0.091936 0.091936 0.091936
0.091936 0.091936 0.091936
0.091936 0.091936 0.091936
0.091936 0.091936 0.091936
0.091936 0.091936 0.091936
0.091936 0.091936 0.091936
0.091936 0.091936 0.091936
0.091936 0.091936 0.091936
0.091936 0.091936 0.091936
0.091936 0.091936 0.091936
0.091936 0.091936 0.091936
0.091936 0.091936 0.091936
0.091936 0.091936 0.091936
0.091936 0.091936 0.091936
0.091936 0.091936 0.091936
0.091936 0.091936 0.091936
0.091936 0.091936 0.091936
0.091936 0.091936 0.091936
0.091936 0.091936 0.091936
0.091936 0.091936 0.091936
0.091936 0.091936 0.091936
0.091936 0.091936 0.091936
0.091936 0.091936 0.091936
0.091936 0.091936 0.091936
0.091936 0.091936 0.091936
0.091936 0.091936 0.091936
0.091936 0.091936 0.091936
0.091936 0.091936 0.091936
0.091936 0.091936 0.091936
0.091936 0.091936 0.091936
0.091936 0.091936 0.091936
0.091936 0.091936 0.091936
0.091936 0.091936 0.091936
0.091936 0.091936 0.091936
0.091936 0.091936 0.091936
0.091936 0.091936 0.091936
0.091936 0.091936 0.091936
0.091936 0.091936 0.091936
0.091936 0.091936 0.091936
0.091936 0.091936 0.091936
0.091936 0.091936 0.091936
0.091936 0.091936 0.091936
0.091936 0.091936 0.091936
0.091936 0.091936 0.091936
0.091936 0.091936 0.091936
0.091936 0.091936 0.091936
0.091936 0.091936 0.091936
0.091936 0.091936 0.091936
0.091936 0.091936 0.091936
0.091936 0.091936 0.091936
0.091936 0.091936 0.091936
0.091936 0.091936 0.091936
0.091936 0.091936 0.091936
0.091936 0.091936 0.091936
0.091936 0.091936 0.091936
0.091936 0.091936 0.091936
0.092784 0.092784 0.092784
0.093005 0.093005 0.093005
0.093134 0.093134 0.093134
0.093226 0.093226 0.093226
0.093298 0.093298 0.093298
0.093356 0.093356 0.093356
0.093405 0.093405 0.093405
0.093448 0.093448 0.093448
0.091936 0.091936 0.091936
0.092989 0.092989 0.092989
0.093210 0.093210 0.093210
0.093340 0.093340 0.093340
0.093432 0.093432 0.093432
0.093503 0.093503 0.093503
0.093562 0.093562 0.093562
0.093611 0.093611 0.093611
0.093654 0.093654 0.093654
0.091936 0.091936 0.091936
0.093109 0.093109 0.093109
0.093330 0.093330 0.093330
0.093460 0.093460 0.093460
0.093552 0.093552 0.093552
0.093624 0.093624 0.093624
0.093682 0.093682 0.093682
0.093732 0.093732 0.093732
0.093775 0.093775 0.093775
0.091936 0.091936 0.091936
0.093194 0.093194 0.093194
0.093416 0.093416 0.093416
0.093546 0.093546 0.093546
0.093638 0.093638 0.093638
0.093709 0.093709 0.093709
0.093768 0.093768 0.093768
0.093818 0.093818 0.093818
0.093861 0.093861 0.093861
0.091936 0.091936 0.091936
0.093260 0.093260 0.093260
0.093482 0.093482 0.093482
0.093612 0.093612 0.093612
0.093704 0.093704 0.093704
0.093776 0.093776 0.093776
0.093835 0.093835 0.093835
0.093921 0.093921 0.093921
0.094042 0.094042 0.094042
0.091936 0.091936 0.091936
0.093314 0.093314 0.093314
0.093536 0.093536 0.093536
0.093666 0.093666 0.093666
0.093759 0.093759 0.093759
0.093830 0.093830 0.093830
0.093934 0.093934 0.093934
0.094074 0.094074 0.094074
0.094196 0.094196 0.094196
0.091936 0.091936 0.091936
0.093360 0.093360 0.093360
0.093582 0.093582 0.093582
0.093712 0.093712 0.093712
0.093805 0.093805 0.093805
0.093899 0.093899 0.093899
0.094064 0.094064 0.094064
0.094204 0.094204 0.094204
0.094326 0.094326 0.094326
0.091936 0.091936 0.091936
0.093399 0.093399 0.093399
0.093622 0.093622 0.093622
0.093752 0.093752 0.093752
0.093844 0.093844 0.093844
0.094011 0.094011 0.094011
0.094177 0.094177 0.094177
0.094317 0.094317 0.094317
0.094438 0.094438 0.094438
0.091936 0.091936 0.091936
0.091936 0.091936 0.091936
0.091936 0.091936 0.091936
0.091936 0.091936 0.091936
0.091936 0.091936 0.091936
0.091936 0.091936 0.091936
0.091936 0.091936 0.091936
0.091936 0.091936 0.091936
0.091936 0.091936 0.091936
0.091936 0.091936 0.091936
0.140796 0.140796 0.140796
0.146973 0.146973 0.146973
0.150711 0.150711 0.150711
0.153421 0.153421 0.153421
0.155556 0.155556 0.155556
0.157323 0.157323 0.157323
0.158832 0.158832 0.158832
0.160151 0.160151 0.160151
0.091936 0.091936 0.091936
0.146513 0.146513 0.146513
0.152941 0.152941 0.152941
0.156831 0.156831 0.156831
0.159651 0.159651 0.159651
0.161873 0.161873 0.161873
0.163711 0.163711 0.163711
0.165282 0.165282 0.165282
0.166654 0.166654 0.166654
0.091936 0.091936 0.091936
0.149965 0.149965 0.149965
0.156544 0.156544 0.156544
0.160525 0.160525 0.160525
0.163411 0.163411 0.163411
0.165686 0.165686 0.165686
0.167567 0.167567 0.167567
0.169175 0.169175 0.169175
0.170580 0.170580 0.170580
0.091936 0.091936 0.091936
0.152463 0.152463 0.152463
0.159151 0.159151 0.159151
0.163199 0.163199 0.163199
0.166133 0.166133 0.166133
0.168445 0.168445 0.168445
0.170359 0.170359 0.170359
0.171993 0.171993 0.171993
0.173421 0.173421 0.173421
0.091936 0.091936 0.091936
0.154429 0.154429 0.154429
0.161204 0.161204 0.161204
0.165304 0.165304 0.165304
0.168276 0.168276 0.168276
0.170618 0.170618 0.170618
0.172555 0.172555 0.172555
0.174211 0.174211 0.174211
0.175658 0.175658 0.175658
0.091936 0.091936 0.091936
0.156054 0.156054 0.156054
0.162900 0.162900 0.162900
0.167043 0.167043 0.167043
0.170047 0.170047 0.170047
0.172413 0.172413 0.172413
0.174372 0.174372 0.174372
0.176044 0.176044 0.176044
0.177578 0.177578 0.177578
0.091936 0.091936 0.091936
0.157442 0.157442 0.157442
0.164349 0.164349 0.164349
0.168529 0.168529 0.168529
0.171559 0.171559 0.171559
0.173946 0.173946 0.173946
0.175922 0.175922 0.175922
0.177693 0.177693 0.177693
0.179348 0.179348 0.179348
0.091936 0.091936 0.091936
0.158654 0.158654 0.158654
0.165614 0.165614 0.165614
0.169826 0.169826 0.169826
0.172879 0.172879 0.172879
0.175285 0.175285 0.175285
0.177319 0.177319 0.177319
0.179227 0.179227 0.179227
0.180896 0.180896 0.180896
0.091936 0.091936 0.091936
0.091936 0.091936 0.091936
0.091936 0.091936 0.091936
0.091936 0.091936 0.091936
0.091936 0.091936 0.091936
0.091936 0.091936 0.091936
0.091936 0.091936 0.091936
0.091936 0.091936 0.091936
0.091936 0.091936 0.091936
0.091936 0.091936 0.091936
0.297260 0.297260 0.297260
0.311295 0.311295 0.311295
0.319809 0.319809 0.319809
0.325069 0.325069 0.325069
0.329111 0.329111 0.329111
0.332451 0.332451 0.332451
0.335301 0.335301 0.335301
0.337790 0.337790 0.337790
0.091936 0.091936 0.091936
0.310249 0.310249 0.310249
0.324159 0.324159 0.324159
0.331521 0.331521 0.331521
0.336845 0.336845 0.336845
0.341034 0.341034 0.341034
0.344495 0.344495 0.344495
0.347448 0.347448 0.347448
0.350027 0.350027 0.350027
0.091936 0.091936 0.091936
0.318108 0.318108 0.318108
0.330978 0.330978 0.330978
0.338495 0.338495 0.338495
0.343931 0.343931 0.343931
0.348208 0.348208 0.348208
0.351741 0.351741 0.351741
0.354757 0.354757 0.354757
0.357390 0.357390 0.357390
0.091936 0.091936 0.091936
0.323253 0.323253 0.323253
0.335903 0.335903 0.335903
0.343531 0.343531 0.343531
0.349049 0.349049 0.349049
0.353389 0.353389 0.353389
0.356975 0.356975 0.356975
0.360036 0.360036 0.360036
0.362708 0.362708 0.362708
0.091936 0.091936 0.091936
0.326978 0.326978 0.326978
0.339774 0.339774 0.339774
0.347490 0.347490 0.347490
0.353070 0.353070 0.353070
0.357461 0.357461 0.357461
0.361089 0.361089 0.361089
0.364184 0.364184 0.364184
0.366888 0.366888 0.366888
0.091936 0.091936 0.091936
0.330053 0.330053 0.330053
0.342969 0.342969 0.342969
0.350758 0.350758 0.350758
0.356391 0.356391 0.356391
0.360823 0.360823 0.360823
0.364484 0.364484 0.364484
0.367609 0.367609 0.367609
0.370338 0.370338 0.370338
0.091936 0.091936 0.091936
0.332675 0.332675 0.332675
0.345694 0.345694 0.345694
0.353545 0.353545 0.353545
0.359223 0.359223 0.359223
0.363690 0.363690 0.363690
0.367381 0.367381 0.367381
0.370530 0.370530 0.370530
0.373281 0.373281 0.373281
0.091936 0.091936 0.091936
0.334964 0.334964 0.334964
0.348072 0.348072 0.348072
0.355977 0.355977 0.355977
0.361694 0.361694 0.361694
0.366192 0.366192 0.366192
0.369908 0.369908 0.369908
0.373079 0.373079 0.373079
0.375849 0.375849 0.375849
0.091936 0.091936 0.091936
0.091936 0.091936 0.091936
0.091936 0.091936 0.091936
0.091936 0.091936 0.091936
0.091936 0.091936 0.091936
0.091936 0.091936 0.091936
0.091936 0.091936 0.091936
0.091936 0.091936 0.091936
0.091936 0.091936 0.091936
0.091936 0.091936 0.091936
0.456643 0.456643 0.456643
0.470722 0.470722 0.470722
0.479159 0.479159 0.479159
0.485236 0.485236 0.485236
0.490003 0.490003 0.490003
0.493932 0.493932 0.493932
0.497279 0.497279 0.497279
0.500197 0.500197 0.500197
0.091936 0.091936 0.091936
0.469681 0.469681 0.469681
0.484162 0.484162 0.484162
0.492839 0.492839 0.492839
0.499090 0.499090 0.499090
0.503993 0.503993 0.503993
0.508034 0.508034 0.508034
0.511477 0.511477 0.511477
0.514478 0.514478 0.514478
0.091936 0.091936 0.091936
0.477479 0.477479 0.477479
0.492201 0.492201 0.492201
0.501022 0.501022 0.501022
0.507376 0.507376 0.507376
0.512361 0.512361 0.512361
0.516470 0.516470 0.516470
0.519969 0.519969 0.519969
0.523020 0.523020 0.523020
0.091936 0.091936 0.091936
0.483091 0.483091 0.483091
0.497985 0.497985 0.497985
0.506910 0.506910 0.506910
0.513339 0.513339 0.513339
0.518382 0.518382 0.518382
0.522539 0.522539 0.522539
0.526071 0.526071 0.526071
0.529144 0.529144 0.529144
0.091936 0.091936 0.091936
0.487489 0.487489 0.487489
0.502519 0.502519 0.502519
0.511525 0.511525 0.511525
0.518013 0.518013 0.518013
0.523101 0.523101 0.523101
0.527282 0.527282 0.527282
0.530839 0.530839 0.530839
0.533940 0.533940 0.533940
0.091936 0.091936 0.091936
0.491112 0.491112 0.491112
0.506254 0.506254 0.506254
0.515327 0.515327 0.515327
0.521863 0.521863 0.521863
0.526976 0.526976 0.526976
0.531183 0.531183 0.531183
0.534767 0.534767 0.534767
0.537891 0.537891 0.537891
0.091936 0.091936 0.091936
0.494196 0.494196 0.494196
0.509433 0.509433 0.509433
0.518563 0.518563 0.518563
0.525135 0.525135 0.525135
0.530271 0.530271 0.530271
0.534505 0.534505 0.534505
0.538111 0.538111 0.538111
0.541254 0.541254 0.541254
0.091936 0.091936 0.091936
0.496883 0.496883 0.496883
0.512203 0.512203 0.512203
0.521383 0.521383 0.521383
0.527978 0.527978 0.527978
0.533142 0.533142 0.533142
0.537399 0.537399 0.537399
0.541024 0.541024 0.541024
0.544185 0.544185 0.544185
0.091936 0.091936 0.091936
0.091936 0.091936 0.091936
0.091936 0.091936 0.091936
0.091936 0.091936 0.091936
0.091936 0.091936 0.091936
0.091936 0.091936 0.091936
0.091936 0.091936 0.091936
0.091936 0.091936 0.091936
0.091936 0.091936 0.091936
0.091936 0.091936 0.091936
0.592827 0.592827 0.592827
0.608857 0.608857 0.608857
0.618434 0.618434 0.618434
0.625321 0.625321 0.625321
0.630715 0.630715 0.630715
0.635157 0.635157 0.635157
0.638937 0.638937 0.638937
0.642229 0.642229 0.642229
0.091936 0.091936 0.091936
0.607673 0.607673 0.607673
0.624105 0.624105 0.624105
0.633922 0.633922 0.633922
0.640981 0.640981 0.640981
0.646510 0.646510 0.646510
0.651063 0.651063 0.651063
0.654938 0.654938 0.654938
0.658313 0.658313 0.658313
0.091936 0.091936 0.091936
0.616530 0.616530 0.616530
0.633200 0.633200 0.633200
0.643160 0.643160 0.643160
0.650322 0.650322 0.650322
0.655932 0.655932 0.655932
0.660551 0.660551 0.660551
0.664482 0.664482 0.664482
0.667907 0.667907 0.667907
0.091936 0.091936 0.091936
0.622891 0.622891 0.622891
0.639734 0.639734 0.639734
0.649797 0.649797 0.649797
0.657032 0.657032 0.657032
0.662700 0.662700 0.662700
0.667367 0.667367 0.667367
0.671339 0.671339 0.671339
0.674798 0.674798 0.674798
0.091936 0.091936 0.091936
0.627871 0.627871 0.627871
0.644848 0.644848 0.644848
0.654992 0.654992 0.654992
0.662285 0.662285 0.662285
0.667998 0.667998 0.667998
0.672703 0.672703 0.672703
0.676706 0.676706 0.676706
0.680193 0.680193 0.680193
0.091936 0.091936 0.091936
0.631969 0.631969 0.631969
0.649057 0.649057 0.649057
0.659267 0.659267 0.659267
0.666608 0.666608 0.666608
0.672358 0.672358 0.672358
0.677093 0.677093 0.677093
0.681123 0.681123 0.681123
0.684633 0.684633 0.684633
0.091936 0.091936 0.091936
0.635455 0.635455 0.635455
0.652638 0.652638 0.652638
0.662903 0.662903 0.662903
0.670285 0.670285 0.670285
0.676067 0.676067 0.676067
0.680828 0.680828 0.680828
0.684880 0.684880 0.684880
0.688409 0.688409 0.688409
0.091936 0.091936 0.091936
0.638490 0.638490 0.638490
0.655755 0.655755 0.655755
0.666070 0.666070 0.666070
0.673486 0.673486 0.673486
0.679296 0.679296 0.679296
0.684080 0.684080 0.684080
0.688151 0.688151 0.688151
0.691697 0.691697 0.691697
0.091936 0.091936 0.091936
0.091936 0.091936 0.091936
0.091936 0.091936 0.091936
0.091936 0.091936 0.091936
0.091936 0.091936 0.091936
0.091936 0.091936 0.091936
0.091936 0.091936 0.091936
0.091936 0.091936 0.091936
0.091936 0.091936 0.091936
0.091936 0.091936 0.091936
0.718452 0.718452 0.718452
0.735128 0.735128 0.735128
0.745061 0.745061 0.745061
0.752191 0.752191 0.752191
0.757767 0.757767 0.757767
0.762355 0.762355 0.762355
0.766255 0.766255 0.766255
0.769649 0.769649 0.769649
0.091936 0.091936 0.091936
0.733898 0.733898 0.733898
0.750933 0.750933 0.750933
0.761080 0.761080 0.761080
0.768362 0.768362 0.768362
0.774059 0.774059 0.774059
0.778745 0.778745 0.778745
0.782528 0.782528 0.782528
0.785802 0.785802 0.785802
0.091936 0.091936 0.091936
0.743087 0.743087 0.743087
0.760335 0.760335 0.760335
0.770609 0.770609 0.770609
0.777983 0.777983 0.777983
0.783493 0.783493 0.783493
0.787973 0.787973 0.787973
0.791780 0.791780 0.791780
0.795093 0.795093 0.795093
0.091936 0.091936 0.091936
0.749677 0.749677 0.749677
0.767077 0.767077 0.767077
0.777442 0.777442 0.777442
0.784561 0.784561 0.784561
0.790054 0.790054 0.790054
0.794572 0.794572 0.794572
0.798411 0.798411 0.798411
0.801752 0.801752 0.801752
0.091936 0.091936 0.091936
0.754828 0.754828 0.754828
0.772348 0.772348 0.772348
0.782580 0.782580 0.782580
0.789652 0.789652 0.789652
0.795182 0.795182 0.795182
0.799728 0.799728 0.799728
0.803593 0.803593 0.803593
0.806955 0.806955 0.806955
0.091936 0.091936 0.091936
0.759063 0.759063 0.759063
0.776681 0.776681 0.776681
0.786727 0.786727 0.786727
0.793837 0.793837 0.793837
0.799396 0.799396 0.799396
0.803966 0.803966 0.803966
0.807851 0.807851 0.807851
0.811232 0.811232 0.811232
0.091936 0.091936 0.091936
0.762662 0.762662 0.762662
0.780294 0.780294 0.780294
0.790251 0.790251 0.790251
0.797392 0.797392 0.797392
0.802976 0.802976 0.802976
0.807567 0.807567 0.807567
0.811469 0.811469 0.811469
0.814739 0.814739 0.814739
0.091936 0.091936 0.091936
0.765794 0.765794 0.765794
0.783321 0.783321 0.783321
0.793316 0.793316 0.793316
0.800485 0.800485 0.800485
0.806090 0.806090 0.806090
0.810699 0.810699 0.810699
0.814533 0.814533 0.814533
0.817354 0.817354 0.817354
0.091936 0.091936 0.091936
0.091936 0.091936 0.091936
0.091936 0.091936 0.091936
0.091936 0.091936 0.091936
0.091936 0.091936 0.091936
0.091936 0.091936 0.091936
0.091936 0.091936 0.091936
0.091936 0.091936 0.091936
0.091936 0.091936 0.091936
0.091936 0.091936 0.091936
0.823392 0.823392 0.823392
0.838298 0.838298 0.838298
0.847142 0.847142 0.847142
0.853473 0.853473 0.853473
0.858417 0.858417 0.858417
0.862477 0.862477 0.862477
0.865925 0.865925 0.865925
0.868923 0.868923 0.868923
0.091936 0.091936 0.091936
0.837201 0.837201 0.837201
0.852357 0.852357 0.852357
0.861349 0.861349 0.861349
0.867787 0.867787 0.867787
0.872813 0.872813 0.872813
0.876516 0.876516 0.876516
0.879153 0.879153 0.879153
0.881444 0.881444 0.881444
0.091936 0.091936 0.091936
0.845386 0.845386 0.845386
0.860690 0.860690 0.860690
0.869770 0.869770 0.869770
0.876010 0.876010 0.876010
0.879829 0.879829 0.879829
0.882960 0.882960 0.882960
0.885617 0.885617 0.885617
0.887925 0.887925 0.887925
0.091936 0.091936 0.091936
0.851242 0.851242 0.851242
0.866652 0.866652 0.866652
0.875652 0.875652 0.875652
0.880576 0.880576 0.880576
0.884414 0.884414 0.884414
0.887562 0.887562 0.887562
0.890232 0.890232 0.890232
0.892552 0.892552 0.892552
0.091936 0.091936 0.091936
0.855812 0.855812 0.855812
0.871305 0.871305 0.871305
0.879190 0.879190 0.879190
0.884133 0.884133 0.884133
0.887987 0.887987 0.887987
0.891148 0.891148 0.891148
0.893829 0.893829 0.893829
0.896158 0.896158 0.896158
0.091936 0.091936 0.091936
0.859564 0.859564 0.859564
0.875125 0.875125 0.875125
0.882091 0.882091 0.882091
0.887050 0.887050 0.887050
0.890917 0.890917 0.890917
0.894088 0.894088 0.894088
0.896778 0.896778 0.896778
0.899115 0.899115 0.899115
0.091936 0.091936 0.091936
0.862750 0.862750 0.862750
0.877588 0.877588 0.877588
0.884551 0.884551 0.884551
0.889524 0.889524 0.889524
0.893401 0.893401 0.893401
0.896582 0.896582 0.896582
0.899279 0.899279 0.899279
0.901623 0.901623 0.901623
0.091936 0.091936 0.091936
0.865518 0.865518 0.865518
0.879708 0.879708 0.879708
0.886688 0.886688 0.886688
0.891673 0.891673 0.891673
0.895559 0.895559 0.895559
0.898747 0.898747 0.898747
0.901452 0.901452 0.901452
0.903801 0.903801 0.903801
0.091936 0.091936 0.091936
0.091936 0.091936 0.091936
0.091936 0.091936 0.091936
0.091936 0.091936 0.091936
0.091936 0.091936 0.091936
0.091936 0.091936 0.091936
0.091936 0.091936 0.091936
0.091936 0.091936 0.091936
0.091936 0.091936 0.091936
0.091936 0.091936 0.091936
0.898713 0.898713 0.898713
0.910936 0.910936 0.910936
0.918163 0.918163 0.918163
0.923326 0.923326 0.923326
0.927263 0.927263 0.927263
0.929428 0.929428 0.929428
0.931263 0.931263 0.931263
0.932856 0.932856 0.932856
0.091936 0.091936 0.091936
0.910039 0.910039 0.910039
0.922416 0.922416 0.922416
0.928827 0.928827 0.928827
0.932252 0.932252 0.932252
0.934918 0.934918 0.934918
0.937101 0.937101 0.937101
0.938951 0.938951 0.938951
0.940557 0.940557 0.940557
0.091936 0.091936 0.091936
0.916730 0.916730 0.916730
0.928476 0.928476 0.928476
0.933305 0.933305 0.933305
0.936747 0.936747 0.936747
0.939425 0.939425 0.939425
0.941619 0.941619 0.941619
0.943478 0.943478 0.943478
0.945091 0.945091 0.945091
0.091936 0.091936 0.091936
0.921508 0.921508 0.921508
0.931649 0.931649 0.931649
0.936495 0.936495 0.936495
0.939949 0.939949 0.939949
0.942636 0.942636 0.942636
0.944837 0.944837 0.944837
0.946703 0.946703 0.946703
0.948322 0.948322 0.948322
0.091936 0.091936 0.091936
0.925231 0.925231 0.925231
0.934119 0.934119 0.934119
0.938977 0.938977 0.938977
0.942440 0.942440 0.942440
0.945134 0.945134 0.945134
0.947341 0.947341 0.947341
0.949212 0.949212 0.949212
0.950835 0.950835 0.950835
0.091936 0.091936 0.091936
0.927875 0.927875 0.927875
0.936141 0.936141 0.936141
0.941010 0.941010 0.941010
0.944480 0.944480 0.944480
0.947180 0.947180 0.947180
0.949392 0.949392 0.949392
0.951267 0.951267 0.951267
0.952893 0.952893 0.952893
0.091936 0.091936 0.091936
0.929573 0.929573 0.929573
0.937854 0.937854 0.937854
0.942732 0.942732 0.942732
0.946208 0.946208 0.946208
0.948914 0.948914 0.948914
0.951130 0.951130 0.951130
0.953008 0.953008 0.953008
0.954637 0.954637 0.954637
0.091936 0.091936 0.091936
0.931047 0.931047 0.931047
0.939341 0.939341 0.939341
0.944226 0.944226 0.944226
0.947708 0.947708 0.947708
0.950418 0.950418 0.950418
0.952637 0.952637 0.952637
0.954518 0.954518 0.954518
0.956150 0.956150 0.956150
