trix_classic/TriX_NoFilter_Punchy.cube
TITLE "Tri-X NoFilter Punchy"
# Adobe RGB in/out. REPLACES AgX. R=0.2974 G=0.2859 B=0.4167
LUT_3D_SIZE 5
DOMAIN_MIN 0.0 0.0 0.0
DOMAIN_MAX 1.0 1.0 1.0
0.092306 0.092306 0.092306
0.092306 0.092306 0.092306
0.092306 0.092306 0.092306
0.092306 0.092306 0.092306
0.092306 0.092306 0.092306
0.092306 0.092306 0.092306
0.092306 0.092306 0.092306
0.092306 0.092306 0.092306
0.092306 0.092306 0.092306
0.092306 0.092306 0.092306
0.092306 0.092306 0.092306
0.092306 0.092306 0.092306
0.092306 0.092306 0.092306
0.092306 0.092306 0.092306
0.092306 0.092306 0.092306
0.092306 0.092306 0.092306
0.092306 0.092306 0.092306
0.092306 0.092306 0.092306
0.092306 0.092306 0.092306
0.092306 0.092306 0.092306
0.092306 0.092306 0.092306
0.092306 0.092306 0.092306
0.092306 0.092306 0.092306
0.092306 0.092306 0.092306
0.092306 0.092306 0.092306
0.092306 0.092306 0.092306
0.092306 0.092306 0.092306
0.092306 0.092306 0.092306
0.092306 0.092306 0.092306
0.092306 0.092306 0.092306
0.092306 0.092306 0.092306
0.160896 0.160896 0.160896
0.236845 0.236845 0.236845
0.297491 0.297491 0.297491
0.345179 0.345179 0.345179
0.092306 0.092306 0.092306
0.233228 0.233228 0.233228
0.340829 0.340829 0.340829
0.412822 0.412822 0.412822
0.460857 0.460857 0.460857
0.092306 0.092306 0.092306
0.290391 0.290391 0.290391
0.409881 0.409881 0.409881
0.479473 0.479473 0.479473
0.536067 0.536067 0.536067
0.092306 0.092306 0.092306
0.336534 0.336534 0.336534
0.456093 0.456093 0.456093
0.533760 0.533760 0.533760
0.590760 0.590760 0.590760
0.092306 0.092306 0.092306
0.092306 0.092306 0.092306
0.092306 0.092306 0.092306
0.092306 0.092306 0.092306
0.092306 0.092306 0.092306
0.092306 0.092306 0.092306
0.276700 0.276700 0.276700
0.393736 0.393736 0.393736
0.463941 0.463941 0.463941
0.518701 0.518701 0.518701
0.092306 0.092306 0.092306
0.388774 0.388774 0.388774
0.513339 0.513339 0.513339
0.594247 0.594247 0.594247
0.655732 0.655732 0.655732
0.092306 0.092306 0.092306
0.456362 0.456362 0.456362
0.591068 0.591068 0.591068
0.679052 0.679052 0.679052
0.742875 0.742875 0.742875
0.092306 0.092306 0.092306
0.508033 0.508033 0.508033
0.649746 0.649746 0.649746
0.740448 0.740448 0.740448
0.805721 0.805721 0.805721
0.092306 0.092306 0.092306
0.092306 0.092306 0.092306
0.092306 0.092306 0.092306
0.092306 0.092306 0.092306
0.092306 0.092306 0.092306
0.092306 0.092306 0.092306
0.371115 0.371115 0.371115
0.494153 0.494153 0.494153
0.574604 0.574604 0.574604
0.634056 0.634056 0.634056
0.092306 0.092306 0.092306
0.489045 0.489045 0.489045
0.628269 0.628269 0.628269
0.719349 0.719349 0.719349
0.782860 0.782860 0.782860
0.092306 0.092306 0.092306
0.566313 0.566313 0.566313
0.716038 0.716038 0.716038
0.806640 0.806640 0.806640
0.866316 0.866316 0.866316
0.092306 0.092306 0.092306
0.622534 0.622534 0.622534
0.776738 0.776738 0.776738
0.863982 0.863982 0.863982
0.913503 0.913503 0.913503
0.092306 0.092306 0.092306
0.092306 0.092306 0.092306
0.092306 0.092306 0.092306
0.092306 0.092306 0.092306
0.092306 0.092306 0.092306
0.092306 0.092306 0.092306
0.441579 0.441579 0.441579
0.574139 0.574139 0.574139
0.659603 0.659603 0.659603
0.724539 0.724539 0.724539
0.092306 0.092306 0.092306
0.568898 0.568898 0.568898
0.718848 0.718848 0.718848
0.809792 0.809792 0.809792
0.869116 0.869116 0.869116
0.092306 0.092306 0.092306
0.650086 0.650086 0.650086
0.806081 0.806081 0.806081
0.887008 0.887008 0.887008
0.932186 0.932186 0.932186
0.092306 0.092306 0.092306
0.713202 0.713202 0.713202
0.863486 0.863486 0.863486
0.930944 0.930944 0.930944
0.961544 0.961544 0.961544
