trix_classic/TriX_Yellow8_Hard.cube
TITLE "Tri-X Yellow8 Hard"
# Adobe RGB in/out. REPLACES AgX. R=0.5015 G=0.4679 B=0.0307
LUT_3D_SIZE 9
DOMAIN_MIN 0.0 0.0 0.0
DOMAIN_MAX 1.0 1.0 1.0
0.093288 0.093288 0.093288
0.093288 0.093288 0.093288
0.093288 0.093288 0.093288
0.093288 0.093288 0.093288
0.093288 0.093288 0.093288
0.093288 0.093288 0.093288
0.093288 0.093288 0.093288
0.093288 0.093288 0.093288
0.093288 0.093288 0.093288
0.093288 0.093288 0.093288
0.093288 0.093288 0.093288
0.093288 0.093288 0.093288
0.093288 0.093288 0.093288
0.093288 0.093288 0.093288
0.093288 0.093288 0.093288
0.093288 0.093288 0.093288
0.093288 0.093288 0.093288
0.093288 0.093288 0.093288
0.093288 0.093288 0.093288
0.093288 0.093288 0.093288
0.093288 0.093288 0.093288
0.093288 0.093288 0.093288
0.093288 0.093288 0.093288
0.093288 0.093288 0.093288
0.093288 0.093288 0.093288
0.093288 0.093288 0.093288
0.093288 0.093288 0.093288
0.093288 0.093288 0.093288
0.093288 0.093288 0.093288
0.093288 0.093288 0.093288
0.093288 0.093288 0.093288
0.093288 0.093288 0.093288
0.093288 0.093288 0.093288
0.093288 0.093288 0.093288
0.093288 0.093288 0.093288
0.093288 0.093288 0.093288
0.093288 0.093288 0.093288
0.093288 0.093288 0.093288
0.093288 0.093288 0.093288
0.093288 0.093288 0.093288
0.093288 0.093288 0.093288
0.093288 0.093288 0.093288
0.093288 0.093288 0.093288
0.093288 0.093288 0.093288
0.093288 0.093288 0.093288
0.093288 0.093288 0.093288
0.093288 0.093288 0.093288
0.093288 0.093288 0.093288
0.093288 0.093288 0.093288
0.093288 0.093288 0.093288
0.093288 0.093288 0.093288
0.093288 0.093288 0.093288
0.093288 0.093288 0.093288
0.093288 0.093288 0.093288
0.093288 0.093288 0.093288
0.093288 0.093288 0.093288
0.093288 0.093288 0.093288
0.093288 0.093288 0.093288
0.093288 0.093288 0.093288
0.093288 0.093288 0.093288
0.093288 0.093288 0.093288
0.093288 0.093288 0.093288
0.093288 0.093288 0.093288
0.093288 0.093288 0.093288
0.093288 0.093288 0.093288
0.093288 0.093288 0.093288
0.093288 0.093288 0.093288
0.093288 0.093288 0.093288
0.093288 0.093288 0.093288
0.093288 0.093288 0.093288
0.093288 0.093288 0.093288
0.093288 0.093288 0.093288
0.093288 0.093288 0.093288
0.093288 0.093288 0.093288
0.093288 0.093288 0.093288
0.093288 0.093288 0.093288
0.093288 0.093288 0.093288
0.093288 0.093288 0.093288
0.093288 0.093288 0.093288
0.093288 0.093288 0.093288
0.093288 0.093288 0.093288
0.093288 0.093288 0.093288
0.093288 0.093288 0.093288
0.093288 0.093288 0.093288
0.093288 0.093288 0.093288
0.093288 0.093288 0.093288
0.093288 0.093288 0.093288
0.093288 0.093288 0.093288
0.093288 0.093288 0.093288
0.093288 0.093288 0.093288
0.093288 0.093288 0.093288
0.093403 0.093403 0.093403
0.094193 0.094193 0.094193
0.096419 0.096419 0.096419
0.100166 0.100166 0.100166
0.110819 0.110819 0.110819
0.132558 0.132558 0.132558
0.161789 0.161789 0.161789
0.198726 0.198726 0.198726
0.093288 0.093288 0.093288
0.094006 0.094006 0.094006
0.099398 0.099398 0.099398
0.126212 0.126212 0.126212
0.184645 0.184645 0.184645
0.263921 0.263921 0.263921
0.357494 0.357494 0.357494
0.459105 0.459105 0.459105
0.556854 0.556854 0.556854
0.093288 0.093288 0.093288
0.095894 0.095894 0.095894
0.122660 0.122660 0.122660
0.213309 0.213309 0.213309
0.341610 0.341610 0.341610
0.487657 0.487657 0.487657
0.633077 0.633077 0.633077
0.759144 0.759144 0.759144
0.835091 0.835091 0.835091
0.093288 0.093288 0.093288
0.098636 0.098636 0.098636
0.172060 0.172060 0.172060
0.330770 0.330770 0.330770
0.520588 0.520588 0.520588
0.703606 0.703606 0.703606
0.825729 0.825729 0.825729
0.896581 0.896581 0.896581
0.943068 0.943068 0.943068
0.093288 0.093288 0.093288
0.103809 0.103809 0.103809
0.239111 0.239111 0.239111
0.464122 0.464122 0.464122
0.690798 0.690798 0.690798
0.838296 0.838296 0.838296
0.918312 0.918312 0.918312
0.960225 0.960225 0.960225
0.978858 0.978858 0.978858
0.093288 0.093288 0.093288
0.116818 0.116818 0.116818
0.316074 0.316074 0.316074
0.593574 0.593574 0.593574
0.812712 0.812712 0.812712
0.913498 0.913498 0.913498
0.963522 0.963522 0.963522
0.982633 0.982633 0.982633
0.989218 0.989218 0.989218
0.093288 0.093288 0.093288
0.136448 0.136448 0.136448
0.402257 0.402257 0.402257
0.713390 0.713390 0.713390
0.881653 0.881653 0.881653
0.955575 0.955575 0.955575
0.981564 0.981564 0.981564
0.989699 0.989699 0.989699
0.993885 0.993885 0.993885
0.093288 0.093288 0.093288
0.160333 0.160333 0.160333
0.486774 0.486774 0.486774
0.801993 0.801993 0.801993
0.928511 0.928511 0.928511
0.975614 0.975614 0.975614
0.988316 0.988316 0.988316
0.993695 0.993695 0.993695
0.996528 0.996528 0.996528
0.093288 0.093288 0.093288
0.093288 0.093288 0.093288
0.093288 0.093288 0.093288
0.093288 0.093288 0.093288
0.093288 0.093288 0.093288
0.093288 0.093288 0.093288
0.093288 0.093288 0.093288
0.093288 0.093288 0.093288
0.093288 0.093288 0.093288
0.093288 0.093288 0.093288
0.093412 0.093412 0.093412
0.094364 0.094364 0.094364
0.096731 0.096731 0.096731
0.100871 0.100871 0.100871
0.114420 0.114420 0.114420
0.139618 0.139618 0.139618
0.172540 0.172540 0.172540
0.212722 0.212722 0.212722
0.093288 0.093288 0.093288
0.094177 0.094177 0.094177
0.100098 0.100098 0.100098
0.131953 0.131953 0.131953
0.197415 0.197415 0.197415
0.282949 0.282949 0.282949
0.383724 0.383724 0.383724
0.488065 0.488065 0.488065
0.592101 0.592101 0.592101
0.093288 0.093288 0.093288
0.096189 0.096189 0.096189
0.128239 0.128239 0.128239
0.228332 0.228332 0.228332
0.366675 0.366675 0.366675
0.518430 0.518430 0.518430
0.666872 0.666872 0.666872
0.785672 0.785672 0.785672
0.856023 0.856023 0.856023
0.093288 0.093288 0.093288
0.099330 0.099330 0.099330
0.183493 0.183493 0.183493
0.355040 0.355040 0.355040
0.553539 0.553539 0.553539
0.741167 0.741167 0.741167
0.846426 0.846426 0.846426
0.913735 0.913735 0.913735
0.953584 0.953584 0.953584
0.093288 0.093288 0.093288
0.105579 0.105579 0.105579
0.255951 0.255951 0.255951
0.493398 0.493398 0.493398
0.727675 0.727675 0.727675
0.859308 0.859308 0.859308
0.931424 0.931424 0.931424
0.969008 0.969008 0.969008
0.983235 0.983235 0.983235
0.093288 0.093288 0.093288
0.122131 0.122131 0.122131
0.339265 0.339265 0.339265
0.629882 0.629882 0.629882
0.833083 0.833083 0.833083
0.927620 0.927620 0.927620
0.971136 0.971136 0.971136
0.984963 0.984963 0.984963
0.991202 0.991202 0.991202
0.093288 0.093288 0.093288
0.143897 0.143897 0.143897
0.432308 0.432308 0.432308
0.750297 0.750297 0.750297
0.898522 0.898522 0.898522
0.964323 0.964323 0.964323
0.984482 0.984482 0.984482
0.991683 0.991683 0.991683
0.994783 0.994783 0.994783
0.093288 0.093288 0.093288
0.170987 0.170987 0.170987
0.517489 0.517489 0.517489
0.823743 0.823743 0.823743
0.941768 0.941768 0.941768
0.979976 0.979976 0.979976
0.990298 0.990298 0.990298
0.994593 0.994593 0.994593
0.997429 0.997429 0.997429
0.093288 0.093288 0.093288
0.093288 0.093288 0.093288
0.093288 0.093288 0.093288
0.093288 0.093288 0.093288
0.093288 0.093288 0.093288
0.093288 0.093288 0.093288
0.093288 0.093288 0.093288
0.093288 0.093288 0.093288
0.093288 0.093288 0.093288
0.093288 0.093288 0.093288
0.093417 0.093417 0.093417
0.094465 0.094465 0.094465
0.096914 0.096914 0.096914
0.101839 0.101839 0.101839
0.117436 0.117436 0.117436
0.144117 0.144117 0.144117
0.179157 0.179157 0.179157
0.221362 0.221362 0.221362
0.093288 0.093288 0.093288
0.094277 0.094277 0.094277
0.100509 0.100509 0.100509
0.135955 0.135955 0.135955
0.205433 0.205433 0.205433
0.294915 0.294915 0.294915
0.400205 0.400205 0.400205
0.505845 0.505845 0.505845
0.613745 0.613745 0.613745
0.093288 0.093288 0.093288
0.096371 0.096371 0.096371
0.131619 0.131619 0.131619
0.237605 0.237605 0.237605
0.382181 0.382181 0.382181
0.537381 0.537381 0.537381
0.687471 0.687471 0.687471
0.801618 0.801618 0.801618
0.868510 0.868510 0.868510
0.093288 0.093288 0.093288
0.099739 0.099739 0.099739
0.190650 0.190650 0.190650
0.370054 0.370054 0.370054
0.573773 0.573773 0.573773
0.758574 0.758574 0.758574
0.858773 0.858773 0.858773
0.922357 0.922357 0.922357
0.958681 0.958681 0.958681
0.093288 0.093288 0.093288
0.107470 0.107470 0.107470
0.266346 0.266346 0.266346
0.511372 0.511372 0.511372
0.749426 0.749426 0.749426
0.871843 0.871843 0.871843
0.939181 0.939181 0.939181
0.972041 0.972041 0.972041
0.984415 0.984415 0.984415
0.093288 0.093288 0.093288
0.125350 0.125350 0.125350
0.353612 0.353612 0.353612
0.649338 0.649338 0.649338
0.845235 0.845235 0.845235
0.935345 0.935345 0.935345
0.973674 0.973674 0.973674
0.986118 0.986118 0.986118
0.992262 0.992262 0.992262
0.093288 0.093288 0.093288
0.148648 0.148648 0.148648
0.448057 0.448057 0.448057
0.765524 0.765524 0.765524
0.908538 0.908538 0.908538
0.969468 0.969468 0.969468
0.985636 0.985636 0.985636
0.992479 0.992479 0.992479
0.995309 0.995309 0.995309
0.093288 0.093288 0.093288
0.177544 0.177544 0.177544
0.536405 0.536405 0.536405
0.835759 0.835759 0.835759
0.949143 0.949143 0.949143
0.982537 0.982537 0.982537
0.991459 0.991459 0.991459
0.995119 0.995119 0.995119
0.997831 0.997831 0.997831
0.093288 0.093288 0.093288
0.093288 0.093288 0.093288
0.093288 0.093288 0.093288
0.093288 0.093288 0.093288
0.093288 0.093288 0.093288
0.093288 0.093288 0.093288
0.093288 0.093288 0.093288
0.093288 0.093288 0.093288
0.093288 0.093288 0.093288
0.093288 0.093288 0.093288
0.093421 0.093421 0.093421
0.094536 0.094536 0.094536
0.097044 0.097044 0.097044
0.102556 0.102556 0.102556
0.119624 0.119624 0.119624
0.147477 0.147477 0.147477
0.184005 0.184005 0.184005
0.227703 0.227703 0.227703
0.093288 0.093288 0.093288
0.094348 0.094348 0.094348
0.100802 0.100802 0.100802
0.138915 0.138915 0.138915
0.211318 0.211318 0.211318
0.303710 0.303710 0.303710
0.412575 0.412575 0.412575
0.518865 0.518865 0.518865
0.628557 0.628557 0.628557
0.093288 0.093288 0.093288
0.096500 0.096500 0.096500
0.134365 0.134365 0.134365
0.244412 0.244412 0.244412
0.393601 0.393601 0.393601
0.551245 0.551245 0.551245
0.702472 0.702472 0.702472
0.811627 0.811627 0.811627
0.876712 0.876712 0.876712
0.093288 0.093288 0.093288
0.100029 0.100029 0.100029
0.196112 0.196112 0.196112
0.381090 0.381090 0.381090
0.588577 0.588577 0.588577
0.769466 0.769466 0.769466
0.867642 0.867642 0.867642
0.927800 0.927800 0.927800
0.962313 0.962313 0.962313
0.093288 0.093288 0.093288
0.108901 0.108901 0.108901
0.274065 0.274065 0.274065
0.524554 0.524554 0.524554
0.760186 0.760186 0.760186
0.879286 0.879286 0.879286
0.944723 0.944723 0.944723
0.973843 0.973843 0.973843
0.985234 0.985234 0.985234
0.093288 0.093288 0.093288
0.127685 0.127685 0.127685
0.364158 0.364158 0.364158
0.663507 0.663507 0.663507
0.853964 0.853964 0.853964
0.940865 0.940865 0.940865
0.975479 0.975479 0.975479
0.986939 0.986939 0.986939
0.992634 0.992634 0.992634
0.093288 0.093288 0.093288
0.152113 0.152113 0.152113
0.459578 0.459578 0.459578
0.776516 0.776516 0.776516
0.915713 0.915713 0.915713
0.971531 0.971531 0.971531
0.986456 0.986456 0.986456
0.992852 0.992852 0.992852
0.995682 0.995682 0.995682
0.093288 0.093288 0.093288
0.182348 0.182348 0.182348
0.550244 0.550244 0.550244
0.844390 0.844390 0.844390
0.952739 0.952739 0.952739
0.983767 0.983767 0.983767
0.992226 0.992226 0.992226
0.995492 0.995492 0.995492
0.997899 0.997899 0.997899
0.093288 0.093288 0.093288
0.093288 0.093288 0.093288
0.093288 0.093288 0.093288
0.093288 0.093288 0.093288
0.093288 0.093288 0.093288
0.093288 0.093288 0.093288
0.093288 0.093288 0.093288
0.093288 0.093288 0.093288
0.093288 0.093288 0.093288
0.093288 0.093288 0.093288
0.093424 0.093424 0.093424
0.094591 0.094591 0.094591
0.097145 0.097145 0.097145
0.103116 0.103116 0.103116
0.121349 0.121349 0.121349
0.150137 0.150137 0.150137
0.187856 0.187856 0.187856
0.232747 0.232747 0.232747
0.093288 0.093288 0.093288
0.094403 0.094403 0.094403
0.101220 0.101220 0.101220
0.141263 0.141263 0.141263
0.215999 0.215999 0.215999
0.310712 0.310712 0.310712
0.422433 0.422433 0.422433
0.529219 0.529219 0.529219
0.639170 0.639170 0.639170
0.093288 0.093288 0.093288
0.096601 0.096601 0.096601
0.136628 0.136628 0.136628
0.249827 0.249827 0.249827
0.403006 0.403006 0.403006
0.562245 0.562245 0.562245
0.714332 0.714332 0.714332
0.818121 0.818121 0.818121
0.882077 0.882077 0.882077
0.093288 0.093288 0.093288
0.100256 0.100256 0.100256
0.200456 0.200456 0.200456
0.389877 0.389877 0.389877
0.600322 0.600322 0.600322
0.778021 0.778021 0.778021
0.874497 0.874497 0.874497
0.932044 0.932044 0.932044
0.965140 0.965140 0.965140
0.093288 0.093288 0.093288
0.110024 0.110024 0.110024
0.280384 0.280384 0.280384
0.535022 0.535022 0.535022
0.768638 0.768638 0.768638
0.884667 0.884667 0.884667
0.948779 0.948779 0.948779
0.975243 0.975243 0.975243
0.985870 0.985870 0.985870
0.093288 0.093288 0.093288
0.129527 0.129527 0.129527
0.372554 0.372554 0.372554
0.674709 0.674709 0.674709
0.860797 0.860797 0.860797
0.945169 0.945169 0.945169
0.976881 0.976881 0.976881
0.987575 0.987575 0.987575
0.992923 0.992923 0.992923
0.093288 0.093288 0.093288
0.154857 0.154857 0.154857
0.468718 0.468718 0.468718
0.785150 0.785150 0.785150
0.920411 0.920411 0.920411
0.972928 0.972928 0.972928
0.987093 0.987093 0.987093
0.993140 0.993140 0.993140
0.995972 0.995972 0.995972
0.093288 0.093288 0.093288
0.186164 0.186164 0.186164
0.561224 0.561224 0.561224
0.851147 0.851147 0.851147
0.955538 0.955538 0.955538
0.984401 0.984401 0.984401
0.992514 0.992514 0.992514
0.995782 0.995782 0.995782
0.997951 0.997951 0.997951
0.093288 0.093288 0.093288
0.093288 0.093288 0.093288
0.093288 0.093288 0.093288
0.093288 0.093288 0.093288
0.093288 0.093288 0.093288
0.093288 0.093288 0.093288
0.093288 0.093288 0.093288
0.093288 0.093288 0.093288
0.093288 0.093288 0.093288
0.093288 0.093288 0.093288
0.093426 0.093426 0.093426
0.094636 0.094636 0.094636
0.097255 0.097255 0.097255
0.103575 0.103575 0.103575
0.122777 0.122777 0.122777
0.152346 0.152346 0.152346
0.191213 0.191213 0.191213
0.236952 0.236952 0.236952
0.093288 0.093288 0.093288
0.094448 0.094448 0.094448
0.101671 0.101671 0.101671
0.143341 0.143341 0.143341
0.219901 0.219901 0.219901
0.316553 0.316553 0.316553
0.430468 0.430468 0.430468
0.537832 0.537832 0.537832
0.647973 0.647973 0.647973
0.093288 0.093288 0.093288
0.096683 0.096683 0.096683
0.138505 0.138505 0.138505
0.254339 0.254339 0.254339
0.410856 0.410856 0.410856
0.571396 0.571396 0.571396
0.724171 0.724171 0.724171
0.823466 0.823466 0.823466
0.886485 0.886485 0.886485
0.093288 0.093288 0.093288
0.100441 0.100441 0.100441
0.204077 0.204077 0.204077
0.397359 0.397359 0.397359
0.610092 0.610092 0.610092
0.785082 0.785082 0.785082
0.878867 0.878867 0.878867
0.935527 0.935527 0.935527
0.967456 0.967456 0.967456
0.093288 0.093288 0.093288
0.110951 0.110951 0.110951
0.285655 0.285655 0.285655
0.543729 0.543729 0.543729
0.775614 0.775614 0.775614
0.889088 0.889088 0.889088
0.951056 0.951056 0.951056
0.976388 0.976388 0.976388
0.986389 0.986389 0.986389
0.093288 0.093288 0.093288
0.131051 0.131051 0.131051
0.379558 0.379558 0.379558
0.684002 0.684002 0.684002
0.866421 0.866421 0.866421
0.948558 0.948558 0.948558
0.978028 0.978028 0.978028
0.988096 0.988096 0.988096
0.993159 0.993159 0.993159
0.093288 0.093288 0.093288
0.157135 0.157135 0.157135
0.476320 0.476320 0.476320
0.792275 0.792275 0.792275
0.923850 0.923850 0.923850
0.974070 0.974070 0.974070
0.987613 0.987613 0.987613
0.993377 0.993377 0.993377
0.996209 0.996209 0.996209
0.093288 0.093288 0.093288
0.189392 0.189392 0.189392
0.570358 0.570358 0.570358
0.856707 0.856707 0.856707
0.957831 0.957831 0.957831
0.984920 0.984920 0.984920
0.992750 0.992750 0.992750
0.996019 0.996019 0.996019
0.997994 0.997994 0.997994
0.093288 0.093288 0.093288
0.093288 0.093288 0.093288
0.093288 0.093288 0.093288
0.093288 0.093288 0.093288
0.093288 0.093288 0.093288
0.093288 0.093288 0.093288
0.093288 0.093288 0.093288
0.093288 0.093288 0.093288
0.093288 0.093288 0.093288
0.093288 0.093288 0.093288
0.093428 0.093428 0.093428
0.094674 0.094674 0.094674
0.097407 0.097407 0.097407
0.103966 0.103966 0.103966
0.123998 0.123998 0.123998
0.154239 0.154239 0.154239
0.194129 0.194129 0.194129
0.240565 0.240565 0.240565
0.093288 0.093288 0.093288
0.094486 0.094486 0.094486
0.102054 0.102054 0.102054
0.145122 0.145122 0.145122
0.223255 0.223255 0.223255
0.321578 0.321578 0.321578
0.436364 0.436364 0.436364
0.545223 0.545223 0.545223
0.655511 0.655511 0.655511
0.093288 0.093288 0.093288
0.096752 0.096752 0.096752
0.140113 0.140113 0.140113
0.258218 0.258218 0.258218
0.417613 0.417613 0.417613
0.579248 0.579248 0.579248
0.732595 0.732595 0.732595
0.828012 0.828012 0.828012
0.890229 0.890229 0.890229
0.093288 0.093288 0.093288
0.100598 0.100598 0.100598
0.207189 0.207189 0.207189
0.403894 0.403894 0.403894
0.618476 0.618476 0.618476
0.791102 0.791102 0.791102
0.882579 0.882579 0.882579
0.938481 0.938481 0.938481
0.969410 0.969410 0.969410
0.093288 0.093288 0.093288
0.111740 0.111740 0.111740
0.290189 0.290189 0.290189
0.551201 0.551201 0.551201
0.781562 0.781562 0.781562
0.892844 0.892844 0.892844
0.952985 0.952985 0.952985
0.977357 0.977357 0.977357
0.986829 0.986829 0.986829
0.093288 0.093288 0.093288
0.132358 0.132358 0.132358
0.385582 0.385582 0.385582
0.691959 0.691959 0.691959
0.871204 0.871204 0.871204
0.950482 0.950482 0.950482
0.978999 0.978999 0.978999
0.988536 0.988536 0.988536
0.993358 0.993358 0.993358
0.093288 0.093288 0.093288
0.159087 0.159087 0.159087
0.482844 0.482844 0.482844
0.798351 0.798351 0.798351
0.926768 0.926768 0.926768
0.975037 0.975037 0.975037
0.988053 0.988053 0.988053
0.993576 0.993576 0.993576
0.996409 0.996409 0.996409
0.093288 0.093288 0.093288
0.192280 0.192280 0.192280
0.578196 0.578196 0.578196
0.861437 0.861437 0.861437
0.959774 0.959774 0.959774
0.985359 0.985359 0.985359
0.992950 0.992950 0.992950
0.996219 0.996219 0.996219
0.998030 0.998030 0.998030
0.093288 0.093288 0.093288
0.093288 0.093288 0.093288
0.093288 0.093288 0.093288
0.093288 0.093288 0.093288
0.093288 0.093288 0.093288
0.093288 0.093288 0.093288
0.093288 0.093288 0.093288
0.093288 0.093288 0.093288
0.093288 0.093288 0.093288
0.093288 0.093288 0.093288
0.093429 0.093429 0.093429
0.094708 0.094708 0.094708
0.097539 0.097539 0.097539
0.104305 0.104305 0.104305
0.125065 0.125065 0.125065
0.155897 0.155897 0.155897
0.196691 0.196691 0.196691
0.243740 0.243740 0.243740
0.093288 0.093288 0.093288
0.094519 0.094519 0.094519
0.102387 0.102387 0.102387
0.146683 0.146683 0.146683
0.226201 0.226201 0.226201
0.325994 0.325994 0.325994
0.441537 0.441537 0.441537
0.551708 0.551708 0.551708
0.662112 0.662112 0.662112
0.093288 0.093288 0.093288
0.096813 0.096813 0.096813
0.141547 0.141547 0.141547
0.261626 0.261626 0.261626
0.423556 0.423556 0.423556
0.586138 0.586138 0.586138
0.739972 0.739972 0.739972
0.831970 0.831970 0.831970
0.893486 0.893486 0.893486
0.093288 0.093288 0.093288
0.100734 0.100734 0.100734
0.209924 0.209924 0.209924
0.409642 0.409642 0.409642
0.625385 0.625385 0.625385
0.796354 0.796354 0.796354
0.885807 0.885807 0.885807
0.941048 0.941048 0.941048
0.970540 0.970540 0.970540
0.093288 0.093288 0.093288
0.112428 0.112428 0.112428
0.294174 0.294174 0.294174
0.557757 0.557757 0.557757
0.786750 0.786750 0.786750
0.896109 0.896109 0.896109
0.954660 0.954660 0.954660
0.978197 0.978197 0.978197
0.987210 0.987210 0.987210
0.093288 0.093288 0.093288
0.133688 0.133688 0.133688
0.390878 0.390878 0.390878
0.698927 0.698927 0.698927
0.875097 0.875097 0.875097
0.952152 0.952152 0.952152
0.979841 0.979841 0.979841
0.988918 0.988918 0.988918
0.993531 0.993531 0.993531
0.093288 0.093288 0.093288
0.160954 0.160954 0.160954
0.488567 0.488567 0.488567
0.803651 0.803651 0.803651
0.929302 0.929302 0.929302
0.975875 0.975875 0.975875
0.988435 0.988435 0.988435
0.993749 0.993749 0.993749
0.996582 0.996582 0.996582
0.093288 0.093288 0.093288
0.194818 0.194818 0.194818
0.585073 0.585073 0.585073
0.865555 0.865555 0.865555
0.961461 0.961461 0.961461
0.985739 0.985739 0.985739
0.993123 0.993123 0.993123
0.996392 0.996392 0.996392
0.998062 0.998062 0.998062
