trix_classic/TriX_Yellow8_Hard.cube
TITLE "Tri-X Yellow8 Hard"
# Adobe RGB in/out. REPLACES AgX. R=0.5015 G=0.4679 B=0.0307
LUT_3D_SIZE 5
DOMAIN_MIN 0.0 0.0 0.0
DOMAIN_MAX 1.0 1.0 1.0
0.093288 0.093288 0.093288
0.093288 0.093288 0.093288
0.093288 0.093288 0.093288
0.093288 0.093288 0.093288
0.093288 0.093288 0.093288
0.093288 0.093288 0.093288
0.093288 0.093288 0.093288
0.093288 0.093288 0.093288
0.093288 0.093288 0.093288
0.093288 0.093288 0.093288
0.093288 0.093288 0.093288
0.093288 0.093288 0.093288
0.093288 0.093288 0.093288
0.093288 0.093288 0.093288
0.093288 0.093288 0.093288
0.093288 0.093288 0.093288
0.093288 0.093288 0.093288
0.093288 0.093288 0.093288
0.093288 0.093288 0.093288
0.093288 0.093288 0.093288
0.093288 0.093288 0.093288
0.093288 0.093288 0.093288
0.093288 0.093288 0.093288
0.093288 0.093288 0.093288
0.093288 0.093288 0.093288
0.093288 0.093288 0.093288
0.093288 0.093288 0.093288
0.093288 0.093288 0.093288
0.093288 0.093288 0.093288
0.093288 0.093288 0.093288
0.093288 0.093288 0.093288
0.100098 0.100098 0.100098
0.197415 0.197415 0.197415
0.383724 0.383724 0.383724
0.592101 0.592101 0.592101
0.093288 0.093288 0.093288
0.183493 0.183493 0.183493
0.553539 0.553539 0.553539
0.846426 0.846426 0.846426
0.953584 0.953584 0.953584
0.093288 0.093288 0.093288
0.339265 0.339265 0.339265
0.833083 0.833083 0.833083
0.971136 0.971136 0.971136
0.991202 0.991202 0.991202
0.093288 0.093288 0.093288
0.517489 0.517489 0.517489
0.941768 0.941768 0.941768
0.990298 0.990298 0.990298
0.997429 0.997429 0.997429
0.093288 0.093288 0.093288
0.093288 0.093288 0.093288
0.093288 0.093288 0.093288
0.093288 0.093288 0.093288
0.093288 0.093288 0.093288
0.093288 0.093288 0.093288
0.100802 0.100802 0.100802
0.211318 0.211318 0.211318
0.412575 0.412575 0.412575
0.628557 0.628557 0.628557
0.093288 0.093288 0.093288
0.196112 0.196112 0.196112
0.588577 0.588577 0.588577
0.867642 0.867642 0.867642
0.962313 0.962313 0.962313
0.093288 0.093288 0.093288
0.364158 0.364158 0.364158
0.853964 0.853964 0.853964
0.975479 0.975479 0.975479
0.992634 0.992634 0.992634
0.093288 0.093288 0.093288
0.550244 0.550244 0.550244
0.952739 0.952739 0.952739
0.992226 0.992226 0.992226
0.997899 0.997899 0.997899
0.093288 0.093288 0.093288
0.093288 0.093288 0.093288
0.093288 0.093288 0.093288
0.093288 0.093288 0.093288
0.093288 0.093288 0.093288
0.093288 0.093288 0.093288
0.101671 0.101671 0.101671
0.219901 0.219901 0.219901
0.430468 0.430468 0.430468
0.647973 0.647973 0.647973
0.093288 0.093288 0.093288
0.204077 0.204077 0.204077
0.610092 0.610092 0.610092
0.878867 0.878867 0.878867
0.967456 0.967456 0.967456
0.093288 0.093288 0.093288
0.379558 0.379558 0.379558
0.866421 0.866421 0.866421
0.978028 0.978028 0.978028
0.993159 0.993159 0.993159
0.093288 0.093288 0.093288
0.570358 0.570358 0.570358
0.957831 0.957831 0.957831
0.992750 0.992750 0.992750
0.997994 0.997994 0.997994
0.093288 0.093288 0.093288
0.093288 0.093288 0.093288
0.093288 0.093288 0.093288
0.093288 0.093288 0.093288
0.093288 0.093288 0.093288
0.093288 0.093288 0.093288
0.102387 0.102387 0.102387
0.226201 0.226201 0.226201
0.441537 0.441537 0.441537
0.662112 0.662112 0.662112
0.093288 0.093288 0.093288
0.209924 0.209924 0.209924
0.625385 0.625385 0.625385
0.885807 0.885807 0.885807
0.970540 0.970540 0.970540
0.093288 0.093288 0.093288
0.390878 0.390878 0.390878
0.875097 0.875097 0.875097
0.979841 0.979841 0.979841
0.993531 0.993531 0.993531
0.093288 0.093288 0.093288
0.585073 0.585073 0.585073
0.961461 0.961461 0.961461
0.993123 0.993123 0.993123
0.998062 0.998062 0.998062
