trix_classic/TriX_NoFilter_Soft.cube
TITLE "Tri-X NoFilter Soft"
# Adobe RGB in/out. REPLACES AgX. R=0.2974 G=0.2859 B=0.4167
LUT_3D_SIZE 5
DOMAIN_MIN 0.0 0.0 0.0
DOMAIN_MAX 1.0 1.0 1.0
0.097688 0.097688 0.097688
0.097688 0.097688 0.097688
0.097688 0.097688 0.097688
0.097688 0.097688 0.097688
0.097688 0.097688 0.097688
0.097688 0.097688 0.097688
0.097688 0.097688 0.097688
0.097688 0.097688 0.097688
0.097688 0.097688 0.097688
0.097688 0.097688 0.097688
0.097688 0.097688 0.097688
0.097688 0.097688 0.097688
0.097688 0.097688 0.097688
0.097688 0.097688 0.097688
0.097688 0.097688 0.097688
0.097688 0.097688 0.097688
0.097688 0.097688 0.097688
0.097688 0.097688 0.097688
0.097688 0.097688 0.097688
0.097688 0.097688 0.097688
0.097688 0.097688 0.097688
0.097688 0.097688 0.097688
0.097688 0.097688 0.097688
0.097688 0.097688 0.097688
0.097688 0.097688 0.097688
0.097688 0.097688 0.097688
0.097688 0.097688 0.097688
0.097688 0.097688 0.097688
0.097688 0.097688 0.097688
0.097688 0.097688 0.097688
0.097688 0.097688 0.097688
0.241770 0.241770 0.241770
0.303822 0.303822 0.303822
0.345561 0.345561 0.345561
0.377714 0.377714 0.377714
0.097688 0.097688 0.097688
0.301351 0.301351 0.301351
0.374597 0.374597 0.374597
0.423398 0.423398 0.423398
0.460295 0.460295 0.460295
0.097688 0.097688 0.097688
0.341052 0.341052 0.341052
0.421516 0.421516 0.421516
0.474342 0.474342 0.474342
0.516173 0.516173 0.516173
0.097688 0.097688 0.097688
0.371506 0.371506 0.371506
0.456679 0.456679 0.456679
0.514507 0.514507 0.514507
0.559396 0.559396 0.559396
0.097688 0.097688 0.097688
0.097688 0.097688 0.097688
0.097688 0.097688 0.097688
0.097688 0.097688 0.097688
0.097688 0.097688 0.097688
0.097688 0.097688 0.097688
0.332065 0.332065 0.332065
0.411466 0.411466 0.411466
0.462631 0.462631 0.462631
0.503520 0.503520 0.503520
0.097688 0.097688 0.097688
0.408238 0.408238 0.408238
0.499564 0.499564 0.499564
0.562200 0.562200 0.562200
0.611251 0.611251 0.611251
0.097688 0.097688 0.097688
0.456884 0.456884 0.456884
0.559644 0.559644 0.559644
0.629672 0.629672 0.629672
0.683439 0.683439 0.683439
0.097688 0.097688 0.097688
0.495639 0.495639 0.495639
0.606508 0.606508 0.606508
0.681296 0.681296 0.681296
0.738824 0.738824 0.738824
0.097688 0.097688 0.097688
0.097688 0.097688 0.097688
0.097688 0.097688 0.097688
0.097688 0.097688 0.097688
0.097688 0.097688 0.097688
0.097688 0.097688 0.097688
0.396024 0.396024 0.396024
0.485326 0.485326 0.485326
0.546372 0.546372 0.546372
0.594041 0.594041 0.594041
0.097688 0.097688 0.097688
0.481513 0.481513 0.481513
0.589431 0.589431 0.589431
0.662658 0.662658 0.662658
0.718698 0.718698 0.718698
0.097688 0.097688 0.097688
0.539666 0.539666 0.539666
0.659732 0.659732 0.659732
0.739633 0.739633 0.739633
0.799023 0.799023 0.799023
0.097688 0.097688 0.097688
0.584857 0.584857 0.584857
0.713304 0.713304 0.713304
0.796843 0.796843 0.796843
0.855215 0.855215 0.855215
0.097688 0.097688 0.097688
0.097688 0.097688 0.097688
0.097688 0.097688 0.097688
0.097688 0.097688 0.097688
0.097688 0.097688 0.097688
0.097688 0.097688 0.097688
0.445604 0.445604 0.445604
0.545996 0.545996 0.545996
0.614315 0.614315 0.614315
0.667245 0.667245 0.667245
0.097688 0.097688 0.097688
0.541759 0.541759 0.541759
0.662216 0.662216 0.662216
0.742405 0.742405 0.742405
0.801640 0.801640 0.801640
0.097688 0.097688 0.097688
0.606777 0.606777 0.606777
0.739141 0.739141 0.739141
0.822010 0.822010 0.822010
0.882226 0.882226 0.882226
0.097688 0.097688 0.097688
0.657224 0.657224 0.657224
0.796379 0.796379 0.796379
0.879818 0.879818 0.879818
0.921710 0.921710 0.921710
