trix_classic/TriX_Blue47_Normal.cube
TITLE "Tri-X Blue47 Normal"
# Adobe RGB in/out. REPLACES AgX. R=0.0336 G=0.0311 B=0.9353
LUT_3D_SIZE 9
DOMAIN_MIN 0.0 0.0 0.0
DOMAIN_MAX 1.0 1.0 1.0
0.093230 0.093230 0.093230
0.093230 0.093230 0.093230
0.093230 0.093230 0.093230
0.093230 0.093230 0.093230
0.093230 0.093230 0.093230
0.093230 0.093230 0.093230
0.093230 0.093230 0.093230
0.093230 0.093230 0.093230
0.093230 0.093230 0.093230
0.093230 0.093230 0.093230
0.093230 0.093230 0.093230
0.093230 0.093230 0.093230
0.093230 0.093230 0.093230
0.093230 0.093230 0.093230
0.093230 0.093230 0.093230
0.093230 0.093230 0.093230
0.093230 0.093230 0.093230
0.093230 0.093230 0.093230
0.093230 0.093230 0.093230
0.093230 0.093230 0.093230
0.093230 0.093230 0.093230
0.093230 0.093230 0.093230
0.093230 0.093230 0.093230
0.093230 0.093230 0.093230
0.093230 0.093230 0.093230
0.093230 0.093230 0.093230
0.093230 0.093230 0.093230
0.093230 0.093230 0.093230
0.093230 0.093230 0.093230
0.093230 0.093230 0.093230
0.093230 0.093230 0.093230
0.093230 0.093230 0.093230
0.093230 0.093230 0.093230
0.093230 0.093230 0.093230
0.093230 0.093230 0.093230
0.093230 0.093230 0.093230
0.093230 0.093230 0.093230
0.093230 0.093230 0.093230
0.093230 0.093230 0.093230
0.093230 0.093230 0.093230
0.093230 0.093230 0.093230
0.093230 0.093230 0.093230
0.093230 0.093230 0.093230
0.093230 0.093230 0.093230
0.093230 0.093230 0.093230
0.093230 0.093230 0.093230
0.093230 0.093230 0.093230
0.093230 0.093230 0.093230
0.093230 0.093230 0.093230
0.093230 0.093230 0.093230
0.093230 0.093230 0.093230
0.093230 0.093230 0.093230
0.093230 0.093230 0.093230
0.093230 0.093230 0.093230
0.093230 0.093230 0.093230
0.093230 0.093230 0.093230
0.093230 0.093230 0.093230
0.093230 0.093230 0.093230
0.093230 0.093230 0.093230
0.093230 0.093230 0.093230
0.093230 0.093230 0.093230
0.093230 0.093230 0.093230
0.093230 0.093230 0.093230
0.093230 0.093230 0.093230
0.093230 0.093230 0.093230
0.093230 0.093230 0.093230
0.093230 0.093230 0.093230
0.093230 0.093230 0.093230
0.093230 0.093230 0.093230
0.093230 0.093230 0.093230
0.093230 0.093230 0.093230
0.093230 0.093230 0.093230
0.093230 0.093230 0.093230
0.093230 0.093230 0.093230
0.093230 0.093230 0.093230
0.093230 0.093230 0.093230
0.093230 0.093230 0.093230
0.093230 0.093230 0.093230
0.093230 0.093230 0.093230
0.093230 0.093230 0.093230
0.093230 0.093230 0.093230
0.093230 0.093230 0.093230
0.093230 0.093230 0.093230
0.093230 0.093230 0.093230
0.093230 0.093230 0.093230
0.093230 0.093230 0.093230
0.093230 0.093230 0.093230
0.093230 0.093230 0.093230
0.093230 0.093230 0.093230
0.093230 0.093230 0.093230
0.093230 0.093230 0.093230
0.097009 0.097009 0.097009
0.097719 0.097719 0.097719
0.098136 0.098136 0.098136
0.098433 0.098433 0.098433
0.098664 0.098664 0.098664
0.098853 0.098853 0.098853
0.099014 0.099014 0.099014
0.099153 0.099153 0.099153
0.093230 0.093230 0.093230
0.097667 0.097667 0.097667
0.098381 0.098381 0.098381
0.098801 0.098801 0.098801
0.099100 0.099100 0.099100
0.099333 0.099333 0.099333
0.099523 0.099523 0.099523
0.099685 0.099685 0.099685
0.099825 0.099825 0.099825
0.093230 0.093230 0.093230
0.098053 0.098053 0.098053
0.098770 0.098770 0.098770
0.099192 0.099192 0.099192
0.099492 0.099492 0.099492
0.099726 0.099726 0.099726
0.099917 0.099917 0.099917
0.100079 0.100079 0.100079
0.100220 0.100220 0.100220
0.093230 0.093230 0.093230
0.098329 0.098329 0.098329
0.099048 0.099048 0.099048
0.099471 0.099471 0.099471
0.099772 0.099772 0.099772
0.100006 0.100006 0.100006
0.100198 0.100198 0.100198
0.100360 0.100360 0.100360
0.100501 0.100501 0.100501
0.093230 0.093230 0.093230
0.098543 0.098543 0.098543
0.099263 0.099263 0.099263
0.099687 0.099687 0.099687
0.099989 0.099989 0.099989
0.100224 0.100224 0.100224
0.100416 0.100416 0.100416
0.100579 0.100579 0.100579
0.100720 0.100720 0.100720
0.093230 0.093230 0.093230
0.098718 0.098718 0.098718
0.099440 0.099440 0.099440
0.099864 0.099864 0.099864
0.100167 0.100167 0.100167
0.100402 0.100402 0.100402
0.100594 0.100594 0.100594
0.100758 0.100758 0.100758
0.100899 0.100899 0.100899
0.093230 0.093230 0.093230
0.098866 0.098866 0.098866
0.099589 0.099589 0.099589
0.100014 0.100014 0.100014
0.100317 0.100317 0.100317
0.100553 0.100553 0.100553
0.100746 0.100746 0.100746
0.100909 0.100909 0.100909
0.101051 0.101051 0.101051
0.093230 0.093230 0.093230
0.098995 0.098995 0.098995
0.099719 0.099719 0.099719
0.100145 0.100145 0.100145
0.100448 0.100448 0.100448
0.100684 0.100684 0.100684
0.100877 0.100877 0.100877
0.101040 0.101040 0.101040
0.101254 0.101254 0.101254
0.093230 0.093230 0.093230
0.093230 0.093230 0.093230
0.093230 0.093230 0.093230
0.093230 0.093230 0.093230
0.093230 0.093230 0.093230
0.093230 0.093230 0.093230
0.093230 0.093230 0.093230
0.093230 0.093230 0.093230
0.093230 0.093230 0.093230
0.093230 0.093230 0.093230
0.189500 0.189500 0.189500
0.197164 0.197164 0.197164
0.201791 0.201791 0.201791
0.204950 0.204950 0.204950
0.207425 0.207425 0.207425
0.209468 0.209468 0.209468
0.211212 0.211212 0.211212
0.212734 0.212734 0.212734
0.093230 0.093230 0.093230
0.196595 0.196595 0.196595
0.204394 0.204394 0.204394
0.208899 0.208899 0.208899
0.212156 0.212156 0.212156
0.214717 0.214717 0.214717
0.216833 0.216833 0.216833
0.218638 0.218638 0.218638
0.220213 0.220213 0.220213
0.093230 0.093230 0.093230
0.200868 0.200868 0.200868
0.208567 0.208567 0.208567
0.213165 0.213165 0.213165
0.216488 0.216488 0.216488
0.219102 0.219102 0.219102
0.221260 0.221260 0.221260
0.223102 0.223102 0.223102
0.224710 0.224710 0.224710
0.093230 0.093230 0.093230
0.203839 0.203839 0.203839
0.211580 0.211580 0.211580
0.216244 0.216244 0.216244
0.219615 0.219615 0.219615
0.222267 0.222267 0.222267
0.224456 0.224456 0.224456
0.226325 0.226325 0.226325
0.227956 0.227956 0.227956
0.093230 0.093230 0.093230
0.206119 0.206119 0.206119
0.213947 0.213947 0.213947
0.218663 0.218663 0.218663
0.222072 0.222072 0.222072
0.224753 0.224753 0.224753
0.226967 0.226967 0.226967
0.228856 0.228856 0.228856
0.230506 0.230506 0.230506
0.093230 0.093230 0.093230
0.208001 0.208001 0.208001
0.215900 0.215900 0.215900
0.220659 0.220659 0.220659
0.224100 0.224100 0.224100
0.226805 0.226805 0.226805
0.229040 0.229040 0.229040
0.230946 0.230946 0.230946
0.232610 0.232610 0.232610
0.093230 0.093230 0.093230
0.209606 0.209606 0.209606
0.217566 0.217566 0.217566
0.222362 0.222362 0.222362
0.225828 0.225828 0.225828
0.228555 0.228555 0.228555
0.230806 0.230806 0.230806
0.232728 0.232728 0.232728
0.234405 0.234405 0.234405
0.093230 0.093230 0.093230
0.211006 0.211006 0.211006
0.219019 0.219019 0.219019
0.223847 0.223847 0.223847
0.227337 0.227337 0.227337
0.230081 0.230081 0.230081
0.232348 0.232348 0.232348
0.234282 0.234282 0.234282
0.235970 0.235970 0.235970
0.093230 0.093230 0.093230
0.093230 0.093230 0.093230
0.093230 0.093230 0.093230
0.093230 0.093230 0.093230
0.093230 0.093230 0.093230
0.093230 0.093230 0.093230
0.093230 0.093230 0.093230
0.093230 0.093230 0.093230
0.093230 0.093230 0.093230
0.093230 0.093230 0.093230
0.327326 0.327326 0.327326
0.336648 0.336648 0.336648
0.342317 0.342317 0.342317
0.346529 0.346529 0.346529
0.349831 0.349831 0.349831
0.352553 0.352553 0.352553
0.354871 0.354871 0.354871
0.356891 0.356891 0.356891
0.093230 0.093230 0.093230
0.335959 0.335959 0.335959
0.345785 0.345785 0.345785
0.351796 0.351796 0.351796
0.356124 0.356124 0.356124
0.359518 0.359518 0.359518
0.362316 0.362316 0.362316
0.364697 0.364697 0.364697
0.366773 0.366773 0.366773
0.093230 0.093230 0.093230
0.341153 0.341153 0.341153
0.351354 0.351354 0.351354
0.357462 0.357462 0.357462
0.361860 0.361860 0.361860
0.365309 0.365309 0.365309
0.368151 0.368151 0.368151
0.370571 0.370571 0.370571
0.372681 0.372681 0.372681
0.093230 0.093230 0.093230
0.345042 0.345042 0.345042
0.355360 0.355360 0.355360
0.361538 0.361538 0.361538
0.365986 0.365986 0.365986
0.369474 0.369474 0.369474
0.372348 0.372348 0.372348
0.374796 0.374796 0.374796
0.376930 0.376930 0.376930
0.093230 0.093230 0.093230
0.348090 0.348090 0.348090
0.358498 0.358498 0.358498
0.364731 0.364731 0.364731
0.369218 0.369218 0.369218
0.372737 0.372737 0.372737
0.375637 0.375637 0.375637
0.378107 0.378107 0.378107
0.380259 0.380259 0.380259
0.093230 0.093230 0.093230
0.350599 0.350599 0.350599
0.361083 0.361083 0.361083
0.367361 0.367361 0.367361
0.371881 0.371881 0.371881
0.375425 0.375425 0.375425
0.378346 0.378346 0.378346
0.380833 0.380833 0.380833
0.383001 0.383001 0.383001
0.093230 0.093230 0.093230
0.352736 0.352736 0.352736
0.363283 0.363283 0.363283
0.369599 0.369599 0.369599
0.374147 0.374147 0.374147
0.377712 0.377712 0.377712
0.380651 0.380651 0.380651
0.383153 0.383153 0.383153
0.385334 0.385334 0.385334
0.093230 0.093230 0.093230
0.354597 0.354597 0.354597
0.365200 0.365200 0.365200
0.371549 0.371549 0.371549
0.376120 0.376120 0.376120
0.379705 0.379705 0.379705
0.382659 0.382659 0.382659
0.385175 0.385175 0.385175
0.387367 0.387367 0.387367
0.093230 0.093230 0.093230
0.093230 0.093230 0.093230
0.093230 0.093230 0.093230
0.093230 0.093230 0.093230
0.093230 0.093230 0.093230
0.093230 0.093230 0.093230
0.093230 0.093230 0.093230
0.093230 0.093230 0.093230
0.093230 0.093230 0.093230
0.093230 0.093230 0.093230
0.456817 0.456817 0.456817
0.469583 0.469583 0.469583
0.477215 0.477215 0.477215
0.482705 0.482705 0.482705
0.487007 0.487007 0.487007
0.490550 0.490550 0.490550
0.493566 0.493566 0.493566
0.496194 0.496194 0.496194
0.093230 0.093230 0.093230
0.468639 0.468639 0.468639
0.481735 0.481735 0.481735
0.489565 0.489565 0.489565
0.495197 0.495197 0.495197
0.499610 0.499610 0.499610
0.503246 0.503246 0.503246
0.506340 0.506340 0.506340
0.509035 0.509035 0.509035
0.093230 0.093230 0.093230
0.475696 0.475696 0.475696
0.488989 0.488989 0.488989
0.496937 0.496937 0.496937
0.502654 0.502654 0.502654
0.507134 0.507134 0.507134
0.510824 0.510824 0.510824
0.513964 0.513964 0.513964
0.516700 0.516700 0.516700
0.093230 0.093230 0.093230
0.480768 0.480768 0.480768
0.494202 0.494202 0.494202
0.502235 0.502235 0.502235
0.508013 0.508013 0.508013
0.512540 0.512540 0.512540
0.516269 0.516269 0.516269
0.519339 0.519339 0.519339
0.521990 0.521990 0.521990
0.093230 0.093230 0.093230
0.484738 0.484738 0.484738
0.498284 0.498284 0.498284
0.506383 0.506383 0.506383
0.512209 0.512209 0.512209
0.516773 0.516773 0.516773
0.520384 0.520384 0.520384
0.523452 0.523452 0.523452
0.526124 0.526124 0.526124
0.093230 0.093230 0.093230
0.488007 0.488007 0.488007
0.501644 0.501644 0.501644
0.509798 0.509798 0.509798
0.515663 0.515663 0.515663
0.520120 0.520120 0.520120
0.523749 0.523749 0.523749
0.526836 0.526836 0.526836
0.529526 0.529526 0.529526
0.093230 0.093230 0.093230
0.490788 0.490788 0.490788
0.504503 0.504503 0.504503
0.512703 0.512703 0.512703
0.518531 0.518531 0.518531
0.522962 0.522962 0.522962
0.526611 0.526611 0.526611
0.529715 0.529715 0.529715
0.532419 0.532419 0.532419
0.093230 0.093230 0.093230
0.493210 0.493210 0.493210
0.506992 0.506992 0.506992
0.515232 0.515232 0.515232
0.520985 0.520985 0.520985
0.525437 0.525437 0.525437
0.529102 0.529102 0.529102
0.532221 0.532221 0.532221
0.534938 0.534938 0.534938
0.093230 0.093230 0.093230
0.093230 0.093230 0.093230
0.093230 0.093230 0.093230
0.093230 0.093230 0.093230
0.093230 0.093230 0.093230
0.093230 0.093230 0.093230
0.093230 0.093230 0.093230
0.093230 0.093230 0.093230
0.093230 0.093230 0.093230
0.093230 0.093230 0.093230
0.581864 0.581864 0.581864
0.597448 0.597448 0.597448
0.606757 0.606757 0.606757
0.613450 0.613450 0.613450
0.618692 0.618692 0.618692
0.623008 0.623008 0.623008
0.626681 0.626681 0.626681
0.629880 0.629880 0.629880
0.093230 0.093230 0.093230
0.596298 0.596298 0.596298
0.612268 0.612268 0.612268
0.621808 0.621808 0.621808
0.628666 0.628666 0.628666
0.634038 0.634038 0.634038
0.638462 0.638462 0.638462
0.642226 0.642226 0.642226
0.645504 0.645504 0.645504
0.093230 0.093230 0.093230
0.604906 0.604906 0.604906
0.621107 0.621107 0.621107
0.630784 0.630784 0.630784
0.637742 0.637742 0.637742
0.643192 0.643192 0.643192
0.647679 0.647679 0.647679
0.651497 0.651497 0.651497
0.654823 0.654823 0.654823
0.093230 0.093230 0.093230
0.611089 0.611089 0.611089
0.627455 0.627455 0.627455
0.637232 0.637232 0.637232
0.644261 0.644261 0.644261
0.649766 0.649766 0.649766
0.654299 0.654299 0.654299
0.658156 0.658156 0.658156
0.661516 0.661516 0.661516
0.093230 0.093230 0.093230
0.615928 0.615928 0.615928
0.632424 0.632424 0.632424
0.642278 0.642278 0.642278
0.649363 0.649363 0.649363
0.654911 0.654911 0.654911
0.659480 0.659480 0.659480
0.663368 0.663368 0.663368
0.666754 0.666754 0.666754
0.093230 0.093230 0.093230
0.619911 0.619911 0.619911
0.636514 0.636514 0.636514
0.646431 0.646431 0.646431
0.653561 0.653561 0.653561
0.659146 0.659146 0.659146
0.663744 0.663744 0.663744
0.667657 0.667657 0.667657
0.670686 0.670686 0.670686
0.093230 0.093230 0.093230
0.623298 0.623298 0.623298
0.639991 0.639991 0.639991
0.649963 0.649963 0.649963
0.657132 0.657132 0.657132
0.662748 0.662748 0.662748
0.667371 0.667371 0.667371
0.670894 0.670894 0.670894
0.673869 0.673869 0.673869
0.093230 0.093230 0.093230
0.626247 0.626247 0.626247
0.643020 0.643020 0.643020
0.653038 0.653038 0.653038
0.660242 0.660242 0.660242
0.665883 0.665883 0.665883
0.670220 0.670220 0.670220
0.673651 0.673651 0.673651
0.676638 0.676638 0.676638
0.093230 0.093230 0.093230
0.093230 0.093230 0.093230
0.093230 0.093230 0.093230
0.093230 0.093230 0.093230
0.093230 0.093230 0.093230
0.093230 0.093230 0.093230
0.093230 0.093230 0.093230
0.093230 0.093230 0.093230
0.093230 0.093230 0.093230
0.093230 0.093230 0.093230
0.701023 0.701023 0.701023
0.717307 0.717307 0.717307
0.727007 0.727007 0.727007
0.733969 0.733969 0.733969
0.739415 0.739415 0.739415
0.743894 0.743894 0.743894
0.747703 0.747703 0.747703
0.751018 0.751018 0.751018
0.093230 0.093230 0.093230
0.716106 0.716106 0.716106
0.732740 0.732740 0.732740
0.742649 0.742649 0.742649
0.749761 0.749761 0.749761
0.755324 0.755324 0.755324
0.759900 0.759900 0.759900
0.763594 0.763594 0.763594
0.766792 0.766792 0.766792
0.093230 0.093230 0.093230
0.725079 0.725079 0.725079
0.741922 0.741922 0.741922
0.751955 0.751955 0.751955
0.759156 0.759156 0.759156
0.764537 0.764537 0.764537
0.768912 0.768912 0.768912
0.772630 0.772630 0.772630
0.775865 0.775865 0.775865
0.093230 0.093230 0.093230
0.731514 0.731514 0.731514
0.748506 0.748506 0.748506
0.758628 0.758628 0.758628
0.765580 0.765580 0.765580
0.770945 0.770945 0.770945
0.775356 0.775356 0.775356
0.778975 0.778975 0.778975
0.781359 0.781359 0.781359
0.093230 0.093230 0.093230
0.736544 0.736544 0.736544
0.753653 0.753653 0.753653
0.763646 0.763646 0.763646
0.770552 0.770552 0.770552
0.775952 0.775952 0.775952
0.779915 0.779915 0.779915
0.782671 0.782671 0.782671
0.785066 0.785066 0.785066
0.093230 0.093230 0.093230
0.740680 0.740680 0.740680
0.757885 0.757885 0.757885
0.767696 0.767696 0.767696
0.774639 0.774639 0.774639
0.779678 0.779678 0.779678
0.782937 0.782937 0.782937
0.785704 0.785704 0.785704
0.788108 0.788108 0.788108
0.093230 0.093230 0.093230
0.744195 0.744195 0.744195
0.761414 0.761414 0.761414
0.771137 0.771137 0.771137
0.778111 0.778111 0.778111
0.782231 0.782231 0.782231
0.785502 0.785502 0.785502
0.788277 0.788277 0.788277
0.790690 0.790690 0.790690
0.093230 0.093230 0.093230
0.747253 0.747253 0.747253
0.764369 0.764369 0.764369
0.774130 0.774130 0.774130
0.780455 0.780455 0.780455
0.784450 0.784450 0.784450
0.787730 0.787730 0.787730
0.790513 0.790513 0.790513
0.792933 0.792933 0.792933
0.093230 0.093230 0.093230
0.093230 0.093230 0.093230
0.093230 0.093230 0.093230
0.093230 0.093230 0.093230
0.093230 0.093230 0.093230
0.093230 0.093230 0.093230
0.093230 0.093230 0.093230
0.093230 0.093230 0.093230
0.093230 0.093230 0.093230
0.093230 0.093230 0.093230
0.798110 0.798110 0.798110
0.810869 0.810869 0.810869
0.818428 0.818428 0.818428
0.823833 0.823833 0.823833
0.828051 0.828051 0.828051
0.831512 0.831512 0.831512
0.834451 0.834451 0.834451
0.837004 0.837004 0.837004
0.093230 0.093230 0.093230
0.809932 0.809932 0.809932
0.822881 0.822881 0.822881
0.830551 0.830551 0.830551
0.836036 0.836036 0.836036
0.840316 0.840316 0.840316
0.843829 0.843829 0.843829
0.846811 0.846811 0.846811
0.849403 0.849403 0.849403
0.093230 0.093230 0.093230
0.816928 0.816928 0.816928
0.829989 0.829989 0.829989
0.837726 0.837726 0.837726
0.843258 0.843258 0.843258
0.847575 0.847575 0.847575
0.851119 0.851119 0.851119
0.854126 0.854126 0.854126
0.856740 0.856740 0.856740
0.093230 0.093230 0.093230
0.821929 0.821929 0.821929
0.835070 0.835070 0.835070
0.842854 0.842854 0.842854
0.848420 0.848420 0.848420
0.852764 0.852764 0.852764
0.856329 0.856329 0.856329
0.859355 0.859355 0.859355
0.861984 0.861984 0.861984
0.093230 0.093230 0.093230
0.825829 0.825829 0.825829
0.839032 0.839032 0.839032
0.846853 0.846853 0.846853
0.852446 0.852446 0.852446
0.856810 0.856810 0.856810
0.860392 0.860392 0.860392
0.863432 0.863432 0.863432
0.866074 0.866074 0.866074
0.093230 0.093230 0.093230
0.829029 0.829029 0.829029
0.842283 0.842283 0.842283
0.850134 0.850134 0.850134
0.855749 0.855749 0.855749
0.860130 0.860130 0.860130
0.863726 0.863726 0.863726
0.866778 0.866778 0.866778
0.869431 0.869431 0.869431
0.093230 0.093230 0.093230
0.831745 0.831745 0.831745
0.845042 0.845042 0.845042
0.852919 0.852919 0.852919
0.858552 0.858552 0.858552
0.862947 0.862947 0.862947
0.866555 0.866555 0.866555
0.869617 0.869617 0.869617
0.872278 0.872278 0.872278
0.093230 0.093230 0.093230
0.834104 0.834104 0.834104
0.847439 0.847439 0.847439
0.855338 0.855338 0.855338
0.860988 0.860988 0.860988
0.865395 0.865395 0.865395
0.869013 0.869013 0.869013
0.872084 0.872084 0.872084
0.874753 0.874753 0.874753
0.093230 0.093230 0.093230
0.093230 0.093230 0.093230
0.093230 0.093230 0.093230
0.093230 0.093230 0.093230
0.093230 0.093230 0.093230
0.093230 0.093230 0.093230
0.093230 0.093230 0.093230
0.093230 0.093230 0.093230
0.093230 0.093230 0.093230
0.093230 0.093230 0.093230
0.868974 0.868974 0.868974
0.881948 0.881948 0.881948
0.887959 0.887959 0.887959
0.892248 0.892248 0.892248
0.895589 0.895589 0.895589
0.898329 0.898329 0.898329
0.900651 0.900651 0.900651
0.902668 0.902668 0.902668
0.093230 0.093230 0.093230
0.881201 0.881201 0.881201
0.891492 0.891492 0.891492
0.897568 0.897568 0.897568
0.901904 0.901904 0.901904
0.905281 0.905281 0.905281
0.908050 0.908050 0.908050
0.910398 0.910398 0.910398
0.912437 0.912437 0.912437
0.093230 0.093230 0.093230
0.886767 0.886767 0.886767
0.897123 0.897123 0.897123
0.903237 0.903237 0.903237
0.907600 0.907600 0.907600
0.910999 0.910999 0.910999
0.913786 0.913786 0.913786
0.916148 0.916148 0.916148
0.918200 0.918200 0.918200
0.093230 0.093230 0.093230
0.890738 0.890738 0.890738
0.901140 0.901140 0.901140
0.907281 0.907281 0.907281
0.911664 0.911664 0.911664
0.915078 0.915078 0.915078
0.917877 0.917877 0.917877
0.920250 0.920250 0.920250
0.922311 0.922311 0.922311
0.093230 0.093230 0.093230
0.893830 0.893830 0.893830
0.904268 0.904268 0.904268
0.910431 0.910431 0.910431
0.914829 0.914829 0.914829
0.918255 0.918255 0.918255
0.921063 0.921063 0.921063
0.923445 0.923445 0.923445
0.925513 0.925513 0.925513
0.093230 0.093230 0.093230
0.896364 0.896364 0.896364
0.906832 0.906832 0.906832
0.913012 0.913012 0.913012
0.917423 0.917423 0.917423
0.920858 0.920858 0.920858
0.923675 0.923675 0.923675
0.926063 0.926063 0.926063
0.928137 0.928137 0.928137
0.093230 0.093230 0.093230
0.898512 0.898512 0.898512
0.909005 0.909005 0.909005
0.915200 0.915200 0.915200
0.919621 0.919621 0.919621
0.923065 0.923065 0.923065
0.925889 0.925889 0.925889
0.928282 0.928282 0.928282
0.930361 0.930361 0.930361
0.093230 0.093230 0.093230
0.900377 0.900377 0.900377
0.910892 0.910892 0.910892
0.917100 0.917100 0.917100
0.921530 0.921530 0.921530
0.924981 0.924981 0.924981
0.927810 0.927810 0.927810
0.930209 0.930209 0.930209
0.932292 0.932292 0.932292
