trix_classic/TriX_Orange21_Normal.cube
TITLE "Tri-X Orange21 Normal"
# Adobe RGB in/out. REPLACES AgX. R=0.7239 G=0.2761 B=0.0000
LUT_3D_SIZE 9
DOMAIN_MIN 0.0 0.0 0.0
DOMAIN_MAX 1.0 1.0 1.0
0.093230 0.093230 0.093230
0.093230 0.093230 0.093230
0.093230 0.093230 0.093230
0.093230 0.093230 0.093230
0.093230 0.093230 0.093230
0.093230 0.093230 0.093230
0.093230 0.093230 0.093230
0.093230 0.093230 0.093230
0.093230 0.093230 0.093230
0.093230 0.093230 0.093230
0.097009 0.097009 0.097009
0.149662 0.149662 0.149662
0.240709 0.240709 0.240709
0.318018 0.318018 0.318018
0.388842 0.388842 0.388842
0.457113 0.457113 0.457113
0.521464 0.521464 0.521464
0.581937 0.581937 0.581937
0.093230 0.093230 0.093230
0.104453 0.104453 0.104453
0.204394 0.204394 0.204394
0.311603 0.311603 0.311603
0.403795 0.403795 0.403795
0.490393 0.490393 0.490393
0.570881 0.570881 0.570881
0.647971 0.647971 0.647971
0.715659 0.715659 0.715659
0.093230 0.093230 0.093230
0.114593 0.114593 0.114593
0.244504 0.244504 0.244504
0.357462 0.357462 0.357462
0.462433 0.462433 0.462433
0.558037 0.558037 0.558037
0.648226 0.648226 0.648226
0.726519 0.726519 0.726519
0.792001 0.792001 0.792001
0.093230 0.093230 0.093230
0.125959 0.125959 0.125959
0.275737 0.275737 0.275737
0.395253 0.395253 0.395253
0.508013 0.508013 0.508013
0.610681 0.610681 0.610681
0.703831 0.703831 0.703831
0.782753 0.782753 0.782753
0.836028 0.836028 0.836028
0.093230 0.093230 0.093230
0.137174 0.137174 0.137174
0.296727 0.296727 0.296727
0.427059 0.427059 0.427059
0.545195 0.545195 0.545195
0.654911 0.654911 0.654911
0.747916 0.747916 0.747916
0.816298 0.816298 0.816298
0.871856 0.871856 0.871856
0.093230 0.093230 0.093230
0.148054 0.148054 0.148054
0.315298 0.315298 0.315298
0.453275 0.453275 0.453275
0.577250 0.577250 0.577250
0.690053 0.690053 0.690053
0.782937 0.782937 0.782937
0.844770 0.844770 0.844770
0.896093 0.896093 0.896093
0.093230 0.093230 0.093230
0.157923 0.157923 0.157923
0.331903 0.331903 0.331903
0.476692 0.476692 0.476692
0.605819 0.605819 0.605819
0.719630 0.719630 0.719630
0.805965 0.805965 0.805965
0.869617 0.869617 0.869617
0.915312 0.915312 0.915312
0.093230 0.093230 0.093230
0.167118 0.167118 0.167118
0.347322 0.347322 0.347322
0.497953 0.497953 0.497953
0.631707 0.631707 0.631707
0.746272 0.746272 0.746272
0.826460 0.826460 0.826460
0.888421 0.888421 0.888421
0.932292 0.932292 0.932292
0.093230 0.093230 0.093230
0.093230 0.093230 0.093230
0.093230 0.093230 0.093230
0.093230 0.093230 0.093230
0.093230 0.093230 0.093230
0.093230 0.093230 0.093230
0.093230 0.093230 0.093230
0.093230 0.093230 0.093230
0.093230 0.093230 0.093230
0.093230 0.093230 0.093230
0.097009 0.097009 0.097009
0.149662 0.149662 0.149662
0.240709 0.240709 0.240709
0.318018 0.318018 0.318018
0.388842 0.388842 0.388842
0.457113 0.457113 0.457113
0.521464 0.521464 0.521464
0.581937 0.581937 0.581937
0.093230 0.093230 0.093230
0.104453 0.104453 0.104453
0.204394 0.204394 0.204394
0.311603 0.311603 0.311603
0.403795 0.403795 0.403795
0.490393 0.490393 0.490393
0.570881 0.570881 0.570881
0.647971 0.647971 0.647971
0.715659 0.715659 0.715659
0.093230 0.093230 0.093230
0.114593 0.114593 0.114593
0.244504 0.244504 0.244504
0.357462 0.357462 0.357462
0.462433 0.462433 0.462433
0.558037 0.558037 0.558037
0.648226 0.648226 0.648226
0.726519 0.726519 0.726519
0.792001 0.792001 0.792001
0.093230 0.093230 0.093230
0.125959 0.125959 0.125959
0.275737 0.275737 0.275737
0.395253 0.395253 0.395253
0.508013 0.508013 0.508013
0.610681 0.610681 0.610681
0.703831 0.703831 0.703831
0.782753 0.782753 0.782753
0.836028 0.836028 0.836028
0.093230 0.093230 0.093230
0.137174 0.137174 0.137174
0.296727 0.296727 0.296727
0.427059 0.427059 0.427059
0.545195 0.545195 0.545195
0.654911 0.654911 0.654911
0.747916 0.747916 0.747916
0.816298 0.816298 0.816298
0.871856 0.871856 0.871856
0.093230 0.093230 0.093230
0.148054 0.148054 0.148054
0.315298 0.315298 0.315298
0.453275 0.453275 0.453275
0.577250 0.577250 0.577250
0.690053 0.690053 0.690053
0.782937 0.782937 0.782937
0.844770 0.844770 0.844770
0.896093 0.896093 0.896093
0.093230 0.093230 0.093230
0.157923 0.157923 0.157923
0.331903 0.331903 0.331903
0.476692 0.476692 0.476692
0.605819 0.605819 0.605819
0.719630 0.719630 0.719630
0.805965 0.805965 0.805965
0.869617 0.869617 0.869617
0.915312 0.915312 0.915312
0.093230 0.093230 0.093230
0.167118 0.167118 0.167118
0.347322 0.347322 0.347322
0.497953 0.497953 0.497953
0.631707 0.631707 0.631707
0.746272 0.746272 0.746272
0.826460 0.826460 0.826460
0.888421 0.888421 0.888421
0.932292 0.932292 0.932292
0.093230 0.093230 0.093230
0.093230 0.093230 0.093230
0.093230 0.093230 0.093230
0.093230 0.093230 0.093230
0.093230 0.093230 0.093230
0.093230 0.093230 0.093230
0.093230 0.093230 0.093230
0.093230 0.093230 0.093230
0.093230 0.093230 0.093230
0.093230 0.093230 0.093230
0.097009 0.097009 0.097009
0.149662 0.149662 0.149662
0.240709 0.240709 0.240709
0.318018 0.318018 0.318018
0.388842 0.388842 0.388842
0.457113 0.457113 0.457113
0.521464 0.521464 0.521464
0.581937 0.581937 0.581937
0.093230 0.093230 0.093230
0.104453 0.104453 0.104453
0.204394 0.204394 0.204394
0.311603 0.311603 0.311603
0.403795 0.403795 0.403795
0.490393 0.490393 0.490393
0.570881 0.570881 0.570881
0.647971 0.647971 0.647971
0.715659 0.715659 0.715659
0.093230 0.093230 0.093230
0.114593 0.114593 0.114593
0.244504 0.244504 0.244504
0.357462 0.357462 0.357462
0.462433 0.462433 0.462433
0.558037 0.558037 0.558037
0.648226 0.648226 0.648226
0.726519 0.726519 0.726519
0.792001 0.792001 0.792001
0.093230 0.093230 0.093230
0.125959 0.125959 0.125959
0.275737 0.275737 0.275737
0.395253 0.395253 0.395253
0.508013 0.508013 0.508013
0.610681 0.610681 0.610681
0.703831 0.703831 0.703831
0.782753 0.782753 0.782753
0.836028 0.836028 0.836028
0.093230 0.093230 0.093230
0.137174 0.137174 0.137174
0.296727 0.296727 0.296727
0.427059 0.427059 0.427059
0.545195 0.545195 0.545195
0.654911 0.654911 0.654911
0.747916 0.747916 0.747916
0.816298 0.816298 0.816298
0.871856 0.871856 0.871856
0.093230 0.093230 0.093230
0.148054 0.148054 0.148054
0.315298 0.315298 0.315298
0.453275 0.453275 0.453275
0.577250 0.577250 0.577250
0.690053 0.690053 0.690053
0.782937 0.782937 0.782937
0.844770 0.844770 0.844770
0.896093 0.896093 0.896093
0.093230 0.093230 0.093230
0.157923 0.157923 0.157923
0.331903 0.331903 0.331903
0.476692 0.476692 0.476692
0.605819 0.605819 0.605819
0.719630 0.719630 0.719630
0.805965 0.805965 0.805965
0.869617 0.869617 0.869617
0.915312 0.915312 0.915312
0.093230 0.093230 0.093230
0.167118 0.167118 0.167118
0.347322 0.347322 0.347322
0.497953 0.497953 0.497953
0.631707 0.631707 0.631707
0.746272 0.746272 0.746272
0.826460 0.826460 0.826460
0.888421 0.888421 0.888421
0.932292 0.932292 0.932292
0.093230 0.093230 0.093230
0.093230 0.093230 0.093230
0.093230 0.093230 0.093230
0.093230 0.093230 0.093230
0.093230 0.093230 0.093230
0.093230 0.093230 0.093230
0.093230 0.093230 0.093230
0.093230 0.093230 0.093230
0.093230 0.093230 0.093230
0.093230 0.093230 0.093230
0.097009 0.097009 0.097009
0.149662 0.149662 0.149662
0.240709 0.240709 0.240709
0.318018 0.318018 0.318018
0.388842 0.388842 0.388842
0.457113 0.457113 0.457113
0.521464 0.521464 0.521464
0.581937 0.581937 0.581937
0.093230 0.093230 0.093230
0.104453 0.104453 0.104453
0.204394 0.204394 0.204394
0.311603 0.311603 0.311603
0.403795 0.403795 0.403795
0.490393 0.490393 0.490393
0.570881 0.570881 0.570881
0.647971 0.647971 0.647971
0.715659 0.715659 0.715659
0.093230 0.093230 0.093230
0.114593 0.114593 0.114593
0.244504 0.244504 0.244504
0.357462 0.357462 0.357462
0.462433 0.462433 0.462433
0.558037 0.558037 0.558037
0.648226 0.648226 0.648226
0.726519 0.726519 0.726519
0.792001 0.792001 0.792001
0.093230 0.093230 0.093230
0.125959 0.125959 0.125959
0.275737 0.275737 0.275737
0.395253 0.395253 0.395253
0.508013 0.508013 0.508013
0.610681 0.610681 0.610681
0.703831 0.703831 0.703831
0.782753 0.782753 0.782753
0.836028 0.836028 0.836028
0.093230 0.093230 0.093230
0.137174 0.137174 0.137174
0.296727 0.296727 0.296727
0.427059 0.427059 0.427059
0.545195 0.545195 0.545195
0.654911 0.654911 0.654911
0.747916 0.747916 0.747916
0.816298 0.816298 0.816298
0.871856 0.871856 0.871856
0.093230 0.093230 0.093230
0.148054 0.148054 0.148054
0.315298 0.315298 0.315298
0.453275 0.453275 0.453275
0.577250 0.577250 0.577250
0.690053 0.690053 0.690053
0.782937 0.782937 0.782937
0.844770 0.844770 0.844770
0.896093 0.896093 0.896093
0.093230 0.093230 0.093230
0.157923 0.157923 0.157923
0.331903 0.331903 0.331903
0.476692 0.476692 0.476692
0.605819 0.605819 0.605819
0.719630 0.719630 0.719630
0.805965 0.805965 0.805965
0.869617 0.869617 0.869617
0.915312 0.915312 0.915312
0.093230 0.093230 0.093230
0.167118 0.167118 0.167118
0.347322 0.347322 0.347322
0.497953 0.497953 0.497953
0.631707 0.631707 0.631707
0.746272 0.746272 0.746272
0.826460 0.826460 0.826460
0.888421 0.888421 0.888421
0.932292 0.932292 0.932292
0.093230 0.093230 0.093230
0.093230 0.093230 0.093230
0.093230 0.093230 0.093230
0.093230 0.093230 0.093230
0.093230 0.093230 0.093230
0.093230 0.093230 0.093230
0.093230 0.093230 0.093230
0.093230 0.093230 0.093230
0.093230 0.093230 0.093230
0.093230 0.093230 0.093230
0.097009 0.097009 0.097009
0.149662 0.149662 0.149662
0.240709 0.240709 0.240709
0.318018 0.318018 0.318018
0.388842 0.388842 0.388842
0.457113 0.457113 0.457113
0.521464 0.521464 0.521464
0.581937 0.581937 0.581937
0.093230 0.093230 0.093230
0.104453 0.104453 0.104453
0.204394 0.204394 0.204394
0.311603 0.311603 0.311603
0.403795 0.403795 0.403795
0.490393 0.490393 0.490393
0.570881 0.570881 0.570881
0.647971 0.647971 0.647971
0.715659 0.715659 0.715659
0.093230 0.093230 0.093230
0.114593 0.114593 0.114593
0.244504 0.244504 0.244504
0.357462 0.357462 0.357462
0.462433 0.462433 0.462433
0.558037 0.558037 0.558037
0.648226 0.648226 0.648226
0.726519 0.726519 0.726519
0.792001 0.792001 0.792001
0.093230 0.093230 0.093230
0.125959 0.125959 0.125959
0.275737 0.275737 0.275737
0.395253 0.395253 0.395253
0.508013 0.508013 0.508013
0.610681 0.610681 0.610681
0.703831 0.703831 0.703831
0.782753 0.782753 0.782753
0.836028 0.836028 0.836028
0.093230 0.093230 0.093230
0.137174 0.137174 0.137174
0.296727 0.296727 0.296727
0.427059 0.427059 0.427059
0.545195 0.545195 0.545195
0.654911 0.654911 0.654911
0.747916 0.747916 0.747916
0.816298 0.816298 0.816298
0.871856 0.871856 0.871856
0.093230 0.093230 0.093230
0.148054 0.148054 0.148054
0.315298 0.315298 0.315298
0.453275 0.453275 0.453275
0.577250 0.577250 0.577250
0.690053 0.690053 0.690053
0.782937 0.782937 0.782937
0.844770 0.844770 0.844770
0.896093 0.896093 0.896093
0.093230 0.093230 0.093230
0.157923 0.157923 0.157923
0.331903 0.331903 0.331903
0.476692 0.476692 0.476692
0.605819 0.605819 0.605819
0.719630 0.719630 0.719630
0.805965 0.805965 0.805965
0.869617 0.869617 0.869617
0.915312 0.915312 0.915312
0.093230 0.093230 0.093230
0.167118 0.167118 0.167118
0.347322 0.347322 0.347322
0.497953 0.497953 0.497953
0.631707 0.631707 0.631707
0.746272 0.746272 0.746272
0.826460 0.826460 0.826460
0.888421 0.888421 0.888421
0.932292 0.932292 0.932292
0.093230 0.093230 0.093230
0.093230 0.093230 0.093230
0.093230 0.093230 0.093230
0.093230 0.093230 0.093230
0.093230 0.093230 0.093230
0.093230 0.093230 0.093230
0.093230 0.093230 0.093230
0.093230 0.093230 0.093230
0.093230 0.093230 0.093230
0.093230 0.093230 0.093230
0.097009 0.097009 0.097009
0.149662 0.149662 0.149662
0.240709 0.240709 0.240709
0.318018 0.318018 0.318018
0.388842 0.388842 0.388842
0.457113 0.457113 0.457113
0.521464 0.521464 0.521464
0.581937 0.581937 0.581937
0.093230 0.093230 0.093230
0.104453 0.104453 0.104453
0.204394 0.204394 0.204394
0.311603 0.311603 0.311603
0.403795 0.403795 0.403795
0.490393 0.490393 0.490393
0.570881 0.570881 0.570881
0.647971 0.647971 0.647971
0.715659 0.715659 0.715659
0.093230 0.093230 0.093230
0.114593 0.114593 0.114593
0.244504 0.244504 0.244504
0.357462 0.357462 0.357462
0.462433 0.462433 0.462433
0.558037 0.558037 0.558037
0.648226 0.648226 0.648226
0.726519 0.726519 0.726519
0.792001 0.792001 0.792001
0.093230 0.093230 0.093230
0.125959 0.125959 0.125959
0.275737 0.275737 0.275737
0.395253 0.395253 0.395253
0.508013 0.508013 0.508013
0.610681 0.610681 0.610681
0.703831 0.703831 0.703831
0.782753 0.782753 0.782753
0.836028 0.836028 0.836028
0.093230 0.093230 0.093230
0.137174 0.137174 0.137174
0.296727 0.296727 0.296727
0.427059 0.427059 0.427059
0.545195 0.545195 0.545195
0.654911 0.654911 0.654911
0.747916 0.747916 0.747916
0.816298 0.816298 0.816298
0.871856 0.871856 0.871856
0.093230 0.093230 0.093230
0.148054 0.148054 0.148054
0.315298 0.315298 0.315298
0.453275 0.453275 0.453275
0.577250 0.577250 0.577250
0.690053 0.690053 0.690053
0.782937 0.782937 0.782937
0.844770 0.844770 0.844770
0.896093 0.896093 0.896093
0.093230 0.093230 0.093230
0.157923 0.157923 0.157923
0.331903 0.331903 0.331903
0.476692 0.476692 0.476692
0.605819 0.605819 0.605819
0.719630 0.719630 0.719630
0.805965 0.805965 0.805965
0.869617 0.869617 0.869617
0.915312 0.915312 0.915312
0.093230 0.093230 0.093230
0.167118 0.167118 0.167118
0.347322 0.347322 0.347322
0.497953 0.497953 0.497953
0.631707 0.631707 0.631707
0.746272 0.746272 0.746272
0.826460 0.826460 0.826460
0.888421 0.888421 0.888421
0.932292 0.932292 0.932292
0.093230 0.093230 0.093230
0.093230 0.093230 0.093230
0.093230 0.093230 0.093230
0.093230 0.093230 0.093230
0.093230 0.093230 0.093230
0.093230 0.093230 0.093230
0.093230 0.093230 0.093230
0.093230 0.093230 0.093230
0.093230 0.093230 0.093230
0.093230 0.093230 0.093230
0.097009 0.097009 0.097009
0.149662 0.149662 0.149662
0.240709 0.240709 0.240709
0.318018 0.318018 0.318018
0.388842 0.388842 0.388842
0.457113 0.457113 0.457113
0.521464 0.521464 0.521464
0.581937 0.581937 0.581937
0.093230 0.093230 0.093230
0.104453 0.104453 0.104453
0.204394 0.204394 0.204394
0.311603 0.311603 0.311603
0.403795 0.403795 0.403795
0.490393 0.490393 0.490393
0.570881 0.570881 0.570881
0.647971 0.647971 0.647971
0.715659 0.715659 0.715659
0.093230 0.093230 0.093230
0.114593 0.114593 0.114593
0.244504 0.244504 0.244504
0.357462 0.357462 0.357462
0.462433 0.462433 0.462433
0.558037 0.558037 0.558037
0.648226 0.648226 0.648226
0.726519 0.726519 0.726519
0.792001 0.792001 0.792001
0.093230 0.093230 0.093230
0.125959 0.125959 0.125959
0.275737 0.275737 0.275737
0.395253 0.395253 0.395253
0.508013 0.508013 0.508013
0.610681 0.610681 0.610681
0.703831 0.703831 0.703831
0.782753 0.782753 0.782753
0.836028 0.836028 0.836028
0.093230 0.093230 0.093230
0.137174 0.137174 0.137174
0.296727 0.296727 0.296727
0.427059 0.427059 0.427059
0.545195 0.545195 0.545195
0.654911 0.654911 0.654911
0.747916 0.747916 0.747916
0.816298 0.816298 0.816298
0.871856 0.871856 0.871856
0.093230 0.093230 0.093230
0.148054 0.148054 0.148054
0.315298 0.315298 0.315298
0.453275 0.453275 0.453275
0.577250 0.577250 0.577250
0.690053 0.690053 0.690053
0.782937 0.782937 0.782937
0.844770 0.844770 0.844770
0.896093 0.896093 0.896093
0.093230 0.093230 0.093230
0.157923 0.157923 0.157923
0.331903 0.331903 0.331903
0.476692 0.476692 0.476692
0.605819 0.605819 0.605819
0.719630 0.719630 0.719630
0.805965 0.805965 0.805965
0.869617 0.869617 0.869617
0.915312 0.915312 0.915312
0.093230 0.093230 0.093230
0.167118 0.167118 0.167118
0.347322 0.347322 0.347322
0.497953 0.497953 0.497953
0.631707 0.631707 0.631707
0.746272 0.746272 0.746272
0.826460 0.826460 0.826460
0.888421 0.888421 0.888421
0.932292 0.932292 0.932292
0.093230 0.093230 0.093230
0.093230 0.093230 0.093230
0.093230 0.093230 0.093230
0.093230 0.093230 0.093230
0.093230 0.093230 0.093230
0.093230 0.093230 0.093230
0.093230 0.093230 0.093230
0.093230 0.093230 0.093230
0.093230 0.093230 0.093230
0.093230 0.093230 0.093230
0.097009 0.097009 0.097009
0.149662 0.149662 0.149662
0.240709 0.240709 0.240709
0.318018 0.318018 0.318018
0.388842 0.388842 0.388842
0.457113 0.457113 0.457113
0.521464 0.521464 0.521464
0.581937 0.581937 0.581937
0.093230 0.093230 0.093230
0.104453 0.104453 0.104453
0.204394 0.204394 0.204394
0.311603 0.311603 0.311603
0.403795 0.403795 0.403795
0.490393 0.490393 0.490393
0.570881 0.570881 0.570881
0.647971 0.647971 0.647971
0.715659 0.715659 0.715659
0.093230 0.093230 0.093230
0.114593 0.114593 0.114593
0.244504 0.244504 0.244504
0.357462 0.357462 0.357462
0.462433 0.462433 0.462433
0.558037 0.558037 0.558037
0.648226 0.648226 0.648226
0.726519 0.726519 0.726519
0.792001 0.792001 0.792001
0.093230 0.093230 0.093230
0.125959 0.125959 0.125959
0.275737 0.275737 0.275737
0.395253 0.395253 0.395253
0.508013 0.508013 0.508013
0.610681 0.610681 0.610681
0.703831 0.703831 0.703831
0.782753 0.782753 0.782753
0.836028 0.836028 0.836028
0.093230 0.093230 0.093230
0.137174 0.137174 0.137174
0.296727 0.296727 0.296727
0.427059 0.427059 0.427059
0.545195 0.545195 0.545195
0.654911 0.654911 0.654911
0.747916 0.747916 0.747916
0.816298 0.816298 0.816298
0.871856 0.871856 0.871856
0.093230 0.093230 0.093230
0.148054 0.148054 0.148054
0.315298 0.315298 0.315298
0.453275 0.453275 0.453275
0.577250 0.577250 0.577250
0.690053 0.690053 0.690053
0.782937 0.782937 0.782937
0.844770 0.844770 0.844770
0.896093 0.896093 0.896093
0.093230 0.093230 0.093230
0.157923 0.157923 0.157923
0.331903 0.331903 0.331903
0.476692 0.476692 0.476692
0.605819 0.605819 0.605819
0.719630 0.719630 0.719630
0.805965 0.805965 0.805965
0.869617 0.869617 0.869617
0.915312 0.915312 0.915312
0.093230 0.093230 0.093230
0.167118 0.167118 0.167118
0.347322 0.347322 0.347322
0.497953 0.497953 0.497953
0.631707 0.631707 0.631707
0.746272 0.746272 0.746272
0.826460 0.826460 0.826460
0.888421 0.888421 0.888421
0.932292 0.932292 0.932292
0.093230 0.093230 0.093230
0.093230 0.093230 0.093230
0.093230 0.093230 0.093230
0.093230 0.093230 0.093230
0.093230 0.093230 0.093230
0.093230 0.093230 0.093230
0.093230 0.093230 0.093230
0.093230 0.093230 0.093230
0.093230 0.093230 0.093230
0.093230 0.093230 0.093230
0.097009 0.097009 0.097009
0.149662 0.149662 0.149662
0.240709 0.240709 0.240709
0.318018 0.318018 0.318018
0.388842 0.388842 0.388842
0.457113 0.457113 0.457113
0.521464 0.521464 0.521464
0.581937 0.581937 0.581937
0.093230 0.093230 0.093230
0.104453 0.104453 0.104453
0.204394 0.204394 0.204394
0.311603 0.311603 0.311603
0.403795 0.403795 0.403795
0.490393 0.490393 0.490393
0.570881 0.570881 0.570881
0.647971 0.647971 0.647971
0.715659 0.715659 0.715659
0.093230 0.093230 0.093230
0.114593 0.114593 0.114593
0.244504 0.244504 0.244504
0.357462 0.357462 0.357462
0.462433 0.462433 0.462433
0.558037 0.558037 0.558037
0.648226 0.648226 0.648226
0.726519 0.726519 0.726519
0.792001 0.792001 0.792001
0.093230 0.093230 0.093230
0.125959 0.125959 0.125959
0.275737 0.275737 0.275737
0.395253 0.395253 0.395253
0.508013 0.508013 0.508013
0.610681 0.610681 0.610681
0.703831 0.703831 0.703831
0.782753 0.782753 0.782753
0.836028 0.836028 0.836028
0.093230 0.093230 0.093230
0.137174 0.137174 0.137174
0.296727 0.296727 0.296727
0.427059 0.427059 0.427059
0.545195 0.545195 0.545195
0.654911 0.654911 0.654911
0.747916 0.747916 0.747916
0.816298 0.816298 0.816298
0.871856 0.871856 0.871856
0.093230 0.093230 0.093230
0.148054 0.148054 0.148054
0.315298 0.315298 0.315298
0.453275 0.453275 0.453275
0.577250 0.577250 0.577250
0.690053 0.690053 0.690053
0.782937 0.782937 0.782937
0.844770 0.844770 0.844770
0.896093 0.896093 0.896093
0.093230 0.093230 0.093230
0.157923 0.157923 0.157923
0.331903 0.331903 0.331903
0.476692 0.476692 0.476692
0.605819 0.605819 0.605819
0.719630 0.719630 0.719630
0.805965 0.805965 0.805965
0.869617 0.869617 0.869617
0.915312 0.915312 0.915312
0.093230 0.093230 0.093230
0.167118 0.167118 0.167118
0.347322 0.347322 0.347322
0.497953 0.497953 0.497953
0.631707 0.631707 0.631707
0.746272 0.746272 0.746272
0.826460 0.826460 0.826460
0.888421 0.888421 0.888421
0.932292 0.932292 0.932292
