trix_classic/TriX_Blue47_Soft.cube
TITLE "Tri-X Blue47 Soft"
# Adobe RGB in/out. REPLACES AgX. R=0.0336 G=0.0311 B=0.9353
LUT_3D_SIZE 9
DOMAIN_MIN 0.0 0.0 0.0
DOMAIN_MAX 1.0 1.0 1.0
0.097688 0.097688 0.097688
0.097688 0.097688 0.097688
0.097688 0.097688 0.097688
0.097688 0.097688 0.097688
0.097688 0.097688 0.097688
0.097688 0.097688 0.097688
0.097688 0.097688 0.097688
0.097688 0.097688 0.097688
0.097688 0.097688 0.097688
0.097688 0.097688 0.097688
0.097688 0.097688 0.097688
0.097688 0.097688 0.097688
0.097688 0.097688 0.097688
0.097688 0.097688 0.097688
0.097688 0.097688 0.097688
0.097688 0.097688 0.097688
0.097688 0.097688 0.097688
0.097688 0.097688 0.097688
0.097688 0.097688 0.097688
0.097688 0.097688 0.097688
0.097688 0.097688 0.097688
0.097688 0.097688 0.097688
0.097688 0.097688 0.097688
0.097688 0.097688 0.097688
0.097688 0.097688 0.097688
0.097688 0.097688 0.097688
0.097688 0.097688 0.097688
0.097688 0.097688 0.097688
0.097688 0.097688 0.097688
0.097688 0.097688 0.097688
0.097688 0.097688 0.097688
0.097688 0.097688 0.097688
0.097688 0.097688 0.097688
0.097688 0.097688 0.097688
0.097688 0.097688 0.097688
0.097688 0.097688 0.097688
0.097688 0.097688 0.097688
0.097688 0.097688 0.097688
0.097688 0.097688 0.097688
0.097688 0.097688 0.097688
0.097688 0.097688 0.097688
0.097688 0.097688 0.097688
0.097688 0.097688 0.097688
0.097688 0.097688 0.097688
0.097688 0.097688 0.097688
0.097688 0.097688 0.097688
0.097688 0.097688 0.097688
0.097688 0.097688 0.097688
0.097688 0.097688 0.097688
0.097688 0.097688 0.097688
0.097688 0.097688 0.097688
0.097688 0.097688 0.097688
0.097688 0.097688 0.097688
0.097688 0.097688 0.097688
0.097688 0.097688 0.097688
0.097688 0.097688 0.097688
0.097688 0.097688 0.097688
0.097688 0.097688 0.097688
0.097688 0.097688 0.097688
0.097688 0.097688 0.097688
0.097688 0.097688 0.097688
0.097688 0.097688 0.097688
0.097688 0.097688 0.097688
0.097688 0.097688 0.097688
0.097688 0.097688 0.097688
0.097688 0.097688 0.097688
0.097688 0.097688 0.097688
0.097688 0.097688 0.097688
0.097688 0.097688 0.097688
0.097688 0.097688 0.097688
0.097688 0.097688 0.097688
0.097688 0.097688 0.097688
0.097688 0.097688 0.097688
0.097688 0.097688 0.097688
0.097688 0.097688 0.097688
0.097688 0.097688 0.097688
0.097688 0.097688 0.097688
0.097688 0.097688 0.097688
0.097688 0.097688 0.097688
0.097688 0.097688 0.097688
0.097688 0.097688 0.097688
0.097688 0.097688 0.097688
0.097688 0.097688 0.097688
0.097688 0.097688 0.097688
0.097688 0.097688 0.097688
0.097688 0.097688 0.097688
0.097688 0.097688 0.097688
0.097688 0.097688 0.097688
0.097688 0.097688 0.097688
0.097688 0.097688 0.097688
0.097688 0.097688 0.097688
0.107900 0.107900 0.107900
0.109589 0.109589 0.109589
0.110638 0.110638 0.110638
0.111388 0.111388 0.111388
0.111974 0.111974 0.111974
0.112455 0.112455 0.112455
0.112863 0.112863 0.112863
0.113217 0.113217 0.113217
0.097688 0.097688 0.097688
0.109459 0.109459 0.109459
0.111256 0.111256 0.111256
0.112321 0.112321 0.112321
0.113083 0.113083 0.113083
0.113677 0.113677 0.113677
0.114165 0.114165 0.114165
0.114580 0.114580 0.114580
0.114940 0.114940 0.114940
0.097688 0.097688 0.097688
0.110430 0.110430 0.110430
0.112243 0.112243 0.112243
0.113317 0.113317 0.113317
0.114086 0.114086 0.114086
0.114686 0.114686 0.114686
0.115178 0.115178 0.115178
0.115596 0.115596 0.115596
0.115959 0.115959 0.115959
0.097688 0.097688 0.097688
0.111124 0.111124 0.111124
0.112949 0.112949 0.112949
0.114030 0.114030 0.114030
0.114803 0.114803 0.114803
0.115407 0.115407 0.115407
0.115902 0.115902 0.115902
0.116323 0.116323 0.116323
0.116688 0.116688 0.116688
0.097688 0.097688 0.097688
0.111665 0.111665 0.111665
0.113499 0.113499 0.113499
0.114585 0.114585 0.114585
0.115363 0.115363 0.115363
0.115969 0.115969 0.115969
0.116467 0.116467 0.116467
0.116954 0.116954 0.116954
0.117446 0.117446 0.117446
0.097688 0.097688 0.097688
0.112110 0.112110 0.112110
0.113951 0.113951 0.113951
0.115041 0.115041 0.115041
0.115822 0.115822 0.115822
0.116431 0.116431 0.116431
0.117009 0.117009 0.117009
0.117577 0.117577 0.117577
0.118071 0.118071 0.118071
0.097688 0.097688 0.097688
0.112487 0.112487 0.112487
0.114334 0.114334 0.114334
0.115428 0.115428 0.115428
0.116211 0.116211 0.116211
0.116864 0.116864 0.116864
0.117535 0.117535 0.117535
0.118106 0.118106 0.118106
0.118603 0.118603 0.118603
0.097688 0.097688 0.097688
0.112814 0.112814 0.112814
0.114667 0.114667 0.114667
0.115765 0.115765 0.115765
0.116550 0.116550 0.116550
0.117320 0.117320 0.117320
0.117993 0.117993 0.117993
0.118566 0.118566 0.118566
0.119065 0.119065 0.119065
0.097688 0.097688 0.097688
0.097688 0.097688 0.097688
0.097688 0.097688 0.097688
0.097688 0.097688 0.097688
0.097688 0.097688 0.097688
0.097688 0.097688 0.097688
0.097688 0.097688 0.097688
0.097688 0.097688 0.097688
0.097688 0.097688 0.097688
0.097688 0.097688 0.097688
0.228899 0.228899 0.228899
0.235490 0.235490 0.235490
0.239434 0.239434 0.239434
0.242271 0.242271 0.242271
0.244496 0.244496 0.244496
0.246328 0.246328 0.246328
0.247889 0.247889 0.247889
0.249248 0.249248 0.249248
0.097688 0.097688 0.097688
0.235003 0.235003 0.235003
0.241770 0.241770 0.241770
0.245819 0.245819 0.245819
0.248732 0.248732 0.248732
0.251016 0.251016 0.251016
0.252897 0.252897 0.252897
0.254499 0.254499 0.254499
0.255895 0.255895 0.255895
0.097688 0.097688 0.097688
0.238649 0.238649 0.238649
0.245521 0.245521 0.245521
0.249632 0.249632 0.249632
0.252591 0.252591 0.252591
0.254910 0.254910 0.254910
0.256821 0.256821 0.256821
0.258448 0.258448 0.258448
0.259865 0.259865 0.259865
0.097688 0.097688 0.097688
0.241270 0.241270 0.241270
0.248218 0.248218 0.248218
0.252374 0.252374 0.252374
0.255365 0.255365 0.255365
0.257710 0.257710 0.257710
0.259642 0.259642 0.259642
0.261286 0.261286 0.261286
0.262719 0.262719 0.262719
0.097688 0.097688 0.097688
0.243323 0.243323 0.243323
0.250330 0.250330 0.250330
0.254522 0.254522 0.254522
0.257538 0.257538 0.257538
0.259903 0.259903 0.259903
0.261851 0.261851 0.261851
0.263509 0.263509 0.263509
0.264954 0.264954 0.264954
0.097688 0.097688 0.097688
0.245013 0.245013 0.245013
0.252069 0.252069 0.252069
0.256290 0.256290 0.256290
0.259327 0.259327 0.259327
0.261708 0.261708 0.261708
0.263670 0.263670 0.263670
0.265340 0.265340 0.265340
0.266795 0.266795 0.266795
0.097688 0.097688 0.097688
0.246451 0.246451 0.246451
0.253548 0.253548 0.253548
0.257794 0.257794 0.257794
0.260850 0.260850 0.260850
0.263245 0.263245 0.263245
0.265218 0.265218 0.265218
0.266897 0.266897 0.266897
0.268361 0.268361 0.268361
0.097688 0.097688 0.097688
0.247704 0.247704 0.247704
0.254837 0.254837 0.254837
0.259104 0.259104 0.259104
0.262176 0.262176 0.262176
0.264583 0.264583 0.264583
0.266566 0.266566 0.266566
0.268254 0.268254 0.268254
0.269663 0.269663 0.269663
0.097688 0.097688 0.097688
0.097688 0.097688 0.097688
0.097688 0.097688 0.097688
0.097688 0.097688 0.097688
0.097688 0.097688 0.097688
0.097688 0.097688 0.097688
0.097688 0.097688 0.097688
0.097688 0.097688 0.097688
0.097688 0.097688 0.097688
0.097688 0.097688 0.097688
0.348311 0.348311 0.348311
0.356848 0.356848 0.356848
0.361939 0.361939 0.361939
0.365594 0.365594 0.365594
0.368455 0.368455 0.368455
0.370810 0.370810 0.370810
0.372812 0.372812 0.372812
0.374555 0.374555 0.374555
0.097688 0.097688 0.097688
0.356218 0.356218 0.356218
0.364949 0.364949 0.364949
0.370155 0.370155 0.370155
0.373894 0.373894 0.373894
0.376820 0.376820 0.376820
0.379228 0.379228 0.379228
0.381275 0.381275 0.381275
0.383058 0.383058 0.383058
0.097688 0.097688 0.097688
0.360927 0.360927 0.360927
0.369773 0.369773 0.369773
0.375048 0.375048 0.375048
0.378836 0.378836 0.378836
0.381801 0.381801 0.381801
0.384240 0.384240 0.384240
0.386315 0.386315 0.386315
0.388121 0.388121 0.388121
0.097688 0.097688 0.097688
0.364305 0.364305 0.364305
0.373234 0.373234 0.373234
0.378558 0.378558 0.378558
0.382382 0.382382 0.382382
0.385374 0.385374 0.385374
0.387837 0.387837 0.387837
0.389931 0.389931 0.389931
0.391754 0.391754 0.391754
0.097688 0.097688 0.097688
0.366947 0.366947 0.366947
0.375941 0.375941 0.375941
0.381304 0.381304 0.381304
0.385155 0.385155 0.385155
0.388169 0.388169 0.388169
0.390650 0.390650 0.390650
0.392759 0.392759 0.392759
0.394595 0.394595 0.394595
0.097688 0.097688 0.097688
0.369120 0.369120 0.369120
0.378167 0.378167 0.378167
0.383562 0.383562 0.383562
0.387436 0.387436 0.387436
0.390468 0.390468 0.390468
0.392963 0.392963 0.392963
0.395085 0.395085 0.395085
0.396932 0.396932 0.396932
0.097688 0.097688 0.097688
0.370968 0.370968 0.370968
0.380060 0.380060 0.380060
0.385482 0.385482 0.385482
0.389375 0.389375 0.389375
0.392422 0.392422 0.392422
0.394930 0.394930 0.394930
0.397062 0.397062 0.397062
0.398919 0.398919 0.398919
0.097688 0.097688 0.097688
0.372575 0.372575 0.372575
0.381707 0.381707 0.381707
0.387152 0.387152 0.387152
0.391063 0.391063 0.391063
0.394123 0.394123 0.394123
0.396641 0.396641 0.396641
0.398783 0.398783 0.398783
0.400648 0.400648 0.400648
0.097688 0.097688 0.097688
0.097688 0.097688 0.097688
0.097688 0.097688 0.097688
0.097688 0.097688 0.097688
0.097688 0.097688 0.097688
0.097688 0.097688 0.097688
0.097688 0.097688 0.097688
0.097688 0.097688 0.097688
0.097688 0.097688 0.097688
0.097688 0.097688 0.097688
0.457097 0.457097 0.457097
0.467756 0.467756 0.467756
0.474106 0.474106 0.474106
0.478663 0.478663 0.478663
0.482228 0.482228 0.482228
0.485161 0.485161 0.485161
0.487655 0.487655 0.487655
0.489825 0.489825 0.489825
0.097688 0.097688 0.097688
0.466970 0.466970 0.466970
0.477859 0.477859 0.477859
0.484346 0.484346 0.484346
0.489002 0.489002 0.489002
0.492644 0.492644 0.492644
0.495640 0.495640 0.495640
0.498188 0.498188 0.498188
0.500405 0.500405 0.500405
0.097688 0.097688 0.097688
0.472844 0.472844 0.472844
0.483870 0.483870 0.483870
0.490438 0.490438 0.490438
0.495153 0.495153 0.495153
0.498841 0.498841 0.498841
0.501875 0.501875 0.501875
0.504454 0.504454 0.504454
0.506699 0.506699 0.506699
0.097688 0.097688 0.097688
0.477056 0.477056 0.477056
0.488180 0.488180 0.488180
0.494807 0.494807 0.494807
0.499564 0.499564 0.499564
0.503285 0.503285 0.503285
0.506346 0.506346 0.506346
0.508946 0.508946 0.508946
0.511183 0.511183 0.511183
0.097688 0.097688 0.097688
0.480349 0.480349 0.480349
0.491550 0.491550 0.491550
0.498223 0.498223 0.498223
0.503013 0.503013 0.503013
0.506759 0.506759 0.506759
0.509828 0.509828 0.509828
0.512416 0.512416 0.512416
0.514668 0.514668 0.514668
0.097688 0.097688 0.097688
0.483057 0.483057 0.483057
0.494321 0.494321 0.494321
0.501031 0.501031 0.501031
0.505848 0.505848 0.505848
0.509605 0.509605 0.509605
0.512666 0.512666 0.512666
0.515269 0.515269 0.515269
0.517533 0.517533 0.517533
0.097688 0.097688 0.097688
0.485358 0.485358 0.485358
0.496676 0.496676 0.496676
0.503418 0.503418 0.503418
0.508258 0.508258 0.508258
0.512003 0.512003 0.512003
0.515078 0.515078 0.515078
0.517693 0.517693 0.517693
0.519968 0.519968 0.519968
0.097688 0.097688 0.097688
0.487360 0.487360 0.487360
0.498725 0.498725 0.498725
0.505495 0.505495 0.505495
0.510335 0.510335 0.510335
0.514089 0.514089 0.514089
0.517177 0.517177 0.517177
0.519802 0.519802 0.519802
0.522087 0.522087 0.522087
0.097688 0.097688 0.097688
0.097688 0.097688 0.097688
0.097688 0.097688 0.097688
0.097688 0.097688 0.097688
0.097688 0.097688 0.097688
0.097688 0.097688 0.097688
0.097688 0.097688 0.097688
0.097688 0.097688 0.097688
0.097688 0.097688 0.097688
0.097688 0.097688 0.097688
0.561305 0.561305 0.561305
0.574231 0.574231 0.574231
0.581930 0.581930 0.581930
0.587454 0.587454 0.587454
0.591776 0.591776 0.591776
0.595330 0.595330 0.595330
0.598352 0.598352 0.598352
0.600982 0.600982 0.600982
0.097688 0.097688 0.097688
0.573278 0.573278 0.573278
0.586480 0.586480 0.586480
0.594342 0.594342 0.594342
0.599985 0.599985 0.599985
0.604399 0.604399 0.604399
0.608029 0.608029 0.608029
0.611115 0.611115 0.611115
0.613802 0.613802 0.613802
0.097688 0.097688 0.097688
0.580400 0.580400 0.580400
0.593765 0.593765 0.593765
0.601726 0.601726 0.601726
0.607439 0.607439 0.607439
0.611907 0.611907 0.611907
0.615582 0.615582 0.615582
0.618707 0.618707 0.618707
0.621427 0.621427 0.621427
0.097688 0.097688 0.097688
0.585506 0.585506 0.585506
0.598989 0.598989 0.598989
0.607020 0.607020 0.607020
0.612783 0.612783 0.612783
0.617291 0.617291 0.617291
0.620999 0.620999 0.620999
0.624151 0.624151 0.624151
0.626894 0.626894 0.626894
0.097688 0.097688 0.097688
0.589498 0.589498 0.589498
0.603073 0.603073 0.603073
0.611159 0.611159 0.611159
0.616961 0.616961 0.616961
0.621499 0.621499 0.621499
0.625232 0.625232 0.625232
0.628406 0.628406 0.628406
0.631168 0.631168 0.631168
0.097688 0.097688 0.097688
0.592780 0.592780 0.592780
0.606431 0.606431 0.606431
0.614561 0.614561 0.614561
0.620395 0.620395 0.620395
0.624959 0.624959 0.624959
0.628713 0.628713 0.628713
0.631904 0.631904 0.631904
0.634682 0.634682 0.634682
0.097688 0.097688 0.097688
0.595569 0.595569 0.595569
0.609284 0.609284 0.609284
0.617452 0.617452 0.617452
0.623314 0.623314 0.623314
0.627900 0.627900 0.627900
0.631671 0.631671 0.631671
0.634877 0.634877 0.634877
0.637668 0.637668 0.637668
0.097688 0.097688 0.097688
0.597995 0.597995 0.597995
0.611766 0.611766 0.611766
0.619968 0.619968 0.619968
0.625854 0.625854 0.625854
0.630458 0.630458 0.630458
0.634245 0.634245 0.634245
0.637464 0.637464 0.637464
0.640266 0.640266 0.640266
0.097688 0.097688 0.097688
0.097688 0.097688 0.097688
0.097688 0.097688 0.097688
0.097688 0.097688 0.097688
0.097688 0.097688 0.097688
0.097688 0.097688 0.097688
0.097688 0.097688 0.097688
0.097688 0.097688 0.097688
0.097688 0.097688 0.097688
0.097688 0.097688 0.097688
0.662613 0.662613 0.662613
0.677429 0.677429 0.677429
0.686248 0.686248 0.686248
0.692575 0.692575 0.692575
0.697523 0.697523 0.697523
0.701591 0.701591 0.701591
0.705050 0.705050 0.705050
0.708060 0.708060 0.708060
0.097688 0.097688 0.097688
0.676337 0.676337 0.676337
0.691459 0.691459 0.691459
0.700461 0.700461 0.700461
0.706919 0.706919 0.706919
0.711954 0.711954 0.711954
0.716089 0.716089 0.716089
0.719604 0.719604 0.719604
0.722662 0.722662 0.722662
0.097688 0.097688 0.097688
0.684496 0.684496 0.684496
0.699800 0.699800 0.699800
0.708909 0.708909 0.708909
0.715416 0.715416 0.715416
0.720505 0.720505 0.720505
0.724690 0.724690 0.724690
0.728247 0.728247 0.728247
0.731342 0.731342 0.731342
0.097688 0.097688 0.097688
0.690344 0.690344 0.690344
0.705779 0.705779 0.705779
0.714940 0.714940 0.714940
0.721502 0.721502 0.721502
0.726634 0.726634 0.726634
0.730854 0.730854 0.730854
0.734442 0.734442 0.734442
0.737563 0.737563 0.737563
0.097688 0.097688 0.097688
0.694915 0.694915 0.694915
0.710444 0.710444 0.710444
0.719653 0.719653 0.719653
0.726259 0.726259 0.726259
0.731424 0.731424 0.731424
0.735672 0.735672 0.735672
0.739283 0.739283 0.739283
0.742426 0.742426 0.742426
0.097688 0.097688 0.097688
0.698672 0.698672 0.698672
0.714268 0.714268 0.714268
0.723527 0.723527 0.723527
0.730168 0.730168 0.730168
0.735362 0.735362 0.735362
0.739633 0.739633 0.739633
0.743263 0.743263 0.743263
0.746422 0.746422 0.746422
0.097688 0.097688 0.097688
0.701864 0.701864 0.701864
0.717518 0.717518 0.717518
0.726818 0.726818 0.726818
0.733490 0.733490 0.733490
0.738707 0.738707 0.738707
0.742997 0.742997 0.742997
0.746644 0.746644 0.746644
0.749818 0.749818 0.749818
0.097688 0.097688 0.097688
0.704642 0.704642 0.704642
0.720344 0.720344 0.720344
0.729682 0.729682 0.729682
0.736380 0.736380 0.736380
0.741617 0.741617 0.741617
0.745925 0.745925 0.745925
0.749586 0.749586 0.749586
0.752772 0.752772 0.752772
0.097688 0.097688 0.097688
0.097688 0.097688 0.097688
0.097688 0.097688 0.097688
0.097688 0.097688 0.097688
0.097688 0.097688 0.097688
0.097688 0.097688 0.097688
0.097688 0.097688 0.097688
0.097688 0.097688 0.097688
0.097688 0.097688 0.097688
0.097688 0.097688 0.097688
0.759603 0.759603 0.759603
0.776512 0.776512 0.776512
0.785621 0.785621 0.785621
0.791920 0.791920 0.791920
0.796841 0.796841 0.796841
0.800884 0.800884 0.800884
0.804318 0.804318 0.804318
0.807305 0.807305 0.807305
0.097688 0.097688 0.097688
0.775266 0.775266 0.775266
0.790809 0.790809 0.790809
0.799761 0.799761 0.799761
0.806173 0.806173 0.806173
0.811182 0.811182 0.811182
0.815298 0.815298 0.815298
0.818794 0.818794 0.818794
0.821835 0.821835 0.821835
0.097688 0.097688 0.097688
0.783875 0.783875 0.783875
0.799104 0.799104 0.799104
0.808149 0.808149 0.808149
0.814629 0.814629 0.814629
0.819691 0.819691 0.819691
0.823850 0.823850 0.823850
0.827383 0.827383 0.827383
0.830455 0.830455 0.830455
0.097688 0.097688 0.097688
0.789700 0.789700 0.789700
0.805042 0.805042 0.805042
0.814154 0.814154 0.814154
0.820682 0.820682 0.820682
0.825781 0.825781 0.825781
0.829971 0.829971 0.829971
0.833531 0.833531 0.833531
0.836626 0.836626 0.836626
0.097688 0.097688 0.097688
0.794248 0.794248 0.794248
0.809678 0.809678 0.809678
0.818843 0.818843 0.818843
0.825408 0.825408 0.825408
0.830537 0.830537 0.830537
0.834751 0.834751 0.834751
0.838331 0.838331 0.838331
0.841444 0.841444 0.841444
0.097688 0.097688 0.097688
0.797983 0.797983 0.797983
0.813486 0.813486 0.813486
0.822694 0.822694 0.822694
0.829290 0.829290 0.829290
0.834443 0.834443 0.834443
0.838677 0.838677 0.838677
0.842273 0.842273 0.842273
0.845401 0.845401 0.845401
0.097688 0.097688 0.097688
0.801155 0.801155 0.801155
0.816720 0.816720 0.816720
0.825964 0.825964 0.825964
0.832587 0.832587 0.832587
0.837760 0.837760 0.837760
0.842011 0.842011 0.842011
0.845621 0.845621 0.845621
0.848762 0.848762 0.848762
0.097688 0.097688 0.097688
0.803913 0.803913 0.803913
0.819531 0.819531 0.819531
0.828807 0.828807 0.828807
0.835452 0.835452 0.835452
0.840644 0.840644 0.840644
0.844909 0.844909 0.844909
0.848532 0.848532 0.848532
0.851683 0.851683 0.851683
0.097688 0.097688 0.097688
0.097688 0.097688 0.097688
0.097688 0.097688 0.097688
0.097688 0.097688 0.097688
0.097688 0.097688 0.097688
0.097688 0.097688 0.097688
0.097688 0.097688 0.097688
0.097688 0.097688 0.097688
0.097688 0.097688 0.097688
0.097688 0.097688 0.097688
0.844863 0.844863 0.844863
0.861277 0.861277 0.861277
0.871025 0.871025 0.871025
0.878009 0.878009 0.878009
0.883345 0.883345 0.883345
0.886205 0.886205 0.886205
0.888631 0.888631 0.888631
0.890737 0.890737 0.890737
0.097688 0.097688 0.097688
0.860069 0.860069 0.860069
0.876778 0.876778 0.876778
0.885411 0.885411 0.885411
0.889939 0.889939 0.889939
0.893467 0.893467 0.893467
0.896360 0.896360 0.896360
0.898813 0.898813 0.898813
0.900944 0.900944 0.900944
0.097688 0.097688 0.097688
0.869090 0.869090 0.869090
0.884947 0.884947 0.884947
0.891332 0.891332 0.891332
0.895890 0.895890 0.895890
0.899442 0.899442 0.899442
0.902354 0.902354 0.902354
0.904824 0.904824 0.904824
0.906969 0.906969 0.906969
0.097688 0.097688 0.097688
0.875548 0.875548 0.875548
0.889141 0.889141 0.889141
0.895557 0.895557 0.895557
0.900137 0.900137 0.900137
0.903705 0.903705 0.903705
0.906631 0.906631 0.906631
0.909113 0.909113 0.909113
0.911268 0.911268 0.911268
0.097688 0.097688 0.097688
0.880590 0.880590 0.880590
0.892409 0.892409 0.892409
0.898848 0.898848 0.898848
0.903444 0.903444 0.903444
0.907026 0.907026 0.907026
0.909963 0.909963 0.909963
0.912454 0.912454 0.912454
0.914616 0.914616 0.914616
0.097688 0.097688 0.097688
0.884154 0.884154 0.884154
0.895087 0.895087 0.895087
0.901546 0.901546 0.901546
0.906156 0.906156 0.906156
0.909748 0.909748 0.909748
0.912694 0.912694 0.912694
0.915192 0.915192 0.915192
0.917362 0.917362 0.917362
0.097688 0.097688 0.097688
0.886397 0.886397 0.886397
0.897358 0.897358 0.897358
0.903833 0.903833 0.903833
0.908455 0.908455 0.908455
0.912057 0.912057 0.912057
0.915010 0.915010 0.915010
0.917514 0.917514 0.917514
0.919689 0.919689 0.919689
0.097688 0.097688 0.097688
0.888345 0.888345 0.888345
0.899330 0.899330 0.899330
0.905819 0.905819 0.905819
0.910451 0.910451 0.910451
0.914061 0.914061 0.914061
0.917020 0.917020 0.917020
0.919530 0.919530 0.919530
0.921710 0.921710 0.921710
