trix_classic/TriX_Yellow8_ExtraSoft.cube
TITLE "Tri-X Yellow8 ExtraSoft"
# Adobe RGB in/out. REPLACES AgX. R=0.5015 G=0.4679 B=0.0307
LUT_3D_SIZE 33
DOMAIN_MIN 0.0 0.0 0.0
DOMAIN_MAX 1.0 1.0 1.0
0.121260 0.121260 0.121260
0.121260 0.121260 0.121260
0.121260 0.121260 0.121260
0.121260 0.121260 0.121260
0.121260 0.121260 0.121260
0.121260 0.121260 0.121260
0.121260 0.121260 0.121260
0.121260 0.121260 0.121260
0.121260 0.121260 0.121260
0.121260 0.121260 0.121260
0.121260 0.121260 0.121260
0.121260 0.121260 0.121260
0.121260 0.121260 0.121260
0.121260 0.121260 0.121260
0.121260 0.121260 0.121260
0.121260 0.121260 0.121260
0.121260 0.121260 0.121260
0.121260 0.121260 0.121260
0.121260 0.121260 0.121260
0.121260 0.121260 0.121260
0.121260 0.121260 0.121260
0.121260 0.121260 0.121260
0.121260 0.121260 0.121260
0.121260 0.121260 0.121260
0.121260 0.121260 0.121260
0.121260 0.121260 0.121260
0.121260 0.121260 0.121260
0.121260 0.121260 0.121260
0.121260 0.121260 0.121260
0.121260 0.121260 0.121260
0.121260 0.121260 0.121260
0.121260 0.121260 0.121260
0.121260 0.121260 0.121260
0.121260 0.121260 0.121260
0.121260 0.121260 0.121260
0.121260 0.121260 0.121260
0.121260 0.121260 0.121260
0.121260 0.121260 0.121260
0.121260 0.121260 0.121260
0.121260 0.121260 0.121260
0.121260 0.121260 0.121260
0.121260 0.121260 0.121260
0.121260 0.121260 0.121260
0.121260 0.121260 0.121260
0.121260 0.121260 0.121260
0.121260 0.121260 0.121260
0.121260 0.121260 0.121260
0.121260 0.121260 0.121260
0.121260 0.121260 0.121260
0.121260 0.121260 0.121260
0.121260 0.121260 0.121260
0.121260 0.121260 0.121260
0.121260 0.121260 0.121260
0.121260 0.121260 0.121260
0.121260 0.121260 0.121260
0.121260 0.121260 0.121260
0.121260 0.121260 0.121260
0.121260 0.121260 0.121260
0.121260 0.121260 0.121260
0.121260 0.121260 0.121260
0.121260 0.121260 0.121260
0.121260 0.121260 0.121260
0.121260 0.121260 0.121260
0.121260 0.121260 0.121260
0.121260 0.121260 0.121260
0.121260 0.121260 0.121260
0.121260 0.121260 0.121260
0.121260 0.121260 0.121260
0.121260 0.121260 0.121260
0.121260 0.121260 0.121260
0.121260 0.121260 0.121260
0.121260 0.121260 0.121260
0.121260 0.121260 0.121260
0.121260 0.121260 0.121260
0.121260 0.121260 0.121260
0.121260 0.121260 0.121260
0.121260 0.121260 0.121260
0.121260 0.121260 0.121260
0.121260 0.121260 0.121260
0.121260 0.121260 0.121260
0.121260 0.121260 0.121260
0.121260 0.121260 0.121260
0.121260 0.121260 0.121260
0.121260 0.121260 0.121260
0.121260 0.121260 0.121260
0.121260 0.121260 0.121260
0.121260 0.121260 0.121260
0.121260 0.121260 0.121260
0.121260 0.121260 0.121260
0.121260 0.121260 0.121260
0.121260 0.121260 0.121260
0.121260 0.121260 0.121260
0.121260 0.121260 0.121260
0.121260 0.121260 0.121260
0.121260 0.121260 0.121260
0.121260 0.121260 0.121260
0.121260 0.121260 0.121260
0.121260 0.121260 0.121260
0.121260 0.121260 0.121260
0.121260 0.121260 0.121260
0.121260 0.121260 0.121260
0.121260 0.121260 0.121260
0.121260 0.121260 0.121260
0.121260 0.121260 0.121260
0.121260 0.121260 0.121260
0.121260 0.121260 0.121260
0.121260 0.121260 0.121260
0.121260 0.121260 0.121260
0.121260 0.121260 0.121260
0.121260 0.121260 0.121260
0.121260 0.121260 0.121260
0.121260 0.121260 0.121260
0.121260 0.121260 0.121260
0.121260 0.121260 0.121260
0.121260 0.121260 0.121260
0.121260 0.121260 0.121260
0.121260 0.121260 0.121260
0.121260 0.121260 0.121260
0.121260 0.121260 0.121260
0.121260 0.121260 0.121260
0.121260 0.121260 0.121260
0.121260 0.121260 0.121260
0.121260 0.121260 0.121260
0.121260 0.121260 0.121260
0.121260 0.121260 0.121260
0.121260 0.121260 0.121260
0.121260 0.121260 0.121260
0.121260 0.121260 0.121260
0.121260 0.121260 0.121260
0.121260 0.121260 0.121260
0.121260 0.121260 0.121260
0.121260 0.121260 0.121260
0.121260 0.121260 0.121260
0.121260 0.121260 0.121260
0.121260 0.121260 0.121260
0.121260 0.121260 0.121260
0.121260 0.121260 0.121260
0.121260 0.121260 0.121260
0.121260 0.121260 0.121260
0.121260 0.121260 0.121260
0.121260 0.121260 0.121260
0.121260 0.121260 0.121260
0.121260 0.121260 0.121260
0.121260 0.121260 0.121260
0.121260 0.121260 0.121260
0.121260 0.121260 0.121260
0.121260 0.121260 0.121260
0.121260 0.121260 0.121260
0.121260 0.121260 0.121260
0.121260 0.121260 0.121260
0.121260 0.121260 0.121260
0.121260 0.121260 0.121260
0.121260 0.121260 0.121260
0.121260 0.121260 0.121260
0.121260 0.121260 0.121260
0.121260 0.121260 0.121260
0.121260 0.121260 0.121260
0.121260 0.121260 0.121260
0.121260 0.121260 0.121260
0.121260 0.121260 0.121260
0.121260 0.121260 0.121260
0.121260 0.121260 0.121260
0.121260 0.121260 0.121260
0.121260 0.121260 0.121260
0.121260 0.121260 0.121260
0.121260 0.121260 0.121260
0.121260 0.121260 0.121260
0.121260 0.121260 0.121260
0.121260 0.121260 0.121260
0.121260 0.121260 0.121260
0.121260 0.121260 0.121260
0.121260 0.121260 0.121260
0.121260 0.121260 0.121260
0.121260 0.121260 0.121260
0.121260 0.121260 0.121260
0.121260 0.121260 0.121260
0.121260 0.121260 0.121260
0.121260 0.121260 0.121260
0.121260 0.121260 0.121260
0.121260 0.121260 0.121260
0.121260 0.121260 0.121260
0.121260 0.121260 0.121260
0.121260 0.121260 0.121260
0.121260 0.121260 0.121260
0.121260 0.121260 0.121260
0.121260 0.121260 0.121260
0.121260 0.121260 0.121260
0.121260 0.121260 0.121260
0.121260 0.121260 0.121260
0.121260 0.121260 0.121260
0.121260 0.121260 0.121260
0.121260 0.121260 0.121260
0.121260 0.121260 0.121260
0.121260 0.121260 0.121260
0.121260 0.121260 0.121260
0.121260 0.121260 0.121260
0.121260 0.121260 0.121260
0.121260 0.121260 0.121260
0.121260 0.121260 0.121260
0.121260 0.121260 0.121260
0.121260 0.121260 0.121260
0.121260 0.121260 0.121260
0.121260 0.121260 0.121260
0.121260 0.121260 0.121260
0.121260 0.121260 0.121260
0.121260 0.121260 0.121260
0.121260 0.121260 0.121260
0.121260 0.121260 0.121260
0.121260 0.121260 0.121260
0.121260 0.121260 0.121260
0.121260 0.121260 0.121260
0.121260 0.121260 0.121260
0.121260 0.121260 0.121260
0.121260 0.121260 0.121260
0.121260 0.121260 0.121260
0.121260 0.121260 0.121260
0.121260 0.121260 0.121260
0.121260 0.121260 0.121260
0.121260 0.121260 0.121260
0.121260 0.121260 0.121260
0.121260 0.121260 0.121260
0.121260 0.121260 0.121260
0.121260 0.121260 0.121260
0.121260 0.121260 0.121260
0.121260 0.121260 0.121260
0.121260 0.121260 0.121260
0.121260 0.121260 0.121260
0.121260 0.121260 0.121260
0.121260 0.121260 0.121260
0.121260 0.121260 0.121260
0.121260 0.121260 0.121260
0.121260 0.121260 0.121260
0.121260 0.121260 0.121260
0.121260 0.121260 0.121260
0.121260 0.121260 0.121260
0.121260 0.121260 0.121260
0.121260 0.121260 0.121260
0.121260 0.121260 0.121260
0.121260 0.121260 0.121260
0.121260 0.121260 0.121260
0.121260 0.121260 0.121260
0.121260 0.121260 0.121260
0.121260 0.121260 0.121260
0.121260 0.121260 0.121260
0.121260 0.121260 0.121260
0.121260 0.121260 0.121260
0.121260 0.121260 0.121260
0.121260 0.121260 0.121260
0.121260 0.121260 0.121260
0.121260 0.121260 0.121260
0.121260 0.121260 0.121260
0.121260 0.121260 0.121260
0.121260 0.121260 0.121260
0.121260 0.121260 0.121260
0.121260 0.121260 0.121260
0.121260 0.121260 0.121260
0.121260 0.121260 0.121260
0.121260 0.121260 0.121260
0.121260 0.121260 0.121260
0.121260 0.121260 0.121260
0.121260 0.121260 0.121260
0.121260 0.121260 0.121260
0.121260 0.121260 0.121260
0.121260 0.121260 0.121260
0.121260 0.121260 0.121260
0.121260 0.121260 0.121260
0.121260 0.121260 0.121260
0.121260 0.121260 0.121260
0.121260 0.121260 0.121260
0.121260 0.121260 0.121260
0.121260 0.121260 0.121260
0.121260 0.121260 0.121260
0.121260 0.121260 0.121260
0.121260 0.121260 0.121260
0.121260 0.121260 0.121260
0.121260 0.121260 0.121260
0.121260 0.121260 0.121260
0.121260 0.121260 0.121260
0.121260 0.121260 0.121260
0.121260 0.121260 0.121260
0.121260 0.121260 0.121260
0.121260 0.121260 0.121260
0.121260 0.121260 0.121260
0.121260 0.121260 0.121260
0.121260 0.121260 0.121260
0.121260 0.121260 0.121260
0.121260 0.121260 0.121260
0.121260 0.121260 0.121260
0.121260 0.121260 0.121260
0.121260 0.121260 0.121260
0.121260 0.121260 0.121260
0.121260 0.121260 0.121260
0.121260 0.121260 0.121260
0.121260 0.121260 0.121260
0.121260 0.121260 0.121260
0.121260 0.121260 0.121260
0.121260 0.121260 0.121260
0.121260 0.121260 0.121260
0.121260 0.121260 0.121260
0.121260 0.121260 0.121260
0.121260 0.121260 0.121260
0.121260 0.121260 0.121260
0.121260 0.121260 0.121260
0.121260 0.121260 0.121260
0.121260 0.121260 0.121260
0.121260 0.121260 0.121260
0.121260 0.121260 0.121260
0.121260 0.121260 0.121260
0.121260 0.121260 0.121260
0.121260 0.121260 0.121260
0.121260 0.121260 0.121260
0.121260 0.121260 0.121260
0.121260 0.121260 0.121260
0.121260 0.121260 0.121260
0.121260 0.121260 0.121260
0.121260 0.121260 0.121260
0.121260 0.121260 0.121260
0.121260 0.121260 0.121260
0.121260 0.121260 0.121260
0.121260 0.121260 0.121260
0.121260 0.121260 0.121260
0.121260 0.121260 0.121260
0.121260 0.121260 0.121260
0.121260 0.121260 0.121260
0.121260 0.121260 0.121260
0.121260 0.121260 0.121260
0.121260 0.121260 0.121260
0.121260 0.121260 0.121260
0.121260 0.121260 0.121260
0.121260 0.121260 0.121260
0.121260 0.121260 0.121260
0.121260 0.121260 0.121260
0.121260 0.121260 0.121260
0.121260 0.121260 0.121260
0.121260 0.121260 0.121260
0.121260 0.121260 0.121260
0.121260 0.121260 0.121260
0.121260 0.121260 0.121260
0.121260 0.121260 0.121260
0.121260 0.121260 0.121260
0.121260 0.121260 0.121260
0.121260 0.121260 0.121260
0.121260 0.121260 0.121260
0.121260 0.121260 0.121260
0.121260 0.121260 0.121260
0.121260 0.121260 0.121260
0.121260 0.121260 0.121260
0.121260 0.121260 0.121260
0.121260 0.121260 0.121260
0.121260 0.121260 0.121260
0.121260 0.121260 0.121260
0.121260 0.121260 0.121260
0.121260 0.121260 0.121260
0.121260 0.121260 0.121260
0.121260 0.121260 0.121260
0.121260 0.121260 0.121260
0.121260 0.121260 0.121260
0.121260 0.121260 0.121260
0.121260 0.121260 0.121260
0.121260 0.121260 0.121260
0.121260 0.121260 0.121260
0.121260 0.121260 0.121260
0.121260 0.121260 0.121260
0.121260 0.121260 0.121260
0.121260 0.121260 0.121260
0.121260 0.121260 0.121260
0.121260 0.121260 0.121260
0.121260 0.121260 0.121260
0.121260 0.121260 0.121260
0.121260 0.121260 0.121260
0.121260 0.121260 0.121260
0.121260 0.121260 0.121260
0.121260 0.121260 0.121260
0.121260 0.121260 0.121260
0.121260 0.121260 0.121260
0.121260 0.121260 0.121260
0.121260 0.121260 0.121260
0.121260 0.121260 0.121260
0.121260 0.121260 0.121260
0.121260 0.121260 0.121260
0.121260 0.121260 0.121260
0.121260 0.121260 0.121260
0.121260 0.121260 0.121260
0.121260 0.121260 0.121260
0.121260 0.121260 0.121260
0.121260 0.121260 0.121260
0.121260 0.121260 0.121260
0.121260 0.121260 0.121260
0.121260 0.121260 0.121260
0.121260 0.121260 0.121260
0.121260 0.121260 0.121260
0.121260 0.121260 0.121260
0.121260 0.121260 0.121260
0.121260 0.121260 0.121260
0.121260 0.121260 0.121260
0.121260 0.121260 0.121260
0.121260 0.121260 0.121260
0.121260 0.121260 0.121260
0.121260 0.121260 0.121260
0.121260 0.121260 0.121260
0.121260 0.121260 0.121260
0.121260 0.121260 0.121260
0.121260 0.121260 0.121260
0.121260 0.121260 0.121260
0.121260 0.121260 0.121260
0.121260 0.121260 0.121260
0.121260 0.121260 0.121260
0.121260 0.121260 0.121260
0.121260 0.121260 0.121260
0.121260 0.121260 0.121260
0.121260 0.121260 0.121260
0.121260 0.121260 0.121260
0.121260 0.121260 0.121260
0.121260 0.121260 0.121260
0.121260 0.121260 0.121260
0.121260 0.121260 0.121260
0.121260 0.121260 0.121260
0.121260 0.121260 0.121260
0.121260 0.121260 0.121260
0.121260 0.121260 0.121260
0.121260 0.121260 0.121260
0.121260 0.121260 0.121260
0.121260 0.121260 0.121260
0.121260 0.121260 0.121260
0.121260 0.121260 0.121260
0.121260 0.121260 0.121260
0.121260 0.121260 0.121260
0.121260 0.121260 0.121260
0.121260 0.121260 0.121260
0.121260 0.121260 0.121260
0.121260 0.121260 0.121260
0.121260 0.121260 0.121260
0.121260 0.121260 0.121260
0.121260 0.121260 0.121260
0.121260 0.121260 0.121260
0.121260 0.121260 0.121260
0.121260 0.121260 0.121260
0.121260 0.121260 0.121260
0.121260 0.121260 0.121260
0.121260 0.121260 0.121260
0.121260 0.121260 0.121260
0.121260 0.121260 0.121260
0.121260 0.121260 0.121260
0.121260 0.121260 0.121260
0.121260 0.121260 0.121260
0.121260 0.121260 0.121260
0.121260 0.121260 0.121260
0.121260 0.121260 0.121260
0.121260 0.121260 0.121260
0.121260 0.121260 0.121260
0.121260 0.121260 0.121260
0.121260 0.121260 0.121260
0.121260 0.121260 0.121260
0.121260 0.121260 0.121260
0.121260 0.121260 0.121260
0.121260 0.121260 0.121260
0.121260 0.121260 0.121260
0.121260 0.121260 0.121260
0.121260 0.121260 0.121260
0.121260 0.121260 0.121260
0.121260 0.121260 0.121260
0.121260 0.121260 0.121260
0.121260 0.121260 0.121260
0.121260 0.121260 0.121260
0.121260 0.121260 0.121260
0.121260 0.121260 0.121260
0.121260 0.121260 0.121260
0.121260 0.121260 0.121260
0.121260 0.121260 0.121260
0.121260 0.121260 0.121260
0.121260 0.121260 0.121260
0.121260 0.121260 0.121260
0.121260 0.121260 0.121260
0.121260 0.121260 0.121260
0.121260 0.121260 0.121260
0.121260 0.121260 0.121260
0.121260 0.121260 0.121260
0.121260 0.121260 0.121260
0.121260 0.121260 0.121260
0.121260 0.121260 0.121260
0.121260 0.121260 0.121260
0.121260 0.121260 0.121260
0.121260 0.121260 0.121260
0.121260 0.121260 0.121260
0.121260 0.121260 0.121260
0.121260 0.121260 0.121260
0.121260 0.121260 0.121260
0.121260 0.121260 0.121260
0.121260 0.121260 0.121260
0.121260 0.121260 0.121260
0.121260 0.121260 0.121260
0.121260 0.121260 0.121260
0.121260 0.121260 0.121260
0.121260 0.121260 0.121260
0.121260 0.121260 0.121260
0.121260 0.121260 0.121260
0.121260 0.121260 0.121260
0.121260 0.121260 0.121260
0.121260 0.121260 0.121260
0.121260 0.121260 0.121260
0.121260 0.121260 0.121260
0.121260 0.121260 0.121260
0.121260 0.121260 0.121260
0.121260 0.121260 0.121260
0.121260 0.121260 0.121260
0.121260 0.121260 0.121260
0.121260 0.121260 0.121260
0.121260 0.121260 0.121260
0.121260 0.121260 0.121260
0.121260 0.121260 0.121260
0.121260 0.121260 0.121260
0.121260 0.121260 0.121260
0.121260 0.121260 0.121260
0.121260 0.121260 0.121260
0.121260 0.121260 0.121260
0.121260 0.121260 0.121260
0.121260 0.121260 0.121260
0.121260 0.121260 0.121260
0.121260 0.121260 0.121260
0.121260 0.121260 0.121260
0.121260 0.121260 0.121260
0.121260 0.121260 0.121260
0.121260 0.121260 0.121260
0.121260 0.121260 0.121260
0.121260 0.121260 0.121260
0.121260 0.121260 0.121260
0.121260 0.121260 0.121260
0.121260 0.121260 0.121260
0.121260 0.121260 0.121260
0.121260 0.121260 0.121260
0.121260 0.121260 0.121260
0.121260 0.121260 0.121260
0.121260 0.121260 0.121260
0.121260 0.121260 0.121260
0.121260 0.121260 0.121260
0.121260 0.121260 0.121260
0.121260 0.121260 0.121260
0.121260 0.121260 0.121260
0.121260 0.121260 0.121260
0.121260 0.121260 0.121260
0.121260 0.121260 0.121260
0.121260 0.121260 0.121260
0.121260 0.121260 0.121260
0.121260 0.121260 0.121260
0.121260 0.121260 0.121260
0.121260 0.121260 0.121260
0.121260 0.121260 0.121260
0.121260 0.121260 0.121260
0.121260 0.121260 0.121260
0.121260 0.121260 0.121260
0.121260 0.121260 0.121260
0.121260 0.121260 0.121260
0.121260 0.121260 0.121260
0.121260 0.121260 0.121260
0.121260 0.121260 0.121260
0.121260 0.121260 0.121260
0.121260 0.121260 0.121260
0.121260 0.121260 0.121260
0.121260 0.121260 0.121260
0.121260 0.121260 0.121260
0.121260 0.121260 0.121260
0.121260 0.121260 0.121260
0.121260 0.121260 0.121260
0.121260 0.121260 0.121260
0.121260 0.121260 0.121260
0.121260 0.121260 0.121260
0.121260 0.121260 0.121260
0.121260 0.121260 0.121260
0.121260 0.121260 0.121260
0.121260 0.121260 0.121260
0.121260 0.121260 0.121260
0.121260 0.121260 0.121260
0.121260 0.121260 0.121260
0.121260 0.121260 0.121260
0.121260 0.121260 0.121260
0.121260 0.121260 0.121260
0.121260 0.121260 0.121260
0.121260 0.121260 0.121260
0.121260 0.121260 0.121260
0.121260 0.121260 0.121260
0.121260 0.121260 0.121260
0.121260 0.121260 0.121260
0.121260 0.121260 0.121260
0.121260 0.121260 0.121260
0.121260 0.121260 0.121260
0.121260 0.121260 0.121260
0.121260 0.121260 0.121260
0.121260 0.121260 0.121260
0.121260 0.121260 0.121260
0.121260 0.121260 0.121260
0.121260 0.121260 0.121260
0.121260 0.121260 0.121260
0.121260 0.121260 0.121260
0.121260 0.121260 0.121260
0.121260 0.121260 0.121260
0.121260 0.121260 0.121260
0.121260 0.121260 0.121260
0.121260 0.121260 0.121260
0.121260 0.121260 0.121260
0.121260 0.121260 0.121260
0.121260 0.121260 0.121260
0.121260 0.121260 0.121260
0.121260 0.121260 0.121260
0.121260 0.121260 0.121260
0.121260 0.121260 0.121260
0.121260 0.121260 0.121260
0.121260 0.121260 0.121260
0.121260 0.121260 0.121260
0.121260 0.121260 0.121260
0.121260 0.121260 0.121260
0.121260 0.121260 0.121260
0.121260 0.121260 0.121260
0.121260 0.121260 0.121260
0.121260 0.121260 0.121260
0.121260 0.121260 0.121260
0.121260 0.121260 0.121260
0.121260 0.121260 0.121260
0.121260 0.121260 0.121260
0.121260 0.121260 0.121260
0.121260 0.121260 0.121260
0.121260 0.121260 0.121260
0.121260 0.121260 0.121260
0.121260 0.121260 0.121260
0.121260 0.121260 0.121260
0.121260 0.121260 0.121260
0.121260 0.121260 0.121260
0.121260 0.121260 0.121260
0.121260 0.121260 0.121260
0.121260 0.121260 0.121260
0.121260 0.121260 0.121260
0.121260 0.121260 0.121260
0.121260 0.121260 0.121260
0.121260 0.121260 0.121260
0.121260 0.121260 0.121260
0.121260 0.121260 0.121260
0.121260 0.121260 0.121260
0.121260 0.121260 0.121260
0.121260 0.121260 0.121260
0.121260 0.121260 0.121260
0.121260 0.121260 0.121260
0.121260 0.121260 0.121260
0.121260 0.121260 0.121260
0.121260 0.121260 0.121260
0.121260 0.121260 0.121260
0.121260 0.121260 0.121260
0.121260 0.121260 0.121260
0.121260 0.121260 0.121260
0.121260 0.121260 0.121260
0.121260 0.121260 0.121260
0.121260 0.121260 0.121260
0.121260 0.121260 0.121260
0.121260 0.121260 0.121260
0.121260 0.121260 0.121260
0.121260 0.121260 0.121260
0.121260 0.121260 0.121260
0.121260 0.121260 0.121260
0.121260 0.121260 0.121260
0.121260 0.121260 0.121260
0.121260 0.121260 0.121260
0.121260 0.121260 0.121260
0.121260 0.121260 0.121260
0.121260 0.121260 0.121260
0.121260 0.121260 0.121260
0.121260 0.121260 0.121260
0.121260 0.121260 0.121260
0.121260 0.121260 0.121260
0.121260 0.121260 0.121260
0.121260 0.121260 0.121260
0.121260 0.121260 0.121260
0.121260 0.121260 0.121260
0.121260 0.121260 0.121260
0.121260 0.121260 0.121260
0.121260 0.121260 0.121260
0.121260 0.121260 0.121260
0.121260 0.121260 0.121260
0.121260 0.121260 0.121260
0.121260 0.121260 0.121260
0.121260 0.121260 0.121260
0.121260 0.121260 0.121260
0.121260 0.121260 0.121260
0.121260 0.121260 0.121260
0.121260 0.121260 0.121260
0.121260 0.121260 0.121260
0.121260 0.121260 0.121260
0.121260 0.121260 0.121260
0.121260 0.121260 0.121260
0.121260 0.121260 0.121260
0.121260 0.121260 0.121260
0.121260 0.121260 0.121260
0.121260 0.121260 0.121260
0.121260 0.121260 0.121260
0.121260 0.121260 0.121260
0.121260 0.121260 0.121260
0.121260 0.121260 0.121260
0.121260 0.121260 0.121260
0.121260 0.121260 0.121260
0.121260 0.121260 0.121260
0.121260 0.121260 0.121260
0.121260 0.121260 0.121260
0.121260 0.121260 0.121260
0.121260 0.121260 0.121260
0.121260 0.121260 0.121260
0.121260 0.121260 0.121260
0.121260 0.121260 0.121260
0.121260 0.121260 0.121260
0.121260 0.121260 0.121260
0.121260 0.121260 0.121260
0.121260 0.121260 0.121260
0.121260 0.121260 0.121260
0.121260 0.121260 0.121260
0.121260 0.121260 0.121260
0.121260 0.121260 0.121260
0.121260 0.121260 0.121260
0.121260 0.121260 0.121260
0.121260 0.121260 0.121260
0.121260 0.121260 0.121260
0.121260 0.121260 0.121260
0.121260 0.121260 0.121260
0.121260 0.121260 0.121260
0.121260 0.121260 0.121260
0.121260 0.121260 0.121260
0.121260 0.121260 0.121260
0.121260 0.121260 0.121260
0.121260 0.121260 0.121260
0.121260 0.121260 0.121260
0.121260 0.121260 0.121260
0.121260 0.121260 0.121260
0.121260 0.121260 0.121260
0.121260 0.121260 0.121260
0.121260 0.121260 0.121260
0.121260 0.121260 0.121260
0.121260 0.121260 0.121260
0.121260 0.121260 0.121260
0.121260 0.121260 0.121260
0.121260 0.121260 0.121260
0.121260 0.121260 0.121260
0.121260 0.121260 0.121260
0.121260 0.121260 0.121260
0.121260 0.121260 0.121260
0.121260 0.121260 0.121260
0.121260 0.121260 0.121260
0.121260 0.121260 0.121260
0.121260 0.121260 0.121260
0.121260 0.121260 0.121260
0.121260 0.121260 0.121260
0.121260 0.121260 0.121260
0.121260 0.121260 0.121260
0.121260 0.121260 0.121260
0.121260 0.121260 0.121260
0.121260 0.121260 0.121260
0.121260 0.121260 0.121260
0.121260 0.121260 0.121260
0.121260 0.121260 0.121260
0.121260 0.121260 0.121260
0.121260 0.121260 0.121260
0.121260 0.121260 0.121260
0.121260 0.121260 0.121260
0.121260 0.121260 0.121260
0.121260 0.121260 0.121260
0.121260 0.121260 0.121260
0.121260 0.121260 0.121260
0.121260 0.121260 0.121260
0.121260 0.121260 0.121260
0.121260 0.121260 0.121260
0.121260 0.121260 0.121260
0.121260 0.121260 0.121260
0.121260 0.121260 0.121260
0.121260 0.121260 0.121260
0.121260 0.121260 0.121260
0.121260 0.121260 0.121260
0.121260 0.121260 0.121260
0.121260 0.121260 0.121260
0.121260 0.121260 0.121260
0.121260 0.121260 0.121260
0.121260 0.121260 0.121260
0.121260 0.121260 0.121260
0.121260 0.121260 0.121260
0.121260 0.121260 0.121260
0.121260 0.121260 0.121260
0.121260 0.121260 0.121260
0.121260 0.121260 0.121260
0.121260 0.121260 0.121260
0.121260 0.121260 0.121260
0.121260 0.121260 0.121260
0.121260 0.121260 0.121260
0.121260 0.121260 0.121260
0.121260 0.121260 0.121260
0.121260 0.121260 0.121260
0.121260 0.121260 0.121260
0.121260 0.121260 0.121260
0.121260 0.121260 0.121260
0.121260 0.121260 0.121260
0.121260 0.121260 0.121260
0.121260 0.121260 0.121260
0.121260 0.121260 0.121260
0.121260 0.121260 0.121260
0.121260 0.121260 0.121260
0.121260 0.121260 0.121260
0.121260 0.121260 0.121260
0.121260 0.121260 0.121260
0.121260 0.121260 0.121260
0.121260 0.121260 0.121260
0.121260 0.121260 0.121260
0.121260 0.121260 0.121260
0.121260 0.121260 0.121260
0.121260 0.121260 0.121260
0.121260 0.121260 0.121260
0.121260 0.121260 0.121260
0.121260 0.121260 0.121260
0.121260 0.121260 0.121260
0.121260 0.121260 0.121260
0.121260 0.121260 0.121260
0.121260 0.121260 0.121260
0.121260 0.121260 0.121260
0.121260 0.121260 0.121260
0.121260 0.121260 0.121260
0.121260 0.121260 0.121260
0.121260 0.121260 0.121260
0.121260 0.121260 0.121260
0.121260 0.121260 0.121260
0.121260 0.121260 0.121260
0.121260 0.121260 0.121260
0.121260 0.121260 0.121260
0.121260 0.121260 0.121260
0.121260 0.121260 0.121260
0.121260 0.121260 0.121260
0.121260 0.121260 0.121260
0.121260 0.121260 0.121260
0.121260 0.121260 0.121260
0.121260 0.121260 0.121260
0.121260 0.121260 0.121260
0.121260 0.121260 0.121260
0.121260 0.121260 0.121260
0.121260 0.121260 0.121260
0.121260 0.121260 0.121260
0.121260 0.121260 0.121260
0.121260 0.121260 0.121260
0.121260 0.121260 0.121260
0.121260 0.121260 0.121260
0.121260 0.121260 0.121260
0.121260 0.121260 0.121260
0.121260 0.121260 0.121260
0.121260 0.121260 0.121260
0.121260 0.121260 0.121260
0.121260 0.121260 0.121260
0.121260 0.121260 0.121260
0.121260 0.121260 0.121260
0.121260 0.121260 0.121260
0.121260 0.121260 0.121260
0.121260 0.121260 0.121260
0.121260 0.121260 0.121260
0.121260 0.121260 0.121260
0.121260 0.121260 0.121260
0.121260 0.121260 0.121260
0.121260 0.121260 0.121260
0.121260 0.121260 0.121260
0.121260 0.121260 0.121260
0.121260 0.121260 0.121260
0.121260 0.121260 0.121260
0.121260 0.121260 0.121260
0.121260 0.121260 0.121260
0.121260 0.121260 0.121260
0.121260 0.121260 0.121260
0.121260 0.121260 0.121260
0.121260 0.121260 0.121260
0.121260 0.121260 0.121260
0.121260 0.121260 0.121260
0.121260 0.121260 0.121260
0.121260 0.121260 0.121260
0.121260 0.121260 0.121260
0.121260 0.121260 0.121260
0.121260 0.121260 0.121260
0.121260 0.121260 0.121260
0.121260 0.121260 0.121260
0.121260 0.121260 0.121260
0.121260 0.121260 0.121260
0.121260 0.121260 0.121260
0.121260 0.121260 0.121260
0.121260 0.121260 0.121260
0.121260 0.121260 0.121260
0.121260 0.121260 0.121260
0.121260 0.121260 0.121260
0.121260 0.121260 0.121260
