trix_classic/TriX_Blue47_Hard.cube
TITLE "Tri-X Blue47 Hard"
# Adobe RGB in/out. REPLACES AgX. R=0.0336 G=0.0311 B=0.9353
LUT_3D_SIZE 5
DOMAIN_MIN 0.0 0.0 0.0
DOMAIN_MAX 1.0 1.0 1.0
0.093288 0.093288 0.093288
0.093288 0.093288 0.093288
0.093288 0.093288 0.093288
0.093288 0.093288 0.093288
0.093288 0.093288 0.093288
0.093288 0.093288 0.093288
0.093288 0.093288 0.093288
0.093288 0.093288 0.093288
0.093288 0.093288 0.093288
0.093288 0.093288 0.093288
0.093288 0.093288 0.093288
0.093288 0.093288 0.093288
0.093288 0.093288 0.093288
0.093288 0.093288 0.093288
0.093288 0.093288 0.093288
0.093288 0.093288 0.093288
0.093288 0.093288 0.093288
0.093288 0.093288 0.093288
0.093288 0.093288 0.093288
0.093288 0.093288 0.093288
0.093288 0.093288 0.093288
0.093288 0.093288 0.093288
0.093288 0.093288 0.093288
0.093288 0.093288 0.093288
0.093288 0.093288 0.093288
0.093288 0.093288 0.093288
0.093288 0.093288 0.093288
0.093288 0.093288 0.093288
0.093288 0.093288 0.093288
0.093288 0.093288 0.093288
0.093288 0.093288 0.093288
0.100098 0.100098 0.100098
0.100870 0.100870 0.100870
0.101933 0.101933 0.101933
0.102720 0.102720 0.102720
0.093288 0.093288 0.093288
0.100814 0.100814 0.100814
0.102581 0.102581 0.102581
0.103699 0.103699 0.103699
0.104499 0.104499 0.104499
0.093288 0.093288 0.093288
0.101714 0.101714 0.101714
0.103617 0.103617 0.103617
0.104746 0.104746 0.104746
0.105555 0.105555 0.105555
0.093288 0.093288 0.093288
0.102442 0.102442 0.102442
0.104358 0.104358 0.104358
0.105495 0.105495 0.105495
0.106865 0.106865 0.106865
0.093288 0.093288 0.093288
0.093288 0.093288 0.093288
0.093288 0.093288 0.093288
0.093288 0.093288 0.093288
0.093288 0.093288 0.093288
0.093288 0.093288 0.093288
0.517033 0.517033 0.517033
0.553001 0.553001 0.553001
0.575190 0.575190 0.575190
0.591472 0.591472 0.591472
0.093288 0.093288 0.093288
0.550295 0.550295 0.550295
0.588577 0.588577 0.588577
0.612193 0.612193 0.612193
0.628509 0.628509 0.628509
0.093288 0.093288 0.093288
0.570735 0.570735 0.570735
0.610439 0.610439 0.610439
0.633083 0.633083 0.633083
0.648235 0.648235 0.648235
0.093288 0.093288 0.093288
0.585696 0.585696 0.585696
0.625901 0.625901 0.625901
0.647118 0.647118 0.647118
0.662606 0.662606 0.662606
0.093288 0.093288 0.093288
0.093288 0.093288 0.093288
0.093288 0.093288 0.093288
0.093288 0.093288 0.093288
0.093288 0.093288 0.093288
0.093288 0.093288 0.093288
0.956856 0.956856 0.956856
0.966458 0.966458 0.966458
0.971027 0.971027 0.971027
0.973000 0.973000 0.973000
0.093288 0.093288 0.093288
0.965754 0.965754 0.965754
0.972653 0.972653 0.972653
0.975438 0.975438 0.975438
0.977420 0.977420 0.977420
0.093288 0.093288 0.093288
0.970479 0.970479 0.970479
0.975235 0.975235 0.975235
0.978028 0.978028 0.978028
0.980014 0.980014 0.980014
0.093288 0.093288 0.093288
0.972306 0.972306 0.972306
0.977071 0.977071 0.977071
0.979869 0.979869 0.979869
0.981859 0.981859 0.981859
0.093288 0.093288 0.093288
0.093288 0.093288 0.093288
0.093288 0.093288 0.093288
0.093288 0.093288 0.093288
0.093288 0.093288 0.093288
0.093288 0.093288 0.093288
0.995428 0.995428 0.995428
0.996414 0.996414 0.996414
0.996991 0.996991 0.996991
0.997401 0.997401 0.997401
0.093288 0.093288 0.093288
0.996342 0.996342 0.996342
0.997328 0.997328 0.997328
0.997822 0.997822 0.997822
0.997896 0.997896 0.997896
0.093288 0.093288 0.093288
0.996877 0.996877 0.996877
0.997815 0.997815 0.997815
0.997919 0.997919 0.997919
0.997993 0.997993 0.997993
0.093288 0.093288 0.093288
0.997256 0.997256 0.997256
0.997883 0.997883 0.997883
0.997988 0.997988 0.997988
0.998062 0.998062 0.998062
