trix_classic/TriX_Red25_Hard.cube
TITLE "Tri-X Red25 Hard"
# Adobe RGB in/out. REPLACES AgX. Tri-X Red25 Hard.
LUT_3D_SIZE 33
DOMAIN_MIN 0.0 0.0 0.0
DOMAIN_MAX 1.0 1.0 1.0
0.093024 0.093024 0.093024
0.093024 0.093024 0.093024
0.093024 0.093024 0.093024
0.093034 0.093034 0.093034
0.093154 0.093154 0.093154
0.093236 0.093236 0.093236
0.093408 0.093408 0.093408
0.094082 0.094082 0.094082
0.094977 0.094977 0.094977
0.096981 0.096981 0.096981
0.106531 0.106531 0.106531
0.133461 0.133461 0.133461
0.174447 0.174447 0.174447
0.249785 0.249785 0.249785
0.382432 0.382432 0.382432
0.504329 0.504329 0.504329
0.639861 0.639861 0.639861
0.774976 0.774976 0.774976
0.865593 0.865593 0.865593
0.924673 0.924673 0.924673
0.960250 0.960250 0.960250
0.977004 0.977004 0.977004
0.985488 0.985488 0.985488
0.990389 0.990389 0.990389
0.993035 0.993035 0.993035
0.994487 0.994487 0.994487
0.996245 0.996245 0.996245
0.997097 0.997097 0.997097
0.997914 0.997914 0.997914
0.997914 0.997914 0.997914
0.997914 0.997914 0.997914
0.997914 0.997914 0.997914
0.997914 0.997914 0.997914
0.093024 0.093024 0.093024
0.093024 0.093024 0.093024
0.093024 0.093024 0.093024
0.093060 0.093060 0.093060
0.093206 0.093206 0.093206
0.093274 0.093274 0.093274
0.093434 0.093434 0.093434
0.094300 0.094300 0.094300
0.095198 0.095198 0.095198
0.097176 0.097176 0.097176
0.107939 0.107939 0.107939
0.135478 0.135478 0.135478
0.176483 0.176483 0.176483
0.251672 0.251672 0.251672
0.383989 0.383989 0.383989
0.505022 0.505022 0.505022
0.639889 0.639889 0.639889
0.774652 0.774652 0.774652
0.865199 0.865199 0.865199
0.924356 0.924356 0.924356
0.960032 0.960032 0.960032
0.976910 0.976910 0.976910
0.985449 0.985449 0.985449
0.990354 0.990354 0.990354
0.993022 0.993022 0.993022
0.994477 0.994477 0.994477
0.996236 0.996236 0.996236
0.997092 0.997092 0.997092
0.997914 0.997914 0.997914
0.997914 0.997914 0.997914
0.997914 0.997914 0.997914
0.997914 0.997914 0.997914
0.997914 0.997914 0.997914
0.093024 0.093024 0.093024
0.093024 0.093024 0.093024
0.093024 0.093024 0.093024
0.093075 0.093075 0.093075
0.093291 0.093291 0.093291
0.093387 0.093387 0.093387
0.093781 0.093781 0.093781
0.095258 0.095258 0.095258
0.096203 0.096203 0.096203
0.098779 0.098779 0.098779
0.113468 0.113468 0.113468
0.143406 0.143406 0.143406
0.184401 0.184401 0.184401
0.258952 0.258952 0.258952
0.389995 0.389995 0.389995
0.507746 0.507746 0.507746
0.640105 0.640105 0.640105
0.773519 0.773519 0.773519
0.863775 0.863775 0.863775
0.923201 0.923201 0.923201
0.959232 0.959232 0.959232
0.976563 0.976563 0.976563
0.985307 0.985307 0.985307
0.990225 0.990225 0.990225
0.992975 0.992975 0.992975
0.994438 0.994438 0.994438
0.996204 0.996204 0.996204
0.997070 0.997070 0.997070
0.997914 0.997914 0.997914
0.997914 0.997914 0.997914
0.997914 0.997914 0.997914
0.997914 0.997914 0.997914
0.997914 0.997914 0.997914
0.093024 0.093024 0.093024
0.093024 0.093024 0.093024
0.093024 0.093024 0.093024
0.093048 0.093048 0.093048
0.093233 0.093233 0.093233
0.093382 0.093382 0.093382
0.093958 0.093958 0.093958
0.096342 0.096342 0.096342
0.097833 0.097833 0.097833
0.101964 0.101964 0.101964
0.129604 0.129604 0.129604
0.161566 0.161566 0.161566
0.202682 0.202682 0.202682
0.274822 0.274822 0.274822
0.402941 0.402941 0.402941
0.513816 0.513816 0.513816
0.641047 0.641047 0.641047
0.771582 0.771582 0.771582
0.861136 0.861136 0.861136
0.920999 0.920999 0.920999
0.957693 0.957693 0.957693
0.975893 0.975893 0.975893
0.985031 0.985031 0.985031
0.989974 0.989974 0.989974
0.992882 0.992882 0.992882
0.994363 0.994363 0.994363
0.996141 0.996141 0.996141
0.997029 0.997029 0.997029
0.997914 0.997914 0.997914
0.997914 0.997914 0.997914
0.997914 0.997914 0.997914
0.997914 0.997914 0.997914
0.997914 0.997914 0.997914
0.093024 0.093024 0.093024
0.093024 0.093024 0.093024
0.093024 0.093024 0.093024
0.093049 0.093049 0.093049
0.093154 0.093154 0.093154
0.093310 0.093310 0.093310
0.093809 0.093809 0.093809
0.096273 0.096273 0.096273
0.098835 0.098835 0.098835
0.106082 0.106082 0.106082
0.146375 0.146375 0.146375
0.182329 0.182329 0.182329
0.226754 0.226754 0.226754
0.301795 0.301795 0.301795
0.427965 0.427965 0.427965
0.526035 0.526035 0.526035
0.644068 0.644068 0.644068
0.769161 0.769161 0.769161
0.857178 0.857178 0.857178
0.917454 0.917454 0.917454
0.955214 0.955214 0.955214
0.974805 0.974805 0.974805
0.984581 0.984581 0.984581
0.989563 0.989563 0.989563
0.992730 0.992730 0.992730
0.994239 0.994239 0.994239
0.996037 0.996037 0.996037
0.996959 0.996959 0.996959
0.997914 0.997914 0.997914
0.997914 0.997914 0.997914
0.997914 0.997914 0.997914
0.997914 0.997914 0.997914
0.997914 0.997914 0.997914
0.093024 0.093024 0.093024
0.093024 0.093024 0.093024
0.093024 0.093024 0.093024
0.093031 0.093031 0.093031
0.093086 0.093086 0.093086
0.093231 0.093231 0.093231
0.093513 0.093513 0.093513
0.095336 0.095336 0.095336
0.097733 0.097733 0.097733
0.105697 0.105697 0.105697
0.150677 0.150677 0.150677
0.197493 0.197493 0.197493
0.248314 0.248314 0.248314
0.325067 0.325067 0.325067
0.445258 0.445258 0.445258
0.539571 0.539571 0.539571
0.649628 0.649628 0.649628
0.767204 0.767204 0.767204
0.851959 0.851959 0.851959
0.910734 0.910734 0.910734
0.951506 0.951506 0.951506
0.973152 0.973152 0.973152
0.983891 0.983891 0.983891
0.988927 0.988927 0.988927
0.992494 0.992494 0.992494
0.994046 0.994046 0.994046
0.995873 0.995873 0.995873
0.996847 0.996847 0.996847
0.997914 0.997914 0.997914
0.997914 0.997914 0.997914
0.997914 0.997914 0.997914
0.997914 0.997914 0.997914
0.997914 0.997914 0.997914
0.093024 0.093024 0.093024
0.093024 0.093024 0.093024
0.093024 0.093024 0.093024
0.093032 0.093032 0.093032
0.093080 0.093080 0.093080
0.093202 0.093202 0.093202
0.093389 0.093389 0.093389
0.094449 0.094449 0.094449
0.096412 0.096412 0.096412
0.101918 0.101918 0.101918
0.142670 0.142670 0.142670
0.196297 0.196297 0.196297
0.253801 0.253801 0.253801
0.338334 0.338334 0.338334
0.462058 0.462058 0.462058
0.556536 0.556536 0.556536
0.655303 0.655303 0.655303
0.765842 0.765842 0.765842
0.847659 0.847659 0.847659
0.903788 0.903788 0.903788
0.945765 0.945765 0.945765
0.970690 0.970690 0.970690
0.982313 0.982313 0.982313
0.987955 0.987955 0.987955
0.992077 0.992077 0.992077
0.993750 0.993750 0.993750
0.995614 0.995614 0.995614
0.996669 0.996669 0.996669
0.997914 0.997914 0.997914
0.997914 0.997914 0.997914
0.997914 0.997914 0.997914
0.997914 0.997914 0.997914
0.997914 0.997914 0.997914
0.093024 0.093024 0.093024
0.093024 0.093024 0.093024
0.093024 0.093024 0.093024
0.093040 0.093040 0.093040
0.093082 0.093082 0.093082
0.093194 0.093194 0.093194
0.093371 0.093371 0.093371
0.093866 0.093866 0.093866
0.095247 0.095247 0.095247
0.099085 0.099085 0.099085
0.127266 0.127266 0.127266
0.178537 0.178537 0.178537
0.241389 0.241389 0.241389
0.334305 0.334305 0.334305
0.466137 0.466137 0.466137
0.560861 0.560861 0.560861
0.658768 0.658768 0.658768
0.765444 0.765444 0.765444
0.843774 0.843774 0.843774
0.897961 0.897961 0.897961
0.940382 0.940382 0.940382
0.967448 0.967448 0.967448
0.980049 0.980049 0.980049
0.986739 0.986739 0.986739
0.990821 0.990821 0.990821
0.993281 0.993281 0.993281
0.995189 0.995189 0.995189
0.996371 0.996371 0.996371
0.997914 0.997914 0.997914
0.997914 0.997914 0.997914
0.997914 0.997914 0.997914
0.997914 0.997914 0.997914
0.997914 0.997914 0.997914
0.093024 0.093024 0.093024
0.093024 0.093024 0.093024
0.093024 0.093024 0.093024
0.093037 0.093037 0.093037
0.093072 0.093072 0.093072
0.093147 0.093147 0.093147
0.093292 0.093292 0.093292
0.093499 0.093499 0.093499
0.094465 0.094465 0.094465
0.096940 0.096940 0.096940
0.112564 0.112564 0.112564
0.155760 0.155760 0.155760
0.217564 0.217564 0.217564
0.311539 0.311539 0.311539
0.451849 0.451849 0.451849
0.553112 0.553112 0.553112
0.656197 0.656197 0.656197
0.763052 0.763052 0.763052
0.840002 0.840002 0.840002
0.891947 0.891947 0.891947
0.933521 0.933521 0.933521
0.962782 0.962782 0.962782
0.977935 0.977935 0.977935
0.985843 0.985843 0.985843
0.990054 0.990054 0.990054
0.992885 0.992885 0.992885
0.994694 0.994694 0.994694
0.995883 0.995883 0.995883
0.997914 0.997914 0.997914
0.997914 0.997914 0.997914
0.997914 0.997914 0.997914
0.997914 0.997914 0.997914
0.997914 0.997914 0.997914
0.093024 0.093024 0.093024
0.093024 0.093024 0.093024
0.093024 0.093024 0.093024
0.093041 0.093041 0.093041
0.093071 0.093071 0.093071
0.093131 0.093131 0.093131
0.093253 0.093253 0.093253
0.093408 0.093408 0.093408
0.093924 0.093924 0.093924
0.095851 0.095851 0.095851
0.103490 0.103490 0.103490
0.134924 0.134924 0.134924
0.188164 0.188164 0.188164
0.277772 0.277772 0.277772
0.422234 0.422234 0.422234
0.530058 0.530058 0.530058
0.641553 0.641553 0.641553
0.755202 0.755202 0.755202
0.835387 0.835387 0.835387
0.886593 0.886593 0.886593
0.928257 0.928257 0.928257
0.958282 0.958282 0.958282
0.975349 0.975349 0.975349
0.984598 0.984598 0.984598
0.988990 0.988990 0.988990
0.992492 0.992492 0.992492
0.994374 0.994374 0.994374
0.995647 0.995647 0.995647
0.996911 0.996911 0.996911
0.997697 0.997697 0.997697
0.997900 0.997900 0.997900
0.997914 0.997914 0.997914
0.997914 0.997914 0.997914
0.093024 0.093024 0.093024
0.093026 0.093026 0.093026
0.093034 0.093034 0.093034
0.093053 0.093053 0.093053
0.093080 0.093080 0.093080
0.093143 0.093143 0.093143
0.093257 0.093257 0.093257
0.093403 0.093403 0.093403
0.093883 0.093883 0.093883
0.095623 0.095623 0.095623
0.099723 0.099723 0.099723
0.118101 0.118101 0.118101
0.161287 0.161287 0.161287
0.242223 0.242223 0.242223
0.378262 0.378262 0.378262
0.494708 0.494708 0.494708
0.613243 0.613243 0.613243
0.736933 0.736933 0.736933
0.827864 0.827864 0.827864
0.880161 0.880161 0.880161
0.922497 0.922497 0.922497
0.953887 0.953887 0.953887
0.973261 0.973261 0.973261
0.983539 0.983539 0.983539
0.987796 0.987796 0.987796
0.991627 0.991627 0.991627
0.993909 0.993909 0.993909
0.995304 0.995304 0.995304
0.996658 0.996658 0.996658
0.997545 0.997545 0.997545
0.997893 0.997893 0.997893
0.997914 0.997914 0.997914
0.997914 0.997914 0.997914
0.093032 0.093032 0.093032
0.093034 0.093034 0.093034
0.093041 0.093041 0.093041
0.093057 0.093057 0.093057
0.093080 0.093080 0.093080
0.093136 0.093136 0.093136
0.093238 0.093238 0.093238
0.093369 0.093369 0.093369
0.093706 0.093706 0.093706
0.094815 0.094815 0.094815
0.097440 0.097440 0.097440
0.106897 0.106897 0.106897
0.139705 0.139705 0.139705
0.208546 0.208546 0.208546
0.331960 0.331960 0.331960
0.451876 0.451876 0.451876
0.571910 0.571910 0.571910
0.705616 0.705616 0.705616
0.815426 0.815426 0.815426
0.871105 0.871105 0.871105
0.916225 0.916225 0.916225
0.949922 0.949922 0.949922
0.971041 0.971041 0.971041
0.981193 0.981193 0.981193
0.986732 0.986732 0.986732
0.990731 0.990731 0.990731
0.993448 0.993448 0.993448
0.994849 0.994849 0.994849
0.996259 0.996259 0.996259
0.997296 0.997296 0.997296
0.997874 0.997874 0.997874
0.997914 0.997914 0.997914
0.997914 0.997914 0.997914
0.093038 0.093038 0.093038
0.093040 0.093040 0.093040
0.093046 0.093046 0.093046
0.093060 0.093060 0.093060
0.093081 0.093081 0.093081
0.093130 0.093130 0.093130
0.093216 0.093216 0.093216
0.093334 0.093334 0.093334
0.093529 0.093529 0.093529
0.094239 0.094239 0.094239
0.096208 0.096208 0.096208
0.100532 0.100532 0.100532
0.123342 0.123342 0.123342
0.178480 0.178480 0.178480
0.288076 0.288076 0.288076
0.404626 0.404626 0.404626
0.525000 0.525000 0.525000
0.666805 0.666805 0.666805
0.795625 0.795625 0.795625
0.857165 0.857165 0.857165
0.906675 0.906675 0.906675
0.944192 0.944192 0.944192
0.967689 0.967689 0.967689
0.979006 0.979006 0.979006
0.985598 0.985598 0.985598
0.989530 0.989530 0.989530
0.992987 0.992987 0.992987
0.994496 0.994496 0.994496
0.995937 0.995937 0.995937
0.996986 0.996986 0.996986
0.997789 0.997789 0.997789
0.997914 0.997914 0.997914
0.997914 0.997914 0.997914
0.093047 0.093047 0.093047
0.093049 0.093049 0.093049
0.093054 0.093054 0.093054
0.093066 0.093066 0.093066
0.093090 0.093090 0.093090
0.093134 0.093134 0.093134
0.093211 0.093211 0.093211
0.093321 0.093321 0.093321
0.093441 0.093441 0.093441
0.093941 0.093941 0.093941
0.095524 0.095524 0.095524
0.098916 0.098916 0.098916
0.112006 0.112006 0.112006
0.154949 0.154949 0.154949
0.248817 0.248817 0.248817
0.355112 0.355112 0.355112
0.477907 0.477907 0.477907
0.622906 0.622906 0.622906
0.767723 0.767723 0.767723
0.840075 0.840075 0.840075
0.895531 0.895531 0.895531
0.936976 0.936976 0.936976
0.963375 0.963375 0.963375
0.976711 0.976711 0.976711
0.984518 0.984518 0.984518
0.988579 0.988579 0.988579
0.992499 0.992499 0.992499
0.994007 0.994007 0.994007
0.995573 0.995573 0.995573
0.996746 0.996746 0.996746
0.997652 0.997652 0.997652
0.997870 0.997870 0.997870
0.997912 0.997912 0.997912
0.093058 0.093058 0.093058
0.093060 0.093060 0.093060
0.093065 0.093065 0.093065
0.093076 0.093076 0.093076
0.093105 0.093105 0.093105
0.093148 0.093148 0.093148
0.093224 0.093224 0.093224
0.093326 0.093326 0.093326
0.093438 0.093438 0.093438
0.093910 0.093910 0.093910
0.095321 0.095321 0.095321
0.098259 0.098259 0.098259
0.108638 0.108638 0.108638
0.146772 0.146772 0.146772
0.216206 0.216206 0.216206
0.309337 0.309337 0.309337
0.432263 0.432263 0.432263
0.571143 0.571143 0.571143
0.731922 0.731922 0.731922
0.819895 0.819895 0.819895
0.882342 0.882342 0.882342
0.928845 0.928845 0.928845
0.958762 0.958762 0.958762
0.974499 0.974499 0.974499
0.983554 0.983554 0.983554
0.987523 0.987523 0.987523
0.991836 0.991836 0.991836
0.993632 0.993632 0.993632
0.995188 0.995188 0.995188
0.996400 0.996400 0.996400
0.997439 0.997439 0.997439
0.997852 0.997852 0.997852
0.997910 0.997910 0.997910
0.093065 0.093065 0.093065
0.093066 0.093066 0.093066
0.093071 0.093071 0.093071
0.093081 0.093081 0.093081
0.093108 0.093108 0.093108
0.093151 0.093151 0.093151
0.093223 0.093223 0.093223
0.093312 0.093312 0.093312
0.093417 0.093417 0.093417
0.093799 0.093799 0.093799
0.094803 0.094803 0.094803
0.096889 0.096889 0.096889
0.102667 0.102667 0.102667
0.128948 0.128948 0.128948
0.183838 0.183838 0.183838
0.270627 0.270627 0.270627
0.381432 0.381432 0.381432
0.520704 0.520704 0.520704
0.684629 0.684629 0.684629
0.794672 0.794672 0.794672
0.865047 0.865047 0.865047
0.919345 0.919345 0.919345
0.953691 0.953691 0.953691
0.972352 0.972352 0.972352
0.981742 0.981742 0.981742
0.986577 0.986577 0.986577
0.990856 0.990856 0.990856
0.993174 0.993174 0.993174
0.994806 0.994806 0.994806
0.996134 0.996134 0.996134
0.997208 0.997208 0.997208
0.997819 0.997819 0.997819
0.997902 0.997902 0.997902
0.093071 0.093071 0.093071
0.093072 0.093072 0.093072
0.093077 0.093077 0.093077
0.093087 0.093087 0.093087
0.093112 0.093112 0.093112
0.093155 0.093155 0.093155
0.093215 0.093215 0.093215
0.093299 0.093299 0.093299
0.093399 0.093399 0.093399
0.093691 0.093691 0.093691
0.094434 0.094434 0.094434
0.096173 0.096173 0.096173
0.099936 0.099936 0.099936
0.115258 0.115258 0.115258
0.158421 0.158421 0.158421
0.232331 0.232331 0.232331
0.337252 0.337252 0.337252
0.473125 0.473125 0.473125
0.637830 0.637830 0.637830
0.762807 0.762807 0.762807
0.844002 0.844002 0.844002
0.905568 0.905568 0.905568
0.947779 0.947779 0.947779
0.970021 0.970021 0.970021
0.979665 0.979665 0.979665
0.985717 0.985717 0.985717
0.989862 0.989862 0.989862
0.992769 0.992769 0.992769
0.994428 0.994428 0.994428
0.995782 0.995782 0.995782
0.996978 0.996978 0.996978
0.997768 0.997768 0.997768
0.997881 0.997881 0.997881
0.093078 0.093078 0.093078
0.093079 0.093079 0.093079
0.093084 0.093084 0.093084
0.093097 0.093097 0.093097
0.093119 0.093119 0.093119
0.093165 0.093165 0.093165
0.093217 0.093217 0.093217
0.093300 0.093300 0.093300
0.093392 0.093392 0.093392
0.093630 0.093630 0.093630
0.094207 0.094207 0.094207
0.095734 0.095734 0.095734
0.098797 0.098797 0.098797
0.108753 0.108753 0.108753
0.144152 0.144152 0.144152
0.206999 0.206999 0.206999
0.301074 0.301074 0.301074
0.430470 0.430470 0.430470
0.587397 0.587397 0.587397
0.722476 0.722476 0.722476
0.821706 0.821706 0.821706
0.890243 0.890243 0.890243
0.937920 0.937920 0.937920
0.964653 0.964653 0.964653
0.977587 0.977587 0.977587
0.984875 0.984875 0.984875
0.988989 0.988989 0.988989
0.992377 0.992377 0.992377
0.994021 0.994021 0.994021
0.995491 0.995491 0.995491
0.996734 0.996734 0.996734
0.997586 0.997586 0.997586
0.997868 0.997868 0.997868
0.093090 0.093090 0.093090
0.093092 0.093092 0.093092
0.093098 0.093098 0.093098
0.093110 0.093110 0.093110
0.093131 0.093131 0.093131
0.093174 0.093174 0.093174
0.093229 0.093229 0.093229
0.093307 0.093307 0.093307
0.093391 0.093391 0.093391
0.093623 0.093623 0.093623
0.094143 0.094143 0.094143
0.095559 0.095559 0.095559
0.098145 0.098145 0.098145
0.105540 0.105540 0.105540
0.135979 0.135979 0.135979
0.194211 0.194211 0.194211
0.280788 0.280788 0.280788
0.402410 0.402410 0.402410
0.538629 0.538629 0.538629
0.675740 0.675740 0.675740
0.795889 0.795889 0.795889
0.874103 0.874103 0.874103
0.927347 0.927347 0.927347
0.958906 0.958906 0.958906
0.975336 0.975336 0.975336
0.984039 0.984039 0.984039
0.988190 0.988190 0.988190
0.991794 0.991794 0.991794
0.993692 0.993692 0.993692
0.995166 0.995166 0.995166
0.996486 0.996486 0.996486
0.997448 0.997448 0.997448
0.997852 0.997852 0.997852
0.093096 0.093096 0.093096
0.093098 0.093098 0.093098
0.093103 0.093103 0.093103
0.093114 0.093114 0.093114
0.093135 0.093135 0.093135
0.093173 0.093173 0.093173
0.093228 0.093228 0.093228
0.093294 0.093294 0.093294
0.093379 0.093379 0.093379
0.093551 0.093551 0.093551
0.093926 0.093926 0.093926
0.094988 0.094988 0.094988
0.096963 0.096963 0.096963
0.101742 0.101742 0.101742
0.122983 0.122983 0.122983
0.169404 0.169404 0.169404
0.244915 0.244915 0.244915
0.352416 0.352416 0.352416
0.484284 0.484284 0.484284
0.632026 0.632026 0.632026
0.764615 0.764615 0.764615
0.852486 0.852486 0.852486
0.915764 0.915764 0.915764
0.952777 0.952777 0.952777
0.973031 0.973031 0.973031
0.983028 0.983028 0.983028
0.987407 0.987407 0.987407
0.991054 0.991054 0.991054
0.993358 0.993358 0.993358
0.994846 0.994846 0.994846
0.996251 0.996251 0.996251
0.997272 0.997272 0.997272
0.997837 0.997837 0.997837
0.093102 0.093102 0.093102
0.093104 0.093104 0.093104
0.093109 0.093109 0.093109
0.093118 0.093118 0.093118
0.093139 0.093139 0.093139
0.093173 0.093173 0.093173
0.093230 0.093230 0.093230
0.093288 0.093288 0.093288
0.093374 0.093374 0.093374
0.093473 0.093473 0.093473
0.093853 0.093853 0.093853
0.094765 0.094765 0.094765
0.096462 0.096462 0.096462
0.099996 0.099996 0.099996
0.113679 0.113679 0.113679
0.152418 0.152418 0.152418
0.217283 0.217283 0.217283
0.311928 0.311928 0.311928
0.441799 0.441799 0.441799
0.579234 0.579234 0.579234
0.727554 0.727554 0.727554
0.830649 0.830649 0.830649
0.900268 0.900268 0.900268
0.945249 0.945249 0.945249
0.970524 0.970524 0.970524
0.981083 0.981083 0.981083
0.986655 0.986655 0.986655
0.990401 0.990401 0.990401
0.993045 0.993045 0.993045
0.994566 0.994566 0.994566
0.995997 0.995997 0.995997
0.997116 0.997116 0.997116
0.997822 0.997822 0.997822
0.093109 0.093109 0.093109
0.093110 0.093110 0.093110
0.093115 0.093115 0.093115
0.093124 0.093124 0.093124
0.093145 0.093145 0.093145
0.093176 0.093176 0.093176
0.093232 0.093232 0.093232
0.093287 0.093287 0.093287
0.093363 0.093363 0.093363
0.093442 0.093442 0.093442
0.093810 0.093810 0.093810
0.094530 0.094530 0.094530
0.096047 0.096047 0.096047
0.099046 0.099046 0.099046
0.108571 0.108571 0.108571
0.140643 0.140643 0.140643
0.197509 0.197509 0.197509
0.283412 0.283412 0.283412
0.404111 0.404111 0.404111
0.540736 0.540736 0.540736
0.686737 0.686737 0.686737
0.809063 0.809063 0.809063
0.884595 0.884595 0.884595
0.934799 0.934799 0.934799
0.965424 0.965424 0.965424
0.978982 0.978982 0.978982
0.985916 0.985916 0.985916
0.989797 0.989797 0.989797
0.992777 0.992777 0.992777
0.994300 0.994300 0.994300
0.995768 0.995768 0.995768
0.996953 0.996953 0.996953
0.997805 0.997805 0.997805
0.093113 0.093113 0.093113
0.093114 0.093114 0.093114
0.093118 0.093118 0.093118
0.093128 0.093128 0.093128
0.093148 0.093148 0.093148
0.093177 0.093177 0.093177
0.093228 0.093228 0.093228
0.093286 0.093286 0.093286
0.093354 0.093354 0.093354
0.093436 0.093436 0.093436
0.093740 0.093740 0.093740
0.094358 0.094358 0.094358
0.095756 0.095756 0.095756
0.098099 0.098099 0.098099
0.104583 0.104583 0.104583
0.130219 0.130219 0.130219
0.180473 0.180473 0.180473
0.259233 0.259233 0.259233
0.370559 0.370559 0.370559
0.504310 0.504310 0.504310
0.652221 0.652221 0.652221
0.783773 0.783773 0.783773
0.867173 0.867173 0.867173
0.924192 0.924192 0.924192
0.959556 0.959556 0.959556
0.976767 0.976767 0.976767
0.985151 0.985151 0.985151
0.989208 0.989208 0.989208
0.992559 0.992559 0.992559
0.994071 0.994071 0.994071
0.995559 0.995559 0.995559
0.996787 0.996787 0.996787
0.997735 0.997735 0.997735
0.093110 0.093110 0.093110
0.093111 0.093111 0.093111
0.093116 0.093116 0.093116
0.093123 0.093123 0.093123
0.093142 0.093142 0.093142
0.093169 0.093169 0.093169
0.093213 0.093213 0.093213
0.093274 0.093274 0.093274
0.093336 0.093336 0.093336
0.093416 0.093416 0.093416
0.093647 0.093647 0.093647
0.094105 0.094105 0.094105
0.095144 0.095144 0.095144
0.097026 0.097026 0.097026
0.101632 0.101632 0.101632
0.120132 0.120132 0.120132
0.161005 0.161005 0.161005
0.230734 0.230734 0.230734
0.330842 0.330842 0.330842
0.461515 0.461515 0.461515
0.607014 0.607014 0.607014
0.752489 0.752489 0.752489
0.844810 0.844810 0.844810
0.912032 0.912032 0.912032
0.953521 0.953521 0.953521
0.974476 0.974476 0.974476
0.984366 0.984366 0.984366
0.988623 0.988623 0.988623
0.992356 0.992356 0.992356
0.993887 0.993887 0.993887
0.995376 0.995376 0.995376
0.996643 0.996643 0.996643
0.997657 0.997657 0.997657
0.093108 0.093108 0.093108
0.093109 0.093109 0.093109
0.093113 0.093113 0.093113
0.093120 0.093120 0.093120
0.093136 0.093136 0.093136
0.093161 0.093161 0.093161
0.093200 0.093200 0.093200
0.093264 0.093264 0.093264
0.093321 0.093321 0.093321
0.093393 0.093393 0.093393
0.093576 0.093576 0.093576
0.093907 0.093907 0.093907
0.094836 0.094836 0.094836
0.096534 0.096534 0.096534
0.099835 0.099835 0.099835
0.112038 0.112038 0.112038
0.147711 0.147711 0.147711
0.209402 0.209402 0.209402
0.299888 0.299888 0.299888
0.426568 0.426568 0.426568
0.563425 0.563425 0.563425
0.712910 0.712910 0.712910
0.823741 0.823741 0.823741
0.896367 0.896367 0.896367
0.946865 0.946865 0.946865
0.972087 0.972087 0.972087
0.983586 0.983586 0.983586
0.988032 0.988032 0.988032
0.992165 0.992165 0.992165
0.993745 0.993745 0.993745
0.995232 0.995232 0.995232
0.996521 0.996521 0.996521
0.997582 0.997582 0.997582
0.093102 0.093102 0.093102
0.093104 0.093104 0.093104
0.093107 0.093107 0.093107
0.093114 0.093114 0.093114
0.093126 0.093126 0.093126
0.093151 0.093151 0.093151
0.093184 0.093184 0.093184
0.093244 0.093244 0.093244
0.093305 0.093305 0.093305
0.093372 0.093372 0.093372
0.093512 0.093512 0.093512
0.093813 0.093813 0.093813
0.094618 0.094618 0.094618
0.095977 0.095977 0.095977
0.098797 0.098797 0.098797
0.106785 0.106785 0.106785
0.135171 0.135171 0.135171
0.188351 0.188351 0.188351
0.271049 0.271049 0.271049
0.388704 0.388704 0.388704
0.524921 0.524921 0.524921
0.675749 0.675749 0.675749
0.804055 0.804055 0.804055
0.881813 0.881813 0.881813
0.936701 0.936701 0.936701
0.969142 0.969142 0.969142
0.982184 0.982184 0.982184
0.987474 0.987474 0.987474
0.991799 0.991799 0.991799
0.993640 0.993640 0.993640
0.995122 0.995122 0.995122
0.996423 0.996423 0.996423
0.997544 0.997544 0.997544
0.093081 0.093081 0.093081
0.093081 0.093081 0.093081
0.093085 0.093085 0.093085
0.093092 0.093092 0.093092
0.093104 0.093104 0.093104
0.093120 0.093120 0.093120
0.093151 0.093151 0.093151
0.093202 0.093202 0.093202
0.093267 0.093267 0.093267
0.093331 0.093331 0.093331
0.093414 0.093414 0.093414
0.093664 0.093664 0.093664
0.094098 0.094098 0.094098
0.095278 0.095278 0.095278
0.097172 0.097172 0.097172
0.101979 0.101979 0.101979
0.122992 0.122992 0.122992
0.167551 0.167551 0.167551
0.240016 0.240016 0.240016
0.345610 0.345610 0.345610
0.480775 0.480775 0.480775
0.633320 0.633320 0.633320
0.775458 0.775458 0.775458
0.865295 0.865295 0.865295
0.927224 0.927224 0.927224
