trix_classic/TriX_Green58_Hard.cube
TITLE "Tri-X Green58 Hard"
# Adobe RGB in/out. REPLACES AgX. R=0.1714 G=0.8069 B=0.0217
LUT_3D_SIZE 9
DOMAIN_MIN 0.0 0.0 0.0
DOMAIN_MAX 1.0 1.0 1.0
0.093024 0.093024 0.093024
0.093024 0.093024 0.093024
0.093024 0.093024 0.093024
0.093024 0.093024 0.093024
0.093024 0.093024 0.093024
0.093024 0.093024 0.093024
0.093024 0.093024 0.093024
0.093024 0.093024 0.093024
0.093024 0.093024 0.093024
0.093024 0.093024 0.093024
0.093024 0.093024 0.093024
0.093024 0.093024 0.093024
0.093024 0.093024 0.093024
0.093024 0.093024 0.093024
0.093024 0.093024 0.093024
0.093024 0.093024 0.093024
0.093024 0.093024 0.093024
0.093024 0.093024 0.093024
0.093024 0.093024 0.093024
0.093024 0.093024 0.093024
0.093024 0.093024 0.093024
0.093024 0.093024 0.093024
0.093024 0.093024 0.093024
0.093024 0.093024 0.093024
0.093024 0.093024 0.093024
0.093024 0.093024 0.093024
0.093024 0.093024 0.093024
0.093024 0.093024 0.093024
0.093024 0.093024 0.093024
0.093024 0.093024 0.093024
0.093024 0.093024 0.093024
0.093024 0.093024 0.093024
0.093024 0.093024 0.093024
0.093024 0.093024 0.093024
0.093024 0.093024 0.093024
0.093024 0.093024 0.093024
0.093024 0.093024 0.093024
0.093024 0.093024 0.093024
0.093024 0.093024 0.093024
0.093024 0.093024 0.093024
0.093024 0.093024 0.093024
0.093024 0.093024 0.093024
0.093024 0.093024 0.093024
0.093024 0.093024 0.093024
0.093024 0.093024 0.093024
0.093024 0.093024 0.093024
0.093024 0.093024 0.093024
0.093024 0.093024 0.093024
0.093024 0.093024 0.093024
0.093024 0.093024 0.093024
0.093024 0.093024 0.093024
0.093024 0.093024 0.093024
0.093024 0.093024 0.093024
0.093024 0.093024 0.093024
0.093024 0.093024 0.093024
0.093024 0.093024 0.093024
0.093024 0.093024 0.093024
0.093024 0.093024 0.093024
0.093024 0.093024 0.093024
0.093024 0.093024 0.093024
0.093024 0.093024 0.093024
0.093024 0.093024 0.093024
0.093024 0.093024 0.093024
0.093024 0.093024 0.093024
0.093024 0.093024 0.093024
0.093024 0.093024 0.093024
0.093024 0.093024 0.093024
0.093024 0.093024 0.093024
0.093024 0.093024 0.093024
0.093024 0.093024 0.093024
0.093024 0.093024 0.093024
0.093024 0.093024 0.093024
0.093024 0.093024 0.093024
0.093024 0.093024 0.093024
0.093024 0.093024 0.093024
0.093024 0.093024 0.093024
0.093024 0.093024 0.093024
0.093024 0.093024 0.093024
0.093024 0.093024 0.093024
0.093024 0.093024 0.093024
0.093024 0.093024 0.093024
0.093024 0.093024 0.093024
0.093024 0.093024 0.093024
0.093024 0.093024 0.093024
0.093024 0.093024 0.093024
0.093024 0.093024 0.093024
0.093024 0.093024 0.093024
0.093024 0.093024 0.093024
0.093024 0.093024 0.093024
0.093024 0.093024 0.093024
0.093024 0.093024 0.093024
0.093321 0.093321 0.093321
0.093399 0.093399 0.093399
0.093454 0.093454 0.093454
0.093595 0.093595 0.093595
0.093705 0.093705 0.093705
0.093795 0.093795 0.093795
0.093871 0.093871 0.093871
0.093937 0.093937 0.093937
0.093024 0.093024 0.093024
0.095994 0.095994 0.095994
0.098604 0.098604 0.098604
0.101278 0.101278 0.101278
0.105620 0.105620 0.105620
0.112245 0.112245 0.112245
0.119489 0.119489 0.119489
0.126773 0.126773 0.126773
0.133738 0.133738 0.133738
0.093024 0.093024 0.093024
0.124983 0.124983 0.124983
0.172173 0.172173 0.172173
0.215684 0.215684 0.215684
0.254014 0.254014 0.254014
0.289067 0.289067 0.289067
0.321988 0.321988 0.321988
0.352730 0.352730 0.352730
0.381723 0.381723 0.381723
0.093024 0.093024 0.093024
0.249443 0.249443 0.249443
0.374580 0.374580 0.374580
0.468040 0.468040 0.468040
0.539498 0.539498 0.539498
0.602505 0.602505 0.602505
0.653539 0.653539 0.653539
0.696996 0.696996 0.696996
0.736969 0.736969 0.736969
0.093024 0.093024 0.093024
0.457067 0.457067 0.457067
0.640545 0.640545 0.640545
0.755078 0.755078 0.755078
0.814722 0.814722 0.814722
0.851677 0.851677 0.851677
0.881017 0.881017 0.881017
0.901930 0.901930 0.901930
0.919761 0.919761 0.919761
0.093024 0.093024 0.093024
0.686296 0.686296 0.686296
0.841922 0.841922 0.841922
0.903447 0.903447 0.903447
0.937223 0.937223 0.937223
0.956660 0.956660 0.956660
0.969508 0.969508 0.969508
0.974908 0.974908 0.974908
0.979343 0.979343 0.979343
0.093024 0.093024 0.093024
0.847391 0.847391 0.847391
0.940705 0.940705 0.940705
0.970887 0.970887 0.970887
0.980428 0.980428 0.980428
0.985351 0.985351 0.985351
0.988097 0.988097 0.988097
0.990425 0.990425 0.990425
0.992299 0.992299 0.992299
0.093024 0.093024 0.093024
0.933822 0.933822 0.933822
0.978280 0.978280 0.978280
0.987125 0.987125 0.987125
0.991469 0.991469 0.991469
0.993383 0.993383 0.993383
0.994631 0.994631 0.994631
0.995687 0.995687 0.995687
0.996602 0.996602 0.996602
0.093024 0.093024 0.093024
0.093024 0.093024 0.093024
0.093024 0.093024 0.093024
0.093024 0.093024 0.093024
0.093024 0.093024 0.093024
0.093024 0.093024 0.093024
0.093024 0.093024 0.093024
0.093024 0.093024 0.093024
0.093024 0.093024 0.093024
0.093024 0.093024 0.093024
0.093331 0.093331 0.093331
0.093409 0.093409 0.093409
0.093497 0.093497 0.093497
0.093638 0.093638 0.093638
0.093748 0.093748 0.093748
0.093838 0.093838 0.093838
0.093914 0.093914 0.093914
0.093995 0.093995 0.093995
0.093024 0.093024 0.093024
0.096214 0.096214 0.096214
0.099130 0.099130 0.099130
0.102586 0.102586 0.102586
0.108147 0.108147 0.108147
0.115237 0.115237 0.115237
0.123592 0.123592 0.123592
0.131137 0.131137 0.131137
0.139308 0.139308 0.139308
0.093024 0.093024 0.093024
0.129274 0.129274 0.129274
0.180507 0.180507 0.180507
0.226744 0.226744 0.226744
0.267040 0.267040 0.267040
0.304505 0.304505 0.304505
0.339183 0.339183 0.339183
0.371567 0.371567 0.371567
0.402109 0.402109 0.402109
0.093024 0.093024 0.093024
0.262235 0.262235 0.262235
0.394584 0.394584 0.394584
0.488795 0.488795 0.488795
0.563503 0.563503 0.563503
0.628282 0.628282 0.628282
0.677989 0.677989 0.677989
0.723072 0.723072 0.723072
0.758889 0.758889 0.758889
0.093024 0.093024 0.093024
0.477335 0.477335 0.477335
0.664509 0.664509 0.664509
0.773618 0.773618 0.773618
0.829092 0.829092 0.829092
0.866699 0.866699 0.866699
0.892889 0.892889 0.892889
0.914084 0.914084 0.914084
0.929017 0.929017 0.929017
0.093024 0.093024 0.093024
0.711972 0.711972 0.711972
0.856771 0.856771 0.856771
0.915621 0.915621 0.915621
0.946654 0.946654 0.946654
0.962836 0.962836 0.962836
0.972716 0.972716 0.972716
0.977827 0.977827 0.977827
0.982275 0.982275 0.982275
0.093024 0.093024 0.093024
0.862337 0.862337 0.862337
0.949503 0.949503 0.949503
0.973794 0.973794 0.973794
0.983320 0.983320 0.983320
0.986675 0.986675 0.986675
0.989425 0.989425 0.989425
0.991755 0.991755 0.991755
0.992900 0.992900 0.992900
0.093024 0.093024 0.093024
0.943219 0.943219 0.943219
0.981209 0.981209 0.981209
0.988451 0.988451 0.988451
0.992459 0.992459 0.992459
0.993985 0.993985 0.993985
0.995233 0.995233 0.995233
0.996290 0.996290 0.996290
0.997206 0.997206 0.997206
0.093024 0.093024 0.093024
0.093024 0.093024 0.093024
0.093024 0.093024 0.093024
0.093024 0.093024 0.093024
0.093024 0.093024 0.093024
0.093024 0.093024 0.093024
0.093024 0.093024 0.093024
0.093024 0.093024 0.093024
0.093024 0.093024 0.093024
0.093024 0.093024 0.093024
0.093337 0.093337 0.093337
0.093415 0.093415 0.093415
0.093522 0.093522 0.093522
0.093664 0.093664 0.093664
0.093774 0.093774 0.093774
0.093863 0.093863 0.093863
0.093939 0.093939 0.093939
0.094070 0.094070 0.094070
0.093024 0.093024 0.093024
0.096347 0.096347 0.096347
0.099439 0.099439 0.099439
0.103359 0.103359 0.103359
0.109689 0.109689 0.109689
0.117536 0.117536 0.117536
0.126057 0.126057 0.126057
0.134103 0.134103 0.134103
0.142672 0.142672 0.142672
0.093024 0.093024 0.093024
0.131890 0.131890 0.131890
0.185568 0.185568 0.185568
0.233474 0.233474 0.233474
0.275095 0.275095 0.275095
0.313914 0.313914 0.313914
0.349665 0.349665 0.349665
0.383049 0.383049 0.383049
0.414534 0.414534 0.414534
0.093024 0.093024 0.093024
0.270019 0.270019 0.270019
0.406777 0.406777 0.406777
0.501360 0.501360 0.501360
0.578038 0.578038 0.578038
0.641927 0.641927 0.641927
0.692714 0.692714 0.692714
0.738776 0.738776 0.738776
0.769734 0.769734 0.769734
0.093024 0.093024 0.093024
0.489605 0.489605 0.489605
0.678941 0.678941 0.678941
0.784674 0.784674 0.784674
0.837615 0.837615 0.837615
0.875280 0.875280 0.875280
0.899907 0.899907 0.899907
0.920375 0.920375 0.920375
0.934474 0.934474 0.934474
0.093024 0.093024 0.093024
0.727434 0.727434 0.727434
0.865579 0.865579 0.865579
0.921533 0.921533 0.921533
0.950815 0.950815 0.950815
0.966468 0.966468 0.966468
0.974419 0.974419 0.974419
0.979538 0.979538 0.979538
0.983603 0.983603 0.983603
0.093024 0.093024 0.093024
0.871202 0.871202 0.871202
0.953084 0.953084 0.953084
0.975498 0.975498 0.975498
0.984092 0.984092 0.984092
0.987450 0.987450 0.987450
0.990202 0.990202 0.990202
0.992339 0.992339 0.992339
0.993251 0.993251 0.993251
0.093024 0.093024 0.093024
0.948596 0.948596 0.948596
0.982927 0.982927 0.982927
0.989227 0.989227 0.989227
0.992811 0.992811 0.992811
0.994337 0.994337 0.994337
0.995585 0.995585 0.995585
0.996642 0.996642 0.996642
0.997559 0.997559 0.997559
0.093024 0.093024 0.093024
0.093024 0.093024 0.093024
0.093024 0.093024 0.093024
0.093024 0.093024 0.093024
0.093024 0.093024 0.093024
0.093024 0.093024 0.093024
0.093024 0.093024 0.093024
0.093024 0.093024 0.093024
0.093024 0.093024 0.093024
0.093024 0.093024 0.093024
0.093341 0.093341 0.093341
0.093419 0.093419 0.093419
0.093540 0.093540 0.093540
0.093682 0.093682 0.093682
0.093792 0.093792 0.093792
0.093881 0.093881 0.093881
0.093957 0.093957 0.093957
0.094123 0.094123 0.094123
0.093024 0.093024 0.093024
0.096445 0.096445 0.096445
0.099659 0.099659 0.099659
0.103911 0.103911 0.103911
0.110796 0.110796 0.110796
0.119194 0.119194 0.119194
0.127835 0.127835 0.127835
0.136393 0.136393 0.136393
0.145109 0.145109 0.145109
0.093024 0.093024 0.093024
0.134069 0.134069 0.134069
0.189290 0.189290 0.189290
0.238371 0.238371 0.238371
0.281100 0.281100 0.281100
0.320766 0.320766 0.320766
0.357297 0.357297 0.357297
0.391411 0.391411 0.391411
0.423583 0.423583 0.423583
0.093024 0.093024 0.093024
0.275839 0.275839 0.275839
0.415656 0.415656 0.415656
0.510470 0.510470 0.510470
0.588577 0.588577 0.588577
0.651787 0.651787 0.651787
0.703354 0.703354 0.703354
0.749407 0.749407 0.749407
0.777523 0.777523 0.777523
0.093024 0.093024 0.093024
0.498502 0.498502 0.498502
0.689370 0.689370 0.689370
0.792614 0.792614 0.792614
0.843715 0.843715 0.843715
0.880156 0.880156 0.880156
0.904920 0.904920 0.904920
0.924208 0.924208 0.924208
0.938366 0.938366 0.938366
0.093024 0.093024 0.093024
0.738608 0.738608 0.738608
0.871883 0.871883 0.871883
0.925371 0.925371 0.925371
0.953358 0.953358 0.953358
0.969052 0.969052 0.969052
0.975629 0.975629 0.975629
0.980754 0.980754 0.980754
0.984151 0.984151 0.984151
0.093024 0.093024 0.093024
0.876763 0.876763 0.876763
0.955633 0.955633 0.955633
0.976709 0.976709 0.976709
0.984641 0.984641 0.984641
0.988000 0.988000 0.988000
0.990754 0.990754 0.990754
0.992588 0.992588 0.992588
0.993501 0.993501 0.993501
0.093024 0.093024 0.093024
0.951133 0.951133 0.951133
0.983672 0.983672 0.983672
0.989779 0.989779 0.989779
0.993060 0.993060 0.993060
0.994587 0.994587 0.994587
0.995836 0.995836 0.995836
0.996893 0.996893 0.996893
0.997805 0.997805 0.997805
0.093024 0.093024 0.093024
0.093024 0.093024 0.093024
0.093024 0.093024 0.093024
0.093024 0.093024 0.093024
0.093024 0.093024 0.093024
0.093024 0.093024 0.093024
0.093024 0.093024 0.093024
0.093024 0.093024 0.093024
0.093024 0.093024 0.093024
0.093024 0.093024 0.093024
0.093344 0.093344 0.093344
0.093422 0.093422 0.093422
0.093554 0.093554 0.093554
0.093696 0.093696 0.093696
0.093806 0.093806 0.093806
0.093895 0.093895 0.093895
0.093971 0.093971 0.093971
0.094164 0.094164 0.094164
0.093024 0.093024 0.093024
0.096521 0.096521 0.096521
0.099830 0.099830 0.099830
0.104341 0.104341 0.104341
0.111662 0.111662 0.111662
0.120497 0.120497 0.120497
0.129232 0.129232 0.129232
0.138196 0.138196 0.138196
0.147027 0.147027 0.147027
0.093024 0.093024 0.093024
0.135841 0.135841 0.135841
0.192362 0.192362 0.192362
0.242239 0.242239 0.242239
0.285847 0.285847 0.285847
0.326184 0.326184 0.326184
0.363332 0.363332 0.363332
0.398021 0.398021 0.398021
0.430531 0.430531 0.430531
0.093024 0.093024 0.093024
0.280498 0.280498 0.280498
0.422677 0.422677 0.422677
0.517660 0.517660 0.517660
0.596884 0.596884 0.596884
0.659540 0.659540 0.659540
0.711720 0.711720 0.711720
0.755282 0.755282 0.755282
0.783619 0.783619 0.783619
0.093024 0.093024 0.093024
0.505514 0.505514 0.505514
0.697570 0.697570 0.697570
0.798828 0.798828 0.798828
0.848477 0.848477 0.848477
0.883957 0.883957 0.883957
0.908828 0.908828 0.908828
0.927192 0.927192 0.927192
0.941395 0.941395 0.941395
0.093024 0.093024 0.093024
0.747393 0.747393 0.747393
0.876195 0.876195 0.876195
0.928358 0.928358 0.928358
0.955335 0.955335 0.955335
0.970518 0.970518 0.970518
0.976568 0.976568 0.976568
0.981698 0.981698 0.981698
0.984577 0.984577 0.984577
0.093024 0.093024 0.093024
0.880549 0.880549 0.880549
0.957615 0.957615 0.957615
0.977650 0.977650 0.977650
0.985066 0.985066 0.985066
0.988427 0.988427 0.988427
0.991182 0.991182 0.991182
0.992782 0.992782 0.992782
0.993695 0.993695 0.993695
0.093024 0.093024 0.093024
0.953106 0.953106 0.953106
0.984097 0.984097 0.984097
0.990207 0.990207 0.990207
0.993254 0.993254 0.993254
0.994780 0.994780 0.994780
0.996030 0.996030 0.996030
0.997087 0.997087 0.997087
0.997840 0.997840 0.997840
0.093024 0.093024 0.093024
0.093024 0.093024 0.093024
0.093024 0.093024 0.093024
0.093024 0.093024 0.093024
0.093024 0.093024 0.093024
0.093024 0.093024 0.093024
0.093024 0.093024 0.093024
0.093024 0.093024 0.093024
0.093024 0.093024 0.093024
0.093024 0.093024 0.093024
0.093347 0.093347 0.093347
0.093425 0.093425 0.093425
0.093566 0.093566 0.093566
0.093707 0.093707 0.093707
0.093817 0.093817 0.093817
0.093907 0.093907 0.093907
0.094004 0.094004 0.094004
0.094198 0.094198 0.094198
0.093024 0.093024 0.093024
0.096583 0.096583 0.096583
0.099970 0.099970 0.099970
0.104694 0.104694 0.104694
0.112375 0.112375 0.112375
0.121572 0.121572 0.121572
0.130385 0.130385 0.130385
0.139687 0.139687 0.139687
0.148614 0.148614 0.148614
0.093024 0.093024 0.093024
0.137307 0.137307 0.137307
0.194909 0.194909 0.194909
0.245447 0.245447 0.245447
0.289786 0.289786 0.289786
0.330678 0.330678 0.330678
0.368338 0.368338 0.368338
0.403506 0.403506 0.403506
0.435473 0.435473 0.435473
0.093024 0.093024 0.093024
0.284363 0.284363 0.284363
0.428501 0.428501 0.428501
0.523622 0.523622 0.523622
0.603758 0.603758 0.603758
0.665943 0.665943 0.665943
0.718630 0.718630 0.718630
0.760117 0.760117 0.760117
0.788635 0.788635 0.788635
0.093024 0.093024 0.093024
0.511316 0.511316 0.511316
0.704341 0.704341 0.704341
0.803942 0.803942 0.803942
0.852388 0.852388 0.852388
0.887074 0.887074 0.887074
0.912033 0.912033 0.912033
0.929637 0.929637 0.929637
0.943878 0.943878 0.943878
0.093024 0.093024 0.093024
0.752390 0.752390 0.752390
0.879285 0.879285 0.879285
0.930807 0.930807 0.930807
0.956954 0.956954 0.956954
0.971298 0.971298 0.971298
0.977336 0.977336 0.977336
0.982471 0.982471 0.982471
0.984925 0.984925 0.984925
0.093024 0.093024 0.093024
0.883654 0.883654 0.883654
0.959237 0.959237 0.959237
0.978419 0.978419 0.978419
0.985414 0.985414 0.985414
0.988776 0.988776 0.988776
0.991532 0.991532 0.991532
0.992940 0.992940 0.992940
0.993853 0.993853 0.993853
0.093024 0.093024 0.093024
0.954720 0.954720 0.954720
0.984445 0.984445 0.984445
0.990556 0.990556 0.990556
0.993412 0.993412 0.993412
0.994939 0.994939 0.994939
0.996188 0.996188 0.996188
0.997246 0.997246 0.997246
0.997869 0.997869 0.997869
0.093024 0.093024 0.093024
0.093024 0.093024 0.093024
0.093024 0.093024 0.093024
0.093024 0.093024 0.093024
0.093024 0.093024 0.093024
0.093024 0.093024 0.093024
0.093024 0.093024 0.093024
0.093024 0.093024 0.093024
0.093024 0.093024 0.093024
0.093024 0.093024 0.093024
0.093349 0.093349 0.093349
0.093427 0.093427 0.093427
0.093575 0.093575 0.093575
0.093717 0.093717 0.093717
0.093827 0.093827 0.093827
0.093916 0.093916 0.093916
0.094032 0.094032 0.094032
0.094226 0.094226 0.094226
0.093024 0.093024 0.093024
0.096636 0.096636 0.096636
0.100089 0.100089 0.100089
0.104994 0.104994 0.104994
0.112981 0.112981 0.112981
0.122488 0.122488 0.122488
0.131388 0.131388 0.131388
0.140960 0.140960 0.140960
0.149968 0.149968 0.149968
0.093024 0.093024 0.093024
0.138558 0.138558 0.138558
0.197088 0.197088 0.197088
0.248192 0.248192 0.248192
0.293158 0.293158 0.293158
0.334527 0.334527 0.334527
0.372624 0.372624 0.372624
0.408201 0.408201 0.408201
0.439695 0.439695 0.439695
0.093024 0.093024 0.093024
0.287672 0.287672 0.287672
0.432822 0.432822 0.432822
0.528716 0.528716 0.528716
0.609632 0.609632 0.609632
0.671405 0.671405 0.671405
0.724524 0.724524 0.724524
0.764229 0.764229 0.764229
0.792901 0.792901 0.792901
0.093024 0.093024 0.093024
0.516279 0.516279 0.516279
0.710118 0.710118 0.710118
0.808144 0.808144 0.808144
0.855709 0.855709 0.855709
0.889719 0.889719 0.889719
0.914752 0.914752 0.914752
0.931710 0.931710 0.931710
0.945982 0.945982 0.945982
0.093024 0.093024 0.093024
0.756459 0.756459 0.756459
0.881907 0.881907 0.881907
0.932882 0.932882 0.932882
0.958324 0.958324 0.958324
0.971944 0.971944 0.971944
0.977986 0.977986 0.977986
0.983124 0.983124 0.983124
0.985219 0.985219 0.985219
0.093024 0.093024 0.093024
0.886289 0.886289 0.886289
0.960611 0.960611 0.960611
0.979070 0.979070 0.979070
0.985709 0.985709 0.985709
0.989072 0.989072 0.989072
0.991828 0.991828 0.991828
0.993074 0.993074 0.993074
0.993987 0.993987 0.993987
0.093024 0.093024 0.093024
0.956088 0.956088 0.956088
0.984739 0.984739 0.984739
0.990852 0.990852 0.990852
0.993546 0.993546 0.993546
0.995073 0.995073 0.995073
0.996322 0.996322 0.996322
0.997380 0.997380 0.997380
0.997893 0.997893 0.997893
0.093024 0.093024 0.093024
0.093024 0.093024 0.093024
0.093024 0.093024 0.093024
0.093024 0.093024 0.093024
0.093024 0.093024 0.093024
0.093024 0.093024 0.093024
0.093024 0.093024 0.093024
0.093024 0.093024 0.093024
0.093024 0.093024 0.093024
0.093024 0.093024 0.093024
0.093351 0.093351 0.093351
0.093429 0.093429 0.093429
0.093583 0.093583 0.093583
0.093725 0.093725 0.093725
0.093835 0.093835 0.093835
0.093925 0.093925 0.093925
0.094057 0.094057 0.094057
0.094251 0.094251 0.094251
0.093024 0.093024 0.093024
0.096682 0.096682 0.096682
0.100191 0.100191 0.100191
0.105253 0.105253 0.105253
0.113509 0.113509 0.113509
0.123287 0.123287 0.123287
0.132276 0.132276 0.132276
0.142072 0.142072 0.142072
0.151151 0.151151 0.151151
0.093024 0.093024 0.093024
0.139652 0.139652 0.139652
0.198996 0.198996 0.198996
0.250594 0.250594 0.250594
0.296111 0.296111 0.296111
0.337896 0.337896 0.337896
0.376378 0.376378 0.376378
0.412313 0.412313 0.412313
0.443386 0.443386 0.443386
0.093024 0.093024 0.093024
0.290570 0.290570 0.290570
0.436455 0.436455 0.436455
0.533169 0.533169 0.533169
0.614766 0.614766 0.614766
0.676172 0.676172 0.676172
0.729668 0.729668 0.729668
0.767808 0.767808 0.767808
0.796615 0.796615 0.796615
0.093024 0.093024 0.093024
0.520627 0.520627 0.520627
0.715161 0.715161 0.715161
0.810870 0.810870 0.810870
0.858596 0.858596 0.858596
0.892016 0.892016 0.892016
0.917114 0.917114 0.917114
0.933508 0.933508 0.933508
0.947809 0.947809 0.947809
0.093024 0.093024 0.093024
0.760003 0.760003 0.760003
0.884183 0.884183 0.884183
0.934683 0.934683 0.934683
0.959513 0.959513 0.959513
0.972504 0.972504 0.972504
0.978550 0.978550 0.978550
0.983467 0.983467 0.983467
0.985473 0.985473 0.985473
0.093024 0.093024 0.093024
0.888577 0.888577 0.888577
0.961802 0.961802 0.961802
0.979634 0.979634 0.979634
0.985964 0.985964 0.985964
0.989328 0.989328 0.989328
0.992085 0.992085 0.992085
0.993189 0.993189 0.993189
0.994103 0.994103 0.994103
0.093024 0.093024 0.093024
0.957274 0.957274 0.957274
0.984993 0.984993 0.984993
0.991108 0.991108 0.991108
0.993661 0.993661 0.993661
0.995189 0.995189 0.995189
0.996439 0.996439 0.996439
0.997497 0.997497 0.997497
0.997914 0.997914 0.997914
