trix_classic/TriX_Red25_ExtraSoft.cube
TITLE "Tri-X Red25 ExtraSoft"
# Adobe RGB in/out. REPLACES AgX. Tri-X Red25 ExtraSoft.
LUT_3D_SIZE 9
DOMAIN_MIN 0.0 0.0 0.0
DOMAIN_MAX 1.0 1.0 1.0
0.099726 0.099726 0.099726
0.105695 0.105695 0.105695
0.209587 0.209587 0.209587
0.346231 0.346231 0.346231
0.521023 0.521023 0.521023
0.723599 0.723599 0.723599
0.855814 0.855814 0.855814
0.917860 0.917860 0.917860
0.917860 0.917860 0.917860
0.099726 0.099726 0.099726
0.105715 0.105715 0.105715
0.253883 0.253883 0.253883
0.372414 0.372414 0.372414
0.522486 0.522486 0.522486
0.715311 0.715311 0.715311
0.851253 0.851253 0.851253
0.917860 0.917860 0.917860
0.917860 0.917860 0.917860
0.099726 0.099726 0.099726
0.101187 0.101187 0.101187
0.197760 0.197760 0.197760
0.368317 0.368317 0.368317
0.526673 0.526673 0.526673
0.688620 0.688620 0.688620
0.829076 0.829076 0.829076
0.917846 0.917846 0.917846
0.917860 0.917860 0.917860
0.100167 0.100167 0.100167
0.101470 0.101470 0.101470
0.160253 0.160253 0.160253
0.306292 0.306292 0.306292
0.483473 0.483473 0.483473
0.661035 0.661035 0.661035
0.800329 0.800329 0.800329
0.888838 0.888838 0.888838
0.917860 0.917860 0.917860
0.101167 0.101167 0.101167
0.103203 0.103203 0.103203
0.145257 0.145257 0.145257
0.261663 0.261663 0.261663
0.413185 0.413185 0.413185
0.610786 0.610786 0.610786
0.773209 0.773209 0.773209
0.871564 0.871564 0.871564
0.915686 0.915686 0.915686
0.102636 0.102636 0.102636
0.104795 0.104795 0.104795
0.139336 0.139336 0.139336
0.231876 0.231876 0.231876
0.368190 0.368190 0.368190
0.550452 0.550452 0.550452
0.741586 0.741586 0.741586
0.855964 0.855964 0.855964
0.911803 0.911803 0.911803
0.102953 0.102953 0.102953
0.104599 0.104599 0.104599
0.127518 0.127518 0.127518
0.206267 0.206267 0.206267
0.328460 0.328460 0.328460
0.496670 0.496670 0.496670
0.702520 0.702520 0.702520
0.843003 0.843003 0.843003
0.908021 0.908021 0.908021
0.100069 0.100069 0.100069
0.100431 0.100431 0.100431
0.106307 0.106307 0.106307
0.165298 0.165298 0.165298
0.278272 0.278272 0.278272
0.435807 0.435807 0.435807
0.656341 0.656341 0.656341
0.835351 0.835351 0.835351
0.907503 0.907503 0.907503
0.099726 0.099726 0.099726
0.099726 0.099726 0.099726
0.099726 0.099726 0.099726
0.099726 0.099726 0.099726
0.136042 0.136042 0.136042
0.342605 0.342605 0.342605
0.584700 0.584700 0.584700
0.824999 0.824999 0.824999
0.914994 0.914994 0.914994
0.099726 0.099726 0.099726
0.101665 0.101665 0.101665
0.169075 0.169075 0.169075
0.320535 0.320535 0.320535
0.515028 0.515028 0.515028
0.723985 0.723985 0.723985
0.855431 0.855431 0.855431
0.917860 0.917860 0.917860
0.917860 0.917860 0.917860
0.099726 0.099726 0.099726
0.127675 0.127675 0.127675
0.219825 0.219825 0.219825
0.342751 0.342751 0.342751
0.514439 0.514439 0.514439
0.716110 0.716110 0.716110
0.851094 0.851094 0.851094
0.917860 0.917860 0.917860
0.917860 0.917860 0.917860
0.100739 0.100739 0.100739
0.108035 0.108035 0.108035
0.225917 0.225917 0.225917
0.372010 0.372010 0.372010
0.516860 0.516860 0.516860
0.689750 0.689750 0.689750
0.830409 0.830409 0.830409
0.917838 0.917838 0.917838
0.917860 0.917860 0.917860
0.102034 0.102034 0.102034
0.107799 0.107799 0.107799
0.189973 0.189973 0.189973
0.331101 0.331101 0.331101
0.494677 0.494677 0.494677
0.661945 0.661945 0.661945
0.802762 0.802762 0.802762
0.889191 0.889191 0.889191
0.917860 0.917860 0.917860
0.103741 0.103741 0.103741
0.108471 0.108471 0.108471
0.166995 0.166995 0.166995
0.283375 0.283375 0.283375
0.433389 0.433389 0.433389
0.619296 0.619296 0.619296
0.776020 0.776020 0.776020
0.872770 0.872770 0.872770
0.915644 0.915644 0.915644
0.105164 0.105164 0.105164
0.109010 0.109010 0.109010
0.154438 0.154438 0.154438
0.247449 0.247449 0.247449
0.381859 0.381859 0.381859
0.562917 0.562917 0.562917
0.746041 0.746041 0.746041
0.857568 0.857568 0.857568
0.911890 0.911890 0.911890
0.104740 0.104740 0.104740
0.107156 0.107156 0.107156
0.138586 0.138586 0.138586
0.217815 0.217815 0.217815
0.340005 0.340005 0.340005
0.508079 0.508079 0.508079
0.709353 0.709353 0.709353
0.844738 0.844738 0.844738
0.908370 0.908370 0.908370
0.100431 0.100431 0.100431
0.100801 0.100801 0.100801
0.109442 0.109442 0.109442
0.174280 0.174280 0.174280
0.287829 0.287829 0.287829
0.446016 0.446016 0.446016
0.664333 0.664333 0.664333
0.837373 0.837373 0.837373
0.907990 0.907990 0.907990
0.099726 0.099726 0.099726
0.099726 0.099726 0.099726
0.099726 0.099726 0.099726
0.099726 0.099726 0.099726
0.145865 0.145865 0.145865
0.349540 0.349540 0.349540
0.590882 0.590882 0.590882
0.827173 0.827173 0.827173
0.915264 0.915264 0.915264
0.099726 0.099726 0.099726
0.108210 0.108210 0.108210
0.181356 0.181356 0.181356
0.316633 0.316633 0.316633
0.507805 0.507805 0.507805
0.721825 0.721825 0.721825
0.853653 0.853653 0.853653
0.917851 0.917851 0.917851
0.917860 0.917860 0.917860
0.099989 0.099989 0.099989
0.114407 0.114407 0.114407
0.213087 0.213087 0.213087
0.332792 0.332792 0.332792
0.506888 0.506888 0.506888
0.715147 0.715147 0.715147
0.849919 0.849919 0.849919
0.917846 0.917846 0.917846
0.917860 0.917860 0.917860
0.103502 0.103502 0.103502
0.122440 0.122440 0.122440
0.255950 0.255950 0.255950
0.363773 0.363773 0.363773
0.507207 0.507207 0.507207
0.692006 0.692006 0.692006
0.833069 0.833069 0.833069
0.915531 0.915531 0.915531
0.917860 0.917860 0.917860
0.112661 0.112661 0.112661
0.135153 0.135153 0.135153
0.224928 0.224928 0.224928
0.355665 0.355665 0.355665
0.504924 0.504924 0.504924
0.665669 0.665669 0.665669
0.808705 0.808705 0.808705
0.890347 0.890347 0.890347
0.917860 0.917860 0.917860
0.124801 0.124801 0.124801
0.143607 0.143607 0.143607
0.210396 0.210396 0.210396
0.325062 0.325062 0.325062
0.470349 0.470349 0.470349
0.639008 0.639008 0.639008
0.784076 0.784076 0.784076
0.876517 0.876517 0.876517
0.915485 0.915485 0.915485
0.132931 0.132931 0.132931
0.146496 0.146496 0.146496
0.199685 0.199685 0.199685
0.293763 0.293763 0.293763
0.422469 0.422469 0.422469
0.597465 0.597465 0.597465
0.759129 0.759129 0.759129
0.862366 0.862366 0.862366
0.912184 0.912184 0.912184
0.126740 0.126740 0.126740
0.137036 0.137036 0.137036
0.180307 0.180307 0.180307
0.260773 0.260773 0.260773
0.379498 0.379498 0.379498
0.546923 0.546923 0.546923
0.731169 0.731169 0.731169
0.850345 0.850345 0.850345
0.909470 0.909470 0.909470
0.106323 0.106323 0.106323
0.109478 0.109478 0.109478
0.144611 0.144611 0.144611
0.215880 0.215880 0.215880
0.329615 0.329615 0.329615
0.489115 0.489115 0.489115
0.693654 0.693654 0.693654
0.844407 0.844407 0.844407
0.909447 0.909447 0.909447
0.099726 0.099726 0.099726
0.099726 0.099726 0.099726
0.099726 0.099726 0.099726
0.099726 0.099726 0.099726
0.190701 0.190701 0.190701
0.379655 0.379655 0.379655
0.617456 0.617456 0.617456
0.835779 0.835779 0.835779
0.915916 0.915916 0.915916
0.099726 0.099726 0.099726
0.104551 0.104551 0.104551
0.205308 0.205308 0.205308
0.320123 0.320123 0.320123
0.500664 0.500664 0.500664
0.713452 0.713452 0.713452
0.848721 0.848721 0.848721
0.910945 0.910945 0.910945
0.917860 0.917860 0.917860
0.100267 0.100267 0.100267
0.110039 0.110039 0.110039
0.224353 0.224353 0.224353
0.332810 0.332810 0.332810
0.500789 0.500789 0.500789
0.708122 0.708122 0.708122
0.845380 0.845380 0.845380
0.909825 0.909825 0.909825
0.917860 0.917860 0.917860
0.107020 0.107020 0.107020
0.132900 0.132900 0.132900
0.244861 0.244861 0.244861
0.358652 0.358652 0.358652
0.502684 0.502684 0.502684
0.689763 0.689763 0.689763
0.831165 0.831165 0.831165
0.900351 0.900351 0.900351
0.917860 0.917860 0.917860
0.129488 0.129488 0.129488
0.155525 0.155525 0.155525
0.240869 0.240869 0.240869
0.375333 0.375333 0.375333
0.504384 0.504384 0.504384
0.667585 0.667585 0.667585
0.811088 0.811088 0.811088
0.889856 0.889856 0.889856
0.917860 0.917860 0.917860
0.153871 0.153871 0.153871
0.171544 0.171544 0.171544
0.237783 0.237783 0.237783
0.348490 0.348490 0.348490
0.489004 0.489004 0.489004
0.646564 0.646564 0.646564
0.789556 0.789556 0.789556
0.878266 0.878266 0.878266
0.915171 0.915171 0.915171
0.164661 0.164661 0.164661
0.177947 0.177947 0.177947
0.231920 0.231920 0.231920
0.326055 0.326055 0.326055
0.455237 0.455237 0.455237
0.619376 0.619376 0.619376
0.768040 0.768040 0.768040
0.866170 0.866170 0.866170
0.912305 0.912305 0.912305
0.161565 0.161565 0.161565
0.171969 0.171969 0.171969
0.215909 0.215909 0.215909
0.297922 0.297922 0.297922
0.412393 0.412393 0.412393
0.579432 0.579432 0.579432
0.747756 0.747756 0.747756
0.856126 0.856126 0.856126
0.910318 0.910318 0.910318
0.128721 0.128721 0.128721
0.137748 0.137748 0.137748
0.179801 0.179801 0.179801
0.252518 0.252518 0.252518
0.364907 0.364907 0.364907
0.525708 0.525708 0.525708
0.717128 0.717128 0.717128
0.850233 0.850233 0.850233
0.910787 0.910787 0.910787
0.099726 0.099726 0.099726
0.099726 0.099726 0.099726
0.099726 0.099726 0.099726
0.099726 0.099726 0.099726
0.249817 0.249817 0.249817
0.418563 0.418563 0.418563
0.652709 0.652709 0.652709
0.845819 0.845819 0.845819
0.916599 0.916599 0.916599
0.099726 0.099726 0.099726
0.101523 0.101523 0.101523
0.217761 0.217761 0.217761
0.330540 0.330540 0.330540
0.492994 0.492994 0.492994
0.703057 0.703057 0.703057
0.842289 0.842289 0.842289
0.905599 0.905599 0.905599
0.917860 0.917860 0.917860
0.100482 0.100482 0.100482
0.105088 0.105088 0.105088
0.227255 0.227255 0.227255
0.339271 0.339271 0.339271
0.493988 0.493988 0.493988
0.698771 0.698771 0.698771
0.839325 0.839325 0.839325
0.904437 0.904437 0.904437
0.917860 0.917860 0.917860
0.109813 0.109813 0.109813
0.133324 0.133324 0.133324
0.242488 0.242488 0.242488
0.360264 0.360264 0.360264
0.497591 0.497591 0.497591
0.684547 0.684547 0.684547
0.827305 0.827305 0.827305
0.897445 0.897445 0.897445
0.917860 0.917860 0.917860
0.144168 0.144168 0.144168
0.166932 0.166932 0.166932
0.249718 0.249718 0.249718
0.369066 0.369066 0.369066
0.501601 0.501601 0.501601
0.666344 0.666344 0.666344
0.810200 0.810200 0.810200
0.888633 0.888633 0.888633
0.917860 0.917860 0.917860
0.170972 0.170972 0.170972
0.188728 0.188728 0.188728
0.253086 0.253086 0.253086
0.359792 0.359792 0.359792
0.504596 0.504596 0.504596
0.649468 0.649468 0.649468
0.792008 0.792008 0.792008
0.878555 0.878555 0.878555
0.914732 0.914732 0.914732
0.186793 0.186793 0.186793
0.200004 0.200004 0.200004
0.253873 0.253873 0.253873
0.346199 0.346199 0.346199
0.475103 0.475103 0.475103
0.630901 0.630901 0.630901
0.773700 0.773700 0.773700
0.868460 0.868460 0.868460
0.912163 0.912163 0.912163
0.186181 0.186181 0.186181
0.196855 0.196855 0.196855
0.241629 0.241629 0.241629
0.324225 0.324225 0.324225
0.440553 0.440553 0.440553
0.601661 0.601661 0.601661
0.757307 0.757307 0.757307
0.859574 0.859574 0.859574
0.910642 0.910642 0.910642
0.154541 0.154541 0.154541
0.163430 0.163430 0.163430
0.205925 0.205925 0.205925
0.280344 0.280344 0.280344
0.390618 0.390618 0.390618
0.552918 0.552918 0.552918
0.733932 0.733932 0.733932
0.854498 0.854498 0.854498
0.911585 0.911585 0.911585
0.099726 0.099726 0.099726
0.099726 0.099726 0.099726
0.099726 0.099726 0.099726
0.135050 0.135050 0.135050
0.279799 0.279799 0.279799
0.449011 0.449011 0.449011
0.676777 0.676777 0.676777
0.852163 0.852163 0.852163
0.917106 0.917106 0.917106
0.100158 0.100158 0.100158
0.101378 0.101378 0.101378
0.221406 0.221406 0.221406
0.335559 0.335559 0.335559
0.490637 0.490637 0.490637
0.693578 0.693578 0.693578
0.835979 0.835979 0.835979
0.901774 0.901774 0.901774
0.917860 0.917860 0.917860
0.100810 0.100810 0.100810
0.103402 0.103402 0.103402
0.226370 0.226370 0.226370
0.341499 0.341499 0.341499
0.491850 0.491850 0.491850
0.690288 0.690288 0.690288
0.833449 0.833449 0.833449
0.900674 0.900674 0.900674
0.917860 0.917860 0.917860
0.112148 0.112148 0.112148
0.130575 0.130575 0.130575
0.240793 0.240793 0.240793
0.359749 0.359749 0.359749
0.496829 0.496829 0.496829
0.679299 0.679299 0.679299
0.823458 0.823458 0.823458
0.894970 0.894970 0.894970
0.917860 0.917860 0.917860
0.151973 0.151973 0.151973
0.170890 0.170890 0.170890
0.253718 0.253718 0.253718
0.369661 0.369661 0.369661
0.502241 0.502241 0.502241
0.663925 0.663925 0.663925
0.808762 0.808762 0.808762
0.887367 0.887367 0.887367
0.917351 0.917351 0.917351
0.183234 0.183234 0.183234
0.199034 0.199034 0.199034
0.264228 0.264228 0.264228
0.367535 0.367535 0.367535
0.501380 0.501380 0.501380
0.650066 0.650066 0.650066
0.792909 0.792909 0.792909
0.878540 0.878540 0.878540
0.914302 0.914302 0.914302
0.200591 0.200591 0.200591
0.213934 0.213934 0.213934
0.267518 0.267518 0.267518
0.357935 0.357935 0.357935
0.485948 0.485948 0.485948
0.640439 0.640439 0.640439
0.777040 0.777040 0.777040
0.869739 0.869739 0.869739
0.912040 0.912040 0.912040
0.202026 0.202026 0.202026
0.212947 0.212947 0.212947
0.258304 0.258304 0.258304
0.340661 0.340661 0.340661
0.458314 0.458314 0.458314
0.614756 0.614756 0.614756
0.762618 0.762618 0.762618
0.861883 0.861883 0.861883
0.910823 0.910823 0.910823
0.168966 0.168966 0.168966
0.178437 0.178437 0.178437
0.221991 0.221991 0.221991
0.297912 0.297912 0.297912
0.406906 0.406906 0.406906
0.570086 0.570086 0.570086
0.743770 0.743770 0.743770
0.856913 0.856913 0.856913
0.911974 0.911974 0.911974
0.099726 0.099726 0.099726
0.099726 0.099726 0.099726
0.099726 0.099726 0.099726
0.143090 0.143090 0.143090
0.292105 0.292105 0.292105
0.463787 0.463787 0.463787
0.687513 0.687513 0.687513
0.855562 0.855562 0.855562
0.917297 0.917297 0.917297
0.100801 0.100801 0.100801
0.102150 0.102150 0.102150
0.208828 0.208828 0.208828
0.338002 0.338002 0.338002
0.490339 0.490339 0.490339
0.689704 0.689704 0.689704
0.832858 0.832858 0.832858
0.899459 0.899459 0.899459
0.917860 0.917860 0.917860
0.101309 0.101309 0.101309
0.103817 0.103817 0.103817
0.213944 0.213944 0.213944
0.342485 0.342485 0.342485
0.491548 0.491548 0.491548
0.687234 0.687234 0.687234
0.830625 0.830625 0.830625
0.898465 0.898465 0.898465
0.917860 0.917860 0.917860
0.113364 0.113364 0.113364
0.128497 0.128497 0.128497
0.232135 0.232135 0.232135
0.358045 0.358045 0.358045
0.496741 0.496741 0.496741
0.678530 0.678530 0.678530
0.821995 0.821995 0.821995
0.893697 0.893697 0.893697
0.917860 0.917860 0.917860
0.156553 0.156553 0.156553
0.173121 0.173121 0.173121
0.252013 0.252013 0.252013
0.369876 0.369876 0.369876
0.503208 0.503208 0.503208
0.665777 0.665777 0.665777
0.809226 0.809226 0.809226
0.887125 0.887125 0.887125
0.916450 0.916450 0.916450
0.190620 0.190620 0.190620
0.204940 0.204940 0.204940
0.268174 0.268174 0.268174
0.372065 0.372065 0.372065
0.505294 0.505294 0.505294
0.653726 0.653726 0.653726
0.794878 0.794878 0.794878
0.879293 0.879293 0.879293
0.914120 0.914120 0.914120
0.210328 0.210328 0.210328
0.222881 0.222881 0.222881
0.275608 0.275608 0.275608
0.366737 0.366737 0.366737
0.495713 0.495713 0.495713
0.642525 0.642525 0.642525
0.780364 0.780364 0.780364
0.871216 0.871216 0.871216
0.912174 0.912174 0.912174
0.210406 0.210406 0.210406
0.221540 0.221540 0.221540
0.267474 0.267474 0.267474
0.349822 0.349822 0.349822
0.468998 0.468998 0.468998
0.622320 0.622320 0.622320
0.765056 0.765056 0.765056
0.863714 0.863714 0.863714
0.911200 0.911200 0.911200
0.172316 0.172316 0.172316
0.182149 0.182149 0.182149
0.227442 0.227442 0.227442
0.305136 0.305136 0.305136
0.414819 0.414819 0.414819
0.578677 0.578677 0.578677
0.748098 0.748098 0.748098
0.857748 0.857748 0.857748
0.912331 0.912331 0.912331
0.099726 0.099726 0.099726
0.099726 0.099726 0.099726
0.099726 0.099726 0.099726
0.112997 0.112997 0.112997
0.285811 0.285811 0.285811
0.461827 0.461827 0.461827
0.687617 0.687617 0.687617
0.855857 0.855857 0.855857
0.917466 0.917466 0.917466
0.102202 0.102202 0.102202
0.104671 0.104671 0.104671
0.215810 0.215810 0.215810
0.341368 0.341368 0.341368
0.498111 0.498111 0.498111
0.698806 0.698806 0.698806
0.836924 0.836924 0.836924
0.901144 0.901144 0.901144
0.917860 0.917860 0.917860
0.103474 0.103474 0.103474
0.106683 0.106683 0.106683
0.221539 0.221539 0.221539
0.345238 0.345238 0.345238
0.499003 0.499003 0.499003
0.696797 0.696797 0.696797
0.835204 0.835204 0.835204
0.900282 0.900282 0.900282
0.917860 0.917860 0.917860
0.123136 0.123136 0.123136
0.138888 0.138888 0.138888
0.245311 0.245311 0.245311
0.361541 0.361541 0.361541
0.503851 0.503851 0.503851
0.688871 0.688871 0.688871
0.827780 0.827780 0.827780
0.896223 0.896223 0.896223
0.917860 0.917860 0.917860
0.165399 0.165399 0.165399
0.180307 0.180307 0.180307
0.265722 0.265722 0.265722
0.375489 0.375489 0.375489
0.509668 0.509668 0.509668
0.678645 0.678645 0.678645
0.816976 0.816976 0.816976
0.890628 0.890628 0.890628
0.916537 0.916537 0.916537
0.198353 0.198353 0.198353
0.211799 0.211799 0.211799
0.280698 0.280698 0.280698
0.381448 0.381448 0.381448
0.513552 0.513552 0.513552
0.665748 0.665748 0.665748
0.803643 0.803643 0.803643
0.883769 0.883769 0.883769
0.914751 0.914751 0.914751
0.217044 0.217044 0.217044
0.229117 0.229117 0.229117
0.286249 0.286249 0.286249
0.376569 0.376569 0.376569
0.507069 0.507069 0.507069
0.652933 0.652933 0.652933
0.789095 0.789095 0.789095
0.876247 0.876247 0.876247
0.913230 0.913230 0.913230
0.214381 0.214381 0.214381
0.225143 0.225143 0.225143
0.274443 0.274443 0.274443
0.357237 0.357237 0.357237
0.480398 0.480398 0.480398
0.632677 0.632677 0.632677
0.771500 0.771500 0.771500
0.868028 0.868028 0.868028
0.912390 0.912390 0.912390
0.161166 0.161166 0.161166
0.171470 0.171470 0.171470
0.221253 0.221253 0.221253
0.303009 0.303009 0.303009
0.416418 0.416418 0.416418
0.582369 0.582369 0.582369
0.750075 0.750075 0.750075
0.856334 0.856334 0.856334
0.913123 0.913123 0.913123
0.099726 0.099726 0.099726
0.099726 0.099726 0.099726
0.099726 0.099726 0.099726
0.099726 0.099726 0.099726
0.249594 0.249594 0.249594
0.437026 0.437026 0.437026
0.673433 0.673433 0.673433
0.852057 0.852057 0.852057
0.917642 0.917642 0.917642
0.144604 0.144604 0.144604
0.154876 0.154876 0.154876
0.210849 0.210849 0.210849
0.351902 0.351902 0.351902
0.560906 0.560906 0.560906
0.764238 0.764238 0.764238
0.868563 0.868563 0.868563
0.912790 0.912790 0.912790
0.917860 0.917860 0.917860
0.152047 0.152047 0.152047
0.162021 0.162021 0.162021
0.218057 0.218057 0.218057
0.355780 0.355780 0.355780
0.560905 0.560905 0.560905
0.762990 0.762990 0.762990
0.867867 0.867867 0.867867
0.912421 0.912421 0.912421
0.917860 0.917860 0.917860
0.184003 0.184003 0.184003
0.194853 0.194853 0.194853
0.250358 0.250358 0.250358
0.373383 0.373383 0.373383
0.562001 0.562001 0.562001
0.757626 0.757626 0.757626
0.864605 0.864605 0.864605
0.910375 0.910375 0.910375
0.917860 0.917860 0.917860
0.228159 0.228159 0.228159
0.239761 0.239761 0.239761
0.294469 0.294469 0.294469
0.398472 0.398472 0.398472
0.563888 0.563888 0.563888
0.747484 0.747484 0.747484
0.858633 0.858633 0.858633
0.906373 0.906373 0.906373
0.917860 0.917860 0.917860
0.255641 0.255641 0.255641
0.267771 0.267771 0.267771
0.323783 0.323783 0.323783
0.417376 0.417376 0.417376
0.563172 0.563172 0.563172
0.733552 0.733552 0.733552
0.849078 0.849078 0.849078
0.902335 0.902335 0.902335
0.917670 0.917670 0.917670
0.262291 0.262291 0.262291
0.274839 0.274839 0.274839
0.332403 0.332403 0.332403
0.425660 0.425660 0.425660
0.556344 0.556344 0.556344
0.713908 0.713908 0.713908
0.835493 0.835493 0.835493
0.897586 0.897586 0.897586
0.917268 0.917268 0.917268
0.241007 0.241007 0.241007
0.252993 0.252993 0.252993
0.307982 0.307982 0.307982
0.404818 0.404818 0.404818
0.536921 0.536921 0.536921
0.684425 0.684425 0.684425
0.815186 0.815186 0.815186
0.891434 0.891434 0.891434
0.917115 0.917115 0.917115
0.155362 0.155362 0.155362
0.165604 0.165604 0.165604
0.216465 0.216465 0.216465
0.321618 0.321618 0.321618
0.462269 0.462269 0.462269
0.627554 0.627554 0.627554
0.776350 0.776350 0.776350
0.878366 0.878366 0.878366
0.917326 0.917326 0.917326
0.099726 0.099726 0.099726
0.099726 0.099726 0.099726
0.099726 0.099726 0.099726
0.099726 0.099726 0.099726
0.120675 0.120675 0.120675
0.386481 0.386481 0.386481
0.648191 0.648191 0.648191
0.840882 0.840882 0.840882
0.917860 0.917860 0.917860
