trix_classic/TriX_NoFilter_Soft.cube
TITLE "Tri-X NoFilter Soft"
# Adobe RGB in/out. REPLACES AgX. R=0.2974 G=0.2859 B=0.4167
LUT_3D_SIZE 9
DOMAIN_MIN 0.0 0.0 0.0
DOMAIN_MAX 1.0 1.0 1.0
0.097688 0.097688 0.097688
0.097688 0.097688 0.097688
0.097688 0.097688 0.097688
0.097688 0.097688 0.097688
0.097688 0.097688 0.097688
0.097688 0.097688 0.097688
0.097688 0.097688 0.097688
0.097688 0.097688 0.097688
0.097688 0.097688 0.097688
0.097688 0.097688 0.097688
0.097688 0.097688 0.097688
0.097688 0.097688 0.097688
0.097688 0.097688 0.097688
0.097688 0.097688 0.097688
0.097688 0.097688 0.097688
0.097688 0.097688 0.097688
0.097688 0.097688 0.097688
0.097688 0.097688 0.097688
0.097688 0.097688 0.097688
0.097688 0.097688 0.097688
0.097688 0.097688 0.097688
0.097688 0.097688 0.097688
0.097688 0.097688 0.097688
0.097688 0.097688 0.097688
0.097688 0.097688 0.097688
0.097688 0.097688 0.097688
0.097688 0.097688 0.097688
0.097688 0.097688 0.097688
0.097688 0.097688 0.097688
0.097688 0.097688 0.097688
0.097688 0.097688 0.097688
0.097688 0.097688 0.097688
0.097688 0.097688 0.097688
0.097688 0.097688 0.097688
0.097688 0.097688 0.097688
0.097688 0.097688 0.097688
0.097688 0.097688 0.097688
0.097688 0.097688 0.097688
0.097688 0.097688 0.097688
0.097688 0.097688 0.097688
0.097688 0.097688 0.097688
0.097688 0.097688 0.097688
0.097688 0.097688 0.097688
0.097688 0.097688 0.097688
0.097688 0.097688 0.097688
0.097688 0.097688 0.097688
0.097688 0.097688 0.097688
0.097688 0.097688 0.097688
0.097688 0.097688 0.097688
0.097688 0.097688 0.097688
0.097688 0.097688 0.097688
0.097688 0.097688 0.097688
0.097688 0.097688 0.097688
0.097688 0.097688 0.097688
0.097688 0.097688 0.097688
0.097688 0.097688 0.097688
0.097688 0.097688 0.097688
0.097688 0.097688 0.097688
0.097688 0.097688 0.097688
0.097688 0.097688 0.097688
0.097688 0.097688 0.097688
0.097688 0.097688 0.097688
0.097688 0.097688 0.097688
0.097688 0.097688 0.097688
0.097688 0.097688 0.097688
0.097688 0.097688 0.097688
0.097688 0.097688 0.097688
0.097688 0.097688 0.097688
0.097688 0.097688 0.097688
0.097688 0.097688 0.097688
0.097688 0.097688 0.097688
0.097688 0.097688 0.097688
0.097688 0.097688 0.097688
0.097688 0.097688 0.097688
0.097688 0.097688 0.097688
0.097688 0.097688 0.097688
0.097688 0.097688 0.097688
0.097688 0.097688 0.097688
0.097688 0.097688 0.097688
0.097688 0.097688 0.097688
0.097688 0.097688 0.097688
0.097688 0.097688 0.097688
0.097688 0.097688 0.097688
0.097688 0.097688 0.097688
0.097688 0.097688 0.097688
0.097688 0.097688 0.097688
0.097688 0.097688 0.097688
0.097688 0.097688 0.097688
0.097688 0.097688 0.097688
0.097688 0.097688 0.097688
0.097688 0.097688 0.097688
0.107900 0.107900 0.107900
0.127301 0.127301 0.127301
0.147976 0.147976 0.147976
0.166259 0.166259 0.166259
0.182042 0.182042 0.182042
0.196043 0.196043 0.196043
0.209416 0.209416 0.209416
0.220715 0.220715 0.220715
0.097688 0.097688 0.097688
0.126356 0.126356 0.126356
0.164458 0.164458 0.164458
0.193920 0.193920 0.193920
0.218581 0.218581 0.218581
0.237001 0.237001 0.237001
0.253198 0.253198 0.253198
0.267753 0.267753 0.267753
0.279136 0.279136 0.279136
0.097688 0.097688 0.097688
0.145458 0.145458 0.145458
0.192688 0.192688 0.192688
0.226826 0.226826 0.226826
0.251763 0.251763 0.251763
0.272395 0.272395 0.272395
0.287958 0.287958 0.287958
0.301808 0.301808 0.301808
0.314528 0.314528 0.314528
0.097688 0.097688 0.097688
0.162677 0.162677 0.162677
0.216468 0.216468 0.216468
0.250750 0.250750 0.250750
0.276866 0.276866 0.276866
0.296347 0.296347 0.296347
0.313390 0.313390 0.313390
0.329546 0.329546 0.329546
0.343728 0.343728 0.343728
0.097688 0.097688 0.097688
0.177497 0.177497 0.177497
0.233977 0.233977 0.233977
0.270761 0.270761 0.270761
0.295570 0.295570 0.295570
0.316697 0.316697 0.316697
0.336038 0.336038 0.336038
0.352445 0.352445 0.352445
0.367304 0.367304 0.367304
0.097688 0.097688 0.097688
0.190602 0.190602 0.190602
0.249329 0.249329 0.249329
0.285616 0.285616 0.285616
0.311792 0.311792 0.311792
0.335306 0.335306 0.335306
0.354755 0.354755 0.354755
0.372077 0.372077 0.372077
0.387764 0.387764 0.387764
0.097688 0.097688 0.097688
0.202767 0.202767 0.202767
0.263093 0.263093 0.263093
0.298810 0.298810 0.298810
0.327230 0.327230 0.327230
0.351031 0.351031 0.351031
0.371392 0.371392 0.371392
0.389526 0.389526 0.389526
0.405948 0.405948 0.405948
0.097688 0.097688 0.097688
0.214245 0.214245 0.214245
0.274614 0.274614 0.274614
0.310731 0.310731 0.310731
0.340892 0.340892 0.340892
0.365247 0.365247 0.365247
0.386432 0.386432 0.386432
0.405300 0.405300 0.405300
0.421334 0.421334 0.421334
0.097688 0.097688 0.097688
0.097688 0.097688 0.097688
0.097688 0.097688 0.097688
0.097688 0.097688 0.097688
0.097688 0.097688 0.097688
0.097688 0.097688 0.097688
0.097688 0.097688 0.097688
0.097688 0.097688 0.097688
0.097688 0.097688 0.097688
0.097688 0.097688 0.097688
0.140550 0.140550 0.140550
0.186152 0.186152 0.186152
0.219949 0.219949 0.219949
0.244130 0.244130 0.244130
0.264703 0.264703 0.264703
0.280602 0.280602 0.280602
0.294098 0.294098 0.294098
0.306312 0.306312 0.306312
0.097688 0.097688 0.097688
0.184136 0.184136 0.184136
0.241770 0.241770 0.241770
0.278321 0.278321 0.278321
0.303822 0.303822 0.303822
0.326168 0.326168 0.326168
0.345561 0.345561 0.345561
0.362433 0.362433 0.362433
0.377714 0.377714 0.377714
0.097688 0.097688 0.097688
0.216588 0.216588 0.216588
0.276995 0.276995 0.276995
0.313546 0.313546 0.313546
0.343890 0.343890 0.343890
0.368459 0.368459 0.368459
0.389831 0.389831 0.389831
0.408865 0.408865 0.408865
0.424738 0.424738 0.424738
0.097688 0.097688 0.097688
0.239433 0.239433 0.239433
0.301351 0.301351 0.301351
0.342709 0.342709 0.342709
0.374597 0.374597 0.374597
0.401360 0.401360 0.401360
0.423398 0.423398 0.423398
0.442551 0.442551 0.442551
0.460295 0.460295 0.460295
0.097688 0.097688 0.097688
0.258799 0.258799 0.258799
0.322423 0.322423 0.322423
0.366216 0.366216 0.366216
0.400291 0.400291 0.400291
0.427290 0.427290 0.427290
0.450487 0.450487 0.450487
0.471401 0.471401 0.471401
0.490302 0.490302 0.490302
0.097688 0.097688 0.097688
0.274742 0.274742 0.274742
0.341052 0.341052 0.341052
0.386615 0.386615 0.386615
0.421516 0.421516 0.421516
0.449553 0.449553 0.449553
0.474342 0.474342 0.474342
0.496364 0.496364 0.496364
0.516173 0.516173 0.516173
0.097688 0.097688 0.097688
0.287434 0.287434 0.287434
0.357046 0.357046 0.357046
0.404745 0.404745 0.404745
0.439742 0.439742 0.439742
0.469600 0.469600 0.469600
0.495494 0.495494 0.495494
0.518378 0.518378 0.518378
0.538901 0.538901 0.538901
0.097688 0.097688 0.097688
0.298901 0.298901 0.298901
0.371506 0.371506 0.371506
0.420186 0.420186 0.420186
0.456679 0.456679 0.456679
0.487686 0.487686 0.487686
0.514507 0.514507 0.514507
0.538093 0.538093 0.538093
0.559396 0.559396 0.559396
0.097688 0.097688 0.097688
0.097688 0.097688 0.097688
0.097688 0.097688 0.097688
0.097688 0.097688 0.097688
0.097688 0.097688 0.097688
0.097688 0.097688 0.097688
0.097688 0.097688 0.097688
0.097688 0.097688 0.097688
0.097688 0.097688 0.097688
0.097688 0.097688 0.097688
0.176931 0.176931 0.176931
0.233312 0.233312 0.233312
0.270114 0.270114 0.270114
0.294863 0.294863 0.294863
0.315887 0.315887 0.315887
0.335222 0.335222 0.335222
0.351590 0.351590 0.351590
0.366413 0.366413 0.366413
0.097688 0.097688 0.097688
0.231056 0.231056 0.231056
0.292465 0.292465 0.292465
0.332321 0.332321 0.332321
0.363390 0.363390 0.363390
0.389352 0.389352 0.389352
0.411743 0.411743 0.411743
0.430182 0.430182 0.430182
0.447176 0.447176 0.447176
0.097688 0.097688 0.097688
0.266132 0.266132 0.266132
0.330627 0.330627 0.330627
0.375048 0.375048 0.375048
0.409913 0.409913 0.409913
0.436751 0.436751 0.436751
0.460823 0.460823 0.460823
0.482217 0.482217 0.482217
0.501551 0.501551 0.501551
0.097688 0.097688 0.097688
0.290087 0.290087 0.290087
0.360391 0.360391 0.360391
0.408537 0.408537 0.408537
0.443663 0.443663 0.443663
0.473787 0.473787 0.473787
0.499912 0.499912 0.499912
0.522943 0.522943 0.522943
0.543646 0.543646 0.543646
0.097688 0.097688 0.097688
0.309684 0.309684 0.309684
0.385111 0.385111 0.385111
0.434307 0.434307 0.434307
0.472585 0.472585 0.472585
0.504673 0.504673 0.504673
0.532203 0.532203 0.532203
0.556600 0.556600 0.556600
0.578636 0.578636 0.578636
0.097688 0.097688 0.097688
0.327751 0.327751 0.327751
0.406561 0.406561 0.406561
0.457202 0.457202 0.457202
0.497611 0.497611 0.497611
0.531113 0.531113 0.531113
0.560029 0.560029 0.560029
0.585702 0.585702 0.585702
0.608891 0.608891 0.608891
0.097688 0.097688 0.097688
0.343506 0.343506 0.343506
0.424302 0.424302 0.424302
0.477590 0.477590 0.477590
0.519664 0.519664 0.519664
0.554499 0.554499 0.554499
0.584689 0.584689 0.584689
0.611492 0.611492 0.611492
0.635701 0.635701 0.635701
0.097688 0.097688 0.097688
0.357417 0.357417 0.357417
0.440177 0.440177 0.440177
0.495984 0.495984 0.495984
0.539427 0.539427 0.539427
0.575588 0.575588 0.575588
0.606925 0.606925 0.606925
0.634748 0.634748 0.634748
0.659448 0.659448 0.659448
0.097688 0.097688 0.097688
0.097688 0.097688 0.097688
0.097688 0.097688 0.097688
0.097688 0.097688 0.097688
0.097688 0.097688 0.097688
0.097688 0.097688 0.097688
0.097688 0.097688 0.097688
0.097688 0.097688 0.097688
0.097688 0.097688 0.097688
0.097688 0.097688 0.097688
0.209107 0.209107 0.209107
0.269919 0.269919 0.269919
0.305418 0.305418 0.305418
0.334977 0.334977 0.334977
0.358910 0.358910 0.358910
0.379728 0.379728 0.379728
0.398269 0.398269 0.398269
0.414611 0.414611 0.414611
0.097688 0.097688 0.097688
0.267419 0.267419 0.267419
0.332065 0.332065 0.332065
0.376594 0.376594 0.376594
0.411466 0.411466 0.411466
0.438454 0.438454 0.438454
0.462631 0.462631 0.462631
0.484110 0.484110 0.484110
0.503520 0.503520 0.503520
0.097688 0.097688 0.097688
0.301491 0.301491 0.301491
0.374773 0.374773 0.374773
0.423582 0.423582 0.423582
0.460502 0.460502 0.460502
0.491769 0.491769 0.491769
0.518760 0.518760 0.518760
0.542542 0.542542 0.542542
0.564021 0.564021 0.564021
0.097688 0.097688 0.097688
0.329176 0.329176 0.329176
0.408238 0.408238 0.408238
0.458997 0.458997 0.458997
0.499564 0.499564 0.499564
0.533172 0.533172 0.533172
0.562200 0.562200 0.562200
0.587973 0.587973 0.587973
0.611251 0.611251 0.611251
0.097688 0.097688 0.097688
0.352070 0.352070 0.352070
0.434015 0.434015 0.434015
0.488919 0.488919 0.488919
0.531837 0.531837 0.531837
0.567488 0.567488 0.567488
0.598385 0.598385 0.598385
0.625816 0.625816 0.625816
0.650433 0.650433 0.650433
0.097688 0.097688 0.097688
0.371681 0.371681 0.371681
0.456884 0.456884 0.456884
0.514735 0.514735 0.514735
0.559644 0.559644 0.559644
0.597160 0.597160 0.597160
0.629672 0.629672 0.629672
0.658146 0.658146 0.658146
0.683439 0.683439 0.683439
0.097688 0.097688 0.097688
0.389111 0.389111 0.389111
0.477257 0.477257 0.477257
0.537399 0.537399 0.537399
0.584286 0.584286 0.584286
0.623454 0.623454 0.623454
0.657040 0.657040 0.657040
0.686275 0.686275 0.686275
0.712631 0.712631 0.712631
0.097688 0.097688 0.097688
0.404869 0.404869 0.404869
0.495639 0.495639 0.495639
0.557838 0.557838 0.557838
0.606508 0.606508 0.606508
0.647105 0.647105 0.647105
0.681296 0.681296 0.681296
0.711598 0.711598 0.711598
0.738824 0.738824 0.738824
0.097688 0.097688 0.097688
0.097688 0.097688 0.097688
0.097688 0.097688 0.097688
0.097688 0.097688 0.097688
0.097688 0.097688 0.097688
0.097688 0.097688 0.097688
0.097688 0.097688 0.097688
0.097688 0.097688 0.097688
0.097688 0.097688 0.097688
0.097688 0.097688 0.097688
0.235233 0.235233 0.235233
0.296902 0.296902 0.296902
0.337575 0.337575 0.337575
0.368985 0.368985 0.368985
0.395347 0.395347 0.395347
0.417566 0.417566 0.417566
0.436266 0.436266 0.436266
0.453729 0.453729 0.453729
0.097688 0.097688 0.097688
0.294488 0.294488 0.294488
0.365940 0.365940 0.365940
0.414398 0.414398 0.414398
0.450164 0.450164 0.450164
0.480729 0.480729 0.480729
0.507237 0.507237 0.507237
0.530510 0.530510 0.530510
0.551513 0.551513 0.551513
0.097688 0.097688 0.097688
0.333075 0.333075 0.333075
0.412556 0.412556 0.412556
0.463901 0.463901 0.463901
0.504902 0.504902 0.504902
0.538799 0.538799 0.538799
0.568134 0.568134 0.568134
0.594178 0.594178 0.594178
0.617702 0.617702 0.617702
0.097688 0.097688 0.097688
0.362921 0.362921 0.362921
0.446627 0.446627 0.446627
0.503252 0.503252 0.503252
0.547233 0.547233 0.547233
0.583917 0.583917 0.583917
0.615708 0.615708 0.615708
0.643934 0.643934 0.643934
0.668715 0.668715 0.668715
0.097688 0.097688 0.097688
0.387814 0.387814 0.387814
0.475743 0.475743 0.475743
0.535715 0.535715 0.535715
0.582455 0.582455 0.582455
0.621499 0.621499 0.621499
0.655039 0.655039 0.655039
0.684185 0.684185 0.684185
0.710471 0.710471 0.710471
0.097688 0.097688 0.097688
0.409415 0.409415 0.409415
0.500935 0.500935 0.500935
0.563725 0.563725 0.563725
0.612909 0.612909 0.612909
0.653737 0.653737 0.653737
0.688279 0.688279 0.688279
0.718859 0.718859 0.718859
0.746363 0.746363 0.746363
0.097688 0.097688 0.097688
0.427039 0.427039 0.427039
0.523093 0.523093 0.523093
0.588547 0.588547 0.588547
0.639896 0.639896 0.639896
0.681677 0.681677 0.681677
0.717655 0.717655 0.717655
0.749446 0.749446 0.749446
0.778120 0.778120 0.778120
0.097688 0.097688 0.097688
0.443118 0.443118 0.443118
0.542987 0.542987 0.542987
0.610930 0.610930 0.610930
0.663674 0.663674 0.663674
0.706843 0.706843 0.706843
0.744033 0.744033 0.744033
0.776992 0.776992 0.776992
0.803176 0.803176 0.803176
0.097688 0.097688 0.097688
0.097688 0.097688 0.097688
0.097688 0.097688 0.097688
0.097688 0.097688 0.097688
0.097688 0.097688 0.097688
0.097688 0.097688 0.097688
0.097688 0.097688 0.097688
0.097688 0.097688 0.097688
0.097688 0.097688 0.097688
0.097688 0.097688 0.097688
0.258063 0.258063 0.258063
0.321598 0.321598 0.321598
0.365327 0.365327 0.365327
0.399319 0.399319 0.399319
0.426337 0.426337 0.426337
0.449446 0.449446 0.449446
0.470312 0.470312 0.470312
0.489169 0.489169 0.489169
0.097688 0.097688 0.097688
0.318800 0.318800 0.318800
0.396024 0.396024 0.396024
0.445915 0.445915 0.445915
0.485326 0.485326 0.485326
0.518161 0.518161 0.518161
0.546372 0.546372 0.546372
0.571418 0.571418 0.571418
0.594041 0.594041 0.594041
0.097688 0.097688 0.097688
0.360561 0.360561 0.360561
0.443862 0.443862 0.443862
0.500137 0.500137 0.500137
0.543887 0.543887 0.543887
0.580347 0.580347 0.580347
0.611943 0.611943 0.611943
0.639996 0.639996 0.639996
0.664743 0.664743 0.664743
0.097688 0.097688 0.097688
0.392756 0.392756 0.392756
0.481513 0.481513 0.481513
0.542132 0.542132 0.542132
0.589431 0.589431 0.589431
0.628944 0.628944 0.628944
0.662658 0.662658 0.662658
0.692144 0.692144 0.692144
0.718698 0.718698 0.718698
0.097688 0.097688 0.097688
0.418865 0.418865 0.418865
0.512852 0.512852 0.512852
0.577024 0.577024 0.577024
0.627368 0.627368 0.627368
0.668711 0.668711 0.668711
0.704045 0.704045 0.704045
0.735253 0.735253 0.735253
0.763384 0.763384 0.763384
0.097688 0.097688 0.097688
0.440374 0.440374 0.440374
0.539666 0.539666 0.539666
0.607194 0.607194 0.607194
0.659732 0.659732 0.659732
0.702645 0.702645 0.702645
0.739633 0.739633 0.739633
0.772397 0.772397 0.772397
0.799023 0.799023 0.799023
0.097688 0.097688 0.097688
0.460012 0.460012 0.460012
0.563429 0.563429 0.563429
0.633930 0.633930 0.633930
0.687928 0.687928 0.687928
0.732569 0.732569 0.732569
0.771104 0.771104 0.771104
0.801907 0.801907 0.801907
0.828657 0.828657 0.828657
0.097688 0.097688 0.097688
0.477729 0.477729 0.477729
0.584857 0.584857 0.584857
0.657663 0.657663 0.657663
0.713304 0.713304 0.713304
0.759494 0.759494 0.759494
0.796843 0.796843 0.796843
0.827607 0.827607 0.827607
0.855215 0.855215 0.855215
0.097688 0.097688 0.097688
0.097688 0.097688 0.097688
0.097688 0.097688 0.097688
0.097688 0.097688 0.097688
0.097688 0.097688 0.097688
0.097688 0.097688 0.097688
0.097688 0.097688 0.097688
0.097688 0.097688 0.097688
0.097688 0.097688 0.097688
0.097688 0.097688 0.097688
0.277507 0.277507 0.277507
0.344536 0.344536 0.344536
0.390564 0.390564 0.390564
0.425472 0.425472 0.425472
0.453923 0.453923 0.453923
0.478954 0.478954 0.478954
0.501190 0.501190 0.501190
0.521129 0.521129 0.521129
0.097688 0.097688 0.097688
0.341693 0.341693 0.341693
0.422244 0.422244 0.422244
0.475191 0.475191 0.475191
0.517085 0.517085 0.517085
0.551748 0.551748 0.551748
0.581787 0.581787 0.581787
0.608457 0.608457 0.608457
0.632547 0.632547 0.632547
0.097688 0.097688 0.097688
0.385468 0.385468 0.385468
0.473003 0.473003 0.473003
0.532668 0.532668 0.532668
0.579142 0.579142 0.579142
0.617964 0.617964 0.617964
0.651420 0.651420 0.651420
0.680405 0.680405 0.680405
0.706554 0.706554 0.706554
0.097688 0.097688 0.097688
0.419041 0.419041 0.419041
0.513072 0.513072 0.513072
0.577272 0.577272 0.577272
0.627638 0.627638 0.627638
0.668990 0.668990 0.668990
0.704338 0.704338 0.704338
0.735558 0.735558 0.735558
0.763701 0.763701 0.763701
0.097688 0.097688 0.097688
0.445686 0.445686 0.445686
0.546094 0.546094 0.546094
0.614427 0.614427 0.614427
0.667363 0.667363 0.667363
0.710762 0.710762 0.710762
0.748150 0.748150 0.748150
0.781006 0.781006 0.781006
0.807059 0.807059 0.807059
0.097688 0.097688 0.097688
0.469287 0.469287 0.469287
0.574647 0.574647 0.574647
0.646510 0.646510 0.646510
0.701228 0.701228 0.701228
0.746669 0.746669 0.746669
0.785070 0.785070 0.785070
0.815380 0.815380 0.815380
0.842580 0.842580 0.842580
0.097688 0.097688 0.097688
0.490214 0.490214 0.490214
0.599950 0.599950 0.599950
0.674141 0.674141 0.674141
0.731098 0.731098 0.731098
0.778439 0.778439 0.778439
0.814187 0.814187 0.814187
0.845621 0.845621 0.845621
0.873830 0.873830 0.873830
0.097688 0.097688 0.097688
0.509090 0.509090 0.509090
0.622767 0.622767 0.622767
0.699029 0.699029 0.699029
0.757969 0.757969 0.757969
0.803464 0.803464 0.803464
0.840281 0.840281 0.840281
0.872722 0.872722 0.872722
0.895034 0.895034 0.895034
0.097688 0.097688 0.097688
0.097688 0.097688 0.097688
0.097688 0.097688 0.097688
0.097688 0.097688 0.097688
0.097688 0.097688 0.097688
0.097688 0.097688 0.097688
0.097688 0.097688 0.097688
0.097688 0.097688 0.097688
0.097688 0.097688 0.097688
0.097688 0.097688 0.097688
0.293790 0.293790 0.293790
0.365060 0.365060 0.365060
0.413482 0.413482 0.413482
0.449133 0.449133 0.449133
0.479628 0.479628 0.479628
0.506076 0.506076 0.506076
0.529310 0.529310 0.529310
0.550266 0.550266 0.550266
0.097688 0.097688 0.097688
0.362048 0.362048 0.362048
0.445604 0.445604 0.445604
0.502100 0.502100 0.502100
0.545996 0.545996 0.545996
0.582596 0.582596 0.582596
0.614315 0.614315 0.614315
0.642477 0.642477 0.642477
0.667245 0.667245 0.667245
0.097688 0.097688 0.097688
0.408430 0.408430 0.408430
0.499788 0.499788 0.499788
0.562450 0.562450 0.562450
0.611522 0.611522 0.611522
0.652301 0.652301 0.652301
0.686767 0.686767 0.686767
0.717286 0.717286 0.717286
0.744730 0.744730 0.744730
0.097688 0.097688 0.097688
0.442103 0.442103 0.442103
0.541759 0.541759 0.541759
0.609548 0.609548 0.609548
0.662216 0.662216 0.662216
0.705290 0.705290 0.705290
0.742405 0.742405 0.742405
0.775292 0.775292 0.775292
0.801640 0.801640 0.801640
0.097688 0.097688 0.097688
0.470924 0.470924 0.470924
0.576627 0.576627 0.576627
0.648673 0.648673 0.648673
0.703574 0.703574 0.703574
0.749157 0.749157 0.749157
0.787356 0.787356 0.787356
0.817754 0.817754 0.817754
0.845033 0.845033 0.845033
0.097688 0.097688 0.097688
0.495862 0.495862 0.495862
0.606777 0.606777 0.606777
0.681590 0.681590 0.681590
0.739141 0.739141 0.739141
0.785993 0.785993 0.785993
0.822010 0.822010 0.822010
0.853746 0.853746 0.853746
0.882226 0.882226 0.882226
0.097688 0.097688 0.097688
0.517859 0.517859 0.517859
0.633494 0.633494 0.633494
0.710711 0.710711 0.710711
0.770591 0.770591 0.770591
0.815145 0.815145 0.815145
0.852497 0.852497 0.852497
0.884587 0.884587 0.884587
0.903324 0.903324 0.903324
0.097688 0.097688 0.097688
0.537554 0.537554 0.537554
0.657224 0.657224 0.657224
0.736833 0.736833 0.736833
0.796379 0.796379 0.796379
0.841269 0.841269 0.841269
0.879818 0.879818 0.879818
0.902592 0.902592 0.902592
0.921710 0.921710 0.921710
