trix_classic/TriX_Yellow8_ExtraPunchy.cube
TITLE "Tri-X Yellow8 ExtraPunchy"
# Adobe RGB in/out. REPLACES AgX. R=0.5015 G=0.4679 B=0.0307
LUT_3D_SIZE 9
DOMAIN_MIN 0.0 0.0 0.0
DOMAIN_MAX 1.0 1.0 1.0
0.092237 0.092237 0.092237
0.092237 0.092237 0.092237
0.092237 0.092237 0.092237
0.092237 0.092237 0.092237
0.092237 0.092237 0.092237
0.092237 0.092237 0.092237
0.092237 0.092237 0.092237
0.092237 0.092237 0.092237
0.092237 0.092237 0.092237
0.092237 0.092237 0.092237
0.092237 0.092237 0.092237
0.092237 0.092237 0.092237
0.092237 0.092237 0.092237
0.092237 0.092237 0.092237
0.092237 0.092237 0.092237
0.092237 0.092237 0.092237
0.092237 0.092237 0.092237
0.092237 0.092237 0.092237
0.092237 0.092237 0.092237
0.092237 0.092237 0.092237
0.092237 0.092237 0.092237
0.092237 0.092237 0.092237
0.092237 0.092237 0.092237
0.092237 0.092237 0.092237
0.092237 0.092237 0.092237
0.092237 0.092237 0.092237
0.092237 0.092237 0.092237
0.092237 0.092237 0.092237
0.092237 0.092237 0.092237
0.092237 0.092237 0.092237
0.092237 0.092237 0.092237
0.092237 0.092237 0.092237
0.092237 0.092237 0.092237
0.092237 0.092237 0.092237
0.092237 0.092237 0.092237
0.092237 0.092237 0.092237
0.092237 0.092237 0.092237
0.092237 0.092237 0.092237
0.092237 0.092237 0.092237
0.092237 0.092237 0.092237
0.092237 0.092237 0.092237
0.092237 0.092237 0.092237
0.092237 0.092237 0.092237
0.092237 0.092237 0.092237
0.092237 0.092237 0.092237
0.092237 0.092237 0.092237
0.092237 0.092237 0.092237
0.092237 0.092237 0.092237
0.092237 0.092237 0.092237
0.092237 0.092237 0.092237
0.092237 0.092237 0.092237
0.092237 0.092237 0.092237
0.092237 0.092237 0.092237
0.092237 0.092237 0.092237
0.092237 0.092237 0.092237
0.092237 0.092237 0.092237
0.092237 0.092237 0.092237
0.092237 0.092237 0.092237
0.092237 0.092237 0.092237
0.092237 0.092237 0.092237
0.092237 0.092237 0.092237
0.092237 0.092237 0.092237
0.092237 0.092237 0.092237
0.092237 0.092237 0.092237
0.092237 0.092237 0.092237
0.092237 0.092237 0.092237
0.092237 0.092237 0.092237
0.092237 0.092237 0.092237
0.092237 0.092237 0.092237
0.092237 0.092237 0.092237
0.092237 0.092237 0.092237
0.092237 0.092237 0.092237
0.092237 0.092237 0.092237
0.092237 0.092237 0.092237
0.092237 0.092237 0.092237
0.092237 0.092237 0.092237
0.092237 0.092237 0.092237
0.092237 0.092237 0.092237
0.092237 0.092237 0.092237
0.092237 0.092237 0.092237
0.092237 0.092237 0.092237
0.092237 0.092237 0.092237
0.092237 0.092237 0.092237
0.092237 0.092237 0.092237
0.092237 0.092237 0.092237
0.092237 0.092237 0.092237
0.092237 0.092237 0.092237
0.092237 0.092237 0.092237
0.092237 0.092237 0.092237
0.092237 0.092237 0.092237
0.092237 0.092237 0.092237
0.092317 0.092317 0.092317
0.095052 0.095052 0.095052
0.105111 0.105111 0.105111
0.128703 0.128703 0.128703
0.160620 0.160620 0.160620
0.195079 0.195079 0.195079
0.231261 0.231261 0.231261
0.268131 0.268131 0.268131
0.092237 0.092237 0.092237
0.094474 0.094474 0.094474
0.123526 0.123526 0.123526
0.185616 0.185616 0.185616
0.254670 0.254670 0.254670
0.323504 0.323504 0.323504
0.391293 0.391293 0.391293
0.458941 0.458941 0.458941
0.526029 0.526029 0.526029
0.092237 0.092237 0.092237
0.102418 0.102418 0.102418
0.180309 0.180309 0.180309
0.281553 0.281553 0.281553
0.380344 0.380344 0.380344
0.479183 0.479183 0.479183
0.574372 0.574372 0.574372
0.663012 0.663012 0.663012
0.736353 0.736353 0.736353
0.092237 0.092237 0.092237
0.118556 0.118556 0.118556
0.241884 0.241884 0.241884
0.372762 0.372762 0.372762
0.502100 0.502100 0.502100
0.624236 0.624236 0.624236
0.727798 0.727798 0.727798
0.799005 0.799005 0.799005
0.844514 0.844514 0.844514
0.092237 0.092237 0.092237
0.143182 0.143182 0.143182
0.303408 0.303408 0.303408
0.462523 0.462523 0.462523
0.615263 0.615263 0.615263
0.739282 0.739282 0.739282
0.818218 0.818218 0.818218
0.869970 0.869970 0.869970
0.905369 0.905369 0.905369
0.092237 0.092237 0.092237
0.171602 0.171602 0.171602
0.362332 0.362332 0.362332
0.549051 0.549051 0.549051
0.712602 0.712602 0.712602
0.814246 0.814246 0.814246
0.874602 0.874602 0.874602
0.914951 0.914951 0.914951
0.941727 0.941727 0.941727
0.092237 0.092237 0.092237
0.200125 0.200125 0.200125
0.420794 0.420794 0.420794
0.631068 0.631068 0.631068
0.781048 0.781048 0.781048
0.862193 0.862193 0.862193
0.912231 0.912231 0.912231
0.943807 0.943807 0.943807
0.964490 0.964490 0.964490
0.092237 0.092237 0.092237
0.229740 0.229740 0.229740
0.478562 0.478562 0.478562
0.701297 0.701297 0.701297
0.829035 0.829035 0.829035
0.897187 0.897187 0.897187
0.937835 0.937835 0.937835
0.963476 0.963476 0.963476
0.978712 0.978712 0.978712
0.092237 0.092237 0.092237
0.092237 0.092237 0.092237
0.092237 0.092237 0.092237
0.092237 0.092237 0.092237
0.092237 0.092237 0.092237
0.092237 0.092237 0.092237
0.092237 0.092237 0.092237
0.092237 0.092237 0.092237
0.092237 0.092237 0.092237
0.092237 0.092237 0.092237
0.092381 0.092381 0.092381
0.095670 0.095670 0.095670
0.107334 0.107334 0.107334
0.133611 0.133611 0.133611
0.168031 0.168031 0.168031
0.204326 0.204326 0.204326
0.242376 0.242376 0.242376
0.281018 0.281018 0.281018
0.092237 0.092237 0.092237
0.094992 0.094992 0.094992
0.128236 0.128236 0.128236
0.194221 0.194221 0.194221
0.266910 0.266910 0.266910
0.338129 0.338129 0.338129
0.408910 0.408910 0.408910
0.479469 0.479469 0.479469
0.548137 0.548137 0.548137
0.092237 0.092237 0.092237
0.103756 0.103756 0.103756
0.188653 0.188653 0.188653
0.294450 0.294450 0.294450
0.397539 0.397539 0.397539
0.500616 0.500616 0.500616
0.598404 0.598404 0.598404
0.686709 0.686709 0.686709
0.755491 0.755491 0.755491
0.092237 0.092237 0.092237
0.123077 0.123077 0.123077
0.253509 0.253509 0.253509
0.389614 0.389614 0.389614
0.523927 0.523927 0.523927
0.649032 0.649032 0.649032
0.746714 0.746714 0.746714
0.814434 0.814434 0.814434
0.858872 0.858872 0.858872
0.092237 0.092237 0.092237
0.149789 0.149789 0.149789
0.317124 0.317124 0.317124
0.483211 0.483211 0.483211
0.641006 0.641006 0.641006
0.758496 0.758496 0.758496
0.832129 0.832129 0.832129
0.881678 0.881678 0.881678
0.916263 0.916263 0.916263
0.092237 0.092237 0.092237
0.179520 0.179520 0.179520
0.378712 0.378712 0.378712
0.572086 0.572086 0.572086
0.734517 0.734517 0.734517
0.828090 0.828090 0.828090
0.885971 0.885971 0.885971
0.923481 0.923481 0.923481
0.950331 0.950331 0.950331
0.092237 0.092237 0.092237
0.209743 0.209743 0.209743
0.439615 0.439615 0.439615
0.655113 0.655113 0.655113
0.801348 0.801348 0.801348
0.875633 0.875633 0.875633
0.921434 0.921434 0.921434
0.952430 0.952430 0.952430
0.969304 0.969304 0.969304
0.092237 0.092237 0.092237
0.240782 0.240782 0.240782
0.499968 0.499968 0.499968
0.725984 0.725984 0.725984
0.843130 0.843130 0.843130
0.908202 0.908202 0.908202
0.946403 0.946403 0.946403
0.968285 0.968285 0.968285
0.980725 0.980725 0.980725
0.092237 0.092237 0.092237
0.092237 0.092237 0.092237
0.092237 0.092237 0.092237
0.092237 0.092237 0.092237
0.092237 0.092237 0.092237
0.092237 0.092237 0.092237
0.092237 0.092237 0.092237
0.092237 0.092237 0.092237
0.092237 0.092237 0.092237
0.092237 0.092237 0.092237
0.092419 0.092419 0.092419
0.096033 0.096033 0.096033
0.108693 0.108693 0.108693
0.136568 0.136568 0.136568
0.172524 0.172524 0.172524
0.210015 0.210015 0.210015
0.249124 0.249124 0.249124
0.288579 0.288579 0.288579
0.092237 0.092237 0.092237
0.095353 0.095353 0.095353
0.131074 0.131074 0.131074
0.199471 0.199471 0.199471
0.274340 0.274340 0.274340
0.346989 0.346989 0.346989
0.419511 0.419511 0.419511
0.491901 0.491901 0.491901
0.561498 0.561498 0.561498
0.092237 0.092237 0.092237
0.104772 0.104772 0.104772
0.193721 0.193721 0.193721
0.302165 0.302165 0.302165
0.407893 0.407893 0.407893
0.513596 0.513596 0.513596
0.612926 0.612926 0.612926
0.700961 0.700961 0.700961
0.766916 0.766916 0.766916
0.092237 0.092237 0.092237
0.125801 0.125801 0.125801
0.260567 0.260567 0.260567
0.399822 0.399822 0.399822
0.536697 0.536697 0.536697
0.662503 0.662503 0.662503
0.758007 0.758007 0.758007
0.822506 0.822506 0.822506
0.867384 0.867384 0.867384
0.092237 0.092237 0.092237
0.153794 0.153794 0.153794
0.325433 0.325433 0.325433
0.495740 0.495740 0.495740
0.654335 0.654335 0.654335
0.769967 0.769967 0.769967
0.840376 0.840376 0.840376
0.888230 0.888230 0.888230
0.921151 0.921151 0.921151
0.092237 0.092237 0.092237
0.184323 0.184323 0.184323
0.388635 0.388635 0.388635
0.585969 0.585969 0.585969
0.745625 0.745625 0.745625
0.836297 0.836297 0.836297
0.892317 0.892317 0.892317
0.928407 0.928407 0.928407
0.955400 0.955400 0.955400
0.092237 0.092237 0.092237
0.215583 0.215583 0.215583
0.451013 0.451013 0.451013
0.668709 0.668709 0.668709
0.810313 0.810313 0.810313
0.882274 0.882274 0.882274
0.926349 0.926349 0.926349
0.956998 0.956998 0.956998
0.972132 0.972132 0.972132
0.092237 0.092237 0.092237
0.247485 0.247485 0.247485
0.512930 0.512930 0.512930
0.736963 0.736963 0.736963
0.851486 0.851486 0.851486
0.914707 0.914707 0.914707
0.951452 0.951452 0.951452
0.971109 0.971109 0.971109
0.981770 0.981770 0.981770
0.092237 0.092237 0.092237
0.092237 0.092237 0.092237
0.092237 0.092237 0.092237
0.092237 0.092237 0.092237
0.092237 0.092237 0.092237
0.092237 0.092237 0.092237
0.092237 0.092237 0.092237
0.092237 0.092237 0.092237
0.092237 0.092237 0.092237
0.092237 0.092237 0.092237
0.092445 0.092445 0.092445
0.096291 0.096291 0.096291
0.109716 0.109716 0.109716
0.138705 0.138705 0.138705
0.175784 0.175784 0.175784
0.214146 0.214146 0.214146
0.254025 0.254025 0.254025
0.293923 0.293923 0.293923
0.092237 0.092237 0.092237
0.095609 0.095609 0.095609
0.133125 0.133125 0.133125
0.203395 0.203395 0.203395
0.279738 0.279738 0.279738
0.353415 0.353415 0.353415
0.427200 0.427200 0.427200
0.500916 0.500916 0.500916
0.571138 0.571138 0.571138
0.092237 0.092237 0.092237
0.105686 0.105686 0.105686
0.197399 0.197399 0.197399
0.307761 0.307761 0.307761
0.415368 0.415368 0.415368
0.522469 0.522469 0.522469
0.623443 0.623443 0.623443
0.711253 0.711253 0.711253
0.775127 0.775127 0.775127
0.092237 0.092237 0.092237
0.127770 0.127770 0.127770
0.265693 0.265693 0.265693
0.407173 0.407173 0.407173
0.545947 0.545947 0.545947
0.672229 0.672229 0.672229
0.766122 0.766122 0.766122
0.828281 0.828281 0.828281
0.873048 0.873048 0.873048
0.092237 0.092237 0.092237
0.156700 0.156700 0.156700
0.331460 0.331460 0.331460
0.504825 0.504825 0.504825
0.663942 0.663942 0.663942
0.778210 0.778210 0.778210
0.846277 0.846277 0.846277
0.892740 0.892740 0.892740
0.924634 0.924634 0.924634
0.092237 0.092237 0.092237
0.187823 0.187823 0.187823
0.395832 0.395832 0.395832
0.596023 0.596023 0.596023
0.753608 0.753608 0.753608
0.842169 0.842169 0.842169
0.896847 0.896847 0.896847
0.931918 0.931918 0.931918
0.957820 0.957820 0.957820
0.092237 0.092237 0.092237
0.219824 0.219824 0.219824
0.459279 0.459279 0.459279
0.678527 0.678527 0.678527
0.816002 0.816002 0.816002
0.886957 0.886957 0.886957
0.929853 0.929853 0.929853
0.958977 0.958977 0.958977
0.974143 0.974143 0.974143
0.092237 0.092237 0.092237
0.252354 0.252354 0.252354
0.521833 0.521833 0.521833
0.744853 0.744853 0.744853
0.857465 0.857465 0.857465
0.918399 0.918399 0.918399
0.955050 0.955050 0.955050
0.973118 0.973118 0.973118
0.982513 0.982513 0.982513
0.092237 0.092237 0.092237
0.092237 0.092237 0.092237
0.092237 0.092237 0.092237
0.092237 0.092237 0.092237
0.092237 0.092237 0.092237
0.092237 0.092237 0.092237
0.092237 0.092237 0.092237
0.092237 0.092237 0.092237
0.092237 0.092237 0.092237
0.092237 0.092237 0.092237
0.092466 0.092466 0.092466
0.096493 0.096493 0.096493
0.110702 0.110702 0.110702
0.140645 0.140645 0.140645
0.178355 0.178355 0.178355
0.217407 0.217407 0.217407
0.257893 0.257893 0.257893
0.298137 0.298137 0.298137
0.092237 0.092237 0.092237
0.095809 0.095809 0.095809
0.134739 0.134739 0.134739
0.206492 0.206492 0.206492
0.283997 0.283997 0.283997
0.358482 0.358482 0.358482
0.433260 0.433260 0.433260
0.508022 0.508022 0.508022
0.578724 0.578724 0.578724
0.092237 0.092237 0.092237
0.106401 0.106401 0.106401
0.200363 0.200363 0.200363
0.312173 0.312173 0.312173
0.421261 0.421261 0.421261
0.529440 0.529440 0.529440
0.631724 0.631724 0.631724
0.719339 0.719339 0.719339
0.781556 0.781556 0.781556
0.092237 0.092237 0.092237
0.129318 0.129318 0.129318
0.269739 0.269739 0.269739
0.412949 0.412949 0.412949
0.553230 0.553230 0.553230
0.679872 0.679872 0.679872
0.772477 0.772477 0.772477
0.832789 0.832789 0.832789
0.876686 0.876686 0.876686
0.092237 0.092237 0.092237
0.158992 0.158992 0.158992
0.336212 0.336212 0.336212
0.511987 0.511987 0.511987
0.671491 0.671491 0.671491
0.784665 0.784665 0.784665
0.850882 0.850882 0.850882
0.896254 0.896254 0.896254
0.927346 0.927346 0.927346
0.092237 0.092237 0.092237
0.190583 0.190583 0.190583
0.401507 0.401507 0.401507
0.603940 0.603940 0.603940
0.759859 0.759859 0.759859
0.846752 0.846752 0.846752
0.900377 0.900377 0.900377
0.934651 0.934651 0.934651
0.959356 0.959356 0.959356
0.092237 0.092237 0.092237
0.223171 0.223171 0.223171
0.465795 0.465795 0.465795
0.686242 0.686242 0.686242
0.820443 0.820443 0.820443
0.890448 0.890448 0.890448
0.932579 0.932579 0.932579
0.960516 0.960516 0.960516
0.975705 0.975705 0.975705
0.092237 0.092237 0.092237
0.256197 0.256197 0.256197
0.528795 0.528795 0.528795
0.751031 0.751031 0.751031
0.862131 0.862131 0.862131
0.921092 0.921092 0.921092
0.957184 0.957184 0.957184
0.974679 0.974679 0.974679
0.983089 0.983089 0.983089
0.092237 0.092237 0.092237
0.092237 0.092237 0.092237
0.092237 0.092237 0.092237
0.092237 0.092237 0.092237
0.092237 0.092237 0.092237
0.092237 0.092237 0.092237
0.092237 0.092237 0.092237
0.092237 0.092237 0.092237
0.092237 0.092237 0.092237
0.092237 0.092237 0.092237
0.092483 0.092483 0.092483
0.096657 0.096657 0.096657
0.111514 0.111514 0.111514
0.142324 0.142324 0.142324
0.180484 0.180484 0.180484
0.220108 0.220108 0.220108
0.261097 0.261097 0.261097
0.301625 0.301625 0.301625
0.092237 0.092237 0.092237
0.095972 0.095972 0.095972
0.136071 0.136071 0.136071
0.209058 0.209058 0.209058
0.287340 0.287340 0.287340
0.362675 0.362675 0.362675
0.438276 0.438276 0.438276
0.513903 0.513903 0.513903
0.584998 0.584998 0.584998
0.092237 0.092237 0.092237
0.106988 0.106988 0.106988
0.202852 0.202852 0.202852
0.315825 0.315825 0.315825
0.426137 0.426137 0.426137
0.535204 0.535204 0.535204
0.638572 0.638572 0.638572
0.725730 0.725730 0.725730
0.786849 0.786849 0.786849
0.092237 0.092237 0.092237
0.130597 0.130597 0.130597
0.273090 0.273090 0.273090
0.417730 0.417730 0.417730
0.559254 0.559254 0.559254
0.686181 0.686181 0.686181
0.777708 0.777708 0.777708
0.836490 0.836490 0.836490
0.879669 0.879669 0.879669
0.092237 0.092237 0.092237
0.160890 0.160890 0.160890
0.340145 0.340145 0.340145
0.517680 0.517680 0.517680
0.677722 0.677722 0.677722
0.789979 0.789979 0.789979
0.854664 0.854664 0.854664
0.899135 0.899135 0.899135
0.929567 0.929567 0.929567
0.092237 0.092237 0.092237
0.192869 0.192869 0.192869
0.406160 0.406160 0.406160
0.610487 0.610487 0.610487
0.765004 0.765004 0.765004
0.850515 0.850515 0.850515
0.903272 0.903272 0.903272
0.936890 0.936890 0.936890
0.960614 0.960614 0.960614
0.092237 0.092237 0.092237
0.225944 0.225944 0.225944
0.471187 0.471187 0.471187
0.692610 0.692610 0.692610
0.824089 0.824089 0.824089
0.893310 0.893310 0.893310
0.934813 0.934813 0.934813
0.961775 0.961775 0.961775
0.976984 0.976984 0.976984
0.092237 0.092237 0.092237
0.259380 0.259380 0.259380
0.534552 0.534552 0.534552
0.756117 0.756117 0.756117
0.865963 0.865963 0.865963
0.923298 0.923298 0.923298
0.958438 0.958438 0.958438
0.975956 0.975956 0.975956
0.983560 0.983560 0.983560
0.092237 0.092237 0.092237
0.092237 0.092237 0.092237
0.092237 0.092237 0.092237
0.092237 0.092237 0.092237
0.092237 0.092237 0.092237
0.092237 0.092237 0.092237
0.092237 0.092237 0.092237
0.092237 0.092237 0.092237
0.092237 0.092237 0.092237
0.092237 0.092237 0.092237
0.092497 0.092497 0.092497
0.096797 0.096797 0.096797
0.112206 0.112206 0.112206
0.143759 0.143759 0.143759
0.182303 0.182303 0.182303
0.222418 0.222418 0.222418
0.263837 0.263837 0.263837
0.304605 0.304605 0.304605
0.092237 0.092237 0.092237
0.096111 0.096111 0.096111
0.137208 0.137208 0.137208
0.211252 0.211252 0.211252
0.290180 0.290180 0.290180
0.366259 0.366259 0.366259
0.442562 0.442562 0.442562
0.518634 0.518634 0.518634
0.590355 0.590355 0.590355
0.092237 0.092237 0.092237
0.107488 0.107488 0.107488
0.204981 0.204981 0.204981
0.318946 0.318946 0.318946
0.430305 0.430305 0.430305
0.540127 0.540127 0.540127
0.643954 0.643954 0.643954
0.729883 0.729883 0.729883
0.791352 0.791352 0.791352
0.092237 0.092237 0.092237
0.131689 0.131689 0.131689
0.275956 0.275956 0.275956
0.421814 0.421814 0.421814
0.564390 0.564390 0.564390
0.691561 0.691561 0.691561
0.782158 0.782158 0.782158
0.839632 0.839632 0.839632
0.882200 0.882200 0.882200
0.092237 0.092237 0.092237
0.162512 0.162512 0.162512
0.343506 0.343506 0.343506
0.522441 0.522441 0.522441
0.683036 0.683036 0.683036
0.794500 0.794500 0.794500
0.857874 0.857874 0.857874
0.901578 0.901578 0.901578
0.931449 0.931449 0.931449
0.092237 0.092237 0.092237
0.194822 0.194822 0.194822
0.410132 0.410132 0.410132
0.616077 0.616077 0.616077
0.769382 0.769382 0.769382
0.853710 0.853710 0.853710
0.905726 0.905726 0.905726
0.938786 0.938786 0.938786
0.961678 0.961678 0.961678
0.092237 0.092237 0.092237
0.228315 0.228315 0.228315
0.475795 0.475795 0.475795
0.698040 0.698040 0.698040
0.827185 0.827185 0.827185
0.895737 0.895737 0.895737
0.936705 0.936705 0.936705
0.962840 0.962840 0.962840
0.978067 0.978067 0.978067
0.092237 0.092237 0.092237
0.262102 0.262102 0.262102
0.539469 0.539469 0.539469
0.760444 0.760444 0.760444
0.869216 0.869216 0.869216
0.925167 0.925167 0.925167
0.959500 0.959500 0.959500
0.977038 0.977038 0.977038
0.983958 0.983958 0.983958
0.092237 0.092237 0.092237
0.092237 0.092237 0.092237
0.092237 0.092237 0.092237
0.092237 0.092237 0.092237
0.092237 0.092237 0.092237
0.092237 0.092237 0.092237
0.092237 0.092237 0.092237
0.092237 0.092237 0.092237
0.092237 0.092237 0.092237
0.092237 0.092237 0.092237
0.092510 0.092510 0.092510
0.096917 0.096917 0.096917
0.112808 0.112808 0.112808
0.145014 0.145014 0.145014
0.183896 0.183896 0.183896
0.224439 0.224439 0.224439
0.266234 0.266234 0.266234
0.307211 0.307211 0.307211
0.092237 0.092237 0.092237
0.096231 0.096231 0.096231
0.138201 0.138201 0.138201
0.213171 0.213171 0.213171
0.292662 0.292662 0.292662
0.369392 0.369392 0.369392
0.446308 0.446308 0.446308
0.522764 0.522764 0.522764
0.595035 0.595035 0.595035
0.092237 0.092237 0.092237
0.107922 0.107922 0.107922
0.206843 0.206843 0.206843
0.321674 0.321674 0.321674
0.433947 0.433947 0.433947
0.544428 0.544428 0.544428
0.648325 0.648325 0.648325
0.733500 0.733500 0.733500
0.795273 0.795273 0.795273
0.092237 0.092237 0.092237
0.132641 0.132641 0.132641
0.278463 0.278463 0.278463
0.425385 0.425385 0.425385
0.568865 0.568865 0.568865
0.696256 0.696256 0.696256
0.786034 0.786034 0.786034
0.842363 0.842363 0.842363
0.884398 0.884398 0.884398
0.092237 0.092237 0.092237
0.163930 0.163930 0.163930
0.346445 0.346445 0.346445
0.526601 0.526601 0.526601
0.687672 0.687672 0.687672
0.798437 0.798437 0.798437
0.860665 0.860665 0.860665
0.903700 0.903700 0.903700
0.933082 0.933082 0.933082
0.092237 0.092237 0.092237
0.196530 0.196530 0.196530
0.413604 0.413604 0.413604
0.620962 0.620962 0.620962
0.773195 0.773195 0.773195
0.856487 0.856487 0.856487
0.907858 0.907858 0.907858
0.940433 0.940433 0.940433
0.962601 0.962601 0.962601
0.092237 0.092237 0.092237
0.230389 0.230389 0.230389
0.479822 0.479822 0.479822
0.702779 0.702779 0.702779
0.829876 0.829876 0.829876
0.897846 0.897846 0.897846
0.938348 0.938348 0.938348
0.963764 0.963764 0.963764
0.979005 0.979005 0.979005
0.092237 0.092237 0.092237
0.264483 0.264483 0.264483
0.543764 0.543764 0.543764
0.764212 0.764212 0.764212
0.871951 0.871951 0.871951
0.926789 0.926789 0.926789
0.960421 0.960421 0.960421
0.977975 0.977975 0.977975
0.984304 0.984304 0.984304
