trix_classic/TriX_Red25_Punchy.cube
TITLE "Tri-X Red25 Punchy"
# Adobe RGB in/out. REPLACES AgX. R=0.9735 G=0.0265 B=0.0000
LUT_3D_SIZE 9
DOMAIN_MIN 0.0 0.0 0.0
DOMAIN_MAX 1.0 1.0 1.0
0.092306 0.092306 0.092306
0.092306 0.092306 0.092306
0.092306 0.092306 0.092306
0.092306 0.092306 0.092306
0.092306 0.092306 0.092306
0.092306 0.092306 0.092306
0.092306 0.092306 0.092306
0.092306 0.092306 0.092306
0.092306 0.092306 0.092306
0.092306 0.092306 0.092306
0.094164 0.094164 0.094164
0.155884 0.155884 0.155884
0.325999 0.325999 0.325999
0.489328 0.489328 0.489328
0.636665 0.636665 0.636665
0.769765 0.769765 0.769765
0.877639 0.877639 0.877639
0.942445 0.942445 0.942445
0.092306 0.092306 0.092306
0.094476 0.094476 0.094476
0.160896 0.160896 0.160896
0.335669 0.335669 0.335669
0.501190 0.501190 0.501190
0.650266 0.650266 0.650266
0.783830 0.783830 0.783830
0.887595 0.887595 0.887595
0.949449 0.949449 0.949449
0.092306 0.092306 0.092306
0.094659 0.094659 0.094659
0.163902 0.163902 0.163902
0.341457 0.341457 0.341457
0.508261 0.508261 0.508261
0.658355 0.658355 0.658355
0.792172 0.792172 0.792172
0.893471 0.893471 0.893471
0.953571 0.953571 0.953571
0.092306 0.092306 0.092306
0.094789 0.094789 0.094789
0.166069 0.166069 0.166069
0.345625 0.345625 0.345625
0.513339 0.513339 0.513339
0.664156 0.664156 0.664156
0.798145 0.798145 0.798145
0.897663 0.897663 0.897663
0.956506 0.956506 0.956506
0.092306 0.092306 0.092306
0.094890 0.094890 0.094890
0.167770 0.167770 0.167770
0.348893 0.348893 0.348893
0.517313 0.517313 0.517313
0.668691 0.668691 0.668691
0.802809 0.802809 0.802809
0.900929 0.900929 0.900929
0.958203 0.958203 0.958203
0.092306 0.092306 0.092306
0.094973 0.094973 0.094973
0.169172 0.169172 0.169172
0.351586 0.351586 0.351586
0.520582 0.520582 0.520582
0.672419 0.672419 0.672419
0.806640 0.806640 0.806640
0.903606 0.903606 0.903606
0.959498 0.959498 0.959498
0.092306 0.092306 0.092306
0.095043 0.095043 0.095043
0.170367 0.170367 0.170367
0.353879 0.353879 0.353879
0.523363 0.523363 0.523363
0.675587 0.675587 0.675587
0.809893 0.809893 0.809893
0.905876 0.905876 0.905876
0.960594 0.960594 0.960594
0.092306 0.092306 0.092306
0.095103 0.095103 0.095103
0.171409 0.171409 0.171409
0.355877 0.355877 0.355877
0.525783 0.525783 0.525783
0.678344 0.678344 0.678344
0.812722 0.812722 0.812722
0.907846 0.907846 0.907846
0.961544 0.961544 0.961544
0.092306 0.092306 0.092306
0.092306 0.092306 0.092306
0.092306 0.092306 0.092306
0.092306 0.092306 0.092306
0.092306 0.092306 0.092306
0.092306 0.092306 0.092306
0.092306 0.092306 0.092306
0.092306 0.092306 0.092306
0.092306 0.092306 0.092306
0.092306 0.092306 0.092306
0.094164 0.094164 0.094164
0.155884 0.155884 0.155884
0.325999 0.325999 0.325999
0.489328 0.489328 0.489328
0.636665 0.636665 0.636665
0.769765 0.769765 0.769765
0.877639 0.877639 0.877639
0.942445 0.942445 0.942445
0.092306 0.092306 0.092306
0.094476 0.094476 0.094476
0.160896 0.160896 0.160896
0.335669 0.335669 0.335669
0.501190 0.501190 0.501190
0.650266 0.650266 0.650266
0.783830 0.783830 0.783830
0.887595 0.887595 0.887595
0.949449 0.949449 0.949449
0.092306 0.092306 0.092306
0.094659 0.094659 0.094659
0.163902 0.163902 0.163902
0.341457 0.341457 0.341457
0.508261 0.508261 0.508261
0.658355 0.658355 0.658355
0.792172 0.792172 0.792172
0.893471 0.893471 0.893471
0.953571 0.953571 0.953571
0.092306 0.092306 0.092306
0.094789 0.094789 0.094789
0.166069 0.166069 0.166069
0.345625 0.345625 0.345625
0.513339 0.513339 0.513339
0.664156 0.664156 0.664156
0.798145 0.798145 0.798145
0.897663 0.897663 0.897663
0.956506 0.956506 0.956506
0.092306 0.092306 0.092306
0.094890 0.094890 0.094890
0.167770 0.167770 0.167770
0.348893 0.348893 0.348893
0.517313 0.517313 0.517313
0.668691 0.668691 0.668691
0.802809 0.802809 0.802809
0.900929 0.900929 0.900929
0.958203 0.958203 0.958203
0.092306 0.092306 0.092306
0.094973 0.094973 0.094973
0.169172 0.169172 0.169172
0.351586 0.351586 0.351586
0.520582 0.520582 0.520582
0.672419 0.672419 0.672419
0.806640 0.806640 0.806640
0.903606 0.903606 0.903606
0.959498 0.959498 0.959498
0.092306 0.092306 0.092306
0.095043 0.095043 0.095043
0.170367 0.170367 0.170367
0.353879 0.353879 0.353879
0.523363 0.523363 0.523363
0.675587 0.675587 0.675587
0.809893 0.809893 0.809893
0.905876 0.905876 0.905876
0.960594 0.960594 0.960594
0.092306 0.092306 0.092306
0.095103 0.095103 0.095103
0.171409 0.171409 0.171409
0.355877 0.355877 0.355877
0.525783 0.525783 0.525783
0.678344 0.678344 0.678344
0.812722 0.812722 0.812722
0.907846 0.907846 0.907846
0.961544 0.961544 0.961544
0.092306 0.092306 0.092306
0.092306 0.092306 0.092306
0.092306 0.092306 0.092306
0.092306 0.092306 0.092306
0.092306 0.092306 0.092306
0.092306 0.092306 0.092306
0.092306 0.092306 0.092306
0.092306 0.092306 0.092306
0.092306 0.092306 0.092306
0.092306 0.092306 0.092306
0.094164 0.094164 0.094164
0.155884 0.155884 0.155884
0.325999 0.325999 0.325999
0.489328 0.489328 0.489328
0.636665 0.636665 0.636665
0.769765 0.769765 0.769765
0.877639 0.877639 0.877639
0.942445 0.942445 0.942445
0.092306 0.092306 0.092306
0.094476 0.094476 0.094476
0.160896 0.160896 0.160896
0.335669 0.335669 0.335669
0.501190 0.501190 0.501190
0.650266 0.650266 0.650266
0.783830 0.783830 0.783830
0.887595 0.887595 0.887595
0.949449 0.949449 0.949449
0.092306 0.092306 0.092306
0.094659 0.094659 0.094659
0.163902 0.163902 0.163902
0.341457 0.341457 0.341457
0.508261 0.508261 0.508261
0.658355 0.658355 0.658355
0.792172 0.792172 0.792172
0.893471 0.893471 0.893471
0.953571 0.953571 0.953571
0.092306 0.092306 0.092306
0.094789 0.094789 0.094789
0.166069 0.166069 0.166069
0.345625 0.345625 0.345625
0.513339 0.513339 0.513339
0.664156 0.664156 0.664156
0.798145 0.798145 0.798145
0.897663 0.897663 0.897663
0.956506 0.956506 0.956506
0.092306 0.092306 0.092306
0.094890 0.094890 0.094890
0.167770 0.167770 0.167770
0.348893 0.348893 0.348893
0.517313 0.517313 0.517313
0.668691 0.668691 0.668691
0.802809 0.802809 0.802809
0.900929 0.900929 0.900929
0.958203 0.958203 0.958203
0.092306 0.092306 0.092306
0.094973 0.094973 0.094973
0.169172 0.169172 0.169172
0.351586 0.351586 0.351586
0.520582 0.520582 0.520582
0.672419 0.672419 0.672419
0.806640 0.806640 0.806640
0.903606 0.903606 0.903606
0.959498 0.959498 0.959498
0.092306 0.092306 0.092306
0.095043 0.095043 0.095043
0.170367 0.170367 0.170367
0.353879 0.353879 0.353879
0.523363 0.523363 0.523363
0.675587 0.675587 0.675587
0.809893 0.809893 0.809893
0.905876 0.905876 0.905876
0.960594 0.960594 0.960594
0.092306 0.092306 0.092306
0.095103 0.095103 0.095103
0.171409 0.171409 0.171409
0.355877 0.355877 0.355877
0.525783 0.525783 0.525783
0.678344 0.678344 0.678344
0.812722 0.812722 0.812722
0.907846 0.907846 0.907846
0.961544 0.961544 0.961544
0.092306 0.092306 0.092306
0.092306 0.092306 0.092306
0.092306 0.092306 0.092306
0.092306 0.092306 0.092306
0.092306 0.092306 0.092306
0.092306 0.092306 0.092306
0.092306 0.092306 0.092306
0.092306 0.092306 0.092306
0.092306 0.092306 0.092306
0.092306 0.092306 0.092306
0.094164 0.094164 0.094164
0.155884 0.155884 0.155884
0.325999 0.325999 0.325999
0.489328 0.489328 0.489328
0.636665 0.636665 0.636665
0.769765 0.769765 0.769765
0.877639 0.877639 0.877639
0.942445 0.942445 0.942445
0.092306 0.092306 0.092306
0.094476 0.094476 0.094476
0.160896 0.160896 0.160896
0.335669 0.335669 0.335669
0.501190 0.501190 0.501190
0.650266 0.650266 0.650266
0.783830 0.783830 0.783830
0.887595 0.887595 0.887595
0.949449 0.949449 0.949449
0.092306 0.092306 0.092306
0.094659 0.094659 0.094659
0.163902 0.163902 0.163902
0.341457 0.341457 0.341457
0.508261 0.508261 0.508261
0.658355 0.658355 0.658355
0.792172 0.792172 0.792172
0.893471 0.893471 0.893471
0.953571 0.953571 0.953571
0.092306 0.092306 0.092306
0.094789 0.094789 0.094789
0.166069 0.166069 0.166069
0.345625 0.345625 0.345625
0.513339 0.513339 0.513339
0.664156 0.664156 0.664156
0.798145 0.798145 0.798145
0.897663 0.897663 0.897663
0.956506 0.956506 0.956506
0.092306 0.092306 0.092306
0.094890 0.094890 0.094890
0.167770 0.167770 0.167770
0.348893 0.348893 0.348893
0.517313 0.517313 0.517313
0.668691 0.668691 0.668691
0.802809 0.802809 0.802809
0.900929 0.900929 0.900929
0.958203 0.958203 0.958203
0.092306 0.092306 0.092306
0.094973 0.094973 0.094973
0.169172 0.169172 0.169172
0.351586 0.351586 0.351586
0.520582 0.520582 0.520582
0.672419 0.672419 0.672419
0.806640 0.806640 0.806640
0.903606 0.903606 0.903606
0.959498 0.959498 0.959498
0.092306 0.092306 0.092306
0.095043 0.095043 0.095043
0.170367 0.170367 0.170367
0.353879 0.353879 0.353879
0.523363 0.523363 0.523363
0.675587 0.675587 0.675587
0.809893 0.809893 0.809893
0.905876 0.905876 0.905876
0.960594 0.960594 0.960594
0.092306 0.092306 0.092306
0.095103 0.095103 0.095103
0.171409 0.171409 0.171409
0.355877 0.355877 0.355877
0.525783 0.525783 0.525783
0.678344 0.678344 0.678344
0.812722 0.812722 0.812722
0.907846 0.907846 0.907846
0.961544 0.961544 0.961544
0.092306 0.092306 0.092306
0.092306 0.092306 0.092306
0.092306 0.092306 0.092306
0.092306 0.092306 0.092306
0.092306 0.092306 0.092306
0.092306 0.092306 0.092306
0.092306 0.092306 0.092306
0.092306 0.092306 0.092306
0.092306 0.092306 0.092306
0.092306 0.092306 0.092306
0.094164 0.094164 0.094164
0.155884 0.155884 0.155884
0.325999 0.325999 0.325999
0.489328 0.489328 0.489328
0.636665 0.636665 0.636665
0.769765 0.769765 0.769765
0.877639 0.877639 0.877639
0.942445 0.942445 0.942445
0.092306 0.092306 0.092306
0.094476 0.094476 0.094476
0.160896 0.160896 0.160896
0.335669 0.335669 0.335669
0.501190 0.501190 0.501190
0.650266 0.650266 0.650266
0.783830 0.783830 0.783830
0.887595 0.887595 0.887595
0.949449 0.949449 0.949449
0.092306 0.092306 0.092306
0.094659 0.094659 0.094659
0.163902 0.163902 0.163902
0.341457 0.341457 0.341457
0.508261 0.508261 0.508261
0.658355 0.658355 0.658355
0.792172 0.792172 0.792172
0.893471 0.893471 0.893471
0.953571 0.953571 0.953571
0.092306 0.092306 0.092306
0.094789 0.094789 0.094789
0.166069 0.166069 0.166069
0.345625 0.345625 0.345625
0.513339 0.513339 0.513339
0.664156 0.664156 0.664156
0.798145 0.798145 0.798145
0.897663 0.897663 0.897663
0.956506 0.956506 0.956506
0.092306 0.092306 0.092306
0.094890 0.094890 0.094890
0.167770 0.167770 0.167770
0.348893 0.348893 0.348893
0.517313 0.517313 0.517313
0.668691 0.668691 0.668691
0.802809 0.802809 0.802809
0.900929 0.900929 0.900929
0.958203 0.958203 0.958203
0.092306 0.092306 0.092306
0.094973 0.094973 0.094973
0.169172 0.169172 0.169172
0.351586 0.351586 0.351586
0.520582 0.520582 0.520582
0.672419 0.672419 0.672419
0.806640 0.806640 0.806640
0.903606 0.903606 0.903606
0.959498 0.959498 0.959498
0.092306 0.092306 0.092306
0.095043 0.095043 0.095043
0.170367 0.170367 0.170367
0.353879 0.353879 0.353879
0.523363 0.523363 0.523363
0.675587 0.675587 0.675587
0.809893 0.809893 0.809893
0.905876 0.905876 0.905876
0.960594 0.960594 0.960594
0.092306 0.092306 0.092306
0.095103 0.095103 0.095103
0.171409 0.171409 0.171409
0.355877 0.355877 0.355877
0.525783 0.525783 0.525783
0.678344 0.678344 0.678344
0.812722 0.812722 0.812722
0.907846 0.907846 0.907846
0.961544 0.961544 0.961544
0.092306 0.092306 0.092306
0.092306 0.092306 0.092306
0.092306 0.092306 0.092306
0.092306 0.092306 0.092306
0.092306 0.092306 0.092306
0.092306 0.092306 0.092306
0.092306 0.092306 0.092306
0.092306 0.092306 0.092306
0.092306 0.092306 0.092306
0.092306 0.092306 0.092306
0.094164 0.094164 0.094164
0.155884 0.155884 0.155884
0.325999 0.325999 0.325999
0.489328 0.489328 0.489328
0.636665 0.636665 0.636665
0.769765 0.769765 0.769765
0.877639 0.877639 0.877639
0.942445 0.942445 0.942445
0.092306 0.092306 0.092306
0.094476 0.094476 0.094476
0.160896 0.160896 0.160896
0.335669 0.335669 0.335669
0.501190 0.501190 0.501190
0.650266 0.650266 0.650266
0.783830 0.783830 0.783830
0.887595 0.887595 0.887595
0.949449 0.949449 0.949449
0.092306 0.092306 0.092306
0.094659 0.094659 0.094659
0.163902 0.163902 0.163902
0.341457 0.341457 0.341457
0.508261 0.508261 0.508261
0.658355 0.658355 0.658355
0.792172 0.792172 0.792172
0.893471 0.893471 0.893471
0.953571 0.953571 0.953571
0.092306 0.092306 0.092306
0.094789 0.094789 0.094789
0.166069 0.166069 0.166069
0.345625 0.345625 0.345625
0.513339 0.513339 0.513339
0.664156 0.664156 0.664156
0.798145 0.798145 0.798145
0.897663 0.897663 0.897663
0.956506 0.956506 0.956506
0.092306 0.092306 0.092306
0.094890 0.094890 0.094890
0.167770 0.167770 0.167770
0.348893 0.348893 0.348893
0.517313 0.517313 0.517313
0.668691 0.668691 0.668691
0.802809 0.802809 0.802809
0.900929 0.900929 0.900929
0.958203 0.958203 0.958203
0.092306 0.092306 0.092306
0.094973 0.094973 0.094973
0.169172 0.169172 0.169172
0.351586 0.351586 0.351586
0.520582 0.520582 0.520582
0.672419 0.672419 0.672419
0.806640 0.806640 0.806640
0.903606 0.903606 0.903606
0.959498 0.959498 0.959498
0.092306 0.092306 0.092306
0.095043 0.095043 0.095043
0.170367 0.170367 0.170367
0.353879 0.353879 0.353879
0.523363 0.523363 0.523363
0.675587 0.675587 0.675587
0.809893 0.809893 0.809893
0.905876 0.905876 0.905876
0.960594 0.960594 0.960594
0.092306 0.092306 0.092306
0.095103 0.095103 0.095103
0.171409 0.171409 0.171409
0.355877 0.355877 0.355877
0.525783 0.525783 0.525783
0.678344 0.678344 0.678344
0.812722 0.812722 0.812722
0.907846 0.907846 0.907846
0.961544 0.961544 0.961544
0.092306 0.092306 0.092306
0.092306 0.092306 0.092306
0.092306 0.092306 0.092306
0.092306 0.092306 0.092306
0.092306 0.092306 0.092306
0.092306 0.092306 0.092306
0.092306 0.092306 0.092306
0.092306 0.092306 0.092306
0.092306 0.092306 0.092306
0.092306 0.092306 0.092306
0.094164 0.094164 0.094164
0.155884 0.155884 0.155884
0.325999 0.325999 0.325999
0.489328 0.489328 0.489328
0.636665 0.636665 0.636665
0.769765 0.769765 0.769765
0.877639 0.877639 0.877639
0.942445 0.942445 0.942445
0.092306 0.092306 0.092306
0.094476 0.094476 0.094476
0.160896 0.160896 0.160896
0.335669 0.335669 0.335669
0.501190 0.501190 0.501190
0.650266 0.650266 0.650266
0.783830 0.783830 0.783830
0.887595 0.887595 0.887595
0.949449 0.949449 0.949449
0.092306 0.092306 0.092306
0.094659 0.094659 0.094659
0.163902 0.163902 0.163902
0.341457 0.341457 0.341457
0.508261 0.508261 0.508261
0.658355 0.658355 0.658355
0.792172 0.792172 0.792172
0.893471 0.893471 0.893471
0.953571 0.953571 0.953571
0.092306 0.092306 0.092306
0.094789 0.094789 0.094789
0.166069 0.166069 0.166069
0.345625 0.345625 0.345625
0.513339 0.513339 0.513339
0.664156 0.664156 0.664156
0.798145 0.798145 0.798145
0.897663 0.897663 0.897663
0.956506 0.956506 0.956506
0.092306 0.092306 0.092306
0.094890 0.094890 0.094890
0.167770 0.167770 0.167770
0.348893 0.348893 0.348893
0.517313 0.517313 0.517313
0.668691 0.668691 0.668691
0.802809 0.802809 0.802809
0.900929 0.900929 0.900929
0.958203 0.958203 0.958203
0.092306 0.092306 0.092306
0.094973 0.094973 0.094973
0.169172 0.169172 0.169172
0.351586 0.351586 0.351586
0.520582 0.520582 0.520582
0.672419 0.672419 0.672419
0.806640 0.806640 0.806640
0.903606 0.903606 0.903606
0.959498 0.959498 0.959498
0.092306 0.092306 0.092306
0.095043 0.095043 0.095043
0.170367 0.170367 0.170367
0.353879 0.353879 0.353879
0.523363 0.523363 0.523363
0.675587 0.675587 0.675587
0.809893 0.809893 0.809893
0.905876 0.905876 0.905876
0.960594 0.960594 0.960594
0.092306 0.092306 0.092306
0.095103 0.095103 0.095103
0.171409 0.171409 0.171409
0.355877 0.355877 0.355877
0.525783 0.525783 0.525783
0.678344 0.678344 0.678344
0.812722 0.812722 0.812722
0.907846 0.907846 0.907846
0.961544 0.961544 0.961544
0.092306 0.092306 0.092306
0.092306 0.092306 0.092306
0.092306 0.092306 0.092306
0.092306 0.092306 0.092306
0.092306 0.092306 0.092306
0.092306 0.092306 0.092306
0.092306 0.092306 0.092306
0.092306 0.092306 0.092306
0.092306 0.092306 0.092306
0.092306 0.092306 0.092306
0.094164 0.094164 0.094164
0.155884 0.155884 0.155884
0.325999 0.325999 0.325999
0.489328 0.489328 0.489328
0.636665 0.636665 0.636665
0.769765 0.769765 0.769765
0.877639 0.877639 0.877639
0.942445 0.942445 0.942445
0.092306 0.092306 0.092306
0.094476 0.094476 0.094476
0.160896 0.160896 0.160896
0.335669 0.335669 0.335669
0.501190 0.501190 0.501190
0.650266 0.650266 0.650266
0.783830 0.783830 0.783830
0.887595 0.887595 0.887595
0.949449 0.949449 0.949449
0.092306 0.092306 0.092306
0.094659 0.094659 0.094659
0.163902 0.163902 0.163902
0.341457 0.341457 0.341457
0.508261 0.508261 0.508261
0.658355 0.658355 0.658355
0.792172 0.792172 0.792172
0.893471 0.893471 0.893471
0.953571 0.953571 0.953571
0.092306 0.092306 0.092306
0.094789 0.094789 0.094789
0.166069 0.166069 0.166069
0.345625 0.345625 0.345625
0.513339 0.513339 0.513339
0.664156 0.664156 0.664156
0.798145 0.798145 0.798145
0.897663 0.897663 0.897663
0.956506 0.956506 0.956506
0.092306 0.092306 0.092306
0.094890 0.094890 0.094890
0.167770 0.167770 0.167770
0.348893 0.348893 0.348893
0.517313 0.517313 0.517313
0.668691 0.668691 0.668691
0.802809 0.802809 0.802809
0.900929 0.900929 0.900929
0.958203 0.958203 0.958203
0.092306 0.092306 0.092306
0.094973 0.094973 0.094973
0.169172 0.169172 0.169172
0.351586 0.351586 0.351586
0.520582 0.520582 0.520582
0.672419 0.672419 0.672419
0.806640 0.806640 0.806640
0.903606 0.903606 0.903606
0.959498 0.959498 0.959498
0.092306 0.092306 0.092306
0.095043 0.095043 0.095043
0.170367 0.170367 0.170367
0.353879 0.353879 0.353879
0.523363 0.523363 0.523363
0.675587 0.675587 0.675587
0.809893 0.809893 0.809893
0.905876 0.905876 0.905876
0.960594 0.960594 0.960594
0.092306 0.092306 0.092306
0.095103 0.095103 0.095103
0.171409 0.171409 0.171409
0.355877 0.355877 0.355877
0.525783 0.525783 0.525783
0.678344 0.678344 0.678344
0.812722 0.812722 0.812722
0.907846 0.907846 0.907846
0.961544 0.961544 0.961544
0.092306 0.092306 0.092306
0.092306 0.092306 0.092306
0.092306 0.092306 0.092306
0.092306 0.092306 0.092306
0.092306 0.092306 0.092306
0.092306 0.092306 0.092306
0.092306 0.092306 0.092306
0.092306 0.092306 0.092306
0.092306 0.092306 0.092306
0.092306 0.092306 0.092306
0.094164 0.094164 0.094164
0.155884 0.155884 0.155884
0.325999 0.325999 0.325999
0.489328 0.489328 0.489328
0.636665 0.636665 0.636665
0.769765 0.769765 0.769765
0.877639 0.877639 0.877639
0.942445 0.942445 0.942445
0.092306 0.092306 0.092306
0.094476 0.094476 0.094476
0.160896 0.160896 0.160896
0.335669 0.335669 0.335669
0.501190 0.501190 0.501190
0.650266 0.650266 0.650266
0.783830 0.783830 0.783830
0.887595 0.887595 0.887595
0.949449 0.949449 0.949449
0.092306 0.092306 0.092306
0.094659 0.094659 0.094659
0.163902 0.163902 0.163902
0.341457 0.341457 0.341457
0.508261 0.508261 0.508261
0.658355 0.658355 0.658355
0.792172 0.792172 0.792172
0.893471 0.893471 0.893471
0.953571 0.953571 0.953571
0.092306 0.092306 0.092306
0.094789 0.094789 0.094789
0.166069 0.166069 0.166069
0.345625 0.345625 0.345625
0.513339 0.513339 0.513339
0.664156 0.664156 0.664156
0.798145 0.798145 0.798145
0.897663 0.897663 0.897663
0.956506 0.956506 0.956506
0.092306 0.092306 0.092306
0.094890 0.094890 0.094890
0.167770 0.167770 0.167770
0.348893 0.348893 0.348893
0.517313 0.517313 0.517313
0.668691 0.668691 0.668691
0.802809 0.802809 0.802809
0.900929 0.900929 0.900929
0.958203 0.958203 0.958203
0.092306 0.092306 0.092306
0.094973 0.094973 0.094973
0.169172 0.169172 0.169172
0.351586 0.351586 0.351586
0.520582 0.520582 0.520582
0.672419 0.672419 0.672419
0.806640 0.806640 0.806640
0.903606 0.903606 0.903606
0.959498 0.959498 0.959498
0.092306 0.092306 0.092306
0.095043 0.095043 0.095043
0.170367 0.170367 0.170367
0.353879 0.353879 0.353879
0.523363 0.523363 0.523363
0.675587 0.675587 0.675587
0.809893 0.809893 0.809893
0.905876 0.905876 0.905876
0.960594 0.960594 0.960594
0.092306 0.092306 0.092306
0.095103 0.095103 0.095103
0.171409 0.171409 0.171409
0.355877 0.355877 0.355877
0.525783 0.525783 0.525783
0.678344 0.678344 0.678344
0.812722 0.812722 0.812722
0.907846 0.907846 0.907846
0.961544 0.961544 0.961544
