trix_classic/TriX_Orange21_ExtraPunchy.cube
TITLE "Tri-X Orange21 ExtraPunchy"
# Adobe RGB in/out. REPLACES AgX. Tri-X Orange21 ExtraPunchy.
LUT_3D_SIZE 5
DOMAIN_MIN 0.0 0.0 0.0
DOMAIN_MAX 1.0 1.0 1.0
0.092237 0.092237 0.092237
0.093530 0.093530 0.093530
0.321468 0.321468 0.321468
0.816513 0.816513 0.816513
0.959743 0.959743 0.959743
0.092237 0.092237 0.092237
0.117543 0.117543 0.117543
0.419779 0.419779 0.419779
0.823080 0.823080 0.823080
0.959744 0.959744 0.959744
0.100260 0.100260 0.100260
0.197591 0.197591 0.197591
0.550564 0.550564 0.550564
0.867733 0.867733 0.867733
0.973953 0.973953 0.973953
0.219443 0.219443 0.219443
0.341000 0.341000 0.341000
0.693865 0.693865 0.693865
0.911780 0.911780 0.911780
0.979845 0.979845 0.979845
0.385271 0.385271 0.385271
0.668885 0.668885 0.668885
0.828585 0.828585 0.828585
0.941923 0.941923 0.941923
0.983824 0.983824 0.983824
0.092237 0.092237 0.092237
0.092803 0.092803 0.092803
0.304229 0.304229 0.304229
0.814879 0.814879 0.814879
0.959744 0.959744 0.959744
0.092237 0.092237 0.092237
0.128236 0.128236 0.128236
0.370890 0.370890 0.370890
0.821902 0.821902 0.821902
0.959744 0.959744 0.959744
0.114718 0.114718 0.114718
0.210037 0.210037 0.210037
0.539315 0.539315 0.539315
0.857939 0.857939 0.857939
0.973788 0.973788 0.973788
0.256000 0.256000 0.256000
0.364836 0.364836 0.364836
0.695594 0.695594 0.695594
0.909794 0.909794 0.909794
0.979919 0.979919 0.979919
0.385313 0.385313 0.385313
0.668886 0.668886 0.668886
0.831260 0.831260 0.831260
0.943423 0.943423 0.943423
0.983865 0.983865 0.983865
0.092237 0.092237 0.092237
0.097506 0.097506 0.097506
0.309203 0.309203 0.309203
0.812206 0.812206 0.812206
0.959744 0.959744 0.959744
0.092629 0.092629 0.092629
0.121459 0.121459 0.121459
0.366707 0.366707 0.366707
0.820145 0.820145 0.820145
0.959744 0.959744 0.959744
0.132423 0.132423 0.132423
0.222683 0.222683 0.222683
0.545947 0.545947 0.545947
0.853832 0.853832 0.853832
0.973327 0.973327 0.973327
0.297659 0.297659 0.297659
0.395605 0.395605 0.395605
0.703708 0.703708 0.703708
0.906160 0.906160 0.906160
0.979942 0.979942 0.979942
0.550544 0.550544 0.550544
0.630782 0.630782 0.630782
0.838910 0.838910 0.838910
0.946889 0.946889 0.946889
0.984031 0.984031 0.984031
0.092237 0.092237 0.092237
0.101298 0.101298 0.101298
0.331529 0.331529 0.331529
0.812403 0.812403 0.812403
0.959742 0.959742 0.959742
0.092851 0.092851 0.092851
0.122990 0.122990 0.122990
0.381769 0.381769 0.381769
0.820806 0.820806 0.820806
0.959720 0.959720 0.959720
0.145246 0.145246 0.145246
0.233473 0.233473 0.233473
0.534337 0.534337 0.534337
0.853282 0.853282 0.853282
0.973194 0.973194 0.973194
0.314233 0.314233 0.314233
0.409004 0.409004 0.409004
0.707472 0.707472 0.707472
0.903272 0.903272 0.903272
0.979985 0.979985 0.979985
0.564053 0.564053 0.564053
0.655410 0.655410 0.655410
0.843851 0.843851 0.843851
0.948797 0.948797 0.948797
0.984149 0.984149 0.984149
0.092545 0.092545 0.092545
0.094977 0.094977 0.094977
0.353562 0.353562 0.353562
0.827376 0.827376 0.827376
0.959744 0.959744 0.959744
0.094981 0.094981 0.094981
0.106293 0.106293 0.106293
0.381145 0.381145 0.381145
0.834335 0.834335 0.834335
0.959747 0.959747 0.959747
0.167282 0.167282 0.167282
0.229297 0.229297 0.229297
0.497748 0.497748 0.497748
0.861507 0.861507 0.861507
0.977723 0.977723 0.977723
0.316551 0.316551 0.316551
0.402504 0.402504 0.402504
0.683280 0.683280 0.683280
0.895942 0.895942 0.895942
0.981568 0.981568 0.981568
0.504489 0.504489 0.504489
0.668887 0.668887 0.668887
0.844044 0.844044 0.844044
0.947761 0.947761 0.947761
0.984304 0.984304 0.984304
