trix_classic/TriX_Blue47_Normal.cube
TITLE "Tri-X Blue47 Normal"
# Adobe RGB in/out. REPLACES AgX. R=0.0336 G=0.0311 B=0.9353
LUT_3D_SIZE 5
DOMAIN_MIN 0.0 0.0 0.0
DOMAIN_MAX 1.0 1.0 1.0
0.093230 0.093230 0.093230
0.093230 0.093230 0.093230
0.093230 0.093230 0.093230
0.093230 0.093230 0.093230
0.093230 0.093230 0.093230
0.093230 0.093230 0.093230
0.093230 0.093230 0.093230
0.093230 0.093230 0.093230
0.093230 0.093230 0.093230
0.093230 0.093230 0.093230
0.093230 0.093230 0.093230
0.093230 0.093230 0.093230
0.093230 0.093230 0.093230
0.093230 0.093230 0.093230
0.093230 0.093230 0.093230
0.093230 0.093230 0.093230
0.093230 0.093230 0.093230
0.093230 0.093230 0.093230
0.093230 0.093230 0.093230
0.093230 0.093230 0.093230
0.093230 0.093230 0.093230
0.093230 0.093230 0.093230
0.093230 0.093230 0.093230
0.093230 0.093230 0.093230
0.093230 0.093230 0.093230
0.093230 0.093230 0.093230
0.093230 0.093230 0.093230
0.093230 0.093230 0.093230
0.093230 0.093230 0.093230
0.093230 0.093230 0.093230
0.093230 0.093230 0.093230
0.204394 0.204394 0.204394
0.212156 0.212156 0.212156
0.216833 0.216833 0.216833
0.220213 0.220213 0.220213
0.093230 0.093230 0.093230
0.211580 0.211580 0.211580
0.219615 0.219615 0.219615
0.224456 0.224456 0.224456
0.227956 0.227956 0.227956
0.093230 0.093230 0.093230
0.215900 0.215900 0.215900
0.224100 0.224100 0.224100
0.229040 0.229040 0.229040
0.232610 0.232610 0.232610
0.093230 0.093230 0.093230
0.219019 0.219019 0.219019
0.227337 0.227337 0.227337
0.232348 0.232348 0.232348
0.235970 0.235970 0.235970
0.093230 0.093230 0.093230
0.093230 0.093230 0.093230
0.093230 0.093230 0.093230
0.093230 0.093230 0.093230
0.093230 0.093230 0.093230
0.093230 0.093230 0.093230
0.481735 0.481735 0.481735
0.495197 0.495197 0.495197
0.503246 0.503246 0.503246
0.509035 0.509035 0.509035
0.093230 0.093230 0.093230
0.494202 0.494202 0.494202
0.508013 0.508013 0.508013
0.516269 0.516269 0.516269
0.521990 0.521990 0.521990
0.093230 0.093230 0.093230
0.501644 0.501644 0.501644
0.515663 0.515663 0.515663
0.523749 0.523749 0.523749
0.529526 0.529526 0.529526
0.093230 0.093230 0.093230
0.506992 0.506992 0.506992
0.520985 0.520985 0.520985
0.529102 0.529102 0.529102
0.534938 0.534938 0.534938
0.093230 0.093230 0.093230
0.093230 0.093230 0.093230
0.093230 0.093230 0.093230
0.093230 0.093230 0.093230
0.093230 0.093230 0.093230
0.093230 0.093230 0.093230
0.732740 0.732740 0.732740
0.749761 0.749761 0.749761
0.759900 0.759900 0.759900
0.766792 0.766792 0.766792
0.093230 0.093230 0.093230
0.748506 0.748506 0.748506
0.765580 0.765580 0.765580
0.775356 0.775356 0.775356
0.781359 0.781359 0.781359
0.093230 0.093230 0.093230
0.757885 0.757885 0.757885
0.774639 0.774639 0.774639
0.782937 0.782937 0.782937
0.788108 0.788108 0.788108
0.093230 0.093230 0.093230
0.764369 0.764369 0.764369
0.780455 0.780455 0.780455
0.787730 0.787730 0.787730
0.792933 0.792933 0.792933
0.093230 0.093230 0.093230
0.093230 0.093230 0.093230
0.093230 0.093230 0.093230
0.093230 0.093230 0.093230
0.093230 0.093230 0.093230
0.093230 0.093230 0.093230
0.891492 0.891492 0.891492
0.901904 0.901904 0.901904
0.908050 0.908050 0.908050
0.912437 0.912437 0.912437
0.093230 0.093230 0.093230
0.901140 0.901140 0.901140
0.911664 0.911664 0.911664
0.917877 0.917877 0.917877
0.922311 0.922311 0.922311
0.093230 0.093230 0.093230
0.906832 0.906832 0.906832
0.917423 0.917423 0.917423
0.923675 0.923675 0.923675
0.928137 0.928137 0.928137
0.093230 0.093230 0.093230
0.910892 0.910892 0.910892
0.921530 0.921530 0.921530
0.927810 0.927810 0.927810
0.932292 0.932292 0.932292
