trix_classic/TriX_Yellow8_Punchy.cube
TITLE "Tri-X Yellow8 Punchy"
# Adobe RGB in/out. REPLACES AgX. R=0.5015 G=0.4679 B=0.0307
LUT_3D_SIZE 5
DOMAIN_MIN 0.0 0.0 0.0
DOMAIN_MAX 1.0 1.0 1.0
0.091936 0.091936 0.091936
0.091936 0.091936 0.091936
0.091936 0.091936 0.091936
0.091936 0.091936 0.091936
0.091936 0.091936 0.091936
0.091936 0.091936 0.091936
0.091936 0.091936 0.091936
0.091936 0.091936 0.091936
0.091936 0.091936 0.091936
0.091936 0.091936 0.091936
0.091936 0.091936 0.091936
0.091936 0.091936 0.091936
0.091936 0.091936 0.091936
0.091936 0.091936 0.091936
0.091936 0.091936 0.091936
0.091936 0.091936 0.091936
0.091936 0.091936 0.091936
0.091936 0.091936 0.091936
0.091936 0.091936 0.091936
0.091936 0.091936 0.091936
0.091936 0.091936 0.091936
0.091936 0.091936 0.091936
0.091936 0.091936 0.091936
0.091936 0.091936 0.091936
0.091936 0.091936 0.091936
0.091936 0.091936 0.091936
0.091936 0.091936 0.091936
0.091936 0.091936 0.091936
0.091936 0.091936 0.091936
0.091936 0.091936 0.091936
0.091936 0.091936 0.091936
0.152941 0.152941 0.152941
0.305175 0.305175 0.305175
0.426449 0.426449 0.426449
0.514725 0.514725 0.514725
0.091936 0.091936 0.091936
0.291398 0.291398 0.291398
0.499309 0.499309 0.499309
0.637301 0.637301 0.637301
0.745046 0.745046 0.745046
0.091936 0.091936 0.091936
0.404809 0.404809 0.404809
0.627419 0.627419 0.627419
0.779152 0.779152 0.779152
0.876837 0.876837 0.876837
0.091936 0.091936 0.091936
0.484355 0.484355 0.484355
0.728122 0.728122 0.728122
0.870852 0.870852 0.870852
0.940798 0.940798 0.940798
0.091936 0.091936 0.091936
0.091936 0.091936 0.091936
0.091936 0.091936 0.091936
0.091936 0.091936 0.091936
0.091936 0.091936 0.091936
0.091936 0.091936 0.091936
0.159052 0.159052 0.159052
0.318297 0.318297 0.318297
0.438432 0.438432 0.438432
0.529165 0.529165 0.529165
0.091936 0.091936 0.091936
0.303927 0.303927 0.303927
0.513339 0.513339 0.513339
0.653009 0.653009 0.653009
0.760811 0.760811 0.760811
0.091936 0.091936 0.091936
0.417803 0.417803 0.417803
0.642883 0.642883 0.642883
0.794717 0.794717 0.794717
0.887714 0.887714 0.887714
0.091936 0.091936 0.091936
0.497965 0.497965 0.497965
0.743530 0.743530 0.743530
0.882744 0.882744 0.882744
0.948443 0.948443 0.948443
0.091936 0.091936 0.091936
0.091936 0.091936 0.091936
0.091936 0.091936 0.091936
0.091936 0.091936 0.091936
0.091936 0.091936 0.091936
0.091936 0.091936 0.091936
0.162740 0.162740 0.162740
0.325268 0.325268 0.325268
0.445597 0.445597 0.445597
0.537776 0.537776 0.537776
0.091936 0.091936 0.091936
0.311505 0.311505 0.311505
0.521729 0.521729 0.521729
0.662376 0.662376 0.662376
0.770188 0.770188 0.770188
0.091936 0.091936 0.091936
0.424631 0.424631 0.424631
0.652105 0.652105 0.652105
0.803966 0.803966 0.803966
0.894139 0.894139 0.894139
0.091936 0.091936 0.091936
0.506103 0.506103 0.506103
0.752693 0.752693 0.752693
0.889133 0.889133 0.889133
0.952944 0.952944 0.952944
0.091936 0.091936 0.091936
0.091936 0.091936 0.091936
0.091936 0.091936 0.091936
0.091936 0.091936 0.091936
0.091936 0.091936 0.091936
0.091936 0.091936 0.091936
0.165408 0.165408 0.165408
0.330032 0.330032 0.330032
0.450751 0.450751 0.450751
0.543969 0.543969 0.543969
0.091936 0.091936 0.091936
0.316996 0.316996 0.316996
0.527747 0.527747 0.527747
0.669104 0.669104 0.669104
0.776910 0.776910 0.776910
0.091936 0.091936 0.091936
0.429543 0.429543 0.429543
0.658728 0.658728 0.658728
0.810594 0.810594 0.810594
0.898726 0.898726 0.898726
0.091936 0.091936 0.091936
0.511957 0.511957 0.511957
0.759263 0.759263 0.759263
0.893694 0.893694 0.893694
0.956150 0.956150 0.956150
