trix_classic/TriX_Red25_Hard.cube
TITLE "Tri-X Red25 Hard"
# Adobe RGB in/out. REPLACES AgX. Tri-X Red25 Hard.
LUT_3D_SIZE 9
DOMAIN_MIN 0.0 0.0 0.0
DOMAIN_MAX 1.0 1.0 1.0
0.093024 0.093024 0.093024
0.093154 0.093154 0.093154
0.094977 0.094977 0.094977
0.174447 0.174447 0.174447
0.639861 0.639861 0.639861
0.960250 0.960250 0.960250
0.993035 0.993035 0.993035
0.997914 0.997914 0.997914
0.997914 0.997914 0.997914
0.093024 0.093024 0.093024
0.093154 0.093154 0.093154
0.098835 0.098835 0.098835
0.226754 0.226754 0.226754
0.644068 0.644068 0.644068
0.955214 0.955214 0.955214
0.992730 0.992730 0.992730
0.997914 0.997914 0.997914
0.997914 0.997914 0.997914
0.093024 0.093024 0.093024
0.093072 0.093072 0.093072
0.094465 0.094465 0.094465
0.217564 0.217564 0.217564
0.656197 0.656197 0.656197
0.933521 0.933521 0.933521
0.990054 0.990054 0.990054
0.997914 0.997914 0.997914
0.997914 0.997914 0.997914
0.093038 0.093038 0.093038
0.093081 0.093081 0.093081
0.093529 0.093529 0.093529
0.123342 0.123342 0.123342
0.525000 0.525000 0.525000
0.906675 0.906675 0.906675
0.985598 0.985598 0.985598
0.995937 0.995937 0.995937
0.997914 0.997914 0.997914
0.093071 0.093071 0.093071
0.093112 0.093112 0.093112
0.093399 0.093399 0.093399
0.099936 0.099936 0.099936
0.337252 0.337252 0.337252
0.844002 0.844002 0.844002
0.979665 0.979665 0.979665
0.994428 0.994428 0.994428
0.997881 0.997881 0.997881
0.093102 0.093102 0.093102
0.093139 0.093139 0.093139
0.093374 0.093374 0.093374
0.096462 0.096462 0.096462
0.217283 0.217283 0.217283
0.727554 0.727554 0.727554
0.970524 0.970524 0.970524
0.993045 0.993045 0.993045
0.997822 0.997822 0.997822
0.093108 0.093108 0.093108
0.093136 0.093136 0.093136
0.093321 0.093321 0.093321
0.094836 0.094836 0.094836
0.147711 0.147711 0.147711
0.563425 0.563425 0.563425
0.946865 0.946865 0.946865
0.992165 0.992165 0.992165
0.997582 0.997582 0.997582
0.093035 0.093035 0.093035
0.093047 0.093047 0.093047
0.093164 0.093164 0.093164
0.093618 0.093618 0.093618
0.104115 0.104115 0.104115
0.397573 0.397573 0.397573
0.901511 0.901511 0.901511
0.991009 0.991009 0.991009
0.997538 0.997538 0.997538
0.093024 0.093024 0.093024
0.093024 0.093024 0.093024
0.093024 0.093024 0.093024
0.093024 0.093024 0.093024
0.093359 0.093359 0.093359
0.168260 0.168260 0.168260
0.805720 0.805720 0.805720
0.989431 0.989431 0.989431
0.997870 0.997870 0.997870
0.093024 0.093024 0.093024
0.093086 0.093086 0.093086
0.093683 0.093683 0.093683
0.138124 0.138124 0.138124
0.622759 0.622759 0.622759
0.960484 0.960484 0.960484
0.993010 0.993010 0.993010
0.997914 0.997914 0.997914
0.997914 0.997914 0.997914
0.093024 0.093024 0.093024
0.093321 0.093321 0.093321
0.095654 0.095654 0.095654
0.168507 0.168507 0.168507
0.620797 0.620797 0.620797
0.955701 0.955701 0.955701
0.992719 0.992719 0.992719
0.997914 0.997914 0.997914
0.997914 0.997914 0.997914
0.093057 0.093057 0.093057
0.093183 0.093183 0.093183
0.096065 0.096065 0.096065
0.225836 0.225836 0.225836
0.627972 0.627972 0.627972
0.934608 0.934608 0.934608
0.990258 0.990258 0.990258
0.997913 0.997913 0.997913
0.997914 0.997914 0.997914
0.093092 0.093092 0.093092
0.093180 0.093180 0.093180
0.094112 0.094112 0.094112
0.151011 0.151011 0.151011
0.557209 0.557209 0.557209
0.907676 0.907676 0.907676
0.985981 0.985981 0.985981
0.995968 0.995968 0.995968
0.997914 0.997914 0.997914
0.093121 0.093121 0.093121
0.093187 0.093187 0.093187
0.093647 0.093647 0.093647
0.105906 0.105906 0.105906
0.390855 0.390855 0.390855
0.856321 0.856321 0.856321
0.980463 0.980463 0.980463
0.994534 0.994534 0.994534
0.997880 0.997880 0.997880
0.093145 0.093145 0.093145
0.093193 0.093193 0.093193
0.093438 0.093438 0.093438
0.097909 0.097909 0.097909
0.249022 0.249022 0.249022
0.760272 0.760272 0.760272
0.971830 0.971830 0.971830
0.993184 0.993184 0.993184
0.997823 0.997823 0.997823
0.093138 0.093138 0.093138
0.093174 0.093174 0.093174
0.093370 0.093370 0.093370
0.095516 0.095516 0.095516
0.163920 0.163920 0.163920
0.599853 0.599853 0.599853
0.951574 0.951574 0.951574
0.992290 0.992290 0.992290
0.997612 0.997612 0.997612
0.093047 0.093047 0.093047
0.093059 0.093059 0.093059
0.093197 0.093197 0.093197
0.093770 0.093770 0.093770
0.108706 0.108706 0.108706
0.426794 0.426794 0.426794
0.910300 0.910300 0.910300
0.991316 0.991316 0.991316
0.997580 0.997580 0.997580
0.093024 0.093024 0.093024
0.093024 0.093024 0.093024
0.093024 0.093024 0.093024
0.093024 0.093024 0.093024
0.093401 0.093401 0.093401
0.180233 0.180233 0.180233
0.815222 0.815222 0.815222
0.989764 0.989764 0.989764
0.997874 0.997874 0.997874
0.093024 0.093024 0.093024
0.093185 0.093185 0.093185
0.093885 0.093885 0.093885
0.133552 0.133552 0.133552
0.598961 0.598961 0.598961
0.959175 0.959175 0.959175
0.992891 0.992891 0.992891
0.997914 0.997914 0.997914
0.997914 0.997914 0.997914
0.093032 0.093032 0.093032
0.093247 0.093247 0.093247
0.095187 0.095187 0.095187
0.153306 0.153306 0.153306
0.595981 0.595981 0.595981
0.955114 0.955114 0.955114
0.992640 0.992640 0.992640
0.997914 0.997914 0.997914
0.997914 0.997914 0.997914
0.093117 0.093117 0.093117
0.093295 0.093295 0.093295
0.099130 0.099130 0.099130
0.207781 0.207781 0.207781
0.597017 0.597017 0.597017
0.936778 0.936778 0.936778
0.990663 0.990663 0.990663
0.997878 0.997878 0.997878
0.997914 0.997914 0.997914
0.093230 0.093230 0.093230
0.093355 0.093355 0.093355
0.095999 0.095999 0.095999
0.191463 0.191463 0.191463
0.589634 0.589634 0.589634
0.911768 0.911768 0.911768
0.986911 0.986911 0.986911
0.996068 0.996068 0.996068
0.997914 0.997914 0.997914
0.093308 0.093308 0.093308
0.093392 0.093392 0.093392
0.095011 0.095011 0.095011
0.143550 0.143550 0.143550
0.489328 0.489328 0.489328
0.882372 0.882372 0.882372
0.982739 0.982739 0.982739
0.994863 0.994863 0.994863
0.997878 0.997878 0.997878
0.093345 0.093345 0.093345
0.093404 0.093404 0.093404
0.094550 0.094550 0.094550
0.112515 0.112515 0.112515
0.361468 0.361468 0.361468
0.824735 0.824735 0.824735
0.975631 0.975631 0.975631
0.993613 0.993613 0.993613
0.997827 0.997827 0.997827
0.093317 0.093317 0.093317
0.093364 0.093364 0.093364
0.093868 0.093868 0.093868
0.099811 0.099811 0.099811
0.243313 0.243313 0.243313
0.716696 0.716696 0.716696
0.964824 0.964824 0.964824
0.992668 0.992668 0.992668
0.997705 0.997705 0.997705
0.093164 0.093164 0.093164
0.093198 0.093198 0.093198
0.093396 0.093396 0.093396
0.095382 0.095382 0.095382
0.149143 0.149143 0.149143
0.540844 0.540844 0.540844
0.938362 0.938362 0.938362
0.992268 0.992268 0.992268
0.997703 0.997703 0.997703
0.093024 0.093024 0.093024
0.093024 0.093024 0.093024
0.093024 0.093024 0.093024
0.093024 0.093024 0.093024
0.094146 0.094146 0.094146
0.243689 0.243689 0.243689
0.853657 0.853657 0.853657
0.991074 0.991074 0.991074
0.997884 0.997884 0.997884
0.093024 0.093024 0.093024
0.093135 0.093135 0.093135
0.094795 0.094795 0.094795
0.137636 0.137636 0.137636
0.576011 0.576011 0.576011
0.954080 0.954080 0.954080
0.992559 0.992559 0.992559
0.997809 0.997809 0.997809
0.997914 0.997914 0.997914
0.093042 0.093042 0.093042
0.093203 0.093203 0.093203
0.095961 0.095961 0.095961
0.153330 0.153330 0.153330
0.576407 0.576407 0.576407
0.950820 0.950820 0.950820
0.992333 0.992333 0.992333
0.997736 0.997736 0.997736
0.997914 0.997914 0.997914
0.093172 0.093172 0.093172
0.093345 0.093345 0.093345
0.097532 0.097532 0.097532
0.197361 0.197361 0.197361
0.582445 0.582445 0.582445
0.934621 0.934621 0.934621
0.990373 0.990373 0.990373
0.996929 0.996929 0.996929
0.997914 0.997914 0.997914
0.093330 0.093330 0.093330
0.093443 0.093443 0.093443
0.097085 0.097085 0.097085
0.233474 0.233474 0.233474
0.587896 0.587896 0.587896
0.913871 0.913871 0.913871
0.987282 0.987282 0.987282
0.996026 0.996026 0.996026
0.997914 0.997914 0.997914
0.093435 0.093435 0.093435
0.093725 0.093725 0.093725
0.096873 0.096873 0.096873
0.178382 0.178382 0.178382
0.540529 0.540529 0.540529
0.890727 0.890727 0.890727
0.983892 0.983892 0.983892
0.995017 0.995017 0.995017
0.997873 0.997873 0.997873
0.093607 0.093607 0.093607
0.093830 0.093830 0.093830
0.096465 0.096465 0.096465
0.144759 0.144759 0.144759
0.450166 0.450166 0.450166
0.856437 0.856437 0.856437
0.978191 0.978191 0.978191
0.993951 0.993951 0.993951
0.997829 0.997829 0.997829
0.093553 0.093553 0.093553
0.093732 0.093732 0.093732
0.095384 0.095384 0.095384
0.115550 0.115550 0.115550
0.334743 0.334743 0.334743
0.794982 0.794982 0.794982
0.972331 0.972331 0.972331
0.993056 0.993056 0.993056
0.997777 0.997777 0.997777
0.093326 0.093326 0.093326
0.093367 0.093367 0.093367
0.093860 0.093860 0.093860
0.098640 0.098640 0.098640
0.210140 0.210140 0.210140
0.653391 0.653391 0.653391
0.956321 0.956321 0.956321
0.992661 0.992661 0.992661
0.997806 0.997806 0.997806
0.093024 0.093024 0.093024
0.093024 0.093024 0.093024
0.093024 0.093024 0.093024
0.093024 0.093024 0.093024
0.098251 0.098251 0.098251
0.351329 0.351329 0.351329
0.897509 0.897509 0.897509
0.992363 0.992363 0.992363
0.997895 0.997895 0.997895
0.093024 0.093024 0.093024
0.093083 0.093083 0.093083
0.095512 0.095512 0.095512
0.150295 0.150295 0.150295
0.551995 0.551995 0.551995
0.947379 0.947379 0.947379
0.992058 0.992058 0.992058
0.997377 0.997377 0.997377
0.997914 0.997914 0.997914
0.093049 0.093049 0.093049
0.093144 0.093144 0.093144
0.096155 0.096155 0.096155
0.162709 0.162709 0.162709
0.555071 0.555071 0.555071
0.943274 0.943274 0.943274
0.991611 0.991611 0.991611
0.997278 0.997278 0.997278
0.997914 0.997914 0.997914
0.093201 0.093201 0.093201
0.093347 0.093347 0.093347
0.097195 0.097195 0.097195
0.200600 0.200600 0.200600
0.566312 0.566312 0.566312
0.929595 0.929595 0.929595
0.989784 0.989784 0.989784
0.996680 0.996680 0.996680
0.997914 0.997914 0.997914
0.093394 0.093394 0.093394
0.093646 0.093646 0.093646
0.098237 0.098237 0.098237
0.219222 0.219222 0.219222
0.578992 0.578992 0.578992
0.912509 0.912509 0.912509
0.987144 0.987144 0.987144
0.995920 0.995920 0.995920
0.997914 0.997914 0.997914
0.093715 0.093715 0.093715
0.094054 0.094054 0.094054
0.098721 0.098721 0.098721
0.199648 0.199648 0.199648
0.588577 0.588577 0.588577
0.893934 0.893934 0.893934
0.984282 0.984282 0.984282
0.995042 0.995042 0.995042
0.997866 0.997866 0.997866
0.093970 0.093970 0.093970
0.094564 0.094564 0.094564
0.098834 0.098834 0.098834
0.174391 0.174391 0.174391
0.502060 0.502060 0.502060
0.873134 0.873134 0.873134
0.979805 0.979805 0.979805
0.994154 0.994154 0.994154
0.997827 0.997827 0.997827
0.093960 0.093960 0.093960
0.094424 0.094424 0.094424
0.097137 0.097137 0.097137
0.142537 0.142537 0.142537
0.410981 0.410981 0.410981
0.830802 0.830802 0.830802
0.975105 0.975105 0.975105
0.993364 0.993364 0.993364
0.997804 0.997804 0.997804
0.093438 0.093438 0.093438
0.093586 0.093586 0.093586
0.094821 0.094821 0.094821
0.104801 0.104801 0.104801
0.271070 0.271070 0.271070
0.735196 0.735196 0.735196
0.966486 0.966486 0.966486
0.992947 0.992947 0.992947
0.997818 0.997818 0.997818
0.093024 0.093024 0.093024
0.093024 0.093024 0.093024
0.093024 0.093024 0.093024
0.093355 0.093355 0.093355
0.104621 0.104621 0.104621
0.434608 0.434608 0.434608
0.922376 0.922376 0.922376
0.992791 0.992791 0.992791
0.997902 0.997902 0.997902
0.093038 0.093038 0.093038
0.093078 0.093078 0.093078
0.095762 0.095762 0.095762
0.157110 0.157110 0.157110
0.545168 0.545168 0.545168
0.938289 0.938289 0.938289
0.991105 0.991105 0.991105
0.997050 0.997050 0.997050
0.997914 0.997914 0.997914
0.093060 0.093060 0.093060
0.093115 0.093115 0.093115
0.096096 0.096096 0.096096
0.166404 0.166404 0.166404
0.548631 0.548631 0.548631
0.935126 0.935126 0.935126
0.990721 0.990721 0.990721
0.996956 0.996956 0.996956
0.997914 0.997914 0.997914
0.093225 0.093225 0.093225
0.093335 0.093335 0.093335
0.097080 0.097080 0.097080
0.199560 0.199560 0.199560
0.563923 0.563923 0.563923
0.924528 0.924528 0.924528
0.989194 0.989194 0.989194
0.996467 0.996467 0.996467
0.997914 0.997914 0.997914
0.093427 0.093427 0.093427
0.093714 0.093714 0.093714
0.098812 0.098812 0.098812
0.220548 0.220548 0.220548
0.581029 0.581029 0.581029
0.909852 0.909852 0.909852
0.986920 0.986920 0.986920
0.995810 0.995810 0.995810
0.997906 0.997906 0.997906
0.093914 0.093914 0.093914
0.094521 0.094521 0.094521
0.100295 0.100295 0.100295
0.215841 0.215841 0.215841
0.578287 0.578287 0.578287
0.894594 0.894594 0.894594
0.984425 0.984425 0.984425
0.995041 0.995041 0.995041
0.997860 0.997860 0.997860
0.094590 0.094590 0.094590
0.095247 0.095247 0.095247
0.100751 0.100751 0.100751
0.195934 0.195934 0.195934
0.531915 0.531915 0.531915
0.883957 0.883957 0.883957
0.980753 0.980753 0.980753
0.994267 0.994267 0.994267
0.997825 0.997825 0.997825
0.094653 0.094653 0.094653
0.095177 0.095177 0.095177
0.099464 0.099464 0.099464
0.165007 0.165007 0.165007
0.457980 0.457980 0.457980
0.849749 0.849749 0.849749
0.976636 0.976636 0.976636
0.993570 0.993570 0.993570
0.997807 0.997807 0.997807
0.093681 0.093681 0.093681
0.093838 0.093838 0.093838
0.095801 0.095801 0.095801
0.115541 0.115541 0.115541
0.317740 0.317740 0.317740
0.775272 0.775272 0.775272
0.971165 0.971165 0.971165
0.993125 0.993125 0.993125
0.997824 0.997824 0.997824
0.093024 0.093024 0.093024
0.093024 0.093024 0.093024
0.093024 0.093024 0.093024
0.093390 0.093390 0.093390
0.111446 0.111446 0.111446
0.472078 0.472078 0.472078
0.932454 0.932454 0.932454
0.993019 0.993019 0.993019
0.997905 0.997905 0.997905
0.093059 0.093059 0.093059
0.093094 0.093094 0.093094
0.094945 0.094945 0.094945
0.160631 0.160631 0.160631
0.544321 0.544321 0.544321
0.934564 0.934564 0.934564
0.990631 0.990631 0.990631
0.996852 0.996852 0.996852
0.997914 0.997914 0.997914
0.093076 0.093076 0.093076
0.093122 0.093122 0.093122
0.095247 0.095247 0.095247
0.168057 0.168057 0.168057
0.547766 0.547766 0.547766
0.932185 0.932185 0.932185
0.990291 0.990291 0.990291
0.996767 0.996767 0.996767
0.997914 0.997914 0.997914
0.093237 0.093237 0.093237
0.093325 0.093325 0.093325
0.096480 0.096480 0.096480
0.196152 0.196152 0.196152
0.563648 0.563648 0.563648
0.923808 0.923808 0.923808
0.988969 0.988969 0.988969
0.996357 0.996357 0.996357
0.997914 0.997914 0.997914
0.093462 0.093462 0.093462
0.093751 0.093751 0.093751
0.098568 0.098568 0.098568
0.221028 0.221028 0.221028
0.584124 0.584124 0.584124
0.911886 0.911886 0.911886
0.986992 0.986992 0.986992
0.995789 0.995789 0.995789
0.997892 0.997892 0.997892
0.094142 0.094142 0.094142
0.094779 0.094779 0.094779
0.100842 0.100842 0.100842
0.225960 0.225960 0.225960
0.590826 0.590826 0.590826
0.898630 0.898630 0.898630
0.984737 0.984737 0.984737
0.995107 0.995107 0.995107
0.997857 0.997857 0.997857
0.095008 0.095008 0.095008
0.095861 0.095861 0.095861
0.103233 0.103233 0.103233
0.214093 0.214093 0.214093
0.560434 0.560434 0.560434
0.886264 0.886264 0.886264
0.981693 0.981693 0.981693
0.994397 0.994397 0.994397
0.997827 0.997827 0.997827
0.095011 0.095011 0.095011
0.095771 0.095771 0.095771
0.100745 0.100745 0.100745
0.180731 0.180731 0.180731
0.485745 0.485745 0.485745
0.860701 0.860701 0.860701
0.977336 0.977336 0.977336
0.993733 0.993733 0.993733
0.997812 0.997812 0.997812
0.093738 0.093738 0.093738
0.093897 0.093897 0.093897
0.096167 0.096167 0.096167
0.122249 0.122249 0.122249
0.341793 0.341793 0.341793
0.793383 0.793383 0.793383
0.972431 0.972431 0.972431
0.993200 0.993200 0.993200
0.997830 0.997830 0.997830
0.093024 0.093024 0.093024
0.093024 0.093024 0.093024
0.093024 0.093024 0.093024
0.093233 0.093233 0.093233
0.107428 0.107428 0.107428
0.466999 0.466999 0.466999
0.932554 0.932554 0.932554
0.993038 0.993038 0.993038
0.997908 0.997908 0.997908
0.093095 0.093095 0.093095
0.093137 0.093137 0.093137
0.095377 0.095377 0.095377
0.166185 0.166185 0.166185
0.567945 0.567945 0.567945
0.943308 0.943308 0.943308
0.991248 0.991248 0.991248
0.996996 0.996996 0.996996
0.997914 0.997914 0.997914
0.093117 0.093117 0.093117
0.093169 0.093169 0.093169
0.095771 0.095771 0.095771
0.172737 0.172737 0.172737
0.570755 0.570755 0.570755
0.941381 0.941381 0.941381
0.990987 0.990987 0.990987
0.996923 0.996923 0.996923
0.997914 0.997914 0.997914
0.093299 0.093299 0.093299
0.093372 0.093372 0.093372
0.097597 0.097597 0.097597
0.203192 0.203192 0.203192
0.586183 0.586183 0.586183
0.933763 0.933763 0.933763
0.989856 0.989856 0.989856
0.996575 0.996575 0.996575
0.997914 0.997914 0.997914
0.093620 0.093620 0.093620
0.093868 0.093868 0.093868
0.100502 0.100502 0.100502
0.233837 0.233837 0.233837
0.605042 0.605042 0.605042
0.923902 0.923902 0.923902
0.988195 0.988195 0.988195
0.996092 0.996092 0.996092
0.997894 0.997894 0.997894
0.094491 0.094491 0.094491
0.095097 0.095097 0.095097
0.104918 0.104918 0.104918
0.248022 0.248022 0.248022
0.617847 0.617847 0.617847
0.911854 0.911854 0.911854
0.986119 0.986119 0.986119
0.995497 0.995497 0.995497
0.997867 0.997867 0.997867
0.095463 0.095463 0.095463
0.096278 0.096278 0.096278
0.107703 0.107703 0.107703
0.236364 0.236364 0.236364
0.596570 0.596570 0.596570
0.897756 0.897756 0.897756
0.983819 0.983819 0.983819
0.994840 0.994840 0.994840
0.997843 0.997843 0.997843
0.095278 0.095278 0.095278
0.096014 0.096014 0.096014
0.102847 0.102847 0.102847
0.194552 0.194552 0.194552
0.516483 0.516483 0.516483
0.875357 0.875357 0.875357
0.979178 0.979178 0.979178
0.994115 0.994115 0.994115
0.997831 0.997831 0.997831
0.093546 0.093546 0.093546
0.093723 0.093723 0.093723
0.095751 0.095751 0.095751
0.120251 0.120251 0.120251
0.345844 0.345844 0.345844
0.801056 0.801056 0.801056
0.973007 0.973007 0.973007
0.993074 0.993074 0.993074
0.997842 0.997842 0.997842
0.093024 0.093024 0.093024
0.093024 0.093024 0.093024
0.093024 0.093024 0.093024
0.093024 0.093024 0.093024
0.098219 0.098219 0.098219
0.400987 0.400987 0.400987
0.919639 0.919639 0.919639
0.992784 0.992784 0.992784
0.997911 0.997911 0.997911
0.093396 0.093396 0.093396
0.093440 0.093440 0.093440
0.095030 0.095030 0.095030
0.184443 0.184443 0.184443
0.756083 0.756083 0.756083
0.977102 0.977102 0.977102
0.994163 0.994163 0.994163
0.997837 0.997837 0.997837
0.997914 0.997914 0.997914
0.093427 0.093427 0.093427
0.093561 0.093561 0.093561
0.095533 0.095533 0.095533
0.191687 0.191687 0.191687
0.756080 0.756080 0.756080
0.976743 0.976743 0.976743
0.994101 0.994101 0.994101
0.997831 0.997831 0.997831
0.997914 0.997914 0.997914
0.093926 0.093926 0.093926
0.094335 0.094335 0.094335
0.098330 0.098330 0.098330
0.228969 0.228969 0.228969
0.758364 0.758364 0.758364
0.975198 0.975198 0.975198
0.993812 0.993812 0.993812
0.997782 0.997782 0.997782
0.997914 0.997914 0.997914
0.096215 0.096215 0.096215
0.097009 0.097009 0.097009
0.112972 0.112972 0.112972
0.292872 0.292872 0.292872
0.762298 0.762298 0.762298
0.972251 0.972251 0.972251
0.993279 0.993279 0.993279
0.997442 0.997442 0.997442
0.997914 0.997914 0.997914
0.099086 0.099086 0.099086
0.100786 0.100786 0.100786
0.142004 0.142004 0.142004
0.348287 0.348287 0.348287
0.760803 0.760803 0.760803
0.966258 0.966258 0.966258
0.992583 0.992583 0.992583
0.997098 0.997098 0.997098
0.997911 0.997911 0.997911
0.100024 0.100024 0.100024
0.102978 0.102978 0.102978
0.152776 0.152776 0.152776
0.369896 0.369896 0.369896
0.745888 0.745888 0.745888
0.954358 0.954358 0.954358
0.991031 0.991031 0.991031
0.996692 0.996692 0.996692
0.997905 0.997905 0.997905
0.097094 0.097094 0.097094
0.098708 0.098708 0.098708
0.124952 0.124952 0.124952
0.311443 0.311443 0.311443
0.686435 0.686435 0.686435
0.929477 0.929477 0.929477
0.987918 0.987918 0.987918
0.996162 0.996162 0.996162
0.997903 0.997903 0.997903
0.093442 0.093442 0.093442
0.093623 0.093623 0.093623
0.095423 0.095423 0.095423
0.139409 0.139409 0.139409
0.468141 0.468141 0.468141
0.868284 0.868284 0.868284
0.980557 0.980557 0.980557
0.995025 0.995025 0.995025
0.997906 0.997906 0.997906
0.093024 0.093024 0.093024
0.093024 0.093024 0.093024
0.093024 0.093024 0.093024
0.093024 0.093024 0.093024
0.093285 0.093285 0.093285
0.260485 0.260485 0.260485
0.892525 0.892525 0.892525
0.991846 0.991846 0.991846
0.997914 0.997914 0.997914
