trix_classic/TriX_Red25_ExtraSoft.cube
TITLE "Tri-X Red25 ExtraSoft"
# Adobe RGB in/out. REPLACES AgX. Tri-X Red25 ExtraSoft.
LUT_3D_SIZE 33
DOMAIN_MIN 0.0 0.0 0.0
DOMAIN_MAX 1.0 1.0 1.0
0.099726 0.099726 0.099726
0.099726 0.099726 0.099726
0.099726 0.099726 0.099726
0.100050 0.100050 0.100050
0.105695 0.105695 0.105695
0.113298 0.113298 0.113298
0.147445 0.147445 0.147445
0.189312 0.189312 0.189312
0.209587 0.209587 0.209587
0.239347 0.239347 0.239347
0.284377 0.284377 0.284377
0.316554 0.316554 0.316554
0.346231 0.346231 0.346231
0.382171 0.382171 0.382171
0.430317 0.430317 0.430317
0.475942 0.475942 0.475942
0.521023 0.521023 0.521023
0.569945 0.569945 0.569945
0.625697 0.625697 0.625697
0.679449 0.679449 0.679449
0.723599 0.723599 0.723599
0.763897 0.763897 0.763897
0.799627 0.799627 0.799627
0.831273 0.831273 0.831273
0.855814 0.855814 0.855814
0.872242 0.872242 0.872242
0.892397 0.892397 0.892397
0.902326 0.902326 0.902326
0.917860 0.917860 0.917860
0.917860 0.917860 0.917860
0.917860 0.917860 0.917860
0.917860 0.917860 0.917860
0.917860 0.917860 0.917860
0.099726 0.099726 0.099726
0.099726 0.099726 0.099726
0.099726 0.099726 0.099726
0.100819 0.100819 0.100819
0.110343 0.110343 0.110343
0.118816 0.118816 0.118816
0.153668 0.153668 0.153668
0.194079 0.194079 0.194079
0.213243 0.213243 0.213243
0.242212 0.242212 0.242212
0.286625 0.286625 0.286625
0.318287 0.318287 0.318287
0.347404 0.347404 0.347404
0.382941 0.382941 0.382941
0.430889 0.430889 0.430889
0.476198 0.476198 0.476198
0.521033 0.521033 0.521033
0.569791 0.569791 0.569791
0.625425 0.625425 0.625425
0.679121 0.679121 0.679121
0.723238 0.723238 0.723238
0.763569 0.763569 0.763569
0.799382 0.799382 0.799382
0.831043 0.831043 0.831043
0.855620 0.855620 0.855620
0.872123 0.872123 0.872123
0.892296 0.892296 0.892296
0.902259 0.902259 0.902259
0.917860 0.917860 0.917860
0.917860 0.917860 0.917860
0.917860 0.917860 0.917860
0.917860 0.917860 0.917860
0.917860 0.917860 0.917860
0.099726 0.099726 0.099726
0.099726 0.099726 0.099726
0.099726 0.099726 0.099726
0.101294 0.101294 0.101294
0.121707 0.121707 0.121707
0.142363 0.142363 0.142363
0.174964 0.174964 0.174964
0.214094 0.214094 0.214094
0.227989 0.227989 0.227989
0.253491 0.253491 0.253491
0.295235 0.295235 0.295235
0.324943 0.324943 0.324943
0.351878 0.351878 0.351878
0.385871 0.385871 0.385871
0.433078 0.433078 0.433078
0.477202 0.477202 0.477202
0.521108 0.521108 0.521108
0.569251 0.569251 0.569251
0.624442 0.624442 0.624442
0.677787 0.677787 0.677787
0.721919 0.721919 0.721919
0.762363 0.762363 0.762363
0.798481 0.798481 0.798481
0.830196 0.830196 0.830196
0.854907 0.854907 0.854907
0.871683 0.871683 0.871683
0.891921 0.891921 0.891921
0.902010 0.902010 0.902010
0.917860 0.917860 0.917860
0.917860 0.917860 0.917860
0.917860 0.917860 0.917860
0.917860 0.917860 0.917860
0.917860 0.917860 0.917860
0.099726 0.099726 0.099726
0.099726 0.099726 0.099726
0.099726 0.099726 0.099726
0.100466 0.100466 0.100466
0.113013 0.113013 0.113013
0.141274 0.141274 0.141274
0.186031 0.186031 0.186031
0.230089 0.230089 0.230089
0.246926 0.246926 0.246926
0.271783 0.271783 0.271783
0.312799 0.312799 0.312799
0.338574 0.338574 0.338574
0.361291 0.361291 0.361291
0.392012 0.392012 0.392012
0.437720 0.437720 0.437720
0.479427 0.479427 0.479427
0.521436 0.521436 0.521436
0.568327 0.568327 0.568327
0.622621 0.622621 0.622621
0.675094 0.675094 0.675094
0.719383 0.719383 0.719383
0.760035 0.760035 0.760035
0.796736 0.796736 0.796736
0.828551 0.828551 0.828551
0.853521 0.853521 0.853521
0.870828 0.870828 0.870828
0.891191 0.891191 0.891191
0.901520 0.901520 0.901520
0.917860 0.917860 0.917860
0.917860 0.917860 0.917860
0.917860 0.917860 0.917860
0.917860 0.917860 0.917860
0.917860 0.917860 0.917860
0.099726 0.099726 0.099726
0.099726 0.099726 0.099726
0.099726 0.099726 0.099726
0.100492 0.100492 0.100492
0.105715 0.105715 0.105715
0.125369 0.125369 0.125369
0.176626 0.176626 0.176626
0.229050 0.229050 0.229050
0.253883 0.253883 0.253883
0.283657 0.283657 0.283657
0.327375 0.327375 0.327375
0.350721 0.350721 0.350721
0.372414 0.372414 0.372414
0.401557 0.401557 0.401557
0.446416 0.446416 0.446416
0.483845 0.483845 0.483845
0.522486 0.522486 0.522486
0.567171 0.567171 0.567171
0.619888 0.619888 0.619888
0.670851 0.670851 0.670851
0.715311 0.715311 0.715311
0.756268 0.756268 0.756268
0.793892 0.793892 0.793892
0.825861 0.825861 0.825861
0.851253 0.851253 0.851253
0.869423 0.869423 0.869423
0.889983 0.889983 0.889983
0.900702 0.900702 0.900702
0.917860 0.917860 0.917860
0.917860 0.917860 0.917860
0.917860 0.917860 0.917860
0.917860 0.917860 0.917860
0.917860 0.917860 0.917860
0.099726 0.099726 0.099726
0.099726 0.099726 0.099726
0.099726 0.099726 0.099726
0.099940 0.099940 0.099940
0.101675 0.101675 0.101675
0.112811 0.112811 0.112811
0.159370 0.159370 0.159370
0.215216 0.215216 0.215216
0.246243 0.246243 0.246243
0.283039 0.283039 0.283039
0.330844 0.330844 0.330844
0.358718 0.358718 0.358718
0.381568 0.381568 0.381568
0.409296 0.409296 0.409296
0.453287 0.453287 0.453287
0.488665 0.488665 0.488665
0.524411 0.524411 0.524411
0.566236 0.566236 0.566236
0.616283 0.616283 0.616283
0.664728 0.664728 0.664728
0.709242 0.709242 0.709242
0.750571 0.750571 0.750571
0.789547 0.789547 0.789547
0.821719 0.821719 0.821719
0.847755 0.847755 0.847755
0.867247 0.867247 0.867247
0.888090 0.888090 0.888090
0.899402 0.899402 0.899402
0.917860 0.917860 0.917860
0.917860 0.917860 0.917860
0.917860 0.917860 0.917860
0.917860 0.917860 0.917860
0.917860 0.917860 0.917860
0.099726 0.099726 0.099726
0.099726 0.099726 0.099726
0.099726 0.099726 0.099726
0.099988 0.099988 0.099988
0.101440 0.101440 0.101440
0.109891 0.109891 0.109891
0.143011 0.143011 0.143011
0.197401 0.197401 0.197401
0.231149 0.231149 0.231149
0.271643 0.271643 0.271643
0.324335 0.324335 0.324335
0.358118 0.358118 0.358118
0.383804 0.383804 0.383804
0.413526 0.413526 0.413526
0.459908 0.459908 0.459908
0.494460 0.494460 0.494460
0.526366 0.526366 0.526366
0.565585 0.565585 0.565585
0.613312 0.613312 0.613312
0.658410 0.658410 0.658410
0.701370 0.701370 0.701370
0.742151 0.742151 0.742151
0.782565 0.782565 0.782565
0.815420 0.815420 0.815420
0.842419 0.842419 0.842419
0.863906 0.863906 0.863906
0.885115 0.885115 0.885115
0.897325 0.897325 0.897325
0.917860 0.917860 0.917860
0.917860 0.917860 0.917860
0.917860 0.917860 0.917860
0.917860 0.917860 0.917860
0.917860 0.917860 0.917860
0.099726 0.099726 0.099726
0.099726 0.099726 0.099726
0.099726 0.099726 0.099726
0.100218 0.100218 0.100218
0.101489 0.101489 0.101489
0.109135 0.109135 0.109135
0.138690 0.138690 0.138690
0.180185 0.180185 0.180185
0.213940 0.213940 0.213940
0.255634 0.255634 0.255634
0.310392 0.310392 0.310392
0.348578 0.348578 0.348578
0.378694 0.378694 0.378694
0.412254 0.412254 0.412254
0.461493 0.461493 0.461493
0.495850 0.495850 0.495850
0.527555 0.527555 0.527555
0.565394 0.565394 0.565394
0.610628 0.610628 0.610628
0.653119 0.653119 0.653119
0.695756 0.695756 0.695756
0.735532 0.735532 0.735532
0.774560 0.774560 0.774560
0.807605 0.807605 0.807605
0.834110 0.834110 0.834110
0.858654 0.858654 0.858654
0.880231 0.880231 0.880231
0.893855 0.893855 0.893855
0.917860 0.917860 0.917860
0.917860 0.917860 0.917860
0.917860 0.917860 0.917860
0.917860 0.917860 0.917860
0.917860 0.917860 0.917860
0.099726 0.099726 0.099726
0.099726 0.099726 0.099726
0.099726 0.099726 0.099726
0.100130 0.100130 0.100130
0.101187 0.101187 0.101187
0.105262 0.105262 0.105262
0.121888 0.121888 0.121888
0.158586 0.158586 0.158586
0.197760 0.197760 0.197760
0.238751 0.238751 0.238751
0.293838 0.293838 0.293838
0.334582 0.334582 0.334582
0.368317 0.368317 0.368317
0.404850 0.404850 0.404850
0.455902 0.455902 0.455902
0.493355 0.493355 0.493355
0.526673 0.526673 0.526673
0.564249 0.564249 0.564249
0.608021 0.608021 0.608021
0.647668 0.647668 0.647668
0.688620 0.688620 0.688620
0.727783 0.727783 0.727783
0.767145 0.767145 0.767145
0.801885 0.801885 0.801885
0.829076 0.829076 0.829076
0.853563 0.853563 0.853563
0.874594 0.874594 0.874594
0.888215 0.888215 0.888215
0.917846 0.917846 0.917846
0.917860 0.917860 0.917860
0.917860 0.917860 0.917860
0.917860 0.917860 0.917860
0.917860 0.917860 0.917860
0.099726 0.099726 0.099726
0.099726 0.099726 0.099726
0.099726 0.099726 0.099726
0.100247 0.100247 0.100247
0.101148 0.101148 0.101148
0.104356 0.104356 0.104356
0.115332 0.115332 0.115332
0.147525 0.147525 0.147525
0.183828 0.183828 0.183828
0.222721 0.222721 0.222721
0.276383 0.276383 0.276383
0.317813 0.317813 0.317813
0.353957 0.353957 0.353957
0.393089 0.393089 0.393089
0.444455 0.444455 0.444455
0.485285 0.485285 0.485285
0.521612 0.521612 0.521612
0.560483 0.560483 0.560483
0.604831 0.604831 0.604831
0.642822 0.642822 0.642822
0.683160 0.683160 0.683160
0.720353 0.720353 0.720353
0.758151 0.758151 0.758151
0.794000 0.794000 0.794000
0.822129 0.822129 0.822129
0.847731 0.847731 0.847731
0.870958 0.870958 0.870958
0.885489 0.885489 0.885489
0.900141 0.900141 0.900141
0.909368 0.909368 0.909368
0.916956 0.916956 0.916956
0.917860 0.917860 0.917860
0.917860 0.917860 0.917860
0.099726 0.099726 0.099726
0.099785 0.099785 0.099785
0.100026 0.100026 0.100026
0.100604 0.100604 0.100604
0.101432 0.101432 0.101432
0.105030 0.105030 0.105030
0.116004 0.116004 0.116004
0.146445 0.146445 0.146445
0.181283 0.181283 0.181283
0.219376 0.219376 0.219376
0.260141 0.260141 0.260141
0.300697 0.300697 0.300697
0.338403 0.338403 0.338403
0.379043 0.379043 0.379043
0.428780 0.428780 0.428780
0.472367 0.472367 0.472367
0.512161 0.512161 0.512161
0.553476 0.553476 0.553476
0.599629 0.599629 0.599629
0.637011 0.637011 0.637011
0.676926 0.676926 0.676926
0.713136 0.713136 0.713136
0.750947 0.750947 0.750947
0.787342 0.787342 0.787342
0.814396 0.814396 0.814396
0.839436 0.839436 0.839436
0.865705 0.865705 0.865705
0.881557 0.881557 0.881557
0.897196 0.897196 0.897196
0.907579 0.907579 0.907579
0.916470 0.916470 0.916470
0.917860 0.917860 0.917860
0.917860 0.917860 0.917860
0.099973 0.099973 0.099973
0.100024 0.100024 0.100024
0.100239 0.100239 0.100239
0.100726 0.100726 0.100726
0.101440 0.101440 0.101440
0.104607 0.104607 0.104607
0.113498 0.113498 0.113498
0.138190 0.138190 0.138190
0.170410 0.170410 0.170410
0.205790 0.205790 0.205790
0.244234 0.244234 0.244234
0.284962 0.284962 0.284962
0.321865 0.321865 0.321865
0.364142 0.364142 0.364142
0.411509 0.411509 0.411509
0.455913 0.455913 0.455913
0.499369 0.499369 0.499369
0.543289 0.543289 0.543289
0.591024 0.591024 0.591024
0.629501 0.629501 0.629501
0.669730 0.669730 0.669730
0.706658 0.706658 0.706658
0.743346 0.743346 0.743346
0.778595 0.778595 0.778595
0.807561 0.807561 0.807561
0.833516 0.833516 0.833516
0.860519 0.860519 0.860519
0.876356 0.876356 0.876356
0.892558 0.892558 0.892558
0.904657 0.904657 0.904657
0.915259 0.915259 0.915259
0.917860 0.917860 0.917860
0.917860 0.917860 0.917860
0.100167 0.100167 0.100167
0.100219 0.100219 0.100219
0.100415 0.100415 0.100415
0.100819 0.100819 0.100819
0.101470 0.101470 0.101470
0.104273 0.104273 0.104273
0.111247 0.111247 0.111247
0.130452 0.130452 0.130452
0.160253 0.160253 0.160253
0.192755 0.192755 0.192755
0.228060 0.228060 0.228060
0.265935 0.265935 0.265935
0.306292 0.306292 0.306292
0.348546 0.348546 0.348546
0.396785 0.396785 0.396785
0.438317 0.438317 0.438317
0.483473 0.483473 0.483473
0.530298 0.530298 0.530298
0.579736 0.579736 0.579736
0.619878 0.619878 0.619878
0.661035 0.661035 0.661035
0.699728 0.699728 0.699728
0.735935 0.735935 0.735935
0.770894 0.770894 0.770894
0.800329 0.800329 0.800329
0.825648 0.825648 0.825648
0.855097 0.855097 0.855097
0.872339 0.872339 0.872339
0.888838 0.888838 0.888838
0.901021 0.901021 0.901021
0.910462 0.910462 0.910462
0.917860 0.917860 0.917860
0.917860 0.917860 0.917860
0.100438 0.100438 0.100438
0.100482 0.100482 0.100482
0.100647 0.100647 0.100647
0.101017 0.101017 0.101017
0.101936 0.101936 0.101936
0.104520 0.104520 0.104520
0.110801 0.110801 0.110801
0.127552 0.127552 0.127552
0.155137 0.155137 0.155137
0.184918 0.184918 0.184918
0.217938 0.217938 0.217938
0.254445 0.254445 0.254445
0.292974 0.292974 0.292974
0.333993 0.333993 0.333993
0.381774 0.381774 0.381774
0.420029 0.420029 0.420029
0.466020 0.466020 0.466020
0.515072 0.515072 0.515072
0.566484 0.566484 0.566484
0.608072 0.608072 0.608072
0.650916 0.650916 0.650916
0.692212 0.692212 0.692212
0.728766 0.728766 0.728766
0.762878 0.762878 0.762878
0.793496 0.793496 0.793496
0.819463 0.819463 0.819463
0.847824 0.847824 0.847824
0.866802 0.866802 0.866802
0.884643 0.884643 0.884643
0.898222 0.898222 0.898222
0.908836 0.908836 0.908836
0.914945 0.914945 0.914945
0.917749 0.917749 0.917749
0.100766 0.100766 0.100766
0.100812 0.100812 0.100812
0.100980 0.100980 0.100980
0.101311 0.101311 0.101311
0.102802 0.102802 0.102802
0.105348 0.105348 0.105348
0.112055 0.112055 0.112055
0.128587 0.128587 0.128587
0.154484 0.154484 0.154484
0.182972 0.182972 0.182972
0.215001 0.215001 0.215001
0.249866 0.249866 0.249866
0.287723 0.287723 0.287723
0.327698 0.327698 0.327698
0.367701 0.367701 0.367701
0.404113 0.404113 0.404113
0.448062 0.448062 0.448062
0.499126 0.499126 0.499126
0.551863 0.551863 0.551863
0.594117 0.594117 0.594117
0.638981 0.638981 0.638981
0.683769 0.683769 0.683769
0.721144 0.721144 0.721144
0.755211 0.755211 0.755211
0.787436 0.787436 0.787436
0.812637 0.812637 0.812637
0.840821 0.840821 0.840821
0.862580 0.862580 0.862580
0.880222 0.880222 0.880222
0.894193 0.894193 0.894193
0.906327 0.906327 0.906327
0.913764 0.913764 0.913764
0.917635 0.917635 0.917635
0.100979 0.100979 0.100979
0.101019 0.101019 0.101019
0.101165 0.101165 0.101165
0.101449 0.101449 0.101449
0.102985 0.102985 0.102985
0.105497 0.105497 0.105497
0.111999 0.111999 0.111999
0.125621 0.125621 0.125621
0.149710 0.149710 0.149710
0.176035 0.176035 0.176035
0.205496 0.205496 0.205496
0.238004 0.238004 0.238004
0.273901 0.273901 0.273901
0.312127 0.312127 0.312127
0.351564 0.351564 0.351564
0.390448 0.390448 0.390448
0.429950 0.429950 0.429950
0.481926 0.481926 0.481926
0.536317 0.536317 0.536317
0.579286 0.579286 0.579286
0.625320 0.625320 0.625320
0.673074 0.673074 0.673074
0.712815 0.712815 0.712815
0.747827 0.747827 0.747827
0.780540 0.780540 0.780540
0.806569 0.806569 0.806569
0.834344 0.834344 0.834344
0.857459 0.857459 0.857459
0.875861 0.875861 0.875861
0.891107 0.891107 0.891107
0.903624 0.903624 0.903624
0.911616 0.911616 0.911616
0.917088 0.917088 0.917088
0.101167 0.101167 0.101167
0.101202 0.101202 0.101202
0.101330 0.101330 0.101330
0.101774 0.101774 0.101774
0.103203 0.103203 0.103203
0.105750 0.105750 0.105750
0.111151 0.111151 0.111151
0.123072 0.123072 0.123072
0.145257 0.145257 0.145257
0.169563 0.169563 0.169563
0.197078 0.197078 0.197078
0.227526 0.227526 0.227526
0.261663 0.261663 0.261663
0.297602 0.297602 0.297602
0.336502 0.336502 0.336502
0.374841 0.374841 0.374841
0.413185 0.413185 0.413185
0.464189 0.464189 0.464189
0.520315 0.520315 0.520315
0.564132 0.564132 0.564132
0.610786 0.610786 0.610786
0.660028 0.660028 0.660028
0.703474 0.703474 0.703474
0.739875 0.739875 0.739875
0.773209 0.773209 0.773209
0.801082 0.801082 0.801082
0.827817 0.827817 0.827817
0.851839 0.851839 0.851839
0.871564 0.871564 0.871564
0.887046 0.887046 0.887046
0.900927 0.900927 0.900927
0.910208 0.910208 0.910208
0.915686 0.915686 0.915686
0.101380 0.101380 0.101380
0.101411 0.101411 0.101411
0.101588 0.101588 0.101588
0.102359 0.102359 0.102359
0.103610 0.103610 0.103610
0.106341 0.106341 0.106341
0.111414 0.111414 0.111414
0.123301 0.123301 0.123301
0.143600 0.143600 0.143600
0.165992 0.165992 0.165992
0.192041 0.192041 0.192041
0.220998 0.220998 0.220998
0.253616 0.253616 0.253616
0.287903 0.287903 0.287903
0.325557 0.325557 0.325557
0.363396 0.363396 0.363396
0.401311 0.401311 0.401311
0.447333 0.447333 0.447333
0.504229 0.504229 0.504229
0.548805 0.548805 0.548805
0.595369 0.595369 0.595369
0.646125 0.646125 0.646125
0.693194 0.693194 0.693194
0.730886 0.730886 0.730886
0.765930 0.765930 0.765930
0.795749 0.795749 0.795749
0.822125 0.822125 0.822125
0.846029 0.846029 0.846029
0.866963 0.866963 0.866963
0.883702 0.883702 0.883702
0.898079 0.898079 0.898079
0.908061 0.908061 0.908061
0.914847 0.914847 0.914847
0.101936 0.101936 0.101936
0.102035 0.102035 0.102035
0.102395 0.102395 0.102395
0.103087 0.103087 0.103087
0.104334 0.104334 0.104334
0.107240 0.107240 0.107240
0.112626 0.112626 0.112626
0.124588 0.124588 0.124588
0.143491 0.143491 0.143491
0.165591 0.165591 0.165591
0.190651 0.190651 0.190651
0.218435 0.218435 0.218435
0.249081 0.249081 0.249081
0.282580 0.282580 0.282580
0.318715 0.318715 0.318715
0.357065 0.357065 0.357065
0.394181 0.394181 0.394181
0.437531 0.437531 0.437531
0.488332 0.488332 0.488332
0.533327 0.533327 0.533327
0.579860 0.579860 0.579860
0.631569 0.631569 0.631569
0.682217 0.682217 0.682217
0.721381 0.721381 0.721381
0.758107 0.758107 0.758107
0.790477 0.790477 0.790477
0.816941 0.816941 0.816941
0.840540 0.840540 0.840540
0.863260 0.863260 0.863260
0.879971 0.879971 0.879971
0.895189 0.895189 0.895189
0.906441 0.906441 0.906441
0.913793 0.913793 0.913793
0.102292 0.102292 0.102292
0.102382 0.102382 0.102382
0.102709 0.102709 0.102709
0.103335 0.103335 0.103335
0.104543 0.104543 0.104543
0.107109 0.107109 0.107109
0.112526 0.112526 0.112526
0.122319 0.122319 0.122319
0.140627 0.140627 0.140627
0.161461 0.161461 0.161461
0.183958 0.183958 0.183958
0.209845 0.209845 0.209845
0.239094 0.239094 0.239094
0.271113 0.271113 0.271113
0.305913 0.305913 0.305913
0.343283 0.343283 0.343283
0.380165 0.380165 0.380165
0.418986 0.418986 0.418986
0.468445 0.468445 0.468445
0.518285 0.518285 0.518285
0.564998 0.564998 0.564998
0.616647 0.616647 0.616647
0.669311 0.669311 0.669311
0.711320 0.711320 0.711320
0.750158 0.750158 0.750158
0.785031 0.785031 0.785031
0.811892 0.811892 0.811892
0.835648 0.835648 0.835648
0.859510 0.859510 0.859510
0.876320 0.876320 0.876320
0.892463 0.892463 0.892463
0.904373 0.904373 0.904373
0.912835 0.912835 0.912835
0.102636 0.102636 0.102636
0.102718 0.102718 0.102718
0.103018 0.103018 0.103018
0.103589 0.103589 0.103589
0.104795 0.104795 0.104795
0.107140 0.107140 0.107140
0.112708 0.112708 0.112708
0.121175 0.121175 0.121175
0.139336 0.139336 0.139336
0.157149 0.157149 0.157149
0.179359 0.179359 0.179359
0.204616 0.204616 0.204616
0.231876 0.231876 0.231876
0.262088 0.262088 0.262088
0.295560 0.295560 0.295560
0.332140 0.332140 0.332140
0.368190 0.368190 0.368190
0.404980 0.404980 0.404980
0.451905 0.451905 0.451905
0.501677 0.501677 0.501677
0.550452 0.550452 0.550452
0.601555 0.601555 0.601555
0.655213 0.655213 0.655213
0.700832 0.700832 0.700832
0.741586 0.741586 0.741586
0.778207 0.778207 0.778207
0.807068 0.807068 0.807068
0.831349 0.831349 0.831349
0.855964 0.855964 0.855964
0.873133 0.873133 0.873133
0.889522 0.889522 0.889522
0.902541 0.902541 0.902541
0.911803 0.911803 0.911803
0.103012 0.103012 0.103012
0.103088 0.103088 0.103088
0.103366 0.103366 0.103366
0.103892 0.103892 0.103892
0.105148 0.105148 0.105148
0.107402 0.107402 0.107402
0.112895 0.112895 0.112895
0.121109 0.121109 0.121109
0.136850 0.136850 0.136850
0.155298 0.155298 0.155298
0.176731 0.176731 0.176731
0.199235 0.199235 0.199235
0.225642 0.225642 0.225642
0.255357 0.255357 0.255357
0.287618 0.287618 0.287618
0.322651 0.322651 0.322651
0.358726 0.358726 0.358726
0.395124 0.395124 0.395124
0.438134 0.438134 0.438134
0.489077 0.489077 0.489077
0.537023 0.537023 0.537023
0.586619 0.586619 0.586619
0.641016 0.641016 0.641016
0.689948 0.689948 0.689948
0.732165 0.732165 0.732165
0.770812 0.770812 0.770812
0.802353 0.802353 0.802353
0.827390 0.827390 0.827390
0.851964 0.851964 0.851964
0.870120 0.870120 0.870120
0.886880 0.886880 0.886880
0.900634 0.900634 0.900634
0.910701 0.910701 0.910701
0.103251 0.103251 0.103251
0.103322 0.103322 0.103322
0.103580 0.103580 0.103580
0.104138 0.104138 0.104138
0.105332 0.105332 0.105332
0.107462 0.107462 0.107462
0.112470 0.112470 0.112470
0.120907 0.120907 0.120907
0.134769 0.134769 0.134769
0.154021 0.154021 0.154021
0.172442 0.172442 0.172442
0.195377 0.195377 0.195377
0.221328 0.221328 0.221328
0.248764 0.248764 0.248764
0.279686 0.279686 0.279686
0.313429 0.313429 0.313429
0.349676 0.349676 0.349676
0.385983 0.385983 0.385983
0.425909 0.425909 0.425909
0.475935 0.475935 0.475935
0.525305 0.525305 0.525305
0.574127 0.574127 0.574127
0.626788 0.626788 0.626788
0.678951 0.678951 0.678951
0.722452 0.722452 0.722452
0.763073 0.763073 0.763073
0.797495 0.797495 0.797495
0.823549 0.823549 0.823549
0.848726 0.848726 0.848726
0.867524 0.867524 0.867524
0.884484 0.884484 0.884484
0.898695 0.898695 0.898695
0.909818 0.909818 0.909818
0.103104 0.103104 0.103104
0.103171 0.103171 0.103171
0.103415 0.103415 0.103415
0.103877 0.103877 0.103877
0.104959 0.104959 0.104959
0.106694 0.106694 0.106694
0.111037 0.111037 0.111037
0.118872 0.118872 0.118872
0.130761 0.130761 0.130761
0.149464 0.149464 0.149464
0.166938 0.166938 0.166938
0.189812 0.189812 0.189812
0.212476 0.212476 0.212476
0.240011 0.240011 0.240011
0.270781 0.270781 0.270781
0.302881 0.302881 0.302881
0.338231 0.338231 0.338231
0.374150 0.374150 0.374150
0.411153 0.411153 0.411153
0.459696 0.459696 0.459696
0.510269 0.510269 0.510269
0.559177 0.559177 0.559177
0.611344 0.611344 0.611344
0.665910 0.665910 0.665910
0.712536 0.712536 0.712536
0.755134 0.755134 0.755134
0.792539 0.792539 0.792539
0.819745 0.819745 0.819745
0.845708 0.845708 0.845708
0.865453 0.865453 0.865453
0.882373 0.882373 0.882373
0.897019 0.897019 0.897019
0.908901 0.908901 0.908901
0.102953 0.102953 0.102953
0.103017 0.103017 0.103017
0.103248 0.103248 0.103248
0.103685 0.103685 0.103685
0.104599 0.104599 0.104599
0.106129 0.106129 0.106129
0.109727 0.109727 0.109727
0.117223 0.117223 0.117223
0.127518 0.127518 0.127518
0.144005 0.144005 0.144005
0.162859 0.162859 0.162859
0.182788 0.182788 0.182788
0.206267 0.206267 0.206267
0.232904 0.232904 0.232904
0.260939 0.260939 0.260939
0.293024 0.293024 0.293024
0.328460 0.328460 0.328460
0.364553 0.364553 0.364553
0.400904 0.400904 0.400904
0.445940 0.445940 0.445940
0.496670 0.496670 0.496670
0.545685 0.545685 0.545685
0.596777 0.596777 0.596777
0.651674 0.651674 0.651674
0.702520 0.702520 0.702520
0.746921 0.746921 0.746921
0.787634 0.787634 0.787634
0.815922 0.815922 0.815922
0.843003 0.843003 0.843003
0.863859 0.863859 0.863859
0.880724 0.880724 0.880724
0.895598 0.895598 0.895598
0.908021 0.908021 0.908021
0.102650 0.102650 0.102650
0.102711 0.102711 0.102711
0.102933 0.102933 0.102933
0.103351 0.103351 0.103351
0.104035 0.104035 0.104035
0.105491 0.105491 0.105491
0.108165 0.108165 0.108165
0.114159 0.114159 0.114159
0.124192 0.124192 0.124192
0.138932 0.138932 0.138932
0.159271 0.159271 0.159271
0.176907 0.176907 0.176907
0.201232 0.201232 0.201232
0.224592 0.224592 0.224592
0.253612 0.253612 0.253612
0.284783 0.284783 0.284783
0.318024 0.318024 0.318024
0.354059 0.354059 0.354059
0.390610 0.390610 0.390610
0.432609 0.432609 0.432609
0.483445 0.483445 0.483445
0.533330 0.533330 0.533330
0.583868 0.583868 0.583868
0.638503 0.638503 0.638503
0.691925 0.691925 0.691925
0.738357 0.738357 0.738357
0.782106 0.782106 0.782106
0.812324 0.812324 0.812324
0.840572 0.840572 0.840572
0.862674 0.862674 0.862674
0.879470 0.879470 0.879470
0.894462 0.894462 0.894462
0.907571 0.907571 0.907571
0.101460 0.101460 0.101460
0.101477 0.101477 0.101477
0.101643 0.101643 0.101643
0.102062 0.102062 0.102062
0.102717 0.102717 0.102717
0.103660 0.103660 0.103660
0.105534 0.105534 0.105534
0.109896 0.109896 0.109896
0.117747 0.117747 0.117747
0.129854 0.129854 0.129854
0.148967 0.148967 0.148967
0.167984 0.167984 0.167984
0.189660 0.189660 0.189660
0.214379 0.214379 0.214379
0.242151 0.242151 0.242151
0.271826 0.271826 0.271826
0.305922 0.305922 0.305922
0.342184 0.342184 0.342184
0.378117 0.378117 0.378117
0.416326 0.416326 0.416326
0.467113 0.467113 0.467113
0.518738 0.518738 0.518738
0.570175 0.570175 0.570175
0.625492 0.625492 0.625492
0.682090 0.682090 0.682090
