trix_classic/TriX_Blue47_Hard.cube
TITLE "Tri-X Blue47 Hard"
# Adobe RGB in/out. REPLACES AgX. R=0.0336 G=0.0311 B=0.9353
LUT_3D_SIZE 9
DOMAIN_MIN 0.0 0.0 0.0
DOMAIN_MAX 1.0 1.0 1.0
0.093288 0.093288 0.093288
0.093288 0.093288 0.093288
0.093288 0.093288 0.093288
0.093288 0.093288 0.093288
0.093288 0.093288 0.093288
0.093288 0.093288 0.093288
0.093288 0.093288 0.093288
0.093288 0.093288 0.093288
0.093288 0.093288 0.093288
0.093288 0.093288 0.093288
0.093288 0.093288 0.093288
0.093288 0.093288 0.093288
0.093288 0.093288 0.093288
0.093288 0.093288 0.093288
0.093288 0.093288 0.093288
0.093288 0.093288 0.093288
0.093288 0.093288 0.093288
0.093288 0.093288 0.093288
0.093288 0.093288 0.093288
0.093288 0.093288 0.093288
0.093288 0.093288 0.093288
0.093288 0.093288 0.093288
0.093288 0.093288 0.093288
0.093288 0.093288 0.093288
0.093288 0.093288 0.093288
0.093288 0.093288 0.093288
0.093288 0.093288 0.093288
0.093288 0.093288 0.093288
0.093288 0.093288 0.093288
0.093288 0.093288 0.093288
0.093288 0.093288 0.093288
0.093288 0.093288 0.093288
0.093288 0.093288 0.093288
0.093288 0.093288 0.093288
0.093288 0.093288 0.093288
0.093288 0.093288 0.093288
0.093288 0.093288 0.093288
0.093288 0.093288 0.093288
0.093288 0.093288 0.093288
0.093288 0.093288 0.093288
0.093288 0.093288 0.093288
0.093288 0.093288 0.093288
0.093288 0.093288 0.093288
0.093288 0.093288 0.093288
0.093288 0.093288 0.093288
0.093288 0.093288 0.093288
0.093288 0.093288 0.093288
0.093288 0.093288 0.093288
0.093288 0.093288 0.093288
0.093288 0.093288 0.093288
0.093288 0.093288 0.093288
0.093288 0.093288 0.093288
0.093288 0.093288 0.093288
0.093288 0.093288 0.093288
0.093288 0.093288 0.093288
0.093288 0.093288 0.093288
0.093288 0.093288 0.093288
0.093288 0.093288 0.093288
0.093288 0.093288 0.093288
0.093288 0.093288 0.093288
0.093288 0.093288 0.093288
0.093288 0.093288 0.093288
0.093288 0.093288 0.093288
0.093288 0.093288 0.093288
0.093288 0.093288 0.093288
0.093288 0.093288 0.093288
0.093288 0.093288 0.093288
0.093288 0.093288 0.093288
0.093288 0.093288 0.093288
0.093288 0.093288 0.093288
0.093288 0.093288 0.093288
0.093288 0.093288 0.093288
0.093288 0.093288 0.093288
0.093288 0.093288 0.093288
0.093288 0.093288 0.093288
0.093288 0.093288 0.093288
0.093288 0.093288 0.093288
0.093288 0.093288 0.093288
0.093288 0.093288 0.093288
0.093288 0.093288 0.093288
0.093288 0.093288 0.093288
0.093288 0.093288 0.093288
0.093288 0.093288 0.093288
0.093288 0.093288 0.093288
0.093288 0.093288 0.093288
0.093288 0.093288 0.093288
0.093288 0.093288 0.093288
0.093288 0.093288 0.093288
0.093288 0.093288 0.093288
0.093288 0.093288 0.093288
0.093288 0.093288 0.093288
0.093403 0.093403 0.093403
0.093413 0.093413 0.093413
0.093418 0.093418 0.093418
0.093422 0.093422 0.093422
0.093425 0.093425 0.093425
0.093428 0.093428 0.093428
0.093430 0.093430 0.093430
0.093432 0.093432 0.093432
0.093288 0.093288 0.093288
0.093412 0.093412 0.093412
0.093422 0.093422 0.093422
0.093427 0.093427 0.093427
0.093431 0.093431 0.093431
0.093434 0.093434 0.093434
0.093437 0.093437 0.093437
0.093439 0.093439 0.093439
0.093441 0.093441 0.093441
0.093288 0.093288 0.093288
0.093417 0.093417 0.093417
0.093427 0.093427 0.093427
0.093433 0.093433 0.093433
0.093437 0.093437 0.093437
0.093440 0.093440 0.093440
0.093442 0.093442 0.093442
0.093450 0.093450 0.093450
0.093458 0.093458 0.093458
0.093288 0.093288 0.093288
0.093421 0.093421 0.093421
0.093431 0.093431 0.093431
0.093436 0.093436 0.093436
0.093440 0.093440 0.093440
0.093446 0.093446 0.093446
0.093457 0.093457 0.093457
0.093466 0.093466 0.093466
0.093473 0.093473 0.093473
0.093288 0.093288 0.093288
0.093424 0.093424 0.093424
0.093433 0.093433 0.093433
0.093439 0.093439 0.093439
0.093446 0.093446 0.093446
0.093458 0.093458 0.093458
0.093469 0.093469 0.093469
0.093479 0.093479 0.093479
0.093489 0.093489 0.093489
0.093288 0.093288 0.093288
0.093426 0.093426 0.093426
0.093436 0.093436 0.093436
0.093441 0.093441 0.093441
0.093455 0.093455 0.093455
0.093468 0.093468 0.093468
0.093480 0.093480 0.093480
0.093492 0.093492 0.093492
0.093502 0.093502 0.093502
0.093288 0.093288 0.093288
0.093428 0.093428 0.093428
0.093438 0.093438 0.093438
0.093447 0.093447 0.093447
0.093463 0.093463 0.093463
0.093477 0.093477 0.093477
0.093491 0.093491 0.093491
0.093503 0.093503 0.093503
0.093513 0.093513 0.093513
0.093288 0.093288 0.093288
0.093430 0.093430 0.093430
0.093440 0.093440 0.093440
0.093454 0.093454 0.093454
0.093470 0.093470 0.093470
0.093486 0.093486 0.093486
0.093500 0.093500 0.093500
0.093512 0.093512 0.093512
0.093522 0.093522 0.093522
0.093288 0.093288 0.093288
0.093288 0.093288 0.093288
0.093288 0.093288 0.093288
0.093288 0.093288 0.093288
0.093288 0.093288 0.093288
0.093288 0.093288 0.093288
0.093288 0.093288 0.093288
0.093288 0.093288 0.093288
0.093288 0.093288 0.093288
0.093288 0.093288 0.093288
0.098626 0.098626 0.098626
0.099387 0.099387 0.099387
0.099835 0.099835 0.099835
0.100154 0.100154 0.100154
0.100402 0.100402 0.100402
0.100605 0.100605 0.100605
0.100777 0.100777 0.100777
0.100970 0.100970 0.100970
0.093288 0.093288 0.093288
0.099331 0.099331 0.099331
0.100098 0.100098 0.100098
0.100549 0.100549 0.100549
0.100870 0.100870 0.100870
0.101437 0.101437 0.101437
0.101933 0.101933 0.101933
0.102354 0.102354 0.102354
0.102720 0.102720 0.102720
0.093288 0.093288 0.093288
0.099746 0.099746 0.099746
0.100516 0.100516 0.100516
0.101072 0.101072 0.101072
0.101852 0.101852 0.101852
0.102461 0.102461 0.102461
0.102962 0.102962 0.102962
0.103387 0.103387 0.103387
0.103757 0.103757 0.103757
0.093288 0.093288 0.093288
0.100042 0.100042 0.100042
0.100814 0.100814 0.100814
0.101795 0.101795 0.101795
0.102581 0.102581 0.102581
0.103194 0.103194 0.103194
0.103699 0.103699 0.103699
0.104127 0.104127 0.104127
0.104499 0.104499 0.104499
0.093288 0.093288 0.093288
0.100271 0.100271 0.100271
0.101256 0.101256 0.101256
0.102359 0.102359 0.102359
0.103150 0.103150 0.103150
0.103767 0.103767 0.103767
0.104274 0.104274 0.104274
0.104704 0.104704 0.104704
0.105079 0.105079 0.105079
0.093288 0.093288 0.093288
0.100459 0.100459 0.100459
0.101714 0.101714 0.101714
0.102823 0.102823 0.102823
0.103617 0.103617 0.103617
0.104237 0.104237 0.104237
0.104746 0.104746 0.104746
0.105178 0.105178 0.105178
0.105555 0.105555 0.105555
0.093288 0.093288 0.093288
0.100619 0.100619 0.100619
0.102104 0.102104 0.102104
0.103216 0.103216 0.103216
0.104013 0.104013 0.104013
0.104636 0.104636 0.104636
0.105147 0.105147 0.105147
0.105581 0.105581 0.105581
0.106200 0.106200 0.106200
0.093288 0.093288 0.093288
0.100757 0.100757 0.100757
0.102442 0.102442 0.102442
0.103559 0.103559 0.103559
0.104358 0.104358 0.104358
0.104982 0.104982 0.104982
0.105495 0.105495 0.105495
0.106148 0.106148 0.106148
0.106865 0.106865 0.106865
0.093288 0.093288 0.093288
0.093288 0.093288 0.093288
0.093288 0.093288 0.093288
0.093288 0.093288 0.093288
0.093288 0.093288 0.093288
0.093288 0.093288 0.093288
0.093288 0.093288 0.093288
0.093288 0.093288 0.093288
0.093288 0.093288 0.093288
0.093288 0.093288 0.093288
0.189205 0.189205 0.189205
0.203854 0.203854 0.203854
0.212944 0.212944 0.212944
0.219639 0.219639 0.219639
0.224976 0.224976 0.224976
0.229432 0.229432 0.229432
0.233269 0.233269 0.233269
0.236645 0.236645 0.236645
0.093288 0.093288 0.093288
0.202748 0.202748 0.202748
0.218447 0.218447 0.218447
0.228188 0.228188 0.228188
0.235361 0.235361 0.235361
0.241080 0.241080 0.241080
0.245856 0.245856 0.245856
0.249967 0.249967 0.249967
0.253585 0.253585 0.253585
0.093288 0.093288 0.093288
0.211116 0.211116 0.211116
0.227462 0.227462 0.227462
0.237605 0.237605 0.237605
0.245075 0.245075 0.245075
0.251030 0.251030 0.251030
0.256003 0.256003 0.256003
0.260284 0.260284 0.260284
0.264050 0.264050 0.264050
0.093288 0.093288 0.093288
0.217262 0.217262 0.217262
0.234084 0.234084 0.234084
0.244522 0.244522 0.244522
0.252209 0.252209 0.252209
0.258337 0.258337 0.258337
0.263455 0.263455 0.263455
0.267861 0.267861 0.267861
0.271737 0.271737 0.271737
0.093288 0.093288 0.093288
0.222151 0.222151 0.222151
0.239352 0.239352 0.239352
0.250025 0.250025 0.250025
0.257885 0.257885 0.257885
0.264151 0.264151 0.264151
0.269384 0.269384 0.269384
0.273974 0.273974 0.273974
0.278100 0.278100 0.278100
0.093288 0.093288 0.093288
0.226228 0.226228 0.226228
0.243745 0.243745 0.243745
0.254614 0.254614 0.254614
0.262618 0.262618 0.262618
0.268999 0.268999 0.268999
0.274430 0.274430 0.274430
0.279207 0.279207 0.279207
0.283411 0.283411 0.283411
0.093288 0.093288 0.093288
0.229734 0.229734 0.229734
0.247521 0.247521 0.247521
0.258559 0.258559 0.258559
0.266687 0.266687 0.266687
0.273222 0.273222 0.273222
0.278856 0.278856 0.278856
0.283709 0.283709 0.283709
0.287981 0.287981 0.287981
0.093288 0.093288 0.093288
0.232814 0.232814 0.232814
0.250840 0.250840 0.250840
0.262025 0.262025 0.262025
0.270262 0.270262 0.270262
0.277035 0.277035 0.277035
0.282746 0.282746 0.282746
0.287668 0.287668 0.287668
0.292000 0.292000 0.292000
0.093288 0.093288 0.093288
0.093288 0.093288 0.093288
0.093288 0.093288 0.093288
0.093288 0.093288 0.093288
0.093288 0.093288 0.093288
0.093288 0.093288 0.093288
0.093288 0.093288 0.093288
0.093288 0.093288 0.093288
0.093288 0.093288 0.093288
0.093288 0.093288 0.093288
0.454376 0.454376 0.454376
0.485876 0.485876 0.485876
0.505305 0.505305 0.505305
0.519576 0.519576 0.519576
0.530948 0.530948 0.530948
0.540424 0.540424 0.540424
0.548568 0.548568 0.548568
0.555721 0.555721 0.555721
0.093288 0.093288 0.093288
0.483506 0.483506 0.483506
0.517033 0.517033 0.517033
0.537779 0.537779 0.537779
0.553001 0.553001 0.553001
0.565105 0.565105 0.565105
0.575190 0.575190 0.575190
0.583858 0.583858 0.583858
0.591472 0.591472 0.591472
0.093288 0.093288 0.093288
0.501404 0.501404 0.501404
0.536238 0.536238 0.536238
0.557754 0.557754 0.557754
0.573542 0.573542 0.573542
0.586095 0.586095 0.586095
0.596555 0.596555 0.596555
0.605545 0.605545 0.605545
0.613441 0.613441 0.613441
0.093288 0.093288 0.093288
0.514503 0.514503 0.514503
0.550295 0.550295 0.550295
0.572375 0.572375 0.572375
0.588577 0.588577 0.588577
0.601459 0.601459 0.601459
0.612193 0.612193 0.612193
0.621418 0.621418 0.621418
0.628509 0.628509 0.628509
0.093288 0.093288 0.093288
0.524934 0.524934 0.524934
0.561451 0.561451 0.561451
0.583980 0.583980 0.583980
0.600510 0.600510 0.600510
0.613653 0.613653 0.613653
0.624346 0.624346 0.624346
0.632309 0.632309 0.632309
0.639290 0.639290 0.639290
0.093288 0.093288 0.093288
0.533613 0.533613 0.533613
0.570735 0.570735 0.570735
0.593635 0.593635 0.593635
0.610439 0.610439 0.610439
0.623664 0.623664 0.623664
0.633083 0.633083 0.633083
0.641158 0.641158 0.641158
0.648235 0.648235 0.648235
0.093288 0.093288 0.093288
0.541064 0.541064 0.541064
0.578703 0.578703 0.578703
0.601924 0.601924 0.601924
0.618962 0.618962 0.618962
0.631035 0.631035 0.631035
0.640565 0.640565 0.640565
0.648735 0.648735 0.648735
0.655896 0.655896 0.655896
0.093288 0.093288 0.093288
0.547601 0.547601 0.547601
0.585696 0.585696 0.585696
0.609197 0.609197 0.609197
0.625901 0.625901 0.625901
0.637490 0.637490 0.637490
0.647118 0.647118 0.647118
0.655371 0.655371 0.655371
0.662606 0.662606 0.662606
0.093288 0.093288 0.093288
0.093288 0.093288 0.093288
0.093288 0.093288 0.093288
0.093288 0.093288 0.093288
0.093288 0.093288 0.093288
0.093288 0.093288 0.093288
0.093288 0.093288 0.093288
0.093288 0.093288 0.093288
0.093288 0.093288 0.093288
0.093288 0.093288 0.093288
0.778282 0.778282 0.778282
0.808031 0.808031 0.808031
0.820955 0.820955 0.820955
0.830251 0.830251 0.830251
0.837533 0.837533 0.837533
0.843531 0.843531 0.843531
0.848635 0.848635 0.848635
0.853081 0.853081 0.853081
0.093288 0.093288 0.093288
0.805918 0.805918 0.805918
0.828609 0.828609 0.828609
0.841863 0.841863 0.841863
0.851395 0.851395 0.851395
0.858863 0.858863 0.858863
0.865013 0.865013 0.865013
0.870247 0.870247 0.870247
0.874667 0.874667 0.874667
0.093288 0.093288 0.093288
0.818384 0.818384 0.818384
0.840889 0.840889 0.840889
0.854339 0.854339 0.854339
0.864012 0.864012 0.864012
0.871591 0.871591 0.871591
0.876981 0.876981 0.876981
0.881041 0.881041 0.881041
0.884573 0.884573 0.884573
0.093288 0.093288 0.093288
0.826971 0.826971 0.826971
0.849712 0.849712 0.849712
0.863303 0.863303 0.863303
0.873078 0.873078 0.873078
0.879201 0.879201 0.879201
0.884017 0.884017 0.884017
0.888109 0.888109 0.888109
0.891669 0.891669 0.891669
0.093288 0.093288 0.093288
0.833693 0.833693 0.833693
0.856619 0.856619 0.856619
0.870320 0.870320 0.870320
0.878772 0.878772 0.878772
0.884667 0.884667 0.884667
0.889513 0.889513 0.889513
0.893631 0.893631 0.893631
0.897213 0.897213 0.897213
0.093288 0.093288 0.093288
0.839226 0.839226 0.839226
0.862304 0.862304 0.862304
0.875654 0.875654 0.875654
0.883234 0.883234 0.883234
0.889159 0.889159 0.889159
0.894029 0.894029 0.894029
0.898168 0.898168 0.898168
0.901768 0.901768 0.901768
0.093288 0.093288 0.093288
0.843933 0.843933 0.843933
0.867140 0.867140 0.867140
0.879411 0.879411 0.879411
0.887024 0.887024 0.887024
0.892974 0.892974 0.892974
0.897865 0.897865 0.897865
0.902021 0.902021 0.902021
0.905637 0.905637 0.905637
0.093288 0.093288 0.093288
0.848032 0.848032 0.848032
0.871351 0.871351 0.871351
0.882679 0.882679 0.882679
0.890320 0.890320 0.890320
0.896292 0.896292 0.896292
0.901201 0.901201 0.901201
0.905373 0.905373 0.905373
0.909002 0.909002 0.909002
0.093288 0.093288 0.093288
0.093288 0.093288 0.093288
0.093288 0.093288 0.093288
0.093288 0.093288 0.093288
0.093288 0.093288 0.093288
0.093288 0.093288 0.093288
0.093288 0.093288 0.093288
0.093288 0.093288 0.093288
0.093288 0.093288 0.093288
0.093288 0.093288 0.093288
0.933282 0.933282 0.933282
0.947894 0.947894 0.947894
0.953593 0.953593 0.953593
0.957553 0.957553 0.957553
0.960636 0.960636 0.960636
0.963162 0.963162 0.963162
0.965303 0.965303 0.965303
0.967162 0.967162 0.967162
0.093288 0.093288 0.093288
0.946820 0.946820 0.946820
0.956856 0.956856 0.956856
0.962461 0.962461 0.962461
0.966458 0.966458 0.966458
0.969560 0.969560 0.969560
0.971027 0.971027 0.971027
0.972084 0.972084 0.972084
0.973000 0.973000 0.973000
0.093288 0.093288 0.093288
0.952493 0.952493 0.952493
0.962051 0.962051 0.962051
0.967686 0.967686 0.967686
0.970825 0.970825 0.970825
0.972354 0.972354 0.972354
0.973605 0.973605 0.973605
0.974664 0.974664 0.974664
0.975583 0.975583 0.975583
0.093288 0.093288 0.093288
0.956159 0.956159 0.956159
0.965754 0.965754 0.965754
0.970681 0.970681 0.970681
0.972653 0.972653 0.972653
0.974185 0.974185 0.974185
0.975438 0.975438 0.975438
0.976499 0.976499 0.976499
0.977420 0.977420 0.977420
0.093288 0.093288 0.093288
0.959013 0.959013 0.959013
0.968631 0.968631 0.968631
0.972098 0.972098 0.972098
0.974073 0.974073 0.974073
0.975607 0.975607 0.975607
0.976863 0.976863 0.976863
0.977925 0.977925 0.977925
0.978847 0.978847 0.978847
0.093288 0.093288 0.093288
0.961350 0.961350 0.961350
0.970479 0.970479 0.970479
0.973258 0.973258 0.973258
0.975235 0.975235 0.975235
0.976771 0.976771 0.976771
0.978028 0.978028 0.978028
0.979092 0.979092 0.979092
0.980014 0.980014 0.980014
0.093288 0.093288 0.093288
0.963332 0.963332 0.963332
0.971457 0.971457 0.971457
0.974240 0.974240 0.974240
0.976218 0.976218 0.976218
0.977756 0.977756 0.977756
0.979014 0.979014 0.979014
0.980079 0.980079 0.980079
0.981003 0.981003 0.981003
0.093288 0.093288 0.093288
0.965051 0.965051 0.965051
0.972306 0.972306 0.972306
0.975091 0.975091 0.975091
0.977071 0.977071 0.977071
0.978610 0.978610 0.978610
0.979869 0.979869 0.979869
0.980935 0.980935 0.980935
0.981859 0.981859 0.981859
0.093288 0.093288 0.093288
0.093288 0.093288 0.093288
0.093288 0.093288 0.093288
0.093288 0.093288 0.093288
0.093288 0.093288 0.093288
0.093288 0.093288 0.093288
0.093288 0.093288 0.093288
0.093288 0.093288 0.093288
0.093288 0.093288 0.093288
0.093288 0.093288 0.093288
0.983530 0.983530 0.983530
0.985692 0.985692 0.985692
0.986958 0.986958 0.986958
0.987858 0.987858 0.987858
0.988556 0.988556 0.988556
0.989127 0.989127 0.989127
0.989610 0.989610 0.989610
0.990029 0.990029 0.990029
0.093288 0.093288 0.093288
0.985534 0.985534 0.985534
0.987700 0.987700 0.987700
0.988969 0.988969 0.988969
0.989870 0.989870 0.989870
0.990570 0.990570 0.990570
0.991142 0.991142 0.991142
0.991626 0.991626 0.991626
0.992046 0.992046 0.992046
0.093288 0.093288 0.093288
0.986708 0.986708 0.986708
0.988876 0.988876 0.988876
0.990147 0.990147 0.990147
0.991050 0.991050 0.991050
0.991750 0.991750 0.991750
0.992244 0.992244 0.992244
0.992462 0.992462 0.992462
0.992651 0.992651 0.992651
0.093288 0.093288 0.093288
0.987541 0.987541 0.987541
0.989712 0.989712 0.989712
0.990984 0.990984 0.990984
0.991887 0.991887 0.991887
0.992363 0.992363 0.992363
0.992622 0.992622 0.992622
0.992840 0.992840 0.992840
0.993030 0.993030 0.993030
0.093288 0.093288 0.093288
0.988189 0.988189 0.988189
0.990361 0.990361 0.990361
0.991633 0.991633 0.991633
0.992340 0.992340 0.992340
0.992656 0.992656 0.992656
0.992915 0.992915 0.992915
0.993134 0.993134 0.993134
0.993323 0.993323 0.993323
0.093288 0.093288 0.093288
0.988718 0.988718 0.988718
0.990891 0.990891 0.990891
0.992164 0.992164 0.992164
0.992580 0.992580 0.992580
0.992896 0.992896 0.992896
0.993155 0.993155 0.993155
0.993373 0.993373 0.993373
0.993563 0.993563 0.993563
0.093288 0.093288 0.093288
0.989165 0.989165 0.989165
0.991339 0.991339 0.991339
0.992374 0.992374 0.992374
0.992782 0.992782 0.992782
0.993099 0.993099 0.993099
0.993357 0.993357 0.993357
0.993576 0.993576 0.993576
0.993766 0.993766 0.993766
0.093288 0.093288 0.093288
0.989553 0.989553 0.989553
0.991728 0.991728 0.991728
0.992550 0.992550 0.992550
0.992958 0.992958 0.992958
0.993274 0.993274 0.993274
0.993533 0.993533 0.993533
0.993752 0.993752 0.993752
0.993941 0.993941 0.993941
0.093288 0.093288 0.093288
0.093288 0.093288 0.093288
0.093288 0.093288 0.093288
0.093288 0.093288 0.093288
0.093288 0.093288 0.093288
0.093288 0.093288 0.093288
0.093288 0.093288 0.093288
0.093288 0.093288 0.093288
0.093288 0.093288 0.093288
0.093288 0.093288 0.093288
0.993530 0.993530 0.993530
0.994514 0.994514 0.994514
0.995091 0.995091 0.995091
0.995499 0.995499 0.995499
0.995817 0.995817 0.995817
0.996076 0.996076 0.996076
0.996295 0.996295 0.996295
0.996486 0.996486 0.996486
0.093288 0.093288 0.093288
0.994443 0.994443 0.994443
0.995428 0.995428 0.995428
0.996004 0.996004 0.996004
0.996414 0.996414 0.996414
0.996731 0.996731 0.996731
0.996991 0.996991 0.996991
0.997210 0.997210 0.997210
0.997401 0.997401 0.997401
0.093288 0.093288 0.093288
0.994977 0.994977 0.994977
0.995962 0.995962 0.995962
0.996539 0.996539 0.996539
0.996949 0.996949 0.996949
0.997266 0.997266 0.997266
0.997526 0.997526 0.997526
0.997746 0.997746 0.997746
0.997828 0.997828 0.997828
0.093288 0.093288 0.093288
0.995356 0.995356 0.995356
0.996342 0.996342 0.996342
0.996919 0.996919 0.996919
0.997328 0.997328 0.997328
0.997646 0.997646 0.997646
0.997822 0.997822 0.997822
0.997862 0.997862 0.997862
0.997896 0.997896 0.997896
0.093288 0.093288 0.093288
0.995650 0.995650 0.995650
0.996636 0.996636 0.996636
0.997213 0.997213 0.997213
0.997623 0.997623 0.997623
0.997829 0.997829 0.997829
0.997875 0.997875 0.997875
0.997915 0.997915 0.997915
0.997949 0.997949 0.997949
0.093288 0.093288 0.093288
0.995890 0.995890 0.995890
0.996877 0.996877 0.996877
0.997454 0.997454 0.997454
0.997815 0.997815 0.997815
0.997872 0.997872 0.997872
0.997919 0.997919 0.997919
0.997959 0.997959 0.997959
0.997993 0.997993 0.997993
0.093288 0.093288 0.093288
0.996094 0.996094 0.996094
0.997080 0.997080 0.997080
0.997658 0.997658 0.997658
0.997851 0.997851 0.997851
0.997909 0.997909 0.997909
0.997956 0.997956 0.997956
0.997995 0.997995 0.997995
0.998030 0.998030 0.998030
0.093288 0.093288 0.093288
0.996270 0.996270 0.996270
0.997256 0.997256 0.997256
0.997809 0.997809 0.997809
0.997883 0.997883 0.997883
0.997941 0.997941 0.997941
0.997988 0.997988 0.997988
0.998027 0.998027 0.998027
0.998062 0.998062 0.998062
