trix_classic/TriX_Red25_Soft.cube
TITLE "Tri-X Red25 Soft"
# Adobe RGB in/out. REPLACES AgX. R=0.9735 G=0.0265 B=0.0000
LUT_3D_SIZE 65
DOMAIN_MIN 0.0 0.0 0.0
DOMAIN_MAX 1.0 1.0 1.0
0.097688 0.097688 0.097688
0.097688 0.097688 0.097688
0.097688 0.097688 0.097688
0.097688 0.097688 0.097688
0.097688 0.097688 0.097688
0.097688 0.097688 0.097688
0.097688 0.097688 0.097688
0.097688 0.097688 0.097688
0.097688 0.097688 0.097688
0.097688 0.097688 0.097688
0.097688 0.097688 0.097688
0.097688 0.097688 0.097688
0.097688 0.097688 0.097688
0.097688 0.097688 0.097688
0.097688 0.097688 0.097688
0.097688 0.097688 0.097688
0.097688 0.097688 0.097688
0.097688 0.097688 0.097688
0.097688 0.097688 0.097688
0.097688 0.097688 0.097688
0.097688 0.097688 0.097688
0.097688 0.097688 0.097688
0.097688 0.097688 0.097688
0.097688 0.097688 0.097688
0.097688 0.097688 0.097688
0.097688 0.097688 0.097688
0.097688 0.097688 0.097688
0.097688 0.097688 0.097688
0.097688 0.097688 0.097688
0.097688 0.097688 0.097688
0.097688 0.097688 0.097688
0.097688 0.097688 0.097688
0.097688 0.097688 0.097688
0.097688 0.097688 0.097688
0.097688 0.097688 0.097688
0.097688 0.097688 0.097688
0.097688 0.097688 0.097688
0.097688 0.097688 0.097688
0.097688 0.097688 0.097688
0.097688 0.097688 0.097688
0.097688 0.097688 0.097688
0.097688 0.097688 0.097688
0.097688 0.097688 0.097688
0.097688 0.097688 0.097688
0.097688 0.097688 0.097688
0.097688 0.097688 0.097688
0.097688 0.097688 0.097688
0.097688 0.097688 0.097688
0.097688 0.097688 0.097688
0.097688 0.097688 0.097688
0.097688 0.097688 0.097688
0.097688 0.097688 0.097688
0.097688 0.097688 0.097688
0.097688 0.097688 0.097688
0.097688 0.097688 0.097688
0.097688 0.097688 0.097688
0.097688 0.097688 0.097688
0.097688 0.097688 0.097688
0.097688 0.097688 0.097688
0.097688 0.097688 0.097688
0.097688 0.097688 0.097688
0.097688 0.097688 0.097688
0.097688 0.097688 0.097688
0.097688 0.097688 0.097688
0.097688 0.097688 0.097688
0.097688 0.097688 0.097688
0.097688 0.097688 0.097688
0.097688 0.097688 0.097688
0.097688 0.097688 0.097688
0.097688 0.097688 0.097688
0.098373 0.098373 0.098373
0.099904 0.099904 0.099904
0.101513 0.101513 0.101513
0.105409 0.105409 0.105409
0.112405 0.112405 0.112405
0.122168 0.122168 0.122168
0.134370 0.134370 0.134370
0.150593 0.150593 0.150593
0.167460 0.167460 0.167460
0.184811 0.184811 0.184811
0.202919 0.202919 0.202919
0.221056 0.221056 0.221056
0.237548 0.237548 0.237548
0.254223 0.254223 0.254223
0.270794 0.270794 0.270794
0.285010 0.285010 0.285010
0.299225 0.299225 0.299225
0.313560 0.313560 0.313560
0.328798 0.328798 0.328798
0.343602 0.343602 0.343602
0.358099 0.358099 0.358099
0.372603 0.372603 0.372603
0.387114 0.387114 0.387114
0.401631 0.401631 0.401631
0.415617 0.415617 0.415617
0.428934 0.428934 0.428934
0.442407 0.442407 0.442407
0.456152 0.456152 0.456152
0.469882 0.469882 0.469882
0.483596 0.483596 0.483596
0.497296 0.497296 0.497296
0.510954 0.510954 0.510954
0.524455 0.524455 0.524455
0.537937 0.537937 0.537937
0.551403 0.551403 0.551403
0.564852 0.564852 0.564852
0.578285 0.578285 0.578285
0.591702 0.591702 0.591702
0.605104 0.605104 0.605104
0.618491 0.618491 0.618491
0.631863 0.631863 0.631863
0.645217 0.645217 0.645217
0.658173 0.658173 0.658173
0.671108 0.671108 0.671108
0.684023 0.684023 0.684023
0.696919 0.696919 0.696919
0.709789 0.709789 0.709789
0.722589 0.722589 0.722589
0.735370 0.735370 0.735370
0.748131 0.748131 0.748131
0.760874 0.760874 0.760874
0.773598 0.773598 0.773598
0.785383 0.785383 0.785383
0.796448 0.796448 0.796448
0.807476 0.807476 0.807476
0.818467 0.818467 0.818467
0.829423 0.829423 0.829423
0.840343 0.840343 0.840343
0.851229 0.851229 0.851229
0.862081 0.862081 0.862081
0.097688 0.097688 0.097688
0.097688 0.097688 0.097688
0.097688 0.097688 0.097688
0.097688 0.097688 0.097688
0.097688 0.097688 0.097688
0.098526 0.098526 0.098526
0.100088 0.100088 0.100088
0.101863 0.101863 0.101863
0.106025 0.106025 0.106025
0.113858 0.113858 0.113858
0.124285 0.124285 0.124285
0.137609 0.137609 0.137609
0.154400 0.154400 0.154400
0.171716 0.171716 0.171716
0.189509 0.189509 0.189509
0.208366 0.208366 0.208366
0.226062 0.226062 0.226062
0.242928 0.242928 0.242928
0.259980 0.259980 0.259980
0.275939 0.275939 0.275939
0.290425 0.290425 0.290425
0.304910 0.304910 0.304910
0.319939 0.319939 0.319939
0.335458 0.335458 0.335458
0.350227 0.350227 0.350227
0.365004 0.365004 0.365004
0.379788 0.379788 0.379788
0.394578 0.394578 0.394578
0.409376 0.409376 0.409376
0.422976 0.422976 0.422976
0.436529 0.436529 0.436529
0.450524 0.450524 0.450524
0.464522 0.464522 0.464522
0.478503 0.478503 0.478503
0.492469 0.492469 0.492469
0.506420 0.506420 0.506420
0.520213 0.520213 0.520213
0.533958 0.533958 0.533958
0.547685 0.547685 0.547685
0.561395 0.561395 0.561395
0.575087 0.575087 0.575087
0.588764 0.588764 0.588764
0.602424 0.602424 0.602424
0.616069 0.616069 0.616069
0.629698 0.629698 0.629698
0.643312 0.643312 0.643312
0.656569 0.656569 0.656569
0.669753 0.669753 0.669753
0.682916 0.682916 0.682916
0.696058 0.696058 0.696058
0.709178 0.709178 0.709178
0.722223 0.722223 0.722223
0.735247 0.735247 0.735247
0.748251 0.748251 0.748251
0.761236 0.761236 0.761236
0.774202 0.774202 0.774202
0.786121 0.786121 0.786121
0.797394 0.797394 0.797394
0.808628 0.808628 0.808628
0.819824 0.819824 0.819824
0.830984 0.830984 0.830984
0.842107 0.842107 0.842107
0.853194 0.853194 0.853194
0.864247 0.864247 0.864247
0.875265 0.875265 0.875265
0.097688 0.097688 0.097688
0.097688 0.097688 0.097688
0.097688 0.097688 0.097688
0.097688 0.097688 0.097688
0.097688 0.097688 0.097688
0.098615 0.098615 0.098615
0.100196 0.100196 0.100196
0.102087 0.102087 0.102087
0.106531 0.106531 0.106531
0.114717 0.114717 0.114717
0.125540 0.125540 0.125540
0.139633 0.139633 0.139633
0.156672 0.156672 0.156672
0.174256 0.174256 0.174256
0.192312 0.192312 0.192312
0.211620 0.211620 0.211620
0.229043 0.229043 0.229043
0.246131 0.246131 0.246131
0.263408 0.263408 0.263408
0.278994 0.278994 0.278994
0.293640 0.293640 0.293640
0.308285 0.308285 0.308285
0.323731 0.323731 0.323731
0.339227 0.339227 0.339227
0.354162 0.354162 0.354162
0.369105 0.369105 0.369105
0.384055 0.384055 0.384055
0.399012 0.399012 0.399012
0.413616 0.413616 0.413616
0.427342 0.427342 0.427342
0.441178 0.441178 0.441178
0.455342 0.455342 0.455342
0.469489 0.469489 0.469489
0.483619 0.483619 0.483619
0.497735 0.497735 0.497735
0.511797 0.511797 0.511797
0.525706 0.525706 0.525706
0.539596 0.539596 0.539596
0.553468 0.553468 0.553468
0.567323 0.567323 0.567323
0.581160 0.581160 0.581160
0.594981 0.594981 0.594981
0.608786 0.608786 0.608786
0.622574 0.622574 0.622574
0.636348 0.636348 0.636348
0.649961 0.649961 0.649961
0.663302 0.663302 0.663302
0.676621 0.676621 0.676621
0.689919 0.689919 0.689919
0.703196 0.703196 0.703196
0.716419 0.716419 0.716419
0.729597 0.729597 0.729597
0.742754 0.742754 0.742754
0.755891 0.755891 0.755891
0.769009 0.769009 0.769009
0.781718 0.781718 0.781718
0.793131 0.793131 0.793131
0.804505 0.804505 0.804505
0.815839 0.815839 0.815839
0.827135 0.827135 0.827135
0.838394 0.838394 0.838394
0.849616 0.849616 0.849616
0.860802 0.860802 0.860802
0.871953 0.871953 0.871953
0.883070 0.883070 0.883070
0.097688 0.097688 0.097688
0.097688 0.097688 0.097688
0.097688 0.097688 0.097688
0.097688 0.097688 0.097688
0.097688 0.097688 0.097688
0.098679 0.098679 0.098679
0.100273 0.100273 0.100273
0.102334 0.102334 0.102334
0.106931 0.106931 0.106931
0.115330 0.115330 0.115330
0.126438 0.126438 0.126438
0.141087 0.141087 0.141087
0.158303 0.158303 0.158303
0.176081 0.176081 0.176081
0.194325 0.194325 0.194325
0.213959 0.213959 0.213959
0.231181 0.231181 0.231181
0.248429 0.248429 0.248429
0.265867 0.265867 0.265867
0.281181 0.281181 0.281181
0.295943 0.295943 0.295943
0.310703 0.310703 0.310703
0.326448 0.326448 0.326448
0.341927 0.341927 0.341927
0.356981 0.356981 0.356981
0.372042 0.372042 0.372042
0.387111 0.387111 0.387111
0.402187 0.402187 0.402187
0.416640 0.416640 0.416640
0.430466 0.430466 0.430466
0.444520 0.444520 0.444520
0.458791 0.458791 0.458791
0.473045 0.473045 0.473045
0.487283 0.487283 0.487283
0.501505 0.501505 0.501505
0.515626 0.515626 0.515626
0.529639 0.529639 0.529639
0.543633 0.543633 0.543633
0.557609 0.557609 0.557609
0.571567 0.571567 0.571567
0.585508 0.585508 0.585508
0.599432 0.599432 0.599432
0.613340 0.613340 0.613340
0.627232 0.627232 0.627232
0.641108 0.641108 0.641108
0.654683 0.654683 0.654683
0.668121 0.668121 0.668121
0.681537 0.681537 0.681537
0.694932 0.694932 0.694932
0.708305 0.708305 0.708305
0.721601 0.721601 0.721601
0.734874 0.734874 0.734874
0.748127 0.748127 0.748127
0.761359 0.761359 0.761359
0.774571 0.774571 0.774571
0.786658 0.786658 0.786658
0.798143 0.798143 0.798143
0.809588 0.809588 0.809588
0.820994 0.820994 0.820994
0.832362 0.832362 0.832362
0.843692 0.843692 0.843692
0.854985 0.854985 0.854985
0.866242 0.866242 0.866242
0.877463 0.877463 0.877463
0.886653 0.886653 0.886653
0.097688 0.097688 0.097688
0.097688 0.097688 0.097688
0.097688 0.097688 0.097688
0.097688 0.097688 0.097688
0.097688 0.097688 0.097688
0.098728 0.098728 0.098728
0.100332 0.100332 0.100332
0.102526 0.102526 0.102526
0.107242 0.107242 0.107242
0.115808 0.115808 0.115808
0.127139 0.127139 0.127139
0.142226 0.142226 0.142226
0.159581 0.159581 0.159581
0.177509 0.177509 0.177509
0.195902 0.195902 0.195902
0.215683 0.215683 0.215683
0.232854 0.232854 0.232854
0.250226 0.250226 0.250226
0.267791 0.267791 0.267791
0.282890 0.282890 0.282890
0.297741 0.297741 0.297741
0.312654 0.312654 0.312654
0.328572 0.328572 0.328572
0.344036 0.344036 0.344036
0.359183 0.359183 0.359183
0.374337 0.374337 0.374337
0.389499 0.389499 0.389499
0.404668 0.404668 0.404668
0.419001 0.419001 0.419001
0.432905 0.432905 0.432905
0.447129 0.447129 0.447129
0.461484 0.461484 0.461484
0.475822 0.475822 0.475822
0.490143 0.490143 0.490143
0.504449 0.504449 0.504449
0.518616 0.518616 0.518616
0.532710 0.532710 0.532710
0.546785 0.546785 0.546785
0.560842 0.560842 0.560842
0.574881 0.574881 0.574881
0.588903 0.588903 0.588903
0.602908 0.602908 0.602908
0.616896 0.616896 0.616896
0.630869 0.630869 0.630869
0.644825 0.644825 0.644825
0.658369 0.658369 0.658369
0.671883 0.671883 0.671883
0.685375 0.685375 0.685375
0.698845 0.698845 0.698845
0.712277 0.712277 0.712277
0.725646 0.725646 0.725646
0.738994 0.738994 0.738994
0.752321 0.752321 0.752321
0.765627 0.765627 0.765627
0.778914 0.778914 0.778914
0.790511 0.790511 0.790511
0.802052 0.802052 0.802052
0.813553 0.813553 0.813553
0.825015 0.825015 0.825015
0.836438 0.836438 0.836438
0.847824 0.847824 0.847824
0.859172 0.859172 0.859172
0.870484 0.870484 0.870484
0.881761 0.881761 0.881761
0.889424 0.889424 0.889424
0.097688 0.097688 0.097688
0.097688 0.097688 0.097688
0.097688 0.097688 0.097688
0.097688 0.097688 0.097688
0.097688 0.097688 0.097688
0.098768 0.098768 0.098768
0.100381 0.100381 0.100381
0.102684 0.102684 0.102684
0.107496 0.107496 0.107496
0.116200 0.116200 0.116200
0.127715 0.127715 0.127715
0.143163 0.143163 0.143163
0.160636 0.160636 0.160636
0.178685 0.178685 0.178685
0.197239 0.197239 0.197239
0.216957 0.216957 0.216957
0.234229 0.234229 0.234229
0.251704 0.251704 0.251704
0.269367 0.269367 0.269367
0.284294 0.284294 0.284294
0.299219 0.299219 0.299219
0.314314 0.314314 0.314314
0.330317 0.330317 0.330317
0.345769 0.345769 0.345769
0.360992 0.360992 0.360992
0.376222 0.376222 0.376222
0.391460 0.391460 0.391460
0.406706 0.406706 0.406706
0.420940 0.420940 0.420940
0.434908 0.434908 0.434908
0.449273 0.449273 0.449273
0.463696 0.463696 0.463696
0.478103 0.478103 0.478103
0.492493 0.492493 0.492493
0.506867 0.506867 0.506867
0.521071 0.521071 0.521071
0.535232 0.535232 0.535232
0.549374 0.549374 0.549374
0.563497 0.563497 0.563497
0.577603 0.577603 0.577603
0.591691 0.591691 0.591691
0.605762 0.605762 0.605762
0.619817 0.619817 0.619817
0.633856 0.633856 0.633856
0.647798 0.647798 0.647798
0.661397 0.661397 0.661397
0.674973 0.674973 0.674973
0.688526 0.688526 0.688526
0.702058 0.702058 0.702058
0.715538 0.715538 0.715538
0.728968 0.728968 0.728968
0.742377 0.742377 0.742377
0.755765 0.755765 0.755765
0.769132 0.769132 0.769132
0.782044 0.782044 0.782044
0.793673 0.793673 0.793673
0.805260 0.805260 0.805260
0.816808 0.816808 0.816808
0.828315 0.828315 0.828315
0.839784 0.839784 0.839784
0.851215 0.851215 0.851215
0.862609 0.862609 0.862609
0.873966 0.873966 0.873966
0.884509 0.884509 0.884509
0.891695 0.891695 0.891695
0.097688 0.097688 0.097688
0.097688 0.097688 0.097688
0.097688 0.097688 0.097688
0.097688 0.097688 0.097688
0.097688 0.097688 0.097688
0.098802 0.098802 0.098802
0.100422 0.100422 0.100422
0.102817 0.102817 0.102817
0.107712 0.107712 0.107712
0.116533 0.116533 0.116533
0.128206 0.128206 0.128206
0.143960 0.143960 0.143960
0.161535 0.161535 0.161535
0.179685 0.179685 0.179685
0.198404 0.198404 0.198404
0.218041 0.218041 0.218041
0.235399 0.235399 0.235399
0.252961 0.252961 0.252961
0.270497 0.270497 0.270497
0.285486 0.285486 0.285486
0.300474 0.300474 0.300474
0.315725 0.315725 0.315725
0.331800 0.331800 0.331800
0.347241 0.347241 0.347241
0.362528 0.362528 0.362528
0.377824 0.377824 0.377824
0.393127 0.393127 0.393127
0.408437 0.408437 0.408437
0.422586 0.422586 0.422586
0.436609 0.436609 0.436609
0.451093 0.451093 0.451093
0.465575 0.465575 0.465575
0.480040 0.480040 0.480040
0.494488 0.494488 0.494488
0.508919 0.508919 0.508919
0.523156 0.523156 0.523156
0.537374 0.537374 0.537374
0.551572 0.551572 0.551572
0.565752 0.565752 0.565752
0.579914 0.579914 0.579914
0.594059 0.594059 0.594059
0.608186 0.608186 0.608186
0.622297 0.622297 0.622297
0.636392 0.636392 0.636392
0.650315 0.650315 0.650315
0.663967 0.663967 0.663967
0.677596 0.677596 0.677596
0.691202 0.691202 0.691202
0.704787 0.704787 0.704787
0.718307 0.718307 0.718307
0.731789 0.731789 0.731789
0.745250 0.745250 0.745250
0.758689 0.758689 0.758689
0.772109 0.772109 0.772109
0.784688 0.784688 0.784688
0.796356 0.796356 0.796356
0.807983 0.807983 0.807983
0.819569 0.819569 0.819569
0.831116 0.831116 0.831116
0.842624 0.842624 0.842624
0.854093 0.854093 0.854093
0.865526 0.865526 0.865526
0.876921 0.876921 0.876921
0.886418 0.886418 0.886418
0.893620 0.893620 0.893620
0.097688 0.097688 0.097688
0.097688 0.097688 0.097688
0.097688 0.097688 0.097688
0.097688 0.097688 0.097688
0.097688 0.097688 0.097688
0.098832 0.098832 0.098832
0.100458 0.100458 0.100458
0.102932 0.102932 0.102932
0.107900 0.107900 0.107900
0.116863 0.116863 0.116863
0.128724 0.128724 0.128724
0.144654 0.144654 0.144654
0.162318 0.162318 0.162318
0.180556 0.180556 0.180556
0.199419 0.199419 0.199419
0.218983 0.218983 0.218983
0.236416 0.236416 0.236416
0.254055 0.254055 0.254055
0.271479 0.271479 0.271479
0.286523 0.286523 0.286523
0.301565 0.301565 0.301565
0.316953 0.316953 0.316953
0.333089 0.333089 0.333089
0.348521 0.348521 0.348521
0.363865 0.363865 0.363865
0.379216 0.379216 0.379216
0.394576 0.394576 0.394576
0.409911 0.409911 0.409911
0.424017 0.424017 0.424017
0.438126 0.438126 0.438126
0.452676 0.452676 0.452676
0.467209 0.467209 0.467209
0.481724 0.481724 0.481724
0.496223 0.496223 0.496223
0.510683 0.510683 0.510683
0.524969 0.524969 0.524969
0.539236 0.539236 0.539236
0.553484 0.553484 0.553484
0.567713 0.567713 0.567713
0.581924 0.581924 0.581924
0.596118 0.596118 0.596118
0.610294 0.610294 0.610294
0.624454 0.624454 0.624454
0.638597 0.638597 0.638597
0.652504 0.652504 0.652504
0.666202 0.666202 0.666202
0.679876 0.679876 0.679876
0.693528 0.693528 0.693528
0.707159 0.707159 0.707159
0.720714 0.720714 0.720714
0.734241 0.734241 0.734241
0.747747 0.747747 0.747747
0.761232 0.761232 0.761232
0.774696 0.774696 0.774696
0.786985 0.786985 0.786985
0.798688 0.798688 0.798688
0.810349 0.810349 0.810349
0.821969 0.821969 0.821969
0.833549 0.833549 0.833549
0.845091 0.845091 0.845091
0.856594 0.856594 0.856594
0.868060 0.868060 0.868060
0.879489 0.879489 0.879489
0.888075 0.888075 0.888075
0.895290 0.895290 0.895290
0.097688 0.097688 0.097688
0.097688 0.097688 0.097688
0.097688 0.097688 0.097688
0.097688 0.097688 0.097688
0.097694 0.097694 0.097694
0.098858 0.098858 0.098858
0.100489 0.100489 0.100489
0.103034 0.103034 0.103034
0.108065 0.108065 0.108065
0.117205 0.117205 0.117205
0.129182 0.129182 0.129182
0.145269 0.145269 0.145269
0.163012 0.163012 0.163012
0.181328 0.181328 0.181328
0.200319 0.200319 0.200319
0.219818 0.219818 0.219818
0.237318 0.237318 0.237318
0.255023 0.255023 0.255023
0.272349 0.272349 0.272349
0.287441 0.287441 0.287441
0.302531 0.302531 0.302531
0.318039 0.318039 0.318039
0.334231 0.334231 0.334231
0.349654 0.349654 0.349654
0.365047 0.365047 0.365047
0.380449 0.380449 0.380449
0.395858 0.395858 0.395858
0.411136 0.411136 0.411136
0.425284 0.425284 0.425284
0.439481 0.439481 0.439481
0.454077 0.454077 0.454077
0.468654 0.468654 0.468654
0.483215 0.483215 0.483215
0.497759 0.497759 0.497759
0.512244 0.512244 0.512244
0.526574 0.526574 0.526574
0.540884 0.540884 0.540884
0.555175 0.555175 0.555175
0.569448 0.569448 0.569448
0.583702 0.583702 0.583702
0.597939 0.597939 0.597939
0.612159 0.612159 0.612159
0.626362 0.626362 0.626362
0.640549 0.640549 0.640549
0.654441 0.654441 0.654441
0.668179 0.668179 0.668179
0.681894 0.681894 0.681894
0.695587 0.695587 0.695587
0.709255 0.709255 0.709255
0.722844 0.722844 0.722844
0.736411 0.736411 0.736411
0.749957 0.749957 0.749957
0.763481 0.763481 0.763481
0.776985 0.776985 0.776985
0.789018 0.789018 0.789018
0.800750 0.800750 0.800750
0.812441 0.812441 0.812441
0.824091 0.824091 0.824091
0.835702 0.835702 0.835702
0.847273 0.847273 0.847273
0.858806 0.858806 0.858806
0.870301 0.870301 0.870301
0.881760 0.881760 0.881760
0.889539 0.889539 0.889539
0.896766 0.896766 0.896766
0.097688 0.097688 0.097688
0.097688 0.097688 0.097688
0.097688 0.097688 0.097688
0.097688 0.097688 0.097688
0.097703 0.097703 0.097703
0.098881 0.098881 0.098881
0.100517 0.100517 0.100517
0.103126 0.103126 0.103126
0.108265 0.108265 0.108265
0.117511 0.117511 0.117511
0.129594 0.129594 0.129594
0.145821 0.145821 0.145821
0.163635 0.163635 0.163635
0.182021 0.182021 0.182021
0.201127 0.201127 0.201127
0.220568 0.220568 0.220568
0.238127 0.238127 0.238127
0.255893 0.255893 0.255893
0.273129 0.273129 0.273129
0.288265 0.288265 0.288265
0.303398 0.303398 0.303398
0.319014 0.319014 0.319014
0.335240 0.335240 0.335240
0.350670 0.350670 0.350670
0.366109 0.366109 0.366109
0.381555 0.381555 0.381555
0.397009 0.397009 0.397009
0.412234 0.412234 0.412234
0.426420 0.426420 0.426420
0.440698 0.440698 0.440698
0.455333 0.455333 0.455333
0.469951 0.469951 0.469951
0.484552 0.484552 0.484552
0.499137 0.499137 0.499137
0.513644 0.513644 0.513644
0.528013 0.528013 0.528013
0.542363 0.542363 0.542363
0.556693 0.556693 0.556693
0.571004 0.571004 0.571004
0.585298 0.585298 0.585298
0.599574 0.599574 0.599574
0.613832 0.613832 0.613832
0.628074 0.628074 0.628074
0.642300 0.642300 0.642300
0.656178 0.656178 0.656178
0.669953 0.669953 0.669953
0.683704 0.683704 0.683704
0.697434 0.697434 0.697434
0.711129 0.711129 0.711129
0.724755 0.724755 0.724755
0.738358 0.738358 0.738358
0.751939 0.751939 0.751939
0.765499 0.765499 0.765499
0.779038 0.779038 0.779038
0.790840 0.790840 0.790840
0.802600 0.802600 0.802600
0.814318 0.814318 0.814318
0.825995 0.825995 0.825995
0.837632 0.837632 0.837632
0.849230 0.849230 0.849230
0.860789 0.860789 0.860789
0.872311 0.872311 0.872311
0.883557 0.883557 0.883557
0.890851 0.890851 0.890851
0.898089 0.898089 0.898089
0.097688 0.097688 0.097688
0.097688 0.097688 0.097688
0.097688 0.097688 0.097688
0.097688 0.097688 0.097688
0.097711 0.097711 0.097711
0.098902 0.098902 0.098902
0.100543 0.100543 0.100543
0.103209 0.103209 0.103209
0.108457 0.108457 0.108457
0.117789 0.117789 0.117789
0.129967 0.129967 0.129967
0.146323 0.146323 0.146323
0.164200 0.164200 0.164200
0.182651 0.182651 0.182651
0.201861 0.201861 0.201861
0.221248 0.221248 0.221248
0.238861 0.238861 0.238861
0.256682 0.256682 0.256682
0.273837 0.273837 0.273837
0.289012 0.289012 0.289012
0.304184 0.304184 0.304184
0.319899 0.319899 0.319899
0.336121 0.336121 0.336121
0.351592 0.351592 0.351592
0.367071 0.367071 0.367071
0.382559 0.382559 0.382559
0.398053 0.398053 0.398053
0.413230 0.413230 0.413230
0.427450 0.427450 0.427450
0.441801 0.441801 0.441801
0.456473 0.456473 0.456473
0.471128 0.471128 0.471128
0.485765 0.485765 0.485765
0.500386 0.500386 0.500386
0.514914 0.514914 0.514914
0.529319 0.529319 0.529319
0.543703 0.543703 0.543703
0.558069 0.558069 0.558069
0.572416 0.572416 0.572416
0.586745 0.586745 0.586745
0.601056 0.601056 0.601056
0.615350 0.615350 0.615350
0.629627 0.629627 0.629627
0.643888 0.643888 0.643888
0.657754 0.657754 0.657754
0.671562 0.671562 0.671562
0.685346 0.685346 0.685346
0.699108 0.699108 0.699108
0.712829 0.712829 0.712829
0.726487 0.726487 0.726487
0.740123 0.740123 0.740123
0.753737 0.753737 0.753737
0.767330 0.767330 0.767330
0.780665 0.780665 0.780665
0.792492 0.792492 0.792492
0.804276 0.804276 0.804276
0.816019 0.816019 0.816019
0.827720 0.827720 0.827720
0.839382 0.839382 0.839382
0.851004 0.851004 0.851004
0.862588 0.862588 0.862588
0.874134 0.874134 0.874134
0.884735 0.884735 0.884735
0.892039 0.892039 0.892039
0.899287 0.899287 0.899287
0.097688 0.097688 0.097688
0.097688 0.097688 0.097688
0.097688 0.097688 0.097688
0.097688 0.097688 0.097688
0.097718 0.097718 0.097718
0.098921 0.098921 0.098921
0.100566 0.100566 0.100566
0.103284 0.103284 0.103284
0.108632 0.108632 0.108632
0.118044 0.118044 0.118044
0.130309 0.130309 0.130309
0.146782 0.146782 0.146782
0.164719 0.164719 0.164719
0.183227 0.183227 0.183227
0.202533 0.202533 0.202533
0.221871 0.221871 0.221871
0.239534 0.239534 0.239534
0.257404 0.257404 0.257404
0.274485 0.274485 0.274485
0.289695 0.289695 0.289695
0.304904 0.304904 0.304904
0.320709 0.320709 0.320709
0.336928 0.336928 0.336928
0.352436 0.352436 0.352436
0.367953 0.367953 0.367953
0.383477 0.383477 0.383477
0.399009 0.399009 0.399009
0.414142 0.414142 0.414142
0.428393 0.428393 0.428393
0.442810 0.442810 0.442810
0.457516 0.457516 0.457516
0.472204 0.472204 0.472204
0.486875 0.486875 0.486875
0.501529 0.501529 0.501529
0.516076 0.516076 0.516076
0.530513 0.530513 0.530513
0.544930 0.544930 0.544930
0.559329 0.559329 0.559329
0.573708 0.573708 0.573708
0.588069 0.588069 0.588069
0.602413 0.602413 0.602413
0.616739 0.616739 0.616739
0.631048 0.631048 0.631048
0.645334 0.645334 0.645334
0.659195 0.659195 0.659195
0.673033 0.673033 0.673033
0.686848 0.686848 0.686848
0.700641 0.700641 0.700641
0.714385 0.714385 0.714385
0.728073 0.728073 0.728073
0.741738 0.741738 0.741738
0.755382 0.755382 0.755382
0.769004 0.769004 0.769004
0.782154 0.782154 0.782154
0.794003 0.794003 0.794003
0.805810 0.805810 0.805810
0.817575 0.817575 0.817575
0.829299 0.829299 0.829299
0.840982 0.840982 0.840982
0.852627 0.852627 0.852627
0.864233 0.864233 0.864233
0.875801 0.875801 0.875801
0.885813 0.885813 0.885813
0.893125 0.893125 0.893125
0.900382 0.900382 0.900382
0.097688 0.097688 0.097688
0.097688 0.097688 0.097688
0.097688 0.097688 0.097688
0.097688 0.097688 0.097688
0.097725 0.097725 0.097725
0.098939 0.098939 0.098939
0.100588 0.100588 0.100588
0.103354 0.103354 0.103354
0.108793 0.108793 0.108793
0.118278 0.118278 0.118278
0.130624 0.130624 0.130624
0.147206 0.147206 0.147206
0.165197 0.165197 0.165197
0.183759 0.183759 0.183759
0.203153 0.203153 0.203153
0.222445 0.222445 0.222445
0.240154 0.240154 0.240154
0.258071 0.258071 0.258071
0.275082 0.275082 0.275082
0.290325 0.290325 0.290325
0.305567 0.305567 0.305567
0.321455 0.321455 0.321455
0.337672 0.337672 0.337672
0.353214 0.353214 0.353214
0.368765 0.368765 0.368765
0.384324 0.384324 0.384324
0.399890 0.399890 0.399890
0.414982 0.414982 0.414982
0.429263 0.429263 0.429263
0.443741 0.443741 0.443741
0.458478 0.458478 0.458478
0.473197 0.473197 0.473197
0.487898 0.487898 0.487898
0.502583 0.502583 0.502583
0.517147 0.517147 0.517147
0.531614 0.531614 0.531614
0.546062 0.546062 0.546062
0.560490 0.560490 0.560490
