trix_classic/TriX_Orange21_Soft.cube
TITLE "Tri-X Orange21 Soft"
# Adobe RGB in/out. REPLACES AgX. Tri-X Orange21 Soft.
LUT_3D_SIZE 9
DOMAIN_MIN 0.0 0.0 0.0
DOMAIN_MAX 1.0 1.0 1.0
0.093873 0.093873 0.093873
0.093992 0.093992 0.093992
0.122978 0.122978 0.122978
0.248441 0.248441 0.248441
0.385067 0.385067 0.385067
0.521510 0.521510 0.521510
0.645265 0.645265 0.645265
0.770495 0.770495 0.770495
0.828406 0.828406 0.828406
0.093873 0.093873 0.093873
0.096919 0.096919 0.096919
0.180273 0.180273 0.180273
0.286467 0.286467 0.286467
0.397569 0.397569 0.397569
0.523378 0.523378 0.523378
0.646246 0.646246 0.646246
0.770505 0.770505 0.770505
0.828410 0.828410 0.828410
0.094217 0.094217 0.094217
0.110615 0.110615 0.110615
0.218679 0.218679 0.218679
0.337816 0.337816 0.337816
0.439474 0.439474 0.439474
0.538471 0.538471 0.538471
0.651455 0.651455 0.651455
0.774440 0.774440 0.774440
0.828410 0.828410 0.828410
0.112225 0.112225 0.112225
0.149170 0.149170 0.149170
0.262793 0.262793 0.262793
0.367547 0.367547 0.367547
0.473874 0.473874 0.473874
0.570453 0.570453 0.570453
0.666539 0.666539 0.666539
0.769458 0.769458 0.769458
0.828424 0.828424 0.828424
0.171880 0.171880 0.171880
0.205162 0.205162 0.205162
0.300928 0.300928 0.300928
0.405070 0.405070 0.405070
0.501718 0.501718 0.501718
0.601705 0.601705 0.601705
0.693791 0.693791 0.693791
0.783446 0.783446 0.783446
0.869979 0.869979 0.869979
0.245783 0.245783 0.245783
0.269302 0.269302 0.269302
0.346908 0.346908 0.346908
0.440164 0.440164 0.440164
0.533633 0.533633 0.533633
0.628897 0.628897 0.628897
0.722965 0.722965 0.722965
0.801025 0.801025 0.801025
0.880862 0.880862 0.880862
0.317604 0.317604 0.317604
0.333723 0.333723 0.333723
0.397007 0.397007 0.397007
0.479674 0.479674 0.479674
0.567718 0.567718 0.567718
0.657995 0.657995 0.657995
0.748111 0.748111 0.748111
0.823574 0.823574 0.823574
0.888588 0.888588 0.888588
0.407163 0.407163 0.407163
0.413999 0.413999 0.413999
0.460646 0.460646 0.460646
0.529010 0.529010 0.529010
0.607578 0.607578 0.607578
0.689821 0.689821 0.689821
0.772958 0.772958 0.772958
0.848158 0.848158 0.848158
0.897532 0.897532 0.897532
0.421808 0.421808 0.421808
0.421816 0.421816 0.421816
0.555588 0.555588 0.555588
0.555591 0.555591 0.555591
0.656651 0.656651 0.656651
0.726519 0.726519 0.726519
0.796339 0.796339 0.796339
0.870417 0.870417 0.870417
0.909787 0.909787 0.909787
0.093873 0.093873 0.093873
0.093940 0.093940 0.093940
0.102766 0.102766 0.102766
0.224381 0.224381 0.224381
0.378620 0.378620 0.378620
0.520697 0.520697 0.520697
0.644867 0.644867 0.644867
0.770505 0.770505 0.770505
0.828410 0.828410 0.828410
0.093901 0.093901 0.093901
0.099556 0.099556 0.099556
0.147535 0.147535 0.147535
0.258605 0.258605 0.258605
0.388685 0.388685 0.388685
0.522342 0.522342 0.522342
0.645885 0.645885 0.645885
0.770521 0.770521 0.770521
0.828410 0.828410 0.828410
0.096238 0.096238 0.096238
0.114580 0.114580 0.114580
0.215188 0.215188 0.215188
0.327143 0.327143 0.327143
0.427155 0.427155 0.427155
0.535399 0.535399 0.535399
0.651243 0.651243 0.651243
0.775602 0.775602 0.775602
0.828410 0.828410 0.828410
0.126094 0.126094 0.126094
0.160345 0.160345 0.160345
0.262343 0.262343 0.262343
0.364714 0.364714 0.364714
0.468812 0.468812 0.468812
0.564992 0.564992 0.564992
0.665529 0.665529 0.665529
0.769203 0.769203 0.769203
0.828414 0.828414 0.828414
0.185570 0.185570 0.185570
0.216917 0.216917 0.216917
0.303142 0.303142 0.303142
0.403458 0.403458 0.403458
0.499618 0.499618 0.499618
0.598402 0.598402 0.598402
0.691324 0.691324 0.691324
0.783243 0.783243 0.783243
0.869877 0.869877 0.869877
0.254172 0.254172 0.254172
0.275651 0.275651 0.275651
0.349394 0.349394 0.349394
0.439882 0.439882 0.439882
0.532458 0.532458 0.532458
0.627521 0.627521 0.627521
0.721090 0.721090 0.721090
0.800514 0.800514 0.800514
0.880827 0.880827 0.880827
0.322315 0.322315 0.322315
0.337984 0.337984 0.337984
0.399369 0.399369 0.399369
0.480153 0.480153 0.480153
0.567361 0.567361 0.567361
0.657542 0.657542 0.657542
0.747442 0.747442 0.747442
0.822745 0.822745 0.822745
0.888690 0.888690 0.888690
0.407378 0.407378 0.407378
0.414851 0.414851 0.414851
0.461903 0.461903 0.461903
0.529557 0.529557 0.529557
0.607662 0.607662 0.607662
0.689842 0.689842 0.689842
0.773130 0.773130 0.773130
0.847817 0.847817 0.847817
0.897666 0.897666 0.897666
0.421813 0.421813 0.421813
0.421828 0.421828 0.421828
0.555588 0.555588 0.555588
0.555592 0.555592 0.555592
0.656954 0.656954 0.656954
0.726816 0.726816 0.726816
0.796768 0.796768 0.796768
0.870818 0.870818 0.870818
0.909869 0.909869 0.909869
0.093873 0.093873 0.093873
0.094197 0.094197 0.094197
0.112219 0.112219 0.112219
0.224918 0.224918 0.224918
0.374235 0.374235 0.374235
0.518773 0.518773 0.518773
0.643686 0.643686 0.643686
0.772649 0.772649 0.772649
0.828410 0.828410 0.828410
0.093949 0.093949 0.093949
0.096954 0.096954 0.096954
0.145124 0.145124 0.145124
0.250539 0.250539 0.250539
0.382396 0.382396 0.382396
0.520201 0.520201 0.520201
0.644795 0.644795 0.644795
0.773486 0.773486 0.773486
0.828410 0.828410 0.828410
0.098248 0.098248 0.098248
0.118924 0.118924 0.118924
0.233250 0.233250 0.233250
0.311998 0.311998 0.311998
0.414243 0.414243 0.414243
0.530291 0.530291 0.530291
0.650343 0.650343 0.650343
0.781865 0.781865 0.781865
0.828410 0.828410 0.828410
0.144413 0.144413 0.144413
0.174420 0.174420 0.174420
0.264840 0.264840 0.264840
0.361064 0.361064 0.361064
0.458962 0.458962 0.458962
0.554580 0.554580 0.554580
0.662578 0.662578 0.662578
0.768209 0.768209 0.768209
0.828411 0.828411 0.828411
0.213933 0.213933 0.213933
0.238002 0.238002 0.238002
0.310529 0.310529 0.310529
0.403684 0.403684 0.403684
0.496454 0.496454 0.496454
0.590711 0.590711 0.590711
0.684469 0.684469 0.684469
0.782122 0.782122 0.782122
0.869488 0.869488 0.869488
0.280516 0.280516 0.280516
0.297153 0.297153 0.297153
0.360171 0.360171 0.360171
0.442849 0.442849 0.442849
0.532241 0.532241 0.532241
0.624900 0.624900 0.624900
0.715454 0.715454 0.715454
0.798097 0.798097 0.798097
0.880689 0.880689 0.880689
0.343328 0.343328 0.343328
0.357079 0.357079 0.357079
0.411012 0.411012 0.411012
0.484637 0.484637 0.484637
0.568551 0.568551 0.568551
0.657635 0.657635 0.657635
0.745578 0.745578 0.745578
0.819170 0.819170 0.819170
0.888978 0.888978 0.888978
0.415879 0.415879 0.415879
0.425397 0.425397 0.425397
0.470538 0.470538 0.470538
0.534018 0.534018 0.534018
0.609706 0.609706 0.609706
0.691144 0.691144 0.691144
0.774244 0.774244 0.774244
0.846056 0.846056 0.846056
0.898003 0.898003 0.898003
0.421830 0.421830 0.421830
0.555584 0.555584 0.555584
0.555588 0.555588 0.555588
0.555626 0.555626 0.555626
0.659178 0.659178 0.659178
0.728381 0.728381 0.728381
0.798654 0.798654 0.798654
0.872206 0.872206 0.872206
0.910011 0.910011 0.910011
0.093873 0.093873 0.093873
0.094253 0.094253 0.094253
0.137423 0.137423 0.137423
0.236373 0.236373 0.236373
0.374956 0.374956 0.374956
0.516790 0.516790 0.516790
0.642438 0.642438 0.642438
0.757647 0.757647 0.757647
0.828410 0.828410 0.828410
0.093992 0.093992 0.093992
0.097202 0.097202 0.097202
0.163734 0.163734 0.163734
0.257538 0.257538 0.257538
0.382867 0.382867 0.382867
0.518692 0.518692 0.518692
0.643658 0.643658 0.643658
0.757642 0.757642 0.757642
0.828410 0.828410 0.828410
0.102159 0.102159 0.102159
0.125403 0.125403 0.125403
0.219867 0.219867 0.219867
0.308588 0.308588 0.308588
0.411663 0.411663 0.411663
0.528951 0.528951 0.528951
0.649448 0.649448 0.649448
0.757944 0.757944 0.757944
0.828410 0.828410 0.828410
0.155576 0.155576 0.155576
0.182961 0.182961 0.182961
0.267052 0.267052 0.267052
0.372918 0.372918 0.372918
0.452584 0.452584 0.452584
0.550913 0.550913 0.550913
0.661757 0.661757 0.661757
0.767426 0.767426 0.767426
0.828415 0.828415 0.828415
0.229284 0.229284 0.229284
0.250971 0.250971 0.250971
0.316265 0.316265 0.316265
0.404448 0.404448 0.404448
0.493455 0.493455 0.493455
0.584806 0.584806 0.584806
0.681665 0.681665 0.681665
0.781564 0.781564 0.781564
0.868869 0.868869 0.868869
0.295333 0.295333 0.295333
0.310918 0.310918 0.310918
0.368042 0.368042 0.368042
0.445699 0.445699 0.445699
0.532199 0.532199 0.532199
0.621927 0.621927 0.621927
0.710505 0.710505 0.710505
0.797109 0.797109 0.797109
0.880302 0.880302 0.880302
0.359052 0.359052 0.359052
0.371802 0.371802 0.371802
0.420255 0.420255 0.420255
0.489419 0.489419 0.489419
0.570528 0.570528 0.570528
0.657905 0.657905 0.657905
0.743121 0.743121 0.743121
0.817097 0.817097 0.817097
0.889120 0.889120 0.889120
0.427369 0.427369 0.427369
0.436869 0.436869 0.436869
0.478769 0.478769 0.478769
0.538839 0.538839 0.538839
0.612539 0.612539 0.612539
0.693201 0.693201 0.693201
0.775108 0.775108 0.775108
0.844087 0.844087 0.844087
0.898396 0.898396 0.898396
0.482668 0.482668 0.482668
0.555571 0.555571 0.555571
0.555588 0.555588 0.555588
0.602091 0.602091 0.602091
0.663376 0.663376 0.663376
0.731014 0.731014 0.731014
0.801563 0.801563 0.801563
0.873472 0.873472 0.873472
0.910347 0.910347 0.910347
0.093907 0.093907 0.093907
0.094193 0.094193 0.094193
0.160406 0.160406 0.160406
0.256847 0.256847 0.256847
0.377390 0.377390 0.377390
0.515224 0.515224 0.515224
0.641097 0.641097 0.641097
0.750683 0.750683 0.750683
0.828410 0.828410 0.828410
0.094054 0.094054 0.094054
0.096404 0.096404 0.096404
0.177733 0.177733 0.177733
0.273080 0.273080 0.273080
0.385158 0.385158 0.385158
0.517484 0.517484 0.517484
0.642478 0.642478 0.642478
0.751718 0.751718 0.751718
0.828410 0.828410 0.828410
0.106113 0.106113 0.106113
0.127559 0.127559 0.127559
0.224053 0.224053 0.224053
0.315804 0.315804 0.315804
0.412013 0.412013 0.412013
0.528345 0.528345 0.528345
0.648688 0.648688 0.648688
0.756750 0.756750 0.756750
0.828411 0.828411 0.828411
0.167005 0.167005 0.167005
0.191837 0.191837 0.191837
0.273025 0.273025 0.273025
0.363307 0.363307 0.363307
0.449961 0.449961 0.449961
0.549650 0.549650 0.549650
0.661089 0.661089 0.661089
0.766887 0.766887 0.766887
0.853541 0.853541 0.853541
0.238870 0.238870 0.238870
0.259375 0.259375 0.259375
0.320007 0.320007 0.320007
0.404930 0.404930 0.404930
0.499564 0.499564 0.499564
0.581573 0.581573 0.581573
0.680565 0.680565 0.680565
0.781043 0.781043 0.781043
0.868117 0.868117 0.868117
0.305793 0.305793 0.305793
0.320666 0.320666 0.320666
0.373982 0.373982 0.373982
0.448079 0.448079 0.448079
0.532258 0.532258 0.532258
0.619327 0.619327 0.619327
0.707867 0.707867 0.707867
0.796763 0.796763 0.796763
0.879724 0.879724 0.879724
0.370029 0.370029 0.370029
0.382166 0.382166 0.382166
0.427154 0.427154 0.427154
0.493409 0.493409 0.493409
0.572448 0.572448 0.572448
0.657973 0.657973 0.657973
0.740951 0.740951 0.740951
0.816200 0.816200 0.816200
0.889099 0.889099 0.889099
0.436780 0.436780 0.436780
0.445944 0.445944 0.445944
0.485419 0.485419 0.485419
0.543194 0.543194 0.543194
0.615314 0.615314 0.615314
0.695112 0.695112 0.695112
0.775564 0.775564 0.775564
0.842607 0.842607 0.842607
0.898791 0.898791 0.898791
0.501709 0.501709 0.501709
0.512673 0.512673 0.512673
0.537461 0.537461 0.537461
0.603107 0.603107 0.603107
0.666414 0.666414 0.666414
0.733709 0.733709 0.733709
0.804014 0.804014 0.804014
0.874292 0.874292 0.874292
0.910906 0.910906 0.910906
0.094002 0.094002 0.094002
0.094229 0.094229 0.094229
0.176430 0.176430 0.176430
0.272707 0.272707 0.272707
0.384616 0.384616 0.384616
0.514703 0.514703 0.514703
0.640214 0.640214 0.640214
0.749340 0.749340 0.749340
0.828410 0.828410 0.828410
0.094141 0.094141 0.094141
0.095995 0.095995 0.095995
0.188070 0.188070 0.188070
0.283426 0.283426 0.283426
0.391342 0.391342 0.391342
0.517271 0.517271 0.517271
0.641803 0.641803 0.641803
0.750633 0.750633 0.750633
0.828410 0.828410 0.828410
0.110827 0.110827 0.110827
0.128289 0.128289 0.128289
0.229462 0.229462 0.229462
0.322067 0.322067 0.322067
0.416926 0.416926 0.416926
0.528433 0.528433 0.528433
0.648472 0.648472 0.648472
0.756436 0.756436 0.756436
0.828411 0.828411 0.828411
0.174406 0.174406 0.174406
0.195639 0.195639 0.195639
0.277186 0.277186 0.277186
0.365918 0.365918 0.365918
0.452527 0.452527 0.452527
0.549256 0.549256 0.549256
0.660893 0.660893 0.660893
0.766728 0.766728 0.766728
0.855916 0.855916 0.855916
0.248221 0.248221 0.248221
0.266394 0.266394 0.266394
0.326289 0.326289 0.326289
0.408692 0.408692 0.408692
0.493047 0.493047 0.493047
0.579824 0.579824 0.579824
0.680025 0.680025 0.680025
0.780907 0.780907 0.780907
0.867590 0.867590 0.867590
0.312445 0.312445 0.312445
0.326862 0.326862 0.326862
0.377884 0.377884 0.377884
0.449715 0.449715 0.449715
0.532053 0.532053 0.532053
0.620952 0.620952 0.620952
0.706432 0.706432 0.706432
0.796652 0.796652 0.796652
0.879399 0.879399 0.879399
0.377153 0.377153 0.377153
0.388852 0.388852 0.388852
0.431745 0.431745 0.431745
0.496138 0.496138 0.496138
0.573666 0.573666 0.573666
0.657653 0.657653 0.657653
0.739228 0.739228 0.739228
0.815938 0.815938 0.815938
0.889087 0.889087 0.889087
0.443015 0.443015 0.443015
0.451950 0.451950 0.451950
0.490187 0.490187 0.490187
0.546571 0.546571 0.546571
0.617553 0.617553 0.617553
0.696556 0.696556 0.696556
0.775651 0.775651 0.775651
0.841728 0.841728 0.841728
0.899017 0.899017 0.899017
0.508928 0.508928 0.508928
0.518324 0.518324 0.518324
0.539082 0.539082 0.539082
0.606797 0.606797 0.606797
0.669156 0.669156 0.669156
0.735961 0.735961 0.735961
0.805946 0.805946 0.805946
0.875197 0.875197 0.875197
0.911208 0.911208 0.911208
0.094151 0.094151 0.094151
0.095091 0.095091 0.095091
0.176112 0.176112 0.176112
0.282408 0.282408 0.282408
0.391260 0.391260 0.391260
0.517231 0.517231 0.517231
0.641287 0.641287 0.641287
0.749859 0.749859 0.749859
0.828403 0.828403 0.828403
0.094332 0.094332 0.094332
0.096863 0.096863 0.096863
0.186153 0.186153 0.186153
0.290985 0.290985 0.290985
0.397085 0.397085 0.397085
0.519716 0.519716 0.519716
0.642868 0.642868 0.642868
0.751235 0.751235 0.751235
0.828400 0.828400 0.828400
0.114195 0.114195 0.114195
0.128502 0.128502 0.128502
0.226142 0.226142 0.226142
0.324679 0.324679 0.324679
0.419980 0.419980 0.419980
0.530558 0.530558 0.530558
0.649311 0.649311 0.649311
0.757150 0.757150 0.757150
0.828342 0.828342 0.828342
0.180165 0.180165 0.180165
0.198506 0.198506 0.198506
0.276740 0.276740 0.276740
0.367276 0.367276 0.367276
0.454146 0.454146 0.454146
0.551150 0.551150 0.551150
0.661554 0.661554 0.661554
0.767335 0.767335 0.767335
0.856578 0.856578 0.856578
0.254414 0.254414 0.254414
0.270544 0.270544 0.270544
0.327888 0.327888 0.327888
0.410712 0.410712 0.410712
0.494107 0.494107 0.494107
0.580646 0.580646 0.580646
0.680042 0.680042 0.680042
0.781235 0.781235 0.781235
0.867721 0.867721 0.867721
0.318418 0.318418 0.318418
0.331592 0.331592 0.331592
0.380673 0.380673 0.380673
0.452582 0.452582 0.452582
0.534051 0.534051 0.534051
0.617499 0.617499 0.617499
0.705521 0.705521 0.705521
0.796696 0.796696 0.796696
0.879528 0.879528 0.879528
0.380556 0.380556 0.380556
0.392083 0.392083 0.392083
0.434014 0.434014 0.434014
0.497513 0.497513 0.497513
0.574250 0.574250 0.574250
0.656986 0.656986 0.656986
0.737280 0.737280 0.737280
0.815820 0.815820 0.815820
0.889326 0.889326 0.889326
0.445737 0.445737 0.445737
0.454523 0.454523 0.454523
0.492455 0.492455 0.492455
0.548303 0.548303 0.548303
0.618830 0.618830 0.618830
0.697282 0.697282 0.697282
0.775399 0.775399 0.775399
0.841024 0.841024 0.841024
0.899305 0.899305 0.899305
0.507962 0.507962 0.507962
0.526154 0.526154 0.526154
0.548967 0.548967 0.548967
0.609272 0.609272 0.609272
0.671094 0.671094 0.671094
0.737325 0.737325 0.737325
0.806972 0.806972 0.806972
0.876138 0.876138 0.876138
0.911539 0.911539 0.911539
0.095468 0.095468 0.095468
0.097338 0.097338 0.097338
0.182964 0.182964 0.182964
0.285462 0.285462 0.285462
0.395912 0.395912 0.395912
0.522743 0.522743 0.522743
0.644936 0.644936 0.644936
0.754011 0.754011 0.754011
0.830987 0.830987 0.830987
0.096824 0.096824 0.096824
0.099823 0.099823 0.099823
0.192693 0.192693 0.192693
0.292746 0.292746 0.292746
0.400790 0.400790 0.400790
0.524900 0.524900 0.524900
0.646434 0.646434 0.646434
0.755289 0.755289 0.755289
0.831827 0.831827 0.831827
0.124703 0.124703 0.124703
0.138011 0.138011 0.138011
0.235865 0.235865 0.235865
0.325542 0.325542 0.325542
0.421915 0.421915 0.421915
0.535029 0.535029 0.535029
0.652953 0.652953 0.652953
0.760721 0.760721 0.760721
0.841054 0.841054 0.841054
0.187783 0.187783 0.187783
0.203910 0.203910 0.203910
0.283562 0.283562 0.283562
0.366791 0.366791 0.366791
0.452947 0.452947 0.452947
0.553283 0.553283 0.553283
0.664653 0.664653 0.664653
0.770500 0.770500 0.770500
0.858992 0.858992 0.858992
0.259317 0.259317 0.259317
0.273223 0.273223 0.273223
0.333314 0.333314 0.333314
0.411679 0.411679 0.411679
0.492405 0.492405 0.492405
0.580568 0.580568 0.580568
0.682208 0.682208 0.682208
0.783510 0.783510 0.783510
0.869794 0.869794 0.869794
0.321228 0.321228 0.321228
0.333370 0.333370 0.333370
0.384551 0.384551 0.384551
0.453877 0.453877 0.453877
0.533700 0.533700 0.533700
0.615939 0.615939 0.615939
0.705718 0.705718 0.705718
0.798390 0.798390 0.798390
0.881495 0.881495 0.881495
0.381483 0.381483 0.381483
0.392250 0.392250 0.392250
0.435827 0.435827 0.435827
0.498084 0.498084 0.498084
0.574403 0.574403 0.574403
0.656028 0.656028 0.656028
0.735510 0.735510 0.735510
0.816462 0.816462 0.816462
0.890350 0.890350 0.890350
0.444642 0.444642 0.444642
0.453245 0.453245 0.453245
0.491966 0.491966 0.491966
0.548090 0.548090 0.548090
0.618694 0.618694 0.618694
0.697123 0.697123 0.697123
0.774421 0.774421 0.774421
0.837347 0.837347 0.837347
0.899949 0.899949 0.899949
0.497883 0.497883 0.497883
0.548014 0.548014 0.548014
0.555132 0.555132 0.555132
0.610800 0.610800 0.610800
0.672099 0.672099 0.672099
0.737603 0.737603 0.737603
0.806816 0.806816 0.806816
0.876911 0.876911 0.876911
0.911913 0.911913 0.911913
0.103827 0.103827 0.103827
0.107729 0.107729 0.107729
0.141747 0.141747 0.141747
0.255689 0.255689 0.255689
0.404513 0.404513 0.404513
0.541008 0.541008 0.541008
0.655509 0.655509 0.655509
0.758704 0.758704 0.758704
0.828411 0.828411 0.828411
0.108204 0.108204 0.108204
0.113875 0.113875 0.113875
0.150571 0.150571 0.150571
0.262598 0.262598 0.262598
0.407100 0.407100 0.407100
0.542234 0.542234 0.542234
0.656667 0.656667 0.656667
0.759304 0.759304 0.759304
0.828411 0.828411 0.828411
0.141776 0.141776 0.141776
0.150098 0.150098 0.150098
0.193787 0.193787 0.193787
0.291553 0.291553 0.291553
0.419653 0.419653 0.419653
0.548532 0.548532 0.548532
0.662085 0.662085 0.662085
0.763245 0.763245 0.763245
0.828418 0.828418 0.828418
0.212080 0.212080 0.212080
0.221658 0.221658 0.221658
0.265133 0.265133 0.265133
0.341006 0.341006 0.341006
0.444557 0.444557 0.444557
0.561766 0.561766 0.561766
0.672972 0.672972 0.672972
0.773515 0.773515 0.773515
0.865497 0.865497 0.865497
0.276173 0.276173 0.276173
0.284849 0.284849 0.284849
0.324859 0.324859 0.324859
0.392994 0.392994 0.392994
0.476982 0.476982 0.476982
0.580876 0.580876 0.580876
0.687862 0.687862 0.687862
0.786448 0.786448 0.786448
0.881249 0.881249 0.881249
0.329644 0.329644 0.329644
0.339183 0.339183 0.339183
0.380198 0.380198 0.380198
0.444133 0.444133 0.444133
0.515898 0.515898 0.515898
0.605777 0.605777 0.605777
0.706355 0.706355 0.706355
0.800304 0.800304 0.800304
0.889885 0.889885 0.889885
0.382007 0.382007 0.382007
0.391426 0.391426 0.391426
0.430684 0.430684 0.430684
0.494014 0.494014 0.494014
0.562600 0.562600 0.562600
0.638730 0.638730 0.638730
0.727995 0.727995 0.727995
0.815888 0.815888 0.815888
0.897718 0.897718 0.897718
0.437669 0.437669 0.437669
0.445211 0.445211 0.445211
0.480201 0.480201 0.480201
0.541916 0.541916 0.541916
0.613649 0.613649 0.613649
0.686184 0.686184 0.686184
0.758187 0.758187 0.758187
0.834164 0.834164 0.834164
0.905303 0.905303 0.905303
0.480076 0.480076 0.480076
0.555588 0.555588 0.555588
0.555589 0.555589 0.555589
0.570028 0.570028 0.570028
0.671277 0.671277 0.671277
0.736211 0.736211 0.736211
0.805364 0.805364 0.805364
0.874203 0.874203 0.874203
0.912373 0.912373 0.912373
