trix_classic/TriX_Green58_Soft.cube
TITLE "Tri-X Green58 Soft"
# Adobe RGB in/out. REPLACES AgX. R=0.1714 G=0.8069 B=0.0217
LUT_3D_SIZE 33
DOMAIN_MIN 0.0 0.0 0.0
DOMAIN_MAX 1.0 1.0 1.0
0.093873 0.093873 0.093873
0.093873 0.093873 0.093873
0.093873 0.093873 0.093873
0.093873 0.093873 0.093873
0.093873 0.093873 0.093873
0.093873 0.093873 0.093873
0.093873 0.093873 0.093873
0.093873 0.093873 0.093873
0.093873 0.093873 0.093873
0.093873 0.093873 0.093873
0.093873 0.093873 0.093873
0.093873 0.093873 0.093873
0.093873 0.093873 0.093873
0.093873 0.093873 0.093873
0.093873 0.093873 0.093873
0.093873 0.093873 0.093873
0.093873 0.093873 0.093873
0.093873 0.093873 0.093873
0.093873 0.093873 0.093873
0.093873 0.093873 0.093873
0.093873 0.093873 0.093873
0.093873 0.093873 0.093873
0.093873 0.093873 0.093873
0.093873 0.093873 0.093873
0.093873 0.093873 0.093873
0.093873 0.093873 0.093873
0.093873 0.093873 0.093873
0.093873 0.093873 0.093873
0.093873 0.093873 0.093873
0.093873 0.093873 0.093873
0.093873 0.093873 0.093873
0.093873 0.093873 0.093873
0.093873 0.093873 0.093873
0.093873 0.093873 0.093873
0.093873 0.093873 0.093873
0.093873 0.093873 0.093873
0.093873 0.093873 0.093873
0.093873 0.093873 0.093873
0.093873 0.093873 0.093873
0.093873 0.093873 0.093873
0.093873 0.093873 0.093873
0.093873 0.093873 0.093873
0.093873 0.093873 0.093873
0.093873 0.093873 0.093873
0.093873 0.093873 0.093873
0.093873 0.093873 0.093873
0.093873 0.093873 0.093873
0.093873 0.093873 0.093873
0.093873 0.093873 0.093873
0.093873 0.093873 0.093873
0.093873 0.093873 0.093873
0.093873 0.093873 0.093873
0.093873 0.093873 0.093873
0.093873 0.093873 0.093873
0.093873 0.093873 0.093873
0.093873 0.093873 0.093873
0.093873 0.093873 0.093873
0.093873 0.093873 0.093873
0.093873 0.093873 0.093873
0.093873 0.093873 0.093873
0.093873 0.093873 0.093873
0.093873 0.093873 0.093873
0.093873 0.093873 0.093873
0.093873 0.093873 0.093873
0.093873 0.093873 0.093873
0.093873 0.093873 0.093873
0.093873 0.093873 0.093873
0.093873 0.093873 0.093873
0.093873 0.093873 0.093873
0.093873 0.093873 0.093873
0.093873 0.093873 0.093873
0.093873 0.093873 0.093873
0.093873 0.093873 0.093873
0.093873 0.093873 0.093873
0.093873 0.093873 0.093873
0.093873 0.093873 0.093873
0.093873 0.093873 0.093873
0.093873 0.093873 0.093873
0.093873 0.093873 0.093873
0.093873 0.093873 0.093873
0.093873 0.093873 0.093873
0.093873 0.093873 0.093873
0.093873 0.093873 0.093873
0.093873 0.093873 0.093873
0.093873 0.093873 0.093873
0.093873 0.093873 0.093873
0.093873 0.093873 0.093873
0.093873 0.093873 0.093873
0.093873 0.093873 0.093873
0.093873 0.093873 0.093873
0.093873 0.093873 0.093873
0.093873 0.093873 0.093873
0.093873 0.093873 0.093873
0.093873 0.093873 0.093873
0.093873 0.093873 0.093873
0.093873 0.093873 0.093873
0.093873 0.093873 0.093873
0.093873 0.093873 0.093873
0.093873 0.093873 0.093873
0.093873 0.093873 0.093873
0.093873 0.093873 0.093873
0.093873 0.093873 0.093873
0.093873 0.093873 0.093873
0.093873 0.093873 0.093873
0.093873 0.093873 0.093873
0.093873 0.093873 0.093873
0.093873 0.093873 0.093873
0.093873 0.093873 0.093873
0.093873 0.093873 0.093873
0.093873 0.093873 0.093873
0.093873 0.093873 0.093873
0.093873 0.093873 0.093873
0.093873 0.093873 0.093873
0.093873 0.093873 0.093873
0.093873 0.093873 0.093873
0.093873 0.093873 0.093873
0.093873 0.093873 0.093873
0.093873 0.093873 0.093873
0.093873 0.093873 0.093873
0.093873 0.093873 0.093873
0.093873 0.093873 0.093873
0.093873 0.093873 0.093873
0.093873 0.093873 0.093873
0.093873 0.093873 0.093873
0.093873 0.093873 0.093873
0.093873 0.093873 0.093873
0.093873 0.093873 0.093873
0.093873 0.093873 0.093873
0.093873 0.093873 0.093873
0.093873 0.093873 0.093873
0.093873 0.093873 0.093873
0.093873 0.093873 0.093873
0.093873 0.093873 0.093873
0.093873 0.093873 0.093873
0.093873 0.093873 0.093873
0.093873 0.093873 0.093873
0.093873 0.093873 0.093873
0.093873 0.093873 0.093873
0.093873 0.093873 0.093873
0.093873 0.093873 0.093873
0.093873 0.093873 0.093873
0.093873 0.093873 0.093873
0.093873 0.093873 0.093873
0.093873 0.093873 0.093873
0.093873 0.093873 0.093873
0.093873 0.093873 0.093873
0.093873 0.093873 0.093873
0.093873 0.093873 0.093873
0.093873 0.093873 0.093873
0.093873 0.093873 0.093873
0.093873 0.093873 0.093873
0.093873 0.093873 0.093873
0.093873 0.093873 0.093873
0.093873 0.093873 0.093873
0.093873 0.093873 0.093873
0.093873 0.093873 0.093873
0.093873 0.093873 0.093873
0.093873 0.093873 0.093873
0.093873 0.093873 0.093873
0.093873 0.093873 0.093873
0.093873 0.093873 0.093873
0.093873 0.093873 0.093873
0.093873 0.093873 0.093873
0.093873 0.093873 0.093873
0.093873 0.093873 0.093873
0.093873 0.093873 0.093873
0.093873 0.093873 0.093873
0.093873 0.093873 0.093873
0.093873 0.093873 0.093873
0.093873 0.093873 0.093873
0.093873 0.093873 0.093873
0.093873 0.093873 0.093873
0.093873 0.093873 0.093873
0.093873 0.093873 0.093873
0.093873 0.093873 0.093873
0.093873 0.093873 0.093873
0.093873 0.093873 0.093873
0.093873 0.093873 0.093873
0.093873 0.093873 0.093873
0.093873 0.093873 0.093873
0.093873 0.093873 0.093873
0.093873 0.093873 0.093873
0.093873 0.093873 0.093873
0.093873 0.093873 0.093873
0.093873 0.093873 0.093873
0.093873 0.093873 0.093873
0.093873 0.093873 0.093873
0.093873 0.093873 0.093873
0.093873 0.093873 0.093873
0.093873 0.093873 0.093873
0.093873 0.093873 0.093873
0.093873 0.093873 0.093873
0.093873 0.093873 0.093873
0.093873 0.093873 0.093873
0.093873 0.093873 0.093873
0.093873 0.093873 0.093873
0.093873 0.093873 0.093873
0.093873 0.093873 0.093873
0.093873 0.093873 0.093873
0.093873 0.093873 0.093873
0.093873 0.093873 0.093873
0.093873 0.093873 0.093873
0.093873 0.093873 0.093873
0.093873 0.093873 0.093873
0.093873 0.093873 0.093873
0.093873 0.093873 0.093873
0.093873 0.093873 0.093873
0.093873 0.093873 0.093873
0.093873 0.093873 0.093873
0.093873 0.093873 0.093873
0.093873 0.093873 0.093873
0.093873 0.093873 0.093873
0.093873 0.093873 0.093873
0.093873 0.093873 0.093873
0.093873 0.093873 0.093873
0.093873 0.093873 0.093873
0.093873 0.093873 0.093873
0.093873 0.093873 0.093873
0.093873 0.093873 0.093873
0.093873 0.093873 0.093873
0.093873 0.093873 0.093873
0.093873 0.093873 0.093873
0.093873 0.093873 0.093873
0.093873 0.093873 0.093873
0.093873 0.093873 0.093873
0.093873 0.093873 0.093873
0.093873 0.093873 0.093873
0.093873 0.093873 0.093873
0.093873 0.093873 0.093873
0.093873 0.093873 0.093873
0.093873 0.093873 0.093873
0.093873 0.093873 0.093873
0.093873 0.093873 0.093873
0.093873 0.093873 0.093873
0.093873 0.093873 0.093873
0.093873 0.093873 0.093873
0.093873 0.093873 0.093873
0.093873 0.093873 0.093873
0.093873 0.093873 0.093873
0.093873 0.093873 0.093873
0.093873 0.093873 0.093873
0.093873 0.093873 0.093873
0.093873 0.093873 0.093873
0.093873 0.093873 0.093873
0.093873 0.093873 0.093873
0.093873 0.093873 0.093873
0.093873 0.093873 0.093873
0.093873 0.093873 0.093873
0.093873 0.093873 0.093873
0.093873 0.093873 0.093873
0.093873 0.093873 0.093873
0.093873 0.093873 0.093873
0.093873 0.093873 0.093873
0.093873 0.093873 0.093873
0.093873 0.093873 0.093873
0.093873 0.093873 0.093873
0.093873 0.093873 0.093873
0.093873 0.093873 0.093873
0.093873 0.093873 0.093873
0.093873 0.093873 0.093873
0.093873 0.093873 0.093873
0.093873 0.093873 0.093873
0.093873 0.093873 0.093873
0.093873 0.093873 0.093873
0.093873 0.093873 0.093873
0.093873 0.093873 0.093873
0.093873 0.093873 0.093873
0.093873 0.093873 0.093873
0.093873 0.093873 0.093873
0.093873 0.093873 0.093873
0.093873 0.093873 0.093873
0.093873 0.093873 0.093873
0.093873 0.093873 0.093873
0.093873 0.093873 0.093873
0.093873 0.093873 0.093873
0.093873 0.093873 0.093873
0.093873 0.093873 0.093873
0.093873 0.093873 0.093873
0.093873 0.093873 0.093873
0.093873 0.093873 0.093873
0.093873 0.093873 0.093873
0.093873 0.093873 0.093873
0.093873 0.093873 0.093873
0.093873 0.093873 0.093873
0.093873 0.093873 0.093873
0.093873 0.093873 0.093873
0.093873 0.093873 0.093873
0.093873 0.093873 0.093873
0.093873 0.093873 0.093873
0.093873 0.093873 0.093873
0.093873 0.093873 0.093873
0.093873 0.093873 0.093873
0.093873 0.093873 0.093873
0.093873 0.093873 0.093873
0.093873 0.093873 0.093873
0.093873 0.093873 0.093873
0.093873 0.093873 0.093873
0.093873 0.093873 0.093873
0.093873 0.093873 0.093873
0.093873 0.093873 0.093873
0.093873 0.093873 0.093873
0.093873 0.093873 0.093873
0.093873 0.093873 0.093873
0.093873 0.093873 0.093873
0.093873 0.093873 0.093873
0.093873 0.093873 0.093873
0.093873 0.093873 0.093873
0.093873 0.093873 0.093873
0.093873 0.093873 0.093873
0.093873 0.093873 0.093873
0.093873 0.093873 0.093873
0.093873 0.093873 0.093873
0.093873 0.093873 0.093873
0.093873 0.093873 0.093873
0.093873 0.093873 0.093873
0.093873 0.093873 0.093873
0.093873 0.093873 0.093873
0.093873 0.093873 0.093873
0.093873 0.093873 0.093873
0.093873 0.093873 0.093873
0.093873 0.093873 0.093873
0.093873 0.093873 0.093873
0.093873 0.093873 0.093873
0.093873 0.093873 0.093873
0.093873 0.093873 0.093873
0.093873 0.093873 0.093873
0.093873 0.093873 0.093873
0.093873 0.093873 0.093873
0.093873 0.093873 0.093873
0.093873 0.093873 0.093873
0.093873 0.093873 0.093873
0.093873 0.093873 0.093873
0.093873 0.093873 0.093873
0.093873 0.093873 0.093873
0.093873 0.093873 0.093873
0.093873 0.093873 0.093873
0.093873 0.093873 0.093873
0.093873 0.093873 0.093873
0.093873 0.093873 0.093873
0.093873 0.093873 0.093873
0.093873 0.093873 0.093873
0.093873 0.093873 0.093873
0.093873 0.093873 0.093873
0.093873 0.093873 0.093873
0.093873 0.093873 0.093873
0.093873 0.093873 0.093873
0.093873 0.093873 0.093873
0.093873 0.093873 0.093873
0.093873 0.093873 0.093873
0.093873 0.093873 0.093873
0.093873 0.093873 0.093873
0.093873 0.093873 0.093873
0.093873 0.093873 0.093873
0.093873 0.093873 0.093873
0.093873 0.093873 0.093873
0.093873 0.093873 0.093873
0.093873 0.093873 0.093873
0.093873 0.093873 0.093873
0.093873 0.093873 0.093873
0.093873 0.093873 0.093873
0.093873 0.093873 0.093873
0.093873 0.093873 0.093873
0.093873 0.093873 0.093873
0.093873 0.093873 0.093873
0.093873 0.093873 0.093873
0.093873 0.093873 0.093873
0.093873 0.093873 0.093873
0.093873 0.093873 0.093873
0.093873 0.093873 0.093873
0.093873 0.093873 0.093873
0.093873 0.093873 0.093873
0.093873 0.093873 0.093873
0.093873 0.093873 0.093873
0.093873 0.093873 0.093873
0.093873 0.093873 0.093873
0.093873 0.093873 0.093873
0.093873 0.093873 0.093873
0.093873 0.093873 0.093873
0.093873 0.093873 0.093873
0.093873 0.093873 0.093873
0.093873 0.093873 0.093873
0.093873 0.093873 0.093873
0.093873 0.093873 0.093873
0.093873 0.093873 0.093873
0.093873 0.093873 0.093873
0.093873 0.093873 0.093873
0.093873 0.093873 0.093873
0.093873 0.093873 0.093873
0.093873 0.093873 0.093873
0.093873 0.093873 0.093873
0.093873 0.093873 0.093873
0.093873 0.093873 0.093873
0.093873 0.093873 0.093873
0.093873 0.093873 0.093873
0.093873 0.093873 0.093873
0.093873 0.093873 0.093873
0.093873 0.093873 0.093873
0.093873 0.093873 0.093873
0.093873 0.093873 0.093873
0.093873 0.093873 0.093873
0.093873 0.093873 0.093873
0.093873 0.093873 0.093873
0.093873 0.093873 0.093873
0.093873 0.093873 0.093873
0.093873 0.093873 0.093873
0.093873 0.093873 0.093873
0.093873 0.093873 0.093873
0.093873 0.093873 0.093873
0.093873 0.093873 0.093873
0.093873 0.093873 0.093873
0.093873 0.093873 0.093873
0.093873 0.093873 0.093873
0.093873 0.093873 0.093873
0.093873 0.093873 0.093873
0.093873 0.093873 0.093873
0.093873 0.093873 0.093873
0.093873 0.093873 0.093873
0.093873 0.093873 0.093873
0.093873 0.093873 0.093873
0.093873 0.093873 0.093873
0.093873 0.093873 0.093873
0.093873 0.093873 0.093873
0.093873 0.093873 0.093873
0.093873 0.093873 0.093873
0.093873 0.093873 0.093873
0.093873 0.093873 0.093873
0.093873 0.093873 0.093873
0.093873 0.093873 0.093873
0.093873 0.093873 0.093873
0.093873 0.093873 0.093873
0.093873 0.093873 0.093873
0.093873 0.093873 0.093873
0.093873 0.093873 0.093873
0.093873 0.093873 0.093873
0.093873 0.093873 0.093873
0.093873 0.093873 0.093873
0.093873 0.093873 0.093873
0.093873 0.093873 0.093873
0.093873 0.093873 0.093873
0.093873 0.093873 0.093873
0.093873 0.093873 0.093873
0.093873 0.093873 0.093873
0.093873 0.093873 0.093873
0.093873 0.093873 0.093873
0.093873 0.093873 0.093873
0.093873 0.093873 0.093873
0.093873 0.093873 0.093873
0.093873 0.093873 0.093873
0.093873 0.093873 0.093873
0.093873 0.093873 0.093873
0.093873 0.093873 0.093873
0.093873 0.093873 0.093873
0.093873 0.093873 0.093873
0.093873 0.093873 0.093873
0.093873 0.093873 0.093873
0.093873 0.093873 0.093873
0.093873 0.093873 0.093873
0.093873 0.093873 0.093873
0.093873 0.093873 0.093873
0.093873 0.093873 0.093873
0.093873 0.093873 0.093873
0.093873 0.093873 0.093873
0.093873 0.093873 0.093873
0.093873 0.093873 0.093873
0.093873 0.093873 0.093873
0.093873 0.093873 0.093873
0.093873 0.093873 0.093873
0.093873 0.093873 0.093873
0.093873 0.093873 0.093873
0.093873 0.093873 0.093873
0.093873 0.093873 0.093873
0.093873 0.093873 0.093873
0.093873 0.093873 0.093873
0.093873 0.093873 0.093873
0.093873 0.093873 0.093873
0.093873 0.093873 0.093873
0.093873 0.093873 0.093873
0.093873 0.093873 0.093873
0.093873 0.093873 0.093873
0.093873 0.093873 0.093873
0.093873 0.093873 0.093873
0.093873 0.093873 0.093873
0.093873 0.093873 0.093873
0.093873 0.093873 0.093873
0.093873 0.093873 0.093873
0.093873 0.093873 0.093873
0.093873 0.093873 0.093873
0.093873 0.093873 0.093873
0.093873 0.093873 0.093873
0.093873 0.093873 0.093873
0.093873 0.093873 0.093873
0.093873 0.093873 0.093873
0.093873 0.093873 0.093873
0.093873 0.093873 0.093873
0.093873 0.093873 0.093873
0.093873 0.093873 0.093873
0.093873 0.093873 0.093873
0.093873 0.093873 0.093873
0.093873 0.093873 0.093873
0.093873 0.093873 0.093873
0.093873 0.093873 0.093873
0.093873 0.093873 0.093873
0.093873 0.093873 0.093873
0.093873 0.093873 0.093873
0.093873 0.093873 0.093873
0.093873 0.093873 0.093873
0.093873 0.093873 0.093873
0.093873 0.093873 0.093873
0.093873 0.093873 0.093873
0.093873 0.093873 0.093873
0.093873 0.093873 0.093873
0.093873 0.093873 0.093873
0.093873 0.093873 0.093873
0.093873 0.093873 0.093873
0.093873 0.093873 0.093873
0.093873 0.093873 0.093873
0.093873 0.093873 0.093873
0.093873 0.093873 0.093873
0.093873 0.093873 0.093873
0.093873 0.093873 0.093873
0.093873 0.093873 0.093873
0.093873 0.093873 0.093873
0.093873 0.093873 0.093873
0.093873 0.093873 0.093873
0.093873 0.093873 0.093873
0.093873 0.093873 0.093873
0.093873 0.093873 0.093873
0.093873 0.093873 0.093873
0.093873 0.093873 0.093873
0.093873 0.093873 0.093873
0.093873 0.093873 0.093873
0.093873 0.093873 0.093873
0.093873 0.093873 0.093873
0.093873 0.093873 0.093873
0.093873 0.093873 0.093873
0.093873 0.093873 0.093873
0.093873 0.093873 0.093873
0.093873 0.093873 0.093873
0.093873 0.093873 0.093873
0.093873 0.093873 0.093873
0.093873 0.093873 0.093873
0.093873 0.093873 0.093873
0.093873 0.093873 0.093873
0.093873 0.093873 0.093873
0.093873 0.093873 0.093873
0.093873 0.093873 0.093873
0.093873 0.093873 0.093873
0.093873 0.093873 0.093873
0.093873 0.093873 0.093873
0.093873 0.093873 0.093873
0.093873 0.093873 0.093873
0.093873 0.093873 0.093873
0.093873 0.093873 0.093873
0.093873 0.093873 0.093873
0.093873 0.093873 0.093873
0.093873 0.093873 0.093873
0.093873 0.093873 0.093873
0.093873 0.093873 0.093873
0.093873 0.093873 0.093873
0.093873 0.093873 0.093873
0.093873 0.093873 0.093873
0.093873 0.093873 0.093873
0.093873 0.093873 0.093873
0.093873 0.093873 0.093873
0.093873 0.093873 0.093873
0.093873 0.093873 0.093873
0.093873 0.093873 0.093873
0.093873 0.093873 0.093873
0.093873 0.093873 0.093873
0.093873 0.093873 0.093873
0.093873 0.093873 0.093873
0.093873 0.093873 0.093873
0.093873 0.093873 0.093873
0.093873 0.093873 0.093873
0.093873 0.093873 0.093873
0.093873 0.093873 0.093873
0.093873 0.093873 0.093873
0.093873 0.093873 0.093873
0.093873 0.093873 0.093873
0.093873 0.093873 0.093873
0.093873 0.093873 0.093873
0.093873 0.093873 0.093873
0.093873 0.093873 0.093873
0.093873 0.093873 0.093873
0.093873 0.093873 0.093873
0.093873 0.093873 0.093873
0.093873 0.093873 0.093873
0.093873 0.093873 0.093873
0.093873 0.093873 0.093873
0.093873 0.093873 0.093873
0.093873 0.093873 0.093873
0.093873 0.093873 0.093873
0.093873 0.093873 0.093873
0.093873 0.093873 0.093873
0.093873 0.093873 0.093873
0.093873 0.093873 0.093873
0.093873 0.093873 0.093873
0.093873 0.093873 0.093873
0.093873 0.093873 0.093873
0.093873 0.093873 0.093873
0.093873 0.093873 0.093873
0.093873 0.093873 0.093873
0.093873 0.093873 0.093873
0.093873 0.093873 0.093873
0.093873 0.093873 0.093873
0.093873 0.093873 0.093873
0.093873 0.093873 0.093873
0.093873 0.093873 0.093873
0.093873 0.093873 0.093873
0.093873 0.093873 0.093873
0.093873 0.093873 0.093873
0.093873 0.093873 0.093873
0.093873 0.093873 0.093873
0.093873 0.093873 0.093873
0.093873 0.093873 0.093873
0.093873 0.093873 0.093873
0.093873 0.093873 0.093873
0.093873 0.093873 0.093873
0.093873 0.093873 0.093873
0.093873 0.093873 0.093873
0.093873 0.093873 0.093873
0.093873 0.093873 0.093873
0.093873 0.093873 0.093873
0.093873 0.093873 0.093873
0.093873 0.093873 0.093873
0.093873 0.093873 0.093873
0.093873 0.093873 0.093873
0.093873 0.093873 0.093873
0.093873 0.093873 0.093873
0.093873 0.093873 0.093873
0.093873 0.093873 0.093873
0.093873 0.093873 0.093873
0.093873 0.093873 0.093873
0.093873 0.093873 0.093873
0.093873 0.093873 0.093873
0.093873 0.093873 0.093873
0.093873 0.093873 0.093873
0.093873 0.093873 0.093873
0.093873 0.093873 0.093873
0.093873 0.093873 0.093873
0.093873 0.093873 0.093873
0.093873 0.093873 0.093873
0.093873 0.093873 0.093873
0.093873 0.093873 0.093873
0.093873 0.093873 0.093873
0.093873 0.093873 0.093873
0.093873 0.093873 0.093873
0.093873 0.093873 0.093873
0.093873 0.093873 0.093873
0.093873 0.093873 0.093873
0.093873 0.093873 0.093873
0.093873 0.093873 0.093873
0.093873 0.093873 0.093873
0.093873 0.093873 0.093873
0.093873 0.093873 0.093873
0.093873 0.093873 0.093873
0.093873 0.093873 0.093873
0.093873 0.093873 0.093873
0.093873 0.093873 0.093873
0.093873 0.093873 0.093873
0.093873 0.093873 0.093873
0.093873 0.093873 0.093873
0.093873 0.093873 0.093873
0.093873 0.093873 0.093873
0.093873 0.093873 0.093873
0.093873 0.093873 0.093873
0.093873 0.093873 0.093873
0.093873 0.093873 0.093873
0.093873 0.093873 0.093873
0.093873 0.093873 0.093873
0.093873 0.093873 0.093873
0.093873 0.093873 0.093873
0.093873 0.093873 0.093873
0.093873 0.093873 0.093873
0.093873 0.093873 0.093873
0.093873 0.093873 0.093873
0.093873 0.093873 0.093873
0.093873 0.093873 0.093873
0.093873 0.093873 0.093873
0.093873 0.093873 0.093873
0.093873 0.093873 0.093873
0.093873 0.093873 0.093873
0.093873 0.093873 0.093873
0.093873 0.093873 0.093873
0.093873 0.093873 0.093873
0.093873 0.093873 0.093873
0.093873 0.093873 0.093873
0.093873 0.093873 0.093873
0.093873 0.093873 0.093873
0.093873 0.093873 0.093873
0.093873 0.093873 0.093873
0.093873 0.093873 0.093873
0.093873 0.093873 0.093873
0.093873 0.093873 0.093873
0.093873 0.093873 0.093873
0.093873 0.093873 0.093873
0.093873 0.093873 0.093873
0.093873 0.093873 0.093873
0.093873 0.093873 0.093873
0.093873 0.093873 0.093873
0.093873 0.093873 0.093873
0.093873 0.093873 0.093873
0.093873 0.093873 0.093873
0.093873 0.093873 0.093873
0.093873 0.093873 0.093873
0.093873 0.093873 0.093873
0.093873 0.093873 0.093873
0.093873 0.093873 0.093873
0.093873 0.093873 0.093873
0.093873 0.093873 0.093873
0.093873 0.093873 0.093873
0.093873 0.093873 0.093873
0.093873 0.093873 0.093873
0.093873 0.093873 0.093873
0.093873 0.093873 0.093873
0.093873 0.093873 0.093873
0.093873 0.093873 0.093873
0.093873 0.093873 0.093873
0.093873 0.093873 0.093873
0.093873 0.093873 0.093873
0.093873 0.093873 0.093873
0.093873 0.093873 0.093873
0.093873 0.093873 0.093873
0.093873 0.093873 0.093873
0.093873 0.093873 0.093873
0.093873 0.093873 0.093873
0.093873 0.093873 0.093873
0.093873 0.093873 0.093873
0.093873 0.093873 0.093873
0.093873 0.093873 0.093873
0.093873 0.093873 0.093873
0.093873 0.093873 0.093873
0.093873 0.093873 0.093873
0.093873 0.093873 0.093873
0.093873 0.093873 0.093873
0.093873 0.093873 0.093873
0.093873 0.093873 0.093873
0.093873 0.093873 0.093873
0.093873 0.093873 0.093873
0.093873 0.093873 0.093873
0.093873 0.093873 0.093873
0.093873 0.093873 0.093873
0.093873 0.093873 0.093873
0.093873 0.093873 0.093873
0.093873 0.093873 0.093873
0.093873 0.093873 0.093873
0.093873 0.093873 0.093873
0.093873 0.093873 0.093873
0.093873 0.093873 0.093873
0.093873 0.093873 0.093873
0.093873 0.093873 0.093873
0.093873 0.093873 0.093873
0.093873 0.093873 0.093873
0.093873 0.093873 0.093873
0.093873 0.093873 0.093873
0.093873 0.093873 0.093873
0.093873 0.093873 0.093873
0.093873 0.093873 0.093873
0.093873 0.093873 0.093873
0.093873 0.093873 0.093873
0.093873 0.093873 0.093873
0.093873 0.093873 0.093873
0.093873 0.093873 0.093873
0.093873 0.093873 0.093873
0.093873 0.093873 0.093873
0.093873 0.093873 0.093873
0.093873 0.093873 0.093873
0.093873 0.093873 0.093873
0.093873 0.093873 0.093873
0.093873 0.093873 0.093873
0.093873 0.093873 0.093873
0.093873 0.093873 0.093873
0.093873 0.093873 0.093873
0.093873 0.093873 0.093873
0.093873 0.093873 0.093873
0.093873 0.093873 0.093873
0.093873 0.093873 0.093873
0.093873 0.093873 0.093873
0.093873 0.093873 0.093873
0.093873 0.093873 0.093873
0.093873 0.093873 0.093873
0.093873 0.093873 0.093873
0.093873 0.093873 0.093873
0.093873 0.093873 0.093873
0.093873 0.093873 0.093873
0.093873 0.093873 0.093873
0.093873 0.093873 0.093873
0.093873 0.093873 0.093873
0.093873 0.093873 0.093873
0.093873 0.093873 0.093873
0.093873 0.093873 0.093873
0.093873 0.093873 0.093873
0.093873 0.093873 0.093873
0.093873 0.093873 0.093873
0.093873 0.093873 0.093873
0.093873 0.093873 0.093873
0.093873 0.093873 0.093873
0.093873 0.093873 0.093873
0.093873 0.093873 0.093873
0.093873 0.093873 0.093873
0.093873 0.093873 0.093873
0.093873 0.093873 0.093873
0.093873 0.093873 0.093873
0.093873 0.093873 0.093873
0.093873 0.093873 0.093873
0.093873 0.093873 0.093873
0.093873 0.093873 0.093873
0.093873 0.093873 0.093873
0.093873 0.093873 0.093873
0.093873 0.093873 0.093873
0.093873 0.093873 0.093873
0.093873 0.093873 0.093873
0.093873 0.093873 0.093873
0.093873 0.093873 0.093873
0.093873 0.093873 0.093873
0.093873 0.093873 0.093873
0.093873 0.093873 0.093873
0.093873 0.093873 0.093873
0.093873 0.093873 0.093873
0.093873 0.093873 0.093873
0.093873 0.093873 0.093873
0.093873 0.093873 0.093873
0.093873 0.093873 0.093873
0.093873 0.093873 0.093873
0.093873 0.093873 0.093873
0.093873 0.093873 0.093873
0.093873 0.093873 0.093873
0.093873 0.093873 0.093873
0.093873 0.093873 0.093873
0.093873 0.093873 0.093873
0.093873 0.093873 0.093873
0.093873 0.093873 0.093873
0.093873 0.093873 0.093873
0.093873 0.093873 0.093873
0.093873 0.093873 0.093873
0.093873 0.093873 0.093873
0.093873 0.093873 0.093873
0.093873 0.093873 0.093873
0.093873 0.093873 0.093873
0.093873 0.093873 0.093873
0.093873 0.093873 0.093873
0.093873 0.093873 0.093873
0.093873 0.093873 0.093873
0.093873 0.093873 0.093873
0.093873 0.093873 0.093873
0.093873 0.093873 0.093873
0.093873 0.093873 0.093873
0.093873 0.093873 0.093873
0.093873 0.093873 0.093873
0.093873 0.093873 0.093873
0.093873 0.093873 0.093873
0.093873 0.093873 0.093873
0.093873 0.093873 0.093873
0.093873 0.093873 0.093873
0.093873 0.093873 0.093873
0.093873 0.093873 0.093873
0.093873 0.093873 0.093873
0.093873 0.093873 0.093873
0.093873 0.093873 0.093873
0.093873 0.093873 0.093873
0.093873 0.093873 0.093873
0.093873 0.093873 0.093873
0.093873 0.093873 0.093873
0.093873 0.093873 0.093873
0.093873 0.093873 0.093873
0.093873 0.093873 0.093873
0.093873 0.093873 0.093873
0.093873 0.093873 0.093873
0.093873 0.093873 0.093873
0.093873 0.093873 0.093873
0.093873 0.093873 0.093873
0.093873 0.093873 0.093873
0.093873 0.093873 0.093873
0.093873 0.093873 0.093873
0.093873 0.093873 0.093873
0.093873 0.093873 0.093873
0.093873 0.093873 0.093873
0.093873 0.093873 0.093873
0.093873 0.093873 0.093873
0.093873 0.093873 0.093873
0.093873 0.093873 0.093873
0.093873 0.093873 0.093873
0.093873 0.093873 0.093873
