trix_classic/TriX_Orange21_ExtraPunchy.cube
TITLE "Tri-X Orange21 ExtraPunchy"
# Adobe RGB in/out. REPLACES AgX. Tri-X Orange21 ExtraPunchy.
LUT_3D_SIZE 33
DOMAIN_MIN 0.0 0.0 0.0
DOMAIN_MAX 1.0 1.0 1.0
0.092237 0.092237 0.092237
0.092237 0.092237 0.092237
0.092237 0.092237 0.092237
0.092237 0.092237 0.092237
0.092237 0.092237 0.092237
0.092237 0.092237 0.092237
0.092237 0.092237 0.092237
0.092736 0.092736 0.092736
0.093530 0.093530 0.093530
0.095755 0.095755 0.095755
0.104528 0.104528 0.104528
0.119360 0.119360 0.119360
0.139739 0.139739 0.139739
0.174298 0.174298 0.174298
0.225932 0.225932 0.225932
0.271956 0.271956 0.271956
0.321468 0.321468 0.321468
0.381607 0.381607 0.381607
0.453494 0.453494 0.453494
0.523859 0.523859 0.523859
0.594229 0.594229 0.594229
0.663021 0.663021 0.663021
0.728517 0.728517 0.728517
0.779646 0.779646 0.779646
0.816513 0.816513 0.816513
0.843665 0.843665 0.843665
0.877368 0.877368 0.877368
0.893261 0.893261 0.893261
0.925741 0.925741 0.925741
0.925732 0.925732 0.925732
0.925732 0.925732 0.925732
0.925732 0.925732 0.925732
0.959743 0.959743 0.959743
0.092237 0.092237 0.092237
0.092237 0.092237 0.092237
0.092237 0.092237 0.092237
0.092237 0.092237 0.092237
0.092237 0.092237 0.092237
0.092237 0.092237 0.092237
0.092237 0.092237 0.092237
0.092821 0.092821 0.092821
0.093752 0.093752 0.093752
0.096173 0.096173 0.096173
0.105572 0.105572 0.105572
0.120905 0.120905 0.120905
0.141321 0.141321 0.141321
0.175690 0.175690 0.175690
0.227206 0.227206 0.227206
0.272983 0.272983 0.272983
0.322212 0.322212 0.322212
0.382173 0.382173 0.382173
0.453938 0.453938 0.453938
0.524105 0.524105 0.524105
0.594380 0.594380 0.594380
0.663130 0.663130 0.663130
0.728586 0.728586 0.728586
0.779694 0.779694 0.779694
0.816558 0.816558 0.816558
0.843720 0.843720 0.843720
0.877393 0.877393 0.877393
0.893304 0.893304 0.893304
0.925742 0.925742 0.925742
0.925732 0.925732 0.925732
0.925732 0.925732 0.925732
0.925732 0.925732 0.925732
0.959743 0.959743 0.959743
0.092237 0.092237 0.092237
0.092237 0.092237 0.092237
0.092237 0.092237 0.092237
0.092237 0.092237 0.092237
0.092237 0.092237 0.092237
0.092237 0.092237 0.092237
0.092557 0.092557 0.092557
0.093946 0.093946 0.093946
0.094735 0.094735 0.094735
0.097935 0.097935 0.097935
0.109751 0.109751 0.109751
0.126928 0.126928 0.126928
0.147448 0.147448 0.147448
0.181032 0.181032 0.181032
0.232073 0.232073 0.232073
0.276896 0.276896 0.276896
0.325045 0.325045 0.325045
0.384327 0.384327 0.384327
0.455620 0.455620 0.455620
0.525047 0.525047 0.525047
0.594956 0.594956 0.594956
0.663546 0.663546 0.663546
0.728845 0.728845 0.728845
0.779871 0.779871 0.779871
0.816724 0.816724 0.816724
0.843922 0.843922 0.843922
0.877482 0.877482 0.877482
0.893460 0.893460 0.893460
0.925742 0.925742 0.925742
0.925732 0.925732 0.925732
0.925732 0.925732 0.925732
0.925732 0.925732 0.925732
0.959743 0.959743 0.959743
0.092237 0.092237 0.092237
0.092237 0.092237 0.092237
0.092237 0.092237 0.092237
0.092237 0.092237 0.092237
0.092237 0.092237 0.092237
0.092246 0.092246 0.092246
0.092993 0.092993 0.092993
0.096045 0.096045 0.096045
0.097831 0.097831 0.097831
0.103358 0.103358 0.103358
0.122935 0.122935 0.122935
0.140563 0.140563 0.140563
0.160843 0.160843 0.160843
0.192508 0.192508 0.192508
0.242367 0.242367 0.242367
0.285075 0.285075 0.285075
0.330977 0.330977 0.330977
0.388833 0.388833 0.388833
0.459121 0.459121 0.459121
0.527030 0.527030 0.527030
0.596176 0.596176 0.596176
0.664402 0.664402 0.664402
0.729364 0.729364 0.729364
0.780217 0.780217 0.780217
0.817043 0.817043 0.817043
0.844308 0.844308 0.844308
0.877655 0.877655 0.877655
0.893757 0.893757 0.893757
0.925744 0.925744 0.925744
0.925732 0.925732 0.925732
0.925732 0.925732 0.925732
0.925734 0.925734 0.925734
0.959744 0.959744 0.959744
0.092237 0.092237 0.092237
0.092237 0.092237 0.092237
0.092237 0.092237 0.092237
0.092237 0.092237 0.092237
0.092237 0.092237 0.092237
0.092395 0.092395 0.092395
0.093594 0.093594 0.093594
0.098216 0.098216 0.098216
0.102305 0.102305 0.102305
0.111217 0.111217 0.111217
0.138979 0.138979 0.138979
0.159068 0.159068 0.159068
0.179562 0.179562 0.179562
0.212278 0.212278 0.212278
0.261794 0.261794 0.261794
0.299467 0.299467 0.299467
0.341932 0.341932 0.341932
0.397128 0.397128 0.397128
0.465508 0.465508 0.465508
0.530709 0.530709 0.530709
0.598453 0.598453 0.598453
0.665941 0.665941 0.665941
0.730257 0.730257 0.730257
0.780793 0.780793 0.780793
0.817555 0.817555 0.817555
0.844921 0.844921 0.844921
0.877934 0.877934 0.877934
0.894224 0.894224 0.894224
0.925748 0.925748 0.925748
0.925733 0.925733 0.925733
0.925732 0.925732 0.925732
0.925746 0.925746 0.925746
0.959744 0.959744 0.959744
0.092237 0.092237 0.092237
0.092237 0.092237 0.092237
0.092237 0.092237 0.092237
0.092237 0.092237 0.092237
0.092237 0.092237 0.092237
0.092535 0.092535 0.092535
0.094024 0.094024 0.094024
0.100568 0.100568 0.100568
0.105499 0.105499 0.105499
0.119851 0.119851 0.119851
0.154267 0.154267 0.154267
0.178519 0.178519 0.178519
0.200614 0.200614 0.200614
0.233228 0.233228 0.233228
0.281249 0.281249 0.281249
0.317111 0.317111 0.317111
0.358199 0.358199 0.358199
0.411728 0.411728 0.411728
0.476929 0.476929 0.476929
0.537420 0.537420 0.537420
0.602629 0.602629 0.602629
0.668635 0.668635 0.668635
0.731736 0.731736 0.731736
0.781694 0.781694 0.781694
0.818319 0.818319 0.818319
0.845822 0.845822 0.845822
0.878344 0.878344 0.878344
0.894907 0.894907 0.894907
0.925755 0.925755 0.925755
0.925734 0.925734 0.925734
0.925732 0.925732 0.925732
0.959733 0.959733 0.959733
0.959744 0.959744 0.959744
0.092237 0.092237 0.092237
0.092237 0.092237 0.092237
0.092237 0.092237 0.092237
0.092237 0.092237 0.092237
0.092380 0.092380 0.092380
0.092920 0.092920 0.092920
0.094455 0.094455 0.094455
0.102599 0.102599 0.102599
0.108853 0.108853 0.108853
0.126745 0.126745 0.126745
0.166617 0.166617 0.166617
0.195036 0.195036 0.195036
0.219369 0.219369 0.219369
0.254496 0.254496 0.254496
0.304377 0.304377 0.304377
0.340415 0.340415 0.340415
0.376331 0.376331 0.376331
0.425876 0.425876 0.425876
0.490128 0.490128 0.490128
0.547247 0.547247 0.547247
0.609960 0.609960 0.609960
0.673461 0.673461 0.673461
0.734215 0.734215 0.734215
0.783096 0.783096 0.783096
0.819423 0.819423 0.819423
0.847097 0.847097 0.847097
0.878915 0.878915 0.878915
0.895879 0.895879 0.895879
0.925773 0.925773 0.925773
0.925735 0.925735 0.925735
0.925733 0.925733 0.925733
0.959743 0.959743 0.959743
0.959744 0.959744 0.959744
0.092237 0.092237 0.092237
0.092237 0.092237 0.092237
0.092237 0.092237 0.092237
0.092237 0.092237 0.092237
0.092741 0.092741 0.092741
0.094181 0.094181 0.094181
0.097530 0.097530 0.097530
0.104968 0.104968 0.104968
0.112842 0.112842 0.112842
0.132703 0.132703 0.132703
0.176215 0.176215 0.176215
0.206867 0.206867 0.206867
0.234514 0.234514 0.234514
0.273875 0.273875 0.273875
0.326216 0.326216 0.326216
0.361110 0.361110 0.361110
0.397525 0.397525 0.397525
0.446730 0.446730 0.446730
0.508496 0.508496 0.508496
0.559594 0.559594 0.559594
0.618888 0.618888 0.618888
0.679683 0.679683 0.679683
0.737910 0.737910 0.737910
0.785399 0.785399 0.785399
0.821000 0.821000 0.821000
0.848854 0.848854 0.848854
0.879634 0.879634 0.879634
0.897249 0.897249 0.897249
0.925847 0.925847 0.925847
0.925741 0.925741 0.925741
0.925735 0.925735 0.925735
0.959744 0.959744 0.959744
0.959744 0.959744 0.959744
0.092237 0.092237 0.092237
0.092237 0.092237 0.092237
0.092237 0.092237 0.092237
0.092277 0.092277 0.092277
0.092764 0.092764 0.092764
0.094152 0.094152 0.094152
0.097410 0.097410 0.097410
0.104156 0.104156 0.104156
0.117543 0.117543 0.117543
0.138890 0.138890 0.138890
0.185318 0.185318 0.185318
0.217677 0.217677 0.217677
0.247644 0.247644 0.247644
0.289326 0.289326 0.289326
0.344806 0.344806 0.344806
0.381915 0.381915 0.381915
0.419779 0.419779 0.419779
0.468286 0.468286 0.468286
0.527748 0.527748 0.527748
0.576290 0.576290 0.576290
0.633134 0.633134 0.633134
0.688863 0.688863 0.688863
0.742985 0.742985 0.742985
0.788967 0.788967 0.788967
0.823080 0.823080 0.823080
0.850976 0.850976 0.850976
0.880651 0.880651 0.880651
0.899047 0.899047 0.899047
0.928010 0.928010 0.928010
0.925818 0.925818 0.925818
0.925751 0.925751 0.925751
0.959744 0.959744 0.959744
0.959744 0.959744 0.959744
0.092237 0.092237 0.092237
0.092237 0.092237 0.092237
0.092237 0.092237 0.092237
0.092483 0.092483 0.092483
0.093053 0.093053 0.093053
0.094758 0.094758 0.094758
0.099254 0.099254 0.099254
0.107504 0.107504 0.107504
0.123877 0.123877 0.123877
0.146727 0.146727 0.146727
0.194409 0.194409 0.194409
0.228323 0.228323 0.228323
0.259075 0.259075 0.259075
0.301837 0.301837 0.301837
0.360995 0.360995 0.360995
0.400759 0.400759 0.400759
0.440276 0.440276 0.440276
0.489731 0.489731 0.489731
0.549908 0.549908 0.549908
0.595983 0.595983 0.595983
0.647243 0.647243 0.647243
0.700507 0.700507 0.700507
0.750178 0.750178 0.750178
0.794030 0.794030 0.794030
0.825850 0.825850 0.825850
0.853607 0.853607 0.853607
0.882341 0.882341 0.882341
0.900768 0.900768 0.900768
0.920604 0.920604 0.920604
0.933937 0.933937 0.933937
0.949661 0.949661 0.949661
0.959744 0.959744 0.959744
0.959744 0.959744 0.959744
0.092295 0.092295 0.092295
0.092341 0.092341 0.092341
0.092515 0.092515 0.092515
0.092874 0.092874 0.092874
0.094242 0.094242 0.094242
0.097356 0.097356 0.097356
0.104635 0.104635 0.104635
0.119651 0.119651 0.119651
0.142562 0.142562 0.142562
0.171851 0.171851 0.171851
0.204455 0.204455 0.204455
0.238879 0.238879 0.238879
0.270586 0.270586 0.270586
0.313786 0.313786 0.313786
0.375512 0.375512 0.375512
0.417027 0.417027 0.417027
0.458422 0.458422 0.458422
0.510458 0.510458 0.510458
0.572223 0.572223 0.572223
0.616053 0.616053 0.616053
0.663765 0.663765 0.663765
0.715331 0.715331 0.715331
0.758548 0.758548 0.758548
0.800395 0.800395 0.800395
0.829409 0.829409 0.829409
0.856951 0.856951 0.856951
0.884398 0.884398 0.884398
0.902901 0.902901 0.902901
0.921920 0.921920 0.921920
0.935298 0.935298 0.935298
0.950103 0.950103 0.950103
0.959744 0.959744 0.959744
0.959744 0.959744 0.959744
0.092579 0.092579 0.092579
0.092616 0.092616 0.092616
0.092755 0.092755 0.092755
0.093508 0.093508 0.093508
0.094931 0.094931 0.094931
0.099103 0.099103 0.099103
0.107744 0.107744 0.107744
0.124816 0.124816 0.124816
0.149219 0.149219 0.149219
0.179235 0.179235 0.179235
0.212683 0.212683 0.212683
0.250323 0.250323 0.250323
0.281872 0.281872 0.281872
0.325927 0.325927 0.325927
0.389057 0.389057 0.389057
0.431315 0.431315 0.431315
0.475158 0.475158 0.475158
0.529048 0.529048 0.529048
0.592620 0.592620 0.592620
0.637035 0.637035 0.637035
0.682163 0.682163 0.682163
0.729545 0.729545 0.729545
0.769040 0.769040 0.769040
0.807210 0.807210 0.807210
0.833759 0.833759 0.833759
0.860742 0.860742 0.860742
0.886718 0.886718 0.886718
0.905346 0.905346 0.905346
0.923480 0.923480 0.923480
0.937046 0.937046 0.937046
0.951218 0.951218 0.951218
0.959744 0.959744 0.959744
0.959745 0.959745 0.959745
0.092803 0.092803 0.092803
0.092834 0.092834 0.092834
0.093180 0.093180 0.093180
0.094009 0.094009 0.094009
0.096013 0.096013 0.096013
0.100801 0.100801 0.100801
0.109553 0.109553 0.109553
0.127841 0.127841 0.127841
0.153109 0.153109 0.153109
0.183114 0.183114 0.183114
0.216609 0.216609 0.216609
0.253384 0.253384 0.253384
0.293815 0.293815 0.293815
0.337857 0.337857 0.337857
0.402641 0.402641 0.402641
0.446123 0.446123 0.446123
0.491026 0.491026 0.491026
0.546153 0.546153 0.546153
0.611746 0.611746 0.611746
0.655262 0.655262 0.655262
0.699548 0.699548 0.699548
0.742554 0.742554 0.742554
0.781266 0.781266 0.781266
0.813397 0.813397 0.813397
0.839042 0.839042 0.839042
0.865387 0.865387 0.865387
0.889307 0.889307 0.889307
0.907806 0.907806 0.907806
0.925144 0.925144 0.925144
0.938938 0.938938 0.938938
0.953856 0.953856 0.953856
0.959749 0.959749 0.959749
0.959749 0.959749 0.959749
0.093623 0.093623 0.093623
0.093717 0.093717 0.093717
0.094064 0.094064 0.094064
0.095092 0.095092 0.095092
0.097972 0.097972 0.097972
0.103674 0.103674 0.103674
0.115127 0.115127 0.115127
0.135889 0.135889 0.135889
0.163343 0.163343 0.163343
0.194076 0.194076 0.194076
0.229181 0.229181 0.229181
0.267854 0.267854 0.267854
0.307982 0.307982 0.307982
0.350807 0.350807 0.350807
0.415696 0.415696 0.415696
0.460641 0.460641 0.460641
0.506292 0.506292 0.506292
0.561236 0.561236 0.561236
0.628957 0.628957 0.628957
0.672032 0.672032 0.672032
0.717230 0.717230 0.717230
0.755973 0.755973 0.755973
0.793636 0.793636 0.793636
0.820656 0.820656 0.820656
0.845237 0.845237 0.845237
0.870616 0.870616 0.870616
0.892312 0.892312 0.892312
0.910560 0.910560 0.910560
0.926993 0.926993 0.926993
0.940778 0.940778 0.940778
0.955460 0.955460 0.955460
0.963406 0.963406 0.963406
0.970970 0.970970 0.970970
0.095183 0.095183 0.095183
0.095391 0.095391 0.095391
0.096159 0.096159 0.096159
0.097696 0.097696 0.097696
0.102852 0.102852 0.102852
0.110602 0.110602 0.110602
0.127815 0.127815 0.127815
0.151774 0.151774 0.151774
0.181585 0.181585 0.181585
0.215740 0.215740 0.215740
0.254226 0.254226 0.254226
0.294814 0.294814 0.294814
0.336752 0.336752 0.336752
0.381637 0.381637 0.381637
0.429731 0.429731 0.429731
0.474486 0.474486 0.474486
0.521311 0.521311 0.521311
0.576839 0.576839 0.576839
0.645186 0.645186 0.645186
0.687515 0.687515 0.687515
0.731758 0.731758 0.731758
0.769261 0.769261 0.769261
0.805920 0.805920 0.805920
0.828642 0.828642 0.828642
0.852084 0.852084 0.852084
0.875514 0.875514 0.875514
0.895785 0.895785 0.895785
0.913693 0.913693 0.913693
0.928999 0.928999 0.928999
0.942786 0.942786 0.942786
0.956894 0.956894 0.956894
0.964285 0.964285 0.964285
0.971336 0.971336 0.971336
0.097103 0.097103 0.097103
0.097285 0.097285 0.097285
0.098265 0.098265 0.098265
0.100899 0.100899 0.100899
0.106029 0.106029 0.106029
0.116052 0.116052 0.116052
0.135689 0.135689 0.135689
0.159524 0.159524 0.159524
0.189285 0.189285 0.189285
0.224333 0.224333 0.224333
0.262676 0.262676 0.262676
0.302848 0.302848 0.302848
0.345439 0.345439 0.345439
0.390790 0.390790 0.390790
0.438504 0.438504 0.438504
0.489548 0.489548 0.489548
0.535490 0.535490 0.535490
0.591968 0.591968 0.591968
0.659318 0.659318 0.659318
0.702999 0.702999 0.702999
0.743405 0.743405 0.743405
0.781761 0.781761 0.781761
0.814536 0.814536 0.814536
0.836769 0.836769 0.836769
0.859674 0.859674 0.859674
0.880707 0.880707 0.880707
0.899663 0.899663 0.899663
0.916725 0.916725 0.916725
0.931182 0.931182 0.931182
0.944798 0.944798 0.944798
0.957923 0.957923 0.957923
0.965296 0.965296 0.965296
0.972285 0.972285 0.972285
0.100260 0.100260 0.100260
0.100585 0.100585 0.100585
0.101782 0.101782 0.101782
0.104115 0.104115 0.104115
0.110719 0.110719 0.110719
0.124319 0.124319 0.124319
0.141862 0.141862 0.141862
0.167368 0.167368 0.167368
0.197591 0.197591 0.197591
0.232569 0.232569 0.232569
0.271081 0.271081 0.271081
0.311352 0.311352 0.311352
0.354504 0.354504 0.354504
0.399363 0.399363 0.399363
0.447465 0.447465 0.447465
0.498665 0.498665 0.498665
0.550564 0.550564 0.550564
0.607097 0.607097 0.607097
0.672687 0.672687 0.672687
0.717104 0.717104 0.717104
0.754610 0.754610 0.754610
0.793398 0.793398 0.793398
0.822723 0.822723 0.822723
0.844972 0.844972 0.844972
0.867733 0.867733 0.867733
0.886295 0.886295 0.886295
0.903979 0.903979 0.903979
0.919471 0.919471 0.919471
0.933530 0.933530 0.933530
0.946880 0.946880 0.946880
0.958959 0.958959 0.958959
0.966246 0.966246 0.966246
0.973953 0.973953 0.973953
0.104821 0.104821 0.104821
0.105298 0.105298 0.105298
0.107058 0.107058 0.107058
0.110898 0.110898 0.110898
0.119395 0.119395 0.119395
0.136001 0.136001 0.136001
0.154107 0.154107 0.154107
0.181490 0.181490 0.181490
0.211876 0.211876 0.211876
0.246727 0.246727 0.246727
0.286172 0.286172 0.286172
0.326879 0.326879 0.326879
0.371063 0.371063 0.371063
0.416407 0.416407 0.416407
0.465426 0.465426 0.465426
0.516788 0.516788 0.516788
0.568468 0.568468 0.568468
0.622871 0.622871 0.622871
0.686108 0.686108 0.686108
0.729690 0.729690 0.729690
0.765218 0.765218 0.765218
0.804558 0.804558 0.804558
0.830434 0.830434 0.830434
0.852872 0.852872 0.852872
0.874905 0.874905 0.874905
0.891893 0.891893 0.891893
0.908800 0.908800 0.908800
0.922545 0.922545 0.922545
0.935998 0.935998 0.935998
0.949168 0.949168 0.949168
0.960053 0.960053 0.960053
0.967241 0.967241 0.967241
0.974863 0.974863 0.974863
0.114367 0.114367 0.114367
0.114972 0.114972 0.114972
0.117582 0.117582 0.117582
0.123496 0.123496 0.123496
0.133429 0.133429 0.133429
0.151610 0.151610 0.151610
0.172300 0.172300 0.172300
0.199954 0.199954 0.199954
0.231063 0.231063 0.231063
0.268791 0.268791 0.268791
0.308731 0.308731 0.308731
0.350870 0.350870 0.350870
0.395368 0.395368 0.395368
0.442445 0.442445 0.442445
0.492539 0.492539 0.492539
0.544713 0.544713 0.544713
0.596695 0.596695 0.596695
0.650159 0.650159 0.650159
0.699787 0.699787 0.699787
0.739911 0.739911 0.739911
0.775997 0.775997 0.775997
0.811686 0.811686 0.811686
0.837818 0.837818 0.837818
0.860608 0.860608 0.860608
0.880787 0.880787 0.880787
0.897536 0.897536 0.897536
0.913887 0.913887 0.913887
0.925903 0.925903 0.925903
0.938821 0.938821 0.938821
0.951521 0.951521 0.951521
0.961199 0.961199 0.961199
0.968284 0.968284 0.968284
0.975797 0.975797 0.975797
0.124937 0.124937 0.124937
0.125722 0.125722 0.125722
0.128619 0.128619 0.128619
0.134287 0.134287 0.134287
0.144638 0.144638 0.144638
0.162784 0.162784 0.162784
0.185378 0.185378 0.185378
0.210765 0.210765 0.210765
0.243932 0.243932 0.243932
0.281469 0.281469 0.281469
0.318735 0.318735 0.318735
0.360543 0.360543 0.360543
0.405659 0.405659 0.405659
0.453179 0.453179 0.453179
0.503858 0.503858 0.503858
0.554989 0.554989 0.554989
0.607306 0.607306 0.607306
0.659575 0.659575 0.659575
0.708491 0.708491 0.708491
0.750478 0.750478 0.750478
0.786334 0.786334 0.786334
0.818698 0.818698 0.818698
0.844917 0.844917 0.844917
0.868052 0.868052 0.868052
0.886671 0.886671 0.886671
0.903027 0.903027 0.903027
0.918220 0.918220 0.918220
0.929462 0.929462 0.929462
0.941799 0.941799 0.941799
0.953963 0.953963 0.953963
0.962375 0.962375 0.962375
0.969321 0.969321 0.969321
0.976709 0.976709 0.976709
0.137622 0.137622 0.137622
0.138389 0.138389 0.138389
0.141641 0.141641 0.141641
0.148298 0.148298 0.148298
0.159326 0.159326 0.159326
0.176658 0.176658 0.176658
0.201747 0.201747 0.201747
0.225688 0.225688 0.225688
0.261505 0.261505 0.261505
0.294277 0.294277 0.294277
0.333662 0.333662 0.333662
0.376983 0.376983 0.376983
0.421152 0.421152 0.421152
0.468422 0.468422 0.468422
0.519027 0.519027 0.519027
0.569851 0.569851 0.569851
0.621911 0.621911 0.621911
0.671647 0.671647 0.671647
0.721445 0.721445 0.721445
0.759033 0.759033 0.759033
0.797137 0.797137 0.797137
0.825366 0.825366 0.825366
0.851701 0.851701 0.851701
0.874390 0.874390 0.874390
0.891958 0.891958 0.891958
0.908527 0.908527 0.908527
0.922205 0.922205 0.922205
0.933196 0.933196 0.933196
0.944958 0.944958 0.944958
0.956519 0.956519 0.956519
0.963550 0.963550 0.963550
0.970387 0.970387 0.970387
0.977594 0.977594 0.977594
0.155475 0.155475 0.155475
0.156404 0.156404 0.156404
0.159824 0.159824 0.159824
0.166471 0.166471 0.166471
0.177367 0.177367 0.177367
0.194267 0.194267 0.194267
0.221070 0.221070 0.221070
0.245717 0.245717 0.245717
0.278642 0.278642 0.278642
0.313625 0.313625 0.313625
0.354142 0.354142 0.354142
0.394532 0.394532 0.394532
0.440106 0.440106 0.440106
0.488929 0.488929 0.488929
0.538651 0.538651 0.538651
0.589400 0.589400 0.589400
0.642002 0.642002 0.642002
0.689115 0.689115 0.689115
0.734595 0.734595 0.734595
0.771890 0.771890 0.771890
0.807297 0.807297 0.807297
0.832266 0.832266 0.832266
0.858318 0.858318 0.858318
0.879681 0.879681 0.879681
0.897040 0.897040 0.897040
0.913709 0.913709 0.913709
0.926203 0.926203 0.926203
0.937084 0.937084 0.937084
0.948363 0.948363 0.948363
0.958083 0.958083 0.958083
0.964808 0.964808 0.964808
0.971465 0.971465 0.971465
0.978436 0.978436 0.978436
0.175795 0.175795 0.175795
0.176730 0.176730 0.176730
0.180165 0.180165 0.180165
0.186824 0.186824 0.186824
0.197674 0.197674 0.197674
0.214822 0.214822 0.214822
0.240770 0.240770 0.240770
0.268913 0.268913 0.268913
0.298753 0.298753 0.298753
0.336890 0.336890 0.336890
0.373381 0.373381 0.373381
0.416851 0.416851 0.416851
0.464001 0.464001 0.464001
0.510997 0.510997 0.510997
0.559362 0.559362 0.559362
0.610281 0.610281 0.610281
0.660568 0.660568 0.660568
0.708023 0.708023 0.708023
0.748330 0.748330 0.748330
0.784916 0.784916 0.784916
0.816038 0.816038 0.816038
0.840393 0.840393 0.840393
0.865050 0.865050 0.865050
0.884938 0.884938 0.884938
0.902015 0.902015 0.902015
0.917908 0.917908 0.917908
0.930070 0.930070 0.930070
0.940947 0.940947 0.940947
0.952032 0.952032 0.952032
0.959775 0.959775 0.959775
0.966162 0.966162 0.966162
0.972533 0.972533 0.972533
0.979184 0.979184 0.979184
0.195985 0.195985 0.195985
0.196916 0.196916 0.196916
0.200393 0.200393 0.200393
0.207212 0.207212 0.207212
0.218240 0.218240 0.218240
0.234944 0.234944 0.234944
0.259806 0.259806 0.259806
0.291068 0.291068 0.291068
0.317981 0.317981 0.317981
0.355944 0.355944 0.355944
0.392631 0.392631 0.392631
0.437714 0.437714 0.437714
0.480518 0.480518 0.480518
0.529156 0.529156 0.529156
0.578981 0.578981 0.578981
0.628754 0.628754 0.628754
0.675717 0.675717 0.675717
0.722909 0.722909 0.722909
0.759045 0.759045 0.759045
0.795321 0.795321 0.795321
0.822691 0.822691 0.822691
0.846815 0.846815 0.846815
0.871305 0.871305 0.871305
0.890008 0.890008 0.890008
0.906902 0.906902 0.906902
0.921543 0.921543 0.921543
0.933861 0.933861 0.933861
0.944746 0.944746 0.944746
0.955717 0.955717 0.955717
0.961590 0.961590 0.961590
0.967619 0.967619 0.967619
0.973675 0.973675 0.973675
0.979520 0.979520 0.979520
0.219443 0.219443 0.219443
0.220407 0.220407 0.220407
0.223937 0.223937 0.223937
0.230721 0.230721 0.230721
0.241623 0.241623 0.241623
0.257983 0.257983 0.257983
0.282020 0.282020 0.282020
0.315590 0.315590 0.315590
0.341000 0.341000 0.341000
0.375987 0.375987 0.375987
0.416698 0.416698 0.416698
0.457184 0.457184 0.457184
0.503611 0.503611 0.503611
0.550995 0.550995 0.550995
0.597752 0.597752 0.597752
0.647840 0.647840 0.647840
0.693865 0.693865 0.693865
0.736762 0.736762 0.736762
0.771672 0.771672 0.771672
0.806319 0.806319 0.806319
0.830008 0.830008 0.830008
0.853785 0.853785 0.853785
0.876277 0.876277 0.876277
0.894354 0.894354 0.894354
0.911780 0.911780 0.911780
0.925058 0.925058 0.925058
0.937663 0.937663 0.937663
0.948481 0.948481 0.948481
0.958059 0.958059 0.958059
0.963506 0.963506 0.963506
0.969202 0.969202 0.969202
0.974931 0.974931 0.974931
0.979845 0.979845 0.979845
0.245986 0.245986 0.245986
0.246948 0.246948 0.246948
0.250466 0.250466 0.250466
0.257205 0.257205 0.257205
0.267979 0.267979 0.267979
0.284029 0.284029 0.284029
0.305991 0.305991 0.305991
0.337906 0.337906 0.337906
0.367630 0.367630 0.367630
0.400218 0.400218 0.400218
0.445037 0.445037 0.445037
0.482035 0.482035 0.482035
0.530639 0.530639 0.530639
0.572825 0.572825 0.572825
0.622469 0.622469 0.622469
0.668570 0.668570 0.668570
0.712753 0.712753 0.712753
0.750004 0.750004 0.750004
0.784621 0.784621 0.784621
0.814559 0.814559 0.814559
0.837860 0.837860 0.837860
0.861304 0.861304 0.861304
0.881727 0.881727 0.881727
0.898952 0.898952 0.898952
0.915982 0.915982 0.915982
0.928533 0.928533 0.928533
0.941415 0.941415 0.941415
0.952267 0.952267 0.952267
0.960124 0.960124 0.960124
0.965488 0.965488 0.965488
0.970857 0.970857 0.970857
0.976263 0.976263 0.976263
0.980249 0.980249 0.980249
0.277362 0.277362 0.277362
0.278288 0.278288 0.278288
0.281670 0.281670 0.281670
0.287922 0.287922 0.287922
0.297643 0.297643 0.297643
0.312083 0.312083 0.312083
0.333044 0.333044 0.333044
0.363664 0.363664 0.363664
0.398372 0.398372 0.398372
0.428286 0.428286 0.428286
0.469306 0.469306 0.469306
0.511436 0.511436 0.511436
0.553586 0.553586 0.553586
0.599578 0.599578 0.599578
0.646852 0.646852 0.646852
0.688742 0.688742 0.688742
0.731941 0.731941 0.731941
0.765440 0.765440 0.765440
0.798764 0.798764 0.798764
0.823273 0.823273 0.823273
0.846201 0.846201 0.846201
0.869395 0.869395 0.869395
0.887729 0.887729 0.887729
0.904676 0.904676 0.904676
0.920144 0.920144 0.920144
