trix_classic/TriX_Orange21_Punchy.cube
TITLE "Tri-X Orange21 Punchy"
# Adobe RGB in/out. REPLACES AgX. R=0.7239 G=0.2761 B=0.0000
LUT_3D_SIZE 5
DOMAIN_MIN 0.0 0.0 0.0
DOMAIN_MAX 1.0 1.0 1.0
0.092306 0.092306 0.092306
0.092306 0.092306 0.092306
0.092306 0.092306 0.092306
0.092306 0.092306 0.092306
0.092306 0.092306 0.092306
0.092306 0.092306 0.092306
0.160896 0.160896 0.160896
0.398025 0.398025 0.398025
0.581784 0.581784 0.581784
0.734370 0.734370 0.734370
0.092306 0.092306 0.092306
0.230181 0.230181 0.230181
0.513339 0.513339 0.513339
0.722190 0.722190 0.722190
0.873956 0.873956 0.873956
0.092306 0.092306 0.092306
0.284460 0.284460 0.284460
0.588365 0.588365 0.588365
0.806640 0.806640 0.806640
0.933249 0.933249 0.933249
0.092306 0.092306 0.092306
0.329320 0.329320 0.329320
0.644676 0.644676 0.644676
0.861993 0.861993 0.861993
0.961544 0.961544 0.961544
0.092306 0.092306 0.092306
0.092306 0.092306 0.092306
0.092306 0.092306 0.092306
0.092306 0.092306 0.092306
0.092306 0.092306 0.092306
0.092306 0.092306 0.092306
0.160896 0.160896 0.160896
0.398025 0.398025 0.398025
0.581784 0.581784 0.581784
0.734370 0.734370 0.734370
0.092306 0.092306 0.092306
0.230181 0.230181 0.230181
0.513339 0.513339 0.513339
0.722190 0.722190 0.722190
0.873956 0.873956 0.873956
0.092306 0.092306 0.092306
0.284460 0.284460 0.284460
0.588365 0.588365 0.588365
0.806640 0.806640 0.806640
0.933249 0.933249 0.933249
0.092306 0.092306 0.092306
0.329320 0.329320 0.329320
0.644676 0.644676 0.644676
0.861993 0.861993 0.861993
0.961544 0.961544 0.961544
0.092306 0.092306 0.092306
0.092306 0.092306 0.092306
0.092306 0.092306 0.092306
0.092306 0.092306 0.092306
0.092306 0.092306 0.092306
0.092306 0.092306 0.092306
0.160896 0.160896 0.160896
0.398025 0.398025 0.398025
0.581784 0.581784 0.581784
0.734370 0.734370 0.734370
0.092306 0.092306 0.092306
0.230181 0.230181 0.230181
0.513339 0.513339 0.513339
0.722190 0.722190 0.722190
0.873956 0.873956 0.873956
0.092306 0.092306 0.092306
0.284460 0.284460 0.284460
0.588365 0.588365 0.588365
0.806640 0.806640 0.806640
0.933249 0.933249 0.933249
0.092306 0.092306 0.092306
0.329320 0.329320 0.329320
0.644676 0.644676 0.644676
0.861993 0.861993 0.861993
0.961544 0.961544 0.961544
0.092306 0.092306 0.092306
0.092306 0.092306 0.092306
0.092306 0.092306 0.092306
0.092306 0.092306 0.092306
0.092306 0.092306 0.092306
0.092306 0.092306 0.092306
0.160896 0.160896 0.160896
0.398025 0.398025 0.398025
0.581784 0.581784 0.581784
0.734370 0.734370 0.734370
0.092306 0.092306 0.092306
0.230181 0.230181 0.230181
0.513339 0.513339 0.513339
0.722190 0.722190 0.722190
0.873956 0.873956 0.873956
0.092306 0.092306 0.092306
0.284460 0.284460 0.284460
0.588365 0.588365 0.588365
0.806640 0.806640 0.806640
0.933249 0.933249 0.933249
0.092306 0.092306 0.092306
0.329320 0.329320 0.329320
0.644676 0.644676 0.644676
0.861993 0.861993 0.861993
0.961544 0.961544 0.961544
0.092306 0.092306 0.092306
0.092306 0.092306 0.092306
0.092306 0.092306 0.092306
0.092306 0.092306 0.092306
0.092306 0.092306 0.092306
0.092306 0.092306 0.092306
0.160896 0.160896 0.160896
0.398025 0.398025 0.398025
0.581784 0.581784 0.581784
0.734370 0.734370 0.734370
0.092306 0.092306 0.092306
0.230181 0.230181 0.230181
0.513339 0.513339 0.513339
0.722190 0.722190 0.722190
0.873956 0.873956 0.873956
0.092306 0.092306 0.092306
0.284460 0.284460 0.284460
0.588365 0.588365 0.588365
0.806640 0.806640 0.806640
0.933249 0.933249 0.933249
0.092306 0.092306 0.092306
0.329320 0.329320 0.329320
0.644676 0.644676 0.644676
0.861993 0.861993 0.861993
0.961544 0.961544 0.961544
