trix_classic/TriX_Orange21_Soft.cube
TITLE "Tri-X Orange21 Soft"
# Adobe RGB in/out. REPLACES AgX. Tri-X Orange21 Soft.
LUT_3D_SIZE 33
DOMAIN_MIN 0.0 0.0 0.0
DOMAIN_MAX 1.0 1.0 1.0
0.093873 0.093873 0.093873
0.093873 0.093873 0.093873
0.093873 0.093873 0.093873
0.093873 0.093873 0.093873
0.093992 0.093992 0.093992
0.094123 0.094123 0.094123
0.096593 0.096593 0.096593
0.109484 0.109484 0.109484
0.122978 0.122978 0.122978
0.147295 0.147295 0.147295
0.189096 0.189096 0.189096
0.221178 0.221178 0.221178
0.248441 0.248441 0.248441
0.282097 0.282097 0.282097
0.322399 0.322399 0.322399
0.353601 0.353601 0.353601
0.385067 0.385067 0.385067
0.419895 0.419895 0.419895
0.456102 0.456102 0.456102
0.489132 0.489132 0.489132
0.521510 0.521510 0.521510
0.552713 0.552713 0.552713
0.584873 0.584873 0.584873
0.617748 0.617748 0.617748
0.645265 0.645265 0.645265
0.670918 0.670918 0.670918
0.704655 0.704655 0.704655
0.724609 0.724609 0.724609
0.770495 0.770495 0.770495
0.770479 0.770479 0.770479
0.770478 0.770478 0.770478
0.770478 0.770478 0.770478
0.828406 0.828406 0.828406
0.093873 0.093873 0.093873
0.093873 0.093873 0.093873
0.093873 0.093873 0.093873
0.093856 0.093856 0.093856
0.094082 0.094082 0.094082
0.094204 0.094204 0.094204
0.097424 0.097424 0.097424
0.112963 0.112963 0.112963
0.125897 0.125897 0.125897
0.150346 0.150346 0.150346
0.191865 0.191865 0.191865
0.223295 0.223295 0.223295
0.250166 0.250166 0.250166
0.283258 0.283258 0.283258
0.323332 0.323332 0.323332
0.354251 0.354251 0.354251
0.385529 0.385529 0.385529
0.420191 0.420191 0.420191
0.456316 0.456316 0.456316
0.489250 0.489250 0.489250
0.521577 0.521577 0.521577
0.552767 0.552767 0.552767
0.584918 0.584918 0.584918
0.617778 0.617778 0.617778
0.645308 0.645308 0.645308
0.670970 0.670970 0.670970
0.704685 0.704685 0.704685
0.724663 0.724663 0.724663
0.770495 0.770495 0.770495
0.770479 0.770479 0.770479
0.770478 0.770478 0.770478
0.770478 0.770478 0.770478
0.828407 0.828407 0.828407
0.093873 0.093873 0.093873
0.093873 0.093873 0.093873
0.093873 0.093873 0.093873
0.093937 0.093937 0.093937
0.094604 0.094604 0.094604
0.096502 0.096502 0.096502
0.104156 0.104156 0.104156
0.128585 0.128585 0.128585
0.140057 0.140057 0.140057
0.162617 0.162617 0.162617
0.203047 0.203047 0.203047
0.231486 0.231486 0.231486
0.256778 0.256778 0.256778
0.287675 0.287675 0.287675
0.326875 0.326875 0.326875
0.356719 0.356719 0.356719
0.387280 0.387280 0.387280
0.421316 0.421316 0.421316
0.457129 0.457129 0.457129
0.489699 0.489699 0.489699
0.521832 0.521832 0.521832
0.552971 0.552971 0.552971
0.585086 0.585086 0.585086
0.617891 0.617891 0.617891
0.645464 0.645464 0.645464
0.671162 0.671162 0.671162
0.704798 0.704798 0.704798
0.724860 0.724860 0.724860
0.770497 0.770497 0.770497
0.770479 0.770479 0.770479
0.770478 0.770478 0.770478
0.770479 0.770479 0.770479
0.828408 0.828408 0.828408
0.093873 0.093873 0.093873
0.093873 0.093873 0.093873
0.093858 0.093858 0.093858
0.093968 0.093968 0.093968
0.095926 0.095926 0.095926
0.098488 0.098488 0.098488
0.116141 0.116141 0.116141
0.149406 0.149406 0.149406
0.162212 0.162212 0.162212
0.184685 0.184685 0.184685
0.226068 0.226068 0.226068
0.249340 0.249340 0.249340
0.270629 0.270629 0.270629
0.296922 0.296922 0.296922
0.334252 0.334252 0.334252
0.361846 0.361846 0.361846
0.390923 0.390923 0.390923
0.423659 0.423659 0.423659
0.458814 0.458814 0.458814
0.490643 0.490643 0.490643
0.522372 0.522372 0.522372
0.553391 0.553391 0.553391
0.585422 0.585422 0.585422
0.618113 0.618113 0.618113
0.645764 0.645764 0.645764
0.671528 0.671528 0.671528
0.705014 0.705014 0.705014
0.725235 0.725235 0.725235
0.770500 0.770500 0.770500
0.770479 0.770479 0.770479
0.770478 0.770478 0.770478
0.770481 0.770481 0.770481
0.828409 0.828409 0.828409
0.093873 0.093873 0.093873
0.093854 0.093854 0.093854
0.093969 0.093969 0.093969
0.094203 0.094203 0.094203
0.096919 0.096919 0.096919
0.100752 0.100752 0.100752
0.123815 0.123815 0.123815
0.163721 0.163721 0.163721
0.180273 0.180273 0.180273
0.206250 0.206250 0.206250
0.247575 0.247575 0.247575
0.269034 0.269034 0.269034
0.286467 0.286467 0.286467
0.312229 0.312229 0.312229
0.347095 0.347095 0.347095
0.371191 0.371191 0.371191
0.397569 0.397569 0.397569
0.427935 0.427935 0.427935
0.461871 0.461871 0.461871
0.492390 0.492390 0.492390
0.523378 0.523378 0.523378
0.554146 0.554146 0.554146
0.585999 0.585999 0.585999
0.618480 0.618480 0.618480
0.646246 0.646246 0.646246
0.672109 0.672109 0.672109
0.705361 0.705361 0.705361
0.725825 0.725825 0.725825
0.770505 0.770505 0.770505
0.770480 0.770480 0.770480
0.770478 0.770478 0.770478
0.770503 0.770503 0.770503
0.828410 0.828410 0.828410
0.093862 0.093862 0.093862
0.093889 0.093889 0.093889
0.093982 0.093982 0.093982
0.094203 0.094203 0.094203
0.096724 0.096724 0.096724
0.103549 0.103549 0.103549
0.129878 0.129878 0.129878
0.173129 0.173129 0.173129
0.191673 0.191673 0.191673
0.221851 0.221851 0.221851
0.264013 0.264013 0.264013
0.285606 0.285606 0.285606
0.303286 0.303286 0.303286
0.327711 0.327711 0.327711
0.359442 0.359442 0.359442
0.382357 0.382357 0.382357
0.407251 0.407251 0.407251
0.435401 0.435401 0.435401
0.467285 0.467285 0.467285
0.495562 0.495562 0.495562
0.525218 0.525218 0.525218
0.555465 0.555465 0.555465
0.586956 0.586956 0.586956
0.619056 0.619056 0.619056
0.646966 0.646966 0.646966
0.672963 0.672963 0.672963
0.705875 0.705875 0.705875
0.726687 0.726687 0.726687
0.770518 0.770518 0.770518
0.770481 0.770481 0.770481
0.770479 0.770479 0.770479
0.828379 0.828379 0.828379
0.828410 0.828410 0.828410
0.093956 0.093956 0.093956
0.093977 0.093977 0.093977
0.094105 0.094105 0.094105
0.095370 0.095370 0.095370
0.100523 0.100523 0.100523
0.115236 0.115236 0.115236
0.137269 0.137269 0.137269
0.181498 0.181498 0.181498
0.200659 0.200659 0.200659
0.231238 0.231238 0.231238
0.275605 0.275605 0.275605
0.298921 0.298921 0.298921
0.317548 0.317548 0.317548
0.342343 0.342343 0.342343
0.374329 0.374329 0.374329
0.396654 0.396654 0.396654
0.417123 0.417123 0.417123
0.442531 0.442531 0.442531
0.473457 0.473457 0.473457
0.500172 0.500172 0.500172
0.528433 0.528433 0.528433
0.557824 0.557824 0.557824
0.588559 0.588559 0.588559
0.619951 0.619951 0.619951
0.648007 0.648007 0.648007
0.674172 0.674172 0.674172
0.706588 0.706588 0.706588
0.727915 0.727915 0.727915
0.770549 0.770549 0.770549
0.770484 0.770484 0.770484
0.770480 0.770480 0.770480
0.828408 0.828408 0.828408
0.828410 0.828410 0.828410
0.094107 0.094107 0.094107
0.094145 0.094145 0.094145
0.094742 0.094742 0.094742
0.097974 0.097974 0.097974
0.109690 0.109690 0.109690
0.132522 0.132522 0.132522
0.160591 0.160591 0.160591
0.190262 0.190262 0.190262
0.209810 0.209810 0.209810
0.239243 0.239243 0.239243
0.283696 0.283696 0.283696
0.308111 0.308111 0.308111
0.328638 0.328638 0.328638
0.354816 0.354816 0.354816
0.388001 0.388001 0.388001
0.408961 0.408961 0.408961
0.428139 0.428139 0.428139
0.452819 0.452819 0.452819
0.481906 0.481906 0.481906
0.505906 0.505906 0.505906
0.532322 0.532322 0.532322
0.560854 0.560854 0.560854
0.590945 0.590945 0.590945
0.621420 0.621420 0.621420
0.649493 0.649493 0.649493
0.675839 0.675839 0.675839
0.707487 0.707487 0.707487
0.729648 0.729648 0.729648
0.770678 0.770678 0.770678
0.770495 0.770495 0.770495
0.770484 0.770484 0.770484
0.828410 0.828410 0.828410
0.828410 0.828410 0.828410
0.094217 0.094217 0.094217
0.094247 0.094247 0.094247
0.095530 0.095530 0.095530
0.098949 0.098949 0.098949
0.110615 0.110615 0.110615
0.132030 0.132030 0.132030
0.159663 0.159663 0.159663
0.188071 0.188071 0.188071
0.218679 0.218679 0.218679
0.247458 0.247458 0.247458
0.291167 0.291167 0.291167
0.316287 0.316287 0.316287
0.337816 0.337816 0.337816
0.364629 0.364629 0.364629
0.399295 0.399295 0.399295
0.420056 0.420056 0.420056
0.439474 0.439474 0.439474
0.463194 0.463194 0.463194
0.490984 0.490984 0.490984
0.513505 0.513505 0.513505
0.538471 0.538471 0.538471
0.565304 0.565304 0.565304
0.594220 0.594220 0.594220
0.623695 0.623695 0.623695
0.651455 0.651455 0.651455
0.677853 0.677853 0.677853
0.708760 0.708760 0.708760
0.731923 0.731923 0.731923
0.774440 0.774440 0.774440
0.770627 0.770627 0.770627
0.770512 0.770512 0.770512
0.828410 0.828410 0.828410
0.828410 0.828410 0.828410
0.095485 0.095485 0.095485
0.095826 0.095826 0.095826
0.097177 0.097177 0.097177
0.102189 0.102189 0.102189
0.116882 0.116882 0.116882
0.140222 0.140222 0.140222
0.167835 0.167835 0.167835
0.197027 0.197027 0.197027
0.227349 0.227349 0.227349
0.256006 0.256006 0.256006
0.298426 0.298426 0.298426
0.324148 0.324148 0.324148
0.345333 0.345333 0.345333
0.372709 0.372709 0.372709
0.408894 0.408894 0.408894
0.429792 0.429792 0.429792
0.449662 0.449662 0.449662
0.473273 0.473273 0.473273
0.501413 0.501413 0.501413
0.522287 0.522287 0.522287
0.544927 0.544927 0.544927
0.570913 0.570913 0.570913
0.598854 0.598854 0.598854
0.626920 0.626920 0.626920
0.654069 0.654069 0.654069
0.680351 0.680351 0.680351
0.710878 0.710878 0.710878
0.734104 0.734104 0.734104
0.761599 0.761599 0.761599
0.784069 0.784069 0.784069
0.808312 0.808312 0.808312
0.828410 0.828410 0.828410
0.828410 0.828410 0.828410
0.099232 0.099232 0.099232
0.099932 0.099932 0.099932
0.103025 0.103025 0.103025
0.114670 0.114670 0.114670
0.133575 0.133575 0.133575
0.159245 0.159245 0.159245
0.189377 0.189377 0.189377
0.221578 0.221578 0.221578
0.251514 0.251514 0.251514
0.280044 0.280044 0.280044
0.306258 0.306258 0.306258
0.331769 0.331769 0.331769
0.352731 0.352731 0.352731
0.380275 0.380275 0.380275
0.416691 0.416691 0.416691
0.438086 0.438086 0.438086
0.458478 0.458478 0.458478
0.482799 0.482799 0.482799
0.511673 0.511673 0.511673
0.531090 0.531090 0.531090
0.553079 0.553079 0.553079
0.577999 0.577999 0.577999
0.604235 0.604235 0.604235
0.630968 0.630968 0.630968
0.657429 0.657429 0.657429
0.683528 0.683528 0.683528
0.713457 0.713457 0.713457
0.736810 0.736810 0.736810
0.763873 0.763873 0.763873
0.786153 0.786153 0.786153
0.808999 0.808999 0.808999
0.828411 0.828411 0.828411
0.828411 0.828411 0.828411
0.104748 0.104748 0.104748
0.105757 0.105757 0.105757
0.110277 0.110277 0.110277
0.122687 0.122687 0.122687
0.141426 0.141426 0.141426
0.167235 0.167235 0.167235
0.197672 0.197672 0.197672
0.228626 0.228626 0.228626
0.258669 0.258669 0.258669
0.286196 0.286196 0.286196
0.312534 0.312534 0.312534
0.339594 0.339594 0.339594
0.359830 0.359830 0.359830
0.387823 0.387823 0.387823
0.423775 0.423775 0.423775
0.445239 0.445239 0.445239
0.466450 0.466450 0.466450
0.491602 0.491602 0.491602
0.520797 0.520797 0.520797
0.540143 0.540143 0.540143
0.562058 0.562058 0.562058
0.585539 0.585539 0.585539
0.610964 0.610964 0.610964
0.636261 0.636261 0.636261
0.661540 0.661540 0.661540
0.687134 0.687134 0.687134
0.716370 0.716370 0.716370
0.739916 0.739916 0.739916
0.766572 0.766572 0.766572
0.788835 0.788835 0.788835
0.810731 0.810731 0.810731
0.828411 0.828411 0.828411
0.828413 0.828413 0.828413
0.112225 0.112225 0.112225
0.113497 0.113497 0.113497
0.118478 0.118478 0.118478
0.129636 0.129636 0.129636
0.149170 0.149170 0.149170
0.174080 0.174080 0.174080
0.202551 0.202551 0.202551
0.232717 0.232717 0.232717
0.262793 0.262793 0.262793
0.289380 0.289380 0.289380
0.315488 0.315488 0.315488
0.341613 0.341613 0.341613
0.367547 0.367547 0.367547
0.395109 0.395109 0.395109
0.430755 0.430755 0.430755
0.452523 0.452523 0.452523
0.473874 0.473874 0.473874
0.499661 0.499661 0.499661
0.529213 0.529213 0.529213
0.548894 0.548894 0.548894
0.570453 0.570453 0.570453
0.593942 0.593942 0.593942
0.618783 0.618783 0.618783
0.642250 0.642250 0.642250
0.666539 0.666539 0.666539
0.691555 0.691555 0.691555
0.719626 0.719626 0.719626
0.743045 0.743045 0.743045
0.769458 0.769458 0.769458
0.791743 0.791743 0.791743
0.814836 0.814836 0.814836
0.828424 0.828424 0.828424
0.828424 0.828424 0.828424
0.124188 0.124188 0.124188
0.125430 0.125430 0.125430
0.130553 0.130553 0.130553
0.142562 0.142562 0.142562
0.162764 0.162764 0.162764
0.186022 0.186022 0.186022
0.214831 0.214831 0.214831
0.243485 0.243485 0.243485
0.272794 0.272794 0.272794
0.298163 0.298163 0.298163
0.324774 0.324774 0.324774
0.350990 0.350990 0.350990
0.376618 0.376618 0.376618
0.402878 0.402878 0.402878
0.437414 0.437414 0.437414
0.459543 0.459543 0.459543
0.480900 0.480900 0.480900
0.506664 0.506664 0.506664
0.536675 0.536675 0.536675
0.557126 0.557126 0.557126
0.578902 0.578902 0.578902
0.602580 0.602580 0.602580
0.626670 0.626670 0.626670
0.649169 0.649169 0.649169
0.672408 0.672408 0.672408
0.696538 0.696538 0.696538
0.723412 0.723412 0.723412
0.746555 0.746555 0.746555
0.772671 0.772671 0.772671
0.794575 0.794575 0.794575
0.817336 0.817336 0.817336
0.838989 0.838989 0.838989
0.861133 0.861133 0.861133
0.143204 0.143204 0.143204
0.144680 0.144680 0.144680
0.150242 0.150242 0.150242
0.161683 0.161683 0.161683
0.182558 0.182558 0.182558
0.204905 0.204905 0.204905
0.232683 0.232683 0.232683
0.261382 0.261382 0.261382
0.288129 0.288129 0.288129
0.314837 0.314837 0.314837
0.342166 0.342166 0.342166
0.368194 0.368194 0.368194
0.394439 0.394439 0.394439
0.419911 0.419911 0.419911
0.444452 0.444452 0.444452
0.466132 0.466132 0.466132
0.487915 0.487915 0.487915
0.513751 0.513751 0.513751
0.543906 0.543906 0.543906
0.564652 0.564652 0.564652
0.586970 0.586970 0.586970
0.611105 0.611105 0.611105
0.635013 0.635013 0.635013
0.656705 0.656705 0.656705
0.678905 0.678905 0.678905
0.702339 0.702339 0.702339
0.727796 0.727796 0.727796
0.750553 0.750553 0.750553
0.776164 0.776164 0.776164
0.797671 0.797671 0.797671
0.820244 0.820244 0.820244
0.841540 0.841540 0.841540
0.862215 0.862215 0.862215
0.157310 0.157310 0.157310
0.158698 0.158698 0.158698
0.163915 0.163915 0.163915
0.174479 0.174479 0.174479
0.193084 0.193084 0.193084
0.216595 0.216595 0.216595
0.243221 0.243221 0.243221
0.269481 0.269481 0.269481
0.294356 0.294356 0.294356
0.321223 0.321223 0.321223
0.347665 0.347665 0.347665
0.373355 0.373355 0.373355
0.399675 0.399675 0.399675
0.424672 0.424672 0.424672
0.448791 0.448791 0.448791
0.473188 0.473188 0.473188
0.494652 0.494652 0.494652
0.520508 0.520508 0.520508
0.550893 0.550893 0.550893
0.572108 0.572108 0.572108
0.594491 0.594491 0.594491
0.619099 0.619099 0.619099
0.643354 0.643354 0.643354
0.664387 0.664387 0.664387
0.686118 0.686118 0.686118
0.708830 0.708830 0.708830
0.732703 0.732703 0.732703
0.754917 0.754917 0.754917
0.779855 0.779855 0.779855
0.800779 0.800779 0.800779
0.823185 0.823185 0.823185
0.844484 0.844484 0.844484
0.865026 0.865026 0.865026
0.171880 0.171880 0.171880
0.173198 0.173198 0.173198
0.178104 0.178104 0.178104
0.187897 0.187897 0.187897
0.205162 0.205162 0.205162
0.227950 0.227950 0.227950
0.250754 0.250754 0.250754
0.276246 0.276246 0.276246
0.300928 0.300928 0.300928
0.327234 0.327234 0.327234
0.353045 0.353045 0.353045
0.378746 0.378746 0.378746
0.405070 0.405070 0.405070
0.429079 0.429079 0.429079
0.453177 0.453177 0.453177
0.477404 0.477404 0.477404
0.501718 0.501718 0.501718
0.527179 0.527179 0.527179
0.557446 0.557446 0.557446
0.578843 0.578843 0.578843
0.601705 0.601705 0.601705
0.626518 0.626518 0.626518
0.651118 0.651118 0.651118
0.672157 0.672157 0.672157
0.693791 0.693791 0.693791
0.715838 0.715838 0.715838
0.738179 0.738179 0.738179
0.759643 0.759643 0.759643
0.783446 0.783446 0.783446
0.804000 0.804000 0.804000
0.826154 0.826154 0.826154
0.847255 0.847255 0.847255
0.869979 0.869979 0.869979
0.189873 0.189873 0.189873
0.191139 0.191139 0.191139
0.195832 0.195832 0.195832
0.205554 0.205554 0.205554
0.221226 0.221226 0.221226
0.243634 0.243634 0.243634
0.263845 0.263845 0.263845
0.288052 0.288052 0.288052
0.311924 0.311924 0.311924
0.337206 0.337206 0.337206
0.362566 0.362566 0.362566
0.388409 0.388409 0.388409
0.414334 0.414334 0.414334
0.437773 0.437773 0.437773
0.461832 0.461832 0.461832
0.485748 0.485748 0.485748
0.509975 0.509975 0.509975
0.534048 0.534048 0.534048
0.563971 0.563971 0.563971
0.585633 0.585633 0.585633
0.608514 0.608514 0.608514
0.633697 0.633697 0.633697
0.658398 0.658398 0.658398
0.679653 0.679653 0.679653
0.701580 0.701580 0.701580
0.722884 0.722884 0.722884
0.744311 0.744311 0.744311
0.764954 0.764954 0.764954
0.787227 0.787227 0.787227
0.807548 0.807548 0.807548
0.829298 0.829298 0.829298
0.850164 0.850164 0.850164
0.872690 0.872690 0.872690
0.213161 0.213161 0.213161
0.214491 0.214491 0.214491
0.218733 0.218733 0.218733
0.226831 0.226831 0.226831
0.240212 0.240212 0.240212
0.261210 0.261210 0.261210
0.280422 0.280422 0.280422
0.302773 0.302773 0.302773
0.326143 0.326143 0.326143
0.351588 0.351588 0.351588
0.377091 0.377091 0.377091
0.402916 0.402916 0.402916
0.427032 0.427032 0.427032
0.450726 0.450726 0.450726
0.474575 0.474575 0.474575
0.498987 0.498987 0.498987
0.522601 0.522601 0.522601
0.546372 0.546372 0.546372
0.570567 0.570567 0.570567
0.592237 0.592237 0.592237
0.615416 0.615416 0.615416
0.640593 0.640593 0.640593
0.665380 0.665380 0.665380
0.687007 0.687007 0.687007
0.708931 0.708931 0.708931
0.730011 0.730011 0.730011
0.750802 0.750802 0.750802
0.770776 0.770776 0.770776
0.791564 0.791564 0.791564
0.811201 0.811201 0.811201
0.832601 0.832601 0.832601
0.853222 0.853222 0.853222
0.875479 0.875479 0.875479
0.228789 0.228789 0.228789
0.229853 0.229853 0.229853
0.233766 0.233766 0.233766
0.241356 0.241356 0.241356
0.253759 0.253759 0.253759
0.272311 0.272311 0.272311
0.291215 0.291215 0.291215
0.311083 0.311083 0.311083
0.335338 0.335338 0.335338
0.359579 0.359579 0.359579
0.383369 0.383369 0.383369
0.408628 0.408628 0.408628
0.432304 0.432304 0.432304
0.455949 0.455949 0.455949
0.479787 0.479787 0.479787
0.503775 0.503775 0.503775
0.527271 0.527271 0.527271
0.551019 0.551019 0.551019
0.574737 0.574737 0.574737
0.599046 0.599046 0.599046
0.622017 0.622017 0.622017
0.647323 0.647323 0.647323
0.672105 0.672105 0.672105
0.694095 0.694095 0.694095
0.716311 0.716311 0.716311
0.736969 0.736969 0.736969
0.757487 0.757487 0.757487
0.776971 0.776971 0.776971
0.796148 0.796148 0.796148
0.815003 0.815003 0.815003
0.836001 0.836001 0.836001
0.856271 0.856271 0.856271
0.878207 0.878207 0.878207
0.245783 0.245783 0.245783
0.246796 0.246796 0.246796
0.250514 0.250514 0.250514
0.257687 0.257687 0.257687
0.269302 0.269302 0.269302
0.284064 0.284064 0.284064
0.304165 0.304165 0.304165
0.322219 0.322219 0.322219
0.346908 0.346908 0.346908
0.367846 0.367846 0.367846
0.392561 0.392561 0.392561
0.417466 0.417466 0.417466
0.440164 0.440164 0.440164
0.463259 0.463259 0.463259
0.486822 0.486822 0.486822
0.510601 0.510601 0.510601
0.533633 0.533633 0.533633
0.556938 0.556938 0.556938
0.580904 0.580904 0.580904
0.604546 0.604546 0.604546
0.628897 0.628897 0.628897
0.653611 0.653611 0.653611
0.678541 0.678541 0.678541
0.700938 0.700938 0.700938
0.722965 0.722965 0.722965
0.743964 0.743964 0.743964
0.764365 0.764365 0.764365
0.782934 0.782934 0.782934
0.801025 0.801025 0.801025
0.819172 0.819172 0.819172
0.839406 0.839406 0.839406
0.859414 0.859414 0.859414
0.880862 0.880862 0.880862
0.265283 0.265283 0.265283
0.266256 0.266256 0.266256
0.269742 0.269742 0.269742
0.275480 0.275480 0.275480
0.284652 0.284652 0.284652
0.298314 0.298314 0.298314
0.318812 0.318812 0.318812
0.336533 0.336533 0.336533
0.357813 0.357813 0.357813
0.380175 0.380175 0.380175
0.404856 0.404856 0.404856
0.426602 0.426602 0.426602
0.449578 0.449578 0.449578
0.472900 0.472900 0.472900
0.496142 0.496142 0.496142
0.519367 0.519367 0.519367
0.542323 0.542323 0.542323
0.565425 0.565425 0.565425
0.588804 0.588804 0.588804
0.612789 0.612789 0.612789
0.636345 0.636345 0.636345
0.660129 0.660129 0.660129
0.684829 0.684829 0.684829
0.707546 0.707546 0.707546
0.729383 0.729383 0.729383
0.750574 0.750574 0.750574
0.771297 0.771297 0.771297
0.788894 0.788894 0.788894
0.806298 0.806298 0.806298
0.823644 0.823644 0.823644
0.843063 0.843063 0.843063
0.862596 0.862596 0.862596
0.883298 0.883298 0.883298
0.283346 0.283346 0.283346
0.284124 0.284124 0.284124
0.286963 0.286963 0.286963
0.292382 0.292382 0.292382
0.300993 0.300993 0.300993
0.314147 0.314147 0.314147
0.333117 0.333117 0.333117
0.351666 0.351666 0.351666
0.370732 0.370732 0.370732
0.394523 0.394523 0.394523
0.415564 0.415564 0.415564
0.437997 0.437997 0.437997
0.461152 0.461152 0.461152
0.483044 0.483044 0.483044
0.505799 0.505799 0.505799
0.528573 0.528573 0.528573
0.551508 0.551508 0.551508
0.574514 0.574514 0.574514
0.597664 0.597664 0.597664
0.621112 0.621112 0.621112
0.644810 0.644810 0.644810
0.667818 0.667818 0.667818
0.691234 0.691234 0.691234
0.714134 0.714134 0.714134
0.735685 0.735685 0.735685
0.756952 0.756952 0.756952
0.778033 0.778033 0.778033
0.794836 0.794836 0.794836
0.811997 0.811997 0.811997
0.828499 0.828499 0.828499
0.847009 0.847009 0.847009
0.865762 0.865762 0.865762
0.885109 0.885109 0.885109
0.299667 0.299667 0.299667
0.300398 0.300398 0.300398
0.303114 0.303114 0.303114
0.308375 0.308375 0.308375
0.316707 0.316707 0.316707
0.328948 0.328948 0.328948
0.345807 0.345807 0.345807
0.365764 0.365764 0.365764
0.382900 0.382900 0.382900
0.405921 0.405921 0.405921
0.425623 0.425623 0.425623
0.448402 0.448402 0.448402
0.468971 0.468971 0.468971
0.491654 0.491654 0.491654
0.514713 0.514713 0.514713
0.536588 0.536588 0.536588
0.558923 0.558923 0.558923
0.581599 0.581599 0.581599
0.604554 0.604554 0.604554
0.627742 0.627742 0.627742
0.651088 0.651088 0.651088
0.673905 0.673905 0.673905
0.697196 0.697196 0.697196
0.720509 0.720509 0.720509
0.741894 0.741894 0.741894
0.763220 0.763220 0.763220
0.783953 0.783953 0.783953
0.800698 0.800698 0.800698
0.817738 0.817738 0.817738
0.833729 0.833729 0.833729
0.851273 0.851273 0.851273
0.869152 0.869152 0.869152
0.886876 0.886876 0.886876
0.317604 0.317604 0.317604
0.318321 0.318321 0.318321
0.320932 0.320932 0.320932
0.325894 0.325894 0.325894
0.333723 0.333723 0.333723
0.344622 0.344622 0.344622
0.359922 0.359922 0.359922
0.381406 0.381406 0.381406
0.397007 0.397007 0.397007
0.416941 0.416941 0.416941
0.437920 0.437920 0.437920
0.457882 0.457882 0.457882
0.479674 0.479674 0.479674
0.501919 0.501919 0.501919
0.523068 0.523068 0.523068
0.545223 0.545223 0.545223
0.567718 0.567718 0.567718
0.590204 0.590204 0.590204
0.612649 0.612649 0.612649
0.635399 0.635399 0.635399
0.657995 0.657995 0.657995
0.680521 0.680521 0.680521
0.703292 0.703292 0.703292
0.725989 0.725989 0.725989
0.748111 0.748111 0.748111
0.769308 0.769308 0.769308
0.789783 0.789783 0.789783
0.806481 0.806481 0.806481
0.823574 0.823574 0.823574
0.839276 0.839276 0.839276
0.855921 0.855921 0.855921
0.872893 0.872893 0.872893
0.888588 0.888588 0.888588
0.336712 0.336712 0.336712
0.337353 0.337353 0.337353
0.339688 0.339688 0.339688
0.344115 0.344115 0.344115
0.351070 0.351070 0.351070
0.361170 0.361170 0.361170
0.375356 0.375356 0.375356
0.395138 0.395138 0.395138
0.412506 0.412506 0.412506
0.429516 0.429516 0.429516
0.451993 0.451993 0.451993
0.469683 0.469683 0.469683
0.492357 0.492357 0.492357
0.511944 0.511944 0.511944
0.533875 0.533875 0.533875
0.555433 0.555433 0.555433
0.576771 0.576771 0.576771
0.598742 0.598742 0.598742
0.620924 0.620924 0.620924
0.643377 0.643377 0.643377
0.665420 0.665420 0.665420
0.687669 0.687669 0.687669
0.710108 0.710108 0.710108
0.731803 0.731803 0.731803
0.753640 0.753640 0.753640
0.775352 0.775352 0.775352
0.795556 0.795556 0.795556
0.812362 0.812362 0.812362
0.829502 0.829502 0.829502
0.845043 0.845043 0.845043
0.860800 0.860800 0.860800
0.876873 0.876873 0.876873
0.890726 0.890726 0.890726
0.357011 0.357011 0.357011
0.357591 0.357591 0.357591
0.359704 0.359704 0.359704
0.363712 0.363712 0.363712
0.370018 0.370018 0.370018
0.379206 0.379206 0.379206
0.392185 0.392185 0.392185
0.410383 0.410383 0.410383
0.428572 0.428572 0.428572
0.443733 0.443733 0.443733
0.463679 0.463679 0.463679
0.483243 0.483243 0.483243
0.503124 0.503124 0.503124
0.523874 0.523874 0.523874
0.544733 0.544733 0.544733
0.565245 0.565245 0.565245
0.587088 0.587088 0.587088
0.608657 0.608657 0.608657
0.629932 0.629932 0.629932
0.651636 0.651636 0.651636
0.673323 0.673323 0.673323
0.695374 0.695374 0.695374
0.717641 0.717641 0.717641
0.739064 0.739064 0.739064
0.760804 0.760804 0.760804
