trix_classic/TriX_Red25_ExtraPunchy.cube
TITLE "Tri-X Red25 ExtraPunchy"
# Adobe RGB in/out. REPLACES AgX. R=0.9735 G=0.0265 B=0.0000
LUT_3D_SIZE 9
DOMAIN_MIN 0.0 0.0 0.0
DOMAIN_MAX 1.0 1.0 1.0
0.092237 0.092237 0.092237
0.092237 0.092237 0.092237
0.092237 0.092237 0.092237
0.092237 0.092237 0.092237
0.092237 0.092237 0.092237
0.092237 0.092237 0.092237
0.092237 0.092237 0.092237
0.092237 0.092237 0.092237
0.092237 0.092237 0.092237
0.092237 0.092237 0.092237
0.092694 0.092694 0.092694
0.130591 0.130591 0.130591
0.288155 0.288155 0.288155
0.508098 0.508098 0.508098
0.745929 0.745929 0.745929
0.879371 0.879371 0.879371
0.950972 0.950972 0.950972
0.981111 0.981111 0.981111
0.092237 0.092237 0.092237
0.092729 0.092729 0.092729
0.134598 0.134598 0.134598
0.298984 0.298984 0.298984
0.526862 0.526862 0.526862
0.762730 0.762730 0.762730
0.889248 0.889248 0.889248
0.957768 0.957768 0.957768
0.982747 0.982747 0.982747
0.092237 0.092237 0.092237
0.092750 0.092750 0.092750
0.136999 0.136999 0.136999
0.305507 0.305507 0.305507
0.537943 0.537943 0.537943
0.772734 0.772734 0.772734
0.895075 0.895075 0.895075
0.960324 0.960324 0.960324
0.983705 0.983705 0.983705
0.092237 0.092237 0.092237
0.092764 0.092764 0.092764
0.138729 0.138729 0.138729
0.310221 0.310221 0.310221
0.545947 0.545947 0.545947
0.779910 0.779910 0.779910
0.899232 0.899232 0.899232
0.962141 0.962141 0.962141
0.984386 0.984386 0.984386
0.092237 0.092237 0.092237
0.092775 0.092775 0.092775
0.140282 0.140282 0.140282
0.313927 0.313927 0.313927
0.552236 0.552236 0.552236
0.785523 0.785523 0.785523
0.902470 0.902470 0.902470
0.963553 0.963553 0.963553
0.984914 0.984914 0.984914
0.092237 0.092237 0.092237
0.092785 0.092785 0.092785
0.141633 0.141633 0.141633
0.316988 0.316988 0.316988
0.557429 0.557429 0.557429
0.790139 0.790139 0.790139
0.905124 0.905124 0.905124
0.964708 0.964708 0.964708
0.985346 0.985346 0.985346
0.092237 0.092237 0.092237
0.092792 0.092792 0.092792
0.142785 0.142785 0.142785
0.319600 0.319600 0.319600
0.561858 0.561858 0.561858
0.794062 0.794062 0.794062
0.907374 0.907374 0.907374
0.965686 0.965686 0.965686
0.985711 0.985711 0.985711
0.092237 0.092237 0.092237
0.092799 0.092799 0.092799
0.143791 0.143791 0.143791
0.321879 0.321879 0.321879
0.565723 0.565723 0.565723
0.797477 0.797477 0.797477
0.909327 0.909327 0.909327
0.966534 0.966534 0.966534
0.986028 0.986028 0.986028
0.092237 0.092237 0.092237
0.092237 0.092237 0.092237
0.092237 0.092237 0.092237
0.092237 0.092237 0.092237
0.092237 0.092237 0.092237
0.092237 0.092237 0.092237
0.092237 0.092237 0.092237
0.092237 0.092237 0.092237
0.092237 0.092237 0.092237
0.092237 0.092237 0.092237
0.092694 0.092694 0.092694
0.130591 0.130591 0.130591
0.288155 0.288155 0.288155
0.508098 0.508098 0.508098
0.745929 0.745929 0.745929
0.879371 0.879371 0.879371
0.950972 0.950972 0.950972
0.981111 0.981111 0.981111
0.092237 0.092237 0.092237
0.092729 0.092729 0.092729
0.134598 0.134598 0.134598
0.298984 0.298984 0.298984
0.526862 0.526862 0.526862
0.762730 0.762730 0.762730
0.889248 0.889248 0.889248
0.957768 0.957768 0.957768
0.982747 0.982747 0.982747
0.092237 0.092237 0.092237
0.092750 0.092750 0.092750
0.136999 0.136999 0.136999
0.305507 0.305507 0.305507
0.537943 0.537943 0.537943
0.772734 0.772734 0.772734
0.895075 0.895075 0.895075
0.960324 0.960324 0.960324
0.983705 0.983705 0.983705
0.092237 0.092237 0.092237
0.092764 0.092764 0.092764
0.138729 0.138729 0.138729
0.310221 0.310221 0.310221
0.545947 0.545947 0.545947
0.779910 0.779910 0.779910
0.899232 0.899232 0.899232
0.962141 0.962141 0.962141
0.984386 0.984386 0.984386
0.092237 0.092237 0.092237
0.092775 0.092775 0.092775
0.140282 0.140282 0.140282
0.313927 0.313927 0.313927
0.552236 0.552236 0.552236
0.785523 0.785523 0.785523
0.902470 0.902470 0.902470
0.963553 0.963553 0.963553
0.984914 0.984914 0.984914
0.092237 0.092237 0.092237
0.092785 0.092785 0.092785
0.141633 0.141633 0.141633
0.316988 0.316988 0.316988
0.557429 0.557429 0.557429
0.790139 0.790139 0.790139
0.905124 0.905124 0.905124
0.964708 0.964708 0.964708
0.985346 0.985346 0.985346
0.092237 0.092237 0.092237
0.092792 0.092792 0.092792
0.142785 0.142785 0.142785
0.319600 0.319600 0.319600
0.561858 0.561858 0.561858
0.794062 0.794062 0.794062
0.907374 0.907374 0.907374
0.965686 0.965686 0.965686
0.985711 0.985711 0.985711
0.092237 0.092237 0.092237
0.092799 0.092799 0.092799
0.143791 0.143791 0.143791
0.321879 0.321879 0.321879
0.565723 0.565723 0.565723
0.797477 0.797477 0.797477
0.909327 0.909327 0.909327
0.966534 0.966534 0.966534
0.986028 0.986028 0.986028
0.092237 0.092237 0.092237
0.092237 0.092237 0.092237
0.092237 0.092237 0.092237
0.092237 0.092237 0.092237
0.092237 0.092237 0.092237
0.092237 0.092237 0.092237
0.092237 0.092237 0.092237
0.092237 0.092237 0.092237
0.092237 0.092237 0.092237
0.092237 0.092237 0.092237
0.092694 0.092694 0.092694
0.130591 0.130591 0.130591
0.288155 0.288155 0.288155
0.508098 0.508098 0.508098
0.745929 0.745929 0.745929
0.879371 0.879371 0.879371
0.950972 0.950972 0.950972
0.981111 0.981111 0.981111
0.092237 0.092237 0.092237
0.092729 0.092729 0.092729
0.134598 0.134598 0.134598
0.298984 0.298984 0.298984
0.526862 0.526862 0.526862
0.762730 0.762730 0.762730
0.889248 0.889248 0.889248
0.957768 0.957768 0.957768
0.982747 0.982747 0.982747
0.092237 0.092237 0.092237
0.092750 0.092750 0.092750
0.136999 0.136999 0.136999
0.305507 0.305507 0.305507
0.537943 0.537943 0.537943
0.772734 0.772734 0.772734
0.895075 0.895075 0.895075
0.960324 0.960324 0.960324
0.983705 0.983705 0.983705
0.092237 0.092237 0.092237
0.092764 0.092764 0.092764
0.138729 0.138729 0.138729
0.310221 0.310221 0.310221
0.545947 0.545947 0.545947
0.779910 0.779910 0.779910
0.899232 0.899232 0.899232
0.962141 0.962141 0.962141
0.984386 0.984386 0.984386
0.092237 0.092237 0.092237
0.092775 0.092775 0.092775
0.140282 0.140282 0.140282
0.313927 0.313927 0.313927
0.552236 0.552236 0.552236
0.785523 0.785523 0.785523
0.902470 0.902470 0.902470
0.963553 0.963553 0.963553
0.984914 0.984914 0.984914
0.092237 0.092237 0.092237
0.092785 0.092785 0.092785
0.141633 0.141633 0.141633
0.316988 0.316988 0.316988
0.557429 0.557429 0.557429
0.790139 0.790139 0.790139
0.905124 0.905124 0.905124
0.964708 0.964708 0.964708
0.985346 0.985346 0.985346
0.092237 0.092237 0.092237
0.092792 0.092792 0.092792
0.142785 0.142785 0.142785
0.319600 0.319600 0.319600
0.561858 0.561858 0.561858
0.794062 0.794062 0.794062
0.907374 0.907374 0.907374
0.965686 0.965686 0.965686
0.985711 0.985711 0.985711
0.092237 0.092237 0.092237
0.092799 0.092799 0.092799
0.143791 0.143791 0.143791
0.321879 0.321879 0.321879
0.565723 0.565723 0.565723
0.797477 0.797477 0.797477
0.909327 0.909327 0.909327
0.966534 0.966534 0.966534
0.986028 0.986028 0.986028
0.092237 0.092237 0.092237
0.092237 0.092237 0.092237
0.092237 0.092237 0.092237
0.092237 0.092237 0.092237
0.092237 0.092237 0.092237
0.092237 0.092237 0.092237
0.092237 0.092237 0.092237
0.092237 0.092237 0.092237
0.092237 0.092237 0.092237
0.092237 0.092237 0.092237
0.092694 0.092694 0.092694
0.130591 0.130591 0.130591
0.288155 0.288155 0.288155
0.508098 0.508098 0.508098
0.745929 0.745929 0.745929
0.879371 0.879371 0.879371
0.950972 0.950972 0.950972
0.981111 0.981111 0.981111
0.092237 0.092237 0.092237
0.092729 0.092729 0.092729
0.134598 0.134598 0.134598
0.298984 0.298984 0.298984
0.526862 0.526862 0.526862
0.762730 0.762730 0.762730
0.889248 0.889248 0.889248
0.957768 0.957768 0.957768
0.982747 0.982747 0.982747
0.092237 0.092237 0.092237
0.092750 0.092750 0.092750
0.136999 0.136999 0.136999
0.305507 0.305507 0.305507
0.537943 0.537943 0.537943
0.772734 0.772734 0.772734
0.895075 0.895075 0.895075
0.960324 0.960324 0.960324
0.983705 0.983705 0.983705
0.092237 0.092237 0.092237
0.092764 0.092764 0.092764
0.138729 0.138729 0.138729
0.310221 0.310221 0.310221
0.545947 0.545947 0.545947
0.779910 0.779910 0.779910
0.899232 0.899232 0.899232
0.962141 0.962141 0.962141
0.984386 0.984386 0.984386
0.092237 0.092237 0.092237
0.092775 0.092775 0.092775
0.140282 0.140282 0.140282
0.313927 0.313927 0.313927
0.552236 0.552236 0.552236
0.785523 0.785523 0.785523
0.902470 0.902470 0.902470
0.963553 0.963553 0.963553
0.984914 0.984914 0.984914
0.092237 0.092237 0.092237
0.092785 0.092785 0.092785
0.141633 0.141633 0.141633
0.316988 0.316988 0.316988
0.557429 0.557429 0.557429
0.790139 0.790139 0.790139
0.905124 0.905124 0.905124
0.964708 0.964708 0.964708
0.985346 0.985346 0.985346
0.092237 0.092237 0.092237
0.092792 0.092792 0.092792
0.142785 0.142785 0.142785
0.319600 0.319600 0.319600
0.561858 0.561858 0.561858
0.794062 0.794062 0.794062
0.907374 0.907374 0.907374
0.965686 0.965686 0.965686
0.985711 0.985711 0.985711
0.092237 0.092237 0.092237
0.092799 0.092799 0.092799
0.143791 0.143791 0.143791
0.321879 0.321879 0.321879
0.565723 0.565723 0.565723
0.797477 0.797477 0.797477
0.909327 0.909327 0.909327
0.966534 0.966534 0.966534
0.986028 0.986028 0.986028
0.092237 0.092237 0.092237
0.092237 0.092237 0.092237
0.092237 0.092237 0.092237
0.092237 0.092237 0.092237
0.092237 0.092237 0.092237
0.092237 0.092237 0.092237
0.092237 0.092237 0.092237
0.092237 0.092237 0.092237
0.092237 0.092237 0.092237
0.092237 0.092237 0.092237
0.092694 0.092694 0.092694
0.130591 0.130591 0.130591
0.288155 0.288155 0.288155
0.508098 0.508098 0.508098
0.745929 0.745929 0.745929
0.879371 0.879371 0.879371
0.950972 0.950972 0.950972
0.981111 0.981111 0.981111
0.092237 0.092237 0.092237
0.092729 0.092729 0.092729
0.134598 0.134598 0.134598
0.298984 0.298984 0.298984
0.526862 0.526862 0.526862
0.762730 0.762730 0.762730
0.889248 0.889248 0.889248
0.957768 0.957768 0.957768
0.982747 0.982747 0.982747
0.092237 0.092237 0.092237
0.092750 0.092750 0.092750
0.136999 0.136999 0.136999
0.305507 0.305507 0.305507
0.537943 0.537943 0.537943
0.772734 0.772734 0.772734
0.895075 0.895075 0.895075
0.960324 0.960324 0.960324
0.983705 0.983705 0.983705
0.092237 0.092237 0.092237
0.092764 0.092764 0.092764
0.138729 0.138729 0.138729
0.310221 0.310221 0.310221
0.545947 0.545947 0.545947
0.779910 0.779910 0.779910
0.899232 0.899232 0.899232
0.962141 0.962141 0.962141
0.984386 0.984386 0.984386
0.092237 0.092237 0.092237
0.092775 0.092775 0.092775
0.140282 0.140282 0.140282
0.313927 0.313927 0.313927
0.552236 0.552236 0.552236
0.785523 0.785523 0.785523
0.902470 0.902470 0.902470
0.963553 0.963553 0.963553
0.984914 0.984914 0.984914
0.092237 0.092237 0.092237
0.092785 0.092785 0.092785
0.141633 0.141633 0.141633
0.316988 0.316988 0.316988
0.557429 0.557429 0.557429
0.790139 0.790139 0.790139
0.905124 0.905124 0.905124
0.964708 0.964708 0.964708
0.985346 0.985346 0.985346
0.092237 0.092237 0.092237
0.092792 0.092792 0.092792
0.142785 0.142785 0.142785
0.319600 0.319600 0.319600
0.561858 0.561858 0.561858
0.794062 0.794062 0.794062
0.907374 0.907374 0.907374
0.965686 0.965686 0.965686
0.985711 0.985711 0.985711
0.092237 0.092237 0.092237
0.092799 0.092799 0.092799
0.143791 0.143791 0.143791
0.321879 0.321879 0.321879
0.565723 0.565723 0.565723
0.797477 0.797477 0.797477
0.909327 0.909327 0.909327
0.966534 0.966534 0.966534
0.986028 0.986028 0.986028
0.092237 0.092237 0.092237
0.092237 0.092237 0.092237
0.092237 0.092237 0.092237
0.092237 0.092237 0.092237
0.092237 0.092237 0.092237
0.092237 0.092237 0.092237
0.092237 0.092237 0.092237
0.092237 0.092237 0.092237
0.092237 0.092237 0.092237
0.092237 0.092237 0.092237
0.092694 0.092694 0.092694
0.130591 0.130591 0.130591
0.288155 0.288155 0.288155
0.508098 0.508098 0.508098
0.745929 0.745929 0.745929
0.879371 0.879371 0.879371
0.950972 0.950972 0.950972
0.981111 0.981111 0.981111
0.092237 0.092237 0.092237
0.092729 0.092729 0.092729
0.134598 0.134598 0.134598
0.298984 0.298984 0.298984
0.526862 0.526862 0.526862
0.762730 0.762730 0.762730
0.889248 0.889248 0.889248
0.957768 0.957768 0.957768
0.982747 0.982747 0.982747
0.092237 0.092237 0.092237
0.092750 0.092750 0.092750
0.136999 0.136999 0.136999
0.305507 0.305507 0.305507
0.537943 0.537943 0.537943
0.772734 0.772734 0.772734
0.895075 0.895075 0.895075
0.960324 0.960324 0.960324
0.983705 0.983705 0.983705
0.092237 0.092237 0.092237
0.092764 0.092764 0.092764
0.138729 0.138729 0.138729
0.310221 0.310221 0.310221
0.545947 0.545947 0.545947
0.779910 0.779910 0.779910
0.899232 0.899232 0.899232
0.962141 0.962141 0.962141
0.984386 0.984386 0.984386
0.092237 0.092237 0.092237
0.092775 0.092775 0.092775
0.140282 0.140282 0.140282
0.313927 0.313927 0.313927
0.552236 0.552236 0.552236
0.785523 0.785523 0.785523
0.902470 0.902470 0.902470
0.963553 0.963553 0.963553
0.984914 0.984914 0.984914
0.092237 0.092237 0.092237
0.092785 0.092785 0.092785
0.141633 0.141633 0.141633
0.316988 0.316988 0.316988
0.557429 0.557429 0.557429
0.790139 0.790139 0.790139
0.905124 0.905124 0.905124
0.964708 0.964708 0.964708
0.985346 0.985346 0.985346
0.092237 0.092237 0.092237
0.092792 0.092792 0.092792
0.142785 0.142785 0.142785
0.319600 0.319600 0.319600
0.561858 0.561858 0.561858
0.794062 0.794062 0.794062
0.907374 0.907374 0.907374
0.965686 0.965686 0.965686
0.985711 0.985711 0.985711
0.092237 0.092237 0.092237
0.092799 0.092799 0.092799
0.143791 0.143791 0.143791
0.321879 0.321879 0.321879
0.565723 0.565723 0.565723
0.797477 0.797477 0.797477
0.909327 0.909327 0.909327
0.966534 0.966534 0.966534
0.986028 0.986028 0.986028
0.092237 0.092237 0.092237
0.092237 0.092237 0.092237
0.092237 0.092237 0.092237
0.092237 0.092237 0.092237
0.092237 0.092237 0.092237
0.092237 0.092237 0.092237
0.092237 0.092237 0.092237
0.092237 0.092237 0.092237
0.092237 0.092237 0.092237
0.092237 0.092237 0.092237
0.092694 0.092694 0.092694
0.130591 0.130591 0.130591
0.288155 0.288155 0.288155
0.508098 0.508098 0.508098
0.745929 0.745929 0.745929
0.879371 0.879371 0.879371
0.950972 0.950972 0.950972
0.981111 0.981111 0.981111
0.092237 0.092237 0.092237
0.092729 0.092729 0.092729
0.134598 0.134598 0.134598
0.298984 0.298984 0.298984
0.526862 0.526862 0.526862
0.762730 0.762730 0.762730
0.889248 0.889248 0.889248
0.957768 0.957768 0.957768
0.982747 0.982747 0.982747
0.092237 0.092237 0.092237
0.092750 0.092750 0.092750
0.136999 0.136999 0.136999
0.305507 0.305507 0.305507
0.537943 0.537943 0.537943
0.772734 0.772734 0.772734
0.895075 0.895075 0.895075
0.960324 0.960324 0.960324
0.983705 0.983705 0.983705
0.092237 0.092237 0.092237
0.092764 0.092764 0.092764
0.138729 0.138729 0.138729
0.310221 0.310221 0.310221
0.545947 0.545947 0.545947
0.779910 0.779910 0.779910
0.899232 0.899232 0.899232
0.962141 0.962141 0.962141
0.984386 0.984386 0.984386
0.092237 0.092237 0.092237
0.092775 0.092775 0.092775
0.140282 0.140282 0.140282
0.313927 0.313927 0.313927
0.552236 0.552236 0.552236
0.785523 0.785523 0.785523
0.902470 0.902470 0.902470
0.963553 0.963553 0.963553
0.984914 0.984914 0.984914
0.092237 0.092237 0.092237
0.092785 0.092785 0.092785
0.141633 0.141633 0.141633
0.316988 0.316988 0.316988
0.557429 0.557429 0.557429
0.790139 0.790139 0.790139
0.905124 0.905124 0.905124
0.964708 0.964708 0.964708
0.985346 0.985346 0.985346
0.092237 0.092237 0.092237
0.092792 0.092792 0.092792
0.142785 0.142785 0.142785
0.319600 0.319600 0.319600
0.561858 0.561858 0.561858
0.794062 0.794062 0.794062
0.907374 0.907374 0.907374
0.965686 0.965686 0.965686
0.985711 0.985711 0.985711
0.092237 0.092237 0.092237
0.092799 0.092799 0.092799
0.143791 0.143791 0.143791
0.321879 0.321879 0.321879
0.565723 0.565723 0.565723
0.797477 0.797477 0.797477
0.909327 0.909327 0.909327
0.966534 0.966534 0.966534
0.986028 0.986028 0.986028
0.092237 0.092237 0.092237
0.092237 0.092237 0.092237
0.092237 0.092237 0.092237
0.092237 0.092237 0.092237
0.092237 0.092237 0.092237
0.092237 0.092237 0.092237
0.092237 0.092237 0.092237
0.092237 0.092237 0.092237
0.092237 0.092237 0.092237
0.092237 0.092237 0.092237
0.092694 0.092694 0.092694
0.130591 0.130591 0.130591
0.288155 0.288155 0.288155
0.508098 0.508098 0.508098
0.745929 0.745929 0.745929
0.879371 0.879371 0.879371
0.950972 0.950972 0.950972
0.981111 0.981111 0.981111
0.092237 0.092237 0.092237
0.092729 0.092729 0.092729
0.134598 0.134598 0.134598
0.298984 0.298984 0.298984
0.526862 0.526862 0.526862
0.762730 0.762730 0.762730
0.889248 0.889248 0.889248
0.957768 0.957768 0.957768
0.982747 0.982747 0.982747
0.092237 0.092237 0.092237
0.092750 0.092750 0.092750
0.136999 0.136999 0.136999
0.305507 0.305507 0.305507
0.537943 0.537943 0.537943
0.772734 0.772734 0.772734
0.895075 0.895075 0.895075
0.960324 0.960324 0.960324
0.983705 0.983705 0.983705
0.092237 0.092237 0.092237
0.092764 0.092764 0.092764
0.138729 0.138729 0.138729
0.310221 0.310221 0.310221
0.545947 0.545947 0.545947
0.779910 0.779910 0.779910
0.899232 0.899232 0.899232
0.962141 0.962141 0.962141
0.984386 0.984386 0.984386
0.092237 0.092237 0.092237
0.092775 0.092775 0.092775
0.140282 0.140282 0.140282
0.313927 0.313927 0.313927
0.552236 0.552236 0.552236
0.785523 0.785523 0.785523
0.902470 0.902470 0.902470
0.963553 0.963553 0.963553
0.984914 0.984914 0.984914
0.092237 0.092237 0.092237
0.092785 0.092785 0.092785
0.141633 0.141633 0.141633
0.316988 0.316988 0.316988
0.557429 0.557429 0.557429
0.790139 0.790139 0.790139
0.905124 0.905124 0.905124
0.964708 0.964708 0.964708
0.985346 0.985346 0.985346
0.092237 0.092237 0.092237
0.092792 0.092792 0.092792
0.142785 0.142785 0.142785
0.319600 0.319600 0.319600
0.561858 0.561858 0.561858
0.794062 0.794062 0.794062
0.907374 0.907374 0.907374
0.965686 0.965686 0.965686
0.985711 0.985711 0.985711
0.092237 0.092237 0.092237
0.092799 0.092799 0.092799
0.143791 0.143791 0.143791
0.321879 0.321879 0.321879
0.565723 0.565723 0.565723
0.797477 0.797477 0.797477
0.909327 0.909327 0.909327
0.966534 0.966534 0.966534
0.986028 0.986028 0.986028
0.092237 0.092237 0.092237
0.092237 0.092237 0.092237
0.092237 0.092237 0.092237
0.092237 0.092237 0.092237
0.092237 0.092237 0.092237
0.092237 0.092237 0.092237
0.092237 0.092237 0.092237
0.092237 0.092237 0.092237
0.092237 0.092237 0.092237
0.092237 0.092237 0.092237
0.092694 0.092694 0.092694
0.130591 0.130591 0.130591
0.288155 0.288155 0.288155
0.508098 0.508098 0.508098
0.745929 0.745929 0.745929
0.879371 0.879371 0.879371
0.950972 0.950972 0.950972
0.981111 0.981111 0.981111
0.092237 0.092237 0.092237
0.092729 0.092729 0.092729
0.134598 0.134598 0.134598
0.298984 0.298984 0.298984
0.526862 0.526862 0.526862
0.762730 0.762730 0.762730
0.889248 0.889248 0.889248
0.957768 0.957768 0.957768
0.982747 0.982747 0.982747
0.092237 0.092237 0.092237
0.092750 0.092750 0.092750
0.136999 0.136999 0.136999
0.305507 0.305507 0.305507
0.537943 0.537943 0.537943
0.772734 0.772734 0.772734
0.895075 0.895075 0.895075
0.960324 0.960324 0.960324
0.983705 0.983705 0.983705
0.092237 0.092237 0.092237
0.092764 0.092764 0.092764
0.138729 0.138729 0.138729
0.310221 0.310221 0.310221
0.545947 0.545947 0.545947
0.779910 0.779910 0.779910
0.899232 0.899232 0.899232
0.962141 0.962141 0.962141
0.984386 0.984386 0.984386
0.092237 0.092237 0.092237
0.092775 0.092775 0.092775
0.140282 0.140282 0.140282
0.313927 0.313927 0.313927
0.552236 0.552236 0.552236
0.785523 0.785523 0.785523
0.902470 0.902470 0.902470
0.963553 0.963553 0.963553
0.984914 0.984914 0.984914
0.092237 0.092237 0.092237
0.092785 0.092785 0.092785
0.141633 0.141633 0.141633
0.316988 0.316988 0.316988
0.557429 0.557429 0.557429
0.790139 0.790139 0.790139
0.905124 0.905124 0.905124
0.964708 0.964708 0.964708
0.985346 0.985346 0.985346
0.092237 0.092237 0.092237
0.092792 0.092792 0.092792
0.142785 0.142785 0.142785
0.319600 0.319600 0.319600
0.561858 0.561858 0.561858
0.794062 0.794062 0.794062
0.907374 0.907374 0.907374
0.965686 0.965686 0.965686
0.985711 0.985711 0.985711
0.092237 0.092237 0.092237
0.092799 0.092799 0.092799
0.143791 0.143791 0.143791
0.321879 0.321879 0.321879
0.565723 0.565723 0.565723
0.797477 0.797477 0.797477
0.909327 0.909327 0.909327
0.966534 0.966534 0.966534
0.986028 0.986028 0.986028
