trix_classic/TriX_Red25_Soft.cube
TITLE "Tri-X Red25 Soft"
# Adobe RGB in/out. REPLACES AgX. R=0.9735 G=0.0265 B=0.0000
LUT_3D_SIZE 5
DOMAIN_MIN 0.0 0.0 0.0
DOMAIN_MAX 1.0 1.0 1.0
0.097688 0.097688 0.097688
0.097688 0.097688 0.097688
0.097688 0.097688 0.097688
0.097688 0.097688 0.097688
0.097688 0.097688 0.097688
0.097688 0.097688 0.097688
0.241770 0.241770 0.241770
0.490563 0.490563 0.490563
0.719552 0.719552 0.719552
0.904012 0.904012 0.904012
0.097688 0.097688 0.097688
0.247245 0.247245 0.247245
0.499564 0.499564 0.499564
0.732157 0.732157 0.732157
0.912818 0.912818 0.912818
0.097688 0.097688 0.097688
0.250505 0.250505 0.250505
0.504906 0.504906 0.504906
0.739633 0.739633 0.739633
0.918009 0.918009 0.918009
0.097688 0.097688 0.097688
0.252844 0.252844 0.252844
0.508730 0.508730 0.508730
0.744983 0.744983 0.744983
0.921710 0.921710 0.921710
0.097688 0.097688 0.097688
0.097688 0.097688 0.097688
0.097688 0.097688 0.097688
0.097688 0.097688 0.097688
0.097688 0.097688 0.097688
0.097688 0.097688 0.097688
0.241770 0.241770 0.241770
0.490563 0.490563 0.490563
0.719552 0.719552 0.719552
0.904012 0.904012 0.904012
0.097688 0.097688 0.097688
0.247245 0.247245 0.247245
0.499564 0.499564 0.499564
0.732157 0.732157 0.732157
0.912818 0.912818 0.912818
0.097688 0.097688 0.097688
0.250505 0.250505 0.250505
0.504906 0.504906 0.504906
0.739633 0.739633 0.739633
0.918009 0.918009 0.918009
0.097688 0.097688 0.097688
0.252844 0.252844 0.252844
0.508730 0.508730 0.508730
0.744983 0.744983 0.744983
0.921710 0.921710 0.921710
0.097688 0.097688 0.097688
0.097688 0.097688 0.097688
0.097688 0.097688 0.097688
0.097688 0.097688 0.097688
0.097688 0.097688 0.097688
0.097688 0.097688 0.097688
0.241770 0.241770 0.241770
0.490563 0.490563 0.490563
0.719552 0.719552 0.719552
0.904012 0.904012 0.904012
0.097688 0.097688 0.097688
0.247245 0.247245 0.247245
0.499564 0.499564 0.499564
0.732157 0.732157 0.732157
0.912818 0.912818 0.912818
0.097688 0.097688 0.097688
0.250505 0.250505 0.250505
0.504906 0.504906 0.504906
0.739633 0.739633 0.739633
0.918009 0.918009 0.918009
0.097688 0.097688 0.097688
0.252844 0.252844 0.252844
0.508730 0.508730 0.508730
0.744983 0.744983 0.744983
0.921710 0.921710 0.921710
0.097688 0.097688 0.097688
0.097688 0.097688 0.097688
0.097688 0.097688 0.097688
0.097688 0.097688 0.097688
0.097688 0.097688 0.097688
0.097688 0.097688 0.097688
0.241770 0.241770 0.241770
0.490563 0.490563 0.490563
0.719552 0.719552 0.719552
0.904012 0.904012 0.904012
0.097688 0.097688 0.097688
0.247245 0.247245 0.247245
0.499564 0.499564 0.499564
0.732157 0.732157 0.732157
0.912818 0.912818 0.912818
0.097688 0.097688 0.097688
0.250505 0.250505 0.250505
0.504906 0.504906 0.504906
0.739633 0.739633 0.739633
0.918009 0.918009 0.918009
0.097688 0.097688 0.097688
0.252844 0.252844 0.252844
0.508730 0.508730 0.508730
0.744983 0.744983 0.744983
0.921710 0.921710 0.921710
0.097688 0.097688 0.097688
0.097688 0.097688 0.097688
0.097688 0.097688 0.097688
0.097688 0.097688 0.097688
0.097688 0.097688 0.097688
0.097688 0.097688 0.097688
0.241770 0.241770 0.241770
0.490563 0.490563 0.490563
0.719552 0.719552 0.719552
0.904012 0.904012 0.904012
0.097688 0.097688 0.097688
0.247245 0.247245 0.247245
0.499564 0.499564 0.499564
0.732157 0.732157 0.732157
0.912818 0.912818 0.912818
0.097688 0.097688 0.097688
0.250505 0.250505 0.250505
0.504906 0.504906 0.504906
0.739633 0.739633 0.739633
0.918009 0.918009 0.918009
0.097688 0.097688 0.097688
0.252844 0.252844 0.252844
0.508730 0.508730 0.508730
0.744983 0.744983 0.744983
0.921710 0.921710 0.921710
