trix_classic/TriX_Green58_ExtraSoft.cube
TITLE "Tri-X Green58 ExtraSoft"
# Adobe RGB in/out. REPLACES AgX. R=0.1714 G=0.8069 B=0.0217
LUT_3D_SIZE 9
DOMAIN_MIN 0.0 0.0 0.0
DOMAIN_MAX 1.0 1.0 1.0
0.099726 0.099726 0.099726
0.099726 0.099726 0.099726
0.099726 0.099726 0.099726
0.099726 0.099726 0.099726
0.099726 0.099726 0.099726
0.099726 0.099726 0.099726
0.099726 0.099726 0.099726
0.099726 0.099726 0.099726
0.099726 0.099726 0.099726
0.099726 0.099726 0.099726
0.099726 0.099726 0.099726
0.099726 0.099726 0.099726
0.099726 0.099726 0.099726
0.099726 0.099726 0.099726
0.099726 0.099726 0.099726
0.099726 0.099726 0.099726
0.099726 0.099726 0.099726
0.099726 0.099726 0.099726
0.099726 0.099726 0.099726
0.099726 0.099726 0.099726
0.099726 0.099726 0.099726
0.099726 0.099726 0.099726
0.099726 0.099726 0.099726
0.099726 0.099726 0.099726
0.099726 0.099726 0.099726
0.099726 0.099726 0.099726
0.099726 0.099726 0.099726
0.099726 0.099726 0.099726
0.099726 0.099726 0.099726
0.099726 0.099726 0.099726
0.099726 0.099726 0.099726
0.099726 0.099726 0.099726
0.099726 0.099726 0.099726
0.099726 0.099726 0.099726
0.099726 0.099726 0.099726
0.099726 0.099726 0.099726
0.099726 0.099726 0.099726
0.099726 0.099726 0.099726
0.099726 0.099726 0.099726
0.099726 0.099726 0.099726
0.099726 0.099726 0.099726
0.099726 0.099726 0.099726
0.099726 0.099726 0.099726
0.099726 0.099726 0.099726
0.099726 0.099726 0.099726
0.099726 0.099726 0.099726
0.099726 0.099726 0.099726
0.099726 0.099726 0.099726
0.099726 0.099726 0.099726
0.099726 0.099726 0.099726
0.099726 0.099726 0.099726
0.099726 0.099726 0.099726
0.099726 0.099726 0.099726
0.099726 0.099726 0.099726
0.099726 0.099726 0.099726
0.099726 0.099726 0.099726
0.099726 0.099726 0.099726
0.099726 0.099726 0.099726
0.099726 0.099726 0.099726
0.099726 0.099726 0.099726
0.099726 0.099726 0.099726
0.099726 0.099726 0.099726
0.099726 0.099726 0.099726
0.099726 0.099726 0.099726
0.099726 0.099726 0.099726
0.099726 0.099726 0.099726
0.099726 0.099726 0.099726
0.099726 0.099726 0.099726
0.099726 0.099726 0.099726
0.099726 0.099726 0.099726
0.099726 0.099726 0.099726
0.099726 0.099726 0.099726
0.099726 0.099726 0.099726
0.099726 0.099726 0.099726
0.099726 0.099726 0.099726
0.099726 0.099726 0.099726
0.099726 0.099726 0.099726
0.099726 0.099726 0.099726
0.099726 0.099726 0.099726
0.099726 0.099726 0.099726
0.099726 0.099726 0.099726
0.099726 0.099726 0.099726
0.099726 0.099726 0.099726
0.099726 0.099726 0.099726
0.099726 0.099726 0.099726
0.099726 0.099726 0.099726
0.099726 0.099726 0.099726
0.099726 0.099726 0.099726
0.099726 0.099726 0.099726
0.099726 0.099726 0.099726
0.099726 0.099726 0.099726
0.127675 0.127675 0.127675
0.145463 0.145463 0.145463
0.156104 0.156104 0.156104
0.163978 0.163978 0.163978
0.170370 0.170370 0.170370
0.175777 0.175777 0.175777
0.180482 0.180482 0.180482
0.184660 0.184660 0.184660
0.099726 0.099726 0.099726
0.224848 0.224848 0.224848
0.252264 0.252264 0.252264
0.269714 0.269714 0.269714
0.282823 0.282823 0.282823
0.293345 0.293345 0.293345
0.302192 0.302192 0.302192
0.309880 0.309880 0.309880
0.316794 0.316794 0.316794
0.099726 0.099726 0.099726
0.308015 0.308015 0.308015
0.344909 0.344909 0.344909
0.367464 0.367464 0.367464
0.383890 0.383890 0.383890
0.397136 0.397136 0.397136
0.408297 0.408297 0.408297
0.419108 0.419108 0.419108
0.430057 0.430057 0.430057
0.099726 0.099726 0.099726
0.382031 0.382031 0.382031
0.427413 0.427413 0.427413
0.462230 0.462230 0.462230
0.488639 0.488639 0.488639
0.508892 0.508892 0.508892
0.525759 0.525759 0.525759
0.540440 0.540440 0.540440
0.553488 0.553488 0.553488
0.099726 0.099726 0.099726
0.457956 0.457956 0.457956
0.521262 0.521262 0.521262
0.560423 0.560423 0.560423
0.590537 0.590537 0.590537
0.616088 0.616088 0.616088
0.637784 0.637784 0.637784
0.656723 0.656723 0.656723
0.673582 0.673582 0.673582
0.099726 0.099726 0.099726
0.536875 0.536875 0.536875
0.609348 0.609348 0.609348
0.658101 0.658101 0.658101
0.692468 0.692468 0.692468
0.717685 0.717685 0.717685
0.738968 0.738968 0.738968
0.756624 0.756624 0.756624
0.772078 0.772078 0.772078
0.099726 0.099726 0.099726
0.613127 0.613127 0.613127
0.696093 0.696093 0.696093
0.742822 0.742822 0.742822
0.775895 0.775895 0.775895
0.798762 0.798762 0.798762
0.816341 0.816341 0.816341
0.831506 0.831506 0.831506
0.844870 0.844870 0.844870
0.099726 0.099726 0.099726
0.688933 0.688933 0.688933
0.768354 0.768354 0.768354
0.810078 0.810078 0.810078
0.838388 0.838388 0.838388
0.859793 0.859793 0.859793
0.873867 0.873867 0.873867
0.885947 0.885947 0.885947
0.896545 0.896545 0.896545
0.099726 0.099726 0.099726
0.099726 0.099726 0.099726
0.099726 0.099726 0.099726
0.099726 0.099726 0.099726
0.099726 0.099726 0.099726
0.099726 0.099726 0.099726
0.099726 0.099726 0.099726
0.099726 0.099726 0.099726
0.099726 0.099726 0.099726
0.099726 0.099726 0.099726
0.129806 0.129806 0.129806
0.147890 0.147890 0.147890
0.158460 0.158460 0.158460
0.166468 0.166468 0.166468
0.172957 0.172957 0.172957
0.178446 0.178446 0.178446
0.183223 0.183223 0.183223
0.187457 0.187457 0.187457
0.099726 0.099726 0.099726
0.228154 0.228154 0.228154
0.255950 0.255950 0.255950
0.273656 0.273656 0.273656
0.286952 0.286952 0.286952
0.297580 0.297580 0.297580
0.306555 0.306555 0.306555
0.314365 0.314365 0.314365
0.321532 0.321532 0.321532
0.099726 0.099726 0.099726
0.312461 0.312461 0.312461
0.349695 0.349695 0.349695
0.372409 0.372409 0.372409
0.389057 0.389057 0.389057
0.402481 0.402481 0.402481
0.413792 0.413792 0.413792
0.426287 0.426287 0.426287
0.437424 0.437424 0.437424
0.099726 0.099726 0.099726
0.387173 0.387173 0.387173
0.434735 0.434735 0.434735
0.470148 0.470148 0.470148
0.496695 0.496695 0.496695
0.516969 0.516969 0.516969
0.534085 0.534085 0.534085
0.548999 0.548999 0.548999
0.562253 0.562253 0.562253
0.099726 0.099726 0.099726
0.465802 0.465802 0.465802
0.529517 0.529517 0.529517
0.569298 0.569298 0.569298
0.600479 0.600479 0.600479
0.626460 0.626460 0.626460
0.648521 0.648521 0.648521
0.667779 0.667779 0.667779
0.683947 0.683947 0.683947
0.099726 0.099726 0.099726
0.545377 0.545377 0.545377
0.619607 0.619607 0.619607
0.669180 0.669180 0.669180
0.702299 0.702299 0.702299
0.727874 0.727874 0.727874
0.749077 0.749077 0.749077
0.766767 0.766767 0.766767
0.782428 0.782428 0.782428
0.099726 0.099726 0.099726
0.623449 0.623449 0.623449
0.705975 0.705975 0.705975
0.752780 0.752780 0.752780
0.785971 0.785971 0.785971
0.807194 0.807194 0.807194
0.824959 0.824959 0.824959
0.840284 0.840284 0.840284
0.853789 0.853789 0.853789
0.099726 0.099726 0.099726
0.698714 0.698714 0.698714
0.778654 0.778654 0.778654
0.818630 0.818630 0.818630
0.847239 0.847239 0.847239
0.866554 0.866554 0.866554
0.880739 0.880739 0.880739
0.892913 0.892913 0.892913
0.903594 0.903594 0.903594
0.099726 0.099726 0.099726
0.099726 0.099726 0.099726
0.099726 0.099726 0.099726
0.099726 0.099726 0.099726
0.099726 0.099726 0.099726
0.099726 0.099726 0.099726
0.099726 0.099726 0.099726
0.099726 0.099726 0.099726
0.099726 0.099726 0.099726
0.099726 0.099726 0.099726
0.131069 0.131069 0.131069
0.149329 0.149329 0.149329
0.159863 0.159863 0.159863
0.167942 0.167942 0.167942
0.174488 0.174488 0.174488
0.180026 0.180026 0.180026
0.184846 0.184846 0.184846
0.189065 0.189065 0.189065
0.099726 0.099726 0.099726
0.230163 0.230163 0.230163
0.258132 0.258132 0.258132
0.275989 0.275989 0.275989
0.289368 0.289368 0.289368
0.300085 0.300085 0.300085
0.309136 0.309136 0.309136
0.317107 0.317107 0.317107
0.324337 0.324337 0.324337
0.099726 0.099726 0.099726
0.315130 0.315130 0.315130
0.352526 0.352526 0.352526
0.375333 0.375333 0.375333
0.392112 0.392112 0.392112
0.405641 0.405641 0.405641
0.417915 0.417915 0.417915
0.430544 0.430544 0.430544
0.441792 0.441792 0.441792
0.099726 0.099726 0.099726
0.390213 0.390213 0.390213
0.439076 0.439076 0.439076
0.474843 0.474843 0.474843
0.501302 0.501302 0.501302
0.521742 0.521742 0.521742
0.539017 0.539017 0.539017
0.554068 0.554068 0.554068
0.567445 0.567445 0.567445
0.099726 0.099726 0.099726
0.470453 0.470453 0.470453
0.534406 0.534406 0.534406
0.574555 0.574555 0.574555
0.606371 0.606371 0.606371
0.632608 0.632608 0.632608
0.654886 0.654886 0.654886
0.674332 0.674332 0.674332
0.689611 0.689611 0.689611
0.099726 0.099726 0.099726
0.550413 0.550413 0.550413
0.625687 0.625687 0.625687
0.675747 0.675747 0.675747
0.708115 0.708115 0.708115
0.733901 0.733901 0.733901
0.754935 0.754935 0.754935
0.772763 0.772763 0.772763
0.787744 0.787744 0.787744
0.099726 0.099726 0.099726
0.629568 0.629568 0.629568
0.711821 0.711821 0.711821
0.758667 0.758667 0.758667
0.790814 0.790814 0.790814
0.812168 0.812168 0.812168
0.830042 0.830042 0.830042
0.845462 0.845462 0.845462
0.858321 0.858321 0.858321
0.099726 0.099726 0.099726
0.704499 0.704499 0.704499
0.784743 0.784743 0.784743
0.823674 0.823674 0.823674
0.852459 0.852459 0.852459
0.870533 0.870533 0.870533
0.884783 0.884783 0.884783
0.897013 0.897013 0.897013
0.907744 0.907744 0.907744
0.099726 0.099726 0.099726
0.099726 0.099726 0.099726
0.099726 0.099726 0.099726
0.099726 0.099726 0.099726
0.099726 0.099726 0.099726
0.099726 0.099726 0.099726
0.099726 0.099726 0.099726
0.099726 0.099726 0.099726
0.099726 0.099726 0.099726
0.099726 0.099726 0.099726
0.131972 0.131972 0.131972
0.150358 0.150358 0.150358
0.160866 0.160866 0.160866
0.168996 0.168996 0.168996
0.175583 0.175583 0.175583
0.181156 0.181156 0.181156
0.186005 0.186005 0.186005
0.190214 0.190214 0.190214
0.099726 0.099726 0.099726
0.231631 0.231631 0.231631
0.259691 0.259691 0.259691
0.277655 0.277655 0.277655
0.291094 0.291094 0.291094
0.301876 0.301876 0.301876
0.310980 0.310980 0.310980
0.319067 0.319067 0.319067
0.326342 0.326342 0.326342
0.099726 0.099726 0.099726
0.317078 0.317078 0.317078
0.354548 0.354548 0.354548
0.377422 0.377422 0.377422
0.394294 0.394294 0.394294
0.407898 0.407898 0.407898
0.420871 0.420871 0.420871
0.433590 0.433590 0.433590
0.444918 0.444918 0.444918
0.099726 0.099726 0.099726
0.392384 0.392384 0.392384
0.442182 0.442182 0.442182
0.478202 0.478202 0.478202
0.504596 0.504596 0.504596
0.525156 0.525156 0.525156
0.542544 0.542544 0.542544
0.557693 0.557693 0.557693
0.571158 0.571158 0.571158
0.099726 0.099726 0.099726
0.473782 0.473782 0.473782
0.537902 0.537902 0.537902
0.578314 0.578314 0.578314
0.610588 0.610588 0.610588
0.637007 0.637007 0.637007
0.659439 0.659439 0.659439
0.678968 0.678968 0.678968
0.693657 0.693657 0.693657
0.099726 0.099726 0.099726
0.554014 0.554014 0.554014
0.630038 0.630038 0.630038
0.680171 0.680171 0.680171
0.712270 0.712270 0.712270
0.738207 0.738207 0.738207
0.759119 0.759119 0.759119
0.777046 0.777046 0.777046
0.791185 0.791185 0.791185
0.099726 0.099726 0.099726
0.633945 0.633945 0.633945
0.715998 0.715998 0.715998
0.762872 0.762872 0.762872
0.794268 0.794268 0.794268
0.815715 0.815715 0.815715
0.833668 0.833668 0.833668
0.849155 0.849155 0.849155
0.861115 0.861115 0.861115
0.099726 0.099726 0.099726
0.708633 0.708633 0.708633
0.788174 0.788174 0.788174
0.827272 0.827272 0.827272
0.856183 0.856183 0.856183
0.873367 0.873367 0.873367
0.887664 0.887664 0.887664
0.899934 0.899934 0.899934
0.910699 0.910699 0.910699
0.099726 0.099726 0.099726
0.099726 0.099726 0.099726
0.099726 0.099726 0.099726
0.099726 0.099726 0.099726
0.099726 0.099726 0.099726
0.099726 0.099726 0.099726
0.099726 0.099726 0.099726
0.099726 0.099726 0.099726
0.099726 0.099726 0.099726
0.099726 0.099726 0.099726
0.132677 0.132677 0.132677
0.151085 0.151085 0.151085
0.161649 0.161649 0.161649
0.169818 0.169818 0.169818
0.176437 0.176437 0.176437
0.182037 0.182037 0.182037
0.186910 0.186910 0.186910
0.191110 0.191110 0.191110
0.099726 0.099726 0.099726
0.232715 0.232715 0.232715
0.260907 0.260907 0.260907
0.278955 0.278955 0.278955
0.292441 0.292441 0.292441
0.303272 0.303272 0.303272
0.312418 0.312418 0.312418
0.320596 0.320596 0.320596
0.327905 0.327905 0.327905
0.099726 0.099726 0.099726
0.318597 0.318597 0.318597
0.356125 0.356125 0.356125
0.379050 0.379050 0.379050
0.395994 0.395994 0.395994
0.409657 0.409657 0.409657
0.423179 0.423179 0.423179
0.435968 0.435968 0.435968
0.447358 0.447358 0.447358
0.099726 0.099726 0.099726
0.394077 0.394077 0.394077
0.444607 0.444607 0.444607
0.480825 0.480825 0.480825
0.507166 0.507166 0.507166
0.527819 0.527819 0.527819
0.545295 0.545295 0.545295
0.560521 0.560521 0.560521
0.574054 0.574054 0.574054
0.099726 0.099726 0.099726
0.476380 0.476380 0.476380
0.540630 0.540630 0.540630
0.581253 0.581253 0.581253
0.613878 0.613878 0.613878
0.640439 0.640439 0.640439
0.662993 0.662993 0.662993
0.682056 0.682056 0.682056
0.696812 0.696812 0.696812
0.099726 0.099726 0.099726
0.556824 0.556824 0.556824
0.633433 0.633433 0.633433
0.683265 0.683265 0.683265
0.715510 0.715510 0.715510
0.741565 0.741565 0.741565
0.762380 0.762380 0.762380
0.780385 0.780385 0.780385
0.793864 0.793864 0.793864
0.099726 0.099726 0.099726
0.637361 0.637361 0.637361
0.719255 0.719255 0.719255
0.766149 0.766149 0.766149
0.796958 0.796958 0.796958
0.818477 0.818477 0.818477
0.836491 0.836491 0.836491
0.852030 0.852030 0.852030
0.863289 0.863289 0.863289
0.099726 0.099726 0.099726
0.711857 0.711857 0.711857
0.790843 0.790843 0.790843
0.830073 0.830073 0.830073
0.858344 0.858344 0.858344
0.875572 0.875572 0.875572
0.889905 0.889905 0.889905
0.902206 0.902206 0.902206
0.912998 0.912998 0.912998
0.099726 0.099726 0.099726
0.099726 0.099726 0.099726
0.099726 0.099726 0.099726
0.099726 0.099726 0.099726
0.099726 0.099726 0.099726
0.099726 0.099726 0.099726
0.099726 0.099726 0.099726
0.099726 0.099726 0.099726
0.099726 0.099726 0.099726
0.099726 0.099726 0.099726
0.133256 0.133256 0.133256
0.151654 0.151654 0.151654
0.162291 0.162291 0.162291
0.170492 0.170492 0.170492
0.177138 0.177138 0.177138
0.182760 0.182760 0.182760
0.187640 0.187640 0.187640
0.191845 0.191845 0.191845
0.099726 0.099726 0.099726
0.233605 0.233605 0.233605
0.261904 0.261904 0.261904
0.280022 0.280022 0.280022
0.293545 0.293545 0.293545
0.304417 0.304417 0.304417
0.313599 0.313599 0.313599
0.321851 0.321851 0.321851
0.329189 0.329189 0.329189
0.099726 0.099726 0.099726
0.319844 0.319844 0.319844
0.357418 0.357418 0.357418
0.380385 0.380385 0.380385
0.397389 0.397389 0.397389
0.411101 0.411101 0.411101
0.425074 0.425074 0.425074
0.437920 0.437920 0.437920
0.449361 0.449361 0.449361
0.099726 0.099726 0.099726
0.395465 0.395465 0.395465
0.446598 0.446598 0.446598
0.482978 0.482978 0.482978
0.509275 0.509275 0.509275
0.530005 0.530005 0.530005
0.547553 0.547553 0.547553
0.562843 0.562843 0.562843
0.576431 0.576431 0.576431
0.099726 0.099726 0.099726
0.478513 0.478513 0.478513
0.542869 0.542869 0.542869
0.583811 0.583811 0.583811
0.616580 0.616580 0.616580
0.643258 0.643258 0.643258
0.665911 0.665911 0.665911
0.684590 0.684590 0.684590
0.699401 0.699401 0.699401
0.099726 0.099726 0.099726
0.559130 0.559130 0.559130
0.636221 0.636221 0.636221
0.685803 0.685803 0.685803
0.718168 0.718168 0.718168
0.744224 0.744224 0.744224
0.765056 0.765056 0.765056
0.783123 0.783123 0.783123
0.796060 0.796060 0.796060
0.099726 0.099726 0.099726
0.640166 0.640166 0.640166
0.721927 0.721927 0.721927
0.768838 0.768838 0.768838
0.799162 0.799162 0.799162
0.820741 0.820741 0.820741
0.838805 0.838805 0.838805
0.854387 0.854387 0.854387
0.865070 0.865070 0.865070
0.099726 0.099726 0.099726
0.714501 0.714501 0.714501
0.793031 0.793031 0.793031
0.832369 0.832369 0.832369
0.860115 0.860115 0.860115
0.877378 0.877378 0.877378
0.891740 0.891740 0.891740
0.904066 0.904066 0.904066
0.914881 0.914881 0.914881
0.099726 0.099726 0.099726
0.099726 0.099726 0.099726
0.099726 0.099726 0.099726
0.099726 0.099726 0.099726
0.099726 0.099726 0.099726
0.099726 0.099726 0.099726
0.099726 0.099726 0.099726
0.099726 0.099726 0.099726
0.099726 0.099726 0.099726
0.099726 0.099726 0.099726
0.133747 0.133747 0.133747
0.152136 0.152136 0.152136
0.162836 0.162836 0.162836
0.171065 0.171065 0.171065
0.177733 0.177733 0.177733
0.183374 0.183374 0.183374
0.188250 0.188250 0.188250
0.192469 0.192469 0.192469
0.099726 0.099726 0.099726
0.234360 0.234360 0.234360
0.262751 0.262751 0.262751
0.280927 0.280927 0.280927
0.294483 0.294483 0.294483
0.305389 0.305389 0.305389
0.314620 0.314620 0.314620
0.322915 0.322915 0.322915
0.330277 0.330277 0.330277
0.099726 0.099726 0.099726
0.320902 0.320902 0.320902
0.358515 0.358515 0.358515
0.381518 0.381518 0.381518
0.398573 0.398573 0.398573
0.412325 0.412325 0.412325
0.426683 0.426683 0.426683
0.439577 0.439577 0.439577
0.451062 0.451062 0.451062
0.099726 0.099726 0.099726
0.396642 0.396642 0.396642
0.448288 0.448288 0.448288
0.484806 0.484806 0.484806
0.511066 0.511066 0.511066
0.531860 0.531860 0.531860
0.549470 0.549470 0.549470
0.564813 0.564813 0.564813
0.578449 0.578449 0.578449
0.099726 0.099726 0.099726
0.480324 0.480324 0.480324
0.544769 0.544769 0.544769
0.585983 0.585983 0.585983
0.618873 0.618873 0.618873
0.645651 0.645651 0.645651
0.668388 0.668388 0.668388
0.686740 0.686740 0.686740
0.701597 0.701597 0.701597
0.099726 0.099726 0.099726
0.561087 0.561087 0.561087
0.638587 0.638587 0.638587
0.687956 0.687956 0.687956
0.720423 0.720423 0.720423
0.746431 0.746431 0.746431
0.767325 0.767325 0.767325
0.785300 0.785300 0.785300
0.797922 0.797922 0.797922
0.099726 0.099726 0.099726
0.642548 0.642548 0.642548
0.724194 0.724194 0.724194
0.771118 0.771118 0.771118
0.801031 0.801031 0.801031
0.822660 0.822660 0.822660
0.840766 0.840766 0.840766
0.856334 0.856334 0.856334
0.866578 0.866578 0.866578
0.099726 0.099726 0.099726
0.716745 0.716745 0.716745
0.794885 0.794885 0.794885
0.834315 0.834315 0.834315
0.861614 0.861614 0.861614
0.878907 0.878907 0.878907
0.893295 0.893295 0.893295
0.905642 0.905642 0.905642
0.916476 0.916476 0.916476
0.099726 0.099726 0.099726
0.099726 0.099726 0.099726
0.099726 0.099726 0.099726
0.099726 0.099726 0.099726
0.099726 0.099726 0.099726
0.099726 0.099726 0.099726
0.099726 0.099726 0.099726
0.099726 0.099726 0.099726
0.099726 0.099726 0.099726
0.099726 0.099726 0.099726
0.134174 0.134174 0.134174
0.152555 0.152555 0.152555
0.163309 0.163309 0.163309
0.171562 0.171562 0.171562
0.178250 0.178250 0.178250
0.183907 0.183907 0.183907
0.188780 0.188780 0.188780
0.193010 0.193010 0.193010
0.099726 0.099726 0.099726
0.235016 0.235016 0.235016
0.263486 0.263486 0.263486
0.281713 0.281713 0.281713
0.295297 0.295297 0.295297
0.306234 0.306234 0.306234
0.315521 0.315521 0.315521
0.323840 0.323840 0.323840
0.331205 0.331205 0.331205
0.099726 0.099726 0.099726
0.321821 0.321821 0.321821
0.359468 0.359468 0.359468
0.382502 0.382502 0.382502
0.399600 0.399600 0.399600
0.413388 0.413388 0.413388
0.428081 0.428081 0.428081
0.441018 0.441018 0.441018
0.452540 0.452540 0.452540
0.099726 0.099726 0.099726
0.397665 0.397665 0.397665
0.449758 0.449758 0.449758
0.486395 0.486395 0.486395
0.512622 0.512622 0.512622
0.533473 0.533473 0.533473
0.551136 0.551136 0.551136
0.566525 0.566525 0.566525
0.580203 0.580203 0.580203
0.099726 0.099726 0.099726
0.481898 0.481898 0.481898
0.546421 0.546421 0.546421
0.587871 0.587871 0.587871
0.620867 0.620867 0.620867
0.647731 0.647731 0.647731
0.670541 0.670541 0.670541
0.688607 0.688607 0.688607
0.703505 0.703505 0.703505
0.099726 0.099726 0.099726
0.562788 0.562788 0.562788
0.640644 0.640644 0.640644
0.689827 0.689827 0.689827
0.722382 0.722382 0.722382
0.748348 0.748348 0.748348
0.769296 0.769296 0.769296
0.786890 0.786890 0.786890
0.799537 0.799537 0.799537
0.099726 0.099726 0.099726
0.644617 0.644617 0.644617
0.726163 0.726163 0.726163
0.773099 0.773099 0.773099
0.802653 0.802653 0.802653
0.824326 0.824326 0.824326
0.842469 0.842469 0.842469
0.857627 0.857627 0.857627
0.867886 0.867886 0.867886
0.099726 0.099726 0.099726
0.718694 0.718694 0.718694
0.796495 0.796495 0.796495
0.836005 0.836005 0.836005
0.862915 0.862915 0.862915
0.880235 0.880235 0.880235
0.894643 0.894643 0.894643
0.907010 0.907010 0.907010
0.917860 0.917860 0.917860
