trix_classic/TriX_Red25_Punchy.cube
TITLE "Tri-X Red25 Punchy"
# Adobe RGB in/out. REPLACES AgX. R=0.9735 G=0.0265 B=0.0000
LUT_3D_SIZE 65
DOMAIN_MIN 0.0 0.0 0.0
DOMAIN_MAX 1.0 1.0 1.0
0.092306 0.092306 0.092306
0.092306 0.092306 0.092306
0.092306 0.092306 0.092306
0.092306 0.092306 0.092306
0.092306 0.092306 0.092306
0.092306 0.092306 0.092306
0.092306 0.092306 0.092306
0.092306 0.092306 0.092306
0.092306 0.092306 0.092306
0.092306 0.092306 0.092306
0.092306 0.092306 0.092306
0.092306 0.092306 0.092306
0.092306 0.092306 0.092306
0.092306 0.092306 0.092306
0.092306 0.092306 0.092306
0.092306 0.092306 0.092306
0.092306 0.092306 0.092306
0.092306 0.092306 0.092306
0.092306 0.092306 0.092306
0.092306 0.092306 0.092306
0.092306 0.092306 0.092306
0.092306 0.092306 0.092306
0.092306 0.092306 0.092306
0.092306 0.092306 0.092306
0.092306 0.092306 0.092306
0.092306 0.092306 0.092306
0.092306 0.092306 0.092306
0.092306 0.092306 0.092306
0.092306 0.092306 0.092306
0.092306 0.092306 0.092306
0.092306 0.092306 0.092306
0.092306 0.092306 0.092306
0.092306 0.092306 0.092306
0.092306 0.092306 0.092306
0.092306 0.092306 0.092306
0.092306 0.092306 0.092306
0.092306 0.092306 0.092306
0.092306 0.092306 0.092306
0.092306 0.092306 0.092306
0.092306 0.092306 0.092306
0.092306 0.092306 0.092306
0.092306 0.092306 0.092306
0.092306 0.092306 0.092306
0.092306 0.092306 0.092306
0.092306 0.092306 0.092306
0.092306 0.092306 0.092306
0.092306 0.092306 0.092306
0.092306 0.092306 0.092306
0.092306 0.092306 0.092306
0.092306 0.092306 0.092306
0.092306 0.092306 0.092306
0.092306 0.092306 0.092306
0.092306 0.092306 0.092306
0.092306 0.092306 0.092306
0.092306 0.092306 0.092306
0.092306 0.092306 0.092306
0.092306 0.092306 0.092306
0.092306 0.092306 0.092306
0.092306 0.092306 0.092306
0.092306 0.092306 0.092306
0.092306 0.092306 0.092306
0.092306 0.092306 0.092306
0.092306 0.092306 0.092306
0.092306 0.092306 0.092306
0.092306 0.092306 0.092306
0.092306 0.092306 0.092306
0.092306 0.092306 0.092306
0.092306 0.092306 0.092306
0.092306 0.092306 0.092306
0.092306 0.092306 0.092306
0.092540 0.092540 0.092540
0.092856 0.092856 0.092856
0.093183 0.093183 0.093183
0.093685 0.093685 0.093685
0.095180 0.095180 0.095180
0.097242 0.097242 0.097242
0.099872 0.099872 0.099872
0.103868 0.103868 0.103868
0.109610 0.109610 0.109610
0.117547 0.117547 0.117547
0.128135 0.128135 0.128135
0.141765 0.141765 0.141765
0.156940 0.156940 0.156940
0.172731 0.172731 0.172731
0.190661 0.190661 0.190661
0.209964 0.209964 0.209964
0.230136 0.230136 0.230136
0.250366 0.250366 0.250366
0.271969 0.271969 0.271969
0.294396 0.294396 0.294396
0.317643 0.317643 0.317643
0.338056 0.338056 0.338056
0.358412 0.358412 0.358412
0.379187 0.379187 0.379187
0.400373 0.400373 0.400373
0.419947 0.419947 0.419947
0.437410 0.437410 0.437410
0.455400 0.455400 0.455400
0.473543 0.473543 0.473543
0.491834 0.491834 0.491834
0.510271 0.510271 0.510271
0.528851 0.528851 0.528851
0.547570 0.547570 0.547570
0.564178 0.564178 0.564178
0.580837 0.580837 0.580837
0.597548 0.597548 0.597548
0.614309 0.614309 0.614309
0.631119 0.631119 0.631119
0.647977 0.647977 0.647977
0.664883 0.664883 0.664883
0.681835 0.681835 0.681835
0.698832 0.698832 0.698832
0.714275 0.714275 0.714275
0.728911 0.728911 0.728911
0.743537 0.743537 0.743537
0.758151 0.758151 0.758151
0.772749 0.772749 0.772749
0.787278 0.787278 0.787278
0.801795 0.801795 0.801795
0.815928 0.815928 0.815928
0.827902 0.827902 0.827902
0.839832 0.839832 0.839832
0.851717 0.851717 0.851717
0.863560 0.863560 0.863560
0.875326 0.875326 0.875326
0.884166 0.884166 0.884166
0.892947 0.892947 0.892947
0.901670 0.901670 0.901670
0.910337 0.910337 0.910337
0.918948 0.918948 0.918948
0.092306 0.092306 0.092306
0.092306 0.092306 0.092306
0.092306 0.092306 0.092306
0.092306 0.092306 0.092306
0.092306 0.092306 0.092306
0.092572 0.092572 0.092572
0.092893 0.092893 0.092893
0.093254 0.093254 0.093254
0.093756 0.093756 0.093756
0.095495 0.095495 0.095495
0.097673 0.097673 0.097673
0.100694 0.100694 0.100694
0.105065 0.105065 0.105065
0.111439 0.111439 0.111439
0.120301 0.120301 0.120301
0.131310 0.131310 0.131310
0.146323 0.146323 0.146323
0.161986 0.161986 0.161986
0.178451 0.178451 0.178451
0.197546 0.197546 0.197546
0.217546 0.217546 0.217546
0.238443 0.238443 0.238443
0.259317 0.259317 0.259317
0.281692 0.281692 0.281692
0.304921 0.304921 0.304921
0.327562 0.327562 0.327562
0.348084 0.348084 0.348084
0.369044 0.369044 0.369044
0.390434 0.390434 0.390434
0.412248 0.412248 0.412248
0.429770 0.429770 0.429770
0.448013 0.448013 0.448013
0.466440 0.466440 0.466440
0.485022 0.485022 0.485022
0.503757 0.503757 0.503757
0.522641 0.522641 0.522641
0.541670 0.541670 0.541670
0.559269 0.559269 0.559269
0.576230 0.576230 0.576230
0.593245 0.593245 0.593245
0.610312 0.610312 0.610312
0.627431 0.627431 0.627431
0.644601 0.644601 0.644601
0.661819 0.661819 0.661819
0.679086 0.679086 0.679086
0.696400 0.696400 0.696400
0.712461 0.712461 0.712461
0.727377 0.727377 0.727377
0.742282 0.742282 0.742282
0.757176 0.757176 0.757176
0.772055 0.772055 0.772055
0.786862 0.786862 0.786862
0.801656 0.801656 0.801656
0.816041 0.816041 0.816041
0.828243 0.828243 0.828243
0.840398 0.840398 0.840398
0.852507 0.852507 0.852507
0.864572 0.864572 0.864572
0.876254 0.876254 0.876254
0.885255 0.885255 0.885255
0.894195 0.894195 0.894195
0.903076 0.903076 0.903076
0.911898 0.911898 0.911898
0.920663 0.920663 0.920663
0.928590 0.928590 0.928590
0.092306 0.092306 0.092306
0.092306 0.092306 0.092306
0.092306 0.092306 0.092306
0.092306 0.092306 0.092306
0.092306 0.092306 0.092306
0.092590 0.092590 0.092590
0.092915 0.092915 0.092915
0.093295 0.093295 0.093295
0.093814 0.093814 0.093814
0.095680 0.095680 0.095680
0.097926 0.097926 0.097926
0.101201 0.101201 0.101201
0.105811 0.105811 0.105811
0.112523 0.112523 0.112523
0.121942 0.121942 0.121942
0.133764 0.133764 0.133764
0.149057 0.149057 0.149057
0.165012 0.165012 0.165012
0.182192 0.182192 0.182192
0.201687 0.201687 0.201687
0.222107 0.222107 0.222107
0.243066 0.243066 0.243066
0.264701 0.264701 0.264701
0.287540 0.287540 0.287540
0.311251 0.311251 0.311251
0.333211 0.333211 0.333211
0.354087 0.354087 0.354087
0.375408 0.375408 0.375408
0.397167 0.397167 0.397167
0.417894 0.417894 0.417894
0.435810 0.435810 0.435810
0.454335 0.454335 0.454335
0.473021 0.473021 0.473021
0.491866 0.491866 0.491866
0.510865 0.510865 0.510865
0.530015 0.530015 0.530015
0.549110 0.549110 0.549110
0.566226 0.566226 0.566226
0.583399 0.583399 0.583399
0.600625 0.600625 0.600625
0.617905 0.617905 0.617905
0.635237 0.635237 0.635237
0.652620 0.652620 0.652620
0.670053 0.670053 0.670053
0.687534 0.687534 0.687534
0.704989 0.704989 0.704989
0.720077 0.720077 0.720077
0.735153 0.735153 0.735153
0.750217 0.750217 0.750217
0.765270 0.765270 0.765270
0.780272 0.780272 0.780272
0.795236 0.795236 0.795236
0.810188 0.810188 0.810188
0.823223 0.823223 0.823223
0.835532 0.835532 0.835532
0.847794 0.847794 0.847794
0.860010 0.860010 0.860010
0.872182 0.872182 0.872182
0.882055 0.882055 0.882055
0.891116 0.891116 0.891116
0.900115 0.900115 0.900115
0.909054 0.909054 0.909054
0.917935 0.917935 0.917935
0.926758 0.926758 0.926758
0.932621 0.932621 0.932621
0.092306 0.092306 0.092306
0.092306 0.092306 0.092306
0.092306 0.092306 0.092306
0.092306 0.092306 0.092306
0.092306 0.092306 0.092306
0.092603 0.092603 0.092603
0.092931 0.092931 0.092931
0.093325 0.093325 0.093325
0.093860 0.093860 0.093860
0.095811 0.095811 0.095811
0.098106 0.098106 0.098106
0.101563 0.101563 0.101563
0.106344 0.106344 0.106344
0.113299 0.113299 0.113299
0.123120 0.123120 0.123120
0.135532 0.135532 0.135532
0.151028 0.151028 0.151028
0.167194 0.167194 0.167194
0.184895 0.184895 0.184895
0.204679 0.204679 0.204679
0.225401 0.225401 0.225401
0.246400 0.246400 0.246400
0.268588 0.268588 0.268588
0.291763 0.291763 0.291763
0.315822 0.315822 0.315822
0.337279 0.337279 0.337279
0.358409 0.358409 0.358409
0.379990 0.379990 0.379990
0.402015 0.402015 0.402015
0.421924 0.421924 0.421924
0.440164 0.440164 0.440164
0.458874 0.458874 0.458874
0.477747 0.477747 0.477747
0.496780 0.496780 0.496780
0.515968 0.515968 0.515968
0.535310 0.535310 0.535310
0.553948 0.553948 0.553948
0.571216 0.571216 0.571216
0.588539 0.588539 0.588539
0.605917 0.605917 0.605917
0.623350 0.623350 0.623350
0.640834 0.640834 0.640834
0.658370 0.658370 0.658370
0.675957 0.675957 0.675957
0.693592 0.693592 0.693592
0.710328 0.710328 0.710328
0.725530 0.725530 0.725530
0.740720 0.740720 0.740720
0.755899 0.755899 0.755899
0.771065 0.771065 0.771065
0.786156 0.786156 0.786156
0.801232 0.801232 0.801232
0.815924 0.815924 0.815924
0.828358 0.828358 0.828358
0.840743 0.840743 0.840743
0.853082 0.853082 0.853082
0.865374 0.865374 0.865374
0.877027 0.877027 0.877027
0.886194 0.886194 0.886194
0.895297 0.895297 0.895297
0.904339 0.904339 0.904339
0.913320 0.913320 0.913320
0.922243 0.922243 0.922243
0.929727 0.929727 0.929727
0.935492 0.935492 0.935492
0.092306 0.092306 0.092306
0.092306 0.092306 0.092306
0.092306 0.092306 0.092306
0.092306 0.092306 0.092306
0.092306 0.092306 0.092306
0.092614 0.092614 0.092614
0.092943 0.092943 0.092943
0.093348 0.093348 0.093348
0.093954 0.093954 0.093954
0.095913 0.095913 0.095913
0.098246 0.098246 0.098246
0.101844 0.101844 0.101844
0.106758 0.106758 0.106758
0.113904 0.113904 0.113904
0.124041 0.124041 0.124041
0.136920 0.136920 0.136920
0.152574 0.152574 0.152574
0.168906 0.168906 0.168906
0.187018 0.187018 0.187018
0.207030 0.207030 0.207030
0.227990 0.227990 0.227990
0.249105 0.249105 0.249105
0.271643 0.271643 0.271643
0.295081 0.295081 0.295081
0.319414 0.319414 0.319414
0.340467 0.340467 0.340467
0.361797 0.361797 0.361797
0.383583 0.383583 0.383583
0.405816 0.405816 0.405816
0.425076 0.425076 0.425076
0.443571 0.443571 0.443571
0.462426 0.462426 0.462426
0.481445 0.481445 0.481445
0.500625 0.500625 0.500625
0.519962 0.519962 0.519962
0.539454 0.539454 0.539454
0.557730 0.557730 0.557730
0.575116 0.575116 0.575116
0.592557 0.592557 0.592557
0.610054 0.610054 0.610054
0.627606 0.627606 0.627606
0.645210 0.645210 0.645210
0.662865 0.662865 0.662865
0.680572 0.680572 0.680572
0.698328 0.698328 0.698328
0.714497 0.714497 0.714497
0.729788 0.729788 0.729788
0.745068 0.745068 0.745068
0.760335 0.760335 0.760335
0.775572 0.775572 0.775572
0.790749 0.790749 0.790749
0.805914 0.805914 0.805914
0.819868 0.819868 0.819868
0.832362 0.832362 0.832362
0.844807 0.844807 0.844807
0.857206 0.857206 0.857206
0.869557 0.869557 0.869557
0.880217 0.880217 0.880217
0.889418 0.889418 0.889418
0.898554 0.898554 0.898554
0.907629 0.907629 0.907629
0.916643 0.916643 0.916643
0.925598 0.925598 0.925598
0.931946 0.931946 0.931946
0.937724 0.937724 0.937724
0.092306 0.092306 0.092306
0.092306 0.092306 0.092306
0.092306 0.092306 0.092306
0.092306 0.092306 0.092306
0.092306 0.092306 0.092306
0.092622 0.092622 0.092622
0.092953 0.092953 0.092953
0.093366 0.093366 0.093366
0.094035 0.094035 0.094035
0.095997 0.095997 0.095997
0.098360 0.098360 0.098360
0.102075 0.102075 0.102075
0.107098 0.107098 0.107098
0.114401 0.114401 0.114401
0.124822 0.124822 0.124822
0.138065 0.138065 0.138065
0.153850 0.153850 0.153850
0.170318 0.170318 0.170318
0.188771 0.188771 0.188771
0.208970 0.208970 0.208970
0.230127 0.230127 0.230127
0.251418 0.251418 0.251418
0.274164 0.274164 0.274164
0.297820 0.297820 0.297820
0.322068 0.322068 0.322068
0.343095 0.343095 0.343095
0.364590 0.364590 0.364590
0.386543 0.386543 0.386543
0.408948 0.408948 0.408948
0.427670 0.427670 0.427670
0.446374 0.446374 0.446374
0.465348 0.465348 0.465348
0.484488 0.484488 0.484488
0.503789 0.503789 0.503789
0.523249 0.523249 0.523249
0.542863 0.542863 0.542863
0.560840 0.560840 0.560840
0.578322 0.578322 0.578322
0.595861 0.595861 0.595861
0.613456 0.613456 0.613456
0.631105 0.631105 0.631105
0.648807 0.648807 0.648807
0.666561 0.666561 0.666561
0.684366 0.684366 0.684366
0.702221 0.702221 0.702221
0.717921 0.717921 0.717921
0.733286 0.733286 0.733286
0.748638 0.748638 0.748638
0.763979 0.763979 0.763979
0.779273 0.779273 0.779273
0.794523 0.794523 0.794523
0.809760 0.809760 0.809760
0.823105 0.823105 0.823105
0.835648 0.835648 0.835648
0.848143 0.848143 0.848143
0.860590 0.860590 0.860590
0.872990 0.872990 0.872990
0.882833 0.882833 0.882833
0.892060 0.892060 0.892060
0.901224 0.901224 0.901224
0.910326 0.910326 0.910326
0.919367 0.919367 0.919367
0.927918 0.927918 0.927918
0.933763 0.933763 0.933763
0.939553 0.939553 0.939553
0.092306 0.092306 0.092306
0.092306 0.092306 0.092306
0.092306 0.092306 0.092306
0.092306 0.092306 0.092306
0.092306 0.092306 0.092306
0.092629 0.092629 0.092629
0.092962 0.092962 0.092962
0.093382 0.093382 0.093382
0.094104 0.094104 0.094104
0.096067 0.096067 0.096067
0.098457 0.098457 0.098457
0.102270 0.102270 0.102270
0.107387 0.107387 0.107387
0.114823 0.114823 0.114823
0.125502 0.125502 0.125502
0.139040 0.139040 0.139040
0.154936 0.154936 0.154936
0.171521 0.171521 0.171521
0.190266 0.190266 0.190266
0.210625 0.210625 0.210625
0.231950 0.231950 0.231950
0.253389 0.253389 0.253389
0.276314 0.276314 0.276314
0.300155 0.300155 0.300155
0.324168 0.324168 0.324168
0.345333 0.345333 0.345333
0.366967 0.366967 0.366967
0.389064 0.389064 0.389064
0.411615 0.411615 0.411615
0.429874 0.429874 0.429874
0.448759 0.448759 0.448759
0.467834 0.467834 0.467834
0.487075 0.487075 0.487075
0.506480 0.506480 0.506480
0.526043 0.526043 0.526043
0.545763 0.545763 0.545763
0.563482 0.563482 0.563482
0.581047 0.581047 0.581047
0.598669 0.598669 0.598669
0.616346 0.616346 0.616346
0.634078 0.634078 0.634078
0.651864 0.651864 0.651864
0.669702 0.669702 0.669702
0.687591 0.687591 0.687591
0.705390 0.705390 0.705390
0.720829 0.720829 0.720829
0.736256 0.736256 0.736256
0.751671 0.751671 0.751671
0.767074 0.767074 0.767074
0.782416 0.782416 0.782416
0.797727 0.797727 0.797727
0.813026 0.813026 0.813026
0.825852 0.825852 0.825852
0.838437 0.838437 0.838437
0.850973 0.850973 0.850973
0.863462 0.863462 0.863462
0.875734 0.875734 0.875734
0.885050 0.885050 0.885050
0.894301 0.894301 0.894301
0.903488 0.903488 0.903488
0.912612 0.912612 0.912612
0.921676 0.921676 0.921676
0.929447 0.929447 0.929447
0.935302 0.935302 0.935302
0.941101 0.941101 0.941101
0.092306 0.092306 0.092306
0.092306 0.092306 0.092306
0.092306 0.092306 0.092306
0.092306 0.092306 0.092306
0.092306 0.092306 0.092306
0.092635 0.092635 0.092635
0.092969 0.092969 0.092969
0.093396 0.093396 0.093396
0.094164 0.094164 0.094164
0.096137 0.096137 0.096137
0.098541 0.098541 0.098541
0.102439 0.102439 0.102439
0.107637 0.107637 0.107637
0.115190 0.115190 0.115190
0.126094 0.126094 0.126094
0.139890 0.139890 0.139890
0.155884 0.155884 0.155884
0.172570 0.172570 0.172570
0.191571 0.191571 0.191571
0.212070 0.212070 0.212070
0.233540 0.233540 0.233540
0.255110 0.255110 0.255110
0.278190 0.278190 0.278190
0.302193 0.302193 0.302193
0.325999 0.325999 0.325999
0.347283 0.347283 0.347283
0.369040 0.369040 0.369040
0.391261 0.391261 0.391261
0.413617 0.413617 0.413617
0.431842 0.431842 0.431842
0.450834 0.450834 0.450834
0.469997 0.469997 0.469997
0.489328 0.489328 0.489328
0.508822 0.508822 0.508822
0.528476 0.528476 0.528476
0.548204 0.548204 0.548204
0.565782 0.565782 0.565782
0.583418 0.583418 0.583418
0.601111 0.601111 0.601111
0.618861 0.618861 0.618861
0.636665 0.636665 0.636665
0.654524 0.654524 0.654524
0.672434 0.672434 0.672434
0.690396 0.690396 0.690396
0.707864 0.707864 0.707864
0.723358 0.723358 0.723358
0.738839 0.738839 0.738839
0.754308 0.754308 0.754308
0.769765 0.769765 0.769765
0.785149 0.785149 0.785149
0.800513 0.800513 0.800513
0.815567 0.815567 0.815567
0.828238 0.828238 0.828238
0.840860 0.840860 0.840860
0.853432 0.853432 0.853432
0.865957 0.865957 0.865957
0.877639 0.877639 0.877639
0.886976 0.886976 0.886976
0.896246 0.896246 0.896246
0.905453 0.905453 0.905453
0.914598 0.914598 0.914598
0.923681 0.923681 0.923681
0.930774 0.930774 0.930774
0.936637 0.936637 0.936637
0.942445 0.942445 0.942445
0.092306 0.092306 0.092306
0.092306 0.092306 0.092306
0.092306 0.092306 0.092306
0.092306 0.092306 0.092306
0.092308 0.092308 0.092308
0.092640 0.092640 0.092640
0.092975 0.092975 0.092975
0.093408 0.093408 0.093408
0.094217 0.094217 0.094217
0.096210 0.096210 0.096210
0.098615 0.098615 0.098615
0.102589 0.102589 0.102589
0.107859 0.107859 0.107859
0.115514 0.115514 0.115514
0.126619 0.126619 0.126619
0.140644 0.140644 0.140644
0.156724 0.156724 0.156724
0.173500 0.173500 0.173500
0.192729 0.192729 0.192729
0.213352 0.213352 0.213352
0.234952 0.234952 0.234952
0.256637 0.256637 0.256637
0.279856 0.279856 0.279856
0.304003 0.304003 0.304003
0.327622 0.327622 0.327622
0.349012 0.349012 0.349012
0.370877 0.370877 0.370877
0.393209 0.393209 0.393209
0.415246 0.415246 0.415246
0.433603 0.433603 0.433603
0.452673 0.452673 0.452673
0.471914 0.471914 0.471914
0.491324 0.491324 0.491324
0.510897 0.510897 0.510897
0.530631 0.530631 0.530631
0.550177 0.550177 0.550177
0.567817 0.567817 0.567817
0.585517 0.585517 0.585517
0.603274 0.603274 0.603274
0.621088 0.621088 0.621088
0.638956 0.638956 0.638956
0.656879 0.656879 0.656879
0.674854 0.674854 0.674854
0.692880 0.692880 0.692880
0.710054 0.710054 0.710054
0.725596 0.725596 0.725596
0.741125 0.741125 0.741125
0.756641 0.756641 0.756641
0.772142 0.772142 0.772142
0.787567 0.787567 0.787567
0.802979 0.802979 0.802979
0.817645 0.817645 0.817645
0.830349 0.830349 0.830349
0.843003 0.843003 0.843003
0.855608 0.855608 0.855608
0.868164 0.868164 0.868164
0.879323 0.879323 0.879323
0.888677 0.888677 0.888677
0.897966 0.897966 0.897966
0.907190 0.907190 0.907190
0.916352 0.916352 0.916352
0.925453 0.925453 0.925453
0.931946 0.931946 0.931946
0.937817 0.937817 0.937817
0.943631 0.943631 0.943631
0.092306 0.092306 0.092306
0.092306 0.092306 0.092306
0.092306 0.092306 0.092306
0.092306 0.092306 0.092306
0.092312 0.092312 0.092312
0.092645 0.092645 0.092645
0.092981 0.092981 0.092981
0.093418 0.093418 0.093418
0.094265 0.094265 0.094265
0.096274 0.096274 0.096274
0.098681 0.098681 0.098681
0.102723 0.102723 0.102723
0.108057 0.108057 0.108057
0.115908 0.115908 0.115908
0.127091 0.127091 0.127091
0.141322 0.141322 0.141322
0.157480 0.157480 0.157480
0.174337 0.174337 0.174337
0.193771 0.193771 0.193771
0.214505 0.214505 0.214505
0.236223 0.236223 0.236223
0.258011 0.258011 0.258011
0.281354 0.281354 0.281354
0.305630 0.305630 0.305630
0.329081 0.329081 0.329081
0.350566 0.350566 0.350566
0.372529 0.372529 0.372529
0.394960 0.394960 0.394960
0.416708 0.416708 0.416708
0.435185 0.435185 0.435185
0.454324 0.454324 0.454324
0.473635 0.473635 0.473635
0.493116 0.493116 0.493116
0.512761 0.512761 0.512761
0.532567 0.532567 0.532567
0.551947 0.551947 0.551947
0.569645 0.569645 0.569645
0.587401 0.587401 0.587401
0.605215 0.605215 0.605215
0.623086 0.623086 0.623086
0.641012 0.641012 0.641012
0.658992 0.658992 0.658992
0.677025 0.677025 0.677025
0.695110 0.695110 0.695110
0.712019 0.712019 0.712019
0.727603 0.727603 0.727603
0.743175 0.743175 0.743175
0.758735 0.758735 0.758735
0.774270 0.774270 0.774270
0.789737 0.789737 0.789737
0.805191 0.805191 0.805191
0.819509 0.819509 0.819509
0.832242 0.832242 0.832242
0.844925 0.844925 0.844925
0.857558 0.857558 0.857558
0.870143 0.870143 0.870143
0.880832 0.880832 0.880832
0.890202 0.890202 0.890202
0.899507 0.899507 0.899507
0.908747 0.908747 0.908747
0.917925 0.917925 0.917925
0.927041 0.927041 0.927041
0.932995 0.932995 0.932995
0.938873 0.938873 0.938873
0.944694 0.944694 0.944694
0.092306 0.092306 0.092306
0.092306 0.092306 0.092306
0.092306 0.092306 0.092306
0.092306 0.092306 0.092306
0.092316 0.092316 0.092316
0.092650 0.092650 0.092650
0.092986 0.092986 0.092986
0.093428 0.093428 0.093428
0.094308 0.094308 0.094308
0.096333 0.096333 0.096333
0.098741 0.098741 0.098741
0.102844 0.102844 0.102844
0.108237 0.108237 0.108237
0.116278 0.116278 0.116278
0.127518 0.127518 0.127518
0.141939 0.141939 0.141939
0.158167 0.158167 0.158167
0.175097 0.175097 0.175097
0.194719 0.194719 0.194719
0.215554 0.215554 0.215554
0.237378 0.237378 0.237378
0.259260 0.259260 0.259260
0.282716 0.282716 0.282716
0.307110 0.307110 0.307110
0.330406 0.330406 0.330406
0.351978 0.351978 0.351978
0.374029 0.374029 0.374029
0.396551 0.396551 0.396551
0.418035 0.418035 0.418035
0.436621 0.436621 0.436621
0.455823 0.455823 0.455823
0.475198 0.475198 0.475198
0.494742 0.494742 0.494742
0.514452 0.514452 0.514452
0.534324 0.534324 0.534324
0.553554 0.553554 0.553554
0.571303 0.571303 0.571303
0.589111 0.589111 0.589111
0.606977 0.606977 0.606977
0.624900 0.624900 0.624900
0.642878 0.642878 0.642878
0.660910 0.660910 0.660910
0.678996 0.678996 0.678996
0.697133 0.697133 0.697133
0.713801 0.713801 0.713801
0.729424 0.729424 0.729424
0.745035 0.745035 0.745035
0.760634 0.760634 0.760634
0.776199 0.776199 0.776199
0.791705 0.791705 0.791705
0.807197 0.807197 0.807197
0.821199 0.821199 0.821199
0.833958 0.833958 0.833958
0.846667 0.846667 0.846667
0.859326 0.859326 0.859326
0.871937 0.871937 0.871937
0.882199 0.882199 0.882199
0.891584 0.891584 0.891584
0.900903 0.900903 0.900903
0.910158 0.910158 0.910158
0.919350 0.919350 0.919350
0.928004 0.928004 0.928004
0.933946 0.933946 0.933946
0.939829 0.939829 0.939829
0.945656 0.945656 0.945656
0.092306 0.092306 0.092306
0.092306 0.092306 0.092306
0.092306 0.092306 0.092306
0.092306 0.092306 0.092306
0.092319 0.092319 0.092319
0.092654 0.092654 0.092654
0.092991 0.092991 0.092991
0.093437 0.093437 0.093437
0.094347 0.094347 0.094347
0.096386 0.096386 0.096386
0.098823 0.098823 0.098823
0.102955 0.102955 0.102955
0.108424 0.108424 0.108424
0.116617 0.116617 0.116617
0.127910 0.127910 0.127910
0.142504 0.142504 0.142504
0.158797 0.158797 0.158797
0.175794 0.175794 0.175794
0.195588 0.195588 0.195588
0.216516 0.216516 0.216516
0.238435 0.238435 0.238435
0.260406 0.260406 0.260406
0.283966 0.283966 0.283966
0.308467 0.308467 0.308467
0.331621 0.331621 0.331621
0.353272 0.353272 0.353272
0.375404 0.375404 0.375404
0.398009 0.398009 0.398009
0.419250 0.419250 0.419250
0.437935 0.437935 0.437935
0.457195 0.457195 0.457195
0.476629 0.476629 0.476629
0.496232 0.496232 0.496232
0.516001 0.516001 0.516001
0.535933 0.535933 0.535933
0.555024 0.555024 0.555024
0.572820 0.572820 0.572820
0.590676 0.590676 0.590676
0.608590 0.608590 0.608590
0.626560 0.626560 0.626560
0.644586 0.644586 0.644586
0.662666 0.662666 0.662666
0.680800 0.680800 0.680800
0.698985 0.698985 0.698985
0.715431 0.715431 0.715431
0.731091 0.731091 0.731091
0.746737 0.746737 0.746737
0.762371 0.762371 0.762371
0.777964 0.777964 0.777964
0.793505 0.793505 0.793505
0.809033 0.809033 0.809033
0.822745 0.822745 0.822745
0.835528 0.835528 0.835528
0.848260 0.848260 0.848260
0.860944 0.860944 0.860944
0.873579 0.873579 0.873579
0.883449 0.883449 0.883449
0.892847 0.892847 0.892847
0.902180 0.902180 0.902180
0.911447 0.911447 0.911447
0.920652 0.920652 0.920652
0.928867 0.928867 0.928867
0.934814 0.934814 0.934814
0.940703 0.940703 0.940703
0.946536 0.946536 0.946536
0.092306 0.092306 0.092306
0.092306 0.092306 0.092306
0.092306 0.092306 0.092306
0.092306 0.092306 0.092306
0.092322 0.092322 0.092322
0.092657 0.092657 0.092657
0.092995 0.092995 0.092995
0.093445 0.093445 0.093445
0.094383 0.094383 0.094383
0.096436 0.096436 0.096436
0.098905 0.098905 0.098905
0.103058 0.103058 0.103058
0.108631 0.108631 0.108631
0.116929 0.116929 0.116929
0.128272 0.128272 0.128272
0.143026 0.143026 0.143026
0.159378 0.159378 0.159378
0.176438 0.176438 0.176438
0.196391 0.196391 0.196391
0.217405 0.217405 0.217405
0.239341 0.239341 0.239341
0.261464 0.261464 0.261464
0.285120 0.285120 0.285120
0.309721 0.309721 0.309721
0.332742 0.332742 0.332742
0.354466 0.354466 0.354466
0.376673 0.376673 0.376673
0.399355 0.399355 0.399355
0.420371 0.420371 0.420371
0.439148 0.439148 0.439148
0.458461 0.458461 0.458461
0.477949 0.477949 0.477949
0.497607 0.497607 0.497607
0.517431 0.517431 0.517431
0.537417 0.537417 0.537417
0.556381 0.556381 0.556381
0.574220 0.574220 0.574220
0.592119 0.592119 0.592119
