trix_classic/TriX_Yellow8_Normal.cube
TITLE "Tri-X Yellow8 Normal"
# Adobe RGB in/out. REPLACES AgX. R=0.5015 G=0.4679 B=0.0307
LUT_3D_SIZE 9
DOMAIN_MIN 0.0 0.0 0.0
DOMAIN_MAX 1.0 1.0 1.0
0.095875 0.095875 0.095875
0.095875 0.095875 0.095875
0.095875 0.095875 0.095875
0.095875 0.095875 0.095875
0.095875 0.095875 0.095875
0.095875 0.095875 0.095875
0.095875 0.095875 0.095875
0.095875 0.095875 0.095875
0.095875 0.095875 0.095875
0.095875 0.095875 0.095875
0.095875 0.095875 0.095875
0.095875 0.095875 0.095875
0.095875 0.095875 0.095875
0.095875 0.095875 0.095875
0.095875 0.095875 0.095875
0.095875 0.095875 0.095875
0.095875 0.095875 0.095875
0.095875 0.095875 0.095875
0.095875 0.095875 0.095875
0.095875 0.095875 0.095875
0.095875 0.095875 0.095875
0.095875 0.095875 0.095875
0.095875 0.095875 0.095875
0.095875 0.095875 0.095875
0.095875 0.095875 0.095875
0.095875 0.095875 0.095875
0.095875 0.095875 0.095875
0.095875 0.095875 0.095875
0.095875 0.095875 0.095875
0.095875 0.095875 0.095875
0.095875 0.095875 0.095875
0.095875 0.095875 0.095875
0.095875 0.095875 0.095875
0.095875 0.095875 0.095875
0.095875 0.095875 0.095875
0.095875 0.095875 0.095875
0.095875 0.095875 0.095875
0.095875 0.095875 0.095875
0.095875 0.095875 0.095875
0.095875 0.095875 0.095875
0.095875 0.095875 0.095875
0.095875 0.095875 0.095875
0.095875 0.095875 0.095875
0.095875 0.095875 0.095875
0.095875 0.095875 0.095875
0.095875 0.095875 0.095875
0.095875 0.095875 0.095875
0.095875 0.095875 0.095875
0.095875 0.095875 0.095875
0.095875 0.095875 0.095875
0.095875 0.095875 0.095875
0.095875 0.095875 0.095875
0.095875 0.095875 0.095875
0.095875 0.095875 0.095875
0.095875 0.095875 0.095875
0.095875 0.095875 0.095875
0.095875 0.095875 0.095875
0.095875 0.095875 0.095875
0.095875 0.095875 0.095875
0.095875 0.095875 0.095875
0.095875 0.095875 0.095875
0.095875 0.095875 0.095875
0.095875 0.095875 0.095875
0.095875 0.095875 0.095875
0.095875 0.095875 0.095875
0.095875 0.095875 0.095875
0.095875 0.095875 0.095875
0.095875 0.095875 0.095875
0.095875 0.095875 0.095875
0.095875 0.095875 0.095875
0.095875 0.095875 0.095875
0.095875 0.095875 0.095875
0.095875 0.095875 0.095875
0.095875 0.095875 0.095875
0.095875 0.095875 0.095875
0.095875 0.095875 0.095875
0.095875 0.095875 0.095875
0.095875 0.095875 0.095875
0.095875 0.095875 0.095875
0.095875 0.095875 0.095875
0.095875 0.095875 0.095875
0.095875 0.095875 0.095875
0.095875 0.095875 0.095875
0.095875 0.095875 0.095875
0.095875 0.095875 0.095875
0.095875 0.095875 0.095875
0.095875 0.095875 0.095875
0.095875 0.095875 0.095875
0.095875 0.095875 0.095875
0.095875 0.095875 0.095875
0.095875 0.095875 0.095875
0.100863 0.100863 0.100863
0.128057 0.128057 0.128057
0.170947 0.170947 0.170947
0.214254 0.214254 0.214254
0.253295 0.253295 0.253295
0.284902 0.284902 0.284902
0.311123 0.311123 0.311123
0.336349 0.336349 0.336349
0.095875 0.095875 0.095875
0.124240 0.124240 0.124240
0.206910 0.206910 0.206910
0.277766 0.277766 0.277766
0.327341 0.327341 0.327341
0.374570 0.374570 0.374570
0.418830 0.418830 0.418830
0.458766 0.458766 0.458766
0.496608 0.496608 0.496608
0.095875 0.095875 0.095875
0.161611 0.161611 0.161611
0.273674 0.273674 0.273674
0.345356 0.345356 0.345356
0.411910 0.411910 0.411910
0.470290 0.470290 0.470290
0.523774 0.523774 0.523774
0.572028 0.572028 0.572028
0.617408 0.617408 0.617408
0.095875 0.095875 0.095875
0.199678 0.199678 0.199678
0.318575 0.318575 0.318575
0.407069 0.407069 0.407069
0.483090 0.483090 0.483090
0.550189 0.550189 0.550189
0.610633 0.610633 0.610633
0.666890 0.666890 0.666890
0.712802 0.712802 0.712802
0.095875 0.095875 0.095875
0.233590 0.233590 0.233590
0.360729 0.360729 0.360729
0.460821 0.460821 0.460821
0.545501 0.545501 0.545501
0.619726 0.619726 0.619726
0.685201 0.685201 0.685201
0.739726 0.739726 0.739726
0.787131 0.787131 0.787131
0.095875 0.095875 0.095875
0.265380 0.265380 0.265380
0.400343 0.400343 0.400343
0.509776 0.509776 0.509776
0.601212 0.601212 0.601212
0.681052 0.681052 0.681052
0.745606 0.745606 0.745606
0.797607 0.797607 0.797607
0.837064 0.837064 0.837064
0.095875 0.095875 0.095875
0.288598 0.288598 0.288598
0.436444 0.436444 0.436444
0.553740 0.553740 0.553740
0.652731 0.652731 0.652731
0.731479 0.731479 0.731479
0.794630 0.794630 0.794630
0.840181 0.840181 0.840181
0.881128 0.881128 0.881128
0.095875 0.095875 0.095875
0.310043 0.310043 0.310043
0.469939 0.469939 0.469939
0.594615 0.594615 0.594615
0.696529 0.696529 0.696529
0.778058 0.778058 0.778058
0.831244 0.831244 0.831244
0.878894 0.878894 0.878894
0.910668 0.910668 0.910668
0.095875 0.095875 0.095875
0.095875 0.095875 0.095875
0.095875 0.095875 0.095875
0.095875 0.095875 0.095875
0.095875 0.095875 0.095875
0.095875 0.095875 0.095875
0.095875 0.095875 0.095875
0.095875 0.095875 0.095875
0.095875 0.095875 0.095875
0.095875 0.095875 0.095875
0.101432 0.101432 0.101432
0.131639 0.131639 0.131639
0.176826 0.176826 0.176826
0.221174 0.221174 0.221174
0.261476 0.261476 0.261476
0.291566 0.291566 0.291566
0.318916 0.318916 0.318916
0.344994 0.344994 0.344994
0.095875 0.095875 0.095875
0.127714 0.127714 0.127714
0.213592 0.213592 0.213592
0.284262 0.284262 0.284262
0.335541 0.335541 0.335541
0.384421 0.384421 0.384421
0.429441 0.429441 0.429441
0.470451 0.470451 0.470451
0.509257 0.509257 0.509257
0.095875 0.095875 0.095875
0.166727 0.166727 0.166727
0.280075 0.280075 0.280075
0.354438 0.354438 0.354438
0.422742 0.422742 0.422742
0.482268 0.482268 0.482268
0.536617 0.536617 0.536617
0.586055 0.586055 0.586055
0.632547 0.632547 0.632547
0.095875 0.095875 0.095875
0.206271 0.206271 0.206271
0.326555 0.326555 0.326555
0.417774 0.417774 0.417774
0.495395 0.495395 0.495395
0.563681 0.563681 0.563681
0.625607 0.625607 0.625607
0.681248 0.681248 0.681248
0.727964 0.727964 0.727964
0.095875 0.095875 0.095875
0.241134 0.241134 0.241134
0.370216 0.370216 0.370216
0.472558 0.472558 0.472558
0.558878 0.558878 0.558878
0.634922 0.634922 0.634922
0.699776 0.699776 0.699776
0.755448 0.755448 0.755448
0.799285 0.799285 0.799285
0.095875 0.095875 0.095875
0.273059 0.273059 0.273059
0.410871 0.410871 0.410871
0.522541 0.522541 0.522541
0.615954 0.615954 0.615954
0.695538 0.695538 0.695538
0.761427 0.761427 0.761427
0.809922 0.809922 0.809922
0.849989 0.849989 0.849989
0.095875 0.095875 0.095875
0.295514 0.295514 0.295514
0.447560 0.447560 0.447560
0.567318 0.567318 0.567318
0.668663 0.668663 0.668663
0.747038 0.747038 0.747038
0.806899 0.806899 0.806899
0.853154 0.853154 0.853154
0.891067 0.891067 0.891067
0.095875 0.095875 0.095875
0.317809 0.317809 0.317809
0.481909 0.481909 0.481909
0.609196 0.609196 0.609196
0.711344 0.711344 0.711344
0.790225 0.790225 0.790225
0.844078 0.844078 0.844078
0.888956 0.888956 0.888956
0.920940 0.920940 0.920940
0.095875 0.095875 0.095875
0.095875 0.095875 0.095875
0.095875 0.095875 0.095875
0.095875 0.095875 0.095875
0.095875 0.095875 0.095875
0.095875 0.095875 0.095875
0.095875 0.095875 0.095875
0.095875 0.095875 0.095875
0.095875 0.095875 0.095875
0.095875 0.095875 0.095875
0.101866 0.101866 0.101866
0.133780 0.133780 0.133780
0.180358 0.180358 0.180358
0.225325 0.225325 0.225325
0.266383 0.266383 0.266383
0.295715 0.295715 0.295715
0.323565 0.323565 0.323565
0.350272 0.350272 0.350272
0.095875 0.095875 0.095875
0.129791 0.129791 0.129791
0.217601 0.217601 0.217601
0.288133 0.288133 0.288133
0.340436 0.340436 0.340436
0.390302 0.390302 0.390302
0.435679 0.435679 0.435679
0.477424 0.477424 0.477424
0.516805 0.516805 0.516805
0.095875 0.095875 0.095875
0.170058 0.170058 0.170058
0.283888 0.283888 0.283888
0.359861 0.359861 0.359861
0.428848 0.428848 0.428848
0.489416 0.489416 0.489416
0.544276 0.544276 0.544276
0.594419 0.594419 0.594419
0.641575 0.641575 0.641575
0.095875 0.095875 0.095875
0.210142 0.210142 0.210142
0.331315 0.331315 0.331315
0.424132 0.424132 0.424132
0.502737 0.502737 0.502737
0.571725 0.571725 0.571725
0.634535 0.634535 0.634535
0.689687 0.689687 0.689687
0.736982 0.736982 0.736982
0.095875 0.095875 0.095875
0.245660 0.245660 0.245660
0.375880 0.375880 0.375880
0.479562 0.479562 0.479562
0.566854 0.566854 0.566854
0.643984 0.643984 0.643984
0.708445 0.708445 0.708445
0.764766 0.764766 0.764766
0.806481 0.806481 0.806481
0.095875 0.095875 0.095875
0.276777 0.276777 0.276777
0.417157 0.417157 0.417157
0.529999 0.529999 0.529999
0.624745 0.624745 0.624745
0.704154 0.704154 0.704154
0.770818 0.770818 0.770818
0.817214 0.817214 0.817214
0.857642 0.857642 0.857642
0.095875 0.095875 0.095875
0.299822 0.299822 0.299822
0.454194 0.454194 0.454194
0.575415 0.575415 0.575415
0.676946 0.676946 0.676946
0.756277 0.756277 0.756277
0.814164 0.814164 0.814164
0.860836 0.860836 0.860836
0.896933 0.896933 0.896933
0.095875 0.095875 0.095875
0.322442 0.322442 0.322442
0.489052 0.489052 0.489052
0.617890 0.617890 0.617890
0.720156 0.720156 0.720156
0.797339 0.797339 0.797339
0.851678 0.851678 0.851678
0.894808 0.894808 0.894808
0.927003 0.927003 0.927003
0.095875 0.095875 0.095875
0.095875 0.095875 0.095875
0.095875 0.095875 0.095875
0.095875 0.095875 0.095875
0.095875 0.095875 0.095875
0.095875 0.095875 0.095875
0.095875 0.095875 0.095875
0.095875 0.095875 0.095875
0.095875 0.095875 0.095875
0.095875 0.095875 0.095875
0.102175 0.102175 0.102175
0.135320 0.135320 0.135320
0.182907 0.182907 0.182907
0.228317 0.228317 0.228317
0.269921 0.269921 0.269921
0.298768 0.298768 0.298768
0.326904 0.326904 0.326904
0.354066 0.354066 0.354066
0.095875 0.095875 0.095875
0.131286 0.131286 0.131286
0.220491 0.220491 0.220491
0.290911 0.290911 0.290911
0.344124 0.344124 0.344124
0.394530 0.394530 0.394530
0.440251 0.440251 0.440251
0.482434 0.482434 0.482434
0.522029 0.522029 0.522029
0.095875 0.095875 0.095875
0.172461 0.172461 0.172461
0.286626 0.286626 0.286626
0.363759 0.363759 0.363759
0.433200 0.433200 0.433200
0.494552 0.494552 0.494552
0.549776 0.549776 0.549776
0.600426 0.600426 0.600426
0.648058 0.648058 0.648058
0.095875 0.095875 0.095875
0.212933 0.212933 0.212933
0.334734 0.334734 0.334734
0.428428 0.428428 0.428428
0.508013 0.508013 0.508013
0.577503 0.577503 0.577503
0.640948 0.640948 0.640948
0.695738 0.695738 0.695738
0.743448 0.743448 0.743448
0.095875 0.095875 0.095875
0.248922 0.248922 0.248922
0.379951 0.379951 0.379951
0.484595 0.484595 0.484595
0.572582 0.572582 0.572582
0.650492 0.650492 0.650492
0.714660 0.714660 0.714660
0.771446 0.771446 0.771446
0.811626 0.811626 0.811626
0.095875 0.095875 0.095875
0.279446 0.279446 0.279446
0.421676 0.421676 0.421676
0.535354 0.535354 0.535354
0.631058 0.631058 0.631058
0.710332 0.710332 0.710332
0.777552 0.777552 0.777552
0.822428 0.822428 0.822428
0.863113 0.863113 0.863113
0.095875 0.095875 0.095875
0.302916 0.302916 0.302916
0.458960 0.458960 0.458960
0.581230 0.581230 0.581230
0.682886 0.682886 0.682886
0.762883 0.762883 0.762883
0.819358 0.819358 0.819358
0.866327 0.866327 0.866327
0.901118 0.901118 0.901118
0.095875 0.095875 0.095875
0.325770 0.325770 0.325770
0.494184 0.494184 0.494184
0.624134 0.624134 0.624134
0.726475 0.726475 0.726475
0.802426 0.802426 0.802426
0.857111 0.857111 0.857111
0.898984 0.898984 0.898984
0.931328 0.931328 0.931328
0.095875 0.095875 0.095875
0.095875 0.095875 0.095875
0.095875 0.095875 0.095875
0.095875 0.095875 0.095875
0.095875 0.095875 0.095875
0.095875 0.095875 0.095875
0.095875 0.095875 0.095875
0.095875 0.095875 0.095875
0.095875 0.095875 0.095875
0.095875 0.095875 0.095875
0.102415 0.102415 0.102415
0.136595 0.136595 0.136595
0.184909 0.184909 0.184909
0.230666 0.230666 0.230666
0.272150 0.272150 0.272150
0.301157 0.301157 0.301157
0.329518 0.329518 0.329518
0.357037 0.357037 0.357037
0.095875 0.095875 0.095875
0.132457 0.132457 0.132457
0.222759 0.222759 0.222759
0.293091 0.293091 0.293091
0.347011 0.347011 0.347011
0.397840 0.397840 0.397840
0.443830 0.443830 0.443830
0.486356 0.486356 0.486356
0.526116 0.526116 0.526116
0.095875 0.095875 0.095875
0.174349 0.174349 0.174349
0.288767 0.288767 0.288767
0.366811 0.366811 0.366811
0.436722 0.436722 0.436722
0.498573 0.498573 0.498573
0.554080 0.554080 0.554080
0.605127 0.605127 0.605127
0.653132 0.653132 0.653132
0.095875 0.095875 0.095875
0.215123 0.215123 0.215123
0.337411 0.337411 0.337411
0.431790 0.431790 0.431790
0.512143 0.512143 0.512143
0.582024 0.582024 0.582024
0.645966 0.645966 0.645966
0.700468 0.700468 0.700468
0.748502 0.748502 0.748502
0.095875 0.095875 0.095875
0.251483 0.251483 0.251483
0.383139 0.383139 0.383139
0.488535 0.488535 0.488535
0.577065 0.577065 0.577065
0.655584 0.655584 0.655584
0.719519 0.719519 0.719519
0.776668 0.776668 0.776668
0.815640 0.815640 0.815640
0.095875 0.095875 0.095875
0.281533 0.281533 0.281533
0.425113 0.425113 0.425113
0.539546 0.539546 0.539546
0.635999 0.635999 0.635999
0.715161 0.715161 0.715161
0.781685 0.781685 0.781685
0.826495 0.826495 0.826495
0.867381 0.867381 0.867381
0.095875 0.095875 0.095875
0.305339 0.305339 0.305339
0.462692 0.462692 0.462692
0.585780 0.585780 0.585780
0.687528 0.687528 0.687528
0.768047 0.768047 0.768047
0.823410 0.823410 0.823410
0.870611 0.870611 0.870611
0.904378 0.904378 0.904378
0.095875 0.095875 0.095875
0.328375 0.328375 0.328375
0.498202 0.498202 0.498202
0.629021 0.629021 0.629021
0.731414 0.731414 0.731414
0.806394 0.806394 0.806394
0.861350 0.861350 0.861350
0.902236 0.902236 0.902236
0.934697 0.934697 0.934697
0.095875 0.095875 0.095875
0.095875 0.095875 0.095875
0.095875 0.095875 0.095875
0.095875 0.095875 0.095875
0.095875 0.095875 0.095875
0.095875 0.095875 0.095875
0.095875 0.095875 0.095875
0.095875 0.095875 0.095875
0.095875 0.095875 0.095875
0.095875 0.095875 0.095875
0.102611 0.102611 0.102611
0.137696 0.137696 0.137696
0.186560 0.186560 0.186560
0.232602 0.232602 0.232602
0.273810 0.273810 0.273810
0.303123 0.303123 0.303123
0.331670 0.331670 0.331670
0.359483 0.359483 0.359483
0.095875 0.095875 0.095875
0.133421 0.133421 0.133421
0.224629 0.224629 0.224629
0.295005 0.295005 0.295005
0.349389 0.349389 0.349389
0.400566 0.400566 0.400566
0.446776 0.446776 0.446776
0.489585 0.489585 0.489585
0.529479 0.529479 0.529479
0.095875 0.095875 0.095875
0.175906 0.175906 0.175906
0.290528 0.290528 0.290528
0.369324 0.369324 0.369324
0.439621 0.439621 0.439621
0.501882 0.501882 0.501882
0.557622 0.557622 0.557622
0.608995 0.608995 0.608995
0.657307 0.657307 0.657307
0.095875 0.095875 0.095875
0.216929 0.216929 0.216929
0.339614 0.339614 0.339614
0.434614 0.434614 0.434614
0.515542 0.515542 0.515542
0.585745 0.585745 0.585745
0.650095 0.650095 0.650095
0.704357 0.704357 0.704357
0.752657 0.752657 0.752657
0.095875 0.095875 0.095875
0.253594 0.253594 0.253594
0.385764 0.385764 0.385764
0.491777 0.491777 0.491777
0.580754 0.580754 0.580754
0.659775 0.659775 0.659775
0.723513 0.723513 0.723513
0.780331 0.780331 0.780331
0.818934 0.818934 0.818934
0.095875 0.095875 0.095875
0.283251 0.283251 0.283251
0.427837 0.427837 0.427837
0.542995 0.542995 0.542995
0.640065 0.640065 0.640065
0.719132 0.719132 0.719132
0.784842 0.784842 0.784842
0.829832 0.829832 0.829832
0.870884 0.870884 0.870884
0.095875 0.095875 0.095875
0.307332 0.307332 0.307332
0.465763 0.465763 0.465763
0.589525 0.589525 0.589525
0.691345 0.691345 0.691345
0.772292 0.772292 0.772292
0.826735 0.826735 0.826735
0.874127 0.874127 0.874127
0.907050 0.907050 0.907050
0.095875 0.095875 0.095875
0.330518 0.330518 0.330518
0.501509 0.501509 0.501509
0.633042 0.633042 0.633042
0.735474 0.735474 0.735474
0.809651 0.809651 0.809651
0.864828 0.864828 0.864828
0.904902 0.904902 0.904902
0.937459 0.937459 0.937459
0.095875 0.095875 0.095875
0.095875 0.095875 0.095875
0.095875 0.095875 0.095875
0.095875 0.095875 0.095875
0.095875 0.095875 0.095875
0.095875 0.095875 0.095875
0.095875 0.095875 0.095875
0.095875 0.095875 0.095875
0.095875 0.095875 0.095875
0.095875 0.095875 0.095875
0.102778 0.102778 0.102778
0.138635 0.138635 0.138635
0.187969 0.187969 0.187969
0.234252 0.234252 0.234252
0.275221 0.275221 0.275221
0.304795 0.304795 0.304795
0.333500 0.333500 0.333500
0.361565 0.361565 0.361565
0.095875 0.095875 0.095875
0.134242 0.134242 0.134242
0.226223 0.226223 0.226223
0.296632 0.296632 0.296632
0.351412 0.351412 0.351412
0.402885 0.402885 0.402885
0.449282 0.449282 0.449282
0.492331 0.492331 0.492331
0.532339 0.532339 0.532339
0.095875 0.095875 0.095875
0.177234 0.177234 0.177234
0.292026 0.292026 0.292026
0.371463 0.371463 0.371463
0.442087 0.442087 0.442087
0.504697 0.504697 0.504697
0.560634 0.560634 0.560634
0.612285 0.612285 0.612285
0.660858 0.660858 0.660858
0.095875 0.095875 0.095875
0.218468 0.218468 0.218468
0.341544 0.341544 0.341544
0.437052 0.437052 0.437052
0.518375 0.518375 0.518375
0.588909 0.588909 0.588909
0.653607 0.653607 0.653607
0.707661 0.707661 0.707661
0.756173 0.756173 0.756173
0.095875 0.095875 0.095875
0.255393 0.255393 0.255393
0.387998 0.387998 0.387998
0.494536 0.494536 0.494536
0.583891 0.583891 0.583891
0.663339 0.663339 0.663339
0.726908 0.726908 0.726908
0.782994 0.782994 0.782994
0.821729 0.821729 0.821729
0.095875 0.095875 0.095875
0.284711 0.284711 0.284711
0.430153 0.430153 0.430153
0.545928 0.545928 0.545928
0.643522 0.643522 0.643522
0.722506 0.722506 0.722506
0.787521 0.787521 0.787521
0.832665 0.832665 0.832665
0.873857 0.873857 0.873857
0.095875 0.095875 0.095875
0.309028 0.309028 0.309028
0.468375 0.468375 0.468375
0.592709 0.592709 0.592709
0.694589 0.694589 0.694589
0.775900 0.775900 0.775900
0.829557 0.829557 0.829557
0.877111 0.877111 0.877111
0.909315 0.909315 0.909315
0.095875 0.095875 0.095875
0.332342 0.332342 0.332342
0.504322 0.504322 0.504322
0.636462 0.636462 0.636462
0.738925 0.738925 0.738925
0.812414 0.812414 0.812414
0.867780 0.867780 0.867780
0.907162 0.907162 0.907162
0.939800 0.939800 0.939800
0.095875 0.095875 0.095875
0.095875 0.095875 0.095875
0.095875 0.095875 0.095875
0.095875 0.095875 0.095875
0.095875 0.095875 0.095875
0.095875 0.095875 0.095875
0.095875 0.095875 0.095875
0.095875 0.095875 0.095875
0.095875 0.095875 0.095875
0.095875 0.095875 0.095875
0.102923 0.102923 0.102923
0.139452 0.139452 0.139452
0.189197 0.189197 0.189197
0.235691 0.235691 0.235691
0.276450 0.276450 0.276450
0.306251 0.306251 0.306251
0.335093 0.335093 0.335093
0.363377 0.363377 0.363377
0.095875 0.095875 0.095875
0.134957 0.134957 0.134957
0.227612 0.227612 0.227612
0.298049 0.298049 0.298049
0.353173 0.353173 0.353173
0.404905 0.404905 0.404905
0.451464 0.451464 0.451464
0.494722 0.494722 0.494722
0.534830 0.534830 0.534830
0.095875 0.095875 0.095875
0.178392 0.178392 0.178392
0.293354 0.293354 0.293354
0.373325 0.373325 0.373325
0.444234 0.444234 0.444234
0.507149 0.507149 0.507149
0.563257 0.563257 0.563257
0.615149 0.615149 0.615149
0.663949 0.663949 0.663949
0.095875 0.095875 0.095875
0.219810 0.219810 0.219810
0.343256 0.343256 0.343256
0.439175 0.439175 0.439175
0.520800 0.520800 0.520800
0.591664 0.591664 0.591664
0.656664 0.656664 0.656664
0.710536 0.710536 0.710536
0.759232 0.759232 0.759232
0.095875 0.095875 0.095875
0.256962 0.256962 0.256962
0.389943 0.389943 0.389943
0.496938 0.496938 0.496938
0.586622 0.586622 0.586622
0.666442 0.666442 0.666442
0.729861 0.729861 0.729861
0.785309 0.785309 0.785309
0.824158 0.824158 0.824158
0.095875 0.095875 0.095875
0.285982 0.285982 0.285982
0.432170 0.432170 0.432170
0.548482 0.548482 0.548482
0.646533 0.646533 0.646533
0.725441 0.725441 0.725441
0.789849 0.789849 0.789849
0.835126 0.835126 0.835126
0.876440 0.876440 0.876440
0.095875 0.095875 0.095875
0.310504 0.310504 0.310504
0.470650 0.470650 0.470650
0.595482 0.595482 0.595482
0.697411 0.697411 0.697411
0.778926 0.778926 0.778926
0.832010 0.832010 0.832010
0.879634 0.879634 0.879634
0.911282 0.911282 0.911282
0.095875 0.095875 0.095875
0.333930 0.333930 0.333930
0.506771 0.506771 0.506771
0.639439 0.639439 0.639439
0.741927 0.741927 0.741927
0.814816 0.814816 0.814816
0.870346 0.870346 0.870346
0.909124 0.909124 0.909124
0.941833 0.941833 0.941833
