trix_classic/TriX_Orange21_Punchy.cube
TITLE "Tri-X Orange21 Punchy"
# Adobe RGB in/out. REPLACES AgX. R=0.7239 G=0.2761 B=0.0000
LUT_3D_SIZE 33
DOMAIN_MIN 0.0 0.0 0.0
DOMAIN_MAX 1.0 1.0 1.0
0.092306 0.092306 0.092306
0.092306 0.092306 0.092306
0.092306 0.092306 0.092306
0.092306 0.092306 0.092306
0.092306 0.092306 0.092306
0.092306 0.092306 0.092306
0.092306 0.092306 0.092306
0.092306 0.092306 0.092306
0.092306 0.092306 0.092306
0.092306 0.092306 0.092306
0.092306 0.092306 0.092306
0.092306 0.092306 0.092306
0.092306 0.092306 0.092306
0.092306 0.092306 0.092306
0.092306 0.092306 0.092306
0.092306 0.092306 0.092306
0.092306 0.092306 0.092306
0.092306 0.092306 0.092306
0.092306 0.092306 0.092306
0.092306 0.092306 0.092306
0.092306 0.092306 0.092306
0.092306 0.092306 0.092306
0.092306 0.092306 0.092306
0.092306 0.092306 0.092306
0.092306 0.092306 0.092306
0.092306 0.092306 0.092306
0.092306 0.092306 0.092306
0.092306 0.092306 0.092306
0.092306 0.092306 0.092306
0.092306 0.092306 0.092306
0.092306 0.092306 0.092306
0.092306 0.092306 0.092306
0.092306 0.092306 0.092306
0.092306 0.092306 0.092306
0.092306 0.092306 0.092306
0.092306 0.092306 0.092306
0.092422 0.092422 0.092422
0.092764 0.092764 0.092764
0.093090 0.093090 0.093090
0.093553 0.093553 0.093553
0.094545 0.094545 0.094545
0.096239 0.096239 0.096239
0.098235 0.098235 0.098235
0.101039 0.101039 0.101039
0.104487 0.104487 0.104487
0.109122 0.109122 0.109122
0.114971 0.114971 0.114971
0.122773 0.122773 0.122773
0.131115 0.131115 0.131115
0.142051 0.142051 0.142051
0.153209 0.153209 0.153209
0.164531 0.164531 0.164531
0.176010 0.176010 0.176010
0.188979 0.188979 0.188979
0.202320 0.202320 0.202320
0.215917 0.215917 0.215917
0.229762 0.229762 0.229762
0.243438 0.243438 0.243438
0.257275 0.257275 0.257275
0.271631 0.271631 0.271631
0.286202 0.286202 0.286202
0.300981 0.300981 0.300981
0.315965 0.315965 0.315965
0.329343 0.329343 0.329343
0.342022 0.342022 0.342022
0.354764 0.354764 0.354764
0.092306 0.092306 0.092306
0.092306 0.092306 0.092306
0.092306 0.092306 0.092306
0.092735 0.092735 0.092735
0.093159 0.093159 0.093159
0.093791 0.093791 0.093791
0.095913 0.095913 0.095913
0.098458 0.098458 0.098458
0.102459 0.102459 0.102459
0.107706 0.107706 0.107706
0.115119 0.115119 0.115119
0.125454 0.125454 0.125454
0.137975 0.137975 0.137975
0.152461 0.152461 0.152461
0.167226 0.167226 0.167226
0.182911 0.182911 0.182911
0.200183 0.200183 0.200183
0.217891 0.217891 0.217891
0.236019 0.236019 0.236019
0.253703 0.253703 0.253703
0.272375 0.272375 0.272375
0.291410 0.291410 0.291410
0.310796 0.310796 0.310796
0.328826 0.328826 0.328826
0.345351 0.345351 0.345351
0.361981 0.361981 0.361981
0.378713 0.378713 0.378713
0.395543 0.395543 0.395543
0.412454 0.412454 0.412454
0.425857 0.425857 0.425857
0.439539 0.439539 0.439539
0.453358 0.453358 0.453358
0.467152 0.467152 0.467152
0.092306 0.092306 0.092306
0.092306 0.092306 0.092306
0.092436 0.092436 0.092436
0.092953 0.092953 0.092953
0.093591 0.093591 0.093591
0.095567 0.095567 0.095567
0.098467 0.098467 0.098467
0.103193 0.103193 0.103193
0.110087 0.110087 0.110087
0.120237 0.120237 0.120237
0.133290 0.133290 0.133290
0.150116 0.150116 0.150116
0.167326 0.167326 0.167326
0.185883 0.185883 0.185883
0.206176 0.206176 0.206176
0.227055 0.227055 0.227055
0.247729 0.247729 0.247729
0.269416 0.269416 0.269416
0.291602 0.291602 0.291602
0.314269 0.314269 0.314269
0.334506 0.334506 0.334506
0.353848 0.353848 0.353848
0.373330 0.373330 0.373330
0.392947 0.392947 0.392947
0.412633 0.412633 0.412633
0.428274 0.428274 0.428274
0.444348 0.444348 0.444348
0.460465 0.460465 0.460465
0.476549 0.476549 0.476549
0.492601 0.492601 0.492601
0.508621 0.508621 0.508621
0.524612 0.524612 0.524612
0.540574 0.540574 0.540574
0.092306 0.092306 0.092306
0.092306 0.092306 0.092306
0.092559 0.092559 0.092559
0.093117 0.093117 0.093117
0.094164 0.094164 0.094164
0.097228 0.097228 0.097228
0.101652 0.101652 0.101652
0.108390 0.108390 0.108390
0.119354 0.119354 0.119354
0.134015 0.134015 0.134015
0.152837 0.152837 0.152837
0.172131 0.172131 0.172131
0.193755 0.193755 0.193755
0.216698 0.216698 0.216698
0.240210 0.240210 0.240210
0.263713 0.263713 0.263713
0.288362 0.288362 0.288362
0.313610 0.313610 0.313610
0.336187 0.336187 0.336187
0.357794 0.357794 0.357794
0.379575 0.379575 0.379575
0.401523 0.401523 0.401523
0.421258 0.421258 0.421258
0.438973 0.438973 0.438973
0.456969 0.456969 0.456969
0.474924 0.474924 0.474924
0.492839 0.492839 0.492839
0.510714 0.510714 0.510714
0.528553 0.528553 0.528553
0.546357 0.546357 0.546357
0.562156 0.562156 0.562156
0.577724 0.577724 0.577724
0.593209 0.593209 0.593209
0.092306 0.092306 0.092306
0.092306 0.092306 0.092306
0.092665 0.092665 0.092665
0.093331 0.093331 0.093331
0.095215 0.095215 0.095215
0.098681 0.098681 0.098681
0.104868 0.104868 0.104868
0.114577 0.114577 0.114577
0.129255 0.129255 0.129255
0.149023 0.149023 0.149023
0.169953 0.169953 0.169953
0.193238 0.193238 0.193238
0.218236 0.218236 0.218236
0.243650 0.243650 0.243650
0.269659 0.269659 0.269659
0.296688 0.296688 0.296688
0.323763 0.323763 0.323763
0.347185 0.347185 0.347185
0.370817 0.370817 0.370817
0.394650 0.394650 0.394650
0.417356 0.417356 0.417356
0.436546 0.436546 0.436546
0.456145 0.456145 0.456145
0.475694 0.475694 0.475694
0.495196 0.495196 0.495196
0.514653 0.514653 0.514653
0.534066 0.534066 0.534066
0.552746 0.552746 0.552746
0.569749 0.569749 0.569749
0.586652 0.586652 0.586652
0.603457 0.603457 0.603457
0.620168 0.620168 0.620168
0.636791 0.636791 0.636791
0.092306 0.092306 0.092306
0.092306 0.092306 0.092306
0.092752 0.092752 0.092752
0.093526 0.093526 0.093526
0.096081 0.096081 0.096081
0.100703 0.100703 0.100703
0.108424 0.108424 0.108424
0.121675 0.121675 0.121675
0.140318 0.140318 0.140318
0.162524 0.162524 0.162524
0.186396 0.186396 0.186396
0.212966 0.212966 0.212966
0.240359 0.240359 0.240359
0.267956 0.267956 0.267956
0.296909 0.296909 0.296909
0.325630 0.325630 0.325630
0.350765 0.350765 0.350765
0.376140 0.376140 0.376140
0.401744 0.401744 0.401744
0.424351 0.424351 0.424351
0.445177 0.445177 0.445177
0.466162 0.466162 0.466162
0.487091 0.487091 0.487091
0.507967 0.507967 0.507967
0.528792 0.528792 0.528792
0.549335 0.549335 0.549335
0.567581 0.567581 0.567581
0.585710 0.585710 0.585710
0.603727 0.603727 0.603727
0.621637 0.621637 0.621637
0.639444 0.639444 0.639444
0.657153 0.657153 0.657153
0.674766 0.674766 0.674766
0.092306 0.092306 0.092306
0.092306 0.092306 0.092306
0.092831 0.092831 0.092831
0.093690 0.093690 0.093690
0.097064 0.097064 0.097064
0.102728 0.102728 0.102728
0.112662 0.112662 0.112662
0.128607 0.128607 0.128607
0.150994 0.150994 0.150994
0.174890 0.174890 0.174890
0.202364 0.202364 0.202364
0.231210 0.231210 0.231210
0.260185 0.260185 0.260185
0.290677 0.290677 0.290677
0.321824 0.321824 0.321824
0.348448 0.348448 0.348448
0.375345 0.375345 0.375345
0.402499 0.402499 0.402499
0.426180 0.426180 0.426180
0.448338 0.448338 0.448338
0.470582 0.470582 0.470582
0.492765 0.492765 0.492765
0.514888 0.514888 0.514888
0.536955 0.536955 0.536955
0.557619 0.557619 0.557619
0.576908 0.576908 0.576908
0.596070 0.596070 0.596070
0.615109 0.615109 0.615109
0.634030 0.634030 0.634030
0.652839 0.652839 0.652839
0.671541 0.671541 0.671541
0.690138 0.690138 0.690138
0.708059 0.708059 0.708059
0.092306 0.092306 0.092306
0.092306 0.092306 0.092306
0.092906 0.092906 0.092906
0.093878 0.093878 0.093878
0.097929 0.097929 0.097929
0.104714 0.104714 0.104714
0.116837 0.116837 0.116837
0.136210 0.136210 0.136210
0.160896 0.160896 0.160896
0.187534 0.187534 0.187534
0.217298 0.217298 0.217298
0.247522 0.247522 0.247522
0.279191 0.279191 0.279191
0.311911 0.311911 0.311911
0.341270 0.341270 0.341270
0.369503 0.369503 0.369503
0.398025 0.398025 0.398025
0.423765 0.423765 0.423765
0.447009 0.447009 0.447009
0.470418 0.470418 0.470418
0.493758 0.493758 0.493758
0.517033 0.517033 0.517033
0.540246 0.540246 0.540246
0.561518 0.561518 0.561518
0.581784 0.581784 0.581784
0.601910 0.601910 0.601910
0.621902 0.621902 0.621902
0.641766 0.641766 0.641766
0.661507 0.661507 0.661507
0.681131 0.681131 0.681131
0.700643 0.700643 0.700643
0.717854 0.717854 0.717854
0.734370 0.734370 0.734370
0.092306 0.092306 0.092306
0.092306 0.092306 0.092306
0.092973 0.092973 0.092973
0.094430 0.094430 0.094430
0.098699 0.098699 0.098699
0.106980 0.106980 0.106980
0.121728 0.121728 0.121728
0.144060 0.144060 0.144060
0.170168 0.170168 0.170168
0.199689 0.199689 0.199689
0.231382 0.231382 0.231382
0.263385 0.263385 0.263385
0.297105 0.297105 0.297105
0.329983 0.329983 0.329983
0.359395 0.359395 0.359395
0.389129 0.389129 0.389129
0.417742 0.417742 0.417742
0.441873 0.441873 0.441873
0.466372 0.466372 0.466372
0.490795 0.490795 0.490795
0.515146 0.515146 0.515146
0.539429 0.539429 0.539429
0.561736 0.561736 0.561736
0.582928 0.582928 0.582928
0.603967 0.603967 0.603967
0.624860 0.624860 0.624860
0.645615 0.645615 0.645615
0.666236 0.666236 0.666236
0.686730 0.686730 0.686730
0.706742 0.706742 0.706742
0.724118 0.724118 0.724118
0.741331 0.741331 0.741331
0.758387 0.758387 0.758387
0.092306 0.092306 0.092306
0.092306 0.092306 0.092306
0.093033 0.093033 0.093033
0.094925 0.094925 0.094925
0.099796 0.099796 0.099796
0.109311 0.109311 0.109311
0.126381 0.126381 0.126381
0.151464 0.151464 0.151464
0.179156 0.179156 0.179156
0.211228 0.211228 0.211228
0.244273 0.244273 0.244273
0.278453 0.278453 0.278453
0.314101 0.314101 0.314101
0.345618 0.345618 0.345618
0.376423 0.376423 0.376423
0.407566 0.407566 0.407566
0.433427 0.433427 0.433427
0.458957 0.458957 0.458957
0.484403 0.484403 0.484403
0.509770 0.509770 0.509770
0.535063 0.535063 0.535063
0.558777 0.558777 0.558777
0.580857 0.580857 0.580857
0.602771 0.602771 0.602771
0.624527 0.624527 0.624527
0.646131 0.646131 0.646131
0.667592 0.667592 0.667592
0.688915 0.688915 0.688915
0.709324 0.709324 0.709324
0.727383 0.727383 0.727383
0.745267 0.745267 0.745267
0.762982 0.762982 0.762982
0.780496 0.780496 0.780496
0.092306 0.092306 0.092306
0.092306 0.092306 0.092306
0.093087 0.093087 0.093087
0.095376 0.095376 0.095376
0.100977 0.100977 0.100977
0.111933 0.111933 0.111933
0.130885 0.130885 0.130885
0.158489 0.158489 0.158489
0.188496 0.188496 0.188496
0.222240 0.222240 0.222240
0.256624 0.256624 0.256624
0.292824 0.292824 0.292824
0.328650 0.328650 0.328650
0.360399 0.360399 0.360399
0.392521 0.392521 0.392521
0.422332 0.422332 0.422332
0.448558 0.448558 0.448558
0.474979 0.474979 0.474979
0.501313 0.501313 0.501313
0.527566 0.527566 0.527566
0.553014 0.553014 0.553014
0.575956 0.575956 0.575956
0.598715 0.598715 0.598715
0.621303 0.621303 0.621303
0.643727 0.643727 0.643727
0.665996 0.665996 0.665996
0.688116 0.688116 0.688116
0.709314 0.709314 0.709314
0.728038 0.728038 0.728038
0.746574 0.746574 0.746574
0.764930 0.764930 0.764930
0.783061 0.783061 0.783061
0.800998 0.800998 0.800998
0.092306 0.092306 0.092306
0.092306 0.092306 0.092306
0.093137 0.093137 0.093137
0.095790 0.095790 0.095790
0.102118 0.102118 0.102118
0.114383 0.114383 0.114383
0.136291 0.136291 0.136291
0.165186 0.165186 0.165186
0.197448 0.197448 0.197448
0.232794 0.232794 0.232794
0.268689 0.268689 0.268689
0.306590 0.306590 0.306590
0.341457 0.341457 0.341457
0.374443 0.374443 0.374443
0.407818 0.407818 0.407818
0.435474 0.435474 0.435474
0.462832 0.462832 0.462832
0.490094 0.490094 0.490094
0.517266 0.517266 0.517266
0.544354 0.544354 0.544354
0.568515 0.568515 0.568515
0.592100 0.592100 0.592100
0.615497 0.615497 0.615497
0.638718 0.638718 0.638718
0.661771 0.661771 0.661771
0.684664 0.684664 0.684664
0.707001 0.707001 0.707001
0.726379 0.726379 0.726379
0.745554 0.745554 0.745554
0.764536 0.764536 0.764536
0.783281 0.783281 0.783281
0.801818 0.801818 0.801818
0.819139 0.819139 0.819139
0.092306 0.092306 0.092306
0.092306 0.092306 0.092306
0.093217 0.093217 0.093217
0.096195 0.096195 0.096195
0.103179 0.103179 0.103179
0.117140 0.117140 0.117140
0.141581 0.141581 0.141581
0.171597 0.171597 0.171597
0.206057 0.206057 0.206057
0.242603 0.242603 0.242603
0.280288 0.280288 0.280288
0.319825 0.319825 0.319825
0.353680 0.353680 0.353680
0.387846 0.387846 0.387846
0.420303 0.420303 0.420303
0.448206 0.448206 0.448206
0.476363 0.476363 0.476363
0.504423 0.504423 0.504423
0.532389 0.532389 0.532389
0.558764 0.558764 0.558764
0.583158 0.583158 0.583158
0.607350 0.607350 0.607350
0.631350 0.631350 0.631350
0.655169 0.655169 0.655169
0.678815 0.678815 0.678815
0.702298 0.702298 0.702298
0.722634 0.722634 0.722634
0.742440 0.742440 0.742440
0.762039 0.762039 0.762039
0.781396 0.781396 0.781396
0.800524 0.800524 0.800524
0.818547 0.818547 0.818547
0.834036 0.834036 0.834036
0.092306 0.092306 0.092306
0.092328 0.092328 0.092328
0.093296 0.093296 0.093296
0.096670 0.096670 0.096670
0.104230 0.104230 0.104230
0.120201 0.120201 0.120201
0.146661 0.146661 0.146661
0.177855 0.177855 0.177855
0.214362 0.214362 0.214362
0.251911 0.251911 0.251911
0.291473 0.291473 0.291473
0.330533 0.330533 0.330533
0.365385 0.365385 0.365385
0.400683 0.400683 0.400683
0.431299 0.431299 0.431299
0.460326 0.460326 0.460326
0.489244 0.489244 0.489244
0.518062 0.518062 0.518062
0.546785 0.546785 0.546785
0.572076 0.572076 0.572076
0.597051 0.597051 0.597051
0.621820 0.621820 0.621820
0.646392 0.646392 0.646392
0.670778 0.670778 0.670778
0.694988 0.694988 0.694988
0.716982 0.716982 0.716982
0.737415 0.737415 0.737415
0.757626 0.757626 0.757626
0.777599 0.777599 0.777599
0.797310 0.797310 0.797310
0.816362 0.816362 0.816362
0.832321 0.832321 0.832321
0.848070 0.848070 0.848070
0.092306 0.092306 0.092306
0.092355 0.092355 0.092355
0.093369 0.093369 0.093369
0.097114 0.097114 0.097114
0.105545 0.105545 0.105545
0.123123 0.123123 0.123123
0.151554 0.151554 0.151554
0.184520 0.184520 0.184520
0.222395 0.222395 0.222395
0.261256 0.261256 0.261256
0.302286 0.302286 0.302286
0.340706 0.340706 0.340706
0.376631 0.376631 0.376631
0.412886 0.412886 0.412886
0.442146 0.442146 0.442146
0.471903 0.471903 0.471903
0.501549 0.501549 0.501549
0.531092 0.531092 0.531092
0.558999 0.558999 0.558999
0.584754 0.584754 0.584754
0.610283 0.610283 0.610283
0.635600 0.635600 0.635600
0.660717 0.660717 0.660717
0.685643 0.685643 0.685643
0.709567 0.709567 0.709567
0.730626 0.730626 0.730626
0.751448 0.751448 0.751448
0.772040 0.772040 0.772040
0.792331 0.792331 0.792331
0.812416 0.812416 0.812416
0.829143 0.829143 0.829143
0.845352 0.845352 0.845352
0.861348 0.861348 0.861348
0.092306 0.092306 0.092306
0.092380 0.092380 0.092380
0.093438 0.093438 0.093438
0.097531 0.097531 0.097531
0.106790 0.106790 0.106790
0.126006 0.126006 0.126006
0.156279 0.156279 0.156279
0.190980 0.190980 0.190980
0.230181 0.230181 0.230181
0.270312 0.270312 0.270312
0.312764 0.312764 0.312764
0.350505 0.350505 0.350505
0.387463 0.387463 0.387463
0.422252 0.422252 0.422252
0.452540 0.452540 0.452540
0.482996 0.482996 0.482996
0.513339 0.513339 0.513339
0.543576 0.543576 0.543576
0.570579 0.570579 0.570579
0.596868 0.596868 0.596868
0.622926 0.622926 0.622926
0.648767 0.648767 0.648767
0.674404 0.674404 0.674404
0.699847 0.699847 0.699847
0.722190 0.722190 0.722190
0.743624 0.743624 0.743624
0.764816 0.764816 0.764816
0.785715 0.785715 0.785715
0.806365 0.806365 0.806365
0.824608 0.824608 0.824608
0.841280 0.841280 0.841280
0.857726 0.857726 0.857726
0.873956 0.873956 0.873956
0.092306 0.092306 0.092306
0.092403 0.092403 0.092403
0.093502 0.093502 0.093502
0.097925 0.097925 0.097925
0.107974 0.107974 0.107974
0.128844 0.128844 0.128844
0.160851 0.160851 0.160851
0.197254 0.197254 0.197254
0.237743 0.237743 0.237743
0.279105 0.279105 0.279105
0.322533 0.322533 0.322533
0.359967 0.359967 0.359967
0.397923 0.397923 0.397923
0.431272 0.431272 0.431272
0.462526 0.462526 0.462526
0.493654 0.493654 0.493654
0.524667 0.524667 0.524667
0.554627 0.554627 0.554627
0.581676 0.581676 0.581676
0.608475 0.608475 0.608475
0.635040 0.635040 0.635040
0.661384 0.661384 0.661384
0.687520 0.687520 0.687520
0.712201 0.712201 0.712201
0.734252 0.734252 0.734252
0.756044 0.756044 0.756044
0.777563 0.777563 0.777563
0.798781 0.798781 0.798781
0.818800 0.818800 0.818800
0.835941 0.835941 0.835941
0.852843 0.852843 0.852843
0.869515 0.869515 0.869515
0.883300 0.883300 0.883300
0.092306 0.092306 0.092306
0.092426 0.092426 0.092426
0.093563 0.093563 0.093563
0.098298 0.098298 0.098298
0.109383 0.109383 0.109383
0.131664 0.131664 0.131664
0.165285 0.165285 0.165285
0.203358 0.203358 0.203358
0.244595 0.244595 0.244595
0.287657 0.287657 0.287657
0.330735 0.330735 0.330735
0.369121 0.369121 0.369121
0.408043 0.408043 0.408043
0.440239 0.440239 0.440239
0.472142 0.472142 0.472142
0.503918 0.503918 0.503918
0.535576 0.535576 0.535576
0.564790 0.564790 0.564790
0.592335 0.592335 0.592335
0.619626 0.619626 0.619626
0.646678 0.646678 0.646678
0.673505 0.673505 0.673505
0.700119 0.700119 0.700119
0.723411 0.723411 0.723411
0.745809 0.745809 0.745809
0.767944 0.767944 0.767944
0.789748 0.789748 0.789748
0.811299 0.811299 0.811299
0.829406 0.829406 0.829406
0.846770 0.846770 0.846770
0.863890 0.863890 0.863890
0.879401 0.879401 0.879401
0.891902 0.891902 0.891902
0.092306 0.092306 0.092306
0.092447 0.092447 0.092447
0.093621 0.093621 0.093621
0.098652 0.098652 0.098652
0.110864 0.110864 0.110864
0.135094 0.135094 0.135094
0.169591 0.169591 0.169591
0.209306 0.209306 0.209306
0.251450 0.251450 0.251450
0.295987 0.295987 0.295987
0.338686 0.338686 0.338686
0.377995 0.377995 0.377995
0.416707 0.416707 0.416707
0.448893 0.448893 0.448893
0.481423 0.481423 0.481423
0.513823 0.513823 0.513823
0.546103 0.546103 0.546103
0.574576 0.574576 0.574576
0.602598 0.602598 0.602598
0.630362 0.630362 0.630362
0.657882 0.657882 0.657882
0.685174 0.685174 0.685174
0.711164 0.711164 0.711164
0.734177 0.734177 0.734177
0.756909 0.756909 0.756909
0.779338 0.779338 0.779338
0.801450 0.801450 0.801450
0.821730 0.821730 0.821730
0.839565 0.839565 0.839565
0.857141 0.857141 0.857141
0.874471 0.874471 0.874471
0.887500 0.887500 0.887500
0.900116 0.900116 0.900116
0.092306 0.092306 0.092306
0.092467 0.092467 0.092467
0.093676 0.093676 0.093676
0.099137 0.099137 0.099137
0.112288 0.112288 0.112288
0.138431 0.138431 0.138431
0.173780 0.173780 0.173780
0.215110 0.215110 0.215110
0.258353 0.258353 0.258353
0.304112 0.304112 0.304112
0.346405 0.346405 0.346405
0.386610 0.386610 0.386610
0.424202 0.424202 0.424202
0.457259 0.457259 0.457259
0.490396 0.490396 0.490396
0.523400 0.523400 0.523400
0.555252 0.555252 0.555252
0.584016 0.584016 0.584016
0.612499 0.612499 0.612499
0.640718 0.640718 0.640718
0.668691 0.668691 0.668691
0.696431 0.696431 0.696431
0.721201 0.721201 0.721201
0.744539 0.744539 0.744539
0.767591 0.767591 0.767591
0.790289 0.790289 0.790289
0.812712 0.812712 0.812712
0.831275 0.831275 0.831275
0.849318 0.849318 0.849318
0.867098 0.867098 0.867098
0.882295 0.882295 0.882295
0.895252 0.895252 0.895252
0.907978 0.907978 0.907978
0.092306 0.092306 0.092306
0.092485 0.092485 0.092485
0.093728 0.093728 0.093728
0.099662 0.099662 0.099662
0.113659 0.113659 0.113659
0.141681 0.141681 0.141681
0.177974 0.177974 0.177974
0.220779 0.220779 0.220779
0.265095 0.265095 0.265095
0.312048 0.312048 0.312048
0.353911 0.353911 0.353911
0.394987 0.394987 0.394987
0.431493 0.431493 0.431493
0.465362 0.465362 0.465362
0.499086 0.499086 0.499086
0.532675 0.532675 0.532675
0.563926 0.563926 0.563926
0.593140 0.593140 0.593140
0.622067 0.622067 0.622067
0.650728 0.650728 0.650728
0.679137 0.679137 0.679137
0.706921 0.706921 0.706921
0.730879 0.730879 0.730879
0.754531 0.754531 0.754531
0.777864 0.777864 0.777864
0.800848 0.800848 0.800848
0.821937 0.821937 0.821937
0.840458 0.840458 0.840458
0.858700 0.858700 0.858700
0.876316 0.876316 0.876316
0.889624 0.889624 0.889624
0.902688 0.902688 0.902688
0.915520 0.915520 0.915520
0.092306 0.092306 0.092306
0.092505 0.092505 0.092505
0.093784 0.093784 0.093784
0.100182 0.100182 0.100182
0.114982 0.114982 0.114982
0.144851 0.144851 0.144851
0.182444 0.182444 0.182444
0.226324 0.226324 0.226324
0.271687 0.271687 0.271687
0.319808 0.319808 0.319808
0.361220 0.361220 0.361220
0.403144 0.403144 0.403144
0.438781 0.438781 0.438781
0.473222 0.473222 0.473222
0.507516 0.507516 0.507516
0.541672 0.541672 0.541672
0.572323 0.572323 0.572323
0.601971 0.601971 0.601971
0.631329 0.631329 0.631329
0.660417 0.660417 0.660417
0.689249 0.689249 0.689249
0.715964 0.715964 0.715964
0.740228 0.740228 0.740228
0.764183 0.764183 0.764183
0.787771 0.787771 0.787771
0.811048 0.811048 0.811048
0.830592 0.830592 0.830592
0.849308 0.849308 0.849308
0.867742 0.867742 0.867742
0.883255 0.883255 0.883255
0.896669 0.896669 0.896669
0.909836 0.909836 0.909836
0.922770 0.922770 0.922770
0.092306 0.092306 0.092306
0.092526 0.092526 0.092526
0.093857 0.093857 0.093857
0.100759 0.100759 0.100759
0.116547 0.116547 0.116547
0.147947 0.147947 0.147947
0.186820 0.186820 0.186820
0.231752 0.231752 0.231752
0.278139 0.278139 0.278139
0.326239 0.326239 0.326239
0.368344 0.368344 0.368344
0.411095 0.411095 0.411095
0.445859 0.445859 0.445859
0.480857 0.480857 0.480857
0.515703 0.515703 0.515703
0.550078 0.550078 0.550078
0.580463 0.580463 0.580463
0.610533 0.610533 0.610533
0.640309 0.640309 0.640309
0.669810 0.669810 0.669810
0.699052 0.699052 0.699052
0.724712 0.724712 0.724712
0.749274 0.749274 0.749274
0.773511 0.773511 0.773511
0.797355 0.797355 0.797355
0.819743 0.819743 0.819743
0.838947 0.838947 0.838947
0.857851 0.857851 0.857851
0.876161 0.876161 0.876161
0.889937 0.889937 0.889937
0.903453 0.903453 0.903453
0.916720 0.916720 0.916720
0.928838 0.928838 0.928838
0.092306 0.092306 0.092306
0.092547 0.092547 0.092547
0.094044 0.094044 0.094044
0.101314 0.101314 0.101314
0.118286 0.118286 0.118286
0.150973 0.150973 0.150973
0.191108 0.191108 0.191108
0.237072 0.237072 0.237072
0.284460 0.284460 0.284460
0.332397 0.332397 0.332397
0.375296 0.375296 0.375296
0.417497 0.417497 0.417497
0.452744 0.452744 0.452744
0.488281 0.488281 0.488281
0.523666 0.523666 0.523666
0.557566 0.557566 0.557566
0.588365 0.588365 0.588365
0.618844 0.618844 0.618844
0.649026 0.649026 0.649026
0.678928 0.678928 0.678928
0.708002 0.708002 0.708002
0.733189 0.733189 0.733189
0.758038 0.758038 0.758038
0.782519 0.782519 0.782519
0.806640 0.806640 0.806640
0.827636 0.827636 0.827636
0.847025 0.847025 0.847025
0.866112 0.866112 0.866112
0.882506 0.882506 0.882506
0.896382 0.896382 0.896382
0.909995 0.909995 0.909995
0.923359 0.923359 0.923359
0.933249 0.933249 0.933249
0.092306 0.092306 0.092306
0.092566 0.092566 0.092566
0.094235 0.094235 0.094235
0.101849 0.101849 0.101849
0.119979 0.119979 0.119979
0.153933 0.153933 0.153933
0.195313 0.195313 0.195313
0.241997 0.241997 0.241997
0.290657 0.290657 0.290657
0.338412 0.338412 0.338412
0.382088 0.382088 0.382088
0.423463 0.423463 0.423463
0.459447 0.459447 0.459447
0.495511 0.495511 0.495511
0.531419 0.531419 0.531419
0.564845 0.564845 0.564845
0.596046 0.596046 0.596046
0.626923 0.626923 0.626923
0.657498 0.657498 0.657498
0.687791 0.687791 0.687791
0.715943 0.715943 0.715943
0.741412 0.741412 0.741412
0.766540 0.766540 0.766540
0.791257 0.791257 0.791257
0.815387 0.815387 0.815387
0.835279 0.835279 0.835279
0.854847 0.854847 0.854847
0.874109 0.874109 0.874109
0.888636 0.888636 0.888636
0.902608 0.902608 0.902608
0.916316 0.916316 0.916316
0.928852 0.928852 0.928852
0.937499 0.937499 0.937499
0.092306 0.092306 0.092306
0.092585 0.092585 0.092585
0.094419 0.094419 0.094419
0.102367 0.102367 0.102367
0.121629 0.121629 0.121629
0.156832 0.156832 0.156832
0.199440 0.199440 0.199440
0.246725 0.246725 0.246725
0.296739 0.296739 0.296739
0.344295 0.344295 0.344295
0.388730 0.388730 0.388730
0.429275 0.429275 0.429275
0.465981 0.465981 0.465981
0.502557 0.502557 0.502557
0.538976 0.538976 0.538976
0.571927 0.571927 0.571927
0.603519 0.603519 0.603519
0.634784 0.634784 0.634784
0.665742 0.665742 0.665742
0.696415 0.696415 0.696415
0.723657 0.723657 0.723657
0.749400 0.749400 0.749400
0.774783 0.774783 0.774783
0.799745 0.799745 0.799745
0.822620 0.822620 0.822620
