trix_classic/TriX_Green58_ExtraPunchy.cube
TITLE "Tri-X Green58 ExtraPunchy"
# Adobe RGB in/out. REPLACES AgX. R=0.1714 G=0.8069 B=0.0217
LUT_3D_SIZE 9
DOMAIN_MIN 0.0 0.0 0.0
DOMAIN_MAX 1.0 1.0 1.0
0.092237 0.092237 0.092237
0.092237 0.092237 0.092237
0.092237 0.092237 0.092237
0.092237 0.092237 0.092237
0.092237 0.092237 0.092237
0.092237 0.092237 0.092237
0.092237 0.092237 0.092237
0.092237 0.092237 0.092237
0.092237 0.092237 0.092237
0.092237 0.092237 0.092237
0.092237 0.092237 0.092237
0.092237 0.092237 0.092237
0.092237 0.092237 0.092237
0.092237 0.092237 0.092237
0.092237 0.092237 0.092237
0.092237 0.092237 0.092237
0.092237 0.092237 0.092237
0.092237 0.092237 0.092237
0.092237 0.092237 0.092237
0.092237 0.092237 0.092237
0.092237 0.092237 0.092237
0.092237 0.092237 0.092237
0.092237 0.092237 0.092237
0.092237 0.092237 0.092237
0.092237 0.092237 0.092237
0.092237 0.092237 0.092237
0.092237 0.092237 0.092237
0.092237 0.092237 0.092237
0.092237 0.092237 0.092237
0.092237 0.092237 0.092237
0.092237 0.092237 0.092237
0.092237 0.092237 0.092237
0.092237 0.092237 0.092237
0.092237 0.092237 0.092237
0.092237 0.092237 0.092237
0.092237 0.092237 0.092237
0.092237 0.092237 0.092237
0.092237 0.092237 0.092237
0.092237 0.092237 0.092237
0.092237 0.092237 0.092237
0.092237 0.092237 0.092237
0.092237 0.092237 0.092237
0.092237 0.092237 0.092237
0.092237 0.092237 0.092237
0.092237 0.092237 0.092237
0.092237 0.092237 0.092237
0.092237 0.092237 0.092237
0.092237 0.092237 0.092237
0.092237 0.092237 0.092237
0.092237 0.092237 0.092237
0.092237 0.092237 0.092237
0.092237 0.092237 0.092237
0.092237 0.092237 0.092237
0.092237 0.092237 0.092237
0.092237 0.092237 0.092237
0.092237 0.092237 0.092237
0.092237 0.092237 0.092237
0.092237 0.092237 0.092237
0.092237 0.092237 0.092237
0.092237 0.092237 0.092237
0.092237 0.092237 0.092237
0.092237 0.092237 0.092237
0.092237 0.092237 0.092237
0.092237 0.092237 0.092237
0.092237 0.092237 0.092237
0.092237 0.092237 0.092237
0.092237 0.092237 0.092237
0.092237 0.092237 0.092237
0.092237 0.092237 0.092237
0.092237 0.092237 0.092237
0.092237 0.092237 0.092237
0.092237 0.092237 0.092237
0.092237 0.092237 0.092237
0.092237 0.092237 0.092237
0.092237 0.092237 0.092237
0.092237 0.092237 0.092237
0.092237 0.092237 0.092237
0.092237 0.092237 0.092237
0.092237 0.092237 0.092237
0.092237 0.092237 0.092237
0.092237 0.092237 0.092237
0.092237 0.092237 0.092237
0.092237 0.092237 0.092237
0.092237 0.092237 0.092237
0.092237 0.092237 0.092237
0.092237 0.092237 0.092237
0.092237 0.092237 0.092237
0.092237 0.092237 0.092237
0.092237 0.092237 0.092237
0.092237 0.092237 0.092237
0.092237 0.092237 0.092237
0.092317 0.092317 0.092317
0.092677 0.092677 0.092677
0.092963 0.092963 0.092963
0.093507 0.093507 0.093507
0.093932 0.093932 0.093932
0.094281 0.094281 0.094281
0.094644 0.094644 0.094644
0.095307 0.095307 0.095307
0.092237 0.092237 0.092237
0.105977 0.105977 0.105977
0.124877 0.124877 0.124877
0.141547 0.141547 0.141547
0.157164 0.157164 0.157164
0.170454 0.170454 0.170454
0.182144 0.182144 0.182144
0.192694 0.192694 0.192694
0.202469 0.202469 0.202469
0.092237 0.092237 0.092237
0.190102 0.190102 0.190102
0.246764 0.246764 0.246764
0.287512 0.287512 0.287512
0.318574 0.318574 0.318574
0.344960 0.344960 0.344960
0.368134 0.368134 0.368134
0.388937 0.388937 0.388937
0.407844 0.407844 0.407844
0.092237 0.092237 0.092237
0.314966 0.314966 0.314966
0.403273 0.403273 0.403273
0.465313 0.465313 0.465313
0.514974 0.514974 0.514974
0.554579 0.554579 0.554579
0.589071 0.589071 0.589071
0.619870 0.619870 0.619870
0.646887 0.646887 0.646887
0.092237 0.092237 0.092237
0.457483 0.457483 0.457483
0.579781 0.579781 0.579781
0.659783 0.659783 0.659783
0.715793 0.715793 0.715793
0.752196 0.752196 0.752196
0.781119 0.781119 0.781119
0.805707 0.805707 0.805707
0.820469 0.820469 0.820469
0.092237 0.092237 0.092237
0.612324 0.612324 0.612324
0.743229 0.743229 0.743229
0.806917 0.806917 0.806917
0.839106 0.839106 0.839106
0.864956 0.864956 0.864956
0.883132 0.883132 0.883132
0.896789 0.896789 0.896789
0.908651 0.908651 0.908651
0.092237 0.092237 0.092237
0.748256 0.748256 0.748256
0.842831 0.842831 0.842831
0.886123 0.886123 0.886123
0.911569 0.911569 0.911569
0.927658 0.927658 0.927658
0.940147 0.940147 0.940147
0.950838 0.950838 0.950838
0.958467 0.958467 0.958467
0.092237 0.092237 0.092237
0.835471 0.835471 0.835471
0.905800 0.905800 0.905800
0.935710 0.935710 0.935710
0.955665 0.955665 0.955665
0.964592 0.964592 0.964592
0.971680 0.971680 0.971680
0.977714 0.977714 0.977714
0.980497 0.980497 0.980497
0.092237 0.092237 0.092237
0.092237 0.092237 0.092237
0.092237 0.092237 0.092237
0.092237 0.092237 0.092237
0.092237 0.092237 0.092237
0.092237 0.092237 0.092237
0.092237 0.092237 0.092237
0.092237 0.092237 0.092237
0.092237 0.092237 0.092237
0.092237 0.092237 0.092237
0.092362 0.092362 0.092362
0.092723 0.092723 0.092723
0.093128 0.093128 0.093128
0.093675 0.093675 0.093675
0.094101 0.094101 0.094101
0.094450 0.094450 0.094450
0.095080 0.095080 0.095080
0.095746 0.095746 0.095746
0.092237 0.092237 0.092237
0.107562 0.107562 0.107562
0.128236 0.128236 0.128236
0.146149 0.146149 0.146149
0.162274 0.162274 0.162274
0.175996 0.175996 0.175996
0.188087 0.188087 0.188087
0.199004 0.199004 0.199004
0.209324 0.209324 0.209324
0.092237 0.092237 0.092237
0.196312 0.196312 0.196312
0.255119 0.255119 0.255119
0.296672 0.296672 0.296672
0.328723 0.328723 0.328723
0.355950 0.355950 0.355950
0.379862 0.379862 0.379862
0.401328 0.401328 0.401328
0.420701 0.420701 0.420701
0.092237 0.092237 0.092237
0.325001 0.325001 0.325001
0.415987 0.415987 0.415987
0.479982 0.479982 0.479982
0.530234 0.530234 0.530234
0.570976 0.570976 0.570976
0.606450 0.606450 0.606450
0.638157 0.638157 0.638157
0.663203 0.663203 0.663203
0.092237 0.092237 0.092237
0.471905 0.471905 0.471905
0.596885 0.596885 0.596885
0.676424 0.676424 0.676424
0.731443 0.731443 0.731443
0.766012 0.766012 0.766012
0.795466 0.795466 0.795466
0.815399 0.815399 0.815399
0.830339 0.830339 0.830339
0.092237 0.092237 0.092237
0.630389 0.630389 0.630389
0.756880 0.756880 0.756880
0.816625 0.816625 0.816625
0.849201 0.849201 0.849201
0.874492 0.874492 0.874492
0.890965 0.890965 0.890965
0.904584 0.904584 0.904584
0.916312 0.916312 0.916312
0.092237 0.092237 0.092237
0.761999 0.761999 0.761999
0.852970 0.852970 0.852970
0.893826 0.893826 0.893826
0.918504 0.918504 0.918504
0.933662 0.933662 0.933662
0.946232 0.946232 0.946232
0.956714 0.956714 0.956714
0.961858 0.961858 0.961858
0.092237 0.092237 0.092237
0.845522 0.845522 0.845522
0.913674 0.913674 0.913674
0.941765 0.941765 0.941765
0.959370 0.959370 0.959370
0.968005 0.968005 0.968005
0.975118 0.975118 0.975118
0.979840 0.979840 0.979840
0.981764 0.981764 0.981764
0.092237 0.092237 0.092237
0.092237 0.092237 0.092237
0.092237 0.092237 0.092237
0.092237 0.092237 0.092237
0.092237 0.092237 0.092237
0.092237 0.092237 0.092237
0.092237 0.092237 0.092237
0.092237 0.092237 0.092237
0.092237 0.092237 0.092237
0.092237 0.092237 0.092237
0.092389 0.092389 0.092389
0.092749 0.092749 0.092749
0.093226 0.093226 0.093226
0.093773 0.093773 0.093773
0.094199 0.094199 0.094199
0.094571 0.094571 0.094571
0.095336 0.095336 0.095336
0.096003 0.096003 0.096003
0.092237 0.092237 0.092237
0.108526 0.108526 0.108526
0.130242 0.130242 0.130242
0.148910 0.148910 0.148910
0.165339 0.165339 0.165339
0.179321 0.179321 0.179321
0.191657 0.191657 0.191657
0.202919 0.202919 0.202919
0.213441 0.213441 0.213441
0.092237 0.092237 0.092237
0.200092 0.200092 0.200092
0.260137 0.260137 0.260137
0.302165 0.302165 0.302165
0.334810 0.334810 0.334810
0.362541 0.362541 0.362541
0.386895 0.386895 0.386895
0.408688 0.408688 0.408688
0.428409 0.428409 0.428409
0.092237 0.092237 0.092237
0.331019 0.331019 0.331019
0.423608 0.423608 0.423608
0.488777 0.488777 0.488777
0.539370 0.539370 0.539370
0.580770 0.580770 0.580770
0.616853 0.616853 0.616853
0.647962 0.647962 0.647962
0.672937 0.672937 0.672937
0.092237 0.092237 0.092237
0.480551 0.480551 0.480551
0.607124 0.607124 0.607124
0.686353 0.686353 0.686353
0.739272 0.739272 0.739272
0.774211 0.774211 0.774211
0.803980 0.803980 0.803980
0.821123 0.821123 0.821123
0.836168 0.836168 0.836168
0.092237 0.092237 0.092237
0.641198 0.641198 0.641198
0.764981 0.764981 0.764981
0.822357 0.822357 0.822357
0.855162 0.855162 0.855162
0.879192 0.879192 0.879192
0.895488 0.895488 0.895488
0.909176 0.909176 0.909176
0.919777 0.919777 0.919777
0.092237 0.092237 0.092237
0.770155 0.770155 0.770155
0.858958 0.858958 0.858958
0.898362 0.898362 0.898362
0.921977 0.921977 0.921977
0.937192 0.937192 0.937192
0.949809 0.949809 0.949809
0.958692 0.958692 0.958692
0.963847 0.963847 0.963847
0.092237 0.092237 0.092237
0.851457 0.851457 0.851457
0.917625 0.917625 0.917625
0.945326 0.945326 0.945326
0.961354 0.961354 0.961354
0.970007 0.970007 0.970007
0.977135 0.977135 0.977135
0.980581 0.980581 0.980581
0.982506 0.982506 0.982506
0.092237 0.092237 0.092237
0.092237 0.092237 0.092237
0.092237 0.092237 0.092237
0.092237 0.092237 0.092237
0.092237 0.092237 0.092237
0.092237 0.092237 0.092237
0.092237 0.092237 0.092237
0.092237 0.092237 0.092237
0.092237 0.092237 0.092237
0.092237 0.092237 0.092237
0.092408 0.092408 0.092408
0.092768 0.092768 0.092768
0.093295 0.093295 0.093295
0.093842 0.093842 0.093842
0.094269 0.094269 0.094269
0.094752 0.094752 0.094752
0.095518 0.095518 0.095518
0.096187 0.096187 0.096187
0.092237 0.092237 0.092237
0.109244 0.109244 0.109244
0.131685 0.131685 0.131685
0.150901 0.150901 0.150901
0.167550 0.167550 0.167550
0.181718 0.181718 0.181718
0.194231 0.194231 0.194231
0.205742 0.205742 0.205742
0.216411 0.216411 0.216411
0.092237 0.092237 0.092237
0.202877 0.202877 0.202877
0.263757 0.263757 0.263757
0.306124 0.306124 0.306124
0.339196 0.339196 0.339196
0.367291 0.367291 0.367291
0.391964 0.391964 0.391964
0.413987 0.413987 0.413987
0.433964 0.433964 0.433964
0.092237 0.092237 0.092237
0.335356 0.335356 0.335356
0.429101 0.429101 0.429101
0.495114 0.495114 0.495114
0.545947 0.545947 0.545947
0.587821 0.587821 0.587821
0.624342 0.624342 0.624342
0.654695 0.654695 0.654695
0.679930 0.679930 0.679930
0.092237 0.092237 0.092237
0.486782 0.486782 0.486782
0.614494 0.614494 0.614494
0.693485 0.693485 0.693485
0.744877 0.744877 0.744877
0.780081 0.780081 0.780081
0.808092 0.808092 0.808092
0.825209 0.825209 0.825209
0.840328 0.840328 0.840328
0.092237 0.092237 0.092237
0.647862 0.647862 0.647862
0.770782 0.770782 0.770782
0.826449 0.826449 0.826449
0.859417 0.859417 0.859417
0.882541 0.882541 0.882541
0.898710 0.898710 0.898710
0.912448 0.912448 0.912448
0.922243 0.922243 0.922243
0.092237 0.092237 0.092237
0.775995 0.775995 0.775995
0.863231 0.863231 0.863231
0.901595 0.901595 0.901595
0.924448 0.924448 0.924448
0.939704 0.939704 0.939704
0.952356 0.952356 0.952356
0.960099 0.960099 0.960099
0.965261 0.965261 0.965261
0.092237 0.092237 0.092237
0.855693 0.855693 0.855693
0.920085 0.920085 0.920085
0.947860 0.947860 0.947860
0.962764 0.962764 0.962764
0.971430 0.971430 0.971430
0.978568 0.978568 0.978568
0.981107 0.981107 0.981107
0.983033 0.983033 0.983033
0.092237 0.092237 0.092237
0.092237 0.092237 0.092237
0.092237 0.092237 0.092237
0.092237 0.092237 0.092237
0.092237 0.092237 0.092237
0.092237 0.092237 0.092237
0.092237 0.092237 0.092237
0.092237 0.092237 0.092237
0.092237 0.092237 0.092237
0.092237 0.092237 0.092237
0.092423 0.092423 0.092423
0.092783 0.092783 0.092783
0.093349 0.093349 0.093349
0.093896 0.093896 0.093896
0.094323 0.094323 0.094323
0.094892 0.094892 0.094892
0.095659 0.095659 0.095659
0.096329 0.096329 0.096329
0.092237 0.092237 0.092237
0.109835 0.109835 0.109835
0.132815 0.132815 0.132815
0.152463 0.152463 0.152463
0.169284 0.169284 0.169284
0.183600 0.183600 0.183600
0.196252 0.196252 0.196252
0.207960 0.207960 0.207960
0.218744 0.218744 0.218744
0.092237 0.092237 0.092237
0.205063 0.205063 0.205063
0.266600 0.266600 0.266600
0.309230 0.309230 0.309230
0.342638 0.342638 0.342638
0.371018 0.371018 0.371018
0.395942 0.395942 0.395942
0.418145 0.418145 0.418145
0.438322 0.438322 0.438322
0.092237 0.092237 0.092237
0.338759 0.338759 0.338759
0.433410 0.433410 0.433410
0.500086 0.500086 0.500086
0.551103 0.551103 0.551103
0.593349 0.593349 0.593349
0.630213 0.630213 0.630213
0.659966 0.659966 0.659966
0.685404 0.685404 0.685404
0.092237 0.092237 0.092237
0.491670 0.491670 0.491670
0.620273 0.620273 0.620273
0.699069 0.699069 0.699069
0.749254 0.749254 0.749254
0.784665 0.784665 0.784665
0.811209 0.811209 0.811209
0.828392 0.828392 0.828392
0.843570 0.843570 0.843570
0.092237 0.092237 0.092237
0.653078 0.653078 0.653078
0.775311 0.775311 0.775311
0.829636 0.829636 0.829636
0.862732 0.862732 0.862732
0.885148 0.885148 0.885148
0.901218 0.901218 0.901218
0.914994 0.914994 0.914994
0.924160 0.924160 0.924160
0.092237 0.092237 0.092237
0.780555 0.780555 0.780555
0.866561 0.866561 0.866561
0.904111 0.904111 0.904111
0.926370 0.926370 0.926370
0.941658 0.941658 0.941658
0.954336 0.954336 0.954336
0.961191 0.961191 0.961191
0.966359 0.966359 0.966359
0.092237 0.092237 0.092237
0.858994 0.858994 0.858994
0.921998 0.921998 0.921998
0.949831 0.949831 0.949831
0.963859 0.963859 0.963859
0.972535 0.972535 0.972535
0.979295 0.979295 0.979295
0.981515 0.981515 0.981515
0.983442 0.983442 0.983442
0.092237 0.092237 0.092237
0.092237 0.092237 0.092237
0.092237 0.092237 0.092237
0.092237 0.092237 0.092237
0.092237 0.092237 0.092237
0.092237 0.092237 0.092237
0.092237 0.092237 0.092237
0.092237 0.092237 0.092237
0.092237 0.092237 0.092237
0.092237 0.092237 0.092237
0.092435 0.092435 0.092435
0.092795 0.092795 0.092795
0.093393 0.093393 0.093393
0.093940 0.093940 0.093940
0.094368 0.094368 0.094368
0.095007 0.095007 0.095007
0.095775 0.095775 0.095775
0.096446 0.096446 0.096446
0.092237 0.092237 0.092237
0.110406 0.110406 0.110406
0.133746 0.133746 0.133746
0.153751 0.153751 0.153751
0.170715 0.170715 0.170715
0.185159 0.185159 0.185159
0.197918 0.197918 0.197918
0.209789 0.209789 0.209789
0.220668 0.220668 0.220668
0.092237 0.092237 0.092237
0.206867 0.206867 0.206867
0.268945 0.268945 0.268945
0.311792 0.311792 0.311792
0.345477 0.345477 0.345477
0.374091 0.374091 0.374091
0.399222 0.399222 0.399222
0.421572 0.421572 0.421572
0.441915 0.441915 0.441915
0.092237 0.092237 0.092237
0.341565 0.341565 0.341565
0.436963 0.436963 0.436963
0.504185 0.504185 0.504185
0.555352 0.555352 0.555352
0.597904 0.597904 0.597904
0.635051 0.635051 0.635051
0.664305 0.664305 0.664305
0.689910 0.689910 0.689910
0.092237 0.092237 0.092237
0.495701 0.495701 0.495701
0.625035 0.625035 0.625035
0.703664 0.703664 0.703664
0.752850 0.752850 0.752850
0.788431 0.788431 0.788431
0.813765 0.813765 0.813765
0.831001 0.831001 0.831001
0.846227 0.846227 0.846227
0.092237 0.092237 0.092237
0.657371 0.657371 0.657371
0.779032 0.779032 0.779032
0.832250 0.832250 0.832250
0.865450 0.865450 0.865450
0.887209 0.887209 0.887209
0.903272 0.903272 0.903272
0.916706 0.916706 0.916706
0.925729 0.925729 0.925729
0.092237 0.092237 0.092237
0.784300 0.784300 0.784300
0.869291 0.869291 0.869291
0.906172 0.906172 0.906172
0.927944 0.927944 0.927944
0.943257 0.943257 0.943257
0.955956 0.955956 0.955956
0.962084 0.962084 0.962084
0.967257 0.967257 0.967257
0.092237 0.092237 0.092237
0.861700 0.861700 0.861700
0.923563 0.923563 0.923563
0.951444 0.951444 0.951444
0.964755 0.964755 0.964755
0.973439 0.973439 0.973439
0.979628 0.979628 0.979628
0.981848 0.981848 0.981848
0.983776 0.983776 0.983776
0.092237 0.092237 0.092237
0.092237 0.092237 0.092237
0.092237 0.092237 0.092237
0.092237 0.092237 0.092237
0.092237 0.092237 0.092237
0.092237 0.092237 0.092237
0.092237 0.092237 0.092237
0.092237 0.092237 0.092237
0.092237 0.092237 0.092237
0.092237 0.092237 0.092237
0.092445 0.092445 0.092445
0.092805 0.092805 0.092805
0.093430 0.093430 0.093430
0.093978 0.093978 0.093978
0.094405 0.094405 0.094405
0.095104 0.095104 0.095104
0.095873 0.095873 0.095873
0.096544 0.096544 0.096544
0.092237 0.092237 0.092237
0.110892 0.110892 0.110892
0.134537 0.134537 0.134537
0.154849 0.154849 0.154849
0.171934 0.171934 0.171934
0.186487 0.186487 0.186487
0.199366 0.199366 0.199366
0.211348 0.211348 0.211348
0.222308 0.222308 0.222308
0.092237 0.092237 0.092237
0.208405 0.208405 0.208405
0.270944 0.270944 0.270944
0.313974 0.313974 0.313974
0.347895 0.347895 0.347895
0.376710 0.376710 0.376710
0.402016 0.402016 0.402016
0.424492 0.424492 0.424492
0.444976 0.444976 0.444976
0.092237 0.092237 0.092237
0.343956 0.343956 0.343956
0.439989 0.439989 0.439989
0.507678 0.507678 0.507678
0.558971 0.558971 0.558971
0.601783 0.601783 0.601783
0.639171 0.639171 0.639171
0.667995 0.667995 0.667995
0.693743 0.693743 0.693743
0.092237 0.092237 0.092237
0.499134 0.499134 0.499134
0.629090 0.629090 0.629090
0.707573 0.707573 0.707573
0.755903 0.755903 0.755903
0.791628 0.791628 0.791628
0.815932 0.815932 0.815932
0.833214 0.833214 0.833214
0.848481 0.848481 0.848481
0.092237 0.092237 0.092237
0.661023 0.661023 0.661023
0.782191 0.782191 0.782191
0.834466 0.834466 0.834466
0.867754 0.867754 0.867754
0.888919 0.888919 0.888919
0.905012 0.905012 0.905012
0.918022 0.918022 0.918022
0.927058 0.927058 0.927058
0.092237 0.092237 0.092237
0.787481 0.787481 0.787481
0.871606 0.871606 0.871606
0.907917 0.907917 0.907917
0.929276 0.929276 0.929276
0.944611 0.944611 0.944611
0.956898 0.956898 0.956898
0.962840 0.962840 0.962840
0.968017 0.968017 0.968017
0.092237 0.092237 0.092237
0.863995 0.863995 0.863995
0.924889 0.924889 0.924889
0.952810 0.952810 0.952810
0.965513 0.965513 0.965513
0.974204 0.974204 0.974204
0.979909 0.979909 0.979909
0.982131 0.982131 0.982131
0.984059 0.984059 0.984059
0.092237 0.092237 0.092237
0.092237 0.092237 0.092237
0.092237 0.092237 0.092237
0.092237 0.092237 0.092237
0.092237 0.092237 0.092237
0.092237 0.092237 0.092237
0.092237 0.092237 0.092237
0.092237 0.092237 0.092237
0.092237 0.092237 0.092237
0.092237 0.092237 0.092237
0.092453 0.092453 0.092453
0.092814 0.092814 0.092814
0.093462 0.093462 0.093462
0.094010 0.094010 0.094010
0.094438 0.094438 0.094438
0.095188 0.095188 0.095188
0.095958 0.095958 0.095958
0.096630 0.096630 0.096630
0.092237 0.092237 0.092237
0.111314 0.111314 0.111314
0.135227 0.135227 0.135227
0.155807 0.155807 0.155807
0.172997 0.172997 0.172997
0.187646 0.187646 0.187646
0.200649 0.200649 0.200649
0.212708 0.212708 0.212708
0.223739 0.223739 0.223739
0.092237 0.092237 0.092237
0.209746 0.209746 0.209746
0.272688 0.272688 0.272688
0.315877 0.315877 0.315877
0.350003 0.350003 0.350003
0.378993 0.378993 0.378993
0.404427 0.404427 0.404427
0.427038 0.427038 0.427038
0.447645 0.447645 0.447645
0.092237 0.092237 0.092237
0.346040 0.346040 0.346040
0.442628 0.442628 0.442628
0.510722 0.510722 0.510722
0.562124 0.562124 0.562124
0.605163 0.605163 0.605163
0.642533 0.642533 0.642533
0.671208 0.671208 0.671208
0.697080 0.697080 0.697080
0.092237 0.092237 0.092237
0.502128 0.502128 0.502128
0.632623 0.632623 0.632623
0.710976 0.710976 0.710976
0.758558 0.758558 0.758558
0.794409 0.794409 0.794409
0.817814 0.817814 0.817814
0.835136 0.835136 0.835136
0.850437 0.850437 0.850437
0.092237 0.092237 0.092237
0.664202 0.664202 0.664202
0.784939 0.784939 0.784939
0.836391 0.836391 0.836391
0.869756 0.869756 0.869756
0.890402 0.890402 0.890402
0.906522 0.906522 0.906522
0.919164 0.919164 0.919164
0.928211 0.928211 0.928211
0.092237 0.092237 0.092237
0.790247 0.790247 0.790247
0.873156 0.873156 0.873156
0.909432 0.909432 0.909432
0.930431 0.930431 0.930431
0.945786 0.945786 0.945786
0.957550 0.957550 0.957550
0.963495 0.963495 0.963495
0.968676 0.968676 0.968676
0.092237 0.092237 0.092237
0.865987 0.865987 0.865987
0.926040 0.926040 0.926040
0.953995 0.953995 0.953995
0.966170 0.966170 0.966170
0.974867 0.974867 0.974867
0.980153 0.980153 0.980153
0.982375 0.982375 0.982375
0.984304 0.984304 0.984304
