trix_classic/TriX_Green58_Soft.cube
TITLE "Tri-X Green58 Soft"
# Adobe RGB in/out. REPLACES AgX. R=0.1714 G=0.8069 B=0.0217
LUT_3D_SIZE 9
DOMAIN_MIN 0.0 0.0 0.0
DOMAIN_MAX 1.0 1.0 1.0
0.093873 0.093873 0.093873
0.093873 0.093873 0.093873
0.093873 0.093873 0.093873
0.093873 0.093873 0.093873
0.093873 0.093873 0.093873
0.093873 0.093873 0.093873
0.093873 0.093873 0.093873
0.093873 0.093873 0.093873
0.093873 0.093873 0.093873
0.093873 0.093873 0.093873
0.093873 0.093873 0.093873
0.093873 0.093873 0.093873
0.093873 0.093873 0.093873
0.093873 0.093873 0.093873
0.093873 0.093873 0.093873
0.093873 0.093873 0.093873
0.093873 0.093873 0.093873
0.093873 0.093873 0.093873
0.093873 0.093873 0.093873
0.093873 0.093873 0.093873
0.093873 0.093873 0.093873
0.093873 0.093873 0.093873
0.093873 0.093873 0.093873
0.093873 0.093873 0.093873
0.093873 0.093873 0.093873
0.093873 0.093873 0.093873
0.093873 0.093873 0.093873
0.093873 0.093873 0.093873
0.093873 0.093873 0.093873
0.093873 0.093873 0.093873
0.093873 0.093873 0.093873
0.093873 0.093873 0.093873
0.093873 0.093873 0.093873
0.093873 0.093873 0.093873
0.093873 0.093873 0.093873
0.093873 0.093873 0.093873
0.093873 0.093873 0.093873
0.093873 0.093873 0.093873
0.093873 0.093873 0.093873
0.093873 0.093873 0.093873
0.093873 0.093873 0.093873
0.093873 0.093873 0.093873
0.093873 0.093873 0.093873
0.093873 0.093873 0.093873
0.093873 0.093873 0.093873
0.093873 0.093873 0.093873
0.093873 0.093873 0.093873
0.093873 0.093873 0.093873
0.093873 0.093873 0.093873
0.093873 0.093873 0.093873
0.093873 0.093873 0.093873
0.093873 0.093873 0.093873
0.093873 0.093873 0.093873
0.093873 0.093873 0.093873
0.093873 0.093873 0.093873
0.093873 0.093873 0.093873
0.093873 0.093873 0.093873
0.093873 0.093873 0.093873
0.093873 0.093873 0.093873
0.093873 0.093873 0.093873
0.093873 0.093873 0.093873
0.093873 0.093873 0.093873
0.093873 0.093873 0.093873
0.093873 0.093873 0.093873
0.093873 0.093873 0.093873
0.093873 0.093873 0.093873
0.093873 0.093873 0.093873
0.093873 0.093873 0.093873
0.093873 0.093873 0.093873
0.093873 0.093873 0.093873
0.093873 0.093873 0.093873
0.093873 0.093873 0.093873
0.093873 0.093873 0.093873
0.093873 0.093873 0.093873
0.093873 0.093873 0.093873
0.093873 0.093873 0.093873
0.093873 0.093873 0.093873
0.093873 0.093873 0.093873
0.093873 0.093873 0.093873
0.093873 0.093873 0.093873
0.093873 0.093873 0.093873
0.093873 0.093873 0.093873
0.093873 0.093873 0.093873
0.093873 0.093873 0.093873
0.093873 0.093873 0.093873
0.093873 0.093873 0.093873
0.093873 0.093873 0.093873
0.093873 0.093873 0.093873
0.093873 0.093873 0.093873
0.093873 0.093873 0.093873
0.093873 0.093873 0.093873
0.099556 0.099556 0.099556
0.107418 0.107418 0.107418
0.115771 0.115771 0.115771
0.122677 0.122677 0.122677
0.128357 0.128357 0.128357
0.134241 0.134241 0.134241
0.139426 0.139426 0.139426
0.144079 0.144079 0.144079
0.093873 0.093873 0.093873
0.192945 0.192945 0.192945
0.228707 0.228707 0.228707
0.250412 0.250412 0.250412
0.267050 0.267050 0.267050
0.278866 0.278866 0.278866
0.288587 0.288587 0.288587
0.297069 0.297069 0.297069
0.304725 0.304725 0.304725
0.093873 0.093873 0.093873
0.295008 0.295008 0.295008
0.337231 0.337231 0.337231
0.363444 0.363444 0.363444
0.383269 0.383269 0.383269
0.399388 0.399388 0.399388
0.412775 0.412775 0.412775
0.423713 0.423713 0.423713
0.433422 0.433422 0.433422
0.093873 0.093873 0.093873
0.381016 0.381016 0.381016
0.431080 0.431080 0.431080
0.461778 0.461778 0.461778
0.484876 0.484876 0.484876
0.503585 0.503585 0.503585
0.519221 0.519221 0.519221
0.532748 0.532748 0.532748
0.544750 0.544750 0.544750
0.093873 0.093873 0.093873
0.458026 0.458026 0.458026
0.515072 0.515072 0.515072
0.551122 0.551122 0.551122
0.578219 0.578219 0.578219
0.600152 0.600152 0.600152
0.618689 0.618689 0.618689
0.634807 0.634807 0.634807
0.648993 0.648993 0.648993
0.093873 0.093873 0.093873
0.529465 0.529465 0.529465
0.594378 0.594378 0.594378
0.635978 0.635978 0.635978
0.666600 0.666600 0.666600
0.691145 0.691145 0.691145
0.711869 0.711869 0.711869
0.729066 0.729066 0.729066
0.744122 0.744122 0.744122
0.093873 0.093873 0.093873
0.597616 0.597616 0.597616
0.670127 0.670127 0.670127
0.715622 0.715622 0.715622
0.747841 0.747841 0.747841
0.773827 0.773827 0.773827
0.793604 0.793604 0.793604
0.810140 0.810140 0.810140
0.824743 0.824743 0.824743
0.093873 0.093873 0.093873
0.663159 0.663159 0.663159
0.740493 0.740493 0.740493
0.786785 0.786785 0.786785
0.817656 0.817656 0.817656
0.842434 0.842434 0.842434
0.863235 0.863235 0.863235
0.881222 0.881222 0.881222
0.892033 0.892033 0.892033
0.093873 0.093873 0.093873
0.093873 0.093873 0.093873
0.093873 0.093873 0.093873
0.093873 0.093873 0.093873
0.093873 0.093873 0.093873
0.093873 0.093873 0.093873
0.093873 0.093873 0.093873
0.093873 0.093873 0.093873
0.093873 0.093873 0.093873
0.093873 0.093873 0.093873
0.100253 0.100253 0.100253
0.108951 0.108951 0.108951
0.117831 0.117831 0.117831
0.124874 0.124874 0.124874
0.131163 0.131163 0.131163
0.137175 0.137175 0.137175
0.142474 0.142474 0.142474
0.147229 0.147229 0.147229
0.093873 0.093873 0.093873
0.197185 0.197185 0.197185
0.233250 0.233250 0.233250
0.255385 0.255385 0.255385
0.271870 0.271870 0.271870
0.283513 0.283513 0.283513
0.293396 0.293396 0.293396
0.302033 0.302033 0.302033
0.309987 0.309987 0.309987
0.093873 0.093873 0.093873
0.299925 0.299925 0.299925
0.342751 0.342751 0.342751
0.369393 0.369393 0.369393
0.389542 0.389542 0.389542
0.405925 0.405925 0.405925
0.418980 0.418980 0.418980
0.430083 0.430083 0.430083
0.439937 0.439937 0.439937
0.093873 0.093873 0.093873
0.387253 0.387253 0.387253
0.437560 0.437560 0.437560
0.468720 0.468720 0.468720
0.492165 0.492165 0.492165
0.511109 0.511109 0.511109
0.526896 0.526896 0.526896
0.540623 0.540623 0.540623
0.552803 0.552803 0.552803
0.093873 0.093873 0.093873
0.464912 0.464912 0.464912
0.522685 0.522685 0.522685
0.559268 0.559268 0.559268
0.586766 0.586766 0.586766
0.609023 0.609023 0.609023
0.627834 0.627834 0.627834
0.644191 0.644191 0.644191
0.658308 0.658308 0.658308
0.093873 0.093873 0.093873
0.537292 0.537292 0.537292
0.603163 0.603163 0.603163
0.645370 0.645370 0.645370
0.676168 0.676168 0.676168
0.701065 0.701065 0.701065
0.721715 0.721715 0.721715
0.738947 0.738947 0.738947
0.754207 0.754207 0.754207
0.093873 0.093873 0.093873
0.606450 0.606450 0.606450
0.679746 0.679746 0.679746
0.725322 0.725322 0.725322
0.757977 0.757977 0.757977
0.783647 0.783647 0.783647
0.802996 0.802996 0.802996
0.819728 0.819728 0.819728
0.834504 0.834504 0.834504
0.093873 0.093873 0.093873
0.672678 0.672678 0.672678
0.750530 0.750530 0.750530
0.796097 0.796097 0.796097
0.827334 0.827334 0.827334
0.852404 0.852404 0.852404
0.873452 0.873452 0.873452
0.888565 0.888565 0.888565
0.898762 0.898762 0.898762
0.093873 0.093873 0.093873
0.093873 0.093873 0.093873
0.093873 0.093873 0.093873
0.093873 0.093873 0.093873
0.093873 0.093873 0.093873
0.093873 0.093873 0.093873
0.093873 0.093873 0.093873
0.093873 0.093873 0.093873
0.093873 0.093873 0.093873
0.093873 0.093873 0.093873
0.100663 0.100663 0.100663
0.110028 0.110028 0.110028
0.119060 0.119060 0.119060
0.126177 0.126177 0.126177
0.132832 0.132832 0.132832
0.138921 0.138921 0.138921
0.144287 0.144287 0.144287
0.149103 0.149103 0.149103
0.093873 0.093873 0.093873
0.199776 0.199776 0.199776
0.235948 0.235948 0.235948
0.258340 0.258340 0.258340
0.274511 0.274511 0.274511
0.286268 0.286268 0.286268
0.296247 0.296247 0.296247
0.305073 0.305073 0.305073
0.313107 0.313107 0.313107
0.093873 0.093873 0.093873
0.302880 0.302880 0.302880
0.346022 0.346022 0.346022
0.372918 0.372918 0.372918
0.393260 0.393260 0.393260
0.409780 0.409780 0.409780
0.422653 0.422653 0.422653
0.433853 0.433853 0.433853
0.443794 0.443794 0.443794
0.093873 0.093873 0.093873
0.390948 0.390948 0.390948
0.441396 0.441396 0.441396
0.472829 0.472829 0.472829
0.496480 0.496480 0.496480
0.515515 0.515515 0.515515
0.531438 0.531438 0.531438
0.545283 0.545283 0.545283
0.557568 0.557568 0.557568
0.093873 0.093873 0.093873
0.468987 0.468987 0.468987
0.527191 0.527191 0.527191
0.564089 0.564089 0.564089
0.591825 0.591825 0.591825
0.614273 0.614273 0.614273
0.633246 0.633246 0.633246
0.649609 0.649609 0.649609
0.663819 0.663819 0.663819
0.093873 0.093873 0.093873
0.541923 0.541923 0.541923
0.608363 0.608363 0.608363
0.650773 0.650773 0.650773
0.681829 0.681829 0.681829
0.706934 0.706934 0.706934
0.727421 0.727421 0.727421
0.744790 0.744790 0.744790
0.760170 0.760170 0.760170
0.093873 0.093873 0.093873
0.611678 0.611678 0.611678
0.685437 0.685437 0.685437
0.731056 0.731056 0.731056
0.763970 0.763970 0.763970
0.789059 0.789059 0.789059
0.808542 0.808542 0.808542
0.825390 0.825390 0.825390
0.840267 0.840267 0.840267
0.093873 0.093873 0.093873
0.678309 0.678309 0.678309
0.756464 0.756464 0.756464
0.801595 0.801595 0.801595
0.833048 0.833048 0.833048
0.858291 0.858291 0.858291
0.879484 0.879484 0.879484
0.892480 0.892480 0.892480
0.902722 0.902722 0.902722
0.093873 0.093873 0.093873
0.093873 0.093873 0.093873
0.093873 0.093873 0.093873
0.093873 0.093873 0.093873
0.093873 0.093873 0.093873
0.093873 0.093873 0.093873
0.093873 0.093873 0.093873
0.093873 0.093873 0.093873
0.093873 0.093873 0.093873
0.093873 0.093873 0.093873
0.100955 0.100955 0.100955
0.110799 0.110799 0.110799
0.119941 0.119941 0.119941
0.127110 0.127110 0.127110
0.134029 0.134029 0.134029
0.140174 0.140174 0.140174
0.145588 0.145588 0.145588
0.150447 0.150447 0.150447
0.093873 0.093873 0.093873
0.201714 0.201714 0.201714
0.237882 0.237882 0.237882
0.260457 0.260457 0.260457
0.276401 0.276401 0.276401
0.288238 0.288238 0.288238
0.298286 0.298286 0.298286
0.307248 0.307248 0.307248
0.315340 0.315340 0.315340
0.093873 0.093873 0.093873
0.305040 0.305040 0.305040
0.348362 0.348362 0.348362
0.375440 0.375440 0.375440
0.395919 0.395919 0.395919
0.412325 0.412325 0.412325
0.425279 0.425279 0.425279
0.436548 0.436548 0.436548
0.446551 0.446551 0.446551
0.093873 0.093873 0.093873
0.393592 0.393592 0.393592
0.444138 0.444138 0.444138
0.475767 0.475767 0.475767
0.499564 0.499564 0.499564
0.518665 0.518665 0.518665
0.534684 0.534684 0.534684
0.548614 0.548614 0.548614
0.560974 0.560974 0.560974
0.093873 0.093873 0.093873
0.471901 0.471901 0.471901
0.530412 0.530412 0.530412
0.567535 0.567535 0.567535
0.595440 0.595440 0.595440
0.618026 0.618026 0.618026
0.637114 0.637114 0.637114
0.653463 0.653463 0.653463
0.667757 0.667757 0.667757
0.093873 0.093873 0.093873
0.545234 0.545234 0.545234
0.612079 0.612079 0.612079
0.654634 0.654634 0.654634
0.685873 0.685873 0.685873
0.711128 0.711128 0.711128
0.731497 0.731497 0.731497
0.748963 0.748963 0.748963
0.764430 0.764430 0.764430
0.093873 0.093873 0.093873
0.615414 0.615414 0.615414
0.689503 0.689503 0.689503
0.735153 0.735153 0.735153
0.768251 0.768251 0.768251
0.792922 0.792922 0.792922
0.812500 0.812500 0.812500
0.829430 0.829430 0.829430
0.844381 0.844381 0.844381
0.093873 0.093873 0.093873
0.682333 0.682333 0.682333
0.760702 0.760702 0.760702
0.805519 0.805519 0.805519
0.837125 0.837125 0.837125
0.862493 0.862493 0.862493
0.883552 0.883552 0.883552
0.895268 0.895268 0.895268
0.905542 0.905542 0.905542
0.093873 0.093873 0.093873
0.093873 0.093873 0.093873
0.093873 0.093873 0.093873
0.093873 0.093873 0.093873
0.093873 0.093873 0.093873
0.093873 0.093873 0.093873
0.093873 0.093873 0.093873
0.093873 0.093873 0.093873
0.093873 0.093873 0.093873
0.093873 0.093873 0.093873
0.101182 0.101182 0.101182
0.111400 0.111400 0.111400
0.120628 0.120628 0.120628
0.127838 0.127838 0.127838
0.134966 0.134966 0.134966
0.141153 0.141153 0.141153
0.146605 0.146605 0.146605
0.151497 0.151497 0.151497
0.093873 0.093873 0.093873
0.203231 0.203231 0.203231
0.239393 0.239393 0.239393
0.262111 0.262111 0.262111
0.277875 0.277875 0.277875
0.289776 0.289776 0.289776
0.299877 0.299877 0.299877
0.308946 0.308946 0.308946
0.317083 0.317083 0.317083
0.093873 0.093873 0.093873
0.306726 0.306726 0.306726
0.350188 0.350188 0.350188
0.377407 0.377407 0.377407
0.397994 0.397994 0.397994
0.414311 0.414311 0.414311
0.427327 0.427327 0.427327
0.438650 0.438650 0.438650
0.448701 0.448701 0.448701
0.093873 0.093873 0.093873
0.395654 0.395654 0.395654
0.446277 0.446277 0.446277
0.478057 0.478057 0.478057
0.501969 0.501969 0.501969
0.521120 0.521120 0.521120
0.537216 0.537216 0.537216
0.551212 0.551212 0.551212
0.563630 0.563630 0.563630
0.093873 0.093873 0.093873
0.474173 0.474173 0.474173
0.532923 0.532923 0.532923
0.570222 0.570222 0.570222
0.598259 0.598259 0.598259
0.620952 0.620952 0.620952
0.640131 0.640131 0.640131
0.656468 0.656468 0.656468
0.670828 0.670828 0.670828
0.093873 0.093873 0.093873
0.547815 0.547815 0.547815
0.614977 0.614977 0.614977
0.657644 0.657644 0.657644
0.689027 0.689027 0.689027
0.714398 0.714398 0.714398
0.734674 0.734674 0.734674
0.752216 0.752216 0.752216
0.767750 0.767750 0.767750
0.093873 0.093873 0.093873
0.618328 0.618328 0.618328
0.692674 0.692674 0.692674
0.738346 0.738346 0.738346
0.771587 0.771587 0.771587
0.795931 0.795931 0.795931
0.815584 0.815584 0.815584
0.832578 0.832578 0.832578
0.847585 0.847585 0.847585
0.093873 0.093873 0.093873
0.685471 0.685471 0.685471
0.764006 0.764006 0.764006
0.808576 0.808576 0.808576
0.840302 0.840302 0.840302
0.865766 0.865766 0.865766
0.885692 0.885692 0.885692
0.897437 0.897437 0.897437
0.907736 0.907736 0.907736
0.093873 0.093873 0.093873
0.093873 0.093873 0.093873
0.093873 0.093873 0.093873
0.093873 0.093873 0.093873
0.093873 0.093873 0.093873
0.093873 0.093873 0.093873
0.093873 0.093873 0.093873
0.093873 0.093873 0.093873
0.093873 0.093873 0.093873
0.093873 0.093873 0.093873
0.101368 0.101368 0.101368
0.111894 0.111894 0.111894
0.121192 0.121192 0.121192
0.128490 0.128490 0.128490
0.135735 0.135735 0.135735
0.141958 0.141958 0.141958
0.147441 0.147441 0.147441
0.152362 0.152362 0.152362
0.093873 0.093873 0.093873
0.204478 0.204478 0.204478
0.240634 0.240634 0.240634
0.263471 0.263471 0.263471
0.279086 0.279086 0.279086
0.291039 0.291039 0.291039
0.301184 0.301184 0.301184
0.310341 0.310341 0.310341
0.318514 0.318514 0.318514
0.093873 0.093873 0.093873
0.308111 0.308111 0.308111
0.351686 0.351686 0.351686
0.379023 0.379023 0.379023
0.399697 0.399697 0.399697
0.415940 0.415940 0.415940
0.429007 0.429007 0.429007
0.440375 0.440375 0.440375
0.450466 0.450466 0.450466
0.093873 0.093873 0.093873
0.397348 0.397348 0.397348
0.448032 0.448032 0.448032
0.479937 0.479937 0.479937
0.503943 0.503943 0.503943
0.523136 0.523136 0.523136
0.539293 0.539293 0.539293
0.553343 0.553343 0.553343
0.565810 0.565810 0.565810
0.093873 0.093873 0.093873
0.476038 0.476038 0.476038
0.534984 0.534984 0.534984
0.572427 0.572427 0.572427
0.600573 0.600573 0.600573
0.623353 0.623353 0.623353
0.642607 0.642607 0.642607
0.658934 0.658934 0.658934
0.673347 0.673347 0.673347
0.093873 0.093873 0.093873
0.549934 0.549934 0.549934
0.617356 0.617356 0.617356
0.660114 0.660114 0.660114
0.691615 0.691615 0.691615
0.716987 0.716987 0.716987
0.737280 0.737280 0.737280
0.754885 0.754885 0.754885
0.770474 0.770474 0.770474
0.093873 0.093873 0.093873
0.620719 0.620719 0.620719
0.695275 0.695275 0.695275
0.740965 0.740965 0.740965
0.774325 0.774325 0.774325
0.798398 0.798398 0.798398
0.818112 0.818112 0.818112
0.835159 0.835159 0.835159
0.850212 0.850212 0.850212
0.093873 0.093873 0.093873
0.688046 0.688046 0.688046
0.766717 0.766717 0.766717
0.811082 0.811082 0.811082
0.842907 0.842907 0.842907
0.868450 0.868450 0.868450
0.887445 0.887445 0.887445
0.899212 0.899212 0.899212
0.909532 0.909532 0.909532
0.093873 0.093873 0.093873
0.093873 0.093873 0.093873
0.093873 0.093873 0.093873
0.093873 0.093873 0.093873
0.093873 0.093873 0.093873
0.093873 0.093873 0.093873
0.093873 0.093873 0.093873
0.093873 0.093873 0.093873
0.093873 0.093873 0.093873
0.093873 0.093873 0.093873
0.101526 0.101526 0.101526
0.112313 0.112313 0.112313
0.121672 0.121672 0.121672
0.129109 0.129109 0.129109
0.136390 0.136390 0.136390
0.142642 0.142642 0.142642
0.148152 0.148152 0.148152
0.153096 0.153096 0.153096
0.093873 0.093873 0.093873
0.205539 0.205539 0.205539
0.241689 0.241689 0.241689
0.264625 0.264625 0.264625
0.280114 0.280114 0.280114
0.292110 0.292110 0.292110
0.302315 0.302315 0.302315
0.311525 0.311525 0.311525
0.319729 0.319729 0.319729
0.093873 0.093873 0.093873
0.309286 0.309286 0.309286
0.352959 0.352959 0.352959
0.380394 0.380394 0.380394
0.401143 0.401143 0.401143
0.417322 0.417322 0.417322
0.430433 0.430433 0.430433
0.441839 0.441839 0.441839
0.451963 0.451963 0.451963
0.093873 0.093873 0.093873
0.398785 0.398785 0.398785
0.449521 0.449521 0.449521
0.481533 0.481533 0.481533
0.505618 0.505618 0.505618
0.524846 0.524846 0.524846
0.541056 0.541056 0.541056
0.555152 0.555152 0.555152
0.567659 0.567659 0.567659
0.093873 0.093873 0.093873
0.477620 0.477620 0.477620
0.536733 0.536733 0.536733
0.574298 0.574298 0.574298
0.602536 0.602536 0.602536
0.625391 0.625391 0.625391
0.644707 0.644707 0.644707
0.661025 0.661025 0.661025
0.675485 0.675485 0.675485
0.093873 0.093873 0.093873
0.551731 0.551731 0.551731
0.619373 0.619373 0.619373
0.662209 0.662209 0.662209
0.693811 0.693811 0.693811
0.719137 0.719137 0.719137
0.739491 0.739491 0.739491
0.757148 0.757148 0.757148
0.772784 0.772784 0.772784
0.093873 0.093873 0.093873
0.622748 0.622748 0.622748
0.697482 0.697482 0.697482
0.743187 0.743187 0.743187
0.776646 0.776646 0.776646
0.800490 0.800490 0.800490
0.820255 0.820255 0.820255
0.837347 0.837347 0.837347
0.852440 0.852440 0.852440
0.093873 0.093873 0.093873
0.690230 0.690230 0.690230
0.769016 0.769016 0.769016
0.813207 0.813207 0.813207
0.845115 0.845115 0.845115
0.870725 0.870725 0.870725
0.888930 0.888930 0.888930
0.900717 0.900717 0.900717
0.911053 0.911053 0.911053
0.093873 0.093873 0.093873
0.093873 0.093873 0.093873
0.093873 0.093873 0.093873
0.093873 0.093873 0.093873
0.093873 0.093873 0.093873
0.093873 0.093873 0.093873
0.093873 0.093873 0.093873
0.093873 0.093873 0.093873
0.093873 0.093873 0.093873
0.093873 0.093873 0.093873
0.101662 0.101662 0.101662
0.112678 0.112678 0.112678
0.122088 0.122088 0.122088
0.129648 0.129648 0.129648
0.136959 0.136959 0.136959
0.143238 0.143238 0.143238
0.148770 0.148770 0.148770
0.153735 0.153735 0.153735
0.093873 0.093873 0.093873
0.206462 0.206462 0.206462
0.242606 0.242606 0.242606
0.265630 0.265630 0.265630
0.281007 0.281007 0.281007
0.293042 0.293042 0.293042
0.303314 0.303314 0.303314
0.312554 0.312554 0.312554
0.320785 0.320785 0.320785
0.093873 0.093873 0.093873
0.310308 0.310308 0.310308
0.354064 0.354064 0.354064
0.381585 0.381585 0.381585
0.402400 0.402400 0.402400
0.418524 0.418524 0.418524
0.431672 0.431672 0.431672
0.443111 0.443111 0.443111
0.453264 0.453264 0.453264
0.093873 0.093873 0.093873
0.400034 0.400034 0.400034
0.450815 0.450815 0.450815
0.482919 0.482919 0.482919
0.507074 0.507074 0.507074
0.526331 0.526331 0.526331
0.542588 0.542588 0.542588
0.556724 0.556724 0.556724
0.569266 0.569266 0.569266
0.093873 0.093873 0.093873
0.478995 0.478995 0.478995
0.538252 0.538252 0.538252
0.575924 0.575924 0.575924
0.604241 0.604241 0.604241
0.627161 0.627161 0.627161
0.646490 0.646490 0.646490
0.662843 0.662843 0.662843
0.677342 0.677342 0.677342
0.093873 0.093873 0.093873
0.553293 0.553293 0.553293
0.621127 0.621127 0.621127
0.664030 0.664030 0.664030
0.695718 0.695718 0.695718
0.721005 0.721005 0.721005
0.741411 0.741411 0.741411
0.759114 0.759114 0.759114
0.774791 0.774791 0.774791
0.093873 0.093873 0.093873
0.624511 0.624511 0.624511
0.699400 0.699400 0.699400
0.745117 0.745117 0.745117
0.778663 0.778663 0.778663
0.802306 0.802306 0.802306
0.822117 0.822117 0.822117
0.839247 0.839247 0.839247
0.854374 0.854374 0.854374
0.093873 0.093873 0.093873
0.692127 0.692127 0.692127
0.771013 0.771013 0.771013
0.815053 0.815053 0.815053
0.847033 0.847033 0.847033
0.872701 0.872701 0.872701
0.890218 0.890218 0.890218
0.902022 0.902022 0.902022
0.912373 0.912373 0.912373
