trix_classic/TriX_Blue47_Punchy.cube
TITLE "Tri-X Blue47 Punchy"
# Adobe RGB in/out. REPLACES AgX. R=0.0336 G=0.0311 B=0.9353
LUT_3D_SIZE 5
DOMAIN_MIN 0.0 0.0 0.0
DOMAIN_MAX 1.0 1.0 1.0
0.091936 0.091936 0.091936
0.091936 0.091936 0.091936
0.091936 0.091936 0.091936
0.091936 0.091936 0.091936
0.091936 0.091936 0.091936
0.091936 0.091936 0.091936
0.091936 0.091936 0.091936
0.091936 0.091936 0.091936
0.091936 0.091936 0.091936
0.091936 0.091936 0.091936
0.091936 0.091936 0.091936
0.091936 0.091936 0.091936
0.091936 0.091936 0.091936
0.091936 0.091936 0.091936
0.091936 0.091936 0.091936
0.091936 0.091936 0.091936
0.091936 0.091936 0.091936
0.091936 0.091936 0.091936
0.091936 0.091936 0.091936
0.091936 0.091936 0.091936
0.091936 0.091936 0.091936
0.091936 0.091936 0.091936
0.091936 0.091936 0.091936
0.091936 0.091936 0.091936
0.091936 0.091936 0.091936
0.091936 0.091936 0.091936
0.091936 0.091936 0.091936
0.091936 0.091936 0.091936
0.091936 0.091936 0.091936
0.091936 0.091936 0.091936
0.091936 0.091936 0.091936
0.152941 0.152941 0.152941
0.159651 0.159651 0.159651
0.163711 0.163711 0.163711
0.166654 0.166654 0.166654
0.091936 0.091936 0.091936
0.159151 0.159151 0.159151
0.166133 0.166133 0.166133
0.170359 0.170359 0.170359
0.173421 0.173421 0.173421
0.091936 0.091936 0.091936
0.162900 0.162900 0.162900
0.170047 0.170047 0.170047
0.174372 0.174372 0.174372
0.177578 0.177578 0.177578
0.091936 0.091936 0.091936
0.165614 0.165614 0.165614
0.172879 0.172879 0.172879
0.177319 0.177319 0.177319
0.180896 0.180896 0.180896
0.091936 0.091936 0.091936
0.091936 0.091936 0.091936
0.091936 0.091936 0.091936
0.091936 0.091936 0.091936
0.091936 0.091936 0.091936
0.091936 0.091936 0.091936
0.484162 0.484162 0.484162
0.499090 0.499090 0.499090
0.508034 0.508034 0.508034
0.514478 0.514478 0.514478
0.091936 0.091936 0.091936
0.497985 0.497985 0.497985
0.513339 0.513339 0.513339
0.522539 0.522539 0.522539
0.529144 0.529144 0.529144
0.091936 0.091936 0.091936
0.506254 0.506254 0.506254
0.521863 0.521863 0.521863
0.531183 0.531183 0.531183
0.537891 0.537891 0.537891
0.091936 0.091936 0.091936
0.512203 0.512203 0.512203
0.527978 0.527978 0.527978
0.537399 0.537399 0.537399
0.544185 0.544185 0.544185
0.091936 0.091936 0.091936
0.091936 0.091936 0.091936
0.091936 0.091936 0.091936
0.091936 0.091936 0.091936
0.091936 0.091936 0.091936
0.091936 0.091936 0.091936
0.750933 0.750933 0.750933
0.768362 0.768362 0.768362
0.778745 0.778745 0.778745
0.785802 0.785802 0.785802
0.091936 0.091936 0.091936
0.767077 0.767077 0.767077
0.784561 0.784561 0.784561
0.794572 0.794572 0.794572
0.801752 0.801752 0.801752
0.091936 0.091936 0.091936
0.776681 0.776681 0.776681
0.793837 0.793837 0.793837
0.803966 0.803966 0.803966
0.811232 0.811232 0.811232
0.091936 0.091936 0.091936
0.783321 0.783321 0.783321
0.800485 0.800485 0.800485
0.810699 0.810699 0.810699
0.817354 0.817354 0.817354
0.091936 0.091936 0.091936
0.091936 0.091936 0.091936
0.091936 0.091936 0.091936
0.091936 0.091936 0.091936
0.091936 0.091936 0.091936
0.091936 0.091936 0.091936
0.922416 0.922416 0.922416
0.932252 0.932252 0.932252
0.937101 0.937101 0.937101
0.940557 0.940557 0.940557
0.091936 0.091936 0.091936
0.931649 0.931649 0.931649
0.939949 0.939949 0.939949
0.944837 0.944837 0.944837
0.948322 0.948322 0.948322
0.091936 0.091936 0.091936
0.936141 0.936141 0.936141
0.944480 0.944480 0.944480
0.949392 0.949392 0.949392
0.952893 0.952893 0.952893
0.091936 0.091936 0.091936
0.939341 0.939341 0.939341
0.947708 0.947708 0.947708
0.952637 0.952637 0.952637
0.956150 0.956150 0.956150
