trix_classic/TriX_Yellow8_Soft.cube
TITLE "Tri-X Yellow8 Soft"
# Adobe RGB in/out. REPLACES AgX. R=0.5015 G=0.4679 B=0.0307
LUT_3D_SIZE 5
DOMAIN_MIN 0.0 0.0 0.0
DOMAIN_MAX 1.0 1.0 1.0
0.097688 0.097688 0.097688
0.097688 0.097688 0.097688
0.097688 0.097688 0.097688
0.097688 0.097688 0.097688
0.097688 0.097688 0.097688
0.097688 0.097688 0.097688
0.097688 0.097688 0.097688
0.097688 0.097688 0.097688
0.097688 0.097688 0.097688
0.097688 0.097688 0.097688
0.097688 0.097688 0.097688
0.097688 0.097688 0.097688
0.097688 0.097688 0.097688
0.097688 0.097688 0.097688
0.097688 0.097688 0.097688
0.097688 0.097688 0.097688
0.097688 0.097688 0.097688
0.097688 0.097688 0.097688
0.097688 0.097688 0.097688
0.097688 0.097688 0.097688
0.097688 0.097688 0.097688
0.097688 0.097688 0.097688
0.097688 0.097688 0.097688
0.097688 0.097688 0.097688
0.097688 0.097688 0.097688
0.097688 0.097688 0.097688
0.097688 0.097688 0.097688
0.097688 0.097688 0.097688
0.097688 0.097688 0.097688
0.097688 0.097688 0.097688
0.097688 0.097688 0.097688
0.241770 0.241770 0.241770
0.353148 0.353148 0.353148
0.434072 0.434072 0.434072
0.500587 0.500587 0.500587
0.097688 0.097688 0.097688
0.344688 0.344688 0.344688
0.489165 0.489165 0.489165
0.597045 0.597045 0.597045
0.686234 0.686234 0.686234
0.097688 0.097688 0.097688
0.419009 0.419009 0.419009
0.589136 0.589136 0.589136
0.716450 0.716450 0.716450
0.815724 0.815724 0.815724
0.097688 0.097688 0.097688
0.478003 0.478003 0.478003
0.671206 0.671206 0.671206
0.809227 0.809227 0.809227
0.901264 0.901264 0.901264
0.097688 0.097688 0.097688
0.097688 0.097688 0.097688
0.097688 0.097688 0.097688
0.097688 0.097688 0.097688
0.097688 0.097688 0.097688
0.097688 0.097688 0.097688
0.248116 0.248116 0.248116
0.361039 0.361039 0.361039
0.443191 0.443191 0.443191
0.511199 0.511199 0.511199
0.097688 0.097688 0.097688
0.352390 0.352390 0.352390
0.499564 0.499564 0.499564
0.609580 0.609580 0.609580
0.700222 0.700222 0.700222
0.097688 0.097688 0.097688
0.427605 0.427605 0.427605
0.601504 0.601504 0.601504
0.730991 0.730991 0.730991
0.830174 0.830174 0.830174
0.097688 0.097688 0.097688
0.488165 0.488165 0.488165
0.684888 0.684888 0.684888
0.823562 0.823562 0.823562
0.911430 0.911430 0.911430
0.097688 0.097688 0.097688
0.097688 0.097688 0.097688
0.097688 0.097688 0.097688
0.097688 0.097688 0.097688
0.097688 0.097688 0.097688
0.097688 0.097688 0.097688
0.251905 0.251905 0.251905
0.365736 0.365736 0.365736
0.448679 0.448679 0.448679
0.517450 0.517450 0.517450
0.097688 0.097688 0.097688
0.356975 0.356975 0.356975
0.505749 0.505749 0.505749
0.617033 0.617033 0.617033
0.708537 0.708537 0.708537
0.097688 0.097688 0.097688
0.432715 0.432715 0.432715
0.608859 0.608859 0.608859
0.739633 0.739633 0.739633
0.838745 0.838745 0.838745
0.097688 0.097688 0.097688
0.494209 0.494209 0.494209
0.693021 0.693021 0.693021
0.832065 0.832065 0.832065
0.917429 0.917429 0.917429
0.097688 0.097688 0.097688
0.097688 0.097688 0.097688
0.097688 0.097688 0.097688
0.097688 0.097688 0.097688
0.097688 0.097688 0.097688
0.097688 0.097688 0.097688
0.254628 0.254628 0.254628
0.369106 0.369106 0.369106
0.452613 0.452613 0.452613
0.521931 0.521931 0.521931
0.097688 0.097688 0.097688
0.360264 0.360264 0.360264
0.510167 0.510167 0.510167
0.622377 0.622377 0.622377
0.714470 0.714470 0.714470
0.097688 0.097688 0.097688
0.436378 0.436378 0.436378
0.614132 0.614132 0.614132
0.745826 0.745826 0.745826
0.844880 0.844880 0.844880
0.097688 0.097688 0.097688
0.498543 0.498543 0.498543
0.698849 0.698849 0.698849
0.838151 0.838151 0.838151
0.921710 0.921710 0.921710
