trix_classic/TriX_Green58_Punchy.cube
TITLE "Tri-X Green58 Punchy"
# Adobe RGB in/out. REPLACES AgX. Tri-X Green58 Punchy.
LUT_3D_SIZE 9
DOMAIN_MIN 0.0 0.0 0.0
DOMAIN_MAX 1.0 1.0 1.0
0.091936 0.091936 0.091936
0.091936 0.091936 0.091936
0.091974 0.091974 0.091974
0.092221 0.092221 0.092221
0.096654 0.096654 0.096654
0.103980 0.103980 0.103980
0.110156 0.110156 0.110156
0.096913 0.096913 0.096913
0.160239 0.160239 0.160239
0.092069 0.092069 0.092069
0.092043 0.092043 0.092043
0.092111 0.092111 0.092111
0.094929 0.094929 0.094929
0.101753 0.101753 0.101753
0.111678 0.111678 0.111678
0.119320 0.119320 0.119320
0.096917 0.096917 0.096917
0.160245 0.160245 0.160245
0.139628 0.139628 0.139628
0.132262 0.132262 0.132262
0.122670 0.122670 0.122670
0.129201 0.129201 0.129201
0.148647 0.148647 0.148647
0.175414 0.175414 0.175414
0.191878 0.191878 0.191878
0.098413 0.098413 0.098413
0.160245 0.160245 0.160245
0.331799 0.331799 0.331799
0.323997 0.323997 0.323997
0.302832 0.302832 0.302832
0.284766 0.284766 0.284766
0.292575 0.292575 0.292575
0.313752 0.313752 0.313752
0.335668 0.335668 0.335668
0.331000 0.331000 0.331000
0.160293 0.160293 0.160293
0.517975 0.517975 0.517975
0.511946 0.511946 0.511946
0.498071 0.498071 0.498071
0.480197 0.480197 0.480197
0.468407 0.468407 0.468407
0.472443 0.472443 0.472443
0.484779 0.484779 0.484779
0.491278 0.491278 0.491278
0.446580 0.446580 0.446580
0.681224 0.681224 0.681224
0.676682 0.676682 0.676682
0.665965 0.665965 0.665965
0.649864 0.649864 0.649864
0.635208 0.635208 0.635208
0.627670 0.627670 0.627670
0.631420 0.631420 0.631420
0.639487 0.639487 0.639487
0.622863 0.622863 0.622863
0.818314 0.818314 0.818314
0.816238 0.816238 0.816238
0.808845 0.808845 0.808845
0.797012 0.797012 0.797012
0.784768 0.784768 0.784768
0.775771 0.775771 0.775771
0.773172 0.773172 0.773172
0.777449 0.777449 0.777449
0.776032 0.776032 0.776032
0.913709 0.913709 0.913709
0.912366 0.912366 0.912366
0.904737 0.904737 0.904737
0.897503 0.897503 0.897503
0.890179 0.890179 0.890179
0.884526 0.884526 0.884526
0.882160 0.882160 0.882160
0.884146 0.884146 0.884146
0.886748 0.886748 0.886748
0.932087 0.932087 0.932087
0.932088 0.932088 0.932088
0.944061 0.944061 0.944061
0.944634 0.944634 0.944634
0.946980 0.946980 0.946980
0.944009 0.944009 0.944009
0.942719 0.942719 0.942719
0.943892 0.943892 0.943892
0.947919 0.947919 0.947919
0.091936 0.091936 0.091936
0.091946 0.091946 0.091946
0.092002 0.092002 0.092002
0.093067 0.093067 0.093067
0.097954 0.097954 0.097954
0.105587 0.105587 0.105587
0.111772 0.111772 0.111772
0.096917 0.096917 0.096917
0.160245 0.160245 0.160245
0.092058 0.092058 0.092058
0.092784 0.092784 0.092784
0.093157 0.093157 0.093157
0.097270 0.097270 0.097270
0.103870 0.103870 0.103870
0.113920 0.113920 0.113920
0.121587 0.121587 0.121587
0.096923 0.096923 0.096923
0.160245 0.160245 0.160245
0.133784 0.133784 0.133784
0.130770 0.130770 0.130770
0.126738 0.126738 0.126738
0.138752 0.138752 0.138752
0.157875 0.157875 0.157875
0.181214 0.181214 0.181214
0.195603 0.195603 0.195603
0.098907 0.098907 0.098907
0.160245 0.160245 0.160245
0.324313 0.324313 0.324313
0.318956 0.318956 0.318956
0.303648 0.303648 0.303648
0.291612 0.291612 0.291612
0.301944 0.301944 0.301944
0.321187 0.321187 0.321187
0.339331 0.339331 0.339331
0.333327 0.333327 0.333327
0.160260 0.160260 0.160260
0.510852 0.510852 0.510852
0.506362 0.506362 0.506362
0.495379 0.495379 0.495379
0.480871 0.480871 0.480871
0.471947 0.471947 0.471947
0.476224 0.476224 0.476224
0.487849 0.487849 0.487849
0.492833 0.492833 0.492833
0.448618 0.448618 0.448618
0.675744 0.675744 0.675744
0.671895 0.671895 0.671895
0.662624 0.662624 0.662624
0.648460 0.648460 0.648460
0.635662 0.635662 0.635662
0.629511 0.629511 0.629511
0.633451 0.633451 0.633451
0.640801 0.640801 0.640801
0.623803 0.623803 0.623803
0.815801 0.815801 0.815801
0.813811 0.813811 0.813811
0.806576 0.806576 0.806576
0.795615 0.795615 0.795615
0.784303 0.784303 0.784303
0.776133 0.776133 0.776133
0.774046 0.774046 0.774046
0.778326 0.778326 0.778326
0.776345 0.776345 0.776345
0.912283 0.912283 0.912283
0.910972 0.910972 0.910972
0.903647 0.903647 0.903647
0.896716 0.896716 0.896716
0.889744 0.889744 0.889744
0.884388 0.884388 0.884388
0.882259 0.882259 0.882259
0.884310 0.884310 0.884310
0.886692 0.886692 0.886692
0.934789 0.934789 0.934789
0.934791 0.934791 0.934791
0.946603 0.946603 0.946603
0.946602 0.946602 0.946602
0.946818 0.946818 0.946818
0.943858 0.943858 0.943858
0.942615 0.942615 0.942615
0.943812 0.943812 0.943812
0.947795 0.947795 0.947795
0.091960 0.091960 0.091960
0.091996 0.091996 0.091996
0.092059 0.092059 0.092059
0.094846 0.094846 0.094846
0.101921 0.101921 0.101921
0.112042 0.112042 0.112042
0.119035 0.119035 0.119035
0.097755 0.097755 0.097755
0.160245 0.160245 0.160245
0.092768 0.092768 0.092768
0.093265 0.093265 0.093265
0.094873 0.094873 0.094873
0.100580 0.100580 0.100580
0.110141 0.110141 0.110141
0.123724 0.123724 0.123724
0.130829 0.130829 0.130829
0.098078 0.098078 0.098078
0.160245 0.160245 0.160245
0.131463 0.131463 0.131463
0.132317 0.132317 0.132317
0.152941 0.152941 0.152941
0.152299 0.152299 0.152299
0.174927 0.174927 0.174927
0.200454 0.200454 0.200454
0.210899 0.210899 0.210899
0.116926 0.116926 0.116926
0.160245 0.160245 0.160245
0.314193 0.314193 0.314193
0.312415 0.312415 0.312415
0.306389 0.306389 0.306389
0.303357 0.303357 0.303357
0.322031 0.322031 0.322031
0.341517 0.341517 0.341517
0.354785 0.354785 0.354785
0.343483 0.343483 0.343483
0.160247 0.160247 0.160247
0.502006 0.502006 0.502006
0.499656 0.499656 0.499656
0.493194 0.493194 0.493194
0.484698 0.484698 0.484698
0.480793 0.480793 0.480793
0.489652 0.489652 0.489652
0.500810 0.500810 0.500810
0.500578 0.500578 0.500578
0.456600 0.456600 0.456600
0.666178 0.666178 0.666178
0.663779 0.663779 0.663779
0.657554 0.657554 0.657554
0.647991 0.647991 0.647991
0.639525 0.639525 0.639525
0.636488 0.636488 0.636488
0.642081 0.642081 0.642081
0.647454 0.647454 0.647454
0.627499 0.627499 0.627499
0.807186 0.807186 0.807186
0.805568 0.805568 0.805568
0.800523 0.800523 0.800523
0.792445 0.792445 0.792445
0.784021 0.784021 0.784021
0.778382 0.778382 0.778382
0.777795 0.777795 0.777795
0.782225 0.782225 0.782225
0.777727 0.777727 0.777727
0.902603 0.902603 0.902603
0.901786 0.901786 0.901786
0.897937 0.897937 0.897937
0.893158 0.893158 0.893158
0.887875 0.887875 0.887875
0.883760 0.883760 0.883760
0.882559 0.882559 0.882559
0.884847 0.884847 0.884847
0.886524 0.886524 0.886524
0.934791 0.934791 0.934791
0.946602 0.946602 0.946602
0.946603 0.946603 0.946603
0.946604 0.946604 0.946604
0.945660 0.945660 0.945660
0.942991 0.942991 0.942991
0.941997 0.941997 0.941997
0.943323 0.943323 0.943323
0.947233 0.947233 0.947233
0.092041 0.092041 0.092041
0.092957 0.092957 0.092957
0.094797 0.094797 0.094797
0.099555 0.099555 0.099555
0.109316 0.109316 0.109316
0.124146 0.124146 0.124146
0.134191 0.134191 0.134191
0.113158 0.113158 0.113158
0.160245 0.160245 0.160245
0.095484 0.095484 0.095484
0.097635 0.097635 0.097635
0.100767 0.100767 0.100767
0.107194 0.107194 0.107194
0.121670 0.121670 0.121670
0.139602 0.139602 0.139602
0.150203 0.150203 0.150203
0.120224 0.120224 0.120224
0.160245 0.160245 0.160245
0.148022 0.148022 0.148022
0.151244 0.151244 0.151244
0.156605 0.156605 0.156605
0.168461 0.168461 0.168461
0.193803 0.193803 0.193803
0.219866 0.219866 0.219866
0.231433 0.231433 0.231433
0.209751 0.209751 0.209751
0.160245 0.160245 0.160245
0.313980 0.313980 0.313980
0.314892 0.314892 0.314892
0.315240 0.315240 0.315240
0.338495 0.338495 0.338495
0.337608 0.337608 0.337608
0.357316 0.357316 0.357316
0.370528 0.370528 0.370528
0.359837 0.359837 0.359837
0.160262 0.160262 0.160262
0.497027 0.497027 0.497027
0.495989 0.495989 0.495989
0.493439 0.493439 0.493439
0.489527 0.489527 0.489527
0.489734 0.489734 0.489734
0.500912 0.500912 0.500912
0.512160 0.512160 0.512160
0.510423 0.510423 0.510423
0.470879 0.470879 0.470879
0.658994 0.658994 0.658994
0.657564 0.657564 0.657564
0.653959 0.653959 0.653959
0.647941 0.647941 0.647941
0.643169 0.643169 0.643169
0.643059 0.643059 0.643059
0.650412 0.650412 0.650412
0.653970 0.653970 0.653970
0.635047 0.635047 0.635047
0.799973 0.799973 0.799973
0.798857 0.798857 0.798857
0.795430 0.795430 0.795430
0.789868 0.789868 0.789868
0.784096 0.784096 0.784096
0.780836 0.780836 0.780836
0.781895 0.781895 0.781895
0.786218 0.786218 0.786218
0.781018 0.781018 0.781018
0.897058 0.897058 0.897058
0.896491 0.896491 0.896491
0.893986 0.893986 0.893986
0.890383 0.890383 0.890383
0.886453 0.886453 0.886453
0.883551 0.883551 0.883551
0.883166 0.883166 0.883166
0.885777 0.885777 0.885777
0.886987 0.886987 0.886987
0.940649 0.940649 0.940649
0.947493 0.947493 0.947493
0.947494 0.947494 0.947494
0.949620 0.949620 0.949620
0.943545 0.943545 0.943545
0.941703 0.941703 0.941703
0.941203 0.941203 0.941203
0.942691 0.942691 0.942691
0.946758 0.946758 0.946758
0.094414 0.094414 0.094414
0.097233 0.097233 0.097233
0.103135 0.103135 0.103135
0.111089 0.111089 0.111089
0.125651 0.125651 0.125651
0.147150 0.147150 0.147150
0.160337 0.160337 0.160337
0.139953 0.139953 0.139953
0.160246 0.160246 0.160246
0.100961 0.100961 0.100961
0.104396 0.104396 0.104396
0.112729 0.112729 0.112729
0.124242 0.124242 0.124242
0.143337 0.143337 0.143337
0.164895 0.164895 0.164895
0.176734 0.176734 0.176734
0.153485 0.153485 0.153485
0.160246 0.160246 0.160246
0.169534 0.169534 0.169534
0.174249 0.174249 0.174249
0.185161 0.185161 0.185161
0.199047 0.199047 0.199047
0.220180 0.220180 0.220180
0.246857 0.246857 0.246857
0.259443 0.259443 0.259443
0.244611 0.244611 0.244611
0.160249 0.160249 0.160249
0.333775 0.333775 0.333775
0.335553 0.335553 0.335553
0.340112 0.340112 0.340112
0.345357 0.345357 0.345357
0.357299 0.357299 0.357299
0.377737 0.377737 0.377737
0.391425 0.391425 0.391425
0.382725 0.382725 0.382725
0.254144 0.254144 0.254144
0.499369 0.499369 0.499369
0.499415 0.499415 0.499415
0.499406 0.499406 0.499406
0.498780 0.498780 0.498780
0.513339 0.513339 0.513339
0.514226 0.514226 0.514226
0.525551 0.525551 0.525551
0.524399 0.524399 0.524399
0.489733 0.489733 0.489733
0.657898 0.657898 0.657898
0.657052 0.657052 0.657052
0.655131 0.655131 0.655131
0.651622 0.651622 0.651622
0.649598 0.649598 0.649598
0.651555 0.651555 0.651555
0.659635 0.659635 0.659635
0.662796 0.662796 0.662796
0.646310 0.646310 0.646310
0.797234 0.797234 0.797234
0.796462 0.796462 0.796462
0.794039 0.794039 0.794039
0.790125 0.790125 0.790125
0.786292 0.786292 0.786292
0.784800 0.784800 0.784800
0.787135 0.787135 0.787135
0.791193 0.791193 0.791193
0.786842 0.786842 0.786842
0.894804 0.894804 0.894804
0.894315 0.894315 0.894315
0.892197 0.892197 0.892197
0.889329 0.889329 0.889329
0.886277 0.886277 0.886277
0.884286 0.884286 0.884286
0.884585 0.884585 0.884585
0.887576 0.887576 0.887576
0.888765 0.888765 0.888765
0.942507 0.942507 0.942507
0.943507 0.943507 0.943507
0.945872 0.945872 0.945872
0.945131 0.945131 0.945131
0.942860 0.942860 0.942860
0.941415 0.941415 0.941415
0.941137 0.941137 0.941137
0.942776 0.942776 0.942776
0.947463 0.947463 0.947463
0.102950 0.102950 0.102950
0.105669 0.105669 0.105669
0.121805 0.121805 0.121805
0.135514 0.135514 0.135514
0.156705 0.156705 0.156705
0.177590 0.177590 0.177590
0.193488 0.193488 0.193488
0.176123 0.176123 0.176123
0.160246 0.160246 0.160246
0.111996 0.111996 0.111996
0.116098 0.116098 0.116098
0.137322 0.137322 0.137322
0.153572 0.153572 0.153572
0.174630 0.174630 0.174630
0.197650 0.197650 0.197650
0.212523 0.212523 0.212523
0.192697 0.192697 0.192697
0.160246 0.160246 0.160246
0.201187 0.201187 0.201187
0.205720 0.205720 0.205720
0.222953 0.222953 0.222953
0.237306 0.237306 0.237306
0.257789 0.257789 0.257789
0.279182 0.279182 0.279182
0.293314 0.293314 0.293314
0.281963 0.281963 0.281963
0.160249 0.160249 0.160249
0.357638 0.357638 0.357638
0.359504 0.359504 0.359504
0.367697 0.367697 0.367697
0.374872 0.374872 0.374872
0.387439 0.387439 0.387439
0.403029 0.403029 0.403029
0.416092 0.416092 0.416092
0.410453 0.410453 0.410453
0.304211 0.304211 0.304211
0.513979 0.513979 0.513979
0.514298 0.514298 0.514298
0.516672 0.516672 0.516672
0.518158 0.518158 0.518158
0.522495 0.522495 0.522495
0.531016 0.531016 0.531016
0.542220 0.542220 0.542220
0.541815 0.541815 0.541815
0.511291 0.511291 0.511291
0.663179 0.663179 0.663179
0.662782 0.662782 0.662782
0.661938 0.661938 0.661938
0.660068 0.660068 0.660068
0.659782 0.659782 0.659782
0.667998 0.667998 0.667998
0.671332 0.671332 0.671332
0.674552 0.674552 0.674552
0.660154 0.660154 0.660154
0.799584 0.799584 0.799584
0.798936 0.798936 0.798936
0.797053 0.797053 0.797053
0.794128 0.794128 0.794128
0.791545 0.791545 0.791545
0.791167 0.791167 0.791167
0.794344 0.794344 0.794344
0.798241 0.798241 0.798241
0.794750 0.794750 0.794750
0.895603 0.895603 0.895603
0.895157 0.895157 0.895157
0.893215 0.893215 0.893215
0.890647 0.890647 0.890647
0.888098 0.888098 0.888098
0.886678 0.886678 0.886678
0.887433 0.887433 0.887433
0.890615 0.890615 0.890615
0.891982 0.891982 0.891982
0.943159 0.943159 0.943159
0.944036 0.944036 0.944036
0.946030 0.946030 0.946030
0.945649 0.945649 0.945649
0.943437 0.943437 0.943437
0.942183 0.942183 0.942183
0.942110 0.942110 0.942110
0.943795 0.943795 0.943795
0.948857 0.948857 0.948857
0.122421 0.122421 0.122421
0.125564 0.125564 0.125564
0.154074 0.154074 0.154074
0.170672 0.170672 0.170672
0.193733 0.193733 0.193733
0.217147 0.217147 0.217147
0.230731 0.230731 0.230731
0.215048 0.215048 0.215048
0.160234 0.160234 0.160234
0.137387 0.137387 0.137387
0.141892 0.141892 0.141892
0.171286 0.171286 0.171286
0.189034 0.189034 0.189034
0.213016 0.213016 0.213016
0.236738 0.236738 0.236738
0.250012 0.250012 0.250012
0.232925 0.232925 0.232925
0.160229 0.160229 0.160229
0.234589 0.234589 0.234589
0.238138 0.238138 0.238138
0.258137 0.258137 0.258137
0.273263 0.273263 0.273263
0.294403 0.294403 0.294403
0.315958 0.315958 0.315958
0.327678 0.327678 0.327678
0.319161 0.319161 0.319161
0.160131 0.160131 0.160131
0.386754 0.386754 0.386754
0.388176 0.388176 0.388176
0.397428 0.397428 0.397428
0.405829 0.405829 0.405829
0.417675 0.417675 0.417675
0.429853 0.429853 0.429853
0.437874 0.437874 0.437874
0.433061 0.433061 0.433061
0.369353 0.369353 0.369353
0.533838 0.533838 0.533838
0.534191 0.534191 0.534191
0.537303 0.537303 0.537303
0.539837 0.539837 0.539837
0.545081 0.545081 0.545081
0.553011 0.553011 0.553011
0.559349 0.559349 0.559349
0.558806 0.558806 0.558806
0.531974 0.531974 0.531974
0.676174 0.676174 0.676174
0.675938 0.675938 0.675938
0.675970 0.675970 0.675970
0.675379 0.675379 0.675379
0.675988 0.675988 0.675988
0.679950 0.679950 0.679950
0.685521 0.685521 0.685521
0.687948 0.687948 0.687948
0.673801 0.673801 0.673801
0.806999 0.806999 0.806999
0.806444 0.806444 0.806444
0.804747 0.804747 0.804747
0.802207 0.802207 0.802207
0.800343 0.800343 0.800343
0.800600 0.800600 0.800600
0.803966 0.803966 0.803966
0.807293 0.807293 0.807293
0.803441 0.803441 0.803441
0.899768 0.899768 0.899768
0.899302 0.899302 0.899302
0.897223 0.897223 0.897223
0.894669 0.894669 0.894669
0.892267 0.892267 0.892267
0.891040 0.891040 0.891040
0.892010 0.892010 0.892010
0.895126 0.895126 0.895126
0.896200 0.896200 0.896200
0.943068 0.943068 0.943068
0.944776 0.944776 0.944776
0.946984 0.946984 0.946984
0.948024 0.948024 0.948024
0.945262 0.945262 0.945262
0.944049 0.944049 0.944049
0.944047 0.944047 0.944047
0.945769 0.945769 0.945769
0.950895 0.950895 0.950895
0.157944 0.157944 0.157944
0.160051 0.160051 0.160051
0.182344 0.182344 0.182344
0.202766 0.202766 0.202766
0.226574 0.226574 0.226574
0.249439 0.249439 0.249439
0.260743 0.260743 0.260743
0.239480 0.239480 0.239480
0.169046 0.169046 0.169046
0.174361 0.174361 0.174361
0.176586 0.176586 0.176586
0.200974 0.200974 0.200974
0.221357 0.221357 0.221357
0.245234 0.245234 0.245234
0.267616 0.267616 0.267616
0.278963 0.278963 0.278963
0.257234 0.257234 0.257234
0.171906 0.171906 0.171906
0.275337 0.275337 0.275337
0.276904 0.276904 0.276904
0.292783 0.292783 0.292783
0.308672 0.308672 0.308672
0.328039 0.328039 0.328039
0.345421 0.345421 0.345421
0.354532 0.354532 0.354532
0.339469 0.339469 0.339469
0.206511 0.206511 0.206511
0.415580 0.415580 0.415580
0.415989 0.415989 0.415989
0.422046 0.422046 0.422046
0.428699 0.428699 0.428699
0.439243 0.439243 0.439243
0.450830 0.450830 0.450830
0.457437 0.457437 0.457437
0.448475 0.448475 0.448475
0.390660 0.390660 0.390660
0.554325 0.554325 0.554325
0.554253 0.554253 0.554253
0.556448 0.556448 0.556448
0.558675 0.558675 0.558675
0.563853 0.563853 0.563853
0.571249 0.571249 0.571249
0.576341 0.576341 0.576341
0.571404 0.571404 0.571404
0.542902 0.542902 0.542902
0.693175 0.693175 0.693175
0.692827 0.692827 0.692827
0.692845 0.692845 0.692845
0.692013 0.692013 0.692013
0.692959 0.692959 0.692959
0.697393 0.697393 0.697393
0.701872 0.701872 0.701872
0.699990 0.699990 0.699990
0.681870 0.681870 0.681870
0.817706 0.817706 0.817706
0.817267 0.817267 0.817267
0.815863 0.815863 0.815863
0.813773 0.813773 0.813773
0.811850 0.811850 0.811850
0.812388 0.812388 0.812388
0.815187 0.815187 0.815187
0.816466 0.816466 0.816466
0.809462 0.809462 0.809462
0.908184 0.908184 0.908184
0.907564 0.907564 0.907564
0.904637 0.904637 0.904637
0.901444 0.901444 0.901444
0.898699 0.898699 0.898699
0.897464 0.897464 0.897464
0.898389 0.898389 0.898389
0.899279 0.899279 0.899279
0.900266 0.900266 0.900266
0.942165 0.942165 0.942165
0.946913 0.946913 0.946913
0.947626 0.947626 0.947626
0.950245 0.950245 0.950245
0.948553 0.948553 0.948553
0.947182 0.947182 0.947182
0.947103 0.947103 0.947103
0.948695 0.948695 0.948695
0.953360 0.953360 0.953360
0.153201 0.153201 0.153201
0.155938 0.155938 0.155938
0.166814 0.166814 0.166814
0.186455 0.186455 0.186455
0.211110 0.211110 0.211110
0.231549 0.231549 0.231549
0.233741 0.233741 0.233741
0.179290 0.179290 0.179290
0.172016 0.172016 0.172016
0.167123 0.167123 0.167123
0.169950 0.169950 0.169950
0.181654 0.181654 0.181654
0.203208 0.203208 0.203208
0.228557 0.228557 0.228557
0.249124 0.249124 0.249124
0.250829 0.250829 0.250829
0.192029 0.192029 0.192029
0.176633 0.176633 0.176633
0.250963 0.250963 0.250963
0.254072 0.254072 0.254072
0.266202 0.266202 0.266202
0.287073 0.287073 0.287073
0.311326 0.311326 0.311326
0.329152 0.329152 0.329152
0.329616 0.329616 0.329616
0.268284 0.268284 0.268284
0.176658 0.176658 0.176658
0.414289 0.414289 0.414289
0.415589 0.415589 0.415589
0.420705 0.420705 0.420705
0.430523 0.430523 0.430523
0.442580 0.442580 0.442580
0.452342 0.452342 0.452342
0.452167 0.452167 0.452167
0.421015 0.421015 0.421015
0.341055 0.341055 0.341055
0.561698 0.561698 0.561698
0.562068 0.562068 0.562068
0.563815 0.563815 0.563815
0.568770 0.568770 0.568770
0.576179 0.576179 0.576179
0.582414 0.582414 0.582414
0.582087 0.582087 0.582087
0.560999 0.560999 0.560999
0.476479 0.476479 0.476479
0.705339 0.705339 0.705339
0.705073 0.705073 0.705073
0.704458 0.704458 0.704458
0.705807 0.705807 0.705807
0.709629 0.709629 0.709629
0.713692 0.713692 0.713692
0.713943 0.713943 0.713943
0.700407 0.700407 0.700407
0.642214 0.642214 0.642214
0.827452 0.827452 0.827452
0.826946 0.826946 0.826946
0.825243 0.825243 0.825243
0.823777 0.823777 0.823777
0.824469 0.824469 0.824469
0.826836 0.826836 0.826836
0.828354 0.828354 0.828354
0.822845 0.822845 0.822845
0.789835 0.789835 0.789835
0.913358 0.913358 0.913358
0.912901 0.912901 0.912901
0.910852 0.910852 0.910852
0.907696 0.907696 0.907696
0.905712 0.905712 0.905712
0.905919 0.905919 0.905919
0.907978 0.907978 0.907978
0.908484 0.908484 0.908484
0.894913 0.894913 0.894913
0.940609 0.940609 0.940609
0.947672 0.947672 0.947672
0.947672 0.947672 0.947672
0.948394 0.948394 0.948394
0.953308 0.953308 0.953308
0.951465 0.951465 0.951465
0.951337 0.951337 0.951337
0.953008 0.953008 0.953008
0.956150 0.956150 0.956150
