trix_classic/TriX_Green58_Soft.cube
TITLE "Tri-X Green58 Soft"
# Adobe RGB in/out. REPLACES AgX. R=0.1714 G=0.8069 B=0.0217
LUT_3D_SIZE 5
DOMAIN_MIN 0.0 0.0 0.0
DOMAIN_MAX 1.0 1.0 1.0
0.093873 0.093873 0.093873
0.093873 0.093873 0.093873
0.093873 0.093873 0.093873
0.093873 0.093873 0.093873
0.093873 0.093873 0.093873
0.093873 0.093873 0.093873
0.093873 0.093873 0.093873
0.093873 0.093873 0.093873
0.093873 0.093873 0.093873
0.093873 0.093873 0.093873
0.093873 0.093873 0.093873
0.093873 0.093873 0.093873
0.093873 0.093873 0.093873
0.093873 0.093873 0.093873
0.093873 0.093873 0.093873
0.093873 0.093873 0.093873
0.093873 0.093873 0.093873
0.093873 0.093873 0.093873
0.093873 0.093873 0.093873
0.093873 0.093873 0.093873
0.093873 0.093873 0.093873
0.093873 0.093873 0.093873
0.093873 0.093873 0.093873
0.093873 0.093873 0.093873
0.093873 0.093873 0.093873
0.093873 0.093873 0.093873
0.093873 0.093873 0.093873
0.093873 0.093873 0.093873
0.093873 0.093873 0.093873
0.093873 0.093873 0.093873
0.093873 0.093873 0.093873
0.233250 0.233250 0.233250
0.271870 0.271870 0.271870
0.293396 0.293396 0.293396
0.309987 0.309987 0.309987
0.093873 0.093873 0.093873
0.437560 0.437560 0.437560
0.492165 0.492165 0.492165
0.526896 0.526896 0.526896
0.552803 0.552803 0.552803
0.093873 0.093873 0.093873
0.603163 0.603163 0.603163
0.676168 0.676168 0.676168
0.721715 0.721715 0.721715
0.754207 0.754207 0.754207
0.093873 0.093873 0.093873
0.750530 0.750530 0.750530
0.827334 0.827334 0.827334
0.873452 0.873452 0.873452
0.898762 0.898762 0.898762
0.093873 0.093873 0.093873
0.093873 0.093873 0.093873
0.093873 0.093873 0.093873
0.093873 0.093873 0.093873
0.093873 0.093873 0.093873
0.093873 0.093873 0.093873
0.237882 0.237882 0.237882
0.276401 0.276401 0.276401
0.298286 0.298286 0.298286
0.315340 0.315340 0.315340
0.093873 0.093873 0.093873
0.444138 0.444138 0.444138
0.499564 0.499564 0.499564
0.534684 0.534684 0.534684
0.560974 0.560974 0.560974
0.093873 0.093873 0.093873
0.612079 0.612079 0.612079
0.685873 0.685873 0.685873
0.731497 0.731497 0.731497
0.764430 0.764430 0.764430
0.093873 0.093873 0.093873
0.760702 0.760702 0.760702
0.837125 0.837125 0.837125
0.883552 0.883552 0.883552
0.905542 0.905542 0.905542
0.093873 0.093873 0.093873
0.093873 0.093873 0.093873
0.093873 0.093873 0.093873
0.093873 0.093873 0.093873
0.093873 0.093873 0.093873
0.093873 0.093873 0.093873
0.240634 0.240634 0.240634
0.279086 0.279086 0.279086
0.301184 0.301184 0.301184
0.318514 0.318514 0.318514
0.093873 0.093873 0.093873
0.448032 0.448032 0.448032
0.503943 0.503943 0.503943
0.539293 0.539293 0.539293
0.565810 0.565810 0.565810
0.093873 0.093873 0.093873
0.617356 0.617356 0.617356
0.691615 0.691615 0.691615
0.737280 0.737280 0.737280
0.770474 0.770474 0.770474
0.093873 0.093873 0.093873
0.766717 0.766717 0.766717
0.842907 0.842907 0.842907
0.887445 0.887445 0.887445
0.909532 0.909532 0.909532
0.093873 0.093873 0.093873
0.093873 0.093873 0.093873
0.093873 0.093873 0.093873
0.093873 0.093873 0.093873
0.093873 0.093873 0.093873
0.093873 0.093873 0.093873
0.242606 0.242606 0.242606
0.281007 0.281007 0.281007
0.303314 0.303314 0.303314
0.320785 0.320785 0.320785
0.093873 0.093873 0.093873
0.450815 0.450815 0.450815
0.507074 0.507074 0.507074
0.542588 0.542588 0.542588
0.569266 0.569266 0.569266
0.093873 0.093873 0.093873
0.621127 0.621127 0.621127
0.695718 0.695718 0.695718
0.741411 0.741411 0.741411
0.774791 0.774791 0.774791
0.093873 0.093873 0.093873
0.771013 0.771013 0.771013
0.847033 0.847033 0.847033
0.890218 0.890218 0.890218
0.912373 0.912373 0.912373
