trix_classic/TriX_Orange21_Hard.cube
TITLE "Tri-X Orange21 Hard"
# Adobe RGB in/out. REPLACES AgX. R=0.7239 G=0.2761 B=0.0000
LUT_3D_SIZE 33
DOMAIN_MIN 0.0 0.0 0.0
DOMAIN_MAX 1.0 1.0 1.0
0.093288 0.093288 0.093288
0.093288 0.093288 0.093288
0.093288 0.093288 0.093288
0.093288 0.093288 0.093288
0.093288 0.093288 0.093288
0.093288 0.093288 0.093288
0.093288 0.093288 0.093288
0.093288 0.093288 0.093288
0.093288 0.093288 0.093288
0.093288 0.093288 0.093288
0.093288 0.093288 0.093288
0.093288 0.093288 0.093288
0.093288 0.093288 0.093288
0.093288 0.093288 0.093288
0.093288 0.093288 0.093288
0.093288 0.093288 0.093288
0.093288 0.093288 0.093288
0.093288 0.093288 0.093288
0.093288 0.093288 0.093288
0.093288 0.093288 0.093288
0.093288 0.093288 0.093288
0.093288 0.093288 0.093288
0.093288 0.093288 0.093288
0.093288 0.093288 0.093288
0.093288 0.093288 0.093288
0.093288 0.093288 0.093288
0.093288 0.093288 0.093288
0.093288 0.093288 0.093288
0.093288 0.093288 0.093288
0.093288 0.093288 0.093288
0.093288 0.093288 0.093288
0.093288 0.093288 0.093288
0.093288 0.093288 0.093288
0.093288 0.093288 0.093288
0.093288 0.093288 0.093288
0.093288 0.093288 0.093288
0.093296 0.093296 0.093296
0.093320 0.093320 0.093320
0.093343 0.093343 0.093343
0.093374 0.093374 0.093374
0.093412 0.093412 0.093412
0.093487 0.093487 0.093487
0.093681 0.093681 0.093681
0.093864 0.093864 0.093864
0.094209 0.094209 0.094209
0.094718 0.094718 0.094718
0.095295 0.095295 0.095295
0.096035 0.096035 0.096035
0.096759 0.096759 0.096759
0.097737 0.097737 0.097737
0.099163 0.099163 0.099163
0.100527 0.100527 0.100527
0.103173 0.103173 0.103173
0.106784 0.106784 0.106784
0.112594 0.112594 0.112594
0.120067 0.120067 0.120067
0.128432 0.128432 0.128432
0.137780 0.137780 0.137780
0.148589 0.148589 0.148589
0.160066 0.160066 0.160066
0.173869 0.173869 0.173869
0.188294 0.188294 0.188294
0.204243 0.204243 0.204243
0.220945 0.220945 0.220945
0.238397 0.238397 0.238397
0.256607 0.256607 0.256607
0.093288 0.093288 0.093288
0.093288 0.093288 0.093288
0.093288 0.093288 0.093288
0.093318 0.093318 0.093318
0.093347 0.093347 0.093347
0.093391 0.093391 0.093391
0.093455 0.093455 0.093455
0.093703 0.093703 0.093703
0.093946 0.093946 0.093946
0.094581 0.094581 0.094581
0.095315 0.095315 0.095315
0.096273 0.096273 0.096273
0.097199 0.097199 0.097199
0.099070 0.099070 0.099070
0.100841 0.100841 0.100841
0.104848 0.104848 0.104848
0.111669 0.111669 0.111669
0.121257 0.121257 0.121257
0.132227 0.132227 0.132227
0.145778 0.145778 0.145778
0.160760 0.160760 0.160760
0.178903 0.178903 0.178903
0.198678 0.198678 0.198678
0.220247 0.220247 0.220247
0.243089 0.243089 0.243089
0.267220 0.267220 0.267220
0.293534 0.293534 0.293534
0.321510 0.321510 0.321510
0.350988 0.350988 0.350988
0.381991 0.381991 0.381991
0.415337 0.415337 0.415337
0.447191 0.447191 0.447191
0.477777 0.477777 0.477777
0.093288 0.093288 0.093288
0.093288 0.093288 0.093288
0.093297 0.093297 0.093297
0.093333 0.093333 0.093333
0.093377 0.093377 0.093377
0.093437 0.093437 0.093437
0.093704 0.093704 0.093704
0.094017 0.094017 0.094017
0.094797 0.094797 0.094797
0.095806 0.095806 0.095806
0.096903 0.096903 0.096903
0.098777 0.098777 0.098777
0.100852 0.100852 0.100852
0.105546 0.105546 0.105546
0.114256 0.114256 0.114256
0.126793 0.126793 0.126793
0.141108 0.141108 0.141108
0.158251 0.158251 0.158251
0.179091 0.179091 0.179091
0.202410 0.202410 0.202410
0.227971 0.227971 0.227971
0.255275 0.255275 0.255275
0.284866 0.284866 0.284866
0.317109 0.317109 0.317109
0.351393 0.351393 0.351393
0.387755 0.387755 0.387755
0.427475 0.427475 0.427475
0.462813 0.462813 0.462813
0.499250 0.499250 0.499250
0.537203 0.537203 0.537203
0.576663 0.576663 0.576663
0.617585 0.617585 0.617585
0.654176 0.654176 0.654176
0.093288 0.093288 0.093288
0.093288 0.093288 0.093288
0.093306 0.093306 0.093306
0.093344 0.093344 0.093344
0.093403 0.093403 0.093403
0.093584 0.093584 0.093584
0.093900 0.093900 0.093900
0.094657 0.094657 0.094657
0.095726 0.095726 0.095726
0.096950 0.096950 0.096950
0.099117 0.099117 0.099117
0.102117 0.102117 0.102117
0.108874 0.108874 0.108874
0.120538 0.120538 0.120538
0.135290 0.135290 0.135290
0.153693 0.153693 0.153693
0.175950 0.175950 0.175950
0.201700 0.201700 0.201700
0.230282 0.230282 0.230282
0.261037 0.261037 0.261037
0.294935 0.294935 0.294935
0.331771 0.331771 0.331771
0.371169 0.371169 0.371169
0.413924 0.413924 0.413924
0.455093 0.455093 0.455093
0.495500 0.495500 0.495500
0.537778 0.537778 0.537778
0.581932 0.581932 0.581932
0.627142 0.627142 0.627142
0.667370 0.667370 0.667370
0.708683 0.708683 0.708683
0.750033 0.750033 0.750033
0.778421 0.778421 0.778421
0.093288 0.093288 0.093288
0.093288 0.093288 0.093288
0.093313 0.093313 0.093313
0.093359 0.093359 0.093359
0.093429 0.093429 0.093429
0.093724 0.093724 0.093724
0.094254 0.094254 0.094254
0.095243 0.095243 0.095243
0.096602 0.096602 0.096602
0.098638 0.098638 0.098638
0.101518 0.101518 0.101518
0.108648 0.108648 0.108648
0.121465 0.121465 0.121465
0.137944 0.137944 0.137944
0.158447 0.158447 0.158447
0.184060 0.184060 0.184060
0.213476 0.213476 0.213476
0.245693 0.245693 0.245693
0.280867 0.280867 0.280867
0.319993 0.319993 0.319993
0.362138 0.362138 0.362138
0.407894 0.407894 0.407894
0.453282 0.453282 0.453282
0.497276 0.497276 0.497276
0.543492 0.543492 0.543492
0.591918 0.591918 0.591918
0.639473 0.639473 0.639473
0.683694 0.683694 0.683694
0.729196 0.729196 0.729196
0.766363 0.766363 0.766363
0.797375 0.797375 0.797375
0.822702 0.822702 0.822702
0.845028 0.845028 0.845028
0.093288 0.093288 0.093288
0.093288 0.093288 0.093288
0.093319 0.093319 0.093319
0.093373 0.093373 0.093373
0.093471 0.093471 0.093471
0.093845 0.093845 0.093845
0.094660 0.094660 0.094660
0.095937 0.095937 0.095937
0.097507 0.097507 0.097507
0.100291 0.100291 0.100291
0.105666 0.105666 0.105666
0.118290 0.118290 0.118290
0.135404 0.135404 0.135404
0.157081 0.157081 0.157081
0.184277 0.184277 0.184277
0.215961 0.215961 0.215961
0.250819 0.250819 0.250819
0.289375 0.289375 0.289375
0.332154 0.332154 0.332154
0.378424 0.378424 0.378424
0.429574 0.429574 0.429574
0.475547 0.475547 0.475547
0.523986 0.523986 0.523986
0.575021 0.575021 0.575021
0.627674 0.627674 0.627674
0.674752 0.674752 0.674752
0.723306 0.723306 0.723306
0.764635 0.764635 0.764635
0.797876 0.797876 0.797876
0.824674 0.824674 0.824674
0.848593 0.848593 0.848593
0.872387 0.872387 0.872387
0.890890 0.890890 0.890890
0.093288 0.093288 0.093288
0.093288 0.093288 0.093288
0.093325 0.093325 0.093325
0.093384 0.093384 0.093384
0.093568 0.093568 0.093568
0.093961 0.093961 0.093961
0.095005 0.095005 0.095005
0.096546 0.096546 0.096546
0.098887 0.098887 0.098887
0.102869 0.102869 0.102869
0.112613 0.112613 0.112613
0.129310 0.129310 0.129310
0.150890 0.150890 0.150890
0.178192 0.178192 0.178192
0.210911 0.210911 0.210911
0.247496 0.247496 0.247496
0.288095 0.288095 0.288095
0.333461 0.333461 0.333461
0.382757 0.382757 0.382757
0.436335 0.436335 0.436335
0.485557 0.485557 0.485557
0.537599 0.537599 0.537599
0.592517 0.592517 0.592517
0.645981 0.645981 0.645981
0.696574 0.696574 0.696574
0.748546 0.748546 0.748546
0.783700 0.783700 0.783700
0.815908 0.815908 0.815908
0.841320 0.841320 0.841320
0.866591 0.866591 0.866591
0.887587 0.887587 0.887587
0.906578 0.906578 0.906578
0.923426 0.923426 0.923426
0.093288 0.093288 0.093288
0.093288 0.093288 0.093288
0.093330 0.093330 0.093330
0.093396 0.093396 0.093396
0.093652 0.093652 0.093652
0.094236 0.094236 0.094236
0.095493 0.095493 0.095493
0.097089 0.097089 0.097089
0.100098 0.100098 0.100098
0.106149 0.106149 0.106149
0.120899 0.120899 0.120899
0.140948 0.140948 0.140948
0.167175 0.167175 0.167175
0.199873 0.199873 0.199873
0.237342 0.237342 0.237342
0.278787 0.278787 0.278787
0.325749 0.325749 0.325749
0.377044 0.377044 0.377044
0.433486 0.433486 0.433486
0.485183 0.485183 0.485183
0.540003 0.540003 0.540003
0.597997 0.597997 0.597997
0.653431 0.653431 0.653431
0.706973 0.706973 0.706973
0.757447 0.757447 0.757447
0.794505 0.794505 0.794505
0.825030 0.825030 0.825030
0.851712 0.851712 0.851712
0.877293 0.877293 0.877293
0.897396 0.897396 0.897396
0.917255 0.917255 0.917255
0.932018 0.932018 0.932018
0.946420 0.946420 0.946420
0.093288 0.093288 0.093288
0.093288 0.093288 0.093288
0.093334 0.093334 0.093334
0.093410 0.093410 0.093410
0.093726 0.093726 0.093726
0.094498 0.094498 0.094498
0.095941 0.095941 0.095941
0.098000 0.098000 0.098000
0.101577 0.101577 0.101577
0.111455 0.111455 0.111455
0.129414 0.129414 0.129414
0.153432 0.153432 0.153432
0.184470 0.184470 0.184470
0.221811 0.221811 0.221811
0.263393 0.263393 0.263393
0.310691 0.310691 0.310691
0.363026 0.363026 0.363026
0.421202 0.421202 0.421202
0.476020 0.476020 0.476020
0.532852 0.532852 0.532852
0.593175 0.593175 0.593175
0.651579 0.651579 0.651579
0.707557 0.707557 0.707557
0.759540 0.759540 0.759540
0.798322 0.798322 0.798322
0.829003 0.829003 0.829003
0.856883 0.856883 0.856883
0.882149 0.882149 0.882149
0.903107 0.903107 0.903107
0.922268 0.922268 0.922268
0.937493 0.937493 0.937493
0.950971 0.950971 0.950971
0.960390 0.960390 0.960390
0.093288 0.093288 0.093288
0.093288 0.093288 0.093288
0.093339 0.093339 0.093339
0.093422 0.093422 0.093422
0.093792 0.093792 0.093792
0.094733 0.094733 0.094733
0.096354 0.096354 0.096354
0.098946 0.098946 0.098946
0.103956 0.103956 0.103956
0.117244 0.117244 0.117244
0.138426 0.138426 0.138426
0.166475 0.166475 0.166475
0.202229 0.202229 0.202229
0.243468 0.243468 0.243468
0.289831 0.289831 0.289831
0.342311 0.342311 0.342311
0.400226 0.400226 0.400226
0.459473 0.459473 0.459473
0.517603 0.517603 0.517603
0.579552 0.579552 0.579552
0.641715 0.641715 0.641715
0.699654 0.699654 0.699654
0.755753 0.755753 0.755753
0.796103 0.796103 0.796103
0.828555 0.828555 0.828555
0.857577 0.857577 0.857577
0.883540 0.883540 0.883540
0.905333 0.905333 0.905333
0.924538 0.924538 0.924538
0.940341 0.940341 0.940341
0.953155 0.953155 0.953155
0.962907 0.962907 0.962907
0.971186 0.971186 0.971186
0.093288 0.093288 0.093288
0.093288 0.093288 0.093288
0.093342 0.093342 0.093342
0.093432 0.093432 0.093432
0.093861 0.093861 0.093861
0.094946 0.094946 0.094946
0.096740 0.096740 0.096740
0.099809 0.099809 0.099809
0.106572 0.106572 0.106572
0.123882 0.123882 0.123882
0.148076 0.148076 0.148076
0.180280 0.180280 0.180280
0.220010 0.220010 0.220010
0.264875 0.264875 0.264875
0.316389 0.316389 0.316389
0.373678 0.373678 0.373678
0.436807 0.436807 0.436807
0.495627 0.495627 0.495627
0.558473 0.558473 0.558473
0.624946 0.624946 0.624946
0.684399 0.684399 0.684399
0.746192 0.746192 0.746192
0.788589 0.788589 0.788589
0.824225 0.824225 0.824225
0.854347 0.854347 0.854347
0.881903 0.881903 0.881903
0.904519 0.904519 0.904519
0.924529 0.924529 0.924529
0.940911 0.940911 0.940911
0.953879 0.953879 0.953879
0.963971 0.963971 0.963971
0.971865 0.971865 0.971865
0.976566 0.976566 0.976566
0.093288 0.093288 0.093288
0.093288 0.093288 0.093288
0.093346 0.093346 0.093346
0.093443 0.093443 0.093443
0.093926 0.093926 0.093926
0.095217 0.095217 0.095217
0.097094 0.097094 0.097094
0.100604 0.100604 0.100604
0.110482 0.110482 0.110482
0.130270 0.130270 0.130270
0.157669 0.157669 0.157669
0.194197 0.194197 0.194197
0.237605 0.237605 0.237605
0.286648 0.286648 0.286648
0.342755 0.342755 0.342755
0.405249 0.405249 0.405249
0.468080 0.468080 0.468080
0.531167 0.531167 0.531167
0.598595 0.598595 0.598595
0.662788 0.662788 0.662788
0.725841 0.725841 0.725841
0.776378 0.776378 0.776378
0.816429 0.816429 0.816429
0.847617 0.847617 0.847617
0.877564 0.877564 0.877564
0.901000 0.901000 0.901000
0.922496 0.922496 0.922496
0.939465 0.939465 0.939465
0.953314 0.953314 0.953314
0.963756 0.963756 0.963756
0.971923 0.971923 0.971923
0.976779 0.976779 0.976779
0.981504 0.981504 0.981504
0.093288 0.093288 0.093288
0.093288 0.093288 0.093288
0.093351 0.093351 0.093351
0.093483 0.093483 0.093483
0.094015 0.094015 0.094015
0.095521 0.095521 0.095521
0.097675 0.097675 0.097675
0.101970 0.101970 0.101970
0.114205 0.114205 0.114205
0.137134 0.137134 0.137134
0.168216 0.168216 0.168216
0.208439 0.208439 0.208439
0.255031 0.255031 0.255031
0.308551 0.308551 0.308551
0.368945 0.368945 0.368945
0.436052 0.436052 0.436052
0.498821 0.498821 0.498821
0.566173 0.566173 0.566173
0.635712 0.635712 0.635712
0.699619 0.699619 0.699619
0.759961 0.759961 0.759961
0.804610 0.804610 0.804610
0.837720 0.837720 0.837720
0.869721 0.869721 0.869721
0.895030 0.895030 0.895030
0.918630 0.918630 0.918630
0.936197 0.936197 0.936197
0.951587 0.951587 0.951587
0.962391 0.962391 0.962391
0.971425 0.971425 0.971425
0.976443 0.976443 0.976443
0.981321 0.981321 0.981321
0.984534 0.984534 0.984534
0.093288 0.093288 0.093288
0.093290 0.093290 0.093290
0.093357 0.093357 0.093357
0.093529 0.093529 0.093529
0.094179 0.094179 0.094179
0.095803 0.095803 0.095803
0.098337 0.098337 0.098337
0.103644 0.103644 0.103644
0.119130 0.119130 0.119130
0.144373 0.144373 0.144373
0.178965 0.178965 0.178965
0.222554 0.222554 0.222554
0.272322 0.272322 0.272322
0.330319 0.330319 0.330319
0.395046 0.395046 0.395046
0.462503 0.462503 0.462503
0.529130 0.529130 0.529130
0.600637 0.600637 0.600637
0.668353 0.668353 0.668353
0.735542 0.735542 0.735542
0.785513 0.785513 0.785513
0.824919 0.824919 0.824919
0.857927 0.857927 0.857927
0.886806 0.886806 0.886806
0.911512 0.911512 0.911512
0.931255 0.931255 0.931255
0.948791 0.948791 0.948791
0.959972 0.959972 0.959972
0.970417 0.970417 0.970417
0.975606 0.975606 0.975606
0.980646 0.980646 0.980646
0.984299 0.984299 0.984299
0.986435 0.986435 0.986435
0.093288 0.093288 0.093288
0.093291 0.093291 0.093291
0.093362 0.093362 0.093362
0.093573 0.093573 0.093573
0.094332 0.094332 0.094332
0.096066 0.096066 0.096066
0.098957 0.098957 0.098957
0.105227 0.105227 0.105227
0.123976 0.123976 0.123976
0.151740 0.151740 0.151740
0.189653 0.189653 0.189653
0.236553 0.236553 0.236553
0.290165 0.290165 0.290165
0.351963 0.351963 0.351963
0.421890 0.421890 0.421890
0.488570 0.488570 0.488570
0.559054 0.559054 0.559054
0.632806 0.632806 0.632806
0.700246 0.700246 0.700246
0.762883 0.762883 0.762883
0.809428 0.809428 0.809428
0.843429 0.843429 0.843429
0.876480 0.876480 0.876480
0.901999 0.901999 0.901999
0.924751 0.924751 0.924751
0.943165 0.943165 0.943165
0.956572 0.956572 0.956572
0.967843 0.967843 0.967843
0.974305 0.974305 0.974305
0.979516 0.979516 0.979516
0.983864 0.983864 0.983864
0.986069 0.986069 0.986069
0.988208 0.988208 0.988208
0.093288 0.093288 0.093288
0.093293 0.093293 0.093293
0.093367 0.093367 0.093367
0.093613 0.093613 0.093613
0.094476 0.094476 0.094476
0.096321 0.096321 0.096321
0.099541 0.099541 0.099541
0.107661 0.107661 0.107661
0.128686 0.128686 0.128686
0.158971 0.158971 0.158971
0.200790 0.200790 0.200790
0.250445 0.250445 0.250445
0.307914 0.307914 0.307914
0.373491 0.373491 0.373491
0.445412 0.445412 0.445412
0.514281 0.514281 0.514281
0.588577 0.588577 0.588577
0.661011 0.661011 0.661011
0.731457 0.731457 0.731457
0.785173 0.785173 0.785173
0.826405 0.826405 0.826405
0.861119 0.861119 0.861119
0.890519 0.890519 0.890519
0.916447 0.916447 0.916447
0.935810 0.935810 0.935810
0.952244 0.952244 0.952244
0.963909 0.963909 0.963909
0.972566 0.972566 0.972566
0.977957 0.977957 0.977957
0.983187 0.983187 0.983187
0.985518 0.985518 0.985518
0.987726 0.987726 0.987726
0.989869 0.989869 0.989869
0.093288 0.093288 0.093288
0.093295 0.093295 0.093295
0.093371 0.093371 0.093371
0.093651 0.093651 0.093651
0.094611 0.094611 0.094611
0.096566 0.096566 0.096566
0.100092 0.100092 0.100092
0.110398 0.110398 0.110398
0.133433 0.133433 0.133433
0.167093 0.167093 0.167093
0.211847 0.211847 0.211847
0.264236 0.264236 0.264236
0.325573 0.325573 0.325573
0.394982 0.394982 0.394982
0.467397 0.467397 0.467397
0.539751 0.539751 0.539751
0.617727 0.617727 0.617727
0.688649 0.688649 0.688649
0.757249 0.757249 0.757249
0.806704 0.806704 0.806704
0.842677 0.842677 0.842677
0.877167 0.877167 0.877167
0.903912 0.903912 0.903912
0.927064 0.927064 0.927064
0.946318 0.946318 0.946318
0.959103 0.959103 0.959103
0.970407 0.970407 0.970407
0.975990 0.975990 0.975990
0.981399 0.981399 0.981399
0.984793 0.984793 0.984793
0.987075 0.987075 0.987075
0.989286 0.989286 0.989286
0.991432 0.991432 0.991432
0.093288 0.093288 0.093288
0.093296 0.093296 0.093296
0.093375 0.093375 0.093375
0.093687 0.093687 0.093687
0.094739 0.094739 0.094739
0.096798 0.096798 0.096798
0.100615 0.100615 0.100615
0.113042 0.113042 0.113042
0.138675 0.138675 0.138675
0.175270 0.175270 0.175270
0.222829 0.222829 0.222829
0.278184 0.278184 0.278184
0.343150 0.343150 0.343150
0.417092 0.417092 0.417092
0.489117 0.489117 0.489117
0.564920 0.564920 0.564920
0.642870 0.642870 0.642870
0.715765 0.715765 0.715765
0.776812 0.776812 0.776812
0.821973 0.821973 0.821973
0.858311 0.858311 0.858311
0.889599 0.889599 0.889599
0.916723 0.916723 0.916723
0.936876 0.936876 0.936876
0.953456 0.953456 0.953456
0.965615 0.965615 0.965615
0.973628 0.973628 0.973628
0.979229 0.979229 0.979229
0.983900 0.983900 0.983900
0.986260 0.986260 0.986260
0.988544 0.988544 0.988544
0.990759 0.990759 0.990759
0.992507 0.992507 0.992507
0.093288 0.093288 0.093288
0.093298 0.093298 0.093298
0.093379 0.093379 0.093379
0.093721 0.093721 0.093721
0.094860 0.094860 0.094860
0.097018 0.097018 0.097018
0.101418 0.101418 0.101418
0.116088 0.116088 0.116088
0.144012 0.144012 0.144012
0.183372 0.183372 0.183372
0.233740 0.233740 0.233740
0.292370 0.292370 0.292370
0.360649 0.360649 0.360649
0.437528 0.437528 0.437528
0.510591 0.510591 0.510591
0.589807 0.589807 0.589807
0.666789 0.666789 0.666789
0.742396 0.742396 0.742396
0.795782 0.795782 0.795782
0.836392 0.836392 0.836392
0.873367 0.873367 0.873367
0.901521 0.901521 0.901521
0.926154 0.926154 0.926154
0.946253 0.946253 0.946253
0.959578 0.959578 0.959578
0.970879 0.970879 0.970879
0.976684 0.976684 0.976684
0.982302 0.982302 0.982302
0.985286 0.985286 0.985286
0.987649 0.987649 0.987649
0.989936 0.989936 0.989936
0.992154 0.992154 0.992154
0.993137 0.993137 0.993137
0.093288 0.093288 0.093288
0.093299 0.093299 0.093299
0.093383 0.093383 0.093383
0.093754 0.093754 0.093754
0.094975 0.094975 0.094975
0.097255 0.097255 0.097255
0.102567 0.102567 0.102567
0.119581 0.119581 0.119581
0.149440 0.149440 0.149440
0.191575 0.191575 0.191575
0.244585 0.244585 0.244585
0.306496 0.306496 0.306496
0.378074 0.378074 0.378074
0.455731 0.455731 0.455731
0.531893 0.531893 0.531893
0.614429 0.614429 0.614429
0.690303 0.690303 0.690303
0.761532 0.761532 0.761532
0.812403 0.812403 0.812403
0.850305 0.850305 0.850305
0.884667 0.884667 0.884667
0.912978 0.912978 0.912978
0.934945 0.934945 0.934945
0.952752 0.952752 0.952752
0.965423 0.965423 0.965423
0.973770 0.973770 0.973770
0.979592 0.979592 0.979592
0.984156 0.984156 0.984156
0.986602 0.986602 0.986602
0.988968 0.988968 0.988968
0.991259 0.991259 0.991259
0.992765 0.992765 0.992765
0.993736 0.993736 0.993736
0.093288 0.093288 0.093288
0.093301 0.093301 0.093301
0.093387 0.093387 0.093387
0.093784 0.093784 0.093784
0.095121 0.095121 0.095121
0.097688 0.097688 0.097688
0.103672 0.103672 0.103672
0.123000 0.123000 0.123000
0.154794 0.154794 0.154794
0.200021 0.200021 0.200021
0.255367 0.255367 0.255367
0.320565 0.320565 0.320565
0.395517 0.395517 0.395517
0.473748 0.473748 0.473748
0.552993 0.552993 0.552993
0.636352 0.636352 0.636352
0.713438 0.713438 0.713438
0.778294 0.778294 0.778294
0.825252 0.825252 0.825252
0.863753 0.863753 0.863753
0.895359 0.895359 0.895359
0.922425 0.922425 0.922425
0.943385 0.943385 0.943385
0.958271 0.958271 0.958271
0.970487 0.970487 0.970487
0.976527 0.976527 0.976527
0.982366 0.982366 0.982366
0.985407 0.985407 0.985407
0.987856 0.987856 0.987856
0.990225 0.990225 0.990225
0.992332 0.992332 0.992332
0.993334 0.993334 0.993334
0.994305 0.994305 0.994305
0.093288 0.093288 0.093288
0.093302 0.093302 0.093302
0.093390 0.093390 0.093390
0.093815 0.093815 0.093815
0.095297 0.095297 0.095297
0.098103 0.098103 0.098103
0.104737 0.104737 0.104737
0.126351 0.126351 0.126351
0.160118 0.160118 0.160118
0.208420 0.208420 0.208420
0.266090 0.266090 0.266090
0.334581 0.334581 0.334581
0.413445 0.413445 0.413445
0.491590 0.491590 0.491590
0.573890 0.573890 0.573890
0.656672 0.656672 0.656672
0.736219 0.736219 0.736219
0.794619 0.794619 0.794619
0.837692 0.837692 0.837692
0.876172 0.876172 0.876172
0.905673 0.905673 0.905673
0.930363 0.930363 0.930363
0.950358 0.950358 0.950358
0.963563 0.963563 0.963563
0.973108 0.973108 0.973108
0.979164 0.979164 0.979164
0.984063 0.984063 0.984063
0.986601 0.986601 0.986601
0.989053 0.989053 0.989053
0.991424 0.991424 0.991424
0.992874 0.992874 0.992874
0.993876 0.993876 0.993876
0.994848 0.994848 0.994848
0.093288 0.093288 0.093288
0.093303 0.093303 0.093303
0.093395 0.093395 0.093395
0.093848 0.093848 0.093848
0.095466 0.095466 0.095466
0.098502 0.098502 0.098502
0.105835 0.105835 0.105835
0.129639 0.129639 0.129639
0.166178 0.166178 0.166178
0.216774 0.216774 0.216774
0.276959 0.276959 0.276959
0.348546 0.348546 0.348546
0.431028 0.431028 0.431028
0.509266 0.509266 0.509266
0.594596 0.594596 0.594596
0.676694 0.676694 0.676694
0.755032 0.755032 0.755032
0.809763 0.809763 0.809763
0.849754 0.849754 0.849754
0.885814 0.885814 0.885814
0.915640 0.915640 0.915640
0.938012 0.938012 0.938012
0.955372 0.955372 0.955372
0.968642 0.968642 0.968642
0.975618 0.975618 0.975618
0.981690 0.981690 0.981690
0.985202 0.985202 0.985202
0.987743 0.987743 0.987743
0.990198 0.990198 0.990198
0.992356 0.992356 0.992356
0.993392 0.993392 0.993392
0.994395 0.994395 0.994395
0.995367 0.995367 0.995367
0.093288 0.093288 0.093288
0.093305 0.093305 0.093305
0.093400 0.093400 0.093400
0.093880 0.093880 0.093880
0.095627 0.095627 0.095627
0.098884 0.098884 0.098884
0.107717 0.107717 0.107717
0.132957 0.132957 0.132957
0.172196 0.172196 0.172196
0.225087 0.225087 0.225087
0.288017 0.288017 0.288017
0.362463 0.362463 0.362463
0.445856 0.445856 0.445856
0.526826 0.526826 0.526826
0.615120 0.615120 0.615120
0.696435 0.696435 0.696435
0.769509 0.769509 0.769509
0.820924 0.820924 0.820924
0.861466 0.861466 0.861466
0.895145 0.895145 0.895145
0.923376 0.923376 0.923376
0.945394 0.945394 0.945394
0.960198 0.960198 0.960198
0.971722 0.971722 0.971722
0.978028 0.978028 0.978028
0.983657 0.983657 0.983657
0.986294 0.986294 0.986294
0.988838 0.988838 0.988838
0.991295 0.991295 0.991295
0.992852 0.992852 0.992852
0.993888 0.993888 0.993888
0.994892 0.994892 0.994892
0.995865 0.995865 0.995865
0.093288 0.093288 0.093288
0.093306 0.093306 0.093306
0.093405 0.093405 0.093405
0.093911 0.093911 0.093911
0.095783 0.095783 0.095783
0.099253 0.099253 0.099253
0.109553 0.109553 0.109553
0.136666 0.136666 0.136666
0.178173 0.178173 0.178173
0.233360 0.233360 0.233360
0.299038 0.299038 0.299038
0.376333 0.376333 0.376333
0.460557 0.460557 0.460557
0.544256 0.544256 0.544256
0.633539 0.633539 0.633539
0.715911 0.715911 0.715911
0.783655 0.783655 0.783655
0.831773 0.831773 0.831773
0.872851 0.872851 0.872851
0.904188 0.904188 0.904188
0.930345 0.930345 0.930345
0.951016 0.951016 0.951016
0.964850 0.964850 0.964850
0.974024 0.974024 0.974024
0.980345 0.980345 0.980345
0.984703 0.984703 0.984703
0.987343 0.987343 0.987343
0.989889 0.989889 0.989889
0.992255 0.992255 0.992255
0.993328 0.993328 0.993328
0.994365 0.994365 0.994365
0.995369 0.995369 0.995369
0.996342 0.996342 0.996342
0.093288 0.093288 0.093288
0.093307 0.093307 0.093307
0.093409 0.093409 0.093409
0.093940 0.093940 0.093940
0.095932 0.095932 0.095932
0.099608 0.099608 0.099608
0.111347 0.111347 0.111347
0.140328 0.140328 0.140328
0.184110 0.184110 0.184110
0.241595 0.241595 0.241595
0.310024 0.310024 0.310024
0.390159 0.390159 0.390159
0.475138 0.475138 0.475138
0.561546 0.561546 0.561546
0.650552 0.650552 0.650552
0.735136 0.735136 0.735136
0.797491 0.797491 0.797491
0.842332 0.842332 0.842332
0.881642 0.881642 0.881642
0.912962 0.912962 0.912962
0.937090 0.937090 0.937090
0.955442 0.955442 0.955442
0.969332 0.969332 0.969332
0.976241 0.976241 0.976241
0.982576 0.982576 0.982576
