trix_classic/TriX_Red25_ExtraPunchy.cube
TITLE "Tri-X Red25 ExtraPunchy"
# Adobe RGB in/out. REPLACES AgX. R=0.9735 G=0.0265 B=0.0000
LUT_3D_SIZE 65
DOMAIN_MIN 0.0 0.0 0.0
DOMAIN_MAX 1.0 1.0 1.0
0.092237 0.092237 0.092237
0.092237 0.092237 0.092237
0.092237 0.092237 0.092237
0.092237 0.092237 0.092237
0.092237 0.092237 0.092237
0.092237 0.092237 0.092237
0.092237 0.092237 0.092237
0.092237 0.092237 0.092237
0.092237 0.092237 0.092237
0.092237 0.092237 0.092237
0.092237 0.092237 0.092237
0.092237 0.092237 0.092237
0.092237 0.092237 0.092237
0.092237 0.092237 0.092237
0.092237 0.092237 0.092237
0.092237 0.092237 0.092237
0.092237 0.092237 0.092237
0.092237 0.092237 0.092237
0.092237 0.092237 0.092237
0.092237 0.092237 0.092237
0.092237 0.092237 0.092237
0.092237 0.092237 0.092237
0.092237 0.092237 0.092237
0.092237 0.092237 0.092237
0.092237 0.092237 0.092237
0.092237 0.092237 0.092237
0.092237 0.092237 0.092237
0.092237 0.092237 0.092237
0.092237 0.092237 0.092237
0.092237 0.092237 0.092237
0.092237 0.092237 0.092237
0.092237 0.092237 0.092237
0.092237 0.092237 0.092237
0.092237 0.092237 0.092237
0.092237 0.092237 0.092237
0.092237 0.092237 0.092237
0.092237 0.092237 0.092237
0.092237 0.092237 0.092237
0.092237 0.092237 0.092237
0.092237 0.092237 0.092237
0.092237 0.092237 0.092237
0.092237 0.092237 0.092237
0.092237 0.092237 0.092237
0.092237 0.092237 0.092237
0.092237 0.092237 0.092237
0.092237 0.092237 0.092237
0.092237 0.092237 0.092237
0.092237 0.092237 0.092237
0.092237 0.092237 0.092237
0.092237 0.092237 0.092237
0.092237 0.092237 0.092237
0.092237 0.092237 0.092237
0.092237 0.092237 0.092237
0.092237 0.092237 0.092237
0.092237 0.092237 0.092237
0.092237 0.092237 0.092237
0.092237 0.092237 0.092237
0.092237 0.092237 0.092237
0.092237 0.092237 0.092237
0.092237 0.092237 0.092237
0.092237 0.092237 0.092237
0.092237 0.092237 0.092237
0.092237 0.092237 0.092237
0.092237 0.092237 0.092237
0.092237 0.092237 0.092237
0.092237 0.092237 0.092237
0.092237 0.092237 0.092237
0.092237 0.092237 0.092237
0.092237 0.092237 0.092237
0.092237 0.092237 0.092237
0.092239 0.092239 0.092239
0.092339 0.092339 0.092339
0.092444 0.092444 0.092444
0.092604 0.092604 0.092604
0.092808 0.092808 0.092808
0.093468 0.093468 0.093468
0.094289 0.094289 0.094289
0.096207 0.096207 0.096207
0.099160 0.099160 0.099160
0.103388 0.103388 0.103388
0.109692 0.109692 0.109692
0.119271 0.119271 0.119271
0.131436 0.131436 0.131436
0.145068 0.145068 0.145068
0.161033 0.161033 0.161033
0.177800 0.177800 0.177800
0.195422 0.195422 0.195422
0.214042 0.214042 0.214042
0.234735 0.234735 0.234735
0.256419 0.256419 0.256419
0.279098 0.279098 0.279098
0.301671 0.301671 0.301671
0.324776 0.324776 0.324776
0.348713 0.348713 0.348713
0.373481 0.373481 0.373481
0.399079 0.399079 0.399079
0.425629 0.425629 0.425629
0.453598 0.453598 0.453598
0.482460 0.482460 0.482460
0.512213 0.512213 0.512213
0.541106 0.541106 0.541106
0.570633 0.570633 0.570633
0.600895 0.600895 0.600895
0.631891 0.631891 0.631891
0.660355 0.660355 0.660355
0.687930 0.687930 0.687930
0.715932 0.715932 0.715932
0.739083 0.739083 0.739083
0.759902 0.759902 0.759902
0.780809 0.780809 0.780809
0.801802 0.801802 0.801802
0.816462 0.816462 0.816462
0.830197 0.830197 0.830197
0.843866 0.843866 0.843866
0.857471 0.857471 0.857471
0.871015 0.871015 0.871015
0.881472 0.881472 0.881472
0.891659 0.891659 0.891659
0.901766 0.901766 0.901766
0.911796 0.911796 0.911796
0.920184 0.920184 0.920184
0.927526 0.927526 0.927526
0.934795 0.934795 0.934795
0.941993 0.941993 0.941993
0.949122 0.949122 0.949122
0.956184 0.956184 0.956184
0.960096 0.960096 0.960096
0.963873 0.963873 0.963873
0.967604 0.967604 0.967604
0.971290 0.971290 0.971290
0.092237 0.092237 0.092237
0.092237 0.092237 0.092237
0.092237 0.092237 0.092237
0.092237 0.092237 0.092237
0.092237 0.092237 0.092237
0.092249 0.092249 0.092249
0.092351 0.092351 0.092351
0.092466 0.092466 0.092466
0.092626 0.092626 0.092626
0.092843 0.092843 0.092843
0.093630 0.093630 0.093630
0.094475 0.094475 0.094475
0.096719 0.096719 0.096719
0.100219 0.100219 0.100219
0.104684 0.104684 0.104684
0.112183 0.112183 0.112183
0.122931 0.122931 0.122931
0.135469 0.135469 0.135469
0.150451 0.150451 0.150451
0.167008 0.167008 0.167008
0.184401 0.184401 0.184401
0.202708 0.202708 0.202708
0.222592 0.222592 0.222592
0.244112 0.244112 0.244112
0.266662 0.266662 0.266662
0.289900 0.289900 0.289900
0.313008 0.313008 0.313008
0.336982 0.336982 0.336982
0.361818 0.361818 0.361818
0.387517 0.387517 0.387517
0.413950 0.413950 0.413950
0.442035 0.442035 0.442035
0.471082 0.471082 0.471082
0.501056 0.501056 0.501056
0.530875 0.530875 0.530875
0.560707 0.560707 0.560707
0.591303 0.591303 0.591303
0.622662 0.622662 0.622662
0.652814 0.652814 0.652814
0.680796 0.680796 0.680796
0.709224 0.709224 0.709224
0.734533 0.734533 0.734533
0.755730 0.755730 0.755730
0.777018 0.777018 0.777018
0.798396 0.798396 0.798396
0.814493 0.814493 0.814493
0.828499 0.828499 0.828499
0.842436 0.842436 0.842436
0.856307 0.856307 0.856307
0.870113 0.870113 0.870113
0.880984 0.880984 0.880984
0.891368 0.891368 0.891368
0.901670 0.901670 0.901670
0.911890 0.911890 0.911890
0.920394 0.920394 0.920394
0.927873 0.927873 0.927873
0.935277 0.935277 0.935277
0.942606 0.942606 0.942606
0.949864 0.949864 0.949864
0.956747 0.956747 0.956747
0.960638 0.960638 0.960638
0.964480 0.964480 0.964480
0.968274 0.968274 0.968274
0.972022 0.972022 0.972022
0.975725 0.975725 0.975725
0.092237 0.092237 0.092237
0.092237 0.092237 0.092237
0.092237 0.092237 0.092237
0.092237 0.092237 0.092237
0.092237 0.092237 0.092237
0.092255 0.092255 0.092255
0.092358 0.092358 0.092358
0.092480 0.092480 0.092480
0.092645 0.092645 0.092645
0.092878 0.092878 0.092878
0.093725 0.093725 0.093725
0.094674 0.094674 0.094674
0.097019 0.097019 0.097019
0.100844 0.100844 0.100844
0.105739 0.105739 0.105739
0.113666 0.113666 0.113666
0.125124 0.125124 0.125124
0.137885 0.137885 0.137885
0.153692 0.153692 0.153692
0.170605 0.170605 0.170605
0.188392 0.188392 0.188392
0.207095 0.207095 0.207095
0.227751 0.227751 0.227751
0.249769 0.249769 0.249769
0.272842 0.272842 0.272842
0.296225 0.296225 0.296225
0.319837 0.319837 0.319837
0.344333 0.344333 0.344333
0.369711 0.369711 0.369711
0.395971 0.395971 0.395971
0.423173 0.423173 0.423173
0.451923 0.451923 0.451923
0.481620 0.481620 0.481620
0.512265 0.512265 0.512265
0.542041 0.542041 0.542041
0.572500 0.572500 0.572500
0.603740 0.603740 0.603740
0.635758 0.635758 0.635758
0.664560 0.664560 0.664560
0.693046 0.693046 0.693046
0.721985 0.721985 0.721985
0.744166 0.744166 0.744166
0.765641 0.765641 0.765641
0.787209 0.787209 0.787209
0.807300 0.807300 0.807300
0.821496 0.821496 0.821496
0.835622 0.835622 0.835622
0.849679 0.849679 0.849679
0.863669 0.863669 0.863669
0.876200 0.876200 0.876200
0.886757 0.886757 0.886757
0.897209 0.897209 0.897209
0.907577 0.907577 0.907577
0.917292 0.917292 0.917292
0.924885 0.924885 0.924885
0.932401 0.932401 0.932401
0.939840 0.939840 0.939840
0.947206 0.947206 0.947206
0.954499 0.954499 0.954499
0.959300 0.959300 0.959300
0.963201 0.963201 0.963201
0.967053 0.967053 0.967053
0.970858 0.970858 0.970858
0.974616 0.974616 0.974616
0.978329 0.978329 0.978329
0.092237 0.092237 0.092237
0.092237 0.092237 0.092237
0.092237 0.092237 0.092237
0.092237 0.092237 0.092237
0.092237 0.092237 0.092237
0.092259 0.092259 0.092259
0.092363 0.092363 0.092363
0.092489 0.092489 0.092489
0.092659 0.092659 0.092659
0.092928 0.092928 0.092928
0.093792 0.093792 0.093792
0.094882 0.094882 0.094882
0.097233 0.097233 0.097233
0.101290 0.101290 0.101290
0.106494 0.106494 0.106494
0.114730 0.114730 0.114730
0.126703 0.126703 0.126703
0.139728 0.139728 0.139728
0.156033 0.156033 0.156033
0.173205 0.173205 0.173205
0.191275 0.191275 0.191275
0.210265 0.210265 0.210265
0.231484 0.231484 0.231484
0.253863 0.253863 0.253863
0.277314 0.277314 0.277314
0.300795 0.300795 0.300795
0.324772 0.324772 0.324772
0.349646 0.349646 0.349646
0.375416 0.375416 0.375416
0.402080 0.402080 0.402080
0.429868 0.429868 0.429868
0.459073 0.459073 0.459073
0.489240 0.489240 0.489240
0.519989 0.519989 0.519989
0.550106 0.550106 0.550106
0.581018 0.581018 0.581018
0.612722 0.612722 0.612722
0.644636 0.644636 0.644636
0.673021 0.673021 0.673021
0.701870 0.701870 0.701870
0.729498 0.729498 0.729498
0.751077 0.751077 0.751077
0.772752 0.772752 0.772752
0.794520 0.794520 0.794520
0.812218 0.812218 0.812218
0.826501 0.826501 0.826501
0.840713 0.840713 0.840713
0.854855 0.854855 0.854855
0.868931 0.868931 0.868931
0.880287 0.880287 0.880287
0.890875 0.890875 0.890875
0.901376 0.901376 0.901376
0.911792 0.911792 0.911792
0.920465 0.920465 0.920465
0.928085 0.928085 0.928085
0.935627 0.935627 0.935627
0.943092 0.943092 0.943092
0.950483 0.950483 0.950483
0.957157 0.957157 0.957157
0.961116 0.961116 0.961116
0.965024 0.965024 0.965024
0.968884 0.968884 0.968884
0.972695 0.972695 0.972695
0.976460 0.976460 0.976460
0.979478 0.979478 0.979478
0.092237 0.092237 0.092237
0.092237 0.092237 0.092237
0.092237 0.092237 0.092237
0.092237 0.092237 0.092237
0.092237 0.092237 0.092237
0.092262 0.092262 0.092262
0.092367 0.092367 0.092367
0.092496 0.092496 0.092496
0.092670 0.092670 0.092670
0.092966 0.092966 0.092966
0.093844 0.093844 0.093844
0.095045 0.095045 0.095045
0.097399 0.097399 0.097399
0.101638 0.101638 0.101638
0.107084 0.107084 0.107084
0.115562 0.115562 0.115562
0.127942 0.127942 0.127942
0.141376 0.141376 0.141376
0.157874 0.157874 0.157874
0.175248 0.175248 0.175248
0.193543 0.193543 0.193543
0.212840 0.212840 0.212840
0.234421 0.234421 0.234421
0.257084 0.257084 0.257084
0.280833 0.280833 0.280833
0.304389 0.304389 0.304389
0.328652 0.328652 0.328652
0.353823 0.353823 0.353823
0.379901 0.379901 0.379901
0.406834 0.406834 0.406834
0.435134 0.435134 0.435134
0.464697 0.464697 0.464697
0.495233 0.495233 0.495233
0.525980 0.525980 0.525980
0.556443 0.556443 0.556443
0.587712 0.587712 0.587712
0.619781 0.619781 0.619781
0.650994 0.650994 0.650994
0.679659 0.679659 0.679659
0.708792 0.708792 0.708792
0.734748 0.734748 0.734748
0.756482 0.756482 0.756482
0.778313 0.778313 0.778313
0.800238 0.800238 0.800238
0.816054 0.816054 0.816054
0.830404 0.830404 0.830404
0.844683 0.844683 0.844683
0.858892 0.858892 0.858892
0.872711 0.872711 0.872711
0.883458 0.883458 0.883458
0.894083 0.894083 0.894083
0.904621 0.904621 0.904621
0.915075 0.915075 0.915075
0.922934 0.922934 0.922934
0.930575 0.930575 0.930575
0.938136 0.938136 0.938136
0.945621 0.945621 0.945621
0.953032 0.953032 0.953032
0.958562 0.958562 0.958562
0.962527 0.962527 0.962527
0.966441 0.966441 0.966441
0.970306 0.970306 0.970306
0.974123 0.974123 0.974123
0.977893 0.977893 0.977893
0.980003 0.980003 0.980003
0.092237 0.092237 0.092237
0.092237 0.092237 0.092237
0.092237 0.092237 0.092237
0.092237 0.092237 0.092237
0.092237 0.092237 0.092237
0.092265 0.092265 0.092265
0.092371 0.092371 0.092371
0.092502 0.092502 0.092502
0.092680 0.092680 0.092680
0.092998 0.092998 0.092998
0.093887 0.093887 0.093887
0.095177 0.095177 0.095177
0.097535 0.097535 0.097535
0.101922 0.101922 0.101922
0.107582 0.107582 0.107582
0.116296 0.116296 0.116296
0.128963 0.128963 0.128963
0.142737 0.142737 0.142737
0.159394 0.159394 0.159394
0.176935 0.176935 0.176935
0.195415 0.195415 0.195415
0.215045 0.215045 0.215045
0.236849 0.236849 0.236849
0.259747 0.259747 0.259747
0.283741 0.283741 0.283741
0.307357 0.307357 0.307357
0.331857 0.331857 0.331857
0.357273 0.357273 0.357273
0.383606 0.383606 0.383606
0.410760 0.410760 0.410760
0.439484 0.439484 0.439484
0.469343 0.469343 0.469343
0.500185 0.500185 0.500185
0.530926 0.530926 0.530926
0.561676 0.561676 0.561676
0.593238 0.593238 0.593238
0.625610 0.625610 0.625610
0.656235 0.656235 0.656235
0.685131 0.685131 0.685131
0.714498 0.714498 0.714498
0.739065 0.739065 0.739065
0.760927 0.760927 0.760927
0.782886 0.782886 0.782886
0.804722 0.804722 0.804722
0.819201 0.819201 0.819201
0.833607 0.833607 0.833607
0.847941 0.847941 0.847941
0.862205 0.862205 0.862205
0.875288 0.875288 0.875288
0.886056 0.886056 0.886056
0.896712 0.896712 0.896712
0.907281 0.907281 0.907281
0.917219 0.917219 0.917219
0.924957 0.924957 0.924957
0.932614 0.932614 0.932614
0.940192 0.940192 0.940192
0.947693 0.947693 0.947693
0.955121 0.955121 0.955121
0.959711 0.959711 0.959711
0.963681 0.963681 0.963681
0.967599 0.967599 0.967599
0.971469 0.971469 0.971469
0.975291 0.975291 0.975291
0.979066 0.979066 0.979066
0.980433 0.980433 0.980433
0.092237 0.092237 0.092237
0.092237 0.092237 0.092237
0.092237 0.092237 0.092237
0.092237 0.092237 0.092237
0.092237 0.092237 0.092237
0.092267 0.092267 0.092267
0.092373 0.092373 0.092373
0.092507 0.092507 0.092507
0.092687 0.092687 0.092687
0.093025 0.093025 0.093025
0.093923 0.093923 0.093923
0.095290 0.095290 0.095290
0.097658 0.097658 0.097658
0.102163 0.102163 0.102163
0.108016 0.108016 0.108016
0.117080 0.117080 0.117080
0.129833 0.129833 0.129833
0.143899 0.143899 0.143899
0.160691 0.160691 0.160691
0.178375 0.178375 0.178375
0.197012 0.197012 0.197012
0.216926 0.216926 0.216926
0.238921 0.238921 0.238921
0.262019 0.262019 0.262019
0.286114 0.286114 0.286114
0.309889 0.309889 0.309889
0.334591 0.334591 0.334591
0.360217 0.360217 0.360217
0.386766 0.386766 0.386766
0.414108 0.414108 0.414108
0.443196 0.443196 0.443196
0.473307 0.473307 0.473307
0.504409 0.504409 0.504409
0.535144 0.535144 0.535144
0.566138 0.566138 0.566138
0.597951 0.597951 0.597951
0.630580 0.630580 0.630580
0.660699 0.660699 0.660699
0.689791 0.689791 0.689791
0.719359 0.719359 0.719359
0.742735 0.742735 0.742735
0.764706 0.764706 0.764706
0.786774 0.786774 0.786774
0.807346 0.807346 0.807346
0.821872 0.821872 0.821872
0.836325 0.836325 0.836325
0.850705 0.850705 0.850705
0.865016 0.865016 0.865016
0.877474 0.877474 0.877474
0.888259 0.888259 0.888259
0.898941 0.898941 0.898941
0.909537 0.909537 0.909537
0.918918 0.918918 0.918918
0.926670 0.926670 0.926670
0.934341 0.934341 0.934341
0.941933 0.941933 0.941933
0.949449 0.949449 0.949449
0.956658 0.956658 0.956658
0.960684 0.960684 0.960684
0.964657 0.964657 0.964657
0.968580 0.968580 0.968580
0.972454 0.972454 0.972454
0.976279 0.976279 0.976279
0.979433 0.979433 0.979433
0.980796 0.980796 0.980796
0.092237 0.092237 0.092237
0.092237 0.092237 0.092237
0.092237 0.092237 0.092237
0.092237 0.092237 0.092237
0.092237 0.092237 0.092237
0.092269 0.092269 0.092269
0.092376 0.092376 0.092376
0.092512 0.092512 0.092512
0.092694 0.092694 0.092694
0.093051 0.093051 0.093051
0.093955 0.093955 0.093955
0.095387 0.095387 0.095387
0.097858 0.097858 0.097858
0.102373 0.102373 0.102373
0.108393 0.108393 0.108393
0.117764 0.117764 0.117764
0.130591 0.130591 0.130591
0.144912 0.144912 0.144912
0.161823 0.161823 0.161823
0.179631 0.179631 0.179631
0.198406 0.198406 0.198406
0.218569 0.218569 0.218569
0.240731 0.240731 0.240731
0.264004 0.264004 0.264004
0.288155 0.288155 0.288155
0.312100 0.312100 0.312100
0.336977 0.336977 0.336977
0.362786 0.362786 0.362786
0.389525 0.389525 0.389525
0.417106 0.417106 0.417106
0.446437 0.446437 0.446437
0.476768 0.476768 0.476768
0.508098 0.508098 0.508098
0.538825 0.538825 0.538825
0.570033 0.570033 0.570033
0.602064 0.602064 0.602064
0.634917 0.634917 0.634917
0.664591 0.664591 0.664591
0.693854 0.693854 0.693854
0.723596 0.723596 0.723596
0.745929 0.745929 0.745929
0.767995 0.767995 0.767995
0.790157 0.790157 0.790157
0.809625 0.809625 0.809625
0.824192 0.824192 0.824192
0.838686 0.838686 0.838686
0.853107 0.853107 0.853107
0.867458 0.867458 0.867458
0.879371 0.879371 0.879371
0.890171 0.890171 0.890171
0.900877 0.900877 0.900877
0.911495 0.911495 0.911495
0.920392 0.920392 0.920392
0.928157 0.928157 0.928157
0.935840 0.935840 0.935840
0.943445 0.943445 0.943445
0.950972 0.950972 0.950972
0.957498 0.957498 0.957498
0.961527 0.961527 0.961527
0.965504 0.965504 0.965504
0.969431 0.969431 0.969431
0.973307 0.973307 0.973307
0.977136 0.977136 0.977136
0.979747 0.979747 0.979747
0.981111 0.981111 0.981111
0.092237 0.092237 0.092237
0.092237 0.092237 0.092237
0.092237 0.092237 0.092237
0.092237 0.092237 0.092237
0.092237 0.092237 0.092237
0.092271 0.092271 0.092271
0.092378 0.092378 0.092378
0.092515 0.092515 0.092515
0.092700 0.092700 0.092700
0.093079 0.093079 0.093079
0.093982 0.093982 0.093982
0.095473 0.095473 0.095473
0.098035 0.098035 0.098035
0.102558 0.102558 0.102558
0.108727 0.108727 0.108727
0.118370 0.118370 0.118370
0.131264 0.131264 0.131264
0.145812 0.145812 0.145812
0.162828 0.162828 0.162828
0.180747 0.180747 0.180747
0.199644 0.199644 0.199644
0.220029 0.220029 0.220029
0.242338 0.242338 0.242338
0.265767 0.265767 0.265767
0.289967 0.289967 0.289967
0.314062 0.314062 0.314062
0.339096 0.339096 0.339096
0.365067 0.365067 0.365067
0.391974 0.391974 0.391974
0.419795 0.419795 0.419795
0.449316 0.449316 0.449316
0.479842 0.479842 0.479842
0.511374 0.511374 0.511374
0.542093 0.542093 0.542093
0.573490 0.573490 0.573490
0.605716 0.605716 0.605716
0.638768 0.638768 0.638768
0.668042 0.668042 0.668042
0.697458 0.697458 0.697458
0.726709 0.726709 0.726709
0.748758 0.748758 0.748758
0.770907 0.770907 0.770907
0.793154 0.793154 0.793154
0.811641 0.811641 0.811641
0.826245 0.826245 0.826245
0.840774 0.840774 0.840774
0.855231 0.855231 0.855231
0.869618 0.869618 0.869618
0.881046 0.881046 0.881046
0.891861 0.891861 0.891861
0.902587 0.902587 0.902587
0.913226 0.913226 0.913226
0.921694 0.921694 0.921694
0.929470 0.929470 0.929470
0.937164 0.937164 0.937164
0.944780 0.944780 0.944780
0.952318 0.952318 0.952318
0.958239 0.958239 0.958239
0.962272 0.962272 0.962272
0.966252 0.966252 0.966252
0.970181 0.970181 0.970181
0.974061 0.974061 0.974061
0.977893 0.977893 0.977893
0.980025 0.980025 0.980025
0.981389 0.981389 0.981389
0.092237 0.092237 0.092237
0.092237 0.092237 0.092237
0.092237 0.092237 0.092237
0.092237 0.092237 0.092237
0.092237 0.092237 0.092237
0.092272 0.092272 0.092272
0.092379 0.092379 0.092379
0.092519 0.092519 0.092519
0.092705 0.092705 0.092705
0.093103 0.093103 0.093103
0.094007 0.094007 0.094007
0.095550 0.095550 0.095550
0.098194 0.098194 0.098194
0.102724 0.102724 0.102724
0.109027 0.109027 0.109027
0.118916 0.118916 0.118916
0.131868 0.131868 0.131868
0.146622 0.146622 0.146622
0.163732 0.163732 0.163732
0.181750 0.181750 0.181750
0.200758 0.200758 0.200758
0.221342 0.221342 0.221342
0.243785 0.243785 0.243785
0.267354 0.267354 0.267354
0.291598 0.291598 0.291598
0.315829 0.315829 0.315829
0.341003 0.341003 0.341003
0.367120 0.367120 0.367120
0.394178 0.394178 0.394178
0.422215 0.422215 0.422215
0.451906 0.451906 0.451906
0.482608 0.482608 0.482608
0.514302 0.514302 0.514302
0.545033 0.545033 0.545033
0.576600 0.576600 0.576600
0.609001 0.609001 0.609001
0.642081 0.642081 0.642081
0.671145 0.671145 0.671145
0.700697 0.700697 0.700697
0.729173 0.729173 0.729173
0.751297 0.751297 0.751297
0.773521 0.773521 0.773521
0.795844 0.795844 0.795844
0.813448 0.813448 0.813448
0.828085 0.828085 0.828085
0.842646 0.842646 0.842646
0.857136 0.857136 0.857136
0.871555 0.871555 0.871555
0.882542 0.882542 0.882542
0.893376 0.893376 0.893376
0.904120 0.904120 0.904120
0.914777 0.914777 0.914777
0.922861 0.922861 0.922861
0.930646 0.930646 0.930646
0.938351 0.938351 0.938351
0.945975 0.945975 0.945975
0.953523 0.953523 0.953523
0.958903 0.958903 0.958903
0.962939 0.962939 0.962939
0.966921 0.966921 0.966921
0.970853 0.970853 0.970853
0.974736 0.974736 0.974736
0.978571 0.978571 0.978571
0.980273 0.980273 0.980273
0.981637 0.981637 0.981637
0.092237 0.092237 0.092237
0.092237 0.092237 0.092237
0.092237 0.092237 0.092237
0.092237 0.092237 0.092237
0.092237 0.092237 0.092237
0.092274 0.092274 0.092274
0.092381 0.092381 0.092381
0.092522 0.092522 0.092522
0.092710 0.092710 0.092710
0.093125 0.093125 0.093125
0.094029 0.094029 0.094029
0.095620 0.095620 0.095620
0.098338 0.098338 0.098338
0.102874 0.102874 0.102874
0.109298 0.109298 0.109298
0.119411 0.119411 0.119411
0.132417 0.132417 0.132417
0.147358 0.147358 0.147358
0.164554 0.164554 0.164554
0.182663 0.182663 0.182663
0.201771 0.201771 0.201771
0.222538 0.222538 0.222538
0.245102 0.245102 0.245102
0.268798 0.268798 0.268798
0.293081 0.293081 0.293081
0.317435 0.317435 0.317435
0.342738 0.342738 0.342738
0.368988 0.368988 0.368988
0.396183 0.396183 0.396183
0.424417 0.424417 0.424417
0.454262 0.454262 0.454262
0.485125 0.485125 0.485125
0.516824 0.516824 0.516824
0.547706 0.547706 0.547706
0.579428 0.579428 0.579428
0.611988 0.611988 0.611988
0.644778 0.644778 0.644778
0.673964 0.673964 0.673964
0.703641 0.703641 0.703641
0.731410 0.731410 0.731410
0.753602 0.753602 0.753602
0.775894 0.775894 0.775894
0.798285 0.798285 0.798285
0.815087 0.815087 0.815087
0.829753 0.829753 0.829753
0.844344 0.844344 0.844344
0.858862 0.858862 0.858862
0.872922 0.872922 0.872922
0.883898 0.883898 0.883898
0.894749 0.894749 0.894749
0.905509 0.905509 0.905509
0.916038 0.916038 0.916038
0.923917 0.923917 0.923917
0.931712 0.931712 0.931712
0.939425 0.939425 0.939425
0.947058 0.947058 0.947058
0.954615 0.954615 0.954615
0.959504 0.959504 0.959504
0.963542 0.963542 0.963542
0.967527 0.967527 0.967527
0.971462 0.971462 0.971462
0.975347 0.975347 0.975347
0.979113 0.979113 0.979113
0.980498 0.980498 0.980498
0.981862 0.981862 0.981862
0.092237 0.092237 0.092237
0.092237 0.092237 0.092237
0.092237 0.092237 0.092237
0.092237 0.092237 0.092237
0.092237 0.092237 0.092237
0.092275 0.092275 0.092275
0.092383 0.092383 0.092383
0.092525 0.092525 0.092525
0.092715 0.092715 0.092715
0.093145 0.093145 0.093145
0.094050 0.094050 0.094050
0.095684 0.095684 0.095684
0.098469 0.098469 0.098469
0.103011 0.103011 0.103011
0.109547 0.109547 0.109547
0.119865 0.119865 0.119865
0.132921 0.132921 0.132921
0.148034 0.148034 0.148034
0.165308 0.165308 0.165308
0.183500 0.183500 0.183500
0.202700 0.202700 0.202700
0.223635 0.223635 0.223635
0.246310 0.246310 0.246310
0.270122 0.270122 0.270122
0.294441 0.294441 0.294441
0.318908 0.318908 0.318908
0.344328 0.344328 0.344328
0.370700 0.370700 0.370700
0.398022 0.398022 0.398022
0.426436 0.426436 0.426436
0.456424 0.456424 0.456424
0.487434 0.487434 0.487434
0.519138 0.519138 0.519138
0.550158 0.550158 0.550158
0.582022 0.582022 0.582022
0.614727 0.614727 0.614727
0.647250 0.647250 0.647250
0.676548 0.676548 0.676548
0.706339 0.706339 0.706339
0.733458 0.733458 0.733458
0.755712 0.755712 0.755712
0.778067 0.778067 0.778067
0.800520 0.800520 0.800520
0.816586 0.816586 0.816586
0.831278 0.831278 0.831278
0.845896 0.845896 0.845896
0.860442 0.860442 0.860442
0.874152 0.874152 0.874152
0.885138 0.885138 0.885138
0.896003 0.896003 0.896003
0.906779 0.906779 0.906779
0.916996 0.916996 0.916996
0.924883 0.924883 0.924883
0.932686 0.932686 0.932686
0.940407 0.940407 0.940407
0.948048 0.948048 0.948048
0.955612 0.955612 0.955612
0.960053 0.960053 0.960053
0.964093 0.964093 0.964093
0.968081 0.968081 0.968081
0.972017 0.972017 0.972017
0.975905 0.975905 0.975905
0.979318 0.979318 0.979318
0.980703 0.980703 0.980703
0.982068 0.982068 0.982068
0.092237 0.092237 0.092237
0.092237 0.092237 0.092237
0.092237 0.092237 0.092237
0.092237 0.092237 0.092237
0.092237 0.092237 0.092237
0.092276 0.092276 0.092276
0.092384 0.092384 0.092384
0.092527 0.092527 0.092527
0.092719 0.092719 0.092719
0.093164 0.093164 0.093164
0.094069 0.094069 0.094069
0.095742 0.095742 0.095742
0.098590 0.098590 0.098590
0.103138 0.103138 0.103138
0.109800 0.109800 0.109800
0.120284 0.120284 0.120284
0.133385 0.133385 0.133385
0.148658 0.148658 0.148658
0.166005 0.166005 0.166005
0.184278 0.184278 0.184278
0.203559 0.203559 0.203559
0.224648 0.224648 0.224648
0.247427 0.247427 0.247427
0.271347 0.271347 0.271347
0.295698 0.295698 0.295698
0.320270 0.320270 0.320270
0.345799 0.345799 0.345799
0.372283 0.372283 0.372283
0.399721 0.399721 0.399721
0.428303 0.428303 0.428303
0.458422 0.458422 0.458422
0.489567 0.489567 0.489567
0.521275 0.521275 0.521275
0.552423 0.552423 0.552423
0.584418 0.584418 0.584418
0.617259 0.617259 0.617259
0.649533 0.649533 0.649533
0.678934 0.678934 0.678934
