trix_classic/TriX_Green58_Punchy.cube
TITLE "Tri-X Green58 Punchy"
# Adobe RGB in/out. REPLACES AgX. Tri-X Green58 Punchy.
LUT_3D_SIZE 33
DOMAIN_MIN 0.0 0.0 0.0
DOMAIN_MAX 1.0 1.0 1.0
0.091936 0.091936 0.091936
0.091936 0.091936 0.091936
0.091936 0.091936 0.091936
0.091936 0.091936 0.091936
0.091936 0.091936 0.091936
0.091936 0.091936 0.091936
0.091948 0.091948 0.091948
0.091963 0.091963 0.091963
0.091974 0.091974 0.091974
0.091992 0.091992 0.091992
0.092030 0.092030 0.092030
0.092057 0.092057 0.092057
0.092221 0.092221 0.092221
0.092965 0.092965 0.092965
0.093876 0.093876 0.093876
0.095317 0.095317 0.095317
0.096654 0.096654 0.096654
0.098238 0.098238 0.098238
0.100911 0.100911 0.100911
0.102426 0.102426 0.102426
0.103980 0.103980 0.103980
0.106428 0.106428 0.106428
0.108498 0.108498 0.108498
0.109208 0.109208 0.109208
0.110156 0.110156 0.110156
0.110405 0.110405 0.110405
0.106457 0.106457 0.106457
0.104349 0.104349 0.104349
0.096913 0.096913 0.096913
0.096907 0.096907 0.096907
0.096906 0.096906 0.096906
0.096906 0.096906 0.096906
0.160239 0.160239 0.160239
0.091936 0.091936 0.091936
0.091936 0.091936 0.091936
0.091936 0.091936 0.091936
0.091936 0.091936 0.091936
0.091936 0.091936 0.091936
0.091939 0.091939 0.091939
0.091951 0.091951 0.091951
0.091965 0.091965 0.091965
0.091977 0.091977 0.091977
0.091996 0.091996 0.091996
0.092034 0.092034 0.092034
0.092060 0.092060 0.092060
0.092314 0.092314 0.092314
0.093046 0.093046 0.093046
0.094076 0.094076 0.094076
0.095497 0.095497 0.095497
0.096826 0.096826 0.096826
0.098395 0.098395 0.098395
0.101152 0.101152 0.101152
0.102651 0.102651 0.102651
0.104260 0.104260 0.104260
0.106715 0.106715 0.106715
0.108878 0.108878 0.108878
0.109575 0.109575 0.109575
0.110510 0.110510 0.110510
0.110748 0.110748 0.110748
0.106693 0.106693 0.106693
0.104563 0.104563 0.104563
0.096913 0.096913 0.096913
0.096907 0.096907 0.096907
0.096906 0.096906 0.096906
0.096907 0.096907 0.096907
0.160240 0.160240 0.160240
0.091936 0.091936 0.091936
0.091936 0.091936 0.091936
0.091936 0.091936 0.091936
0.091936 0.091936 0.091936
0.091948 0.091948 0.091948
0.091950 0.091950 0.091950
0.091961 0.091961 0.091961
0.091983 0.091983 0.091983
0.091991 0.091991 0.091991
0.092012 0.092012 0.092012
0.092051 0.092051 0.092051
0.092121 0.092121 0.092121
0.092659 0.092659 0.092659
0.093343 0.093343 0.093343
0.094813 0.094813 0.094813
0.096165 0.096165 0.096165
0.097452 0.097452 0.097452
0.099106 0.099106 0.099106
0.102031 0.102031 0.102031
0.103474 0.103474 0.103474
0.105354 0.105354 0.105354
0.107762 0.107762 0.107762
0.110264 0.110264 0.110264
0.110916 0.110916 0.110916
0.111805 0.111805 0.111805
0.112000 0.112000 0.112000
0.107554 0.107554 0.107554
0.105349 0.105349 0.105349
0.096914 0.096914 0.096914
0.096907 0.096907 0.096907
0.096906 0.096906 0.096906
0.096907 0.096907 0.096907
0.160242 0.160242 0.160242
0.091962 0.091962 0.091962
0.091961 0.091961 0.091961
0.091959 0.091959 0.091959
0.091956 0.091956 0.091956
0.091976 0.091976 0.091976
0.091970 0.091970 0.091970
0.091987 0.091987 0.091987
0.092018 0.092018 0.092018
0.092023 0.092023 0.092023
0.092045 0.092045 0.092045
0.092399 0.092399 0.092399
0.092937 0.092937 0.092937
0.093335 0.093335 0.093335
0.094019 0.094019 0.094019
0.096259 0.096259 0.096259
0.097504 0.097504 0.097504
0.098655 0.098655 0.098655
0.100901 0.100901 0.100901
0.103712 0.103712 0.103712
0.105458 0.105458 0.105458
0.107443 0.107443 0.107443
0.110284 0.110284 0.110284
0.112917 0.112917 0.112917
0.113481 0.113481 0.113481
0.114282 0.114282 0.114282
0.114398 0.114398 0.114398
0.109531 0.109531 0.109531
0.106865 0.106865 0.106865
0.096915 0.096915 0.096915
0.096907 0.096907 0.096907
0.096906 0.096906 0.096906
0.096908 0.096908 0.096908
0.160244 0.160244 0.160244
0.092069 0.092069 0.092069
0.092066 0.092066 0.092066
0.092059 0.092059 0.092059
0.092050 0.092050 0.092050
0.092043 0.092043 0.092043
0.092021 0.092021 0.092021
0.092044 0.092044 0.092044
0.092137 0.092137 0.092137
0.092111 0.092111 0.092111
0.092537 0.092537 0.092537
0.093534 0.093534 0.093534
0.094016 0.094016 0.094016
0.094929 0.094929 0.094929
0.096499 0.096499 0.096499
0.098735 0.098735 0.098735
0.100257 0.100257 0.100257
0.101753 0.101753 0.101753
0.103786 0.103786 0.103786
0.107375 0.107375 0.107375
0.109233 0.109233 0.109233
0.111678 0.111678 0.111678
0.114658 0.114658 0.114658
0.117793 0.117793 0.117793
0.118389 0.118389 0.118389
0.119320 0.119320 0.119320
0.119316 0.119316 0.119316
0.113196 0.113196 0.113196
0.109682 0.109682 0.109682
0.096917 0.096917 0.096917
0.096907 0.096907 0.096907
0.096906 0.096906 0.096906
0.096916 0.096916 0.096916
0.160245 0.160245 0.160245
0.093468 0.093468 0.093468
0.093398 0.093398 0.093398
0.093289 0.093289 0.093289
0.093084 0.093084 0.093084
0.092841 0.092841 0.092841
0.092681 0.092681 0.092681
0.093233 0.093233 0.093233
0.094191 0.094191 0.094191
0.093715 0.093715 0.093715
0.094160 0.094160 0.094160
0.096440 0.096440 0.096440
0.097312 0.097312 0.097312
0.097997 0.097997 0.097997
0.099603 0.099603 0.099603
0.102785 0.102785 0.102785
0.104423 0.104423 0.104423
0.106622 0.106622 0.106622
0.110239 0.110239 0.110239
0.114879 0.114879 0.114879
0.116917 0.116917 0.116917
0.119738 0.119738 0.119738
0.123500 0.123500 0.123500
0.126793 0.126793 0.126793
0.127114 0.127114 0.127114
0.127804 0.127804 0.127804
0.127551 0.127551 0.127551
0.120056 0.120056 0.120056
0.114828 0.114828 0.114828
0.096922 0.096922 0.096922
0.096908 0.096908 0.096908
0.096907 0.096907 0.096907
0.160193 0.160193 0.160193
0.160245 0.160245 0.160245
0.100601 0.100601 0.100601
0.100339 0.100339 0.100339
0.099912 0.099912 0.099912
0.099154 0.099154 0.099154
0.098407 0.098407 0.098407
0.097823 0.097823 0.097823
0.097411 0.097411 0.097411
0.099745 0.099745 0.099745
0.098179 0.098179 0.098179
0.098483 0.098483 0.098483
0.101676 0.101676 0.101676
0.102590 0.102590 0.102590
0.102981 0.102981 0.102981
0.104936 0.104936 0.104936
0.109633 0.109633 0.109633
0.112456 0.112456 0.112456
0.114276 0.114276 0.114276
0.118593 0.118593 0.118593
0.125876 0.125876 0.125876
0.129292 0.129292 0.129292
0.134197 0.134197 0.134197
0.140145 0.140145 0.140145
0.144005 0.144005 0.144005
0.143773 0.143773 0.143773
0.144056 0.144056 0.144056
0.143280 0.143280 0.143280
0.132683 0.132683 0.132683
0.125570 0.125570 0.125570
0.096934 0.096934 0.096934
0.096909 0.096909 0.096909
0.096907 0.096907 0.096907
0.160242 0.160242 0.160242
0.160245 0.160245 0.160245
0.120645 0.120645 0.120645
0.120038 0.120038 0.120038
0.119226 0.119226 0.119226
0.117275 0.117275 0.117275
0.115013 0.115013 0.115013
0.113239 0.113239 0.113239
0.111511 0.111511 0.111511
0.110255 0.110255 0.110255
0.106217 0.106217 0.106217
0.106278 0.106278 0.106278
0.111472 0.111472 0.111472
0.112116 0.112116 0.112116
0.112056 0.112056 0.112056
0.114735 0.114735 0.114735
0.122151 0.122151 0.122151
0.124823 0.124823 0.124823
0.127557 0.127557 0.127557
0.133895 0.133895 0.133895
0.144034 0.144034 0.144034
0.146726 0.146726 0.146726
0.151002 0.151002 0.151002
0.157552 0.157552 0.157552
0.164139 0.164139 0.164139
0.166950 0.166950 0.166950
0.170817 0.170817 0.170817
0.169428 0.169428 0.169428
0.159063 0.159063 0.159063
0.148599 0.148599 0.148599
0.096984 0.096984 0.096984
0.096913 0.096913 0.096913
0.096909 0.096909 0.096909
0.160244 0.160244 0.160244
0.160245 0.160245 0.160245
0.139628 0.139628 0.139628
0.138869 0.138869 0.138869
0.137310 0.137310 0.137310
0.135243 0.135243 0.135243
0.132262 0.132262 0.132262
0.129263 0.129263 0.129263
0.126682 0.126682 0.126682
0.124327 0.124327 0.124327
0.122670 0.122670 0.122670
0.121949 0.121949 0.121949
0.130768 0.130768 0.130768
0.130495 0.130495 0.130495
0.129201 0.129201 0.129201
0.132455 0.132455 0.132455
0.142989 0.142989 0.142989
0.145625 0.145625 0.145625
0.148647 0.148647 0.148647
0.155513 0.155513 0.155513
0.165808 0.165808 0.165808
0.169581 0.169581 0.169581
0.175414 0.175414 0.175414
0.180828 0.180828 0.180828
0.186901 0.186901 0.186901
0.188569 0.188569 0.188569
0.191878 0.191878 0.191878
0.195571 0.195571 0.195571
0.192255 0.192255 0.192255
0.189891 0.189891 0.189891
0.098413 0.098413 0.098413
0.096964 0.096964 0.096964
0.096920 0.096920 0.096920
0.160245 0.160245 0.160245
0.160245 0.160245 0.160245
0.174607 0.174607 0.174607
0.173858 0.173858 0.173858
0.172000 0.172000 0.172000
0.170105 0.170105 0.170105
0.166977 0.166977 0.166977
0.163288 0.163288 0.163288
0.159307 0.159307 0.159307
0.155557 0.155557 0.155557
0.152356 0.152356 0.152356
0.150030 0.150030 0.150030
0.162939 0.162939 0.162939
0.161277 0.161277 0.161277
0.157530 0.157530 0.157530
0.160367 0.160367 0.160367
0.171349 0.171349 0.171349
0.172837 0.172837 0.172837
0.174668 0.174668 0.174668
0.181290 0.181290 0.181290
0.194168 0.194168 0.194168
0.197876 0.197876 0.197876
0.201871 0.201871 0.201871
0.210105 0.210105 0.210105
0.219337 0.219337 0.219337
0.221218 0.221218 0.221218
0.222561 0.222561 0.222561
0.224742 0.224742 0.224742
0.219741 0.219741 0.219741
0.215615 0.215615 0.215615
0.203775 0.203775 0.203775
0.189401 0.189401 0.189401
0.147546 0.147546 0.147546
0.160247 0.160247 0.160247
0.160245 0.160245 0.160245
0.240354 0.240354 0.240354
0.239496 0.239496 0.239496
0.237029 0.237029 0.237029
0.235282 0.235282 0.235282
0.231250 0.231250 0.231250
0.226124 0.226124 0.226124
0.220821 0.220821 0.220821
0.215403 0.215403 0.215403
0.210444 0.210444 0.210444
0.206288 0.206288 0.206288
0.203418 0.203418 0.203418
0.199448 0.199448 0.199448
0.193011 0.193011 0.193011
0.195045 0.195045 0.195045
0.208156 0.208156 0.208156
0.208070 0.208070 0.208070
0.208428 0.208428 0.208428
0.214850 0.214850 0.214850
0.228661 0.228661 0.228661
0.230559 0.230559 0.230559
0.235758 0.235758 0.235758
0.244844 0.244844 0.244844
0.251509 0.251509 0.251509
0.253805 0.253805 0.253805
0.258907 0.258907 0.258907
0.265518 0.265518 0.265518
0.258487 0.258487 0.258487
0.252094 0.252094 0.252094
0.238378 0.238378 0.238378
0.219550 0.219550 0.219550
0.159902 0.159902 0.159902
0.160248 0.160248 0.160248
0.160250 0.160250 0.160250
0.288439 0.288439 0.288439
0.287602 0.287602 0.287602
0.285137 0.285137 0.285137
0.283012 0.283012 0.283012
0.278983 0.278983 0.278983
0.274432 0.274432 0.274432
0.269399 0.269399 0.269399
0.263592 0.263592 0.263592
0.258013 0.258013 0.258013
0.253061 0.253061 0.253061
0.248839 0.248839 0.248839
0.246010 0.246010 0.246010
0.236436 0.236436 0.236436
0.238163 0.238163 0.238163
0.251240 0.251240 0.251240
0.249096 0.249096 0.249096
0.248244 0.248244 0.248244
0.253949 0.253949 0.253949
0.266991 0.266991 0.266991
0.267799 0.267799 0.267799
0.273257 0.273257 0.273257
0.280320 0.280320 0.280320
0.289427 0.289427 0.289427
0.293313 0.293313 0.293313
0.295699 0.295699 0.295699
0.300274 0.300274 0.300274
0.298742 0.298742 0.298742
0.298898 0.298898 0.298898
0.288766 0.288766 0.288766
0.266457 0.266457 0.266457
0.191502 0.191502 0.191502
0.160252 0.160252 0.160252
0.160256 0.160256 0.160256
0.331799 0.331799 0.331799
0.331131 0.331131 0.331131
0.329070 0.329070 0.329070
0.326764 0.326764 0.326764
0.323997 0.323997 0.323997
0.320276 0.320276 0.320276
0.314664 0.314664 0.314664
0.308756 0.308756 0.308756
0.302832 0.302832 0.302832
0.297027 0.297027 0.297027
0.292031 0.292031 0.292031
0.287664 0.287664 0.287664
0.284766 0.284766 0.284766
0.284853 0.284853 0.284853
0.299043 0.299043 0.299043
0.295239 0.295239 0.295239
0.292575 0.292575 0.292575
0.297642 0.297642 0.297642
0.310547 0.310547 0.310547
0.309892 0.309892 0.309892
0.313752 0.313752 0.313752
0.321508 0.321508 0.321508
0.330116 0.330116 0.330116
0.331001 0.331001 0.331001
0.335668 0.335668 0.335668
0.342414 0.342414 0.342414
0.338456 0.338456 0.338456
0.336225 0.336225 0.336225
0.331000 0.331000 0.331000
0.322802 0.322802 0.322802
0.307329 0.307329 0.307329
0.160323 0.160323 0.160323
0.160293 0.160293 0.160293
0.381961 0.381961 0.381961
0.381330 0.381330 0.381330
0.379318 0.379318 0.379318
0.376735 0.376735 0.376735
0.374707 0.374707 0.374707
0.370601 0.370601 0.370601
0.365853 0.365853 0.365853
0.360899 0.360899 0.360899
0.355754 0.355754 0.355754
0.350362 0.350362 0.350362
0.345382 0.345382 0.345382
0.341125 0.341125 0.341125
0.337368 0.337368 0.337368
0.334805 0.334805 0.334805
0.346697 0.346697 0.346697
0.342577 0.342577 0.342577
0.338462 0.338462 0.338462
0.341473 0.341473 0.341473
0.352212 0.352212 0.352212
0.351089 0.351089 0.351089
0.353235 0.353235 0.353235
0.359667 0.359667 0.359667
0.367013 0.367013 0.367013
0.369289 0.369289 0.369289
0.374386 0.374386 0.374386
0.378853 0.378853 0.378853
0.378635 0.378635 0.378635
0.380602 0.380602 0.380602
0.372968 0.372968 0.372968
0.361814 0.361814 0.361814
0.344852 0.344852 0.344852
0.322179 0.322179 0.322179
0.290906 0.290906 0.290906
0.440425 0.440425 0.440425
0.439971 0.439971 0.439971
0.438492 0.438492 0.438492
0.436428 0.436428 0.436428
0.435153 0.435153 0.435153
0.431726 0.431726 0.431726
0.428417 0.428417 0.428417
0.424295 0.424295 0.424295
0.420038 0.420038 0.420038
0.415579 0.415579 0.415579
0.410983 0.410983 0.410983
0.405800 0.405800 0.405800
0.401228 0.401228 0.401228
0.397448 0.397448 0.397448
0.394640 0.394640 0.394640
0.388736 0.388736 0.388736
0.383875 0.383875 0.383875
0.386081 0.386081 0.386081
0.396284 0.396284 0.396284
0.393819 0.393819 0.393819
0.395287 0.395287 0.395287
0.401320 0.401320 0.401320
0.407984 0.407984 0.407984
0.410785 0.410785 0.410785
0.413980 0.413980 0.413980
0.419525 0.419525 0.419525
0.419360 0.419360 0.419360
0.418759 0.418759 0.418759
0.417005 0.417005 0.417005
0.413574 0.413574 0.413574
0.394890 0.394890 0.394890
0.365414 0.365414 0.365414
0.304190 0.304190 0.304190
0.478913 0.478913 0.478913
0.478489 0.478489 0.478489
0.477077 0.477077 0.477077
0.474967 0.474967 0.474967
0.473140 0.473140 0.473140
0.470390 0.470390 0.470390
0.467604 0.467604 0.467604
0.463081 0.463081 0.463081
0.458726 0.458726 0.458726
0.454500 0.454500 0.454500
0.449826 0.449826 0.449826
0.445476 0.445476 0.445476
0.441604 0.441604 0.441604
0.437990 0.437990 0.437990
0.435193 0.435193 0.435193
0.433076 0.433076 0.433076
0.428170 0.428170 0.428170
0.429325 0.429325 0.429325
0.437396 0.437396 0.437396
0.434721 0.434721 0.434721
0.434691 0.434691 0.434691
0.438935 0.438935 0.438935
0.443867 0.443867 0.443867
0.445158 0.445158 0.445158
0.448485 0.448485 0.448485
0.454066 0.454066 0.454066
0.453741 0.453741 0.453741
0.455880 0.455880 0.455880
0.453726 0.453726 0.453726
0.447918 0.447918 0.447918
0.439822 0.439822 0.439822
0.428950 0.428950 0.428950
0.353455 0.353455 0.353455
0.517975 0.517975 0.517975
0.517577 0.517577 0.517577
0.516231 0.516231 0.516231
0.514119 0.514119 0.514119
0.511946 0.511946 0.511946
0.509763 0.509763 0.509763
0.506122 0.506122 0.506122
0.502279 0.502279 0.502279
0.498071 0.498071 0.498071
0.493581 0.493581 0.493581
0.489064 0.489064 0.489064
0.484509 0.484509 0.484509
0.480197 0.480197 0.480197
0.476467 0.476467 0.476467
0.473031 0.473031 0.473031
0.470326 0.470326 0.470326
0.468407 0.468407 0.468407
0.468999 0.468999 0.468999
0.476413 0.476413 0.476413
0.472922 0.472922 0.472922
0.472443 0.472443 0.472443
0.475927 0.475927 0.475927
0.480640 0.480640 0.480640
0.481253 0.481253 0.481253
0.484779 0.484779 0.484779
0.489537 0.489537 0.489537
0.490727 0.490727 0.490727
0.491941 0.491941 0.491941
0.491278 0.491278 0.491278
0.489364 0.489364 0.489364
0.480051 0.480051 0.480051
0.465722 0.465722 0.465722
0.446580 0.446580 0.446580
0.561032 0.561032 0.561032
0.560714 0.560714 0.560714
0.559626 0.559626 0.559626
0.557860 0.557860 0.557860
0.555855 0.555855 0.555855
0.554439 0.554439 0.554439
0.550910 0.550910 0.550910
0.548023 0.548023 0.548023
0.543846 0.543846 0.543846
0.539224 0.539224 0.539224
0.534721 0.534721 0.534721
0.530100 0.530100 0.530100
0.525751 0.525751 0.525751
0.521474 0.521474 0.521474
0.517858 0.517858 0.517858
0.514634 0.514634 0.514634
0.511973 0.511973 0.511973
0.510233 0.510233 0.510233
0.517233 0.517233 0.517233
0.513154 0.513154 0.513154
0.511717 0.511717 0.511717
0.514817 0.514817 0.514817
0.519061 0.519061 0.519061
0.519085 0.519085 0.519085
0.522561 0.522561 0.522561
0.526991 0.526991 0.526991
0.528348 0.528348 0.528348
0.529892 0.529892 0.529892
0.531564 0.531564 0.531564
0.527449 0.527449 0.527449
0.522076 0.522076 0.522076
0.514351 0.514351 0.514351
0.490340 0.490340 0.490340
0.605573 0.605573 0.605573
0.605299 0.605299 0.605299
0.604353 0.604353 0.604353
0.602783 0.602783 0.602783
0.600890 0.600890 0.600890
0.599345 0.599345 0.599345
0.596556 0.596556 0.596556
0.593687 0.593687 0.593687
0.590213 0.590213 0.590213
0.586662 0.586662 0.586662
0.582625 0.582625 0.582625
0.578669 0.578669 0.578669
0.574600 0.574600 0.574600
0.570806 0.570806 0.570806
0.567137 0.567137 0.567137
0.564128 0.564128 0.564128
0.561540 0.561540 0.561540
0.559191 0.559191 0.559191
0.557849 0.557849 0.557849
0.553821 0.553821 0.553821
0.552325 0.552325 0.552325
0.554288 0.554288 0.554288
0.557608 0.557608 0.557608
0.557269 0.557269 0.557269
0.559585 0.559585 0.559585
0.563528 0.563528 0.563528
0.564415 0.564415 0.564415
0.566854 0.566854 0.566854
0.567353 0.567353 0.567353
0.566254 0.566254 0.566254
0.562880 0.562880 0.562880
0.553732 0.553732 0.553732
0.540480 0.540480 0.540480
0.642715 0.642715 0.642715
0.642452 0.642452 0.642452
0.641536 0.641536 0.641536
0.639974 0.639974 0.639974
0.637967 0.637967 0.637967
0.635989 0.635989 0.635989
0.633598 0.633598 0.633598
0.630233 0.630233 0.630233
0.627003 0.627003 0.627003
0.623378 0.623378 0.623378
0.619230 0.619230 0.619230
0.615152 0.615152 0.615152
0.611078 0.611078 0.611078
0.607134 0.607134 0.607134
0.603478 0.603478 0.603478
0.599962 0.599962 0.599962
0.597162 0.597162 0.597162
0.594842 0.594842 0.594842
0.592740 0.592740 0.592740
0.591600 0.591600 0.591600
0.589353 0.589353 0.589353
0.591162 0.591162 0.591162
0.593893 0.593893 0.593893
0.593231 0.593231 0.593231
0.595088 0.595088 0.595088
0.598475 0.598475 0.598475
0.599350 0.599350 0.599350
0.602025 0.602025 0.602025
0.603031 0.603031 0.603031
0.603061 0.603061 0.603061
0.599723 0.599723 0.599723
0.594596 0.594596 0.594596
0.581481 0.581481 0.581481
0.681224 0.681224 0.681224
0.680982 0.680982 0.680982
0.680132 0.680132 0.680132
0.678656 0.678656 0.678656
0.676682 0.676682 0.676682
0.674535 0.674535 0.674535
0.672487 0.672487 0.672487
0.668971 0.668971 0.668971
0.665965 0.665965 0.665965
0.661916 0.661916 0.661916
0.658082 0.658082 0.658082
0.654055 0.654055 0.654055
0.649864 0.649864 0.649864
0.645710 0.645710 0.645710
0.641962 0.641962 0.641962
0.638435 0.638435 0.638435
0.635208 0.635208 0.635208
0.632521 0.632521 0.632521
0.630460 0.630460 0.630460
0.628636 0.628636 0.628636
0.627670 0.627670 0.627670
0.628389 0.628389 0.628389
0.630920 0.630920 0.630920
0.630147 0.630147 0.630147
0.631420 0.631420 0.631420
0.634521 0.634521 0.634521
0.635291 0.635291 0.635291
0.637485 0.637485 0.637485
0.639487 0.639487 0.639487
0.639323 0.639323 0.639323
0.638322 0.638322 0.638322
0.632884 0.632884 0.632884
0.622863 0.622863 0.622863
0.718794 0.718794 0.718794
0.718614 0.718614 0.718614
0.717981 0.717981 0.717981
0.716866 0.716866 0.716866
0.715335 0.715335 0.715335
0.713575 0.713575 0.713575
0.711964 0.711964 0.711964
0.709285 0.709285 0.709285
0.706528 0.706528 0.706528
0.703314 0.703314 0.703314
0.699543 0.699543 0.699543
0.695549 0.695549 0.695549
0.691545 0.691545 0.691545
0.687432 0.687432 0.687432
0.683418 0.683418 0.683418
0.679913 0.679913 0.679913
0.676580 0.676580 0.676580
0.673648 0.673648 0.673648
0.671075 0.671075 0.671075
0.669267 0.669267 0.669267
0.667737 0.667737 0.667737
0.666915 0.666915 0.666915
0.668560 0.668560 0.668560
0.667741 0.667741 0.667741
0.668569 0.668569 0.668569
0.671229 0.671229 0.671229
0.672160 0.672160 0.672160
0.674102 0.674102 0.674102
0.676311 0.676311 0.676311
0.676780 0.676780 0.676780
0.676307 0.676307 0.676307
0.672500 0.672500 0.672500
0.665024 0.665024 0.665024
0.753933 0.753933 0.753933
0.753775 0.753775 0.753775
0.753216 0.753216 0.753216
0.752220 0.752220 0.752220
0.750817 0.750817 0.750817
0.749121 0.749121 0.749121
0.747376 0.747376 0.747376
0.745152 0.745152 0.745152
0.742384 0.742384 0.742384
0.739663 0.739663 0.739663
0.736302 0.736302 0.736302
0.733049 0.733049 0.733049
0.729792 0.729792 0.729792
0.726278 0.726278 0.726278
0.722816 0.722816 0.722816
0.719631 0.719631 0.719631
0.716761 0.716761 0.716761
0.714132 0.714132 0.714132
0.711811 0.711811 0.711811
0.709786 0.709786 0.709786
0.708449 0.708449 0.708449
0.707433 0.707433 0.707433
0.706908 0.706908 0.706908
0.706020 0.706020 0.706020
0.706322 0.706322 0.706322
0.708080 0.708080 0.708080
0.708966 0.708966 0.708966
0.710419 0.710419 0.710419
0.712356 0.712356 0.712356
0.713390 0.713390 0.713390
0.713247 0.713247 0.713247
0.711604 0.711604 0.711604
0.705100 0.705100 0.705100
0.788517 0.788517 0.788517
0.788374 0.788374 0.788374
0.787863 0.787863 0.787863
0.786938 0.786938 0.786938
0.785598 0.785598 0.785598
0.783890 0.783890 0.783890
0.781942 0.781942 0.781942
0.779813 0.779813 0.779813
0.776988 0.776988 0.776988
0.774078 0.774078 0.774078
0.770775 0.770775 0.770775
0.767344 0.767344 0.767344
0.763952 0.763952 0.763952
0.760551 0.760551 0.760551
0.757082 0.757082 0.757082
0.753754 0.753754 0.753754
0.750757 0.750757 0.750757
0.748009 0.748009 0.748009
0.745606 0.745606 0.745606
0.743517 0.743517 0.743517
0.741830 0.741830 0.741830
0.740675 0.740675 0.740675
0.740037 0.740037 0.740037
0.739842 0.739842 0.739842
0.739569 0.739569 0.739569
0.740778 0.740778 0.740778
0.741758 0.741758 0.741758
0.742855 0.742855 0.742855
0.744738 0.744738 0.744738
0.746216 0.746216 0.746216
0.746706 0.746706 0.746706
0.745322 0.745322 0.745322
0.740804 0.740804 0.740804
0.818314 0.818314 0.818314
0.818214 0.818214 0.818214
0.817856 0.817856 0.817856
0.817202 0.817202 0.817202
0.816238 0.816238 0.816238
0.814972 0.814972 0.814972
0.813311 0.813311 0.813311
0.811318 0.811318 0.811318
0.808845 0.808845 0.808845
0.806166 0.806166 0.806166
0.803321 0.803321 0.803321
0.800162 0.800162 0.800162
0.797012 0.797012 0.797012
0.793864 0.793864 0.793864
0.790744 0.790744 0.790744
0.787686 0.787686 0.787686
0.784768 0.784768 0.784768
0.782055 0.782055 0.782055
0.779681 0.779681 0.779681
0.777563 0.777563 0.777563
0.775771 0.775771 0.775771
0.774418 0.774418 0.774418
0.773420 0.773420 0.773420
0.773105 0.773105 0.773105
0.773172 0.773172 0.773172
0.773692 0.773692 0.773692
0.775052 0.775052 0.775052
0.775597 0.775597 0.775597
0.777449 0.777449 0.777449
0.778927 0.778927 0.778927
0.780128 0.780128 0.780128
0.779517 0.779517 0.779517
0.776032 0.776032 0.776032
0.842826 0.842826 0.842826
0.842746 0.842746 0.842746
0.842456 0.842456 0.842456
0.841920 0.841920 0.841920
0.841117 0.841117 0.841117
0.840032 0.840032 0.840032
0.838672 0.838672 0.838672
0.837083 0.837083 0.837083
0.835314 0.835314 0.835314
0.833309 0.833309 0.833309
0.831139 0.831139 0.831139
0.828772 0.828772 0.828772
0.826224 0.826224 0.826224
0.823792 0.823792 0.823792
0.821300 0.821300 0.821300
0.818864 0.818864 0.818864
0.816592 0.816592 0.816592
0.814388 0.814388 0.814388
0.811966 0.811966 0.811966
0.809849 0.809849 0.809849
0.808070 0.808070 0.808070
0.806679 0.806679 0.806679
0.805622 0.805622 0.805622
0.804915 0.804915 0.804915
0.804893 0.804893 0.804893
0.805194 0.805194 0.805194
0.806975 0.806975 0.806975
0.807118 0.807118 0.807118
0.808682 0.808682 0.808682
0.810010 0.810010 0.810010
0.811468 0.811468 0.811468
0.811782 0.811782 0.811782
0.809316 0.809316 0.809316
0.872424 0.872424 0.872424
0.872346 0.872346 0.872346
0.872062 0.872062 0.872062
0.871527 0.871527 0.871527
0.870696 0.870696 0.870696
0.869517 0.869517 0.869517
0.867931 0.867931 0.867931
0.865884 0.865884 0.865884
0.863701 0.863701 0.863701
0.861633 0.861633 0.861633
0.859208 0.859208 0.859208
0.856735 0.856735 0.856735
0.854143 0.854143 0.854143
0.851508 0.851508 0.851508
0.848871 0.848871 0.848871
0.846447 0.846447 0.846447
0.844064 0.844064 0.844064
0.841839 0.841839 0.841839
0.839804 0.839804 0.839804
0.837995 0.837995 0.837995
0.836477 0.836477 0.836477
0.835259 0.835259 0.835259
0.834370 0.834370 0.834370
0.833816 0.833816 0.833816
0.833634 0.833634 0.833634
