trix_classic/TriX_Green58_Hard.cube
TITLE "Tri-X Green58 Hard"
# Adobe RGB in/out. REPLACES AgX. R=0.1714 G=0.8069 B=0.0217
LUT_3D_SIZE 5
DOMAIN_MIN 0.0 0.0 0.0
DOMAIN_MAX 1.0 1.0 1.0
0.093024 0.093024 0.093024
0.093024 0.093024 0.093024
0.093024 0.093024 0.093024
0.093024 0.093024 0.093024
0.093024 0.093024 0.093024
0.093024 0.093024 0.093024
0.093024 0.093024 0.093024
0.093024 0.093024 0.093024
0.093024 0.093024 0.093024
0.093024 0.093024 0.093024
0.093024 0.093024 0.093024
0.093024 0.093024 0.093024
0.093024 0.093024 0.093024
0.093024 0.093024 0.093024
0.093024 0.093024 0.093024
0.093024 0.093024 0.093024
0.093024 0.093024 0.093024
0.093024 0.093024 0.093024
0.093024 0.093024 0.093024
0.093024 0.093024 0.093024
0.093024 0.093024 0.093024
0.093024 0.093024 0.093024
0.093024 0.093024 0.093024
0.093024 0.093024 0.093024
0.093024 0.093024 0.093024
0.093024 0.093024 0.093024
0.093024 0.093024 0.093024
0.093024 0.093024 0.093024
0.093024 0.093024 0.093024
0.093024 0.093024 0.093024
0.093024 0.093024 0.093024
0.099130 0.099130 0.099130
0.108147 0.108147 0.108147
0.123592 0.123592 0.123592
0.139308 0.139308 0.139308
0.093024 0.093024 0.093024
0.394584 0.394584 0.394584
0.563503 0.563503 0.563503
0.677989 0.677989 0.677989
0.758889 0.758889 0.758889
0.093024 0.093024 0.093024
0.856771 0.856771 0.856771
0.946654 0.946654 0.946654
0.972716 0.972716 0.972716
0.982275 0.982275 0.982275
0.093024 0.093024 0.093024
0.981209 0.981209 0.981209
0.992459 0.992459 0.992459
0.995233 0.995233 0.995233
0.997206 0.997206 0.997206
0.093024 0.093024 0.093024
0.093024 0.093024 0.093024
0.093024 0.093024 0.093024
0.093024 0.093024 0.093024
0.093024 0.093024 0.093024
0.093024 0.093024 0.093024
0.099659 0.099659 0.099659
0.110796 0.110796 0.110796
0.127835 0.127835 0.127835
0.145109 0.145109 0.145109
0.093024 0.093024 0.093024
0.415656 0.415656 0.415656
0.588577 0.588577 0.588577
0.703354 0.703354 0.703354
0.777523 0.777523 0.777523
0.093024 0.093024 0.093024
0.871883 0.871883 0.871883
0.953358 0.953358 0.953358
0.975629 0.975629 0.975629
0.984151 0.984151 0.984151
0.093024 0.093024 0.093024
0.983672 0.983672 0.983672
0.993060 0.993060 0.993060
0.995836 0.995836 0.995836
0.997805 0.997805 0.997805
0.093024 0.093024 0.093024
0.093024 0.093024 0.093024
0.093024 0.093024 0.093024
0.093024 0.093024 0.093024
0.093024 0.093024 0.093024
0.093024 0.093024 0.093024
0.099970 0.099970 0.099970
0.112375 0.112375 0.112375
0.130385 0.130385 0.130385
0.148614 0.148614 0.148614
0.093024 0.093024 0.093024
0.428501 0.428501 0.428501
0.603758 0.603758 0.603758
0.718630 0.718630 0.718630
0.788635 0.788635 0.788635
0.093024 0.093024 0.093024
0.879285 0.879285 0.879285
0.956954 0.956954 0.956954
0.977336 0.977336 0.977336
0.984925 0.984925 0.984925
0.093024 0.093024 0.093024
0.984445 0.984445 0.984445
0.993412 0.993412 0.993412
0.996188 0.996188 0.996188
0.997869 0.997869 0.997869
0.093024 0.093024 0.093024
0.093024 0.093024 0.093024
0.093024 0.093024 0.093024
0.093024 0.093024 0.093024
0.093024 0.093024 0.093024
0.093024 0.093024 0.093024
0.100191 0.100191 0.100191
0.113509 0.113509 0.113509
0.132276 0.132276 0.132276
0.151151 0.151151 0.151151
0.093024 0.093024 0.093024
0.436455 0.436455 0.436455
0.614766 0.614766 0.614766
0.729668 0.729668 0.729668
0.796615 0.796615 0.796615
0.093024 0.093024 0.093024
0.884183 0.884183 0.884183
0.959513 0.959513 0.959513
0.978550 0.978550 0.978550
0.985473 0.985473 0.985473
0.093024 0.093024 0.093024
0.984993 0.984993 0.984993
0.993661 0.993661 0.993661
0.996439 0.996439 0.996439
0.997914 0.997914 0.997914
