trix_classic/TriX_NoFilter_ExtraPunchy.cube
TITLE "Tri-X NoFilter ExtraPunchy"
# Adobe RGB in/out. REPLACES AgX. Tri-X NoFilter ExtraPunchy.
LUT_3D_SIZE 5
DOMAIN_MIN 0.0 0.0 0.0
DOMAIN_MAX 1.0 1.0 1.0
0.092237 0.092237 0.092237
0.092237 0.092237 0.092237
0.111232 0.111232 0.111232
0.310199 0.310199 0.310199
0.816654 0.816654 0.816654
0.092332 0.092332 0.092332
0.093851 0.093851 0.093851
0.146595 0.146595 0.146595
0.327371 0.327371 0.327371
0.816656 0.816656 0.816656
0.144588 0.144588 0.144588
0.165328 0.165328 0.165328
0.254718 0.254718 0.254718
0.428874 0.428874 0.428874
0.716708 0.716708 0.716708
0.361671 0.361671 0.361671
0.379935 0.379935 0.379935
0.458552 0.458552 0.458552
0.613686 0.613686 0.613686
0.772364 0.772364 0.772364
0.559768 0.559768 0.559768
0.643654 0.643654 0.643654
0.721263 0.721263 0.721263
0.800462 0.800462 0.800462
0.876116 0.876116 0.876116
0.093576 0.093576 0.093576
0.230278 0.230278 0.230278
0.249249 0.249249 0.249249
0.492180 0.492180 0.492180
0.816667 0.816667 0.816667
0.098373 0.098373 0.098373
0.128236 0.128236 0.128236
0.205927 0.205927 0.205927
0.415642 0.415642 0.415642
0.816656 0.816656 0.816656
0.194874 0.194874 0.194874
0.216560 0.216560 0.216560
0.308892 0.308892 0.308892
0.476864 0.476864 0.476864
0.802078 0.802078 0.802078
0.410209 0.410209 0.410209
0.428124 0.428124 0.428124
0.506434 0.506434 0.506434
0.654881 0.654881 0.654881
0.798002 0.798002 0.798002
0.625855 0.625855 0.625855
0.698762 0.698762 0.698762
0.742548 0.742548 0.742548
0.815619 0.815619 0.815619
0.883526 0.883526 0.883526
0.250306 0.250306 0.250306
0.553395 0.553395 0.553395
0.613610 0.613610 0.613610
0.761937 0.761937 0.761937
0.873213 0.873213 0.873213
0.294230 0.294230 0.294230
0.457207 0.457207 0.457207
0.575284 0.575284 0.575284
0.748556 0.748556 0.748556
0.868206 0.868206 0.868206
0.369603 0.369603 0.369603
0.405949 0.405949 0.405949
0.545947 0.545947 0.545947
0.713797 0.713797 0.713797
0.885776 0.885776 0.885776
0.566898 0.566898 0.566898
0.586110 0.586110 0.586110
0.663653 0.663653 0.663653
0.774104 0.774104 0.774104
0.891336 0.891336 0.891336
0.789508 0.789508 0.789508
0.802979 0.802979 0.802979
0.818256 0.818256 0.818256
0.865669 0.865669 0.865669
0.917572 0.917572 0.917572
0.672103 0.672103 0.672103
0.787691 0.787691 0.787691
0.819056 0.819056 0.819056
0.873782 0.873782 0.873782
0.915968 0.915968 0.915968
0.719795 0.719795 0.719795
0.788434 0.788434 0.788434
0.824574 0.824574 0.824574
0.876995 0.876995 0.876995
0.914754 0.914754 0.914754
0.729311 0.729311 0.729311
0.778675 0.778675 0.778675
0.839754 0.839754 0.839754
0.888701 0.888701 0.888701
0.933625 0.933625 0.933625
0.785783 0.785783 0.785783
0.805531 0.805531 0.805531
0.852399 0.852399 0.852399
0.903272 0.903272 0.903272
0.952753 0.952753 0.952753
0.837949 0.837949 0.837949
0.847628 0.847628 0.847628
0.888383 0.888383 0.888383
0.919872 0.919872 0.919872
0.966542 0.966542 0.966542
0.901502 0.901502 0.901502
0.903415 0.903415 0.903415
0.918423 0.918423 0.918423
0.941639 0.941639 0.941639
0.954755 0.954755 0.954755
0.906942 0.906942 0.906942
0.909202 0.909202 0.909202
0.922258 0.922258 0.922258
0.944814 0.944814 0.944814
0.957379 0.957379 0.957379
0.925116 0.925116 0.925116
0.927306 0.927306 0.927306
0.937109 0.937109 0.937109
0.956848 0.956848 0.956848
0.969182 0.969182 0.969182
0.948655 0.948655 0.948655
0.951175 0.951175 0.951175
0.958702 0.958702 0.958702
0.967856 0.967856 0.967856
0.979371 0.979371 0.979371
0.912848 0.912848 0.912848
0.931690 0.931690 0.931690
0.963371 0.963371 0.963371
0.980260 0.980260 0.980260
0.984304 0.984304 0.984304
