trix_classic/TriX_Yellow8_Soft.cube
TITLE "Tri-X Yellow8 Soft"
# Adobe RGB in/out. REPLACES AgX. R=0.5015 G=0.4679 B=0.0307
LUT_3D_SIZE 9
DOMAIN_MIN 0.0 0.0 0.0
DOMAIN_MAX 1.0 1.0 1.0
0.097688 0.097688 0.097688
0.097688 0.097688 0.097688
0.097688 0.097688 0.097688
0.097688 0.097688 0.097688
0.097688 0.097688 0.097688
0.097688 0.097688 0.097688
0.097688 0.097688 0.097688
0.097688 0.097688 0.097688
0.097688 0.097688 0.097688
0.097688 0.097688 0.097688
0.097688 0.097688 0.097688
0.097688 0.097688 0.097688
0.097688 0.097688 0.097688
0.097688 0.097688 0.097688
0.097688 0.097688 0.097688
0.097688 0.097688 0.097688
0.097688 0.097688 0.097688
0.097688 0.097688 0.097688
0.097688 0.097688 0.097688
0.097688 0.097688 0.097688
0.097688 0.097688 0.097688
0.097688 0.097688 0.097688
0.097688 0.097688 0.097688
0.097688 0.097688 0.097688
0.097688 0.097688 0.097688
0.097688 0.097688 0.097688
0.097688 0.097688 0.097688
0.097688 0.097688 0.097688
0.097688 0.097688 0.097688
0.097688 0.097688 0.097688
0.097688 0.097688 0.097688
0.097688 0.097688 0.097688
0.097688 0.097688 0.097688
0.097688 0.097688 0.097688
0.097688 0.097688 0.097688
0.097688 0.097688 0.097688
0.097688 0.097688 0.097688
0.097688 0.097688 0.097688
0.097688 0.097688 0.097688
0.097688 0.097688 0.097688
0.097688 0.097688 0.097688
0.097688 0.097688 0.097688
0.097688 0.097688 0.097688
0.097688 0.097688 0.097688
0.097688 0.097688 0.097688
0.097688 0.097688 0.097688
0.097688 0.097688 0.097688
0.097688 0.097688 0.097688
0.097688 0.097688 0.097688
0.097688 0.097688 0.097688
0.097688 0.097688 0.097688
0.097688 0.097688 0.097688
0.097688 0.097688 0.097688
0.097688 0.097688 0.097688
0.097688 0.097688 0.097688
0.097688 0.097688 0.097688
0.097688 0.097688 0.097688
0.097688 0.097688 0.097688
0.097688 0.097688 0.097688
0.097688 0.097688 0.097688
0.097688 0.097688 0.097688
0.097688 0.097688 0.097688
0.097688 0.097688 0.097688
0.097688 0.097688 0.097688
0.097688 0.097688 0.097688
0.097688 0.097688 0.097688
0.097688 0.097688 0.097688
0.097688 0.097688 0.097688
0.097688 0.097688 0.097688
0.097688 0.097688 0.097688
0.097688 0.097688 0.097688
0.097688 0.097688 0.097688
0.097688 0.097688 0.097688
0.097688 0.097688 0.097688
0.097688 0.097688 0.097688
0.097688 0.097688 0.097688
0.097688 0.097688 0.097688
0.097688 0.097688 0.097688
0.097688 0.097688 0.097688
0.097688 0.097688 0.097688
0.097688 0.097688 0.097688
0.097688 0.097688 0.097688
0.097688 0.097688 0.097688
0.097688 0.097688 0.097688
0.097688 0.097688 0.097688
0.097688 0.097688 0.097688
0.097688 0.097688 0.097688
0.097688 0.097688 0.097688
0.097688 0.097688 0.097688
0.097688 0.097688 0.097688
0.097688 0.097688 0.097688
0.107900 0.107900 0.107900
0.152237 0.152237 0.152237
0.201198 0.201198 0.201198
0.242380 0.242380 0.242380
0.276442 0.276442 0.276442
0.303593 0.303593 0.303593
0.329841 0.329841 0.329841
0.353908 0.353908 0.353908
0.097688 0.097688 0.097688
0.147488 0.147488 0.147488
0.235587 0.235587 0.235587
0.296426 0.296426 0.296426
0.345430 0.345430 0.345430
0.388059 0.388059 0.388059
0.425346 0.425346 0.425346
0.458727 0.458727 0.458727
0.490167 0.490167 0.490167
0.097688 0.097688 0.097688
0.191052 0.191052 0.191052
0.292311 0.292311 0.292311
0.362140 0.362140 0.362140
0.419838 0.419838 0.419838
0.468345 0.468345 0.468345
0.512664 0.512664 0.512664
0.552915 0.552915 0.552915
0.590328 0.590328 0.590328
0.097688 0.097688 0.097688
0.228984 0.228984 0.228984
0.337155 0.337155 0.337155
0.415973 0.415973 0.415973
0.478982 0.478982 0.478982
0.534761 0.534761 0.534761
0.584768 0.584768 0.584768
0.630681 0.630681 0.630681
0.672525 0.672525 0.672525
0.097688 0.097688 0.097688
0.260065 0.260065 0.260065
0.375818 0.375818 0.375818
0.460445 0.460445 0.460445
0.530850 0.530850 0.530850
0.592228 0.592228 0.592228
0.647537 0.647537 0.647537
0.696861 0.696861 0.696861
0.742463 0.742463 0.742463
0.097688 0.097688 0.097688
0.285410 0.285410 0.285410
0.410586 0.410586 0.410586
0.501014 0.501014 0.501014
0.577022 0.577022 0.577022
0.643738 0.643738 0.643738
0.702172 0.702172 0.702172
0.755446 0.755446 0.755446
0.801526 0.801526 0.801526
0.097688 0.097688 0.097688
0.307301 0.307301 0.307301
0.439984 0.439984 0.439984
0.537719 0.537719 0.537719
0.619178 0.619178 0.619178
0.689411 0.689411 0.689411
0.751751 0.751751 0.751751
0.804947 0.804947 0.804947
0.850743 0.850743 0.850743
0.097688 0.097688 0.097688
0.328762 0.328762 0.328762
0.468053 0.468053 0.468053
0.571588 0.571588 0.571588
0.657797 0.657797 0.657797
0.731447 0.731447 0.731447
0.795142 0.795142 0.795142
0.847592 0.847592 0.847592
0.891212 0.891212 0.891212
0.097688 0.097688 0.097688
0.097688 0.097688 0.097688
0.097688 0.097688 0.097688
0.097688 0.097688 0.097688
0.097688 0.097688 0.097688
0.097688 0.097688 0.097688
0.097688 0.097688 0.097688
0.097688 0.097688 0.097688
0.097688 0.097688 0.097688
0.097688 0.097688 0.097688
0.109433 0.109433 0.109433
0.156698 0.156698 0.156698
0.207459 0.207459 0.207459
0.248742 0.248742 0.248742
0.282527 0.282527 0.282527
0.310276 0.310276 0.310276
0.337478 0.337478 0.337478
0.361816 0.361816 0.361816
0.097688 0.097688 0.097688
0.151810 0.151810 0.151810
0.241770 0.241770 0.241770
0.302951 0.302951 0.302951
0.353148 0.353148 0.353148
0.396730 0.396730 0.396730
0.434072 0.434072 0.434072
0.468479 0.468479 0.468479
0.500587 0.500587 0.500587
0.097688 0.097688 0.097688
0.196691 0.196691 0.196691
0.298746 0.298746 0.298746
0.370231 0.370231 0.370231
0.428451 0.428451 0.428451
0.478301 0.478301 0.478301
0.523427 0.523427 0.523427
0.564523 0.564523 0.564523
0.602721 0.602721 0.602721
0.097688 0.097688 0.097688
0.234994 0.234994 0.234994
0.344688 0.344688 0.344688
0.424507 0.424507 0.424507
0.489165 0.489165 0.489165
0.545988 0.545988 0.545988
0.597045 0.597045 0.597045
0.643921 0.643921 0.643921
0.686234 0.686234 0.686234
0.097688 0.097688 0.097688
0.266891 0.266891 0.266891
0.384215 0.384215 0.384215
0.470234 0.470234 0.470234
0.541995 0.541995 0.541995
0.604662 0.604662 0.604662
0.660737 0.660737 0.660737
0.711055 0.711055 0.711055
0.757531 0.757531 0.757531
0.097688 0.097688 0.097688
0.291693 0.291693 0.291693
0.419009 0.419009 0.419009
0.511629 0.511629 0.511629
0.589136 0.589136 0.589136
0.656900 0.656900 0.656900
0.716450 0.716450 0.716450
0.770778 0.770778 0.770778
0.815724 0.815724 0.815724
0.097688 0.097688 0.097688
0.314232 0.314232 0.314232
0.449337 0.449337 0.449337
0.549008 0.549008 0.549008
0.632177 0.632177 0.632177
0.703464 0.703464 0.703464
0.767008 0.767008 0.767008
0.819206 0.819206 0.819206
0.865814 0.865814 0.865814
0.097688 0.097688 0.097688
0.336431 0.336431 0.336431
0.478003 0.478003 0.478003
0.583588 0.583588 0.583588
0.671206 0.671206 0.671206
0.746291 0.746291 0.746291
0.809227 0.809227 0.809227
0.862606 0.862606 0.862606
0.901264 0.901264 0.901264
0.097688 0.097688 0.097688
0.097688 0.097688 0.097688
0.097688 0.097688 0.097688
0.097688 0.097688 0.097688
0.097688 0.097688 0.097688
0.097688 0.097688 0.097688
0.097688 0.097688 0.097688
0.097688 0.097688 0.097688
0.097688 0.097688 0.097688
0.097688 0.097688 0.097688
0.110388 0.110388 0.110388
0.159368 0.159368 0.159368
0.211212 0.211212 0.211212
0.252540 0.252540 0.252540
0.286149 0.286149 0.286149
0.314434 0.314434 0.314434
0.341868 0.341868 0.341868
0.366523 0.366523 0.366523
0.097688 0.097688 0.097688
0.154397 0.154397 0.154397
0.245462 0.245462 0.245462
0.306834 0.306834 0.306834
0.357743 0.357743 0.357743
0.401891 0.401891 0.401891
0.439339 0.439339 0.439339
0.474280 0.474280 0.474280
0.506785 0.506785 0.506785
0.097688 0.097688 0.097688
0.200249 0.200249 0.200249
0.302576 0.302576 0.302576
0.375048 0.375048 0.375048
0.433571 0.433571 0.433571
0.484223 0.484223 0.484223
0.529827 0.529827 0.529827
0.571426 0.571426 0.571426
0.610091 0.610091 0.610091
0.097688 0.097688 0.097688
0.238582 0.238582 0.238582
0.349173 0.349173 0.349173
0.429579 0.429579 0.429579
0.495221 0.495221 0.495221
0.552664 0.552664 0.552664
0.604346 0.604346 0.604346
0.651601 0.651601 0.651601
0.694382 0.694382 0.694382
0.097688 0.097688 0.097688
0.270706 0.270706 0.270706
0.389214 0.389214 0.389214
0.476056 0.476056 0.476056
0.548623 0.548623 0.548623
0.612056 0.612056 0.612056
0.668583 0.668583 0.668583
0.719462 0.719462 0.719462
0.766487 0.766487 0.766487
0.097688 0.097688 0.097688
0.295432 0.295432 0.295432
0.424016 0.424016 0.424016
0.517885 0.517885 0.517885
0.596340 0.596340 0.596340
0.664700 0.664700 0.664700
0.724920 0.724920 0.724920
0.779781 0.779781 0.779781
0.824146 0.824146 0.824146
0.097688 0.097688 0.097688
0.318545 0.318545 0.318545
0.454901 0.454901 0.454901
0.555721 0.555721 0.555721
0.639908 0.639908 0.639908
0.711803 0.711803 0.711803
0.776076 0.776076 0.776076
0.827664 0.827664 0.827664
0.874753 0.874753 0.874753
0.097688 0.097688 0.097688
0.340808 0.340808 0.340808
0.483921 0.483921 0.483921
0.590724 0.590724 0.590724
0.679176 0.679176 0.679176
0.755114 0.755114 0.755114
0.817582 0.817582 0.817582
0.871512 0.871512 0.871512
0.907197 0.907197 0.907197
0.097688 0.097688 0.097688
0.097688 0.097688 0.097688
0.097688 0.097688 0.097688
0.097688 0.097688 0.097688
0.097688 0.097688 0.097688
0.097688 0.097688 0.097688
0.097688 0.097688 0.097688
0.097688 0.097688 0.097688
0.097688 0.097688 0.097688
0.097688 0.097688 0.097688
0.111072 0.111072 0.111072
0.161298 0.161298 0.161298
0.213916 0.213916 0.213916
0.255271 0.255271 0.255271
0.288746 0.288746 0.288746
0.317490 0.317490 0.317490
0.345018 0.345018 0.345018
0.369900 0.369900 0.369900
0.097688 0.097688 0.097688
0.156259 0.156259 0.156259
0.248116 0.248116 0.248116
0.309620 0.309620 0.309620
0.361039 0.361039 0.361039
0.405594 0.405594 0.405594
0.443191 0.443191 0.443191
0.478439 0.478439 0.478439
0.511199 0.511199 0.511199
0.097688 0.097688 0.097688
0.202813 0.202813 0.202813
0.305323 0.305323 0.305323
0.378503 0.378503 0.378503
0.437247 0.437247 0.437247
0.488469 0.488469 0.488469
0.534416 0.534416 0.534416
0.576375 0.576375 0.576375
0.615375 0.615375 0.615375
0.097688 0.097688 0.097688
0.241162 0.241162 0.241162
0.352390 0.352390 0.352390
0.433215 0.433215 0.433215
0.499564 0.499564 0.499564
0.557450 0.557450 0.557450
0.609580 0.609580 0.609580
0.657081 0.657081 0.657081
0.700222 0.700222 0.700222
0.097688 0.097688 0.097688
0.273164 0.273164 0.273164
0.392800 0.392800 0.392800
0.480230 0.480230 0.480230
0.553374 0.553374 0.553374
0.617356 0.617356 0.617356
0.674206 0.674206 0.674206
0.725486 0.725486 0.725486
0.772906 0.772906 0.772906
0.097688 0.097688 0.097688
0.298114 0.298114 0.298114
0.427605 0.427605 0.427605
0.522370 0.522370 0.522370
0.601504 0.601504 0.601504
0.670290 0.670290 0.670290
0.730991 0.730991 0.730991
0.785485 0.785485 0.785485
0.830174 0.830174 0.830174
0.097688 0.097688 0.097688
0.321640 0.321640 0.321640
0.458890 0.458890 0.458890
0.560534 0.560534 0.560534
0.645439 0.645439 0.645439
0.717764 0.717764 0.717764
0.782126 0.782126 0.782126
0.833718 0.833718 0.833718
0.881151 0.881151 0.881151
0.097688 0.097688 0.097688
0.343948 0.343948 0.343948
0.488165 0.488165 0.488165
0.595840 0.595840 0.595840
0.684888 0.684888 0.684888
0.761437 0.761437 0.761437
0.823562 0.823562 0.823562
0.877887 0.877887 0.877887
0.911430 0.911430 0.911430
0.097688 0.097688 0.097688
0.097688 0.097688 0.097688
0.097688 0.097688 0.097688
0.097688 0.097688 0.097688
0.097688 0.097688 0.097688
0.097688 0.097688 0.097688
0.097688 0.097688 0.097688
0.097688 0.097688 0.097688
0.097688 0.097688 0.097688
0.097688 0.097688 0.097688
0.111604 0.111604 0.111604
0.162813 0.162813 0.162813
0.215891 0.215891 0.215891
0.257408 0.257408 0.257408
0.290778 0.290778 0.290778
0.319880 0.319880 0.319880
0.347481 0.347481 0.347481
0.372541 0.372541 0.372541
0.097688 0.097688 0.097688
0.157719 0.157719 0.157719
0.250194 0.250194 0.250194
0.311805 0.311805 0.311805
0.363616 0.363616 0.363616
0.408490 0.408490 0.408490
0.446203 0.446203 0.446203
0.481690 0.481690 0.481690
0.514630 0.514630 0.514630
0.097688 0.097688 0.097688
0.204823 0.204823 0.204823
0.307470 0.307470 0.307470
0.381206 0.381206 0.381206
0.440219 0.440219 0.440219
0.491788 0.491788 0.491788
0.538003 0.538003 0.538003
0.580243 0.580243 0.580243
0.619505 0.619505 0.619505
0.097688 0.097688 0.097688
0.243181 0.243181 0.243181
0.354906 0.354906 0.354906
0.436057 0.436057 0.436057
0.502959 0.502959 0.502959
0.561191 0.561191 0.561191
0.613671 0.613671 0.613671
0.661364 0.661364 0.661364
0.704786 0.704786 0.704786
0.097688 0.097688 0.097688
0.275085 0.275085 0.275085
0.395604 0.395604 0.395604
0.483493 0.483493 0.483493
0.557088 0.557088 0.557088
0.621499 0.621499 0.621499
0.678600 0.678600 0.678600
0.730194 0.730194 0.730194
0.777921 0.777921 0.777921
0.097688 0.097688 0.097688
0.300211 0.300211 0.300211
0.430410 0.430410 0.430410
0.525876 0.525876 0.525876
0.605541 0.605541 0.605541
0.674659 0.674659 0.674659
0.735734 0.735734 0.735734
0.789938 0.789938 0.789938
0.834880 0.834880 0.834880
0.097688 0.097688 0.097688
0.324062 0.324062 0.324062
0.462008 0.462008 0.462008
0.564296 0.564296 0.564296
0.649646 0.649646 0.649646
0.722421 0.722421 0.722421
0.786560 0.786560 0.786560
0.838444 0.838444 0.838444
0.885057 0.885057 0.885057
0.097688 0.097688 0.097688
0.346404 0.346404 0.346404
0.491482 0.491482 0.491482
0.599838 0.599838 0.599838
0.689352 0.689352 0.689352
0.766378 0.766378 0.766378
0.828231 0.828231 0.828231
0.882863 0.882863 0.882863
0.914727 0.914727 0.914727
0.097688 0.097688 0.097688
0.097688 0.097688 0.097688
0.097688 0.097688 0.097688
0.097688 0.097688 0.097688
0.097688 0.097688 0.097688
0.097688 0.097688 0.097688
0.097688 0.097688 0.097688
0.097688 0.097688 0.097688
0.097688 0.097688 0.097688
0.097688 0.097688 0.097688
0.112041 0.112041 0.112041
0.164061 0.164061 0.164061
0.217367 0.217367 0.217367
0.259169 0.259169 0.259169
0.292448 0.292448 0.292448
0.321847 0.321847 0.321847
0.349507 0.349507 0.349507
0.374713 0.374713 0.374713
0.097688 0.097688 0.097688
0.158921 0.158921 0.158921
0.251905 0.251905 0.251905
0.313722 0.313722 0.313722
0.365736 0.365736 0.365736
0.410765 0.410765 0.410765
0.448679 0.448679 0.448679
0.484362 0.484362 0.484362
0.517450 0.517450 0.517450
0.097688 0.097688 0.097688
0.206481 0.206481 0.206481
0.309236 0.309236 0.309236
0.383428 0.383428 0.383428
0.442661 0.442661 0.442661
0.494517 0.494517 0.494517
0.540951 0.540951 0.540951
0.583423 0.583423 0.583423
0.622900 0.622900 0.622900
0.097688 0.097688 0.097688
0.244844 0.244844 0.244844
0.356975 0.356975 0.356975
0.438441 0.438441 0.438441
0.505749 0.505749 0.505749
0.564267 0.564267 0.564267
0.617033 0.617033 0.617033
0.664883 0.664883 0.664883
0.708537 0.708537 0.708537
0.097688 0.097688 0.097688
0.276665 0.276665 0.276665
0.397910 0.397910 0.397910
0.486176 0.486176 0.486176
0.560140 0.560140 0.560140
0.624905 0.624905 0.624905
0.682211 0.682211 0.682211
0.734063 0.734063 0.734063
0.781662 0.781662 0.781662
0.097688 0.097688 0.097688
0.301935 0.301935 0.301935
0.432715 0.432715 0.432715
0.528758 0.528758 0.528758
0.608859 0.608859 0.608859
0.678249 0.678249 0.678249
0.739633 0.739633 0.739633
0.793595 0.793595 0.793595
0.838745 0.838745 0.838745
0.097688 0.097688 0.097688
0.326054 0.326054 0.326054
0.464571 0.464571 0.464571
0.567388 0.567388 0.567388
0.653103 0.653103 0.653103
0.726249 0.726249 0.726249
0.790201 0.790201 0.790201
0.842326 0.842326 0.842326
0.887672 0.887672 0.887672
0.097688 0.097688 0.097688
0.348423 0.348423 0.348423
0.494209 0.494209 0.494209
0.603125 0.603125 0.603125
0.693021 0.693021 0.693021
0.770439 0.770439 0.770439
0.832065 0.832065 0.832065
0.885570 0.885570 0.885570
0.917429 0.917429 0.917429
0.097688 0.097688 0.097688
0.097688 0.097688 0.097688
0.097688 0.097688 0.097688
0.097688 0.097688 0.097688
0.097688 0.097688 0.097688
0.097688 0.097688 0.097688
0.097688 0.097688 0.097688
0.097688 0.097688 0.097688
0.097688 0.097688 0.097688
0.097688 0.097688 0.097688
0.112412 0.112412 0.112412
0.165124 0.165124 0.165124
0.218623 0.218623 0.218623
0.260666 0.260666 0.260666
0.293867 0.293867 0.293867
0.323519 0.323519 0.323519
0.351229 0.351229 0.351229
0.376559 0.376559 0.376559
0.097688 0.097688 0.097688
0.159945 0.159945 0.159945
0.253360 0.253360 0.253360
0.315352 0.315352 0.315352
0.367538 0.367538 0.367538
0.412624 0.412624 0.412624
0.450783 0.450783 0.450783
0.486634 0.486634 0.486634
0.519846 0.519846 0.519846
0.097688 0.097688 0.097688
0.207893 0.207893 0.207893
0.310738 0.310738 0.310738
0.385317 0.385317 0.385317
0.444737 0.444737 0.444737
0.496836 0.496836 0.496836
0.543456 0.543456 0.543456
0.586125 0.586125 0.586125
0.625784 0.625784 0.625784
0.097688 0.097688 0.097688
0.246259 0.246259 0.246259
0.358733 0.358733 0.358733
0.440497 0.440497 0.440497
0.508121 0.508121 0.508121
0.566880 0.566880 0.566880
0.619891 0.619891 0.619891
0.667874 0.667874 0.667874
0.711710 0.711710 0.711710
0.097688 0.097688 0.097688
0.278008 0.278008 0.278008
0.399871 0.399871 0.399871
0.488456 0.488456 0.488456
0.562735 0.562735 0.562735
0.627799 0.627799 0.627799
0.685280 0.685280 0.685280
0.737351 0.737351 0.737351
0.784721 0.784721 0.784721
0.097688 0.097688 0.097688
0.303401 0.303401 0.303401
0.434674 0.434674 0.434674
0.531207 0.531207 0.531207
0.611679 0.611679 0.611679
0.681300 0.681300 0.681300
0.742945 0.742945 0.742945
0.796700 0.796700 0.796700
0.842027 0.842027 0.842027
0.097688 0.097688 0.097688
0.327748 0.327748 0.327748
0.466750 0.466750 0.466750
0.570016 0.570016 0.570016
0.656041 0.656041 0.656041
0.729502 0.729502 0.729502
0.793293 0.793293 0.793293
0.845621 0.845621 0.845621
0.889889 0.889889 0.889889
0.097688 0.097688 0.097688
0.350140 0.350140 0.350140
0.496526 0.496526 0.496526
0.605919 0.605919 0.605919
0.696138 0.696138 0.696138
0.773889 0.773889 0.773889
0.835320 0.835320 0.835320
0.887781 0.887781 0.887781
0.919721 0.919721 0.919721
0.097688 0.097688 0.097688
0.097688 0.097688 0.097688
0.097688 0.097688 0.097688
0.097688 0.097688 0.097688
0.097688 0.097688 0.097688
0.097688 0.097688 0.097688
0.097688 0.097688 0.097688
0.097688 0.097688 0.097688
0.097688 0.097688 0.097688
0.097688 0.097688 0.097688
0.112735 0.112735 0.112735
0.166050 0.166050 0.166050
0.219717 0.219717 0.219717
0.261970 0.261970 0.261970
0.295103 0.295103 0.295103
0.324974 0.324974 0.324974
0.352727 0.352727 0.352727
0.378165 0.378165 0.378165
0.097688 0.097688 0.097688
0.160843 0.160843 0.160843
0.254628 0.254628 0.254628
0.316771 0.316771 0.316771
0.369106 0.369106 0.369106
0.414241 0.414241 0.414241
0.452613 0.452613 0.452613
0.488610 0.488610 0.488610
0.521931 0.521931 0.521931
0.097688 0.097688 0.097688
0.209124 0.209124 0.209124
0.312068 0.312068 0.312068
0.386960 0.386960 0.386960
0.446543 0.446543 0.446543
0.498853 0.498853 0.498853
0.545636 0.545636 0.545636
0.588475 0.588475 0.588475
0.628294 0.628294 0.628294
0.097688 0.097688 0.097688
0.247491 0.247491 0.247491
0.360264 0.360264 0.360264
0.442285 0.442285 0.442285
0.510167 0.510167 0.510167
0.569153 0.569153 0.569153
0.622377 0.622377 0.622377
0.670475 0.670475 0.670475
0.714470 0.714470 0.714470
0.097688 0.097688 0.097688
0.279177 0.279177 0.279177
0.401576 0.401576 0.401576
0.490439 0.490439 0.490439
0.564992 0.564992 0.564992
0.630317 0.630317 0.630317
0.687949 0.687949 0.687949
0.740210 0.740210 0.740210
0.787380 0.787380 0.787380
0.097688 0.097688 0.097688
0.304677 0.304677 0.304677
0.436378 0.436378 0.436378
0.533337 0.533337 0.533337
0.614132 0.614132 0.614132
0.683954 0.683954 0.683954
0.745826 0.745826 0.745826
0.799399 0.799399 0.799399
0.844880 0.844880 0.844880
0.097688 0.097688 0.097688
0.329223 0.329223 0.329223
0.468645 0.468645 0.468645
0.572302 0.572302 0.572302
0.658596 0.658596 0.658596
0.732331 0.732331 0.732331
0.795981 0.795981 0.795981
0.848487 0.848487 0.848487
0.891813 0.891813 0.891813
0.097688 0.097688 0.097688
0.351633 0.351633 0.351633
0.498543 0.498543 0.498543
0.608349 0.608349 0.608349
0.698849 0.698849 0.698849
0.776891 0.776891 0.776891
0.838151 0.838151 0.838151
0.889702 0.889702 0.889702
0.921710 0.921710 0.921710
