trix_classic/TriX_Orange21_ExtraPunchy.cube
TITLE "Tri-X Orange21 ExtraPunchy"
# Adobe RGB in/out. REPLACES AgX. Tri-X Orange21 ExtraPunchy.
LUT_3D_SIZE 9
DOMAIN_MIN 0.0 0.0 0.0
DOMAIN_MAX 1.0 1.0 1.0
0.092237 0.092237 0.092237
0.092237 0.092237 0.092237
0.093530 0.093530 0.093530
0.139739 0.139739 0.139739
0.321468 0.321468 0.321468
0.594229 0.594229 0.594229
0.816513 0.816513 0.816513
0.925741 0.925741 0.925741
0.959743 0.959743 0.959743
0.092237 0.092237 0.092237
0.092237 0.092237 0.092237
0.102305 0.102305 0.102305
0.179562 0.179562 0.179562
0.341932 0.341932 0.341932
0.598453 0.598453 0.598453
0.817555 0.817555 0.817555
0.925748 0.925748 0.925748
0.959744 0.959744 0.959744
0.092237 0.092237 0.092237
0.092764 0.092764 0.092764
0.117543 0.117543 0.117543
0.247644 0.247644 0.247644
0.419779 0.419779 0.419779
0.633134 0.633134 0.633134
0.823080 0.823080 0.823080
0.928010 0.928010 0.928010
0.959744 0.959744 0.959744
0.092803 0.092803 0.092803
0.096013 0.096013 0.096013
0.153109 0.153109 0.153109
0.293815 0.293815 0.293815
0.491026 0.491026 0.491026
0.699548 0.699548 0.699548
0.839042 0.839042 0.839042
0.925144 0.925144 0.925144
0.959749 0.959749 0.959749
0.100260 0.100260 0.100260
0.110719 0.110719 0.110719
0.197591 0.197591 0.197591
0.354504 0.354504 0.354504
0.550564 0.550564 0.550564
0.754610 0.754610 0.754610
0.867733 0.867733 0.867733
0.933530 0.933530 0.933530
0.973953 0.973953 0.973953
0.137622 0.137622 0.137622
0.159326 0.159326 0.159326
0.261505 0.261505 0.261505
0.421152 0.421152 0.421152
0.621911 0.621911 0.621911
0.797137 0.797137 0.797137
0.891958 0.891958 0.891958
0.944958 0.944958 0.944958
0.977594 0.977594 0.977594
0.219443 0.219443 0.219443
0.241623 0.241623 0.241623
0.341000 0.341000 0.341000
0.503611 0.503611 0.503611
0.693865 0.693865 0.693865
0.830008 0.830008 0.830008
0.911780 0.911780 0.911780
0.958059 0.958059 0.958059
0.979845 0.979845 0.979845
0.358050 0.358050 0.358050
0.370432 0.370432 0.370432
0.462944 0.462944 0.462944
0.611281 0.611281 0.611281
0.763758 0.763758 0.763758
0.863565 0.863565 0.863565
0.927159 0.927159 0.927159
0.966555 0.966555 0.966555
0.981533 0.981533 0.981533
0.385271 0.385271 0.385271
0.385287 0.385287 0.385287
0.668885 0.668885 0.668885
0.668892 0.668892 0.668892
0.828585 0.828585 0.828585
0.894774 0.894774 0.894774
0.941923 0.941923 0.941923
0.974100 0.974100 0.974100
0.983824 0.983824 0.983824
0.092237 0.092237 0.092237
0.092237 0.092237 0.092237
0.092505 0.092505 0.092505
0.121699 0.121699 0.121699
0.311153 0.311153 0.311153
0.592395 0.592395 0.592395
0.816097 0.816097 0.816097
0.925747 0.925747 0.925747
0.959744 0.959744 0.959744
0.092237 0.092237 0.092237
0.092317 0.092317 0.092317
0.095788 0.095788 0.095788
0.149159 0.149159 0.149159
0.327327 0.327327 0.327327
0.596109 0.596109 0.596109
0.817171 0.817171 0.817171
0.925757 0.925757 0.925757
0.959744 0.959744 0.959744
0.092237 0.092237 0.092237
0.092866 0.092866 0.092866
0.115296 0.115296 0.115296
0.232443 0.232443 0.232443
0.395608 0.395608 0.395608
0.625997 0.625997 0.625997
0.822855 0.822855 0.822855
0.928677 0.928677 0.928677
0.959744 0.959744 0.959744
0.093766 0.093766 0.093766
0.097498 0.097498 0.097498
0.152682 0.152682 0.152682
0.289456 0.289456 0.289456
0.480177 0.480177 0.480177
0.688218 0.688218 0.688218
0.837975 0.837975 0.837975
0.924997 0.924997 0.924997
0.959745 0.959745 0.959745
0.103567 0.103567 0.103567
0.116267 0.116267 0.116267
0.200429 0.200429 0.200429
0.351783 0.351783 0.351783
0.546063 0.546063 0.546063
0.749476 0.749476 0.749476
0.865144 0.865144 0.865144
0.933398 0.933398 0.933398
0.973918 0.973918 0.973918
0.145021 0.145021 0.145021
0.166671 0.166671 0.166671
0.265362 0.265362 0.265362
0.420591 0.420591 0.420591
0.619202 0.619202 0.619202
0.794974 0.794974 0.794974
0.890470 0.890470 0.890470
0.944627 0.944627 0.944627
0.977583 0.977583 0.977583
0.225818 0.225818 0.225818
0.247896 0.247896 0.247896
0.344929 0.344929 0.344929
0.504656 0.504656 0.504656
0.693123 0.693123 0.693123
0.829529 0.829529 0.829529
0.911256 0.911256 0.911256
0.957769 0.957769 0.957769
0.979864 0.979864 0.979864
0.358414 0.358414 0.358414
0.372036 0.372036 0.372036
0.465574 0.465574 0.465574
0.612535 0.612535 0.612535
0.763889 0.763889 0.763889
0.863587 0.863587 0.863587
0.927257 0.927257 0.927257
0.966438 0.966438 0.966438
0.981558 0.981558 0.981558
0.385280 0.385280 0.385280
0.385310 0.385310 0.385310
0.668886 0.668886 0.668886
0.668895 0.668895 0.668895
0.828906 0.828906 0.828906
0.895009 0.895009 0.895009
0.942201 0.942201 0.942201
0.974235 0.974235 0.974235
0.983839 0.983839 0.983839
0.092237 0.092237 0.092237
0.092237 0.092237 0.092237
0.092803 0.092803 0.092803
0.122092 0.122092 0.122092
0.304229 0.304229 0.304229
0.588064 0.588064 0.588064
0.814879 0.814879 0.814879
0.926981 0.926981 0.926981
0.959744 0.959744 0.959744
0.092237 0.092237 0.092237
0.092237 0.092237 0.092237
0.095453 0.095453 0.095453
0.141664 0.141664 0.141664
0.317173 0.317173 0.317173
0.591276 0.591276 0.591276
0.816023 0.816023 0.816023
0.927462 0.927462 0.927462
0.959744 0.959744 0.959744
0.092237 0.092237 0.092237
0.093215 0.093215 0.093215
0.128236 0.128236 0.128236
0.211974 0.211974 0.211974
0.370890 0.370890 0.370890
0.614217 0.614217 0.614217
0.821902 0.821902 0.821902
0.932497 0.932497 0.932497
0.959744 0.959744 0.959744
0.095354 0.095354 0.095354
0.100885 0.100885 0.100885
0.155054 0.155054 0.155054
0.283858 0.283858 0.283858
0.459430 0.459430 0.459430
0.666827 0.666827 0.666827
0.834856 0.834856 0.834856
0.924424 0.924424 0.924424
0.959744 0.959744 0.959744
0.114718 0.114718 0.114718
0.131775 0.131775 0.131775
0.210037 0.210037 0.210037
0.352165 0.352165 0.352165
0.539315 0.539315 0.539315
0.737547 0.737547 0.737547
0.857939 0.857939 0.857939
0.932665 0.932665 0.932665
0.973788 0.973788 0.973788
0.172412 0.172412 0.172412
0.192799 0.192799 0.192799
0.282420 0.282420 0.282420
0.426514 0.426514 0.426514
0.618702 0.618702 0.618702
0.790858 0.790858 0.790858
0.885989 0.885989 0.885989
0.943062 0.943062 0.943062
0.977536 0.977536 0.977536
0.256000 0.256000 0.256000
0.277471 0.277471 0.277471
0.364836 0.364836 0.364836
0.514479 0.514479 0.514479
0.695594 0.695594 0.695594
0.829627 0.829627 0.829627
0.909794 0.909794 0.909794
0.956518 0.956518 0.956518
0.979919 0.979919 0.979919
0.373976 0.373976 0.373976
0.392193 0.392193 0.392193
0.483862 0.483862 0.483862
0.622802 0.622802 0.622802
0.767077 0.767077 0.767077
0.864955 0.864955 0.864955
0.927897 0.927897 0.927897
0.965835 0.965835 0.965835
0.981621 0.981621 0.981621
0.385313 0.385313 0.385313
0.668878 0.668878 0.668878
0.668886 0.668886 0.668886
0.668964 0.668964 0.668964
0.831260 0.831260 0.831260
0.896248 0.896248 0.896248
0.943423 0.943423 0.943423
0.974700 0.974700 0.974700
0.983865 0.983865 0.983865
0.092237 0.092237 0.092237
0.092237 0.092237 0.092237
0.094464 0.094464 0.094464
0.130559 0.130559 0.130559
0.305363 0.305363 0.305363
0.583619 0.583619 0.583619
0.813591 0.813591 0.813591
0.918312 0.918312 0.918312
0.959744 0.959744 0.959744
0.092237 0.092237 0.092237
0.092237 0.092237 0.092237
0.098219 0.098219 0.098219
0.148158 0.148158 0.148158
0.317929 0.317929 0.317929
0.587884 0.587884 0.587884
0.814849 0.814849 0.814849
0.918309 0.918309 0.918309
0.959744 0.959744 0.959744
0.092482 0.092482 0.092482
0.093715 0.093715 0.093715
0.118406 0.118406 0.118406
0.207491 0.207491 0.207491
0.366051 0.366051 0.366051
0.611147 0.611147 0.611147
0.820952 0.820952 0.820952
0.918485 0.918485 0.918485
0.959744 0.959744 0.959744
0.096875 0.096875 0.096875
0.102948 0.102948 0.102948
0.157166 0.157166 0.157166
0.302165 0.302165 0.302165
0.446249 0.446249 0.446249
0.659358 0.659358 0.659358
0.833988 0.833988 0.833988
0.923973 0.923973 0.923973
0.959746 0.959746 0.959746
0.125302 0.125302 0.125302
0.142061 0.142061 0.142061
0.217648 0.217648 0.217648
0.353452 0.353452 0.353452
0.532957 0.532957 0.532957
0.728413 0.728413 0.728413
0.854990 0.854990 0.854990
0.932300 0.932300 0.932300
0.973580 0.973580 0.973580
0.190509 0.190509 0.190509
0.210549 0.210549 0.210549
0.294580 0.294580 0.294580
0.432244 0.432244 0.432244
0.618604 0.618604 0.618604
0.786194 0.786194 0.786194
0.882044 0.882044 0.882044
0.942422 0.942422 0.942422
0.977408 0.977408 0.977408
0.280624 0.280624 0.280624
0.300421 0.300421 0.300421
0.382296 0.382296 0.382296
0.524459 0.524459 0.524459
0.699705 0.699705 0.699705
0.829912 0.829912 0.829912
0.907866 0.907866 0.907866
0.955306 0.955306 0.955306
0.979946 0.979946 0.979946
0.396024 0.396024 0.396024
0.414621 0.414621 0.414621
0.501635 0.501635 0.501635
0.633990 0.633990 0.633990
0.771500 0.771500 0.771500
0.867114 0.867114 0.867114
0.928393 0.928393 0.928393
0.965160 0.965160 0.965160
0.981695 0.981695 0.981695
0.510171 0.510171 0.510171
0.668851 0.668851 0.668851
0.668885 0.668885 0.668885
0.755212 0.755212 0.755212
0.835700 0.835700 0.835700
0.898329 0.898329 0.898329
0.945305 0.945305 0.945305
0.975125 0.975125 0.975125
0.983928 0.983928 0.983928
0.092237 0.092237 0.092237
0.092237 0.092237 0.092237
0.097506 0.097506 0.097506
0.147513 0.147513 0.147513
0.309203 0.309203 0.309203
0.580119 0.580119 0.580119
0.812206 0.812206 0.812206
0.913794 0.913794 0.913794
0.959744 0.959744 0.959744
0.092237 0.092237 0.092237
0.092237 0.092237 0.092237
0.101692 0.101692 0.101692
0.163674 0.163674 0.163674
0.321614 0.321614 0.321614
0.585174 0.585174 0.585174
0.813633 0.813633 0.813633
0.914604 0.914604 0.914604
0.959744 0.959744 0.959744
0.092629 0.092629 0.092629
0.093876 0.093876 0.093876
0.121459 0.121459 0.121459
0.217032 0.217032 0.217032
0.366707 0.366707 0.366707
0.609760 0.609760 0.609760
0.820145 0.820145 0.820145
0.917791 0.917791 0.917791
0.959744 0.959744 0.959744
0.099045 0.099045 0.099045
0.105561 0.105561 0.105561
0.163610 0.163610 0.163610
0.287303 0.287303 0.287303
0.440885 0.440885 0.440885
0.656795 0.656795 0.656795
0.833281 0.833281 0.833281
0.923662 0.923662 0.923662
0.968392 0.968392 0.968392
0.132423 0.132423 0.132423
0.149882 0.149882 0.149882
0.222683 0.222683 0.222683
0.354267 0.354267 0.354267
0.545947 0.545947 0.545947
0.722855 0.722855 0.722855
0.853832 0.853832 0.853832
0.931959 0.931959 0.931959
0.973327 0.973327 0.973327
0.203852 0.203852 0.203852
0.223577 0.223577 0.223577
0.303831 0.303831 0.303831
0.437058 0.437058 0.437058
0.618740 0.618740 0.618740
0.782118 0.782118 0.782118
0.879937 0.879937 0.879937
0.942197 0.942197 0.942197
0.977215 0.977215 0.977215
0.297659 0.297659 0.297659
0.316806 0.316806 0.316806
0.395605 0.395605 0.395605
0.532859 0.532859 0.532859
0.703708 0.703708 0.703708
0.829984 0.829984 0.829984
0.906160 0.906160 0.906160
0.954731 0.954731 0.954731
0.979942 0.979942 0.979942
0.414445 0.414445 0.414445
0.432737 0.432737 0.432737
0.516103 0.516103 0.516103
0.643753 0.643753 0.643753
0.775837 0.775837 0.775837
0.869119 0.869119 0.869119
0.928655 0.928655 0.928655
0.964652 0.964652 0.964652
0.981769 0.981769 0.981769
0.550544 0.550544 0.550544
0.574442 0.574442 0.574442
0.630782 0.630782 0.630782
0.756792 0.756792 0.756792
0.838910 0.838910 0.838910
0.900457 0.900457 0.900457
0.946889 0.946889 0.946889
0.975400 0.975400 0.975400
0.984031 0.984031 0.984031
0.092237 0.092237 0.092237
0.092237 0.092237 0.092237
0.101375 0.101375 0.101375
0.163242 0.163242 0.163242
0.320740 0.320740 0.320740
0.578958 0.578958 0.578958
0.811295 0.811295 0.811295
0.912743 0.912743 0.912743
0.959744 0.959744 0.959744
0.092237 0.092237 0.092237
0.092237 0.092237 0.092237
0.104156 0.104156 0.104156
0.175892 0.175892 0.175892
0.331663 0.331663 0.331663
0.584697 0.584697 0.584697
0.812935 0.812935 0.812935
0.913755 0.913755 0.913755
0.959744 0.959744 0.959744
0.092769 0.092769 0.092769
0.093928 0.093928 0.093928
0.125433 0.125433 0.125433
0.225480 0.225480 0.225480
0.375958 0.375958 0.375958
0.609962 0.609962 0.609962
0.819917 0.819917 0.819917
0.917609 0.917609 0.917609
0.959744 0.959744 0.959744
0.100881 0.100881 0.100881
0.106985 0.106985 0.106985
0.168472 0.168472 0.168472
0.291305 0.291305 0.291305
0.446131 0.446131 0.446131
0.655996 0.655996 0.655996
0.833074 0.833074 0.833074
0.923570 0.923570 0.923570
0.969200 0.969200 0.969200
0.139538 0.139538 0.139538
0.156537 0.156537 0.156537
0.231265 0.231265 0.231265
0.360652 0.360652 0.360652
0.532096 0.532096 0.532096
0.719168 0.719168 0.719168
0.853264 0.853264 0.853264
0.931871 0.931871 0.931871
0.973149 0.973149 0.973149
0.212564 0.212564 0.212564
0.232055 0.232055 0.232055
0.309985 0.309985 0.309985
0.440385 0.440385 0.440385
0.618268 0.618268 0.618268
0.784665 0.784665 0.784665
0.878790 0.878790 0.878790
0.942126 0.942126 0.942126
0.977107 0.977107 0.977107
0.308827 0.308827 0.308827
0.327599 0.327599 0.327599
0.404569 0.404569 0.404569
0.538644 0.538644 0.538644
0.706251 0.706251 0.706251
0.829646 0.829646 0.829646
0.904805 0.904805 0.904805
0.954563 0.954563 0.954563
0.979939 0.979939 0.979939
0.426847 0.426847 0.426847
0.444950 0.444950 0.444950
0.526071 0.526071 0.526071
0.650561 0.650561 0.650561
0.779340 0.779340 0.779340
0.870635 0.870635 0.870635
0.928705 0.928705 0.928705
0.964349 0.964349 0.964349
0.981812 0.981812 0.981812
0.566158 0.566158 0.566158
0.587056 0.587056 0.587056
0.634559 0.634559 0.634559
0.762540 0.762540 0.762540
0.841805 0.841805 0.841805
0.902233 0.902233 0.902233
0.948136 0.948136 0.948136
0.975703 0.975703 0.975703
0.984087 0.984087 0.984087
0.092237 0.092237 0.092237
0.092237 0.092237 0.092237
0.101298 0.101298 0.101298
0.174670 0.174670 0.174670
0.331529 0.331529 0.331529
0.584605 0.584605 0.584605
0.812403 0.812403 0.812403
0.913149 0.913149 0.913149
0.959742 0.959742 0.959742
0.092237 0.092237 0.092237
0.092237 0.092237 0.092237
0.103705 0.103705 0.103705
0.185093 0.185093 0.185093
0.341128 0.341128 0.341128
0.590185 0.590185 0.590185
0.814034 0.814034 0.814034
0.914226 0.914226 0.914226
0.959741 0.959741 0.959741
0.092851 0.092851 0.092851
0.093941 0.093941 0.093941
0.122990 0.122990 0.122990
0.229050 0.229050 0.229050
0.381769 0.381769 0.381769
0.614831 0.614831 0.614831
0.820806 0.820806 0.820806
0.918024 0.918024 0.918024
0.959720 0.959720 0.959720
0.102279 0.102279 0.102279
0.108054 0.108054 0.108054
0.167948 0.167948 0.167948
0.293397 0.293397 0.293397
0.449459 0.449459 0.449459
0.659840 0.659840 0.659840
0.833773 0.833773 0.833773
0.923921 0.923921 0.923921
0.969425 0.969425 0.969425
0.145246 0.145246 0.145246
0.160745 0.160745 0.160745
0.233473 0.233473 0.233473
0.364278 0.364278 0.364278
0.534337 0.534337 0.534337
0.720901 0.720901 0.720901
0.853282 0.853282 0.853282
0.932085 0.932085 0.932085
0.973194 0.973194 0.973194
0.220539 0.220539 0.220539
0.238631 0.238631 0.238631
0.314420 0.314420 0.314420
0.446244 0.446244 0.446244
0.622877 0.622877 0.622877
0.779257 0.779257 0.779257
0.878061 0.878061 0.878061
0.942154 0.942154 0.942154
0.977150 0.977150 0.977150
0.314233 0.314233 0.314233
0.332878 0.332878 0.332878
0.409004 0.409004 0.409004
0.541569 0.541569 0.541569
0.707472 0.707472 0.707472
0.828940 0.828940 0.828940
0.903272 0.903272 0.903272
0.954487 0.954487 0.954487
0.979985 0.979985 0.979985
0.432319 0.432319 0.432319
0.450236 0.450236 0.450236
0.530845 0.530845 0.530845
0.654065 0.654065 0.654065
0.781340 0.781340 0.781340
0.871395 0.871395 0.871395
0.928561 0.928561 0.928561
0.964108 0.964108 0.964108
0.981866 0.981866 0.981866
0.564053 0.564053 0.564053
0.604759 0.604759 0.604759
0.655410 0.655410 0.655410
0.766400 0.766400 0.766400
0.843851 0.843851 0.843851
0.903307 0.903307 0.903307
0.948797 0.948797 0.948797
0.976018 0.976018 0.976018
0.984149 0.984149 0.984149
0.092237 0.092237 0.092237
0.092237 0.092237 0.092237
0.102949 0.102949 0.102949
0.178346 0.178346 0.178346
0.339185 0.339185 0.339185
0.597016 0.597016 0.597016
0.816168 0.816168 0.816168
0.916198 0.916198 0.916198
0.960639 0.960639 0.960639
0.092237 0.092237 0.092237
0.092334 0.092334 0.092334
0.105883 0.105883 0.105883
0.187277 0.187277 0.187277
0.347303 0.347303 0.347303
0.601908 0.601908 0.601908
0.817754 0.817754 0.817754
0.916942 0.916942 0.916942
0.960931 0.960931 0.960931
0.093662 0.093662 0.093662
0.094497 0.094497 0.094497
0.130180 0.130180 0.130180
0.230236 0.230236 0.230236
0.385476 0.385476 0.385476
0.625139 0.625139 0.625139
0.824668 0.824668 0.824668
0.920096 0.920096 0.920096
0.964118 0.964118 0.964118
0.104089 0.104089 0.104089
0.110146 0.110146 0.110146
0.176055 0.176055 0.176055
0.292648 0.292648 0.292648
0.446992 0.446992 0.446992
0.664181 0.664181 0.664181
0.837050 0.837050 0.837050
0.925744 0.925744 0.925744
0.970244 0.970244 0.970244
0.149827 0.149827 0.149827
0.163840 0.163840 0.163840
0.241047 0.241047 0.241047
0.366082 0.366082 0.366082
0.530739 0.530739 0.530739
0.720736 0.720736 0.720736
0.855561 0.855561 0.855561
0.933572 0.933572 0.933572
0.973891 0.973891 0.973891
0.224339 0.224339 0.224339
0.241125 0.241125 0.241125
0.320636 0.320636 0.320636
0.448905 0.448905 0.448905
0.622066 0.622066 0.622066
0.776816 0.776816 0.776816
0.878219 0.878219 0.878219
0.943252 0.943252 0.943252
0.977805 0.977805 0.977805
0.315713 0.315713 0.315713
0.333152 0.333152 0.333152
0.412567 0.412567 0.412567
0.542786 0.542786 0.542786
0.707791 0.707791 0.707791
0.827926 0.827926 0.827926
0.901877 0.901877 0.901877
0.954899 0.954899 0.954899
0.980178 0.980178 0.980178
0.430114 0.430114 0.430114
0.447606 0.447606 0.447606
0.529815 0.529815 0.529815
0.653633 0.653633 0.653633
0.781127 0.781127 0.781127
0.871229 0.871229 0.871229
0.927999 0.927999 0.927999
0.962840 0.962840 0.962840
0.981987 0.981987 0.981987
0.542357 0.542357 0.542357
0.653480 0.653480 0.653480
0.667954 0.667954 0.667954
0.768785 0.768785 0.768785
0.844911 0.844911 0.844911
0.903526 0.903526 0.903526
0.948697 0.948697 0.948697
0.976276 0.976276 0.976276
0.984218 0.984218 0.984218
0.092545 0.092545 0.092545
0.092688 0.092688 0.092688
0.094977 0.094977 0.094977
0.146432 0.146432 0.146432
0.353562 0.353562 0.353562
0.639058 0.639058 0.639058
0.827376 0.827376 0.827376
0.918926 0.918926 0.918926
0.959744 0.959744 0.959744
0.092704 0.092704 0.092704
0.092843 0.092843 0.092843
0.096204 0.096204 0.096204
0.152924 0.152924 0.152924
0.357943 0.357943 0.357943
0.641822 0.641822 0.641822
0.828602 0.828602 0.828602
0.919274 0.919274 0.919274
0.959744 0.959744 0.959744
0.094981 0.094981 0.094981
0.096139 0.096139 0.096139
0.106293 0.106293 0.106293
0.185796 0.185796 0.185796
0.381145 0.381145 0.381145
0.654529 0.654529 0.654529
0.834335 0.834335 0.834335
0.921557 0.921557 0.921557
0.959747 0.959747 0.959747
0.113876 0.113876 0.113876
0.119710 0.119710 0.119710
0.155332 0.155332 0.155332
0.252462 0.252462 0.252462
0.429943 0.429943 0.429943
0.681561 0.681561 0.681561
0.845832 0.845832 0.845832
0.927478 0.927478 0.927478
0.972444 0.972444 0.972444
0.167282 0.167282 0.167282
0.177604 0.177604 0.177604
0.229297 0.229297 0.229297
0.334372 0.334372 0.334372
0.497748 0.497748 0.497748
0.721385 0.721385 0.721385
0.861507 0.861507 0.861507
0.935490 0.935490 0.935490
0.977723 0.977723 0.977723
0.235911 0.235911 0.235911
0.249702 0.249702 0.249702
0.313662 0.313662 0.313662
0.429090 0.429090 0.429090
0.581625 0.581625 0.581625
0.760950 0.760950 0.760950
0.878729 0.878729 0.878729
0.944491 0.944491 0.944491
0.980090 0.980090 0.980090
0.316551 0.316551 0.316551
0.331801 0.331801 0.331801
0.402504 0.402504 0.402504
0.534140 0.534140 0.534140
0.683280 0.683280 0.683280
0.809762 0.809762 0.809762
0.895942 0.895942 0.895942
0.954531 0.954531 0.954531
0.981568 0.981568 0.981568
0.416201 0.416201 0.416201
0.431260 0.431260 0.431260
0.504762 0.504762 0.504762
0.641184 0.641184 0.641184
0.773234 0.773234 0.773234
0.859744 0.859744 0.859744
0.918626 0.918626 0.918626
0.961740 0.961740 0.961740
0.982988 0.982988 0.982988
0.504489 0.504489 0.504489
0.668885 0.668885 0.668885
0.668887 0.668887 0.668887
0.698665 0.698665 0.698665
0.844044 0.844044 0.844044
0.902430 0.902430 0.902430
0.947761 0.947761 0.947761
0.975370 0.975370 0.975370
0.984304 0.984304 0.984304
