trix_classic/TriX_Orange21_Hard.cube
TITLE "Tri-X Orange21 Hard"
# Adobe RGB in/out. REPLACES AgX. R=0.7239 G=0.2761 B=0.0000
LUT_3D_SIZE 9
DOMAIN_MIN 0.0 0.0 0.0
DOMAIN_MAX 1.0 1.0 1.0
0.093288 0.093288 0.093288
0.093288 0.093288 0.093288
0.093288 0.093288 0.093288
0.093288 0.093288 0.093288
0.093288 0.093288 0.093288
0.093288 0.093288 0.093288
0.093288 0.093288 0.093288
0.093288 0.093288 0.093288
0.093288 0.093288 0.093288
0.093288 0.093288 0.093288
0.093403 0.093403 0.093403
0.095726 0.095726 0.095726
0.108874 0.108874 0.108874
0.175950 0.175950 0.175950
0.294935 0.294935 0.294935
0.455093 0.455093 0.455093
0.627142 0.627142 0.627142
0.778421 0.778421 0.778421
0.093288 0.093288 0.093288
0.093652 0.093652 0.093652
0.100098 0.100098 0.100098
0.167175 0.167175 0.167175
0.325749 0.325749 0.325749
0.540003 0.540003 0.540003
0.757447 0.757447 0.757447
0.877293 0.877293 0.877293
0.946420 0.946420 0.946420
0.093288 0.093288 0.093288
0.093926 0.093926 0.093926
0.110482 0.110482 0.110482
0.237605 0.237605 0.237605
0.468080 0.468080 0.468080
0.725841 0.725841 0.725841
0.877564 0.877564 0.877564
0.953314 0.953314 0.953314
0.981504 0.981504 0.981504
0.093288 0.093288 0.093288
0.094476 0.094476 0.094476
0.128686 0.128686 0.128686
0.307914 0.307914 0.307914
0.588577 0.588577 0.588577
0.826405 0.826405 0.826405
0.935810 0.935810 0.935810
0.977957 0.977957 0.977957
0.989869 0.989869 0.989869
0.093288 0.093288 0.093288
0.094975 0.094975 0.094975
0.149440 0.149440 0.149440
0.378074 0.378074 0.378074
0.690303 0.690303 0.690303
0.884667 0.884667 0.884667
0.965423 0.965423 0.965423
0.986602 0.986602 0.986602
0.993736 0.993736 0.993736
0.093288 0.093288 0.093288
0.095627 0.095627 0.095627
0.172196 0.172196 0.172196
0.445856 0.445856 0.445856
0.769509 0.769509 0.769509
0.923376 0.923376 0.923376
0.978028 0.978028 0.978028
0.991295 0.991295 0.991295
0.995865 0.995865 0.995865
0.093288 0.093288 0.093288
0.096218 0.096218 0.096218
0.196312 0.196312 0.196312
0.503961 0.503961 0.503961
0.819653 0.819653 0.819653
0.949373 0.949373 0.949373
0.984864 0.984864 0.984864
0.993576 0.993576 0.993576
0.997668 0.997668 0.997668
0.093288 0.093288 0.093288
0.096759 0.096759 0.096759
0.220914 0.220914 0.220914
0.560540 0.560540 0.560540
0.855621 0.855621 0.855621
0.964500 0.964500 0.964500
0.988293 0.988293 0.988293
0.995135 0.995135 0.995135
0.998062 0.998062 0.998062
0.093288 0.093288 0.093288
0.093288 0.093288 0.093288
0.093288 0.093288 0.093288
0.093288 0.093288 0.093288
0.093288 0.093288 0.093288
0.093288 0.093288 0.093288
0.093288 0.093288 0.093288
0.093288 0.093288 0.093288
0.093288 0.093288 0.093288
0.093288 0.093288 0.093288
0.093403 0.093403 0.093403
0.095726 0.095726 0.095726
0.108874 0.108874 0.108874
0.175950 0.175950 0.175950
0.294935 0.294935 0.294935
0.455093 0.455093 0.455093
0.627142 0.627142 0.627142
0.778421 0.778421 0.778421
0.093288 0.093288 0.093288
0.093652 0.093652 0.093652
0.100098 0.100098 0.100098
0.167175 0.167175 0.167175
0.325749 0.325749 0.325749
0.540003 0.540003 0.540003
0.757447 0.757447 0.757447
0.877293 0.877293 0.877293
0.946420 0.946420 0.946420
0.093288 0.093288 0.093288
0.093926 0.093926 0.093926
0.110482 0.110482 0.110482
0.237605 0.237605 0.237605
0.468080 0.468080 0.468080
0.725841 0.725841 0.725841
0.877564 0.877564 0.877564
0.953314 0.953314 0.953314
0.981504 0.981504 0.981504
0.093288 0.093288 0.093288
0.094476 0.094476 0.094476
0.128686 0.128686 0.128686
0.307914 0.307914 0.307914
0.588577 0.588577 0.588577
0.826405 0.826405 0.826405
0.935810 0.935810 0.935810
0.977957 0.977957 0.977957
0.989869 0.989869 0.989869
0.093288 0.093288 0.093288
0.094975 0.094975 0.094975
0.149440 0.149440 0.149440
0.378074 0.378074 0.378074
0.690303 0.690303 0.690303
0.884667 0.884667 0.884667
0.965423 0.965423 0.965423
0.986602 0.986602 0.986602
0.993736 0.993736 0.993736
0.093288 0.093288 0.093288
0.095627 0.095627 0.095627
0.172196 0.172196 0.172196
0.445856 0.445856 0.445856
0.769509 0.769509 0.769509
0.923376 0.923376 0.923376
0.978028 0.978028 0.978028
0.991295 0.991295 0.991295
0.995865 0.995865 0.995865
0.093288 0.093288 0.093288
0.096218 0.096218 0.096218
0.196312 0.196312 0.196312
0.503961 0.503961 0.503961
0.819653 0.819653 0.819653
0.949373 0.949373 0.949373
0.984864 0.984864 0.984864
0.993576 0.993576 0.993576
0.997668 0.997668 0.997668
0.093288 0.093288 0.093288
0.096759 0.096759 0.096759
0.220914 0.220914 0.220914
0.560540 0.560540 0.560540
0.855621 0.855621 0.855621
0.964500 0.964500 0.964500
0.988293 0.988293 0.988293
0.995135 0.995135 0.995135
0.998062 0.998062 0.998062
0.093288 0.093288 0.093288
0.093288 0.093288 0.093288
0.093288 0.093288 0.093288
0.093288 0.093288 0.093288
0.093288 0.093288 0.093288
0.093288 0.093288 0.093288
0.093288 0.093288 0.093288
0.093288 0.093288 0.093288
0.093288 0.093288 0.093288
0.093288 0.093288 0.093288
0.093403 0.093403 0.093403
0.095726 0.095726 0.095726
0.108874 0.108874 0.108874
0.175950 0.175950 0.175950
0.294935 0.294935 0.294935
0.455093 0.455093 0.455093
0.627142 0.627142 0.627142
0.778421 0.778421 0.778421
0.093288 0.093288 0.093288
0.093652 0.093652 0.093652
0.100098 0.100098 0.100098
0.167175 0.167175 0.167175
0.325749 0.325749 0.325749
0.540003 0.540003 0.540003
0.757447 0.757447 0.757447
0.877293 0.877293 0.877293
0.946420 0.946420 0.946420
0.093288 0.093288 0.093288
0.093926 0.093926 0.093926
0.110482 0.110482 0.110482
0.237605 0.237605 0.237605
0.468080 0.468080 0.468080
0.725841 0.725841 0.725841
0.877564 0.877564 0.877564
0.953314 0.953314 0.953314
0.981504 0.981504 0.981504
0.093288 0.093288 0.093288
0.094476 0.094476 0.094476
0.128686 0.128686 0.128686
0.307914 0.307914 0.307914
0.588577 0.588577 0.588577
0.826405 0.826405 0.826405
0.935810 0.935810 0.935810
0.977957 0.977957 0.977957
0.989869 0.989869 0.989869
0.093288 0.093288 0.093288
0.094975 0.094975 0.094975
0.149440 0.149440 0.149440
0.378074 0.378074 0.378074
0.690303 0.690303 0.690303
0.884667 0.884667 0.884667
0.965423 0.965423 0.965423
0.986602 0.986602 0.986602
0.993736 0.993736 0.993736
0.093288 0.093288 0.093288
0.095627 0.095627 0.095627
0.172196 0.172196 0.172196
0.445856 0.445856 0.445856
0.769509 0.769509 0.769509
0.923376 0.923376 0.923376
0.978028 0.978028 0.978028
0.991295 0.991295 0.991295
0.995865 0.995865 0.995865
0.093288 0.093288 0.093288
0.096218 0.096218 0.096218
0.196312 0.196312 0.196312
0.503961 0.503961 0.503961
0.819653 0.819653 0.819653
0.949373 0.949373 0.949373
0.984864 0.984864 0.984864
0.993576 0.993576 0.993576
0.997668 0.997668 0.997668
0.093288 0.093288 0.093288
0.096759 0.096759 0.096759
0.220914 0.220914 0.220914
0.560540 0.560540 0.560540
0.855621 0.855621 0.855621
0.964500 0.964500 0.964500
0.988293 0.988293 0.988293
0.995135 0.995135 0.995135
0.998062 0.998062 0.998062
0.093288 0.093288 0.093288
0.093288 0.093288 0.093288
0.093288 0.093288 0.093288
0.093288 0.093288 0.093288
0.093288 0.093288 0.093288
0.093288 0.093288 0.093288
0.093288 0.093288 0.093288
0.093288 0.093288 0.093288
0.093288 0.093288 0.093288
0.093288 0.093288 0.093288
0.093403 0.093403 0.093403
0.095726 0.095726 0.095726
0.108874 0.108874 0.108874
0.175950 0.175950 0.175950
0.294935 0.294935 0.294935
0.455093 0.455093 0.455093
0.627142 0.627142 0.627142
0.778421 0.778421 0.778421
0.093288 0.093288 0.093288
0.093652 0.093652 0.093652
0.100098 0.100098 0.100098
0.167175 0.167175 0.167175
0.325749 0.325749 0.325749
0.540003 0.540003 0.540003
0.757447 0.757447 0.757447
0.877293 0.877293 0.877293
0.946420 0.946420 0.946420
0.093288 0.093288 0.093288
0.093926 0.093926 0.093926
0.110482 0.110482 0.110482
0.237605 0.237605 0.237605
0.468080 0.468080 0.468080
0.725841 0.725841 0.725841
0.877564 0.877564 0.877564
0.953314 0.953314 0.953314
0.981504 0.981504 0.981504
0.093288 0.093288 0.093288
0.094476 0.094476 0.094476
0.128686 0.128686 0.128686
0.307914 0.307914 0.307914
0.588577 0.588577 0.588577
0.826405 0.826405 0.826405
0.935810 0.935810 0.935810
0.977957 0.977957 0.977957
0.989869 0.989869 0.989869
0.093288 0.093288 0.093288
0.094975 0.094975 0.094975
0.149440 0.149440 0.149440
0.378074 0.378074 0.378074
0.690303 0.690303 0.690303
0.884667 0.884667 0.884667
0.965423 0.965423 0.965423
0.986602 0.986602 0.986602
0.993736 0.993736 0.993736
0.093288 0.093288 0.093288
0.095627 0.095627 0.095627
0.172196 0.172196 0.172196
0.445856 0.445856 0.445856
0.769509 0.769509 0.769509
0.923376 0.923376 0.923376
0.978028 0.978028 0.978028
0.991295 0.991295 0.991295
0.995865 0.995865 0.995865
0.093288 0.093288 0.093288
0.096218 0.096218 0.096218
0.196312 0.196312 0.196312
0.503961 0.503961 0.503961
0.819653 0.819653 0.819653
0.949373 0.949373 0.949373
0.984864 0.984864 0.984864
0.993576 0.993576 0.993576
0.997668 0.997668 0.997668
0.093288 0.093288 0.093288
0.096759 0.096759 0.096759
0.220914 0.220914 0.220914
0.560540 0.560540 0.560540
0.855621 0.855621 0.855621
0.964500 0.964500 0.964500
0.988293 0.988293 0.988293
0.995135 0.995135 0.995135
0.998062 0.998062 0.998062
0.093288 0.093288 0.093288
0.093288 0.093288 0.093288
0.093288 0.093288 0.093288
0.093288 0.093288 0.093288
0.093288 0.093288 0.093288
0.093288 0.093288 0.093288
0.093288 0.093288 0.093288
0.093288 0.093288 0.093288
0.093288 0.093288 0.093288
0.093288 0.093288 0.093288
0.093403 0.093403 0.093403
0.095726 0.095726 0.095726
0.108874 0.108874 0.108874
0.175950 0.175950 0.175950
0.294935 0.294935 0.294935
0.455093 0.455093 0.455093
0.627142 0.627142 0.627142
0.778421 0.778421 0.778421
0.093288 0.093288 0.093288
0.093652 0.093652 0.093652
0.100098 0.100098 0.100098
0.167175 0.167175 0.167175
0.325749 0.325749 0.325749
0.540003 0.540003 0.540003
0.757447 0.757447 0.757447
0.877293 0.877293 0.877293
0.946420 0.946420 0.946420
0.093288 0.093288 0.093288
0.093926 0.093926 0.093926
0.110482 0.110482 0.110482
0.237605 0.237605 0.237605
0.468080 0.468080 0.468080
0.725841 0.725841 0.725841
0.877564 0.877564 0.877564
0.953314 0.953314 0.953314
0.981504 0.981504 0.981504
0.093288 0.093288 0.093288
0.094476 0.094476 0.094476
0.128686 0.128686 0.128686
0.307914 0.307914 0.307914
0.588577 0.588577 0.588577
0.826405 0.826405 0.826405
0.935810 0.935810 0.935810
0.977957 0.977957 0.977957
0.989869 0.989869 0.989869
0.093288 0.093288 0.093288
0.094975 0.094975 0.094975
0.149440 0.149440 0.149440
0.378074 0.378074 0.378074
0.690303 0.690303 0.690303
0.884667 0.884667 0.884667
0.965423 0.965423 0.965423
0.986602 0.986602 0.986602
0.993736 0.993736 0.993736
0.093288 0.093288 0.093288
0.095627 0.095627 0.095627
0.172196 0.172196 0.172196
0.445856 0.445856 0.445856
0.769509 0.769509 0.769509
0.923376 0.923376 0.923376
0.978028 0.978028 0.978028
0.991295 0.991295 0.991295
0.995865 0.995865 0.995865
0.093288 0.093288 0.093288
0.096218 0.096218 0.096218
0.196312 0.196312 0.196312
0.503961 0.503961 0.503961
0.819653 0.819653 0.819653
0.949373 0.949373 0.949373
0.984864 0.984864 0.984864
0.993576 0.993576 0.993576
0.997668 0.997668 0.997668
0.093288 0.093288 0.093288
0.096759 0.096759 0.096759
0.220914 0.220914 0.220914
0.560540 0.560540 0.560540
0.855621 0.855621 0.855621
0.964500 0.964500 0.964500
0.988293 0.988293 0.988293
0.995135 0.995135 0.995135
0.998062 0.998062 0.998062
0.093288 0.093288 0.093288
0.093288 0.093288 0.093288
0.093288 0.093288 0.093288
0.093288 0.093288 0.093288
0.093288 0.093288 0.093288
0.093288 0.093288 0.093288
0.093288 0.093288 0.093288
0.093288 0.093288 0.093288
0.093288 0.093288 0.093288
0.093288 0.093288 0.093288
0.093403 0.093403 0.093403
0.095726 0.095726 0.095726
0.108874 0.108874 0.108874
0.175950 0.175950 0.175950
0.294935 0.294935 0.294935
0.455093 0.455093 0.455093
0.627142 0.627142 0.627142
0.778421 0.778421 0.778421
0.093288 0.093288 0.093288
0.093652 0.093652 0.093652
0.100098 0.100098 0.100098
0.167175 0.167175 0.167175
0.325749 0.325749 0.325749
0.540003 0.540003 0.540003
0.757447 0.757447 0.757447
0.877293 0.877293 0.877293
0.946420 0.946420 0.946420
0.093288 0.093288 0.093288
0.093926 0.093926 0.093926
0.110482 0.110482 0.110482
0.237605 0.237605 0.237605
0.468080 0.468080 0.468080
0.725841 0.725841 0.725841
0.877564 0.877564 0.877564
0.953314 0.953314 0.953314
0.981504 0.981504 0.981504
0.093288 0.093288 0.093288
0.094476 0.094476 0.094476
0.128686 0.128686 0.128686
0.307914 0.307914 0.307914
0.588577 0.588577 0.588577
0.826405 0.826405 0.826405
0.935810 0.935810 0.935810
0.977957 0.977957 0.977957
0.989869 0.989869 0.989869
0.093288 0.093288 0.093288
0.094975 0.094975 0.094975
0.149440 0.149440 0.149440
0.378074 0.378074 0.378074
0.690303 0.690303 0.690303
0.884667 0.884667 0.884667
0.965423 0.965423 0.965423
0.986602 0.986602 0.986602
0.993736 0.993736 0.993736
0.093288 0.093288 0.093288
0.095627 0.095627 0.095627
0.172196 0.172196 0.172196
0.445856 0.445856 0.445856
0.769509 0.769509 0.769509
0.923376 0.923376 0.923376
0.978028 0.978028 0.978028
0.991295 0.991295 0.991295
0.995865 0.995865 0.995865
0.093288 0.093288 0.093288
0.096218 0.096218 0.096218
0.196312 0.196312 0.196312
0.503961 0.503961 0.503961
0.819653 0.819653 0.819653
0.949373 0.949373 0.949373
0.984864 0.984864 0.984864
0.993576 0.993576 0.993576
0.997668 0.997668 0.997668
0.093288 0.093288 0.093288
0.096759 0.096759 0.096759
0.220914 0.220914 0.220914
0.560540 0.560540 0.560540
0.855621 0.855621 0.855621
0.964500 0.964500 0.964500
0.988293 0.988293 0.988293
0.995135 0.995135 0.995135
0.998062 0.998062 0.998062
0.093288 0.093288 0.093288
0.093288 0.093288 0.093288
0.093288 0.093288 0.093288
0.093288 0.093288 0.093288
0.093288 0.093288 0.093288
0.093288 0.093288 0.093288
0.093288 0.093288 0.093288
0.093288 0.093288 0.093288
0.093288 0.093288 0.093288
0.093288 0.093288 0.093288
0.093403 0.093403 0.093403
0.095726 0.095726 0.095726
0.108874 0.108874 0.108874
0.175950 0.175950 0.175950
0.294935 0.294935 0.294935
0.455093 0.455093 0.455093
0.627142 0.627142 0.627142
0.778421 0.778421 0.778421
0.093288 0.093288 0.093288
0.093652 0.093652 0.093652
0.100098 0.100098 0.100098
0.167175 0.167175 0.167175
0.325749 0.325749 0.325749
0.540003 0.540003 0.540003
0.757447 0.757447 0.757447
0.877293 0.877293 0.877293
0.946420 0.946420 0.946420
0.093288 0.093288 0.093288
0.093926 0.093926 0.093926
0.110482 0.110482 0.110482
0.237605 0.237605 0.237605
0.468080 0.468080 0.468080
0.725841 0.725841 0.725841
0.877564 0.877564 0.877564
0.953314 0.953314 0.953314
0.981504 0.981504 0.981504
0.093288 0.093288 0.093288
0.094476 0.094476 0.094476
0.128686 0.128686 0.128686
0.307914 0.307914 0.307914
0.588577 0.588577 0.588577
0.826405 0.826405 0.826405
0.935810 0.935810 0.935810
0.977957 0.977957 0.977957
0.989869 0.989869 0.989869
0.093288 0.093288 0.093288
0.094975 0.094975 0.094975
0.149440 0.149440 0.149440
0.378074 0.378074 0.378074
0.690303 0.690303 0.690303
0.884667 0.884667 0.884667
0.965423 0.965423 0.965423
0.986602 0.986602 0.986602
0.993736 0.993736 0.993736
0.093288 0.093288 0.093288
0.095627 0.095627 0.095627
0.172196 0.172196 0.172196
0.445856 0.445856 0.445856
0.769509 0.769509 0.769509
0.923376 0.923376 0.923376
0.978028 0.978028 0.978028
0.991295 0.991295 0.991295
0.995865 0.995865 0.995865
0.093288 0.093288 0.093288
0.096218 0.096218 0.096218
0.196312 0.196312 0.196312
0.503961 0.503961 0.503961
0.819653 0.819653 0.819653
0.949373 0.949373 0.949373
0.984864 0.984864 0.984864
0.993576 0.993576 0.993576
0.997668 0.997668 0.997668
0.093288 0.093288 0.093288
0.096759 0.096759 0.096759
0.220914 0.220914 0.220914
0.560540 0.560540 0.560540
0.855621 0.855621 0.855621
0.964500 0.964500 0.964500
0.988293 0.988293 0.988293
0.995135 0.995135 0.995135
0.998062 0.998062 0.998062
0.093288 0.093288 0.093288
0.093288 0.093288 0.093288
0.093288 0.093288 0.093288
0.093288 0.093288 0.093288
0.093288 0.093288 0.093288
0.093288 0.093288 0.093288
0.093288 0.093288 0.093288
0.093288 0.093288 0.093288
0.093288 0.093288 0.093288
0.093288 0.093288 0.093288
0.093403 0.093403 0.093403
0.095726 0.095726 0.095726
0.108874 0.108874 0.108874
0.175950 0.175950 0.175950
0.294935 0.294935 0.294935
0.455093 0.455093 0.455093
0.627142 0.627142 0.627142
0.778421 0.778421 0.778421
0.093288 0.093288 0.093288
0.093652 0.093652 0.093652
0.100098 0.100098 0.100098
0.167175 0.167175 0.167175
0.325749 0.325749 0.325749
0.540003 0.540003 0.540003
0.757447 0.757447 0.757447
0.877293 0.877293 0.877293
0.946420 0.946420 0.946420
0.093288 0.093288 0.093288
0.093926 0.093926 0.093926
0.110482 0.110482 0.110482
0.237605 0.237605 0.237605
0.468080 0.468080 0.468080
0.725841 0.725841 0.725841
0.877564 0.877564 0.877564
0.953314 0.953314 0.953314
0.981504 0.981504 0.981504
0.093288 0.093288 0.093288
0.094476 0.094476 0.094476
0.128686 0.128686 0.128686
0.307914 0.307914 0.307914
0.588577 0.588577 0.588577
0.826405 0.826405 0.826405
0.935810 0.935810 0.935810
0.977957 0.977957 0.977957
0.989869 0.989869 0.989869
0.093288 0.093288 0.093288
0.094975 0.094975 0.094975
0.149440 0.149440 0.149440
0.378074 0.378074 0.378074
0.690303 0.690303 0.690303
0.884667 0.884667 0.884667
0.965423 0.965423 0.965423
0.986602 0.986602 0.986602
0.993736 0.993736 0.993736
0.093288 0.093288 0.093288
0.095627 0.095627 0.095627
0.172196 0.172196 0.172196
0.445856 0.445856 0.445856
0.769509 0.769509 0.769509
0.923376 0.923376 0.923376
0.978028 0.978028 0.978028
0.991295 0.991295 0.991295
0.995865 0.995865 0.995865
0.093288 0.093288 0.093288
0.096218 0.096218 0.096218
0.196312 0.196312 0.196312
0.503961 0.503961 0.503961
0.819653 0.819653 0.819653
0.949373 0.949373 0.949373
0.984864 0.984864 0.984864
0.993576 0.993576 0.993576
0.997668 0.997668 0.997668
0.093288 0.093288 0.093288
0.096759 0.096759 0.096759
0.220914 0.220914 0.220914
0.560540 0.560540 0.560540
0.855621 0.855621 0.855621
0.964500 0.964500 0.964500
0.988293 0.988293 0.988293
0.995135 0.995135 0.995135
0.998062 0.998062 0.998062
0.093288 0.093288 0.093288
0.093288 0.093288 0.093288
0.093288 0.093288 0.093288
0.093288 0.093288 0.093288
0.093288 0.093288 0.093288
0.093288 0.093288 0.093288
0.093288 0.093288 0.093288
0.093288 0.093288 0.093288
0.093288 0.093288 0.093288
0.093288 0.093288 0.093288
0.093403 0.093403 0.093403
0.095726 0.095726 0.095726
0.108874 0.108874 0.108874
0.175950 0.175950 0.175950
0.294935 0.294935 0.294935
0.455093 0.455093 0.455093
0.627142 0.627142 0.627142
0.778421 0.778421 0.778421
0.093288 0.093288 0.093288
0.093652 0.093652 0.093652
0.100098 0.100098 0.100098
0.167175 0.167175 0.167175
0.325749 0.325749 0.325749
0.540003 0.540003 0.540003
0.757447 0.757447 0.757447
0.877293 0.877293 0.877293
0.946420 0.946420 0.946420
0.093288 0.093288 0.093288
0.093926 0.093926 0.093926
0.110482 0.110482 0.110482
0.237605 0.237605 0.237605
0.468080 0.468080 0.468080
0.725841 0.725841 0.725841
0.877564 0.877564 0.877564
0.953314 0.953314 0.953314
0.981504 0.981504 0.981504
0.093288 0.093288 0.093288
0.094476 0.094476 0.094476
0.128686 0.128686 0.128686
0.307914 0.307914 0.307914
0.588577 0.588577 0.588577
0.826405 0.826405 0.826405
0.935810 0.935810 0.935810
0.977957 0.977957 0.977957
0.989869 0.989869 0.989869
0.093288 0.093288 0.093288
0.094975 0.094975 0.094975
0.149440 0.149440 0.149440
0.378074 0.378074 0.378074
0.690303 0.690303 0.690303
0.884667 0.884667 0.884667
0.965423 0.965423 0.965423
0.986602 0.986602 0.986602
0.993736 0.993736 0.993736
0.093288 0.093288 0.093288
0.095627 0.095627 0.095627
0.172196 0.172196 0.172196
0.445856 0.445856 0.445856
0.769509 0.769509 0.769509
0.923376 0.923376 0.923376
0.978028 0.978028 0.978028
0.991295 0.991295 0.991295
0.995865 0.995865 0.995865
0.093288 0.093288 0.093288
0.096218 0.096218 0.096218
0.196312 0.196312 0.196312
0.503961 0.503961 0.503961
0.819653 0.819653 0.819653
0.949373 0.949373 0.949373
0.984864 0.984864 0.984864
0.993576 0.993576 0.993576
0.997668 0.997668 0.997668
0.093288 0.093288 0.093288
0.096759 0.096759 0.096759
0.220914 0.220914 0.220914
0.560540 0.560540 0.560540
0.855621 0.855621 0.855621
0.964500 0.964500 0.964500
0.988293 0.988293 0.988293
0.995135 0.995135 0.995135
0.998062 0.998062 0.998062
