trix_classic/TriX_Yellow8_Normal.cube
TITLE "Tri-X Yellow8 Normal"
# Adobe RGB in/out. REPLACES AgX. R=0.5015 G=0.4679 B=0.0307
LUT_3D_SIZE 5
DOMAIN_MIN 0.0 0.0 0.0
DOMAIN_MAX 1.0 1.0 1.0
0.095875 0.095875 0.095875
0.095875 0.095875 0.095875
0.095875 0.095875 0.095875
0.095875 0.095875 0.095875
0.095875 0.095875 0.095875
0.095875 0.095875 0.095875
0.095875 0.095875 0.095875
0.095875 0.095875 0.095875
0.095875 0.095875 0.095875
0.095875 0.095875 0.095875
0.095875 0.095875 0.095875
0.095875 0.095875 0.095875
0.095875 0.095875 0.095875
0.095875 0.095875 0.095875
0.095875 0.095875 0.095875
0.095875 0.095875 0.095875
0.095875 0.095875 0.095875
0.095875 0.095875 0.095875
0.095875 0.095875 0.095875
0.095875 0.095875 0.095875
0.095875 0.095875 0.095875
0.095875 0.095875 0.095875
0.095875 0.095875 0.095875
0.095875 0.095875 0.095875
0.095875 0.095875 0.095875
0.095875 0.095875 0.095875
0.095875 0.095875 0.095875
0.095875 0.095875 0.095875
0.095875 0.095875 0.095875
0.095875 0.095875 0.095875
0.095875 0.095875 0.095875
0.213592 0.213592 0.213592
0.335541 0.335541 0.335541
0.429441 0.429441 0.429441
0.509257 0.509257 0.509257
0.095875 0.095875 0.095875
0.326555 0.326555 0.326555
0.495395 0.495395 0.495395
0.625607 0.625607 0.625607
0.727964 0.727964 0.727964
0.095875 0.095875 0.095875
0.410871 0.410871 0.410871
0.615954 0.615954 0.615954
0.761427 0.761427 0.761427
0.849989 0.849989 0.849989
0.095875 0.095875 0.095875
0.481909 0.481909 0.481909
0.711344 0.711344 0.711344
0.844078 0.844078 0.844078
0.920940 0.920940 0.920940
0.095875 0.095875 0.095875
0.095875 0.095875 0.095875
0.095875 0.095875 0.095875
0.095875 0.095875 0.095875
0.095875 0.095875 0.095875
0.095875 0.095875 0.095875
0.220491 0.220491 0.220491
0.344124 0.344124 0.344124
0.440251 0.440251 0.440251
0.522029 0.522029 0.522029
0.095875 0.095875 0.095875
0.334734 0.334734 0.334734
0.508013 0.508013 0.508013
0.640948 0.640948 0.640948
0.743448 0.743448 0.743448
0.095875 0.095875 0.095875
0.421676 0.421676 0.421676
0.631058 0.631058 0.631058
0.777552 0.777552 0.777552
0.863113 0.863113 0.863113
0.095875 0.095875 0.095875
0.494184 0.494184 0.494184
0.726475 0.726475 0.726475
0.857111 0.857111 0.857111
0.931328 0.931328 0.931328
0.095875 0.095875 0.095875
0.095875 0.095875 0.095875
0.095875 0.095875 0.095875
0.095875 0.095875 0.095875
0.095875 0.095875 0.095875
0.095875 0.095875 0.095875
0.224629 0.224629 0.224629
0.349389 0.349389 0.349389
0.446776 0.446776 0.446776
0.529479 0.529479 0.529479
0.095875 0.095875 0.095875
0.339614 0.339614 0.339614
0.515542 0.515542 0.515542
0.650095 0.650095 0.650095
0.752657 0.752657 0.752657
0.095875 0.095875 0.095875
0.427837 0.427837 0.427837
0.640065 0.640065 0.640065
0.784842 0.784842 0.784842
0.870884 0.870884 0.870884
0.095875 0.095875 0.095875
0.501509 0.501509 0.501509
0.735474 0.735474 0.735474
0.864828 0.864828 0.864828
0.937459 0.937459 0.937459
0.095875 0.095875 0.095875
0.095875 0.095875 0.095875
0.095875 0.095875 0.095875
0.095875 0.095875 0.095875
0.095875 0.095875 0.095875
0.095875 0.095875 0.095875
0.227612 0.227612 0.227612
0.353173 0.353173 0.353173
0.451464 0.451464 0.451464
0.534830 0.534830 0.534830
0.095875 0.095875 0.095875
0.343256 0.343256 0.343256
0.520800 0.520800 0.520800
0.656664 0.656664 0.656664
0.759232 0.759232 0.759232
0.095875 0.095875 0.095875
0.432170 0.432170 0.432170
0.646533 0.646533 0.646533
0.789849 0.789849 0.789849
0.876440 0.876440 0.876440
0.095875 0.095875 0.095875
0.506771 0.506771 0.506771
0.741927 0.741927 0.741927
0.870346 0.870346 0.870346
0.941833 0.941833 0.941833
