trix_classic/TriX_NoFilter_Normal.cube
TITLE "Tri-X NoFilter Normal"
# Adobe RGB in/out. REPLACES AgX. R=0.2974 G=0.2859 B=0.4167
LUT_3D_SIZE 5
DOMAIN_MIN 0.0 0.0 0.0
DOMAIN_MAX 1.0 1.0 1.0
0.095875 0.095875 0.095875
0.095875 0.095875 0.095875
0.095875 0.095875 0.095875
0.095875 0.095875 0.095875
0.095875 0.095875 0.095875
0.095875 0.095875 0.095875
0.095875 0.095875 0.095875
0.095875 0.095875 0.095875
0.095875 0.095875 0.095875
0.095875 0.095875 0.095875
0.095875 0.095875 0.095875
0.095875 0.095875 0.095875
0.095875 0.095875 0.095875
0.095875 0.095875 0.095875
0.095875 0.095875 0.095875
0.095875 0.095875 0.095875
0.095875 0.095875 0.095875
0.095875 0.095875 0.095875
0.095875 0.095875 0.095875
0.095875 0.095875 0.095875
0.095875 0.095875 0.095875
0.095875 0.095875 0.095875
0.095875 0.095875 0.095875
0.095875 0.095875 0.095875
0.095875 0.095875 0.095875
0.095875 0.095875 0.095875
0.095875 0.095875 0.095875
0.095875 0.095875 0.095875
0.095875 0.095875 0.095875
0.095875 0.095875 0.095875
0.095875 0.095875 0.095875
0.213592 0.213592 0.213592
0.285130 0.285130 0.285130
0.327480 0.327480 0.327480
0.362868 0.362868 0.362868
0.095875 0.095875 0.095875
0.282669 0.282669 0.282669
0.359353 0.359353 0.359353
0.416380 0.416380 0.416380
0.460641 0.460641 0.460641
0.095875 0.095875 0.095875
0.322700 0.322700 0.322700
0.414016 0.414016 0.414016
0.477499 0.477499 0.477499
0.527956 0.527956 0.527956
0.095875 0.095875 0.095875
0.355872 0.355872 0.355872
0.456317 0.456317 0.456317
0.525969 0.525969 0.525969
0.579854 0.579854 0.579854
0.095875 0.095875 0.095875
0.095875 0.095875 0.095875
0.095875 0.095875 0.095875
0.095875 0.095875 0.095875
0.095875 0.095875 0.095875
0.095875 0.095875 0.095875
0.313351 0.313351 0.313351
0.401440 0.401440 0.401440
0.463438 0.463438 0.463438
0.512827 0.512827 0.512827
0.095875 0.095875 0.095875
0.397552 0.397552 0.397552
0.508013 0.508013 0.508013
0.583245 0.583245 0.583245
0.642997 0.642997 0.642997
0.095875 0.095875 0.095875
0.456562 0.456562 0.456562
0.580154 0.580154 0.580154
0.665647 0.665647 0.665647
0.724872 0.724872 0.724872
0.095875 0.095875 0.095875
0.503244 0.503244 0.503244
0.637183 0.637183 0.637183
0.722502 0.722502 0.722502
0.784187 0.784187 0.784187
0.095875 0.095875 0.095875
0.095875 0.095875 0.095875
0.095875 0.095875 0.095875
0.095875 0.095875 0.095875
0.095875 0.095875 0.095875
0.095875 0.095875 0.095875
0.383617 0.383617 0.383617
0.490749 0.490749 0.490749
0.564143 0.564143 0.564143
0.621939 0.621939 0.621939
0.095875 0.095875 0.095875
0.486143 0.486143 0.486143
0.616315 0.616315 0.616315
0.701899 0.701899 0.701899
0.763919 0.763919 0.763919
0.095875 0.095875 0.095875
0.556079 0.556079 0.556079
0.698666 0.698666 0.698666
0.784842 0.784842 0.784842
0.834783 0.834783 0.834783
0.095875 0.095875 0.095875
0.610741 0.610741 0.610741
0.757940 0.757940 0.757940
0.832795 0.832795 0.832795
0.884083 0.884083 0.884083
0.095875 0.095875 0.095875
0.095875 0.095875 0.095875
0.095875 0.095875 0.095875
0.095875 0.095875 0.095875
0.095875 0.095875 0.095875
0.095875 0.095875 0.095875
0.443118 0.443118 0.443118
0.563690 0.563690 0.563690
0.646757 0.646757 0.646757
0.706967 0.706967 0.706967
0.095875 0.095875 0.095875
0.558593 0.558593 0.558593
0.701409 0.701409 0.701409
0.787084 0.787084 0.787084
0.837169 0.837169 0.837169
0.095875 0.095875 0.095875
0.637512 0.637512 0.637512
0.784444 0.784444 0.784444
0.855702 0.855702 0.855702
0.901820 0.901820 0.901820
0.095875 0.095875 0.095875
0.695896 0.695896 0.695896
0.832373 0.832373 0.832373
0.900247 0.900247 0.900247
0.941833 0.941833 0.941833
