trix_classic/TriX_Yellow8_ExtraPunchy.cube
TITLE "Tri-X Yellow8 ExtraPunchy"
# Adobe RGB in/out. REPLACES AgX. R=0.5015 G=0.4679 B=0.0307
LUT_3D_SIZE 5
DOMAIN_MIN 0.0 0.0 0.0
DOMAIN_MAX 1.0 1.0 1.0
0.092237 0.092237 0.092237
0.092237 0.092237 0.092237
0.092237 0.092237 0.092237
0.092237 0.092237 0.092237
0.092237 0.092237 0.092237
0.092237 0.092237 0.092237
0.092237 0.092237 0.092237
0.092237 0.092237 0.092237
0.092237 0.092237 0.092237
0.092237 0.092237 0.092237
0.092237 0.092237 0.092237
0.092237 0.092237 0.092237
0.092237 0.092237 0.092237
0.092237 0.092237 0.092237
0.092237 0.092237 0.092237
0.092237 0.092237 0.092237
0.092237 0.092237 0.092237
0.092237 0.092237 0.092237
0.092237 0.092237 0.092237
0.092237 0.092237 0.092237
0.092237 0.092237 0.092237
0.092237 0.092237 0.092237
0.092237 0.092237 0.092237
0.092237 0.092237 0.092237
0.092237 0.092237 0.092237
0.092237 0.092237 0.092237
0.092237 0.092237 0.092237
0.092237 0.092237 0.092237
0.092237 0.092237 0.092237
0.092237 0.092237 0.092237
0.092237 0.092237 0.092237
0.128236 0.128236 0.128236
0.266910 0.266910 0.266910
0.408910 0.408910 0.408910
0.548137 0.548137 0.548137
0.092237 0.092237 0.092237
0.253509 0.253509 0.253509
0.523927 0.523927 0.523927
0.746714 0.746714 0.746714
0.858872 0.858872 0.858872
0.092237 0.092237 0.092237
0.378712 0.378712 0.378712
0.734517 0.734517 0.734517
0.885971 0.885971 0.885971
0.950331 0.950331 0.950331
0.092237 0.092237 0.092237
0.499968 0.499968 0.499968
0.843130 0.843130 0.843130
0.946403 0.946403 0.946403
0.980725 0.980725 0.980725
0.092237 0.092237 0.092237
0.092237 0.092237 0.092237
0.092237 0.092237 0.092237
0.092237 0.092237 0.092237
0.092237 0.092237 0.092237
0.092237 0.092237 0.092237
0.133125 0.133125 0.133125
0.279738 0.279738 0.279738
0.427200 0.427200 0.427200
0.571138 0.571138 0.571138
0.092237 0.092237 0.092237
0.265693 0.265693 0.265693
0.545947 0.545947 0.545947
0.766122 0.766122 0.766122
0.873048 0.873048 0.873048
0.092237 0.092237 0.092237
0.395832 0.395832 0.395832
0.753608 0.753608 0.753608
0.896847 0.896847 0.896847
0.957820 0.957820 0.957820
0.092237 0.092237 0.092237
0.521833 0.521833 0.521833
0.857465 0.857465 0.857465
0.955050 0.955050 0.955050
0.982513 0.982513 0.982513
0.092237 0.092237 0.092237
0.092237 0.092237 0.092237
0.092237 0.092237 0.092237
0.092237 0.092237 0.092237
0.092237 0.092237 0.092237
0.092237 0.092237 0.092237
0.136071 0.136071 0.136071
0.287340 0.287340 0.287340
0.438276 0.438276 0.438276
0.584998 0.584998 0.584998
0.092237 0.092237 0.092237
0.273090 0.273090 0.273090
0.559254 0.559254 0.559254
0.777708 0.777708 0.777708
0.879669 0.879669 0.879669
0.092237 0.092237 0.092237
0.406160 0.406160 0.406160
0.765004 0.765004 0.765004
0.903272 0.903272 0.903272
0.960614 0.960614 0.960614
0.092237 0.092237 0.092237
0.534552 0.534552 0.534552
0.865963 0.865963 0.865963
0.958438 0.958438 0.958438
0.983560 0.983560 0.983560
0.092237 0.092237 0.092237
0.092237 0.092237 0.092237
0.092237 0.092237 0.092237
0.092237 0.092237 0.092237
0.092237 0.092237 0.092237
0.092237 0.092237 0.092237
0.138201 0.138201 0.138201
0.292662 0.292662 0.292662
0.446308 0.446308 0.446308
0.595035 0.595035 0.595035
0.092237 0.092237 0.092237
0.278463 0.278463 0.278463
0.568865 0.568865 0.568865
0.786034 0.786034 0.786034
0.884398 0.884398 0.884398
0.092237 0.092237 0.092237
0.413604 0.413604 0.413604
0.773195 0.773195 0.773195
0.907858 0.907858 0.907858
0.962601 0.962601 0.962601
0.092237 0.092237 0.092237
0.543764 0.543764 0.543764
0.871951 0.871951 0.871951
0.960421 0.960421 0.960421
0.984304 0.984304 0.984304
