trix_classic/TriX_Red25_Soft.cube
TITLE "Tri-X Red25 Soft"
# Adobe RGB in/out. REPLACES AgX. R=0.9735 G=0.0265 B=0.0000
LUT_3D_SIZE 9
DOMAIN_MIN 0.0 0.0 0.0
DOMAIN_MAX 1.0 1.0 1.0
0.097688 0.097688 0.097688
0.097688 0.097688 0.097688
0.097688 0.097688 0.097688
0.097688 0.097688 0.097688
0.097688 0.097688 0.097688
0.097688 0.097688 0.097688
0.097688 0.097688 0.097688
0.097688 0.097688 0.097688
0.097688 0.097688 0.097688
0.097688 0.097688 0.097688
0.107900 0.107900 0.107900
0.236416 0.236416 0.236416
0.363865 0.363865 0.363865
0.481724 0.481724 0.481724
0.596118 0.596118 0.596118
0.707159 0.707159 0.707159
0.810349 0.810349 0.810349
0.895290 0.895290 0.895290
0.097688 0.097688 0.097688
0.109212 0.109212 0.109212
0.241770 0.241770 0.241770
0.370881 0.370881 0.370881
0.490563 0.490563 0.490563
0.606919 0.606919 0.606919
0.719552 0.719552 0.719552
0.822741 0.822741 0.822741
0.904012 0.904012 0.904012
0.097688 0.097688 0.097688
0.110036 0.110036 0.110036
0.244958 0.244958 0.244958
0.375048 0.375048 0.375048
0.495808 0.495808 0.495808
0.613328 0.613328 0.613328
0.726899 0.726899 0.726899
0.830078 0.830078 0.830078
0.909153 0.909153 0.909153
0.097688 0.097688 0.097688
0.110624 0.110624 0.110624
0.247245 0.247245 0.247245
0.378033 0.378033 0.378033
0.499564 0.499564 0.499564
0.617917 0.617917 0.617917
0.732157 0.732157 0.732157
0.835323 0.835323 0.835323
0.912818 0.912818 0.912818
0.097688 0.097688 0.097688
0.111083 0.111083 0.111083
0.249034 0.249034 0.249034
0.380364 0.380364 0.380364
0.502497 0.502497 0.502497
0.621499 0.621499 0.621499
0.736262 0.736262 0.736262
0.839414 0.839414 0.839414
0.915671 0.915671 0.915671
0.097688 0.097688 0.097688
0.111459 0.111459 0.111459
0.250505 0.250505 0.250505
0.382280 0.382280 0.382280
0.504906 0.504906 0.504906
0.624442 0.624442 0.624442
0.739633 0.739633 0.739633
0.842772 0.842772 0.842772
0.918009 0.918009 0.918009
0.097688 0.097688 0.097688
0.111778 0.111778 0.111778
0.251756 0.251756 0.251756
0.383907 0.383907 0.383907
0.506951 0.506951 0.506951
0.626941 0.626941 0.626941
0.742495 0.742495 0.742495
0.845621 0.845621 0.845621
0.919990 0.919990 0.919990
0.097688 0.097688 0.097688
0.112055 0.112055 0.112055
0.252844 0.252844 0.252844
0.385322 0.385322 0.385322
0.508730 0.508730 0.508730
0.629113 0.629113 0.629113
0.744983 0.744983 0.744983
0.848097 0.848097 0.848097
0.921710 0.921710 0.921710
0.097688 0.097688 0.097688
0.097688 0.097688 0.097688
0.097688 0.097688 0.097688
0.097688 0.097688 0.097688
0.097688 0.097688 0.097688
0.097688 0.097688 0.097688
0.097688 0.097688 0.097688
0.097688 0.097688 0.097688
0.097688 0.097688 0.097688
0.097688 0.097688 0.097688
0.107900 0.107900 0.107900
0.236416 0.236416 0.236416
0.363865 0.363865 0.363865
0.481724 0.481724 0.481724
0.596118 0.596118 0.596118
0.707159 0.707159 0.707159
0.810349 0.810349 0.810349
0.895290 0.895290 0.895290
0.097688 0.097688 0.097688
0.109212 0.109212 0.109212
0.241770 0.241770 0.241770
0.370881 0.370881 0.370881
0.490563 0.490563 0.490563
0.606919 0.606919 0.606919
0.719552 0.719552 0.719552
0.822741 0.822741 0.822741
0.904012 0.904012 0.904012
0.097688 0.097688 0.097688
0.110036 0.110036 0.110036
0.244958 0.244958 0.244958
0.375048 0.375048 0.375048
0.495808 0.495808 0.495808
0.613328 0.613328 0.613328
0.726899 0.726899 0.726899
0.830078 0.830078 0.830078
0.909153 0.909153 0.909153
0.097688 0.097688 0.097688
0.110624 0.110624 0.110624
0.247245 0.247245 0.247245
0.378033 0.378033 0.378033
0.499564 0.499564 0.499564
0.617917 0.617917 0.617917
0.732157 0.732157 0.732157
0.835323 0.835323 0.835323
0.912818 0.912818 0.912818
0.097688 0.097688 0.097688
0.111083 0.111083 0.111083
0.249034 0.249034 0.249034
0.380364 0.380364 0.380364
0.502497 0.502497 0.502497
0.621499 0.621499 0.621499
0.736262 0.736262 0.736262
0.839414 0.839414 0.839414
0.915671 0.915671 0.915671
0.097688 0.097688 0.097688
0.111459 0.111459 0.111459
0.250505 0.250505 0.250505
0.382280 0.382280 0.382280
0.504906 0.504906 0.504906
0.624442 0.624442 0.624442
0.739633 0.739633 0.739633
0.842772 0.842772 0.842772
0.918009 0.918009 0.918009
0.097688 0.097688 0.097688
0.111778 0.111778 0.111778
0.251756 0.251756 0.251756
0.383907 0.383907 0.383907
0.506951 0.506951 0.506951
0.626941 0.626941 0.626941
0.742495 0.742495 0.742495
0.845621 0.845621 0.845621
0.919990 0.919990 0.919990
0.097688 0.097688 0.097688
0.112055 0.112055 0.112055
0.252844 0.252844 0.252844
0.385322 0.385322 0.385322
0.508730 0.508730 0.508730
0.629113 0.629113 0.629113
0.744983 0.744983 0.744983
0.848097 0.848097 0.848097
0.921710 0.921710 0.921710
0.097688 0.097688 0.097688
0.097688 0.097688 0.097688
0.097688 0.097688 0.097688
0.097688 0.097688 0.097688
0.097688 0.097688 0.097688
0.097688 0.097688 0.097688
0.097688 0.097688 0.097688
0.097688 0.097688 0.097688
0.097688 0.097688 0.097688
0.097688 0.097688 0.097688
0.107900 0.107900 0.107900
0.236416 0.236416 0.236416
0.363865 0.363865 0.363865
0.481724 0.481724 0.481724
0.596118 0.596118 0.596118
0.707159 0.707159 0.707159
0.810349 0.810349 0.810349
0.895290 0.895290 0.895290
0.097688 0.097688 0.097688
0.109212 0.109212 0.109212
0.241770 0.241770 0.241770
0.370881 0.370881 0.370881
0.490563 0.490563 0.490563
0.606919 0.606919 0.606919
0.719552 0.719552 0.719552
0.822741 0.822741 0.822741
0.904012 0.904012 0.904012
0.097688 0.097688 0.097688
0.110036 0.110036 0.110036
0.244958 0.244958 0.244958
0.375048 0.375048 0.375048
0.495808 0.495808 0.495808
0.613328 0.613328 0.613328
0.726899 0.726899 0.726899
0.830078 0.830078 0.830078
0.909153 0.909153 0.909153
0.097688 0.097688 0.097688
0.110624 0.110624 0.110624
0.247245 0.247245 0.247245
0.378033 0.378033 0.378033
0.499564 0.499564 0.499564
0.617917 0.617917 0.617917
0.732157 0.732157 0.732157
0.835323 0.835323 0.835323
0.912818 0.912818 0.912818
0.097688 0.097688 0.097688
0.111083 0.111083 0.111083
0.249034 0.249034 0.249034
0.380364 0.380364 0.380364
0.502497 0.502497 0.502497
0.621499 0.621499 0.621499
0.736262 0.736262 0.736262
0.839414 0.839414 0.839414
0.915671 0.915671 0.915671
0.097688 0.097688 0.097688
0.111459 0.111459 0.111459
0.250505 0.250505 0.250505
0.382280 0.382280 0.382280
0.504906 0.504906 0.504906
0.624442 0.624442 0.624442
0.739633 0.739633 0.739633
0.842772 0.842772 0.842772
0.918009 0.918009 0.918009
0.097688 0.097688 0.097688
0.111778 0.111778 0.111778
0.251756 0.251756 0.251756
0.383907 0.383907 0.383907
0.506951 0.506951 0.506951
0.626941 0.626941 0.626941
0.742495 0.742495 0.742495
0.845621 0.845621 0.845621
0.919990 0.919990 0.919990
0.097688 0.097688 0.097688
0.112055 0.112055 0.112055
0.252844 0.252844 0.252844
0.385322 0.385322 0.385322
0.508730 0.508730 0.508730
0.629113 0.629113 0.629113
0.744983 0.744983 0.744983
0.848097 0.848097 0.848097
0.921710 0.921710 0.921710
0.097688 0.097688 0.097688
0.097688 0.097688 0.097688
0.097688 0.097688 0.097688
0.097688 0.097688 0.097688
0.097688 0.097688 0.097688
0.097688 0.097688 0.097688
0.097688 0.097688 0.097688
0.097688 0.097688 0.097688
0.097688 0.097688 0.097688
0.097688 0.097688 0.097688
0.107900 0.107900 0.107900
0.236416 0.236416 0.236416
0.363865 0.363865 0.363865
0.481724 0.481724 0.481724
0.596118 0.596118 0.596118
0.707159 0.707159 0.707159
0.810349 0.810349 0.810349
0.895290 0.895290 0.895290
0.097688 0.097688 0.097688
0.109212 0.109212 0.109212
0.241770 0.241770 0.241770
0.370881 0.370881 0.370881
0.490563 0.490563 0.490563
0.606919 0.606919 0.606919
0.719552 0.719552 0.719552
0.822741 0.822741 0.822741
0.904012 0.904012 0.904012
0.097688 0.097688 0.097688
0.110036 0.110036 0.110036
0.244958 0.244958 0.244958
0.375048 0.375048 0.375048
0.495808 0.495808 0.495808
0.613328 0.613328 0.613328
0.726899 0.726899 0.726899
0.830078 0.830078 0.830078
0.909153 0.909153 0.909153
0.097688 0.097688 0.097688
0.110624 0.110624 0.110624
0.247245 0.247245 0.247245
0.378033 0.378033 0.378033
0.499564 0.499564 0.499564
0.617917 0.617917 0.617917
0.732157 0.732157 0.732157
0.835323 0.835323 0.835323
0.912818 0.912818 0.912818
0.097688 0.097688 0.097688
0.111083 0.111083 0.111083
0.249034 0.249034 0.249034
0.380364 0.380364 0.380364
0.502497 0.502497 0.502497
0.621499 0.621499 0.621499
0.736262 0.736262 0.736262
0.839414 0.839414 0.839414
0.915671 0.915671 0.915671
0.097688 0.097688 0.097688
0.111459 0.111459 0.111459
0.250505 0.250505 0.250505
0.382280 0.382280 0.382280
0.504906 0.504906 0.504906
0.624442 0.624442 0.624442
0.739633 0.739633 0.739633
0.842772 0.842772 0.842772
0.918009 0.918009 0.918009
0.097688 0.097688 0.097688
0.111778 0.111778 0.111778
0.251756 0.251756 0.251756
0.383907 0.383907 0.383907
0.506951 0.506951 0.506951
0.626941 0.626941 0.626941
0.742495 0.742495 0.742495
0.845621 0.845621 0.845621
0.919990 0.919990 0.919990
0.097688 0.097688 0.097688
0.112055 0.112055 0.112055
0.252844 0.252844 0.252844
0.385322 0.385322 0.385322
0.508730 0.508730 0.508730
0.629113 0.629113 0.629113
0.744983 0.744983 0.744983
0.848097 0.848097 0.848097
0.921710 0.921710 0.921710
0.097688 0.097688 0.097688
0.097688 0.097688 0.097688
0.097688 0.097688 0.097688
0.097688 0.097688 0.097688
0.097688 0.097688 0.097688
0.097688 0.097688 0.097688
0.097688 0.097688 0.097688
0.097688 0.097688 0.097688
0.097688 0.097688 0.097688
0.097688 0.097688 0.097688
0.107900 0.107900 0.107900
0.236416 0.236416 0.236416
0.363865 0.363865 0.363865
0.481724 0.481724 0.481724
0.596118 0.596118 0.596118
0.707159 0.707159 0.707159
0.810349 0.810349 0.810349
0.895290 0.895290 0.895290
0.097688 0.097688 0.097688
0.109212 0.109212 0.109212
0.241770 0.241770 0.241770
0.370881 0.370881 0.370881
0.490563 0.490563 0.490563
0.606919 0.606919 0.606919
0.719552 0.719552 0.719552
0.822741 0.822741 0.822741
0.904012 0.904012 0.904012
0.097688 0.097688 0.097688
0.110036 0.110036 0.110036
0.244958 0.244958 0.244958
0.375048 0.375048 0.375048
0.495808 0.495808 0.495808
0.613328 0.613328 0.613328
0.726899 0.726899 0.726899
0.830078 0.830078 0.830078
0.909153 0.909153 0.909153
0.097688 0.097688 0.097688
0.110624 0.110624 0.110624
0.247245 0.247245 0.247245
0.378033 0.378033 0.378033
0.499564 0.499564 0.499564
0.617917 0.617917 0.617917
0.732157 0.732157 0.732157
0.835323 0.835323 0.835323
0.912818 0.912818 0.912818
0.097688 0.097688 0.097688
0.111083 0.111083 0.111083
0.249034 0.249034 0.249034
0.380364 0.380364 0.380364
0.502497 0.502497 0.502497
0.621499 0.621499 0.621499
0.736262 0.736262 0.736262
0.839414 0.839414 0.839414
0.915671 0.915671 0.915671
0.097688 0.097688 0.097688
0.111459 0.111459 0.111459
0.250505 0.250505 0.250505
0.382280 0.382280 0.382280
0.504906 0.504906 0.504906
0.624442 0.624442 0.624442
0.739633 0.739633 0.739633
0.842772 0.842772 0.842772
0.918009 0.918009 0.918009
0.097688 0.097688 0.097688
0.111778 0.111778 0.111778
0.251756 0.251756 0.251756
0.383907 0.383907 0.383907
0.506951 0.506951 0.506951
0.626941 0.626941 0.626941
0.742495 0.742495 0.742495
0.845621 0.845621 0.845621
0.919990 0.919990 0.919990
0.097688 0.097688 0.097688
0.112055 0.112055 0.112055
0.252844 0.252844 0.252844
0.385322 0.385322 0.385322
0.508730 0.508730 0.508730
0.629113 0.629113 0.629113
0.744983 0.744983 0.744983
0.848097 0.848097 0.848097
0.921710 0.921710 0.921710
0.097688 0.097688 0.097688
0.097688 0.097688 0.097688
0.097688 0.097688 0.097688
0.097688 0.097688 0.097688
0.097688 0.097688 0.097688
0.097688 0.097688 0.097688
0.097688 0.097688 0.097688
0.097688 0.097688 0.097688
0.097688 0.097688 0.097688
0.097688 0.097688 0.097688
0.107900 0.107900 0.107900
0.236416 0.236416 0.236416
0.363865 0.363865 0.363865
0.481724 0.481724 0.481724
0.596118 0.596118 0.596118
0.707159 0.707159 0.707159
0.810349 0.810349 0.810349
0.895290 0.895290 0.895290
0.097688 0.097688 0.097688
0.109212 0.109212 0.109212
0.241770 0.241770 0.241770
0.370881 0.370881 0.370881
0.490563 0.490563 0.490563
0.606919 0.606919 0.606919
0.719552 0.719552 0.719552
0.822741 0.822741 0.822741
0.904012 0.904012 0.904012
0.097688 0.097688 0.097688
0.110036 0.110036 0.110036
0.244958 0.244958 0.244958
0.375048 0.375048 0.375048
0.495808 0.495808 0.495808
0.613328 0.613328 0.613328
0.726899 0.726899 0.726899
0.830078 0.830078 0.830078
0.909153 0.909153 0.909153
0.097688 0.097688 0.097688
0.110624 0.110624 0.110624
0.247245 0.247245 0.247245
0.378033 0.378033 0.378033
0.499564 0.499564 0.499564
0.617917 0.617917 0.617917
0.732157 0.732157 0.732157
0.835323 0.835323 0.835323
0.912818 0.912818 0.912818
0.097688 0.097688 0.097688
0.111083 0.111083 0.111083
0.249034 0.249034 0.249034
0.380364 0.380364 0.380364
0.502497 0.502497 0.502497
0.621499 0.621499 0.621499
0.736262 0.736262 0.736262
0.839414 0.839414 0.839414
0.915671 0.915671 0.915671
0.097688 0.097688 0.097688
0.111459 0.111459 0.111459
0.250505 0.250505 0.250505
0.382280 0.382280 0.382280
0.504906 0.504906 0.504906
0.624442 0.624442 0.624442
0.739633 0.739633 0.739633
0.842772 0.842772 0.842772
0.918009 0.918009 0.918009
0.097688 0.097688 0.097688
0.111778 0.111778 0.111778
0.251756 0.251756 0.251756
0.383907 0.383907 0.383907
0.506951 0.506951 0.506951
0.626941 0.626941 0.626941
0.742495 0.742495 0.742495
0.845621 0.845621 0.845621
0.919990 0.919990 0.919990
0.097688 0.097688 0.097688
0.112055 0.112055 0.112055
0.252844 0.252844 0.252844
0.385322 0.385322 0.385322
0.508730 0.508730 0.508730
0.629113 0.629113 0.629113
0.744983 0.744983 0.744983
0.848097 0.848097 0.848097
0.921710 0.921710 0.921710
0.097688 0.097688 0.097688
0.097688 0.097688 0.097688
0.097688 0.097688 0.097688
0.097688 0.097688 0.097688
0.097688 0.097688 0.097688
0.097688 0.097688 0.097688
0.097688 0.097688 0.097688
0.097688 0.097688 0.097688
0.097688 0.097688 0.097688
0.097688 0.097688 0.097688
0.107900 0.107900 0.107900
0.236416 0.236416 0.236416
0.363865 0.363865 0.363865
0.481724 0.481724 0.481724
0.596118 0.596118 0.596118
0.707159 0.707159 0.707159
0.810349 0.810349 0.810349
0.895290 0.895290 0.895290
0.097688 0.097688 0.097688
0.109212 0.109212 0.109212
0.241770 0.241770 0.241770
0.370881 0.370881 0.370881
0.490563 0.490563 0.490563
0.606919 0.606919 0.606919
0.719552 0.719552 0.719552
0.822741 0.822741 0.822741
0.904012 0.904012 0.904012
0.097688 0.097688 0.097688
0.110036 0.110036 0.110036
0.244958 0.244958 0.244958
0.375048 0.375048 0.375048
0.495808 0.495808 0.495808
0.613328 0.613328 0.613328
0.726899 0.726899 0.726899
0.830078 0.830078 0.830078
0.909153 0.909153 0.909153
0.097688 0.097688 0.097688
0.110624 0.110624 0.110624
0.247245 0.247245 0.247245
0.378033 0.378033 0.378033
0.499564 0.499564 0.499564
0.617917 0.617917 0.617917
0.732157 0.732157 0.732157
0.835323 0.835323 0.835323
0.912818 0.912818 0.912818
0.097688 0.097688 0.097688
0.111083 0.111083 0.111083
0.249034 0.249034 0.249034
0.380364 0.380364 0.380364
0.502497 0.502497 0.502497
0.621499 0.621499 0.621499
0.736262 0.736262 0.736262
0.839414 0.839414 0.839414
0.915671 0.915671 0.915671
0.097688 0.097688 0.097688
0.111459 0.111459 0.111459
0.250505 0.250505 0.250505
0.382280 0.382280 0.382280
0.504906 0.504906 0.504906
0.624442 0.624442 0.624442
0.739633 0.739633 0.739633
0.842772 0.842772 0.842772
0.918009 0.918009 0.918009
0.097688 0.097688 0.097688
0.111778 0.111778 0.111778
0.251756 0.251756 0.251756
0.383907 0.383907 0.383907
0.506951 0.506951 0.506951
0.626941 0.626941 0.626941
0.742495 0.742495 0.742495
0.845621 0.845621 0.845621
0.919990 0.919990 0.919990
0.097688 0.097688 0.097688
0.112055 0.112055 0.112055
0.252844 0.252844 0.252844
0.385322 0.385322 0.385322
0.508730 0.508730 0.508730
0.629113 0.629113 0.629113
0.744983 0.744983 0.744983
0.848097 0.848097 0.848097
0.921710 0.921710 0.921710
0.097688 0.097688 0.097688
0.097688 0.097688 0.097688
0.097688 0.097688 0.097688
0.097688 0.097688 0.097688
0.097688 0.097688 0.097688
0.097688 0.097688 0.097688
0.097688 0.097688 0.097688
0.097688 0.097688 0.097688
0.097688 0.097688 0.097688
0.097688 0.097688 0.097688
0.107900 0.107900 0.107900
0.236416 0.236416 0.236416
0.363865 0.363865 0.363865
0.481724 0.481724 0.481724
0.596118 0.596118 0.596118
0.707159 0.707159 0.707159
0.810349 0.810349 0.810349
0.895290 0.895290 0.895290
0.097688 0.097688 0.097688
0.109212 0.109212 0.109212
0.241770 0.241770 0.241770
0.370881 0.370881 0.370881
0.490563 0.490563 0.490563
0.606919 0.606919 0.606919
0.719552 0.719552 0.719552
0.822741 0.822741 0.822741
0.904012 0.904012 0.904012
0.097688 0.097688 0.097688
0.110036 0.110036 0.110036
0.244958 0.244958 0.244958
0.375048 0.375048 0.375048
0.495808 0.495808 0.495808
0.613328 0.613328 0.613328
0.726899 0.726899 0.726899
0.830078 0.830078 0.830078
0.909153 0.909153 0.909153
0.097688 0.097688 0.097688
0.110624 0.110624 0.110624
0.247245 0.247245 0.247245
0.378033 0.378033 0.378033
0.499564 0.499564 0.499564
0.617917 0.617917 0.617917
0.732157 0.732157 0.732157
0.835323 0.835323 0.835323
0.912818 0.912818 0.912818
0.097688 0.097688 0.097688
0.111083 0.111083 0.111083
0.249034 0.249034 0.249034
0.380364 0.380364 0.380364
0.502497 0.502497 0.502497
0.621499 0.621499 0.621499
0.736262 0.736262 0.736262
0.839414 0.839414 0.839414
0.915671 0.915671 0.915671
0.097688 0.097688 0.097688
0.111459 0.111459 0.111459
0.250505 0.250505 0.250505
0.382280 0.382280 0.382280
0.504906 0.504906 0.504906
0.624442 0.624442 0.624442
0.739633 0.739633 0.739633
0.842772 0.842772 0.842772
0.918009 0.918009 0.918009
0.097688 0.097688 0.097688
0.111778 0.111778 0.111778
0.251756 0.251756 0.251756
0.383907 0.383907 0.383907
0.506951 0.506951 0.506951
0.626941 0.626941 0.626941
0.742495 0.742495 0.742495
0.845621 0.845621 0.845621
0.919990 0.919990 0.919990
0.097688 0.097688 0.097688
0.112055 0.112055 0.112055
0.252844 0.252844 0.252844
0.385322 0.385322 0.385322
0.508730 0.508730 0.508730
0.629113 0.629113 0.629113
0.744983 0.744983 0.744983
0.848097 0.848097 0.848097
0.921710 0.921710 0.921710
0.097688 0.097688 0.097688
0.097688 0.097688 0.097688
0.097688 0.097688 0.097688
0.097688 0.097688 0.097688
0.097688 0.097688 0.097688
0.097688 0.097688 0.097688
0.097688 0.097688 0.097688
0.097688 0.097688 0.097688
0.097688 0.097688 0.097688
0.097688 0.097688 0.097688
0.107900 0.107900 0.107900
0.236416 0.236416 0.236416
0.363865 0.363865 0.363865
0.481724 0.481724 0.481724
0.596118 0.596118 0.596118
0.707159 0.707159 0.707159
0.810349 0.810349 0.810349
0.895290 0.895290 0.895290
0.097688 0.097688 0.097688
0.109212 0.109212 0.109212
0.241770 0.241770 0.241770
0.370881 0.370881 0.370881
0.490563 0.490563 0.490563
0.606919 0.606919 0.606919
0.719552 0.719552 0.719552
0.822741 0.822741 0.822741
0.904012 0.904012 0.904012
0.097688 0.097688 0.097688
0.110036 0.110036 0.110036
0.244958 0.244958 0.244958
0.375048 0.375048 0.375048
0.495808 0.495808 0.495808
0.613328 0.613328 0.613328
0.726899 0.726899 0.726899
0.830078 0.830078 0.830078
0.909153 0.909153 0.909153
0.097688 0.097688 0.097688
0.110624 0.110624 0.110624
0.247245 0.247245 0.247245
0.378033 0.378033 0.378033
0.499564 0.499564 0.499564
0.617917 0.617917 0.617917
0.732157 0.732157 0.732157
0.835323 0.835323 0.835323
0.912818 0.912818 0.912818
0.097688 0.097688 0.097688
0.111083 0.111083 0.111083
0.249034 0.249034 0.249034
0.380364 0.380364 0.380364
0.502497 0.502497 0.502497
0.621499 0.621499 0.621499
0.736262 0.736262 0.736262
0.839414 0.839414 0.839414
0.915671 0.915671 0.915671
0.097688 0.097688 0.097688
0.111459 0.111459 0.111459
0.250505 0.250505 0.250505
0.382280 0.382280 0.382280
0.504906 0.504906 0.504906
0.624442 0.624442 0.624442
0.739633 0.739633 0.739633
0.842772 0.842772 0.842772
0.918009 0.918009 0.918009
0.097688 0.097688 0.097688
0.111778 0.111778 0.111778
0.251756 0.251756 0.251756
0.383907 0.383907 0.383907
0.506951 0.506951 0.506951
0.626941 0.626941 0.626941
0.742495 0.742495 0.742495
0.845621 0.845621 0.845621
0.919990 0.919990 0.919990
0.097688 0.097688 0.097688
0.112055 0.112055 0.112055
0.252844 0.252844 0.252844
0.385322 0.385322 0.385322
0.508730 0.508730 0.508730
0.629113 0.629113 0.629113
0.744983 0.744983 0.744983
0.848097 0.848097 0.848097
0.921710 0.921710 0.921710
