trix_classic/TriX_Green58_Normal.cube
TITLE "Tri-X Green58 Normal"
# Adobe RGB in/out. REPLACES AgX. R=0.1714 G=0.8069 B=0.0217
LUT_3D_SIZE 9
DOMAIN_MIN 0.0 0.0 0.0
DOMAIN_MAX 1.0 1.0 1.0
0.095875 0.095875 0.095875
0.095875 0.095875 0.095875
0.095875 0.095875 0.095875
0.095875 0.095875 0.095875
0.095875 0.095875 0.095875
0.095875 0.095875 0.095875
0.095875 0.095875 0.095875
0.095875 0.095875 0.095875
0.095875 0.095875 0.095875
0.095875 0.095875 0.095875
0.095875 0.095875 0.095875
0.095875 0.095875 0.095875
0.095875 0.095875 0.095875
0.095875 0.095875 0.095875
0.095875 0.095875 0.095875
0.095875 0.095875 0.095875
0.095875 0.095875 0.095875
0.095875 0.095875 0.095875
0.095875 0.095875 0.095875
0.095875 0.095875 0.095875
0.095875 0.095875 0.095875
0.095875 0.095875 0.095875
0.095875 0.095875 0.095875
0.095875 0.095875 0.095875
0.095875 0.095875 0.095875
0.095875 0.095875 0.095875
0.095875 0.095875 0.095875
0.095875 0.095875 0.095875
0.095875 0.095875 0.095875
0.095875 0.095875 0.095875
0.095875 0.095875 0.095875
0.095875 0.095875 0.095875
0.095875 0.095875 0.095875
0.095875 0.095875 0.095875
0.095875 0.095875 0.095875
0.095875 0.095875 0.095875
0.095875 0.095875 0.095875
0.095875 0.095875 0.095875
0.095875 0.095875 0.095875
0.095875 0.095875 0.095875
0.095875 0.095875 0.095875
0.095875 0.095875 0.095875
0.095875 0.095875 0.095875
0.095875 0.095875 0.095875
0.095875 0.095875 0.095875
0.095875 0.095875 0.095875
0.095875 0.095875 0.095875
0.095875 0.095875 0.095875
0.095875 0.095875 0.095875
0.095875 0.095875 0.095875
0.095875 0.095875 0.095875
0.095875 0.095875 0.095875
0.095875 0.095875 0.095875
0.095875 0.095875 0.095875
0.095875 0.095875 0.095875
0.095875 0.095875 0.095875
0.095875 0.095875 0.095875
0.095875 0.095875 0.095875
0.095875 0.095875 0.095875
0.095875 0.095875 0.095875
0.095875 0.095875 0.095875
0.095875 0.095875 0.095875
0.095875 0.095875 0.095875
0.095875 0.095875 0.095875
0.095875 0.095875 0.095875
0.095875 0.095875 0.095875
0.095875 0.095875 0.095875
0.095875 0.095875 0.095875
0.095875 0.095875 0.095875
0.095875 0.095875 0.095875
0.095875 0.095875 0.095875
0.095875 0.095875 0.095875
0.095875 0.095875 0.095875
0.095875 0.095875 0.095875
0.095875 0.095875 0.095875
0.095875 0.095875 0.095875
0.095875 0.095875 0.095875
0.095875 0.095875 0.095875
0.095875 0.095875 0.095875
0.095875 0.095875 0.095875
0.095875 0.095875 0.095875
0.095875 0.095875 0.095875
0.095875 0.095875 0.095875
0.095875 0.095875 0.095875
0.095875 0.095875 0.095875
0.095875 0.095875 0.095875
0.095875 0.095875 0.095875
0.095875 0.095875 0.095875
0.095875 0.095875 0.095875
0.095875 0.095875 0.095875
0.095875 0.095875 0.095875
0.100863 0.100863 0.100863
0.104954 0.104954 0.104954
0.109292 0.109292 0.109292
0.113556 0.113556 0.113556
0.117253 0.117253 0.117253
0.121496 0.121496 0.121496
0.125735 0.125735 0.125735
0.129526 0.129526 0.129526
0.095875 0.095875 0.095875
0.173228 0.173228 0.173228
0.208830 0.208830 0.208830
0.231707 0.231707 0.231707
0.249442 0.249442 0.249442
0.264128 0.264128 0.264128
0.275098 0.275098 0.275098
0.283120 0.283120 0.283120
0.290257 0.290257 0.290257
0.095875 0.095875 0.095875
0.281171 0.281171 0.281171
0.321946 0.321946 0.321946
0.349511 0.349511 0.349511
0.371208 0.371208 0.371208
0.388961 0.388961 0.388961
0.404094 0.404094 0.404094
0.417348 0.417348 0.417348
0.428820 0.428820 0.428820
0.095875 0.095875 0.095875
0.368735 0.368735 0.368735
0.426147 0.426147 0.426147
0.462417 0.462417 0.462417
0.490206 0.490206 0.490206
0.512905 0.512905 0.512905
0.531655 0.531655 0.531655
0.547912 0.547912 0.547912
0.562395 0.562395 0.562395
0.095875 0.095875 0.095875
0.457928 0.457928 0.457928
0.526683 0.526683 0.526683
0.570105 0.570105 0.570105
0.603068 0.603068 0.603068
0.629942 0.629942 0.629942
0.652787 0.652787 0.652787
0.672146 0.672146 0.672146
0.687555 0.687555 0.687555
0.095875 0.095875 0.095875
0.543960 0.543960 0.543960
0.622850 0.622850 0.622850
0.673407 0.673407 0.673407
0.707109 0.707109 0.707109
0.734407 0.734407 0.734407
0.757471 0.757471 0.757471
0.777465 0.777465 0.777465
0.790716 0.790716 0.790716
0.095875 0.095875 0.095875
0.626826 0.626826 0.626826
0.711029 0.711029 0.711029
0.761652 0.761652 0.761652
0.793905 0.793905 0.793905
0.816103 0.816103 0.816103
0.834699 0.834699 0.834699
0.850753 0.850753 0.850753
0.864908 0.864908 0.864908
0.095875 0.095875 0.095875
0.703286 0.703286 0.703286
0.787602 0.787602 0.787602
0.828072 0.828072 0.828072
0.858041 0.858041 0.858041
0.881337 0.881337 0.881337
0.895995 0.895995 0.895995
0.908577 0.908577 0.908577
0.919619 0.919619 0.919619
0.095875 0.095875 0.095875
0.095875 0.095875 0.095875
0.095875 0.095875 0.095875
0.095875 0.095875 0.095875
0.095875 0.095875 0.095875
0.095875 0.095875 0.095875
0.095875 0.095875 0.095875
0.095875 0.095875 0.095875
0.095875 0.095875 0.095875
0.095875 0.095875 0.095875
0.101218 0.101218 0.101218
0.105682 0.105682 0.105682
0.110578 0.110578 0.110578
0.114892 0.114892 0.114892
0.118972 0.118972 0.118972
0.123897 0.123897 0.123897
0.128219 0.128219 0.128219
0.132085 0.132085 0.132085
0.095875 0.095875 0.095875
0.177433 0.177433 0.177433
0.213592 0.213592 0.213592
0.236990 0.236990 0.236990
0.255130 0.255130 0.255130
0.270151 0.270151 0.270151
0.279646 0.279646 0.279646
0.287801 0.287801 0.287801
0.295203 0.295203 0.295203
0.095875 0.095875 0.095875
0.285820 0.285820 0.285820
0.327646 0.327646 0.327646
0.356006 0.356006 0.356006
0.378106 0.378106 0.378106
0.396189 0.396189 0.396189
0.411603 0.411603 0.411603
0.425009 0.425009 0.425009
0.436389 0.436389 0.436389
0.095875 0.095875 0.095875
0.375587 0.375587 0.375587
0.433571 0.433571 0.433571
0.470741 0.470741 0.470741
0.499030 0.499030 0.499030
0.521942 0.521942 0.521942
0.540870 0.540870 0.540870
0.557408 0.557408 0.557408
0.572142 0.572142 0.572142
0.095875 0.095875 0.095875
0.466171 0.466171 0.466171
0.535812 0.535812 0.535812
0.579986 0.579986 0.579986
0.613520 0.613520 0.613520
0.640860 0.640860 0.640860
0.664101 0.664101 0.664101
0.682256 0.682256 0.682256
0.697897 0.697897 0.697897
0.095875 0.095875 0.095875
0.553388 0.553388 0.553388
0.633645 0.633645 0.633645
0.683536 0.683536 0.683536
0.717744 0.717744 0.717744
0.745453 0.745453 0.745453
0.768814 0.768814 0.768814
0.786274 0.786274 0.786274
0.799357 0.799357 0.799357
0.095875 0.095875 0.095875
0.637690 0.637690 0.637690
0.721724 0.721724 0.721724
0.773058 0.773058 0.773058
0.802581 0.802581 0.802581
0.825021 0.825021 0.825021
0.843821 0.843821 0.843821
0.860050 0.860050 0.860050
0.874360 0.874360 0.874360
0.095875 0.095875 0.095875
0.713864 0.713864 0.713864
0.796209 0.796209 0.796209
0.837121 0.837121 0.837121
0.867418 0.867418 0.867418
0.888378 0.888378 0.888378
0.903152 0.903152 0.903152
0.915835 0.915835 0.915835
0.926965 0.926965 0.926965
0.095875 0.095875 0.095875
0.095875 0.095875 0.095875
0.095875 0.095875 0.095875
0.095875 0.095875 0.095875
0.095875 0.095875 0.095875
0.095875 0.095875 0.095875
0.095875 0.095875 0.095875
0.095875 0.095875 0.095875
0.095875 0.095875 0.095875
0.095875 0.095875 0.095875
0.101524 0.101524 0.101524
0.106110 0.106110 0.106110
0.111338 0.111338 0.111338
0.115704 0.115704 0.115704
0.120341 0.120341 0.120341
0.125323 0.125323 0.125323
0.129695 0.129695 0.129695
0.133605 0.133605 0.133605
0.095875 0.095875 0.095875
0.179940 0.179940 0.179940
0.216428 0.216428 0.216428
0.240137 0.240137 0.240137
0.258517 0.258517 0.258517
0.272904 0.272904 0.272904
0.282342 0.282342 0.282342
0.290575 0.290575 0.290575
0.298249 0.298249 0.298249
0.095875 0.095875 0.095875
0.288575 0.288575 0.288575
0.331027 0.331027 0.331027
0.359861 0.359861 0.359861
0.382200 0.382200 0.382200
0.400479 0.400479 0.400479
0.416060 0.416060 0.416060
0.429313 0.429313 0.429313
0.440967 0.440967 0.440967
0.095875 0.095875 0.095875
0.379654 0.379654 0.379654
0.438119 0.438119 0.438119
0.475679 0.475679 0.475679
0.504265 0.504265 0.504265
0.527215 0.527215 0.527215
0.546334 0.546334 0.546334
0.563039 0.563039 0.563039
0.577922 0.577922 0.577922
0.095875 0.095875 0.095875
0.471061 0.471061 0.471061
0.541225 0.541225 0.541225
0.585846 0.585846 0.585846
0.619718 0.619718 0.619718
0.647335 0.647335 0.647335
0.670464 0.670464 0.670464
0.688240 0.688240 0.688240
0.704019 0.704019 0.704019
0.095875 0.095875 0.095875
0.558978 0.558978 0.558978
0.640047 0.640047 0.640047
0.689531 0.689531 0.689531
0.724040 0.724040 0.724040
0.751992 0.751992 0.751992
0.775528 0.775528 0.775528
0.791289 0.791289 0.791289
0.804455 0.804455 0.804455
0.095875 0.095875 0.095875
0.644133 0.644133 0.644133
0.728054 0.728054 0.728054
0.779489 0.779489 0.779489
0.807700 0.807700 0.807700
0.830283 0.830283 0.830283
0.849203 0.849203 0.849203
0.865535 0.865535 0.865535
0.879804 0.879804 0.879804
0.095875 0.095875 0.095875
0.720126 0.720126 0.720126
0.801287 0.801287 0.801287
0.842460 0.842460 0.842460
0.872950 0.872950 0.872950
0.892522 0.892522 0.892522
0.907365 0.907365 0.907365
0.920107 0.920107 0.920107
0.931289 0.931289 0.931289
0.095875 0.095875 0.095875
0.095875 0.095875 0.095875
0.095875 0.095875 0.095875
0.095875 0.095875 0.095875
0.095875 0.095875 0.095875
0.095875 0.095875 0.095875
0.095875 0.095875 0.095875
0.095875 0.095875 0.095875
0.095875 0.095875 0.095875
0.095875 0.095875 0.095875
0.101743 0.101743 0.101743
0.106415 0.106415 0.106415
0.111880 0.111880 0.111880
0.116377 0.116377 0.116377
0.121323 0.121323 0.121323
0.126344 0.126344 0.126344
0.130752 0.130752 0.130752
0.134694 0.134694 0.134694
0.095875 0.095875 0.095875
0.181740 0.181740 0.181740
0.218463 0.218463 0.218463
0.242394 0.242394 0.242394
0.260947 0.260947 0.260947
0.274768 0.274768 0.274768
0.284270 0.284270 0.284270
0.292559 0.292559 0.292559
0.300429 0.300429 0.300429
0.095875 0.095875 0.095875
0.290545 0.290545 0.290545
0.333447 0.333447 0.333447
0.362622 0.362622 0.362622
0.385132 0.385132 0.385132
0.403551 0.403551 0.403551
0.419252 0.419252 0.419252
0.432392 0.432392 0.432392
0.444244 0.444244 0.444244
0.095875 0.095875 0.095875
0.382566 0.382566 0.382566
0.441376 0.441376 0.441376
0.479214 0.479214 0.479214
0.508013 0.508013 0.508013
0.530988 0.530988 0.530988
0.550244 0.550244 0.550244
0.567069 0.567069 0.567069
0.582058 0.582058 0.582058
0.095875 0.095875 0.095875
0.474562 0.474562 0.474562
0.545099 0.545099 0.545099
0.590039 0.590039 0.590039
0.624154 0.624154 0.624154
0.651968 0.651968 0.651968
0.674631 0.674631 0.674631
0.692518 0.692518 0.692518
0.708394 0.708394 0.708394
0.095875 0.095875 0.095875
0.562979 0.562979 0.562979
0.644628 0.644628 0.644628
0.693817 0.693817 0.693817
0.728540 0.728540 0.728540
0.756648 0.756648 0.756648
0.779868 0.779868 0.779868
0.794867 0.794867 0.794867
0.808092 0.808092 0.808092
0.095875 0.095875 0.095875
0.648743 0.648743 0.648743
0.732579 0.732579 0.732579
0.783013 0.783013 0.783013
0.811351 0.811351 0.811351
0.834037 0.834037 0.834037
0.853042 0.853042 0.853042
0.869448 0.869448 0.869448
0.882714 0.882714 0.882714
0.095875 0.095875 0.095875
0.724602 0.724602 0.724602
0.804910 0.804910 0.804910
0.846269 0.846269 0.846269
0.876897 0.876897 0.876897
0.895474 0.895474 0.895474
0.910366 0.910366 0.910366
0.923150 0.923150 0.923150
0.934370 0.934370 0.934370
0.095875 0.095875 0.095875
0.095875 0.095875 0.095875
0.095875 0.095875 0.095875
0.095875 0.095875 0.095875
0.095875 0.095875 0.095875
0.095875 0.095875 0.095875
0.095875 0.095875 0.095875
0.095875 0.095875 0.095875
0.095875 0.095875 0.095875
0.095875 0.095875 0.095875
0.101912 0.101912 0.101912
0.106652 0.106652 0.106652
0.112302 0.112302 0.112302
0.116901 0.116901 0.116901
0.122089 0.122089 0.122089
0.127143 0.127143 0.127143
0.131578 0.131578 0.131578
0.135545 0.135545 0.135545
0.095875 0.095875 0.095875
0.183149 0.183149 0.183149
0.220054 0.220054 0.220054
0.244160 0.244160 0.244160
0.262848 0.262848 0.262848
0.276223 0.276223 0.276223
0.285775 0.285775 0.285775
0.294187 0.294187 0.294187
0.302131 0.302131 0.302131
0.095875 0.095875 0.095875
0.292083 0.292083 0.292083
0.335336 0.335336 0.335336
0.364777 0.364777 0.364777
0.387422 0.387422 0.387422
0.405950 0.405950 0.405950
0.421744 0.421744 0.421744
0.434862 0.434862 0.434862
0.446803 0.446803 0.446803
0.095875 0.095875 0.095875
0.384841 0.384841 0.384841
0.443918 0.443918 0.443918
0.481975 0.481975 0.481975
0.510939 0.510939 0.510939
0.533934 0.533934 0.533934
0.553297 0.553297 0.553297
0.570215 0.570215 0.570215
0.585287 0.585287 0.585287
0.095875 0.095875 0.095875
0.477296 0.477296 0.477296
0.548122 0.548122 0.548122
0.593312 0.593312 0.593312
0.627616 0.627616 0.627616
0.655584 0.655584 0.655584
0.677882 0.677882 0.677882
0.695854 0.695854 0.695854
0.711807 0.711807 0.711807
0.095875 0.095875 0.095875
0.566102 0.566102 0.566102
0.648203 0.648203 0.648203
0.697160 0.697160 0.697160
0.732050 0.732050 0.732050
0.760278 0.760278 0.760278
0.782601 0.782601 0.782601
0.797653 0.797653 0.797653
0.810925 0.810925 0.810925
0.095875 0.095875 0.095875
0.652341 0.652341 0.652341
0.736108 0.736108 0.736108
0.785758 0.785758 0.785758
0.814195 0.814195 0.814195
0.836960 0.836960 0.836960
0.856032 0.856032 0.856032
0.872496 0.872496 0.872496
0.884978 0.884978 0.884978
0.095875 0.095875 0.095875
0.728092 0.728092 0.728092
0.807731 0.807731 0.807731
0.849235 0.849235 0.849235
0.879829 0.879829 0.879829
0.897770 0.897770 0.897770
0.912701 0.912701 0.912701
0.925518 0.925518 0.925518
0.936766 0.936766 0.936766
0.095875 0.095875 0.095875
0.095875 0.095875 0.095875
0.095875 0.095875 0.095875
0.095875 0.095875 0.095875
0.095875 0.095875 0.095875
0.095875 0.095875 0.095875
0.095875 0.095875 0.095875
0.095875 0.095875 0.095875
0.095875 0.095875 0.095875
0.095875 0.095875 0.095875
0.102051 0.102051 0.102051
0.106847 0.106847 0.106847
0.112648 0.112648 0.112648
0.117331 0.117331 0.117331
0.122719 0.122719 0.122719
0.127799 0.127799 0.127799
0.132257 0.132257 0.132257
0.136282 0.136282 0.136282
0.095875 0.095875 0.095875
0.184308 0.184308 0.184308
0.221363 0.221363 0.221363
0.245613 0.245613 0.245613
0.264412 0.264412 0.264412
0.277417 0.277417 0.277417
0.287010 0.287010 0.287010
0.295548 0.295548 0.295548
0.303529 0.303529 0.303529
0.095875 0.095875 0.095875
0.293371 0.293371 0.293371
0.336887 0.336887 0.336887
0.366548 0.366548 0.366548
0.389303 0.389303 0.389303
0.407921 0.407921 0.407921
0.423783 0.423783 0.423783
0.436908 0.436908 0.436908
0.448905 0.448905 0.448905
0.095875 0.095875 0.095875
0.386709 0.386709 0.386709
0.446006 0.446006 0.446006
0.484242 0.484242 0.484242
0.513342 0.513342 0.513342
0.536352 0.536352 0.536352
0.555803 0.555803 0.555803
0.572798 0.572798 0.572798
0.587939 0.587939 0.587939
0.095875 0.095875 0.095875
0.479541 0.479541 0.479541
0.550605 0.550605 0.550605
0.595999 0.595999 0.595999
0.630459 0.630459 0.630459
0.658554 0.658554 0.658554
0.680549 0.680549 0.680549
0.698592 0.698592 0.698592
0.714608 0.714608 0.714608
0.095875 0.095875 0.095875
0.568667 0.568667 0.568667
0.651140 0.651140 0.651140
0.699903 0.699903 0.699903
0.734930 0.734930 0.734930
0.763256 0.763256 0.763256
0.784842 0.784842 0.784842
0.799936 0.799936 0.799936
0.813246 0.813246 0.813246
0.095875 0.095875 0.095875
0.655297 0.655297 0.655297
0.739005 0.739005 0.739005
0.788007 0.788007 0.788007
0.816526 0.816526 0.816526
0.839356 0.839356 0.839356
0.858483 0.858483 0.858483
0.874994 0.874994 0.874994
0.886832 0.886832 0.886832
0.095875 0.095875 0.095875
0.730957 0.730957 0.730957
0.810043 0.810043 0.810043
0.851667 0.851667 0.851667
0.881672 0.881672 0.881672
0.899651 0.899651 0.899651
0.914613 0.914613 0.914613
0.927457 0.927457 0.927457
0.938728 0.938728 0.938728
0.095875 0.095875 0.095875
0.095875 0.095875 0.095875
0.095875 0.095875 0.095875
0.095875 0.095875 0.095875
0.095875 0.095875 0.095875
0.095875 0.095875 0.095875
0.095875 0.095875 0.095875
0.095875 0.095875 0.095875
0.095875 0.095875 0.095875
0.095875 0.095875 0.095875
0.102168 0.102168 0.102168
0.107011 0.107011 0.107011
0.112942 0.112942 0.112942
0.117696 0.117696 0.117696
0.123254 0.123254 0.123254
0.128356 0.128356 0.128356
0.132834 0.132834 0.132834
0.136940 0.136940 0.136940
0.095875 0.095875 0.095875
0.185294 0.185294 0.185294
0.222476 0.222476 0.222476
0.246847 0.246847 0.246847
0.265741 0.265741 0.265741
0.278430 0.278430 0.278430
0.288059 0.288059 0.288059
0.296704 0.296704 0.296704
0.304716 0.304716 0.304716
0.095875 0.095875 0.095875
0.294519 0.294519 0.294519
0.338205 0.338205 0.338205
0.368052 0.368052 0.368052
0.390900 0.390900 0.390900
0.409595 0.409595 0.409595
0.425409 0.425409 0.425409
0.438645 0.438645 0.438645
0.450689 0.450689 0.450689
0.095875 0.095875 0.095875
0.388296 0.388296 0.388296
0.447779 0.447779 0.447779
0.486167 0.486167 0.486167
0.515383 0.515383 0.515383
0.538406 0.538406 0.538406
0.557931 0.557931 0.557931
0.574991 0.574991 0.574991
0.590190 0.590190 0.590190
0.095875 0.095875 0.095875
0.481447 0.481447 0.481447
0.552714 0.552714 0.552714
0.598281 0.598281 0.598281
0.632873 0.632873 0.632873
0.661076 0.661076 0.661076
0.682812 0.682812 0.682812
0.700915 0.700915 0.700915
0.716984 0.716984 0.716984
0.095875 0.095875 0.095875
0.570844 0.570844 0.570844
0.653633 0.653633 0.653633
0.702230 0.702230 0.702230
0.737374 0.737374 0.737374
0.765783 0.765783 0.765783
0.786741 0.786741 0.786741
0.801872 0.801872 0.801872
0.815214 0.815214 0.815214
0.095875 0.095875 0.095875
0.657806 0.657806 0.657806
0.741462 0.741462 0.741462
0.789914 0.789914 0.789914
0.818502 0.818502 0.818502
0.841387 0.841387 0.841387
0.860560 0.860560 0.860560
0.877111 0.877111 0.877111
0.888403 0.888403 0.888403
0.095875 0.095875 0.095875
0.733388 0.733388 0.733388
0.812004 0.812004 0.812004
0.853728 0.853728 0.853728
0.883234 0.883234 0.883234
0.901244 0.901244 0.901244
0.916233 0.916233 0.916233
0.929099 0.929099 0.929099
0.940391 0.940391 0.940391
0.095875 0.095875 0.095875
0.095875 0.095875 0.095875
0.095875 0.095875 0.095875
0.095875 0.095875 0.095875
0.095875 0.095875 0.095875
0.095875 0.095875 0.095875
0.095875 0.095875 0.095875
0.095875 0.095875 0.095875
0.095875 0.095875 0.095875
0.095875 0.095875 0.095875
0.102270 0.102270 0.102270
0.107253 0.107253 0.107253
0.113196 0.113196 0.113196
0.118012 0.118012 0.118012
0.123720 0.123720 0.123720
0.128841 0.128841 0.128841
0.133335 0.133335 0.133335
0.137513 0.137513 0.137513
0.095875 0.095875 0.095875
0.186152 0.186152 0.186152
0.223445 0.223445 0.223445
0.247922 0.247922 0.247922
0.266898 0.266898 0.266898
0.279311 0.279311 0.279311
0.288970 0.288970 0.288970
0.297708 0.297708 0.297708
0.305747 0.305747 0.305747
0.095875 0.095875 0.095875
0.295516 0.295516 0.295516
0.339350 0.339350 0.339350
0.369360 0.369360 0.369360
0.392289 0.392289 0.392289
0.411050 0.411050 0.411050
0.426823 0.426823 0.426823
0.440155 0.440155 0.440155
0.452241 0.452241 0.452241
0.095875 0.095875 0.095875
0.389675 0.389675 0.389675
0.449321 0.449321 0.449321
0.487841 0.487841 0.487841
0.517146 0.517146 0.517146
0.540191 0.540191 0.540191
0.559781 0.559781 0.559781
0.576897 0.576897 0.576897
0.592147 0.592147 0.592147
0.095875 0.095875 0.095875
0.483105 0.483105 0.483105
0.554546 0.554546 0.554546
0.600265 0.600265 0.600265
0.634971 0.634971 0.634971
0.663268 0.663268 0.663268
0.684779 0.684779 0.684779
0.702934 0.702934 0.702934
0.719049 0.719049 0.719049
0.095875 0.095875 0.095875
0.572737 0.572737 0.572737
0.655800 0.655800 0.655800
0.704253 0.704253 0.704253
0.739498 0.739498 0.739498
0.767979 0.767979 0.767979
0.788390 0.788390 0.788390
0.803553 0.803553 0.803553
0.816923 0.816923 0.816923
0.095875 0.095875 0.095875
0.659987 0.659987 0.659987
0.743598 0.743598 0.743598
0.791570 0.791570 0.791570
0.820218 0.820218 0.820218
0.843151 0.843151 0.843151
0.862364 0.862364 0.862364
0.878950 0.878950 0.878950
0.889765 0.889765 0.889765
0.095875 0.095875 0.095875
0.735500 0.735500 0.735500
0.813706 0.813706 0.813706
0.855517 0.855517 0.855517
0.884588 0.884588 0.884588
0.902627 0.902627 0.902627
0.917638 0.917638 0.917638
0.930524 0.930524 0.930524
0.941833 0.941833 0.941833
