trix_classic/TriX_Red25_Normal.cube
TITLE "Tri-X Red25 Normal"
# Adobe RGB in/out. REPLACES AgX. R=0.9735 G=0.0265 B=0.0000
LUT_3D_SIZE 33
DOMAIN_MIN 0.0 0.0 0.0
DOMAIN_MAX 1.0 1.0 1.0
0.095875 0.095875 0.095875
0.095875 0.095875 0.095875
0.095875 0.095875 0.095875
0.095875 0.095875 0.095875
0.095875 0.095875 0.095875
0.095875 0.095875 0.095875
0.095875 0.095875 0.095875
0.095875 0.095875 0.095875
0.095875 0.095875 0.095875
0.095875 0.095875 0.095875
0.095875 0.095875 0.095875
0.095875 0.095875 0.095875
0.095875 0.095875 0.095875
0.095875 0.095875 0.095875
0.095875 0.095875 0.095875
0.095875 0.095875 0.095875
0.095875 0.095875 0.095875
0.095875 0.095875 0.095875
0.095875 0.095875 0.095875
0.095875 0.095875 0.095875
0.095875 0.095875 0.095875
0.095875 0.095875 0.095875
0.095875 0.095875 0.095875
0.095875 0.095875 0.095875
0.095875 0.095875 0.095875
0.095875 0.095875 0.095875
0.095875 0.095875 0.095875
0.095875 0.095875 0.095875
0.095875 0.095875 0.095875
0.095875 0.095875 0.095875
0.095875 0.095875 0.095875
0.095875 0.095875 0.095875
0.095875 0.095875 0.095875
0.095875 0.095875 0.095875
0.095875 0.095875 0.095875
0.095875 0.095875 0.095875
0.097360 0.097360 0.097360
0.100159 0.100159 0.100159
0.108633 0.108633 0.108633
0.129794 0.129794 0.129794
0.160239 0.160239 0.160239
0.196359 0.196359 0.196359
0.233496 0.233496 0.233496
0.271800 0.271800 0.271800
0.301216 0.301216 0.301216
0.332435 0.332435 0.332435
0.365209 0.365209 0.365209
0.398854 0.398854 0.398854
0.432350 0.432350 0.432350
0.465703 0.465703 0.465703
0.499398 0.499398 0.499398
0.532777 0.532777 0.532777
0.565724 0.565724 0.565724
0.598863 0.598863 0.598863
0.632184 0.632184 0.632184
0.665679 0.665679 0.665679
0.695173 0.695173 0.695173
0.724293 0.724293 0.724293
0.753367 0.753367 0.753367
0.781290 0.781290 0.781290
0.802265 0.802265 0.802265
0.823009 0.823009 0.823009
0.843533 0.843533 0.843533
0.863848 0.863848 0.863848
0.882748 0.882748 0.882748
0.897268 0.897268 0.897268
0.095875 0.095875 0.095875
0.095875 0.095875 0.095875
0.095875 0.095875 0.095875
0.097481 0.097481 0.097481
0.100500 0.100500 0.100500
0.110193 0.110193 0.110193
0.132926 0.132926 0.132926
0.164524 0.164524 0.164524
0.202172 0.202172 0.202172
0.240000 0.240000 0.240000
0.277285 0.277285 0.277285
0.307726 0.307726 0.307726
0.339621 0.339621 0.339621
0.373496 0.373496 0.373496
0.407904 0.407904 0.407904
0.441829 0.441829 0.441829
0.475938 0.475938 0.475938
0.510374 0.510374 0.510374
0.544050 0.544050 0.544050
0.577695 0.577695 0.577695
0.611534 0.611534 0.611534
0.645560 0.645560 0.645560
0.678233 0.678233 0.678233
0.707935 0.707935 0.707935
0.737590 0.737590 0.737590
0.767137 0.767137 0.767137
0.791706 0.791706 0.791706
0.812960 0.812960 0.812960
0.833981 0.833981 0.833981
0.854779 0.854779 0.854779
0.875364 0.875364 0.875364
0.891348 0.891348 0.891348
0.906009 0.906009 0.906009
0.095875 0.095875 0.095875
0.095875 0.095875 0.095875
0.095875 0.095875 0.095875
0.097552 0.097552 0.097552
0.100712 0.100712 0.100712
0.111116 0.111116 0.111116
0.134792 0.134792 0.134792
0.167239 0.167239 0.167239
0.205448 0.205448 0.205448
0.243888 0.243888 0.243888
0.280546 0.280546 0.280546
0.311600 0.311600 0.311600
0.344071 0.344071 0.344071
0.378430 0.378430 0.378430
0.413292 0.413292 0.413292
0.447484 0.447484 0.447484
0.482029 0.482029 0.482029
0.516903 0.516903 0.516903
0.550755 0.550755 0.550755
0.584814 0.584814 0.584814
0.619070 0.619070 0.619070
0.653516 0.653516 0.653516
0.685489 0.685489 0.685489
0.715508 0.715508 0.715508
0.745481 0.745481 0.745481
0.775308 0.775308 0.775308
0.797863 0.797863 0.797863
0.819283 0.819283 0.819283
0.840467 0.840467 0.840467
0.861427 0.861427 0.861427
0.881440 0.881440 0.881440
0.896417 0.896417 0.896417
0.911162 0.911162 0.911162
0.095875 0.095875 0.095875
0.095875 0.095875 0.095875
0.095875 0.095875 0.095875
0.097602 0.097602 0.097602
0.100863 0.100863 0.100863
0.111775 0.111775 0.111775
0.136159 0.136159 0.136159
0.169280 0.169280 0.169280
0.207804 0.207804 0.207804
0.246685 0.246685 0.246685
0.282882 0.282882 0.282882
0.314377 0.314377 0.314377
0.347290 0.347290 0.347290
0.381970 0.381970 0.381970
0.417159 0.417159 0.417159
0.451539 0.451539 0.451539
0.486398 0.486398 0.486398
0.521414 0.521414 0.521414
0.555562 0.555562 0.555562
0.589918 0.589918 0.589918
0.624474 0.624474 0.624474
0.659220 0.659220 0.659220
0.690684 0.690684 0.690684
0.720931 0.720931 0.720931
0.751130 0.751130 0.751130
0.780475 0.780475 0.780475
0.802261 0.802261 0.802261
0.823798 0.823798 0.823798
0.845099 0.845099 0.845099
0.866175 0.866175 0.866175
0.884994 0.884994 0.884994
0.900031 0.900031 0.900031
0.914835 0.914835 0.914835
0.095875 0.095875 0.095875
0.095875 0.095875 0.095875
0.095885 0.095885 0.095885
0.097641 0.097641 0.097641
0.100980 0.100980 0.100980
0.112289 0.112289 0.112289
0.137320 0.137320 0.137320
0.170880 0.170880 0.170880
0.209650 0.209650 0.209650
0.248877 0.248877 0.248877
0.284708 0.284708 0.284708
0.316549 0.316549 0.316549
0.349807 0.349807 0.349807
0.384739 0.384739 0.384739
0.420183 0.420183 0.420183
0.454711 0.454711 0.454711
0.489814 0.489814 0.489814
0.524941 0.524941 0.524941
0.559319 0.559319 0.559319
0.593908 0.593908 0.593908
0.628697 0.628697 0.628697
0.663678 0.663678 0.663678
0.694741 0.694741 0.694741
0.725165 0.725165 0.725165
0.755530 0.755530 0.755530
0.783810 0.783810 0.783810
0.805689 0.805689 0.805689
0.827318 0.827318 0.827318
0.848710 0.848710 0.848710
0.869875 0.869875 0.869875
0.887760 0.887760 0.887760
0.902845 0.902845 0.902845
0.917695 0.917695 0.917695
0.095875 0.095875 0.095875
0.095875 0.095875 0.095875
0.095895 0.095895 0.095895
0.097673 0.097673 0.097673
0.101075 0.101075 0.101075
0.112711 0.112711 0.112711
0.138277 0.138277 0.138277
0.172199 0.172199 0.172199
0.211171 0.211171 0.211171
0.250682 0.250682 0.250682
0.286208 0.286208 0.286208
0.318335 0.318335 0.318335
0.351877 0.351877 0.351877
0.387016 0.387016 0.387016
0.422670 0.422670 0.422670
0.457318 0.457318 0.457318
0.492623 0.492623 0.492623
0.527840 0.527840 0.527840
0.562408 0.562408 0.562408
0.597188 0.597188 0.597188
0.632170 0.632170 0.632170
0.667344 0.667344 0.667344
0.698073 0.698073 0.698073
0.728643 0.728643 0.728643
0.759138 0.759138 0.759138
0.786545 0.786545 0.786545
0.808500 0.808500 0.808500
0.830205 0.830205 0.830205
0.851672 0.851672 0.851672
0.872911 0.872911 0.872911
0.890027 0.890027 0.890027
0.905150 0.905150 0.905150
0.920038 0.920038 0.920038
0.095875 0.095875 0.095875
0.095875 0.095875 0.095875
0.095904 0.095904 0.095904
0.097701 0.097701 0.097701
0.101209 0.101209 0.101209
0.113069 0.113069 0.113069
0.139091 0.139091 0.139091
0.173322 0.173322 0.173322
0.212465 0.212465 0.212465
0.252218 0.252218 0.252218
0.287483 0.287483 0.287483
0.319852 0.319852 0.319852
0.353637 0.353637 0.353637
0.388952 0.388952 0.388952
0.424710 0.424710 0.424710
0.459535 0.459535 0.459535
0.495011 0.495011 0.495011
0.530304 0.530304 0.530304
0.565033 0.565033 0.565033
0.599975 0.599975 0.599975
0.635120 0.635120 0.635120
0.670159 0.670159 0.670159
0.700903 0.700903 0.700903
0.731597 0.731597 0.731597
0.762202 0.762202 0.762202
0.788865 0.788865 0.788865
0.810885 0.810885 0.810885
0.832654 0.832654 0.832654
0.854184 0.854184 0.854184
0.875486 0.875486 0.875486
0.891948 0.891948 0.891948
0.907104 0.907104 0.907104
0.922024 0.922024 0.922024
0.095875 0.095875 0.095875
0.095875 0.095875 0.095875
0.095912 0.095912 0.095912
0.097724 0.097724 0.097724
0.101332 0.101332 0.101332
0.113380 0.113380 0.113380
0.139800 0.139800 0.139800
0.174300 0.174300 0.174300
0.213592 0.213592 0.213592
0.253557 0.253557 0.253557
0.288592 0.288592 0.288592
0.321172 0.321172 0.321172
0.355169 0.355169 0.355169
0.390636 0.390636 0.390636
0.426431 0.426431 0.426431
0.461463 0.461463 0.461463
0.497088 0.497088 0.497088
0.532447 0.532447 0.532447
0.567317 0.567317 0.567317
0.602400 0.602400 0.602400
0.637687 0.637687 0.637687
0.672512 0.672512 0.672512
0.703364 0.703364 0.703364
0.734166 0.734166 0.734166
0.764866 0.764866 0.764866
0.790880 0.790880 0.790880
0.812956 0.812956 0.812956
0.834781 0.834781 0.834781
0.856366 0.856366 0.856366
0.877722 0.877722 0.877722
0.893615 0.893615 0.893615
0.908800 0.908800 0.908800
0.923747 0.923747 0.923747
0.095875 0.095875 0.095875
0.095875 0.095875 0.095875
0.095918 0.095918 0.095918
0.097745 0.097745 0.097745
0.101441 0.101441 0.101441
0.113655 0.113655 0.113655
0.140428 0.140428 0.140428
0.175168 0.175168 0.175168
0.214592 0.214592 0.214592
0.254743 0.254743 0.254743
0.289573 0.289573 0.289573
0.322341 0.322341 0.322341
0.356526 0.356526 0.356526
0.392128 0.392128 0.392128
0.427954 0.427954 0.427954
0.463171 0.463171 0.463171
0.498928 0.498928 0.498928
0.534345 0.534345 0.534345
0.569339 0.569339 0.569339
0.604548 0.604548 0.604548
0.639960 0.639960 0.639960
0.674594 0.674594 0.674594
0.705541 0.705541 0.705541
0.736439 0.736439 0.736439
0.767224 0.767224 0.767224
0.792662 0.792662 0.792662
0.814788 0.814788 0.814788
0.836662 0.836662 0.836662
0.858295 0.858295 0.858295
0.879631 0.879631 0.879631
0.895089 0.895089 0.895089
0.910298 0.910298 0.910298
0.925271 0.925271 0.925271
0.095875 0.095875 0.095875
0.095875 0.095875 0.095875
0.095924 0.095924 0.095924
0.097763 0.097763 0.097763
0.101538 0.101538 0.101538
0.113902 0.113902 0.113902
0.140992 0.140992 0.140992
0.175948 0.175948 0.175948
0.215490 0.215490 0.215490
0.255809 0.255809 0.255809
0.290454 0.290454 0.290454
0.323391 0.323391 0.323391
0.357744 0.357744 0.357744
0.393468 0.393468 0.393468
0.429322 0.429322 0.429322
0.464704 0.464704 0.464704
0.500579 0.500579 0.500579
0.536048 0.536048 0.536048
0.571154 0.571154 0.571154
0.606475 0.606475 0.606475
0.642000 0.642000 0.642000
0.676462 0.676462 0.676462
0.707495 0.707495 0.707495
0.738478 0.738478 0.738478
0.769339 0.769339 0.769339
0.794259 0.794259 0.794259
0.816430 0.816430 0.816430
0.838348 0.838348 0.838348
0.860025 0.860025 0.860025
0.880928 0.880928 0.880928
0.896409 0.896409 0.896409
0.911640 0.911640 0.911640
0.926635 0.926635 0.926635
0.095875 0.095875 0.095875
0.095875 0.095875 0.095875
0.095930 0.095930 0.095930
0.097780 0.097780 0.097780
0.101626 0.101626 0.101626
0.114125 0.114125 0.114125
0.141505 0.141505 0.141505
0.176656 0.176656 0.176656
0.216306 0.216306 0.216306
0.256777 0.256777 0.256777
0.291253 0.291253 0.291253
0.324343 0.324343 0.324343
0.358849 0.358849 0.358849
0.394684 0.394684 0.394684
0.430562 0.430562 0.430562
0.466095 0.466095 0.466095
0.502078 0.502078 0.502078
0.537594 0.537594 0.537594
0.572801 0.572801 0.572801
0.608223 0.608223 0.608223
0.643851 0.643851 0.643851
0.678156 0.678156 0.678156
0.709267 0.709267 0.709267
0.740327 0.740327 0.740327
0.771258 0.771258 0.771258
0.795707 0.795707 0.795707
0.817918 0.817918 0.817918
0.839876 0.839876 0.839876
0.861592 0.861592 0.861592
0.882103 0.882103 0.882103
0.897604 0.897604 0.897604
0.912856 0.912856 0.912856
0.927871 0.927871 0.927871
0.095875 0.095875 0.095875
0.095875 0.095875 0.095875
0.095934 0.095934 0.095934
0.097795 0.097795 0.097795
0.101706 0.101706 0.101706
0.114330 0.114330 0.114330
0.141975 0.141975 0.141975
0.177306 0.177306 0.177306
0.217053 0.217053 0.217053
0.257664 0.257664 0.257664
0.291985 0.291985 0.291985
0.325215 0.325215 0.325215
0.359861 0.359861 0.359861
0.395797 0.395797 0.395797
0.431698 0.431698 0.431698
0.467369 0.467369 0.467369
0.503450 0.503450 0.503450
0.539009 0.539009 0.539009
0.574308 0.574308 0.574308
0.609824 0.609824 0.609824
0.645546 0.645546 0.645546
0.679706 0.679706 0.679706
0.710888 0.710888 0.710888
0.742020 0.742020 0.742020
0.773013 0.773013 0.773013
0.797031 0.797031 0.797031
0.819279 0.819279 0.819279
0.841273 0.841273 0.841273
0.863026 0.863026 0.863026
0.883177 0.883177 0.883177
0.898697 0.898697 0.898697
0.913968 0.913968 0.913968
0.929001 0.929001 0.929001
0.095875 0.095875 0.095875
0.095875 0.095875 0.095875
0.095939 0.095939 0.095939
0.097809 0.097809 0.097809
0.101780 0.101780 0.101780
0.114518 0.114518 0.114518
0.142408 0.142408 0.142408
0.177905 0.177905 0.177905
0.217743 0.217743 0.217743
0.258483 0.258483 0.258483
0.292659 0.292659 0.292659
0.326019 0.326019 0.326019
0.360795 0.360795 0.360795
0.396824 0.396824 0.396824
0.432745 0.432745 0.432745
0.468544 0.468544 0.468544
0.504715 0.504715 0.504715
0.540314 0.540314 0.540314
0.575699 0.575699 0.575699
0.611300 0.611300 0.611300
0.647109 0.647109 0.647109
0.681136 0.681136 0.681136
0.712383 0.712383 0.712383
0.743580 0.743580 0.743580
0.774632 0.774632 0.774632
0.798251 0.798251 0.798251
0.820533 0.820533 0.820533
0.842561 0.842561 0.842561
0.864347 0.864347 0.864347
0.884167 0.884167 0.884167
0.899704 0.899704 0.899704
0.914992 0.914992 0.914992
0.930042 0.930042 0.930042
0.095875 0.095875 0.095875
0.095875 0.095875 0.095875
0.095943 0.095943 0.095943
0.097822 0.097822 0.097822
0.101849 0.101849 0.101849
0.114693 0.114693 0.114693
0.142810 0.142810 0.142810
0.178462 0.178462 0.178462
0.218383 0.218383 0.218383
0.259244 0.259244 0.259244
0.293306 0.293306 0.293306
0.326765 0.326765 0.326765
0.361661 0.361661 0.361661
0.397777 0.397777 0.397777
0.433745 0.433745 0.433745
0.469634 0.469634 0.469634
0.505890 0.505890 0.505890
0.541525 0.541525 0.541525
0.576989 0.576989 0.576989
0.612670 0.612670 0.612670
0.648559 0.648559 0.648559
0.682462 0.682462 0.682462
0.713770 0.713770 0.713770
0.745028 0.745028 0.745028
0.776133 0.776133 0.776133
0.799382 0.799382 0.799382
0.821695 0.821695 0.821695
0.843755 0.843755 0.843755
0.865572 0.865572 0.865572
0.885084 0.885084 0.885084
0.900637 0.900637 0.900637
0.915941 0.915941 0.915941
0.931006 0.931006 0.931006
0.095875 0.095875 0.095875
0.095875 0.095875 0.095875
0.095947 0.095947 0.095947
0.097834 0.097834 0.097834
0.101913 0.101913 0.101913
0.114855 0.114855 0.114855
0.143186 0.143186 0.143186
0.178982 0.178982 0.178982
0.218981 0.218981 0.218981
0.259954 0.259954 0.259954
0.293931 0.293931 0.293931
0.327461 0.327461 0.327461
0.362470 0.362470 0.362470
0.398666 0.398666 0.398666
0.434684 0.434684 0.434684
0.470651 0.470651 0.470651
0.506985 0.506985 0.506985
0.542654 0.542654 0.542654
0.578193 0.578193 0.578193
0.613949 0.613949 0.613949
0.649912 0.649912 0.649912
0.683698 0.683698 0.683698
0.715064 0.715064 0.715064
0.746378 0.746378 0.746378
0.777534 0.777534 0.777534
0.800436 0.800436 0.800436
0.822779 0.822779 0.822779
0.844868 0.844868 0.844868
0.866713 0.866713 0.866713
0.885938 0.885938 0.885938
0.901507 0.901507 0.901507
0.916825 0.916825 0.916825
0.931905 0.931905 0.931905
0.095875 0.095875 0.095875
0.095875 0.095875 0.095875
0.095951 0.095951 0.095951
0.097846 0.097846 0.097846
0.101973 0.101973 0.101973
0.115008 0.115008 0.115008
0.143538 0.143538 0.143538
0.179469 0.179469 0.179469
0.219542 0.219542 0.219542
0.260619 0.260619 0.260619
0.294517 0.294517 0.294517
0.328114 0.328114 0.328114
0.363228 0.363228 0.363228
0.399499 0.399499 0.399499
0.435565 0.435565 0.435565
0.471605 0.471605 0.471605
0.508013 0.508013 0.508013
0.543713 0.543713 0.543713
0.579321 0.579321 0.579321
0.615147 0.615147 0.615147
0.651180 0.651180 0.651180
0.684857 0.684857 0.684857
0.716276 0.716276 0.716276
0.747643 0.747643 0.747643
0.778785 0.778785 0.778785
0.801424 0.801424 0.801424
0.823795 0.823795 0.823795
0.845910 0.845910 0.845910
0.867783 0.867783 0.867783
0.886738 0.886738 0.886738
0.902321 0.902321 0.902321
0.917653 0.917653 0.917653
0.932747 0.932747 0.932747
0.095875 0.095875 0.095875
0.095875 0.095875 0.095875
0.095954 0.095954 0.095954
0.097856 0.097856 0.097856
0.102029 0.102029 0.102029
0.115151 0.115151 0.115151
0.143870 0.143870 0.143870
0.179929 0.179929 0.179929
0.220070 0.220070 0.220070
0.261246 0.261246 0.261246
0.295069 0.295069 0.295069
0.328728 0.328728 0.328728
0.363941 0.363941 0.363941
0.400284 0.400284 0.400284
0.436394 0.436394 0.436394
0.472502 0.472502 0.472502
0.508980 0.508980 0.508980
0.544710 0.544710 0.544710
0.580383 0.580383 0.580383
0.616274 0.616274 0.616274
0.652374 0.652374 0.652374
0.685948 0.685948 0.685948
0.717417 0.717417 0.717417
0.748834 0.748834 0.748834
0.779688 0.779688 0.779688
0.802353 0.802353 0.802353
0.824749 0.824749 0.824749
0.846890 0.846890 0.846890
0.868788 0.868788 0.868788
0.887490 0.887490 0.887490
0.903086 0.903086 0.903086
0.918431 0.918431 0.918431
0.933538 0.933538 0.933538
0.095875 0.095875 0.095875
0.095875 0.095875 0.095875
0.095957 0.095957 0.095957
0.097866 0.097866 0.097866
0.102082 0.102082 0.102082
0.115287 0.115287 0.115287
0.144183 0.144183 0.144183
0.180363 0.180363 0.180363
0.220569 0.220569 0.220569
0.261839 0.261839 0.261839
0.295589 0.295589 0.295589
0.329309 0.329309 0.329309
0.364615 0.364615 0.364615
0.401025 0.401025 0.401025
0.437177 0.437177 0.437177
0.473350 0.473350 0.473350
0.509893 0.509893 0.509893
0.545651 0.545651 0.545651
0.581386 0.581386 0.581386
0.617339 0.617339 0.617339
0.653501 0.653501 0.653501
0.686978 0.686978 0.686978
0.718494 0.718494 0.718494
0.749958 0.749958 0.749958
0.780540 0.780540 0.780540
0.803230 0.803230 0.803230
0.825651 0.825651 0.825651
0.847816 0.847816 0.847816
0.869738 0.869738 0.869738
0.888200 0.888200 0.888200
0.903809 0.903809 0.903809
0.919166 0.919166 0.919166
0.934284 0.934284 0.934284
0.095875 0.095875 0.095875
0.095875 0.095875 0.095875
0.095960 0.095960 0.095960
0.097876 0.097876 0.097876
0.102132 0.102132 0.102132
0.115415 0.115415 0.115415
0.144481 0.144481 0.144481
0.180774 0.180774 0.180774
0.221043 0.221043 0.221043
0.262401 0.262401 0.262401
0.296083 0.296083 0.296083
0.329858 0.329858 0.329858
0.365254 0.365254 0.365254
0.401728 0.401728 0.401728
0.437919 0.437919 0.437919
0.474154 0.474154 0.474154
0.510758 0.510758 0.510758
0.546543 0.546543 0.546543
0.582336 0.582336 0.582336
0.618348 0.618348 0.618348
0.654569 0.654569 0.654569
0.687953 0.687953 0.687953
0.719514 0.719514 0.719514
0.751023 0.751023 0.751023
0.781346 0.781346 0.781346
0.804060 0.804060 0.804060
0.826504 0.826504 0.826504
0.848692 0.848692 0.848692
0.870637 0.870637 0.870637
0.888872 0.888872 0.888872
0.904492 0.904492 0.904492
0.919861 0.919861 0.919861
0.934991 0.934991 0.934991
0.095875 0.095875 0.095875
0.095875 0.095875 0.095875
0.095963 0.095963 0.095963
0.097885 0.097885 0.097885
0.102180 0.102180 0.102180
0.115537 0.115537 0.115537
0.144763 0.144763 0.144763
0.181166 0.181166 0.181166
0.221492 0.221492 0.221492
0.262935 0.262935 0.262935
0.296552 0.296552 0.296552
0.330381 0.330381 0.330381
0.365861 0.365861 0.365861
0.402395 0.402395 0.402395
0.438624 0.438624 0.438624
0.474917 0.474917 0.474917
0.511581 0.511581 0.511581
0.547391 0.547391 0.547391
0.583239 0.583239 0.583239
0.619307 0.619307 0.619307
0.655584 0.655584 0.655584
0.688880 0.688880 0.688880
0.720483 0.720483 0.720483
0.752035 0.752035 0.752035
0.782112 0.782112 0.782112
0.804848 0.804848 0.804848
0.827314 0.827314 0.827314
0.849524 0.849524 0.849524
0.871490 0.871490 0.871490
0.889510 0.889510 0.889510
0.905141 0.905141 0.905141
0.920522 0.920522 0.920522
0.935662 0.935662 0.935662
0.095875 0.095875 0.095875
0.095875 0.095875 0.095875
0.095966 0.095966 0.095966
0.097894 0.097894 0.097894
0.102225 0.102225 0.102225
0.115671 0.115671 0.115671
0.145032 0.145032 0.145032
0.181539 0.181539 0.181539
0.221921 0.221921 0.221921
0.263444 0.263444 0.263444
0.296998 0.296998 0.296998
0.330878 0.330878 0.330878
0.366439 0.366439 0.366439
0.403031 0.403031 0.403031
0.439296 0.439296 0.439296
0.475644 0.475644 0.475644
0.512364 0.512364 0.512364
0.548198 0.548198 0.548198
0.584100 0.584100 0.584100
0.620221 0.620221 0.620221
0.656551 0.656551 0.656551
0.689763 0.689763 0.689763
0.721406 0.721406 0.721406
0.752997 0.752997 0.752997
0.782842 0.782842 0.782842
0.805599 0.805599 0.805599
0.828086 0.828086 0.828086
0.850317 0.850317 0.850317
0.872303 0.872303 0.872303
0.890117 0.890117 0.890117
0.905759 0.905759 0.905759
0.921150 0.921150 0.921150
0.936301 0.936301 0.936301
0.095875 0.095875 0.095875
0.095875 0.095875 0.095875
0.095969 0.095969 0.095969
0.097902 0.097902 0.097902
0.102268 0.102268 0.102268
0.115803 0.115803 0.115803
0.145289 0.145289 0.145289
0.181895 0.181895 0.181895
0.222331 0.222331 0.222331
0.263930 0.263930 0.263930
0.297425 0.297425 0.297425
0.331353 0.331353 0.331353
0.366991 0.366991 0.366991
0.403639 0.403639 0.403639
0.439937 0.439937 0.439937
0.476339 0.476339 0.476339
0.513112 0.513112 0.513112
0.548969 0.548969 0.548969
0.584921 0.584921 0.584921
0.621093 0.621093 0.621093
0.657475 0.657475 0.657475
0.690605 0.690605 0.690605
0.722288 0.722288 0.722288
0.753913 0.753913 0.753913
0.783538 0.783538 0.783538
0.806315 0.806315 0.806315
0.828822 0.828822 0.828822
0.851073 0.851073 0.851073
0.873079 0.873079 0.873079
0.890697 0.890697 0.890697
0.906349 0.906349 0.906349
0.921749 0.921749 0.921749
0.936910 0.936910 0.936910
0.095875 0.095875 0.095875
0.095875 0.095875 0.095875
0.095971 0.095971 0.095971
0.097910 0.097910 0.097910
0.102310 0.102310 0.102310
0.115929 0.115929 0.115929
0.145535 0.145535 0.145535
0.182236 0.182236 0.182236
0.222723 0.222723 0.222723
0.264395 0.264395 0.264395
0.297833 0.297833 0.297833
0.331808 0.331808 0.331808
0.367519 0.367519 0.367519
0.404220 0.404220 0.404220
0.440551 0.440551 0.440551
0.477003 0.477003 0.477003
0.513828 0.513828 0.513828
0.549707 0.549707 0.549707
0.585707 0.585707 0.585707
0.621927 0.621927 0.621927
0.658358 0.658358 0.658358
0.691412 0.691412 0.691412
0.723131 0.723131 0.723131
0.754789 0.754789 0.754789
0.784204 0.784204 0.784204
0.807000 0.807000 0.807000
0.829526 0.829526 0.829526
0.851796 0.851796 0.851796
0.873821 0.873821 0.873821
0.891250 0.891250 0.891250
0.906913 0.906913 0.906913
0.922323 0.922323 0.922323
0.937493 0.937493 0.937493
0.095875 0.095875 0.095875
0.095875 0.095875 0.095875
0.095974 0.095974 0.095974
0.097917 0.097917 0.097917
0.102349 0.102349 0.102349
0.116050 0.116050 0.116050
0.145771 0.145771 0.145771
0.182564 0.182564 0.182564
0.223099 0.223099 0.223099
0.264842 0.264842 0.264842
0.298224 0.298224 0.298224
0.332244 0.332244 0.332244
0.368026 0.368026 0.368026
0.404777 0.404777 0.404777
0.441139 0.441139 0.441139
0.477641 0.477641 0.477641
0.514514 0.514514 0.514514
0.550414 0.550414 0.550414
0.586460 0.586460 0.586460
0.622728 0.622728 0.622728
0.659205 0.659205 0.659205
0.692184 0.692184 0.692184
0.723939 0.723939 0.723939
0.755629 0.755629 0.755629
0.784842 0.784842 0.784842
0.807657 0.807657 0.807657
0.830201 0.830201 0.830201
0.852489 0.852489 0.852489
0.874532 0.874532 0.874532
0.891781 0.891781 0.891781
0.907453 0.907453 0.907453
0.922872 0.922872 0.922872
0.938051 0.938051 0.938051
0.095875 0.095875 0.095875
0.095875 0.095875 0.095875
0.095976 0.095976 0.095976
0.097924 0.097924 0.097924
0.102387 0.102387 0.102387
0.116167 0.116167 0.116167
0.145998 0.145998 0.145998
0.182878 0.182878 0.182878
0.223460 0.223460 0.223460
0.265271 0.265271 0.265271
0.298600 0.298600 0.298600
0.332663 0.332663 0.332663
0.368513 0.368513 0.368513
0.405312 0.405312 0.405312
0.441705 0.441705 0.441705
0.478252 0.478252 0.478252
0.515173 0.515173 0.515173
0.551093 0.551093 0.551093
0.587184 0.587184 0.587184
0.623496 0.623496 0.623496
0.660018 0.660018 0.660018
0.692926 0.692926 0.692926
0.724715 0.724715 0.724715
0.756435 0.756435 0.756435
0.785454 0.785454 0.785454
0.808287 0.808287 0.808287
0.830849 0.830849 0.830849
0.853154 0.853154 0.853154
0.875214 0.875214 0.875214
0.892290 0.892290 0.892290
0.907971 0.907971 0.907971
0.923399 0.923399 0.923399
0.938587 0.938587 0.938587
0.095875 0.095875 0.095875
0.095875 0.095875 0.095875
0.095978 0.095978 0.095978
0.097931 0.097931 0.097931
0.102424 0.102424 0.102424
0.116279 0.116279 0.116279
0.146216 0.146216 0.146216
0.183181 0.183181 0.183181
0.223808 0.223808 0.223808
0.265683 0.265683 0.265683
0.298962 0.298962 0.298962
0.333066 0.333066 0.333066
0.368981 0.368981 0.368981
0.405827 0.405827 0.405827
0.442248 0.442248 0.442248
0.478841 0.478841 0.478841
0.515808 0.515808 0.515808
0.551746 0.551746 0.551746
0.587880 0.587880 0.587880
0.624235 0.624235 0.624235
0.660801 0.660801 0.660801
0.693640 0.693640 0.693640
0.725461 0.725461 0.725461
0.757211 0.757211 0.757211
0.786043 0.786043 0.786043
