trix_classic/TriX_Green58_ExtraPunchy.cube
TITLE "Tri-X Green58 ExtraPunchy"
# Adobe RGB in/out. REPLACES AgX. R=0.1714 G=0.8069 B=0.0217
LUT_3D_SIZE 33
DOMAIN_MIN 0.0 0.0 0.0
DOMAIN_MAX 1.0 1.0 1.0
0.092237 0.092237 0.092237
0.092237 0.092237 0.092237
0.092237 0.092237 0.092237
0.092237 0.092237 0.092237
0.092237 0.092237 0.092237
0.092237 0.092237 0.092237
0.092237 0.092237 0.092237
0.092237 0.092237 0.092237
0.092237 0.092237 0.092237
0.092237 0.092237 0.092237
0.092237 0.092237 0.092237
0.092237 0.092237 0.092237
0.092237 0.092237 0.092237
0.092237 0.092237 0.092237
0.092237 0.092237 0.092237
0.092237 0.092237 0.092237
0.092237 0.092237 0.092237
0.092237 0.092237 0.092237
0.092237 0.092237 0.092237
0.092237 0.092237 0.092237
0.092237 0.092237 0.092237
0.092237 0.092237 0.092237
0.092237 0.092237 0.092237
0.092237 0.092237 0.092237
0.092237 0.092237 0.092237
0.092237 0.092237 0.092237
0.092237 0.092237 0.092237
0.092237 0.092237 0.092237
0.092237 0.092237 0.092237
0.092237 0.092237 0.092237
0.092237 0.092237 0.092237
0.092237 0.092237 0.092237
0.092237 0.092237 0.092237
0.092237 0.092237 0.092237
0.092237 0.092237 0.092237
0.092237 0.092237 0.092237
0.092237 0.092237 0.092237
0.092237 0.092237 0.092237
0.092237 0.092237 0.092237
0.092237 0.092237 0.092237
0.092237 0.092237 0.092237
0.092237 0.092237 0.092237
0.092237 0.092237 0.092237
0.092237 0.092237 0.092237
0.092237 0.092237 0.092237
0.092237 0.092237 0.092237
0.092237 0.092237 0.092237
0.092237 0.092237 0.092237
0.092237 0.092237 0.092237
0.092237 0.092237 0.092237
0.092237 0.092237 0.092237
0.092237 0.092237 0.092237
0.092237 0.092237 0.092237
0.092237 0.092237 0.092237
0.092237 0.092237 0.092237
0.092237 0.092237 0.092237
0.092237 0.092237 0.092237
0.092237 0.092237 0.092237
0.092237 0.092237 0.092237
0.092237 0.092237 0.092237
0.092237 0.092237 0.092237
0.092237 0.092237 0.092237
0.092237 0.092237 0.092237
0.092237 0.092237 0.092237
0.092237 0.092237 0.092237
0.092237 0.092237 0.092237
0.092237 0.092237 0.092237
0.092237 0.092237 0.092237
0.092237 0.092237 0.092237
0.092237 0.092237 0.092237
0.092237 0.092237 0.092237
0.092237 0.092237 0.092237
0.092237 0.092237 0.092237
0.092237 0.092237 0.092237
0.092237 0.092237 0.092237
0.092237 0.092237 0.092237
0.092237 0.092237 0.092237
0.092237 0.092237 0.092237
0.092237 0.092237 0.092237
0.092237 0.092237 0.092237
0.092237 0.092237 0.092237
0.092237 0.092237 0.092237
0.092237 0.092237 0.092237
0.092237 0.092237 0.092237
0.092237 0.092237 0.092237
0.092237 0.092237 0.092237
0.092237 0.092237 0.092237
0.092237 0.092237 0.092237
0.092237 0.092237 0.092237
0.092237 0.092237 0.092237
0.092237 0.092237 0.092237
0.092237 0.092237 0.092237
0.092237 0.092237 0.092237
0.092237 0.092237 0.092237
0.092237 0.092237 0.092237
0.092237 0.092237 0.092237
0.092237 0.092237 0.092237
0.092237 0.092237 0.092237
0.092237 0.092237 0.092237
0.092237 0.092237 0.092237
0.092237 0.092237 0.092237
0.092237 0.092237 0.092237
0.092237 0.092237 0.092237
0.092237 0.092237 0.092237
0.092237 0.092237 0.092237
0.092237 0.092237 0.092237
0.092237 0.092237 0.092237
0.092237 0.092237 0.092237
0.092237 0.092237 0.092237
0.092237 0.092237 0.092237
0.092237 0.092237 0.092237
0.092237 0.092237 0.092237
0.092237 0.092237 0.092237
0.092237 0.092237 0.092237
0.092237 0.092237 0.092237
0.092237 0.092237 0.092237
0.092237 0.092237 0.092237
0.092237 0.092237 0.092237
0.092237 0.092237 0.092237
0.092237 0.092237 0.092237
0.092237 0.092237 0.092237
0.092237 0.092237 0.092237
0.092237 0.092237 0.092237
0.092237 0.092237 0.092237
0.092237 0.092237 0.092237
0.092237 0.092237 0.092237
0.092237 0.092237 0.092237
0.092237 0.092237 0.092237
0.092237 0.092237 0.092237
0.092237 0.092237 0.092237
0.092237 0.092237 0.092237
0.092237 0.092237 0.092237
0.092237 0.092237 0.092237
0.092237 0.092237 0.092237
0.092237 0.092237 0.092237
0.092237 0.092237 0.092237
0.092237 0.092237 0.092237
0.092237 0.092237 0.092237
0.092237 0.092237 0.092237
0.092237 0.092237 0.092237
0.092237 0.092237 0.092237
0.092237 0.092237 0.092237
0.092237 0.092237 0.092237
0.092237 0.092237 0.092237
0.092237 0.092237 0.092237
0.092237 0.092237 0.092237
0.092237 0.092237 0.092237
0.092237 0.092237 0.092237
0.092237 0.092237 0.092237
0.092237 0.092237 0.092237
0.092237 0.092237 0.092237
0.092237 0.092237 0.092237
0.092237 0.092237 0.092237
0.092237 0.092237 0.092237
0.092237 0.092237 0.092237
0.092237 0.092237 0.092237
0.092237 0.092237 0.092237
0.092237 0.092237 0.092237
0.092237 0.092237 0.092237
0.092237 0.092237 0.092237
0.092237 0.092237 0.092237
0.092237 0.092237 0.092237
0.092237 0.092237 0.092237
0.092237 0.092237 0.092237
0.092237 0.092237 0.092237
0.092237 0.092237 0.092237
0.092237 0.092237 0.092237
0.092237 0.092237 0.092237
0.092237 0.092237 0.092237
0.092237 0.092237 0.092237
0.092237 0.092237 0.092237
0.092237 0.092237 0.092237
0.092237 0.092237 0.092237
0.092237 0.092237 0.092237
0.092237 0.092237 0.092237
0.092237 0.092237 0.092237
0.092237 0.092237 0.092237
0.092237 0.092237 0.092237
0.092237 0.092237 0.092237
0.092237 0.092237 0.092237
0.092237 0.092237 0.092237
0.092237 0.092237 0.092237
0.092237 0.092237 0.092237
0.092237 0.092237 0.092237
0.092237 0.092237 0.092237
0.092237 0.092237 0.092237
0.092237 0.092237 0.092237
0.092237 0.092237 0.092237
0.092237 0.092237 0.092237
0.092237 0.092237 0.092237
0.092237 0.092237 0.092237
0.092237 0.092237 0.092237
0.092237 0.092237 0.092237
0.092237 0.092237 0.092237
0.092237 0.092237 0.092237
0.092237 0.092237 0.092237
0.092237 0.092237 0.092237
0.092237 0.092237 0.092237
0.092237 0.092237 0.092237
0.092237 0.092237 0.092237
0.092237 0.092237 0.092237
0.092237 0.092237 0.092237
0.092237 0.092237 0.092237
0.092237 0.092237 0.092237
0.092237 0.092237 0.092237
0.092237 0.092237 0.092237
0.092237 0.092237 0.092237
0.092237 0.092237 0.092237
0.092237 0.092237 0.092237
0.092237 0.092237 0.092237
0.092237 0.092237 0.092237
0.092237 0.092237 0.092237
0.092237 0.092237 0.092237
0.092237 0.092237 0.092237
0.092237 0.092237 0.092237
0.092237 0.092237 0.092237
0.092237 0.092237 0.092237
0.092237 0.092237 0.092237
0.092237 0.092237 0.092237
0.092237 0.092237 0.092237
0.092237 0.092237 0.092237
0.092237 0.092237 0.092237
0.092237 0.092237 0.092237
0.092237 0.092237 0.092237
0.092237 0.092237 0.092237
0.092237 0.092237 0.092237
0.092237 0.092237 0.092237
0.092237 0.092237 0.092237
0.092237 0.092237 0.092237
0.092237 0.092237 0.092237
0.092237 0.092237 0.092237
0.092237 0.092237 0.092237
0.092237 0.092237 0.092237
0.092237 0.092237 0.092237
0.092237 0.092237 0.092237
0.092237 0.092237 0.092237
0.092237 0.092237 0.092237
0.092237 0.092237 0.092237
0.092237 0.092237 0.092237
0.092237 0.092237 0.092237
0.092237 0.092237 0.092237
0.092237 0.092237 0.092237
0.092237 0.092237 0.092237
0.092237 0.092237 0.092237
0.092237 0.092237 0.092237
0.092237 0.092237 0.092237
0.092237 0.092237 0.092237
0.092237 0.092237 0.092237
0.092237 0.092237 0.092237
0.092237 0.092237 0.092237
0.092237 0.092237 0.092237
0.092237 0.092237 0.092237
0.092237 0.092237 0.092237
0.092237 0.092237 0.092237
0.092237 0.092237 0.092237
0.092237 0.092237 0.092237
0.092237 0.092237 0.092237
0.092237 0.092237 0.092237
0.092237 0.092237 0.092237
0.092237 0.092237 0.092237
0.092237 0.092237 0.092237
0.092237 0.092237 0.092237
0.092237 0.092237 0.092237
0.092237 0.092237 0.092237
0.092237 0.092237 0.092237
0.092237 0.092237 0.092237
0.092237 0.092237 0.092237
0.092237 0.092237 0.092237
0.092237 0.092237 0.092237
0.092237 0.092237 0.092237
0.092237 0.092237 0.092237
0.092237 0.092237 0.092237
0.092237 0.092237 0.092237
0.092237 0.092237 0.092237
0.092237 0.092237 0.092237
0.092237 0.092237 0.092237
0.092237 0.092237 0.092237
0.092237 0.092237 0.092237
0.092237 0.092237 0.092237
0.092237 0.092237 0.092237
0.092237 0.092237 0.092237
0.092237 0.092237 0.092237
0.092237 0.092237 0.092237
0.092237 0.092237 0.092237
0.092237 0.092237 0.092237
0.092237 0.092237 0.092237
0.092237 0.092237 0.092237
0.092237 0.092237 0.092237
0.092237 0.092237 0.092237
0.092237 0.092237 0.092237
0.092237 0.092237 0.092237
0.092237 0.092237 0.092237
0.092237 0.092237 0.092237
0.092237 0.092237 0.092237
0.092237 0.092237 0.092237
0.092237 0.092237 0.092237
0.092237 0.092237 0.092237
0.092237 0.092237 0.092237
0.092237 0.092237 0.092237
0.092237 0.092237 0.092237
0.092237 0.092237 0.092237
0.092237 0.092237 0.092237
0.092237 0.092237 0.092237
0.092237 0.092237 0.092237
0.092237 0.092237 0.092237
0.092237 0.092237 0.092237
0.092237 0.092237 0.092237
0.092237 0.092237 0.092237
0.092237 0.092237 0.092237
0.092237 0.092237 0.092237
0.092237 0.092237 0.092237
0.092237 0.092237 0.092237
0.092237 0.092237 0.092237
0.092237 0.092237 0.092237
0.092237 0.092237 0.092237
0.092237 0.092237 0.092237
0.092237 0.092237 0.092237
0.092237 0.092237 0.092237
0.092237 0.092237 0.092237
0.092237 0.092237 0.092237
0.092237 0.092237 0.092237
0.092237 0.092237 0.092237
0.092237 0.092237 0.092237
0.092237 0.092237 0.092237
0.092237 0.092237 0.092237
0.092237 0.092237 0.092237
0.092237 0.092237 0.092237
0.092237 0.092237 0.092237
0.092237 0.092237 0.092237
0.092237 0.092237 0.092237
0.092237 0.092237 0.092237
0.092237 0.092237 0.092237
0.092237 0.092237 0.092237
0.092237 0.092237 0.092237
0.092237 0.092237 0.092237
0.092237 0.092237 0.092237
0.092237 0.092237 0.092237
0.092237 0.092237 0.092237
0.092237 0.092237 0.092237
0.092237 0.092237 0.092237
0.092237 0.092237 0.092237
0.092237 0.092237 0.092237
0.092237 0.092237 0.092237
0.092237 0.092237 0.092237
0.092237 0.092237 0.092237
0.092237 0.092237 0.092237
0.092237 0.092237 0.092237
0.092237 0.092237 0.092237
0.092237 0.092237 0.092237
0.092237 0.092237 0.092237
0.092237 0.092237 0.092237
0.092237 0.092237 0.092237
0.092237 0.092237 0.092237
0.092237 0.092237 0.092237
0.092237 0.092237 0.092237
0.092237 0.092237 0.092237
0.092237 0.092237 0.092237
0.092237 0.092237 0.092237
0.092237 0.092237 0.092237
0.092237 0.092237 0.092237
0.092237 0.092237 0.092237
0.092237 0.092237 0.092237
0.092237 0.092237 0.092237
0.092237 0.092237 0.092237
0.092237 0.092237 0.092237
0.092237 0.092237 0.092237
0.092237 0.092237 0.092237
0.092237 0.092237 0.092237
0.092237 0.092237 0.092237
0.092237 0.092237 0.092237
0.092237 0.092237 0.092237
0.092237 0.092237 0.092237
0.092237 0.092237 0.092237
0.092237 0.092237 0.092237
0.092237 0.092237 0.092237
0.092237 0.092237 0.092237
0.092237 0.092237 0.092237
0.092237 0.092237 0.092237
0.092237 0.092237 0.092237
0.092237 0.092237 0.092237
0.092237 0.092237 0.092237
0.092237 0.092237 0.092237
0.092237 0.092237 0.092237
0.092237 0.092237 0.092237
0.092237 0.092237 0.092237
0.092237 0.092237 0.092237
0.092237 0.092237 0.092237
0.092237 0.092237 0.092237
0.092237 0.092237 0.092237
0.092237 0.092237 0.092237
0.092237 0.092237 0.092237
0.092237 0.092237 0.092237
0.092237 0.092237 0.092237
0.092237 0.092237 0.092237
0.092237 0.092237 0.092237
0.092237 0.092237 0.092237
0.092237 0.092237 0.092237
0.092237 0.092237 0.092237
0.092237 0.092237 0.092237
0.092237 0.092237 0.092237
0.092237 0.092237 0.092237
0.092237 0.092237 0.092237
0.092237 0.092237 0.092237
0.092237 0.092237 0.092237
0.092237 0.092237 0.092237
0.092237 0.092237 0.092237
0.092237 0.092237 0.092237
0.092237 0.092237 0.092237
0.092237 0.092237 0.092237
0.092237 0.092237 0.092237
0.092237 0.092237 0.092237
0.092237 0.092237 0.092237
0.092237 0.092237 0.092237
0.092237 0.092237 0.092237
0.092237 0.092237 0.092237
0.092237 0.092237 0.092237
0.092237 0.092237 0.092237
0.092237 0.092237 0.092237
0.092237 0.092237 0.092237
0.092237 0.092237 0.092237
0.092237 0.092237 0.092237
0.092237 0.092237 0.092237
0.092237 0.092237 0.092237
0.092237 0.092237 0.092237
0.092237 0.092237 0.092237
0.092237 0.092237 0.092237
0.092237 0.092237 0.092237
0.092237 0.092237 0.092237
0.092237 0.092237 0.092237
0.092237 0.092237 0.092237
0.092237 0.092237 0.092237
0.092237 0.092237 0.092237
0.092237 0.092237 0.092237
0.092237 0.092237 0.092237
0.092237 0.092237 0.092237
0.092237 0.092237 0.092237
0.092237 0.092237 0.092237
0.092237 0.092237 0.092237
0.092237 0.092237 0.092237
0.092237 0.092237 0.092237
0.092237 0.092237 0.092237
0.092237 0.092237 0.092237
0.092237 0.092237 0.092237
0.092237 0.092237 0.092237
0.092237 0.092237 0.092237
0.092237 0.092237 0.092237
0.092237 0.092237 0.092237
0.092237 0.092237 0.092237
0.092237 0.092237 0.092237
0.092237 0.092237 0.092237
0.092237 0.092237 0.092237
0.092237 0.092237 0.092237
0.092237 0.092237 0.092237
0.092237 0.092237 0.092237
0.092237 0.092237 0.092237
0.092237 0.092237 0.092237
0.092237 0.092237 0.092237
0.092237 0.092237 0.092237
0.092237 0.092237 0.092237
0.092237 0.092237 0.092237
0.092237 0.092237 0.092237
0.092237 0.092237 0.092237
0.092237 0.092237 0.092237
0.092237 0.092237 0.092237
0.092237 0.092237 0.092237
0.092237 0.092237 0.092237
0.092237 0.092237 0.092237
0.092237 0.092237 0.092237
0.092237 0.092237 0.092237
0.092237 0.092237 0.092237
0.092237 0.092237 0.092237
0.092237 0.092237 0.092237
0.092237 0.092237 0.092237
0.092237 0.092237 0.092237
0.092237 0.092237 0.092237
0.092237 0.092237 0.092237
0.092237 0.092237 0.092237
0.092237 0.092237 0.092237
0.092237 0.092237 0.092237
0.092237 0.092237 0.092237
0.092237 0.092237 0.092237
0.092237 0.092237 0.092237
0.092237 0.092237 0.092237
0.092237 0.092237 0.092237
0.092237 0.092237 0.092237
0.092237 0.092237 0.092237
0.092237 0.092237 0.092237
0.092237 0.092237 0.092237
0.092237 0.092237 0.092237
0.092237 0.092237 0.092237
0.092237 0.092237 0.092237
0.092237 0.092237 0.092237
0.092237 0.092237 0.092237
0.092237 0.092237 0.092237
0.092237 0.092237 0.092237
0.092237 0.092237 0.092237
0.092237 0.092237 0.092237
0.092237 0.092237 0.092237
0.092237 0.092237 0.092237
0.092237 0.092237 0.092237
0.092237 0.092237 0.092237
0.092237 0.092237 0.092237
0.092237 0.092237 0.092237
0.092237 0.092237 0.092237
0.092237 0.092237 0.092237
0.092237 0.092237 0.092237
0.092237 0.092237 0.092237
0.092237 0.092237 0.092237
0.092237 0.092237 0.092237
0.092237 0.092237 0.092237
0.092237 0.092237 0.092237
0.092237 0.092237 0.092237
0.092237 0.092237 0.092237
0.092237 0.092237 0.092237
0.092237 0.092237 0.092237
0.092237 0.092237 0.092237
0.092237 0.092237 0.092237
0.092237 0.092237 0.092237
0.092237 0.092237 0.092237
0.092237 0.092237 0.092237
0.092237 0.092237 0.092237
0.092237 0.092237 0.092237
0.092237 0.092237 0.092237
0.092237 0.092237 0.092237
0.092237 0.092237 0.092237
0.092237 0.092237 0.092237
0.092237 0.092237 0.092237
0.092237 0.092237 0.092237
0.092237 0.092237 0.092237
0.092237 0.092237 0.092237
0.092237 0.092237 0.092237
0.092237 0.092237 0.092237
0.092237 0.092237 0.092237
0.092237 0.092237 0.092237
0.092237 0.092237 0.092237
0.092237 0.092237 0.092237
0.092237 0.092237 0.092237
0.092237 0.092237 0.092237
0.092237 0.092237 0.092237
0.092237 0.092237 0.092237
0.092237 0.092237 0.092237
0.092237 0.092237 0.092237
0.092237 0.092237 0.092237
0.092237 0.092237 0.092237
0.092237 0.092237 0.092237
0.092237 0.092237 0.092237
0.092237 0.092237 0.092237
0.092237 0.092237 0.092237
0.092237 0.092237 0.092237
0.092237 0.092237 0.092237
0.092237 0.092237 0.092237
0.092237 0.092237 0.092237
0.092237 0.092237 0.092237
0.092237 0.092237 0.092237
0.092237 0.092237 0.092237
0.092237 0.092237 0.092237
0.092237 0.092237 0.092237
0.092237 0.092237 0.092237
0.092237 0.092237 0.092237
0.092237 0.092237 0.092237
0.092237 0.092237 0.092237
0.092237 0.092237 0.092237
0.092237 0.092237 0.092237
0.092237 0.092237 0.092237
0.092237 0.092237 0.092237
0.092237 0.092237 0.092237
0.092237 0.092237 0.092237
0.092237 0.092237 0.092237
0.092237 0.092237 0.092237
0.092237 0.092237 0.092237
0.092237 0.092237 0.092237
0.092237 0.092237 0.092237
0.092237 0.092237 0.092237
0.092237 0.092237 0.092237
0.092237 0.092237 0.092237
0.092237 0.092237 0.092237
0.092237 0.092237 0.092237
0.092237 0.092237 0.092237
0.092237 0.092237 0.092237
0.092237 0.092237 0.092237
0.092237 0.092237 0.092237
0.092237 0.092237 0.092237
0.092237 0.092237 0.092237
0.092237 0.092237 0.092237
0.092237 0.092237 0.092237
0.092237 0.092237 0.092237
0.092237 0.092237 0.092237
0.092237 0.092237 0.092237
0.092237 0.092237 0.092237
0.092237 0.092237 0.092237
0.092237 0.092237 0.092237
0.092237 0.092237 0.092237
0.092237 0.092237 0.092237
0.092237 0.092237 0.092237
0.092237 0.092237 0.092237
0.092237 0.092237 0.092237
0.092237 0.092237 0.092237
0.092237 0.092237 0.092237
0.092237 0.092237 0.092237
0.092237 0.092237 0.092237
0.092237 0.092237 0.092237
0.092237 0.092237 0.092237
0.092237 0.092237 0.092237
0.092237 0.092237 0.092237
0.092237 0.092237 0.092237
0.092237 0.092237 0.092237
0.092237 0.092237 0.092237
0.092237 0.092237 0.092237
0.092237 0.092237 0.092237
0.092237 0.092237 0.092237
0.092237 0.092237 0.092237
0.092237 0.092237 0.092237
0.092237 0.092237 0.092237
0.092237 0.092237 0.092237
0.092237 0.092237 0.092237
0.092237 0.092237 0.092237
0.092237 0.092237 0.092237
0.092237 0.092237 0.092237
0.092237 0.092237 0.092237
0.092237 0.092237 0.092237
0.092237 0.092237 0.092237
0.092237 0.092237 0.092237
0.092237 0.092237 0.092237
0.092237 0.092237 0.092237
0.092237 0.092237 0.092237
0.092237 0.092237 0.092237
0.092237 0.092237 0.092237
0.092237 0.092237 0.092237
0.092237 0.092237 0.092237
0.092237 0.092237 0.092237
0.092237 0.092237 0.092237
0.092237 0.092237 0.092237
0.092237 0.092237 0.092237
0.092237 0.092237 0.092237
0.092237 0.092237 0.092237
0.092237 0.092237 0.092237
0.092237 0.092237 0.092237
0.092237 0.092237 0.092237
0.092237 0.092237 0.092237
0.092237 0.092237 0.092237
0.092237 0.092237 0.092237
0.092237 0.092237 0.092237
0.092237 0.092237 0.092237
0.092237 0.092237 0.092237
0.092237 0.092237 0.092237
0.092237 0.092237 0.092237
0.092237 0.092237 0.092237
0.092237 0.092237 0.092237
0.092237 0.092237 0.092237
0.092237 0.092237 0.092237
0.092237 0.092237 0.092237
0.092237 0.092237 0.092237
0.092237 0.092237 0.092237
0.092237 0.092237 0.092237
0.092237 0.092237 0.092237
0.092237 0.092237 0.092237
0.092237 0.092237 0.092237
0.092237 0.092237 0.092237
0.092237 0.092237 0.092237
0.092237 0.092237 0.092237
0.092237 0.092237 0.092237
0.092237 0.092237 0.092237
0.092237 0.092237 0.092237
0.092237 0.092237 0.092237
0.092237 0.092237 0.092237
0.092237 0.092237 0.092237
0.092237 0.092237 0.092237
0.092237 0.092237 0.092237
0.092237 0.092237 0.092237
0.092237 0.092237 0.092237
0.092237 0.092237 0.092237
0.092237 0.092237 0.092237
0.092237 0.092237 0.092237
0.092237 0.092237 0.092237
0.092237 0.092237 0.092237
0.092237 0.092237 0.092237
0.092237 0.092237 0.092237
0.092237 0.092237 0.092237
0.092237 0.092237 0.092237
0.092237 0.092237 0.092237
0.092237 0.092237 0.092237
0.092237 0.092237 0.092237
0.092237 0.092237 0.092237
0.092237 0.092237 0.092237
0.092237 0.092237 0.092237
0.092237 0.092237 0.092237
0.092237 0.092237 0.092237
0.092237 0.092237 0.092237
0.092237 0.092237 0.092237
0.092237 0.092237 0.092237
0.092237 0.092237 0.092237
0.092237 0.092237 0.092237
0.092237 0.092237 0.092237
0.092237 0.092237 0.092237
0.092237 0.092237 0.092237
0.092237 0.092237 0.092237
0.092237 0.092237 0.092237
0.092237 0.092237 0.092237
0.092237 0.092237 0.092237
0.092237 0.092237 0.092237
0.092237 0.092237 0.092237
0.092237 0.092237 0.092237
0.092237 0.092237 0.092237
0.092237 0.092237 0.092237
0.092237 0.092237 0.092237
0.092237 0.092237 0.092237
0.092237 0.092237 0.092237
0.092237 0.092237 0.092237
0.092237 0.092237 0.092237
0.092237 0.092237 0.092237
0.092237 0.092237 0.092237
0.092237 0.092237 0.092237
0.092237 0.092237 0.092237
0.092237 0.092237 0.092237
0.092237 0.092237 0.092237
0.092237 0.092237 0.092237
0.092237 0.092237 0.092237
0.092237 0.092237 0.092237
0.092237 0.092237 0.092237
0.092237 0.092237 0.092237
0.092237 0.092237 0.092237
0.092237 0.092237 0.092237
0.092237 0.092237 0.092237
0.092237 0.092237 0.092237
0.092237 0.092237 0.092237
0.092237 0.092237 0.092237
0.092237 0.092237 0.092237
0.092237 0.092237 0.092237
0.092237 0.092237 0.092237
0.092237 0.092237 0.092237
0.092237 0.092237 0.092237
0.092237 0.092237 0.092237
0.092237 0.092237 0.092237
0.092237 0.092237 0.092237
0.092237 0.092237 0.092237
0.092237 0.092237 0.092237
0.092237 0.092237 0.092237
0.092237 0.092237 0.092237
0.092237 0.092237 0.092237
0.092237 0.092237 0.092237
0.092237 0.092237 0.092237
0.092237 0.092237 0.092237
0.092237 0.092237 0.092237
0.092237 0.092237 0.092237
0.092237 0.092237 0.092237
0.092237 0.092237 0.092237
0.092237 0.092237 0.092237
0.092237 0.092237 0.092237
0.092237 0.092237 0.092237
0.092237 0.092237 0.092237
0.092237 0.092237 0.092237
0.092237 0.092237 0.092237
0.092237 0.092237 0.092237
0.092237 0.092237 0.092237
0.092237 0.092237 0.092237
0.092237 0.092237 0.092237
0.092237 0.092237 0.092237
0.092237 0.092237 0.092237
0.092237 0.092237 0.092237
0.092237 0.092237 0.092237
0.092237 0.092237 0.092237
0.092237 0.092237 0.092237
0.092237 0.092237 0.092237
0.092237 0.092237 0.092237
0.092237 0.092237 0.092237
0.092237 0.092237 0.092237
0.092237 0.092237 0.092237
0.092237 0.092237 0.092237
0.092237 0.092237 0.092237
0.092237 0.092237 0.092237
0.092237 0.092237 0.092237
0.092237 0.092237 0.092237
0.092237 0.092237 0.092237
0.092237 0.092237 0.092237
0.092237 0.092237 0.092237
0.092237 0.092237 0.092237
0.092237 0.092237 0.092237
0.092237 0.092237 0.092237
0.092237 0.092237 0.092237
0.092237 0.092237 0.092237
0.092237 0.092237 0.092237
0.092237 0.092237 0.092237
0.092237 0.092237 0.092237
0.092237 0.092237 0.092237
0.092237 0.092237 0.092237
0.092237 0.092237 0.092237
0.092237 0.092237 0.092237
0.092237 0.092237 0.092237
0.092237 0.092237 0.092237
0.092237 0.092237 0.092237
0.092237 0.092237 0.092237
0.092237 0.092237 0.092237
0.092237 0.092237 0.092237
0.092237 0.092237 0.092237
0.092237 0.092237 0.092237
0.092237 0.092237 0.092237
0.092237 0.092237 0.092237
0.092237 0.092237 0.092237
0.092237 0.092237 0.092237
0.092237 0.092237 0.092237
0.092237 0.092237 0.092237
0.092237 0.092237 0.092237
0.092237 0.092237 0.092237
0.092237 0.092237 0.092237
0.092237 0.092237 0.092237
0.092237 0.092237 0.092237
0.092237 0.092237 0.092237
0.092237 0.092237 0.092237
0.092237 0.092237 0.092237
0.092237 0.092237 0.092237
0.092237 0.092237 0.092237
0.092237 0.092237 0.092237
0.092237 0.092237 0.092237
0.092237 0.092237 0.092237
0.092237 0.092237 0.092237
0.092237 0.092237 0.092237
0.092237 0.092237 0.092237
0.092237 0.092237 0.092237
0.092237 0.092237 0.092237
0.092237 0.092237 0.092237
0.092237 0.092237 0.092237
0.092237 0.092237 0.092237
0.092237 0.092237 0.092237
0.092237 0.092237 0.092237
0.092237 0.092237 0.092237
0.092237 0.092237 0.092237
0.092237 0.092237 0.092237
0.092237 0.092237 0.092237
0.092237 0.092237 0.092237
0.092237 0.092237 0.092237
0.092237 0.092237 0.092237
0.092237 0.092237 0.092237
0.092237 0.092237 0.092237
0.092237 0.092237 0.092237
0.092237 0.092237 0.092237
0.092237 0.092237 0.092237
0.092237 0.092237 0.092237
0.092237 0.092237 0.092237
0.092237 0.092237 0.092237
0.092237 0.092237 0.092237
0.092237 0.092237 0.092237
0.092237 0.092237 0.092237
0.092237 0.092237 0.092237
0.092237 0.092237 0.092237
0.092237 0.092237 0.092237
0.092237 0.092237 0.092237
0.092237 0.092237 0.092237
0.092237 0.092237 0.092237
0.092237 0.092237 0.092237
0.092237 0.092237 0.092237
0.092237 0.092237 0.092237
0.092237 0.092237 0.092237
0.092237 0.092237 0.092237
0.092237 0.092237 0.092237
0.092237 0.092237 0.092237
0.092237 0.092237 0.092237
0.092237 0.092237 0.092237
0.092237 0.092237 0.092237
0.092237 0.092237 0.092237
0.092237 0.092237 0.092237
0.092237 0.092237 0.092237
0.092237 0.092237 0.092237
0.092237 0.092237 0.092237
0.092237 0.092237 0.092237
0.092237 0.092237 0.092237
0.092237 0.092237 0.092237
0.092237 0.092237 0.092237
0.092237 0.092237 0.092237
0.092237 0.092237 0.092237
0.092237 0.092237 0.092237
0.092237 0.092237 0.092237
0.092237 0.092237 0.092237
0.092237 0.092237 0.092237
0.092237 0.092237 0.092237
0.092237 0.092237 0.092237
0.092237 0.092237 0.092237
0.092237 0.092237 0.092237
0.092237 0.092237 0.092237
0.092237 0.092237 0.092237
0.092237 0.092237 0.092237
0.092237 0.092237 0.092237
0.092237 0.092237 0.092237
0.092237 0.092237 0.092237
