trix_classic/TriX_NoFilter_Hard.cube
TITLE "Tri-X NoFilter Hard"
# Adobe RGB in/out. REPLACES AgX. R=0.2974 G=0.2859 B=0.4167
LUT_3D_SIZE 5
DOMAIN_MIN 0.0 0.0 0.0
DOMAIN_MAX 1.0 1.0 1.0
0.093288 0.093288 0.093288
0.093288 0.093288 0.093288
0.093288 0.093288 0.093288
0.093288 0.093288 0.093288
0.093288 0.093288 0.093288
0.093288 0.093288 0.093288
0.093288 0.093288 0.093288
0.093288 0.093288 0.093288
0.093288 0.093288 0.093288
0.093288 0.093288 0.093288
0.093288 0.093288 0.093288
0.093288 0.093288 0.093288
0.093288 0.093288 0.093288
0.093288 0.093288 0.093288
0.093288 0.093288 0.093288
0.093288 0.093288 0.093288
0.093288 0.093288 0.093288
0.093288 0.093288 0.093288
0.093288 0.093288 0.093288
0.093288 0.093288 0.093288
0.093288 0.093288 0.093288
0.093288 0.093288 0.093288
0.093288 0.093288 0.093288
0.093288 0.093288 0.093288
0.093288 0.093288 0.093288
0.093288 0.093288 0.093288
0.093288 0.093288 0.093288
0.093288 0.093288 0.093288
0.093288 0.093288 0.093288
0.093288 0.093288 0.093288
0.093288 0.093288 0.093288
0.100098 0.100098 0.100098
0.132796 0.132796 0.132796
0.184849 0.184849 0.184849
0.242845 0.242845 0.242845
0.093288 0.093288 0.093288
0.130533 0.130533 0.130533
0.236726 0.236726 0.236726
0.351818 0.351818 0.351818
0.463682 0.463682 0.463682
0.093288 0.093288 0.093288
0.177915 0.177915 0.177915
0.346396 0.346396 0.346396
0.506038 0.506038 0.506038
0.643978 0.643978 0.643978
0.093288 0.093288 0.093288
0.230761 0.230761 0.230761
0.453168 0.453168 0.453168
0.638787 0.638787 0.638787
0.773911 0.773911 0.773911
0.093288 0.093288 0.093288
0.093288 0.093288 0.093288
0.093288 0.093288 0.093288
0.093288 0.093288 0.093288
0.093288 0.093288 0.093288
0.093288 0.093288 0.093288
0.164820 0.164820 0.164820
0.318442 0.318442 0.318442
0.470559 0.470559 0.470559
0.602279 0.602279 0.602279
0.093288 0.093288 0.093288
0.310098 0.310098 0.310098
0.588577 0.588577 0.588577
0.780336 0.780336 0.780336
0.870478 0.870478 0.870478
0.093288 0.093288 0.093288
0.453760 0.453760 0.453760
0.774479 0.774479 0.774479
0.895272 0.895272 0.895272
0.951829 0.951829 0.951829
0.093288 0.093288 0.093288
0.575186 0.575186 0.575186
0.862435 0.862435 0.862435
0.950480 0.950480 0.950480
0.977790 0.977790 0.977790
0.093288 0.093288 0.093288
0.093288 0.093288 0.093288
0.093288 0.093288 0.093288
0.093288 0.093288 0.093288
0.093288 0.093288 0.093288
0.093288 0.093288 0.093288
0.281339 0.281339 0.281339
0.540959 0.540959 0.540959
0.742472 0.742472 0.742472
0.841355 0.841355 0.841355
0.093288 0.093288 0.093288
0.528652 0.528652 0.528652
0.833581 0.833581 0.833581
0.933326 0.933326 0.933326
0.971812 0.971812 0.971812
0.093288 0.093288 0.093288
0.719875 0.719875 0.719875
0.930428 0.930428 0.930428
0.978028 0.978028 0.978028
0.988865 0.988865 0.988865
0.093288 0.093288 0.093288
0.825879 0.825879 0.825879
0.970188 0.970188 0.970188
0.988557 0.988557 0.988557
0.994153 0.994153 0.994153
0.093288 0.093288 0.093288
0.093288 0.093288 0.093288
0.093288 0.093288 0.093288
0.093288 0.093288 0.093288
0.093288 0.093288 0.093288
0.093288 0.093288 0.093288
0.420459 0.420459 0.420459
0.741194 0.741194 0.741194
0.875335 0.875335 0.875335
0.937861 0.937861 0.937861
0.093288 0.093288 0.093288
0.726880 0.726880 0.726880
0.932888 0.932888 0.932888
0.978841 0.978841 0.978841
0.989234 0.989234 0.989234
0.093288 0.093288 0.093288
0.862890 0.862890 0.862890
0.977883 0.977883 0.977883
0.992070 0.992070 0.992070
0.995745 0.995745 0.995745
0.093288 0.093288 0.093288
0.927942 0.927942 0.927942
0.988491 0.988491 0.988491
0.995605 0.995605 0.995605
0.998062 0.998062 0.998062
