trix_classic/TriX_Orange21_Normal.cube
TITLE "Tri-X Orange21 Normal"
# Adobe RGB in/out. REPLACES AgX. R=0.7239 G=0.2761 B=0.0000
LUT_3D_SIZE 5
DOMAIN_MIN 0.0 0.0 0.0
DOMAIN_MAX 1.0 1.0 1.0
0.093230 0.093230 0.093230
0.093230 0.093230 0.093230
0.093230 0.093230 0.093230
0.093230 0.093230 0.093230
0.093230 0.093230 0.093230
0.093230 0.093230 0.093230
0.204394 0.204394 0.204394
0.403795 0.403795 0.403795
0.570881 0.570881 0.570881
0.715659 0.715659 0.715659
0.093230 0.093230 0.093230
0.275737 0.275737 0.275737
0.508013 0.508013 0.508013
0.703831 0.703831 0.703831
0.836028 0.836028 0.836028
0.093230 0.093230 0.093230
0.315298 0.315298 0.315298
0.577250 0.577250 0.577250
0.782937 0.782937 0.782937
0.896093 0.896093 0.896093
0.093230 0.093230 0.093230
0.347322 0.347322 0.347322
0.631707 0.631707 0.631707
0.826460 0.826460 0.826460
0.932292 0.932292 0.932292
0.093230 0.093230 0.093230
0.093230 0.093230 0.093230
0.093230 0.093230 0.093230
0.093230 0.093230 0.093230
0.093230 0.093230 0.093230
0.093230 0.093230 0.093230
0.204394 0.204394 0.204394
0.403795 0.403795 0.403795
0.570881 0.570881 0.570881
0.715659 0.715659 0.715659
0.093230 0.093230 0.093230
0.275737 0.275737 0.275737
0.508013 0.508013 0.508013
0.703831 0.703831 0.703831
0.836028 0.836028 0.836028
0.093230 0.093230 0.093230
0.315298 0.315298 0.315298
0.577250 0.577250 0.577250
0.782937 0.782937 0.782937
0.896093 0.896093 0.896093
0.093230 0.093230 0.093230
0.347322 0.347322 0.347322
0.631707 0.631707 0.631707
0.826460 0.826460 0.826460
0.932292 0.932292 0.932292
0.093230 0.093230 0.093230
0.093230 0.093230 0.093230
0.093230 0.093230 0.093230
0.093230 0.093230 0.093230
0.093230 0.093230 0.093230
0.093230 0.093230 0.093230
0.204394 0.204394 0.204394
0.403795 0.403795 0.403795
0.570881 0.570881 0.570881
0.715659 0.715659 0.715659
0.093230 0.093230 0.093230
0.275737 0.275737 0.275737
0.508013 0.508013 0.508013
0.703831 0.703831 0.703831
0.836028 0.836028 0.836028
0.093230 0.093230 0.093230
0.315298 0.315298 0.315298
0.577250 0.577250 0.577250
0.782937 0.782937 0.782937
0.896093 0.896093 0.896093
0.093230 0.093230 0.093230
0.347322 0.347322 0.347322
0.631707 0.631707 0.631707
0.826460 0.826460 0.826460
0.932292 0.932292 0.932292
0.093230 0.093230 0.093230
0.093230 0.093230 0.093230
0.093230 0.093230 0.093230
0.093230 0.093230 0.093230
0.093230 0.093230 0.093230
0.093230 0.093230 0.093230
0.204394 0.204394 0.204394
0.403795 0.403795 0.403795
0.570881 0.570881 0.570881
0.715659 0.715659 0.715659
0.093230 0.093230 0.093230
0.275737 0.275737 0.275737
0.508013 0.508013 0.508013
0.703831 0.703831 0.703831
0.836028 0.836028 0.836028
0.093230 0.093230 0.093230
0.315298 0.315298 0.315298
0.577250 0.577250 0.577250
0.782937 0.782937 0.782937
0.896093 0.896093 0.896093
0.093230 0.093230 0.093230
0.347322 0.347322 0.347322
0.631707 0.631707 0.631707
0.826460 0.826460 0.826460
0.932292 0.932292 0.932292
0.093230 0.093230 0.093230
0.093230 0.093230 0.093230
0.093230 0.093230 0.093230
0.093230 0.093230 0.093230
0.093230 0.093230 0.093230
0.093230 0.093230 0.093230
0.204394 0.204394 0.204394
0.403795 0.403795 0.403795
0.570881 0.570881 0.570881
0.715659 0.715659 0.715659
0.093230 0.093230 0.093230
0.275737 0.275737 0.275737
0.508013 0.508013 0.508013
0.703831 0.703831 0.703831
0.836028 0.836028 0.836028
0.093230 0.093230 0.093230
0.315298 0.315298 0.315298
0.577250 0.577250 0.577250
0.782937 0.782937 0.782937
0.896093 0.896093 0.896093
0.093230 0.093230 0.093230
0.347322 0.347322 0.347322
0.631707 0.631707 0.631707
0.826460 0.826460 0.826460
0.932292 0.932292 0.932292
