trix_classic/TriX_Red25_Normal.cube
TITLE "Tri-X Red25 Normal"
# Adobe RGB in/out. REPLACES AgX. R=0.9735 G=0.0265 B=0.0000
LUT_3D_SIZE 5
DOMAIN_MIN 0.0 0.0 0.0
DOMAIN_MAX 1.0 1.0 1.0
0.095875 0.095875 0.095875
0.095875 0.095875 0.095875
0.095875 0.095875 0.095875
0.095875 0.095875 0.095875
0.095875 0.095875 0.095875
0.095875 0.095875 0.095875
0.213592 0.213592 0.213592
0.497088 0.497088 0.497088
0.764866 0.764866 0.764866
0.923747 0.923747 0.923747
0.095875 0.095875 0.095875
0.219542 0.219542 0.219542
0.508013 0.508013 0.508013
0.778785 0.778785 0.778785
0.932747 0.932747 0.932747
0.095875 0.095875 0.095875
0.223099 0.223099 0.223099
0.514514 0.514514 0.514514
0.784842 0.784842 0.784842
0.938051 0.938051 0.938051
0.095875 0.095875 0.095875
0.225657 0.225657 0.225657
0.519091 0.519091 0.519091
0.789168 0.789168 0.789168
0.941833 0.941833 0.941833
0.095875 0.095875 0.095875
0.095875 0.095875 0.095875
0.095875 0.095875 0.095875
0.095875 0.095875 0.095875
0.095875 0.095875 0.095875
0.095875 0.095875 0.095875
0.213592 0.213592 0.213592
0.497088 0.497088 0.497088
0.764866 0.764866 0.764866
0.923747 0.923747 0.923747
0.095875 0.095875 0.095875
0.219542 0.219542 0.219542
0.508013 0.508013 0.508013
0.778785 0.778785 0.778785
0.932747 0.932747 0.932747
0.095875 0.095875 0.095875
0.223099 0.223099 0.223099
0.514514 0.514514 0.514514
0.784842 0.784842 0.784842
0.938051 0.938051 0.938051
0.095875 0.095875 0.095875
0.225657 0.225657 0.225657
0.519091 0.519091 0.519091
0.789168 0.789168 0.789168
0.941833 0.941833 0.941833
0.095875 0.095875 0.095875
0.095875 0.095875 0.095875
0.095875 0.095875 0.095875
0.095875 0.095875 0.095875
0.095875 0.095875 0.095875
0.095875 0.095875 0.095875
0.213592 0.213592 0.213592
0.497088 0.497088 0.497088
0.764866 0.764866 0.764866
0.923747 0.923747 0.923747
0.095875 0.095875 0.095875
0.219542 0.219542 0.219542
0.508013 0.508013 0.508013
0.778785 0.778785 0.778785
0.932747 0.932747 0.932747
0.095875 0.095875 0.095875
0.223099 0.223099 0.223099
0.514514 0.514514 0.514514
0.784842 0.784842 0.784842
0.938051 0.938051 0.938051
0.095875 0.095875 0.095875
0.225657 0.225657 0.225657
0.519091 0.519091 0.519091
0.789168 0.789168 0.789168
0.941833 0.941833 0.941833
0.095875 0.095875 0.095875
0.095875 0.095875 0.095875
0.095875 0.095875 0.095875
0.095875 0.095875 0.095875
0.095875 0.095875 0.095875
0.095875 0.095875 0.095875
0.213592 0.213592 0.213592
0.497088 0.497088 0.497088
0.764866 0.764866 0.764866
0.923747 0.923747 0.923747
0.095875 0.095875 0.095875
0.219542 0.219542 0.219542
0.508013 0.508013 0.508013
0.778785 0.778785 0.778785
0.932747 0.932747 0.932747
0.095875 0.095875 0.095875
0.223099 0.223099 0.223099
0.514514 0.514514 0.514514
0.784842 0.784842 0.784842
0.938051 0.938051 0.938051
0.095875 0.095875 0.095875
0.225657 0.225657 0.225657
0.519091 0.519091 0.519091
0.789168 0.789168 0.789168
0.941833 0.941833 0.941833
0.095875 0.095875 0.095875
0.095875 0.095875 0.095875
0.095875 0.095875 0.095875
0.095875 0.095875 0.095875
0.095875 0.095875 0.095875
0.095875 0.095875 0.095875
0.213592 0.213592 0.213592
0.497088 0.497088 0.497088
0.764866 0.764866 0.764866
0.923747 0.923747 0.923747
0.095875 0.095875 0.095875
0.219542 0.219542 0.219542
0.508013 0.508013 0.508013
0.778785 0.778785 0.778785
0.932747 0.932747 0.932747
0.095875 0.095875 0.095875
0.223099 0.223099 0.223099
0.514514 0.514514 0.514514
0.784842 0.784842 0.784842
0.938051 0.938051 0.938051
0.095875 0.095875 0.095875
0.225657 0.225657 0.225657
0.519091 0.519091 0.519091
0.789168 0.789168 0.789168
0.941833 0.941833 0.941833
