trix_classic/TriX_Blue47_ExtraSoft.cube
TITLE "Tri-X Blue47 ExtraSoft"
# Adobe RGB in/out. REPLACES AgX. R=0.0336 G=0.0311 B=0.9353
LUT_3D_SIZE 9
DOMAIN_MIN 0.0 0.0 0.0
DOMAIN_MAX 1.0 1.0 1.0
0.121260 0.121260 0.121260
0.121260 0.121260 0.121260
0.121260 0.121260 0.121260
0.121260 0.121260 0.121260
0.121260 0.121260 0.121260
0.121260 0.121260 0.121260
0.121260 0.121260 0.121260
0.121260 0.121260 0.121260
0.121260 0.121260 0.121260
0.121260 0.121260 0.121260
0.121260 0.121260 0.121260
0.121260 0.121260 0.121260
0.121260 0.121260 0.121260
0.121260 0.121260 0.121260
0.121260 0.121260 0.121260
0.121260 0.121260 0.121260
0.121260 0.121260 0.121260
0.121260 0.121260 0.121260
0.121260 0.121260 0.121260
0.121260 0.121260 0.121260
0.121260 0.121260 0.121260
0.121260 0.121260 0.121260
0.121260 0.121260 0.121260
0.121260 0.121260 0.121260
0.121260 0.121260 0.121260
0.121260 0.121260 0.121260
0.121260 0.121260 0.121260
0.121260 0.121260 0.121260
0.121260 0.121260 0.121260
0.121260 0.121260 0.121260
0.121260 0.121260 0.121260
0.121260 0.121260 0.121260
0.121260 0.121260 0.121260
0.121260 0.121260 0.121260
0.121260 0.121260 0.121260
0.121260 0.121260 0.121260
0.121260 0.121260 0.121260
0.121260 0.121260 0.121260
0.121260 0.121260 0.121260
0.121260 0.121260 0.121260
0.121260 0.121260 0.121260
0.121260 0.121260 0.121260
0.121260 0.121260 0.121260
0.121260 0.121260 0.121260
0.121260 0.121260 0.121260
0.121260 0.121260 0.121260
0.121260 0.121260 0.121260
0.121260 0.121260 0.121260
0.121260 0.121260 0.121260
0.121260 0.121260 0.121260
0.121260 0.121260 0.121260
0.121260 0.121260 0.121260
0.121260 0.121260 0.121260
0.121260 0.121260 0.121260
0.121260 0.121260 0.121260
0.121260 0.121260 0.121260
0.121260 0.121260 0.121260
0.121260 0.121260 0.121260
0.121260 0.121260 0.121260
0.121260 0.121260 0.121260
0.121260 0.121260 0.121260
0.121260 0.121260 0.121260
0.121260 0.121260 0.121260
0.121260 0.121260 0.121260
0.121260 0.121260 0.121260
0.121260 0.121260 0.121260
0.121260 0.121260 0.121260
0.121260 0.121260 0.121260
0.121260 0.121260 0.121260
0.121260 0.121260 0.121260
0.121260 0.121260 0.121260
0.121260 0.121260 0.121260
0.121260 0.121260 0.121260
0.121260 0.121260 0.121260
0.121260 0.121260 0.121260
0.121260 0.121260 0.121260
0.121260 0.121260 0.121260
0.121260 0.121260 0.121260
0.121260 0.121260 0.121260
0.121260 0.121260 0.121260
0.121260 0.121260 0.121260
0.121260 0.121260 0.121260
0.121260 0.121260 0.121260
0.121260 0.121260 0.121260
0.121260 0.121260 0.121260
0.121260 0.121260 0.121260
0.121260 0.121260 0.121260
0.121260 0.121260 0.121260
0.121260 0.121260 0.121260
0.121260 0.121260 0.121260
0.121260 0.121260 0.121260
0.146378 0.146378 0.146378
0.148742 0.148742 0.148742
0.150144 0.150144 0.150144
0.151072 0.151072 0.151072
0.151746 0.151746 0.151746
0.152299 0.152299 0.152299
0.152768 0.152768 0.152768
0.153176 0.153176 0.153176
0.121260 0.121260 0.121260
0.148569 0.148569 0.148569
0.150919 0.150919 0.150919
0.152145 0.152145 0.152145
0.153021 0.153021 0.153021
0.153704 0.153704 0.153704
0.154264 0.154264 0.154264
0.154739 0.154739 0.154739
0.155152 0.155152 0.155152
0.121260 0.121260 0.121260
0.149866 0.149866 0.149866
0.152055 0.152055 0.152055
0.153291 0.153291 0.153291
0.154173 0.154173 0.154173
0.154861 0.154861 0.154861
0.155426 0.155426 0.155426
0.155904 0.155904 0.155904
0.156320 0.156320 0.156320
0.121260 0.121260 0.121260
0.150767 0.150767 0.150767
0.152867 0.152867 0.152867
0.154109 0.154109 0.154109
0.154996 0.154996 0.154996
0.155687 0.155687 0.155687
0.156255 0.156255 0.156255
0.156736 0.156736 0.156736
0.157154 0.157154 0.157154
0.121260 0.121260 0.121260
0.151391 0.151391 0.151391
0.153499 0.153499 0.153499
0.154746 0.154746 0.154746
0.155637 0.155637 0.155637
0.156331 0.156331 0.156331
0.156901 0.156901 0.156901
0.157459 0.157459 0.157459
0.158020 0.158020 0.158020
0.121260 0.121260 0.121260
0.151902 0.151902 0.151902
0.154018 0.154018 0.154018
0.155269 0.155269 0.155269
0.156163 0.156163 0.156163
0.156859 0.156859 0.156859
0.157521 0.157521 0.157521
0.158170 0.158170 0.158170
0.158735 0.158735 0.158735
0.121260 0.121260 0.121260
0.152336 0.152336 0.152336
0.154457 0.154457 0.154457
0.155712 0.155712 0.155712
0.156609 0.156609 0.156609
0.157355 0.157355 0.157355
0.158123 0.158123 0.158123
0.158774 0.158774 0.158774
0.159341 0.159341 0.159341
0.121260 0.121260 0.121260
0.152713 0.152713 0.152713
0.154839 0.154839 0.154839
0.156097 0.156097 0.156097
0.156996 0.156996 0.156996
0.157876 0.157876 0.157876
0.158646 0.158646 0.158646
0.159300 0.159300 0.159300
0.159868 0.159868 0.159868
0.121260 0.121260 0.121260
0.121260 0.121260 0.121260
0.121260 0.121260 0.121260
0.121260 0.121260 0.121260
0.121260 0.121260 0.121260
0.121260 0.121260 0.121260
0.121260 0.121260 0.121260
0.121260 0.121260 0.121260
0.121260 0.121260 0.121260
0.121260 0.121260 0.121260
0.252419 0.252419 0.252419
0.257762 0.257762 0.257762
0.260940 0.260940 0.260940
0.263218 0.263218 0.263218
0.264999 0.264999 0.264999
0.266463 0.266463 0.266463
0.267707 0.267707 0.267707
0.268789 0.268789 0.268789
0.121260 0.121260 0.121260
0.257368 0.257368 0.257368
0.262816 0.262816 0.262816
0.266056 0.266056 0.266056
0.268379 0.268379 0.268379
0.270194 0.270194 0.270194
0.271687 0.271687 0.271687
0.272955 0.272955 0.272955
0.274059 0.274059 0.274059
0.121260 0.121260 0.121260
0.260308 0.260308 0.260308
0.265818 0.265818 0.265818
0.269095 0.269095 0.269095
0.271444 0.271444 0.271444
0.273281 0.273281 0.273281
0.274790 0.274790 0.274790
0.276073 0.276073 0.276073
0.277190 0.277190 0.277190
0.121260 0.121260 0.121260
0.262415 0.262415 0.262415
0.267969 0.267969 0.267969
0.271272 0.271272 0.271272
0.273641 0.273641 0.273641
0.275492 0.275492 0.275492
0.277014 0.277014 0.277014
0.278307 0.278307 0.278307
0.279432 0.279432 0.279432
0.121260 0.121260 0.121260
0.264060 0.264060 0.264060
0.269649 0.269649 0.269649
0.272973 0.272973 0.272973
0.275356 0.275356 0.275356
0.277219 0.277219 0.277219
0.278751 0.278751 0.278751
0.280052 0.280052 0.280052
0.281185 0.281185 0.281185
0.121260 0.121260 0.121260
0.265412 0.265412 0.265412
0.271030 0.271030 0.271030
0.274371 0.274371 0.274371
0.276766 0.276766 0.276766
0.278639 0.278639 0.278639
0.280178 0.280178 0.280178
0.281486 0.281486 0.281486
0.282624 0.282624 0.282624
0.121260 0.121260 0.121260
0.266561 0.266561 0.266561
0.272203 0.272203 0.272203
0.275558 0.275558 0.275558
0.277964 0.277964 0.277964
0.279845 0.279845 0.279845
0.281391 0.281391 0.281391
0.282704 0.282704 0.282704
0.283847 0.283847 0.283847
0.121260 0.121260 0.121260
0.267560 0.267560 0.267560
0.273223 0.273223 0.273223
0.276591 0.276591 0.276591
0.279006 0.279006 0.279006
0.280893 0.280893 0.280893
0.282445 0.282445 0.282445
0.283764 0.283764 0.283764
0.284911 0.284911 0.284911
0.121260 0.121260 0.121260
0.121260 0.121260 0.121260
0.121260 0.121260 0.121260
0.121260 0.121260 0.121260
0.121260 0.121260 0.121260
0.121260 0.121260 0.121260
0.121260 0.121260 0.121260
0.121260 0.121260 0.121260
0.121260 0.121260 0.121260
0.121260 0.121260 0.121260
0.354504 0.354504 0.354504
0.361866 0.361866 0.361866
0.366210 0.366210 0.366210
0.369253 0.369253 0.369253
0.371631 0.371631 0.371631
0.373585 0.373585 0.373585
0.375245 0.375245 0.375245
0.376689 0.376689 0.376689
0.121260 0.121260 0.121260
0.361323 0.361323 0.361323
0.368716 0.368716 0.368716
0.373042 0.373042 0.373042
0.376142 0.376142 0.376142
0.378564 0.378564 0.378564
0.380554 0.380554 0.380554
0.382246 0.382246 0.382246
0.383717 0.383717 0.383717
0.121260 0.121260 0.121260
0.365367 0.365367 0.365367
0.372725 0.372725 0.372725
0.377097 0.377097 0.377097
0.380231 0.380231 0.380231
0.382679 0.382679 0.382679
0.384691 0.384691 0.384691
0.386401 0.386401 0.386401
0.387888 0.387888 0.387888
0.121260 0.121260 0.121260
0.368180 0.368180 0.368180
0.375595 0.375595 0.375595
0.380001 0.380001 0.380001
0.383159 0.383159 0.383159
0.385626 0.385626 0.385626
0.387654 0.387654 0.387654
0.389377 0.389377 0.389377
0.390875 0.390875 0.390875
0.121260 0.121260 0.121260
0.370378 0.370378 0.370378
0.377837 0.377837 0.377837
0.382269 0.382269 0.382269
0.385446 0.385446 0.385446
0.387928 0.387928 0.387928
0.389967 0.389967 0.389967
0.391700 0.391700 0.391700
0.393208 0.393208 0.393208
0.121260 0.121260 0.121260
0.372183 0.372183 0.372183
0.379678 0.379678 0.379678
0.384132 0.384132 0.384132
0.387324 0.387324 0.387324
0.389818 0.389818 0.389818
0.391868 0.391868 0.391868
0.393610 0.393610 0.393610
0.395124 0.395124 0.395124
0.121260 0.121260 0.121260
0.373716 0.373716 0.373716
0.381242 0.381242 0.381242
0.385715 0.385715 0.385715
0.388920 0.388920 0.388920
0.391424 0.391424 0.391424
0.393482 0.393482 0.393482
0.395231 0.395231 0.395231
0.396752 0.396752 0.396752
0.121260 0.121260 0.121260
0.375049 0.375049 0.375049
0.382602 0.382602 0.382602
0.387090 0.387090 0.387090
0.390307 0.390307 0.390307
0.392820 0.392820 0.392820
0.394886 0.394886 0.394886
0.396641 0.396641 0.396641
0.398167 0.398167 0.398167
0.121260 0.121260 0.121260
0.121260 0.121260 0.121260
0.121260 0.121260 0.121260
0.121260 0.121260 0.121260
0.121260 0.121260 0.121260
0.121260 0.121260 0.121260
0.121260 0.121260 0.121260
0.121260 0.121260 0.121260
0.121260 0.121260 0.121260
0.121260 0.121260 0.121260
0.456899 0.456899 0.456899
0.469047 0.469047 0.469047
0.476302 0.476302 0.476302
0.481518 0.481518 0.481518
0.485603 0.485603 0.485603
0.488967 0.488967 0.488967
0.491828 0.491828 0.491828
0.494198 0.494198 0.494198
0.121260 0.121260 0.121260
0.468150 0.468150 0.468150
0.480597 0.480597 0.480597
0.488031 0.488031 0.488031
0.493319 0.493319 0.493319
0.497206 0.497206 0.497206
0.500405 0.500405 0.500405
0.503125 0.503125 0.503125
0.505494 0.505494 0.505494
0.121260 0.121260 0.121260
0.474859 0.474859 0.474859
0.487485 0.487485 0.487485
0.494852 0.494852 0.494852
0.499885 0.499885 0.499885
0.503823 0.503823 0.503823
0.507065 0.507065 0.507065
0.509821 0.509821 0.509821
0.512221 0.512221 0.512221
0.121260 0.121260 0.121260
0.479678 0.479678 0.479678
0.492432 0.492432 0.492432
0.499516 0.499516 0.499516
0.504596 0.504596 0.504596
0.508572 0.508572 0.508572
0.511843 0.511843 0.511843
0.514626 0.514626 0.514626
0.517049 0.517049 0.517049
0.121260 0.121260 0.121260
0.483449 0.483449 0.483449
0.496039 0.496039 0.496039
0.503163 0.503163 0.503163
0.508280 0.508280 0.508280
0.512285 0.512285 0.512285
0.515581 0.515581 0.515581
0.518384 0.518384 0.518384
0.520824 0.520824 0.520824
0.121260 0.121260 0.121260
0.486553 0.486553 0.486553
0.498996 0.498996 0.498996
0.506164 0.506164 0.506164
0.511311 0.511311 0.511311
0.515340 0.515340 0.515340
0.518655 0.518655 0.518655
0.521475 0.521475 0.521475
0.523930 0.523930 0.523930
0.121260 0.121260 0.121260
0.489192 0.489192 0.489192
0.501511 0.501511 0.501511
0.508714 0.508714 0.508714
0.513888 0.513888 0.513888
0.517937 0.517937 0.517937
0.521269 0.521269 0.521269
0.524102 0.524102 0.524102
0.526570 0.526570 0.526570
0.121260 0.121260 0.121260
0.491490 0.491490 0.491490
0.503699 0.503699 0.503699
0.510934 0.510934 0.510934
0.516130 0.516130 0.516130
0.520197 0.520197 0.520197
0.523543 0.523543 0.523543
0.526389 0.526389 0.526389
0.528867 0.528867 0.528867
0.121260 0.121260 0.121260
0.121260 0.121260 0.121260
0.121260 0.121260 0.121260
0.121260 0.121260 0.121260
0.121260 0.121260 0.121260
0.121260 0.121260 0.121260
0.121260 0.121260 0.121260
0.121260 0.121260 0.121260
0.121260 0.121260 0.121260
0.121260 0.121260 0.121260
0.571519 0.571519 0.571519
0.585905 0.585905 0.585905
0.594850 0.594850 0.594850
0.601280 0.601280 0.601280
0.606315 0.606315 0.606315
0.610460 0.610460 0.610460
0.613987 0.613987 0.613987
0.617058 0.617058 0.617058
0.121260 0.121260 0.121260
0.584799 0.584799 0.584799
0.600145 0.600145 0.600145
0.609307 0.609307 0.609307
0.615893 0.615893 0.615893
0.621051 0.621051 0.621051
0.625297 0.625297 0.625297
0.628909 0.628909 0.628909
0.632055 0.632055 0.632055
0.121260 0.121260 0.121260
0.593071 0.593071 0.593071
0.608634 0.608634 0.608634
0.617927 0.617927 0.617927
0.624606 0.624606 0.624606
0.629836 0.629836 0.629836
0.634142 0.634142 0.634142
0.637806 0.637806 0.637806
0.640996 0.640996 0.640996
0.121260 0.121260 0.121260
0.599012 0.599012 0.599012
0.614731 0.614731 0.614731
0.624116 0.624116 0.624116
0.630862 0.630862 0.630862
0.636145 0.636145 0.636145
0.640494 0.640494 0.640494
0.644194 0.644194 0.644194
0.647417 0.647417 0.647417
0.121260 0.121260 0.121260
0.603660 0.603660 0.603660
0.619501 0.619501 0.619501
0.628960 0.628960 0.628960
0.635758 0.635758 0.635758
0.641082 0.641082 0.641082
0.645464 0.645464 0.645464
0.649194 0.649194 0.649194
0.652441 0.652441 0.652441
0.121260 0.121260 0.121260
0.607485 0.607485 0.607485
0.623427 0.623427 0.623427
0.632945 0.632945 0.632945
0.639786 0.639786 0.639786
0.645144 0.645144 0.645144
0.649554 0.649554 0.649554
0.653307 0.653307 0.653307
0.656575 0.656575 0.656575
0.121260 0.121260 0.121260
0.610738 0.610738 0.610738
0.626765 0.626765 0.626765
0.636334 0.636334 0.636334
0.643212 0.643212 0.643212
0.648598 0.648598 0.648598
0.653033 0.653033 0.653033
0.656805 0.656805 0.656805
0.660091 0.660091 0.660091
0.121260 0.121260 0.121260
0.613570 0.613570 0.613570
0.629671 0.629671 0.629671
0.639285 0.639285 0.639285
0.646195 0.646195 0.646195
0.651606 0.651606 0.651606
0.656061 0.656061 0.656061
0.659851 0.659851 0.659851
0.663152 0.663152 0.663152
0.121260 0.121260 0.121260
0.121260 0.121260 0.121260
0.121260 0.121260 0.121260
0.121260 0.121260 0.121260
0.121260 0.121260 0.121260
0.121260 0.121260 0.121260
0.121260 0.121260 0.121260
0.121260 0.121260 0.121260
0.121260 0.121260 0.121260
0.121260 0.121260 0.121260
0.688372 0.688372 0.688372
0.703594 0.703594 0.703594
0.712654 0.712654 0.712654
0.719153 0.719153 0.719153
0.724235 0.724235 0.724235
0.728414 0.728414 0.728414
0.731966 0.731966 0.731966
0.735057 0.735057 0.735057
0.121260 0.121260 0.121260
0.702473 0.702473 0.702473
0.718007 0.718007 0.718007
0.727253 0.727253 0.727253
0.733885 0.733885 0.733885
0.739055 0.739055 0.739055
0.743301 0.743301 0.743301
0.746910 0.746910 0.746910
0.750050 0.750050 0.750050
0.121260 0.121260 0.121260
0.710854 0.710854 0.710854
0.726574 0.726574 0.726574
0.735928 0.735928 0.735928
0.742610 0.742610 0.742610
0.747835 0.747835 0.747835
0.752131 0.752131 0.752131
0.755783 0.755783 0.755783
0.758960 0.758960 0.758960
0.121260 0.121260 0.121260
0.716862 0.716862 0.716862
0.732714 0.732714 0.732714
0.742121 0.742121 0.742121
0.748859 0.748859 0.748859
0.754128 0.754128 0.754128
0.758460 0.758460 0.758460
0.762142 0.762142 0.762142
0.765346 0.765346 0.765346
0.121260 0.121260 0.121260
0.721557 0.721557 0.721557
0.737505 0.737505 0.737505
0.746960 0.746960 0.746960
0.753742 0.753742 0.753742
0.759045 0.759045 0.759045
0.763405 0.763405 0.763405
0.767112 0.767112 0.767112
0.770337 0.770337 0.770337
0.121260 0.121260 0.121260
0.725416 0.725416 0.725416
0.741432 0.741432 0.741432
0.750937 0.750937 0.750937
0.757755 0.757755 0.757755
0.763087 0.763087 0.763087
0.767470 0.767470 0.767470
0.771196 0.771196 0.771196
0.774439 0.774439 0.774439
0.121260 0.121260 0.121260
0.728694 0.728694 0.728694
0.744768 0.744768 0.744768
0.754316 0.754316 0.754316
0.761165 0.761165 0.761165
0.766520 0.766520 0.766520
0.770924 0.770924 0.770924
0.774667 0.774667 0.774667
0.777924 0.777924 0.777924
0.121260 0.121260 0.121260
0.731546 0.731546 0.731546
0.747670 0.747670 0.747670
0.757256 0.757256 0.757256
0.764131 0.764131 0.764131
0.769507 0.769507 0.769507
0.773928 0.773928 0.773928
0.777685 0.777685 0.777685
0.780955 0.780955 0.780955
0.121260 0.121260 0.121260
0.121260 0.121260 0.121260
0.121260 0.121260 0.121260
0.121260 0.121260 0.121260
0.121260 0.121260 0.121260
0.121260 0.121260 0.121260
0.121260 0.121260 0.121260
0.121260 0.121260 0.121260
0.121260 0.121260 0.121260
0.121260 0.121260 0.121260
0.787285 0.787285 0.787285
0.800922 0.800922 0.800922
0.809009 0.809009 0.809009
0.814795 0.814795 0.814795
0.819313 0.819313 0.819313
0.823022 0.823022 0.823022
0.826171 0.826171 0.826171
0.828909 0.828909 0.828909
0.121260 0.121260 0.121260
0.799920 0.799920 0.799920
0.813775 0.813775 0.813775
0.821991 0.821991 0.821991
0.827871 0.827871 0.827871
0.832461 0.832461 0.832461
0.836230 0.836230 0.836230
0.839429 0.839429 0.839429
0.842211 0.842211 0.842211
0.121260 0.121260 0.121260
0.807404 0.807404 0.807404
0.821389 0.821389 0.821389
0.829682 0.829682 0.829682
0.835617 0.835617 0.835617
0.840249 0.840249 0.840249
0.844054 0.844054 0.844054
0.847283 0.847283 0.847283
0.850091 0.850091 0.850091
0.121260 0.121260 0.121260
0.812756 0.812756 0.812756
0.826835 0.826835 0.826835
0.835183 0.835183 0.835183
0.841157 0.841157 0.841157
0.845820 0.845820 0.845820
0.849649 0.849649 0.849649
0.852900 0.852900 0.852900
0.855727 0.855727 0.855727
0.121260 0.121260 0.121260
0.816933 0.816933 0.816933
0.831083 0.831083 0.831083
0.839474 0.839474 0.839474
0.845479 0.845479 0.845479
0.850166 0.850166 0.850166
0.854015 0.854015 0.854015
0.857003 0.857003 0.857003
0.859121 0.859121 0.859121
0.121260 0.121260 0.121260
0.820361 0.820361 0.820361
0.834571 0.834571 0.834571
0.842997 0.842997 0.842997
0.849027 0.849027 0.849027
0.853734 0.853734 0.853734
0.857239 0.857239 0.857239
0.859684 0.859684 0.859684
0.861808 0.861808 0.861808
0.121260 0.121260 0.121260
0.823271 0.823271 0.823271
0.837531 0.837531 0.837531
0.845987 0.845987 0.845987
0.852038 0.852038 0.852038
0.856615 0.856615 0.856615
0.859506 0.859506 0.859506
0.861957 0.861957 0.861957
0.864087 0.864087 0.864087
0.121260 0.121260 0.121260
0.825799 0.825799 0.825799
0.840103 0.840103 0.840103
0.848585 0.848585 0.848585
0.854655 0.854655 0.854655
0.858576 0.858576 0.858576
0.861474 0.861474 0.861474
0.863931 0.863931 0.863931
0.866066 0.866066 0.866066
0.121260 0.121260 0.121260
0.121260 0.121260 0.121260
0.121260 0.121260 0.121260
0.121260 0.121260 0.121260
0.121260 0.121260 0.121260
0.121260 0.121260 0.121260
0.121260 0.121260 0.121260
0.121260 0.121260 0.121260
0.121260 0.121260 0.121260
0.121260 0.121260 0.121260
0.861443 0.861443 0.861443
0.872547 0.872547 0.872547
0.879109 0.879109 0.879109
0.883795 0.883795 0.883795
0.887447 0.887447 0.887447
0.890442 0.890442 0.890442
0.892982 0.892982 0.892982
0.895188 0.895188 0.895188
0.121260 0.121260 0.121260
0.871732 0.871732 0.871732
0.882970 0.882970 0.882970
0.889610 0.889610 0.889610
0.894352 0.894352 0.894352
0.898047 0.898047 0.898047
0.901078 0.901078 0.901078
0.903648 0.903648 0.903648
0.905881 0.905881 0.905881
0.121260 0.121260 0.121260
0.877808 0.877808 0.877808
0.889124 0.889124 0.889124
0.895811 0.895811 0.895811
0.900585 0.900585 0.900585
0.904306 0.904306 0.904306
0.907358 0.907358 0.907358
0.909947 0.909947 0.909947
0.912195 0.912195 0.912195
0.121260 0.121260 0.121260
0.882145 0.882145 0.882145
0.893516 0.893516 0.893516
0.900236 0.900236 0.900236
0.905035 0.905035 0.905035
0.908774 0.908774 0.908774
0.911841 0.911841 0.911841
0.914442 0.914442 0.914442
0.916701 0.916701 0.916701
0.121260 0.121260 0.121260
0.885523 0.885523 0.885523
0.896939 0.896939 0.896939
0.903684 0.903684 0.903684
0.908501 0.908501 0.908501
0.912255 0.912255 0.912255
0.915333 0.915333 0.915333
0.917944 0.917944 0.917944
0.920212 0.920212 0.920212
0.121260 0.121260 0.121260
0.888294 0.888294 0.888294
0.899744 0.899744 0.899744
0.906511 0.906511 0.906511
0.911343 0.911343 0.911343
0.915108 0.915108 0.915108
0.918196 0.918196 0.918196
0.920816 0.920816 0.920816
0.923090 0.923090 0.923090
0.121260 0.121260 0.121260
0.890642 0.890642 0.890642
0.902123 0.902123 0.902123
0.908908 0.908908 0.908908
0.913752 0.913752 0.913752
0.917528 0.917528 0.917528
0.920624 0.920624 0.920624
0.923250 0.923250 0.923250
0.925388 0.925388 0.925388
0.121260 0.121260 0.121260
0.892682 0.892682 0.892682
0.904189 0.904189 0.904189
0.910989 0.910989 0.910989
0.915845 0.915845 0.915845
0.919629 0.919629 0.919629
0.922733 0.922733 0.922733
0.925252 0.925252 0.925252
0.927107 0.927107 0.927107
