trix_classic/TriX_Blue47_ExtraSoft.cube
TITLE "Tri-X Blue47 ExtraSoft"
# Adobe RGB in/out. REPLACES AgX. R=0.0336 G=0.0311 B=0.9353
LUT_3D_SIZE 5
DOMAIN_MIN 0.0 0.0 0.0
DOMAIN_MAX 1.0 1.0 1.0
0.121260 0.121260 0.121260
0.121260 0.121260 0.121260
0.121260 0.121260 0.121260
0.121260 0.121260 0.121260
0.121260 0.121260 0.121260
0.121260 0.121260 0.121260
0.121260 0.121260 0.121260
0.121260 0.121260 0.121260
0.121260 0.121260 0.121260
0.121260 0.121260 0.121260
0.121260 0.121260 0.121260
0.121260 0.121260 0.121260
0.121260 0.121260 0.121260
0.121260 0.121260 0.121260
0.121260 0.121260 0.121260
0.121260 0.121260 0.121260
0.121260 0.121260 0.121260
0.121260 0.121260 0.121260
0.121260 0.121260 0.121260
0.121260 0.121260 0.121260
0.121260 0.121260 0.121260
0.121260 0.121260 0.121260
0.121260 0.121260 0.121260
0.121260 0.121260 0.121260
0.121260 0.121260 0.121260
0.121260 0.121260 0.121260
0.121260 0.121260 0.121260
0.121260 0.121260 0.121260
0.121260 0.121260 0.121260
0.121260 0.121260 0.121260
0.121260 0.121260 0.121260
0.262816 0.262816 0.262816
0.268379 0.268379 0.268379
0.271687 0.271687 0.271687
0.274059 0.274059 0.274059
0.121260 0.121260 0.121260
0.267969 0.267969 0.267969
0.273641 0.273641 0.273641
0.277014 0.277014 0.277014
0.279432 0.279432 0.279432
0.121260 0.121260 0.121260
0.271030 0.271030 0.271030
0.276766 0.276766 0.276766
0.280178 0.280178 0.280178
0.282624 0.282624 0.282624
0.121260 0.121260 0.121260
0.273223 0.273223 0.273223
0.279006 0.279006 0.279006
0.282445 0.282445 0.282445
0.284911 0.284911 0.284911
0.121260 0.121260 0.121260
0.121260 0.121260 0.121260
0.121260 0.121260 0.121260
0.121260 0.121260 0.121260
0.121260 0.121260 0.121260
0.121260 0.121260 0.121260
0.480597 0.480597 0.480597
0.493319 0.493319 0.493319
0.500405 0.500405 0.500405
0.505494 0.505494 0.505494
0.121260 0.121260 0.121260
0.492432 0.492432 0.492432
0.504596 0.504596 0.504596
0.511843 0.511843 0.511843
0.517049 0.517049 0.517049
0.121260 0.121260 0.121260
0.498996 0.498996 0.498996
0.511311 0.511311 0.511311
0.518655 0.518655 0.518655
0.523930 0.523930 0.523930
0.121260 0.121260 0.121260
0.503699 0.503699 0.503699
0.516130 0.516130 0.516130
0.523543 0.523543 0.523543
0.528867 0.528867 0.528867
0.121260 0.121260 0.121260
0.121260 0.121260 0.121260
0.121260 0.121260 0.121260
0.121260 0.121260 0.121260
0.121260 0.121260 0.121260
0.121260 0.121260 0.121260
0.718007 0.718007 0.718007
0.733885 0.733885 0.733885
0.743301 0.743301 0.743301
0.750050 0.750050 0.750050
0.121260 0.121260 0.121260
0.732714 0.732714 0.732714
0.748859 0.748859 0.748859
0.758460 0.758460 0.758460
0.765346 0.765346 0.765346
0.121260 0.121260 0.121260
0.741432 0.741432 0.741432
0.757755 0.757755 0.757755
0.767470 0.767470 0.767470
0.774439 0.774439 0.774439
0.121260 0.121260 0.121260
0.747670 0.747670 0.747670
0.764131 0.764131 0.764131
0.773928 0.773928 0.773928
0.780955 0.780955 0.780955
0.121260 0.121260 0.121260
0.121260 0.121260 0.121260
0.121260 0.121260 0.121260
0.121260 0.121260 0.121260
0.121260 0.121260 0.121260
0.121260 0.121260 0.121260
0.882970 0.882970 0.882970
0.894352 0.894352 0.894352
0.901078 0.901078 0.901078
0.905881 0.905881 0.905881
0.121260 0.121260 0.121260
0.893516 0.893516 0.893516
0.905035 0.905035 0.905035
0.911841 0.911841 0.911841
0.916701 0.916701 0.916701
0.121260 0.121260 0.121260
0.899744 0.899744 0.899744
0.911343 0.911343 0.911343
0.918196 0.918196 0.918196
0.923090 0.923090 0.923090
0.121260 0.121260 0.121260
0.904189 0.904189 0.904189
0.915845 0.915845 0.915845
0.922733 0.922733 0.922733
0.927107 0.927107 0.927107
