trix_classic/TriX_NoFilter_Hard.cube
TITLE "Tri-X NoFilter Hard"
# Adobe RGB in/out. REPLACES AgX. R=0.2974 G=0.2859 B=0.4167
LUT_3D_SIZE 9
DOMAIN_MIN 0.0 0.0 0.0
DOMAIN_MAX 1.0 1.0 1.0
0.093288 0.093288 0.093288
0.093288 0.093288 0.093288
0.093288 0.093288 0.093288
0.093288 0.093288 0.093288
0.093288 0.093288 0.093288
0.093288 0.093288 0.093288
0.093288 0.093288 0.093288
0.093288 0.093288 0.093288
0.093288 0.093288 0.093288
0.093288 0.093288 0.093288
0.093288 0.093288 0.093288
0.093288 0.093288 0.093288
0.093288 0.093288 0.093288
0.093288 0.093288 0.093288
0.093288 0.093288 0.093288
0.093288 0.093288 0.093288
0.093288 0.093288 0.093288
0.093288 0.093288 0.093288
0.093288 0.093288 0.093288
0.093288 0.093288 0.093288
0.093288 0.093288 0.093288
0.093288 0.093288 0.093288
0.093288 0.093288 0.093288
0.093288 0.093288 0.093288
0.093288 0.093288 0.093288
0.093288 0.093288 0.093288
0.093288 0.093288 0.093288
0.093288 0.093288 0.093288
0.093288 0.093288 0.093288
0.093288 0.093288 0.093288
0.093288 0.093288 0.093288
0.093288 0.093288 0.093288
0.093288 0.093288 0.093288
0.093288 0.093288 0.093288
0.093288 0.093288 0.093288
0.093288 0.093288 0.093288
0.093288 0.093288 0.093288
0.093288 0.093288 0.093288
0.093288 0.093288 0.093288
0.093288 0.093288 0.093288
0.093288 0.093288 0.093288
0.093288 0.093288 0.093288
0.093288 0.093288 0.093288
0.093288 0.093288 0.093288
0.093288 0.093288 0.093288
0.093288 0.093288 0.093288
0.093288 0.093288 0.093288
0.093288 0.093288 0.093288
0.093288 0.093288 0.093288
0.093288 0.093288 0.093288
0.093288 0.093288 0.093288
0.093288 0.093288 0.093288
0.093288 0.093288 0.093288
0.093288 0.093288 0.093288
0.093288 0.093288 0.093288
0.093288 0.093288 0.093288
0.093288 0.093288 0.093288
0.093288 0.093288 0.093288
0.093288 0.093288 0.093288
0.093288 0.093288 0.093288
0.093288 0.093288 0.093288
0.093288 0.093288 0.093288
0.093288 0.093288 0.093288
0.093288 0.093288 0.093288
0.093288 0.093288 0.093288
0.093288 0.093288 0.093288
0.093288 0.093288 0.093288
0.093288 0.093288 0.093288
0.093288 0.093288 0.093288
0.093288 0.093288 0.093288
0.093288 0.093288 0.093288
0.093288 0.093288 0.093288
0.093288 0.093288 0.093288
0.093288 0.093288 0.093288
0.093288 0.093288 0.093288
0.093288 0.093288 0.093288
0.093288 0.093288 0.093288
0.093288 0.093288 0.093288
0.093288 0.093288 0.093288
0.093288 0.093288 0.093288
0.093288 0.093288 0.093288
0.093288 0.093288 0.093288
0.093288 0.093288 0.093288
0.093288 0.093288 0.093288
0.093288 0.093288 0.093288
0.093288 0.093288 0.093288
0.093288 0.093288 0.093288
0.093288 0.093288 0.093288
0.093288 0.093288 0.093288
0.093288 0.093288 0.093288
0.093288 0.093288 0.093288
0.093403 0.093403 0.093403
0.093685 0.093685 0.093685
0.094025 0.094025 0.094025
0.094715 0.094715 0.094715
0.095407 0.095407 0.095407
0.096155 0.096155 0.096155
0.096827 0.096827 0.096827
0.097659 0.097659 0.097659
0.093288 0.093288 0.093288
0.093667 0.093667 0.093667
0.094651 0.094651 0.094651
0.096045 0.096045 0.096045
0.097402 0.097402 0.097402
0.099559 0.099559 0.099559
0.102012 0.102012 0.102012
0.105904 0.105904 0.105904
0.112404 0.112404 0.112404
0.093288 0.093288 0.093288
0.093956 0.093956 0.093956
0.095980 0.095980 0.095980
0.098383 0.098383 0.098383
0.101634 0.101634 0.101634
0.108453 0.108453 0.108453
0.118958 0.118958 0.118958
0.130937 0.130937 0.130937
0.144220 0.144220 0.144220
0.093288 0.093288 0.093288
0.094586 0.094586 0.094586
0.097178 0.097178 0.097178
0.101367 0.101367 0.101367
0.111068 0.111068 0.111068
0.126145 0.126145 0.126145
0.142979 0.142979 0.142979
0.161391 0.161391 0.161391
0.182009 0.182009 0.182009
0.093288 0.093288 0.093288
0.095153 0.095153 0.095153
0.099214 0.099214 0.099214
0.107502 0.107502 0.107502
0.125469 0.125469 0.125469
0.146602 0.146602 0.146602
0.170405 0.170405 0.170405
0.196207 0.196207 0.196207
0.222818 0.222818 0.222818
0.093288 0.093288 0.093288
0.095870 0.095870 0.095870
0.100992 0.100992 0.100992
0.116990 0.116990 0.116990
0.141249 0.141249 0.141249
0.169328 0.169328 0.169328
0.200195 0.200195 0.200195
0.231856 0.231856 0.231856
0.263302 0.263302 0.263302
0.093288 0.093288 0.093288
0.096498 0.096498 0.096498
0.104596 0.104596 0.104596
0.128295 0.128295 0.128295
0.158488 0.158488 0.158488
0.193792 0.193792 0.193792
0.230544 0.230544 0.230544
0.267004 0.267004 0.267004
0.304559 0.304559 0.304559
0.093288 0.093288 0.093288
0.097060 0.097060 0.097060
0.109749 0.109749 0.109749
0.140106 0.140106 0.140106
0.177670 0.177670 0.177670
0.218996 0.218996 0.218996
0.260527 0.260527 0.260527
0.303005 0.303005 0.303005
0.345873 0.345873 0.345873
0.093288 0.093288 0.093288
0.093288 0.093288 0.093288
0.093288 0.093288 0.093288
0.093288 0.093288 0.093288
0.093288 0.093288 0.093288
0.093288 0.093288 0.093288
0.093288 0.093288 0.093288
0.093288 0.093288 0.093288
0.093288 0.093288 0.093288
0.093288 0.093288 0.093288
0.093887 0.093887 0.093887
0.095632 0.095632 0.095632
0.097567 0.097567 0.097567
0.100361 0.100361 0.100361
0.105014 0.105014 0.105014
0.113269 0.113269 0.113269
0.124197 0.124197 0.124197
0.135405 0.135405 0.135405
0.093288 0.093288 0.093288
0.095522 0.095522 0.095522
0.100098 0.100098 0.100098
0.111924 0.111924 0.111924
0.132796 0.132796 0.132796
0.157266 0.157266 0.157266
0.184849 0.184849 0.184849
0.213842 0.213842 0.213842
0.242845 0.242845 0.242845
0.093288 0.093288 0.093288
0.097184 0.097184 0.097184
0.111144 0.111144 0.111144
0.143149 0.143149 0.143149
0.182259 0.182259 0.182259
0.224983 0.224983 0.224983
0.267650 0.267650 0.267650
0.311629 0.311629 0.311629
0.355716 0.355716 0.355716
0.093288 0.093288 0.093288
0.099835 0.099835 0.099835
0.130533 0.130533 0.130533
0.180443 0.180443 0.180443
0.236726 0.236726 0.236726
0.293666 0.293666 0.293666
0.351818 0.351818 0.351818
0.410501 0.410501 0.410501
0.463682 0.463682 0.463682
0.093288 0.093288 0.093288
0.103479 0.103479 0.103479
0.152997 0.152997 0.152997
0.220791 0.220791 0.220791
0.291167 0.291167 0.291167
0.363223 0.363223 0.363223
0.435531 0.435531 0.435531
0.496970 0.496970 0.496970
0.557301 0.557301 0.557301
0.093288 0.093288 0.093288
0.109824 0.109824 0.109824
0.177915 0.177915 0.177915
0.260906 0.260906 0.260906
0.346396 0.346396 0.346396
0.432912 0.432912 0.432912
0.506038 0.506038 0.506038
0.577645 0.577645 0.577645
0.643978 0.643978 0.643978
0.093288 0.093288 0.093288
0.118516 0.118516 0.118516
0.204203 0.204203 0.204203
0.301677 0.301677 0.301677
0.401486 0.401486 0.401486
0.491467 0.491467 0.491467
0.574697 0.574697 0.574697
0.650886 0.650886 0.650886
0.717321 0.717321 0.717321
0.093288 0.093288 0.093288
0.128374 0.128374 0.128374
0.230761 0.230761 0.230761
0.342600 0.342600 0.342600
0.453168 0.453168 0.453168
0.548672 0.548672 0.548672
0.638787 0.638787 0.638787
0.714631 0.714631 0.714631
0.773911 0.773911 0.773911
0.093288 0.093288 0.093288
0.093288 0.093288 0.093288
0.093288 0.093288 0.093288
0.093288 0.093288 0.093288
0.093288 0.093288 0.093288
0.093288 0.093288 0.093288
0.093288 0.093288 0.093288
0.093288 0.093288 0.093288
0.093288 0.093288 0.093288
0.093288 0.093288 0.093288
0.095121 0.095121 0.095121
0.099137 0.099137 0.099137
0.107126 0.107126 0.107126
0.124857 0.124857 0.124857
0.145709 0.145709 0.145709
0.169204 0.169204 0.169204
0.194744 0.194744 0.194744
0.221157 0.221157 0.221157
0.093288 0.093288 0.093288
0.098877 0.098877 0.098877
0.122792 0.122792 0.122792
0.165171 0.165171 0.165171
0.215585 0.215585 0.215585
0.266638 0.266638 0.266638
0.319190 0.319190 0.319190
0.371868 0.371868 0.371868
0.425654 0.425654 0.425654
0.093288 0.093288 0.093288
0.105383 0.105383 0.105383
0.162857 0.162857 0.162857
0.237605 0.237605 0.237605
0.314271 0.314271 0.314271
0.392044 0.392044 0.392044
0.465229 0.465229 0.465229
0.530912 0.530912 0.530912
0.595435 0.595435 0.595435
0.093288 0.093288 0.093288
0.120761 0.120761 0.120761
0.210152 0.210152 0.210152
0.310826 0.310826 0.310826
0.414107 0.414107 0.414107
0.504317 0.504317 0.504317
0.589774 0.589774 0.589774
0.665328 0.665328 0.665328
0.733237 0.733237 0.733237
0.093288 0.093288 0.093288
0.138983 0.138983 0.138983
0.257793 0.257793 0.257793
0.384448 0.384448 0.384448
0.500607 0.500607 0.500607
0.606312 0.606312 0.606312
0.695212 0.695212 0.695212
0.767527 0.767527 0.767527
0.815423 0.815423 0.815423
0.093288 0.093288 0.093288
0.159091 0.159091 0.159091
0.306036 0.306036 0.306036
0.454680 0.454680 0.454680
0.581888 0.581888 0.581888
0.691655 0.691655 0.691655
0.775360 0.775360 0.775360
0.827301 0.827301 0.827301
0.866474 0.866474 0.866474
0.093288 0.093288 0.093288
0.181667 0.181667 0.181667
0.354445 0.354445 0.354445
0.516185 0.516185 0.516185
0.654935 0.654935 0.654935
0.762743 0.762743 0.762743
0.825595 0.825595 0.825595
0.870886 0.870886 0.870886
0.903089 0.903089 0.903089
0.093288 0.093288 0.093288
0.204857 0.204857 0.204857
0.402873 0.402873 0.402873
0.576357 0.576357 0.576357
0.719076 0.719076 0.719076
0.810306 0.810306 0.810306
0.863142 0.863142 0.863142
0.901854 0.901854 0.901854
0.930147 0.930147 0.930147
0.093288 0.093288 0.093288
0.093288 0.093288 0.093288
0.093288 0.093288 0.093288
0.093288 0.093288 0.093288
0.093288 0.093288 0.093288
0.093288 0.093288 0.093288
0.093288 0.093288 0.093288
0.093288 0.093288 0.093288
0.093288 0.093288 0.093288
0.093288 0.093288 0.093288
0.096812 0.096812 0.096812
0.107013 0.107013 0.107013
0.134465 0.134465 0.134465
0.168844 0.168844 0.168844
0.207503 0.207503 0.207503
0.246856 0.246856 0.246856
0.286480 0.286480 0.286480
0.327010 0.327010 0.327010
0.093288 0.093288 0.093288
0.105742 0.105742 0.105742
0.164820 0.164820 0.164820
0.240636 0.240636 0.240636
0.318442 0.318442 0.318442
0.397402 0.397402 0.397402
0.470559 0.470559 0.470559
0.537015 0.537015 0.537015
0.602279 0.602279 0.602279
0.093288 0.093288 0.093288
0.130657 0.130657 0.130657
0.237070 0.237070 0.237070
0.352350 0.352350 0.352350
0.464288 0.464288 0.464288
0.562181 0.562181 0.562181
0.652089 0.652089 0.652089
0.729513 0.729513 0.729513
0.784518 0.784518 0.784518
0.093288 0.093288 0.093288
0.160891 0.160891 0.160891
0.310098 0.310098 0.310098
0.459889 0.459889 0.459889
0.588577 0.588577 0.588577
0.698386 0.698386 0.698386
0.780336 0.780336 0.780336
0.831124 0.831124 0.831124
0.870478 0.870478 0.870478
0.093288 0.093288 0.093288
0.195565 0.195565 0.195565
0.383547 0.383547 0.383547
0.552727 0.552727 0.552727
0.694016 0.694016 0.694016
0.792507 0.792507 0.792507
0.848690 0.848690 0.848690
0.890271 0.890271 0.890271
0.921195 0.921195 0.921195
0.093288 0.093288 0.093288
0.231097 0.231097 0.231097
0.453760 0.453760 0.453760
0.639496 0.639496 0.639496
0.774479 0.774479 0.774479
0.846620 0.846620 0.846620
0.895272 0.895272 0.895272
0.928857 0.928857 0.928857
0.951829 0.951829 0.951829
0.093288 0.093288 0.093288
0.266130 0.266130 0.266130
0.515137 0.515137 0.515137
0.712329 0.712329 0.712329
0.824918 0.824918 0.824918
0.887205 0.887205 0.887205
0.927759 0.927759 0.927759
0.953610 0.953610 0.953610
0.969977 0.969977 0.969977
0.093288 0.093288 0.093288
0.301973 0.301973 0.301973
0.575186 0.575186 0.575186
0.770350 0.770350 0.770350
0.862435 0.862435 0.862435
0.917881 0.917881 0.917881
0.950480 0.950480 0.950480
0.969341 0.969341 0.969341
0.977790 0.977790 0.977790
0.093288 0.093288 0.093288
0.093288 0.093288 0.093288
0.093288 0.093288 0.093288
0.093288 0.093288 0.093288
0.093288 0.093288 0.093288
0.093288 0.093288 0.093288
0.093288 0.093288 0.093288
0.093288 0.093288 0.093288
0.093288 0.093288 0.093288
0.093288 0.093288 0.093288
0.099358 0.099358 0.099358
0.126627 0.126627 0.126627
0.172685 0.172685 0.172685
0.225973 0.225973 0.225973
0.279802 0.279802 0.279802
0.335207 0.335207 0.335207
0.390529 0.390529 0.390529
0.444708 0.444708 0.444708
0.093288 0.093288 0.093288
0.124533 0.124533 0.124533
0.220279 0.220279 0.220279
0.326424 0.326424 0.326424
0.434624 0.434624 0.434624
0.526146 0.526146 0.526146
0.615344 0.615344 0.615344
0.689691 0.689691 0.689691
0.755966 0.755966 0.755966
0.093288 0.093288 0.093288
0.166208 0.166208 0.166208
0.321394 0.321394 0.321394
0.474325 0.474325 0.474325
0.607116 0.607116 0.607116
0.716982 0.716982 0.716982
0.793997 0.793997 0.793997
0.841586 0.841586 0.841586
0.879736 0.879736 0.879736
0.093288 0.093288 0.093288
0.214729 0.214729 0.214729
0.423834 0.423834 0.423834
0.601345 0.601345 0.601345
0.745407 0.745407 0.745407
0.824297 0.824297 0.824297
0.877145 0.877145 0.877145
0.913751 0.913751 0.913751
0.939311 0.939311 0.939311
0.093288 0.093288 0.093288
0.263407 0.263407 0.263407
0.510395 0.510395 0.510395
0.706752 0.706752 0.706752
0.821838 0.821838 0.821838
0.884667 0.884667 0.884667
0.925774 0.925774 0.925774
0.952298 0.952298 0.952298
0.968648 0.968648 0.968648
0.093288 0.093288 0.093288
0.312973 0.312973 0.312973
0.593303 0.593303 0.593303
0.783836 0.783836 0.783836
0.873291 0.873291 0.873291
0.924480 0.924480 0.924480
0.954866 0.954866 0.954866
0.971860 0.971860 0.971860
0.979997 0.979997 0.979997
0.093288 0.093288 0.093288
0.362479 0.362479 0.362479
0.665806 0.665806 0.665806
0.832090 0.832090 0.832090
0.908523 0.908523 0.908523
0.950720 0.950720 0.950720
0.971499 0.971499 0.971499
0.980895 0.980895 0.980895
0.985895 0.985895 0.985895
0.093288 0.093288 0.093288
0.412336 0.412336 0.412336
0.731012 0.731012 0.731012
0.869933 0.869933 0.869933
0.934331 0.934331 0.934331
0.966411 0.966411 0.966411
0.979317 0.979317 0.979317
0.985752 0.985752 0.985752
0.989450 0.989450 0.989450
0.093288 0.093288 0.093288
0.093288 0.093288 0.093288
0.093288 0.093288 0.093288
0.093288 0.093288 0.093288
0.093288 0.093288 0.093288
0.093288 0.093288 0.093288
0.093288 0.093288 0.093288
0.093288 0.093288 0.093288
0.093288 0.093288 0.093288
0.093288 0.093288 0.093288
0.103287 0.103287 0.103287
0.152065 0.152065 0.152065
0.219145 0.219145 0.219145
0.288909 0.288909 0.288909
0.360406 0.360406 0.360406
0.432612 0.432612 0.432612
0.493638 0.493638 0.493638
0.553553 0.553553 0.553553
0.093288 0.093288 0.093288
0.148932 0.148932 0.148932
0.281339 0.281339 0.281339
0.421482 0.421482 0.421482
0.540959 0.540959 0.540959
0.650204 0.650204 0.650204
0.742472 0.742472 0.742472
0.801601 0.801601 0.801601
0.841355 0.841355 0.841355
0.093288 0.093288 0.093288
0.210458 0.210458 0.210458
0.414755 0.414755 0.414755
0.590547 0.590547 0.590547
0.734051 0.734051 0.734051
0.818295 0.818295 0.818295
0.871652 0.871652 0.871652
0.908653 0.908653 0.908653
0.935388 0.935388 0.935388
0.093288 0.093288 0.093288
0.273968 0.273968 0.273968
0.528652 0.528652 0.528652
0.728134 0.728134 0.728134
0.833581 0.833581 0.833581
0.894328 0.894328 0.894328
0.933326 0.933326 0.933326
0.957284 0.957284 0.957284
0.971812 0.971812 0.971812
0.093288 0.093288 0.093288
0.338859 0.338859 0.338859
0.633656 0.633656 0.633656
0.812716 0.812716 0.812716
0.892285 0.892285 0.892285
0.939308 0.939308 0.939308
0.964682 0.964682 0.964682
0.976739 0.976739 0.976739
0.984017 0.984017 0.984017
0.093288 0.093288 0.093288
0.403504 0.403504 0.403504
0.719875 0.719875 0.719875
0.863598 0.863598 0.863598
0.930428 0.930428 0.930428
0.963815 0.963815 0.963815
0.978028 0.978028 0.978028
0.985169 0.985169 0.985169
0.988865 0.988865 0.988865
0.093288 0.093288 0.093288
0.462854 0.462854 0.462854
0.783157 0.783157 0.783157
0.900794 0.900794 0.900794
0.954647 0.954647 0.954647
0.975946 0.975946 0.975946
0.985005 0.985005 0.985005
0.989271 0.989271 0.989271
0.992541 0.992541 0.992541
0.093288 0.093288 0.093288
0.516625 0.516625 0.516625
0.825879 0.825879 0.825879
0.928378 0.928378 0.928378
0.970188 0.970188 0.970188
0.983516 0.983516 0.983516
0.988557 0.988557 0.988557
0.992476 0.992476 0.992476
0.994153 0.994153 0.994153
0.093288 0.093288 0.093288
0.093288 0.093288 0.093288
0.093288 0.093288 0.093288
0.093288 0.093288 0.093288
0.093288 0.093288 0.093288
0.093288 0.093288 0.093288
0.093288 0.093288 0.093288
0.093288 0.093288 0.093288
0.093288 0.093288 0.093288
0.093288 0.093288 0.093288
0.111445 0.111445 0.111445
0.183257 0.183257 0.183257
0.269202 0.269202 0.269202
0.357862 0.357862 0.357862
0.445264 0.445264 0.445264
0.520497 0.520497 0.520497
0.594184 0.594184 0.594184
0.659567 0.659567 0.659567
0.093288 0.093288 0.093288
0.178890 0.178890 0.178890
0.348486 0.348486 0.348486
0.508675 0.508675 0.508675
0.646830 0.646830 0.646830
0.756496 0.756496 0.756496
0.820716 0.820716 0.820716
0.865739 0.865739 0.865739
0.899000 0.899000 0.899000
0.093288 0.093288 0.093288
0.258531 0.258531 0.258531
0.501895 0.501895 0.501895
0.696733 0.696733 0.696733
0.816271 0.816271 0.816271
0.880076 0.880076 0.880076
0.922177 0.922177 0.922177
0.949918 0.949918 0.949918
0.966233 0.966233 0.966233
0.093288 0.093288 0.093288
0.339355 0.339355 0.339355
0.634338 0.634338 0.634338
0.813132 0.813132 0.813132
0.892634 0.892634 0.892634
0.939583 0.939583 0.939583
0.964863 0.964863 0.964863
0.976829 0.976829 0.976829
0.984058 0.984058 0.984058
0.093288 0.093288 0.093288
0.420727 0.420727 0.420727
0.741530 0.741530 0.741530
0.875479 0.875479 0.875479
0.937976 0.937976 0.937976
0.968827 0.968827 0.968827
0.980518 0.980518 0.980518
0.986295 0.986295 0.986295
0.989994 0.989994 0.989994
0.093288 0.093288 0.093288
0.490515 0.490515 0.490515
0.808729 0.808729 0.808729
0.917140 0.917140 0.917140
0.962937 0.962937 0.962937
0.980086 0.980086 0.980086
0.986879 0.986879 0.986879
0.991154 0.991154 0.991154
0.993392 0.993392 0.993392
0.093288 0.093288 0.093288
0.557009 0.557009 0.557009
0.851336 0.851336 0.851336
0.944660 0.944660 0.944660
0.975510 0.975510 0.975510
0.985935 0.985935 0.985935
0.990988 0.990988 0.990988
0.993576 0.993576 0.993576
0.995255 0.995255 0.995255
0.093288 0.093288 0.093288
0.621939 0.621939 0.621939
0.886313 0.886313 0.886313
0.961572 0.961572 0.961572
0.983319 0.983319 0.983319
0.989490 0.989490 0.989490
0.993252 0.993252 0.993252
0.995190 0.995190 0.995190
0.996872 0.996872 0.996872
0.093288 0.093288 0.093288
0.093288 0.093288 0.093288
0.093288 0.093288 0.093288
0.093288 0.093288 0.093288
0.093288 0.093288 0.093288
0.093288 0.093288 0.093288
0.093288 0.093288 0.093288
0.093288 0.093288 0.093288
0.093288 0.093288 0.093288
0.093288 0.093288 0.093288
0.123931 0.123931 0.123931
0.218652 0.218652 0.218652
0.323915 0.323915 0.323915
0.431736 0.431736 0.431736
0.522639 0.522639 0.522639
0.611242 0.611242 0.611242
0.685793 0.685793 0.685793
0.753141 0.753141 0.753141
0.093288 0.093288 0.093288
0.213142 0.213142 0.213142
0.420459 0.420459 0.420459
0.597336 0.597336 0.597336
0.741194 0.741194 0.741194
0.822076 0.822076 0.822076
0.875335 0.875335 0.875335
0.911865 0.911865 0.911865
0.937861 0.937861 0.937861
0.093288 0.093288 0.093288
0.310567 0.310567 0.310567
0.589348 0.589348 0.589348
0.780908 0.780908 0.780908
0.870938 0.870938 0.870938
0.923053 0.923053 0.923053
0.953919 0.953919 0.953919
0.971388 0.971388 0.971388
0.979521 0.979521 0.979521
0.093288 0.093288 0.093288
0.409053 0.409053 0.409053
0.726880 0.726880 0.726880
0.867589 0.867589 0.867589
0.932888 0.932888 0.932888
0.965452 0.965452 0.965452
0.978841 0.978841 0.978841
0.985537 0.985537 0.985537
0.989234 0.989234 0.989234
0.093288 0.093288 0.093288
0.495507 0.495507 0.495507
0.812050 0.812050 0.812050
0.919443 0.919443 0.919443
0.964391 0.964391 0.964391
0.980810 0.980810 0.980810
0.987207 0.987207 0.987207
0.991483 0.991483 0.991483
0.993541 0.993541 0.993541
0.093288 0.093288 0.093288
0.575940 0.575940 0.575940
0.862890 0.862890 0.862890
0.950665 0.950665 0.950665
0.977883 0.977883 0.977883
0.987011 0.987011 0.987011
0.992070 0.992070 0.992070
0.994065 0.994065 0.994065
0.995745 0.995745 0.995745
0.093288 0.093288 0.093288
0.649257 0.649257 0.649257
0.900228 0.900228 0.900228
0.968796 0.968796 0.968796
0.984939 0.984939 0.984939
0.991121 0.991121 0.991121
0.993990 0.993990 0.993990
0.995930 0.995930 0.995930
0.997612 0.997612 0.997612
0.093288 0.093288 0.093288
0.712843 0.712843 0.712843
0.927942 0.927942 0.927942
0.977205 0.977205 0.977205
0.988491 0.988491 0.988491
0.993312 0.993312 0.993312
0.995605 0.995605 0.995605
0.997547 0.997547 0.997547
0.998062 0.998062 0.998062
