trix_classic/TriX_NoFilter_ExtraPunchy.cube
TITLE "Tri-X NoFilter ExtraPunchy"
# Adobe RGB in/out. REPLACES AgX. Tri-X NoFilter ExtraPunchy.
LUT_3D_SIZE 9
DOMAIN_MIN 0.0 0.0 0.0
DOMAIN_MAX 1.0 1.0 1.0
0.092237 0.092237 0.092237
0.092237 0.092237 0.092237
0.092237 0.092237 0.092237
0.093422 0.093422 0.093422
0.111232 0.111232 0.111232
0.193928 0.193928 0.193928
0.310199 0.310199 0.310199
0.688041 0.688041 0.688041
0.816654 0.816654 0.816654
0.092237 0.092237 0.092237
0.092237 0.092237 0.092237
0.092373 0.092373 0.092373
0.095210 0.095210 0.095210
0.116995 0.116995 0.116995
0.197638 0.197638 0.197638
0.312332 0.312332 0.312332
0.688065 0.688065 0.688065
0.816656 0.816656 0.816656
0.092332 0.092332 0.092332
0.092530 0.092530 0.092530
0.093851 0.093851 0.093851
0.104242 0.104242 0.104242
0.146595 0.146595 0.146595
0.221238 0.221238 0.221238
0.327371 0.327371 0.327371
0.693512 0.693512 0.693512
0.816656 0.816656 0.816656
0.098454 0.098454 0.098454
0.099912 0.099912 0.099912
0.106865 0.106865 0.106865
0.132436 0.132436 0.132436
0.191345 0.191345 0.191345
0.270671 0.270671 0.270671
0.364560 0.364560 0.364560
0.484181 0.484181 0.484181
0.758392 0.758392 0.758392
0.144588 0.144588 0.144588
0.147911 0.147911 0.147911
0.165328 0.165328 0.165328
0.198956 0.198956 0.198956
0.254718 0.254718 0.254718
0.335850 0.335850 0.335850
0.428874 0.428874 0.428874
0.537604 0.537604 0.537604
0.716708 0.716708 0.716708
0.240767 0.240767 0.240767
0.243516 0.243516 0.243516
0.262038 0.262038 0.262038
0.294915 0.294915 0.294915
0.345517 0.345517 0.345517
0.418652 0.418652 0.418652
0.514946 0.514946 0.514946
0.613226 0.613226 0.613226
0.718524 0.718524 0.718524
0.361671 0.361671 0.361671
0.364202 0.364202 0.364202
0.379935 0.379935 0.379935
0.410555 0.410555 0.410555
0.458552 0.458552 0.458552
0.526538 0.526538 0.526538
0.613686 0.613686 0.613686
0.703091 0.703091 0.703091
0.772364 0.772364 0.772364
0.516733 0.516733 0.516733
0.516750 0.516750 0.516750
0.524249 0.524249 0.524249
0.548555 0.548555 0.548555
0.589728 0.589728 0.589728
0.648423 0.648423 0.648423
0.718356 0.718356 0.718356
0.784042 0.784042 0.784042
0.826564 0.826564 0.826564
0.559768 0.559768 0.559768
0.559775 0.559775 0.559775
0.643654 0.643654 0.643654
0.656142 0.656142 0.656142
0.721263 0.721263 0.721263
0.755697 0.755697 0.755697
0.800462 0.800462 0.800462
0.842461 0.842461 0.842461
0.876116 0.876116 0.876116
0.092237 0.092237 0.092237
0.097517 0.097517 0.097517
0.092596 0.092596 0.092596
0.094454 0.094454 0.094454
0.116318 0.116318 0.116318
0.201710 0.201710 0.201710
0.319328 0.319328 0.319328
0.688066 0.688066 0.688066
0.816657 0.816657 0.816657
0.092237 0.092237 0.092237
0.092317 0.092317 0.092317
0.092718 0.092718 0.092718
0.096419 0.096419 0.096419
0.122401 0.122401 0.122401
0.205206 0.205206 0.205206
0.320509 0.320509 0.320509
0.688103 0.688103 0.688103
0.816656 0.816656 0.816656
0.092768 0.092768 0.092768
0.093065 0.093065 0.093065
0.095439 0.095439 0.095439
0.108957 0.108957 0.108957
0.150641 0.150641 0.150641
0.227595 0.227595 0.227595
0.334604 0.334604 0.334604
0.695348 0.695348 0.695348
0.816656 0.816656 0.816656
0.102312 0.102312 0.102312
0.103650 0.103650 0.103650
0.113172 0.113172 0.113172
0.142260 0.142260 0.142260
0.199919 0.199919 0.199919
0.275930 0.275930 0.275930
0.371275 0.371275 0.371275
0.491561 0.491561 0.491561
0.816656 0.816656 0.816656
0.152998 0.152998 0.152998
0.156713 0.156713 0.156713
0.174364 0.174364 0.174364
0.208817 0.208817 0.208817
0.265374 0.265374 0.265374
0.342900 0.342900 0.342900
0.434705 0.434705 0.434705
0.544084 0.544084 0.544084
0.735775 0.735775 0.735775
0.247414 0.247414 0.247414
0.250567 0.250567 0.250567
0.269489 0.269489 0.269489
0.302436 0.302436 0.302436
0.353669 0.353669 0.353669
0.427192 0.427192 0.427192
0.521141 0.521141 0.521141
0.619465 0.619465 0.619465
0.725472 0.725472 0.725472
0.367512 0.367512 0.367512
0.370246 0.370246 0.370246
0.386388 0.386388 0.386388
0.417323 0.417323 0.417323
0.465756 0.465756 0.465756
0.533838 0.533838 0.533838
0.620914 0.620914 0.620914
0.708058 0.708058 0.708058
0.776225 0.776225 0.776225
0.519364 0.519364 0.519364
0.519957 0.519957 0.519957
0.529375 0.529375 0.529375
0.554395 0.554395 0.554395
0.595967 0.595967 0.595967
0.654075 0.654075 0.654075
0.724281 0.724281 0.724281
0.787757 0.787757 0.787757
0.828723 0.828723 0.828723
0.625840 0.625840 0.625840
0.625849 0.625849 0.625849
0.698760 0.698760 0.698760
0.698755 0.698755 0.698755
0.725448 0.725448 0.725448
0.759089 0.759089 0.759089
0.804023 0.804023 0.804023
0.844641 0.844641 0.844641
0.877308 0.877308 0.877308
0.093576 0.093576 0.093576
0.252282 0.252282 0.252282
0.230278 0.230278 0.230278
0.217148 0.217148 0.217148
0.249249 0.249249 0.249249
0.346544 0.346544 0.346544
0.492180 0.492180 0.492180
0.700456 0.700456 0.700456
0.816667 0.816667 0.816667
0.094467 0.094467 0.094467
0.113774 0.113774 0.113774
0.150011 0.150011 0.150011
0.169836 0.169836 0.169836
0.219298 0.219298 0.219298
0.321968 0.321968 0.321968
0.465903 0.465903 0.465903
0.702700 0.702700 0.702700
0.816658 0.816658 0.816658
0.098373 0.098373 0.098373
0.101035 0.101035 0.101035
0.128236 0.128236 0.128236
0.150808 0.150808 0.150808
0.205927 0.205927 0.205927
0.297775 0.297775 0.297775
0.415642 0.415642 0.415642
0.709774 0.709774 0.709774
0.816656 0.816656 0.816656
0.126091 0.126091 0.126091
0.129937 0.129937 0.129937
0.147538 0.147538 0.147538
0.184626 0.184626 0.184626
0.245831 0.245831 0.245831
0.324204 0.324204 0.324204
0.425042 0.425042 0.425042
0.570356 0.570356 0.570356
0.816657 0.816657 0.816657
0.194874 0.194874 0.194874
0.198656 0.198656 0.198656
0.216560 0.216560 0.216560
0.253075 0.253075 0.253075
0.308892 0.308892 0.308892
0.386348 0.386348 0.386348
0.476864 0.476864 0.476864
0.593878 0.593878 0.593878
0.802078 0.802078 0.802078
0.294659 0.294659 0.294659
0.297710 0.297710 0.297710
0.314157 0.314157 0.314157
0.346026 0.346026 0.346026
0.397728 0.397728 0.397728
0.470059 0.470059 0.470059
0.557638 0.557638 0.557638
0.657176 0.657176 0.657176
0.761897 0.761897 0.761897
0.410209 0.410209 0.410209
0.413050 0.413050 0.413050
0.428124 0.428124 0.428124
0.458109 0.458109 0.458109
0.506434 0.506434 0.506434
0.572280 0.572280 0.572280
0.654881 0.654881 0.654881
0.733791 0.733791 0.733791
0.798002 0.798002 0.798002
0.552259 0.552259 0.552259
0.554383 0.554383 0.554383
0.567462 0.567462 0.567462
0.592508 0.592508 0.592508
0.633781 0.633781 0.633781
0.686137 0.686137 0.686137
0.747428 0.747428 0.747428
0.806036 0.806036 0.806036
0.839623 0.839623 0.839623
0.625855 0.625855 0.625855
0.698760 0.698760 0.698760
0.698762 0.698762 0.698762
0.698784 0.698784 0.698784
0.742548 0.742548 0.742548
0.776695 0.776695 0.776695
0.815619 0.815619 0.815619
0.855004 0.855004 0.855004
0.883526 0.883526 0.883526
0.127805 0.127805 0.127805
0.343670 0.343670 0.343670
0.407232 0.407232 0.407232
0.414124 0.414124 0.414124
0.457599 0.457599 0.457599
0.543847 0.543847 0.543847
0.662946 0.662946 0.662946
0.789128 0.789128 0.789128
0.832066 0.832066 0.832066
0.142810 0.142810 0.142810
0.255620 0.255620 0.255620
0.364899 0.364899 0.364899
0.383763 0.383763 0.383763
0.434309 0.434309 0.434309
0.526455 0.526455 0.526455
0.652639 0.652639 0.652639
0.785884 0.785884 0.785884
0.832234 0.832234 0.832234
0.155708 0.155708 0.155708
0.175063 0.175063 0.175063
0.245494 0.245494 0.245494
0.302809 0.302809 0.302809
0.369154 0.369154 0.369154
0.466863 0.466863 0.466863
0.605769 0.605769 0.605769
0.760691 0.760691 0.760691
0.832848 0.832848 0.832848
0.191332 0.191332 0.191332
0.198638 0.198638 0.198638
0.228896 0.228896 0.228896
0.302165 0.302165 0.302165
0.349337 0.349337 0.349337
0.435358 0.435358 0.435358
0.557236 0.557236 0.557236
0.725947 0.725947 0.725947
0.833035 0.833035 0.833035
0.265830 0.265830 0.265830
0.270565 0.270565 0.270565
0.291722 0.291722 0.291722
0.331256 0.331256 0.331256
0.389532 0.389532 0.389532
0.469112 0.469112 0.469112
0.567936 0.567936 0.567936
0.695637 0.695637 0.695637
0.851302 0.851302 0.851302
0.360934 0.360934 0.360934
0.364428 0.364428 0.364428
0.382025 0.382025 0.382025
0.415794 0.415794 0.415794
0.469581 0.469581 0.469581
0.541357 0.541357 0.541357
0.628703 0.628703 0.628703
0.723678 0.723678 0.723678
0.840434 0.840434 0.840434
0.477356 0.477356 0.477356
0.480386 0.480386 0.480386
0.495657 0.495657 0.495657
0.525670 0.525670 0.525670
0.572186 0.572186 0.572186
0.638069 0.638069 0.638069
0.709391 0.709391 0.709391
0.772194 0.772194 0.772194
0.838934 0.838934 0.838934
0.611330 0.611330 0.611330
0.613695 0.613695 0.613695
0.626738 0.626738 0.626738
0.650085 0.650085 0.650085
0.685615 0.685615 0.685615
0.733742 0.733742 0.733742
0.783002 0.783002 0.783002
0.826823 0.826823 0.826823
0.864523 0.864523 0.864523
0.725680 0.725680 0.725680
0.754755 0.754755 0.754755
0.754762 0.754762 0.754762
0.759788 0.759788 0.759788
0.781065 0.781065 0.781065
0.809543 0.809543 0.809543
0.837991 0.837991 0.837991
0.874014 0.874014 0.874014
0.896828 0.896828 0.896828
0.250306 0.250306 0.250306
0.401588 0.401588 0.401588
0.553395 0.553395 0.553395
0.573754 0.573754 0.573754
0.613610 0.613610 0.613610
0.685507 0.685507 0.685507
0.761937 0.761937 0.761937
0.827684 0.827684 0.827684
0.873213 0.873213 0.873213
0.271175 0.271175 0.271175
0.383935 0.383935 0.383935
0.535754 0.535754 0.535754
0.563345 0.563345 0.563345
0.605400 0.605400 0.605400
0.679772 0.679772 0.679772
0.759382 0.759382 0.759382
0.827102 0.827102 0.827102
0.872203 0.872203 0.872203
0.294230 0.294230 0.294230
0.333747 0.333747 0.333747
0.457207 0.457207 0.457207
0.522510 0.522510 0.522510
0.575284 0.575284 0.575284
0.657888 0.657888 0.657888
0.748556 0.748556 0.748556
0.823656 0.823656 0.823656
0.868206 0.868206 0.868206
0.315875 0.315875 0.315875
0.329656 0.329656 0.329656
0.385919 0.385919 0.385919
0.463442 0.463442 0.463442
0.534443 0.534443 0.534443
0.625082 0.625082 0.625082
0.730212 0.730212 0.730212
0.818293 0.818293 0.818293
0.879021 0.879021 0.879021
0.369603 0.369603 0.369603
0.376668 0.376668 0.376668
0.405949 0.405949 0.405949
0.459052 0.459052 0.459052
0.545947 0.545947 0.545947
0.614658 0.614658 0.614658
0.713797 0.713797 0.713797
0.809877 0.809877 0.809877
0.885776 0.885776 0.885776
0.458350 0.458350 0.458350
0.462825 0.462825 0.462825
0.483928 0.483928 0.483928
0.523146 0.523146 0.523146
0.580625 0.580625 0.580625
0.652537 0.652537 0.652537
0.731300 0.731300 0.731300
0.807629 0.807629 0.807629
0.889411 0.889411 0.889411
0.566898 0.566898 0.566898
0.570273 0.570273 0.570273
0.586110 0.586110 0.586110
0.617588 0.617588 0.617588
0.663653 0.663653 0.663653
0.721929 0.721929 0.721929
0.774104 0.774104 0.774104
0.824341 0.824341 0.824341
0.891336 0.891336 0.891336
0.685040 0.685040 0.685040
0.687255 0.687255 0.687255
0.698805 0.698805 0.698805
0.720996 0.720996 0.720996
0.748592 0.748592 0.748592
0.786062 0.786062 0.786062
0.823609 0.823609 0.823609
0.858056 0.858056 0.858056
0.897173 0.897173 0.897173
0.789508 0.789508 0.789508
0.793507 0.793507 0.793507
0.802979 0.802979 0.802979
0.803400 0.803400 0.803400
0.818256 0.818256 0.818256
0.838393 0.838393 0.838393
0.865669 0.865669 0.865669
0.892891 0.892891 0.892891
0.917572 0.917572 0.917572
0.430624 0.430624 0.430624
0.546759 0.546759 0.546759
0.686673 0.686673 0.686673
0.708212 0.708212 0.708212
0.737681 0.737681 0.737681
0.780475 0.780475 0.780475
0.825438 0.825438 0.825438
0.865807 0.865807 0.865807
0.891457 0.891457 0.891457
0.449279 0.449279 0.449279
0.547359 0.547359 0.547359
0.681812 0.681812 0.681812
0.706816 0.706816 0.706816
0.737306 0.737306 0.737306
0.780012 0.780012 0.780012
0.825470 0.825470 0.825470
0.866158 0.866158 0.866158
0.891457 0.891457 0.891457
0.490833 0.490833 0.490833
0.539453 0.539453 0.539453
0.656721 0.656721 0.656721
0.699685 0.699685 0.699685
0.735490 0.735490 0.735490
0.778545 0.778545 0.778545
0.825608 0.825608 0.825608
0.867881 0.867881 0.867881
0.891456 0.891456 0.891456
0.497155 0.497155 0.497155
0.519958 0.519958 0.519958
0.606837 0.606837 0.606837
0.679757 0.679757 0.679757
0.730518 0.730518 0.730518
0.775877 0.775877 0.775877
0.825645 0.825645 0.825645
0.871243 0.871243 0.871243
0.901811 0.901811 0.901811
0.528101 0.528101 0.528101
0.538861 0.538861 0.538861
0.586592 0.586592 0.586592
0.656425 0.656425 0.656425
0.723080 0.723080 0.723080
0.773147 0.773147 0.773147
0.825470 0.825470 0.825470
0.874430 0.874430 0.874430
0.912526 0.912526 0.912526
0.590747 0.590747 0.590747
0.597179 0.597179 0.597179
0.625079 0.625079 0.625079
0.670381 0.670381 0.670381
0.729083 0.729083 0.729083
0.784665 0.784665 0.784665
0.827977 0.827977 0.827977
0.876857 0.876857 0.876857
0.920341 0.920341 0.920341
0.677035 0.677035 0.677035
0.680690 0.680690 0.680690
0.697351 0.697351 0.697351
0.728200 0.728200 0.728200
0.763474 0.763474 0.763474
0.807127 0.807127 0.807127
0.841177 0.841177 0.841177
0.880799 0.880799 0.880799
0.927469 0.927469 0.927469
0.759897 0.759897 0.759897
0.761781 0.761781 0.761781
0.771145 0.771145 0.771145
0.788571 0.788571 0.788571
0.812219 0.812219 0.812219
0.837152 0.837152 0.837152
0.867578 0.867578 0.867578
0.893831 0.893831 0.893831
0.932519 0.932519 0.932519
0.811261 0.811261 0.811261
0.814333 0.814333 0.814333
0.822570 0.822570 0.822570
0.838160 0.838160 0.838160
0.852857 0.852857 0.852857
0.872504 0.872504 0.872504
0.892359 0.892359 0.892359
0.915417 0.915417 0.915417
0.943192 0.943192 0.943192
0.672103 0.672103 0.672103
0.737342 0.737342 0.737342
0.787691 0.787691 0.787691
0.803821 0.803821 0.803821
0.819056 0.819056 0.819056
0.843328 0.843328 0.843328
0.873782 0.873782 0.873782
0.898176 0.898176 0.898176
0.915968 0.915968 0.915968
0.684103 0.684103 0.684103
0.738549 0.738549 0.738549
0.788050 0.788050 0.788050
0.804969 0.804969 0.804969
0.820138 0.820138 0.820138
0.844194 0.844194 0.844194
0.874406 0.874406 0.874406
0.898802 0.898802 0.898802
0.915791 0.915791 0.915791
0.719795 0.719795 0.719795
0.744825 0.744825 0.744825
0.788434 0.788434 0.788434
0.808787 0.808787 0.808787
0.824574 0.824574 0.824574
0.847846 0.847846 0.847846
0.876995 0.876995 0.876995
0.901692 0.901692 0.901692
0.914754 0.914754 0.914754
0.725519 0.725519 0.725519
0.741423 0.741423 0.741423
0.785485 0.785485 0.785485
0.813428 0.813428 0.813428
0.831751 0.831751 0.831751
0.854765 0.854765 0.854765
0.881923 0.881923 0.881923
0.906978 0.906978 0.906978
0.926216 0.926216 0.926216
0.729311 0.729311 0.729311
0.739822 0.739822 0.739822
0.778675 0.778675 0.778675
0.815625 0.815625 0.815625
0.839754 0.839754 0.839754
0.863981 0.863981 0.863981
0.888701 0.888701 0.888701
0.914612 0.914612 0.914612
0.933625 0.933625 0.933625
0.748428 0.748428 0.748428
0.754756 0.754756 0.754756
0.781148 0.781148 0.781148
0.816346 0.816346 0.816346
0.845826 0.845826 0.845826
0.873547 0.873547 0.873547
0.896462 0.896462 0.896462
0.921511 0.921511 0.921511
0.942468 0.942468 0.942468
0.785783 0.785783 0.785783
0.789643 0.789643 0.789643
0.805531 0.805531 0.805531
0.825300 0.825300 0.825300
0.852399 0.852399 0.852399
0.880310 0.880310 0.880310
0.903272 0.903272 0.903272
0.927487 0.927487 0.927487
0.952753 0.952753 0.952753
0.826578 0.826578 0.826578
0.828068 0.828068 0.828068
0.835274 0.835274 0.835274
0.848467 0.848467 0.848467
0.868708 0.868708 0.868708
0.889369 0.889369 0.889369
0.911527 0.911527 0.911527
0.930729 0.930729 0.930729
0.959859 0.959859 0.959859
0.837949 0.837949 0.837949
0.842076 0.842076 0.842076
0.847628 0.847628 0.847628
0.877201 0.877201 0.877201
0.888383 0.888383 0.888383
0.902826 0.902826 0.902826
0.919872 0.919872 0.919872
0.935973 0.935973 0.935973
0.966542 0.966542 0.966542
0.841581 0.841581 0.841581
0.846281 0.846281 0.846281
0.855233 0.855233 0.855233
0.863308 0.863308 0.863308
0.875509 0.875509 0.875509
0.891708 0.891708 0.891708
0.910693 0.910693 0.910693
0.927208 0.927208 0.927208
0.935513 0.935513 0.935513
0.842902 0.842902 0.842902
0.847329 0.847329 0.847329
0.856671 0.856671 0.856671
0.864913 0.864913 0.864913
0.876680 0.876680 0.876680
0.892632 0.892632 0.892632
0.911552 0.911552 0.911552
0.927784 0.927784 0.927784
0.935698 0.935698 0.935698
0.850557 0.850557 0.850557
0.853734 0.853734 0.853734
0.863070 0.863070 0.863070
0.871940 0.871940 0.871940
0.881859 0.881859 0.881859
0.896692 0.896692 0.896692
0.915251 0.915251 0.915251
0.930374 0.930374 0.930374
0.937743 0.937743 0.937743
0.859009 0.859009 0.859009
0.862337 0.862337 0.862337
0.872495 0.872495 0.872495
0.880454 0.880454 0.880454
0.890225 0.890225 0.890225
0.903884 0.903884 0.903884
0.920251 0.920251 0.920251
0.935123 0.935123 0.935123
0.947145 0.947145 0.947145
0.867695 0.867695 0.867695
0.871763 0.871763 0.871763
0.881592 0.881592 0.881592
0.891150 0.891150 0.891150
0.901587 0.901587 0.901587
0.914520 0.914520 0.914520
0.927457 0.927457 0.927457
0.942157 0.942157 0.942157
0.954967 0.954967 0.954967
0.873637 0.873637 0.873637
0.877339 0.877339 0.877339
0.889631 0.889631 0.889631
0.901934 0.901934 0.901934
0.914384 0.914384 0.914384
0.924678 0.924678 0.924678
0.936609 0.936609 0.936609
0.951131 0.951131 0.951131
0.960802 0.960802 0.960802
0.877152 0.877152 0.877152
0.880249 0.880249 0.880249
0.892517 0.892517 0.892517
0.908868 0.908868 0.908868
0.923006 0.923006 0.923006
0.934854 0.934854 0.934854
0.946893 0.946893 0.946893
0.959160 0.959160 0.959160
0.966966 0.966966 0.966966
0.886835 0.886835 0.886835
0.888348 0.888348 0.888348
0.895690 0.895690 0.895690
0.908806 0.908806 0.908806
0.924417 0.924417 0.924417
0.939847 0.939847 0.939847
0.955025 0.955025 0.955025
0.962840 0.962840 0.962840
0.973856 0.973856 0.973856
0.880621 0.880621 0.880621
0.889054 0.889054 0.889054
0.894625 0.894625 0.894625
0.911072 0.911072 0.911072
0.921496 0.921496 0.921496
0.932985 0.932985 0.932985
0.946871 0.946871 0.946871
0.959482 0.959482 0.959482
0.979815 0.979815 0.979815
0.901502 0.901502 0.901502
0.901811 0.901811 0.901811
0.903415 0.903415 0.903415
0.908504 0.908504 0.908504
0.918423 0.918423 0.918423
0.929704 0.929704 0.929704
0.941639 0.941639 0.941639
0.953532 0.953532 0.953532
0.954755 0.954755 0.954755
0.902412 0.902412 0.902412
0.902735 0.902735 0.902735
0.904400 0.904400 0.904400
0.909529 0.909529 0.909529
0.919097 0.919097 0.919097
0.930310 0.930310 0.930310
0.942210 0.942210 0.942210
0.953913 0.953913 0.953913
0.957378 0.957378 0.957378
0.906942 0.906942 0.906942
0.907319 0.907319 0.907319
0.909202 0.909202 0.909202
0.914394 0.914394 0.914394
0.922258 0.922258 0.922258
0.933085 0.933085 0.933085
0.944814 0.944814 0.944814
0.956148 0.956148 0.956148
0.957379 0.957379 0.957379
0.916112 0.916112 0.916112
0.916440 0.916440 0.916440
0.918021 0.918021 0.918021
0.921800 0.921800 0.921800
0.928522 0.928522 0.928522
0.938519 0.938519 0.938519
0.949999 0.949999 0.949999
0.959172 0.959172 0.959172
0.964705 0.964705 0.964705
0.925116 0.925116 0.925116
0.925499 0.925499 0.925499
0.927306 0.927306 0.927306
0.931048 0.931048 0.931048
0.937109 0.937109 0.937109
0.946203 0.946203 0.946203
0.956848 0.956848 0.956848
0.963164 0.963164 0.963164
0.969182 0.969182 0.969182
0.936005 0.936005 0.936005
0.936439 0.936439 0.936439
0.938443 0.938443 0.938443
0.942322 0.942322 0.942322
0.947837 0.947837 0.947837
0.955958 0.955958 0.955958
0.961857 0.961857 0.961857
0.968066 0.968066 0.968066
0.974106 0.974106 0.974106
0.948655 0.948655 0.948655
0.949119 0.949119 0.949119
0.951175 0.951175 0.951175
0.955188 0.955188 0.955188
0.958702 0.958702 0.958702
0.962583 0.962583 0.962583
0.967856 0.967856 0.967856
0.973942 0.973942 0.973942
0.979371 0.979371 0.979371
0.958437 0.958437 0.958437
0.959138 0.959138 0.959138
0.960928 0.960928 0.960928
0.963253 0.963253 0.963253
0.966368 0.966368 0.966368
0.970170 0.970170 0.970170
0.974722 0.974722 0.974722
0.979617 0.979617 0.979617
0.981741 0.981741 0.981741
0.912848 0.912848 0.912848
0.931690 0.931690 0.931690
0.931690 0.931690 0.931690
0.933124 0.933124 0.933124
0.963371 0.963371 0.963371
0.977065 0.977065 0.977065
0.980260 0.980260 0.980260
0.982412 0.982412 0.982412
0.984304 0.984304 0.984304
