trix_classic/TriX_Orange21_ExtraSoft.cube
TITLE "Tri-X Orange21 ExtraSoft"
# Adobe RGB in/out. REPLACES AgX. R=0.7239 G=0.2761 B=0.0000
LUT_3D_SIZE 65
DOMAIN_MIN 0.0 0.0 0.0
DOMAIN_MAX 1.0 1.0 1.0
0.121260 0.121260 0.121260
0.121260 0.121260 0.121260
0.121260 0.121260 0.121260
0.121260 0.121260 0.121260
0.121260 0.121260 0.121260
0.121260 0.121260 0.121260
0.121260 0.121260 0.121260
0.121260 0.121260 0.121260
0.121260 0.121260 0.121260
0.121260 0.121260 0.121260
0.121260 0.121260 0.121260
0.121260 0.121260 0.121260
0.121260 0.121260 0.121260
0.121260 0.121260 0.121260
0.121260 0.121260 0.121260
0.121260 0.121260 0.121260
0.121260 0.121260 0.121260
0.121260 0.121260 0.121260
0.121260 0.121260 0.121260
0.121260 0.121260 0.121260
0.121260 0.121260 0.121260
0.121260 0.121260 0.121260
0.121260 0.121260 0.121260
0.121260 0.121260 0.121260
0.121260 0.121260 0.121260
0.121260 0.121260 0.121260
0.121260 0.121260 0.121260
0.121260 0.121260 0.121260
0.121260 0.121260 0.121260
0.121260 0.121260 0.121260
0.121260 0.121260 0.121260
0.121260 0.121260 0.121260
0.121260 0.121260 0.121260
0.121260 0.121260 0.121260
0.121260 0.121260 0.121260
0.121260 0.121260 0.121260
0.121260 0.121260 0.121260
0.121260 0.121260 0.121260
0.121260 0.121260 0.121260
0.121260 0.121260 0.121260
0.121260 0.121260 0.121260
0.121260 0.121260 0.121260
0.121260 0.121260 0.121260
0.121260 0.121260 0.121260
0.121260 0.121260 0.121260
0.121260 0.121260 0.121260
0.121260 0.121260 0.121260
0.121260 0.121260 0.121260
0.121260 0.121260 0.121260
0.121260 0.121260 0.121260
0.121260 0.121260 0.121260
0.121260 0.121260 0.121260
0.121260 0.121260 0.121260
0.121260 0.121260 0.121260
0.121260 0.121260 0.121260
0.121260 0.121260 0.121260
0.121260 0.121260 0.121260
0.121260 0.121260 0.121260
0.121260 0.121260 0.121260
0.121260 0.121260 0.121260
0.121260 0.121260 0.121260
0.121260 0.121260 0.121260
0.121260 0.121260 0.121260
0.121260 0.121260 0.121260
0.121260 0.121260 0.121260
0.121260 0.121260 0.121260
0.121260 0.121260 0.121260
0.121260 0.121260 0.121260
0.121260 0.121260 0.121260
0.121260 0.121260 0.121260
0.121260 0.121260 0.121260
0.121260 0.121260 0.121260
0.121304 0.121304 0.121304
0.122942 0.122942 0.122942
0.124703 0.124703 0.124703
0.126621 0.126621 0.126621
0.128480 0.128480 0.128480
0.130420 0.130420 0.130420
0.132231 0.132231 0.132231
0.134670 0.134670 0.134670
0.137695 0.137695 0.137695
0.140586 0.140586 0.140586
0.143543 0.143543 0.143543
0.147690 0.147690 0.147690
0.151569 0.151569 0.151569
0.154949 0.154949 0.154949
0.158596 0.158596 0.158596
0.162895 0.162895 0.162895
0.167112 0.167112 0.167112
0.171251 0.171251 0.171251
0.175318 0.175318 0.175318
0.179840 0.179840 0.179840
0.184556 0.184556 0.184556
0.189155 0.189155 0.189155
0.193616 0.193616 0.193616
0.198026 0.198026 0.198026
0.202386 0.202386 0.202386
0.206700 0.206700 0.206700
0.210968 0.210968 0.210968
0.215194 0.215194 0.215194
0.219377 0.219377 0.219377
0.223521 0.223521 0.223521
0.227627 0.227627 0.227627
0.231875 0.231875 0.231875
0.235830 0.235830 0.235830
0.239750 0.239750 0.239750
0.243636 0.243636 0.243636
0.247489 0.247489 0.247489
0.251311 0.251311 0.251311
0.255101 0.255101 0.255101
0.258861 0.258861 0.258861
0.262593 0.262593 0.262593
0.266296 0.266296 0.266296
0.269972 0.269972 0.269972
0.273621 0.273621 0.273621
0.277244 0.277244 0.277244
0.280842 0.280842 0.280842
0.284416 0.284416 0.284416
0.287949 0.287949 0.287949
0.291432 0.291432 0.291432
0.294892 0.294892 0.294892
0.298330 0.298330 0.298330
0.301747 0.301747 0.301747
0.305141 0.305141 0.305141
0.308516 0.308516 0.308516
0.311869 0.311869 0.311869
0.315203 0.315203 0.315203
0.318518 0.318518 0.318518
0.321813 0.321813 0.321813
0.325232 0.325232 0.325232
0.121260 0.121260 0.121260
0.121260 0.121260 0.121260
0.121260 0.121260 0.121260
0.121260 0.121260 0.121260
0.121260 0.121260 0.121260
0.121260 0.121260 0.121260
0.122654 0.122654 0.122654
0.124939 0.124939 0.124939
0.127379 0.127379 0.127379
0.129897 0.129897 0.129897
0.132276 0.132276 0.132276
0.135678 0.135678 0.135678
0.139533 0.139533 0.139533
0.143263 0.143263 0.143263
0.148651 0.148651 0.148651
0.153402 0.153402 0.153402
0.157905 0.157905 0.157905
0.163506 0.163506 0.163506
0.168968 0.168968 0.168968
0.174303 0.174303 0.174303
0.180084 0.180084 0.180084
0.186212 0.186212 0.186212
0.192090 0.192090 0.192090
0.197846 0.197846 0.197846
0.203519 0.203519 0.203519
0.209114 0.209114 0.209114
0.214633 0.214633 0.214633
0.220082 0.220082 0.220082
0.225463 0.225463 0.225463
0.230957 0.230957 0.230957
0.236134 0.236134 0.236134
0.241230 0.241230 0.241230
0.246269 0.246269 0.246269
0.251253 0.251253 0.251253
0.256185 0.256185 0.256185
0.261066 0.261066 0.261066
0.265899 0.265899 0.265899
0.270686 0.270686 0.270686
0.275427 0.275427 0.275427
0.280126 0.280126 0.280126
0.284782 0.284782 0.284782
0.289363 0.289363 0.289363
0.293884 0.293884 0.293884
0.298366 0.298366 0.298366
0.302812 0.302812 0.302812
0.307221 0.307221 0.307221
0.311596 0.311596 0.311596
0.315937 0.315937 0.315937
0.320245 0.320245 0.320245
0.324623 0.324623 0.324623
0.329169 0.329169 0.329169
0.333491 0.333491 0.333491
0.337654 0.337654 0.337654
0.341789 0.341789 0.341789
0.345896 0.345896 0.345896
0.349975 0.349975 0.349975
0.354028 0.354028 0.354028
0.358054 0.358054 0.358054
0.362056 0.362056 0.362056
0.366006 0.366006 0.366006
0.369839 0.369839 0.369839
0.373648 0.373648 0.373648
0.377433 0.377433 0.377433
0.381195 0.381195 0.381195
0.384934 0.384934 0.384934
0.121260 0.121260 0.121260
0.121260 0.121260 0.121260
0.121260 0.121260 0.121260
0.121260 0.121260 0.121260
0.121260 0.121260 0.121260
0.122313 0.122313 0.122313
0.124947 0.124947 0.124947
0.127768 0.127768 0.127768
0.130724 0.130724 0.130724
0.133682 0.133682 0.133682
0.138294 0.138294 0.138294
0.142604 0.142604 0.142604
0.148687 0.148687 0.148687
0.154164 0.154164 0.154164
0.159832 0.159832 0.159832
0.166299 0.166299 0.166299
0.172586 0.172586 0.172586
0.179112 0.179112 0.179112
0.186273 0.186273 0.186273
0.193117 0.193117 0.193117
0.199810 0.199810 0.199810
0.206392 0.206392 0.206392
0.212869 0.212869 0.212869
0.219248 0.219248 0.219248
0.225535 0.225535 0.225535
0.231914 0.231914 0.231914
0.237913 0.237913 0.237913
0.243832 0.243832 0.243832
0.249675 0.249675 0.249675
0.255446 0.255446 0.255446
0.261147 0.261147 0.261147
0.266783 0.266783 0.266783
0.272356 0.272356 0.272356
0.277868 0.277868 0.277868
0.283323 0.283323 0.283323
0.288695 0.288695 0.288695
0.293974 0.293974 0.293974
0.299202 0.299202 0.299202
0.304379 0.304379 0.304379
0.309508 0.309508 0.309508
0.314590 0.314590 0.314590
0.319627 0.319627 0.319627
0.324729 0.324729 0.324729
0.330032 0.330032 0.330032
0.334984 0.334984 0.334984
0.339829 0.339829 0.339829
0.344635 0.344635 0.344635
0.349404 0.349404 0.349404
0.354136 0.354136 0.354136
0.358833 0.358833 0.358833
0.363495 0.363495 0.363495
0.368034 0.368034 0.368034
0.372491 0.372491 0.372491
0.376915 0.376915 0.376915
0.381308 0.381308 0.381308
0.385669 0.385669 0.385669
0.390001 0.390001 0.390001
0.394303 0.394303 0.394303
0.398577 0.398577 0.398577
0.402823 0.402823 0.402823
0.407042 0.407042 0.407042
0.411234 0.411234 0.411234
0.415826 0.415826 0.415826
0.421099 0.421099 0.421099
0.426354 0.426354 0.426354
0.121260 0.121260 0.121260
0.121260 0.121260 0.121260
0.121260 0.121260 0.121260
0.121260 0.121260 0.121260
0.121260 0.121260 0.121260
0.123696 0.123696 0.123696
0.126949 0.126949 0.126949
0.130188 0.130188 0.130188
0.133335 0.133335 0.133335
0.138488 0.138488 0.138488
0.143404 0.143404 0.143404
0.150378 0.150378 0.150378
0.156143 0.156143 0.156143
0.163138 0.163138 0.163138
0.170238 0.170238 0.170238
0.177223 0.177223 0.177223
0.185245 0.185245 0.185245
0.192922 0.192922 0.192922
0.200388 0.200388 0.200388
0.207716 0.207716 0.207716
0.214915 0.214915 0.214915
0.221994 0.221994 0.221994
0.229036 0.229036 0.229036
0.235924 0.235924 0.235924
0.242554 0.242554 0.242554
0.249088 0.249088 0.249088
0.255531 0.255531 0.255531
0.261888 0.261888 0.261888
0.268164 0.268164 0.268164
0.274362 0.274362 0.274362
0.280486 0.280486 0.280486
0.286539 0.286539 0.286539
0.292452 0.292452 0.292452
0.298299 0.298299 0.298299
0.304083 0.304083 0.304083
0.309806 0.309806 0.309806
0.315472 0.315472 0.315472
0.321081 0.321081 0.321081
0.326889 0.326889 0.326889
0.332655 0.332655 0.332655
0.338081 0.338081 0.338081
0.343457 0.343457 0.343457
0.348787 0.348787 0.348787
0.354070 0.354070 0.354070
0.359310 0.359310 0.359310
0.364507 0.364507 0.364507
0.369526 0.369526 0.369526
0.374485 0.374485 0.374485
0.379404 0.379404 0.379404
0.384285 0.384285 0.384285
0.389127 0.389127 0.389127
0.393933 0.393933 0.393933
0.398704 0.398704 0.398704
0.403439 0.403439 0.403439
0.408141 0.408141 0.408141
0.412809 0.412809 0.412809
0.418430 0.418430 0.418430
0.424304 0.424304 0.424304
0.430156 0.430156 0.430156
0.436052 0.436052 0.436052
0.442072 0.442072 0.442072
0.448073 0.448073 0.448073
0.454057 0.454057 0.454057
0.460022 0.460022 0.460022
0.465971 0.465971 0.465971
0.121260 0.121260 0.121260
0.121260 0.121260 0.121260
0.121260 0.121260 0.121260
0.121260 0.121260 0.121260
0.121966 0.121966 0.121966
0.125174 0.125174 0.125174
0.128649 0.128649 0.128649
0.132111 0.132111 0.132111
0.137039 0.137039 0.137039
0.142335 0.142335 0.142335
0.149615 0.149615 0.149615
0.156015 0.156015 0.156015
0.163612 0.163612 0.163612
0.171317 0.171317 0.171317
0.179192 0.179192 0.179192
0.187856 0.187856 0.187856
0.196084 0.196084 0.196084
0.204142 0.204142 0.204142
0.212042 0.212042 0.212042
0.219796 0.219796 0.219796
0.227414 0.227414 0.227414
0.235023 0.235023 0.235023
0.242252 0.242252 0.242252
0.249366 0.249366 0.249366
0.256373 0.256373 0.256373
0.263280 0.263280 0.263280
0.270090 0.270090 0.270090
0.276810 0.276810 0.276810
0.283443 0.283443 0.283443
0.289952 0.289952 0.289952
0.296345 0.296345 0.296345
0.302663 0.302663 0.302663
0.308908 0.308908 0.308908
0.315084 0.315084 0.315084
0.321193 0.321193 0.321193
0.327533 0.327533 0.327533
0.333732 0.333732 0.333732
0.339626 0.339626 0.339626
0.345463 0.345463 0.345463
0.351244 0.351244 0.351244
0.356973 0.356973 0.356973
0.362650 0.362650 0.362650
0.368183 0.368183 0.368183
0.373593 0.373593 0.373593
0.378955 0.378955 0.378955
0.384271 0.384271 0.384271
0.389542 0.389542 0.389542
0.394769 0.394769 0.394769
0.399955 0.399955 0.399955
0.405100 0.405100 0.405100
0.410205 0.410205 0.410205
0.415662 0.415662 0.415662
0.422068 0.422068 0.422068
0.428447 0.428447 0.428447
0.434824 0.434824 0.434824
0.441382 0.441382 0.441382
0.447918 0.447918 0.447918
0.454433 0.454433 0.454433
0.460926 0.460926 0.460926
0.467399 0.467399 0.467399
0.473852 0.473852 0.473852
0.480285 0.480285 0.480285
0.486699 0.486699 0.486699
0.493057 0.493057 0.493057
0.498978 0.498978 0.498978
0.121260 0.121260 0.121260
0.121260 0.121260 0.121260
0.121260 0.121260 0.121260
0.121260 0.121260 0.121260
0.122821 0.122821 0.122821
0.126440 0.126440 0.126440
0.130199 0.130199 0.130199
0.134244 0.134244 0.134244
0.140141 0.140141 0.140141
0.146967 0.146967 0.146967
0.154295 0.154295 0.154295
0.161976 0.161976 0.161976
0.170285 0.170285 0.170285
0.178630 0.178630 0.178630
0.187923 0.187923 0.187923
0.196735 0.196735 0.196735
0.205353 0.205353 0.205353
0.213792 0.213792 0.213792
0.222065 0.222065 0.222065
0.230328 0.230328 0.230328
0.238219 0.238219 0.238219
0.245909 0.245909 0.245909
0.253472 0.253472 0.253472
0.260916 0.260916 0.260916
0.268247 0.268247 0.268247
0.275473 0.275473 0.275473
0.282599 0.282599 0.282599
0.289593 0.289593 0.289593
0.296448 0.296448 0.296448
0.303216 0.303216 0.303216
0.309901 0.309901 0.309901
0.316508 0.316508 0.316508
0.323038 0.323038 0.323038
0.329952 0.329952 0.329952
0.336380 0.336380 0.336380
0.342669 0.342669 0.342669
0.348893 0.348893 0.348893
0.355055 0.355055 0.355055
0.361157 0.361157 0.361157
0.367140 0.367140 0.367140
0.372947 0.372947 0.372947
0.378699 0.378699 0.378699
0.384399 0.384399 0.384399
0.390046 0.390046 0.390046
0.395645 0.395645 0.395645
0.401194 0.401194 0.401194
0.406698 0.406698 0.406698
0.412156 0.412156 0.412156
0.418588 0.418588 0.418588
0.425441 0.425441 0.425441
0.432264 0.432264 0.432264
0.439235 0.439235 0.439235
0.446249 0.446249 0.446249
0.453237 0.453237 0.453237
0.460202 0.460202 0.460202
0.467142 0.467142 0.467142
0.474060 0.474060 0.474060
0.480955 0.480955 0.480955
0.487827 0.487827 0.487827
0.494529 0.494529 0.494529
0.500869 0.500869 0.500869
0.507184 0.507184 0.507184
0.513473 0.513473 0.513473
0.519738 0.519738 0.519738
0.525978 0.525978 0.525978
0.121260 0.121260 0.121260
0.121260 0.121260 0.121260
0.121260 0.121260 0.121260
0.121260 0.121260 0.121260
0.123548 0.123548 0.123548
0.127522 0.127522 0.127522
0.131524 0.131524 0.131524
0.136809 0.136809 0.136809
0.142818 0.142818 0.142818
0.151236 0.151236 0.151236
0.158611 0.158611 0.158611
0.167544 0.167544 0.167544
0.176139 0.176139 0.176139
0.185980 0.185980 0.185980
0.195406 0.195406 0.195406
0.204570 0.204570 0.204570
0.213531 0.213531 0.213531
0.222305 0.222305 0.222305
0.231091 0.231091 0.231091
0.239384 0.239384 0.239384
0.247515 0.247515 0.247515
0.255504 0.255504 0.255504
0.263363 0.263363 0.263363
0.271097 0.271097 0.271097
0.278715 0.278715 0.278715
0.286223 0.286223 0.286223
0.293540 0.293540 0.293540
0.300754 0.300754 0.300754
0.307873 0.307873 0.307873
0.314902 0.314902 0.314902
0.321845 0.321845 0.321845
0.329105 0.329105 0.329105
0.335986 0.335986 0.335986
0.342657 0.342657 0.342657
0.349256 0.349256 0.349256
0.355786 0.355786 0.355786
0.362248 0.362248 0.362248
0.368541 0.368541 0.368541
0.374684 0.374684 0.374684
0.380765 0.380765 0.380765
0.386788 0.386788 0.386788
0.392754 0.392754 0.392754
0.398664 0.398664 0.398664
0.404522 0.404522 0.404522
0.410328 0.410328 0.410328
0.416696 0.416696 0.416696
0.423972 0.423972 0.423972
0.431214 0.431214 0.431214
0.438577 0.438577 0.438577
0.446017 0.446017 0.446017
0.453429 0.453429 0.453429
0.460814 0.460814 0.460814
0.468172 0.468172 0.468172
0.475504 0.475504 0.475504
0.482810 0.482810 0.482810
0.490092 0.490092 0.490092
0.497010 0.497010 0.497010
0.503722 0.503722 0.503722
0.510406 0.510406 0.510406
0.517062 0.517062 0.517062
0.523691 0.523691 0.523691
0.530293 0.530293 0.530293
0.536869 0.536869 0.536869
0.543419 0.543419 0.543419
0.549944 0.549944 0.549944
0.121260 0.121260 0.121260
0.121260 0.121260 0.121260
0.121260 0.121260 0.121260
0.121260 0.121260 0.121260
0.124380 0.124380 0.124380
0.128581 0.128581 0.128581
0.132683 0.132683 0.132683
0.139070 0.139070 0.139070
0.146378 0.146378 0.146378
0.154584 0.154584 0.154584
0.163323 0.163323 0.163323
0.172522 0.172522 0.172522
0.182302 0.182302 0.182302
0.192420 0.192420 0.192420
0.202129 0.202129 0.202129
0.211608 0.211608 0.211608
0.220877 0.220877 0.220877
0.230084 0.230084 0.230084
0.238895 0.238895 0.238895
0.247455 0.247455 0.247455
0.255860 0.255860 0.255860
0.264119 0.264119 0.264119
0.272242 0.272242 0.272242
0.280237 0.280237 0.280237
0.288093 0.288093 0.288093
0.295759 0.295759 0.295759
0.303316 0.303316 0.303316
0.310770 0.310770 0.310770
0.318126 0.318126 0.318126
0.325552 0.325552 0.325552
0.333076 0.333076 0.333076
0.340128 0.340128 0.340128
0.347098 0.347098 0.347098
0.353990 0.353990 0.353990
0.360808 0.360808 0.360808
0.367481 0.367481 0.367481
0.373954 0.373954 0.373954
0.380360 0.380360 0.380360
0.386699 0.386699 0.386699
0.392976 0.392976 0.392976
0.399192 0.399192 0.399192
0.405349 0.405349 0.405349
0.411449 0.411449 0.411449
0.418492 0.418492 0.418492
0.426138 0.426138 0.426138
0.433747 0.433747 0.433747
0.441580 0.441580 0.441580
0.449396 0.449396 0.449396
0.457181 0.457181 0.457181
0.464936 0.464936 0.464936
0.472663 0.472663 0.472663
0.480361 0.480361 0.480361
0.488031 0.488031 0.488031
0.495454 0.495454 0.495454
0.502523 0.502523 0.502523
0.509561 0.509561 0.509561
0.516568 0.516568 0.516568
0.523544 0.523544 0.523544
0.530491 0.530491 0.530491
0.537409 0.537409 0.537409
0.544298 0.544298 0.544298
0.551160 0.551160 0.551160
0.557995 0.557995 0.557995
0.564803 0.564803 0.564803
0.571585 0.571585 0.571585
0.121260 0.121260 0.121260
0.121260 0.121260 0.121260
0.121260 0.121260 0.121260
0.121260 0.121260 0.121260
0.125192 0.125192 0.125192
0.129579 0.129579 0.129579
0.134264 0.134264 0.134264
0.141096 0.141096 0.141096
0.149691 0.149691 0.149691
0.157745 0.157745 0.157745
0.167595 0.167595 0.167595
0.177114 0.177114 0.177114
0.187982 0.187982 0.187982
0.198248 0.198248 0.198248
0.208251 0.208251 0.208251
0.218017 0.218017 0.218017
0.227567 0.227567 0.227567
0.236998 0.236998 0.236998
0.245985 0.245985 0.245985
0.254800 0.254800 0.254800
0.263454 0.263454 0.263454
0.271958 0.271958 0.271958
0.280322 0.280322 0.280322
0.288530 0.288530 0.288530
0.296539 0.296539 0.296539
0.304429 0.304429 0.304429
0.312208 0.312208 0.312208
0.319881 0.319881 0.319881
0.327762 0.327762 0.327762
0.335428 0.335428 0.335428
0.342774 0.342774 0.342774
0.350031 0.350031 0.350031
0.357205 0.357205 0.357205
0.364297 0.364297 0.364297
0.371128 0.371128 0.371128
0.377856 0.377856 0.377856
0.384512 0.384512 0.384512
0.391099 0.391099 0.391099
0.397618 0.397618 0.397618
0.404071 0.404071 0.404071
0.410463 0.410463 0.410463
0.417600 0.417600 0.417600
0.425601 0.425601 0.425601
0.433561 0.433561 0.433561
0.441748 0.441748 0.441748
0.449921 0.449921 0.449921
0.458061 0.458061 0.458061
0.466169 0.466169 0.466169
0.474245 0.474245 0.474245
0.482290 0.482290 0.482290
0.490304 0.490304 0.490304
0.497883 0.497883 0.497883
0.505265 0.505265 0.505265
0.512612 0.512612 0.512612
0.519926 0.519926 0.519926
0.527207 0.527207 0.527207
0.534456 0.534456 0.534456
0.541674 0.541674 0.541674
0.548862 0.548862 0.548862
0.556019 0.556019 0.556019
0.563148 0.563148 0.563148
0.570247 0.570247 0.570247
0.577318 0.577318 0.577318
0.584564 0.584564 0.584564
0.592025 0.592025 0.592025
0.121260 0.121260 0.121260
0.121260 0.121260 0.121260
0.121260 0.121260 0.121260
0.121680 0.121680 0.121680
0.125923 0.125923 0.125923
0.130480 0.130480 0.130480
0.136013 0.136013 0.136013
0.142933 0.142933 0.142933
0.152427 0.152427 0.152427
0.161431 0.161431 0.161431
0.171512 0.171512 0.171512
0.182063 0.182063 0.182063
0.193067 0.193067 0.193067
0.203610 0.203610 0.203610
0.213884 0.213884 0.213884
0.223915 0.223915 0.223915
0.233864 0.233864 0.233864
0.243281 0.243281 0.243281
0.252506 0.252506 0.252506
0.261554 0.261554 0.261554
0.270438 0.270438 0.270438
0.279167 0.279167 0.279167
0.287739 0.287739 0.287739
0.296085 0.296085 0.296085
0.304304 0.304304 0.304304
0.312401 0.312401 0.312401
0.320383 0.320383 0.320383
0.328623 0.328623 0.328623
0.336521 0.336521 0.336521
0.344152 0.344152 0.344152
0.351688 0.351688 0.351688
0.359134 0.359134 0.359134
0.366454 0.366454 0.366454
0.373511 0.373511 0.373511
0.380487 0.380487 0.380487
0.387386 0.387386 0.387386
0.394210 0.394210 0.394210
0.400962 0.400962 0.400962
0.407645 0.407645 0.407645
0.414380 0.414380 0.414380
0.422725 0.422725 0.422725
0.431026 0.431026 0.431026
0.439469 0.439469 0.439469
0.447987 0.447987 0.447987
0.456468 0.456468 0.456468
0.464914 0.464914 0.464914
0.473325 0.473325 0.473325
0.481703 0.481703 0.481703
0.490048 0.490048 0.490048
0.497949 0.497949 0.497949
0.505632 0.505632 0.505632
0.513278 0.513278 0.513278
0.520888 0.520888 0.520888
0.528463 0.528463 0.528463
0.536003 0.536003 0.536003
0.543510 0.543510 0.543510
0.550983 0.550983 0.550983
0.558424 0.558424 0.558424
0.565834 0.565834 0.565834
0.573213 0.573213 0.573213
0.580561 0.580561 0.580561
0.588304 0.588304 0.588304
0.596058 0.596058 0.596058
0.603788 0.603788 0.603788
0.611495 0.611495 0.611495
0.121260 0.121260 0.121260
0.121260 0.121260 0.121260
0.121260 0.121260 0.121260
0.122125 0.122125 0.122125
0.126587 0.126587 0.126587
0.131299 0.131299 0.131299
0.137614 0.137614 0.137614
0.145499 0.145499 0.145499
0.154828 0.154828 0.154828
0.164840 0.164840 0.164840
0.175134 0.175134 0.175134
0.186659 0.186659 0.186659
0.197785 0.197785 0.197785
0.208586 0.208586 0.208586
0.219111 0.219111 0.219111
0.229485 0.229485 0.229485
0.239465 0.239465 0.239465
0.249107 0.249107 0.249107
0.258554 0.258554 0.258554
0.267818 0.267818 0.267818
0.276915 0.276915 0.276915
0.285853 0.285853 0.285853
0.294546 0.294546 0.294546
0.303090 0.303090 0.303090
0.311503 0.311503 0.311503
0.319791 0.319791 0.319791
0.328308 0.328308 0.328308
0.336517 0.336517 0.336517
0.344428 0.344428 0.344428
0.352238 0.352238 0.352238
0.359952 0.359952 0.359952
0.367500 0.367500 0.367500
0.374804 0.374804 0.374804
0.382022 0.382022 0.382022
0.389157 0.389157 0.389157
0.396213 0.396213 0.396213
0.403192 0.403192 0.403192
0.410098 0.410098 0.410098
0.417778 0.417778 0.417778
0.426413 0.426413 0.426413
0.435031 0.435031 0.435031
0.443883 0.443883 0.443883
0.452696 0.452696 0.452696
0.461470 0.461470 0.461470
0.470206 0.470206 0.470206
0.478906 0.478906 0.478906
0.487571 0.487571 0.487571
0.495943 0.495943 0.495943
0.503920 0.503920 0.503920
0.511857 0.511857 0.511857
0.519755 0.519755 0.519755
0.527615 0.527615 0.527615
0.535438 0.535438 0.535438
0.543224 0.543224 0.543224
0.550975 0.550975 0.550975
0.558691 0.558691 0.558691
0.566373 0.566373 0.566373
0.574022 0.574022 0.574022
0.581670 0.581670 0.581670
0.589732 0.589732 0.589732
0.597769 0.597769 0.597769
0.605779 0.605779 0.605779
0.613763 0.613763 0.613763
0.621723 0.621723 0.621723
0.629658 0.629658 0.629658
0.121260 0.121260 0.121260
0.121260 0.121260 0.121260
0.121260 0.121260 0.121260
0.122533 0.122533 0.122533
0.127197 0.127197 0.127197
0.132052 0.132052 0.132052
0.139092 0.139092 0.139092
0.147924 0.147924 0.147924
0.157053 0.157053 0.157053
0.168015 0.168015 0.168015
0.178872 0.178872 0.178872
0.190838 0.190838 0.190838
0.202193 0.202193 0.202193
0.213235 0.213235 0.213235
0.223994 0.223994 0.223994
0.234625 0.234625 0.234625
0.244696 0.244696 0.244696
0.254548 0.254548 0.254548
0.264201 0.264201 0.264201
0.273668 0.273668 0.273668
0.282963 0.282963 0.282963
0.292030 0.292030 0.292030
0.300901 0.300901 0.300901
0.309629 0.309629 0.309629
0.318224 0.318224 0.318224
0.326947 0.326947 0.326947
0.335538 0.335538 0.335538
0.343728 0.343728 0.343728
0.351809 0.351809 0.351809
0.359786 0.359786 0.359786
0.367590 0.367590 0.367590
0.375138 0.375138 0.375138
0.382593 0.382593 0.382593
0.389961 0.389961 0.389961
0.397244 0.397244 0.397244
0.404447 0.404447 0.404447
0.411571 0.411571 0.411571
0.419927 0.419927 0.419927
0.428840 0.428840 0.428840
0.437831 0.437831 0.437831
0.446968 0.446968 0.446968
0.456063 0.456063 0.456063
0.465118 0.465118 0.465118
0.474133 0.474133 0.474133
0.483109 0.483109 0.483109
0.492048 0.492048 0.492048
0.500352 0.500352 0.500352
0.508574 0.508574 0.508574
0.516755 0.516755 0.516755
0.524894 0.524894 0.524894
0.532993 0.532993 0.532993
0.541053 0.541053 0.541053
0.549075 0.549075 0.549075
0.557059 0.557059 0.557059
0.565007 0.565007 0.565007
0.572920 0.572920 0.572920
0.580798 0.580798 0.580798
0.589114 0.589114 0.589114
0.597423 0.597423 0.597423
0.605704 0.605704 0.605704
0.613958 0.613958 0.613958
0.622185 0.622185 0.622185
0.630386 0.630386 0.630386
0.638561 0.638561 0.638561
0.646711 0.646711 0.646711
0.121260 0.121260 0.121260
0.121260 0.121260 0.121260
0.121260 0.121260 0.121260
0.122909 0.122909 0.122909
0.127761 0.127761 0.127761
0.132748 0.132748 0.132748
0.140465 0.140465 0.140465
0.150191 0.150191 0.150191
0.159794 0.159794 0.159794
0.170990 0.170990 0.170990
0.182657 0.182657 0.182657
0.194747 0.194747 0.194747
0.206335 0.206335 0.206335
0.217603 0.217603 0.217603
0.228636 0.228636 0.228636
0.239336 0.239336 0.239336
0.249608 0.249608 0.249608
0.259659 0.259659 0.259659
0.269505 0.269505 0.269505
0.279162 0.279162 0.279162
0.288618 0.288618 0.288618
0.297821 0.297821 0.297821
0.306868 0.306868 0.306868
0.315770 0.315770 0.315770
0.324637 0.324637 0.324637
0.333679 0.333679 0.333679
0.342147 0.342147 0.342147
0.350498 0.350498 0.350498
0.358738 0.358738 0.358738
0.366821 0.366821 0.366821
0.374611 0.374611 0.374611
0.382303 0.382303 0.382303
0.389901 0.389901 0.389901
0.397410 0.397410 0.397410
0.404832 0.404832 0.404832
0.412172 0.412172 0.412172
0.420962 0.420962 0.420962
0.430145 0.430145 0.430145
