trix_classic/TriX_Green58_Punchy.cube
TITLE "Tri-X Green58 Punchy"
# Adobe RGB in/out. REPLACES AgX. Tri-X Green58 Punchy.
LUT_3D_SIZE 5
DOMAIN_MIN 0.0 0.0 0.0
DOMAIN_MAX 1.0 1.0 1.0
0.091936 0.091936 0.091936
0.091974 0.091974 0.091974
0.096654 0.096654 0.096654
0.110156 0.110156 0.110156
0.160239 0.160239 0.160239
0.139628 0.139628 0.139628
0.122670 0.122670 0.122670
0.148647 0.148647 0.148647
0.191878 0.191878 0.191878
0.160245 0.160245 0.160245
0.517975 0.517975 0.517975
0.498071 0.498071 0.498071
0.468407 0.468407 0.468407
0.484779 0.484779 0.484779
0.446580 0.446580 0.446580
0.818314 0.818314 0.818314
0.808845 0.808845 0.808845
0.784768 0.784768 0.784768
0.773172 0.773172 0.773172
0.776032 0.776032 0.776032
0.932087 0.932087 0.932087
0.944061 0.944061 0.944061
0.946980 0.946980 0.946980
0.942719 0.942719 0.942719
0.947919 0.947919 0.947919
0.091960 0.091960 0.091960
0.092059 0.092059 0.092059
0.101921 0.101921 0.101921
0.119035 0.119035 0.119035
0.160245 0.160245 0.160245
0.131463 0.131463 0.131463
0.152941 0.152941 0.152941
0.174927 0.174927 0.174927
0.210899 0.210899 0.210899
0.160245 0.160245 0.160245
0.502006 0.502006 0.502006
0.493194 0.493194 0.493194
0.480793 0.480793 0.480793
0.500810 0.500810 0.500810
0.456600 0.456600 0.456600
0.807186 0.807186 0.807186
0.800523 0.800523 0.800523
0.784021 0.784021 0.784021
0.777795 0.777795 0.777795
0.777727 0.777727 0.777727
0.934791 0.934791 0.934791
0.946603 0.946603 0.946603
0.945660 0.945660 0.945660
0.941997 0.941997 0.941997
0.947233 0.947233 0.947233
0.094414 0.094414 0.094414
0.103135 0.103135 0.103135
0.125651 0.125651 0.125651
0.160337 0.160337 0.160337
0.160246 0.160246 0.160246
0.169534 0.169534 0.169534
0.185161 0.185161 0.185161
0.220180 0.220180 0.220180
0.259443 0.259443 0.259443
0.160249 0.160249 0.160249
0.499369 0.499369 0.499369
0.499406 0.499406 0.499406
0.513339 0.513339 0.513339
0.525551 0.525551 0.525551
0.489733 0.489733 0.489733
0.797234 0.797234 0.797234
0.794039 0.794039 0.794039
0.786292 0.786292 0.786292
0.787135 0.787135 0.787135
0.786842 0.786842 0.786842
0.942507 0.942507 0.942507
0.945872 0.945872 0.945872
0.942860 0.942860 0.942860
0.941137 0.941137 0.941137
0.947463 0.947463 0.947463
0.122421 0.122421 0.122421
0.154074 0.154074 0.154074
0.193733 0.193733 0.193733
0.230731 0.230731 0.230731
0.160234 0.160234 0.160234
0.234589 0.234589 0.234589
0.258137 0.258137 0.258137
0.294403 0.294403 0.294403
0.327678 0.327678 0.327678
0.160131 0.160131 0.160131
0.533838 0.533838 0.533838
0.537303 0.537303 0.537303
0.545081 0.545081 0.545081
0.559349 0.559349 0.559349
0.531974 0.531974 0.531974
0.806999 0.806999 0.806999
0.804747 0.804747 0.804747
0.800343 0.800343 0.800343
0.803966 0.803966 0.803966
0.803441 0.803441 0.803441
0.943068 0.943068 0.943068
0.946984 0.946984 0.946984
0.945262 0.945262 0.945262
0.944047 0.944047 0.944047
0.950895 0.950895 0.950895
0.153201 0.153201 0.153201
0.166814 0.166814 0.166814
0.211110 0.211110 0.211110
0.233741 0.233741 0.233741
0.172016 0.172016 0.172016
0.250963 0.250963 0.250963
0.266202 0.266202 0.266202
0.311326 0.311326 0.311326
0.329616 0.329616 0.329616
0.176658 0.176658 0.176658
0.561698 0.561698 0.561698
0.563815 0.563815 0.563815
0.576179 0.576179 0.576179
0.582087 0.582087 0.582087
0.476479 0.476479 0.476479
0.827452 0.827452 0.827452
0.825243 0.825243 0.825243
0.824469 0.824469 0.824469
0.828354 0.828354 0.828354
0.789835 0.789835 0.789835
0.940609 0.940609 0.940609
0.947672 0.947672 0.947672
0.953308 0.953308 0.953308
0.951337 0.951337 0.951337
0.956150 0.956150 0.956150
