trix_classic/TriX_Yellow8_ExtraSoft.cube
TITLE "Tri-X Yellow8 ExtraSoft"
# Adobe RGB in/out. REPLACES AgX. R=0.5015 G=0.4679 B=0.0307
LUT_3D_SIZE 9
DOMAIN_MIN 0.0 0.0 0.0
DOMAIN_MAX 1.0 1.0 1.0
0.121260 0.121260 0.121260
0.121260 0.121260 0.121260
0.121260 0.121260 0.121260
0.121260 0.121260 0.121260
0.121260 0.121260 0.121260
0.121260 0.121260 0.121260
0.121260 0.121260 0.121260
0.121260 0.121260 0.121260
0.121260 0.121260 0.121260
0.121260 0.121260 0.121260
0.121260 0.121260 0.121260
0.121260 0.121260 0.121260
0.121260 0.121260 0.121260
0.121260 0.121260 0.121260
0.121260 0.121260 0.121260
0.121260 0.121260 0.121260
0.121260 0.121260 0.121260
0.121260 0.121260 0.121260
0.121260 0.121260 0.121260
0.121260 0.121260 0.121260
0.121260 0.121260 0.121260
0.121260 0.121260 0.121260
0.121260 0.121260 0.121260
0.121260 0.121260 0.121260
0.121260 0.121260 0.121260
0.121260 0.121260 0.121260
0.121260 0.121260 0.121260
0.121260 0.121260 0.121260
0.121260 0.121260 0.121260
0.121260 0.121260 0.121260
0.121260 0.121260 0.121260
0.121260 0.121260 0.121260
0.121260 0.121260 0.121260
0.121260 0.121260 0.121260
0.121260 0.121260 0.121260
0.121260 0.121260 0.121260
0.121260 0.121260 0.121260
0.121260 0.121260 0.121260
0.121260 0.121260 0.121260
0.121260 0.121260 0.121260
0.121260 0.121260 0.121260
0.121260 0.121260 0.121260
0.121260 0.121260 0.121260
0.121260 0.121260 0.121260
0.121260 0.121260 0.121260
0.121260 0.121260 0.121260
0.121260 0.121260 0.121260
0.121260 0.121260 0.121260
0.121260 0.121260 0.121260
0.121260 0.121260 0.121260
0.121260 0.121260 0.121260
0.121260 0.121260 0.121260
0.121260 0.121260 0.121260
0.121260 0.121260 0.121260
0.121260 0.121260 0.121260
0.121260 0.121260 0.121260
0.121260 0.121260 0.121260
0.121260 0.121260 0.121260
0.121260 0.121260 0.121260
0.121260 0.121260 0.121260
0.121260 0.121260 0.121260
0.121260 0.121260 0.121260
0.121260 0.121260 0.121260
0.121260 0.121260 0.121260
0.121260 0.121260 0.121260
0.121260 0.121260 0.121260
0.121260 0.121260 0.121260
0.121260 0.121260 0.121260
0.121260 0.121260 0.121260
0.121260 0.121260 0.121260
0.121260 0.121260 0.121260
0.121260 0.121260 0.121260
0.121260 0.121260 0.121260
0.121260 0.121260 0.121260
0.121260 0.121260 0.121260
0.121260 0.121260 0.121260
0.121260 0.121260 0.121260
0.121260 0.121260 0.121260
0.121260 0.121260 0.121260
0.121260 0.121260 0.121260
0.121260 0.121260 0.121260
0.121260 0.121260 0.121260
0.121260 0.121260 0.121260
0.121260 0.121260 0.121260
0.121260 0.121260 0.121260
0.121260 0.121260 0.121260
0.121260 0.121260 0.121260
0.121260 0.121260 0.121260
0.121260 0.121260 0.121260
0.121260 0.121260 0.121260
0.121260 0.121260 0.121260
0.146378 0.146378 0.146378
0.191739 0.191739 0.191739
0.231261 0.231261 0.231261
0.263305 0.263305 0.263305
0.291132 0.291132 0.291132
0.315773 0.315773 0.315773
0.338710 0.338710 0.338710
0.359334 0.359334 0.359334
0.121260 0.121260 0.121260
0.187680 0.187680 0.187680
0.257840 0.257840 0.257840
0.309298 0.309298 0.309298
0.352014 0.352014 0.352014
0.387837 0.387837 0.387837
0.420947 0.420947 0.420947
0.458755 0.458755 0.458755
0.494563 0.494563 0.494563
0.121260 0.121260 0.121260
0.223364 0.223364 0.223364
0.305571 0.305571 0.305571
0.366377 0.366377 0.366377
0.414747 0.414747 0.414747
0.469719 0.469719 0.469719
0.518653 0.518653 0.518653
0.562376 0.562376 0.562376
0.604627 0.604627 0.604627
0.121260 0.121260 0.121260
0.252489 0.252489 0.252489
0.344843 0.344843 0.344843
0.411130 0.411130 0.411130
0.481884 0.481884 0.481884
0.542627 0.542627 0.542627
0.598153 0.598153 0.598153
0.651868 0.651868 0.651868
0.698556 0.698556 0.698556
0.121260 0.121260 0.121260
0.277347 0.277347 0.277347
0.377735 0.377735 0.377735
0.460711 0.460711 0.460711
0.538379 0.538379 0.538379
0.606842 0.606842 0.606842
0.671813 0.671813 0.671813
0.723556 0.723556 0.723556
0.770376 0.770376 0.770376
0.121260 0.121260 0.121260
0.299305 0.299305 0.299305
0.406356 0.406356 0.406356
0.506145 0.506145 0.506145
0.589145 0.589145 0.589145
0.667245 0.667245 0.667245
0.729010 0.729010 0.729010
0.783699 0.783699 0.783699
0.823610 0.823610 0.823610
0.121260 0.121260 0.121260
0.319115 0.319115 0.319115
0.437477 0.437477 0.437477
0.545842 0.545842 0.545842
0.638358 0.638358 0.638358
0.715904 0.715904 0.715904
0.779908 0.779908 0.779908
0.826747 0.826747 0.826747
0.865429 0.865429 0.865429
0.121260 0.121260 0.121260
0.337818 0.337818 0.337818
0.469386 0.469386 0.469386
0.582837 0.582837 0.582837
0.683423 0.683423 0.683423
0.759068 0.759068 0.759068
0.817753 0.817753 0.817753
0.863294 0.863294 0.863294
0.895685 0.895685 0.895685
0.121260 0.121260 0.121260
0.121260 0.121260 0.121260
0.121260 0.121260 0.121260
0.121260 0.121260 0.121260
0.121260 0.121260 0.121260
0.121260 0.121260 0.121260
0.121260 0.121260 0.121260
0.121260 0.121260 0.121260
0.121260 0.121260 0.121260
0.121260 0.121260 0.121260
0.148534 0.148534 0.148534
0.195514 0.195514 0.195514
0.235723 0.235723 0.235723
0.268386 0.268386 0.268386
0.296681 0.296681 0.296681
0.321793 0.321793 0.321793
0.345123 0.345123 0.345123
0.366108 0.366108 0.366108
0.121260 0.121260 0.121260
0.191376 0.191376 0.191376
0.262816 0.262816 0.262816
0.315194 0.315194 0.315194
0.358679 0.358679 0.358679
0.394958 0.394958 0.394958
0.430792 0.430792 0.430792
0.469873 0.469873 0.469873
0.505689 0.505689 0.505689
0.121260 0.121260 0.121260
0.227770 0.227770 0.227770
0.311396 0.311396 0.311396
0.373105 0.373105 0.373105
0.424447 0.424447 0.424447
0.481104 0.481104 0.481104
0.530321 0.530321 0.530321
0.575028 0.575028 0.575028
0.619090 0.619090 0.619090
0.121260 0.121260 0.121260
0.257361 0.257361 0.257361
0.351372 0.351372 0.351372
0.420001 0.420001 0.420001
0.493493 0.493493 0.493493
0.554834 0.554834 0.554834
0.612461 0.612461 0.612461
0.667461 0.667461 0.667461
0.712640 0.712640 0.712640
0.121260 0.121260 0.121260
0.282699 0.282699 0.282699
0.384671 0.384671 0.384671
0.471877 0.471877 0.471877
0.550491 0.550491 0.550491
0.621358 0.621358 0.621358
0.686443 0.686443 0.686443
0.738133 0.738133 0.738133
0.785610 0.785610 0.785610
0.121260 0.121260 0.121260
0.305011 0.305011 0.305011
0.413818 0.413818 0.413818
0.517532 0.517532 0.517532
0.603238 0.603238 0.603238
0.682500 0.682500 0.682500
0.743672 0.743672 0.743672
0.796305 0.796305 0.796305
0.836620 0.836620 0.836620
0.121260 0.121260 0.121260
0.325347 0.325347 0.325347
0.448080 0.448080 0.448080
0.558122 0.558122 0.558122
0.653628 0.653628 0.653628
0.730337 0.730337 0.730337
0.793266 0.793266 0.793266
0.839806 0.839806 0.839806
0.875604 0.875604 0.875604
0.121260 0.121260 0.121260
0.344214 0.344214 0.344214
0.480763 0.480763 0.480763
0.596779 0.596779 0.596779
0.697201 0.697201 0.697201
0.774304 0.774304 0.774304
0.830670 0.830670 0.830670
0.873444 0.873444 0.873444
0.906216 0.906216 0.906216
0.121260 0.121260 0.121260
0.121260 0.121260 0.121260
0.121260 0.121260 0.121260
0.121260 0.121260 0.121260
0.121260 0.121260 0.121260
0.121260 0.121260 0.121260
0.121260 0.121260 0.121260
0.121260 0.121260 0.121260
0.121260 0.121260 0.121260
0.121260 0.121260 0.121260
0.149810 0.149810 0.149810
0.197757 0.197757 0.197757
0.238374 0.238374 0.238374
0.271404 0.271404 0.271404
0.299977 0.299977 0.299977
0.325529 0.325529 0.325529
0.348931 0.348931 0.348931
0.370025 0.370025 0.370025
0.121260 0.121260 0.121260
0.193571 0.193571 0.193571
0.265771 0.265771 0.265771
0.318695 0.318695 0.318695
0.362636 0.362636 0.362636
0.399185 0.399185 0.399185
0.436747 0.436747 0.436747
0.476502 0.476502 0.476502
0.512313 0.512313 0.512313
0.121260 0.121260 0.121260
0.230528 0.230528 0.230528
0.314855 0.314855 0.314855
0.377097 0.377097 0.377097
0.430225 0.430225 0.430225
0.487890 0.487890 0.487890
0.537268 0.537268 0.537268
0.582650 0.582650 0.582650
0.627710 0.627710 0.627710
0.121260 0.121260 0.121260
0.260255 0.260255 0.260255
0.355248 0.355248 0.355248
0.425720 0.425720 0.425720
0.499958 0.499958 0.499958
0.562102 0.562102 0.562102
0.620989 0.620989 0.620989
0.676754 0.676754 0.676754
0.721010 0.721010 0.721010
0.121260 0.121260 0.121260
0.285878 0.285878 0.285878
0.388787 0.388787 0.388787
0.478533 0.478533 0.478533
0.557702 0.557702 0.557702
0.630010 0.630010 0.630010
0.694506 0.694506 0.694506
0.746764 0.746764 0.746764
0.792846 0.792846 0.792846
0.121260 0.121260 0.121260
0.308398 0.308398 0.308398
0.419449 0.419449 0.419449
0.524311 0.524311 0.524311
0.611638 0.611638 0.611638
0.690516 0.690516 0.690516
0.752368 0.752368 0.752368
0.803639 0.803639 0.803639
0.844325 0.844325 0.844325
0.121260 0.121260 0.121260
0.329216 0.329216 0.329216
0.454401 0.454401 0.454401
0.565433 0.565433 0.565433
0.662729 0.662729 0.662729
0.738900 0.738900 0.738900
0.800572 0.800572 0.800572
0.847541 0.847541 0.847541
0.881612 0.881612 0.881612
0.121260 0.121260 0.121260
0.348012 0.348012 0.348012
0.487545 0.487545 0.487545
0.605088 0.605088 0.605088
0.705390 0.705390 0.705390
0.783359 0.783359 0.783359
0.838320 0.838320 0.838320
0.879436 0.879436 0.879436
0.912434 0.912434 0.912434
0.121260 0.121260 0.121260
0.121260 0.121260 0.121260
0.121260 0.121260 0.121260
0.121260 0.121260 0.121260
0.121260 0.121260 0.121260
0.121260 0.121260 0.121260
0.121260 0.121260 0.121260
0.121260 0.121260 0.121260
0.121260 0.121260 0.121260
0.121260 0.121260 0.121260
0.150707 0.150707 0.150707
0.199364 0.199364 0.199364
0.240272 0.240272 0.240272
0.273566 0.273566 0.273566
0.302337 0.302337 0.302337
0.328270 0.328270 0.328270
0.351657 0.351657 0.351657
0.372830 0.372830 0.372830
0.121260 0.121260 0.121260
0.195144 0.195144 0.195144
0.267888 0.267888 0.267888
0.321202 0.321202 0.321202
0.365460 0.365460 0.365460
0.402211 0.402211 0.402211
0.441110 0.441110 0.441110
0.481261 0.481261 0.481261
0.517066 0.517066 0.517066
0.121260 0.121260 0.121260
0.232416 0.232416 0.232416
0.317332 0.317332 0.317332
0.379956 0.379956 0.379956
0.434381 0.434381 0.434381
0.492751 0.492751 0.492751
0.542252 0.542252 0.542252
0.588394 0.588394 0.588394
0.633899 0.633899 0.633899
0.121260 0.121260 0.121260
0.262328 0.262328 0.262328
0.358025 0.358025 0.358025
0.429824 0.429824 0.429824
0.504596 0.504596 0.504596
0.567317 0.567317 0.567317
0.627111 0.627111 0.627111
0.682686 0.682686 0.682686
0.727008 0.727008 0.727008
0.121260 0.121260 0.121260
0.288136 0.288136 0.288136
0.391734 0.391734 0.391734
0.483313 0.483313 0.483313
0.562876 0.562876 0.562876
0.636222 0.636222 0.636222
0.700283 0.700283 0.700283
0.752949 0.752949 0.752949
0.798019 0.798019 0.798019
0.121260 0.121260 0.121260
0.310825 0.310825 0.310825
0.423493 0.423493 0.423493
0.529175 0.529175 0.529175
0.617668 0.617668 0.617668
0.696260 0.696260 0.696260
0.758600 0.758600 0.758600
0.808883 0.808883 0.808883
0.849834 0.849834 0.849834
0.121260 0.121260 0.121260
0.331915 0.331915 0.331915
0.458940 0.458940 0.458940
0.570678 0.570678 0.570678
0.669263 0.669263 0.669263
0.745020 0.745020 0.745020
0.805796 0.805796 0.805796
0.853071 0.853071 0.853071
0.885899 0.885899 0.885899
0.121260 0.121260 0.121260
0.350732 0.350732 0.350732
0.492414 0.492414 0.492414
0.611054 0.611054 0.611054
0.711258 0.711258 0.711258
0.788768 0.788768 0.788768
0.843791 0.843791 0.843791
0.883713 0.883713 0.883713
0.916871 0.916871 0.916871
0.121260 0.121260 0.121260
0.121260 0.121260 0.121260
0.121260 0.121260 0.121260
0.121260 0.121260 0.121260
0.121260 0.121260 0.121260
0.121260 0.121260 0.121260
0.121260 0.121260 0.121260
0.121260 0.121260 0.121260
0.121260 0.121260 0.121260
0.121260 0.121260 0.121260
0.151320 0.151320 0.151320
0.200619 0.200619 0.200619
0.241755 0.241755 0.241755
0.275254 0.275254 0.275254
0.304180 0.304180 0.304180
0.330413 0.330413 0.330413
0.353787 0.353787 0.353787
0.375020 0.375020 0.375020
0.121260 0.121260 0.121260
0.196373 0.196373 0.196373
0.269541 0.269541 0.269541
0.323167 0.323167 0.323167
0.367607 0.367607 0.367607
0.404574 0.404574 0.404574
0.444523 0.444523 0.444523
0.484986 0.484986 0.484986
0.520782 0.520782 0.520782
0.121260 0.121260 0.121260
0.233851 0.233851 0.233851
0.319267 0.319267 0.319267
0.382188 0.382188 0.382188
0.437743 0.437743 0.437743
0.496293 0.496293 0.496293
0.546150 0.546150 0.546150
0.592889 0.592889 0.592889
0.638741 0.638741 0.638741
0.121260 0.121260 0.121260
0.263947 0.263947 0.263947
0.360193 0.360193 0.360193
0.433035 0.433035 0.433035
0.508223 0.508223 0.508223
0.571395 0.571395 0.571395
0.631902 0.631902 0.631902
0.687087 0.687087 0.687087
0.731695 0.731695 0.731695
0.121260 0.121260 0.121260
0.289893 0.289893 0.289893
0.394035 0.394035 0.394035
0.487054 0.487054 0.487054
0.566922 0.566922 0.566922
0.641082 0.641082 0.641082
0.704798 0.704798 0.704798
0.757782 0.757782 0.757782
0.802056 0.802056 0.802056
0.121260 0.121260 0.121260
0.312720 0.312720 0.312720
0.426657 0.426657 0.426657
0.532978 0.532978 0.532978
0.622386 0.622386 0.622386
0.700749 0.700749 0.700749
0.763469 0.763469 0.763469
0.812975 0.812975 0.812975
0.854133 0.854133 0.854133
0.121260 0.121260 0.121260
0.333925 0.333925 0.333925
0.462491 0.462491 0.462491
0.574780 0.574780 0.574780
0.674376 0.674376 0.674376
0.749802 0.749802 0.749802
0.809872 0.809872 0.809872
0.857080 0.857080 0.857080
0.889239 0.889239 0.889239
0.121260 0.121260 0.121260
0.352856 0.352856 0.352856
0.495966 0.495966 0.495966
0.615722 0.615722 0.615722
0.715843 0.715843 0.715843
0.792758 0.792758 0.792758
0.848058 0.848058 0.848058
0.887045 0.887045 0.887045
0.920327 0.920327 0.920327
0.121260 0.121260 0.121260
0.121260 0.121260 0.121260
0.121260 0.121260 0.121260
0.121260 0.121260 0.121260
0.121260 0.121260 0.121260
0.121260 0.121260 0.121260
0.121260 0.121260 0.121260
0.121260 0.121260 0.121260
0.121260 0.121260 0.121260
0.121260 0.121260 0.121260
0.151824 0.151824 0.151824
0.201651 0.201651 0.201651
0.242974 0.242974 0.242974
0.276641 0.276641 0.276641
0.305695 0.305695 0.305695
0.332087 0.332087 0.332087
0.355537 0.355537 0.355537
0.376820 0.376820 0.376820
0.121260 0.121260 0.121260
0.197382 0.197382 0.197382
0.270900 0.270900 0.270900
0.324889 0.324889 0.324889
0.369371 0.369371 0.369371
0.406515 0.406515 0.406515
0.447332 0.447332 0.447332
0.488050 0.488050 0.488050
0.523839 0.523839 0.523839
0.121260 0.121260 0.121260
0.235030 0.235030 0.235030
0.320857 0.320857 0.320857
0.384022 0.384022 0.384022
0.440509 0.440509 0.440509
0.499206 0.499206 0.499206
0.549355 0.549355 0.549355
0.596587 0.596587 0.596587
0.642725 0.642725 0.642725
0.121260 0.121260 0.121260
0.265277 0.265277 0.265277
0.361975 0.361975 0.361975
0.435731 0.435731 0.435731
0.511206 0.511206 0.511206
0.574748 0.574748 0.574748
0.635843 0.635843 0.635843
0.690704 0.690704 0.690704
0.735546 0.735546 0.735546
0.121260 0.121260 0.121260
0.291336 0.291336 0.291336
0.395926 0.395926 0.395926
0.490131 0.490131 0.490131
0.570249 0.570249 0.570249
0.645080 0.645080 0.645080
0.708508 0.708508 0.708508
0.761754 0.761754 0.761754
0.805369 0.805369 0.805369
0.121260 0.121260 0.121260
0.314277 0.314277 0.314277
0.429259 0.429259 0.429259
0.536107 0.536107 0.536107
0.626268 0.626268 0.626268
0.704438 0.704438 0.704438
0.767470 0.767470 0.767470
0.816333 0.816333 0.816333
0.857285 0.857285 0.857285
0.121260 0.121260 0.121260
0.335577 0.335577 0.335577
0.465414 0.465414 0.465414
0.578154 0.578154 0.578154
0.678582 0.678582 0.678582
0.753732 0.753732 0.753732
0.813217 0.813217 0.813217
0.859720 0.859720 0.859720
0.891977 0.891977 0.891977
0.121260 0.121260 0.121260
0.354601 0.354601 0.354601
0.498877 0.498877 0.498877
0.619562 0.619562 0.619562
0.719611 0.719611 0.719611
0.796032 0.796032 0.796032
0.851562 0.851562 0.851562
0.889776 0.889776 0.889776
0.923161 0.923161 0.923161
0.121260 0.121260 0.121260
0.121260 0.121260 0.121260
0.121260 0.121260 0.121260
0.121260 0.121260 0.121260
0.121260 0.121260 0.121260
0.121260 0.121260 0.121260
0.121260 0.121260 0.121260
0.121260 0.121260 0.121260
0.121260 0.121260 0.121260
0.121260 0.121260 0.121260
0.152250 0.152250 0.152250
0.202527 0.202527 0.202527
0.244009 0.244009 0.244009
0.277820 0.277820 0.277820
0.306981 0.306981 0.306981
0.333475 0.333475 0.333475
0.357023 0.357023 0.357023
0.378348 0.378348 0.378348
0.121260 0.121260 0.121260
0.198240 0.198240 0.198240
0.272054 0.272054 0.272054
0.326353 0.326353 0.326353
0.370869 0.370869 0.370869
0.408163 0.408163 0.408163
0.449721 0.449721 0.449721
0.490656 0.490656 0.490656
0.526437 0.526437 0.526437
0.121260 0.121260 0.121260
0.236031 0.236031 0.236031
0.322207 0.322207 0.322207
0.385579 0.385579 0.385579
0.442861 0.442861 0.442861
0.501682 0.501682 0.501682
0.552080 0.552080 0.552080
0.599731 0.599731 0.599731
0.646113 0.646113 0.646113
0.121260 0.121260 0.121260
0.266407 0.266407 0.266407
0.363488 0.363488 0.363488
0.438058 0.438058 0.438058
0.513741 0.513741 0.513741
0.577599 0.577599 0.577599
0.639195 0.639195 0.639195
0.693777 0.693777 0.693777
0.738805 0.738805 0.738805
0.121260 0.121260 0.121260
0.292562 0.292562 0.292562
0.397531 0.397531 0.397531
0.492737 0.492737 0.492737
0.573077 0.573077 0.573077
0.648480 0.648480 0.648480
0.711660 0.711660 0.711660
0.765128 0.765128 0.765128
0.808181 0.808181 0.808181
0.121260 0.121260 0.121260
0.315600 0.315600 0.315600
0.431472 0.431472 0.431472
0.538766 0.538766 0.538766
0.629569 0.629569 0.629569
0.707572 0.707572 0.707572
0.770870 0.770870 0.770870
0.819183 0.819183 0.819183
0.859517 0.859517 0.859517
0.121260 0.121260 0.121260
0.336980 0.336980 0.336980
0.467899 0.467899 0.467899
0.581021 0.581021 0.581021
0.681617 0.681617 0.681617
0.757071 0.757071 0.757071
0.816056 0.816056 0.816056
0.861957 0.861957 0.861957
0.894299 0.894299 0.894299
0.121260 0.121260 0.121260
0.356083 0.356083 0.356083
0.501351 0.501351 0.501351
0.622828 0.622828 0.622828
0.722813 0.722813 0.722813
0.798812 0.798812 0.798812
0.854535 0.854535 0.854535
0.892092 0.892092 0.892092
0.925414 0.925414 0.925414
0.121260 0.121260 0.121260
0.121260 0.121260 0.121260
0.121260 0.121260 0.121260
0.121260 0.121260 0.121260
0.121260 0.121260 0.121260
0.121260 0.121260 0.121260
0.121260 0.121260 0.121260
0.121260 0.121260 0.121260
0.121260 0.121260 0.121260
0.121260 0.121260 0.121260
0.152621 0.152621 0.152621
0.203290 0.203290 0.203290
0.244909 0.244909 0.244909
0.278845 0.278845 0.278845
0.308100 0.308100 0.308100
0.334682 0.334682 0.334682
0.358316 0.358316 0.358316
0.379676 0.379676 0.379676
0.121260 0.121260 0.121260
0.198986 0.198986 0.198986
0.273057 0.273057 0.273057
0.327626 0.327626 0.327626
0.372171 0.372171 0.372171
0.409596 0.409596 0.409596
0.451800 0.451800 0.451800
0.492901 0.492901 0.492901
0.528698 0.528698 0.528698
0.121260 0.121260 0.121260
0.236902 0.236902 0.236902
0.323404 0.323404 0.323404
0.386933 0.386933 0.386933
0.444909 0.444909 0.444909
0.503837 0.503837 0.503837
0.554451 0.554451 0.554451
0.602469 0.602469 0.602469
0.649062 0.649062 0.649062
0.121260 0.121260 0.121260
0.267390 0.267390 0.267390
0.364803 0.364803 0.364803
0.440083 0.440083 0.440083
0.515948 0.515948 0.515948
0.580080 0.580080 0.580080
0.642112 0.642112 0.642112
0.696450 0.696450 0.696450
0.741639 0.741639 0.741639
0.121260 0.121260 0.121260
0.293628 0.293628 0.293628
0.398927 0.398927 0.398927
0.494853 0.494853 0.494853
0.575539 0.575539 0.575539
0.651440 0.651440 0.651440
0.714402 0.714402 0.714402
0.768063 0.768063 0.768063
0.810625 0.810625 0.810625
0.121260 0.121260 0.121260
0.316750 0.316750 0.316750
0.433397 0.433397 0.433397
0.541080 0.541080 0.541080
0.632443 0.632443 0.632443
0.710298 0.710298 0.710298
0.773827 0.773827 0.773827
0.821660 0.821660 0.821660
0.861454 0.861454 0.861454
0.121260 0.121260 0.121260
0.338199 0.338199 0.338199
0.470063 0.470063 0.470063
0.583666 0.583666 0.583666
0.684243 0.684243 0.684243
0.759975 0.759975 0.759975
0.818524 0.818524 0.818524
0.863900 0.863900 0.863900
0.896315 0.896315 0.896315
0.121260 0.121260 0.121260
0.357372 0.357372 0.357372
0.503505 0.503505 0.503505
0.625671 0.625671 0.625671
0.725598 0.725598 0.725598
0.801227 0.801227 0.801227
0.856881 0.856881 0.856881
0.894103 0.894103 0.894103
0.927107 0.927107 0.927107
