trix_classic/TriX_Orange21_ExtraSoft.cube
TITLE "Tri-X Orange21 ExtraSoft"
# Adobe RGB in/out. REPLACES AgX. R=0.7239 G=0.2761 B=0.0000
LUT_3D_SIZE 5
DOMAIN_MIN 0.0 0.0 0.0
DOMAIN_MAX 1.0 1.0 1.0
0.121260 0.121260 0.121260
0.121260 0.121260 0.121260
0.121260 0.121260 0.121260
0.121260 0.121260 0.121260
0.121260 0.121260 0.121260
0.121260 0.121260 0.121260
0.262816 0.262816 0.262816
0.409517 0.409517 0.409517
0.561561 0.561561 0.561561
0.702054 0.702054 0.702054
0.121260 0.121260 0.121260
0.311857 0.311857 0.311857
0.504596 0.504596 0.504596
0.690998 0.690998 0.690998
0.827862 0.827862 0.827862
0.121260 0.121260 0.121260
0.344922 0.344922 0.344922
0.567337 0.567337 0.567337
0.767470 0.767470 0.767470
0.887997 0.887997 0.887997
0.121260 0.121260 0.121260
0.369825 0.369825 0.369825
0.618812 0.618812 0.618812
0.817608 0.817608 0.817608
0.927107 0.927107 0.927107
0.121260 0.121260 0.121260
0.121260 0.121260 0.121260
0.121260 0.121260 0.121260
0.121260 0.121260 0.121260
0.121260 0.121260 0.121260
0.121260 0.121260 0.121260
0.262816 0.262816 0.262816
0.409517 0.409517 0.409517
0.561561 0.561561 0.561561
0.702054 0.702054 0.702054
0.121260 0.121260 0.121260
0.311857 0.311857 0.311857
0.504596 0.504596 0.504596
0.690998 0.690998 0.690998
0.827862 0.827862 0.827862
0.121260 0.121260 0.121260
0.344922 0.344922 0.344922
0.567337 0.567337 0.567337
0.767470 0.767470 0.767470
0.887997 0.887997 0.887997
0.121260 0.121260 0.121260
0.369825 0.369825 0.369825
0.618812 0.618812 0.618812
0.817608 0.817608 0.817608
0.927107 0.927107 0.927107
0.121260 0.121260 0.121260
0.121260 0.121260 0.121260
0.121260 0.121260 0.121260
0.121260 0.121260 0.121260
0.121260 0.121260 0.121260
0.121260 0.121260 0.121260
0.262816 0.262816 0.262816
0.409517 0.409517 0.409517
0.561561 0.561561 0.561561
0.702054 0.702054 0.702054
0.121260 0.121260 0.121260
0.311857 0.311857 0.311857
0.504596 0.504596 0.504596
0.690998 0.690998 0.690998
0.827862 0.827862 0.827862
0.121260 0.121260 0.121260
0.344922 0.344922 0.344922
0.567337 0.567337 0.567337
0.767470 0.767470 0.767470
0.887997 0.887997 0.887997
0.121260 0.121260 0.121260
0.369825 0.369825 0.369825
0.618812 0.618812 0.618812
0.817608 0.817608 0.817608
0.927107 0.927107 0.927107
0.121260 0.121260 0.121260
0.121260 0.121260 0.121260
0.121260 0.121260 0.121260
0.121260 0.121260 0.121260
0.121260 0.121260 0.121260
0.121260 0.121260 0.121260
0.262816 0.262816 0.262816
0.409517 0.409517 0.409517
0.561561 0.561561 0.561561
0.702054 0.702054 0.702054
0.121260 0.121260 0.121260
0.311857 0.311857 0.311857
0.504596 0.504596 0.504596
0.690998 0.690998 0.690998
0.827862 0.827862 0.827862
0.121260 0.121260 0.121260
0.344922 0.344922 0.344922
0.567337 0.567337 0.567337
0.767470 0.767470 0.767470
0.887997 0.887997 0.887997
0.121260 0.121260 0.121260
0.369825 0.369825 0.369825
0.618812 0.618812 0.618812
0.817608 0.817608 0.817608
0.927107 0.927107 0.927107
0.121260 0.121260 0.121260
0.121260 0.121260 0.121260
0.121260 0.121260 0.121260
0.121260 0.121260 0.121260
0.121260 0.121260 0.121260
0.121260 0.121260 0.121260
0.262816 0.262816 0.262816
0.409517 0.409517 0.409517
0.561561 0.561561 0.561561
0.702054 0.702054 0.702054
0.121260 0.121260 0.121260
0.311857 0.311857 0.311857
0.504596 0.504596 0.504596
0.690998 0.690998 0.690998
0.827862 0.827862 0.827862
0.121260 0.121260 0.121260
0.344922 0.344922 0.344922
0.567337 0.567337 0.567337
0.767470 0.767470 0.767470
0.887997 0.887997 0.887997
0.121260 0.121260 0.121260
0.369825 0.369825 0.369825
0.618812 0.618812 0.618812
0.817608 0.817608 0.817608
0.927107 0.927107 0.927107
