velvia_modern/Velvia50_Hard.cube
TITLE "Velvia 50 Hard"
# Adobe RGB in/out. REPLACES AgX. Velvia 50 color reversal.
LUT_3D_SIZE 5
DOMAIN_MIN 0.0 0.0 0.0
DOMAIN_MAX 1.0 1.0 1.0
0.010768 0.005498 0.006424
0.255571 0.062405 0.007231
0.835130 0.374201 0.019897
1.000000 0.700505 0.066642
1.000000 0.940746 0.131158
0.025351 0.237180 0.006527
0.158085 0.168725 0.006829
0.709687 0.412789 0.013779
1.000000 0.727386 0.055165
1.000000 0.958466 0.120247
0.183955 0.776216 0.007642
0.325225 0.698878 0.008455
0.640436 0.668925 0.013266
1.000000 0.842491 0.040529
1.000000 1.000000 0.099791
0.356827 1.000000 0.010646
0.462763 1.000000 0.012346
0.745649 1.000000 0.020657
1.000000 1.000000 0.043776
1.000000 1.000000 0.091055
0.487090 1.000000 0.015915
0.574073 1.000000 0.018408
0.797707 1.000000 0.029126
1.000000 1.000000 0.054260
1.000000 1.000000 0.096471
0.020761 0.008147 0.349514
0.317083 0.094105 0.361416
0.831368 0.376112 0.317703
1.000000 0.686481 0.317123
1.000000 0.931154 0.337907
0.037248 0.170312 0.238992
0.101116 0.092442 0.099084
0.669274 0.384474 0.213952
1.000000 0.706779 0.271591
1.000000 0.947875 0.313718
0.195245 0.714821 0.250346
0.314114 0.645788 0.206952
0.593977 0.618404 0.161863
1.000000 0.820559 0.208182
1.000000 1.000000 0.265026
0.366649 1.000000 0.218396
0.466905 1.000000 0.207869
0.739559 1.000000 0.192006
1.000000 1.000000 0.199176
1.000000 1.000000 0.237507
0.498327 1.000000 0.183402
0.583770 1.000000 0.183104
0.801283 1.000000 0.186912
1.000000 1.000000 0.202866
1.000000 1.000000 0.233689
0.210258 0.076399 1.000000
0.472473 0.198067 1.000000
1.000000 0.537141 1.000000
1.000000 0.746563 0.931027
1.000000 0.945439 0.861056
0.251092 0.330465 1.000000
0.424212 0.358805 0.980806
0.815094 0.515451 0.887013
1.000000 0.751372 0.846209
1.000000 0.957483 0.812999
0.256030 0.641196 0.790786
0.348144 0.598603 0.702992
0.544138 0.549676 0.539576
1.000000 0.813785 0.652200
1.000000 1.000000 0.705872
0.411472 1.000000 0.746436
0.499900 1.000000 0.713680
0.742134 0.995993 0.639892
0.994006 1.000000 0.602383
1.000000 1.000000 0.634986
0.541996 1.000000 0.655114
0.623411 1.000000 0.644971
0.819155 1.000000 0.621283
1.000000 1.000000 0.607583
1.000000 1.000000 0.617481
0.507199 0.261923 1.000000
0.724515 0.362829 1.000000
1.000000 0.671216 1.000000
1.000000 0.866412 1.000000
1.000000 1.000000 1.000000
0.553904 0.500337 1.000000
0.752645 0.585022 1.000000
1.000000 0.738948 1.000000
1.000000 0.864793 1.000000
1.000000 1.000000 1.000000
0.428944 0.710578 1.000000
0.526420 0.709594 1.000000
0.792380 0.760395 1.000000
1.000000 0.890852 1.000000
1.000000 1.000000 1.000000
0.501935 1.000000 1.000000
0.580780 1.000000 1.000000
0.779123 0.990363 1.000000
0.999157 1.000000 1.000000
1.000000 1.000000 1.000000
0.624149 1.000000 1.000000
0.700799 1.000000 1.000000
0.857888 1.000000 1.000000
1.000000 1.000000 1.000000
1.000000 1.000000 1.000000
0.821906 0.491176 1.000000
0.945258 0.577764 1.000000
1.000000 0.824635 1.000000
1.000000 0.997008 1.000000
1.000000 1.000000 1.000000
0.847641 0.683885 1.000000
0.968561 0.755413 1.000000
1.000000 0.927882 1.000000
1.000000 0.993685 1.000000
1.000000 1.000000 1.000000
0.740531 0.883642 1.000000
0.809138 0.891734 1.000000
1.000000 0.929431 1.000000
1.000000 1.000000 1.000000
1.000000 1.000000 1.000000
0.664863 1.000000 1.000000
0.729074 1.000000 1.000000
0.885628 1.000000 1.000000
1.000000 1.000000 1.000000
1.000000 1.000000 1.000000
0.731728 1.000000 1.000000
0.776762 1.000000 1.000000
0.920711 1.000000 1.000000
1.000000 1.000000 1.000000
1.000000 1.000000 1.000000
