velvia_modern/Velvia50_RadianceIII.cube
TITLE "Velvia 50 RadianceIII"
# Adobe RGB in/out. REPLACES AgX. Velvia 50 color reversal.
LUT_3D_SIZE 65
DOMAIN_MIN 0.0 0.0 0.0
DOMAIN_MAX 1.0 1.0 1.0
0.078461 0.087030 0.084083
0.078461 0.087030 0.084083
0.078461 0.087030 0.084083
0.078456 0.087030 0.084083
0.078436 0.087030 0.084083
0.078409 0.087030 0.084083
0.078348 0.087030 0.084083
0.078233 0.087030 0.084083
0.078296 0.087030 0.084083
0.080232 0.087030 0.084083
0.087373 0.087030 0.084083
0.106956 0.087030 0.084083
0.140462 0.087030 0.084083
0.181083 0.087001 0.084083
0.234996 0.086902 0.084083
0.283068 0.087686 0.084083
0.328375 0.089360 0.084083
0.376706 0.092008 0.084083
0.428224 0.095953 0.084083
0.473400 0.103283 0.084083
0.518993 0.114685 0.084083
0.564940 0.127064 0.084083
0.612075 0.144368 0.084083
0.657636 0.168378 0.084083
0.699960 0.193392 0.084083
0.741673 0.219522 0.084083
0.783155 0.247852 0.084083
0.819539 0.275905 0.084083
0.854710 0.303233 0.084083
0.882709 0.324577 0.084083
0.905418 0.346264 0.084083
0.927758 0.368556 0.084083
0.940400 0.391372 0.084083
0.952545 0.414731 0.084083
0.963098 0.438446 0.084083
0.966936 0.462382 0.084083
0.970445 0.485463 0.084038
0.973843 0.505141 0.083975
0.977136 0.524901 0.083914
0.980329 0.544310 0.083838
0.981989 0.563661 0.083765
0.982932 0.583058 0.083721
0.983848 0.602629 0.083692
0.984738 0.622253 0.083663
0.985603 0.641919 0.083633
0.986444 0.661703 0.083726
0.987084 0.681534 0.084346
0.987345 0.701387 0.084954
0.987598 0.721002 0.085601
0.987845 0.740095 0.086238
0.988085 0.759170 0.086774
0.988278 0.778218 0.087230
0.988418 0.796210 0.087677
0.988554 0.811527 0.088115
0.988687 0.824378 0.088704
0.988817 0.837105 0.089855
0.988934 0.849708 0.090984
0.989044 0.862186 0.092100
0.989151 0.872710 0.093317
0.989255 0.880730 0.095540
0.989357 0.888631 0.097761
0.989457 0.896415 0.099980
0.989554 0.904083 0.102197
0.989649 0.911637 0.105102
0.989742 0.919079 0.108026
0.078461 0.087030 0.084083
0.078461 0.087030 0.084083
0.078461 0.087030 0.084083
0.078458 0.087030 0.084083
0.078441 0.087030 0.084083
0.078415 0.087030 0.084083
0.078361 0.087030 0.084083
0.078243 0.087030 0.084083
0.078277 0.087030 0.084083
0.079918 0.087030 0.084083
0.086726 0.087030 0.084083
0.105475 0.087030 0.084083
0.138300 0.087030 0.084083
0.178609 0.087001 0.084083
0.232081 0.086902 0.084083
0.281021 0.087686 0.084083
0.326506 0.089363 0.084083
0.374847 0.092013 0.084083
0.426689 0.095969 0.084083
0.471929 0.103301 0.084083
0.517611 0.114714 0.084083
0.563636 0.127102 0.084083
0.610804 0.144434 0.084083
0.656578 0.168454 0.084083
0.698941 0.193469 0.084083
0.740731 0.219608 0.084083
0.782248 0.247942 0.084083
0.818804 0.275993 0.084083
0.854006 0.303300 0.084083
0.882268 0.324644 0.084083
0.905000 0.346332 0.084083
0.927362 0.368626 0.084083
0.940187 0.391443 0.084083
0.952345 0.414803 0.084083
0.962976 0.438517 0.084083
0.966880 0.462455 0.084083
0.970392 0.485521 0.084039
0.973794 0.505199 0.083976
0.977089 0.524959 0.083915
0.980285 0.544366 0.083839
0.981976 0.563717 0.083766
0.982920 0.583114 0.083721
0.983836 0.602686 0.083692
0.984727 0.622309 0.083663
0.985592 0.641976 0.083633
0.986434 0.661760 0.083720
0.987081 0.681591 0.084340
0.987342 0.701444 0.084948
0.987595 0.721057 0.085595
0.987842 0.740151 0.086233
0.988082 0.759225 0.086770
0.988276 0.778273 0.087227
0.988416 0.796257 0.087674
0.988553 0.811564 0.088111
0.988686 0.824415 0.088694
0.988816 0.837142 0.089846
0.988933 0.849745 0.090976
0.989043 0.862223 0.092092
0.989150 0.872734 0.093300
0.989254 0.880754 0.095524
0.989356 0.888655 0.097745
0.989456 0.896438 0.099965
0.989553 0.904106 0.102181
0.989648 0.911660 0.105082
0.989741 0.919102 0.108007
0.078461 0.087030 0.084083
0.078461 0.087030 0.084083
0.078461 0.087030 0.084083
0.078461 0.087030 0.084083
0.078454 0.087030 0.084083
0.078424 0.087030 0.084083
0.078379 0.087030 0.084083
0.078278 0.087030 0.084083
0.078231 0.087030 0.084083
0.079005 0.087030 0.084083
0.085190 0.087030 0.084083
0.100833 0.087030 0.084083
0.130984 0.087030 0.084083
0.170216 0.087002 0.084083
0.221935 0.086902 0.084083
0.273928 0.087689 0.084083
0.319995 0.089376 0.084083
0.368342 0.092031 0.084083
0.420500 0.096028 0.084083
0.466747 0.103368 0.084083
0.512729 0.114824 0.084083
0.559023 0.127240 0.084083
0.606299 0.144679 0.084083
0.652820 0.168731 0.084083
0.695322 0.193746 0.084083
0.737379 0.219921 0.084083
0.779018 0.248269 0.084083
0.816185 0.276309 0.084083
0.851496 0.303539 0.084083
0.880693 0.324886 0.084083
0.903507 0.346578 0.084083
0.925944 0.368877 0.084083
0.939425 0.391698 0.084083
0.951626 0.415062 0.084083
0.962539 0.438776 0.084083
0.966679 0.462715 0.084083
0.970203 0.485731 0.084041
0.973616 0.505409 0.083979
0.976921 0.525167 0.083919
0.980126 0.544568 0.083843
0.981928 0.563918 0.083769
0.982875 0.583316 0.083722
0.983794 0.602889 0.083693
0.984687 0.622513 0.083665
0.985555 0.642180 0.083634
0.986398 0.661965 0.083697
0.987070 0.681797 0.084319
0.987331 0.701650 0.084927
0.987585 0.721256 0.085573
0.987833 0.740350 0.086212
0.988073 0.759424 0.086755
0.988271 0.778472 0.087213
0.988411 0.796425 0.087660
0.988548 0.811700 0.088099
0.988681 0.824550 0.088660
0.988811 0.837276 0.089813
0.988929 0.849878 0.090944
0.989039 0.862355 0.092061
0.989146 0.872820 0.093241
0.989251 0.880839 0.095466
0.989353 0.888739 0.097689
0.989453 0.896522 0.099909
0.989550 0.904189 0.102127
0.989646 0.911742 0.105007
0.989739 0.919183 0.107940
0.078461 0.087030 0.084083
0.078461 0.087030 0.084083
0.078461 0.087030 0.084083
0.078461 0.087030 0.084083
0.078457 0.087030 0.084083
0.078437 0.087030 0.084083
0.078406 0.087030 0.084083
0.078332 0.087030 0.084083
0.078197 0.087030 0.084083
0.078393 0.087030 0.084083
0.082682 0.087030 0.084083
0.093296 0.087030 0.084083
0.120146 0.087030 0.084083
0.156581 0.087002 0.084083
0.205433 0.086902 0.084083
0.261877 0.087698 0.084083
0.308688 0.089406 0.084083
0.357056 0.092069 0.084083
0.409169 0.096148 0.084083
0.457609 0.103517 0.084083
0.504078 0.115038 0.084083
0.550815 0.127506 0.084083
0.598259 0.145147 0.084083
0.646083 0.169258 0.084083
0.688818 0.194270 0.084083
0.731342 0.220511 0.084083
0.773192 0.248881 0.084083
0.811449 0.276900 0.084083
0.846952 0.303986 0.084083
0.877834 0.325336 0.084083
0.900794 0.347036 0.084083
0.923365 0.369345 0.084083
0.938038 0.392174 0.084083
0.950317 0.415543 0.084083
0.961742 0.439255 0.084083
0.966312 0.463198 0.084083
0.969858 0.486120 0.084047
0.973290 0.505796 0.083984
0.976614 0.525553 0.083923
0.979836 0.544941 0.083848
0.981842 0.564288 0.083775
0.982794 0.583690 0.083725
0.983717 0.603264 0.083695
0.984614 0.622888 0.083666
0.985486 0.642557 0.083636
0.986333 0.662345 0.083656
0.987050 0.682177 0.084279
0.987312 0.702031 0.084890
0.987567 0.721622 0.085534
0.987815 0.740717 0.086174
0.988057 0.759791 0.086728
0.988261 0.778840 0.087187
0.988402 0.796735 0.087636
0.988539 0.811950 0.088075
0.988673 0.824799 0.088597
0.988803 0.837523 0.089754
0.988922 0.850123 0.090887
0.989033 0.862598 0.092006
0.989140 0.872979 0.093132
0.989245 0.880996 0.095359
0.989347 0.888894 0.097584
0.989447 0.896675 0.099807
0.989545 0.904340 0.102027
0.989641 0.911892 0.104871
0.989734 0.919331 0.107818
0.078461 0.087030 0.084083
0.078461 0.087030 0.084083
0.078461 0.087030 0.084083
0.078461 0.087030 0.084083
0.078456 0.087030 0.084083
0.078446 0.087030 0.084083
0.078421 0.087030 0.084083
0.078373 0.087030 0.084083
0.078263 0.087030 0.084083
0.078266 0.087030 0.084083
0.080273 0.087030 0.084083
0.087465 0.087030 0.084083
0.107088 0.087030 0.084083
0.141588 0.087002 0.084083
0.185455 0.086900 0.084083
0.244760 0.087722 0.084083
0.293427 0.089469 0.084083
0.341741 0.092140 0.084083
0.393556 0.096358 0.084083
0.444837 0.103877 0.084083
0.491891 0.115388 0.084083
0.539176 0.127935 0.084083
0.586798 0.145891 0.084083
0.635857 0.170080 0.084083
0.679453 0.195089 0.084083
0.722617 0.221427 0.084083
0.764747 0.249828 0.084083
0.804557 0.277811 0.084083
0.840325 0.304671 0.084083
0.873648 0.326024 0.084083
0.896815 0.347733 0.084083
0.919578 0.370056 0.084083
0.935996 0.392896 0.084083
0.948387 0.416271 0.084083
0.960451 0.439981 0.084083
0.965769 0.463928 0.084083
0.969347 0.486708 0.084055
0.972808 0.506381 0.083991
0.976159 0.526134 0.083930
0.979406 0.545503 0.083857
0.981714 0.564848 0.083783
0.982673 0.584254 0.083728
0.983603 0.603828 0.083698
0.984506 0.623454 0.083669
0.985383 0.643124 0.083639
0.986236 0.662916 0.083610
0.987020 0.682749 0.084221
0.987283 0.702604 0.084834
0.987540 0.722173 0.085475
0.987789 0.741268 0.086118
0.988032 0.760342 0.086689
0.988247 0.779391 0.087149
0.988388 0.797201 0.087599
0.988526 0.812326 0.088040
0.988660 0.825171 0.088504
0.988791 0.837893 0.089666
0.988912 0.850490 0.090802
0.989023 0.862963 0.091924
0.989131 0.873217 0.093032
0.989236 0.881232 0.095201
0.989339 0.889127 0.097430
0.989439 0.896905 0.099655
0.989537 0.904568 0.101878
0.989633 0.912117 0.104668
0.989727 0.919554 0.107636
0.078461 0.087030 0.084083
0.078461 0.087030 0.084083
0.078461 0.087030 0.084083
0.078459 0.087030 0.084083
0.078455 0.087030 0.084083
0.078444 0.087030 0.084083
0.078427 0.087030 0.084083
0.078394 0.087030 0.084083
0.078316 0.087030 0.084083
0.078181 0.087030 0.084083
0.078452 0.087030 0.084083
0.083785 0.087030 0.084083
0.096233 0.087030 0.084083
0.124934 0.086998 0.084083
0.165129 0.086896 0.084083
0.219325 0.087772 0.084083
0.274843 0.089584 0.084083
0.323556 0.092260 0.084083
0.374769 0.096696 0.084083
0.429098 0.104437 0.084083
0.476694 0.115918 0.084083
0.524462 0.128572 0.084083
0.572379 0.146981 0.084083
0.621589 0.171223 0.084083
0.667451 0.196262 0.084083
0.711245 0.222728 0.084083
0.753825 0.251164 0.084083
0.795598 0.279088 0.084083
0.831684 0.305627 0.084083
0.867627 0.326981 0.084083
0.891587 0.348700 0.084083
0.914592 0.371039 0.084083
0.933297 0.393891 0.084083
0.945833 0.417274 0.084083
0.958031 0.440978 0.084083
0.965048 0.464930 0.084083
0.968668 0.487513 0.084065
0.972167 0.507181 0.084001
0.975553 0.526929 0.083940
0.978832 0.546272 0.083868
0.981544 0.565612 0.083793
0.982512 0.585024 0.083732
0.983451 0.604599 0.083702
0.984362 0.624226 0.083673
0.985247 0.643896 0.083643
0.986106 0.663693 0.083614
0.986941 0.683527 0.084143
0.987245 0.703383 0.084759
0.987503 0.722923 0.085397
0.987755 0.742017 0.086044
0.987999 0.761092 0.086635
0.988227 0.780140 0.087097
0.988370 0.797833 0.087550
0.988508 0.812836 0.087993
0.988643 0.825677 0.088427
0.988775 0.838395 0.089549
0.988899 0.850988 0.090688
0.989010 0.863457 0.091814
0.989118 0.873540 0.092925
0.989224 0.881551 0.094989
0.989327 0.889442 0.097222
0.989428 0.897217 0.099452
0.989527 0.904876 0.101679
0.989623 0.912422 0.104396
0.989717 0.919856 0.107392
0.078461 0.087030 0.084083
0.078461 0.087030 0.084083
0.078461 0.087030 0.084083
0.078458 0.087030 0.084083
0.078454 0.087030 0.084083
0.078438 0.087030 0.084083
0.078424 0.087030 0.084083
0.078406 0.087030 0.084083
0.078358 0.087030 0.084083
0.078238 0.087030 0.084083
0.078319 0.087030 0.084083
0.080939 0.087030 0.084083
0.088919 0.087030 0.084083
0.110560 0.086990 0.084083
0.146935 0.086887 0.084083
0.193946 0.087864 0.084083
0.254327 0.089780 0.084083
0.303685 0.092453 0.084083
0.354063 0.097215 0.084083
0.408344 0.105270 0.084083
0.458831 0.116685 0.084083
0.507121 0.129475 0.084083
0.555567 0.148506 0.084083
0.604801 0.172801 0.084083
0.653187 0.197862 0.084083
0.697273 0.224487 0.084083
0.740697 0.252957 0.084083
0.783693 0.280790 0.084083
0.821187 0.306892 0.084083
0.857463 0.328242 0.084083
0.885175 0.349970 0.084083
0.908461 0.372326 0.084083
0.929962 0.395190 0.084083
0.942672 0.418579 0.084083
0.955030 0.442274 0.084083
0.964151 0.466229 0.084083
0.967821 0.488556 0.084078
0.971367 0.508214 0.084014
0.974797 0.527954 0.083951
0.978115 0.547262 0.083883
0.981330 0.566598 0.083807
0.982310 0.586016 0.083738
0.983260 0.605592 0.083707
0.984181 0.625219 0.083678
0.985075 0.644890 0.083648
0.985943 0.664692 0.083618
0.986786 0.684526 0.084045
0.987197 0.704383 0.084665
0.987458 0.723884 0.085299
0.987711 0.742978 0.085950
0.987958 0.762052 0.086568
0.988198 0.781100 0.087033
0.988346 0.798643 0.087489
0.988486 0.813488 0.087934
0.988622 0.826324 0.088370
0.988755 0.839037 0.089401
0.988881 0.851625 0.090545
0.988993 0.864090 0.091675
0.989103 0.873953 0.092791
0.989209 0.881958 0.094723
0.989313 0.889845 0.096961
0.989414 0.897615 0.099196
0.989513 0.905270 0.101428
0.989610 0.912811 0.104054
0.989705 0.920240 0.107085
0.078461 0.087030 0.084083
0.078461 0.087030 0.084083
0.078461 0.087030 0.084083
0.078457 0.087030 0.084083
0.078451 0.087030 0.084083
0.078433 0.087030 0.084083
0.078419 0.087030 0.084083
0.078395 0.087030 0.084083
0.078366 0.087030 0.084083
0.078267 0.087030 0.084083
0.078245 0.087030 0.084083
0.079277 0.087030 0.084083
0.085115 0.087030 0.084083
0.099870 0.086975 0.084083
0.130183 0.086871 0.084083
0.172298 0.088016 0.084083
0.229541 0.090088 0.084083
0.283365 0.092745 0.084083
0.332860 0.097978 0.084083
0.385768 0.106466 0.084083
0.439643 0.117759 0.084083
0.488241 0.130718 0.084083
0.537051 0.150580 0.084083
0.586142 0.174915 0.084083
0.636699 0.199980 0.084083
0.681450 0.226795 0.084083
0.725727 0.255289 0.084083
0.768999 0.282987 0.084083
0.809067 0.308513 0.084083
0.845678 0.329849 0.084083
0.877681 0.351581 0.084083
0.901275 0.373954 0.084083
0.924426 0.396828 0.084083
0.938937 0.420220 0.084083
0.951477 0.443898 0.084083
0.962639 0.467854 0.084083
0.966814 0.489856 0.084083
0.970414 0.509502 0.084028
0.973893 0.529215 0.083965
0.977258 0.548491 0.083900
0.980518 0.567825 0.083823
0.982069 0.587248 0.083749
0.983031 0.606823 0.083713
0.983964 0.626449 0.083684
0.984869 0.646123 0.083654
0.985747 0.665927 0.083624
0.986600 0.685761 0.083927
0.987139 0.705618 0.084553
0.987402 0.725071 0.085182
0.987658 0.744163 0.085837
0.987907 0.763236 0.086479
0.988150 0.782282 0.086956
0.988318 0.799640 0.087415
0.988459 0.814290 0.087863
0.988597 0.827120 0.088302
0.988730 0.839826 0.089223
0.988861 0.852408 0.090373
0.988973 0.864867 0.091508
0.989083 0.874459 0.092629
0.989191 0.882458 0.094403
0.989295 0.890339 0.096647
0.989397 0.898104 0.098888
0.989497 0.905753 0.101126
0.989595 0.913289 0.103641
0.989690 0.920713 0.106715
0.078461 0.087030 0.084083
0.078461 0.087030 0.084083
0.078461 0.087030 0.084083
0.078456 0.087030 0.084083
0.078445 0.087030 0.084083
0.078427 0.087030 0.084083
0.078410 0.087030 0.084083
0.078378 0.087030 0.084083
0.078335 0.087030 0.084083
0.078269 0.087030 0.084083
0.078208 0.087030 0.084083
0.078444 0.087030 0.084083
0.082816 0.087030 0.084083
0.092329 0.086951 0.084083
0.117378 0.087089 0.084083
0.154050 0.088246 0.084083
0.204099 0.090551 0.084083
0.262919 0.093165 0.084083
0.312124 0.099059 0.084083
0.363377 0.108129 0.084083
0.418833 0.119223 0.084083
0.468361 0.132384 0.084083
0.517286 0.153338 0.084083
0.566409 0.177688 0.084083
0.616696 0.202726 0.084083
0.664268 0.229759 0.084083
0.709128 0.258257 0.084083
0.752817 0.285762 0.084083
0.795604 0.310542 0.084083
0.832525 0.331850 0.084083
0.869243 0.353592 0.084083
0.893154 0.375963 0.084083
0.916608 0.398842 0.084083
0.934676 0.422232 0.084083
0.947414 0.445885 0.084083
0.959794 0.469837 0.084083
0.965653 0.491437 0.084083
0.969314 0.511065 0.084045
0.972849 0.530720 0.083981
0.976267 0.549981 0.083919
0.979578 0.569310 0.083841
0.981788 0.588739 0.083766
0.982765 0.608311 0.083720
0.983712 0.627935 0.083691
0.984629 0.647613 0.083661
0.985519 0.667416 0.083631
0.986383 0.687248 0.083791
0.987071 0.707103 0.084423
0.987338 0.726497 0.085045
0.987597 0.745586 0.085706
0.987849 0.764656 0.086353
0.988094 0.783700 0.086866
0.988286 0.800835 0.087328
0.988428 0.815251 0.087780
0.988567 0.828072 0.088223
0.988702 0.840770 0.089015
0.988833 0.853345 0.090171
0.988950 0.865795 0.091313
0.989061 0.875064 0.092440
0.989169 0.883056 0.094028
0.989275 0.890929 0.096280
0.989378 0.898686 0.098528
0.989478 0.906329 0.100772
0.989576 0.913858 0.103160
0.989672 0.921275 0.106275
0.078461 0.087030 0.084083
0.078461 0.087030 0.084083
0.078459 0.087030 0.084083
0.078454 0.087030 0.084083
0.078437 0.087030 0.084083
0.078419 0.087030 0.084083
0.078390 0.087030 0.084083
0.078358 0.087030 0.084083
0.078294 0.087030 0.084083
0.078235 0.087030 0.084083
0.078215 0.087030 0.084083
0.078393 0.087030 0.084083
0.081340 0.086995 0.084083
0.088589 0.086909 0.084083
0.107358 0.087484 0.084083
0.140572 0.088723 0.084083
0.183593 0.091216 0.084083
0.242938 0.093741 0.084083
0.292616 0.100530 0.084083
0.342103 0.110234 0.084083
0.395601 0.121435 0.084083
0.448234 0.134571 0.084083
0.497064 0.156939 0.084083
0.546206 0.181263 0.084083
0.595988 0.206226 0.084083
0.646237 0.233503 0.084083
0.691102 0.261657 0.084083
0.735564 0.289022 0.084083
0.779396 0.313040 0.084083
0.818292 0.334300 0.084083
0.855306 0.356044 0.084083
0.884239 0.378401 0.084083
0.907994 0.401278 0.084083
0.929948 0.424656 0.084083
0.942893 0.448271 0.084083
0.955468 0.472212 0.084083
0.964352 0.493326 0.084083
0.968078 0.512928 0.084064
0.971674 0.532511 0.083999
0.975150 0.551757 0.083936
0.978516 0.571078 0.083862
0.981471 0.590510 0.083786
0.982464 0.610075 0.083728
0.983426 0.629694 0.083698
0.984357 0.649376 0.083669
0.985260 0.669174 0.083638
0.986137 0.689003 0.083638
0.986987 0.708854 0.084275
0.987265 0.728176 0.084899
0.987527 0.747261 0.085557
0.987782 0.766327 0.086210
0.988030 0.785367 0.086764
0.988248 0.802238 0.087230
0.988392 0.816378 0.087686
0.988532 0.829189 0.088132
0.988669 0.841877 0.088773
0.988802 0.854442 0.089942
0.988923 0.866883 0.091091
0.989035 0.875772 0.092224
0.989145 0.883754 0.093603
0.989251 0.891619 0.095861
0.989355 0.899368 0.098117
0.989456 0.907002 0.100369
0.989555 0.914523 0.102617
0.989652 0.921933 0.105732
0.078461 0.087381 0.084083
0.078461 0.087361 0.084083
0.078457 0.087286 0.084083
0.078449 0.087149 0.084083
0.078429 0.086947 0.084083
0.078409 0.086883 0.084083
0.078373 0.086911 0.084083
0.078319 0.086944 0.084083
0.078258 0.086970 0.084083
0.078181 0.086986 0.084083
0.078264 0.086988 0.084083
0.078417 0.086977 0.084083
0.080622 0.086940 0.084083
0.086310 0.087001 0.084083
0.101169 0.087998 0.084083
0.129024 0.089709 0.084083
0.167701 0.092094 0.084083
0.220156 0.095610 0.084083
0.274348 0.102465 0.084083
0.322624 0.112873 0.084083
0.373877 0.124325 0.084083
0.428811 0.138912 0.084083
0.477233 0.161564 0.084083
0.526070 0.185801 0.084083
0.575231 0.210622 0.084083
0.625939 0.237997 0.084083
0.672564 0.265829 0.084083
0.717665 0.292965 0.084083
0.761509 0.316074 0.084083
0.803282 0.337260 0.084083
0.840498 0.358992 0.084083
0.874688 0.381320 0.084083
0.898727 0.404184 0.084083
0.922309 0.427539 0.084083
0.937976 0.451099 0.084083
0.950749 0.475019 0.084083
0.962312 0.495550 0.084083
0.966719 0.515117 0.084083
0.970379 0.534613 0.084018
0.973918 0.553842 0.083954
0.977344 0.573150 0.083885
0.980662 0.592583 0.083808
0.982130 0.612138 0.083737
0.983108 0.631747 0.083706
0.984055 0.651431 0.083677
0.984972 0.671222 0.083646
0.985862 0.691044 0.083616
0.986725 0.710889 0.084112
0.987183 0.730126 0.084742
0.987449 0.749204 0.085392
0.987707 0.768263 0.086052
0.987959 0.787297 0.086650
0.988203 0.803861 0.087121
0.988352 0.817681 0.087581
0.988494 0.830479 0.088031
0.988632 0.843155 0.088502
0.988766 0.855708 0.089686
0.988893 0.868137 0.090842
0.989006 0.876587 0.091983
0.989117 0.884559 0.093127
0.989224 0.892413 0.095394
0.989329 0.900152 0.097658
0.989432 0.907776 0.099918
0.989532 0.915288 0.102174
0.989629 0.922689 0.105125
0.078460 0.091569 0.084083
0.078458 0.091509 0.084083
0.078455 0.091295 0.084083
0.078442 0.090904 0.084083
0.078423 0.090333 0.084083
0.078396 0.089605 0.084083
0.078360 0.088709 0.084083
0.078288 0.088117 0.084083
0.078228 0.087689 0.084083
0.078221 0.087388 0.084083
0.078333 0.087235 0.084083
0.078839 0.087236 0.084083
0.081168 0.087378 0.084083
0.085278 0.087745 0.084083
0.096784 0.088842 0.084083
0.121132 0.090955 0.084083
0.155133 0.093193 0.084083
0.201651 0.098316 0.084083
0.258150 0.105817 0.084083
0.305125 0.116237 0.084083
0.354122 0.127994 0.084083
0.407498 0.144624 0.084083
0.457796 0.167413 0.084083
0.506156 0.191387 0.084083
0.554980 0.216254 0.084083
0.604837 0.243527 0.084083
0.653953 0.270917 0.084083
0.698925 0.297741 0.084083
0.743245 0.319684 0.084083
0.787284 0.340796 0.084083
0.825131 0.362498 0.084083
0.862331 0.384777 0.084083
0.888957 0.407613 0.084083
0.912794 0.430929 0.084083
0.932728 0.454415 0.084083
0.945698 0.478292 0.084083
0.958299 0.498141 0.084083
0.965250 0.517662 0.084083
0.968979 0.537059 0.084039
0.972584 0.556266 0.083974
0.976071 0.575554 0.083910
0.979447 0.594984 0.083831
0.981766 0.614523 0.083755
0.982761 0.634117 0.083715
0.983724 0.653800 0.083685
0.984656 0.673579 0.083655
0.985560 0.693391 0.083624
0.986437 0.713226 0.083934
0.987093 0.732363 0.084571
0.987363 0.751431 0.085212
0.987625 0.770480 0.085878
0.987880 0.789505 0.086525
0.988127 0.805715 0.087001
0.988308 0.819168 0.087465
0.988451 0.831951 0.087920
0.988591 0.844611 0.088364
0.988727 0.857150 0.089405
0.988860 0.869437 0.090569
0.988974 0.877515 0.091718
0.989086 0.885474 0.092851
0.989195 0.893316 0.094880
0.989301 0.901043 0.097153
0.989404 0.908656 0.099422
0.989505 0.916157 0.101686
0.989604 0.923547 0.104456
0.078458 0.100001 0.084083
0.078457 0.100116 0.084083
0.078454 0.100530 0.084083
0.078436 0.099936 0.084083
0.078418 0.098073 0.084083
0.078384 0.095637 0.084083
0.078335 0.093454 0.084083
0.078263 0.092266 0.084083
0.078179 0.091199 0.084083
0.078267 0.090363 0.084083
0.078412 0.089826 0.084083
0.079802 0.089580 0.084083
0.082513 0.089622 0.084083
0.086364 0.089930 0.084083
0.093686 0.090507 0.084083
0.115300 0.092468 0.084083
0.146909 0.095631 0.084083
0.187376 0.101640 0.084083
0.243131 0.110585 0.084083
0.289894 0.120570 0.084083
0.336696 0.132548 0.084083
0.387555 0.151795 0.084083
0.439737 0.174467 0.084083
0.487352 0.198017 0.084083
0.535589 0.223168 0.084083
0.584399 0.250255 0.084083
0.634976 0.277058 0.084083
0.680218 0.303322 0.084083
0.724963 0.323958 0.084083
0.768803 0.344978 0.084083
0.809479 0.366628 0.084083
0.846740 0.388835 0.084083
0.878838 0.411622 0.084083
0.902894 0.434836 0.084083
0.926512 0.458267 0.084083
0.940378 0.481777 0.084083
0.953161 0.501131 0.084083
0.963690 0.520596 0.084083
0.967489 0.539883 0.084061
0.971160 0.559059 0.083995
0.974710 0.578318 0.083932
0.978146 0.597738 0.083856
0.981375 0.617254 0.083779
0.982388 0.636828 0.083725
0.983367 0.656506 0.083694
0.984316 0.676268 0.083665
0.985235 0.696064 0.083633
0.986125 0.715840 0.083742
0.986989 0.734904 0.084386
0.987269 0.753958 0.085018
0.987536 0.772995 0.085691
0.987794 0.791792 0.086349
0.988045 0.807814 0.086871
0.988259 0.820849 0.087340
0.988405 0.833613 0.087799
0.988547 0.846255 0.088248
0.988685 0.858776 0.089100
0.988819 0.870498 0.090273
0.988940 0.878560 0.091430
0.989053 0.886504 0.092571
0.989163 0.894332 0.094324
0.989270 0.902045 0.096605
0.989375 0.909645 0.098883
0.989477 0.917133 0.101156
0.989576 0.924511 0.103730
0.078456 0.117281 0.084083
0.078455 0.117445 0.084083
0.078449 0.118034 0.084083
0.078431 0.119117 0.084083
0.078414 0.116191 0.084083
0.078375 0.111965 0.084083
0.078314 0.106696 0.084083
0.078242 0.102017 0.084083
0.078209 0.098907 0.084083
0.078324 0.096314 0.084083
0.078732 0.094361 0.084083
0.080901 0.093611 0.084083
0.084141 0.093429 0.084083
0.088733 0.093503 0.084083
0.097828 0.093813 0.084083
0.112113 0.095136 0.084083
0.140004 0.099948 0.084083
0.176893 0.106891 0.084083
0.227276 0.115959 0.084083
0.276332 0.126370 0.084083
0.321574 0.140037 0.084083
0.369947 0.160657 0.084083
0.422810 0.182969 0.084083
0.469712 0.206084 0.084083
0.517086 0.231543 0.084083
0.565085 0.258350 0.084083
0.614553 0.284391 0.084083
0.661993 0.308554 0.084083
0.706671 0.328985 0.084083
0.750483 0.349878 0.084083
0.793801 0.371450 0.084083
0.831026 0.393574 0.084083
0.868170 0.416272 0.084083
0.892749 0.439353 0.084083
0.916553 0.462708 0.084083
0.934856 0.485285 0.084083
0.947809 0.504557 0.084083
0.960416 0.523965 0.084083
