velvia_modern/Velvia50_Normal.cube
TITLE "Velvia 50 Normal"
# Adobe RGB in/out. REPLACES AgX. Velvia 50 color reversal.
LUT_3D_SIZE 5
DOMAIN_MIN 0.0 0.0 0.0
DOMAIN_MAX 1.0 1.0 1.0
0.034495 0.021697 0.024158
0.306404 0.115885 0.026211
0.693337 0.398563 0.052681
0.877547 0.614178 0.121254
0.955017 0.752683 0.193415
0.064557 0.299975 0.024450
0.219998 0.230106 0.025198
0.619719 0.426474 0.040890
0.849843 0.630337 0.106437
0.945603 0.762432 0.182169
0.244237 0.659224 0.027231
0.361811 0.613194 0.029196
0.577354 0.594946 0.039834
0.799826 0.697546 0.086049
0.924528 0.802896 0.160186
0.385707 0.841966 0.034225
0.461445 0.829656 0.037906
0.641209 0.810100 0.054062
0.794178 0.825853 0.090747
0.905706 0.868003 0.150378
0.478041 0.919392 0.045162
0.535399 0.916950 0.049930
0.671758 0.913764 0.068516
0.811918 0.920009 0.105229
0.903678 0.936903 0.156491
0.226593 0.107870 0.781367
0.412299 0.194005 0.450750
0.691181 0.399966 0.356019
0.870855 0.605672 0.355571
0.952151 0.747382 0.371484
0.081183 0.231596 0.292554
0.161650 0.151954 0.159403
0.595160 0.406077 0.271054
0.841830 0.617966 0.319524
0.942708 0.756612 0.352934
0.254479 0.622807 0.302070
0.353241 0.580677 0.264907
0.548133 0.563582 0.223610
0.786667 0.684971 0.265991
0.921985 0.796668 0.314178
0.392998 0.832245 0.274925
0.464289 0.818424 0.265716
0.637593 0.799795 0.251560
0.788431 0.817632 0.258002
0.903918 0.865669 0.291299
0.485620 0.916982 0.243730
0.541620 0.914725 0.243458
0.673833 0.912009 0.246938
0.812879 0.918967 0.261289
0.904506 0.936918 0.288062
0.604680 0.393700 0.998310
0.671027 0.416689 0.958620
0.788015 0.511400 0.838506
0.889976 0.641751 0.747312
0.954386 0.755271 0.708111
0.302690 0.365822 0.821862
0.434578 0.387180 0.774644
0.681822 0.497067 0.722764
0.856604 0.644600 0.699667
0.944208 0.761893 0.680613
0.306783 0.577826 0.667733
0.379209 0.551074 0.615681
0.515986 0.519601 0.512998
0.786167 0.681066 0.584647
0.921485 0.794861 0.617419
0.425534 0.808867 0.641676
0.486677 0.798167 0.622121
0.639123 0.782897 0.577016
0.781819 0.803246 0.553471
0.903069 0.862881 0.573961
0.514584 0.911664 0.586448
0.566725 0.910027 0.580170
0.684163 0.908775 0.565390
0.817164 0.917468 0.556762
0.908229 0.937330 0.563002
0.803267 0.603634 0.995016
0.831144 0.611538 0.997192
0.877495 0.648967 0.986560
0.928376 0.711145 0.956011
0.966262 0.786682 0.921064
0.623245 0.577500 0.995602
0.685995 0.589305 0.985619
0.816631 0.637230 0.963835
0.901168 0.710229 0.933658
0.955580 0.790790 0.910025
0.437915 0.620255 0.912990
0.504339 0.619663 0.904002
0.668661 0.649928 0.876733
0.831903 0.724920 0.867914
0.930176 0.814518 0.864318
0.488042 0.794203 0.873730
0.539705 0.788185 0.860839
0.660926 0.779842 0.824501
0.784611 0.793674 0.790744
0.910015 0.866372 0.814794
0.567187 0.907156 0.837002
0.614355 0.906455 0.831270
0.706313 0.907401 0.816370
0.826646 0.918156 0.804000
0.916266 0.938702 0.803445
0.899547 0.739931 0.991127
0.913930 0.741762 0.992855
0.934768 0.753295 0.996205
0.957058 0.783447 0.999296
0.972826 0.831574 0.984370
0.816145 0.724485 0.995080
0.839927 0.728391 0.995906
0.894281 0.745570 0.998070
0.938692 0.781645 0.996351
0.968904 0.834159 0.978628
0.638171 0.720869 0.990916
0.678382 0.725415 0.987855
0.788849 0.746428 0.979799
0.882638 0.790511 0.971121
0.946047 0.846643 0.963634
0.592453 0.808514 0.962554
0.631345 0.808097 0.960455
0.721986 0.814520 0.952175
0.838074 0.843412 0.944202
0.925480 0.881423 0.942071
0.632929 0.906700 0.945969
0.659544 0.907009 0.943974
0.741591 0.910440 0.938530
0.843160 0.923219 0.933468
0.925106 0.941423 0.932871
