velvia_modern/Velvia50_Normal.cube
TITLE "Velvia 50 Normal"
# Adobe RGB in/out. REPLACES AgX. Velvia 50 color reversal.
LUT_3D_SIZE 9
DOMAIN_MIN 0.0 0.0 0.0
DOMAIN_MAX 1.0 1.0 1.0
0.034495 0.021697 0.024158
0.062234 0.026752 0.024158
0.306404 0.115885 0.026211
0.526644 0.265826 0.033206
0.693337 0.398563 0.052681
0.813329 0.519559 0.084715
0.877547 0.614178 0.121254
0.926994 0.693606 0.158227
0.955017 0.752683 0.193415
0.035127 0.042039 0.024158
0.043542 0.038357 0.024158
0.236191 0.123359 0.025182
0.480071 0.272210 0.030911
0.671106 0.403408 0.048726
0.797224 0.523040 0.080157
0.870555 0.617407 0.117396
0.923960 0.695829 0.155082
0.952787 0.754733 0.190679
0.064557 0.299975 0.024450
0.110072 0.257367 0.024617
0.219998 0.230106 0.025198
0.407667 0.312364 0.028638
0.619719 0.426474 0.040890
0.753876 0.537992 0.068746
0.849843 0.630337 0.106437
0.911583 0.704369 0.145002
0.945603 0.762432 0.182169
0.154794 0.504364 0.025449
0.199275 0.478283 0.025839
0.297088 0.433204 0.026846
0.409800 0.425216 0.029190
0.564810 0.484545 0.037300
0.710545 0.573169 0.059339
0.824684 0.658623 0.093889
0.890184 0.721990 0.132346
0.935187 0.777793 0.170695
0.244237 0.659224 0.027231
0.278430 0.645518 0.027725
0.361811 0.613194 0.029196
0.461545 0.590862 0.032709
0.577354 0.594946 0.039834
0.686304 0.635221 0.055894
0.799826 0.697546 0.086049
0.870627 0.751512 0.122323
0.924528 0.802896 0.160186
0.320177 0.760871 0.030125
0.344964 0.754654 0.030672
0.415842 0.737739 0.032999
0.508900 0.721161 0.037674
0.618085 0.715348 0.046546
0.697065 0.724251 0.061006
0.784068 0.749288 0.083977
0.857525 0.794158 0.117216
0.914293 0.838675 0.153250
0.385707 0.841966 0.034225
0.403732 0.839610 0.034898
0.461445 0.829656 0.037906
0.548918 0.817212 0.043850
0.641209 0.810100 0.054062
0.715641 0.812657 0.069490
0.794178 0.825853 0.090747
0.851530 0.844541 0.116884
0.905706 0.868003 0.150378
0.435661 0.885064 0.039381
0.450895 0.883768 0.040241
0.501435 0.879852 0.043717
0.582014 0.875064 0.050636
0.658962 0.871985 0.061473
0.730067 0.872702 0.077679
0.805158 0.878205 0.098509
0.855831 0.888396 0.123248
0.902675 0.902464 0.151945
0.478041 0.919392 0.045162
0.491091 0.918783 0.046210
0.535399 0.916950 0.049930
0.608706 0.914792 0.057077
0.671758 0.913764 0.068516
0.739545 0.915221 0.084675
0.811918 0.920009 0.105229
0.858321 0.928342 0.128890
0.903678 0.936903 0.156491
0.045697 0.026301 0.324825
0.104818 0.035012 0.125776
0.314713 0.122441 0.107173
0.518499 0.261636 0.116237
0.685012 0.391345 0.135660
0.805706 0.513267 0.160378
0.874070 0.609212 0.187186
0.925492 0.690765 0.214893
0.953962 0.750597 0.242392
0.035835 0.039344 0.057291
0.039390 0.030302 0.032994
0.229072 0.118353 0.063816
0.467844 0.263645 0.094946
0.661880 0.394651 0.123235
0.789488 0.516550 0.152447
0.867066 0.612289 0.181309
0.922462 0.692951 0.210724
0.951741 0.752638 0.239088
0.066222 0.270993 0.088629
0.102735 0.233310 0.066448
0.197934 0.199520 0.047575
0.389655 0.293607 0.064022
0.605350 0.414126 0.096324
0.746046 0.530498 0.130570
0.846374 0.624817 0.164796
0.909135 0.701400 0.198035
0.944594 0.760327 0.228755
0.155823 0.484502 0.089920
0.196534 0.459537 0.081291
0.287136 0.414816 0.066064
0.395562 0.407457 0.062221
0.551524 0.471451 0.079115
0.703475 0.565166 0.111113
0.821453 0.652852 0.145946
0.887923 0.719000 0.180877
0.934261 0.775728 0.214641
0.245339 0.648405 0.088850
0.278010 0.635008 0.085712
0.357765 0.603029 0.078951
0.454550 0.580684 0.076203
0.568141 0.585500 0.082065
0.681251 0.628293 0.100901
0.795634 0.693638 0.132341
0.868746 0.748745 0.166702
0.923750 0.801003 0.201377
0.321435 0.755804 0.088400
0.345586 0.749673 0.087603
0.414815 0.732917 0.086126
0.505938 0.716400 0.087029
0.614620 0.710720 0.093173
0.693725 0.720123 0.106269
0.781381 0.746336 0.126733
0.856206 0.791941 0.158480
0.913353 0.837530 0.191344
0.387030 0.839978 0.088775
0.404776 0.837440 0.089043
0.461668 0.826663 0.090443
0.548070 0.814325 0.094336
0.640020 0.807321 0.102261
0.714078 0.810091 0.114961
0.792566 0.823679 0.132625
0.850821 0.843619 0.155948
0.905191 0.867370 0.186415
0.437145 0.883916 0.089621
0.452234 0.882634 0.090390
0.502334 0.878763 0.093294
0.582317 0.874033 0.099111
0.658782 0.871020 0.108690
0.729624 0.871829 0.121587
0.804613 0.877472 0.139191
0.855546 0.887853 0.161110
0.902511 0.902135 0.186298
0.479634 0.918797 0.090512
0.492607 0.918198 0.091511
0.536678 0.916396 0.095148
0.609658 0.914286 0.102020
0.672144 0.913317 0.112353
0.739768 0.914851 0.125920
0.812068 0.919737 0.143799
0.858426 0.928194 0.165088
0.903844 0.936900 0.189717
0.226593 0.107870 0.781367
0.302420 0.133729 0.644110
0.412299 0.194005 0.450750
0.557354 0.291746 0.377753
0.691181 0.399966 0.356019
0.803379 0.512948 0.352158
0.870855 0.605672 0.355571
0.923428 0.687392 0.362557
0.952151 0.747382 0.371484
0.077665 0.104532 0.415128
0.146350 0.114851 0.373584
0.309892 0.176287 0.332025
0.495164 0.285485 0.325877
0.664944 0.399438 0.330134
0.785854 0.514678 0.337411
0.863521 0.607953 0.346277
0.920322 0.689299 0.356273
0.949909 0.749300 0.367021
0.081183 0.231596 0.292554
0.108882 0.200689 0.250330
0.161650 0.151954 0.159403
0.381734 0.283193 0.227062
0.595160 0.406077 0.271054
0.738472 0.523468 0.298525
0.841830 0.617966 0.319524
0.905192 0.696877 0.337153
0.942708 0.756612 0.352934
0.168978 0.444986 0.306413
0.199887 0.424395 0.285308
0.274502 0.382458 0.235345
0.367650 0.373162 0.201265
0.530370 0.449286 0.224345
0.692043 0.551788 0.260969
0.815849 0.642763 0.288596
0.883650 0.713382 0.312418
0.932358 0.771566 0.333295
0.254479 0.622807 0.302070
0.282355 0.610733 0.291747
0.353241 0.580677 0.264907
0.441366 0.558081 0.236489
0.548133 0.563582 0.223610
0.670639 0.613012 0.238006
0.786667 0.684971 0.265991
0.864617 0.742540 0.290884
0.921985 0.796668 0.314178
0.328526 0.742464 0.289660
0.350901 0.736711 0.284635
0.415030 0.720727 0.270353
0.500680 0.704538 0.254380
0.604190 0.698971 0.242252
0.685570 0.709385 0.241563
0.775006 0.738912 0.254767
0.853007 0.786333 0.277015
0.911056 0.833644 0.299801
0.392998 0.832245 0.274925
0.409890 0.828737 0.272602
0.464289 0.818424 0.265716
0.547447 0.806506 0.257466
0.637593 0.799795 0.251560
0.710311 0.803044 0.251424
0.788431 0.817632 0.258002
0.849073 0.841133 0.270404
0.903918 0.865669 0.291299
0.443083 0.880515 0.259992
0.457708 0.879291 0.259106
0.506397 0.875588 0.256506
0.584474 0.871069 0.253610
0.658930 0.868269 0.252252
0.728849 0.869337 0.254798
0.803402 0.875370 0.261505
0.854886 0.886300 0.272692
0.902174 0.901220 0.287836
0.485620 0.916982 0.243730
0.498339 0.916417 0.243609
0.541620 0.914725 0.243458
0.613506 0.912779 0.244147
0.673833 0.912009 0.246938
0.740872 0.913780 0.253021
0.812879 0.918967 0.261289
0.858923 0.927802 0.272996
0.904506 0.936918 0.288062
0.435397 0.266032 0.960778
0.472900 0.274550 0.925509
0.552222 0.307060 0.803201
0.643891 0.364543 0.689464
0.729234 0.442538 0.616122
0.819368 0.533261 0.577679
0.875848 0.615892 0.556787
0.924271 0.690637 0.544819
0.951977 0.748249 0.537409
0.280006 0.248187 0.827038
0.334559 0.257020 0.786711
0.453080 0.292580 0.704735
0.590835 0.356900 0.624733
0.700585 0.439147 0.580486
0.803623 0.532970 0.556978
0.867991 0.617057 0.544279
0.921007 0.692056 0.536751
0.949662 0.749902 0.531937
0.156488 0.263025 0.539158
0.193725 0.259149 0.513410
0.295805 0.272969 0.473252
0.448422 0.341056 0.472399
0.627289 0.433543 0.487567
0.750080 0.535146 0.499773
0.844419 0.623140 0.507365
0.905417 0.697978 0.511848
0.942217 0.756330 0.514511
0.197768 0.416194 0.498138
0.221346 0.402012 0.475314
0.281854 0.368099 0.408795
0.343065 0.341048 0.339074
0.532585 0.446699 0.394820
0.692881 0.551025 0.434245
0.815298 0.641297 0.461667
0.882436 0.711855 0.478723
0.931507 0.769934 0.489784
0.275681 0.595424 0.500111
0.296613 0.585600 0.487066
0.357714 0.559561 0.447670
0.433603 0.536512 0.401302
0.529490 0.540308 0.375708
0.663328 0.600423 0.393236
0.781175 0.678740 0.421991
0.862087 0.738302 0.445970
0.920837 0.793696 0.464668
0.344509 0.726206 0.489366
0.364594 0.721179 0.482178
0.421152 0.706852 0.459524
0.499631 0.691572 0.428626
0.595673 0.685790 0.404117
0.677337 0.696916 0.393626
0.769483 0.731307 0.402618
0.850309 0.780888 0.423482
0.909200 0.830074 0.442806
0.405681 0.820661 0.470422
0.421348 0.817504 0.466289
0.472190 0.808125 0.452389
0.550740 0.797093 0.433674
0.636701 0.790846 0.416704
0.707098 0.794516 0.406438
0.784284 0.810226 0.404846
0.847611 0.838386 0.412557
0.902914 0.863883 0.429456
0.455021 0.875862 0.444737
0.468934 0.874747 0.442473
0.515463 0.871368 0.435290
0.590629 0.867251 0.425221
0.660915 0.864814 0.415639
0.729251 0.866233 0.409537
0.802905 0.872752 0.408669
0.854543 0.884406 0.413336
0.902235 0.900255 0.422730
0.497119 0.914432 0.417439
0.509426 0.913928 0.416468
0.551425 0.912432 0.413386
0.619526 0.910773 0.409133
0.677648 0.910332 0.405397
0.743649 0.912463 0.403861
0.814632 0.918081 0.405712
0.860151 0.927454 0.411437
0.905898 0.937035 0.420859
0.604680 0.393700 0.998310
0.627526 0.398456 0.986585
0.671027 0.416689 0.958620
0.724044 0.453699 0.907055
0.788015 0.511400 0.838506
0.843077 0.572590 0.782095
0.889976 0.641751 0.747312
0.928978 0.702542 0.724441
0.954386 0.755271 0.708111
0.473265 0.380484 0.966484
0.511142 0.385728 0.959211
0.605943 0.406062 0.923247
0.681543 0.446203 0.870626
0.759022 0.507050 0.807251
0.830989 0.571259 0.763682
0.881750 0.641993 0.735930
0.925565 0.703460 0.717082
0.951981 0.756600 0.702334
0.302690 0.365822 0.821862
0.337711 0.369273 0.808301
0.434578 0.387180 0.774644
0.564339 0.429634 0.743277
0.681822 0.497067 0.722764
0.784246 0.569204 0.710088
0.856604 0.644600 0.699667
0.912057 0.707574 0.689707
0.944208 0.761893 0.680613
0.260637 0.430044 0.691951
0.283768 0.424373 0.674880
0.348315 0.415155 0.631522
0.447297 0.431591 0.600810
0.594710 0.496212 0.607110
0.717043 0.574830 0.624912
0.823971 0.655733 0.638606
0.887109 0.718159 0.646329
0.932907 0.773553 0.649309
0.306783 0.577826 0.667733
0.324851 0.570770 0.654642
0.379209 0.551074 0.615681
0.443756 0.530244 0.561837
0.515986 0.519601 0.512998
0.668784 0.602119 0.553982
0.786167 0.681066 0.584647
0.864054 0.740077 0.605513
0.921485 0.794861 0.617419
0.370152 0.711334 0.659302
0.387331 0.707262 0.651293
0.435486 0.695321 0.626496
0.506672 0.681649 0.591756
0.593668 0.674930 0.557695
0.671375 0.685281 0.540054
0.767929 0.726520 0.553334
0.850067 0.778537 0.574374
0.909305 0.829082 0.590984
0.425534 0.808867 0.641676
0.439829 0.806197 0.637003
0.486677 0.798167 0.622121
0.560051 0.788507 0.600610
0.639123 0.782897 0.577016
0.706263 0.786648 0.560027
0.781819 0.803246 0.553471
0.847434 0.835460 0.559951
0.903069 0.862881 0.573961
0.473455 0.870876 0.616924
0.486509 0.869918 0.614323
0.530434 0.867011 0.605876
0.602086 0.863493 0.592175
0.665772 0.861572 0.577541
0.731969 0.863385 0.565941
0.804219 0.870366 0.559859
0.855099 0.882778 0.559990
0.903472 0.900026 0.565822
0.514584 0.911664 0.586448
0.526365 0.911246 0.584978
0.566725 0.910027 0.580170
0.627853 0.908772 0.572986
0.684163 0.908775 0.565390
0.748714 0.911356 0.559462
0.817164 0.917468 0.556762
0.862402 0.927447 0.558007
0.908229 0.937330 0.563002
0.711576 0.511537 0.997266
0.725299 0.514604 0.998051
0.760527 0.524513 0.997787
0.803860 0.545207 0.973540
0.838395 0.578796 0.948257
0.873097 0.624663 0.918289
0.910766 0.677183 0.894210
0.937035 0.722276 0.862458
0.959344 0.768464 0.837431
0.641025 0.500378 0.999451
0.659203 0.503900 0.999631
0.707059 0.517030 0.983389
0.764521 0.539677 0.963949
0.821351 0.575291 0.935914
0.861253 0.622934 0.910332
0.902459 0.676953 0.883230
0.933551 0.722806 0.855213
0.956871 0.769491 0.831414
0.462972 0.478050 0.957604
0.491640 0.481933 0.952448
0.577385 0.497476 0.937196
0.666875 0.526558 0.917868
0.748945 0.566718 0.900128
0.825890 0.619170 0.871161
0.876693 0.677294 0.849075
0.922408 0.725480 0.828835
0.948825 0.773696 0.811878
0.364973 0.496983 0.869204
0.388176 0.497357 0.862406
0.454154 0.503545 0.843037
0.558063 0.524979 0.819098
0.665334 0.564364 0.804158
0.761647 0.620649 0.797036
0.841992 0.682102 0.792820
0.898308 0.733228 0.788486
0.936944 0.783353 0.783020
0.360352 0.583879 0.802347
0.377748 0.580215 0.794183
0.426032 0.570906 0.769584
0.499451 0.566416 0.739564
0.604332 0.584749 0.722477
0.702851 0.637476 0.727626
0.807780 0.697254 0.739318
0.872378 0.750505 0.748054
0.924587 0.801742 0.752492
0.403989 0.702602 0.785074
0.417595 0.699634 0.779112
0.461311 0.690787 0.760086
0.527520 0.680237 0.732703
0.607777 0.673706 0.703810
0.668513 0.675530 0.671440
0.775763 0.729725 0.700376
0.854413 0.782480 0.717206
0.912595 0.832496 0.727289
0.452675 0.799170 0.771977
0.465644 0.797063 0.768214
0.508622 0.790665 0.755974
0.576987 0.782813 0.737762
0.646311 0.778061 0.718238
0.709175 0.781134 0.701066
0.781805 0.797565 0.690960
0.849247 0.834665 0.700330
0.905109 0.863385 0.711477
0.498324 0.866335 0.753364
0.510472 0.865567 0.751131
0.551630 0.863241 0.743773
0.618238 0.860481 0.732558
0.674101 0.859207 0.720150
0.737723 0.861412 0.709407
0.807998 0.868697 0.701625
0.856885 0.881782 0.699398
0.905928 0.900576 0.704358
0.537999 0.909104 0.729982
0.549190 0.908791 0.728764
0.587699 0.907911 0.724722
0.639506 0.907154 0.718487
0.693667 0.907695 0.711503
0.756433 0.910789 0.705409
0.821117 0.917414 0.700142
0.865873 0.928004 0.698918
0.911648 0.937869 0.701579
0.803267 0.603634 0.995016
0.813555 0.605214 0.995561
0.831144 0.611538 0.997192
0.853105 0.625324 0.999324
0.877495 0.648967 0.986560
0.904779 0.679321 0.969982
0.928376 0.711145 0.956011
0.947253 0.747611 0.936289
0.966262 0.786682 0.921064
0.746587 0.596151 0.996537
0.759584 0.597971 0.996982
0.796290 0.605191 0.998340
0.831692 0.620426 0.998374
0.861852 0.645668 0.980885
0.893488 0.677971 0.966091
0.923532 0.710714 0.950672
0.943786 0.747887 0.932610
0.963763 0.787469 0.918495
0.623245 0.577500 0.995602
0.638996 0.579948 0.993191
0.685995 0.589305 0.985619
0.749505 0.607946 0.974941
0.816631 0.637230 0.963835
0.859232 0.674751 0.949842
0.901168 0.710229 0.933658
0.932601 0.749594 0.920652
0.955580 0.790790 0.910025
0.488266 0.575614 0.958244
0.508759 0.577387 0.955821
0.575183 0.585132 0.947827
0.655295 0.602993 0.936937
0.732517 0.633666 0.926140
0.814796 0.674614 0.916915
0.865849 0.713183 0.909336
0.914637 0.755382 0.902904
0.943311 0.798761 0.894271
0.437915 0.620255 0.912990
0.453311 0.619618 0.910771
0.504339 0.619663 0.904002
0.587458 0.627166 0.890742
0.668661 0.649928 0.876733
0.752322 0.684998 0.870001
0.831903 0.724920 0.867914
0.886775 0.769321 0.866693
0.930176 0.814518 0.864318
0.449951 0.705512 0.889756
0.462658 0.703822 0.885516
0.504650 0.699043 0.871872
0.571638 0.694654 0.852181
0.643596 0.696608 0.829970
0.714326 0.713711 0.817972
0.803285 0.750569 0.822275
0.865360 0.795798 0.830748
0.919459 0.840280 0.836475
0.488042 0.794203 0.873730
0.499907 0.792708 0.870732
0.539705 0.788185 0.860839
0.604208 0.782751 0.845502
0.660926 0.779842 0.824501
0.719992 0.782718 0.805275
0.784611 0.793674 0.790744
0.854860 0.838745 0.805049
0.910015 0.866372 0.814794
0.529625 0.863048 0.858178
0.540905 0.862485 0.856295
0.579398 0.860806 0.850022
0.633646 0.858925 0.838838
0.686507 0.858429 0.825064
0.747322 0.861029 0.812402
0.814548 0.868267 0.803438
0.860084 0.881649 0.800557
0.909836 0.902160 0.805271
0.567187 0.907156 0.837002
0.577770 0.906959 0.835682
0.614355 0.906455 0.831270
0.654505 0.906255 0.824346
0.706313 0.907401 0.816370
0.767052 0.911044 0.809077
0.826646 0.918156 0.804000
0.870694 0.929297 0.802118
0.916266 0.938702 0.803445
0.856906 0.683322 0.993081
0.861595 0.684003 0.993615
0.875274 0.686840 0.994873
0.893381 0.693387 0.996649
0.913431 0.705285 0.998527
0.928707 0.723344 0.997627
0.943048 0.747298 0.983588
0.958412 0.776090 0.972214
0.969657 0.808265 0.963033
0.829105 0.678654 0.994331
0.834930 0.679473 0.994675
0.852090 0.682812 0.995769
0.874811 0.690187 0.997346
0.899258 0.703046 0.999044
0.922416 0.722024 0.993990
0.938431 0.746769 0.980997
0.955027 0.776202 0.970362
0.968727 0.808870 0.961704
0.725466 0.664681 0.997427
0.737618 0.666388 0.997646
0.775053 0.671790 0.998361
0.822301 0.681491 0.999436
0.857216 0.697049 0.993721
0.892243 0.718696 0.982483
0.923693 0.745837 0.972615
0.944025 0.777274 0.964278
0.963674 0.811518 0.956492
0.622218 0.654842 0.990578
0.634342 0.656681 0.989385
0.673169 0.663828 0.985484
0.731213 0.675931 0.979567
0.799089 0.693475 0.972829
0.848617 0.717719 0.966235
0.891899 0.747669 0.960273
0.927734 0.781737 0.952018
0.951247 0.818175 0.942855
0.536653 0.674486 0.964298
0.552088 0.675111 0.963480
0.603991 0.678162 0.960866
0.662052 0.686245 0.956153
0.729172 0.701923 0.948428
0.804798 0.726033 0.941769
0.857032 0.757340 0.936366
0.904927 0.793434 0.931757
0.937623 0.831837 0.927403
0.514612 0.723112 0.941076
0.527117 0.722652 0.939587
0.569482 0.721900 0.934781
0.631302 0.723646 0.927843
0.690348 0.732062 0.921031
0.760901 0.750746 0.916405
0.830557 0.780066 0.914432
0.881503 0.816530 0.913858
0.925988 0.849285 0.913273
0.533852 0.796774 0.927689
0.544971 0.795942 0.926468
0.582780 0.793577 0.922405
0.634875 0.791438 0.916090
0.686548 0.792521 0.908934
0.747170 0.800524 0.902751
0.816983 0.820594 0.899863
0.867628 0.848377 0.900975
0.918640 0.872696 0.902781
0.567799 0.861890 0.919121
0.578320 0.861542 0.918288
0.614486 0.860555 0.915487
0.653746 0.859673 0.911029
0.703920 0.860180 0.905743
0.762311 0.863462 0.900622
0.822097 0.870668 0.893103
0.864808 0.882549 0.888063
0.915848 0.905468 0.894414
0.602023 0.906225 0.909968
0.612016 0.906148 0.909468
0.635587 0.906033 0.907784
0.672850 0.906421 0.905098
0.722236 0.908209 0.901926
0.780816 0.912419 0.898107
0.833913 0.919968 0.893439
0.876986 0.931508 0.891453
0.920800 0.939874 0.892482
0.899547 0.739931 0.991127
0.903106 0.740261 0.991534
0.913930 0.741762 0.992855
0.924829 0.745619 0.994533
0.934768 0.753295 0.996205
0.945457 0.765825 0.997833
0.957058 0.783447 0.999296
0.967878 0.805681 0.994609
0.972826 0.831574 0.984370
0.877239 0.736008 0.992253
0.881517 0.736445 0.992617
0.894622 0.738324 0.993763
0.912854 0.742814 0.995112
0.927228 0.751256 0.996653
0.939691 0.764554 0.998171
0.952708 0.782866 0.999549
0.966328 0.805680 0.992803
0.971918 0.832039 0.983047
0.816145 0.724485 0.995080
0.821901 0.725287 0.995272
0.839927 0.728391 0.995906
0.865706 0.734822 0.996897
0.894281 0.745570 0.998070
0.921500 0.761197 0.999263
0.938692 0.781645 0.996351
0.955654 0.806297 0.986829
0.968904 0.834159 0.978628
0.711356 0.714762 0.998191
0.721423 0.715856 0.998307
0.754159 0.719980 0.998696
0.804083 0.728163 0.999317
0.843826 0.741233 0.999287
0.881016 0.759495 0.991611
0.917917 0.782619 0.984293
0.939612 0.809758 0.977638
0.959922 0.839115 0.971693
0.638171 0.720869 0.990916
0.647463 0.721783 0.990208
0.678382 0.725415 0.987855
0.727591 0.733188 0.984168
0.788849 0.746428 0.979799
0.840147 0.765687 0.975338
0.882638 0.790511 0.971121
0.922214 0.819696 0.967238
0.946047 0.846643 0.963634
0.597343 0.752044 0.972716
0.609696 0.752359 0.972158
0.638955 0.754007 0.970326
0.683257 0.758784 0.967549
0.740642 0.768966 0.964486
0.807526 0.786150 0.961720
0.854518 0.810386 0.959489
0.899759 0.839380 0.957268
0.933779 0.860167 0.953937
0.592453 0.808514 0.962554
0.603161 0.808323 0.962070
0.631345 0.808097 0.960455
0.670530 0.809347 0.957807
0.721986 0.814520 0.952175
0.783366 0.826305 0.947303
0.838074 0.843412 0.944202
0.883865 0.861053 0.942809
0.925480 0.881423 0.942071
0.613790 0.863701 0.955521
0.620923 0.863571 0.954796
0.642742 0.863305 0.952350
0.679213 0.863542 0.948430
0.727348 0.865356 0.943749
0.784422 0.869980 0.939219
0.835408 0.878658 0.935792
0.878821 0.892711 0.934439
0.922462 0.911533 0.934925
0.632929 0.906700 0.945969
0.638910 0.906739 0.945514
0.659544 0.907009 0.943974
0.694571 0.907988 0.941497
0.741591 0.910440 0.938530
0.798016 0.915246 0.935660
0.843160 0.923219 0.933468
0.885016 0.934874 0.932430
0.925106 0.941423 0.932871
