velvia_modern/Velvia50_ExtraPunchy.cube
TITLE "Velvia 50 ExtraPunchy"
# Adobe RGB in/out. REPLACES AgX. Velvia 50 color reversal.
LUT_3D_SIZE 65
DOMAIN_MIN 0.0 0.0 0.0
DOMAIN_MAX 1.0 1.0 1.0
0.018066 0.010120 0.011574
0.018066 0.010120 0.011574
0.018103 0.010120 0.011574
0.018431 0.010120 0.011574
0.019133 0.010221 0.011574
0.021079 0.010543 0.011574
0.026104 0.011094 0.011574
0.037366 0.011977 0.011574
0.055042 0.013433 0.011574
0.083424 0.015744 0.011614
0.122223 0.020124 0.011724
0.161853 0.026897 0.011822
0.200406 0.036009 0.011955
0.241278 0.046544 0.012071
0.277522 0.059005 0.012225
0.316081 0.073564 0.012527
0.356841 0.088515 0.012816
0.394826 0.105174 0.013092
0.432512 0.123341 0.013357
0.471216 0.142544 0.013813
0.510856 0.163369 0.014289
0.551357 0.185827 0.014815
0.592649 0.205835 0.015484
0.634667 0.225067 0.016252
0.672231 0.245003 0.017226
0.699602 0.265617 0.018207
0.726733 0.286882 0.019419
0.753618 0.308062 0.020862
0.780253 0.326525 0.022342
0.806633 0.345237 0.024168
0.832755 0.364178 0.026238
0.858616 0.383329 0.028391
0.884214 0.402674 0.030671
0.909549 0.422197 0.033208
0.934619 0.441880 0.035847
0.951700 0.461709 0.038701
0.966576 0.481670 0.041825
0.981151 0.501749 0.045078
0.995434 0.521932 0.048459
1.000000 0.539726 0.051968
1.000000 0.556081 0.055541
1.000000 0.572393 0.059199
1.000000 0.588673 0.062978
1.000000 0.604917 0.066876
1.000000 0.621119 0.070893
1.000000 0.637276 0.075026
1.000000 0.653382 0.078989
1.000000 0.669434 0.082930
1.000000 0.685428 0.086952
1.000000 0.701359 0.091054
1.000000 0.717224 0.095232
1.000000 0.733020 0.099486
1.000000 0.745089 0.103813
1.000000 0.756604 0.108211
1.000000 0.767999 0.112677
1.000000 0.779276 0.117108
1.000000 0.790435 0.121271
1.000000 0.801475 0.125475
1.000000 0.812397 0.129717
1.000000 0.823202 0.133997
1.000000 0.833889 0.138311
1.000000 0.844459 0.142657
1.000000 0.854912 0.147035
1.000000 0.865248 0.151440
1.000000 0.875467 0.155873
0.018066 0.010120 0.011574
0.018066 0.010120 0.011574
0.018066 0.010120 0.011574
0.018309 0.010120 0.011574
0.018946 0.010223 0.011574
0.020749 0.010547 0.011574
0.025075 0.011102 0.011574
0.036036 0.011990 0.011574
0.053272 0.013444 0.011574
0.081112 0.015758 0.011608
0.119763 0.020139 0.011719
0.159722 0.026899 0.011815
0.198163 0.035996 0.011949
0.239097 0.046521 0.012066
0.275696 0.058998 0.012211
0.314330 0.073571 0.012516
0.355157 0.088533 0.012806
0.393450 0.105204 0.013084
0.431202 0.123380 0.013349
0.469964 0.142592 0.013800
0.509657 0.163426 0.014276
0.550206 0.185892 0.014799
0.591542 0.205891 0.015469
0.633601 0.225126 0.016231
0.671574 0.245065 0.017206
0.698980 0.265682 0.018188
0.726144 0.286950 0.019393
0.753060 0.308119 0.020836
0.779722 0.326583 0.022316
0.806127 0.345296 0.024135
0.832272 0.364237 0.026205
0.858155 0.383389 0.028357
0.883774 0.402734 0.030634
0.909127 0.422256 0.033171
0.934214 0.441939 0.035810
0.951464 0.461769 0.038660
0.966351 0.481729 0.041783
0.980937 0.501808 0.045036
0.995230 0.521992 0.048417
1.000000 0.539773 0.051926
1.000000 0.556128 0.055499
1.000000 0.572440 0.059157
1.000000 0.588720 0.062936
1.000000 0.604963 0.066834
1.000000 0.621166 0.070851
1.000000 0.637322 0.074983
1.000000 0.653428 0.078951
1.000000 0.669480 0.082892
1.000000 0.685474 0.086914
1.000000 0.701405 0.091016
1.000000 0.717270 0.095195
1.000000 0.733066 0.099449
1.000000 0.745123 0.103776
1.000000 0.756637 0.108174
1.000000 0.768033 0.112640
1.000000 0.779309 0.117076
1.000000 0.790467 0.121239
1.000000 0.801507 0.125443
1.000000 0.812430 0.129686
1.000000 0.823234 0.133965
1.000000 0.833921 0.138280
1.000000 0.844490 0.142627
1.000000 0.854943 0.147005
1.000000 0.865279 0.151411
1.000000 0.875498 0.155843
0.018066 0.010120 0.011574
0.018066 0.010120 0.011574
0.018066 0.010120 0.011574
0.018144 0.010120 0.011574
0.018607 0.010230 0.011574
0.019759 0.010561 0.011574
0.023138 0.011126 0.011574
0.031927 0.012032 0.011574
0.047667 0.013479 0.011574
0.073636 0.015805 0.011587
0.111601 0.020187 0.011701
0.152503 0.026908 0.011799
0.190500 0.035956 0.011927
0.231217 0.046456 0.012048
0.269380 0.058985 0.012165
0.308243 0.073609 0.012476
0.349277 0.088611 0.012772
0.388620 0.105323 0.013053
0.426589 0.123529 0.013322
0.465547 0.142774 0.013753
0.505419 0.163638 0.014234
0.546131 0.186133 0.014741
0.587618 0.206093 0.015415
0.629817 0.225341 0.016157
0.669234 0.245291 0.017135
0.696768 0.265917 0.018120
0.724047 0.287194 0.019299
0.751068 0.308327 0.020744
0.777828 0.326794 0.022225
0.804322 0.345508 0.024017
0.830550 0.364450 0.026086
0.856509 0.383603 0.028239
0.882199 0.402949 0.030504
0.907618 0.422471 0.033040
0.932767 0.442155 0.035679
0.950617 0.461983 0.038515
0.965545 0.481944 0.041636
0.980169 0.502022 0.044887
0.994497 0.522205 0.048267
1.000000 0.539944 0.051774
1.000000 0.556297 0.055350
1.000000 0.572608 0.059008
1.000000 0.588888 0.062786
1.000000 0.605131 0.066684
1.000000 0.621333 0.070700
1.000000 0.637489 0.074832
1.000000 0.653595 0.078814
1.000000 0.669647 0.082756
1.000000 0.685640 0.086779
1.000000 0.701571 0.090881
1.000000 0.717436 0.095061
1.000000 0.733231 0.099316
1.000000 0.745245 0.103644
1.000000 0.756758 0.108042
1.000000 0.768152 0.112510
1.000000 0.779428 0.116958
1.000000 0.790585 0.121122
1.000000 0.801624 0.125328
1.000000 0.812545 0.129572
1.000000 0.823349 0.133853
1.000000 0.834035 0.138169
1.000000 0.844604 0.142517
1.000000 0.855055 0.146896
1.000000 0.865391 0.151304
1.000000 0.875609 0.155738
0.018066 0.010226 0.011574
0.018066 0.010222 0.011574
0.018066 0.010212 0.011574
0.018137 0.010206 0.011574
0.018416 0.010301 0.011574
0.019108 0.010595 0.011574
0.021192 0.011174 0.011574
0.027330 0.012109 0.011574
0.040421 0.013542 0.011574
0.062638 0.015891 0.011574
0.098940 0.020275 0.011671
0.140763 0.026931 0.011773
0.177873 0.035904 0.011890
0.218156 0.046404 0.012016
0.258681 0.059020 0.012132
0.297815 0.073732 0.012407
0.339107 0.088795 0.012711
0.380180 0.105577 0.012999
0.418479 0.123834 0.013274
0.457742 0.143136 0.013670
0.497897 0.164053 0.014158
0.538873 0.186598 0.014639
0.580607 0.206480 0.015319
0.623036 0.225749 0.016024
0.665019 0.245718 0.017008
0.692775 0.266361 0.017997
0.720257 0.287652 0.019130
0.747464 0.308715 0.020577
0.774395 0.327186 0.022061
0.801047 0.345903 0.023804
0.827422 0.364848 0.025872
0.853517 0.384002 0.028024
0.879333 0.403348 0.030269
0.904871 0.422871 0.032803
0.930131 0.442553 0.035439
0.949072 0.462381 0.038251
0.964074 0.482341 0.041369
0.978767 0.502417 0.044617
0.993159 0.522598 0.047994
1.000000 0.540261 0.051498
1.000000 0.556610 0.055079
1.000000 0.572920 0.058735
1.000000 0.589199 0.062513
1.000000 0.605442 0.066410
1.000000 0.621643 0.070425
1.000000 0.637798 0.074557
1.000000 0.653903 0.078564
1.000000 0.669954 0.082507
1.000000 0.685946 0.086531
1.000000 0.701876 0.090635
1.000000 0.717741 0.094816
1.000000 0.733535 0.099072
1.000000 0.745468 0.103402
1.000000 0.756980 0.107802
1.000000 0.768372 0.112271
1.000000 0.779646 0.116743
1.000000 0.790802 0.120910
1.000000 0.801839 0.125117
1.000000 0.812759 0.129364
1.000000 0.823561 0.133648
1.000000 0.834245 0.137966
1.000000 0.844813 0.142317
1.000000 0.855263 0.146698
1.000000 0.865596 0.151108
1.000000 0.875814 0.155545
0.018066 0.010665 0.011574
0.018066 0.010658 0.011574
0.018077 0.010636 0.011574
0.018161 0.010608 0.011574
0.018429 0.010599 0.011574
0.018757 0.010722 0.011574
0.020135 0.011293 0.011574
0.023713 0.012265 0.011574
0.033574 0.013650 0.011574
0.051862 0.016034 0.011574
0.083724 0.020434 0.011632
0.122507 0.027022 0.011738
0.162015 0.035913 0.011841
0.201570 0.046486 0.011974
0.244632 0.059216 0.012095
0.283877 0.074038 0.012312
0.325317 0.089172 0.012627
0.368547 0.106047 0.012924
0.407194 0.124365 0.013207
0.446795 0.143743 0.013553
0.487275 0.164733 0.014049
0.528564 0.187346 0.014532
0.570597 0.207094 0.015181
0.613313 0.226391 0.015861
0.656656 0.246385 0.016825
0.686986 0.267050 0.017821
0.714748 0.288359 0.018886
0.742213 0.309312 0.020337
0.769383 0.327787 0.021824
0.796258 0.346507 0.023495
0.822839 0.365454 0.025561
0.849127 0.384608 0.027711
0.875124 0.403955 0.029943
0.900831 0.423476 0.032456
0.926249 0.443157 0.035090
0.946793 0.462983 0.037865
0.961902 0.482940 0.040978
0.976694 0.503014 0.044220
0.991180 0.523193 0.047592
1.000000 0.540737 0.051092
1.000000 0.557081 0.054680
1.000000 0.573390 0.058334
1.000000 0.589668 0.062110
1.000000 0.605909 0.066005
1.000000 0.622109 0.070019
1.000000 0.638263 0.074150
1.000000 0.654366 0.078195
1.000000 0.670416 0.082139
1.000000 0.686407 0.086165
1.000000 0.702336 0.090270
1.000000 0.718198 0.094453
1.000000 0.733992 0.098711
1.000000 0.745804 0.103043
1.000000 0.757313 0.107445
1.000000 0.768703 0.111916
1.000000 0.779974 0.116424
1.000000 0.791127 0.120594
1.000000 0.802162 0.124805
1.000000 0.813079 0.129055
1.000000 0.823879 0.133342
1.000000 0.834561 0.137664
1.000000 0.845126 0.142019
1.000000 0.855574 0.146404
1.000000 0.865905 0.150817
1.000000 0.876120 0.155257
0.018066 0.011596 0.011574
0.018066 0.011585 0.011574
0.018094 0.011547 0.011574
0.018216 0.011487 0.011574
0.018528 0.011430 0.011574
0.018855 0.011420 0.011574
0.019477 0.011565 0.011574
0.021795 0.012617 0.011574
0.028544 0.013915 0.011574
0.042621 0.016310 0.011574
0.068328 0.020773 0.011589
0.104366 0.027328 0.011699
0.145357 0.036206 0.011796
0.183606 0.046898 0.011925
0.226382 0.059749 0.012053
0.267732 0.074631 0.012199
0.309030 0.089871 0.012525
0.352496 0.106850 0.012832
0.393392 0.125224 0.013123
0.433259 0.144690 0.013407
0.474019 0.165764 0.013913
0.515596 0.188457 0.014405
0.557919 0.207991 0.015007
0.600925 0.227318 0.015696
0.644555 0.247338 0.016591
0.679498 0.268026 0.017594
0.707596 0.289355 0.018602
0.735375 0.310148 0.020027
0.762838 0.328626 0.021517
0.789987 0.347347 0.023095
0.816825 0.366293 0.025158
0.843355 0.385446 0.027304
0.869579 0.404790 0.029533
0.895500 0.424309 0.032004
0.921119 0.443986 0.034632
0.943771 0.463809 0.037363
0.959019 0.483761 0.040464
0.973941 0.503831 0.043699
0.988548 0.524005 0.047063
1.000000 0.541388 0.050556
1.000000 0.557725 0.054152
1.000000 0.574032 0.057803
1.000000 0.590307 0.061576
1.000000 0.606546 0.065469
1.000000 0.622743 0.069481
1.000000 0.638895 0.073610
1.000000 0.654997 0.077704
1.000000 0.671044 0.081649
1.000000 0.687033 0.085677
1.000000 0.702960 0.089784
1.000000 0.718821 0.093969
1.000000 0.734612 0.098230
1.000000 0.746260 0.102564
1.000000 0.757765 0.106969
1.000000 0.769151 0.111443
1.000000 0.780419 0.115984
1.000000 0.791568 0.120171
1.000000 0.802600 0.124387
1.000000 0.813513 0.128642
1.000000 0.824310 0.132933
1.000000 0.834988 0.137260
1.000000 0.845550 0.141619
1.000000 0.855995 0.146009
1.000000 0.866323 0.150428
1.000000 0.876535 0.154872
0.018066 0.013559 0.011574
0.018066 0.013539 0.011574
0.018110 0.013469 0.011574
0.018284 0.013355 0.011574
0.018605 0.013219 0.011574
0.019073 0.013108 0.011574
0.019827 0.013102 0.011574
0.021161 0.013295 0.011574
0.025400 0.014650 0.011574
0.036683 0.016867 0.011574
0.056716 0.021547 0.011574
0.088828 0.028196 0.011662
0.127013 0.037111 0.011762
0.166266 0.047909 0.011876
0.207266 0.060864 0.012008
0.250819 0.075737 0.012129
0.291551 0.091069 0.012413
0.334601 0.108146 0.012729
0.377928 0.126549 0.013028
0.417886 0.146101 0.013311
0.458788 0.167259 0.013756
0.500544 0.190034 0.014257
0.543077 0.209241 0.014802
0.586313 0.228593 0.015500
0.630187 0.248635 0.016314
0.670496 0.269342 0.017324
0.698958 0.290689 0.018339
0.727082 0.311261 0.019655
0.754871 0.329735 0.021147
0.782330 0.348452 0.022674
0.809461 0.367394 0.024671
0.836268 0.386542 0.026811
0.862755 0.405880 0.029035
0.888924 0.425392 0.031453
0.914780 0.445063 0.034073
0.940021 0.464879 0.036796
0.955437 0.484824 0.039834
0.970516 0.504887 0.043058
0.985270 0.525053 0.046413
0.999711 0.542226 0.049896
1.000000 0.558556 0.053502
1.000000 0.574859 0.057148
1.000000 0.591130 0.060916
1.000000 0.607365 0.064805
1.000000 0.623559 0.068813
1.000000 0.639708 0.072940
1.000000 0.655806 0.077093
1.000000 0.671850 0.081039
1.000000 0.687836 0.085069
1.000000 0.703760 0.089178
1.000000 0.719618 0.093365
1.000000 0.735225 0.097628
1.000000 0.746844 0.101965
1.000000 0.758343 0.106374
1.000000 0.769724 0.110851
1.000000 0.780987 0.115395
1.000000 0.792132 0.119642
1.000000 0.803159 0.123863
1.000000 0.814068 0.128123
1.000000 0.824860 0.132420
1.000000 0.835534 0.136752
1.000000 0.846092 0.141117
1.000000 0.856533 0.145513
1.000000 0.866857 0.149937
1.000000 0.877065 0.154388
0.018066 0.016768 0.011574
0.018066 0.016737 0.011574
0.018127 0.016627 0.011574
0.018348 0.016442 0.011574
0.018668 0.016205 0.011574
0.019259 0.015963 0.011574
0.020339 0.015797 0.011574
0.021673 0.015818 0.011574
0.024430 0.016148 0.011574
0.033133 0.018595 0.011574
0.049308 0.023200 0.011574
0.075942 0.030122 0.011634
0.111205 0.038987 0.011733
0.151006 0.049854 0.011830
0.189655 0.062865 0.011964
0.233182 0.077600 0.012088
0.274128 0.092988 0.012298
0.316334 0.110135 0.012621
0.360877 0.128510 0.012927
0.401504 0.148130 0.013217
0.442330 0.169359 0.013585
0.484087 0.192207 0.014094
0.526680 0.210932 0.014589
0.570023 0.230295 0.015281
0.614043 0.250347 0.016004
0.658670 0.271064 0.017020
0.689051 0.292419 0.018041
0.717524 0.312692 0.019234
0.745650 0.331155 0.020725
0.773432 0.349861 0.022253
0.800873 0.368790 0.024113
0.827977 0.387927 0.026244
0.854748 0.407253 0.028460
0.881189 0.426753 0.030815
0.907305 0.446413 0.033424
0.933100 0.466216 0.036137
0.951185 0.486150 0.039099
0.966443 0.506201 0.042309
0.981365 0.526356 0.045650
0.995966 0.543267 0.049121
1.000000 0.559589 0.052723
1.000000 0.575885 0.056374
1.000000 0.592151 0.060136
1.000000 0.608380 0.064019
1.000000 0.624569 0.068022
1.000000 0.640713 0.072143
1.000000 0.656806 0.076366
1.000000 0.672846 0.080313
1.000000 0.688827 0.084344
1.000000 0.704747 0.088454
1.000000 0.720600 0.092644
1.000000 0.735951 0.096909
1.000000 0.747562 0.101249
1.000000 0.759055 0.105660
1.000000 0.770430 0.110141
1.000000 0.781686 0.114689
1.000000 0.792825 0.119005
1.000000 0.803846 0.123233
1.000000 0.814749 0.127499
1.000000 0.825536 0.131803
1.000000 0.836205 0.136141
1.000000 0.846757 0.140513
1.000000 0.857193 0.144915
1.000000 0.867512 0.149346
1.000000 0.877715 0.153804
0.018066 0.024905 0.011574
0.018080 0.024816 0.011574
0.018151 0.024505 0.011574
0.018443 0.024029 0.011574
0.018823 0.023473 0.011574
0.019544 0.022858 0.011574
0.021034 0.022306 0.011574
0.023253 0.021993 0.011574
0.027085 0.022053 0.011574
0.032911 0.022671 0.011574
0.045160 0.026567 0.011574
0.067550 0.033523 0.011618
0.099588 0.042225 0.011713
0.137934 0.053113 0.011802
0.174540 0.066104 0.011927
0.215499 0.080505 0.012051
0.257779 0.095886 0.012190
0.298721 0.113052 0.012516
0.342195 0.131310 0.012826
0.384916 0.150960 0.013120
0.425400 0.172232 0.013409
0.466924 0.194539 0.013924
0.509375 0.213167 0.014425
0.552653 0.232515 0.015048
0.596670 0.252557 0.015751
0.641347 0.273265 0.016691
0.678138 0.294613 0.017716
0.706934 0.314493 0.018777
0.735380 0.332931 0.020264
0.763476 0.351613 0.021789
0.791224 0.370520 0.023499
0.818627 0.389635 0.025617
0.845688 0.408941 0.027820
0.872410 0.428421 0.030107
0.898798 0.448062 0.032698
0.924855 0.467847 0.035397
0.946307 0.487764 0.038274
0.961761 0.507798 0.041464
0.976870 0.527937 0.044787
0.991648 0.544528 0.048242
1.000000 0.560840 0.051831
1.000000 0.577127 0.055494
1.000000 0.593384 0.059246
1.000000 0.609606 0.063120
1.000000 0.625787 0.067116
1.000000 0.641923 0.071231
1.000000 0.658010 0.075463
1.000000 0.674043 0.079477
1.000000 0.690018 0.083508
1.000000 0.705931 0.087619
1.000000 0.721779 0.091810
1.000000 0.736820 0.096077
1.000000 0.748422 0.100419
1.000000 0.759907 0.104833
1.000000 0.771274 0.109317
1.000000 0.782522 0.113868
1.000000 0.793654 0.118266
1.000000 0.804667 0.122500
1.000000 0.815564 0.126773
1.000000 0.826343 0.131083
1.000000 0.837005 0.135429
1.000000 0.847551 0.139808
1.000000 0.857980 0.144217
1.000000 0.868293 0.148656
1.000000 0.878490 0.153121
0.018095 0.041987 0.011574
0.018119 0.041859 0.011574
0.018222 0.041411 0.011574
0.018566 0.040633 0.011574
0.019124 0.039560 0.011574
0.020335 0.038187 0.011574
0.022177 0.036593 0.011574
0.025380 0.034936 0.011574
0.030358 0.033488 0.011574
0.037032 0.033056 0.011574
0.045888 0.034065 0.011574
0.062600 0.038714 0.011613
0.091708 0.047324 0.011701
0.125982 0.058071 0.011786
0.162347 0.070955 0.011898
0.200520 0.084753 0.012020
0.243209 0.100042 0.012135
0.282533 0.117156 0.012420
0.324581 0.135173 0.012730
0.368824 0.154799 0.013026
0.408679 0.176066 0.013309
0.449711 0.197493 0.013753
0.491788 0.216059 0.014258
0.534794 0.235357 0.014809
0.578625 0.255357 0.015515
0.623191 0.276030 0.016350
0.666501 0.297349 0.017375
0.695568 0.316721 0.018407
0.724292 0.335114 0.019776
0.752671 0.353755 0.021295
0.780703 0.372625 0.022851
0.808388 0.391705 0.024946
0.835728 0.410979 0.027132
0.862726 0.430429 0.029404
0.889384 0.450041 0.031911
0.915704 0.469800 0.034591
0.940860 0.489690 0.037375
0.956521 0.509700 0.040540
0.971828 0.529713 0.043840
0.986800 0.546029 0.047274
1.000000 0.562327 0.050846
1.000000 0.578601 0.054519
1.000000 0.594846 0.058258
1.000000 0.611056 0.062121
1.000000 0.627226 0.066106
1.000000 0.643352 0.070212
1.000000 0.659430 0.074436
1.000000 0.675454 0.078540
1.000000 0.691420 0.082569
1.000000 0.707325 0.086680
1.000000 0.723165 0.090871
1.000000 0.737841 0.095140
1.000000 0.749433 0.099483
1.000000 0.760907 0.103899
1.000000 0.772263 0.108385
1.000000 0.783503 0.112940
1.000000 0.794624 0.117427
1.000000 0.805629 0.121668
1.000000 0.816517 0.125948
1.000000 0.827287 0.130266
1.000000 0.837941 0.134619
1.000000 0.848479 0.139005
1.000000 0.858901 0.143423
1.000000 0.869206 0.147869
1.000000 0.879396 0.152343
0.018139 0.069669 0.011574
0.018158 0.069410 0.011574
0.018376 0.068488 0.011574
0.018689 0.066828 0.011574
0.019409 0.064435 0.011574
0.021039 0.061385 0.011574
0.023697 0.057830 0.011574
0.028305 0.054022 0.011574
0.034164 0.050456 0.011574
0.041530 0.048464 0.011574
0.051591 0.048229 0.011593
0.064859 0.049597 0.011639
0.086368 0.054520 0.011699
0.117634 0.065066 0.011778
0.153025 0.077375 0.011879
0.188428 0.090635 0.011997
0.228832 0.105742 0.012109
0.268258 0.122474 0.012337
0.308605 0.140334 0.012644
0.351653 0.159866 0.012939
0.392731 0.181067 0.013223
0.433014 0.201283 0.013589
0.474477 0.219733 0.014094
0.516989 0.238934 0.014587
0.560433 0.258851 0.015280
0.604704 0.279454 0.016006
0.649709 0.300712 0.017029
0.683691 0.319437 0.018059
0.712631 0.337761 0.019275
0.741240 0.356340 0.020784
0.769514 0.375153 0.022332
0.797448 0.394182 0.024246
0.825041 0.413407 0.026411
0.852293 0.432814 0.028663
0.879205 0.452385 0.031080
0.905778 0.472105 0.033735
0.932016 0.491960 0.036498
0.950785 0.511936 0.039552
0.966296 0.531498 0.042825
0.981475 0.547793 0.046236
0.996340 0.564071 0.049785
1.000000 0.580326 0.053466
1.000000 0.596554 0.057188
1.000000 0.612748 0.061036
1.000000 0.628904 0.065007
1.000000 0.645016 0.069100
1.000000 0.661080 0.073313
1.000000 0.677092 0.077512
1.000000 0.693047 0.081538
1.000000 0.708942 0.085647
1.000000 0.724771 0.089836
1.000000 0.739022 0.094104
1.000000 0.750601 0.098448
1.000000 0.762062 0.102865
1.000000 0.773406 0.107353
1.000000 0.784634 0.111910
1.000000 0.795744 0.116495
1.000000 0.806738 0.120742
1.000000 0.817615 0.125029
1.000000 0.828375 0.129354
1.000000 0.839020 0.133715
1.000000 0.849548 0.138109
1.000000 0.859960 0.142535
1.000000 0.870256 0.146990
1.000000 0.880437 0.151472
0.018194 0.102302 0.011574
0.018276 0.101917 0.011574
0.018508 0.100548 0.011574
0.018917 0.098084 0.011574
0.019902 0.094534 0.011574
0.021647 0.089998 0.011574
0.025184 0.084673 0.011574
0.030873 0.078866 0.011574
0.038048 0.073610 0.011580
0.046546 0.069747 0.011611
0.057813 0.067869 0.011646
0.072262 0.067878 0.011685
0.090489 0.069623 0.011727
0.112066 0.074317 0.011778
0.146213 0.085443 0.011870
0.179057 0.098403 0.011982
0.216746 0.113247 0.012090
0.256115 0.129383 0.012271
0.294593 0.147028 0.012572
0.335899 0.166385 0.012863
0.377973 0.187447 0.013144
0.417277 0.206047 0.013437
0.457902 0.224317 0.013940
0.499705 0.243363 0.014432
0.542557 0.263147 0.015051
0.586344 0.283635 0.015749
0.630958 0.304771 0.016686
0.671563 0.322708 0.017711
0.700638 0.340933 0.018773
0.729410 0.359422 0.020268
0.757866 0.378155 0.021803
0.785999 0.397110 0.023534
0.813804 0.416269 0.025673
0.841276 0.435614 0.027899
0.868414 0.455129 0.030221
0.895218 0.474797 0.032847
0.921688 0.494604 0.035582
0.944618 0.514535 0.038520
0.960340 0.533576 0.041761
0.975729 0.549841 0.045143
0.990796 0.566092 0.048665
1.000000 0.582323 0.052327
1.000000 0.598527 0.056051
1.000000 0.614700 0.059879
1.000000 0.630836 0.063832
1.000000 0.646930 0.067909
1.000000 0.662978 0.072107
1.000000 0.678973 0.076404
1.000000 0.694913 0.080425
1.000000 0.710793 0.084530
1.000000 0.726609 0.088716
1.000000 0.740373 0.092981
1.000000 0.751935 0.097324
1.000000 0.763381 0.101740
1.000000 0.774710 0.106229
1.000000 0.785923 0.110787
1.000000 0.797020 0.115412
1.000000 0.808001 0.119730
1.000000 0.818865 0.124023
1.000000 0.829613 0.128355
1.000000 0.840246 0.132724
1.000000 0.850762 0.137126
1.000000 0.861164 0.141560
1.000000 0.871449 0.146023
1.000000 0.881620 0.150514
0.018330 0.133776 0.011574
0.018403 0.134080 0.011574
0.018615 0.135172 0.011574
0.019150 0.133606 0.011574
0.020407 0.128754 0.011574
0.022646 0.122544 0.011574
0.027082 0.115097 0.011590
0.033591 0.106890 0.011613
0.041684 0.099936 0.011639
0.051952 0.094720 0.011667
0.064382 0.091357 0.011697
0.080271 0.089846 0.011731
0.098125 0.090104 0.011768
0.117929 0.091998 0.011807
0.141404 0.095611 0.011870
0.172028 0.108249 0.011975
0.207237 0.122528 0.012078
0.246096 0.138121 0.012225
0.282653 0.155470 0.012516
0.322107 0.174572 0.012800
0.364320 0.194760 0.013076
0.402816 0.211919 0.013344
0.442410 0.229935 0.013798
0.483311 0.248762 0.014287
0.525382 0.268356 0.014834
0.568499 0.288677 0.015528
0.612549 0.308819 0.016355
0.657427 0.326603 0.017371
0.688544 0.344693 0.018397
0.717396 0.363061 0.019759
0.745964 0.381684 0.021277
0.774235 0.400540 0.022835
0.802197 0.419610 0.024932
0.829844 0.438873 0.027129
0.857169 0.458313 0.029414
0.884169 0.477912 0.031942
0.910843 0.497655 0.034644
0.937195 0.517533 0.037461
0.954032 0.535972 0.040665
0.969627 0.552198 0.044013
0.984894 0.568414 0.047503
0.999845 0.584612 0.051135
1.000000 0.600787 0.054863
1.000000 0.616932 0.058667
1.000000 0.633042 0.062598
1.000000 0.649112 0.066654
1.000000 0.665137 0.070833
1.000000 0.681112 0.075134
1.000000 0.697033 0.079243
1.000000 0.712895 0.083341
1.000000 0.728693 0.087521
1.000000 0.741901 0.091782
1.000000 0.753444 0.096121
1.000000 0.764871 0.100535
1.000000 0.776183 0.105022
1.000000 0.787379 0.109580
1.000000 0.798459 0.114205
1.000000 0.809424 0.118638
1.000000 0.820273 0.122938
1.000000 0.831007 0.127276
1.000000 0.841626 0.131651
1.000000 0.852129 0.136061
1.000000 0.862517 0.140502
1.000000 0.872790 0.144974
1.000000 0.882949 0.149474
0.018452 0.168424 0.011574
0.018513 0.168744 0.011574
0.018699 0.169897 0.011574
0.019346 0.172023 0.011589
0.020837 0.166297 0.011608
0.023485 0.158118 0.011628
0.028682 0.148521 0.011649
0.036169 0.139130 0.011670
0.045282 0.130915 0.011694
0.057139 0.124253 0.011719
0.071380 0.119351 0.011746
0.088528 0.116215 0.011776
0.106168 0.114915 0.011809
0.126432 0.115444 0.011861
0.147833 0.117675 0.011920
0.168159 0.121284 0.011981
0.199931 0.133638 0.012073
0.237496 0.148853 0.012196
0.272722 0.165845 0.012476
0.310311 0.184620 0.012751
0.350704 0.202228 0.013021
0.389814 0.219016 0.013283
0.428234 0.236705 0.013674
0.468075 0.255244 0.014156
0.509201 0.274584 0.014636
0.551485 0.294681 0.015321
0.594806 0.313604 0.016043
0.639055 0.331191 0.017047
0.676558 0.349104 0.018062
0.705401 0.367314 0.019265
0.734002 0.385795 0.020763
0.762339 0.404524 0.022302
0.790396 0.423477 0.024202
0.818161 0.442634 0.026364
0.845625 0.461978 0.028617
0.872780 0.481489 0.031035
0.899623 0.501152 0.033700
0.926174 0.520976 0.036478
