velvia_modern/Velvia50_ExtraPunchy.cube
TITLE "Velvia 50 ExtraPunchy"
# Adobe RGB in/out. REPLACES AgX. Velvia 50 color reversal.
LUT_3D_SIZE 5
DOMAIN_MIN 0.0 0.0 0.0
DOMAIN_MAX 1.0 1.0 1.0
0.018066 0.010120 0.011574
0.356841 0.088515 0.012816
0.884214 0.402674 0.030671
1.000000 0.685428 0.086952
1.000000 0.875467 0.155873
0.018860 0.275451 0.011733
0.212084 0.205138 0.012200
0.755382 0.438722 0.022345
1.000000 0.708378 0.073879
1.000000 0.889845 0.144628
0.033529 0.746619 0.013443
0.282010 0.685718 0.014666
0.673346 0.659941 0.021626
0.990674 0.796831 0.056636
1.000000 0.949717 0.123152
0.078173 0.998356 0.017889
0.294866 0.984622 0.020326
0.687460 0.961340 0.031679
0.960945 0.980742 0.060527
1.000000 1.000000 0.113799
0.129221 1.000000 0.025300
0.294372 1.000000 0.028682
0.665452 1.000000 0.042599
0.946315 1.000000 0.072833
1.000000 1.000000 0.119611
0.018066 0.010159 0.362850
0.371124 0.098589 0.373477
0.864613 0.390184 0.334195
1.000000 0.665466 0.333669
1.000000 0.863610 0.352438
0.018508 0.190709 0.261467
0.124560 0.115292 0.122399
0.716342 0.402984 0.237672
1.000000 0.684179 0.291936
1.000000 0.877573 0.330578
0.029291 0.690874 0.272140
0.253079 0.633448 0.230954
0.621296 0.611430 0.186863
0.973883 0.775395 0.232136
1.000000 0.937562 0.285843
0.072831 0.984770 0.241922
0.283819 0.970416 0.231836
0.674123 0.943065 0.216501
0.951850 0.969678 0.223453
1.000000 1.000000 0.260065
0.126538 1.000000 0.208111
0.290651 1.000000 0.207820
0.660716 1.000000 0.211540
0.943931 1.000000 0.227017
1.000000 1.000000 0.256457
0.018066 0.012085 0.976803
0.371124 0.114650 0.980324
0.950795 0.473340 0.975082
1.000000 0.686441 0.844375
1.000000 0.860476 0.789378
0.018748 0.275723 0.950949
0.313753 0.320820 0.883153
0.788221 0.479732 0.809849
1.000000 0.696900 0.777630
1.000000 0.871985 0.751248
0.024255 0.603533 0.733520
0.214201 0.571080 0.662754
0.531441 0.536100 0.527598
0.958752 0.757776 0.621263
1.000000 0.924590 0.665094
0.062008 0.943779 0.697915
0.261237 0.928676 0.671432
0.639789 0.907959 0.611143
0.928628 0.939577 0.580132
1.000000 1.000000 0.607102
0.119749 1.000000 0.623656
0.281271 1.000000 0.615322
0.646036 1.000000 0.595790
0.937360 1.000000 0.584447
1.000000 1.000000 0.592646
0.018066 0.022393 1.000000
0.371124 0.144348 1.000000
0.962099 0.507802 1.000000
1.000000 0.745277 1.000000
1.000000 0.879565 1.000000
0.018860 0.315776 1.000000
0.382080 0.407228 1.000000
0.902040 0.599133 1.000000
1.000000 0.755214 1.000000
1.000000 0.889852 1.000000
0.024396 0.615921 1.000000
0.240119 0.620589 1.000000
0.675982 0.674052 1.000000
0.985813 0.797033 1.000000
1.000000 0.934767 1.000000
0.053689 0.901513 1.000000
0.242312 0.894117 1.000000
0.612583 0.885780 0.954767
0.897380 0.910355 0.906156
1.000000 1.000000 0.940736
0.111795 1.000000 0.972896
0.270226 1.000000 0.964575
0.629725 1.000000 0.943011
0.927438 1.000000 0.925184
1.000000 1.000000 0.924386
0.018066 0.056601 1.000000
0.371124 0.191318 1.000000
0.962099 0.534627 1.000000
1.000000 0.788877 1.000000
1.000000 0.906246 1.000000
0.018860 0.346476 1.000000
0.382080 0.436509 1.000000
0.957507 0.680065 1.000000
1.000000 0.805211 1.000000
1.000000 0.917571 1.000000
0.028461 0.704157 1.000000
0.286959 0.721622 1.000000
0.749465 0.772473 1.000000
1.000000 0.855379 1.000000
1.000000 0.961616 1.000000
0.051339 0.892954 1.000000
0.239800 0.894384 1.000000
0.633186 0.909618 1.000000
0.943368 0.963868 1.000000
1.000000 1.000000 1.000000
0.105033 1.000000 1.000000
0.260808 1.000000 1.000000
0.617172 1.000000 1.000000
0.921164 1.000000 1.000000
1.000000 1.000000 1.000000
