velvia_modern/Velvia50_ExtraPunchy.cube
TITLE "Velvia 50 ExtraPunchy"
# Adobe RGB in/out. REPLACES AgX. Velvia 50 color reversal.
LUT_3D_SIZE 9
DOMAIN_MIN 0.0 0.0 0.0
DOMAIN_MAX 1.0 1.0 1.0
0.018066 0.010120 0.011574
0.055042 0.013433 0.011574
0.356841 0.088515 0.012816
0.672231 0.245003 0.017226
0.884214 0.402674 0.030671
1.000000 0.556081 0.055541
1.000000 0.685428 0.086952
1.000000 0.790435 0.121271
1.000000 0.875467 0.155873
0.018066 0.024905 0.011574
0.027085 0.022053 0.011574
0.257779 0.095886 0.012190
0.596670 0.252557 0.015751
0.845688 0.408941 0.027820
1.000000 0.560840 0.051831
1.000000 0.690018 0.083508
1.000000 0.793654 0.118266
1.000000 0.878490 0.153121
0.018860 0.275451 0.011733
0.055724 0.236149 0.011850
0.212084 0.205138 0.012200
0.468260 0.300335 0.014316
0.755382 0.438722 0.022345
0.958974 0.581226 0.042778
1.000000 0.708378 0.073879
1.000000 0.806008 0.108736
1.000000 0.889845 0.144628
0.022347 0.539741 0.012352
0.077563 0.507350 0.012590
0.259782 0.448138 0.013205
0.442430 0.437624 0.014662
0.683023 0.514992 0.019920
0.888939 0.629441 0.035590
1.000000 0.745033 0.063158
1.000000 0.831519 0.097006
1.000000 0.912519 0.133332
0.033529 0.746619 0.013443
0.096942 0.731318 0.013748
0.282010 0.685718 0.014666
0.473083 0.654477 0.016904
0.673346 0.659941 0.021626
0.833633 0.716041 0.033026
0.990674 0.796831 0.056636
1.000000 0.874477 0.087911
1.000000 0.949717 0.123152
0.052613 0.889129 0.015251
0.116681 0.880038 0.015599
0.291468 0.855383 0.017092
0.487710 0.831316 0.020170
0.685458 0.822814 0.026273
0.828018 0.835487 0.036845
0.964591 0.871592 0.054936
1.000000 0.937165 0.083347
1.000000 0.992821 0.116522
0.078173 0.998356 0.017889
0.137797 0.994855 0.018330
0.294866 0.984622 0.020326
0.487886 0.972019 0.024385
0.687460 0.961340 0.031679
0.830001 0.964999 0.043358
0.960945 0.980742 0.060527
1.000000 1.000000 0.083052
1.000000 1.000000 0.113799
0.104692 1.000000 0.021319
0.154765 1.000000 0.021903
0.295444 1.000000 0.024293
0.478990 1.000000 0.029190
0.679914 1.000000 0.037198
0.822875 1.000000 0.049836
0.956239 1.000000 0.067066
1.000000 1.000000 0.088743
1.000000 1.000000 0.115284
0.129221 1.000000 0.025300
0.169629 1.000000 0.026036
0.294372 1.000000 0.028682
0.465005 1.000000 0.033903
0.665452 1.000000 0.042599
0.807088 1.000000 0.055508
0.946315 1.000000 0.072833
1.000000 1.000000 0.093850
1.000000 1.000000 0.119611
0.018066 0.010120 0.063698
0.062223 0.014258 0.067099
0.356806 0.089387 0.074518
0.656411 0.235881 0.082478
0.867406 0.390445 0.100051
1.000000 0.545763 0.123336
1.000000 0.676702 0.149624
1.000000 0.785283 0.177802
1.000000 0.871519 0.206684
0.018066 0.020774 0.034062
0.021325 0.015364 0.017088
0.241808 0.087568 0.038978
0.571009 0.239076 0.064047
0.827817 0.395031 0.088731
0.997092 0.550108 0.115760
1.000000 0.681140 0.143775
1.000000 0.788477 0.173500
1.000000 0.874547 0.203168
0.018693 0.247429 0.058766
0.045430 0.205433 0.040998
0.179674 0.171683 0.027001
0.437693 0.275442 0.039135
0.736322 0.420693 0.065212
0.949891 0.569410 0.095381
1.000000 0.699100 0.127597
1.000000 0.800785 0.160541
1.000000 0.885939 0.192252
0.021557 0.512479 0.059838
0.069578 0.479736 0.052749
0.243369 0.422240 0.040702
0.419110 0.413075 0.037764
0.667581 0.495916 0.050989
0.875831 0.617100 0.077958
1.000000 0.738025 0.109622
1.000000 0.826371 0.143347
1.000000 0.908745 0.177542
0.032137 0.733481 0.058949
0.092315 0.714586 0.056359
0.273214 0.669892 0.050857
0.460129 0.639010 0.048655
0.662061 0.645645 0.053377
0.824123 0.705162 0.069108
0.985744 0.790470 0.097001
1.000000 0.869736 0.129445
1.000000 0.946267 0.163935
0.051148 0.880663 0.058577
0.113565 0.871736 0.057917
0.286509 0.847422 0.056699
0.480596 0.823578 0.057443
0.679192 0.815374 0.062556
0.821342 0.828825 0.073734
0.961177 0.866649 0.091890
1.000000 0.933286 0.121514
1.000000 0.991031 0.153790
0.076789 0.994897 0.058887
0.135667 0.991442 0.059110
0.291999 0.981326 0.060274
0.483918 0.967006 0.063534
0.683981 0.956553 0.070274
0.826138 0.960578 0.081348
0.958622 0.978345 0.097261
1.000000 1.000000 0.119092
1.000000 1.000000 0.148854
0.103746 1.000000 0.059589
0.153694 1.000000 0.060229
0.293797 1.000000 0.062658
0.476803 1.000000 0.067579
0.678030 1.000000 0.075839
0.820798 1.000000 0.087251
0.954972 1.000000 0.103317
1.000000 1.000000 0.124039
1.000000 1.000000 0.148737
0.128578 1.000000 0.060331
0.168984 1.000000 0.061165
0.293478 1.000000 0.064218
0.463876 1.000000 0.070067
0.664508 1.000000 0.079048
0.806095 1.000000 0.091155
0.945740 1.000000 0.107610
1.000000 1.000000 0.127880
1.000000 1.000000 0.152156
0.018066 0.010159 0.362850
0.062223 0.015323 0.365170
0.371124 0.098589 0.373477
0.679880 0.254145 0.359889
0.864613 0.390184 0.334195
1.000000 0.537824 0.329670
1.000000 0.665466 0.333669
1.000000 0.776586 0.341884
1.000000 0.863610 0.352438
0.018084 0.040455 0.363661
0.062277 0.062890 0.354930
0.305287 0.127239 0.306282
0.588561 0.250907 0.299210
0.820789 0.391084 0.304104
0.988176 0.540480 0.312505
1.000000 0.669042 0.322804
1.000000 0.779491 0.334493
1.000000 0.866525 0.347153
0.018508 0.190709 0.261467
0.034822 0.160020 0.215179
0.124560 0.115292 0.122399
0.410895 0.255030 0.190475
0.716342 0.402984 0.237672
0.936168 0.554062 0.268154
1.000000 0.684179 0.291936
1.000000 0.790886 0.312207
1.000000 0.877573 0.330578
0.020704 0.450842 0.277040
0.055563 0.425282 0.253396
0.207766 0.374403 0.199200
0.372228 0.364368 0.163820
0.625299 0.461179 0.187631
0.850920 0.594178 0.226670
1.000000 0.720441 0.257052
1.000000 0.815322 0.283843
1.000000 0.900011 0.307748
0.029291 0.690874 0.272140
0.080581 0.674294 0.260565
0.253079 0.633448 0.230954
0.430235 0.603339 0.200411
0.621296 0.611430 0.186863
0.801706 0.679895 0.202020
0.973883 0.775395 0.232136
1.000000 0.858204 0.259602
1.000000 0.937562 0.285843
0.047266 0.857551 0.258238
0.105363 0.849289 0.252650
0.273536 0.826437 0.236904
0.462182 0.803487 0.219540
0.662362 0.795795 0.206535
0.803291 0.810904 0.205800
0.952052 0.853585 0.219957
1.000000 0.922873 0.244223
1.000000 0.986135 0.269588
0.072831 0.984770 0.241922
0.129575 0.981497 0.239370
0.283819 0.970416 0.231836
0.472724 0.952863 0.222873
0.674123 0.943065 0.216501
0.815064 0.947976 0.216355
0.951850 0.969678 0.223453
1.000000 0.995179 0.236960
1.000000 1.000000 0.260065
0.100873 1.000000 0.225610
0.150432 1.000000 0.224650
0.288811 1.000000 0.221834
0.470237 1.000000 0.218708
0.672385 1.000000 0.217246
0.814557 1.000000 0.219990
0.951125 1.000000 0.227253
1.000000 1.000000 0.239469
1.000000 1.000000 0.256207
0.126538 1.000000 0.208111
0.166934 1.000000 0.207982
0.290651 1.000000 0.207820
0.460323 1.000000 0.208556
0.660716 1.000000 0.211540
0.802985 1.000000 0.218074
0.943931 1.000000 0.227017
1.000000 1.000000 0.239803
1.000000 1.000000 0.256457
0.018066 0.010635 0.705556
0.062223 0.017234 0.706984
0.371124 0.104944 0.712099
0.712079 0.284583 0.721458
0.901230 0.421904 0.663349
1.000000 0.550389 0.612022
1.000000 0.668108 0.584480
1.000000 0.774124 0.568818
1.000000 0.858997 0.559164
0.018084 0.045762 0.706055
0.066035 0.072917 0.707482
0.373518 0.178034 0.712596
0.676850 0.309492 0.674958
0.854270 0.421443 0.615741
0.995511 0.551603 0.584730
1.000000 0.670623 0.568113
1.000000 0.776547 0.558308
1.000000 0.861653 0.552057
0.018534 0.202395 0.561440
0.042636 0.201281 0.528128
0.225424 0.222291 0.477005
0.470036 0.306523 0.475931
0.735189 0.423303 0.495109
0.939716 0.558821 0.510651
1.000000 0.681712 0.520366
1.000000 0.786229 0.526119
1.000000 0.871816 0.529543
0.019905 0.399134 0.508564
0.045814 0.383015 0.479605
0.185638 0.345316 0.397228
0.319065 0.316722 0.314432
0.606336 0.447794 0.380327
0.839477 0.584765 0.428378
1.000000 0.710355 0.462455
1.000000 0.807766 0.483909
1.000000 0.892854 0.497925
0.026289 0.642093 0.511082
0.068001 0.629188 0.494473
0.230479 0.595382 0.444996
0.399087 0.566311 0.388148
0.575488 0.572999 0.357455
0.779564 0.655669 0.378421
0.962702 0.761677 0.413320
1.000000 0.847527 0.442884
1.000000 0.929017 0.466215
0.042720 0.827622 0.497394
0.095350 0.820576 0.488278
0.257772 0.800611 0.459772
0.440385 0.779615 0.421460
0.631293 0.772201 0.391554
0.780710 0.788698 0.378890
0.941276 0.838492 0.389740
1.000000 0.911001 0.415148
1.000000 0.980508 0.438960
0.067550 0.968527 0.473443
0.121434 0.963926 0.468249
0.272906 0.950303 0.450867
0.458114 0.934420 0.427674
0.660294 0.925677 0.406858
0.800453 0.931517 0.394367
0.942735 0.955102 0.392437
1.000000 0.989004 0.401802
1.000000 1.000000 0.422481
0.096754 1.000000 0.441354
0.145738 1.000000 0.438548
0.281696 1.000000 0.429666
0.461012 1.000000 0.417279
0.664525 1.000000 0.405559
0.805883 1.000000 0.398130
0.945715 1.000000 0.397075
1.000000 1.000000 0.402751
1.000000 1.000000 0.414226
0.123457 1.000000 0.407755
0.163830 1.000000 0.406570
0.286392 1.000000 0.402813
0.455025 1.000000 0.397639
0.653948 1.000000 0.393105
0.798420 1.000000 0.391244
0.941271 1.000000 0.393487
1.000000 1.000000 0.400440
1.000000 1.000000 0.411935
0.018066 0.012085 0.976803
0.062223 0.022188 0.977571
0.371124 0.114650 0.980324
0.712079 0.292785 0.985365
0.950795 0.473340 0.975082
1.000000 0.580910 0.893784
1.000000 0.686441 0.844375
1.000000 0.780502 0.812198
1.000000 0.860476 0.789378
0.018084 0.054239 0.977072
0.066035 0.081850 0.977839
0.373518 0.188486 0.980591
0.713292 0.344567 0.985631
0.911240 0.475018 0.929863
1.000000 0.582092 0.867559
1.000000 0.688421 0.828331
1.000000 0.782530 0.801899
1.000000 0.862854 0.781335
0.018748 0.275723 0.950949
0.067992 0.285518 0.931376
0.313753 0.320820 0.883153
0.573051 0.384236 0.838681
0.788221 0.479732 0.809849
0.959088 0.587439 0.792133
1.000000 0.696900 0.777630
1.000000 0.790631 0.763816
1.000000 0.871985 0.751248
0.019771 0.394319 0.766924
0.046348 0.389283 0.743346
0.210191 0.383178 0.684138
0.409554 0.408769 0.642806
0.661446 0.494668 0.651242
0.857418 0.603957 0.675198
1.000000 0.718543 0.693744
1.000000 0.808826 0.704248
1.000000 0.891085 0.708308
0.024255 0.603533 0.733520
0.059307 0.594884 0.715588
0.214201 0.571080 0.662754
0.381868 0.546818 0.591114
0.531441 0.536100 0.527598
0.771480 0.648132 0.580801
0.958752 0.757776 0.621263
1.000000 0.843399 0.649102
1.000000 0.924590 0.665094
0.038872 0.797317 0.721961
0.085359 0.791822 0.711016
0.242785 0.775837 0.677339
0.420507 0.757925 0.630720
0.602048 0.749991 0.585671
0.757285 0.765948 0.562607
0.926909 0.825652 0.579952
1.000000 0.901886 0.607647
1.000000 0.976213 0.629691
0.062008 0.943779 0.697915
0.112774 0.939994 0.691569
0.261237 0.928676 0.671432
0.442889 0.915270 0.642538
0.639789 0.907959 0.611143
0.784996 0.914358 0.588735
0.928628 0.939577 0.580132
1.000000 0.982956 0.588634
1.000000 1.000000 0.607102
0.092046 1.000000 0.664428
0.140162 1.000000 0.660927
0.273561 1.000000 0.649588
0.450647 1.000000 0.631278
0.651844 1.000000 0.611838
0.796332 1.000000 0.596515
0.939676 1.000000 0.588513
1.000000 1.000000 0.588686
1.000000 1.000000 0.596359
0.119749 1.000000 0.623656
0.160081 1.000000 0.621703
0.281271 1.000000 0.615322
0.448729 1.000000 0.605812
0.646036 1.000000 0.595790
0.793133 1.000000 0.587992
0.937360 1.000000 0.584447
1.000000 1.000000 0.586081
1.000000 1.000000 0.592646
0.018066 0.015295 1.000000
0.062223 0.030614 1.000000
0.371124 0.127607 1.000000
0.712079 0.303872 1.000000
0.962099 0.497212 1.000000
1.000000 0.620032 1.000000
1.000000 0.715619 1.000000
1.000000 0.794327 1.000000
1.000000 0.867912 0.973520
0.018084 0.066464 1.000000
0.066035 0.094196 1.000000
0.373518 0.200441 1.000000
0.713292 0.353508 1.000000
0.957472 0.533558 1.000000
1.000000 0.622423 1.000000
1.000000 0.717816 1.000000
1.000000 0.796224 0.999427
1.000000 0.870108 0.964783
0.018860 0.304029 1.000000
0.080525 0.324595 1.000000
0.382080 0.396165 1.000000
0.667958 0.462698 1.000000
0.848919 0.545497 1.000000
0.987344 0.630453 1.000000
1.000000 0.726291 0.990468
1.000000 0.803594 0.961044
1.000000 0.878490 0.936530
0.020403 0.442754 1.000000
0.057324 0.445630 1.000000
0.259111 0.460499 0.981673
0.489354 0.500087 0.946953
0.719699 0.564676 0.925412
0.899159 0.647323 0.915179
1.000000 0.742622 0.909131
1.000000 0.819596 0.902923
1.000000 0.895900 0.895105
0.023795 0.592652 0.922807
0.057327 0.588858 0.911086
0.217643 0.579846 0.875948
0.405037 0.578463 0.833447
0.610002 0.607277 0.809447
0.799338 0.682475 0.816665
0.967478 0.770775 0.833100
1.000000 0.849404 0.845423
1.000000 0.926464 0.851699
0.035908 0.773472 0.898042
0.077374 0.769715 0.889525
0.230456 0.758662 0.862455
0.408858 0.745981 0.823793
0.586917 0.739275 0.783390
0.734590 0.744242 0.738614
0.921689 0.822322 0.778614
1.000000 0.900069 0.802071
1.000000 0.974916 0.816191
0.057332 0.920154 0.879354
0.104803 0.917299 0.873999
0.250447 0.908708 0.856627
0.429328 0.898463 0.830909
0.622148 0.893003 0.803514
0.770822 0.898992 0.779573
0.912591 0.924410 0.765552
1.000000 0.978095 0.778551
1.000000 1.000000 0.794070
0.086990 1.000000 0.852932
0.133064 1.000000 0.849772
0.265268 1.000000 0.839380
0.440264 1.000000 0.823589
0.638668 1.000000 0.806189
0.787015 1.000000 0.791184
0.929932 1.000000 0.780350
1.000000 1.000000 0.777255
1.000000 1.000000 0.784152
0.115759 1.000000 0.819970
0.156023 1.000000 0.818260
0.275743 1.000000 0.812592
0.442006 1.000000 0.803862
0.637743 1.000000 0.794108
0.787663 1.000000 0.785615
0.932233 1.000000 0.778289
1.000000 1.000000 0.776588
1.000000 1.000000 0.780286
0.018066 0.022393 1.000000
0.062223 0.043365 1.000000
0.371124 0.144348 1.000000
0.712079 0.315647 1.000000
0.962099 0.507802 1.000000
1.000000 0.659339 1.000000
1.000000 0.745277 1.000000
1.000000 0.812378 1.000000
1.000000 0.879565 1.000000
0.018084 0.082214 1.000000
0.066035 0.110558 1.000000
0.373518 0.214489 1.000000
0.713292 0.364816 1.000000
0.962634 0.548317 1.000000
1.000000 0.663596 1.000000
1.000000 0.747475 1.000000
1.000000 0.814416 1.000000
1.000000 0.881727 1.000000
0.018860 0.315776 1.000000
0.080525 0.336089 1.000000
0.382080 0.407228 1.000000
0.716850 0.530932 1.000000
0.902040 0.599133 1.000000
1.000000 0.676713 1.000000
1.000000 0.755214 1.000000
1.000000 0.822013 1.000000
1.000000 0.889852 1.000000
0.021210 0.510923 1.000000
0.073231 0.517131 1.000000
0.303216 0.538139 1.000000
0.559522 0.573835 1.000000
0.773718 0.627788 1.000000
0.944061 0.698665 1.000000
1.000000 0.770261 1.000000
1.000000 0.837513 1.000000
1.000000 0.906346 1.000000
0.024396 0.615921 1.000000
0.062264 0.616375 1.000000
0.240119 0.620589 1.000000
0.448892 0.636677 1.000000
0.675982 0.674052 1.000000
0.842918 0.736187 1.000000
0.985813 0.797033 1.000000
1.000000 0.864949 1.000000
1.000000 0.934767 1.000000
0.034527 0.763496 1.000000
0.074057 0.761675 1.000000
0.227665 0.756794 1.000000
0.413312 0.753457 0.995000
0.609280 0.759446 0.962689
0.774317 0.786626 0.945326
0.940698 0.841799 0.951545
1.000000 0.909807 0.963817
1.000000 0.977753 0.972130
0.053689 0.901513 1.000000
0.098641 0.899648 1.000000
0.242312 0.894117 1.000000
0.420239 0.887914 0.985262
0.612583 0.885780 0.954767
0.763690 0.892194 0.927018
0.897380 0.910355 0.906156
1.000000 0.977136 0.926693
1.000000 1.000000 0.940736
0.082057 1.000000 1.000000
0.126580 1.000000 1.000000
0.257656 1.000000 0.991850
0.430978 1.000000 0.975563
0.627398 1.000000 0.955581
0.779202 1.000000 0.937286
0.921211 1.000000 0.924377
1.000000 1.000000 0.920235
1.000000 1.000000 0.927013
0.111795 1.000000 0.972896
0.151966 1.000000 0.970979
0.270226 1.000000 0.964575
0.435367 1.000000 0.954543
0.629725 1.000000 0.943011
0.782476 1.000000 0.932492
0.927438 1.000000 0.925184
1.000000 1.000000 0.922477
1.000000 1.000000 0.924386
0.018066 0.036281 1.000000
0.062223 0.061422 1.000000
0.371124 0.165436 1.000000
0.712079 0.329753 1.000000
0.962099 0.520682 1.000000
1.000000 0.693781 1.000000
1.000000 0.768873 1.000000
1.000000 0.831304 1.000000
1.000000 0.893074 1.000000
0.018084 0.101619 1.000000
0.066035 0.130780 1.000000
0.373518 0.231665 1.000000
0.713292 0.378538 1.000000
0.962634 0.558472 1.000000
1.000000 0.700131 1.000000
1.000000 0.771848 1.000000
1.000000 0.833677 1.000000
1.000000 0.895335 1.000000
0.018860 0.329882 1.000000
0.080525 0.350028 1.000000
0.382080 0.420665 1.000000
0.717632 0.542022 1.000000
0.941262 0.644510 1.000000
1.000000 0.719275 1.000000
1.000000 0.781809 1.000000
1.000000 0.842187 1.000000
1.000000 0.903668 1.000000
0.022209 0.567125 1.000000
0.089083 0.573270 1.000000
0.340121 0.594684 1.000000
0.616499 0.631882 1.000000
0.818171 0.683574 1.000000
0.970409 0.744521 1.000000
1.000000 0.799227 1.000000
1.000000 0.858446 1.000000
1.000000 0.920051 1.000000
0.026259 0.658537 1.000000
0.071980 0.661295 1.000000
0.264354 0.672181 1.000000
0.492326 0.695252 1.000000
0.716586 0.734198 1.000000
0.884231 0.775573 1.000000
1.000000 0.827076 1.000000
1.000000 0.885517 1.000000
1.000000 0.947446 1.000000
0.035007 0.771005 1.000000
0.076011 0.771022 1.000000
0.235833 0.772174 1.000000
0.431964 0.778110 1.000000
0.649475 0.794139 1.000000
0.809465 0.824950 1.000000
0.959090 0.871143 1.000000
1.000000 0.928094 1.000000
1.000000 0.984177 1.000000
0.051619 0.891764 1.000000
0.095270 0.890946 1.000000
0.238190 0.888836 1.000000
0.418597 0.887888 1.000000
0.617165 0.892158 1.000000
0.774360 0.906688 1.000000
0.923429 0.938780 1.000000
1.000000 0.985006 1.000000
1.000000 1.000000 1.000000
0.078087 1.000000 1.000000
0.121359 1.000000 1.000000
0.251595 1.000000 1.000000
0.424043 1.000000 1.000000
0.620052 1.000000 1.000000
0.775040 1.000000 1.000000
0.916884 1.000000 1.000000
1.000000 1.000000 1.000000
1.000000 1.000000 1.000000
0.108140 1.000000 1.000000
0.148203 1.000000 1.000000
0.265123 1.000000 1.000000
0.429319 1.000000 1.000000
0.622648 1.000000 1.000000
0.778075 1.000000 1.000000
0.923507 1.000000 1.000000
1.000000 1.000000 1.000000
1.000000 1.000000 1.000000
0.018066 0.056601 1.000000
0.062223 0.084267 1.000000
0.371124 0.191318 1.000000
0.712079 0.346349 1.000000
0.962099 0.534627 1.000000
1.000000 0.719271 1.000000
1.000000 0.788877 1.000000
1.000000 0.848555 1.000000
1.000000 0.906246 1.000000
0.018084 0.125624 1.000000
0.066035 0.155348 1.000000
0.373518 0.252071 1.000000
0.713292 0.394704 1.000000
0.962634 0.570416 1.000000
1.000000 0.729486 1.000000
1.000000 0.792706 1.000000
1.000000 0.851369 1.000000
1.000000 0.908699 1.000000
0.018860 0.346476 1.000000
0.080525 0.366437 1.000000
0.382080 0.436509 1.000000
0.717632 0.554134 1.000000
0.957507 0.680065 1.000000
1.000000 0.749529 1.000000
1.000000 0.805211 1.000000
1.000000 0.861183 1.000000
1.000000 0.917571 1.000000
0.023204 0.610284 1.000000
0.100028 0.617032 1.000000
0.367182 0.640081 1.000000
0.658687 0.678619 1.000000
0.851671 0.729738 1.000000
0.991284 0.775898 1.000000
1.000000 0.825638 1.000000
1.000000 0.878910 1.000000
1.000000 0.934425 1.000000
0.028461 0.704157 1.000000
0.082525 0.707922 1.000000
0.286959 0.721622 1.000000
0.529515 0.744020 1.000000
0.749465 0.772473 1.000000
0.918973 0.810013 1.000000
1.000000 0.855379 1.000000
1.000000 0.906644 1.000000
1.000000 0.961616 1.000000
0.036804 0.790988 1.000000
0.081620 0.792220 1.000000
0.248596 0.797203 1.000000
0.455089 0.808268 1.000000
0.679476 0.828092 1.000000
0.839299 0.858475 1.000000
0.976099 0.899291 1.000000
1.000000 0.948419 1.000000
1.000000 0.992197 1.000000
0.051339 0.892954 1.000000
0.095074 0.893138 1.000000
0.239800 0.894384 1.000000
0.424610 0.898795 1.000000
0.633186 0.909618 1.000000
0.792514 0.930443 1.000000
0.943368 0.963868 1.000000
1.000000 0.996227 1.000000
1.000000 1.000000 1.000000
0.075451 0.997079 1.000000
0.117933 0.997060 1.000000
0.247862 0.997264 1.000000
0.420609 0.998635 1.000000
0.618481 1.000000 1.000000
0.776695 1.000000 1.000000
0.922564 1.000000 1.000000
1.000000 1.000000 1.000000
1.000000 1.000000 1.000000
0.105033 1.000000 1.000000
0.144991 1.000000 1.000000
0.260808 1.000000 1.000000
0.424345 1.000000 1.000000
0.617172 1.000000 1.000000
0.775008 1.000000 1.000000
0.921164 1.000000 1.000000
1.000000 1.000000 1.000000
1.000000 1.000000 1.000000
