velvia_modern/Velvia50_Punchy.cube
TITLE "Velvia 50 Punchy"
# Adobe RGB in/out. REPLACES AgX. Velvia 50 color reversal.
LUT_3D_SIZE 65
DOMAIN_MIN 0.0 0.0 0.0
DOMAIN_MAX 1.0 1.0 1.0
0.025288 0.015046 0.016969
0.025288 0.015046 0.016969
0.025290 0.015046 0.016969
0.025506 0.015046 0.016969
0.026051 0.015164 0.016969
0.027229 0.015555 0.016969
0.030033 0.016199 0.016969
0.036879 0.017164 0.016969
0.048972 0.019022 0.016969
0.067589 0.021656 0.017022
0.097594 0.026314 0.017166
0.131431 0.033612 0.017295
0.166243 0.043654 0.017469
0.196409 0.054816 0.017621
0.228400 0.067797 0.017822
0.261871 0.082609 0.018216
0.291935 0.098253 0.018592
0.323160 0.114670 0.018951
0.355466 0.132546 0.019294
0.386839 0.151060 0.019883
0.415873 0.170692 0.020495
0.445296 0.191573 0.021170
0.475064 0.213012 0.022025
0.505134 0.230760 0.023001
0.535469 0.248992 0.024233
0.566035 0.267684 0.025466
0.596797 0.286808 0.026980
0.627728 0.306342 0.028769
0.651360 0.324805 0.030591
0.671058 0.341434 0.032822
0.690497 0.358171 0.035330
0.709679 0.375002 0.037917
0.728608 0.391915 0.040634
0.747285 0.408898 0.043633
0.765714 0.425938 0.046728
0.783897 0.443024 0.050047
0.801838 0.460147 0.053652
0.819539 0.477297 0.057376
0.837003 0.494465 0.061218
0.854233 0.511643 0.065175
0.871233 0.527409 0.069176
0.881801 0.541250 0.073245
0.891883 0.555023 0.077421
0.901779 0.568726 0.081701
0.911494 0.582356 0.086084
0.921032 0.595910 0.090567
0.930399 0.609387 0.094842
0.939598 0.622785 0.099071
0.948635 0.636100 0.103366
0.957512 0.649331 0.107724
0.966234 0.662477 0.112143
0.974805 0.675535 0.116621
0.983227 0.688503 0.121156
0.991505 0.700908 0.125744
0.999263 0.710359 0.130384
1.000000 0.719698 0.134970
1.000000 0.728925 0.139261
1.000000 0.738040 0.143578
1.000000 0.747046 0.147920
1.000000 0.755942 0.152285
1.000000 0.764729 0.156671
1.000000 0.773408 0.161076
1.000000 0.781981 0.165497
1.000000 0.790446 0.169933
1.000000 0.798806 0.174383
0.025288 0.015046 0.016969
0.025288 0.015046 0.016969
0.025288 0.015046 0.016969
0.025409 0.015046 0.016969
0.025972 0.015167 0.016969
0.026983 0.015561 0.016969
0.029569 0.016209 0.016969
0.036006 0.017179 0.016969
0.047880 0.019035 0.016969
0.066168 0.021672 0.017014
0.095736 0.026329 0.017159
0.129566 0.033613 0.017286
0.164684 0.043638 0.017461
0.194839 0.054790 0.017614
0.226888 0.067787 0.017804
0.260660 0.082613 0.018202
0.290786 0.098269 0.018580
0.322066 0.114697 0.018940
0.354421 0.132584 0.019284
0.385985 0.151104 0.019866
0.415062 0.170743 0.020480
0.444525 0.191631 0.021150
0.474328 0.213061 0.022006
0.504431 0.230812 0.022975
0.534796 0.249047 0.024207
0.565389 0.267740 0.025442
0.596177 0.286867 0.026947
0.627131 0.306401 0.028737
0.650994 0.324855 0.030559
0.670710 0.341484 0.032782
0.690166 0.358222 0.035290
0.709365 0.375053 0.037877
0.728308 0.391966 0.040591
0.746999 0.408948 0.043589
0.765441 0.425988 0.046685
0.783636 0.443074 0.050000
0.801588 0.460197 0.053605
0.819299 0.477347 0.057329
0.836772 0.494514 0.061171
0.854012 0.511691 0.065128
0.871020 0.527448 0.069129
0.881676 0.541288 0.073198
0.891764 0.555061 0.077374
0.901666 0.568764 0.081655
0.911385 0.582394 0.086038
0.920928 0.595948 0.090521
0.930300 0.609425 0.094801
0.939503 0.622822 0.099030
0.948543 0.636138 0.103326
0.957424 0.649369 0.107684
0.966150 0.662514 0.112104
0.974724 0.675572 0.116582
0.983150 0.688540 0.121117
0.991431 0.700935 0.125706
0.999220 0.710386 0.130346
1.000000 0.719725 0.134936
1.000000 0.728951 0.139227
1.000000 0.738067 0.143545
1.000000 0.747072 0.147888
1.000000 0.755968 0.152254
1.000000 0.764755 0.156640
1.000000 0.773434 0.161045
1.000000 0.782006 0.165467
1.000000 0.790472 0.169904
1.000000 0.798831 0.174353
0.025288 0.015046 0.016969
0.025288 0.015046 0.016969
0.025288 0.015046 0.016969
0.025352 0.015046 0.016969
0.025754 0.015176 0.016969
0.026569 0.015578 0.016969
0.028736 0.016239 0.016969
0.033337 0.017232 0.016969
0.044359 0.019078 0.016969
0.061520 0.021728 0.016986
0.089571 0.026381 0.017136
0.123269 0.033615 0.017265
0.159348 0.043586 0.017433
0.189455 0.054716 0.017590
0.221666 0.067764 0.017744
0.256256 0.082642 0.018150
0.286771 0.098337 0.018534
0.318230 0.114803 0.018900
0.350746 0.132724 0.019249
0.382971 0.151267 0.019806
0.412197 0.170932 0.020425
0.441795 0.191844 0.021076
0.471721 0.213241 0.021937
0.501936 0.231002 0.022881
0.532404 0.249246 0.024118
0.563092 0.267946 0.025357
0.593969 0.287078 0.026830
0.625005 0.306618 0.028623
0.649688 0.325037 0.030448
0.669470 0.341667 0.032638
0.688988 0.358405 0.035147
0.708242 0.375236 0.037735
0.727238 0.392149 0.040436
0.745977 0.409130 0.043435
0.764464 0.426169 0.046531
0.782701 0.443254 0.049831
0.800691 0.460376 0.053435
0.818439 0.477525 0.057159
0.835947 0.494691 0.061001
0.853219 0.511866 0.064957
0.870258 0.527588 0.068963
0.881229 0.541428 0.073033
0.891338 0.555201 0.077209
0.901259 0.568903 0.081490
0.910996 0.582532 0.085874
0.920556 0.596086 0.090358
0.929943 0.609562 0.094654
0.939162 0.622958 0.098885
0.948216 0.636273 0.103181
0.957111 0.649504 0.107541
0.965849 0.662648 0.111962
0.974435 0.675705 0.116442
0.982872 0.688673 0.120979
0.991164 0.701033 0.125569
0.999067 0.710483 0.130211
1.000000 0.719821 0.134815
1.000000 0.729047 0.139108
1.000000 0.738161 0.143428
1.000000 0.747166 0.147772
1.000000 0.756061 0.152139
1.000000 0.764847 0.156527
1.000000 0.773526 0.160934
1.000000 0.782097 0.165358
1.000000 0.790562 0.169796
1.000000 0.798921 0.174248
0.025288 0.015170 0.016969
0.025288 0.015165 0.016969
0.025288 0.015151 0.016969
0.025356 0.015144 0.016969
0.025556 0.015233 0.016969
0.026084 0.015623 0.016969
0.027576 0.016301 0.016969
0.031106 0.017327 0.016969
0.039634 0.019154 0.016969
0.054757 0.021828 0.016969
0.080007 0.026475 0.017096
0.113156 0.033629 0.017231
0.148026 0.043517 0.017384
0.180501 0.054648 0.017549
0.212853 0.067785 0.017700
0.247586 0.082749 0.018059
0.279821 0.098504 0.018455
0.311540 0.115035 0.018830
0.344295 0.133016 0.019187
0.377644 0.151594 0.019698
0.407112 0.171304 0.020327
0.436931 0.192256 0.020945
0.467061 0.213586 0.021815
0.497465 0.231364 0.022713
0.528108 0.249622 0.023957
0.558959 0.268335 0.025203
0.589987 0.287477 0.026619
0.621165 0.307024 0.028417
0.647321 0.325378 0.030247
0.667222 0.342008 0.032379
0.686847 0.358746 0.034889
0.706202 0.375577 0.037477
0.725291 0.392488 0.040157
0.744117 0.409468 0.043156
0.762684 0.426505 0.046251
0.780996 0.443588 0.049525
0.799057 0.460708 0.053128
0.816871 0.477854 0.056851
0.834441 0.495018 0.060691
0.851771 0.512190 0.064647
0.868865 0.527848 0.068660
0.880413 0.541687 0.072730
0.890559 0.555458 0.076908
0.900514 0.569159 0.081190
0.910285 0.582787 0.085575
0.919875 0.596339 0.090060
0.929291 0.609814 0.094385
0.938537 0.623210 0.098618
0.947617 0.636523 0.102917
0.956536 0.649752 0.107280
0.965297 0.662896 0.111704
0.973905 0.675952 0.116186
0.982363 0.688918 0.120725
0.990674 0.701214 0.125319
0.998786 0.710663 0.129963
1.000000 0.719999 0.134592
1.000000 0.729223 0.138889
1.000000 0.738336 0.143212
1.000000 0.747339 0.147560
1.000000 0.756232 0.151930
1.000000 0.765017 0.156321
1.000000 0.773694 0.160731
1.000000 0.782264 0.165158
1.000000 0.790728 0.169599
1.000000 0.799086 0.174054
0.025288 0.015713 0.016969
0.025288 0.015704 0.016969
0.025337 0.015675 0.016969
0.025404 0.015638 0.016969
0.025627 0.015627 0.016969
0.025958 0.015753 0.016969
0.026843 0.016454 0.016969
0.029247 0.017523 0.016969
0.035195 0.019288 0.016969
0.048220 0.021999 0.016969
0.069688 0.026650 0.017045
0.100272 0.033715 0.017185
0.133976 0.043510 0.017320
0.169076 0.054713 0.017494
0.201351 0.067965 0.017653
0.236059 0.083039 0.017936
0.270384 0.098857 0.018346
0.302348 0.115471 0.018733
0.335347 0.133529 0.019099
0.369308 0.152148 0.019547
0.399930 0.171917 0.020188
0.430022 0.192923 0.020808
0.460408 0.214137 0.021639
0.491053 0.231936 0.022506
0.521924 0.250211 0.023726
0.552989 0.268938 0.024981
0.584220 0.288092 0.026316
0.615589 0.307649 0.028119
0.643868 0.325899 0.029955
0.663934 0.342529 0.032002
0.683714 0.359265 0.034513
0.703211 0.376094 0.037102
0.722432 0.393003 0.039769
0.741382 0.409980 0.042747
0.760064 0.427014 0.045842
0.778484 0.444093 0.049077
0.796647 0.461209 0.052677
0.814556 0.478351 0.056397
0.832216 0.495510 0.060236
0.849630 0.512679 0.064190
0.866805 0.528240 0.068214
0.879204 0.542076 0.072285
0.889404 0.555845 0.076463
0.899411 0.569544 0.080746
0.909229 0.583170 0.085133
0.918865 0.596721 0.089620
0.928324 0.610194 0.093987
0.937610 0.623587 0.098224
0.946728 0.636899 0.102527
0.955682 0.650126 0.106893
0.964478 0.663268 0.111321
0.973118 0.676322 0.115807
0.981606 0.689287 0.120350
0.989946 0.701486 0.124947
0.998142 0.710932 0.129596
1.000000 0.720265 0.134263
1.000000 0.729487 0.138564
1.000000 0.738598 0.142891
1.000000 0.747599 0.147244
1.000000 0.756490 0.151619
1.000000 0.765273 0.156015
1.000000 0.773948 0.160429
1.000000 0.782515 0.164861
1.000000 0.790977 0.169307
1.000000 0.799333 0.173766
0.025316 0.016844 0.016969
0.025335 0.016829 0.016969
0.025387 0.016780 0.016969
0.025552 0.016704 0.016969
0.025818 0.016629 0.016969
0.026049 0.016618 0.016969
0.026623 0.016807 0.016969
0.028398 0.017970 0.016969
0.032271 0.019560 0.016969
0.042221 0.022332 0.016969
0.060064 0.027034 0.016989
0.086506 0.034042 0.017134
0.119493 0.043809 0.017261
0.155880 0.055120 0.017430
0.188454 0.068488 0.017597
0.222810 0.083677 0.017788
0.259228 0.099524 0.018213
0.291306 0.116227 0.018613
0.324450 0.134368 0.018991
0.358580 0.153017 0.019358
0.390968 0.172851 0.020012
0.421332 0.193917 0.020645
0.451983 0.214944 0.021416
0.482886 0.232763 0.022295
0.514005 0.251054 0.023430
0.545309 0.269795 0.024696
0.576770 0.288960 0.025961
0.608361 0.308526 0.027735
0.639363 0.326627 0.029576
0.659634 0.343254 0.031514
0.679605 0.359986 0.034024
0.699281 0.376811 0.036614
0.718669 0.393714 0.039281
0.737775 0.410686 0.042213
0.756604 0.427713 0.045306
0.775163 0.444787 0.048494
0.793455 0.461896 0.052085
0.811487 0.479031 0.055801
0.829262 0.496184 0.059636
0.846786 0.513347 0.063586
0.864067 0.528775 0.067624
0.877593 0.542608 0.071696
0.887865 0.556374 0.075874
0.897939 0.570070 0.080159
0.907821 0.583692 0.084546
0.917516 0.597240 0.089035
0.927031 0.610710 0.093458
0.936370 0.624101 0.097699
0.945539 0.637410 0.102006
0.954541 0.650635 0.106377
0.963381 0.663774 0.110810
0.972064 0.676825 0.115301
0.980592 0.689788 0.119849
0.988971 0.701855 0.124451
0.997203 0.711297 0.129105
1.000000 0.720627 0.133808
1.000000 0.729846 0.138129
1.000000 0.738953 0.142463
1.000000 0.747951 0.146821
1.000000 0.756839 0.151202
1.000000 0.765619 0.155604
1.000000 0.774291 0.160025
1.000000 0.782855 0.164462
1.000000 0.791314 0.168915
1.000000 0.799667 0.173380
0.025381 0.019155 0.016969
0.025394 0.019130 0.016969
0.025489 0.019043 0.016969
0.025743 0.018899 0.016969
0.025988 0.018728 0.016969
0.026374 0.018589 0.016969
0.026895 0.018584 0.016969
0.028000 0.018830 0.016969
0.030808 0.020277 0.016969
0.038439 0.023009 0.016969
0.052902 0.027925 0.016969
0.075077 0.034992 0.017085
0.106520 0.044769 0.017216
0.140625 0.056160 0.017365
0.175503 0.069605 0.017538
0.209082 0.084885 0.017696
0.245251 0.100683 0.018067
0.279217 0.117457 0.018479
0.312318 0.135669 0.018867
0.346463 0.154319 0.019235
0.380679 0.174212 0.019810
0.411253 0.195335 0.020455
0.442126 0.216073 0.021154
0.473257 0.233904 0.022045
0.504606 0.252206 0.023080
0.536142 0.270954 0.024356
0.567832 0.290125 0.025631
0.599648 0.309696 0.027274
0.631566 0.327592 0.029121
0.654389 0.344211 0.030998
0.674578 0.360934 0.033433
0.694459 0.377749 0.036021
0.714041 0.394643 0.038686
0.733330 0.411605 0.041561
0.752332 0.428622 0.044650
0.771054 0.445686 0.047835
0.789501 0.462785 0.051358
0.807678 0.479911 0.055068
0.825592 0.497055 0.058896
0.843248 0.514208 0.062842
0.860658 0.529466 0.066896
0.875584 0.543294 0.070966
0.885943 0.557055 0.075145
0.896099 0.570746 0.079429
0.906059 0.584364 0.083818
0.915828 0.597908 0.088307
0.925412 0.611374 0.092799
0.934817 0.624760 0.097045
0.944047 0.638065 0.101357
0.953108 0.651286 0.105734
0.962004 0.664422 0.110171
0.970740 0.677470 0.114668
0.979319 0.690428 0.119222
0.987745 0.702327 0.123830
0.996023 0.711765 0.128490
1.000000 0.721090 0.133199
1.000000 0.730304 0.137583
1.000000 0.739407 0.141924
1.000000 0.748401 0.146290
1.000000 0.757285 0.150679
1.000000 0.766061 0.155088
1.000000 0.774729 0.159517
1.000000 0.783290 0.163962
1.000000 0.791745 0.168421
1.000000 0.800094 0.172894
0.025510 0.022862 0.016969
0.025560 0.022824 0.016969
0.025714 0.022691 0.016969
0.025926 0.022466 0.016969
0.026220 0.022178 0.016969
0.026764 0.021884 0.016969
0.027580 0.021683 0.016969
0.028801 0.021713 0.016969
0.030530 0.022121 0.016969
0.036490 0.024456 0.016969
0.048675 0.029826 0.016969
0.067461 0.037110 0.017048
0.094920 0.046772 0.017178
0.127601 0.058175 0.017306
0.163621 0.071624 0.017481
0.195990 0.086940 0.017643
0.231128 0.102551 0.017918
0.266906 0.119357 0.018339
0.299706 0.137517 0.018736
0.333646 0.156201 0.019112
0.368623 0.176132 0.019589
0.400250 0.197295 0.020245
0.431251 0.217605 0.020881
0.462534 0.235431 0.021766
0.494056 0.253729 0.022687
0.525777 0.272473 0.023973
0.557663 0.291639 0.025257
0.589681 0.311205 0.026749
0.621803 0.328829 0.028600
0.648303 0.345431 0.030482
0.668724 0.362137 0.032755
0.688826 0.378936 0.035338
0.708619 0.395814 0.037999
0.728108 0.412760 0.040805
0.747300 0.429762 0.043887
0.766203 0.446811 0.047066
0.784823 0.463896 0.050509
0.803165 0.481008 0.054208
0.821236 0.498138 0.058028
0.839041 0.515278 0.061966
0.856601 0.530326 0.066023
0.873185 0.544146 0.070105
0.883647 0.557900 0.074282
0.893899 0.571584 0.078566
0.903950 0.585196 0.082953
0.913805 0.598734 0.087443
0.923470 0.612194 0.092015
0.932952 0.625575 0.096266
0.942256 0.638874 0.100583
0.951386 0.652090 0.104965
0.960348 0.665221 0.109408
0.969146 0.678264 0.113911
0.977785 0.691218 0.118471
0.986268 0.702908 0.123085
0.994600 0.712340 0.127752
1.000000 0.721659 0.132468
1.000000 0.730868 0.136927
1.000000 0.739965 0.141277
1.000000 0.748953 0.145652
1.000000 0.757832 0.150049
1.000000 0.766603 0.154468
1.000000 0.775266 0.158904
1.000000 0.783823 0.163358
1.000000 0.792273 0.167826
1.000000 0.800618 0.172308
0.025808 0.031559 0.016969
0.025846 0.031479 0.016969
0.025967 0.031202 0.016969
0.026211 0.030725 0.016969
0.026731 0.030091 0.016969
0.027539 0.029390 0.016969
0.028784 0.028760 0.016969
0.030319 0.028404 0.016969
0.032826 0.028480 0.016969
0.037182 0.029201 0.016969
0.046705 0.033140 0.016969
0.062813 0.040827 0.017027
0.086751 0.050219 0.017151
0.117487 0.061548 0.017268
0.151936 0.074894 0.017432
0.184376 0.090084 0.017595
0.218117 0.105377 0.017777
0.254649 0.122150 0.018202
0.287319 0.140162 0.018605
0.320799 0.158834 0.018987
0.355425 0.178765 0.019361
0.388809 0.199937 0.020026
0.419801 0.219635 0.020670
0.451124 0.237429 0.021469
0.482723 0.255699 0.022364
0.514551 0.274418 0.023558
0.546567 0.293563 0.024849
0.578734 0.313110 0.026178
0.611020 0.330379 0.028029
0.641508 0.346951 0.029912
0.662159 0.363630 0.032007
0.682485 0.380402 0.034580
0.702493 0.397255 0.037233
0.722189 0.414177 0.039964
0.741581 0.431157 0.043032
0.760676 0.448184 0.046201
0.779479 0.465249 0.049552
0.797998 0.482341 0.053238
0.816238 0.499452 0.057045
0.834208 0.516575 0.060972
0.851935 0.531368 0.065021
0.869429 0.545178 0.069123
0.880993 0.558922 0.073296
0.891353 0.572597 0.077577
0.901506 0.586200 0.081963
0.911458 0.599729 0.086451
0.921216 0.613181 0.091040
0.930786 0.626555 0.095367
0.940172 0.639847 0.099690
0.949382 0.653056 0.104076
0.958419 0.666179 0.108525
0.967289 0.679216 0.113034
0.975996 0.692164 0.117601
0.984544 0.703604 0.122222
0.992938 0.713028 0.126896
1.000000 0.722340 0.131619
1.000000 0.731542 0.136165
1.000000 0.740633 0.140524
1.000000 0.749614 0.144908
1.000000 0.758487 0.149315
1.000000 0.767251 0.153743
1.000000 0.775908 0.158190
1.000000 0.784459 0.162653
1.000000 0.792903 0.167131
1.000000 0.801243 0.171622
0.026135 0.049836 0.016969
0.026214 0.049701 0.016969
0.026471 0.049226 0.016969
0.026868 0.048402 0.016969
0.027777 0.047262 0.016969
0.029016 0.045799 0.016969
0.030811 0.044091 0.016969
0.033174 0.042309 0.016969
0.037007 0.040745 0.016969
0.041565 0.040284 0.016969
0.048563 0.041394 0.016969
0.060660 0.046434 0.017021
0.081810 0.055470 0.017137
0.110394 0.066649 0.017248
0.142011 0.079773 0.017394
0.174755 0.094302 0.017554
0.206828 0.109430 0.017704
0.241837 0.126081 0.018076
0.275744 0.143814 0.018480
0.308506 0.162409 0.018865
0.342541 0.182284 0.019232
0.377393 0.203418 0.019806
0.408213 0.222267 0.020456
0.439432 0.239990 0.021163
0.470984 0.258200 0.022065
0.502813 0.276867 0.023126
0.534868 0.295966 0.024421
0.567106 0.315472 0.025716
0.599488 0.332287 0.027424
0.631981 0.348813 0.029304
0.655020 0.365449 0.031215
0.675557 0.382181 0.033767
0.695773 0.398998 0.036407
0.715673 0.415885 0.039126
0.735263 0.432833 0.042103
0.754551 0.449830 0.045257
0.773542 0.466865 0.048509
0.792242 0.483931 0.052173
0.810659 0.501016 0.055963
0.828805 0.518123 0.059875
0.846708 0.532608 0.063913
0.864372 0.546403 0.068035
0.878004 0.560134 0.072201
0.888482 0.573796 0.076476
0.898747 0.587387 0.080857
0.908806 0.600905 0.085342
0.918665 0.614347 0.089929
0.928330 0.627710 0.094359
0.937809 0.640993 0.098685
0.947106 0.654192 0.103076
0.956227 0.667307 0.107531
0.965176 0.680336 0.112045
0.973959 0.693275 0.116618
0.982580 0.704420 0.121246
0.991043 0.713835 0.125926
0.999090 0.723139 0.130657
1.000000 0.732332 0.135299
1.000000 0.741414 0.139669
1.000000 0.750388 0.144063
1.000000 0.759252 0.148480
1.000000 0.768009 0.152919
1.000000 0.776659 0.157376
1.000000 0.785203 0.161850
1.000000 0.793640 0.166339
1.000000 0.801973 0.170841
0.026916 0.078258 0.016969
0.026979 0.077999 0.016969
0.027400 0.077073 0.016969
0.028260 0.075404 0.016969
0.029312 0.072990 0.016969
0.031298 0.069897 0.016969
0.033835 0.066272 0.016969
0.037918 0.062361 0.016969
0.042048 0.058674 0.016969
0.047737 0.056607 0.016969
0.054591 0.056375 0.016994
0.064342 0.057820 0.017055
0.079481 0.062952 0.017134
0.106032 0.073776 0.017237
0.135055 0.086583 0.017369
0.167327 0.100118 0.017523
0.197587 0.114968 0.017670
0.230877 0.131397 0.017968
0.265412 0.148688 0.018369
0.297224 0.167124 0.018752
0.330443 0.186874 0.019120
0.364934 0.207907 0.019594
0.396882 0.225614 0.020245
0.427838 0.243218 0.020879
0.459202 0.261324 0.021765
0.490905 0.279902 0.022690
0.522888 0.298923 0.023984
0.555099 0.318280 0.025280
0.587492 0.334604 0.026800
0.620029 0.351061 0.028673
0.647451 0.367636 0.030578
0.668176 0.384312 0.032917
0.688581 0.401076 0.035539
0.708670 0.417916 0.038242
0.728448 0.434819 0.041119
0.747921 0.451774 0.044253
0.767095 0.468771 0.047487
0.785974 0.485800 0.051033
0.804567 0.502853 0.054800
0.822899 0.519943 0.058695
0.840982 0.534062 0.062717
0.858821 0.547838 0.066856
0.874709 0.561551 0.071012
0.885312 0.575196 0.075278
0.895696 0.588772 0.079651
0.905868 0.602275 0.084130
0.915835 0.615702 0.088712
0.925605 0.629053 0.093251
0.935182 0.642323 0.097580
0.944574 0.655511 0.101975
0.953785 0.668614 0.106433
0.962821 0.681632 0.110952
0.971686 0.694561 0.115530
0.980386 0.705364 0.120164
0.988925 0.714768 0.124851
0.997307 0.724061 0.129589
1.000000 0.733243 0.134337
1.000000 0.742315 0.138716
1.000000 0.751279 0.143121
1.000000 0.760135 0.147549
1.000000 0.768882 0.151999
1.000000 0.777524 0.156467
1.000000 0.786059 0.160952
1.000000 0.794488 0.165452
1.000000 0.802813 0.169965
0.028442 0.111323 0.016969
0.028576 0.110949 0.016969
0.029029 0.109617 0.016969
0.029893 0.107214 0.016969
0.031880 0.103740 0.016969
0.034605 0.099281 0.016969
0.038738 0.094015 0.016969
0.043205 0.088094 0.016969
0.048473 0.082288 0.016977
0.054439 0.078425 0.017018
0.062508 0.076546 0.017064
0.072600 0.076573 0.017115
0.085573 0.078352 0.017171
0.103632 0.083125 0.017236
0.130719 0.094923 0.017358
0.162038 0.107747 0.017504
0.190473 0.122222 0.017645
0.221963 0.138196 0.017883
0.256428 0.154991 0.018275
0.287268 0.173178 0.018653
0.319480 0.192720 0.019018
0.353086 0.212929 0.019397
0.386140 0.229789 0.020046
0.416674 0.247215 0.020679
0.447701 0.265167 0.021472
0.479143 0.283611 0.022362
0.510931 0.302514 0.023551
0.543004 0.321163 0.024843
0.575309 0.337383 0.026174
0.607800 0.353745 0.028034
0.639605 0.370234 0.029929
0.660481 0.386833 0.032050
0.681044 0.403527 0.034647
0.701297 0.420302 0.037328
0.721243 0.437146 0.040099
0.740886 0.454047 0.043208
0.760229 0.470993 0.046418
0.779278 0.487975 0.049838
0.798048 0.504994 0.053578
0.816562 0.521941 0.057450
0.834824 0.535750 0.061451
0.852837 0.549500 0.065578
0.870607 0.563189 0.069745
0.881873 0.576812 0.073998
0.892380 0.590368 0.078361
0.902670 0.603851 0.082830
0.912751 0.617261 0.087403
0.922629 0.630594 0.092057
0.932311 0.643849 0.096386
0.941802 0.657022 0.100782
0.951109 0.670111 0.105243
0.960237 0.683115 0.109765
0.969191 0.696032 0.114347
0.977976 0.706442 0.118986
0.986596 0.715832 0.123679
0.995056 0.725112 0.128423
1.000000 0.734281 0.133216
1.000000 0.743342 0.137674
1.000000 0.752294 0.142089
1.000000 0.761138 0.146528
1.000000 0.769876 0.150988
1.000000 0.778506 0.155468
1.000000 0.787031 0.159965
1.000000 0.795451 0.164476
1.000000 0.803767 0.169002
0.029916 0.142057 0.016969
0.030221 0.142347 0.016969
0.031292 0.143389 0.016969
0.032842 0.141907 0.016969
0.035640 0.137291 0.016969
0.039476 0.131144 0.016969
0.044150 0.123771 0.016990
0.049435 0.115849 0.017021
0.055161 0.109090 0.017054
0.062683 0.103991 0.017091
0.071541 0.100694 0.017131
0.082420 0.099219 0.017176
0.096036 0.099492 0.017224
0.111527 0.101383 0.017275
0.128533 0.104962 0.017358
0.158469 0.117331 0.017496
0.185375 0.131368 0.017630
0.215094 0.146497 0.017821
0.247788 0.162906 0.018202
0.278815 0.180754 0.018572
0.309881 0.200003 0.018930
0.342448 0.218323 0.019277
0.376247 0.234902 0.019864
0.406209 0.252084 0.020493
0.436756 0.269825 0.021195
0.467801 0.288083 0.022081
0.499267 0.306822 0.023132
0.531086 0.324599 0.024416
0.563195 0.340678 0.025703
0.595542 0.356916 0.027402
0.628079 0.373292 0.029281
0.652610 0.389789 0.031195
0.673293 0.406391 0.033750
0.693676 0.423082 0.036403
0.713761 0.439849 0.039139
0.733548 0.456678 0.042140
0.753042 0.473560 0.045320
0.772247 0.490485 0.048608
0.791189 0.507468 0.052318
0.809875 0.523917 0.056161
0.828307 0.537690 0.060135
0.846490 0.551407 0.064238
0.864427 0.565066 0.068419
0.878199 0.578661 0.072655
0.888831 0.592190 0.077002
0.899242 0.605650 0.081458
0.909439 0.619037 0.086019
0.919429 0.632349 0.090684
0.929218 0.645583 0.095115
0.938813 0.658737 0.099511
0.948220 0.671809 0.103972
0.957444 0.684796 0.108496
0.966490 0.697696 0.113080
0.975363 0.707660 0.117722
0.984069 0.717034 0.122419
0.992611 0.726298 0.127169
1.000000 0.735453 0.131968
1.000000 0.744500 0.136549
1.000000 0.753438 0.140974
1.000000 0.762269 0.145424
1.000000 0.770994 0.149895
1.000000 0.779612 0.154385
1.000000 0.788126 0.158894
1.000000 0.796534 0.163417
1.000000 0.804839 0.167955
0.032583 0.174616 0.016969
0.032862 0.174915 0.016969
0.034158 0.175989 0.016969
0.037327 0.177969 0.016989
0.040569 0.172662 0.017014
0.045075 0.165047 0.017041
0.050245 0.156058 0.017067
0.055892 0.147204 0.017096
0.063380 0.139410 0.017126
0.071770 0.132927 0.017160
0.081677 0.128005 0.017196
0.093704 0.124931 0.017235
0.107545 0.123698 0.017277
0.121939 0.124229 0.017346
0.138540 0.126400 0.017423
0.157571 0.130064 0.017503
0.182065 0.142180 0.017624
0.210130 0.156625 0.017784
0.241107 0.172578 0.018150
0.271919 0.190010 0.018508
0.301756 0.208884 0.018858
0.333178 0.224828 0.019198
0.366063 0.241054 0.019704
0.396643 0.257924 0.020325
0.426581 0.275389 0.020941
0.457104 0.293404 0.021818
0.488127 0.311929 0.022736
0.519576 0.328645 0.024007
0.551381 0.344545 0.025285
0.583483 0.360623 0.026788
0.615827 0.376855 0.028646
0.644697 0.393223 0.030543
0.665452 0.409707 0.032863
0.685924 0.426291 0.035482
0.706112 0.442961 0.038187
0.726014 0.459701 0.041066
0.745630 0.476502 0.044212
0.764982 0.493370 0.047464
