velvia_modern/Velvia50_Soft.cube
TITLE "Velvia 50 Soft"
# Adobe RGB in/out. REPLACES AgX. Velvia 50 color reversal.
LUT_3D_SIZE 9
DOMAIN_MIN 0.0 0.0 0.0
DOMAIN_MAX 1.0 1.0 1.0
0.050851 0.034289 0.037567
0.108470 0.041572 0.037567
0.386652 0.149833 0.040264
0.594772 0.299415 0.049231
0.716633 0.419765 0.072880
0.791406 0.522795 0.109137
0.837444 0.602686 0.148029
0.863698 0.664028 0.185606
0.872455 0.711804 0.220151
0.050851 0.063258 0.037567
0.066971 0.058236 0.037567
0.309945 0.158208 0.038916
0.548450 0.305662 0.046323
0.695249 0.424196 0.068203
0.782422 0.525833 0.104125
0.833724 0.605428 0.144016
0.861054 0.665866 0.182466
0.871735 0.713475 0.217501
0.052361 0.324241 0.037918
0.109382 0.292014 0.038173
0.271433 0.265356 0.038938
0.465124 0.343882 0.043411
0.643859 0.444966 0.058759
0.757297 0.538756 0.091383
0.818851 0.616336 0.132505
0.852690 0.672897 0.172335
0.869387 0.719733 0.209223
0.058764 0.512299 0.039266
0.136963 0.491187 0.039778
0.311582 0.451438 0.041091
0.447519 0.444208 0.044122
0.601248 0.496206 0.054345
0.719235 0.568757 0.080638
0.794866 0.637847 0.119104
0.840956 0.687307 0.159463
0.865876 0.732153 0.197967
0.077433 0.638770 0.041592
0.159392 0.629839 0.042232
0.329471 0.602860 0.044130
0.468376 0.584044 0.048605
0.595442 0.587356 0.057467
0.688494 0.620862 0.076641
0.774231 0.667677 0.110596
0.829352 0.711257 0.149137
0.858064 0.752318 0.187559
0.105192 0.719339 0.045320
0.180800 0.714329 0.046019
0.336946 0.700659 0.048970
0.478176 0.687193 0.054807
0.602705 0.682406 0.065600
0.685338 0.689536 0.082560
0.760310 0.709660 0.108329
0.815077 0.745543 0.143828
0.849199 0.775371 0.180632
0.137695 0.778308 0.050512
0.202452 0.776451 0.051355
0.339612 0.771011 0.055095
0.478293 0.764287 0.062357
0.603901 0.758567 0.074501
0.686453 0.760529 0.092223
0.758355 0.768944 0.115707
0.804624 0.780091 0.143482
0.842445 0.798426 0.177751
0.167950 0.812044 0.056911
0.219086 0.811029 0.057966
0.340064 0.807961 0.062196
0.472345 0.804198 0.070469
0.599385 0.801760 0.083098
0.682440 0.802282 0.101383
0.755828 0.806538 0.124068
0.801617 0.814442 0.150096
0.837872 0.825347 0.179324
0.193795 0.838739 0.063938
0.233184 0.838264 0.065197
0.339224 0.836832 0.069632
0.462923 0.835139 0.078019
0.590686 0.834315 0.091123
0.673510 0.835414 0.109093
0.750485 0.839090 0.131226
0.796447 0.842309 0.155917
0.834808 0.845959 0.183875
0.050851 0.034289 0.119796
0.117903 0.043292 0.124109
0.386627 0.150836 0.133283
0.585218 0.291789 0.142807
0.707341 0.411054 0.162850
0.786700 0.516179 0.187750
0.835408 0.597459 0.214110
0.862250 0.661082 0.240766
0.872074 0.709620 0.266714
0.050851 0.055917 0.078268
0.056923 0.045546 0.048964
0.296755 0.148742 0.085782
0.532298 0.294471 0.120243
0.685225 0.414330 0.150082
0.777638 0.518970 0.179828
0.831679 0.600120 0.208383
0.859612 0.662909 0.236789
0.871357 0.711296 0.263620
0.052046 0.301428 0.113409
0.095199 0.265616 0.088780
0.242486 0.235100 0.066831
0.444255 0.324234 0.086017
0.632767 0.432448 0.121725
0.752412 0.531284 0.157642
0.815445 0.610835 0.192137
0.851275 0.669928 0.224614
0.869018 0.717583 0.253904
0.057342 0.494558 0.114811
0.127210 0.472845 0.105376
0.298056 0.433529 0.088344
0.431341 0.427108 0.083956
0.591971 0.483632 0.102973
0.712005 0.561151 0.137437
0.791685 0.633761 0.173288
0.839628 0.684410 0.207961
0.865531 0.730093 0.240526
0.075232 0.631105 0.113648
0.154178 0.620004 0.110228
0.322448 0.593363 0.102792
0.459616 0.574623 0.099743
0.588638 0.578673 0.106228
0.683144 0.614432 0.126624
0.771609 0.664048 0.159458
0.828208 0.708633 0.194024
0.857267 0.750459 0.227831
0.103191 0.714674 0.113159
0.177502 0.709740 0.112291
0.333036 0.696218 0.110680
0.473421 0.682837 0.111666
0.598953 0.678203 0.118332
0.681576 0.685792 0.132328
0.758480 0.706921 0.153695
0.813639 0.743443 0.185858
0.848579 0.774420 0.218146
0.136032 0.776474 0.113567
0.200318 0.774639 0.113858
0.337362 0.769255 0.115379
0.475645 0.761604 0.119587
0.601821 0.755996 0.128074
0.684279 0.758158 0.141473
0.757108 0.767665 0.159748
0.803702 0.779193 0.183331
0.842032 0.797773 0.213361
0.166916 0.810946 0.114486
0.218054 0.809944 0.115321
0.338774 0.806914 0.118463
0.470878 0.803204 0.124712
0.598256 0.800828 0.134886
0.681268 0.801433 0.148375
0.755146 0.805810 0.166447
0.801056 0.813875 0.188477
0.837632 0.824959 0.213247
0.193139 0.838121 0.115453
0.232580 0.837654 0.116535
0.338524 0.836249 0.120461
0.462158 0.834597 0.127817
0.590117 0.833826 0.138740
0.672946 0.834991 0.152857
0.750174 0.838752 0.171119
0.796216 0.842212 0.192426
0.834731 0.845911 0.216568
0.050851 0.034379 0.391068
0.117903 0.045464 0.392766
0.397110 0.161228 0.398820
0.599365 0.306968 0.388895
0.705791 0.410867 0.369792
0.782595 0.511061 0.366380
0.832601 0.590695 0.369396
0.859697 0.656095 0.375556
0.871283 0.705235 0.383402
0.050886 0.087979 0.391662
0.117973 0.118761 0.385243
0.347728 0.191770 0.348498
0.543370 0.304303 0.343005
0.681263 0.411511 0.346810
0.772903 0.512776 0.353297
0.828716 0.592851 0.361173
0.857003 0.657762 0.370016
0.870560 0.706852 0.379483
0.051694 0.252517 0.312954
0.079450 0.224117 0.274120
0.189014 0.179333 0.186779
0.425573 0.307694 0.252306
0.621040 0.419984 0.293294
0.745003 0.521504 0.318375
0.809728 0.601939 0.337313
0.848504 0.664286 0.353068
0.868206 0.712968 0.367066
0.055790 0.453288 0.325512
0.109168 0.435650 0.306353
0.267663 0.399492 0.260108
0.397913 0.392179 0.227723
0.566210 0.460330 0.249738
0.698171 0.546891 0.283992
0.785205 0.623454 0.309351
0.836707 0.678174 0.330926
0.864714 0.725314 0.349631
0.070634 0.605939 0.321585
0.140565 0.596012 0.312220
0.306092 0.571217 0.287630
0.439094 0.552611 0.261182
0.563742 0.557639 0.249042
0.670452 0.599374 0.262606
0.765283 0.655410 0.288631
0.823726 0.702230 0.311435
0.855220 0.745757 0.332509
0.097798 0.701866 0.310321
0.168681 0.697261 0.305739
0.322707 0.684448 0.292649
0.461010 0.671465 0.277886
0.588820 0.667087 0.266583
0.671353 0.675673 0.265938
0.753575 0.699657 0.278245
0.809731 0.737792 0.298767
0.846864 0.771817 0.319531
0.131224 0.771090 0.296850
0.194156 0.769347 0.294717
0.330907 0.763430 0.288377
0.468135 0.754012 0.280748
0.595909 0.748731 0.275264
0.678028 0.751380 0.275138
0.753467 0.763035 0.281245
0.801043 0.776623 0.292695
0.840824 0.795881 0.311813
0.163758 0.807572 0.283088
0.214896 0.806619 0.282268
0.334853 0.803735 0.279858
0.466458 0.800216 0.277170
0.594864 0.798041 0.275908
0.677742 0.798888 0.278273
0.753077 0.803613 0.284488
0.799337 0.812150 0.294800
0.836892 0.823772 0.308659
0.191050 0.836156 0.267965
0.230658 0.835718 0.267852
0.336303 0.834407 0.267710
0.459748 0.832898 0.268354
0.587824 0.832301 0.270959
0.671179 0.833675 0.276623
0.749198 0.837696 0.284288
0.795484 0.841910 0.295079
0.834486 0.845760 0.308864
0.050851 0.035465 0.614666
0.117903 0.049247 0.615511
0.397110 0.168225 0.618536
0.618524 0.331512 0.624052
0.725982 0.433294 0.589416
0.787131 0.519150 0.558006
0.832765 0.592288 0.540805
0.858695 0.654679 0.530908
0.870756 0.702671 0.524764
0.050886 0.095672 0.614961
0.122768 0.131329 0.615806
0.398850 0.240979 0.618829
0.597548 0.350977 0.596411
0.700039 0.432972 0.560310
0.776799 0.519929 0.540963
0.828655 0.593804 0.530461
0.855886 0.656072 0.524218
0.870013 0.704147 0.520219
0.051744 0.262938 0.526216
0.091178 0.261953 0.504777
0.282929 0.280249 0.471014
0.466323 0.348685 0.470292
0.632105 0.434271 0.483097
0.746922 0.524546 0.493358
0.808238 0.600463 0.499721
0.846985 0.661623 0.503471
0.867591 0.709784 0.505697
0.054317 0.417252 0.491986
0.095746 0.405718 0.472757
0.247931 0.378116 0.415896
0.358323 0.356532 0.354777
0.554476 0.451202 0.403780
0.691773 0.540984 0.437804
0.781351 0.617505 0.461195
0.834550 0.673894 0.475638
0.863186 0.721387 0.484963
0.065628 0.576506 0.493641
0.125241 0.568602 0.482675
0.287228 0.547644 0.449283
0.417219 0.529316 0.409408
0.535133 0.533559 0.387104
0.657804 0.584768 0.402402
0.759298 0.647503 0.427280
0.819154 0.696277 0.447832
0.853125 0.741129 0.463742
0.091299 0.685115 0.484612
0.157607 0.681143 0.478554
0.309940 0.669830 0.459374
0.446112 0.657833 0.432984
0.569894 0.653573 0.411847
0.658462 0.663035 0.402742
0.747765 0.691221 0.410548
0.805156 0.731325 0.428564
0.844839 0.768819 0.445130
0.124675 0.762418 0.468619
0.185776 0.759954 0.465116
0.322201 0.752634 0.453305
0.458247 0.744057 0.437315
0.587569 0.739316 0.422726
0.669740 0.742484 0.413857
0.748553 0.755217 0.412478
0.797592 0.773343 0.419147
0.839244 0.793458 0.433697
0.159182 0.802633 0.446779
0.210313 0.801773 0.444845
0.329222 0.799170 0.438699
0.460216 0.796012 0.430059
0.590126 0.794182 0.421807
0.672826 0.795376 0.416538
0.750161 0.800557 0.415787
0.796896 0.809735 0.419819
0.835861 0.822155 0.427917
0.187874 0.833163 0.423359
0.227733 0.832777 0.422522
0.332944 0.831633 0.419863
0.456144 0.830374 0.416189
0.583723 0.830070 0.412956
0.668583 0.831768 0.411625
0.747762 0.836171 0.413228
0.794403 0.841474 0.418180
0.834124 0.845547 0.426306
0.050851 0.038687 0.766843
0.117903 0.058479 0.767253
0.397110 0.178654 0.768721
0.618524 0.337980 0.771407
0.752899 0.468549 0.765924
0.798737 0.538557 0.721898
0.836255 0.603292 0.694515
0.859957 0.658343 0.676406
0.870758 0.703493 0.663424
0.050886 0.107391 0.766986
0.122768 0.142066 0.767396
0.398850 0.250511 0.768863
0.619240 0.377558 0.771548
0.731455 0.469678 0.741587
0.788313 0.539302 0.707426
0.832024 0.604475 0.685514
0.857046 0.659505 0.670562
0.869991 0.704815 0.658820
0.052150 0.324458 0.752982
0.125230 0.332252 0.742408
0.354256 0.359663 0.716048
0.533592 0.406597 0.691326
0.662763 0.472842 0.675075
0.757358 0.542666 0.664998
0.812850 0.609528 0.656694
0.847743 0.664140 0.648739
0.867483 0.709878 0.641461
0.054068 0.413822 0.650533
0.096502 0.410221 0.636865
0.269784 0.405835 0.601915
0.424629 0.424075 0.576942
0.588266 0.482804 0.582080
0.701792 0.552995 0.596556
0.783431 0.622336 0.607650
0.834478 0.674496 0.613890
0.862478 0.720415 0.616295
0.062130 0.552731 0.631128
0.114117 0.547333 0.620595
0.273272 0.532343 0.589057
0.404891 0.516858 0.544972
0.506929 0.509947 0.504433
0.653158 0.580188 0.538488
0.757177 0.645246 0.563722
0.817043 0.693969 0.580778
0.851881 0.738725 0.590470
0.085623 0.667954 0.624348
0.146179 0.664820 0.617896
0.297570 0.655664 0.597841
0.432318 0.645332 0.569543
0.551806 0.640731 0.541554
0.644962 0.649970 0.526959
0.739984 0.684006 0.537953
0.801452 0.726341 0.555291
0.843195 0.766527 0.568911
0.117625 0.749116 0.610131
0.176660 0.747072 0.606353
0.312767 0.740944 0.594291
0.447835 0.733654 0.576778
0.575099 0.729663 0.557461
0.660918 0.733156 0.543479
0.740917 0.746847 0.538067
0.794112 0.770124 0.543416
0.837688 0.791160 0.554952
0.153872 0.796825 0.590068
0.204808 0.796099 0.587952
0.322726 0.793905 0.581074
0.453155 0.791282 0.569885
0.582445 0.789945 0.557892
0.667393 0.791550 0.548353
0.746900 0.797201 0.543340
0.794153 0.807079 0.543448
0.834877 0.820691 0.548255
0.184019 0.829518 0.565197
0.224175 0.829205 0.563993
0.328884 0.828299 0.560050
0.451842 0.827393 0.554150
0.578912 0.827487 0.547900
0.665569 0.829598 0.543013
0.745648 0.834454 0.540785
0.793158 0.840990 0.541812
0.833714 0.845324 0.545932
0.050851 0.045408 0.840484
0.117903 0.072789 0.840590
0.397110 0.192147 0.840969
0.618524 0.346631 0.841665
0.758974 0.484491 0.842698
0.812776 0.562962 0.827442
0.841782 0.620614 0.808963
0.863050 0.666250 0.784481
0.871270 0.707621 0.765089
0.050886 0.123309 0.840521
0.122768 0.156307 0.840627
0.398850 0.261209 0.841006
0.619240 0.384193 0.841701
0.756490 0.508301 0.840922
0.802753 0.564437 0.821344
0.837591 0.621909 0.800512
0.860106 0.667331 0.778876
0.870488 0.708839 0.760413
0.052361 0.346753 0.840654
0.140499 0.362535 0.840759
0.405045 0.415139 0.841139
0.592198 0.461360 0.827120
0.697054 0.516008 0.813511
0.772460 0.569379 0.791204
0.822043 0.626892 0.774122
0.850605 0.671525 0.758408
0.867918 0.713475 0.745199
0.055236 0.447742 0.789693
0.111508 0.449718 0.784441
0.311034 0.459868 0.769440
0.479271 0.486394 0.750829
0.623017 0.528276 0.739172
0.724847 0.579695 0.733604
0.791403 0.636443 0.730304
0.836755 0.680590 0.726909
0.863247 0.723060 0.722623
0.061326 0.545936 0.737756
0.111513 0.543556 0.731371
0.276251 0.537886 0.712070
0.421438 0.537013 0.688390
0.556753 0.555061 0.674847
0.669105 0.600920 0.678934
0.761857 0.652752 0.688195
0.818841 0.697325 0.695101
0.851991 0.739743 0.698605
0.081127 0.654304 0.724234
0.136735 0.652142 0.719557
0.287209 0.645759 0.704593
0.424138 0.638399 0.682958
0.542337 0.634491 0.659998
0.631754 0.637387 0.634105
0.737148 0.682128 0.657259
0.800308 0.725346 0.670660
0.842499 0.765835 0.678666
0.111519 0.736313 0.713952
0.168070 0.734759 0.710992
0.303923 0.730073 0.701352
0.438465 0.724466 0.686964
0.564268 0.721468 0.671480
0.652779 0.724756 0.657810
0.732193 0.738627 0.649741
0.791162 0.767532 0.657223
0.836488 0.789534 0.666103
0.148073 0.790758 0.699293
0.197696 0.790195 0.697531
0.316041 0.788504 0.691718
0.446029 0.786560 0.682843
0.574414 0.785844 0.672999
0.662073 0.787888 0.664456
0.741625 0.793916 0.658255
0.791368 0.804458 0.656479
0.833952 0.819401 0.660434
0.179827 0.825545 0.680801
0.220296 0.825322 0.679835
0.324475 0.824708 0.676630
0.447228 0.824239 0.671678
0.573848 0.824820 0.666125
0.662444 0.827410 0.661272
0.742872 0.832754 0.657073
0.791888 0.840522 0.656096
0.833316 0.845135 0.658218
0.050851 0.058846 0.870283
0.117903 0.092234 0.870320
0.397110 0.208947 0.870452
0.618524 0.355709 0.870694
0.758974 0.491484 0.871055
0.825566 0.586991 0.866871
0.847728 0.637990 0.856246
0.865446 0.676508 0.841208
0.872117 0.714068 0.829567
0.050886 0.142495 0.870296
0.122768 0.174292 0.870333
0.398850 0.273523 0.870465
0.619240 0.392507 0.870707
0.759261 0.517820 0.871067
0.816206 0.589566 0.863914
0.843698 0.639269 0.852180
0.864131 0.677662 0.838398
0.871334 0.715261 0.827600
0.052361 0.355808 0.870342
0.140499 0.371216 0.870379
0.405045 0.422987 0.870511
0.621339 0.506599 0.870636
0.726425 0.549988 0.862199
0.787492 0.597465 0.851547
0.830850 0.643762 0.839199
0.854683 0.681954 0.829252
0.868746 0.719737 0.821108
0.056713 0.493537 0.857946
0.131713 0.497607 0.856101
0.346122 0.511264 0.850011
0.524992 0.534088 0.841703
0.654446 0.567741 0.833452
0.749269 0.610577 0.826390
0.802309 0.652456 0.820580
0.840662 0.690672 0.815644
0.864773 0.728781 0.809010
0.062376 0.560421 0.823382
0.117955 0.560702 0.821680
0.295344 0.563306 0.816487
0.451954 0.573195 0.806296
0.597026 0.595866 0.795504
0.693700 0.632688 0.790309
0.771646 0.667792 0.788697
0.824246 0.705978 0.787754
0.853474 0.744245 0.785919
0.078992 0.648554 0.805537
0.132721 0.647502 0.802273
0.284839 0.644677 0.791753
0.427274 0.642743 0.776528
0.556305 0.646213 0.759290
0.654790 0.661851 0.749951
0.747452 0.693073 0.753303
0.803287 0.730673 0.759895
0.843132 0.767350 0.764346
0.106650 0.726137 0.793187
0.161286 0.725115 0.790873
0.297175 0.722081 0.783229
0.432130 0.718670 0.771352
0.558354 0.717495 0.755036
0.648666 0.721024 0.740044
0.723871 0.730972 0.728678
0.790183 0.767020 0.739867
0.836102 0.789334 0.747473
0.142310 0.785076 0.781171
0.191093 0.784691 0.779713
0.309845 0.783564 0.774855
0.439609 0.782408 0.766181
0.567501 0.782436 0.755474
0.657596 0.784948 0.745608
0.736888 0.791109 0.738609
0.788707 0.802048 0.736357
0.833195 0.818477 0.740041
0.175616 0.821560 0.764756
0.216384 0.821438 0.763731
0.320045 0.821150 0.760302
0.442649 0.821174 0.754916
0.568932 0.822305 0.748702
0.659474 0.825420 0.743013
0.740272 0.831250 0.739048
0.790709 0.840123 0.737577
0.832978 0.845018 0.738615
0.050851 0.081700 0.888614
0.117903 0.116868 0.888641
0.397110 0.229249 0.888737
0.618524 0.366443 0.888913
0.758974 0.499927 0.889176
0.832273 0.607671 0.887826
0.852924 0.651657 0.877196
0.866926 0.687186 0.868565
0.873069 0.721508 0.861589
0.050886 0.164581 0.888623
0.122768 0.195383 0.888650
0.398850 0.288232 0.888746
0.619240 0.402487 0.888923
0.759261 0.524323 0.889185
0.826703 0.611448 0.885074
0.849121 0.653370 0.875231
0.865872 0.688519 0.867159
0.872299 0.722749 0.860578
0.052361 0.366540 0.888657
0.140499 0.381617 0.888684
0.405045 0.432428 0.888780
0.621800 0.513770 0.888956
0.747757 0.577981 0.884871
0.799984 0.622768 0.876358
0.836889 0.659092 0.868870
0.858965 0.693291 0.862535
0.869738 0.727317 0.856612
0.058517 0.529833 0.882492
0.150487 0.533730 0.881588
0.374238 0.547208 0.878633
0.560779 0.570256 0.874146
0.679785 0.601577 0.869032
0.763426 0.637550 0.864023
0.813238 0.669042 0.859490
0.845102 0.702364 0.853205
0.865760 0.736257 0.846220
0.065576 0.586506 0.862551
0.130179 0.588174 0.861929
0.315300 0.594742 0.859941
0.481249 0.608547 0.856354
0.621183 0.631525 0.850469
0.716642 0.655513 0.845392
0.782505 0.684807 0.841267
0.829937 0.717351 0.837746
0.855836 0.751094 0.834418
0.079737 0.652885 0.844862
0.135093 0.652894 0.843726
0.291748 0.653557 0.840057
0.440293 0.656970 0.834754
0.581005 0.666142 0.829542
0.674858 0.683610 0.825998
0.757359 0.709412 0.824487
0.809208 0.740628 0.824047
0.844900 0.770774 0.823599
0.103836 0.720788 0.834636
0.157517 0.720338 0.833702
0.293728 0.719178 0.830593
0.430982 0.718656 0.825758
0.561191 0.721004 0.820272
0.654815 0.728969 0.815526
0.738094 0.746416 0.813308
0.793780 0.771216 0.814162
0.836923 0.791207 0.815549
0.137592 0.780479 0.828080
0.185698 0.780280 0.827441
0.304870 0.779758 0.825295
0.434787 0.779494 0.821878
0.562974 0.780457 0.817823
0.655206 0.783682 0.813891
0.734533 0.790014 0.808112
0.786297 0.799987 0.804234
0.832917 0.818447 0.809120
0.171691 0.817888 0.821065
0.212725 0.817868 0.820681
0.315923 0.817921 0.819389
0.438458 0.818468 0.817328
0.564576 0.820192 0.814893
0.656950 0.823860 0.811959
0.738137 0.830152 0.808370
0.789742 0.839542 0.806843
0.832746 0.845005 0.807634
0.050851 0.110550 0.888074
0.117903 0.144905 0.888071
0.397110 0.253064 0.888064
0.618524 0.378885 0.888051
0.758974 0.508993 0.888030
0.835508 0.622765 0.888003
0.856750 0.663138 0.889089
0.868140 0.696851 0.885543
0.873923 0.728727 0.877788
0.050886 0.190111 0.888073
0.122768 0.219647 0.888071
0.398850 0.305263 0.888063
0.619240 0.414097 0.888050
0.759261 0.531922 0.888030
0.831272 0.628766 0.888238
0.853207 0.665325 0.889280
0.867136 0.698422 0.884176
0.873174 0.730068 0.876785
0.052361 0.378979 0.888070
0.140499 0.393692 0.888068
0.405045 0.443438 0.888061
0.621800 0.521549 0.888047
0.756509 0.599476 0.888161
0.809059 0.640463 0.889064
0.841709 0.672444 0.886861
0.862699 0.703886 0.879652
0.870673 0.734907 0.873434
0.060287 0.556928 0.888253
0.162824 0.561108 0.888341
0.394237 0.575278 0.888635
0.586596 0.598609 0.889105
0.698590 0.628914 0.889082
0.774555 0.655699 0.883273
0.822551 0.683998 0.877730
0.849199 0.713707 0.872683
0.866748 0.744059 0.868170
0.069267 0.613837 0.882748
0.142862 0.616067 0.882211
0.333392 0.624149 0.880429
0.505679 0.637258 0.877635
0.640425 0.653729 0.874322
0.735671 0.675169 0.870937
0.792220 0.700657 0.867735
0.834123 0.728945 0.864785
0.858408 0.758715 0.862046
0.082499 0.664344 0.868947
0.141795 0.665047 0.868523
0.302394 0.667889 0.867132
0.456187 0.674179 0.865022
0.599123 0.685379 0.862693
0.691673 0.702380 0.860590
0.766467 0.724919 0.858893
0.815634 0.751619 0.857202
0.847119 0.775040 0.854667
0.103452 0.721442 0.861225
0.157296 0.721543 0.860856
0.295077 0.722227 0.859628
0.435182 0.724647 0.857613
0.571056 0.730570 0.853325
0.665215 0.741902 0.849612
0.748894 0.759923 0.847247
0.799019 0.777179 0.846185
0.838496 0.794417 0.845622
0.134415 0.777631 0.855873
0.182116 0.777621 0.855321
0.301787 0.777729 0.853458
0.432389 0.778456 0.850471
0.562004 0.780599 0.846902
0.656157 0.785059 0.843445
0.737624 0.792739 0.840829
0.790127 0.804593 0.839795
0.833576 0.820100 0.840167
0.168322 0.814838 0.848595
0.209580 0.814921 0.848248
0.312418 0.815314 0.847074
0.434998 0.816394 0.845184
0.561195 0.818734 0.842919
0.655188 0.822987 0.840728
0.736863 0.829747 0.839053
0.789230 0.839457 0.838260
0.832660 0.845127 0.838597
