velvia_modern/Velvia50_Soft.cube
TITLE "Velvia 50 Soft"
# Adobe RGB in/out. REPLACES AgX. Velvia 50 color reversal.
LUT_3D_SIZE 65
DOMAIN_MIN 0.0 0.0 0.0
DOMAIN_MAX 1.0 1.0 1.0
0.050851 0.034289 0.037567
0.050851 0.034289 0.037567
0.050923 0.034289 0.037567
0.051548 0.034289 0.037567
0.052874 0.034521 0.037567
0.056475 0.035258 0.037567
0.065313 0.036501 0.037567
0.083353 0.038451 0.037567
0.108470 0.041572 0.037567
0.143918 0.046310 0.037655
0.186596 0.054723 0.037897
0.225860 0.066656 0.038113
0.261178 0.081282 0.038403
0.296312 0.096779 0.038657
0.325897 0.113722 0.038990
0.356041 0.132121 0.039644
0.386652 0.149833 0.040264
0.414184 0.168475 0.040852
0.440673 0.187755 0.041411
0.467119 0.207168 0.042368
0.493492 0.227296 0.043354
0.519771 0.248103 0.044434
0.545934 0.265969 0.045788
0.571964 0.282624 0.047321
0.594772 0.299415 0.049231
0.611134 0.316323 0.051121
0.627151 0.333331 0.053412
0.642836 0.349874 0.056079
0.658200 0.364000 0.058754
0.673251 0.378057 0.061979
0.688001 0.392040 0.065541
0.702459 0.405944 0.069151
0.716633 0.419765 0.072880
0.730532 0.433498 0.076927
0.744164 0.447141 0.081034
0.753386 0.460689 0.085366
0.761374 0.474141 0.089994
0.769162 0.487493 0.094696
0.776759 0.500743 0.099471
0.784171 0.512289 0.104313
0.791406 0.522795 0.109137
0.798477 0.533175 0.113976
0.805396 0.543440 0.118874
0.812169 0.553593 0.123829
0.818801 0.563633 0.128839
0.825295 0.573562 0.133900
0.830110 0.583380 0.138670
0.833820 0.593088 0.143338
0.837444 0.602686 0.148029
0.840987 0.612177 0.152742
0.844450 0.621560 0.157475
0.847836 0.630836 0.162225
0.851148 0.637880 0.166989
0.854388 0.644567 0.171767
0.857558 0.651153 0.176557
0.860661 0.657639 0.181250
0.863698 0.664028 0.185606
0.865309 0.670321 0.189957
0.866401 0.676519 0.194301
0.867467 0.682624 0.198638
0.868510 0.688638 0.202964
0.869530 0.694562 0.207280
0.870527 0.700396 0.211584
0.871501 0.706144 0.215875
0.872455 0.711804 0.220151
0.050851 0.034289 0.037567
0.050851 0.034289 0.037567
0.050851 0.034289 0.037567
0.051316 0.034289 0.037567
0.052524 0.034526 0.037567
0.055871 0.035267 0.037567
0.063551 0.036518 0.037567
0.081323 0.038479 0.037567
0.106086 0.041594 0.037567
0.141193 0.046338 0.037641
0.184034 0.054749 0.037886
0.223834 0.066660 0.038097
0.259187 0.081263 0.038390
0.294488 0.096747 0.038646
0.324437 0.113712 0.038962
0.354699 0.132129 0.039620
0.385411 0.149855 0.040243
0.413202 0.168508 0.040833
0.439764 0.187795 0.041395
0.466274 0.207216 0.042340
0.492704 0.227351 0.043329
0.519033 0.248162 0.044401
0.545240 0.266018 0.045758
0.571311 0.282674 0.047279
0.594376 0.299467 0.049192
0.610764 0.316376 0.051085
0.626806 0.333384 0.053362
0.642512 0.349918 0.056032
0.657895 0.364044 0.058708
0.672964 0.378101 0.061921
0.687730 0.392083 0.065484
0.702202 0.405987 0.069096
0.716390 0.419807 0.072821
0.730302 0.433540 0.076869
0.743945 0.447182 0.080978
0.753259 0.460730 0.085305
0.761253 0.474180 0.089933
0.769048 0.487532 0.094637
0.776650 0.500782 0.099412
0.784068 0.512320 0.104255
0.791308 0.522825 0.109082
0.798383 0.533204 0.113921
0.805307 0.543470 0.118820
0.812085 0.553622 0.123776
0.818720 0.563662 0.128787
0.825218 0.573590 0.133849
0.830066 0.583408 0.138625
0.833778 0.593115 0.143293
0.837404 0.602714 0.147986
0.840949 0.612204 0.152700
0.844413 0.621587 0.157433
0.847801 0.630863 0.162183
0.851115 0.637900 0.166949
0.854356 0.644586 0.171728
0.857528 0.651172 0.176518
0.860632 0.657658 0.181215
0.863670 0.664047 0.185572
0.865299 0.670339 0.189924
0.866391 0.676537 0.194269
0.867458 0.682642 0.198606
0.868501 0.688656 0.202933
0.869521 0.694579 0.207250
0.870518 0.700414 0.211555
0.871494 0.706161 0.215846
0.872447 0.711821 0.220123
0.050851 0.034289 0.037567
0.050851 0.034289 0.037567
0.050851 0.034289 0.037567
0.051001 0.034289 0.037567
0.051883 0.034542 0.037567
0.054046 0.035299 0.037567
0.060170 0.036572 0.037567
0.074896 0.038572 0.037567
0.098361 0.041669 0.037567
0.132208 0.046433 0.037595
0.175409 0.054839 0.037846
0.216903 0.066673 0.038063
0.252329 0.081201 0.038343
0.287853 0.096656 0.038606
0.319364 0.113695 0.038862
0.350014 0.132176 0.039534
0.381060 0.149944 0.040169
0.409746 0.168637 0.040769
0.436560 0.187949 0.041338
0.463290 0.207395 0.042243
0.489915 0.227551 0.043241
0.516416 0.248380 0.044283
0.542778 0.266195 0.045650
0.568988 0.282858 0.047133
0.592967 0.299655 0.049054
0.609449 0.316567 0.050955
0.625574 0.333577 0.053186
0.641357 0.350078 0.055863
0.656808 0.364203 0.058546
0.671939 0.378259 0.061715
0.686762 0.392240 0.065283
0.701286 0.406142 0.068899
0.715521 0.419960 0.072611
0.729477 0.433690 0.076663
0.743162 0.447330 0.080775
0.752803 0.460875 0.085087
0.760822 0.474324 0.089718
0.768638 0.487673 0.094424
0.776261 0.500921 0.099202
0.783698 0.512430 0.104048
0.790956 0.522933 0.108882
0.798049 0.533311 0.113725
0.804989 0.543575 0.118627
0.811781 0.553726 0.123587
0.818431 0.563765 0.128600
0.824942 0.573692 0.133665
0.829909 0.583509 0.138461
0.833628 0.593216 0.143133
0.837261 0.602813 0.147829
0.840812 0.612303 0.152546
0.844283 0.621684 0.157282
0.847677 0.630959 0.162036
0.850995 0.637971 0.166804
0.854242 0.644656 0.171586
0.857418 0.651241 0.176379
0.860527 0.657726 0.181092
0.863569 0.664114 0.185451
0.865263 0.670406 0.189806
0.866356 0.676603 0.194154
0.867425 0.682707 0.198493
0.868469 0.688720 0.202823
0.869490 0.694643 0.207142
0.870489 0.700477 0.211449
0.871465 0.706223 0.215742
0.872420 0.711883 0.220022
0.050851 0.034533 0.037567
0.050851 0.034524 0.037567
0.050851 0.034500 0.037567
0.050987 0.034488 0.037567
0.051519 0.034706 0.037567
0.052827 0.035377 0.037567
0.056681 0.036680 0.037567
0.067383 0.038740 0.037567
0.087928 0.041800 0.037567
0.118437 0.046603 0.037567
0.161618 0.055002 0.037780
0.205405 0.066713 0.038005
0.240831 0.081122 0.038262
0.276694 0.096582 0.038537
0.310683 0.113741 0.038788
0.341917 0.132326 0.039385
0.373479 0.150156 0.040038
0.403673 0.168914 0.040654
0.430899 0.188264 0.041237
0.457994 0.207752 0.042069
0.484945 0.227944 0.043083
0.511739 0.248802 0.044074
0.538366 0.266535 0.045456
0.564815 0.283207 0.046869
0.590425 0.300010 0.048806
0.607072 0.316926 0.050720
0.623346 0.333939 0.052869
0.639262 0.350378 0.055558
0.654835 0.364501 0.058252
0.670078 0.378553 0.061342
0.685002 0.392531 0.064918
0.699619 0.406429 0.068542
0.713940 0.420243 0.072230
0.727975 0.433969 0.076288
0.741733 0.447604 0.080406
0.751971 0.461145 0.084690
0.760033 0.474589 0.089326
0.767891 0.487934 0.094037
0.775551 0.501178 0.098820
0.783022 0.512634 0.103670
0.790313 0.523133 0.108519
0.797437 0.533509 0.113368
0.804406 0.543771 0.118276
0.811226 0.553919 0.123241
0.817901 0.563956 0.128260
0.824436 0.573881 0.133331
0.829621 0.583696 0.138162
0.833353 0.593401 0.142840
0.836999 0.602997 0.147542
0.840562 0.612484 0.152264
0.844044 0.621864 0.157006
0.847448 0.631137 0.161765
0.850777 0.638101 0.166539
0.854032 0.644785 0.171326
0.857218 0.651368 0.176124
0.860334 0.657851 0.180865
0.863385 0.664238 0.185230
0.865196 0.670528 0.189589
0.866292 0.676724 0.193942
0.867364 0.682827 0.198286
0.868411 0.688838 0.202620
0.869434 0.694760 0.206943
0.870435 0.700592 0.211255
0.871413 0.706337 0.215553
0.872370 0.711996 0.219836
0.050851 0.035535 0.037567
0.050851 0.035520 0.037567
0.050872 0.035470 0.037567
0.051034 0.035405 0.037567
0.051544 0.035386 0.037567
0.052166 0.035663 0.037567
0.054743 0.036945 0.037567
0.061183 0.039077 0.037567
0.077504 0.042027 0.037567
0.104168 0.046889 0.037567
0.144270 0.055294 0.037694
0.186890 0.066865 0.037929
0.226014 0.081135 0.038154
0.262209 0.096698 0.038445
0.299107 0.113998 0.038709
0.330953 0.132698 0.039180
0.363084 0.150589 0.039858
0.395232 0.169424 0.040494
0.422963 0.188813 0.041094
0.450517 0.208352 0.041823
0.477885 0.228586 0.042859
0.505061 0.249480 0.043855
0.532037 0.267074 0.045178
0.558807 0.283754 0.046545
0.585366 0.300563 0.048448
0.603618 0.317483 0.050381
0.620100 0.334497 0.052411
0.636205 0.350839 0.055115
0.651950 0.364956 0.057824
0.667351 0.379002 0.060800
0.682420 0.392974 0.064387
0.697171 0.406865 0.068021
0.711615 0.420672 0.071700
0.725763 0.434391 0.075739
0.739626 0.448019 0.079866
0.750742 0.461553 0.084108
0.758869 0.474991 0.088750
0.766785 0.488329 0.093467
0.774500 0.501565 0.098257
0.782022 0.512942 0.103114
0.789360 0.523434 0.107984
0.796530 0.533806 0.112840
0.803542 0.544065 0.117757
0.810402 0.554210 0.122730
0.817115 0.564244 0.127757
0.823685 0.574166 0.132835
0.829193 0.583977 0.137720
0.832945 0.593679 0.142407
0.836610 0.603272 0.147116
0.840190 0.612756 0.151847
0.843688 0.622134 0.156597
0.847108 0.631404 0.161364
0.850451 0.638296 0.166146
0.853720 0.644978 0.170940
0.856919 0.651558 0.175746
0.860048 0.658040 0.180528
0.863110 0.664423 0.184901
0.865097 0.670711 0.189267
0.866197 0.676905 0.193626
0.867273 0.683006 0.197977
0.868323 0.689015 0.202318
0.869350 0.694935 0.206648
0.870354 0.700765 0.210966
0.871336 0.706508 0.215270
0.872296 0.712165 0.219560
0.050851 0.037616 0.037567
0.050851 0.037591 0.037567
0.050905 0.037507 0.037567
0.051138 0.037376 0.037567
0.051733 0.037248 0.037567
0.052352 0.037226 0.037567
0.053519 0.037546 0.037567
0.057773 0.039837 0.037567
0.069405 0.042580 0.037567
0.091155 0.047435 0.037567
0.125650 0.055915 0.037601
0.167594 0.067381 0.037843
0.209939 0.081585 0.038056
0.246082 0.097280 0.038339
0.283746 0.114695 0.038617
0.318035 0.133421 0.038935
0.350621 0.151390 0.039639
0.383444 0.170296 0.040298
0.413161 0.189699 0.040917
0.441190 0.209284 0.041516
0.469006 0.229558 0.042577
0.496601 0.250485 0.043595
0.523969 0.267860 0.044824
0.551106 0.284544 0.046213
0.578008 0.301353 0.047989
0.599136 0.318271 0.049944
0.615874 0.335282 0.051874
0.632213 0.351483 0.054542
0.648174 0.365590 0.057269
0.663772 0.379627 0.060094
0.679024 0.393587 0.063694
0.693944 0.407467 0.067340
0.708545 0.421263 0.071031
0.722840 0.434972 0.075020
0.736838 0.448589 0.079155
0.749112 0.462113 0.083348
0.757321 0.475540 0.087992
0.765314 0.488868 0.092716
0.773101 0.502095 0.097513
0.780690 0.513361 0.102377
0.788091 0.523846 0.107275
0.795321 0.534212 0.112141
0.802390 0.544466 0.117068
0.809302 0.554606 0.122051
0.816065 0.564635 0.127089
0.822682 0.574552 0.132177
0.828620 0.584360 0.137132
0.832399 0.594057 0.141829
0.836088 0.603646 0.146550
0.839691 0.613127 0.151291
0.843212 0.622500 0.156052
0.846652 0.631767 0.160829
0.850014 0.638562 0.165621
0.853302 0.645239 0.170425
0.856518 0.651817 0.175240
0.859663 0.658295 0.180064
0.862740 0.664675 0.184460
0.864964 0.670960 0.188836
0.866070 0.677151 0.193205
0.867150 0.683249 0.197564
0.868206 0.689255 0.201914
0.869237 0.695172 0.206253
0.870246 0.701000 0.210579
0.871232 0.706740 0.214892
0.872196 0.712395 0.219190
0.050851 0.041836 0.037567
0.050851 0.041793 0.037567
0.050936 0.041648 0.037567
0.051268 0.041407 0.037567
0.051878 0.041119 0.037567
0.052762 0.040885 0.037567
0.054172 0.040873 0.037567
0.056625 0.041280 0.037567
0.064109 0.044097 0.037567
0.082314 0.048532 0.037567
0.110702 0.057325 0.037567
0.150193 0.068828 0.037762
0.191538 0.082966 0.037982
0.230030 0.098701 0.038230
0.267225 0.116145 0.038518
0.304230 0.134762 0.038782
0.337011 0.152760 0.039397
0.370097 0.171698 0.040077
0.402046 0.191061 0.040715
0.430484 0.210669 0.041315
0.458705 0.230963 0.042249
0.486697 0.251909 0.043289
0.514450 0.268954 0.044407
0.541958 0.285628 0.045820
0.569215 0.302427 0.047443
0.593727 0.319334 0.049422
0.610751 0.336332 0.051373
0.627356 0.352340 0.053852
0.643563 0.366429 0.056599
0.659391 0.380448 0.059347
0.674855 0.394391 0.062853
0.689974 0.408255 0.066511
0.704759 0.422035 0.070214
0.719226 0.435727 0.074139
0.733386 0.449329 0.078285
0.747087 0.462837 0.082487
0.755396 0.476250 0.087058
0.763483 0.489564 0.091790
0.771356 0.502777 0.096594
0.779026 0.513902 0.101467
0.786505 0.524376 0.106397
0.793810 0.534736 0.111275
0.800948 0.544982 0.116213
0.807926 0.555116 0.121208
0.814749 0.565138 0.126257
0.821424 0.575049 0.131357
0.827902 0.584851 0.136397
0.831713 0.594542 0.141108
0.835433 0.604126 0.145841
0.839065 0.613601 0.150596
0.842612 0.622969 0.155369
0.846078 0.632126 0.160158
0.849465 0.638901 0.164962
0.852776 0.645574 0.169779
0.856013 0.652147 0.174606
0.859178 0.658621 0.179442
0.862275 0.664997 0.183907
0.864796 0.671278 0.188294
0.865909 0.677465 0.192674
0.866996 0.683559 0.197045
0.868057 0.689562 0.201406
0.869095 0.695475 0.205756
0.870109 0.701299 0.210092
0.871100 0.707036 0.214415
0.872069 0.712688 0.218723
0.050851 0.048338 0.037567
0.050851 0.048276 0.037567
0.050968 0.048061 0.037567
0.051389 0.047697 0.037567
0.051997 0.047227 0.037567
0.053111 0.046748 0.037567
0.055118 0.046416 0.037567
0.057552 0.046459 0.037567
0.062434 0.047116 0.037567
0.076809 0.051859 0.037567
0.100652 0.060280 0.037567
0.135010 0.071991 0.037699
0.174986 0.085795 0.037918
0.215454 0.101408 0.038131
0.251566 0.118728 0.038424
0.289515 0.137008 0.038694
0.323181 0.154941 0.039150
0.356235 0.173839 0.039846
0.389620 0.193070 0.040500
0.418935 0.212654 0.041115
0.447451 0.232931 0.041891
0.475757 0.253864 0.042953
0.503836 0.270430 0.043971
0.531673 0.287072 0.045380
0.559259 0.303841 0.046829
0.586586 0.320720 0.048830
0.604851 0.337692 0.050803
0.621737 0.353441 0.053065
0.638207 0.367501 0.055829
0.654281 0.381493 0.058595
0.669978 0.395410 0.061883
0.685314 0.409249 0.065551
0.700305 0.423005 0.069265
0.714965 0.436675 0.073114
0.729306 0.450255 0.077267
0.743342 0.463743 0.081478
0.753109 0.477135 0.085963
0.761302 0.490430 0.090701
0.769276 0.503626 0.095512
0.777041 0.514572 0.100391
0.784611 0.525035 0.105341
0.792002 0.535385 0.110249
0.799222 0.545622 0.115199
0.806276 0.555746 0.120206
0.813171 0.565760 0.125267
0.819914 0.575663 0.130380
0.826509 0.585457 0.135522
0.830888 0.595141 0.140247
0.834644 0.604717 0.144995
0.838310 0.614186 0.149764
0.841890 0.623548 0.154551
0.845386 0.632550 0.159355
0.848802 0.639319 0.164173
0.852140 0.645986 0.169004
0.855403 0.652553 0.173845
0.858593 0.659021 0.178695
0.861713 0.665393 0.183241
0.864593 0.671669 0.187642
0.865714 0.677850 0.192036
0.866809 0.683940 0.196420
0.867878 0.689938 0.200794
0.868922 0.695847 0.205156
0.869943 0.701667 0.209505
0.870941 0.707400 0.213840
0.871916 0.713047 0.218160
0.050851 0.063258 0.037567
0.050878 0.063104 0.037567
0.051014 0.062566 0.037567
0.051570 0.061735 0.037567
0.052290 0.060760 0.037567
0.053645 0.059674 0.037567
0.056393 0.058691 0.037567
0.060372 0.058129 0.037567
0.066971 0.058236 0.037567
0.076459 0.059342 0.037567
0.094813 0.066099 0.037567
0.124676 0.077422 0.037663
0.162337 0.090578 0.037872
0.202588 0.105870 0.038068
0.237753 0.122855 0.038342
0.274397 0.140475 0.038613
0.309945 0.158208 0.038916
0.342624 0.176956 0.039620
0.375789 0.195921 0.040284
0.407086 0.215409 0.040910
0.435732 0.235610 0.041520
0.464221 0.255954 0.042599
0.492519 0.272375 0.043634
0.520601 0.288951 0.044908
0.548450 0.305662 0.046323
0.576051 0.322488 0.048187
0.598320 0.339413 0.050179
0.615482 0.354824 0.052203
0.632216 0.368840 0.054981
0.648542 0.382791 0.057762
0.664479 0.396670 0.060807
0.680042 0.410473 0.064482
0.695249 0.424196 0.068203
0.710113 0.437834 0.071966
0.724649 0.451385 0.076123
0.738869 0.464845 0.080340
0.750480 0.478211 0.084725
0.758793 0.491481 0.089466
0.766878 0.504653 0.094281
0.774748 0.515384 0.099166
0.782422 0.525833 0.104125
0.789910 0.536170 0.109075
0.797221 0.546394 0.114036
0.804362 0.556507 0.119056
0.811339 0.566510 0.124130
0.818159 0.576403 0.129256
0.824827 0.586186 0.134431
0.829927 0.595861 0.139252
0.833724 0.605428 0.144016
0.837430 0.614888 0.148801
0.841047 0.624241 0.153604
0.844578 0.633058 0.158424
0.848027 0.639819 0.163257
0.851397 0.646479 0.168104
0.854689 0.653039 0.172960
0.857908 0.659501 0.177825
0.861054 0.665866 0.182466
0.864132 0.672135 0.186883
0.865486 0.678311 0.191291
0.866589 0.684394 0.195690
0.867667 0.690387 0.200079
0.868720 0.696290 0.204456
0.869748 0.702105 0.208819
0.870753 0.707833 0.213168
0.871735 0.713475 0.217501
0.050908 0.090231 0.037567
0.050954 0.090044 0.037567
0.051149 0.089388 0.037567
0.051803 0.088242 0.037567
0.052859 0.086650 0.037567
0.055111 0.084594 0.037567
0.058460 0.082176 0.037567
0.064076 0.079628 0.037567
0.072375 0.077369 0.037567
0.082845 0.076688 0.037567
0.095850 0.078271 0.037567
0.118388 0.085387 0.037654
0.153488 0.097880 0.037848
0.190479 0.112494 0.038034
0.226328 0.128916 0.038279
0.261279 0.145473 0.038545
0.297922 0.162841 0.038795
0.329887 0.181300 0.039412
0.362524 0.199821 0.040079
0.395434 0.219119 0.040711
0.424012 0.239164 0.041310
0.452514 0.258590 0.042243
0.480891 0.274882 0.043290
0.509101 0.291348 0.044423
0.537116 0.307963 0.045852
0.564911 0.324704 0.047515
0.591319 0.341553 0.049521
0.608735 0.356531 0.051501
0.625718 0.370483 0.054078
0.642287 0.384375 0.056868
0.658458 0.398201 0.059661
0.674247 0.411955 0.063328
0.689671 0.425632 0.067051
0.704744 0.439229 0.070819
0.719479 0.452740 0.074872
0.733890 0.466163 0.079092
0.747540 0.479495 0.083367
0.755979 0.492733 0.088104
0.764185 0.505807 0.092920
0.772171 0.516350 0.097810
0.779957 0.526781 0.102776
0.787551 0.537100 0.107769
0.794963 0.547309 0.112741
0.802198 0.557407 0.117771
0.809265 0.567396 0.122857
0.816170 0.577275 0.127996
0.822918 0.587046 0.133184
0.828834 0.596709 0.138134
0.832678 0.606264 0.142914
0.836428 0.615713 0.147715
0.840086 0.625056 0.152534
0.843657 0.633654 0.157370
0.847143 0.640407 0.162221
0.850548 0.647058 0.167083
0.853874 0.653609 0.171956
0.857124 0.660062 0.176837
0.860301 0.666419 0.181585
0.863407 0.672681 0.186019
0.865224 0.678850 0.190444
0.866338 0.684926 0.194859
0.867426 0.690912 0.199264
0.868488 0.696809 0.203657
0.869525 0.702617 0.208036
0.870538 0.708339 0.212400
0.871528 0.713975 0.216749
0.050990 0.127322 0.037567
0.051027 0.127000 0.037567
0.051444 0.125851 0.037567
0.052037 0.123768 0.037567
0.053393 0.120737 0.037567
0.056403 0.116821 0.037567
0.061155 0.112176 0.037567
0.069009 0.107099 0.037567
0.078428 0.102239 0.037567
0.089562 0.099477 0.037567
0.103797 0.099149 0.037609
0.121276 0.101053 0.037711
0.147353 0.107770 0.037843
0.181802 0.121540 0.038017
0.217408 0.136737 0.038237
0.250459 0.152264 0.038494
0.285830 0.169093 0.038739
0.318459 0.186856 0.039234
0.350293 0.204978 0.039896
0.382821 0.223971 0.040526
0.412688 0.243763 0.041127
0.441020 0.261955 0.041899
0.469314 0.278052 0.042952
0.497513 0.294351 0.043968
0.525574 0.310822 0.045377
0.553461 0.327437 0.046834
0.581147 0.344175 0.048848
0.601648 0.358607 0.050838
0.618850 0.372471 0.053142
0.635638 0.386283 0.055937
0.652026 0.400036 0.058736
0.668029 0.413724 0.062114
0.683661 0.427341 0.065834
0.698937 0.440882 0.069601
0.713869 0.454342 0.073540
0.728471 0.467718 0.077756
0.742755 0.481005 0.082031
0.752893 0.494202 0.086639
0.761224 0.506966 0.091451
0.769335 0.517484 0.096343
0.777239 0.527891 0.101313
0.784946 0.538189 0.106348
0.792464 0.548377 0.111329
0.799801 0.558456 0.116368
0.806964 0.568427 0.121464
0.813960 0.578290 0.126614
0.820796 0.588045 0.131813
0.827477 0.597693 0.136901
0.831511 0.607234 0.141697
0.835308 0.616670 0.146515
0.839012 0.626000 0.151351
0.842626 0.634344 0.156204
0.846153 0.641085 0.161071
0.849597 0.647725 0.165951
0.852960 0.654267 0.170841
0.856245 0.660710 0.175739
0.859455 0.667058 0.180604
0.862593 0.673311 0.185055
0.864930 0.679471 0.189498
0.866055 0.685539 0.193931
0.867154 0.691517 0.198354
0.868226 0.697405 0.202763
0.869273 0.703206 0.207159
0.870296 0.708921 0.211540
0.871295 0.714550 0.215906
0.051096 0.165332 0.037567
0.051253 0.164909 0.037567
0.051694 0.163400 0.037567
0.052468 0.160666 0.037567
0.054311 0.156689 0.037567
0.057505 0.151536 0.037567
0.063739 0.145380 0.037567
0.073207 0.138524 0.037567
0.084385 0.132177 0.037579
0.096783 0.127420 0.037648
0.112154 0.125076 0.037726
0.130526 0.125088 0.037812
0.152098 0.127266 0.037905
0.175905 0.133039 0.038015
0.210779 0.146277 0.038218
0.241920 0.161021 0.038462
0.275476 0.177164 0.038698
0.308584 0.193961 0.039092
0.339398 0.211577 0.039741
0.371073 0.230142 0.040364
0.402078 0.249571 0.040961
0.430057 0.266155 0.041579
0.458103 0.281983 0.042631
0.486141 0.298051 0.043649
0.514115 0.314321 0.044914
0.541977 0.330761 0.046319
0.569689 0.347328 0.048177
0.594370 0.361101 0.050170
0.611749 0.374846 0.052197
0.628721 0.388552 0.054989
0.645298 0.402210 0.057787
0.661492 0.415812 0.060869
0.677315 0.429350 0.064577
0.692780 0.442820 0.068335
0.707900 0.456214 0.072152
0.722685 0.469529 0.076358
0.737148 0.482761 0.080626
0.749569 0.495907 0.085095
0.758030 0.508313 0.089900
0.766269 0.518798 0.094789
0.774296 0.529176 0.099757
0.782119 0.539447 0.104802
0.789748 0.549610 0.109818
0.797191 0.559666 0.114864
0.804455 0.569614 0.119968
0.811547 0.579456 0.125126
0.818474 0.589192 0.130335
0.825243 0.598821 0.135568
0.830230 0.608345 0.140379
0.834079 0.617765 0.145212
0.837831 0.627079 0.150065
0.841491 0.635132 0.154934
0.845062 0.641860 0.159818
0.848548 0.648487 0.164715
0.851951 0.655016 0.169622
0.855274 0.661448 0.174538
0.858521 0.667785 0.179460
0.861693 0.674027 0.183999
0.864604 0.680177 0.188460
0.865742 0.686235 0.192912
0.866852 0.692204 0.197352
0.867936 0.698083 0.201780
0.868994 0.703875 0.206194
0.870027 0.709581 0.210593
0.871036 0.715202 0.214976
0.051357 0.198416 0.037567
0.051494 0.198722 0.037567
0.051897 0.199821 0.037567
0.052906 0.198243 0.037567
0.055244 0.193319 0.037567
0.059297 0.186929 0.037567
0.066966 0.179127 0.037602
0.077530 0.170340 0.037654
0.089788 0.162723 0.037710
0.104291 0.156898 0.037771
0.120669 0.153088 0.037839
0.140197 0.151362 0.037913
0.160712 0.151657 0.037994
0.182112 0.153818 0.038080
0.206040 0.157900 0.038218
0.235421 0.171809 0.038448
0.267199 0.186913 0.038672
0.300323 0.202775 0.038990
0.329982 0.219764 0.039620
0.360643 0.237783 0.040229
0.392145 0.256152 0.040818
0.419865 0.271289 0.041384
0.447506 0.286767 0.042337
0.475239 0.302531 0.043350
0.502992 0.318538 0.044473
0.530706 0.334748 0.045877
0.558333 0.350458 0.047525
0.585833 0.364059 0.049513
0.604548 0.377651 0.051483
0.621661 0.391222 0.054044
0.638390 0.404759 0.056835
0.654743 0.418251 0.059633
0.670731 0.431690 0.063303
0.686365 0.445070 0.067045
0.701653 0.458382 0.070836
0.716608 0.471622 0.074921
0.731239 0.484785 0.079175
0.745559 0.497869 0.083497
0.754641 0.509864 0.088290
0.763007 0.520310 0.093170
0.771156 0.530652 0.098132
0.779097 0.540888 0.103173
0.786839 0.551020 0.108230
0.794390 0.561047 0.113278
0.801758 0.570968 0.118386
0.808950 0.580785 0.123549
0.815972 0.590496 0.128766
0.822832 0.600104 0.134031
0.828844 0.609607 0.138973
0.832747 0.619006 0.143820
0.836551 0.628301 0.148688
0.840260 0.636023 0.153572
0.843877 0.642735 0.158472
0.847407 0.649348 0.163386
0.850853 0.655863 0.168310
0.854217 0.662281 0.173242
0.857502 0.668605 0.178182
0.860711 0.674835 0.182856
0.863847 0.680972 0.187337
0.865399 0.687019 0.191807
0.866523 0.692976 0.196266
0.867618 0.698846 0.200713
0.868688 0.704628 0.205146
0.869732 0.710324 0.209563
0.870752 0.715935 0.213964
0.051587 0.232055 0.037567
0.051704 0.232356 0.037567
0.052056 0.233434 0.037567
0.053274 0.235416 0.037601
0.056033 0.230058 0.037643
0.060781 0.222302 0.037687
0.069633 0.213036 0.037732
0.081527 0.203781 0.037779
0.094988 0.195520 0.037831
0.111263 0.188698 0.037886
0.129441 0.183603 0.037947
0.149848 0.180308 0.038012
0.169556 0.178934 0.038083
0.190942 0.179494 0.038198
0.212364 0.181846 0.038326
0.231807 0.185620 0.038460
0.260757 0.198275 0.038662
0.293146 0.213360 0.038929
0.322053 0.229633 0.039534
0.351609 0.247005 0.040125
0.382118 0.262790 0.040700
0.410602 0.277435 0.041256
0.437704 0.292482 0.042078
0.464999 0.307870 0.043080
0.492405 0.323546 0.044068
0.519853 0.339467 0.045461
0.547284 0.354142 0.046906
0.574650 0.367529 0.048883
0.597372 0.380931 0.050845
0.614574 0.394333 0.053123
0.631410 0.407718 0.055898
0.647885 0.421075 0.058684
0.664006 0.434392 0.062037
0.679779 0.447660 0.065755
0.695214 0.460871 0.069525
0.710318 0.474019 0.073468
0.725101 0.487098 0.077700
0.739586 0.500119 0.082001
