velvia_modern/Velvia50_ExtraSoft.cube
TITLE "Velvia 50 ExtraSoft"
# Adobe RGB in/out. REPLACES AgX. Velvia 50 color reversal.
LUT_3D_SIZE 5
DOMAIN_MIN 0.0 0.0 0.0
DOMAIN_MAX 1.0 1.0 1.0
0.065865 0.046521 0.050424
0.338893 0.163441 0.053605
0.625245 0.412776 0.090486
0.746096 0.570903 0.169089
0.794969 0.664968 0.239999
0.102566 0.326052 0.050840
0.264335 0.273393 0.052044
0.574762 0.434271 0.074826
0.728360 0.582132 0.153342
0.789084 0.671418 0.229455
0.285891 0.602028 0.055162
0.383887 0.570217 0.058122
0.545034 0.557442 0.073372
0.695967 0.628089 0.130738
0.775857 0.697969 0.208358
0.402749 0.723291 0.065478
0.460714 0.715345 0.070693
0.589646 0.702661 0.092259
0.692277 0.712884 0.136055
0.763980 0.740002 0.198715
0.473087 0.772622 0.080616
0.515051 0.771083 0.086918
0.610593 0.769072 0.110201
0.703843 0.773011 0.152035
0.762697 0.783633 0.204743
0.092499 0.057019 0.398459
0.378886 0.202131 0.405420
0.623786 0.413865 0.379269
0.741824 0.564963 0.378910
0.793179 0.661453 0.391559
0.125153 0.274720 0.327338
0.209785 0.200275 0.207594
0.557593 0.418599 0.309125
0.723203 0.573542 0.349719
0.787272 0.667570 0.376801
0.294836 0.576909 0.335291
0.377046 0.547385 0.303852
0.524211 0.535253 0.267584
0.687361 0.619578 0.304784
0.774256 0.693905 0.345321
0.408446 0.717018 0.312430
0.462843 0.708069 0.304548
0.587151 0.695946 0.292296
0.688517 0.707555 0.297892
0.762849 0.738509 0.326284
0.478701 0.771103 0.285446
0.519532 0.769679 0.285206
0.612007 0.767965 0.288259
0.704468 0.772355 0.300734
0.763221 0.783643 0.323561
0.306353 0.181472 0.721824
0.465690 0.297033 0.723383
0.688245 0.497637 0.721060
0.754007 0.590020 0.661406
0.794575 0.666682 0.635211
0.335808 0.387074 0.710299
0.440446 0.403903 0.679467
0.617440 0.487139 0.645044
0.732701 0.591983 0.629521
0.788211 0.671062 0.616619
0.339207 0.545368 0.607847
0.397650 0.526319 0.571950
0.500980 0.503610 0.498803
0.687033 0.616927 0.550189
0.773941 0.692724 0.573161
0.433554 0.701859 0.589968
0.479482 0.694884 0.576432
0.588207 0.684889 0.544794
0.684182 0.698197 0.528036
0.762312 0.736725 0.542630
0.499958 0.767746 0.551460
0.537491 0.766712 0.547026
0.619030 0.765921 0.536541
0.707251 0.771410 0.530388
0.765576 0.783901 0.534840
0.483090 0.343224 0.807087
0.580942 0.406239 0.807225
0.724962 0.558429 0.807718
0.778278 0.637251 0.795590
0.801979 0.687371 0.773676
0.505610 0.479698 0.807135
0.592501 0.520108 0.807273
0.706905 0.586900 0.800468
0.761108 0.636635 0.781597
0.795320 0.690062 0.766711
0.442980 0.575135 0.768584
0.492475 0.574723 0.762902
0.608480 0.595649 0.745577
0.716798 0.646487 0.739945
0.779410 0.705533 0.737644
0.480490 0.692294 0.743661
0.518154 0.688356 0.735416
0.603193 0.682884 0.712009
0.686013 0.691948 0.690031
0.766705 0.738959 0.705712
0.537820 0.764897 0.720090
0.571027 0.764454 0.716388
0.634001 0.765052 0.706736
0.713397 0.771843 0.698689
0.770651 0.784761 0.698327
0.620104 0.475135 0.821627
0.666616 0.516761 0.821619
0.756732 0.621168 0.821592
0.796243 0.685250 0.822456
0.806061 0.716584 0.813225
0.630072 0.563857 0.821624
0.675066 0.593628 0.821616
0.756741 0.660249 0.821699
0.784755 0.684068 0.820637
0.803623 0.718255 0.809665
0.587549 0.643775 0.817278
0.615102 0.646818 0.815383
0.688791 0.660819 0.810391
0.749340 0.689879 0.805002
0.789362 0.726302 0.800342
0.555689 0.701629 0.799670
0.582830 0.701357 0.798361
0.644523 0.705534 0.793194
0.720781 0.724222 0.788207
0.776456 0.748566 0.786873
0.583926 0.764609 0.789314
0.602247 0.764805 0.788065
0.657605 0.766973 0.784653
0.724059 0.775033 0.781477
0.776221 0.786467 0.781102
