velvia_modern/Velvia50_Punchy.cube
TITLE "Velvia 50 Punchy"
# Adobe RGB in/out. REPLACES AgX. Velvia 50 color reversal.
LUT_3D_SIZE 5
DOMAIN_MIN 0.0 0.0 0.0
DOMAIN_MAX 1.0 1.0 1.0
0.025288 0.015046 0.016969
0.291935 0.098253 0.018592
0.728608 0.391915 0.040634
0.948635 0.636100 0.103366
1.000000 0.798806 0.174383
0.048996 0.275571 0.017179
0.201439 0.211833 0.017790
0.642531 0.422781 0.030595
0.915157 0.654873 0.089326
1.000000 0.810404 0.163068
0.226457 0.688577 0.019405
0.351670 0.634958 0.020980
0.593541 0.613834 0.029711
0.855049 0.733563 0.070397
1.000000 0.858726 0.141194
0.377785 0.905662 0.025067
0.461796 0.890844 0.028106
0.667538 0.867360 0.041829
0.848289 0.886272 0.074715
0.982792 0.937087 0.131548
0.480438 0.999440 0.034196
0.545450 0.996467 0.038265
0.703258 0.992590 0.054541
0.869540 1.000000 0.088192
0.980328 1.000000 0.137552
0.041991 0.020388 0.371790
0.344850 0.134938 0.381532
0.726071 0.393461 0.345371
0.940535 0.626241 0.344884
1.000000 0.792508 0.362217
0.065953 0.213371 0.277196
0.142640 0.133093 0.140421
0.614081 0.400200 0.254483
0.905497 0.640496 0.305971
1.000000 0.803478 0.342021
0.237119 0.646118 0.287314
0.342354 0.597369 0.248028
0.560001 0.577707 0.205148
0.839309 0.718768 0.249165
1.000000 0.851269 0.300243
0.385792 0.893958 0.258557
0.464985 0.877347 0.248876
0.663323 0.855012 0.234074
0.841417 0.876396 0.240798
0.980619 0.934265 0.275865
0.488977 0.996506 0.225930
0.552553 0.993759 0.225647
0.705691 0.990456 0.229263
0.870693 0.998923 0.244237
0.981334 1.000000 0.272433
0.251083 0.114872 0.902920
0.469263 0.239762 0.905835
0.840920 0.518141 0.901495
0.963695 0.668169 0.792425
1.000000 0.801883 0.746018
0.287975 0.356039 0.881477
0.431789 0.379401 0.824955
0.715068 0.501905 0.763330
0.923314 0.671492 0.736062
1.000000 0.809762 0.713648
0.292339 0.594086 0.698540
0.370664 0.563366 0.637843
0.523347 0.527457 0.519955
0.838711 0.714181 0.601945
1.000000 0.849106 0.639861
0.421738 0.865881 0.668081
0.490168 0.853063 0.645321
0.665106 0.834805 0.593152
0.833518 0.859144 0.566112
0.979588 0.930896 0.589636
0.521755 0.990035 0.604022
0.581316 0.988045 0.596785
0.717819 0.986522 0.579784
0.875835 0.997098 0.569883
0.985858 1.000000 0.577041
0.495687 0.297524 1.000000
0.652876 0.382683 1.000000
0.908788 0.615457 1.000000
1.000000 0.749599 1.000000
1.000000 0.839327 1.000000
0.530587 0.490499 1.000000
0.672370 0.553468 1.000000
0.875195 0.662899 1.000000
0.977279 0.748518 1.000000
1.000000 0.844237 0.988042
0.435505 0.643154 0.991649
0.510135 0.642465 0.980721
0.699627 0.677712 0.947649
0.893547 0.765880 0.936979
1.000000 0.872660 0.932632
0.491708 0.848319 0.944014
0.550366 0.841123 0.928429
0.690569 0.831158 0.884647
0.836852 0.847686 0.844182
0.988030 0.935115 0.872990
0.581848 0.984554 0.899683
0.636306 0.983702 0.892785
0.743897 0.984852 0.874881
0.887225 0.997936 0.860048
0.995635 1.000000 0.859383
0.719680 0.483548 1.000000
0.801764 0.548156 1.000000
0.968900 0.721525 1.000000
1.000000 0.835462 1.000000
1.000000 0.893151 1.000000
0.737024 0.624411 1.000000
0.816989 0.674280 1.000000
0.968918 0.790356 1.000000
1.000000 0.833310 1.000000
1.000000 0.896262 1.000000
0.663995 0.761088 1.000000
0.711029 0.766466 1.000000
0.841917 0.791375 1.000000
0.954800 0.843903 1.000000
1.000000 0.911298 1.000000
0.610953 0.865458 1.000000
0.656047 0.864958 1.000000
0.762409 0.872662 1.000000
0.900974 0.907403 1.000000
1.000000 0.953328 1.000000
0.657891 0.984000 1.000000
0.688952 0.984376 1.000000
0.785634 0.988547 1.000000
0.907100 1.000000 1.000000
1.000000 1.000000 1.000000
