velvia_modern/Velvia50_ExtraSoft.cube
TITLE "Velvia 50 ExtraSoft"
# Adobe RGB in/out. REPLACES AgX. Velvia 50 color reversal.
LUT_3D_SIZE 9
DOMAIN_MIN 0.0 0.0 0.0
DOMAIN_MAX 1.0 1.0 1.0
0.065865 0.046521 0.050424
0.102532 0.054432 0.050424
0.338893 0.163441 0.053605
0.508721 0.304642 0.064011
0.625245 0.412776 0.090486
0.704761 0.503580 0.129215
0.746096 0.570903 0.169089
0.777409 0.625427 0.206444
0.794969 0.664968 0.239999
0.066769 0.076397 0.050424
0.078438 0.071322 0.050424
0.278797 0.171285 0.052018
0.474592 0.310113 0.060663
0.610148 0.416534 0.085342
0.694268 0.506108 0.123965
0.741633 0.573153 0.165038
0.775500 0.626930 0.203359
0.793576 0.666326 0.237448
0.102566 0.326052 0.050840
0.157253 0.297342 0.051141
0.264335 0.273393 0.052044
0.419827 0.343825 0.057285
0.574762 0.434271 0.074826
0.665759 0.516920 0.110478
0.728360 0.582132 0.153342
0.767696 0.632692 0.193362
0.789084 0.671418 0.229455
0.203076 0.492493 0.052431
0.245432 0.473266 0.053034
0.331136 0.439401 0.054576
0.421474 0.433311 0.058112
0.536128 0.477906 0.069844
0.636847 0.542068 0.098934
0.712127 0.601616 0.139573
0.754139 0.644526 0.180562
0.782557 0.681538 0.218528
0.285891 0.602028 0.055162
0.315413 0.592615 0.055911
0.383887 0.570217 0.058122
0.460789 0.554570 0.063292
0.545034 0.557442 0.073372
0.620482 0.585512 0.094594
0.695967 0.628089 0.130738
0.741679 0.664192 0.170205
0.775857 0.697969 0.208358
0.350255 0.670386 0.059502
0.370401 0.666274 0.060312
0.426126 0.655042 0.063711
0.495811 0.643970 0.070367
0.573625 0.640073 0.082462
0.627764 0.646039 0.101012
0.685657 0.662717 0.128370
0.733292 0.692265 0.164847
0.769406 0.721169 0.201554
0.402749 0.723291 0.065478
0.416785 0.721772 0.066442
0.460714 0.715345 0.070693
0.524774 0.707282 0.078854
0.589646 0.702661 0.092259
0.640270 0.704324 0.111374
0.692277 0.712884 0.136055
0.729444 0.724949 0.164497
0.763980 0.740002 0.198715
0.441269 0.750884 0.072746
0.452792 0.750059 0.073934
0.490346 0.747565 0.078674
0.548330 0.744512 0.087839
0.601848 0.742546 0.101591
0.649926 0.743004 0.121080
0.699443 0.746515 0.144693
0.732205 0.753003 0.171170
0.762062 0.761929 0.200266
0.473087 0.772622 0.080616
0.482740 0.772239 0.082015
0.515051 0.771083 0.086918
0.567084 0.769721 0.096092
0.610593 0.769072 0.110201
0.656244 0.769992 0.129169
0.703843 0.773011 0.152035
0.733802 0.778257 0.177014
0.762697 0.783633 0.204743
0.066954 0.046900 0.140289
0.124598 0.060028 0.144736
0.345763 0.170328 0.154136
0.502808 0.301034 0.163814
0.619606 0.407156 0.183942
0.699801 0.498998 0.208546
0.743878 0.567438 0.234179
0.776464 0.623505 0.259722
0.794310 0.663586 0.284270
0.067775 0.072695 0.096363
0.072759 0.059764 0.063704
0.272471 0.166045 0.104481
0.465497 0.302765 0.140750
0.603846 0.409734 0.171156
0.689209 0.501391 0.200762
0.739402 0.569586 0.228643
0.774557 0.624984 0.255933
0.792923 0.664939 0.281358
0.107422 0.309073 0.133667
0.149324 0.276244 0.107697
0.244193 0.245658 0.083825
0.405837 0.328221 0.104734
0.564737 0.424807 0.142280
0.660565 0.511510 0.178741
0.726129 0.578305 0.212839
0.766149 0.630690 0.244286
0.788453 0.670026 0.272188
0.204087 0.477874 0.135124
0.242896 0.459285 0.125278
0.322781 0.425337 0.107230
0.410443 0.419665 0.102517
0.526642 0.468187 0.122754
0.632089 0.536381 0.158367
0.710034 0.597658 0.194306
0.752702 0.642523 0.228234
0.781975 0.680180 0.259494
0.286858 0.594602 0.133916
0.315056 0.585364 0.130354
0.380663 0.563113 0.122563
0.455541 0.547390 0.119350
0.538498 0.550791 0.126171
0.617053 0.580715 0.147320
0.693229 0.625448 0.180557
0.740477 0.662357 0.214683
0.775368 0.696735 0.247371
0.351287 0.667035 0.133408
0.370901 0.662973 0.132504
0.425336 0.651828 0.130826
0.493645 0.640779 0.131853
0.571211 0.636965 0.138774
0.625507 0.643275 0.153160
0.683895 0.660758 0.174787
0.732446 0.690814 0.206691
0.768813 0.720431 0.238069
0.403785 0.722009 0.133832
0.417592 0.720372 0.134135
0.460881 0.713408 0.135714
0.524166 0.705408 0.140072
0.588826 0.700853 0.148808
0.639221 0.702655 0.162463
0.691224 0.711476 0.180847
0.728988 0.724355 0.204209
0.763655 0.739597 0.233455
0.442395 0.750153 0.134787
0.453800 0.749337 0.135654
0.491005 0.746871 0.138910
0.548544 0.743854 0.145356
0.601725 0.741930 0.155770
0.649630 0.742446 0.169437
0.699088 0.746048 0.187521
0.732022 0.752658 0.209258
0.761958 0.761720 0.233345
0.474268 0.772247 0.135791
0.483857 0.771870 0.136914
0.515974 0.770733 0.140975
0.567750 0.769402 0.148544
0.610856 0.768791 0.159691
0.656392 0.769759 0.173946
0.703941 0.772840 0.192158
0.733870 0.778163 0.213122
0.762802 0.783631 0.236549
0.092499 0.057019 0.398459
0.183750 0.083787 0.399985
0.378886 0.202131 0.405420
0.530812 0.326660 0.396504
0.623786 0.413865 0.379269
0.698284 0.498766 0.376179
0.741824 0.564963 0.378910
0.775165 0.621220 0.384480
0.793179 0.661453 0.391559
0.108805 0.134292 0.398993
0.194709 0.162347 0.393217
0.341782 0.223876 0.359931
0.485740 0.321388 0.354921
0.605941 0.413456 0.358393
0.686829 0.500027 0.364302
0.737134 0.566558 0.371458
0.773209 0.622512 0.379472
0.791778 0.662726 0.388025
0.125153 0.274720 0.327338
0.155977 0.246737 0.291223
0.209785 0.200275 0.207594
0.399634 0.319451 0.270676
0.557593 0.418599 0.309125
0.655530 0.506418 0.332336
0.723203 0.573542 0.349719
0.763655 0.627637 0.364093
0.787272 0.667570 0.376801
0.216877 0.448334 0.338901
0.245998 0.432683 0.321238
0.312070 0.400202 0.278049
0.388524 0.392884 0.247268
0.511418 0.451579 0.268244
0.624370 0.526831 0.300458
0.706398 0.590718 0.324011
0.749984 0.638754 0.343870
0.780781 0.677441 0.360964
0.294836 0.576909 0.335291
0.318742 0.568500 0.326661
0.377046 0.547385 0.303852
0.445596 0.531330 0.279061
0.524211 0.535253 0.267584
0.609829 0.570090 0.280403
0.687361 0.619578 0.304784
0.737835 0.658236 0.325936
0.774256 0.693905 0.345321
0.357083 0.658185 0.324907
0.375172 0.654357 0.320670
0.425502 0.643680 0.308525
0.489793 0.632805 0.294751
0.563926 0.629052 0.284147
0.619985 0.636067 0.283540
0.679705 0.655823 0.295086
0.730393 0.687142 0.314209
0.767362 0.717922 0.333401
0.408446 0.717018 0.312430
0.421543 0.714751 0.310448
0.462843 0.708069 0.304548
0.523719 0.700322 0.297428
0.587151 0.695946 0.292296
0.636690 0.698066 0.292178
0.688517 0.707555 0.297892
0.727864 0.722753 0.308568
0.762849 0.738509 0.326284
0.446895 0.747988 0.299614
0.457913 0.747208 0.298848
0.493981 0.744846 0.296595
0.550067 0.741961 0.294080
0.601826 0.740172 0.292899
0.649112 0.740855 0.295113
0.698299 0.744707 0.300921
0.731599 0.751670 0.310525
0.761745 0.761141 0.323371
0.478701 0.771103 0.285446
0.488074 0.770747 0.285340
0.519532 0.769679 0.285206
0.570435 0.768451 0.285812
0.612007 0.767965 0.288259
0.657127 0.769083 0.293568
0.704468 0.772355 0.300734
0.734189 0.777917 0.310784
0.763221 0.783643 0.323561
0.196393 0.103620 0.593835
0.265757 0.138853 0.594556
0.417841 0.244642 0.597133
0.576046 0.369310 0.601829
0.649369 0.446483 0.572258
0.708682 0.513507 0.545264
0.745012 0.572098 0.530406
0.775696 0.623418 0.521832
0.793070 0.662028 0.516500
0.213315 0.184344 0.594087
0.277415 0.213265 0.594807
0.423744 0.298831 0.597383
0.554551 0.379972 0.578246
0.630141 0.443915 0.547250
0.698443 0.513297 0.530543
0.739994 0.572909 0.521444
0.773640 0.624379 0.516026
0.791623 0.663125 0.512551
0.204740 0.302232 0.517760
0.240288 0.298885 0.499103
0.330062 0.310761 0.469527
0.450928 0.367250 0.468893
0.580019 0.439659 0.480139
0.663242 0.514868 0.489127
0.724870 0.577140 0.494689
0.763798 0.628381 0.497963
0.786964 0.667383 0.499905
0.244039 0.426397 0.487926
0.265549 0.415452 0.471061
0.318317 0.388880 0.420698
0.368871 0.367243 0.365648
0.513019 0.449628 0.409866
0.624936 0.526284 0.440193
0.706040 0.589707 0.460881
0.749211 0.637728 0.473593
0.780245 0.676366 0.481776
0.313074 0.557778 0.489374
0.330739 0.550862 0.479769
0.380622 0.532387 0.450361
0.439705 0.515854 0.414902
0.510781 0.518588 0.394893
0.604837 0.561287 0.408632
0.683759 0.615346 0.430843
0.736216 0.655417 0.449077
0.773533 0.691962 0.463125
0.370035 0.647346 0.481468
0.386099 0.643983 0.476154
0.430201 0.634364 0.459275
0.489023 0.624050 0.435914
0.557953 0.620134 0.417083
0.614392 0.627664 0.408936
0.676069 0.650754 0.415922
0.728659 0.683571 0.431985
0.766190 0.715615 0.446685
0.418293 0.709520 0.467420
0.430351 0.707472 0.464337
0.468737 0.701376 0.453916
0.526080 0.694182 0.439759
0.586534 0.690098 0.426789
0.634529 0.692499 0.418878
0.685799 0.702743 0.417647
0.726924 0.720983 0.423598
0.762213 0.737366 0.436547
0.455896 0.745021 0.448146
0.466311 0.744310 0.446434
0.500599 0.742152 0.440987
0.554406 0.739521 0.433314
0.603186 0.737962 0.425970
0.649381 0.738870 0.421271
0.697975 0.743036 0.420601
0.731378 0.750465 0.424198
0.761784 0.760530 0.431409
0.487178 0.769494 0.427353
0.496196 0.769176 0.426607
0.526570 0.768232 0.424237
0.574628 0.767184 0.420960
0.614603 0.766905 0.418073
0.658973 0.768251 0.416884
0.705607 0.771796 0.418316
0.734975 0.777698 0.422736
0.764102 0.783716 0.429976
0.306353 0.181472 0.721824
0.350201 0.210622 0.722164
0.465690 0.297033 0.723383
0.597615 0.399362 0.725613
0.688245 0.497637 0.721060
0.724006 0.541657 0.684363
0.754007 0.590020 0.661406
0.778656 0.631460 0.646166
0.794575 0.666682 0.635211
0.316213 0.249253 0.721943
0.358281 0.274637 0.722283
0.470909 0.340716 0.723502
0.600015 0.428428 0.725731
0.669164 0.494458 0.700807
0.716206 0.540713 0.672243
0.748774 0.590187 0.653836
0.776510 0.632079 0.641237
0.793073 0.667562 0.631320
0.335808 0.387074 0.710299
0.364545 0.389809 0.701491
0.440446 0.403903 0.679467
0.535793 0.436683 0.658726
0.617440 0.487139 0.645044
0.685774 0.539253 0.636540
0.732701 0.591983 0.629521
0.767995 0.634849 0.622788
0.788211 0.671062 0.616619
0.300171 0.436995 0.624307
0.319937 0.432666 0.612719
0.373097 0.425598 0.582953
0.450079 0.438173 0.561558
0.557277 0.486510 0.565969
0.641210 0.543246 0.578370
0.711665 0.599635 0.587850
0.752185 0.641959 0.593174
0.781125 0.678750 0.595224
0.339207 0.545368 0.607847
0.354083 0.540366 0.598887
0.397650 0.526319 0.571950
0.447404 0.511327 0.534011
0.500980 0.503610 0.498803
0.608564 0.562475 0.528401
0.687033 0.616927 0.550189
0.737475 0.656598 0.564852
0.773941 0.692724 0.573161
0.390505 0.637378 0.602081
0.404021 0.634640 0.596588
0.441136 0.626586 0.579470
0.494182 0.617323 0.555199
0.556544 0.612754 0.531055
0.610331 0.619788 0.518406
0.675045 0.647556 0.527937
0.728504 0.682027 0.542922
0.766256 0.714973 0.554656
0.433554 0.701859 0.589968
0.444431 0.700120 0.586743
0.479482 0.694884 0.576432
0.532737 0.688567 0.561418
0.588207 0.684889 0.544794
0.633967 0.687349 0.532720
0.684182 0.698197 0.528036
0.726810 0.719095 0.532665
0.762312 0.736725 0.542630
0.469679 0.741838 0.572817
0.479358 0.741226 0.571004
0.511464 0.739367 0.565106
0.562452 0.737116 0.555494
0.606507 0.735886 0.545166
0.651196 0.737047 0.536933
0.698832 0.741512 0.532599
0.731736 0.749429 0.532693
0.762567 0.760384 0.536848
0.499958 0.767746 0.551460
0.508519 0.767483 0.550423
0.537491 0.766712 0.547026
0.580411 0.765919 0.541938
0.619030 0.765921 0.536541
0.662337 0.767552 0.532316
0.707251 0.771410 0.530388
0.736418 0.777694 0.531278
0.765576 0.783901 0.534840
0.400898 0.268189 0.782653
0.430802 0.288747 0.782740
0.522530 0.353041 0.783052
0.624146 0.436721 0.783623
0.711297 0.529963 0.784471
0.743256 0.578197 0.771927
0.767179 0.614287 0.756696
0.783716 0.644717 0.736453
0.797669 0.675397 0.720367
0.407105 0.315379 0.782683
0.436504 0.333150 0.782770
0.527108 0.386488 0.783082
0.626315 0.463467 0.783653
0.709968 0.543573 0.783013
0.735681 0.576997 0.766905
0.761925 0.614130 0.749717
0.781530 0.645072 0.731809
0.796126 0.676075 0.716481
0.428484 0.436297 0.782792
0.456314 0.447501 0.782879
0.543188 0.485637 0.783191
0.607260 0.508659 0.771662
0.662490 0.537486 0.760449
0.712908 0.574380 0.742020
0.745551 0.614363 0.727866
0.774523 0.646861 0.714814
0.791100 0.678843 0.703817
0.386400 0.487078 0.740769
0.404682 0.487352 0.736420
0.455244 0.491893 0.723981
0.531318 0.507514 0.708507
0.606208 0.535811 0.698792
0.670899 0.575409 0.694145
0.723307 0.617631 0.691389
0.759296 0.652035 0.688553
0.783659 0.685188 0.684970
0.382726 0.549647 0.697611
0.396500 0.547058 0.692281
0.433933 0.540462 0.676136
0.488890 0.537271 0.656257
0.564025 0.550261 0.644852
0.631669 0.587070 0.648296
0.701151 0.627892 0.656093
0.742798 0.663525 0.661899
0.775894 0.697217 0.664842
0.416983 0.631501 0.686317
0.427472 0.629499 0.682404
0.460614 0.623519 0.669867
0.509355 0.616363 0.651685
0.566435 0.611920 0.632315
0.608379 0.613162 0.610376
0.680203 0.649698 0.630000
0.731295 0.684616 0.641320
0.768335 0.717180 0.648070
0.454131 0.695539 0.677712
0.463855 0.694163 0.675233
0.495608 0.689979 0.667148
0.544774 0.684834 0.655057
0.593161 0.681714 0.642012
0.635926 0.683732 0.630465
0.684173 0.694491 0.623637
0.727976 0.718582 0.629969
0.763603 0.737047 0.637474
0.488062 0.738935 0.665419
0.496959 0.738444 0.663939
0.526718 0.736955 0.659056
0.573731 0.735187 0.651588
0.612189 0.734370 0.643293
0.655031 0.735783 0.636082
0.701293 0.740445 0.630842
0.732882 0.748795 0.629339
0.764121 0.760733 0.632684
0.516925 0.766129 0.649869
0.524969 0.765932 0.649055
0.552342 0.765375 0.646354
0.588471 0.764896 0.642179
0.625468 0.765238 0.637492
0.667452 0.767194 0.633392
0.709816 0.771375 0.629842
0.738640 0.778044 0.629016
0.767737 0.784239 0.630811
0.483090 0.343224 0.807087
0.507528 0.359860 0.807117
0.580942 0.406239 0.807225
0.654482 0.480084 0.807423
0.724962 0.558429 0.807718
0.763394 0.615741 0.804294
0.778278 0.637251 0.795590
0.790117 0.661605 0.783248
0.801979 0.687371 0.773676
0.488096 0.379013 0.807097
0.512260 0.391844 0.807127
0.583505 0.434849 0.807235
0.656425 0.503637 0.807434
0.725849 0.574688 0.807728
0.756238 0.614823 0.801873
0.775231 0.636961 0.792255
0.787947 0.661788 0.780939
0.800423 0.687886 0.772057
0.505610 0.479698 0.807135
0.528860 0.489918 0.807165
0.592501 0.520108 0.807273
0.662861 0.566553 0.807375
0.706905 0.586900 0.800468
0.734387 0.612631 0.791736
0.761108 0.636635 0.781597
0.780933 0.662920 0.773417
0.795320 0.690062 0.766711
0.480656 0.543801 0.796983
0.495708 0.545057 0.795471
0.543496 0.550531 0.790476
0.599335 0.563087 0.783655
0.651561 0.584436 0.776872
0.705714 0.612538 0.771061
0.738624 0.638620 0.766276
0.769624 0.666756 0.762207
0.787649 0.695272 0.756735
0.442980 0.575135 0.768584
0.454610 0.574692 0.767183
0.492475 0.574723 0.762902
0.552172 0.579934 0.754494
0.608480 0.595649 0.745577
0.664729 0.619596 0.741279
0.716798 0.646487 0.739945
0.751972 0.675962 0.739164
0.779410 0.705533 0.737644
0.452080 0.633461 0.753867
0.461622 0.632323 0.751172
0.492702 0.629100 0.742474
0.540982 0.626135 0.729862
0.591292 0.627456 0.715547
0.639388 0.638975 0.707776
0.698223 0.663567 0.710566
0.738311 0.693336 0.716051
0.772665 0.722204 0.719750
0.480490 0.692294 0.743661
0.489225 0.691316 0.741746
0.518154 0.688356 0.735416
0.563939 0.684794 0.725568
0.603193 0.682884 0.712009
0.643187 0.684771 0.699520
0.686013 0.691948 0.690031
0.731582 0.721214 0.699372
0.766705 0.738959 0.705712
0.510879 0.736831 0.733711
0.519018 0.736471 0.732503
0.546480 0.735395 0.728475
0.584423 0.734190 0.721274
0.620619 0.733872 0.712373
0.661413 0.735538 0.704158
0.705552 0.740170 0.698323
0.734933 0.748710 0.696444
0.766592 0.761736 0.699517
0.537820 0.764897 0.720090
0.545328 0.764773 0.719238
0.571027 0.764454 0.716388
0.598792 0.764328 0.711908
0.634001 0.765052 0.706736
0.674466 0.767355 0.701995
0.713397 0.771843 0.698689
0.741722 0.778857 0.697462
0.770651 0.784761 0.698327
0.565572 0.410013 0.822068
0.581096 0.421910 0.822090
0.623545 0.462146 0.822168
0.687575 0.522740 0.822312
0.740241 0.590562 0.822527
0.778486 0.645432 0.821425
0.787485 0.661397 0.812740
0.797088 0.680418 0.805681
0.804092 0.701467 0.799968
0.569755 0.438379 0.822076
0.583658 0.449531 0.822098
0.625719 0.487509 0.822176
0.689307 0.540580 0.822320
0.741049 0.605585 0.822534
0.774527 0.644548 0.819178
0.784591 0.661046 0.811134
0.794975 0.680492 0.804530
0.803513 0.701861 0.799140
0.580058 0.522459 0.822103
0.592649 0.529909 0.822125
0.633388 0.555489 0.822203
0.695447 0.598524 0.822347
0.733094 0.627754 0.819012
0.755448 0.642319 0.812055
0.775332 0.660427 0.805930
0.788097 0.681196 0.800744
0.800367 0.703583 0.795890
0.576499 0.599024 0.817068
0.584904 0.600285 0.816330
0.611554 0.605178 0.813915
0.650691 0.613435 0.810247
0.695486 0.625338 0.806063
0.727571 0.641664 0.801962
0.755229 0.661643 0.798248
0.777874 0.684128 0.793096
0.792614 0.707907 0.787364
0.515955 0.612451 0.800756
0.527046 0.612877 0.800246
0.563786 0.614953 0.798618
0.603964 0.620442 0.795678
0.649329 0.631043 0.790852
0.699209 0.647231 0.786684
0.732976 0.668051 0.783296
0.763488 0.691791 0.780403
0.784085 0.716754 0.777666
0.499979 0.645277 0.786249
0.509064 0.644969 0.785316
0.539451 0.644466 0.782302
0.582800 0.645634 0.777943
0.623222 0.651257 0.773655
0.670406 0.663684 0.770739
0.715927 0.683031 0.769494
0.748617 0.706840 0.769132
0.776776 0.728001 0.768763
0.513934 0.693974 0.777846
0.521942 0.693430 0.777078
0.548871 0.691885 0.774521
0.585272 0.690485 0.770540
0.620647 0.691194 0.766022
0.661312 0.696422 0.762110
0.707134 0.709476 0.760281
0.739762 0.727417 0.760986
0.772149 0.743000 0.762129
0.538255 0.736090 0.772452
0.545717 0.735867 0.771927
0.571118 0.735234 0.770160
0.598272 0.734669 0.767345
0.632389 0.734994 0.764004
0.671337 0.737097 0.760762
0.710451 0.741705 0.755993
0.737958 0.749283 0.752792
0.770388 0.763830 0.756825
0.562408 0.764309 0.766675
0.569395 0.764260 0.766359
0.585765 0.764187 0.765295
0.611337 0.764432 0.763596
0.644691 0.765563 0.761588
0.683523 0.768224 0.759168
0.718096 0.772985 0.756207
0.745738 0.780246 0.754946
0.773510 0.785496 0.755599
0.620104 0.475135 0.821627
0.630928 0.485450 0.821625
0.666616 0.516761 0.821619
0.715806 0.564108 0.821608
0.756732 0.621168 0.821592
0.788670 0.672902 0.821569
0.796243 0.685250 0.822456
0.802985 0.699784 0.819561
0.806061 0.716584 0.813225
0.622307 0.499827 0.821626
0.633044 0.507765 0.821625
0.668477 0.534890 0.821619
0.716744 0.580136 0.821607
0.757466 0.631330 0.821591
0.785381 0.672819 0.821761
0.793527 0.684869 0.822611
0.802020 0.699783 0.818444
0.805497 0.716885 0.812405
0.630072 0.563857 0.821624
0.640511 0.570533 0.821622
0.675066 0.593628 0.821616
0.720070 0.626554 0.821605
0.756741 0.660249 0.821699
0.773951 0.670602 0.822435
0.784755 0.684068 0.820637
0.795366 0.700185 0.814748
0.803623 0.718255 0.809665
0.637392 0.639680 0.821773
0.644146 0.640414 0.821845
0.665946 0.643180 0.822085
0.698743 0.648654 0.822469
0.724488 0.657367 0.822450
0.748307 0.669477 0.817707
0.771693 0.684707 0.813177
0.785332 0.702438 0.809050
0.798029 0.721453 0.805357
0.587549 0.643775 0.817278
0.593954 0.644387 0.816840
0.615102 0.646818 0.815383
0.648272 0.652008 0.813100
0.688791 0.660819 0.810391
0.722118 0.673566 0.807622
0.749340 0.689879 0.805002
0.774400 0.708894 0.802586
0.789362 0.726302 0.800342
0.559126 0.664545 0.805993
0.567776 0.664754 0.805647
0.588091 0.665845 0.804507
0.618415 0.669007 0.802780
0.656974 0.675728 0.800873
0.700985 0.687022 0.799150
0.731362 0.702847 0.797759
0.760215 0.721623 0.796374
0.781673 0.734986 0.794295
0.555689 0.701629 0.799670
0.563205 0.701505 0.799368
0.582830 0.701357 0.798361
0.609755 0.702171 0.796710
0.644523 0.705534 0.793194
0.685197 0.713176 0.790148
0.720781 0.724222 0.788207
0.750121 0.735553 0.787335
0.776456 0.748566 0.786873
0.570632 0.737249 0.795283
0.575599 0.737166 0.794831
0.590703 0.736996 0.793303
0.615668 0.737148 0.790853
0.648110 0.738308 0.787924
0.685890 0.741265 0.785086
0.719061 0.746804 0.782936
0.746908 0.755744 0.782087
0.774556 0.767664 0.782392
0.583926 0.764609 0.789314
0.588060 0.764634 0.789029
0.602247 0.764805 0.788065
0.626079 0.765424 0.786513
0.657605 0.766973 0.784653
0.694785 0.770008 0.782853
0.724059 0.775033 0.781477
0.750853 0.782360 0.780825
0.776221 0.786467 0.781102
