velvia_modern/Velvia50_RadianceIII.cube
TITLE "Velvia 50 RadianceIII"
# Adobe RGB in/out. REPLACES AgX. Velvia 50 color reversal.
LUT_3D_SIZE 9
DOMAIN_MIN 0.0 0.0 0.0
DOMAIN_MAX 1.0 1.0 1.0
0.078461 0.087030 0.084083
0.078296 0.087030 0.084083
0.328375 0.089360 0.084083
0.699960 0.193392 0.084083
0.940400 0.391372 0.084083
0.981989 0.563661 0.083765
0.987598 0.721002 0.085601
0.988934 0.849708 0.090984
0.989742 0.919079 0.108026
0.078461 0.087030 0.084083
0.078335 0.087030 0.084083
0.204099 0.090551 0.084083
0.616696 0.202726 0.084083
0.916608 0.398842 0.084083
0.979578 0.569310 0.083841
0.987338 0.726497 0.085045
0.988833 0.853345 0.090171
0.989672 0.921275 0.106275
0.078444 0.232718 0.084083
0.078306 0.182264 0.084083
0.151091 0.143526 0.084083
0.469928 0.265360 0.084083
0.821860 0.434655 0.084083
0.968657 0.593665 0.084019
0.985609 0.748527 0.083612
0.988483 0.867312 0.088166
0.989443 0.928928 0.100980
0.078388 0.544328 0.084083
0.079463 0.510627 0.084083
0.207067 0.445977 0.084083
0.439759 0.433337 0.084083
0.716661 0.518109 0.084083
0.942679 0.652089 0.084083
0.982451 0.796131 0.083690
0.987843 0.886882 0.086966
0.989099 0.938197 0.095196
0.078264 0.798331 0.084083
0.082265 0.776162 0.084083
0.242104 0.721349 0.084083
0.475594 0.682885 0.084083
0.701687 0.689636 0.084083
0.906179 0.757745 0.084083
0.976043 0.856936 0.083743
0.987031 0.918360 0.085752
0.988708 0.953108 0.091486
0.078272 0.928633 0.084083
0.086136 0.922399 0.084083
0.254223 0.904429 0.084083
0.492390 0.886732 0.084083
0.720319 0.880443 0.084083
0.901311 0.889810 0.084083
0.969979 0.916261 0.083777
0.985118 0.948117 0.085019
0.988335 0.966634 0.089693
0.079532 0.967854 0.084083
0.092287 0.967083 0.084083
0.258493 0.964817 0.084083
0.492591 0.960823 0.084083
0.723330 0.957694 0.084083
0.903031 0.958787 0.084008
0.969122 0.963953 0.083710
0.983746 0.968593 0.084972
0.987946 0.976131 0.088997
0.083850 0.981432 0.084083
0.102288 0.981245 0.084083
0.259155 0.980005 0.084083
0.482410 0.978480 0.084083
0.711892 0.977489 0.084083
0.896846 0.977701 0.083884
0.968011 0.979429 0.083662
0.983349 0.981736 0.085882
0.987628 0.983106 0.089373
0.089621 0.984767 0.084083
0.113322 0.984708 0.084083
0.257871 0.984532 0.084083
0.466111 0.984323 0.084083
0.689484 0.984221 0.084022
0.883106 0.984357 0.083766
0.965655 0.984810 0.083619
0.982662 0.985597 0.086622
0.987414 0.986681 0.090537
0.078461 0.087030 0.083686
0.078388 0.087030 0.083661
0.328336 0.089504 0.083650
0.679211 0.181925 0.084885
0.932236 0.376917 0.087290
0.981357 0.551442 0.091536
0.987456 0.710405 0.103835
0.988881 0.843888 0.124685
0.989705 0.916208 0.154626
0.078461 0.087030 0.084083
0.078402 0.087030 0.084083
0.181770 0.089202 0.084083
0.587269 0.185983 0.083684
0.901137 0.382322 0.085880
0.977516 0.556583 0.089492
0.987194 0.715873 0.100548
0.988773 0.847496 0.120727
0.989635 0.918411 0.150674
0.078449 0.196374 0.083724
0.078210 0.143882 0.084054
0.121646 0.118944 0.084083
0.434258 0.232706 0.084083
0.796838 0.412923 0.083675
0.966506 0.579504 0.086790
0.985166 0.737384 0.092654
0.988423 0.861406 0.110979
0.989407 0.926677 0.138627
0.078397 0.515649 0.083716
0.078508 0.483566 0.083822
0.183802 0.414784 0.084060
0.410048 0.403786 0.084083
0.692769 0.499427 0.083859
0.936339 0.637033 0.084183
0.982026 0.785667 0.088252
0.987750 0.883076 0.100331
0.989065 0.936665 0.124445
0.078276 0.778774 0.083723
0.081425 0.755994 0.083749
0.228068 0.701954 0.083862
0.460400 0.663834 0.083910
0.684812 0.671996 0.083809
0.897930 0.744662 0.083646
0.974906 0.849748 0.086966
0.986852 0.914909 0.093175
0.988675 0.951740 0.113206
0.078260 0.922853 0.083726
0.085560 0.916365 0.083731
0.248028 0.898592 0.083742
0.484246 0.881009 0.083735
0.710768 0.874923 0.083695
0.895515 0.884891 0.083613
0.969176 0.912660 0.086365
0.984930 0.946566 0.091049
0.988309 0.966238 0.106706
0.079375 0.967092 0.083723
0.091633 0.966329 0.083722
0.254888 0.964083 0.083712
0.488048 0.959370 0.083687
0.718100 0.955810 0.083637
0.899679 0.957395 0.084713
0.968574 0.963319 0.086994
0.983625 0.968221 0.090396
0.987917 0.975864 0.103298
0.083661 0.981211 0.083718
0.101599 0.980807 0.083713
0.257148 0.979581 0.083694
0.479912 0.978076 0.083658
0.708960 0.977109 0.083847
0.895042 0.977356 0.085648
0.967711 0.979134 0.087627
0.983274 0.981664 0.091722
0.987611 0.983058 0.103216
0.089417 0.984691 0.083712
0.112791 0.984633 0.083705
0.256747 0.984460 0.083682
0.464788 0.984256 0.083639
0.688031 0.984160 0.084356
0.882240 0.984304 0.086254
0.965518 0.984768 0.088056
0.982631 0.985568 0.092728
0.987408 0.986666 0.105602
0.078461 0.087030 0.353877
0.078388 0.087030 0.356382
0.345110 0.090985 0.365369
0.711839 0.204709 0.350688
0.930872 0.376610 0.320209
0.979652 0.542066 0.314794
0.987259 0.696470 0.319582
0.988777 0.834068 0.329405
0.989628 0.910443 0.342110
0.078461 0.087030 0.354753
0.078389 0.086871 0.345323
0.270499 0.097484 0.286918
0.607381 0.200675 0.278056
0.895034 0.377669 0.284207
0.975467 0.545200 0.294283
0.986962 0.700901 0.306555
0.988664 0.837347 0.320565
0.989557 0.912569 0.335736
0.078455 0.129861 0.226943
0.078253 0.112953 0.164316
0.088131 0.093482 0.091286
0.398657 0.205816 0.136698
0.767187 0.391739 0.193851
0.963539 0.561268 0.236670
0.984418 0.719507 0.268979
0.988306 0.850217 0.293930
0.989327 0.920610 0.315887
0.078415 0.449238 0.249508
0.078303 0.418446 0.215283
0.147365 0.358117 0.146256
0.346555 0.346483 0.113127
0.648332 0.461740 0.133842
0.921125 0.609269 0.179010
0.980773 0.763043 0.220534
0.987547 0.874884 0.258972
0.988985 0.933102 0.288649
0.078307 0.727522 0.242396
0.079845 0.707415 0.225629
0.197217 0.657004 0.184804
0.425559 0.620343 0.147600
0.644359 0.630148 0.133121
0.878409 0.714372 0.149391
0.972154 0.832724 0.186417
0.986241 0.906493 0.224228
0.988589 0.948275 0.261435
0.078227 0.906015 0.222248
0.083983 0.899963 0.214218
0.228587 0.883125 0.192832
0.462804 0.864461 0.169536
0.685110 0.855765 0.154458
0.879793 0.871599 0.153630
0.967019 0.903112 0.170084
0.984418 0.942384 0.202614
0.988236 0.965153 0.238724
0.078908 0.964850 0.199519
0.089732 0.964122 0.196107
0.244688 0.960359 0.186006
0.475172 0.954353 0.173938
0.702891 0.950468 0.165842
0.890055 0.952418 0.165674
0.966971 0.960145 0.174709
0.983273 0.967155 0.192906
0.987833 0.975091 0.224901
0.083080 0.979847 0.177588
0.099500 0.979461 0.176304
0.250898 0.978292 0.172562
0.472249 0.976860 0.168445
0.700198 0.975974 0.166704
0.889613 0.976319 0.170128
0.966799 0.978242 0.179794
0.983046 0.981446 0.196239
0.987559 0.982909 0.219316
0.088767 0.984448 0.156241
0.111108 0.984394 0.156094
0.253199 0.984232 0.155911
0.460628 0.984045 0.156745
0.683478 0.983971 0.160141
0.879526 0.984142 0.167664
0.965086 0.984638 0.179477
0.982534 0.985479 0.196684
0.987391 0.986622 0.219677
0.078461 0.087030 0.753519
0.078388 0.087030 0.755095
0.345110 0.091973 0.760740
0.760666 0.244787 0.771072
0.948578 0.414380 0.702733
0.981415 0.556915 0.640626
0.987271 0.699743 0.608949
0.988735 0.831289 0.591002
0.989577 0.907073 0.579984
0.078461 0.087008 0.754070
0.078429 0.087636 0.755645
0.348246 0.122574 0.761288
0.707126 0.278084 0.717901
0.924014 0.413825 0.644915
0.977154 0.558354 0.609237
0.986949 0.702861 0.590196
0.988617 0.834024 0.579011
0.989504 0.909013 0.571917
0.078455 0.140236 0.582568
0.078181 0.138909 0.543664
0.164125 0.164817 0.479918
0.472013 0.273569 0.478587
0.795355 0.416063 0.502461
0.964078 0.566913 0.521967
0.984222 0.716557 0.534086
0.988242 0.844957 0.541183
0.989267 0.916423 0.545414
0.078423 0.387170 0.519340
0.078214 0.368188 0.483143
0.126641 0.324667 0.391186
0.286554 0.289023 0.296571
0.627817 0.445562 0.372795
0.911238 0.597922 0.425434
0.979117 0.750903 0.462846
0.987396 0.869262 0.488491
0.988915 0.930166 0.505984
0.078346 0.667625 0.522510
0.078449 0.651779 0.501666
0.169437 0.610723 0.443674
0.382482 0.575815 0.381292
0.592395 0.583785 0.348082
0.853797 0.684357 0.370727
0.969535 0.817247 0.408843
0.985649 0.898669 0.441361
0.988501 0.944855 0.466985
0.078182 0.884002 0.505320
0.081927 0.878784 0.493932
0.204089 0.861210 0.459896
0.437383 0.837487 0.417803
0.654285 0.829119 0.384998
0.855315 0.847745 0.371236
0.964452 0.892025 0.383023
0.983816 0.937581 0.410853
0.988112 0.963901 0.437063
0.078444 0.959811 0.475430
0.087115 0.958474 0.469225
0.227572 0.953340 0.450113
0.458044 0.947020 0.424657
0.683060 0.943513 0.401743
0.877315 0.945858 0.388061
0.964801 0.955237 0.385959
0.982814 0.965790 0.396197
0.987723 0.974100 0.418929
0.082225 0.977844 0.439684
0.096478 0.977494 0.436612
0.241604 0.976434 0.426857
0.461434 0.975145 0.413198
0.688056 0.974396 0.400317
0.882055 0.974885 0.392174
0.965512 0.976999 0.391019
0.982722 0.980722 0.397238
0.987487 0.982707 0.409839
0.087774 0.984078 0.402728
0.108568 0.984030 0.401426
0.247883 0.983889 0.397305
0.454434 0.983732 0.391637
0.676768 0.983694 0.386686
0.875539 0.983905 0.384660
0.964450 0.984450 0.387101
0.982389 0.985349 0.394704
0.987366 0.986558 0.407320
0.078461 0.087030 0.964483
0.078388 0.087030 0.964631
0.345110 0.093391 0.965164
0.760666 0.255783 0.966135
0.966721 0.476525 0.964149
0.982967 0.593285 0.931775
0.987515 0.722214 0.895185
0.988787 0.838490 0.867711
0.989577 0.908154 0.838652
0.078461 0.086942 0.964535
0.078429 0.088351 0.964683
0.348246 0.128589 0.965215
0.762520 0.323815 0.966186
0.953350 0.478554 0.946649
0.981574 0.594707 0.914481
0.987219 0.724585 0.881765
0.988666 0.840779 0.854576
0.989502 0.909890 0.829910
0.078447 0.233088 0.955182
0.078449 0.246031 0.947265
0.280346 0.294982 0.926690
0.589606 0.369619 0.890428
0.865281 0.483562 0.864712
0.968684 0.601143 0.842152
0.984827 0.734745 0.826469
0.988274 0.849930 0.813624
0.989257 0.916547 0.801913
0.078424 0.381482 0.816517
0.078219 0.375548 0.794537
0.149456 0.368378 0.729569
0.396807 0.398638 0.676361
0.684203 0.498204 0.686851
0.926727 0.621091 0.718207
0.980011 0.760757 0.740490
0.987391 0.870052 0.752076
0.988889 0.929439 0.756556
0.078368 0.620577 0.784395
0.078352 0.610121 0.764591
0.152924 0.581493 0.701952
0.359305 0.552690 0.616566
0.542422 0.540034 0.543009
0.843097 0.675060 0.604729
0.968605 0.812848 0.651317
0.985374 0.895636 0.684050
0.988448 0.943076 0.705029
0.078220 0.857485 0.771628
0.080490 0.851275 0.759544
0.183042 0.833222 0.720925
0.411995 0.813017 0.662299
0.622881 0.803013 0.610316
0.824365 0.822064 0.583899
0.960761 0.882545 0.603756
0.983327 0.933868 0.635585
0.987998 0.962346 0.661104
0.078386 0.950752 0.745090
0.085411 0.949245 0.738090
0.209234 0.944718 0.713377
0.440292 0.939313 0.676048
0.662721 0.936345 0.639613
0.861000 0.938943 0.613833
0.961287 0.949079 0.603962
0.982351 0.964447 0.613718
0.987615 0.973157 0.634957
0.081388 0.975477 0.704153
0.093007 0.975181 0.699551
0.228627 0.974283 0.684686
0.449325 0.973208 0.662948
0.674681 0.972659 0.640414
0.873713 0.973318 0.622774
0.964069 0.975631 0.613579
0.982356 0.979648 0.613777
0.987419 0.982523 0.622594
0.086723 0.983626 0.654094
0.105705 0.983587 0.651828
0.240926 0.983474 0.644432
0.447090 0.983361 0.633471
0.668921 0.983373 0.621940
0.870914 0.983636 0.612980
0.963714 0.984238 0.608911
0.982223 0.985205 0.610787
0.987337 0.986492 0.618326
0.078461 0.087030 0.986706
0.078388 0.087030 0.986727
0.345110 0.097628 0.986804
0.760666 0.269766 0.986945
0.969393 0.500697 0.987049
0.984817 0.640597 0.984054
0.987900 0.757237 0.979307
0.988910 0.854106 0.971538
0.989627 0.913580 0.963846
0.078461 0.087119 0.986714
0.078429 0.090280 0.986735
0.348246 0.137913 0.986812
0.762520 0.334017 0.986952
0.968302 0.537038 0.986795
0.983499 0.643506 0.982802
0.987608 0.759882 0.976645
0.988794 0.856250 0.969389
0.989550 0.915180 0.960719
0.078444 0.269963 0.986740
0.079837 0.300510 0.986762
0.359589 0.383661 0.986838
0.693351 0.463583 0.983988
0.919398 0.551128 0.980858
0.975276 0.653330 0.973690
0.986023 0.770096 0.967287
0.988395 0.864582 0.959227
0.989299 0.921275 0.949360
0.078418 0.439497 0.973207
0.078327 0.442956 0.971526
0.206070 0.460916 0.965424
0.494273 0.503513 0.953574
0.772335 0.573870 0.944833
0.947587 0.674063 0.940638
0.981988 0.792790 0.938145
0.987550 0.878058 0.935576
0.988917 0.931417 0.932326
0.078372 0.607428 0.943767
0.078327 0.602852 0.938952
0.156052 0.592006 0.921375
0.390593 0.590344 0.886050
0.632040 0.625112 0.864198
0.876341 0.717469 0.871972
0.970657 0.827509 0.885760
0.985608 0.900046 0.896060
0.988453 0.943830 0.901292
0.078244 0.830553 0.933549
0.079441 0.826314 0.929995
0.169413 0.813847 0.910243
0.395848 0.797446 0.877959
0.605494 0.787709 0.831816
0.794571 0.795035 0.790024
0.958300 0.880079 0.827383
0.983175 0.933125 0.854796
0.987950 0.961754 0.871574
0.078327 0.941288 0.923889
0.083872 0.940134 0.919822
0.193410 0.936649 0.905396
0.424348 0.932468 0.883925
0.645202 0.930227 0.856634
0.842227 0.932685 0.828274
0.953991 0.943003 0.815240
0.981956 0.963205 0.827324
0.987531 0.972490 0.844615
0.080703 0.972993 0.902320
0.090827 0.972761 0.899687
0.215448 0.972067 0.891013
0.437243 0.971266 0.877788
0.661609 0.970971 0.860043
0.863679 0.971813 0.840947
0.961682 0.974288 0.828995
0.981984 0.978585 0.826121
0.987354 0.982361 0.832524
0.085967 0.983131 0.874750
0.103097 0.983103 0.873314
0.232157 0.983026 0.868214
0.439267 0.982968 0.857078
0.660690 0.983040 0.844662
0.864540 0.983364 0.833881
0.962377 0.984028 0.827081
0.982053 0.985066 0.825502
0.987309 0.986436 0.828935
0.078461 0.087030 0.988815
0.078388 0.087028 0.988817
0.345110 0.104235 0.988824
0.760666 0.287468 0.988836
0.969393 0.511070 0.988853
0.986479 0.688891 0.988647
0.988273 0.796470 0.987826
0.989057 0.872696 0.986852
0.989709 0.922056 0.984488
0.078461 0.088379 0.988816
0.078429 0.092806 0.988818
0.348246 0.154980 0.988824
0.762520 0.346998 0.988836
0.969519 0.554462 0.988854
0.985265 0.694156 0.988501
0.988033 0.799520 0.987610
0.988950 0.874211 0.986284
0.989633 0.923624 0.984086
0.078444 0.287655 0.988818
0.079837 0.314157 0.988820
0.359589 0.396798 0.988827
0.767966 0.533947 0.988833
0.948965 0.615254 0.988369
0.981463 0.710418 0.987577
0.987136 0.809960 0.986446
0.988566 0.879849 0.984424
0.989380 0.928931 0.982753
0.078405 0.514125 0.987922
0.078956 0.520203 0.987818
0.268102 0.542437 0.987495
0.574197 0.584788 0.986952
0.846056 0.650064 0.985280
0.965118 0.736862 0.983838
0.983440 0.826930 0.982644
0.987822 0.891304 0.981624
0.988991 0.935688 0.979322
0.078366 0.635600 0.983221
0.078389 0.636151 0.982871
0.179706 0.641275 0.981799
0.447280 0.660967 0.978469
0.705777 0.707114 0.975058
0.914214 0.782667 0.973404
0.974922 0.857164 0.972889
0.986308 0.911420 0.972587
0.988516 0.947159 0.972000
0.078255 0.819299 0.978230
0.079055 0.817245 0.977202
0.166474 0.811741 0.973865
0.401999 0.807832 0.968352
0.631209 0.814731 0.959884
0.846849 0.845405 0.952918
0.964313 0.894459 0.955422
0.983570 0.937096 0.960334
0.987994 0.963049 0.963576
0.078281 0.933716 0.974321
0.082620 0.932953 0.973584
0.182426 0.930685 0.971136
0.411620 0.928107 0.966115
0.635015 0.926562 0.956715
0.832808 0.929895 0.945489
0.946735 0.937319 0.936915
0.981825 0.962767 0.945356
0.987504 0.972408 0.951064
0.080047 0.970654 0.970400
0.088780 0.970495 0.969758
0.203918 0.970030 0.967612
0.426427 0.969552 0.964242
0.650417 0.969564 0.957042
0.853317 0.970601 0.949666
0.958074 0.973137 0.944410
0.981627 0.977606 0.942714
0.987301 0.982245 0.945487
0.085227 0.982632 0.963725
0.100488 0.982617 0.963183
0.223281 0.982581 0.960636
0.431561 0.982584 0.956625
0.652728 0.982725 0.951983
0.857657 0.983115 0.947719
0.960926 0.983841 0.944740
0.981895 0.984947 0.943633
0.987286 0.986402 0.944414
0.078461 0.087030 0.989568
0.078388 0.086882 0.989568
0.345110 0.115749 0.989570
0.760666 0.306913 0.989574
0.969393 0.523677 0.989580
0.987236 0.731005 0.989551
0.988492 0.825364 0.989121
0.989202 0.886723 0.988731
0.989802 0.930256 0.988305
0.078461 0.091463 0.989568
0.078429 0.098855 0.989568
0.348246 0.176624 0.989571
0.762520 0.362946 0.989574
0.969519 0.566499 0.989580
0.986625 0.738622 0.989461
0.988332 0.828720 0.989036
0.989099 0.888475 0.988661
0.989727 0.931185 0.988199
0.078444 0.307059 0.989569
0.079837 0.330040 0.989569
0.359589 0.412890 0.989571
0.769165 0.547021 0.989575
0.964448 0.670599 0.989453
0.983132 0.761639 0.989085
0.987559 0.839964 0.988746
0.988746 0.894745 0.988405
0.989477 0.934596 0.987845
0.078389 0.576784 0.989350
0.080971 0.584110 0.989311
0.309815 0.609880 0.989183
0.639532 0.655082 0.988989
0.892758 0.718783 0.988754
0.971343 0.795422 0.988506
0.984878 0.859644 0.988085
0.988130 0.906670 0.987665
0.989088 0.941246 0.987280
0.078346 0.687900 0.988406
0.078805 0.691309 0.988341
0.214018 0.704793 0.988132
0.497682 0.732768 0.987832
0.767561 0.779641 0.987519
0.940408 0.832925 0.987226
0.979613 0.883598 0.986864
0.987072 0.926372 0.986152
0.988615 0.952208 0.985477
0.078251 0.827770 0.987191
0.079285 0.827788 0.987116
0.175117 0.829088 0.986620
0.427582 0.835789 0.985545
0.672332 0.853893 0.984483
0.885178 0.882025 0.983758
0.968684 0.915934 0.983448
0.984350 0.944485 0.983358
0.988116 0.964718 0.983265
0.078264 0.929718 0.985521
0.081910 0.929381 0.985331
0.177636 0.928512 0.984698
0.409334 0.928088 0.983709
0.640274 0.929880 0.982581
0.846906 0.935827 0.981600
0.959121 0.948761 0.980724
0.982306 0.964902 0.981288
0.987562 0.973177 0.981605
0.079523 0.968754 0.984184
0.087090 0.968672 0.984054
0.195066 0.968455 0.983614
0.416933 0.968346 0.982912
0.643128 0.968745 0.982075
0.847805 0.970079 0.981109
0.956027 0.972687 0.979040
0.981241 0.976767 0.977820
0.987281 0.982241 0.979356
0.084527 0.982171 0.982744
0.098066 0.982168 0.982665
0.215220 0.982175 0.982399
0.424335 0.982244 0.981973
0.645698 0.982460 0.981469
0.851824 0.982920 0.980246
0.959158 0.983705 0.979121
0.981766 0.984866 0.978641
0.987269 0.986398 0.978890
0.078461 0.086922 0.989912
0.078388 0.088639 0.989912
0.345110 0.130209 0.989914
0.760666 0.325843 0.989917
0.969393 0.538297 0.989921
0.987463 0.761634 0.989927
0.988653 0.847948 0.989700
0.989321 0.899424 0.989481
0.989885 0.935647 0.989147
0.078461 0.096853 0.989912
0.078429 0.110521 0.989913
0.348246 0.202122 0.989914
0.762520 0.381936 0.989917
0.969519 0.580702 0.989921
0.987166 0.773951 0.989878
0.988504 0.852274 0.989660
0.989223 0.901488 0.989423
0.989812 0.936646 0.989103
0.078444 0.325988 0.989913
0.079837 0.348866 0.989913
0.359589 0.432001 0.989915
0.769165 0.561352 0.989917
0.968311 0.714583 0.989894
0.984330 0.802372 0.989705
0.987895 0.866411 0.989530
0.988897 0.908670 0.989228
0.989568 0.940244 0.988958
0.078378 0.628757 0.989874
0.082907 0.636950 0.989856
0.339962 0.665151 0.989795
0.681467 0.712786 0.989697
0.921773 0.774255 0.989578
0.976183 0.833292 0.989384
0.986089 0.882534 0.989144
0.988335 0.921580 0.988925
0.989185 0.947022 0.988711
0.078317 0.743455 0.989361
0.080111 0.747979 0.989338
0.248588 0.764467 0.989261
0.540249 0.794728 0.989140
0.814077 0.829425 0.988996
0.957016 0.870936 0.988848
0.982098 0.904425 0.988690
0.987366 0.935809 0.988544
0.988723 0.957802 0.988353
0.078237 0.850333 0.988750
0.079988 0.851724 0.988729
0.190753 0.857357 0.988660
0.454508 0.869636 0.988556
0.711211 0.884349 0.988421
0.911084 0.906691 0.988200
0.972670 0.932807 0.988022
0.985191 0.952594 0.987876
0.988247 0.966496 0.987742
0.078262 0.930207 0.988267
0.081868 0.930283 0.988228
0.179363 0.930795 0.988099
0.417727 0.932604 0.987898
0.656165 0.937019 0.987671
0.870372 0.945427 0.987474
0.964952 0.958458 0.987348
0.983004 0.967386 0.987278
0.987671 0.974492 0.987241
0.079219 0.967573 0.987806
0.086365 0.967569 0.987777
0.189706 0.967614 0.987678
0.412136 0.967916 0.987519
0.641575 0.968804 0.987325
0.849997 0.970647 0.987098
0.958713 0.973805 0.986776
0.981817 0.978640 0.986567
0.987327 0.982449 0.986642
0.083917 0.981786 0.987419
0.095998 0.981796 0.987401
0.208594 0.981846 0.987337
0.417356 0.981982 0.987212
0.640280 0.982277 0.987063
0.847763 0.982811 0.986755
0.958052 0.983654 0.986417
0.981697 0.984855 0.986256
0.987263 0.986434 0.986324
