velvia_modern/Velvia50_Hard.cube
TITLE "Velvia 50 Hard"
# Adobe RGB in/out. REPLACES AgX. Velvia 50 color reversal.
LUT_3D_SIZE 65
DOMAIN_MIN 0.0 0.0 0.0
DOMAIN_MAX 1.0 1.0 1.0
0.010768 0.005498 0.006424
0.010768 0.005498 0.006424
0.010769 0.005498 0.006424
0.010888 0.005498 0.006424
0.011190 0.005554 0.006424
0.011849 0.005740 0.006424
0.013453 0.006049 0.006424
0.017549 0.006520 0.006424
0.025335 0.007448 0.006424
0.038449 0.008809 0.006450
0.061864 0.011337 0.006521
0.090950 0.015564 0.006584
0.123287 0.021832 0.006670
0.152993 0.029316 0.006746
0.186001 0.038602 0.006845
0.222027 0.049855 0.007042
0.255571 0.062405 0.007231
0.291506 0.076225 0.007412
0.329776 0.091951 0.007586
0.367938 0.108910 0.007887
0.404079 0.127575 0.008203
0.441470 0.148134 0.008554
0.480048 0.169941 0.009004
0.519749 0.188493 0.009524
0.560511 0.207995 0.010189
0.602276 0.228428 0.010866
0.644988 0.249776 0.011709
0.688592 0.272017 0.012724
0.722338 0.293428 0.013777
0.750744 0.313022 0.015092
0.779018 0.333029 0.016601
0.807150 0.353429 0.018191
0.835130 0.374201 0.019897
0.862950 0.395326 0.021818
0.890602 0.416784 0.023843
0.918077 0.438556 0.026058
0.945371 0.460625 0.028513
0.972477 0.482972 0.031101
0.999389 0.505581 0.033824
1.000000 0.528435 0.036681
1.000000 0.549611 0.039621
1.000000 0.568356 0.042665
1.000000 0.587151 0.045840
1.000000 0.605986 0.049147
1.000000 0.624854 0.052587
1.000000 0.643747 0.056160
1.000000 0.662658 0.059615
1.000000 0.681580 0.063079
1.000000 0.700505 0.066642
1.000000 0.719427 0.070302
1.000000 0.738338 0.074058
1.000000 0.757234 0.077909
1.000000 0.776107 0.081853
1.000000 0.794258 0.085888
1.000000 0.808151 0.090014
1.000000 0.821933 0.094133
1.000000 0.835600 0.098026
1.000000 0.849154 0.101978
1.000000 0.862592 0.105989
1.000000 0.875914 0.110055
1.000000 0.889118 0.114176
1.000000 0.902205 0.118349
1.000000 0.915172 0.122571
1.000000 0.928019 0.126842
1.000000 0.940746 0.131158
0.010768 0.005498 0.006424
0.010768 0.005498 0.006424
0.010768 0.005498 0.006424
0.010834 0.005498 0.006424
0.011146 0.005555 0.006424
0.011711 0.005742 0.006424
0.013184 0.006054 0.006424
0.017014 0.006527 0.006424
0.024606 0.007455 0.006424
0.037406 0.008818 0.006446
0.060344 0.011345 0.006518
0.089283 0.015564 0.006580
0.121793 0.021822 0.006666
0.151412 0.029299 0.006742
0.184409 0.038594 0.006836
0.220699 0.049859 0.007035
0.254270 0.062419 0.007224
0.290229 0.076248 0.007406
0.328522 0.091984 0.007581
0.366887 0.108951 0.007878
0.403059 0.127624 0.008195
0.440481 0.148192 0.008544
0.479086 0.169992 0.008994
0.518812 0.188548 0.009510
0.559599 0.208054 0.010176
0.601387 0.228491 0.010853
0.644120 0.249842 0.011691
0.687745 0.272086 0.012706
0.721813 0.293487 0.013759
0.750240 0.313082 0.015068
0.778536 0.333090 0.016577
0.806687 0.353491 0.018167
0.834686 0.374264 0.019869
0.862523 0.395389 0.021790
0.890190 0.416848 0.023814
0.917681 0.438621 0.026026
0.944988 0.460690 0.028480
0.972108 0.483037 0.031068
0.999033 0.505646 0.033790
1.000000 0.528500 0.036646
1.000000 0.549664 0.039587
1.000000 0.568409 0.042630
1.000000 0.587203 0.045804
1.000000 0.606039 0.049111
1.000000 0.624907 0.052551
1.000000 0.643800 0.056123
1.000000 0.662712 0.059582
1.000000 0.681633 0.063046
1.000000 0.700559 0.066608
1.000000 0.719480 0.070268
1.000000 0.738392 0.074024
1.000000 0.757288 0.077875
1.000000 0.776161 0.081819
1.000000 0.794298 0.085855
1.000000 0.808191 0.089980
1.000000 0.821972 0.094103
1.000000 0.835640 0.097995
1.000000 0.849193 0.101948
1.000000 0.862631 0.105958
1.000000 0.875953 0.110025
1.000000 0.889157 0.114146
1.000000 0.902243 0.118319
1.000000 0.915210 0.122542
1.000000 0.928057 0.126813
1.000000 0.940784 0.131129
0.010768 0.005498 0.006424
0.010768 0.005498 0.006424
0.010768 0.005498 0.006424
0.010803 0.005498 0.006424
0.011025 0.005559 0.006424
0.011479 0.005751 0.006424
0.012705 0.006069 0.006424
0.015399 0.006553 0.006424
0.022289 0.007476 0.006424
0.034039 0.008847 0.006432
0.055362 0.011374 0.006506
0.083706 0.015565 0.006570
0.116708 0.021788 0.006652
0.146018 0.029247 0.006730
0.178933 0.038578 0.006806
0.215884 0.049881 0.007009
0.249734 0.062475 0.007202
0.285761 0.076340 0.007386
0.324118 0.092111 0.007563
0.363182 0.109103 0.007847
0.399461 0.127808 0.008166
0.436982 0.148405 0.008505
0.475679 0.170178 0.008958
0.515492 0.188749 0.009460
0.556361 0.208269 0.010127
0.598226 0.228719 0.010805
0.641033 0.250081 0.011625
0.684728 0.272335 0.012641
0.719938 0.293700 0.013694
0.748445 0.313299 0.014982
0.776814 0.333310 0.016490
0.805035 0.353714 0.018078
0.833098 0.374490 0.019772
0.860995 0.395617 0.021690
0.888719 0.417077 0.023712
0.916263 0.438851 0.025912
0.943621 0.460922 0.028364
0.970787 0.483270 0.030949
0.997758 0.505880 0.033668
1.000000 0.528734 0.036522
1.000000 0.549853 0.039464
1.000000 0.568599 0.042505
1.000000 0.587394 0.045678
1.000000 0.606230 0.048983
1.000000 0.625099 0.052421
1.000000 0.643992 0.055992
1.000000 0.662904 0.059462
1.000000 0.681826 0.062925
1.000000 0.700752 0.066488
1.000000 0.719674 0.070147
1.000000 0.738586 0.073903
1.000000 0.757482 0.077754
1.000000 0.776355 0.081698
1.000000 0.794442 0.085734
1.000000 0.808335 0.089859
1.000000 0.822115 0.093993
1.000000 0.835782 0.097886
1.000000 0.849335 0.101839
1.000000 0.862772 0.105851
1.000000 0.876093 0.109918
1.000000 0.889296 0.114040
1.000000 0.902382 0.118214
1.000000 0.915348 0.122437
1.000000 0.928195 0.126709
1.000000 0.940920 0.131026
0.010768 0.005556 0.006424
0.010768 0.005554 0.006424
0.010768 0.005548 0.006424
0.010805 0.005544 0.006424
0.010916 0.005587 0.006424
0.011208 0.005772 0.006424
0.012046 0.006098 0.006424
0.014078 0.006600 0.006424
0.019265 0.007515 0.006424
0.029276 0.008900 0.006424
0.047832 0.011427 0.006486
0.074925 0.015574 0.006553
0.106086 0.021744 0.006628
0.137146 0.029200 0.006710
0.169777 0.038593 0.006785
0.206475 0.049965 0.006964
0.241926 0.062612 0.007162
0.278007 0.076540 0.007351
0.316422 0.092373 0.007531
0.356656 0.109409 0.007792
0.393093 0.128168 0.008116
0.430763 0.148818 0.008437
0.469605 0.170535 0.008893
0.509555 0.189133 0.009370
0.550555 0.208676 0.010040
0.592547 0.229148 0.010721
0.635475 0.250530 0.011507
0.679286 0.272802 0.012523
0.716545 0.294098 0.013577
0.745192 0.313703 0.014828
0.773692 0.333721 0.016333
0.802034 0.354129 0.017919
0.830212 0.374909 0.019595
0.858216 0.396040 0.021510
0.886041 0.417503 0.023528
0.913680 0.439280 0.025707
0.941128 0.461352 0.028153
0.968379 0.483701 0.030733
0.995430 0.506312 0.033447
1.000000 0.529168 0.036296
1.000000 0.550204 0.039239
1.000000 0.568951 0.042277
1.000000 0.587746 0.045447
1.000000 0.606583 0.048749
1.000000 0.625452 0.052185
1.000000 0.644347 0.055753
1.000000 0.663259 0.059244
1.000000 0.682182 0.062706
1.000000 0.701108 0.066268
1.000000 0.720031 0.069927
1.000000 0.738944 0.073682
1.000000 0.757840 0.077533
1.000000 0.776714 0.081477
1.000000 0.794708 0.085512
1.000000 0.808599 0.089638
1.000000 0.822378 0.093793
1.000000 0.836043 0.097687
1.000000 0.849595 0.101641
1.000000 0.863031 0.105654
1.000000 0.876350 0.109723
1.000000 0.889553 0.113846
1.000000 0.902637 0.118021
1.000000 0.915602 0.122246
1.000000 0.928447 0.126519
1.000000 0.941172 0.130838
0.010768 0.005815 0.006424
0.010768 0.005811 0.006424
0.010794 0.005797 0.006424
0.010831 0.005779 0.006424
0.010955 0.005774 0.006424
0.011138 0.005834 0.006424
0.011633 0.006173 0.006424
0.012999 0.006697 0.006424
0.016519 0.007583 0.006424
0.024833 0.008990 0.006424
0.040002 0.011524 0.006461
0.064071 0.015626 0.006530
0.093237 0.021739 0.006597
0.126014 0.029245 0.006682
0.157995 0.038726 0.006761
0.194116 0.050192 0.006902
0.231417 0.062903 0.007107
0.267435 0.076916 0.007302
0.305816 0.092834 0.007487
0.346496 0.109927 0.007715
0.384137 0.128762 0.008044
0.421965 0.149487 0.008365
0.460963 0.171104 0.008800
0.501069 0.189738 0.009259
0.542223 0.209314 0.009915
0.584367 0.229815 0.010599
0.627444 0.251224 0.011337
0.671402 0.273521 0.012353
0.711600 0.294708 0.013407
0.740443 0.314322 0.014605
0.769125 0.334347 0.016106
0.797639 0.354762 0.017687
0.825978 0.375546 0.019350
0.854135 0.396682 0.021247
0.882103 0.418148 0.023259
0.909878 0.439927 0.025406
0.937455 0.462001 0.027844
0.964828 0.484353 0.030416
0.991995 0.506965 0.033122
1.000000 0.529821 0.035964
1.000000 0.550733 0.038910
1.000000 0.569480 0.041942
1.000000 0.588277 0.045107
1.000000 0.607115 0.048405
1.000000 0.625985 0.051836
1.000000 0.644881 0.055400
1.000000 0.663794 0.058921
1.000000 0.682717 0.062382
1.000000 0.701644 0.065942
1.000000 0.720567 0.069600
1.000000 0.739480 0.073355
1.000000 0.758377 0.077205
1.000000 0.777251 0.081149
1.000000 0.795106 0.085184
1.000000 0.808995 0.089310
1.000000 0.822772 0.093495
1.000000 0.836436 0.097391
1.000000 0.849985 0.101347
1.000000 0.863419 0.105361
1.000000 0.876736 0.109432
1.000000 0.889937 0.113557
1.000000 0.903019 0.117734
1.000000 0.915982 0.121961
1.000000 0.928825 0.126236
1.000000 0.941548 0.130558
0.010783 0.006363 0.006424
0.010794 0.006356 0.006424
0.010822 0.006332 0.006424
0.010914 0.006294 0.006424
0.011061 0.006258 0.006424
0.011189 0.006252 0.006424
0.011509 0.006345 0.006424
0.012512 0.006919 0.006424
0.014765 0.007722 0.006424
0.020909 0.009167 0.006424
0.033000 0.011740 0.006434
0.052921 0.015822 0.006505
0.080401 0.021932 0.006568
0.113430 0.029527 0.006651
0.145019 0.039112 0.006733
0.180129 0.050692 0.006828
0.219131 0.063453 0.007040
0.254858 0.077568 0.007241
0.293013 0.093590 0.007432
0.333522 0.110740 0.007619
0.373031 0.129668 0.007954
0.410959 0.150485 0.008281
0.450073 0.171939 0.008683
0.490306 0.190614 0.009147
0.531596 0.210228 0.009755
0.573882 0.230764 0.010443
0.617106 0.252205 0.011140
0.661214 0.274531 0.012135
0.705160 0.295561 0.013189
0.734239 0.315184 0.014318
0.763146 0.335216 0.015811
0.791872 0.355637 0.017386
0.820412 0.376426 0.019043
0.848759 0.397565 0.020903
0.876908 0.419035 0.022907
0.904855 0.440816 0.025015
0.932595 0.462892 0.027439
0.960125 0.485245 0.030000
0.987440 0.507858 0.032696
1.000000 0.530714 0.035527
1.000000 0.551456 0.038475
1.000000 0.570204 0.041500
1.000000 0.589002 0.044658
1.000000 0.607840 0.047949
1.000000 0.626711 0.051374
1.000000 0.645608 0.054933
1.000000 0.664521 0.058492
1.000000 0.683445 0.061951
1.000000 0.702373 0.065509
1.000000 0.721297 0.069166
1.000000 0.740210 0.072920
1.000000 0.759108 0.076769
1.000000 0.777982 0.080712
1.000000 0.795648 0.084746
1.000000 0.809534 0.088872
1.000000 0.823307 0.093086
1.000000 0.836968 0.096995
1.000000 0.850514 0.100953
1.000000 0.863945 0.104970
1.000000 0.877260 0.109043
1.000000 0.890458 0.113170
1.000000 0.903537 0.117350
1.000000 0.916498 0.121580
1.000000 0.929338 0.125858
1.000000 0.942059 0.130182
0.010819 0.007515 0.006424
0.010826 0.007502 0.006424
0.010878 0.007458 0.006424
0.011019 0.007386 0.006424
0.011155 0.007299 0.006424
0.011370 0.007229 0.006424
0.011661 0.007226 0.006424
0.012286 0.007351 0.006424
0.013904 0.008090 0.006424
0.018516 0.009528 0.006424
0.027998 0.012243 0.006424
0.044051 0.016396 0.006481
0.069286 0.022557 0.006546
0.099271 0.030250 0.006619
0.132250 0.039940 0.006704
0.165893 0.051641 0.006783
0.203958 0.064411 0.006967
0.241251 0.078632 0.007174
0.278907 0.094765 0.007369
0.319003 0.111962 0.007556
0.360371 0.130992 0.007849
0.398277 0.151911 0.008182
0.437406 0.173110 0.008546
0.477685 0.191825 0.009015
0.519046 0.211476 0.009566
0.561422 0.232048 0.010257
0.604753 0.253522 0.010957
0.648980 0.275879 0.011875
0.694047 0.296692 0.012926
0.726690 0.316321 0.014015
0.755846 0.336359 0.015457
0.784811 0.356784 0.017023
0.813579 0.377576 0.018671
0.842145 0.398717 0.020487
0.870503 0.420188 0.022479
0.898650 0.441971 0.024576
0.926582 0.464047 0.026945
0.954295 0.486399 0.029491
0.981787 0.509011 0.032172
1.000000 0.531867 0.034990
1.000000 0.552389 0.037939
1.000000 0.571138 0.040954
1.000000 0.589936 0.044103
1.000000 0.608774 0.047385
1.000000 0.627646 0.050802
1.000000 0.646542 0.054352
1.000000 0.665456 0.057958
1.000000 0.684380 0.061414
1.000000 0.703308 0.064970
1.000000 0.722232 0.068625
1.000000 0.741146 0.072376
1.000000 0.760043 0.076224
1.000000 0.778918 0.080165
1.000000 0.796341 0.084199
1.000000 0.810222 0.088324
1.000000 0.823992 0.092538
1.000000 0.837649 0.096499
1.000000 0.851191 0.100460
1.000000 0.864618 0.104479
1.000000 0.877929 0.108555
1.000000 0.891123 0.112685
1.000000 0.904199 0.116868
1.000000 0.917156 0.121101
1.000000 0.929993 0.125382
1.000000 0.942710 0.129710
0.010890 0.009449 0.006424
0.010918 0.009429 0.006424
0.011003 0.009358 0.006424
0.011121 0.009238 0.006424
0.011284 0.009085 0.006424
0.011588 0.008930 0.006424
0.012048 0.008823 0.006424
0.012742 0.008839 0.006424
0.013742 0.009055 0.006424
0.017310 0.010311 0.006424
0.025136 0.013333 0.006424
0.038355 0.017692 0.006463
0.059679 0.023872 0.006527
0.087534 0.031663 0.006590
0.120775 0.041446 0.006676
0.152571 0.053265 0.006756
0.188882 0.065962 0.006893
0.227570 0.080283 0.007103
0.264413 0.096440 0.007303
0.303809 0.113733 0.007493
0.345664 0.132864 0.007736
0.384536 0.153887 0.008074
0.423527 0.174701 0.008403
0.463721 0.193448 0.008868
0.505040 0.213131 0.009356
0.547412 0.233733 0.010048
0.590769 0.255236 0.010751
0.635048 0.277621 0.011580
0.680190 0.298143 0.012628
0.717952 0.317774 0.013713
0.747365 0.337811 0.015052
0.776579 0.358236 0.016606
0.805589 0.379027 0.018243
0.834388 0.400167 0.020006
0.862973 0.421636 0.021983
0.891338 0.443416 0.024066
0.919480 0.465489 0.026369
0.947397 0.487839 0.028896
0.975085 0.510448 0.031559
1.000000 0.533300 0.034359
1.000000 0.553550 0.037299
1.000000 0.572298 0.040312
1.000000 0.591095 0.043448
1.000000 0.609932 0.046719
1.000000 0.628803 0.050125
1.000000 0.647699 0.053665
1.000000 0.666612 0.057325
1.000000 0.685536 0.060776
1.000000 0.704463 0.064328
1.000000 0.723387 0.067979
1.000000 0.742300 0.071728
1.000000 0.761197 0.075573
1.000000 0.780071 0.079512
1.000000 0.797194 0.083545
1.000000 0.811070 0.087668
1.000000 0.824834 0.091881
1.000000 0.838486 0.095904
1.000000 0.852023 0.099867
1.000000 0.865445 0.103889
1.000000 0.878751 0.107968
1.000000 0.891940 0.112101
1.000000 0.905012 0.116287
1.000000 0.917964 0.120524
1.000000 0.930797 0.124809
1.000000 0.943509 0.129141
0.011055 0.014344 0.006424
0.011076 0.014297 0.006424
0.011143 0.014134 0.006424
0.011279 0.013855 0.006424
0.011570 0.013487 0.006424
0.012025 0.013081 0.006424
0.012733 0.012719 0.006424
0.013619 0.012516 0.006424
0.015094 0.012559 0.006424
0.017736 0.012972 0.006424
0.023827 0.015281 0.006424
0.034969 0.020019 0.006452
0.053115 0.026173 0.006514
0.078658 0.034059 0.006571
0.109729 0.043912 0.006652
0.140970 0.055772 0.006732
0.175233 0.068325 0.006823
0.214132 0.082724 0.007035
0.250352 0.098848 0.007237
0.288752 0.116221 0.007430
0.329727 0.135441 0.007620
0.370365 0.156560 0.007961
0.409027 0.176813 0.008294
0.448964 0.195576 0.008711
0.490092 0.215276 0.009184
0.532327 0.235896 0.009824
0.575596 0.257419 0.010527
0.619828 0.279823 0.011261
0.664957 0.299964 0.012302
0.708225 0.319585 0.013383
0.737881 0.339615 0.014608
0.767336 0.360031 0.016146
0.796584 0.380815 0.017768
0.825618 0.401947 0.019473
0.854432 0.423408 0.021430
0.883022 0.445181 0.023495
0.911384 0.467247 0.025724
0.939514 0.489590 0.028228
0.967409 0.512192 0.030869
0.995071 0.535040 0.033647
1.000000 0.554959 0.036568
1.000000 0.573703 0.039583
1.000000 0.592496 0.042703
1.000000 0.611331 0.045959
1.000000 0.630199 0.049351
1.000000 0.649093 0.052878
1.000000 0.668004 0.056540
1.000000 0.686926 0.060043
1.000000 0.705851 0.063589
1.000000 0.724773 0.067235
1.000000 0.743685 0.070980
1.000000 0.762581 0.074821
1.000000 0.781454 0.078757
1.000000 0.798215 0.082787
1.000000 0.812084 0.086908
1.000000 0.825842 0.091119
1.000000 0.839487 0.095213
1.000000 0.853018 0.099178
1.000000 0.866434 0.103203
1.000000 0.879734 0.107284
1.000000 0.892917 0.111421
1.000000 0.905982 0.115611
1.000000 0.918929 0.119851
1.000000 0.931756 0.124140
1.000000 0.944462 0.128476
0.011237 0.025915 0.006424
0.011281 0.025824 0.006424
0.011424 0.025506 0.006424
0.011646 0.024954 0.006424
0.012159 0.024196 0.006424
0.012866 0.023231 0.006424
0.013905 0.022115 0.006424
0.015301 0.020965 0.006424
0.017628 0.019967 0.006424
0.020489 0.019675 0.006424
0.025062 0.020380 0.006424
0.033425 0.023649 0.006450
0.049232 0.029770 0.006506
0.072565 0.037758 0.006561
0.100539 0.047651 0.006633
0.131520 0.059177 0.006712
0.163581 0.071746 0.006787
0.200289 0.086186 0.006972
0.237373 0.102195 0.007174
0.274508 0.119618 0.007368
0.314337 0.138903 0.007554
0.356349 0.160098 0.007847
0.394469 0.179561 0.008182
0.433958 0.198312 0.008551
0.474718 0.218006 0.009025
0.516658 0.238625 0.009591
0.559696 0.260150 0.010292
0.603752 0.282558 0.011004
0.648755 0.302209 0.011959
0.694638 0.321807 0.013031
0.727597 0.341816 0.014142
0.757267 0.362213 0.015656
0.786733 0.382979 0.017259
0.815986 0.404094 0.018946
0.845020 0.425540 0.020833
0.873828 0.447298 0.022876
0.902406 0.469350 0.025025
0.930750 0.491680 0.027499
0.958856 0.514269 0.030113
0.986736 0.537116 0.032866
1.000000 0.556636 0.035763
1.000000 0.575373 0.038778
1.000000 0.594160 0.041879
1.000000 0.612989 0.045117
1.000000 0.631852 0.048491
1.000000 0.650741 0.052002
1.000000 0.669648 0.055648
1.000000 0.688567 0.059222
1.000000 0.707488 0.062761
1.000000 0.726407 0.066400
1.000000 0.745316 0.070138
1.000000 0.764209 0.073974
1.000000 0.783079 0.077906
1.000000 0.799415 0.081931
1.000000 0.813275 0.086049
1.000000 0.827024 0.090258
1.000000 0.840660 0.094431
1.000000 0.854183 0.098398
1.000000 0.867591 0.102424
1.000000 0.880884 0.106508
1.000000 0.894059 0.110648
1.000000 0.907117 0.114841
1.000000 0.920057 0.119085
1.000000 0.932877 0.123379
1.000000 0.945577 0.127719
0.011673 0.046483 0.006424
0.011709 0.046283 0.006424
0.011946 0.045574 0.006424
0.012434 0.044300 0.006424
0.013036 0.042472 0.006424
0.014191 0.040157 0.006424
0.015697 0.037482 0.006424
0.018192 0.034643 0.006424
0.020798 0.032015 0.006424
0.024511 0.030563 0.006424
0.029160 0.030401 0.006437
0.036075 0.031413 0.006466
0.047425 0.035069 0.006505
0.068875 0.043066 0.006556
0.094210 0.052983 0.006621
0.124329 0.063944 0.006697
0.154182 0.076482 0.006770
0.188617 0.090920 0.006918
0.225922 0.106701 0.007118
0.261581 0.124133 0.007311
0.300039 0.143447 0.007497
0.341193 0.164688 0.007739
0.380351 0.183069 0.008074
0.419193 0.201771 0.008402
0.459400 0.221427 0.008867
0.500873 0.242017 0.009358
0.543520 0.263519 0.010054
0.587255 0.285819 0.010763
0.631999 0.304939 0.011609
0.677677 0.324496 0.012669
0.716732 0.344466 0.013770
0.746573 0.364829 0.015148
0.776221 0.385564 0.016728
0.805664 0.406650 0.018394
0.834893 0.428069 0.020205
0.863901 0.449803 0.022221
0.892681 0.471832 0.024345
0.921228 0.494141 0.026724
0.949538 0.516712 0.029305
0.977641 0.539560 0.032030
1.000000 0.558605 0.034899
1.000000 0.577330 0.037910
1.000000 0.596107 0.040988
1.000000 0.614927 0.044204
1.000000 0.633781 0.047557
1.000000 0.652662 0.051047
1.000000 0.671562 0.054675
1.000000 0.690474 0.058324
1.000000 0.709390 0.061853
1.000000 0.728303 0.065483
1.000000 0.747207 0.069213
1.000000 0.766094 0.073041
1.000000 0.784960 0.076966
1.000000 0.800802 0.080986
1.000000 0.814651 0.085099
1.000000 0.828389 0.089304
1.000000 0.842015 0.093562
1.000000 0.855528 0.097530
1.000000 0.868926 0.101558
1.000000 0.882209 0.105644
1.000000 0.895375 0.109787
1.000000 0.908425 0.113983
1.000000 0.921355 0.118231
1.000000 0.934167 0.122528
1.000000 0.946859 0.126873
0.012538 0.073358 0.006424
0.012614 0.073039 0.006424
0.012873 0.071905 0.006424
0.013372 0.069871 0.006424
0.014534 0.066954 0.006424
0.016162 0.063252 0.006424
0.018703 0.058943 0.006424
0.021542 0.054182 0.006424
0.025002 0.049605 0.006428
0.029055 0.046611 0.006448
0.034749 0.045170 0.006471
0.042179 0.045191 0.006496
0.052183 0.046555 0.006523
0.066864 0.050259 0.006555
0.090313 0.059681 0.006615
0.119265 0.070321 0.006688
0.147034 0.082786 0.006758
0.179243 0.097057 0.006875
0.216071 0.112593 0.007071
0.250294 0.129986 0.007262
0.287215 0.149283 0.007446
0.326921 0.169856 0.007638
0.367078 0.187467 0.007971
0.405087 0.206074 0.008298
0.444560 0.225652 0.008713
0.485391 0.246177 0.009183
0.527483 0.267625 0.009820
0.570742 0.289176 0.010523
0.615083 0.308222 0.011259
0.660424 0.327711 0.012305
0.705506 0.347622 0.013393
0.735460 0.367931 0.014634
0.765239 0.388617 0.016187
0.794830 0.409659 0.017827
0.824218 0.431038 0.019559
0.853395 0.452734 0.021544
0.882351 0.474730 0.023638
0.911080 0.497006 0.025917
0.939590 0.519562 0.028462
0.967906 0.542246 0.031153
0.996022 0.560891 0.033990
1.000000 0.579598 0.036975
1.000000 0.598359 0.040044
1.000000 0.617164 0.043233
1.000000 0.636006 0.046562
1.000000 0.654875 0.050028
1.000000 0.673764 0.053633
1.000000 0.692666 0.057358
1.000000 0.711572 0.060874
1.000000 0.730477 0.064493
1.000000 0.749373 0.068212
1.000000 0.768253 0.072031
1.000000 0.787112 0.075948
1.000000 0.802386 0.079960
1.000000 0.816221 0.084066
1.000000 0.829946 0.088265
1.000000 0.843559 0.092553
1.000000 0.857060 0.096582
1.000000 0.870446 0.100611
1.000000 0.883718 0.104699
1.000000 0.896873 0.108843
1.000000 0.909911 0.113042
1.000000 0.922832 0.117293
1.000000 0.935633 0.121593
1.000000 0.948316 0.125942
0.013385 0.100581 0.006424
0.013562 0.100847 0.006424
0.014187 0.101804 0.006424
0.015104 0.100444 0.006424
0.016790 0.096234 0.006424
0.019166 0.090693 0.006424
0.022153 0.084147 0.006434
0.025646 0.077242 0.006450
0.029556 0.071458 0.006466
0.034875 0.067164 0.006484
0.041384 0.064420 0.006504
0.049708 0.063201 0.006526
0.060589 0.063427 0.006549
0.073531 0.064991 0.006575
0.088363 0.067977 0.006615
0.115874 0.078523 0.006683
0.141959 0.090893 0.006750
0.172095 0.104670 0.006845
0.206693 0.120092 0.007035
0.240801 0.137395 0.007220
0.276092 0.156627 0.007401
0.314226 0.175447 0.007577
0.354948 0.192885 0.007877
0.391964 0.211345 0.008202
0.430540 0.230797 0.008567
0.470569 0.251214 0.009034
0.511947 0.272570 0.009594
0.554577 0.293187 0.010289
0.598368 0.312125 0.010997
0.643233 0.331519 0.011947
0.689090 0.351343 0.013018
0.724133 0.371575 0.014131
0.753982 0.392191 0.015646
0.783665 0.413170 0.017257
0.813165 0.434491 0.018954
0.842469 0.456134 0.020856
0.871566 0.478082 0.022917
0.900451 0.500319 0.025092
0.929148 0.522859 0.027598
0.957656 0.544905 0.030251
0.985968 0.563522 0.033051
1.000000 0.582204 0.035999
1.000000 0.600942 0.039061
1.000000 0.619726 0.042220
1.000000 0.638549 0.045519
1.000000 0.657401 0.048958
1.000000 0.676274 0.052536
1.000000 0.695161 0.056254
1.000000 0.714055 0.059838
1.000000 0.732947 0.063442
1.000000 0.751831 0.067148
1.000000 0.770701 0.070955
1.000000 0.789550 0.074860
1.000000 0.804179 0.078862
1.000000 0.817997 0.082960
1.000000 0.831705 0.087150
1.000000 0.845303 0.091432
1.000000 0.858788 0.095561
1.000000 0.872160 0.099590
1.000000 0.885418 0.103678
1.000000 0.898560 0.107823
1.000000 0.911585 0.112024
1.000000 0.924493 0.116277
1.000000 0.937283 0.120581
1.000000 0.949953 0.124933
0.014950 0.131385 0.006424
0.015116 0.131676 0.006424
0.015892 0.132724 0.006424
0.017826 0.134660 0.006434
0.019855 0.129485 0.006446
0.022756 0.122140 0.006459
0.026191 0.113598 0.006472
0.030064 0.105325 0.006486
0.035378 0.098162 0.006501
0.041556 0.092293 0.006518
0.049129 0.087893 0.006535
0.058691 0.085170 0.006555
0.070150 0.084083 0.006576
0.082538 0.084551 0.006609
0.097369 0.086469 0.006647
0.115025 0.089728 0.006687
0.138686 0.100694 0.006747
0.166971 0.114132 0.006827
0.199507 0.129403 0.007009
0.233118 0.146571 0.007188
0.266757 0.165690 0.007365
0.303258 0.182245 0.007537
0.342560 0.199450 0.007795
0.380055 0.217705 0.008115
0.417600 0.236978 0.008435
0.456685 0.257238 0.008895
0.497207 0.278457 0.009382
0.539067 0.297927 0.010067
0.582168 0.316720 0.010766
0.626420 0.335984 0.011602
0.671739 0.355691 0.012654
0.712786 0.375818 0.013749
0.742634 0.396339 0.015116
0.772346 0.417232 0.016694
0.801901 0.438475 0.018360
0.831283 0.460047 0.020171
0.860477 0.481930 0.022194
0.889499 0.504132 0.024330
