velvia_modern/Velvia50_Soft.cube
TITLE "Velvia 50 Soft"
# Adobe RGB in/out. REPLACES AgX. Velvia 50 color reversal.
LUT_3D_SIZE 5
DOMAIN_MIN 0.0 0.0 0.0
DOMAIN_MAX 1.0 1.0 1.0
0.050851 0.034289 0.037567
0.386652 0.149833 0.040264
0.716633 0.419765 0.072880
0.837444 0.602686 0.148029
0.872455 0.711804 0.220151
0.052361 0.324241 0.037918
0.271433 0.265356 0.038938
0.643859 0.444966 0.058759
0.818851 0.616336 0.132505
0.869387 0.719733 0.209223
0.077433 0.638770 0.041592
0.329471 0.602860 0.044130
0.595442 0.587356 0.057467
0.774231 0.667677 0.110596
0.858064 0.752318 0.187559
0.137695 0.778308 0.050512
0.339612 0.771011 0.055095
0.603901 0.758567 0.074501
0.758355 0.768944 0.115707
0.842445 0.798426 0.177751
0.193795 0.838739 0.063938
0.339224 0.836832 0.069632
0.590686 0.834315 0.091123
0.750485 0.839090 0.131226
0.834808 0.845959 0.183875
0.050851 0.034379 0.391068
0.397110 0.161228 0.398820
0.705791 0.410867 0.369792
0.832601 0.590695 0.369396
0.871283 0.705235 0.383402
0.051694 0.252517 0.312954
0.189014 0.179333 0.186779
0.621040 0.419984 0.293294
0.809728 0.601939 0.337313
0.868206 0.712968 0.367066
0.070634 0.605939 0.321585
0.306092 0.571217 0.287630
0.563742 0.557639 0.249042
0.765283 0.655410 0.288631
0.855220 0.745757 0.332509
0.131224 0.771090 0.296850
0.330907 0.763430 0.288377
0.595909 0.748731 0.275264
0.753467 0.763035 0.281245
0.840824 0.795881 0.311813
0.191050 0.836156 0.267965
0.336303 0.834407 0.267710
0.587824 0.832301 0.270959
0.749198 0.837696 0.284288
0.834486 0.845760 0.308864
0.050851 0.038687 0.766843
0.397110 0.178654 0.768721
0.752899 0.468549 0.765924
0.836255 0.603292 0.694515
0.870758 0.703493 0.663424
0.052150 0.324458 0.752982
0.354256 0.359663 0.716048
0.662763 0.472842 0.675075
0.812850 0.609528 0.656694
0.867483 0.709878 0.641461
0.062130 0.552731 0.631128
0.273272 0.532343 0.589057
0.506929 0.509947 0.504433
0.757177 0.645246 0.563722
0.851881 0.738725 0.590470
0.117625 0.749116 0.610131
0.312767 0.740944 0.594291
0.575099 0.729663 0.557461
0.740917 0.746847 0.538067
0.837688 0.791160 0.554952
0.184019 0.829518 0.565197
0.328884 0.828299 0.560050
0.578912 0.827487 0.547900
0.745648 0.834454 0.540785
0.833714 0.845324 0.545932
0.050851 0.058846 0.870283
0.397110 0.208947 0.870452
0.758974 0.491484 0.871055
0.847728 0.637990 0.856246
0.872117 0.714068 0.829567
0.052361 0.355808 0.870342
0.405045 0.422987 0.870511
0.726425 0.549988 0.862199
0.830850 0.643762 0.839199
0.868746 0.719737 0.821108
0.062376 0.560421 0.823382
0.295344 0.563306 0.816487
0.597026 0.595866 0.795504
0.771646 0.667792 0.788697
0.853474 0.744245 0.785919
0.106650 0.726137 0.793187
0.297175 0.722081 0.783229
0.558354 0.717495 0.755036
0.723871 0.730972 0.728678
0.836102 0.789334 0.747473
0.175616 0.821560 0.764756
0.320045 0.821150 0.760302
0.568932 0.822305 0.748702
0.740272 0.831250 0.739048
0.832978 0.845018 0.738615
0.050851 0.110550 0.888074
0.397110 0.253064 0.888064
0.758974 0.508993 0.888030
0.856750 0.663138 0.889089
0.873923 0.728727 0.877788
0.052361 0.378979 0.888070
0.405045 0.443438 0.888061
0.756509 0.599476 0.888161
0.841709 0.672444 0.886861
0.870673 0.734907 0.873434
0.069267 0.613837 0.882748
0.333392 0.624149 0.880429
0.640425 0.653729 0.874322
0.792220 0.700657 0.867735
0.858408 0.758715 0.862046
0.103452 0.721442 0.861225
0.295077 0.722227 0.859628
0.571056 0.730570 0.853325
0.748894 0.759923 0.847247
0.838496 0.794417 0.845622
0.168322 0.814838 0.848595
0.312418 0.815314 0.847074
0.561195 0.818734 0.842919
0.736863 0.829747 0.839053
0.832660 0.845127 0.838597
