velvia_modern/Velvia50_ExtraSoft.cube
TITLE "Velvia 50 ExtraSoft"
# Adobe RGB in/out. REPLACES AgX. Velvia 50 color reversal.
LUT_3D_SIZE 65
DOMAIN_MIN 0.0 0.0 0.0
DOMAIN_MAX 1.0 1.0 1.0
0.065865 0.046521 0.050424
0.065865 0.046521 0.050424
0.065868 0.046521 0.050424
0.066244 0.046521 0.050424
0.067189 0.046766 0.050424
0.069208 0.047570 0.050424
0.073903 0.048880 0.050424
0.084797 0.050810 0.050424
0.102532 0.054432 0.050424
0.127223 0.059369 0.050528
0.162707 0.067643 0.050815
0.198597 0.079691 0.051070
0.232437 0.094936 0.051413
0.259897 0.110573 0.051713
0.287532 0.127485 0.052106
0.315106 0.145521 0.052876
0.338893 0.163441 0.053605
0.362757 0.181258 0.054295
0.386657 0.199724 0.054950
0.409188 0.217999 0.056069
0.429507 0.236585 0.057219
0.449625 0.255594 0.058475
0.469537 0.274410 0.060045
0.489236 0.289517 0.061814
0.508721 0.304642 0.064011
0.527987 0.319773 0.066175
0.547034 0.334896 0.068784
0.565860 0.350003 0.071806
0.580039 0.363992 0.074820
0.591727 0.376368 0.078432
0.603151 0.388624 0.082396
0.614320 0.400761 0.086388
0.625245 0.412776 0.090486
0.635933 0.424669 0.094905
0.646393 0.436440 0.099362
0.656632 0.448088 0.104035
0.666657 0.459612 0.108995
0.676476 0.471014 0.114005
0.686096 0.482293 0.119062
0.695522 0.493449 0.124162
0.704761 0.503580 0.129215
0.710474 0.512391 0.134257
0.715903 0.521086 0.139335
0.721213 0.529667 0.144448
0.726406 0.538134 0.149592
0.731488 0.546489 0.154765
0.736461 0.554735 0.159620
0.741329 0.562873 0.164351
0.746096 0.570903 0.169089
0.750764 0.578828 0.173830
0.755337 0.586649 0.178574
0.759817 0.594367 0.183318
0.764207 0.601984 0.188061
0.768510 0.609226 0.192801
0.772531 0.614715 0.197536
0.774997 0.620114 0.202162
0.777409 0.625427 0.206444
0.779770 0.630654 0.210708
0.782081 0.635796 0.214954
0.784343 0.640857 0.219181
0.786558 0.645836 0.223388
0.788726 0.650735 0.227575
0.790850 0.655556 0.231739
0.792931 0.660300 0.235880
0.794969 0.664968 0.239999
0.065865 0.046521 0.050424
0.065865 0.046521 0.050424
0.065865 0.046521 0.050424
0.066076 0.046521 0.050424
0.067052 0.046772 0.050424
0.068790 0.047581 0.050424
0.073137 0.048899 0.050424
0.083448 0.050841 0.050424
0.100995 0.054456 0.050424
0.125426 0.059399 0.050512
0.160626 0.067669 0.050801
0.196705 0.079692 0.051051
0.230976 0.094913 0.051397
0.258504 0.110538 0.051700
0.286256 0.127472 0.052072
0.314129 0.145526 0.052848
0.337999 0.163459 0.053580
0.361934 0.181287 0.054273
0.385895 0.199761 0.054931
0.408583 0.218041 0.056037
0.428946 0.236632 0.057190
0.449104 0.255646 0.058436
0.469050 0.274453 0.060009
0.488780 0.289561 0.061767
0.508292 0.304687 0.063967
0.527584 0.319818 0.066133
0.546653 0.334942 0.068728
0.565500 0.350049 0.071752
0.579820 0.364030 0.074768
0.591522 0.376405 0.078368
0.602958 0.388661 0.082333
0.614138 0.400797 0.086327
0.625073 0.412812 0.090421
0.635770 0.424704 0.094842
0.646238 0.436474 0.099301
0.656485 0.448121 0.103969
0.666518 0.459646 0.108930
0.676344 0.471046 0.113942
0.685969 0.482325 0.119000
0.695401 0.493480 0.124101
0.704645 0.503605 0.129157
0.710406 0.512416 0.134200
0.715839 0.521111 0.139279
0.721152 0.529691 0.144393
0.726349 0.538157 0.149539
0.731433 0.546513 0.154713
0.736408 0.554758 0.159574
0.741279 0.562895 0.164306
0.746048 0.570926 0.169045
0.750718 0.578851 0.173787
0.755293 0.586671 0.178532
0.759775 0.594389 0.183277
0.764167 0.602006 0.188021
0.768471 0.609241 0.192762
0.772509 0.614730 0.197498
0.774975 0.620130 0.202128
0.777389 0.625442 0.206410
0.779750 0.630669 0.210676
0.782062 0.635811 0.214923
0.784325 0.640871 0.219150
0.786540 0.645850 0.223358
0.788710 0.650749 0.227545
0.790835 0.655570 0.231710
0.792916 0.660314 0.235853
0.794954 0.664982 0.239971
0.065865 0.046521 0.050424
0.065865 0.046521 0.050424
0.065865 0.046521 0.050424
0.065976 0.046521 0.050424
0.066675 0.046791 0.050424
0.068080 0.047617 0.050424
0.071751 0.048960 0.050424
0.079253 0.050945 0.050424
0.095960 0.054539 0.050424
0.119454 0.059501 0.050457
0.153624 0.067758 0.050755
0.190251 0.079695 0.051011
0.225937 0.094838 0.051342
0.253699 0.110438 0.051652
0.281827 0.127443 0.051954
0.310566 0.145560 0.052747
0.334867 0.163535 0.053493
0.359041 0.181399 0.054197
0.383211 0.199904 0.054864
0.406444 0.218199 0.055923
0.426961 0.236808 0.057087
0.447255 0.255836 0.058300
0.467322 0.274608 0.059884
0.487160 0.289721 0.061597
0.506769 0.304850 0.063808
0.526148 0.319983 0.065984
0.545297 0.335108 0.068528
0.564216 0.350215 0.071562
0.579041 0.364166 0.074586
0.590789 0.376540 0.078137
0.602268 0.388794 0.082110
0.613487 0.400928 0.086110
0.624458 0.412940 0.090191
0.635187 0.424831 0.094617
0.645685 0.436599 0.099081
0.655960 0.448243 0.103734
0.666019 0.459765 0.108700
0.675868 0.471164 0.113716
0.685516 0.482440 0.118778
0.694969 0.493593 0.123884
0.704232 0.503694 0.128949
0.710165 0.512505 0.133996
0.715610 0.521198 0.139080
0.720934 0.529777 0.144198
0.726141 0.538243 0.149348
0.731235 0.546597 0.154526
0.736220 0.554842 0.159408
0.741099 0.562978 0.164144
0.745876 0.571007 0.168887
0.750554 0.578931 0.173633
0.755135 0.586751 0.178381
0.759624 0.594468 0.183129
0.764022 0.602084 0.187877
0.768332 0.609299 0.192621
0.772429 0.614787 0.197361
0.774899 0.620186 0.202006
0.777316 0.625497 0.206292
0.779681 0.630723 0.210560
0.781995 0.635865 0.214810
0.784261 0.640924 0.219040
0.786479 0.645902 0.223251
0.788650 0.650801 0.227440
0.790777 0.655621 0.231608
0.792861 0.660364 0.235753
0.794901 0.665032 0.239874
0.065865 0.046778 0.050424
0.065865 0.046768 0.050424
0.065865 0.046739 0.050424
0.065983 0.046724 0.050424
0.066331 0.046909 0.050424
0.067246 0.047708 0.050424
0.069799 0.049085 0.050424
0.075661 0.051134 0.050424
0.088988 0.054684 0.050424
0.110493 0.059684 0.050424
0.142435 0.067920 0.050676
0.179652 0.079718 0.050943
0.215057 0.094737 0.051247
0.245605 0.110346 0.051571
0.274274 0.127469 0.051868
0.303489 0.145686 0.052571
0.329411 0.163721 0.053340
0.353969 0.181645 0.054063
0.378477 0.200197 0.054746
0.402649 0.218515 0.055720
0.423427 0.237153 0.056904
0.443951 0.256204 0.058056
0.464225 0.274906 0.059660
0.484250 0.290025 0.061294
0.504027 0.305158 0.063523
0.523558 0.320293 0.065716
0.542846 0.335419 0.068167
0.561892 0.350525 0.071217
0.577628 0.364422 0.074255
0.589459 0.376791 0.077720
0.601014 0.389042 0.081705
0.612304 0.401172 0.085716
0.623338 0.413180 0.089773
0.634126 0.425066 0.094209
0.644678 0.436829 0.098682
0.655003 0.448470 0.103307
0.665108 0.459987 0.108281
0.675001 0.471381 0.113305
0.684689 0.482653 0.118374
0.694179 0.493802 0.123487
0.703477 0.503860 0.128569
0.709725 0.512668 0.133625
0.715191 0.521360 0.138716
0.720535 0.529937 0.143842
0.725761 0.538400 0.148999
0.730872 0.546753 0.154184
0.735874 0.554995 0.159104
0.740769 0.563130 0.163848
0.745560 0.571157 0.168597
0.750252 0.579080 0.173350
0.754846 0.586898 0.178105
0.759347 0.594613 0.182860
0.763757 0.602227 0.187613
0.768078 0.609404 0.192364
0.772284 0.614891 0.197109
0.774760 0.620288 0.201783
0.777182 0.625598 0.206074
0.779552 0.630823 0.210348
0.781872 0.635964 0.214603
0.784142 0.641022 0.218838
0.786365 0.645999 0.223054
0.788541 0.650896 0.227248
0.790673 0.655715 0.231421
0.792760 0.660457 0.235570
0.794804 0.665124 0.239696
0.065865 0.047892 0.050424
0.065865 0.047874 0.050424
0.065950 0.047816 0.050424
0.066066 0.047739 0.050424
0.066455 0.047717 0.050424
0.067028 0.047974 0.050424
0.068551 0.049394 0.050424
0.072602 0.051519 0.050424
0.082184 0.054939 0.050424
0.101476 0.059998 0.050424
0.129855 0.068219 0.050574
0.165683 0.079854 0.050852
0.201164 0.094726 0.051119
0.235083 0.110434 0.051462
0.264258 0.127696 0.051775
0.293953 0.146028 0.052329
0.321930 0.164113 0.053128
0.346941 0.182105 0.053875
0.371861 0.200714 0.054579
0.396675 0.219049 0.055432
0.418409 0.237721 0.056642
0.439238 0.256798 0.057802
0.459787 0.275380 0.059338
0.480061 0.290505 0.060919
0.500067 0.305640 0.063112
0.519807 0.320775 0.065329
0.539287 0.335899 0.067645
0.558509 0.351003 0.070716
0.575563 0.364812 0.073775
0.587513 0.377176 0.077114
0.599177 0.389419 0.081114
0.610566 0.401542 0.085141
0.621691 0.413543 0.089191
0.632564 0.425422 0.093611
0.643195 0.437178 0.098097
0.653592 0.448811 0.102681
0.663764 0.460322 0.107665
0.673719 0.471710 0.112699
0.683466 0.482975 0.117779
0.693010 0.494118 0.122902
0.702360 0.504111 0.128009
0.709072 0.512915 0.133076
0.714570 0.521603 0.138179
0.719944 0.530177 0.143316
0.725197 0.538638 0.148483
0.730335 0.546987 0.153679
0.735361 0.555227 0.158655
0.740278 0.563358 0.163409
0.745091 0.571383 0.168168
0.749803 0.579303 0.172931
0.754417 0.587118 0.177695
0.758936 0.594831 0.182460
0.763363 0.602443 0.187222
0.767700 0.609562 0.191981
0.771950 0.615047 0.196736
0.774552 0.620442 0.201452
0.776983 0.625750 0.205751
0.779362 0.630973 0.210032
0.781689 0.636112 0.214295
0.783967 0.641168 0.218538
0.786196 0.646143 0.222761
0.788379 0.651039 0.226962
0.790517 0.655856 0.231142
0.792610 0.660597 0.235298
0.794660 0.665262 0.239430
0.065914 0.050174 0.050424
0.065947 0.050145 0.050424
0.066037 0.050047 0.050424
0.066325 0.049894 0.050424
0.066786 0.049745 0.050424
0.067186 0.049722 0.050424
0.068173 0.050100 0.050424
0.071184 0.052396 0.050424
0.077547 0.055457 0.050424
0.092839 0.060603 0.050424
0.117554 0.068876 0.050464
0.150083 0.080372 0.050751
0.186328 0.095162 0.051003
0.222633 0.110984 0.051337
0.252800 0.128354 0.051665
0.282800 0.146778 0.052040
0.312973 0.164855 0.052870
0.338404 0.182902 0.053645
0.363726 0.201558 0.054371
0.388922 0.219886 0.055073
0.412108 0.238585 0.056313
0.433274 0.257684 0.057499
0.454136 0.276074 0.058928
0.474700 0.291198 0.060536
0.494973 0.306330 0.062584
0.514962 0.321459 0.064829
0.534672 0.336577 0.067033
0.554109 0.351673 0.070067
0.572862 0.365358 0.073149
0.584962 0.377710 0.076324
0.596763 0.389942 0.080344
0.608278 0.402054 0.084389
0.619521 0.414044 0.088457
0.630502 0.425912 0.092826
0.641233 0.437657 0.097327
0.651723 0.449280 0.101861
0.661982 0.460781 0.106853
0.672019 0.472159 0.111899
0.681841 0.483415 0.116992
0.691456 0.494548 0.122127
0.700873 0.504453 0.127268
0.708202 0.513252 0.132349
0.713742 0.521936 0.137466
0.719155 0.530505 0.142616
0.724445 0.538961 0.147797
0.729617 0.547306 0.153007
0.734675 0.555541 0.158056
0.739623 0.563669 0.162824
0.744465 0.571690 0.167596
0.749203 0.579606 0.172372
0.753843 0.587418 0.177149
0.758386 0.595128 0.181925
0.762835 0.602736 0.186700
0.767194 0.609777 0.191471
0.771464 0.615258 0.196236
0.774274 0.620651 0.200995
0.776716 0.625956 0.205318
0.779106 0.631176 0.209610
0.781443 0.636312 0.213883
0.783731 0.641366 0.218136
0.785970 0.646339 0.222369
0.788161 0.651232 0.226579
0.790307 0.656047 0.230768
0.792408 0.660785 0.234933
0.794466 0.665448 0.239073
0.066026 0.054685 0.050424
0.066049 0.054637 0.050424
0.066214 0.054471 0.050424
0.066656 0.054195 0.050424
0.067081 0.053865 0.050424
0.067745 0.053598 0.050424
0.068638 0.053588 0.050424
0.070515 0.054062 0.050424
0.075175 0.056810 0.050424
0.087183 0.061828 0.050424
0.107972 0.070388 0.050424
0.136496 0.081868 0.050655
0.172527 0.096553 0.050915
0.207796 0.112381 0.051209
0.241030 0.129752 0.051549
0.271010 0.148194 0.051860
0.301570 0.166137 0.052585
0.328935 0.184197 0.053385
0.354561 0.202863 0.054134
0.380071 0.221137 0.054838
0.404813 0.239841 0.055930
0.426306 0.258944 0.057144
0.447479 0.277045 0.058444
0.468340 0.292153 0.060082
0.488894 0.307270 0.061955
0.509148 0.322383 0.064230
0.529109 0.337485 0.066462
0.548782 0.352565 0.069284
0.568175 0.366080 0.072393
0.581843 0.378415 0.075486
0.593803 0.390629 0.079407
0.605467 0.402724 0.083472
0.616847 0.414698 0.087559
0.627956 0.426550 0.091864
0.638806 0.438280 0.096381
0.649408 0.449889 0.100932
0.659771 0.461375 0.105852
0.669905 0.472740 0.110912
0.679819 0.483982 0.116019
0.689520 0.495104 0.121168
0.699020 0.504894 0.126348
0.707115 0.513687 0.131446
0.712707 0.522363 0.136579
0.718168 0.530926 0.141746
0.723503 0.539376 0.146943
0.728717 0.547715 0.152168
0.733815 0.555945 0.157309
0.738801 0.564068 0.162093
0.743678 0.572084 0.166882
0.748450 0.579995 0.171673
0.753121 0.587802 0.176465
0.757694 0.595507 0.181256
0.762171 0.603111 0.186045
0.766557 0.610051 0.190830
0.770852 0.615529 0.195610
0.773924 0.620918 0.200382
0.776380 0.626219 0.204775
0.778783 0.631436 0.209079
0.781133 0.636568 0.213365
0.783433 0.641619 0.217630
0.785684 0.646588 0.221875
0.787886 0.651478 0.226097
0.790043 0.656291 0.230297
0.792154 0.661026 0.234473
0.794221 0.665686 0.238624
0.066251 0.061563 0.050424
0.066338 0.061494 0.050424
0.066605 0.061254 0.050424
0.066973 0.060847 0.050424
0.067481 0.060323 0.050424
0.068415 0.059788 0.050424
0.069805 0.059419 0.050424
0.071859 0.059473 0.050424
0.074721 0.060220 0.050424
0.084198 0.064406 0.050424
0.102116 0.073562 0.050424
0.127061 0.085154 0.050581
0.159707 0.099425 0.050839
0.194703 0.115065 0.051091
0.229976 0.132260 0.051438
0.259525 0.150586 0.051756
0.289827 0.168195 0.052294
0.319151 0.186186 0.053114
0.344908 0.204709 0.053882
0.370597 0.222939 0.054603
0.396182 0.241608 0.055512
0.418634 0.260681 0.056751
0.440078 0.278359 0.057937
0.461207 0.293429 0.059572
0.482025 0.308511 0.061247
0.502536 0.323592 0.063550
0.522745 0.338663 0.065811
0.542657 0.353715 0.068390
0.562279 0.367006 0.071524
0.578214 0.379312 0.074641
0.590348 0.391501 0.078325
0.602174 0.403571 0.082408
0.613706 0.415521 0.086513
0.624958 0.427351 0.090742
0.635942 0.439060 0.095275
0.646669 0.450649 0.099843
0.657150 0.462116 0.104676
0.667396 0.473463 0.109750
0.677414 0.484688 0.114871
0.687214 0.495793 0.120034
0.696812 0.505443 0.125241
0.705818 0.514226 0.130375
0.711469 0.522894 0.135527
0.716987 0.531448 0.140712
0.722375 0.539890 0.145927
0.727639 0.548222 0.151170
0.732784 0.556445 0.156418
0.737814 0.564560 0.161220
0.742733 0.572569 0.166027
0.747544 0.580474 0.170836
0.752253 0.588275 0.175645
0.756861 0.595974 0.180454
0.761372 0.603573 0.185260
0.765789 0.610389 0.190061
0.770115 0.615862 0.194857
0.773501 0.621246 0.199645
0.775975 0.626543 0.204121
0.778393 0.631755 0.208441
0.780759 0.636883 0.212741
0.783074 0.641929 0.217021
0.785338 0.646895 0.221279
0.787554 0.651781 0.225516
0.789723 0.656590 0.229729
0.791846 0.661321 0.233918
0.793924 0.665978 0.238082
0.066769 0.076397 0.050424
0.066834 0.076268 0.050424
0.067043 0.075817 0.050424
0.067464 0.075039 0.050424
0.068358 0.074000 0.050424
0.069736 0.072840 0.050424
0.071832 0.071791 0.050424
0.074373 0.071194 0.050424
0.078438 0.071322 0.050424
0.085263 0.072526 0.050424
0.099329 0.078939 0.050424
0.121131 0.090774 0.050538
0.150367 0.104273 0.050785
0.184228 0.119491 0.051016
0.218845 0.136274 0.051341
0.249124 0.154211 0.051661
0.278797 0.171285 0.052018
0.309260 0.189093 0.052848
0.335296 0.207337 0.053628
0.360980 0.225449 0.054363
0.386627 0.244021 0.055078
0.410582 0.263014 0.056338
0.432219 0.280095 0.057545
0.453557 0.295094 0.059025
0.474592 0.310113 0.060663
0.495325 0.325138 0.062812
0.515757 0.340158 0.065098
0.535890 0.355163 0.067409
0.555730 0.368163 0.070564
0.574149 0.380429 0.073704
0.586461 0.392581 0.077122
0.598456 0.404616 0.081220
0.610148 0.416534 0.085342
0.621551 0.428333 0.089484
0.632678 0.440014 0.094029
0.643541 0.451576 0.098611
0.654151 0.463018 0.103344
0.664518 0.474341 0.108430
0.674651 0.485544 0.113564
0.684561 0.496629 0.118741
0.694268 0.506108 0.123965
0.703783 0.514879 0.129150
0.710038 0.523535 0.134320
0.715618 0.532078 0.139523
0.721067 0.540510 0.144757
0.726387 0.548832 0.150019
0.731586 0.557046 0.155306
0.736666 0.565152 0.160211
0.741633 0.573153 0.165038
0.746490 0.581049 0.169866
0.751240 0.588843 0.174695
0.755889 0.596534 0.179523
0.760439 0.604126 0.184347
0.764892 0.610794 0.189167
0.769253 0.616260 0.193981
0.773006 0.621638 0.198787
0.775500 0.626930 0.203359
0.777937 0.632136 0.207696
0.780321 0.637259 0.212013
0.782652 0.642300 0.216309
0.784933 0.647261 0.220584
0.787164 0.652143 0.224836
0.789347 0.656946 0.229064
0.791484 0.661674 0.233269
0.793576 0.666326 0.237448
0.067334 0.103741 0.050424
0.067470 0.103552 0.050424
0.067913 0.102889 0.050424
0.068592 0.101732 0.050424
0.070138 0.100121 0.050424
0.072219 0.098035 0.050424
0.075180 0.095572 0.050424
0.078993 0.092967 0.050424
0.084994 0.090652 0.050424
0.091869 0.089963 0.050424
0.101959 0.091617 0.050424
0.118334 0.098944 0.050527
0.144577 0.111454 0.050756
0.176703 0.126035 0.050976
0.209165 0.142156 0.051266
0.240341 0.159011 0.051581
0.269050 0.175668 0.051876
0.298752 0.193146 0.052603
0.326189 0.210939 0.053388
0.351657 0.228834 0.054130
0.377185 0.247227 0.054832
0.402470 0.266071 0.055923
0.424193 0.282339 0.057145
0.445651 0.297222 0.058462
0.466833 0.312141 0.060118
0.487729 0.327078 0.062038
0.508338 0.342020 0.064344
0.528656 0.356954 0.066609
0.548684 0.369586 0.069540
0.568425 0.381795 0.072697
0.582219 0.393895 0.075838
0.594381 0.405882 0.079936
0.606233 0.417756 0.084069
0.617790 0.429515 0.088224
0.629064 0.441159 0.092665
0.640067 0.452685 0.097257
0.650810 0.464095 0.101882
0.661304 0.475387 0.106973
0.671559 0.486562 0.112116
0.681589 0.497625 0.117307
0.691413 0.506898 0.122546
0.701039 0.515653 0.127784
0.708424 0.524295 0.132973
0.714074 0.532824 0.138194
0.719588 0.541243 0.143447
0.724971 0.549553 0.148728
0.730228 0.557754 0.154034
0.735364 0.565850 0.159075
0.740384 0.573840 0.163922
0.745291 0.581726 0.168772
0.750089 0.589510 0.173621
0.754783 0.597193 0.178469
0.759376 0.604775 0.183314
0.763870 0.611268 0.188154
0.768270 0.616727 0.192988
0.772441 0.622098 0.197813
0.774957 0.627383 0.202492
0.777416 0.632583 0.206848
0.779820 0.637700 0.211184
0.782170 0.642735 0.215499
0.784469 0.647689 0.219791
0.786717 0.652565 0.224061
0.788917 0.657363 0.228306
0.791070 0.662085 0.232527
0.793177 0.666732 0.236723
0.068675 0.140343 0.050424
0.068782 0.140031 0.050424
0.069500 0.138916 0.050424
0.070953 0.136894 0.050424
0.072710 0.133943 0.050424
0.075974 0.130116 0.050424
0.080044 0.125557 0.050424
0.086391 0.120546 0.050424
0.092582 0.115725 0.050424
0.100794 0.112980 0.050424
0.110268 0.112669 0.050474
0.123097 0.114595 0.050594
0.141807 0.121309 0.050751
0.171997 0.134908 0.050956
0.202247 0.150173 0.051217
0.233452 0.165513 0.051521
0.260939 0.181573 0.051809
0.289616 0.198562 0.052393
0.317953 0.215700 0.053172
0.342992 0.233262 0.053913
0.368211 0.251378 0.054618
0.393523 0.269989 0.055521
0.416271 0.285178 0.056751
0.437743 0.299893 0.057934
0.458980 0.314665 0.059569
0.479964 0.329475 0.061252
0.500685 0.344304 0.063571
0.521134 0.359079 0.065850
0.541308 0.371309 0.068477
0.561203 0.383442 0.071645
0.577706 0.395471 0.074799
0.590024 0.407396 0.078583
0.602030 0.419212 0.082721
0.613735 0.430918 0.086883
0.625153 0.442513 0.091209
0.636295 0.453995 0.095807
0.647173 0.465363 0.100440
0.657796 0.476616 0.105402
0.668176 0.487756 0.110551
0.678332 0.498795 0.115753
0.688278 0.507825 0.121006
0.698021 0.516560 0.126297
0.706643 0.525183 0.131502
0.712367 0.533695 0.136741
0.717951 0.542097 0.142011
0.723401 0.550391 0.147310
0.728721 0.558578 0.152635
0.733918 0.566660 0.157822
0.738994 0.574637 0.162691
0.743956 0.582511 0.167561
0.748806 0.590283 0.172432
0.753549 0.597955 0.177301
0.758188 0.605526 0.182167
0.762728 0.611817 0.187028
0.767170 0.617267 0.191883
0.771518 0.622629 0.196729
0.774349 0.627906 0.201526
0.776831 0.633098 0.205903
0.779257 0.638207 0.210259
0.781629 0.643235 0.214593
0.783948 0.648182 0.218905
0.786215 0.653051 0.223193
0.788434 0.657843 0.227457
0.790604 0.662559 0.231697
0.792728 0.667200 0.235910
0.071259 0.177698 0.050424
0.071483 0.177298 0.050424
0.072240 0.175870 0.050424
0.073673 0.173279 0.050424
0.076917 0.169499 0.050424
0.081260 0.164584 0.050424
0.087637 0.158686 0.050424
0.094281 0.151922 0.050424
0.101832 0.145142 0.050438
0.110063 0.140543 0.050520
0.120736 0.138279 0.050612
0.133464 0.138312 0.050714
0.148997 0.140455 0.050824
0.169381 0.146129 0.050954
0.197876 0.159711 0.051194
0.228484 0.173855 0.051483
0.254610 0.189167 0.051761
0.282080 0.205385 0.052226
0.310705 0.221781 0.052990
0.335255 0.238887 0.053723
0.359985 0.256618 0.054423
0.384921 0.274339 0.055147
0.408693 0.288701 0.056376
0.430061 0.303184 0.057562
0.451250 0.317756 0.059031
0.472233 0.332392 0.060659
0.492989 0.347069 0.062800
0.513503 0.361254 0.065086
0.533765 0.373371 0.067402
0.553767 0.385402 0.070573
0.573008 0.397341 0.073732
0.585465 0.409184 0.077191
0.597609 0.420926 0.081326
0.609452 0.432565 0.085488
0.621006 0.444098 0.089687
0.632281 0.455523 0.094286
0.643288 0.466839 0.098920
0.654038 0.478044 0.103743
0.664546 0.489145 0.108895
0.674830 0.500078 0.114103
0.684899 0.508899 0.119365
0.694761 0.517609 0.124676
0.704422 0.526208 0.129926
0.710513 0.534698 0.135180
0.716170 0.543080 0.140466
0.721690 0.551355 0.145781
0.727077 0.559525 0.151124
0.732337 0.567590 0.156465
0.737474 0.575551 0.161355
0.742493 0.583410 0.166246
0.747399 0.591168 0.171139
0.752195 0.598825 0.176029
0.756884 0.606384 0.180916
0.761471 0.612443 0.185799
0.765959 0.617882 0.190674
0.770351 0.623234 0.195542
0.773678 0.628501 0.200399
0.776186 0.633684 0.204865
0.778636 0.638784 0.209242
0.781030 0.643803 0.213597
0.783371 0.648743 0.217929
0.785660 0.653604 0.222238
0.787898 0.658388 0.226522
0.790088 0.663097 0.230781
0.792229 0.667730 0.235014
0.073711 0.209210 0.050424
0.074214 0.209496 0.050424
0.075964 0.210522 0.050424
0.078464 0.209062 0.050424
0.082879 0.204484 0.050424
0.088751 0.198306 0.050424
0.095657 0.190769 0.050465
0.103181 0.182504 0.050527
0.111039 0.175303 0.050593
0.120963 0.169773 0.050666
0.132157 0.166150 0.050746
0.145298 0.164515 0.050834
0.160963 0.164819 0.050929
0.177916 0.166910 0.051031
0.195654 0.170833 0.051194
0.225101 0.184064 0.051466
0.250027 0.198533 0.051731
0.276204 0.213567 0.052106
0.303655 0.229303 0.052848
0.328617 0.245836 0.053564
0.352706 0.263072 0.054255
0.377116 0.278973 0.054918
0.401651 0.292988 0.056033
0.422797 0.307171 0.057215
0.443832 0.321483 0.058521
0.464718 0.335892 0.060147
0.485424 0.350371 0.062049
0.505928 0.363837 0.064335
0.526212 0.375809 0.066587
0.546263 0.387712 0.069502
0.566072 0.399536 0.072659
0.580784 0.411275 0.075807
0.593046 0.422924 0.079909
0.605009 0.434478 0.084063
0.616684 0.445934 0.088243
0.628081 0.457289 0.092718
0.639209 0.468541 0.097348
0.650080 0.479689 0.102022
0.660715 0.490749 0.107172
0.671124 0.501344 0.112382
0.681315 0.510132 0.117647
0.691294 0.518811 0.122964
0.701069 0.527382 0.128267
0.708529 0.535845 0.133532
0.714262 0.544202 0.138830
0.719853 0.552454 0.144160
0.725309 0.560602 0.149517
0.730635 0.568646 0.154899
0.735835 0.576588 0.159927
0.740915 0.584429 0.164839
0.745878 0.592170 0.169752
0.750728 0.599812 0.174663
0.755471 0.607355 0.179572
0.760108 0.613150 0.184475
0.764645 0.618577 0.189372
0.769083 0.623917 0.194261
0.772948 0.629173 0.199140
0.775483 0.634345 0.203743
0.777958 0.639434 0.208141
0.780377 0.644444 0.212518
0.782742 0.649374 0.216871
0.785053 0.654226 0.221201
0.787313 0.659001 0.225505
0.789523 0.663701 0.229785
0.791684 0.668327 0.234038
0.078049 0.240213 0.050424
0.078496 0.240488 0.050424
0.080556 0.241477 0.050424
0.085487 0.243292 0.050464
0.090389 0.238410 0.050514
0.096994 0.231317 0.050566
0.104310 0.222803 0.050619
0.112022 0.214257 0.050675
0.121862 0.206592 0.050736
0.132440 0.200108 0.050802
0.144420 0.195115 0.050873
0.158335 0.191965 0.050951
0.173636 0.190694 0.051035
0.188874 0.191242 0.051170
0.205727 0.193473 0.051322
0.224247 0.197212 0.051480
0.247028 0.209332 0.051718
0.271919 0.223344 0.052033
0.298148 0.238333 0.052747
0.323152 0.254196 0.053442
0.346486 0.270838 0.054116
0.370249 0.284513 0.054768
0.394338 0.298104 0.055730
0.416104 0.311918 0.056900
0.436882 0.325908 0.058049
0.457575 0.340035 0.059666
0.478144 0.354265 0.061336
0.498559 0.366868 0.063612
0.518794 0.378661 0.065859
0.538831 0.390404 0.068456
0.558654 0.402086 0.071601
0.576059 0.413698 0.074741
0.588412 0.425232 0.078497
0.600473 0.436682 0.082633
0.612251 0.448045 0.086800
0.623753 0.459314 0.091130
0.634990 0.470488 0.095747
0.645979 0.481577 0.100407
