velvia_modern/Velvia50_Normal.cube
TITLE "Velvia 50 Normal"
# Adobe RGB in/out. REPLACES AgX. Velvia 50 color reversal.
LUT_3D_SIZE 65
DOMAIN_MIN 0.0 0.0 0.0
DOMAIN_MAX 1.0 1.0 1.0
0.034495 0.021697 0.024158
0.034495 0.021697 0.024158
0.034497 0.021697 0.024158
0.034759 0.021697 0.024158
0.035422 0.021850 0.024158
0.036849 0.022352 0.024158
0.040219 0.023177 0.024158
0.048312 0.024405 0.024158
0.062234 0.026752 0.024158
0.082978 0.030035 0.024225
0.115191 0.035742 0.024408
0.150259 0.044473 0.024571
0.185333 0.056163 0.024792
0.215086 0.068824 0.024985
0.246108 0.083206 0.025238
0.278069 0.099261 0.025737
0.306404 0.115885 0.026211
0.335504 0.133027 0.026662
0.365296 0.151397 0.027092
0.393950 0.170144 0.027830
0.420247 0.189755 0.028593
0.446696 0.210351 0.029433
0.473264 0.231248 0.030491
0.499922 0.248376 0.031695
0.526644 0.265826 0.033206
0.553404 0.283574 0.034711
0.580181 0.301595 0.036548
0.606955 0.319870 0.038704
0.627317 0.337029 0.040885
0.644227 0.352393 0.043538
0.660864 0.367777 0.046496
0.677232 0.383170 0.049524
0.693337 0.398563 0.052681
0.709185 0.413948 0.056139
0.724780 0.429316 0.059681
0.740128 0.444660 0.063452
0.755233 0.459974 0.067518
0.770101 0.475250 0.071688
0.784737 0.490484 0.075959
0.799145 0.505669 0.080327
0.813329 0.519559 0.084715
0.822132 0.531716 0.089151
0.830520 0.543781 0.093675
0.838743 0.555752 0.098286
0.846806 0.567629 0.102980
0.854713 0.579411 0.107756
0.862470 0.591097 0.112286
0.870080 0.602686 0.116746
0.877547 0.614178 0.121254
0.884876 0.625572 0.125809
0.892069 0.636867 0.130407
0.899131 0.648063 0.135047
0.906064 0.659160 0.139725
0.912872 0.669754 0.144441
0.919247 0.677812 0.149190
0.923161 0.685762 0.153867
0.926994 0.693606 0.158227
0.930750 0.701346 0.162599
0.934429 0.708982 0.166983
0.938035 0.716515 0.171375
0.941568 0.723947 0.175775
0.945031 0.731279 0.180181
0.948426 0.738511 0.184591
0.951754 0.745646 0.189002
0.955017 0.752683 0.193415
0.034495 0.021697 0.024158
0.034495 0.021697 0.024158
0.034495 0.021697 0.024158
0.034642 0.021697 0.024158
0.035326 0.021853 0.024158
0.036552 0.022359 0.024158
0.039664 0.023189 0.024158
0.047290 0.024425 0.024158
0.060993 0.026768 0.024158
0.081419 0.030055 0.024214
0.113231 0.035760 0.024399
0.148353 0.044473 0.024560
0.183781 0.056145 0.024781
0.213550 0.068796 0.024976
0.244652 0.083195 0.025217
0.276921 0.099265 0.025718
0.305327 0.115902 0.026195
0.334490 0.133055 0.026648
0.364337 0.151435 0.027079
0.393174 0.170188 0.027808
0.419515 0.189806 0.028574
0.446005 0.210408 0.029407
0.472610 0.231296 0.030468
0.499301 0.248427 0.031663
0.526052 0.265879 0.033175
0.552840 0.283627 0.034682
0.579642 0.301650 0.036508
0.606440 0.319926 0.038666
0.627002 0.337075 0.040848
0.643930 0.352440 0.043490
0.660582 0.367823 0.046449
0.676964 0.383216 0.049477
0.693083 0.398609 0.052631
0.708942 0.413993 0.056089
0.724549 0.429361 0.059632
0.739907 0.444705 0.063399
0.755022 0.460018 0.067465
0.769900 0.475294 0.071635
0.784544 0.490528 0.075906
0.798960 0.505712 0.080275
0.813152 0.519594 0.084665
0.822028 0.531750 0.089101
0.830421 0.543815 0.093625
0.838649 0.555786 0.098237
0.846716 0.567662 0.102932
0.854627 0.579444 0.107707
0.862388 0.591130 0.112243
0.870001 0.602719 0.116703
0.877472 0.614210 0.121212
0.884804 0.625604 0.125767
0.892000 0.636899 0.130366
0.899064 0.648095 0.135006
0.906000 0.659192 0.139686
0.912811 0.669777 0.144401
0.919212 0.677835 0.149152
0.923127 0.685785 0.153832
0.926962 0.693629 0.158193
0.930719 0.701368 0.162566
0.934399 0.709004 0.166950
0.938006 0.716537 0.171343
0.941540 0.723969 0.175744
0.945005 0.731300 0.180150
0.948400 0.738533 0.184560
0.951729 0.745667 0.188973
0.954993 0.752704 0.193385
0.034495 0.021697 0.024158
0.034495 0.021697 0.024158
0.034495 0.021697 0.024158
0.034572 0.021697 0.024158
0.035061 0.021865 0.024158
0.036050 0.022382 0.024158
0.038664 0.023228 0.024158
0.044147 0.024491 0.024158
0.056972 0.026822 0.024158
0.076292 0.030124 0.024179
0.106698 0.035822 0.024369
0.141900 0.044475 0.024534
0.178455 0.056086 0.024746
0.208274 0.068712 0.024946
0.239619 0.083170 0.025140
0.272740 0.099296 0.025653
0.301561 0.115973 0.026138
0.330931 0.133165 0.026598
0.360962 0.151579 0.027035
0.390432 0.170352 0.027733
0.416929 0.189994 0.028505
0.443558 0.210617 0.029316
0.470289 0.231470 0.030383
0.497095 0.248610 0.031547
0.523951 0.266068 0.033066
0.550835 0.283822 0.034578
0.577725 0.301849 0.036366
0.604604 0.320128 0.038529
0.625878 0.337244 0.040715
0.642867 0.352608 0.043320
0.659574 0.367991 0.046281
0.676008 0.383383 0.049312
0.692173 0.398775 0.052452
0.708076 0.414158 0.055912
0.723723 0.429524 0.059457
0.739119 0.444866 0.063208
0.754269 0.460178 0.067275
0.769178 0.475452 0.071445
0.783853 0.490684 0.075717
0.798297 0.505867 0.080087
0.812516 0.519717 0.084483
0.821656 0.531873 0.088920
0.830067 0.543936 0.093447
0.838311 0.555907 0.098060
0.846393 0.567782 0.102756
0.854319 0.579563 0.107534
0.862093 0.591248 0.112087
0.869719 0.602836 0.116550
0.877202 0.614327 0.121061
0.884545 0.625720 0.125618
0.891752 0.637014 0.130219
0.898826 0.648210 0.134862
0.905772 0.659306 0.139543
0.912591 0.669861 0.144261
0.919086 0.677917 0.149013
0.923006 0.685867 0.153708
0.926846 0.693710 0.158071
0.930607 0.701449 0.162447
0.934293 0.709083 0.166833
0.937903 0.716616 0.171229
0.941442 0.724047 0.175631
0.944910 0.731378 0.180040
0.948309 0.738609 0.184452
0.951642 0.745743 0.188866
0.954909 0.752779 0.193281
0.034495 0.021857 0.024158
0.034495 0.021851 0.024158
0.034495 0.021833 0.024158
0.034577 0.021824 0.024158
0.034821 0.021939 0.024158
0.035462 0.022439 0.024158
0.037268 0.023306 0.024158
0.041499 0.024613 0.024158
0.051521 0.026917 0.024158
0.068758 0.030248 0.024158
0.096465 0.035937 0.024319
0.131458 0.044493 0.024490
0.167089 0.056006 0.024685
0.199462 0.068636 0.024894
0.231094 0.083193 0.025085
0.264485 0.099411 0.025539
0.295026 0.116150 0.026038
0.324711 0.133406 0.026510
0.355029 0.151876 0.026957
0.385579 0.170681 0.027599
0.412333 0.190363 0.028383
0.439196 0.211021 0.029152
0.466139 0.231805 0.030231
0.493140 0.248958 0.031340
0.520174 0.266427 0.032869
0.547223 0.284189 0.034391
0.574266 0.302223 0.036112
0.601286 0.320506 0.038281
0.623842 0.337559 0.040474
0.640938 0.352922 0.043012
0.657745 0.368304 0.045977
0.674269 0.383693 0.049011
0.690518 0.399083 0.052128
0.706499 0.414463 0.055591
0.722218 0.429826 0.059137
0.737681 0.445166 0.062862
0.752894 0.460474 0.066929
0.767862 0.475745 0.071101
0.782592 0.490973 0.075374
0.797088 0.506153 0.079745
0.811355 0.519946 0.084151
0.820976 0.532100 0.088592
0.829419 0.544161 0.093121
0.837692 0.556130 0.097737
0.845802 0.568004 0.102436
0.853755 0.579783 0.107217
0.861553 0.591466 0.111803
0.869202 0.603053 0.116269
0.876707 0.614542 0.120784
0.884071 0.625934 0.125346
0.891297 0.637227 0.129951
0.898390 0.648421 0.134597
0.905353 0.659515 0.139282
0.912189 0.670015 0.144004
0.918855 0.678070 0.148760
0.922785 0.686018 0.153482
0.926634 0.693860 0.157849
0.930403 0.701597 0.162229
0.934097 0.709230 0.166619
0.937715 0.716761 0.171018
0.941261 0.724191 0.175425
0.944736 0.731520 0.179837
0.948142 0.738751 0.184253
0.951480 0.745883 0.188671
0.954753 0.752918 0.193089
0.034495 0.022554 0.024158
0.034495 0.022543 0.024158
0.034554 0.022506 0.024158
0.034635 0.022458 0.024158
0.034907 0.022444 0.024158
0.035309 0.022606 0.024158
0.036383 0.023502 0.024158
0.039278 0.024860 0.024158
0.046337 0.027084 0.024158
0.061380 0.030460 0.024158
0.085276 0.036148 0.024254
0.118009 0.044594 0.024432
0.152855 0.055998 0.024603
0.188151 0.068709 0.024823
0.219911 0.083390 0.025025
0.253463 0.099722 0.025383
0.286127 0.116521 0.025900
0.316144 0.133857 0.026388
0.346778 0.152399 0.026848
0.377970 0.171237 0.027409
0.405832 0.190971 0.028210
0.432989 0.211674 0.028982
0.460206 0.232338 0.030014
0.487461 0.249507 0.031085
0.514732 0.266988 0.032586
0.542001 0.284760 0.034121
0.569251 0.302800 0.035743
0.596465 0.321089 0.037923
0.620870 0.338042 0.040125
0.638118 0.353402 0.042565
0.655065 0.368780 0.045535
0.671719 0.384166 0.048573
0.688088 0.399551 0.051678
0.704180 0.414926 0.055120
0.720003 0.430284 0.058670
0.735563 0.445618 0.062354
0.750866 0.460921 0.066422
0.765919 0.476187 0.070595
0.780728 0.491410 0.074869
0.795299 0.506584 0.079242
0.809637 0.520290 0.083663
0.819970 0.532441 0.088107
0.828458 0.544500 0.092640
0.836776 0.556466 0.097260
0.844927 0.568338 0.101964
0.852917 0.580114 0.106749
0.860752 0.591795 0.111382
0.868436 0.603379 0.115854
0.875972 0.614866 0.120375
0.883366 0.626256 0.124942
0.890621 0.637546 0.129553
0.897741 0.648738 0.134204
0.904730 0.659830 0.138895
0.911590 0.670247 0.143623
0.918326 0.678300 0.148384
0.922455 0.686245 0.153146
0.926317 0.694084 0.157519
0.930100 0.701819 0.161904
0.933805 0.709450 0.166301
0.937435 0.716979 0.170705
0.940991 0.724407 0.175118
0.944476 0.731734 0.179535
0.947892 0.738962 0.183956
0.951240 0.746093 0.188380
0.954522 0.753126 0.192804
0.034529 0.023999 0.024158
0.034552 0.023980 0.024158
0.034615 0.023917 0.024158
0.034816 0.023820 0.024158
0.035139 0.023725 0.024158
0.035420 0.023710 0.024158
0.036115 0.023951 0.024158
0.038258 0.025426 0.024158
0.042885 0.027425 0.024158
0.054515 0.030870 0.024158
0.074678 0.036613 0.024184
0.103432 0.044979 0.024367
0.138012 0.056341 0.024528
0.174983 0.069166 0.024743
0.207291 0.083963 0.024954
0.240723 0.100406 0.025196
0.275562 0.117223 0.025733
0.305815 0.134638 0.026237
0.336700 0.153254 0.026712
0.368152 0.172110 0.027172
0.397703 0.191897 0.027991
0.425168 0.212648 0.028780
0.452680 0.233120 0.029737
0.480216 0.250300 0.030825
0.507754 0.267791 0.032223
0.535276 0.285570 0.033773
0.562766 0.303615 0.035313
0.590208 0.321906 0.037459
0.616990 0.338716 0.039673
0.634427 0.354070 0.041985
0.651548 0.369441 0.044959
0.668365 0.384819 0.048002
0.684887 0.400196 0.051112
0.701121 0.415563 0.054505
0.717076 0.430913 0.058057
0.732760 0.446239 0.061691
0.748180 0.461534 0.065754
0.763342 0.476792 0.069927
0.778254 0.492006 0.074203
0.792922 0.507173 0.078577
0.807353 0.520761 0.083017
0.818629 0.532908 0.087465
0.827178 0.544963 0.092003
0.835553 0.556925 0.096628
0.843758 0.568792 0.101337
0.851800 0.580565 0.106127
0.859682 0.592242 0.110822
0.867411 0.603823 0.115302
0.874990 0.615307 0.119830
0.882424 0.626693 0.124404
0.889717 0.637980 0.129022
0.896873 0.649169 0.133681
0.903896 0.660258 0.138379
0.910789 0.670562 0.143114
0.917555 0.678611 0.147882
0.922013 0.686553 0.152683
0.925893 0.694389 0.157078
0.929693 0.702121 0.161471
0.933414 0.709749 0.165874
0.937059 0.717274 0.170287
0.940629 0.724699 0.174706
0.944128 0.732024 0.179131
0.947557 0.739249 0.183560
0.950917 0.746377 0.187990
0.954211 0.753407 0.192421
0.034607 0.026918 0.024158
0.034623 0.026886 0.024158
0.034739 0.026777 0.024158
0.035048 0.026597 0.024158
0.035346 0.026381 0.024158
0.035814 0.026206 0.024158
0.036445 0.026200 0.024158
0.037779 0.026510 0.024158
0.041145 0.028321 0.024158
0.050132 0.031705 0.024158
0.066674 0.037689 0.024158
0.091139 0.046099 0.024305
0.124553 0.057443 0.024472
0.159610 0.070329 0.024660
0.194523 0.085185 0.024879
0.227435 0.101699 0.025080
0.262257 0.118440 0.025548
0.294458 0.135911 0.026068
0.325436 0.154578 0.026556
0.357024 0.173418 0.027018
0.388344 0.193246 0.027738
0.416076 0.214035 0.028543
0.443855 0.234213 0.029412
0.471656 0.251396 0.030516
0.499456 0.268887 0.031792
0.527234 0.286665 0.033357
0.554972 0.304708 0.034912
0.582655 0.322995 0.036903
0.610267 0.339609 0.039127
0.629921 0.354951 0.041371
0.647244 0.370309 0.044261
0.664249 0.385674 0.047307
0.680948 0.401039 0.050421
0.697348 0.416393 0.053753
0.713460 0.431731 0.057306
0.729291 0.447045 0.060942
0.744849 0.462327 0.064935
0.760143 0.477573 0.069106
0.775178 0.492777 0.073381
0.789963 0.507932 0.077755
0.804509 0.521369 0.082218
0.816955 0.533509 0.086671
0.825579 0.545558 0.091213
0.834024 0.557515 0.095843
0.842296 0.569377 0.100557
0.850400 0.581145 0.105352
0.858341 0.592817 0.110124
0.866126 0.604393 0.114612
0.873757 0.615872 0.119149
0.881241 0.627253 0.123731
0.888582 0.638536 0.128358
0.895782 0.649721 0.133025
0.902847 0.660806 0.137732
0.909780 0.670964 0.142476
0.916585 0.679009 0.147253
0.921457 0.686947 0.152063
0.925359 0.694778 0.156523
0.929179 0.702506 0.160926
0.932920 0.710130 0.165339
0.936584 0.717652 0.169761
0.940173 0.725072 0.174189
0.943689 0.732393 0.178623
0.947134 0.739615 0.183060
0.950510 0.746739 0.187500
0.953819 0.753766 0.191939
0.034765 0.031524 0.024158
0.034825 0.031477 0.024158
0.035013 0.031313 0.024158
0.035270 0.031036 0.024158
0.035627 0.030680 0.024158
0.036286 0.030318 0.024158
0.037273 0.030068 0.024158
0.038742 0.030105 0.024158
0.040813 0.030610 0.024158
0.047857 0.033480 0.024158
0.061897 0.039972 0.024158
0.082838 0.048583 0.024258
0.112368 0.059732 0.024424
0.146344 0.072578 0.024585
0.182721 0.087387 0.024808
0.214676 0.103894 0.025013
0.248730 0.120400 0.025360
0.282838 0.137871 0.025891
0.313676 0.156456 0.026392
0.345208 0.175305 0.026864
0.377344 0.195146 0.027461
0.406122 0.215952 0.028282
0.434094 0.235696 0.029073
0.462103 0.252861 0.030172
0.490122 0.270337 0.031308
0.518124 0.288099 0.032888
0.546090 0.306127 0.034457
0.574000 0.324400 0.036269
0.601838 0.340754 0.038501
0.624687 0.356074 0.040755
0.642227 0.371411 0.043458
0.659437 0.386756 0.046505
0.676329 0.402101 0.049620
0.692912 0.417437 0.052879
0.709197 0.432756 0.056431
0.725193 0.448052 0.060067
0.740907 0.463318 0.063975
0.756349 0.478548 0.068143
0.771525 0.493735 0.072414
0.786443 0.508876 0.076786
0.801122 0.522124 0.081259
0.814956 0.534257 0.085731
0.823669 0.546297 0.090277
0.832196 0.558246 0.094911
0.840545 0.570101 0.099630
0.848722 0.581861 0.104431
0.856733 0.593527 0.109293
0.864583 0.605096 0.113790
0.872277 0.616569 0.118336
0.879820 0.627944 0.122928
0.887216 0.639222 0.127564
0.894469 0.650401 0.132241
0.901585 0.661480 0.136957
0.908566 0.671460 0.141711
0.915415 0.679499 0.146498
0.920786 0.687431 0.151318
0.924714 0.695257 0.155857
0.928560 0.702979 0.160271
0.932325 0.710598 0.164695
0.936011 0.718115 0.169127
0.939622 0.725531 0.173566
0.943158 0.732847 0.178011
0.946623 0.740064 0.182459
0.950018 0.747184 0.186908
0.953344 0.754207 0.191358
0.035127 0.042039 0.024158
0.035173 0.041944 0.024158
0.035320 0.041614 0.024158
0.035616 0.041045 0.024158
0.036246 0.040289 0.024158
0.037223 0.039449 0.024158
0.038723 0.038693 0.024158
0.040560 0.038265 0.024158
0.043542 0.038357 0.024158
0.048666 0.039223 0.024158
0.059655 0.043914 0.024158
0.077723 0.052905 0.024231
0.103693 0.063647 0.024389
0.135941 0.076323 0.024537
0.171025 0.090941 0.024746
0.203281 0.107242 0.024951
0.236191 0.123359 0.025182
0.271212 0.140749 0.025719
0.302075 0.159141 0.026226
0.333315 0.177941 0.026707
0.365258 0.197749 0.027176
0.395741 0.218532 0.028008
0.423789 0.237658 0.028811
0.451911 0.254776 0.029803
0.480071 0.272210 0.030911
0.508235 0.289935 0.032379
0.536378 0.307930 0.033960
0.564476 0.326172 0.035577
0.592510 0.342188 0.037814
0.618838 0.357473 0.040074
0.636595 0.372777 0.042571
0.654014 0.388092 0.045614
0.671106 0.403408 0.048726
0.687881 0.418716 0.051905
0.704349 0.434010 0.055449
0.720520 0.449281 0.059080
0.736402 0.464524 0.062892
0.752003 0.479731 0.067052
0.767332 0.494898 0.071318
0.782397 0.510020 0.075685
0.797224 0.523040 0.080157
0.811825 0.535161 0.084658
0.821459 0.547191 0.089207
0.830079 0.559128 0.093844
0.838516 0.570974 0.098567
0.846776 0.582725 0.103373
0.854866 0.594381 0.108259
0.862790 0.605942 0.112841
0.870555 0.617407 0.117396
0.878164 0.628774 0.121998
0.885624 0.640044 0.126644
0.892939 0.651216 0.131332
0.900112 0.662289 0.136059
0.907147 0.672053 0.140823
0.914049 0.680085 0.145621
0.920001 0.688010 0.150451
0.923960 0.695829 0.155082
0.927834 0.703545 0.159508
0.931627 0.711158 0.163944
0.935340 0.718668 0.168388
0.938975 0.726079 0.172839
0.942536 0.733389 0.177296
0.946023 0.740601 0.181756
0.949440 0.747715 0.186217
0.952787 0.754733 0.190679
0.035524 0.063213 0.024158
0.035620 0.063060 0.024158
0.035932 0.062523 0.024158
0.036412 0.061587 0.024158
0.037510 0.060290 0.024158
0.039001 0.058621 0.024158
0.041148 0.056665 0.024158
0.043954 0.054616 0.024158
0.048462 0.052810 0.024158
0.053757 0.052275 0.024158
0.061770 0.053560 0.024158
0.075340 0.059347 0.024224
0.098403 0.069557 0.024370
0.128589 0.081947 0.024511
0.161014 0.096213 0.024697
0.193783 0.111716 0.024900
0.225245 0.127586 0.025090
0.258995 0.144786 0.025560
0.291186 0.162837 0.026070
0.321887 0.181512 0.026554
0.353413 0.201221 0.027014
0.385350 0.221926 0.027733
0.413328 0.240199 0.028544
0.441439 0.257229 0.029424
0.469634 0.274586 0.030541
0.497870 0.292244 0.031849
0.526115 0.310179 0.033437
0.554339 0.328368 0.035015
0.582516 0.343952 0.037084
0.610626 0.359185 0.039346
0.630463 0.374442 0.041629
0.648083 0.389712 0.044655
0.665371 0.404987 0.047760
0.682337 0.420258 0.050932
0.698989 0.435516 0.054379
0.715338 0.450754 0.058002
0.731392 0.465965 0.061708
0.747158 0.481143 0.065853
0.762646 0.496282 0.070108
0.777871 0.511384 0.074469
0.792856 0.524130 0.078937
0.807608 0.536235 0.083467
0.818971 0.548250 0.088016
0.827692 0.560174 0.092654
0.836224 0.572006 0.097379
0.844575 0.583745 0.102188
0.852751 0.595390 0.107078
0.860758 0.606940 0.111775
0.868601 0.618394 0.116340
0.876285 0.629752 0.120951
0.883815 0.641012 0.125607
0.891197 0.652174 0.130305
0.898435 0.663238 0.135043
0.905532 0.672750 0.139818
0.912492 0.680772 0.144627
0.919105 0.688689 0.149469
0.923098 0.696500 0.154201
0.927005 0.704208 0.158640
0.930829 0.711813 0.163089
0.934571 0.719316 0.167547
0.938235 0.726719 0.172012
0.941823 0.734023 0.176481
0.945336 0.741228 0.180954
0.948777 0.748335 0.185428
0.952148 0.755347 0.189903
0.036471 0.094580 0.024158
0.036546 0.094299 0.024158
0.037056 0.093300 0.024158
0.038093 0.091494 0.024158
0.039355 0.088874 0.024158
0.041728 0.085504 0.024158
0.044735 0.081533 0.024158
0.049526 0.077223 0.024158
0.054314 0.073133 0.024158
0.060831 0.070829 0.024158
0.068572 0.070570 0.024190
0.079410 0.072182 0.024267
0.095898 0.077876 0.024367
0.124043 0.089728 0.024498
0.153953 0.103514 0.024666
0.186412 0.117847 0.024861
0.216237 0.133336 0.025047
0.248490 0.150224 0.025424
0.281424 0.167756 0.025929
0.311356 0.186210 0.026412
0.342247 0.205738 0.026874
0.373971 0.226294 0.027467
0.403069 0.243425 0.028282
0.431026 0.260315 0.029071
0.459130 0.277551 0.030170
0.487329 0.295103 0.031312
0.515581 0.312945 0.032902
0.543847 0.330977 0.034484
0.572097 0.346093 0.036331
0.600304 0.361252 0.038589
0.623955 0.376442 0.040870
0.641757 0.391651 0.043650
0.659227 0.406870 0.046741
0.676372 0.422089 0.049903
0.693202 0.437299 0.053242
0.709724 0.452493 0.056852
0.725946 0.467663 0.060546
0.741878 0.482803 0.064567
0.757528 0.497906 0.068807
0.772920 0.512988 0.073157
0.788067 0.525408 0.077616
0.802976 0.537492 0.082174
0.816226 0.549488 0.086720
0.825054 0.561394 0.091357
0.833689 0.573210 0.096082
0.842137 0.584933 0.100891
0.850406 0.596563 0.105783
0.858501 0.608099 0.110603
0.866428 0.619540 0.115176
0.874192 0.630884 0.119796
0.881800 0.642133 0.124462
0.889255 0.653284 0.129170
0.896562 0.664337 0.133918
0.903726 0.673554 0.138703
0.910751 0.681566 0.143524
0.917640 0.689472 0.148378
0.922133 0.697274 0.153222
0.926076 0.704972 0.157674
0.929934 0.712568 0.162137
0.933709 0.720062 0.166609
0.937404 0.727457 0.171087
0.941022 0.734752 0.175571
0.944563 0.741949 0.180057
0.948032 0.749049 0.184546
0.951429 0.756053 0.189034
0.038311 0.129556 0.024158
0.038472 0.129167 0.024158
0.039017 0.127781 0.024158
0.040052 0.125277 0.024158
0.042421 0.121646 0.024158
0.045643 0.116967 0.024158
0.050481 0.111411 0.024158
0.055647 0.105125 0.024158
0.061668 0.098917 0.024167
0.068401 0.094760 0.024219
0.077386 0.092730 0.024278
0.088450 0.092759 0.024343
0.102435 0.094681 0.024414
0.121534 0.099814 0.024497
0.149533 0.112371 0.024651
0.181142 0.125832 0.024837
0.209272 0.140822 0.025016
0.239905 0.157146 0.025316
0.272903 0.174091 0.025811
0.302027 0.192221 0.026288
0.332091 0.211475 0.026746
0.363112 0.231168 0.027221
0.393315 0.247443 0.028033
0.420969 0.264131 0.028822
0.448849 0.281192 0.029807
0.476891 0.298592 0.030908
0.505041 0.316299 0.032371
0.533255 0.333653 0.033952
0.561492 0.348657 0.035572
0.589721 0.363717 0.037820
0.617199 0.378817 0.040095
0.635154 0.393945 0.042622
0.652781 0.409090 0.045693
0.670086 0.424241 0.048837
0.687077 0.439389 0.052062
0.703760 0.454525 0.055651
0.720142 0.469642 0.059328
0.736232 0.484732 0.063215
0.752045 0.499799 0.067435
0.767603 0.514747 0.071770
0.782912 0.526890 0.076216
0.797979 0.538947 0.080771
0.812808 0.550919 0.085338
0.822192 0.562802 0.089969
0.830933 0.574597 0.094690
0.839483 0.586300 0.099498
0.847848 0.597911 0.104389
0.856036 0.609429 0.109337
0.864052 0.620854 0.113916
0.871902 0.632183 0.118544
0.879591 0.643416 0.123218
0.887124 0.654553 0.127935
0.894506 0.665592 0.132693
0.901742 0.674473 0.137489
0.908835 0.682472 0.142320
0.915790 0.690366 0.147185
0.921068 0.698156 0.152080
0.925050 0.705842 0.156616
0.928945 0.713427 0.161093
0.932756 0.720911 0.165579
0.936485 0.728296 0.170072
0.940135 0.735581 0.174570
0.943708 0.742769 0.179071
0.947206 0.749860 0.183574
0.950632 0.756855 0.188077
0.040626 0.166422 0.024158
0.040914 0.165920 0.024158
0.041904 0.164135 0.024158
0.043562 0.160908 0.024158
0.046860 0.156227 0.024158
0.051339 0.149966 0.024158
0.056732 0.142415 0.024184
0.062759 0.134248 0.024224
0.069211 0.127232 0.024266
0.077579 0.121909 0.024313
0.087297 0.118453 0.024364
0.099058 0.116901 0.024420
0.113547 0.117189 0.024481
0.129767 0.119175 0.024547
0.147298 0.122925 0.024651
0.177575 0.135780 0.024826
0.204264 0.150194 0.024996
0.233265 0.165548 0.025238
0.264678 0.182008 0.025718
0.294079 0.199712 0.026185
0.323167 0.218596 0.026636
0.353327 0.236389 0.027071
0.384305 0.252354 0.027806
0.411516 0.268772 0.028590
0.439038 0.285598 0.029464
0.466799 0.302792 0.030561
0.494735 0.320318 0.031856
0.522792 0.336837 0.033430
0.550924 0.351696 0.035000
0.579091 0.366626 0.037058
0.607258 0.381609 0.039319
0.628391 0.396632 0.041606
0.646143 0.411681 0.044635
0.663580 0.426745 0.047755
0.680709 0.441813 0.050947
0.697533 0.456876 0.054421
0.714060 0.471926 0.058073
0.730298 0.486958 0.061821
0.746271 0.501984 0.066017
0.761988 0.516487 0.070330
0.777454 0.528593 0.074757
0.792674 0.540617 0.079295
0.807654 0.552558 0.083888
0.819133 0.564413 0.088510
0.827982 0.576180 0.093223
0.836635 0.587858 0.098025
0.845101 0.599447 0.102912
0.853384 0.610943 0.107880
0.861493 0.622346 0.112575
0.869431 0.633656 0.117209
0.877205 0.644871 0.121889
0.884820 0.655990 0.126614
0.892280 0.667013 0.131380
0.899591 0.675512 0.136185
0.906756 0.683496 0.141026
0.913781 0.691375 0.145901
0.919909 0.699150 0.150807
0.923933 0.706824 0.155472
0.927868 0.714396 0.159964
0.931717 0.721868 0.164464
0.935482 0.729240 0.168971
0.939167 0.736514 0.173484
0.942773 0.743691 0.178000
0.946304 0.750771 0.182518
0.949760 0.757756 0.187036
0.044239 0.204463 0.024158
0.044662 0.203836 0.024158
0.046235 0.201602 0.024163
0.048946 0.197566 0.024186
0.052605 0.191709 0.024215
0.057793 0.184142 0.024249
0.063677 0.175162 0.024283
0.070029 0.166261 0.024319
0.078349 0.158378 0.024358
0.087546 0.151786 0.024400
0.098261 0.146757 0.024446
0.111082 0.143606 0.024495
0.125622 0.142340 0.024549
0.140531 0.142886 0.024636
0.157495 0.145113 0.024733
0.176676 0.148863 0.024835
0.201005 0.161185 0.024988
0.228453 0.175729 0.025191
0.258297 0.191626 0.025653
0.287576 0.208818 0.026105
0.315592 0.227243 0.026545
0.344775 0.242669 0.026972
0.375004 0.258246 0.027606
0.402853 0.274324 0.028381
0.429895 0.290851 0.029148
0.457257 0.307781 0.030235
0.484867 0.325073 0.031369
0.512664 0.340584 0.032930
0.540594 0.355259 0.034490
0.568610 0.370024 0.036316
0.596671 0.384860 0.038557
0.621584 0.399750 0.040828
0.639420 0.414679 0.043586
0.656955 0.429634 0.046675
0.674192 0.444603 0.049839
0.691133 0.459576 0.053181
0.707782 0.474543 0.056803
0.724161 0.489514 0.060520
