velvia_modern/Velvia50_RadianceIII.cube
TITLE "Velvia 50 RadianceIII"
# Adobe RGB in/out. REPLACES AgX. Velvia 50 color reversal.
LUT_3D_SIZE 5
DOMAIN_MIN 0.0 0.0 0.0
DOMAIN_MAX 1.0 1.0 1.0
0.078461 0.087030 0.084083
0.328375 0.089360 0.084083
0.940400 0.391372 0.084083
0.987598 0.721002 0.085601
0.989742 0.919079 0.108026
0.078444 0.232718 0.084083
0.151091 0.143526 0.084083
0.821860 0.434655 0.084083
0.985609 0.748527 0.083612
0.989443 0.928928 0.100980
0.078264 0.798331 0.084083
0.242104 0.721349 0.084083
0.701687 0.689636 0.084083
0.976043 0.856936 0.083743
0.988708 0.953108 0.091486
0.079532 0.967854 0.084083
0.258493 0.964817 0.084083
0.723330 0.957694 0.084083
0.969122 0.963953 0.083710
0.987946 0.976131 0.088997
0.089621 0.984767 0.084083
0.257871 0.984532 0.084083
0.689484 0.984221 0.084022
0.965655 0.984810 0.083619
0.987414 0.986681 0.090537
0.078461 0.087030 0.353877
0.345110 0.090985 0.365369
0.930872 0.376610 0.320209
0.987259 0.696470 0.319582
0.989628 0.910443 0.342110
0.078455 0.129861 0.226943
0.088131 0.093482 0.091286
0.767187 0.391739 0.193851
0.984418 0.719507 0.268979
0.989327 0.920610 0.315887
0.078307 0.727522 0.242396
0.197217 0.657004 0.184804
0.644359 0.630148 0.133121
0.972154 0.832724 0.186417
0.988589 0.948275 0.261435
0.078908 0.964850 0.199519
0.244688 0.960359 0.186006
0.702891 0.950468 0.165842
0.966971 0.960145 0.174709
0.987833 0.975091 0.224901
0.088767 0.984448 0.156241
0.253199 0.984232 0.155911
0.683478 0.983971 0.160141
0.965086 0.984638 0.179477
0.987391 0.986622 0.219677
0.078461 0.087030 0.964483
0.345110 0.093391 0.965164
0.966721 0.476525 0.964149
0.987515 0.722214 0.895185
0.989577 0.908154 0.838652
0.078447 0.233088 0.955182
0.280346 0.294982 0.926690
0.865281 0.483562 0.864712
0.984827 0.734745 0.826469
0.989257 0.916547 0.801913
0.078368 0.620577 0.784395
0.152924 0.581493 0.701952
0.542422 0.540034 0.543009
0.968605 0.812848 0.651317
0.988448 0.943076 0.705029
0.078386 0.950752 0.745090
0.209234 0.944718 0.713377
0.662721 0.936345 0.639613
0.961287 0.949079 0.603962
0.987615 0.973157 0.634957
0.086723 0.983626 0.654094
0.240926 0.983474 0.644432
0.668921 0.983373 0.621940
0.963714 0.984238 0.608911
0.987337 0.986492 0.618326
0.078461 0.087030 0.988815
0.345110 0.104235 0.988824
0.969393 0.511070 0.988853
0.988273 0.796470 0.987826
0.989709 0.922056 0.984488
0.078444 0.287655 0.988818
0.359589 0.396798 0.988827
0.948965 0.615254 0.988369
0.987136 0.809960 0.986446
0.989380 0.928931 0.982753
0.078366 0.635600 0.983221
0.179706 0.641275 0.981799
0.705777 0.707114 0.975058
0.974922 0.857164 0.972889
0.988516 0.947159 0.972000
0.078281 0.933716 0.974321
0.182426 0.930685 0.971136
0.635015 0.926562 0.956715
0.946735 0.937319 0.936915
0.987504 0.972408 0.951064
0.085227 0.982632 0.963725
0.223281 0.982581 0.960636
0.652728 0.982725 0.951983
0.960926 0.983841 0.944740
0.987286 0.986402 0.944414
0.078461 0.086922 0.989912
0.345110 0.130209 0.989914
0.969393 0.538297 0.989921
0.988653 0.847948 0.989700
0.989885 0.935647 0.989147
0.078444 0.325988 0.989913
0.359589 0.432001 0.989915
0.968311 0.714583 0.989894
0.987895 0.866411 0.989530
0.989568 0.940244 0.988958
0.078317 0.743455 0.989361
0.248588 0.764467 0.989261
0.814077 0.829425 0.988996
0.982098 0.904425 0.988690
0.988723 0.957802 0.988353
0.078262 0.930207 0.988267
0.179363 0.930795 0.988099
0.656165 0.937019 0.987671
0.964952 0.958458 0.987348
0.987671 0.974492 0.987241
0.083917 0.981786 0.987419
0.208594 0.981846 0.987337
0.640280 0.982277 0.987063
0.958052 0.983654 0.986417
0.987263 0.986434 0.986324
