velvia_modern/Velvia50_Punchy.cube
TITLE "Velvia 50 Punchy"
# Adobe RGB in/out. REPLACES AgX. Velvia 50 color reversal.
LUT_3D_SIZE 9
DOMAIN_MIN 0.0 0.0 0.0
DOMAIN_MAX 1.0 1.0 1.0
0.025288 0.015046 0.016969
0.048972 0.019022 0.016969
0.291935 0.098253 0.018592
0.535469 0.248992 0.024233
0.728608 0.391915 0.040634
0.871233 0.527409 0.069176
0.948635 0.636100 0.103366
1.000000 0.728925 0.139261
1.000000 0.798806 0.174383
0.025808 0.031559 0.016969
0.032826 0.028480 0.016969
0.218117 0.105377 0.017777
0.482723 0.255699 0.022364
0.702493 0.397255 0.037233
0.851935 0.531368 0.065021
0.940172 0.639847 0.099690
1.000000 0.731542 0.136165
1.000000 0.801243 0.171622
0.048996 0.275571 0.017179
0.092750 0.240135 0.017331
0.201439 0.211833 0.017790
0.401955 0.298302 0.020531
0.642531 0.422781 0.030595
0.800225 0.548409 0.054746
0.915157 0.654873 0.089326
0.989938 0.741605 0.126292
1.000000 0.810404 0.163068
0.135882 0.510164 0.017988
0.180311 0.480710 0.018298
0.282012 0.430260 0.019098
0.404312 0.421385 0.020975
0.579117 0.487764 0.027603
0.748891 0.588725 0.046427
0.884867 0.687875 0.077618
0.963947 0.762414 0.114013
1.000000 0.828712 0.151608
0.226457 0.688577 0.019405
0.262252 0.672563 0.019799
0.351670 0.634958 0.020980
0.461908 0.609116 0.023827
0.593541 0.613834 0.029711
0.720335 0.660560 0.043419
0.855049 0.733563 0.070397
0.940260 0.797414 0.104386
1.000000 0.858726 0.141194
0.306671 0.808545 0.021729
0.333382 0.801150 0.022171
0.410994 0.781065 0.024063
0.515305 0.761434 0.027913
0.640634 0.754562 0.035372
0.732996 0.765089 0.047891
0.836203 0.794772 0.068501
0.924426 0.848265 0.099518
0.993234 0.901697 0.134364
0.377785 0.905662 0.025067
0.397613 0.902823 0.025620
0.461796 0.890844 0.028106
0.560898 0.875893 0.033086
0.667538 0.867360 0.041829
0.754909 0.870426 0.055411
0.848289 0.886272 0.074715
0.917191 0.908765 0.099202
0.982792 0.937087 0.131548
0.432995 0.957740 0.029333
0.449988 0.956169 0.030052
0.506847 0.951426 0.032974
0.598910 0.945629 0.038872
0.688271 0.941903 0.048302
0.771973 0.942770 0.062774
0.861435 0.949431 0.081908
0.922382 0.961779 0.105272
0.979109 0.978853 0.133084
0.480438 0.999440 0.034196
0.495151 0.998698 0.035086
0.545450 0.996467 0.038265
0.629756 0.993841 0.044450
0.703258 0.992590 0.054541
0.783207 0.994363 0.069139
0.869540 1.000000 0.088192
0.925388 1.000000 0.110683
0.980328 1.000000 0.137552
0.025915 0.015229 0.078213
0.065518 0.022016 0.081944
0.300816 0.104499 0.090018
0.526203 0.244601 0.098588
0.718817 0.383975 0.117214
0.862093 0.520260 0.141384
0.944426 0.630343 0.168106
1.000000 0.725581 0.196212
1.000000 0.796327 0.224542
0.026391 0.029302 0.044637
0.029341 0.021871 0.024059
0.210768 0.100600 0.050368
0.468974 0.246705 0.078597
0.691686 0.387610 0.105259
0.842680 0.523989 0.133576
0.935953 0.633910 0.162206
1.000000 0.728153 0.191953
1.000000 0.798753 0.221116
0.052500 0.254419 0.072765
0.085854 0.215140 0.052701
0.178953 0.180560 0.036249
0.382118 0.278314 0.050550
0.625868 0.409096 0.079876
0.790921 0.539860 0.112300
0.910973 0.648454 0.145753
0.986960 0.738104 0.179055
1.000000 0.807897 0.210441
0.136894 0.487715 0.073953
0.177536 0.459658 0.066052
0.271453 0.409859 0.052360
0.388612 0.401724 0.048961
0.563882 0.473026 0.064074
0.740550 0.579526 0.093733
0.880986 0.681127 0.127213
0.961205 0.758879 0.161773
1.000000 0.826248 0.195954
0.227601 0.675933 0.072968
0.261809 0.660311 0.070088
0.347269 0.623182 0.063926
0.454074 0.597377 0.061439
0.582944 0.602929 0.066756
0.714398 0.652495 0.084139
0.850031 0.728961 0.114008
0.937985 0.794126 0.147642
1.000000 0.856458 0.182443
0.308021 0.802517 0.072554
0.334055 0.795230 0.071822
0.409857 0.775349 0.070467
0.511947 0.755806 0.071295
0.636613 0.749097 0.076955
0.729064 0.760206 0.089168
0.832995 0.791266 0.108610
0.922834 0.845613 0.139510
0.992090 0.900319 0.172294
0.379237 0.903266 0.072899
0.398764 0.900210 0.073146
0.462046 0.887245 0.074435
0.559928 0.872428 0.078033
0.666151 0.864028 0.085411
0.753063 0.867349 0.097376
0.846361 0.883660 0.114281
0.916336 0.907653 0.137016
0.982167 0.936321 0.167331
0.434646 0.956348 0.073677
0.451485 0.954796 0.074386
0.507864 0.950107 0.077068
0.599259 0.944381 0.082470
0.688060 0.940735 0.091447
0.771449 0.941713 0.103684
0.860782 0.948543 0.120637
0.922037 0.961120 0.142106
0.978909 0.978453 0.167213
0.482231 0.998715 0.074499
0.496863 0.997986 0.075420
0.546910 0.995793 0.078785
0.630860 0.993225 0.085185
0.703710 0.992047 0.094906
0.783471 0.993913 0.107831
0.869720 0.999860 0.125119
0.925514 1.000000 0.146042
0.980530 1.000000 0.170653
0.041991 0.020388 0.371790
0.117032 0.036224 0.373919
0.344850 0.134938 0.381532
0.570562 0.276338 0.369070
0.726071 0.393461 0.345371
0.859303 0.519897 0.341178
0.940535 0.626241 0.344884
1.000000 0.721615 0.352482
1.000000 0.792508 0.362217
0.053512 0.073274 0.372535
0.127607 0.097272 0.364511
0.295659 0.157182 0.319409
0.499752 0.269705 0.312792
0.695273 0.392879 0.317373
0.838338 0.521862 0.325218
0.931668 0.628884 0.334804
1.000000 0.723856 0.345648
1.000000 0.794787 0.357346
0.065953 0.213371 0.277196
0.091628 0.181745 0.232793
0.142640 0.133093 0.140421
0.373429 0.267282 0.208697
0.614081 0.400200 0.254483
0.781934 0.531855 0.283540
0.905497 0.640496 0.305971
0.982168 0.732775 0.324940
1.000000 0.803478 0.342021
0.149901 0.443388 0.291945
0.180932 0.420474 0.269517
0.258112 0.374222 0.217243
0.358032 0.364050 0.182329
0.539715 0.448190 0.205903
0.727085 0.564184 0.243902
0.874257 0.669349 0.272999
0.956026 0.752240 0.298360
1.000000 0.821285 0.320778
0.237119 0.646118 0.287314
0.266396 0.632106 0.276340
0.342354 0.597369 0.248028
0.439350 0.571395 0.218426
0.560001 0.577707 0.205148
0.701945 0.634748 0.219996
0.839309 0.718768 0.249165
0.932993 0.786760 0.275425
1.000000 0.851269 0.300243
0.315641 0.786669 0.274127
0.339815 0.779846 0.268806
0.410095 0.760921 0.253746
0.505992 0.741804 0.237016
0.624526 0.735242 0.224396
0.719473 0.747521 0.223681
0.825387 0.782456 0.237420
0.918973 0.838909 0.260759
0.989296 0.895641 0.284898
0.385792 0.893958 0.258557
0.404411 0.889740 0.256111
0.464985 0.877347 0.248876
0.559216 0.863051 0.240238
0.663323 0.855012 0.234074
0.748614 0.858903 0.233933
0.841417 0.876396 0.240798
0.914227 0.904657 0.253799
0.980619 0.934265 0.275865
0.441265 0.952229 0.242880
0.457610 0.950746 0.241953
0.512467 0.946263 0.239235
0.601745 0.940795 0.236212
0.688234 0.937409 0.234796
0.770531 0.938700 0.237452
0.859332 0.945999 0.244464
0.921240 0.959237 0.256206
0.978500 0.977341 0.272194
0.488977 0.996506 0.225930
0.503343 0.995818 0.225805
0.552553 0.993759 0.225647
0.635321 0.991392 0.226363
0.705691 0.990456 0.229263
0.784781 0.992610 0.235598
0.870693 0.998923 0.244237
0.926115 1.000000 0.256526
0.981334 1.000000 0.272433
0.129259 0.049750 0.674631
0.203059 0.077021 0.675854
0.399119 0.179445 0.680234
0.644676 0.331917 0.688239
0.770986 0.440657 0.638356
0.878482 0.543011 0.593916
0.946577 0.638089 0.569912
1.000000 0.725430 0.556209
1.000000 0.793538 0.547744
0.146240 0.117598 0.675059
0.216504 0.146188 0.676281
0.407568 0.241932 0.680659
0.609085 0.346329 0.648357
0.737144 0.436877 0.597149
0.859596 0.542679 0.570131
0.937073 0.639441 0.555592
1.000000 0.727101 0.546992
1.000000 0.795502 0.541501
0.137548 0.246056 0.549741
0.174697 0.241998 0.520423
0.280648 0.256497 0.475050
0.447224 0.329155 0.474091
0.651327 0.430638 0.491173
0.795712 0.545161 0.504965
0.908617 0.646505 0.513564
0.982441 0.734072 0.518649
1.000000 0.803142 0.521673
0.178785 0.411384 0.503116
0.202822 0.395716 0.477369
0.265866 0.358523 0.403201
0.331327 0.329147 0.327014
0.542240 0.445300 0.387796
0.728070 0.563310 0.431419
0.873596 0.667639 0.462045
0.954555 0.750437 0.481205
1.000000 0.819339 0.493675
0.259353 0.614386 0.505347
0.281507 0.603044 0.490607
0.347213 0.573093 0.446384
0.430704 0.546720 0.394934
0.538712 0.551054 0.366833
0.693381 0.620166 0.386054
0.832749 0.711449 0.417806
0.929936 0.781733 0.444486
1.000000 0.847713 0.465410
0.332890 0.767402 0.493204
0.354701 0.761455 0.485096
0.416877 0.744533 0.459643
0.504805 0.726530 0.425171
0.614674 0.719731 0.398037
0.709802 0.732821 0.386483
0.818802 0.773442 0.396384
0.915718 0.832406 0.419461
0.987039 0.891347 0.440956
0.399763 0.880034 0.471870
0.417094 0.876244 0.467228
0.473856 0.864992 0.451658
0.562984 0.851777 0.430784
0.662283 0.844305 0.411949
0.744823 0.848694 0.400598
0.836461 0.867511 0.398841
0.912465 0.901350 0.407359
0.979399 0.932106 0.426094
0.454602 0.946594 0.443110
0.470198 0.945245 0.440585
0.522754 0.941156 0.432582
0.608847 0.936177 0.421390
0.690556 0.933232 0.410770
0.771006 0.934947 0.404021
0.858737 0.942831 0.403062
0.920826 0.956942 0.408221
0.978575 0.976170 0.418627
0.501963 0.993403 0.412763
0.515902 0.992790 0.411687
0.563768 0.990970 0.408277
0.642307 0.988953 0.403575
0.710167 0.988416 0.399450
0.788076 0.991008 0.397755
0.872797 0.997844 0.399797
0.927597 1.000000 0.406121
0.983026 1.000000 0.416551
0.251083 0.114872 0.902920
0.306600 0.143491 0.903556
0.469263 0.239762 0.905835
0.681054 0.373049 0.910008
0.840920 0.518141 0.901495
0.907000 0.588059 0.833848
0.963695 0.668169 0.792425
1.000000 0.739450 0.765314
1.000000 0.801883 0.746018
0.263246 0.184520 0.903143
0.317224 0.213274 0.903778
0.477138 0.294282 0.906056
0.685142 0.414314 0.910228
0.806344 0.513207 0.863944
0.892447 0.586529 0.811892
0.953724 0.668452 0.778920
1.000000 0.740532 0.756612
1.000000 0.803463 0.739205
0.287975 0.356039 0.881477
0.325542 0.359803 0.865203
0.431789 0.379401 0.824955
0.578576 0.426291 0.787634
0.715068 0.501905 0.763330
0.836416 0.584166 0.748351
0.923314 0.671492 0.736062
0.990514 0.745385 0.724336
1.000000 0.809762 0.713648
0.243554 0.426746 0.726976
0.267889 0.420449 0.706919
0.337012 0.410234 0.656253
0.445967 0.428467 0.620614
0.613561 0.500937 0.627907
0.756565 0.590637 0.648564
0.884010 0.684494 0.664503
0.960219 0.757884 0.673510
1.000000 0.823654 0.676988
0.292339 0.594086 0.698540
0.311690 0.585966 0.683219
0.370664 0.563366 0.637843
0.442015 0.539572 0.575705
0.523347 0.527457 0.519955
0.699772 0.622129 0.566697
0.838711 0.714181 0.601945
0.932313 0.783837 0.626058
1.000000 0.849106 0.639861
0.360763 0.749822 0.688669
0.379567 0.745017 0.679307
0.432800 0.730943 0.650406
0.512779 0.714865 0.610149
0.612357 0.706978 0.570953
0.702808 0.719133 0.550764
0.816950 0.767774 0.565955
0.915427 0.829600 0.590111
0.987167 0.890153 0.609257
0.421738 0.865881 0.668081
0.437637 0.862681 0.662635
0.490168 0.853063 0.645321
0.573655 0.841508 0.620382
0.665106 0.834805 0.593152
0.743838 0.839286 0.573628
0.833518 0.859144 0.566112
0.912251 0.897827 0.573540
0.979588 0.930896 0.589636
0.475278 0.940561 0.639287
0.489979 0.939402 0.636268
0.539787 0.935887 0.626478
0.622090 0.931635 0.610632
0.696243 0.929314 0.593756
0.774226 0.931504 0.580416
0.860310 0.939944 0.573434
0.921498 0.954969 0.573585
0.980078 0.975892 0.580280
0.521755 0.990035 0.604022
0.535153 0.989528 0.602327
0.581316 0.988045 0.596785
0.651984 0.986519 0.588514
0.717819 0.986522 0.579784
0.794090 0.989662 0.572979
0.875835 0.997098 0.569883
0.930317 1.000000 0.571311
0.985858 1.000000 0.577041
0.375194 0.205840 1.000000
0.417747 0.229843 1.000000
0.557320 0.310321 1.000000
0.726695 0.426347 1.000000
0.883327 0.569200 1.000000
0.943248 0.648275 0.998097
0.988944 0.709621 0.968831
1.000000 0.762752 0.930384
1.000000 0.817587 0.900200
0.383902 0.262210 1.000000
0.426031 0.284577 1.000000
0.564628 0.355234 1.000000
0.730471 0.465922 1.000000
0.880863 0.591167 1.000000
0.928928 0.646266 0.988416
0.978847 0.709351 0.955518
1.000000 0.763380 0.921636
1.000000 0.818812 0.892958
0.414395 0.425730 1.000000
0.455225 0.442158 1.000000
0.590542 0.499594 1.000000
0.697534 0.535372 0.997585
0.794364 0.581309 0.976015
0.886317 0.641894 0.940906
0.947600 0.709752 0.914230
1.000000 0.766543 0.889857
1.000000 0.823824 0.869492
0.355114 0.501809 0.938538
0.380494 0.502232 0.930322
0.453632 0.509235 0.906952
0.571375 0.533574 0.878157
0.695730 0.578605 0.860237
0.809469 0.643612 0.851709
0.905693 0.715398 0.846665
0.973806 0.775718 0.841483
1.000000 0.835350 0.834952
0.350083 0.601060 0.858067
0.369064 0.596837 0.848296
0.422290 0.586123 0.818923
0.504601 0.580961 0.783229
0.624690 0.602063 0.762990
0.739814 0.663186 0.769083
0.864578 0.733219 0.782937
0.942379 0.796218 0.793306
1.000000 0.857343 0.798580
0.397896 0.739521 0.837406
0.412935 0.736023 0.830286
0.461646 0.725607 0.807611
0.536467 0.713206 0.775096
0.628680 0.705542 0.740946
0.699453 0.707682 0.702885
0.826290 0.771568 0.736897
0.920670 0.834308 0.756758
0.991169 0.894260 0.768684
0.451977 0.854264 0.821775
0.466505 0.851742 0.817290
0.514990 0.844087 0.802719
0.593119 0.834705 0.781092
0.673489 0.829032 0.757978
0.747274 0.832701 0.737711
0.833502 0.852342 0.725811
0.914437 0.896871 0.736843
0.982067 0.931504 0.749991
0.503325 0.935070 0.799616
0.517088 0.934141 0.796962
0.564004 0.931331 0.788223
0.640811 0.927996 0.774923
0.706006 0.926457 0.760238
0.781045 0.929121 0.747547
0.864839 0.937925 0.738369
0.923654 0.953763 0.735744
0.983061 0.976560 0.741592
0.548417 0.986922 0.771872
0.561210 0.986543 0.770430
0.605466 0.985472 0.765646
0.665552 0.984552 0.758272
0.728996 0.985210 0.750022
0.803266 0.988972 0.742831
0.880582 0.997032 0.736622
0.934512 1.000000 0.735179
0.990017 1.000000 0.738315
0.495687 0.297524 1.000000
0.533596 0.319314 1.000000
0.652876 0.382683 1.000000
0.780068 0.491087 1.000000
0.908788 0.615457 1.000000
0.981666 0.712131 1.000000
1.000000 0.749599 1.000000
1.000000 0.792780 1.000000
1.000000 0.839327 1.000000
0.503377 0.345023 1.000000
0.541043 0.362611 1.000000
0.657182 0.423622 1.000000
0.783529 0.527498 1.000000
0.910449 0.642408 1.000000
0.967956 0.710546 1.000000
1.000000 0.749090 1.000000
1.000000 0.793107 1.000000
1.000000 0.840267 0.998348
0.530587 0.490499 1.000000
0.567433 0.506185 1.000000
0.672370 0.553468 1.000000
0.795030 0.628875 1.000000
0.875195 0.662899 1.000000
0.926488 0.706767 1.000000
0.977279 0.748518 1.000000
1.000000 0.795135 1.000000
1.000000 0.844237 0.988042
0.491962 0.591538 1.000000
0.515145 0.593580 1.000000
0.591043 0.602504 1.000000
0.683983 0.623140 1.000000
0.774876 0.658749 1.000000
0.872993 0.706607 0.996425
0.934482 0.752006 0.987205
0.993652 0.802015 0.979387
1.000000 0.853774 0.968906
0.435505 0.643154 0.991649
0.452689 0.642414 0.988950
0.510135 0.642465 0.980721
0.605187 0.651185 0.964624
0.699627 0.677712 0.947649
0.798377 0.718800 0.939502
0.893547 0.765880 0.936979
0.959813 0.818609 0.935503
1.000000 0.872660 0.932632
0.448932 0.742952 0.963428
0.463156 0.740959 0.958288
0.510488 0.735327 0.941766
0.586964 0.730157 0.917977
0.670321 0.732459 0.891221
0.753355 0.752629 0.876805
0.859191 0.796294 0.881973
0.933892 0.850228 0.892157
0.999522 0.903630 0.899049
0.491708 0.848319 0.944014
0.505117 0.846531 0.940387
0.550366 0.841123 0.928429
0.624547 0.834631 0.909922
0.690569 0.831158 0.884647
0.760051 0.834591 0.861575
0.836852 0.847686 0.844182
0.921209 0.901782 0.861304
0.988030 0.935115 0.872990
0.538866 0.931097 0.925215
0.551736 0.930418 0.922941
0.595895 0.928389 0.915372
0.658725 0.926117 0.901893
0.720573 0.925518 0.885324
0.792436 0.928658 0.870121
0.872695 0.937405 0.859375
0.927517 0.953602 0.855924
0.987813 0.978484 0.861571
0.581848 0.984554 0.899683
0.594020 0.984315 0.898095
0.636306 0.983702 0.892785
0.683059 0.983460 0.884461
0.743897 0.984852 0.874881
0.815905 0.989281 0.866132
0.887225 0.997936 0.860048
0.940341 1.000000 0.857793
0.995635 1.000000 0.859383
0.627251 0.388004 1.000000
0.653134 0.404936 1.000000
0.725651 0.463940 1.000000
0.839699 0.557655 1.000000
0.937538 0.669085 1.000000
1.000000 0.764016 1.000000
1.000000 0.792408 1.000000
1.000000 0.826680 1.000000
1.000000 0.865159 1.000000
0.634190 0.428767 1.000000
0.657438 0.445157 1.000000
0.729433 0.502474 1.000000
0.842860 0.586313 1.000000
0.939069 0.694663 1.000000
1.000000 0.762454 1.000000
1.000000 0.791780 1.000000
1.000000 0.826813 1.000000
1.000000 0.865885 1.000000
0.651393 0.557208 1.000000
0.672619 0.569115 1.000000
0.742824 0.610625 1.000000
0.854095 0.682601 1.000000
0.924054 0.732978 1.000000
0.966445 0.758519 1.000000
1.000000 0.790673 1.000000
1.000000 0.828092 1.000000
1.000000 0.869060 1.000000
0.645434 0.683454 1.000000
0.659535 0.685603 1.000000
0.704912 0.693966 1.000000
0.773330 0.708152 1.000000
0.854167 0.728770 1.000000
0.913678 0.757365 1.000000
0.966028 0.792849 1.000000
1.000000 0.833420 1.000000
1.000000 0.877048 1.000000
0.546881 0.706456 1.000000
0.564528 0.707190 1.000000
0.624295 0.710770 1.000000
0.691887 0.720266 1.000000
0.770914 0.738720 1.000000
0.861004 0.767197 1.000000
0.923831 0.804344 1.000000
0.981846 0.847399 1.000000
1.000000 0.893467 1.000000
0.521787 0.763741 1.000000
0.536008 0.763197 1.000000
0.584485 0.762308 1.000000
0.655996 0.764373 1.000000
0.725091 0.774336 1.000000
0.808581 0.796504 0.995803
0.891927 0.831424 0.993403
0.953425 0.875074 0.992705
1.000000 0.914484 0.991993
0.543686 0.851395 1.000000
0.556384 0.850400 1.000000
0.599793 0.847571 1.000000
0.660156 0.845011 0.995421
0.720622 0.846308 0.986716
0.792257 0.855884 0.979201
0.875617 0.879953 0.975694
0.936633 0.913389 0.977044
0.998525 0.942763 0.979237
0.582551 0.929698 0.999111
0.594654 0.929278 0.998096
0.636458 0.928085 0.994687
0.682172 0.927020 0.989263
0.741075 0.927633 0.982837
0.810259 0.931598 0.976615
0.881758 0.940309 0.967488
0.933224 0.954692 0.961376
0.995126 0.982503 0.969078
0.622017 0.983423 0.987973
0.633592 0.983329 0.987365
0.660986 0.983189 0.985318
0.704538 0.983661 0.982053
0.762706 0.985834 0.978199
0.832320 0.990955 0.973562
0.895965 1.000000 0.967896
0.947956 1.000000 0.965487
1.000000 1.000000 0.966735
0.719680 0.483548 1.000000
0.738520 0.499308 1.000000
0.801764 0.548156 1.000000
0.891701 0.624827 1.000000
0.968900 0.721525 1.000000
1.000000 0.813080 1.000000
1.000000 0.835462 1.000000
1.000000 0.862062 1.000000
1.000000 0.893151 1.000000
0.723501 0.521551 1.000000
0.742221 0.533968 1.000000
0.805110 0.577121 1.000000
0.893447 0.651524 1.000000
0.970303 0.739222 1.000000
1.000000 0.812930 1.000000
1.000000 0.834768 1.000000
1.000000 0.862061 1.000000
1.000000 0.893710 1.000000
0.737024 0.624411 1.000000
0.755332 0.635485 1.000000
0.816989 0.674280 1.000000
0.899647 0.730888 1.000000
0.968918 0.790356 1.000000
1.000000 0.808933 1.000000
1.000000 0.833310 1.000000
1.000000 0.862800 1.000000
1.000000 0.896262 1.000000
0.749848 0.753870 1.000000
0.761743 0.755162 1.000000
0.800561 0.760038 1.000000
0.860148 0.769719 1.000000
0.907902 0.785209 1.000000
0.952836 0.806908 1.000000
0.997644 0.834473 1.000000
1.000000 0.866949 1.000000
1.000000 0.902228 1.000000
0.663995 0.761088 1.000000
0.674833 0.762169 1.000000
0.711029 0.766466 1.000000
0.769042 0.775670 1.000000
0.841917 0.791375 1.000000
0.903471 0.814279 1.000000
0.954800 0.843903 1.000000
1.000000 0.878875 1.000000
1.000000 0.911298 1.000000
0.616604 0.798047 1.000000
0.630904 0.798422 1.000000
0.664909 0.800380 1.000000
0.716754 0.806062 1.000000
0.784508 0.818186 1.000000
0.864273 0.838691 1.000000
0.920796 0.867702 1.000000
0.975568 0.902546 1.000000
1.000000 0.927617 1.000000
0.610953 0.865458 1.000000
0.623334 0.865229 1.000000
0.656047 0.864958 1.000000
0.701818 0.866457 1.000000
0.762409 0.872662 1.000000
0.835365 0.886815 1.000000
0.900974 0.907403 1.000000
0.956287 0.928686 1.000000
1.000000 0.953328 1.000000
0.635650 0.931886 1.000000
0.643929 0.931729 1.000000
0.669325 0.931408 1.000000
0.712005 0.931695 1.000000
0.768754 0.933886 1.000000
0.836627 0.939477 1.000000
0.897764 0.949979 1.000000
0.950176 0.967012 1.000000
1.000000 0.989876 1.000000
0.657891 0.984000 1.000000
0.664858 0.984047 1.000000
0.688952 0.984376 1.000000
0.730060 0.985566 1.000000
0.785634 0.988547 1.000000
0.852881 0.994393 1.000000
0.907100 1.000000 1.000000
0.957682 1.000000 1.000000
1.000000 1.000000 1.000000
