velvia_modern/Velvia50_Hard.cube
TITLE "Velvia 50 Hard"
# Adobe RGB in/out. REPLACES AgX. Velvia 50 color reversal.
LUT_3D_SIZE 9
DOMAIN_MIN 0.0 0.0 0.0
DOMAIN_MAX 1.0 1.0 1.0
0.010768 0.005498 0.006424
0.025335 0.007448 0.006424
0.255571 0.062405 0.007231
0.560511 0.207995 0.010189
0.835130 0.374201 0.019897
1.000000 0.549611 0.039621
1.000000 0.700505 0.066642
1.000000 0.835600 0.098026
1.000000 0.940746 0.131158
0.011055 0.014344 0.006424
0.015094 0.012559 0.006424
0.175233 0.068325 0.006823
0.490092 0.215276 0.009184
0.796584 0.380815 0.017768
1.000000 0.554959 0.036568
1.000000 0.705851 0.063589
1.000000 0.839487 0.095213
1.000000 0.944462 0.128476
0.025351 0.237180 0.006527
0.057918 0.198466 0.006602
0.158085 0.168725 0.006829
0.386658 0.262811 0.008221
0.709687 0.412789 0.013779
0.942909 0.578109 0.029268
1.000000 0.727386 0.055165
1.000000 0.854467 0.086373
1.000000 0.958466 0.120247
0.094958 0.526459 0.006928
0.136959 0.487448 0.007083
0.244382 0.422268 0.007486
0.389596 0.411026 0.008452
0.620359 0.496728 0.012061
0.865351 0.633716 0.023644
1.000000 0.775190 0.045991
1.000000 0.885636 0.075660
1.000000 0.986592 0.109422
0.183955 0.776216 0.007642
0.222445 0.752925 0.007844
0.325225 0.698878 0.008455
0.462908 0.662276 0.009969
0.640436 0.668925 0.013266
0.822875 0.735573 0.021680
1.000000 0.842491 0.040529
1.000000 0.938624 0.067495
1.000000 1.000000 0.099791
0.272396 0.955621 0.008848
0.303499 0.944320 0.009082
0.397952 0.913785 0.010097
0.533337 0.884161 0.012236
0.706976 0.873845 0.016627
0.841648 0.889660 0.024614
0.998154 0.934599 0.039122
1.000000 1.000000 0.063447
1.000000 1.000000 0.093587
0.356827 1.000000 0.010646
0.381259 1.000000 0.010951
0.462763 1.000000 0.012346
0.595210 1.000000 0.015249
0.745649 1.000000 0.020657
0.874365 1.000000 0.029729
1.000000 1.000000 0.043776
1.000000 1.000000 0.063187
1.000000 1.000000 0.091055
0.425746 1.000000 0.013048
0.447502 1.000000 0.013463
0.522031 1.000000 0.015182
0.647945 1.000000 0.018787
0.775769 1.000000 0.024887
0.900038 1.000000 0.034940
1.000000 1.000000 0.049309
1.000000 1.000000 0.068237
1.000000 1.000000 0.092434
0.487090 1.000000 0.015915
0.506489 1.000000 0.016453
0.574073 1.000000 0.018408
0.691473 1.000000 0.022349
0.797707 1.000000 0.029126
0.917030 1.000000 0.039594
1.000000 1.000000 0.054260
1.000000 1.000000 0.072812
1.000000 1.000000 0.096471
0.011115 0.005585 0.046448
0.036930 0.008999 0.049337
0.265682 0.067589 0.055719
0.547985 0.203258 0.062681
0.820630 0.364415 0.078422
1.000000 0.539986 0.099965
1.000000 0.692308 0.125078
1.000000 0.830642 0.152795
1.000000 0.936968 0.181944
0.011380 0.013030 0.022471
0.013053 0.008923 0.010095
0.167627 0.064342 0.026274
0.472096 0.205524 0.046744
0.780755 0.368887 0.068226
1.000000 0.545002 0.092877
1.000000 0.697384 0.119425
1.000000 0.834456 0.148515
1.000000 0.940665 0.178358
0.027723 0.213882 0.042303
0.052405 0.172143 0.027860
0.135625 0.137204 0.017163
0.362136 0.240241 0.026397
0.685952 0.395574 0.047731
0.928741 0.566469 0.074192
1.000000 0.718169 0.103982
1.000000 0.849249 0.135725
1.000000 0.954630 0.167290
0.095874 0.496664 0.043199
0.134236 0.459991 0.037321
0.232601 0.396529 0.027627
0.370122 0.386370 0.025328
0.599313 0.477384 0.035880
0.852894 0.620926 0.058714
1.000000 0.765360 0.087190
1.000000 0.880322 0.119012
1.000000 0.982796 0.152535
0.185160 0.757813 0.042456
0.221959 0.735215 0.040299
0.319965 0.682142 0.035773
0.452770 0.645799 0.033982
0.625671 0.653580 0.037837
0.814105 0.723969 0.051054
1.000000 0.835655 0.075656
1.000000 0.933617 0.105730
1.000000 1.000000 0.139059
0.273949 0.946407 0.042145
0.304292 0.935297 0.041594
0.396527 0.905136 0.040582
0.528842 0.875710 0.041200
0.701236 0.865660 0.045483
0.835807 0.882317 0.055039
0.993199 0.929265 0.071052
1.000000 1.000000 0.098253
1.000000 1.000000 0.129127
0.358604 1.000000 0.042404
0.382689 1.000000 0.042590
0.463087 1.000000 0.043564
0.593877 1.000000 0.046309
0.743645 1.000000 0.052055
0.871597 1.000000 0.061685
1.000000 1.000000 0.075891
1.000000 1.000000 0.095985
1.000000 1.000000 0.124332
0.427850 1.000000 0.042991
0.449430 1.000000 0.043527
0.523388 1.000000 0.045570
0.648435 1.000000 0.049747
0.775461 1.000000 0.056867
0.899246 1.000000 0.066907
1.000000 1.000000 0.081399
1.000000 1.000000 0.100626
1.000000 1.000000 0.124219
0.489445 1.000000 0.043612
0.508758 1.000000 0.044312
0.576063 1.000000 0.046888
0.693043 1.000000 0.051878
0.798372 1.000000 0.059667
0.917430 1.000000 0.070392
1.000000 1.000000 0.085336
1.000000 1.000000 0.104249
1.000000 1.000000 0.127537
0.020761 0.008147 0.349514
0.078264 0.017147 0.352107
0.317083 0.094105 0.361416
0.608521 0.238036 0.346207
0.831368 0.376112 0.317703
1.000000 0.539499 0.312718
1.000000 0.686481 0.317123
1.000000 0.824768 0.326197
1.000000 0.931154 0.337907
0.028417 0.042686 0.350421
0.087539 0.061600 0.340680
0.259801 0.114658 0.287132
0.512591 0.230664 0.279456
0.786001 0.375393 0.284765
1.000000 0.542140 0.293911
1.000000 0.690234 0.305176
1.000000 0.828086 0.318032
1.000000 0.934622 0.332037
0.037248 0.170312 0.238992
0.057013 0.138370 0.190646
0.101116 0.092442 0.099084
0.351510 0.227984 0.165498
0.669274 0.384474 0.213952
0.915101 0.555617 0.246097
1.000000 0.706779 0.271591
1.000000 0.841320 0.293586
1.000000 0.947875 0.313718
0.107830 0.439022 0.255582
0.137570 0.409875 0.230457
0.217910 0.352477 0.174324
0.332862 0.340122 0.138946
0.566270 0.445188 0.162635
0.832871 0.599729 0.202506
1.000000 0.748270 0.234318
1.000000 0.870365 0.262877
1.000000 0.975159 0.288727
0.195245 0.714821 0.250346
0.227007 0.694816 0.238037
0.314114 0.645788 0.206952
0.433854 0.609671 0.175554
0.593977 0.618404 0.161863
0.795780 0.698578 0.177189
1.000000 0.820559 0.208182
1.000000 0.922420 0.237017
1.000000 1.000000 0.265026
0.282755 0.922282 0.235572
0.311102 0.911939 0.229670
0.396826 0.883390 0.213150
0.520892 0.854764 0.195135
0.684048 0.844988 0.181791
0.821600 0.863303 0.181041
0.981471 0.915892 0.195566
1.000000 1.000000 0.220808
1.000000 1.000000 0.247624
0.366649 1.000000 0.218396
0.389719 1.000000 0.215726
0.466905 1.000000 0.207869
0.592900 1.000000 0.198576
0.739559 1.000000 0.192006
0.864938 1.000000 0.191856
1.000000 1.000000 0.199176
1.000000 1.000000 0.213208
1.000000 1.000000 0.237507
0.436303 1.000000 0.201408
0.457339 1.000000 0.200414
0.529538 1.000000 0.197504
0.651920 1.000000 0.194279
0.775714 1.000000 0.192772
0.897861 1.000000 0.195600
1.000000 1.000000 0.203110
1.000000 1.000000 0.215829
1.000000 1.000000 0.233424
0.498327 1.000000 0.183402
0.517364 1.000000 0.183270
0.583770 1.000000 0.183104
0.699394 1.000000 0.183857
0.801283 1.000000 0.186912
0.919417 1.000000 0.193625
1.000000 1.000000 0.202866
1.000000 1.000000 0.216178
1.000000 1.000000 0.233689
0.089009 0.025857 0.755923
0.159732 0.045533 0.757698
0.383129 0.136108 0.764061
0.712757 0.301773 0.775721
0.898548 0.435526 0.703723
1.000000 0.570752 0.640960
1.000000 0.703342 0.607622
1.000000 0.830418 0.588776
1.000000 0.932721 0.577201
0.104432 0.078754 0.756544
0.173557 0.104384 0.758318
0.393662 0.200392 0.764679
0.662233 0.318844 0.718029
0.847819 0.430695 0.645480
1.000000 0.570301 0.607925
1.000000 0.705272 0.587930
1.000000 0.832894 0.576176
1.000000 0.935711 0.568699
0.096468 0.204824 0.579927
0.131463 0.200462 0.540205
0.242852 0.216147 0.480030
0.443946 0.298526 0.478776
0.722291 0.422748 0.501227
0.936031 0.573680 0.519524
1.000000 0.715375 0.531006
1.000000 0.843248 0.537822
1.000000 0.947362 0.541885
0.135460 0.398441 0.517062
0.159491 0.378906 0.483066
0.226423 0.333452 0.388211
0.301079 0.298516 0.296014
0.569704 0.441476 0.369117
0.834333 0.598526 0.423741
1.000000 0.745796 0.463086
1.000000 0.867666 0.488098
1.000000 0.972170 0.504535
0.219267 0.669704 0.520032
0.243816 0.653742 0.500480
0.319899 0.612017 0.442868
0.422833 0.575804 0.377936
0.564909 0.581721 0.343493
0.783233 0.677872 0.366971
0.992818 0.809757 0.406512
1.000000 0.914796 0.440431
1.000000 1.000000 0.467456
0.302918 0.893143 0.503912
0.328858 0.884193 0.493213
0.405342 0.858838 0.459972
0.519310 0.832049 0.415814
0.670110 0.821982 0.381786
0.807331 0.841388 0.367499
0.971344 0.902255 0.379735
1.000000 0.992290 0.408598
1.000000 1.000000 0.435907
0.383931 1.000000 0.475874
0.405616 1.000000 0.469823
0.478469 1.000000 0.449653
0.598077 1.000000 0.422933
0.738059 1.000000 0.399149
0.859271 1.000000 0.384969
0.998552 1.000000 0.382785
1.000000 1.000000 0.393401
1.000000 1.000000 0.416982
0.453452 1.000000 0.438666
0.473692 1.000000 0.435433
0.543339 1.000000 0.425220
0.661898 1.000000 0.411033
0.779105 1.000000 0.397671
0.898579 1.000000 0.389233
1.000000 1.000000 0.388038
1.000000 1.000000 0.394479
1.000000 1.000000 0.407546
0.515529 1.000000 0.400170
0.534137 1.000000 0.398821
0.599156 1.000000 0.394549
0.709367 1.000000 0.388677
0.807869 1.000000 0.383541
0.924418 1.000000 0.381435
1.000000 1.000000 0.383972
1.000000 1.000000 0.391854
1.000000 1.000000 0.404932
0.210258 0.076399 1.000000
0.272314 0.101898 1.000000
0.472473 0.198067 1.000000
0.765253 0.351047 1.000000
1.000000 0.537141 1.000000
1.000000 0.632788 0.994515
1.000000 0.746563 0.931027
1.000000 0.851254 0.889998
1.000000 0.945439 0.861056
0.223538 0.141112 1.000000
0.284592 0.170212 1.000000
0.482764 0.258235 1.000000
0.771206 0.402119 1.000000
0.952255 0.530528 1.000000
1.000000 0.630657 0.960745
1.000000 0.746971 0.910537
1.000000 0.852868 0.876920
1.000000 0.947853 0.850889
0.251092 0.330465 1.000000
0.294290 0.334995 1.000000
0.424212 0.358805 0.980806
0.619609 0.417232 0.923747
0.815094 0.515451 0.887013
0.998482 0.627369 0.864544
1.000000 0.751372 0.846209
1.000000 0.860110 0.828797
1.000000 0.957483 0.812999
0.202132 0.417809 0.832711
0.228656 0.409844 0.803087
0.307783 0.396999 0.729371
0.442332 0.419991 0.678507
0.668540 0.514164 0.688847
0.876849 0.636381 0.718326
1.000000 0.770262 0.741264
1.000000 0.878829 0.754298
1.000000 0.978804 0.759345
0.256030 0.641196 0.790786
0.278181 0.629874 0.768405
0.348144 0.598603 0.702992
0.437264 0.566076 0.615631
0.544138 0.549676 0.539576
0.792592 0.680650 0.603188
1.000000 0.813785 0.652200
1.000000 0.917986 0.686221
1.000000 1.000000 0.705872
0.336152 0.866745 0.776350
0.359008 0.859561 0.762713
0.425498 0.838598 0.720969
0.529955 0.814795 0.663730
0.666842 0.803175 0.609059
0.797047 0.821097 0.581325
0.968501 0.893704 0.602166
1.000000 0.987961 0.635648
1.000000 1.000000 0.662475
0.411472 1.000000 0.746436
0.431665 1.000000 0.738567
0.499900 1.000000 0.713680
0.612795 1.000000 0.678178
0.742134 0.995993 0.639892
0.857800 1.000000 0.612757
0.994006 1.000000 0.602383
1.000000 1.000000 0.612635
1.000000 1.000000 0.634986
0.480329 1.000000 0.705052
0.499651 1.000000 0.700744
0.566369 1.000000 0.686818
0.680596 1.000000 0.664411
0.787421 1.000000 0.640736
0.903440 1.000000 0.622161
1.000000 1.000000 0.612489
1.000000 1.000000 0.612697
1.000000 1.000000 0.621971
0.541996 1.000000 0.655114
0.560082 1.000000 0.652735
0.623411 1.000000 0.644971
0.723235 1.000000 0.633422
0.819155 1.000000 0.621283
0.933562 1.000000 0.611860
1.000000 1.000000 0.607583
1.000000 1.000000 0.609554
1.000000 1.000000 0.617481
0.353663 0.162571 1.000000
0.406438 0.187524 1.000000
0.590299 0.276601 1.000000
0.832294 0.417302 1.000000
1.000000 0.606641 1.000000
1.000000 0.717912 1.000000
1.000000 0.807064 1.000000
1.000000 0.886144 1.000000
1.000000 0.969480 1.000000
0.364326 0.222400 1.000000
0.416902 0.247263 1.000000
0.600339 0.329498 1.000000
0.837896 0.468123 1.000000
1.000000 0.637121 1.000000
1.000000 0.715032 1.000000
1.000000 0.806667 1.000000
1.000000 0.887088 1.000000
1.000000 0.971360 1.000000
0.402220 0.416521 1.000000
0.454256 0.437447 1.000000
0.636250 0.512381 1.000000
0.789312 0.560379 1.000000
0.933979 0.623400 1.000000
1.000000 0.708776 1.000000
1.000000 0.807258 1.000000
1.000000 0.891850 1.000000
1.000000 0.979065 1.000000
0.329354 0.515324 1.000000
0.360144 0.515885 1.000000
0.452199 0.525218 1.000000
0.609643 0.557944 1.000000
0.786670 0.619649 1.000000
0.957035 0.711233 1.000000
1.000000 0.815580 1.000000
1.000000 0.905694 1.000000
1.000000 0.996834 0.996220
0.323325 0.650959 1.000000
0.346200 0.645044 1.000000
0.412169 0.630092 0.971530
0.519038 0.622918 0.917064
0.684281 0.652365 0.886502
0.851798 0.739363 0.895678
1.000000 0.841980 0.916621
1.000000 0.936802 0.932368
1.000000 1.000000 0.940401
0.381610 0.851360 1.000000
0.400386 0.846150 0.989019
0.462568 0.830680 0.954191
0.561863 0.812347 0.904754
0.689945 0.801064 0.853484
0.792125 0.804210 0.797160
0.982861 0.899426 0.847452
1.000000 0.995225 0.877139
1.000000 1.000000 0.895076
0.450064 1.000000 0.975914
0.468881 1.000000 0.969023
0.532915 1.000000 0.946716
0.639846 0.995839 0.913826
0.754266 0.987085 0.878970
0.862933 0.992744 0.848663
0.993980 1.000000 0.830982
1.000000 1.000000 0.847372
1.000000 1.000000 0.866997
0.517340 1.000000 0.941980
0.535727 1.000000 0.937934
0.599480 1.000000 0.924641
0.707230 1.000000 0.904493
0.801745 1.000000 0.882364
0.913755 1.000000 0.863342
1.000000 1.000000 0.849643
1.000000 1.000000 0.845736
1.000000 1.000000 0.854448
0.578119 1.000000 0.899885
0.595638 1.000000 0.897709
0.657142 1.000000 0.890499
0.742779 1.000000 0.879411
0.835706 1.000000 0.867044
0.947550 1.000000 0.856297
1.000000 1.000000 0.847041
1.000000 1.000000 0.844895
1.000000 1.000000 0.849563
0.507199 0.261923 1.000000
0.557973 0.287022 1.000000
0.724515 0.362829 1.000000
0.912275 0.501114 1.000000
1.000000 0.671216 1.000000
1.000000 0.810762 1.000000
1.000000 0.866412 1.000000
1.000000 0.931568 1.000000
1.000000 1.000000 1.000000
0.517409 0.317288 1.000000
0.568075 0.338384 1.000000
0.730707 0.413852 1.000000
0.917518 0.549732 1.000000
1.000000 0.709511 1.000000
1.000000 0.808427 1.000000
1.000000 0.865649 1.000000
1.000000 0.932066 1.000000
1.000000 1.000000 1.000000
0.553904 0.500337 1.000000
0.604203 0.521150 1.000000
0.752645 0.585022 1.000000
0.934991 0.690222 1.000000
1.000000 0.738948 1.000000
1.000000 0.802865 1.000000
1.000000 0.864793 1.000000
1.000000 0.935153 1.000000
1.000000 1.000000 1.000000
0.502270 0.637639 1.000000
0.533122 0.640489 1.000000
0.636947 0.652984 1.000000
0.769517 0.682083 1.000000
0.904421 0.732964 1.000000
1.000000 0.802629 1.000000
1.000000 0.870014 1.000000
1.000000 0.945641 1.000000
1.000000 1.000000 1.000000
0.428944 0.710578 1.000000
0.450982 0.709520 1.000000
0.526420 0.709594 1.000000
0.656751 0.722087 1.000000
0.792380 0.760395 1.000000
0.940091 0.820605 1.000000
1.000000 0.890852 1.000000
1.000000 0.971048 1.000000
1.000000 1.000000 1.000000
0.446143 0.856478 1.000000
0.464528 0.853505 1.000000
0.526891 0.845114 1.000000
0.631263 0.837431 1.000000
0.749676 0.840850 1.000000
0.872036 0.870948 1.000000
1.000000 0.936917 1.000000
1.000000 1.000000 1.000000
1.000000 1.000000 1.000000
0.501935 1.000000 1.000000
0.519725 1.000000 1.000000
0.580780 1.000000 1.000000
0.684078 0.995725 1.000000
0.779123 0.990363 1.000000
0.882084 0.995663 1.000000
0.999157 1.000000 1.000000
1.000000 1.000000 1.000000
1.000000 1.000000 1.000000
0.565119 1.000000 1.000000
0.582653 1.000000 1.000000
0.643726 1.000000 1.000000
0.732930 1.000000 1.000000
0.823227 1.000000 1.000000
0.931045 1.000000 1.000000
1.000000 1.000000 1.000000
1.000000 1.000000 1.000000
1.000000 1.000000 1.000000
0.624149 1.000000 1.000000
0.641105 1.000000 1.000000
0.700799 1.000000 1.000000
0.768171 1.000000 1.000000
0.857888 1.000000 1.000000
0.966898 1.000000 1.000000
1.000000 1.000000 1.000000
1.000000 1.000000 1.000000
1.000000 1.000000 1.000000
0.687914 0.369374 1.000000
0.724887 0.390375 1.000000
0.830746 0.465547 1.000000
1.000000 0.590759 1.000000
1.000000 0.747888 1.000000
1.000000 0.888045 1.000000
1.000000 0.931002 1.000000
1.000000 0.983461 1.000000
1.000000 1.000000 1.000000
0.697784 0.420372 1.000000
0.731077 0.441292 1.000000
0.836356 0.516208 1.000000
1.000000 0.630357 1.000000
1.000000 0.785108 1.000000
1.000000 0.885696 1.000000
1.000000 0.930047 1.000000
1.000000 0.983666 1.000000
1.000000 1.000000 1.000000
0.722386 0.590145 1.000000
0.753006 0.606522 1.000000
0.856286 0.664401 1.000000
1.000000 0.767504 1.000000
1.000000 0.841621 1.000000
1.000000 0.879783 1.000000
1.000000 0.928364 1.000000
1.000000 0.985637 1.000000
1.000000 1.000000 1.000000
0.713841 0.768746 1.000000
0.734097 0.771878 1.000000
0.800137 0.784089 1.000000
0.902087 0.804903 1.000000
1.000000 0.835372 1.000000
1.000000 0.878049 1.000000
1.000000 0.931673 1.000000
1.000000 0.993854 1.000000
1.000000 1.000000 1.000000
0.576024 0.802408 1.000000
0.600202 0.803487 1.000000
0.683721 0.808757 1.000000
0.781050 0.822773 1.000000
0.898439 0.850167 1.000000
1.000000 0.892836 1.000000
1.000000 0.949197 1.000000
1.000000 1.000000 1.000000
1.000000 1.000000 1.000000
0.542039 0.887632 1.000000
0.561241 0.886814 1.000000
0.627813 0.885476 1.000000
0.729002 0.888583 1.000000
0.829915 0.903606 1.000000
0.955675 0.937237 1.000000
1.000000 0.990774 1.000000
1.000000 1.000000 1.000000
1.000000 1.000000 1.000000
0.571670 1.000000 1.000000
0.589015 1.000000 1.000000
0.649182 1.000000 1.000000
0.734992 1.000000 1.000000
0.823299 1.000000 1.000000
0.930772 1.000000 1.000000
1.000000 1.000000 1.000000
1.000000 1.000000 1.000000
1.000000 1.000000 1.000000
0.625125 1.000000 1.000000
0.641990 1.000000 1.000000
0.701015 1.000000 1.000000
0.766880 1.000000 1.000000
0.853678 1.000000 1.000000
0.958244 1.000000 1.000000
1.000000 1.000000 1.000000
1.000000 1.000000 1.000000
1.000000 1.000000 1.000000
0.680493 1.000000 1.000000
0.696932 1.000000 1.000000
0.736188 1.000000 1.000000
0.799588 1.000000 1.000000
0.886074 1.000000 1.000000
0.992157 1.000000 1.000000
1.000000 1.000000 1.000000
1.000000 1.000000 1.000000
1.000000 1.000000 1.000000
0.821906 0.491176 1.000000
0.849868 0.512001 1.000000
0.945258 0.577764 1.000000
1.000000 0.684475 1.000000
1.000000 0.824635 1.000000
1.000000 0.962566 1.000000
1.000000 0.997008 1.000000
1.000000 1.000000 1.000000
1.000000 1.000000 1.000000
0.827560 0.541721 1.000000
0.855386 0.558477 1.000000
0.950367 0.617592 1.000000
1.000000 0.722574 1.000000
1.000000 0.850914 1.000000
1.000000 0.962336 1.000000
1.000000 0.995936 1.000000
1.000000 1.000000 1.000000
1.000000 1.000000 1.000000
0.847641 0.683885 1.000000
0.875000 0.699628 1.000000
0.968561 0.755413 1.000000
1.000000 0.838515 1.000000
1.000000 0.927882 1.000000
1.000000 0.956215 1.000000
1.000000 0.993685 1.000000
1.000000 1.000000 1.000000
1.000000 1.000000 1.000000
0.866783 0.872808 1.000000
0.884626 0.874745 1.000000
0.943422 0.882063 1.000000
1.000000 0.896636 1.000000
1.000000 0.920067 1.000000
1.000000 0.953117 1.000000
1.000000 0.995480 1.000000
1.000000 1.000000 1.000000
1.000000 1.000000 1.000000
0.740531 0.883642 1.000000
0.756216 0.885267 1.000000
0.809138 0.891734 1.000000
0.895615 0.905622 1.000000
1.000000 0.929431 1.000000
1.000000 0.964404 1.000000
1.000000 1.000000 1.000000
1.000000 1.000000 1.000000
1.000000 1.000000 1.000000
0.672835 0.939588 1.000000
0.693105 0.940159 1.000000
0.741851 0.943146 1.000000
0.817583 0.951823 1.000000
0.919003 0.970398 1.000000
1.000000 1.000000 1.000000
1.000000 1.000000 1.000000
1.000000 1.000000 1.000000
1.000000 1.000000 1.000000
0.664863 1.000000 1.000000
0.682358 1.000000 1.000000
0.729074 1.000000 1.000000
0.795593 1.000000 1.000000
0.885628 1.000000 1.000000
0.996859 1.000000 1.000000
1.000000 1.000000 1.000000
1.000000 1.000000 1.000000
1.000000 1.000000 1.000000
0.699863 1.000000 1.000000
0.711687 1.000000 1.000000
0.748235 1.000000 1.000000
0.810576 1.000000 1.000000
0.895182 1.000000 1.000000
0.998808 1.000000 1.000000
1.000000 1.000000 1.000000
1.000000 1.000000 1.000000
1.000000 1.000000 1.000000
0.731728 1.000000 1.000000
0.741776 1.000000 1.000000
0.776762 1.000000 1.000000
0.837286 1.000000 1.000000
0.920711 1.000000 1.000000
1.000000 1.000000 1.000000
1.000000 1.000000 1.000000
1.000000 1.000000 1.000000
1.000000 1.000000 1.000000
