velvia_classic/Velvia50_Soft.cube
TITLE "Velvia 50 Soft"
# Adobe RGB in/out. REPLACES AgX. Velvia 50 color reversal.
LUT_3D_SIZE 5
DOMAIN_MIN 0.0 0.0 0.0
DOMAIN_MAX 1.0 1.0 1.0
0.050851 0.034289 0.037567
0.138059 0.051411 0.037875
0.428803 0.219210 0.043483
0.649887 0.405197 0.072330
0.782383 0.565631 0.137026
0.053348 0.120968 0.037567
0.166114 0.168515 0.038182
0.438556 0.303588 0.044267
0.653807 0.453100 0.074483
0.783926 0.594794 0.139123
0.126035 0.404429 0.038438
0.246707 0.424655 0.039821
0.472092 0.492000 0.048064
0.667525 0.581167 0.082194
0.789375 0.672981 0.146636
0.276821 0.635183 0.041976
0.351157 0.643057 0.044187
0.528782 0.669918 0.057483
0.691423 0.714533 0.097585
0.799042 0.770034 0.160378
0.410243 0.779948 0.052214
0.458867 0.783210 0.056859
0.599108 0.794535 0.077004
0.724426 0.813961 0.120557
0.812724 0.840126 0.180709
0.052837 0.035317 0.179543
0.162592 0.060890 0.184926
0.437271 0.229213 0.203809
0.653289 0.410036 0.236745
0.783721 0.568541 0.280308
0.061239 0.133175 0.181468
0.189014 0.179333 0.186779
0.446858 0.310567 0.205628
0.657170 0.457550 0.238354
0.785254 0.597539 0.281535
0.151909 0.409274 0.188129
0.263026 0.429326 0.193404
0.479871 0.496182 0.212135
0.670756 0.583987 0.244108
0.790669 0.674661 0.285914
0.292517 0.637059 0.200271
0.362597 0.644890 0.205484
0.535818 0.671612 0.224010
0.694441 0.716030 0.254589
0.800278 0.770845 0.293866
0.419047 0.780723 0.218176
0.466843 0.783973 0.223306
0.603088 0.795260 0.240237
0.727184 0.814625 0.270031
0.813883 0.840370 0.305521
0.108857 0.054858 0.493064
0.234993 0.103062 0.494917
0.466549 0.262283 0.501515
0.665234 0.427073 0.513423
0.788459 0.578855 0.530715
0.137686 0.172400 0.493712
0.254089 0.215961 0.495563
0.475604 0.335076 0.502152
0.668981 0.473271 0.514045
0.789957 0.607280 0.531316
0.227157 0.426335 0.496034
0.314954 0.445800 0.497876
0.506929 0.509947 0.504433
0.682118 0.593988 0.516271
0.795253 0.680630 0.533466
0.337497 0.643716 0.500276
0.400810 0.651394 0.502102
0.560438 0.677633 0.508602
0.705078 0.721360 0.520341
0.804659 0.773735 0.537400
0.449393 0.783484 0.506553
0.494542 0.786692 0.508355
0.616980 0.797843 0.514772
0.736927 0.816994 0.526367
0.817996 0.841241 0.543228
0.249115 0.132123 0.717926
0.330954 0.178353 0.718648
0.516505 0.309937 0.721229
0.686182 0.457147 0.725926
0.796904 0.597291 0.732834
0.267842 0.239682 0.718179
0.344610 0.274848 0.718900
0.524782 0.372664 0.721479
0.689712 0.501209 0.726173
0.798343 0.624741 0.733076
0.325360 0.456446 0.719084
0.391118 0.474965 0.719803
0.553596 0.531209 0.722375
0.702111 0.611893 0.727057
0.803433 0.691357 0.733942
0.408458 0.655628 0.720743
0.457253 0.663044 0.721459
0.598305 0.688449 0.724018
0.723871 0.730972 0.728678
0.812491 0.778952 0.735530
0.500893 0.788472 0.723210
0.542171 0.791608 0.723921
0.641059 0.802518 0.726462
0.751361 0.821287 0.731088
0.825364 0.842820 0.737893
0.378365 0.235656 0.833810
0.432192 0.271865 0.833981
0.584034 0.370560 0.834596
0.715372 0.499530 0.835718
0.808935 0.623687 0.837376
0.390953 0.315045 0.833870
0.441877 0.343668 0.834041
0.590668 0.421472 0.834655
0.718629 0.534015 0.835777
0.810295 0.645136 0.837434
0.428241 0.498874 0.834085
0.475202 0.514172 0.834256
0.607269 0.561273 0.834869
0.730098 0.636091 0.835988
0.815110 0.706828 0.837643
0.489519 0.672704 0.834480
0.531593 0.679767 0.834650
0.635695 0.704042 0.835261
0.748975 0.744913 0.836377
0.823697 0.786527 0.838026
0.570093 0.795727 0.835068
0.600699 0.798762 0.835238
0.674094 0.809331 0.835846
0.766270 0.827562 0.836956
0.832660 0.845127 0.838597
