velvia_classic/Velvia50_ExtraSoft.cube
TITLE "Velvia 50 ExtraSoft"
# Adobe RGB in/out. REPLACES AgX. Velvia 50 color reversal.
LUT_3D_SIZE 65
DOMAIN_MIN 0.0 0.0 0.0
DOMAIN_MAX 1.0 1.0 1.0
0.065865 0.046521 0.050424
0.065865 0.046521 0.050424
0.065865 0.046521 0.050424
0.065865 0.046521 0.050424
0.066009 0.046521 0.050424
0.066383 0.046521 0.050424
0.066983 0.046683 0.050424
0.067858 0.047000 0.050424
0.069292 0.047586 0.050424
0.072106 0.048212 0.050424
0.076362 0.049401 0.050424
0.083592 0.050511 0.050424
0.093824 0.052867 0.050424
0.106590 0.055131 0.050424
0.121597 0.058169 0.050473
0.138794 0.061747 0.050636
0.158999 0.066506 0.050789
0.179584 0.073052 0.050933
0.199672 0.080147 0.051081
0.220737 0.089107 0.051288
0.238851 0.098531 0.051486
0.256178 0.108418 0.051674
0.273869 0.119035 0.051855
0.291913 0.130230 0.052229
0.310303 0.141933 0.052730
0.325993 0.154076 0.053215
0.341607 0.165435 0.053685
0.357336 0.177156 0.054141
0.373178 0.189235 0.054585
0.389130 0.201670 0.055016
0.404595 0.213884 0.055804
0.418391 0.226341 0.056594
0.432198 0.239093 0.057369
0.446014 0.252138 0.058187
0.459840 0.265474 0.059283
0.473675 0.277568 0.060368
0.487519 0.288193 0.061620
0.501372 0.298917 0.063184
0.515233 0.309737 0.064743
0.529102 0.320653 0.066300
0.542979 0.331663 0.068137
0.556865 0.342765 0.070359
0.570758 0.353958 0.072597
0.580161 0.364121 0.074851
0.589014 0.373481 0.077508
0.597798 0.382862 0.080524
0.606516 0.392265 0.083587
0.615170 0.401690 0.086696
0.623760 0.411135 0.089883
0.632290 0.420601 0.093384
0.640761 0.430087 0.096946
0.649174 0.439592 0.100570
0.657531 0.449117 0.104474
0.665834 0.458661 0.108582
0.674083 0.468224 0.112770
0.682280 0.477805 0.117038
0.690426 0.487405 0.121387
0.698523 0.497022 0.125816
0.706031 0.505337 0.130212
0.710931 0.513120 0.134679
0.715781 0.520890 0.139219
0.720583 0.528645 0.143834
0.725339 0.536388 0.148523
0.730049 0.544117 0.153286
0.734715 0.551833 0.157949
0.065865 0.046521 0.050424
0.065865 0.046521 0.050424
0.065865 0.046521 0.050424
0.065865 0.046521 0.050424
0.066012 0.046521 0.050424
0.066391 0.046521 0.050424
0.066989 0.046711 0.050424
0.067870 0.047066 0.050424
0.069314 0.047636 0.050424
0.072124 0.048309 0.050424
0.076394 0.049480 0.050424
0.083642 0.050660 0.050424
0.093881 0.052996 0.050424
0.106645 0.055244 0.050424
0.121661 0.058337 0.050474
0.138863 0.061900 0.050637
0.159068 0.066762 0.050790
0.179644 0.073298 0.050934
0.199730 0.080448 0.051082
0.220794 0.089404 0.051289
0.238894 0.098825 0.051487
0.256220 0.108709 0.051675
0.273909 0.119332 0.051856
0.291952 0.130525 0.052231
0.310340 0.142226 0.052732
0.326023 0.154336 0.053217
0.341635 0.165691 0.053687
0.357364 0.177408 0.054143
0.373205 0.189484 0.054586
0.389156 0.201916 0.055017
0.404616 0.214114 0.055807
0.418412 0.226567 0.056596
0.432218 0.239316 0.057371
0.446033 0.252358 0.058190
0.459858 0.265691 0.059286
0.473693 0.277733 0.060370
0.487536 0.288353 0.061624
0.501388 0.299073 0.063187
0.515249 0.309890 0.064746
0.529118 0.320803 0.066303
0.542995 0.331810 0.068141
0.556879 0.342909 0.070363
0.570772 0.354098 0.072601
0.580170 0.364235 0.074855
0.589023 0.373591 0.077514
0.597807 0.382970 0.080529
0.606524 0.392371 0.083592
0.615177 0.401793 0.086701
0.623768 0.411236 0.089888
0.632298 0.420699 0.093389
0.640768 0.430183 0.096951
0.649181 0.439686 0.100575
0.657538 0.449209 0.104479
0.665840 0.458752 0.108587
0.674089 0.468313 0.112775
0.682286 0.477892 0.117044
0.690432 0.487490 0.121393
0.698529 0.497105 0.125822
0.706035 0.505403 0.130218
0.710934 0.513185 0.134684
0.715784 0.520953 0.139224
0.720587 0.528707 0.143839
0.725342 0.536448 0.148528
0.730052 0.544176 0.153292
0.734718 0.551891 0.157954
0.065865 0.046521 0.050424
0.065865 0.046521 0.050424
0.065865 0.046521 0.050424
0.065865 0.046521 0.050424
0.066021 0.046521 0.050424
0.066422 0.046611 0.050424
0.067010 0.046803 0.050424
0.067910 0.047286 0.050424
0.069392 0.047805 0.050424
0.072187 0.048646 0.050424
0.076506 0.049757 0.050424
0.083820 0.051185 0.050424
0.094088 0.053452 0.050424
0.106842 0.055644 0.050424
0.121891 0.058932 0.050478
0.139110 0.062444 0.050640
0.159314 0.067677 0.050793
0.179859 0.074178 0.050936
0.199941 0.081530 0.051086
0.221000 0.090472 0.051293
0.239048 0.099879 0.051490
0.256368 0.109751 0.051678
0.274052 0.120399 0.051858
0.292091 0.131583 0.052238
0.310474 0.143276 0.052738
0.326130 0.155270 0.053222
0.341738 0.166612 0.053692
0.357463 0.178315 0.054148
0.373301 0.190378 0.054591
0.389248 0.202798 0.055022
0.404693 0.214941 0.055814
0.418485 0.227381 0.056603
0.432289 0.240118 0.057378
0.446102 0.253149 0.058199
0.459924 0.266470 0.059295
0.473757 0.278323 0.060379
0.487598 0.288930 0.061636
0.501448 0.299636 0.063199
0.515307 0.310440 0.064758
0.529174 0.321341 0.066314
0.543049 0.332336 0.068156
0.556932 0.343423 0.070378
0.570823 0.354602 0.072615
0.580202 0.364643 0.074869
0.589053 0.373989 0.077532
0.597836 0.383358 0.080547
0.606553 0.392749 0.083609
0.615205 0.402163 0.086719
0.623795 0.411597 0.089907
0.632324 0.421053 0.093408
0.640794 0.430529 0.096970
0.649206 0.440025 0.100594
0.657562 0.449541 0.104499
0.665863 0.459076 0.108607
0.674112 0.468630 0.112796
0.682308 0.478204 0.117064
0.690453 0.487795 0.121413
0.698550 0.497405 0.125842
0.706047 0.505640 0.130237
0.710946 0.513417 0.134703
0.715796 0.521180 0.139244
0.720598 0.528930 0.143859
0.725353 0.536666 0.148547
0.730063 0.544389 0.153311
0.734729 0.552100 0.157971
0.065865 0.046521 0.050424
0.065865 0.046521 0.050424
0.065865 0.046521 0.050424
0.065881 0.046521 0.050424
0.066038 0.046645 0.050424
0.066477 0.046794 0.050424
0.067048 0.047171 0.050424
0.067982 0.047639 0.050424
0.069536 0.048155 0.050424
0.072303 0.049218 0.050424
0.076712 0.050233 0.050424
0.084146 0.052108 0.050424
0.094469 0.054259 0.050424
0.107204 0.056574 0.050424
0.122313 0.060004 0.050485
0.139566 0.063426 0.050647
0.159767 0.069348 0.050798
0.180253 0.075787 0.050941
0.200327 0.083514 0.051093
0.221380 0.092432 0.051299
0.239332 0.101816 0.051495
0.256642 0.111699 0.051683
0.274316 0.122358 0.051863
0.292346 0.133527 0.052250
0.310721 0.145206 0.052750
0.326327 0.156986 0.053233
0.341928 0.168302 0.053702
0.357645 0.179981 0.054157
0.373476 0.192022 0.054599
0.389418 0.204342 0.055029
0.404833 0.216460 0.055828
0.418621 0.228877 0.056617
0.432419 0.241592 0.057390
0.446227 0.254601 0.058217
0.460046 0.267903 0.059312
0.473874 0.279407 0.060395
0.487711 0.289988 0.061658
0.501558 0.300669 0.063220
0.515413 0.311450 0.064779
0.529277 0.322328 0.066334
0.543149 0.333302 0.068184
0.557029 0.344369 0.070405
0.570918 0.355529 0.072642
0.580261 0.365392 0.074895
0.589110 0.374719 0.077565
0.597891 0.384071 0.080580
0.606606 0.393445 0.083642
0.615256 0.402842 0.086751
0.623845 0.412261 0.089942
0.632372 0.421702 0.093443
0.640840 0.431164 0.097005
0.649251 0.440647 0.100628
0.657606 0.450149 0.104537
0.665906 0.459672 0.108645
0.674153 0.469215 0.112833
0.682348 0.478776 0.117101
0.690493 0.488357 0.121450
0.698588 0.497956 0.125879
0.706070 0.506077 0.130273
0.710968 0.513844 0.134739
0.715817 0.521598 0.139279
0.720619 0.529338 0.143894
0.725373 0.537066 0.148583
0.730083 0.544781 0.153346
0.734748 0.552484 0.158003
0.065865 0.046681 0.050424
0.065865 0.046693 0.050424
0.065865 0.046733 0.050424
0.065920 0.046801 0.050424
0.066061 0.047005 0.050424
0.066555 0.047342 0.050424
0.067102 0.047704 0.050424
0.068089 0.048130 0.050424
0.069748 0.049060 0.050424
0.072474 0.049981 0.050424
0.077019 0.051374 0.050424
0.084632 0.053398 0.050424
0.095036 0.055399 0.050424
0.107745 0.058266 0.050424
0.122945 0.061554 0.050496
0.140248 0.065706 0.050656
0.160444 0.071816 0.050806
0.180842 0.078167 0.050948
0.200905 0.086473 0.051103
0.221947 0.095354 0.051308
0.239756 0.104705 0.051504
0.257050 0.114648 0.051690
0.274711 0.125284 0.051869
0.292727 0.136431 0.052269
0.311090 0.148089 0.052767
0.326622 0.159545 0.053249
0.342211 0.170824 0.053716
0.357918 0.182468 0.054170
0.373739 0.194474 0.054612
0.389672 0.206644 0.055048
0.405043 0.218726 0.055850
0.418823 0.231110 0.056636
0.432613 0.243792 0.057409
0.446415 0.256770 0.058243
0.460227 0.270042 0.059337
0.474049 0.281023 0.060419
0.487881 0.291566 0.061692
0.501722 0.302211 0.063252
0.515572 0.312957 0.064810
0.529431 0.323802 0.066364
0.543299 0.334744 0.068226
0.557175 0.345781 0.070446
0.571059 0.356912 0.072682
0.580349 0.366509 0.074934
0.589195 0.375810 0.077616
0.597973 0.385135 0.080630
0.606685 0.394484 0.083691
0.615333 0.403857 0.086800
0.623919 0.413253 0.089995
0.632444 0.422672 0.093495
0.640910 0.432113 0.097057
0.649319 0.441575 0.100680
0.657671 0.451059 0.104593
0.665970 0.460563 0.108700
0.674215 0.470087 0.112888
0.682408 0.479631 0.117157
0.690551 0.489195 0.121505
0.698645 0.498778 0.125934
0.706104 0.506729 0.130326
0.711001 0.514481 0.134792
0.715849 0.522221 0.139332
0.720650 0.529949 0.143947
0.725404 0.537664 0.148635
0.730112 0.545367 0.153398
0.734776 0.553057 0.158050
0.065865 0.047295 0.050424
0.065865 0.047319 0.050424
0.065865 0.047402 0.050424
0.065965 0.047546 0.050424
0.066090 0.047745 0.050424
0.066656 0.047987 0.050424
0.067173 0.048591 0.050424
0.068228 0.049327 0.050424
0.070028 0.050094 0.050424
0.072702 0.051360 0.050424
0.077428 0.053169 0.050424
0.085286 0.054997 0.050424
0.095801 0.057361 0.050424
0.108475 0.060439 0.050424
0.123798 0.063558 0.050511
0.141168 0.069107 0.050669
0.161359 0.075096 0.050818
0.181638 0.082088 0.050958
0.201686 0.090451 0.051117
0.222714 0.099286 0.051320
0.240329 0.108593 0.051515
0.257602 0.118623 0.051700
0.275243 0.129229 0.051878
0.293242 0.140347 0.052294
0.311569 0.151977 0.052790
0.327020 0.162989 0.053270
0.342593 0.174219 0.053736
0.358286 0.185816 0.054189
0.374094 0.197778 0.054629
0.390014 0.209745 0.055078
0.405326 0.221779 0.055878
0.419095 0.234117 0.056663
0.432876 0.246756 0.057435
0.446668 0.259693 0.058278
0.460472 0.272814 0.059370
0.474285 0.283198 0.060451
0.488109 0.293689 0.061737
0.501943 0.304286 0.063296
0.515787 0.314986 0.064852
0.529639 0.325787 0.066405
0.543501 0.336686 0.068282
0.557371 0.347683 0.070501
0.571250 0.358776 0.072736
0.580468 0.368014 0.074987
0.589310 0.377278 0.077683
0.598084 0.386568 0.080697
0.606792 0.395883 0.083758
0.615437 0.405224 0.086865
0.624019 0.414590 0.090066
0.632541 0.423979 0.093565
0.641004 0.433392 0.097127
0.649410 0.442827 0.100749
0.657760 0.452284 0.104668
0.666056 0.461763 0.108776
0.674298 0.471264 0.112963
0.682489 0.480785 0.117231
0.690630 0.490326 0.121580
0.698722 0.499862 0.126007
0.706150 0.507607 0.130398
0.711046 0.515341 0.134864
0.715893 0.523063 0.139404
0.720692 0.530772 0.144018
0.725444 0.538470 0.148706
0.730152 0.546156 0.153469
0.734815 0.553831 0.158114
0.065865 0.048195 0.050424
0.065865 0.048235 0.050424
0.065910 0.048378 0.050424
0.066014 0.048632 0.050424
0.066244 0.048991 0.050424
0.066774 0.049444 0.050424
0.067259 0.049973 0.050424
0.068400 0.050644 0.050424
0.070376 0.052085 0.050424
0.072986 0.053613 0.050424
0.077943 0.055203 0.050424
0.086113 0.057373 0.050424
0.096771 0.060168 0.050424
0.109400 0.063040 0.050424
0.124882 0.067753 0.050529
0.142339 0.073333 0.050685
0.162523 0.079349 0.050832
0.182650 0.087175 0.050971
0.202678 0.095480 0.051134
0.223688 0.104260 0.051336
0.241056 0.113606 0.051529
0.258303 0.123662 0.051713
0.275920 0.134231 0.051890
0.293896 0.145313 0.052325
0.312095 0.156552 0.052819
0.327525 0.167347 0.053297
0.343079 0.178517 0.053761
0.358754 0.190057 0.054212
0.374545 0.201963 0.054650
0.390450 0.213670 0.055116
0.405687 0.225645 0.055914
0.419442 0.237927 0.056698
0.433210 0.250512 0.057467
0.446991 0.263397 0.058323
0.460783 0.275632 0.059413
0.474586 0.285948 0.060492
0.488400 0.296376 0.061794
0.502225 0.306912 0.063351
0.516060 0.317554 0.064905
0.529904 0.328299 0.066456
0.543758 0.339146 0.068353
0.557621 0.350093 0.070570
0.571493 0.360732 0.072804
0.580618 0.369919 0.075054
0.589455 0.379137 0.077770
0.598225 0.388383 0.080782
0.606928 0.397656 0.083842
0.615568 0.406957 0.086949
0.624146 0.416284 0.090156
0.632664 0.425636 0.093655
0.641124 0.435013 0.097216
0.649526 0.444414 0.100837
0.657873 0.453838 0.104764
0.666165 0.463286 0.108872
0.674405 0.472756 0.113059
0.682593 0.482248 0.117327
0.690731 0.491761 0.121674
0.698819 0.501001 0.126099
0.706208 0.508722 0.130490
0.711102 0.516431 0.134955
0.715948 0.524129 0.139495
0.720745 0.531817 0.144109
0.725496 0.539493 0.148797
0.730202 0.547158 0.153559
0.734864 0.554813 0.158196
0.065901 0.049944 0.050424
0.065920 0.049974 0.050424
0.065980 0.050080 0.050424
0.066065 0.050270 0.050424
0.066430 0.050605 0.050424
0.066907 0.051404 0.050424
0.067490 0.052366 0.050424
0.068600 0.053469 0.050424
0.070789 0.054690 0.050424
0.073379 0.056008 0.050424
0.078563 0.058318 0.050424
0.087115 0.060774 0.050424
0.097950 0.063344 0.050424
0.110526 0.067816 0.050424
0.126204 0.072943 0.050551
0.143768 0.078361 0.050704
0.163944 0.085583 0.050848
0.183884 0.093341 0.050985
0.203889 0.101580 0.051156
0.224877 0.110297 0.051355
0.241942 0.119782 0.051546
0.259158 0.129793 0.051728
0.276745 0.140320 0.051904
0.294694 0.151361 0.052364
0.312737 0.161918 0.052854
0.328141 0.172639 0.053329
0.343672 0.183738 0.053791
0.359325 0.195210 0.054240
0.375096 0.206845 0.054676
0.390981 0.218438 0.055163
0.406126 0.230344 0.055958
0.419865 0.242559 0.056739
0.433618 0.255080 0.057506
0.447384 0.267903 0.058377
0.461162 0.279048 0.059465
0.474953 0.289285 0.060541
0.488756 0.299637 0.061864
0.502569 0.310100 0.063419
0.516393 0.320673 0.064971
0.530228 0.331352 0.066519
0.544072 0.342136 0.068441
0.557926 0.353022 0.070656
0.571789 0.363104 0.072888
0.580803 0.372234 0.075136
0.589633 0.381396 0.077875
0.598396 0.390589 0.080887
0.607094 0.399811 0.083945
0.615729 0.409063 0.087051
0.624302 0.418343 0.090266
0.632815 0.427651 0.093764
0.641270 0.436985 0.097324
0.649668 0.446345 0.100945
0.658010 0.455730 0.104882
0.666299 0.465139 0.108989
0.674535 0.474573 0.113176
0.682719 0.484029 0.117443
0.690853 0.493508 0.121790
0.698939 0.502389 0.126212
0.706280 0.510079 0.130602
0.711172 0.517759 0.135067
0.716015 0.525429 0.139606
0.720810 0.533089 0.144220
0.725560 0.540738 0.148907
0.730264 0.548379 0.153669
0.734924 0.556009 0.158296
0.065985 0.052825 0.050424
0.065999 0.052878 0.050424
0.066045 0.053068 0.050424
0.066206 0.053413 0.050424
0.066624 0.053915 0.050424
0.067052 0.054571 0.050424
0.067781 0.055371 0.050424
0.068827 0.056481 0.050424
0.071263 0.058219 0.050424
0.074210 0.060144 0.050424
0.079285 0.062232 0.050424
0.088293 0.065003 0.050424
0.099344 0.069317 0.050424
0.111858 0.073958 0.050424
0.127771 0.079002 0.050577
0.145465 0.085714 0.050726
0.165631 0.092913 0.050868
0.185347 0.100598 0.051003
0.205324 0.108765 0.051180
0.226202 0.117634 0.051377
0.242993 0.127078 0.051566
0.260171 0.137040 0.051747
0.277723 0.147518 0.051920
0.295640 0.157985 0.052409
0.313498 0.168239 0.052896
0.328871 0.178878 0.053368
0.344374 0.189896 0.053827
0.360001 0.201290 0.054273
0.375748 0.212553 0.054707
0.391612 0.224062 0.055219
0.406647 0.235888 0.056010
0.420367 0.248027 0.056788
0.434101 0.260474 0.057553
0.447850 0.273047 0.058442
0.461613 0.283070 0.059527
0.475389 0.293214 0.060600
0.489177 0.303478 0.061947
0.502977 0.313858 0.063499
0.516789 0.324350 0.065048
0.530611 0.334953 0.066594
0.544445 0.345663 0.068544
0.558288 0.356479 0.070757
0.572130 0.365901 0.072987
0.581021 0.374963 0.075233
0.589844 0.384060 0.078000
0.598600 0.393191 0.081010
0.607291 0.402355 0.084068
0.615920 0.411550 0.087172
0.624487 0.420776 0.090397
0.632994 0.430031 0.093894
0.641443 0.439315 0.097453
0.649836 0.448627 0.101073
0.658173 0.457965 0.105021
0.666457 0.467330 0.109128
0.674689 0.476720 0.113314
0.682869 0.486135 0.117581
0.690999 0.495575 0.121928
0.699081 0.504029 0.126345
0.706364 0.511683 0.130735
0.711254 0.519328 0.135200
0.716095 0.526965 0.139738
0.720888 0.534593 0.144351
0.725635 0.542212 0.149038
0.730337 0.549822 0.153800
0.734995 0.557424 0.158414
0.066059 0.056294 0.050424
0.066070 0.056366 0.050424
0.066163 0.056626 0.050424
0.066462 0.057098 0.050424
0.066822 0.057794 0.050424
0.067205 0.058714 0.050424
0.068096 0.059853 0.050424
0.069344 0.061200 0.050424
0.071792 0.062743 0.050424
0.075151 0.065004 0.050424
0.080643 0.068444 0.050424
0.089649 0.072238 0.050424
0.100954 0.076373 0.050424
0.113651 0.081450 0.050453
0.129588 0.087591 0.050606
0.147434 0.094223 0.050752
0.167589 0.101343 0.050890
0.187045 0.108949 0.051023
0.206990 0.117249 0.051209
0.227466 0.126120 0.051403
0.244210 0.135510 0.051589
0.261345 0.145417 0.051767
0.278857 0.155597 0.051964
0.296737 0.165363 0.052461
0.314380 0.175522 0.052944
0.329718 0.186068 0.053412
0.345189 0.196998 0.053868
0.360786 0.208038 0.054311
0.376505 0.219132 0.054743
0.392343 0.230549 0.055282
0.407252 0.242286 0.056071
0.420949 0.254338 0.056845
0.434662 0.266703 0.057607
0.448391 0.277781 0.058517
0.462135 0.287696 0.059598
0.475894 0.297737 0.060668
0.489666 0.307902 0.062043
0.503451 0.318187 0.063592
0.517248 0.328590 0.065138
0.531057 0.339106 0.066681
0.544877 0.349733 0.068664
0.558708 0.360179 0.070875
0.572393 0.369124 0.073102
0.581275 0.378110 0.075345
0.590089 0.387134 0.078146
0.598837 0.396194 0.081154
0.607520 0.405291 0.084210
0.616141 0.414421 0.087313
0.624701 0.423585 0.090549
0.633202 0.432781 0.094045
0.641645 0.442007 0.097603
0.650031 0.451264 0.101222
0.658363 0.460549 0.105183
0.666641 0.469863 0.109289
0.674868 0.479204 0.113475
0.683043 0.488572 0.117741
0.691168 0.497965 0.122088
0.699245 0.505924 0.126501
0.706463 0.513537 0.130890
0.711349 0.521143 0.135354
0.716187 0.528742 0.139892
0.720978 0.536333 0.144504
0.725722 0.543917 0.149191
0.730421 0.551493 0.153951
0.735077 0.559061 0.158551
0.066258 0.061666 0.050424
0.066304 0.061729 0.050424
0.066460 0.061955 0.050424
0.066710 0.062367 0.050424
0.067022 0.062975 0.050424
0.067504 0.063783 0.050424
0.068430 0.065588 0.050424
0.070042 0.067771 0.050424
0.072372 0.070326 0.050424
0.076198 0.073245 0.050424
0.082294 0.076523 0.050424
0.091179 0.080576 0.050424
0.102781 0.085653 0.050424
0.115763 0.091222 0.050490
0.131659 0.097282 0.050638
0.149684 0.103832 0.050780
0.169826 0.110879 0.050915
0.188981 0.118653 0.051045
0.208890 0.126945 0.051241
0.228906 0.135757 0.051431
0.245597 0.145088 0.051615
0.262683 0.154786 0.051791
0.280150 0.164048 0.052028
0.297989 0.173709 0.052520
0.315385 0.183766 0.052998
0.330684 0.194213 0.053463
0.346118 0.204938 0.053915
0.361681 0.215595 0.054355
0.377369 0.226584 0.054784
0.393177 0.237901 0.055355
0.407942 0.249540 0.056139
0.421613 0.261498 0.056910
0.435302 0.273468 0.057668
0.449009 0.283128 0.058602
0.462732 0.292923 0.059679
0.476470 0.302851 0.060746
0.490224 0.312907 0.062152
0.503991 0.323088 0.063697
0.517772 0.333390 0.065240
0.531565 0.343810 0.066780
0.545370 0.354345 0.068802
0.559187 0.363917 0.071009
0.572693 0.372773 0.073233
0.581565 0.381674 0.075474
0.590369 0.390616 0.078311
0.599107 0.399598 0.081318
0.607781 0.408619 0.084372
0.616394 0.417678 0.087473
0.624946 0.426772 0.090723
0.633439 0.435901 0.094217
0.641874 0.445063 0.097774
0.650254 0.454258 0.101392
0.658579 0.463484 0.105368
0.666852 0.472740 0.109473
0.675072 0.482026 0.113659
0.683241 0.491340 0.117924
0.691361 0.500505 0.122270
0.699433 0.508077 0.126678
0.706575 0.515644 0.131067
0.711458 0.523206 0.135530
0.716293 0.530761 0.140067
0.721080 0.538311 0.144679
0.725822 0.545855 0.149365
0.730518 0.553392 0.154125
0.735171 0.560924 0.158708
0.066570 0.069588 0.050424
0.066608 0.069691 0.050424
0.066737 0.070062 0.050424
0.066949 0.070741 0.050424
0.067219 0.071752 0.050424
0.067931 0.073109 0.050424
0.068778 0.074820 0.050424
0.070786 0.076889 0.050424
0.072997 0.079515 0.050424
0.077344 0.083058 0.050424
0.084128 0.087084 0.050424
0.093224 0.091597 0.050424
0.104827 0.096598 0.050424
0.118137 0.102089 0.050530
0.133989 0.108069 0.050674
0.152218 0.114664 0.050811
0.172292 0.121857 0.050943
0.191160 0.129569 0.051081
0.211029 0.137800 0.051276
0.230525 0.146551 0.051463
0.247156 0.155577 0.051643
0.264187 0.164319 0.051817
0.281604 0.173467 0.052099
0.299396 0.183018 0.052586
0.316514 0.192967 0.053059
0.331770 0.203286 0.053519
0.347163 0.213487 0.053967
0.362688 0.224029 0.054404
0.378341 0.234907 0.054829
0.394115 0.246116 0.055437
0.408717 0.257650 0.056216
0.422360 0.269508 0.056983
0.436022 0.279552 0.057737
0.449704 0.289078 0.058697
0.463403 0.298746 0.059771
0.477120 0.308551 0.060834
0.490852 0.318489 0.062275
0.504600 0.328557 0.063816
0.518362 0.338750 0.065355
0.532137 0.349065 0.066891
0.545926 0.359377 0.068956
0.559727 0.368087 0.071160
0.573031 0.376846 0.073381
0.581891 0.385653 0.075619
0.590683 0.394506 0.078498
0.599411 0.403402 0.081503
0.608076 0.412341 0.084555
0.616678 0.421320 0.087654
0.625221 0.430338 0.090918
0.633706 0.439393 0.094412
0.642133 0.448485 0.097967
0.650505 0.457611 0.101584
0.658823 0.466771 0.105577
0.667088 0.475964 0.109681
0.675302 0.485189 0.113866
0.683465 0.494444 0.118131
0.691579 0.502970 0.122476
0.699645 0.510489 0.126878
0.706702 0.518005 0.131266
0.711581 0.525517 0.135728
0.716412 0.533025 0.140265
0.721196 0.540529 0.144876
0.725934 0.548028 0.149561
0.730627 0.555523 0.154320
0.735277 0.563013 0.158885
0.066857 0.079909 0.050424
0.066889 0.080033 0.050424
0.066997 0.080478 0.050424
0.067177 0.081297 0.050424
0.067639 0.082519 0.050424
0.068362 0.084167 0.050424
0.069498 0.086258 0.050424
0.071567 0.088804 0.050424
0.074088 0.091814 0.050424
0.078581 0.095297 0.050424
0.086139 0.099258 0.050424
0.095589 0.103701 0.050424
0.107091 0.108629 0.050431
0.120776 0.114154 0.050574
0.136580 0.120253 0.050712
0.155043 0.126868 0.050845
0.174764 0.134000 0.050973
0.193584 0.141649 0.051124
0.213410 0.149818 0.051314
0.232322 0.157980 0.051498
0.248889 0.166190 0.051675
0.265860 0.174813 0.051846
0.283221 0.183845 0.052178
0.300961 0.193283 0.052658
0.317771 0.203105 0.053126
0.332977 0.212835 0.053581
0.348325 0.222913 0.054025
0.363808 0.233334 0.054457
0.379422 0.244095 0.054879
0.395160 0.255190 0.055527
0.409581 0.266614 0.056302
0.423191 0.277004 0.057064
0.436824 0.286237 0.057813
0.450477 0.295621 0.058804
0.464150 0.305153 0.059872
0.477842 0.314828 0.060931
0.491552 0.324641 0.062412
0.505277 0.334587 0.063949
0.519019 0.344663 0.065483
0.532775 0.354866 0.067015
0.546545 0.364082 0.069128
0.560329 0.372682 0.071328
0.573407 0.381337 0.073546
0.582254 0.390043 0.075780
0.591034 0.398799 0.078707
0.599750 0.407603 0.081709
0.608403 0.416452 0.084759
0.616996 0.425345 0.087856
0.625528 0.434280 0.091136
0.634003 0.443255 0.094628
0.642422 0.452270 0.098182
0.650785 0.461322 0.101797
0.659095 0.470411 0.105809
0.667352 0.479534 0.109913
0.675558 0.488692 0.114097
0.683715 0.497882 0.118361
0.691822 0.505699 0.122706
0.699881 0.513160 0.127101
0.706843 0.520620 0.131488
0.711718 0.528078 0.135949
0.716545 0.535534 0.140485
0.721325 0.542987 0.145095
0.726059 0.550438 0.149780
0.730749 0.557885 0.154538
0.735396 0.565329 0.159082
0.067122 0.093482 0.050424
0.067149 0.093604 0.050424
0.067240 0.094041 0.050424
0.067593 0.094844 0.050424
0.068145 0.096043 0.050424
0.068794 0.097662 0.050424
0.070447 0.099715 0.050424
0.072379 0.102217 0.050424
0.075577 0.105177 0.050424
0.080276 0.108604 0.050424
0.088322 0.112564 0.050424
0.098178 0.117084 0.050424
0.109572 0.122108 0.050483
0.123683 0.127639 0.050620
0.139509 0.133681 0.050752
0.158161 0.140237 0.050881
0.177487 0.147308 0.051005
0.196257 0.154748 0.051170
0.216035 0.161994 0.051356
0.234300 0.169663 0.051536
0.250796 0.177752 0.051709
0.267702 0.186257 0.051877
0.285003 0.195172 0.052264
0.302686 0.204412 0.052738
0.319154 0.213654 0.053199
0.334307 0.223253 0.053649
0.349606 0.233204 0.054088
0.365043 0.243501 0.054516
0.380613 0.254140 0.054935
0.396312 0.265116 0.055626
0.410532 0.275513 0.056395
0.424108 0.284429 0.057152
0.437707 0.293508 0.057897
0.451330 0.302745 0.058920
0.464975 0.312135 0.059984
0.478640 0.321672 0.061038
0.492323 0.331352 0.062563
0.506025 0.341170 0.064094
