velvia_classic/Velvia50_ExtraPunchy.cube
TITLE "Velvia 50 ExtraPunchy"
# Adobe RGB in/out. REPLACES AgX. Velvia 50 color reversal.
LUT_3D_SIZE 65
DOMAIN_MIN 0.0 0.0 0.0
DOMAIN_MAX 1.0 1.0 1.0
0.018066 0.010120 0.011574
0.018066 0.010120 0.011574
0.018066 0.010120 0.011574
0.018085 0.010120 0.011574
0.018168 0.010120 0.011574
0.018496 0.010120 0.011574
0.018875 0.010191 0.011574
0.019590 0.010333 0.011574
0.021121 0.010549 0.011574
0.023728 0.010843 0.011574
0.028762 0.011292 0.011574
0.036264 0.011860 0.011574
0.046073 0.012796 0.011574
0.059494 0.013722 0.011574
0.076792 0.015217 0.011593
0.096783 0.016809 0.011655
0.118156 0.019564 0.011714
0.142153 0.022877 0.011769
0.162983 0.027154 0.011826
0.185489 0.032399 0.011907
0.209707 0.038310 0.011983
0.235670 0.044995 0.012056
0.259427 0.052632 0.012127
0.283397 0.061138 0.012273
0.308418 0.070567 0.012470
0.334492 0.080224 0.012661
0.361616 0.090322 0.012848
0.386423 0.101237 0.013031
0.411132 0.113001 0.013209
0.436471 0.125253 0.013384
0.462433 0.138087 0.013705
0.489012 0.151750 0.014029
0.516202 0.166266 0.014351
0.543997 0.181658 0.014694
0.572391 0.196709 0.015158
0.601380 0.209799 0.015623
0.630959 0.223353 0.016167
0.661122 0.237376 0.016856
0.681474 0.251870 0.017556
0.701188 0.266837 0.018264
0.720951 0.282281 0.019116
0.740763 0.298205 0.020166
0.760623 0.312875 0.021246
0.780528 0.326718 0.022357
0.800479 0.340834 0.023696
0.820474 0.355222 0.025252
0.840513 0.369882 0.026873
0.860595 0.384811 0.028560
0.880718 0.400010 0.030331
0.900883 0.415477 0.032325
0.921087 0.431211 0.034406
0.940639 0.447212 0.036577
0.953035 0.463478 0.038973
0.965354 0.480010 0.041561
0.977597 0.496805 0.044267
0.989767 0.513864 0.047094
1.000000 0.530821 0.050047
1.000000 0.545009 0.053127
1.000000 0.559319 0.056257
1.000000 0.573750 0.059509
1.000000 0.588302 0.062891
1.000000 0.602974 0.066403
1.000000 0.617764 0.070051
1.000000 0.632671 0.073835
1.000000 0.647695 0.077616
0.018066 0.010120 0.011574
0.018066 0.010120 0.011574
0.018066 0.010120 0.011574
0.018086 0.010120 0.011574
0.018168 0.010120 0.011574
0.018496 0.010120 0.011574
0.018876 0.010201 0.011574
0.019593 0.010358 0.011574
0.021123 0.010567 0.011574
0.023732 0.010879 0.011574
0.028768 0.011322 0.011574
0.036272 0.011918 0.011574
0.046084 0.012848 0.011574
0.059506 0.013769 0.011574
0.076806 0.015290 0.011593
0.096797 0.016878 0.011656
0.118171 0.019690 0.011714
0.142165 0.023006 0.011770
0.162995 0.027325 0.011827
0.185501 0.032581 0.011907
0.209719 0.038501 0.011983
0.235682 0.045204 0.012057
0.259437 0.052852 0.012127
0.283407 0.061370 0.012274
0.308428 0.070810 0.012470
0.334501 0.080451 0.012662
0.361626 0.090556 0.012849
0.386431 0.101478 0.013031
0.411140 0.113250 0.013210
0.436479 0.125496 0.013384
0.462441 0.138336 0.013706
0.489020 0.152004 0.014030
0.516209 0.166526 0.014352
0.544004 0.181924 0.014695
0.572399 0.196917 0.015159
0.601388 0.210007 0.015624
0.630966 0.223561 0.016168
0.661128 0.237584 0.016858
0.681478 0.252078 0.017557
0.701192 0.267046 0.018266
0.720956 0.282490 0.019118
0.740767 0.298413 0.020168
0.760626 0.313047 0.021248
0.780532 0.326889 0.022359
0.800483 0.341003 0.023698
0.820478 0.355390 0.025255
0.840517 0.370048 0.026876
0.860598 0.384976 0.028562
0.880722 0.400174 0.030334
0.900886 0.415639 0.032328
0.921091 0.431372 0.034410
0.940641 0.447372 0.036580
0.953037 0.463638 0.038977
0.965356 0.480168 0.041564
0.977599 0.496962 0.044270
0.989769 0.514020 0.047098
1.000000 0.530946 0.050051
1.000000 0.545133 0.053131
1.000000 0.559441 0.056261
1.000000 0.573871 0.059513
1.000000 0.588422 0.062895
1.000000 0.603092 0.066408
1.000000 0.617881 0.070055
1.000000 0.632787 0.073839
1.000000 0.647809 0.077620
0.018066 0.010120 0.011574
0.018066 0.010120 0.011574
0.018066 0.010120 0.011574
0.018087 0.010120 0.011574
0.018169 0.010120 0.011574
0.018499 0.010164 0.011574
0.018881 0.010234 0.011574
0.019603 0.010439 0.011574
0.021131 0.010630 0.011574
0.023746 0.011006 0.011574
0.028792 0.011428 0.011574
0.036303 0.012126 0.011574
0.046122 0.013033 0.011574
0.059548 0.014029 0.011574
0.076857 0.015552 0.011595
0.096845 0.017128 0.011657
0.118222 0.020144 0.011715
0.142206 0.023470 0.011771
0.163037 0.027942 0.011828
0.185544 0.033234 0.011908
0.209762 0.039191 0.011985
0.235726 0.045954 0.012058
0.259473 0.053645 0.012128
0.283442 0.062204 0.012276
0.308463 0.071687 0.012473
0.334536 0.081267 0.012664
0.361661 0.091399 0.012851
0.386460 0.102348 0.013033
0.411169 0.114145 0.013212
0.436508 0.126371 0.013386
0.462469 0.139231 0.013709
0.489047 0.152919 0.014033
0.516236 0.167460 0.014355
0.544031 0.182878 0.014699
0.572425 0.197664 0.015163
0.601413 0.210754 0.015628
0.630991 0.224309 0.016174
0.661154 0.238332 0.016863
0.681494 0.252827 0.017562
0.701208 0.267795 0.018271
0.720970 0.283239 0.019125
0.740782 0.299163 0.020175
0.760640 0.313665 0.021255
0.780546 0.327501 0.022366
0.800496 0.341611 0.023708
0.820491 0.355993 0.025264
0.840529 0.370646 0.026885
0.860611 0.385570 0.028572
0.880734 0.400762 0.030345
0.900898 0.416224 0.032339
0.921102 0.431953 0.034421
0.940648 0.447948 0.036591
0.953044 0.464210 0.038989
0.965363 0.480736 0.041577
0.977606 0.497527 0.044284
0.989775 0.514581 0.047112
1.000000 0.531397 0.050064
1.000000 0.545578 0.053145
1.000000 0.559881 0.056275
1.000000 0.574306 0.059528
1.000000 0.588851 0.062909
1.000000 0.603516 0.066422
1.000000 0.618300 0.070070
1.000000 0.633201 0.073854
1.000000 0.648219 0.077634
0.018066 0.010120 0.011574
0.018066 0.010120 0.011574
0.018066 0.010120 0.011574
0.018090 0.010127 0.011574
0.018173 0.010177 0.011574
0.018504 0.010231 0.011574
0.018891 0.010397 0.011574
0.019620 0.010569 0.011574
0.021145 0.010823 0.011574
0.023772 0.011224 0.011574
0.028837 0.011626 0.011574
0.036360 0.012493 0.011574
0.046194 0.013364 0.011574
0.059626 0.014531 0.011574
0.076951 0.016028 0.011597
0.096935 0.017947 0.011659
0.118316 0.020982 0.011718
0.142283 0.024353 0.011773
0.163115 0.029089 0.011831
0.185622 0.034447 0.011911
0.209841 0.040470 0.011987
0.235806 0.047347 0.012060
0.259539 0.055113 0.012130
0.283508 0.063750 0.012281
0.308528 0.073310 0.012477
0.334601 0.082775 0.012668
0.361724 0.092956 0.012855
0.386514 0.103953 0.013037
0.411222 0.115799 0.013215
0.436560 0.127984 0.013389
0.462520 0.140881 0.013715
0.489098 0.154606 0.014039
0.516286 0.169183 0.014360
0.544080 0.184637 0.014706
0.572473 0.199038 0.015170
0.601461 0.212129 0.015635
0.631038 0.225685 0.016183
0.661200 0.239709 0.016873
0.681523 0.254204 0.017571
0.701236 0.269173 0.018280
0.720998 0.284619 0.019138
0.740808 0.300543 0.020188
0.760666 0.314801 0.021268
0.780571 0.328628 0.022379
0.800521 0.342728 0.023725
0.820515 0.357101 0.025281
0.840553 0.371746 0.026903
0.860633 0.386661 0.028590
0.880756 0.401845 0.030364
0.900920 0.417299 0.032359
0.921124 0.433020 0.034441
0.940661 0.449008 0.036612
0.953056 0.465262 0.039013
0.965375 0.481781 0.041601
0.977617 0.498565 0.044308
0.989787 0.515612 0.047136
1.000000 0.532226 0.050090
1.000000 0.546397 0.053171
1.000000 0.560690 0.056300
1.000000 0.575105 0.059554
1.000000 0.589641 0.062936
1.000000 0.604297 0.066450
1.000000 0.619072 0.070097
1.000000 0.633964 0.073882
1.000000 0.648974 0.077660
0.018066 0.010191 0.011574
0.018066 0.010195 0.011574
0.018066 0.010210 0.011574
0.018094 0.010234 0.011574
0.018184 0.010337 0.011574
0.018512 0.010460 0.011574
0.018904 0.010594 0.011574
0.019646 0.010815 0.011574
0.021166 0.011165 0.011574
0.023810 0.011516 0.011574
0.028903 0.012204 0.011574
0.036445 0.013015 0.011574
0.046301 0.013865 0.011574
0.059742 0.015265 0.011574
0.077091 0.016727 0.011602
0.097068 0.019183 0.011663
0.118458 0.022247 0.011721
0.142398 0.026000 0.011775
0.163231 0.030834 0.011835
0.185740 0.036289 0.011914
0.209960 0.042409 0.011990
0.235926 0.049457 0.012063
0.259638 0.057336 0.012132
0.283606 0.066086 0.012288
0.308626 0.075576 0.012484
0.334697 0.085045 0.012675
0.361820 0.095298 0.012861
0.386595 0.106367 0.013042
0.411301 0.118257 0.013220
0.436637 0.130406 0.013396
0.462597 0.143358 0.013723
0.489173 0.157137 0.014047
0.516360 0.171769 0.014368
0.544153 0.187276 0.014717
0.572545 0.201094 0.015181
0.601532 0.214186 0.015645
0.631108 0.227744 0.016198
0.661269 0.241769 0.016887
0.681566 0.256265 0.017586
0.701278 0.271236 0.018294
0.721038 0.286682 0.019157
0.740848 0.302608 0.020207
0.760705 0.316498 0.021288
0.780608 0.330311 0.022399
0.800557 0.344398 0.023750
0.820551 0.358758 0.025307
0.840588 0.373389 0.026929
0.860668 0.388292 0.028617
0.880789 0.403464 0.030394
0.900952 0.418906 0.032389
0.921156 0.434615 0.034472
0.940680 0.450592 0.036643
0.953075 0.466835 0.039047
0.965393 0.483344 0.041637
0.977635 0.500117 0.044344
0.989804 0.517154 0.047174
1.000000 0.533465 0.050128
1.000000 0.547620 0.053210
1.000000 0.561899 0.056339
1.000000 0.576299 0.059593
1.000000 0.590821 0.062976
1.000000 0.605463 0.066490
1.000000 0.620225 0.070139
1.000000 0.635104 0.073924
1.000000 0.650101 0.077699
0.018066 0.010445 0.011574
0.018066 0.010453 0.011574
0.018066 0.010484 0.011574
0.018100 0.010537 0.011574
0.018200 0.010610 0.011574
0.018522 0.010735 0.011574
0.018922 0.010990 0.011574
0.019681 0.011268 0.011574
0.021194 0.011561 0.011574
0.023862 0.012201 0.011574
0.028992 0.012925 0.011574
0.036560 0.013673 0.011574
0.046446 0.014876 0.011574
0.059899 0.016229 0.011574
0.077280 0.018071 0.011607
0.097248 0.020872 0.011668
0.118649 0.023972 0.011725
0.142554 0.028282 0.011779
0.163389 0.033242 0.011840
0.185899 0.038826 0.011919
0.210120 0.045148 0.011994
0.236088 0.052358 0.012066
0.259772 0.060388 0.012136
0.283738 0.069289 0.012298
0.308757 0.078573 0.012493
0.334827 0.088138 0.012683
0.361949 0.098487 0.012869
0.386704 0.109652 0.013050
0.411408 0.121472 0.013227
0.436742 0.133695 0.013409
0.462700 0.146721 0.013735
0.489274 0.160573 0.014058
0.516460 0.175277 0.014378
0.544251 0.190856 0.014732
0.572642 0.203872 0.015195
0.601627 0.216966 0.015659
0.631202 0.230525 0.016218
0.661362 0.244553 0.016906
0.681625 0.259051 0.017605
0.701334 0.274022 0.018313
0.721094 0.289471 0.019184
0.740902 0.305271 0.020234
0.760757 0.318790 0.021314
0.780659 0.332583 0.022425
0.800607 0.346652 0.023785
0.820599 0.360994 0.025343
0.840635 0.375608 0.026965
0.860714 0.390494 0.028653
0.880834 0.405650 0.030434
0.900996 0.421075 0.032430
0.921199 0.436769 0.034513
0.940706 0.452731 0.036685
0.953100 0.468960 0.039094
0.965417 0.485454 0.041685
0.977659 0.502213 0.044393
0.989827 0.519237 0.047224
1.000000 0.535138 0.050179
1.000000 0.549272 0.053261
1.000000 0.563530 0.056391
1.000000 0.577911 0.059646
1.000000 0.592414 0.063030
1.000000 0.607038 0.066545
1.000000 0.621781 0.070195
1.000000 0.636644 0.073981
1.000000 0.651623 0.077751
0.018066 0.010844 0.011574
0.018066 0.010859 0.011574
0.018066 0.010912 0.011574
0.018106 0.011007 0.011574
0.018220 0.011143 0.011574
0.018534 0.011314 0.011574
0.018945 0.011516 0.011574
0.019726 0.011924 0.011574
0.021230 0.012493 0.011574
0.023929 0.013108 0.011574
0.029106 0.013761 0.011574
0.036706 0.014886 0.011574
0.046631 0.016113 0.011574
0.060099 0.017643 0.011574
0.077521 0.020204 0.011614
0.097478 0.023050 0.011674
0.118892 0.026739 0.011730
0.142752 0.031273 0.011784
0.163589 0.036390 0.011847
0.186101 0.042133 0.011925
0.210325 0.048735 0.012000
0.236294 0.056131 0.012071
0.259942 0.064347 0.012140
0.283907 0.073439 0.012311
0.308924 0.082430 0.012505
0.334993 0.092116 0.012694
0.362113 0.102585 0.012878
0.386842 0.113870 0.013059
0.411544 0.125591 0.013236
0.436876 0.137907 0.013424
0.462831 0.151024 0.013750
0.489404 0.164968 0.014072
0.516587 0.179763 0.014392
0.544376 0.194772 0.014751
0.572765 0.207407 0.015213
0.601749 0.220503 0.015676
0.631322 0.234064 0.016243
0.661480 0.248093 0.016931
0.681699 0.262594 0.017629
0.701406 0.277567 0.018336
0.721164 0.293018 0.019217
0.740970 0.308206 0.020267
0.760824 0.321699 0.021348
0.780724 0.335469 0.022458
0.800670 0.349514 0.023829
0.820661 0.363834 0.025387
0.840695 0.378426 0.027010
0.860772 0.393291 0.028699
0.880892 0.408426 0.030485
0.901052 0.423832 0.032482
0.921253 0.439506 0.034566
0.940739 0.455449 0.036739
0.953132 0.471659 0.039154
0.965448 0.488135 0.041746
0.977689 0.504877 0.044456
0.989856 0.521883 0.047288
1.000000 0.537261 0.050244
1.000000 0.551369 0.053326
1.000000 0.565602 0.056457
1.000000 0.579958 0.059713
1.000000 0.594437 0.063099
1.000000 0.609038 0.066615
1.000000 0.623759 0.070266
1.000000 0.638599 0.074054
1.000000 0.653557 0.077818
0.018066 0.011508 0.011574
0.018066 0.011519 0.011574
0.018066 0.011560 0.011574
0.018114 0.011672 0.011574
0.018243 0.011913 0.011574
0.018549 0.012227 0.011574
0.018973 0.012609 0.011574
0.019780 0.013054 0.011574
0.021274 0.013553 0.011574
0.024009 0.014304 0.011574
0.029245 0.015303 0.011574
0.036885 0.016389 0.011574
0.046857 0.017908 0.011574
0.060343 0.020246 0.011574
0.077816 0.022857 0.011623
0.097759 0.026171 0.011681
0.119189 0.030342 0.011737
0.142994 0.035058 0.011790
0.163833 0.040360 0.011855
0.186348 0.046403 0.011932
0.210574 0.053246 0.012006
0.236546 0.060862 0.012077
0.260150 0.069302 0.012146
0.284113 0.078130 0.012326
0.309128 0.087209 0.012518
0.335195 0.097039 0.012707
0.362314 0.107652 0.012891
0.387011 0.119015 0.013070
0.411710 0.130666 0.013246
0.437039 0.143093 0.013443
0.462992 0.156322 0.013768
0.489562 0.170376 0.014089
0.516743 0.185279 0.014408
0.544530 0.199088 0.014774
0.572916 0.211725 0.015235
0.601898 0.224824 0.015698
0.631469 0.238388 0.016274
0.661625 0.252420 0.016961
0.681789 0.266923 0.017658
0.701494 0.281899 0.018365
0.721249 0.297352 0.019258
0.741053 0.311783 0.020308
0.760905 0.325247 0.021388
0.780803 0.338988 0.022499
0.800747 0.353005 0.023883
0.820736 0.367298 0.025442
0.840769 0.381864 0.027065
0.860844 0.396702 0.028755
0.880962 0.411813 0.030547
0.901121 0.427194 0.032545
0.921320 0.442845 0.034630
0.940779 0.458765 0.036804
0.953171 0.474952 0.039227
0.965486 0.491407 0.041821
0.977726 0.508127 0.044532
0.989892 0.525112 0.047366
1.000000 0.539849 0.050324
1.000000 0.553926 0.053406
1.000000 0.568128 0.056538
1.000000 0.582455 0.059796
1.000000 0.596905 0.063182
1.000000 0.611477 0.066700
1.000000 0.626170 0.070353
1.000000 0.640984 0.074142
1.000000 0.655916 0.077900
0.018066 0.012799 0.011574
0.018066 0.012820 0.011574
0.018066 0.012897 0.011574
0.018122 0.013036 0.011574
0.018269 0.013240 0.011574
0.018566 0.013509 0.011574
0.019006 0.013869 0.011574
0.019843 0.014516 0.011574
0.021325 0.015267 0.011574
0.024105 0.016114 0.011574
0.029410 0.017055 0.011574
0.037097 0.018880 0.011574
0.047126 0.021010 0.011574
0.060634 0.023401 0.011574
0.078166 0.026575 0.011633
0.098092 0.030437 0.011690
0.119542 0.034809 0.011744
0.143281 0.039731 0.011796
0.164123 0.045321 0.011865
0.186641 0.051686 0.011941
0.210870 0.058778 0.012014
0.236845 0.066648 0.012084
0.260397 0.075206 0.012152
0.284357 0.083732 0.012343
0.309370 0.092977 0.012535
0.335435 0.102973 0.012722
0.362552 0.113753 0.012905
0.387212 0.124971 0.013084
0.411907 0.136752 0.013259
0.437233 0.149308 0.013466
0.463182 0.162666 0.013789
0.489749 0.176848 0.014110
0.516928 0.191879 0.014428
0.544711 0.204213 0.014801
0.573096 0.216853 0.015262
0.602075 0.229955 0.015723
0.631643 0.243522 0.016310
0.661797 0.257557 0.016997
0.681897 0.272063 0.017693
0.701599 0.287042 0.018400
0.721351 0.302498 0.019307
0.741152 0.316019 0.020357
0.761001 0.329448 0.021437
0.780897 0.343156 0.022548
0.800839 0.357141 0.023947
0.820825 0.371401 0.025507
0.840856 0.385937 0.027131
0.860929 0.400745 0.028822
0.881045 0.415827 0.030621
0.901202 0.431180 0.032620
0.921400 0.446803 0.034707
0.940827 0.462695 0.036882
0.953217 0.478856 0.039314
0.965531 0.495285 0.041909
0.977769 0.511980 0.044623
0.989934 0.528941 0.047459
1.000000 0.542914 0.050419
1.000000 0.556954 0.053500
1.000000 0.571120 0.056634
1.000000 0.585411 0.059894
1.000000 0.599827 0.063282
1.000000 0.614366 0.066802
1.000000 0.629027 0.070456
1.000000 0.643809 0.074247
1.000000 0.658711 0.077997
0.018066 0.014445 0.011574
0.018066 0.014476 0.011574
0.018066 0.014587 0.011574
0.018132 0.014789 0.011574
0.018299 0.015090 0.011574
0.018586 0.015491 0.011574
0.019043 0.015993 0.011574
0.019916 0.016596 0.011574
0.021385 0.017432 0.011574
0.024215 0.018894 0.011574
0.029601 0.020585 0.011574
0.037344 0.022517 0.011574
0.047439 0.024825 0.011574
0.060972 0.027978 0.011585
0.078574 0.031574 0.011644
0.098480 0.035650 0.011700
0.119953 0.040244 0.011753
0.143614 0.045477 0.011804
0.164461 0.051429 0.011876
0.186982 0.058067 0.011951
0.211214 0.065440 0.012023
0.237192 0.073598 0.012092
0.260684 0.081659 0.012169
0.284641 0.090371 0.012364
0.309652 0.099803 0.012554
0.335714 0.109987 0.012740
0.362829 0.120798 0.012921
0.387445 0.131975 0.013099
0.412137 0.143903 0.013273
0.437458 0.156607 0.013492
0.463404 0.170110 0.013814
0.489967 0.184438 0.014133
0.517142 0.197984 0.014450
0.544923 0.210169 0.014833
0.573304 0.222813 0.015292
0.602280 0.235919 0.015753
0.631846 0.249489 0.016352
0.661996 0.263528 0.017038
0.682022 0.278037 0.017734
0.701720 0.293019 0.018440
0.721469 0.307818 0.019363
0.741267 0.320927 0.020413
0.761113 0.334317 0.021493
0.781006 0.347987 0.022604
0.800945 0.361934 0.024021
0.820929 0.376158 0.025582
0.840957 0.390658 0.027208
0.861028 0.405433 0.028899
0.881142 0.420481 0.030706
0.901297 0.435801 0.032708
0.921492 0.451392 0.034796
0.940882 0.467254 0.036973
0.953271 0.483385 0.039415
0.965583 0.499784 0.042013
0.977820 0.516450 0.044729
0.989984 0.532598 0.047567
1.000000 0.546466 0.050529
1.000000 0.560462 0.053610
1.000000 0.574587 0.056746
1.000000 0.588838 0.060008
1.000000 0.603215 0.063398
1.000000 0.617716 0.066920
1.000000 0.632339 0.070576
1.000000 0.647085 0.074370
1.000000 0.661951 0.078109
0.018066 0.016815 0.011574
0.018066 0.016844 0.011574
0.018079 0.016946 0.011574
0.018142 0.017139 0.011574
0.018331 0.017640 0.011574
0.018608 0.018322 0.011574
0.019085 0.019193 0.011574
0.019999 0.020266 0.011574
0.021452 0.021551 0.011574
0.024341 0.023058 0.011574
0.029820 0.024949 0.011574
0.037627 0.027502 0.011574
0.047797 0.030443 0.011574
0.061360 0.033804 0.011599
0.079041 0.037621 0.011656
0.098924 0.041927 0.011711
0.120423 0.046890 0.011763
0.143995 0.052486 0.011812
0.164846 0.058730 0.011888
0.187372 0.065669 0.011962
0.211608 0.073352 0.012033
0.237589 0.080982 0.012102
0.261011 0.089207 0.012194
0.284966 0.098123 0.012387
0.309973 0.107762 0.012575
0.336033 0.118133 0.012760
0.363145 0.128747 0.012940
0.387712 0.140088 0.013117
0.412398 0.152179 0.013289
0.437715 0.165046 0.013521
0.463657 0.178712 0.013842
0.490216 0.193054 0.014160
0.517387 0.204788 0.014476
0.545164 0.216977 0.014869
0.573542 0.229625 0.015327
0.602514 0.242735 0.015787
0.632077 0.256309 0.016400
0.662224 0.270351 0.017085
0.682165 0.284864 0.017781
0.701859 0.299850 0.018486
0.721604 0.313454 0.019428
0.741398 0.326518 0.020477
0.761241 0.339864 0.021558
0.781131 0.353490 0.022668
0.801067 0.367396 0.024106
0.821048 0.381580 0.025668
0.841073 0.396040 0.027295
0.861141 0.410776 0.028988
0.881252 0.425787 0.030804
0.901405 0.441070 0.032808
0.921598 0.456626 0.034898
0.940945 0.472452 0.037076
0.953333 0.488549 0.039531
0.965643 0.504914 0.042131
0.977878 0.521548 0.044850
0.990040 0.536692 0.047690
1.000000 0.550510 0.050655
1.000000 0.564459 0.053735
1.000000 0.578536 0.056873
1.000000 0.592742 0.060138
1.000000 0.607074 0.063530
1.000000 0.621532 0.067055
1.000000 0.636114 0.070713
1.000000 0.650818 0.074509
1.000000 0.665645 0.078238
0.018066 0.021195 0.011574
0.018066 0.021247 0.011574
0.018095 0.021435 0.011574
0.018152 0.021781 0.011574
0.018366 0.022301 0.011574
0.018632 0.023005 0.011574
0.019131 0.023906 0.011574
0.020090 0.025225 0.011574
0.021527 0.026927 0.011574
0.024482 0.028950 0.011574
0.030066 0.031319 0.011574
0.037946 0.034062 0.011574
0.048202 0.037209 0.011574
0.061797 0.040791 0.011615
0.079569 0.044904 0.011670
0.099425 0.049614 0.011722
0.120953 0.054898 0.011773
0.144425 0.060797 0.011827
0.165281 0.067357 0.011902
0.187811 0.074556 0.011974
0.212051 0.081704 0.012044
0.238037 0.089486 0.012112
0.261380 0.097930 0.012222
0.285331 0.107068 0.012413
0.310336 0.116931 0.012599
0.336393 0.127058 0.012782
0.363501 0.137850 0.012961
0.388012 0.149369 0.013136
0.412693 0.161639 0.013308
0.438005 0.174684 0.013555
0.463942 0.188529 0.013874
0.490497 0.200723 0.014190
0.517663 0.212462 0.014505
0.545436 0.224656 0.014909
0.573810 0.237308 0.015366
0.602778 0.250422 0.015824
0.632337 0.264001 0.016454
0.662482 0.278047 0.017139
0.682326 0.292564 0.017833
0.702015 0.307055 0.018537
0.721756 0.319785 0.019500
0.741546 0.332799 0.020550
0.761385 0.346097 0.021630
0.781271 0.359676 0.022741
0.801204 0.373536 0.024202
0.821181 0.387675 0.025766
0.841203 0.402091 0.027394
0.861269 0.416785 0.029088
0.881377 0.431753 0.030915
0.901526 0.446996 0.032920
0.921717 0.462512 0.035012
0.941017 0.478300 0.037193
0.953402 0.494359 0.039661
0.965711 0.510687 0.042264
0.977944 0.527285 0.044986
0.990104 0.541291 0.047829
1.000000 0.555053 0.050797
1.000000 0.568948 0.053876
1.000000 0.582974 0.057017
1.000000 0.597129 0.060284
1.000000 0.611412 0.063680
1.000000 0.625822 0.067207
1.000000 0.640357 0.070868
1.000000 0.655016 0.074667
1.000000 0.669797 0.078384
0.018066 0.027177 0.011574
0.018071 0.027247 0.011574
0.018111 0.027499 0.011574
0.018162 0.027965 0.011574
0.018403 0.028666 0.011574
0.018658 0.029623 0.011574
0.019181 0.030855 0.011574
0.020191 0.032382 0.011574
0.021643 0.034226 0.011574
0.024638 0.036410 0.011574
0.030341 0.038959 0.011574
0.038302 0.041899 0.011574
0.048655 0.045338 0.011577
0.062286 0.049282 0.011631
0.080160 0.053736 0.011684
0.099985 0.058740 0.011735
0.121546 0.064332 0.011785
0.144905 0.070555 0.011843
0.165766 0.077087 0.011917
0.188301 0.083852 0.011988
0.212546 0.091225 0.012057
0.238536 0.099236 0.012123
0.261792 0.107914 0.012253
0.285739 0.117289 0.012441
0.310740 0.126910 0.012626
0.336793 0.137189 0.012807
0.363899 0.148172 0.012984
0.388347 0.159882 0.013158
0.413022 0.172344 0.013328
0.438329 0.185583 0.013591
0.464260 0.197989 0.013909
0.490809 0.209280 0.014224
0.517971 0.221024 0.014537
0.545739 0.233222 0.014954
0.574109 0.245880 0.015410
0.603073 0.258998 0.015867
0.632628 0.272582 0.016515
0.662768 0.286633 0.017198
0.682505 0.301154 0.017891
0.702190 0.314142 0.018594
0.721926 0.326816 0.019581
0.741711 0.339777 0.020631
0.761546 0.353022 0.021711
0.781428 0.366550 0.022822
0.801356 0.380360 0.024309
0.821330 0.394450 0.025874
0.841349 0.408819 0.027504
0.861411 0.423466 0.029199
0.881515 0.438389 0.031039
0.901662 0.453587 0.033046
0.921850 0.469060 0.035141
0.941097 0.484805 0.037324
0.953479 0.500822 0.039807
0.965786 0.517110 0.042413
0.978017 0.532830 0.045138
0.990175 0.546397 0.047985
1.000000 0.560099 0.050956
1.000000 0.573936 0.054034
1.000000 0.587904 0.057178
1.000000 0.602004 0.060448
1.000000 0.616233 0.063847
1.000000 0.630589 0.067377
1.000000 0.645073 0.071041
1.000000 0.659682 0.074843
1.000000 0.674414 0.078546
0.018080 0.035298 0.011574
0.018092 0.035375 0.011574
0.018126 0.035649 0.011574
0.018187 0.036156 0.011574
0.018442 0.036918 0.011574
0.018685 0.037957 0.011574
0.019235 0.039291 0.011574
0.020301 0.040942 0.011574
0.021835 0.042932 0.011574
0.024912 0.045357 0.011574
0.030645 0.048184 0.011574
0.038697 0.051441 0.011574
0.049156 0.055161 0.011596
0.062860 0.059376 0.011649
0.080814 0.064120 0.011700
0.100605 0.069432 0.011749
0.122201 0.075207 0.011797
0.145435 0.081058 0.011861
0.166302 0.087467 0.011933
0.188842 0.094462 0.012002
0.213093 0.102071 0.012070
0.239088 0.110324 0.012135
0.262247 0.119175 0.012286
0.286190 0.128315 0.012473
0.311186 0.138113 0.012655
0.337236 0.148593 0.012834
0.364338 0.159779 0.013009
0.388717 0.171693 0.013182
0.413386 0.184361 0.013351
0.438686 0.196597 0.013632
0.464611 0.207445 0.013947
0.491155 0.218741 0.014261
0.518312 0.230490 0.014572
0.546075 0.242694 0.015004
0.574439 0.255356 0.015458
0.603399 0.268480 0.015913
0.632949 0.282068 0.016581
0.663077 0.296124 0.017263
