velvia_classic/Velvia50_Soft.cube
TITLE "Velvia 50 Soft"
# Adobe RGB in/out. REPLACES AgX. Velvia 50 color reversal.
LUT_3D_SIZE 65
DOMAIN_MIN 0.0 0.0 0.0
DOMAIN_MAX 1.0 1.0 1.0
0.050851 0.034289 0.037567
0.050851 0.034289 0.037567
0.050851 0.034289 0.037567
0.050851 0.034289 0.037567
0.050976 0.034289 0.037567
0.051304 0.034289 0.037567
0.051830 0.034425 0.037567
0.052598 0.034690 0.037567
0.053859 0.035180 0.037567
0.056345 0.035705 0.037567
0.060129 0.036705 0.037567
0.066620 0.037640 0.037567
0.075935 0.039636 0.037567
0.087746 0.041565 0.037567
0.101874 0.044171 0.037608
0.118351 0.047263 0.037746
0.138059 0.051411 0.037875
0.158485 0.057183 0.037997
0.178721 0.063517 0.038122
0.200236 0.071623 0.038298
0.218958 0.080266 0.038465
0.237046 0.089454 0.038625
0.255682 0.099445 0.038777
0.274856 0.110109 0.039095
0.294561 0.121389 0.039520
0.311497 0.133224 0.039932
0.328459 0.144410 0.040332
0.345651 0.156058 0.040721
0.363069 0.168171 0.041099
0.380708 0.180750 0.041467
0.397900 0.193205 0.042141
0.413312 0.206007 0.042818
0.428803 0.219210 0.043483
0.444372 0.232814 0.044186
0.460015 0.246817 0.045131
0.475732 0.259599 0.046068
0.491520 0.270889 0.047152
0.507379 0.282341 0.048511
0.523305 0.293952 0.049870
0.539298 0.305721 0.051231
0.555357 0.317644 0.052842
0.571479 0.329721 0.054800
0.587665 0.341950 0.056779
0.598650 0.353099 0.058781
0.609013 0.363403 0.061152
0.619317 0.373765 0.063856
0.629563 0.384186 0.066615
0.639752 0.394664 0.069431
0.649887 0.405197 0.072330
0.659968 0.415786 0.075531
0.669998 0.426430 0.078805
0.679976 0.437127 0.082151
0.689906 0.447877 0.085774
0.699787 0.458679 0.089607
0.709620 0.469532 0.093534
0.719408 0.480436 0.097557
0.729151 0.491390 0.101675
0.738849 0.502393 0.105890
0.747856 0.511929 0.110092
0.753741 0.520874 0.114382
0.759571 0.529822 0.118762
0.765350 0.538771 0.123233
0.771077 0.547722 0.127796
0.776754 0.556676 0.132451
0.782383 0.565631 0.137026
0.050851 0.034289 0.037567
0.050851 0.034289 0.037567
0.050851 0.034289 0.037567
0.050851 0.034289 0.037567
0.050978 0.034289 0.037567
0.051311 0.034289 0.037567
0.051835 0.034448 0.037567
0.052608 0.034745 0.037567
0.053878 0.035221 0.037567
0.056361 0.035786 0.037567
0.060157 0.036771 0.037567
0.066665 0.037767 0.037567
0.075987 0.039746 0.037567
0.087797 0.041662 0.037567
0.101935 0.044315 0.037609
0.118417 0.047395 0.037747
0.138126 0.051636 0.037876
0.158545 0.057401 0.037998
0.178781 0.063788 0.038123
0.200295 0.071894 0.038298
0.219003 0.080538 0.038466
0.237089 0.089726 0.038625
0.255724 0.099727 0.038778
0.274897 0.110392 0.039097
0.294601 0.121673 0.039522
0.311530 0.133479 0.039934
0.328490 0.144663 0.040334
0.345682 0.156310 0.040722
0.363099 0.168422 0.041100
0.380736 0.181000 0.041468
0.397924 0.193441 0.042143
0.413335 0.206241 0.042819
0.428826 0.219442 0.043484
0.444393 0.233044 0.044188
0.460036 0.247046 0.045133
0.475752 0.259774 0.046070
0.491540 0.271060 0.047155
0.507398 0.282509 0.048513
0.523324 0.294117 0.049873
0.539316 0.305883 0.051233
0.555374 0.317803 0.052846
0.571497 0.329878 0.054803
0.587681 0.342104 0.056783
0.598660 0.353224 0.058785
0.609023 0.363525 0.061157
0.619327 0.373885 0.063860
0.629572 0.384303 0.066620
0.639762 0.394778 0.069435
0.649896 0.405310 0.072335
0.659977 0.415897 0.075536
0.670006 0.426538 0.078810
0.679985 0.437233 0.082156
0.689914 0.447981 0.085780
0.699794 0.458781 0.089612
0.709628 0.469633 0.093539
0.719415 0.480535 0.097562
0.729158 0.491487 0.101680
0.738856 0.502488 0.105895
0.747861 0.512005 0.110097
0.753745 0.520949 0.114387
0.759575 0.529894 0.118767
0.765353 0.538842 0.123238
0.771081 0.547792 0.127801
0.776758 0.556744 0.132456
0.782386 0.565698 0.137031
0.050851 0.034289 0.037567
0.050851 0.034289 0.037567
0.050851 0.034289 0.037567
0.050851 0.034289 0.037567
0.050987 0.034289 0.037567
0.051338 0.034364 0.037567
0.051853 0.034524 0.037567
0.052643 0.034929 0.037567
0.053947 0.035364 0.037567
0.056417 0.036069 0.037567
0.060257 0.037004 0.037567
0.066826 0.038210 0.037567
0.076177 0.040133 0.037567
0.087981 0.042004 0.037567
0.102153 0.044828 0.037613
0.118657 0.047867 0.037750
0.138369 0.052439 0.037878
0.158759 0.058183 0.038000
0.178994 0.064760 0.038126
0.200507 0.072867 0.038301
0.219163 0.081512 0.038468
0.237245 0.090702 0.038627
0.255876 0.100737 0.038780
0.275045 0.111406 0.039102
0.294745 0.122691 0.039527
0.311646 0.134395 0.039939
0.328602 0.145574 0.040338
0.345790 0.157216 0.040726
0.363204 0.169324 0.041104
0.380839 0.181896 0.041472
0.398009 0.194288 0.042150
0.413417 0.207081 0.042826
0.428905 0.220276 0.043490
0.444470 0.233871 0.044197
0.460111 0.247868 0.045141
0.475825 0.260399 0.046077
0.491610 0.271674 0.047166
0.507466 0.283111 0.048524
0.523390 0.294709 0.049883
0.539381 0.306464 0.051243
0.555438 0.318374 0.052860
0.571558 0.330439 0.054816
0.587741 0.342656 0.056796
0.598698 0.353672 0.058798
0.609059 0.363963 0.061173
0.619362 0.374314 0.063876
0.629606 0.384723 0.066636
0.639794 0.395190 0.069451
0.649928 0.405714 0.072352
0.660008 0.416293 0.075553
0.670036 0.426927 0.078827
0.680014 0.437614 0.082174
0.689942 0.448355 0.085799
0.699822 0.459149 0.089631
0.709655 0.469994 0.093558
0.719441 0.480890 0.097581
0.729183 0.491836 0.101699
0.738881 0.502831 0.105914
0.747875 0.512277 0.110116
0.753759 0.521216 0.114405
0.759589 0.530156 0.118786
0.765367 0.539099 0.123257
0.771094 0.548044 0.127820
0.776771 0.556992 0.132475
0.782399 0.565941 0.137048
0.050851 0.034289 0.037567
0.050851 0.034289 0.037567
0.050851 0.034289 0.037567
0.050864 0.034289 0.037567
0.051001 0.034393 0.037567
0.051386 0.034517 0.037567
0.051886 0.034832 0.037567
0.052707 0.035224 0.037567
0.054074 0.035657 0.037567
0.056519 0.036550 0.037567
0.060441 0.037406 0.037567
0.067120 0.038992 0.037567
0.076526 0.040821 0.037567
0.088320 0.042801 0.037567
0.102554 0.045753 0.037619
0.119097 0.048721 0.037755
0.138815 0.053908 0.037883
0.159154 0.059615 0.038004
0.179386 0.066550 0.038132
0.200897 0.074659 0.038307
0.219458 0.083306 0.038473
0.237532 0.092528 0.038632
0.256155 0.102597 0.038784
0.275318 0.113274 0.039113
0.295011 0.124566 0.039537
0.311859 0.136080 0.039947
0.328809 0.147249 0.040346
0.345990 0.158882 0.040734
0.363398 0.170981 0.041111
0.381027 0.183466 0.041479
0.398166 0.195844 0.042162
0.413569 0.208625 0.042837
0.429051 0.221808 0.043501
0.444612 0.235393 0.044212
0.460248 0.249378 0.045155
0.475958 0.261549 0.046091
0.491740 0.272802 0.047185
0.507592 0.284218 0.048542
0.523513 0.295795 0.049901
0.539500 0.307531 0.051261
0.555554 0.319424 0.052884
0.571671 0.331471 0.054840
0.587852 0.343671 0.056819
0.598767 0.354495 0.058821
0.609126 0.364769 0.061203
0.619426 0.375103 0.063906
0.629668 0.385496 0.066665
0.639855 0.395947 0.069481
0.649986 0.406456 0.072384
0.660065 0.417021 0.075585
0.670091 0.427641 0.078859
0.680067 0.438315 0.082205
0.689994 0.449044 0.085833
0.699873 0.459825 0.089666
0.709704 0.470658 0.093593
0.719489 0.481542 0.097616
0.729230 0.492477 0.101734
0.738927 0.503462 0.105949
0.747903 0.512778 0.110150
0.753786 0.521707 0.114440
0.759615 0.530638 0.118820
0.765392 0.539571 0.123291
0.771118 0.548507 0.127854
0.776794 0.557446 0.132509
0.782422 0.566387 0.137079
0.050851 0.034423 0.037567
0.050851 0.034433 0.037567
0.050851 0.034466 0.037567
0.050898 0.034523 0.037567
0.051022 0.034693 0.037567
0.051455 0.034975 0.037567
0.051934 0.035279 0.037567
0.052800 0.035636 0.037567
0.054261 0.036417 0.037567
0.056671 0.037193 0.037567
0.060715 0.038370 0.037567
0.067560 0.040088 0.037567
0.077047 0.041795 0.037567
0.088825 0.044254 0.037567
0.103155 0.047095 0.037628
0.119756 0.050711 0.037763
0.139482 0.056088 0.037890
0.159744 0.061741 0.038010
0.179973 0.069228 0.038141
0.201481 0.077340 0.038314
0.219899 0.085990 0.038480
0.237961 0.095302 0.038638
0.256572 0.105382 0.038790
0.275725 0.116070 0.039129
0.295408 0.127373 0.039551
0.312178 0.138596 0.039961
0.329117 0.149752 0.040359
0.346289 0.161372 0.040746
0.363688 0.173458 0.041122
0.381308 0.185811 0.041494
0.398400 0.198170 0.042180
0.413795 0.210933 0.042854
0.429270 0.224099 0.043517
0.444824 0.237667 0.044234
0.460454 0.251636 0.045177
0.476157 0.263264 0.046112
0.491933 0.274485 0.047214
0.507780 0.285870 0.048570
0.523696 0.297418 0.049928
0.539678 0.309125 0.051287
0.555727 0.320991 0.052921
0.571840 0.333012 0.054876
0.588017 0.345187 0.056855
0.598869 0.355725 0.058856
0.609225 0.365972 0.061248
0.619522 0.376281 0.063951
0.629762 0.386650 0.066710
0.639945 0.397078 0.069525
0.650074 0.407564 0.072432
0.660150 0.418108 0.075633
0.670174 0.428707 0.078907
0.680148 0.439362 0.082253
0.690072 0.450072 0.085885
0.699948 0.460834 0.089718
0.709778 0.471650 0.093645
0.719561 0.482517 0.097668
0.729300 0.493436 0.101787
0.738995 0.504405 0.106002
0.747944 0.513527 0.110201
0.753825 0.522440 0.114491
0.759654 0.531357 0.118871
0.765429 0.540277 0.123342
0.771154 0.549199 0.127905
0.776830 0.558125 0.132560
0.782456 0.567053 0.137126
0.050851 0.034936 0.037567
0.050851 0.034956 0.037567
0.050851 0.035026 0.037567
0.050938 0.035147 0.037567
0.051047 0.035313 0.037567
0.051542 0.035516 0.037567
0.051996 0.036023 0.037567
0.052923 0.036642 0.037567
0.054508 0.037288 0.037567
0.056873 0.038358 0.037567
0.061081 0.039893 0.037567
0.068152 0.041451 0.037567
0.077751 0.043476 0.037567
0.089507 0.046130 0.037567
0.103967 0.048837 0.037640
0.120648 0.053696 0.037774
0.140384 0.059000 0.037900
0.160541 0.065263 0.038018
0.180766 0.072848 0.038153
0.202270 0.080964 0.038325
0.220494 0.089617 0.038489
0.238540 0.099055 0.038647
0.257136 0.109150 0.038797
0.276274 0.119853 0.039150
0.295923 0.131170 0.039571
0.312609 0.141992 0.039979
0.329534 0.153129 0.040375
0.346693 0.164732 0.040761
0.364080 0.176802 0.041137
0.381688 0.188973 0.041520
0.398716 0.201308 0.042204
0.414100 0.214047 0.042877
0.429566 0.227189 0.043539
0.445110 0.240735 0.044265
0.460731 0.254566 0.045206
0.476427 0.265574 0.046139
0.492195 0.276752 0.047253
0.508034 0.288096 0.048608
0.523943 0.299604 0.049965
0.539919 0.311273 0.051323
0.555962 0.323102 0.052970
0.572069 0.335089 0.054925
0.588239 0.347230 0.056902
0.599008 0.357380 0.058903
0.609360 0.367593 0.061309
0.619652 0.377868 0.064011
0.629888 0.388205 0.066770
0.640067 0.398602 0.069584
0.650192 0.409059 0.072497
0.660265 0.419573 0.075698
0.670286 0.430146 0.078971
0.680256 0.440774 0.082317
0.690177 0.451458 0.085956
0.700051 0.462196 0.089789
0.709878 0.472988 0.093716
0.719659 0.483833 0.097739
0.729395 0.494729 0.101858
0.739087 0.505647 0.106071
0.747999 0.514536 0.110270
0.753879 0.523430 0.114560
0.759706 0.532327 0.118940
0.765480 0.541228 0.123412
0.771204 0.550133 0.127975
0.776877 0.559041 0.132630
0.782503 0.567952 0.137189
0.050851 0.035690 0.037567
0.050851 0.035724 0.037567
0.050889 0.035844 0.037567
0.050981 0.036057 0.037567
0.051182 0.036360 0.037567
0.051646 0.036741 0.037567
0.052071 0.037187 0.037567
0.053074 0.037753 0.037567
0.054815 0.038972 0.037567
0.057125 0.040270 0.037567
0.061541 0.041627 0.037567
0.068901 0.043486 0.037567
0.078643 0.045895 0.037567
0.090373 0.048386 0.037567
0.104999 0.052505 0.037656
0.121782 0.057432 0.037787
0.141532 0.062801 0.037911
0.161555 0.069866 0.038029
0.181774 0.077455 0.038167
0.203273 0.085576 0.038338
0.221250 0.094321 0.038501
0.239275 0.103837 0.038657
0.257853 0.113951 0.038807
0.276973 0.124671 0.039177
0.296490 0.135653 0.039595
0.313156 0.146303 0.040002
0.330064 0.157418 0.040397
0.347206 0.168999 0.040781
0.364577 0.181048 0.041155
0.382172 0.192986 0.041553
0.399117 0.205290 0.042235
0.414489 0.217999 0.042907
0.429942 0.231113 0.043567
0.445474 0.244630 0.044303
0.461084 0.257548 0.045243
0.476769 0.268499 0.046175
0.492528 0.279623 0.047303
0.508358 0.290915 0.048656
0.524257 0.302374 0.050011
0.540225 0.313996 0.051368
0.556260 0.325779 0.053033
0.572359 0.337722 0.054987
0.588523 0.349376 0.056963
0.599185 0.359478 0.058962
0.609530 0.369646 0.061386
0.619817 0.379879 0.064088
0.630048 0.390175 0.066846
0.640222 0.400534 0.069660
0.650343 0.410953 0.072579
0.660411 0.421432 0.075780
0.670427 0.431970 0.079053
0.680394 0.442565 0.082399
0.690311 0.453216 0.086045
0.700181 0.463924 0.089878
0.710004 0.474686 0.093806
0.719782 0.485502 0.097829
0.729515 0.496370 0.101948
0.739205 0.506954 0.106159
0.748069 0.515817 0.110358
0.753947 0.524685 0.114648
0.759772 0.533558 0.119028
0.765544 0.542435 0.123500
0.771266 0.551317 0.128063
0.776938 0.560203 0.132718
0.782562 0.569094 0.137269
0.050882 0.037162 0.037567
0.050899 0.037187 0.037567
0.050951 0.037277 0.037567
0.051025 0.037437 0.037567
0.051344 0.037720 0.037567
0.051763 0.038395 0.037567
0.052275 0.039211 0.037567
0.053250 0.040148 0.037567
0.055180 0.041189 0.037567
0.057473 0.042316 0.037567
0.062096 0.044299 0.037567
0.069811 0.046419 0.037567
0.079731 0.048650 0.037567
0.091428 0.052560 0.037567
0.106259 0.057086 0.037675
0.123169 0.061916 0.037803
0.142936 0.068421 0.037926
0.162792 0.075492 0.038041
0.183005 0.083087 0.038185
0.204498 0.091213 0.038354
0.222173 0.100153 0.038516
0.240173 0.109691 0.038670
0.258727 0.119826 0.038819
0.277826 0.130567 0.039209
0.297181 0.140935 0.039625
0.313824 0.151557 0.040029
0.330710 0.162646 0.040422
0.347832 0.174202 0.040805
0.365184 0.186015 0.041177
0.382761 0.197875 0.041593
0.399608 0.210141 0.042273
0.414962 0.222815 0.042942
0.430400 0.235894 0.043601
0.445918 0.249379 0.044350
0.461515 0.261169 0.045288
0.477187 0.272053 0.046218
0.492933 0.283112 0.047364
0.508752 0.294343 0.048715
0.524641 0.305742 0.050068
0.540599 0.317307 0.051423
0.556624 0.329036 0.053110
0.572714 0.340926 0.055062
0.588869 0.351981 0.057037
0.599400 0.362028 0.059035
0.609739 0.372143 0.061480
0.620019 0.382325 0.064182
0.630243 0.392573 0.066939
0.640412 0.402884 0.069753
0.650527 0.413258 0.072680
0.660589 0.423694 0.075880
0.670601 0.434190 0.079153
0.680562 0.444745 0.082499
0.690475 0.455358 0.086155
0.700340 0.466028 0.089988
0.710159 0.476754 0.093916
0.719933 0.487535 0.097939
0.729662 0.498370 0.102058
0.739348 0.508545 0.106267
0.748155 0.517376 0.110466
0.754030 0.526214 0.114756
0.759853 0.535057 0.119136
0.765623 0.543906 0.123608
0.771342 0.552760 0.128171
0.777012 0.561620 0.132826
0.782634 0.570484 0.137367
0.050955 0.039600 0.037567
0.050968 0.039646 0.037567
0.051008 0.039808 0.037567
0.051149 0.040101 0.037567
0.051515 0.040528 0.037567
0.051890 0.041088 0.037567
0.052530 0.041771 0.037567
0.053450 0.042721 0.037567
0.055599 0.044214 0.037567
0.058211 0.045874 0.037567
0.062744 0.047683 0.037567
0.070882 0.050097 0.037567
0.081017 0.053881 0.037567
0.092677 0.057987 0.037567
0.107756 0.062490 0.037696
0.124818 0.068540 0.037822
0.144603 0.075100 0.037942
0.164261 0.082177 0.038056
0.184466 0.089778 0.038206
0.205864 0.098119 0.038373
0.223266 0.107094 0.038532
0.241237 0.116657 0.038686
0.259764 0.126816 0.038833
0.278837 0.137062 0.039247
0.298000 0.147187 0.039661
0.314616 0.157778 0.040062
0.331476 0.168837 0.040453
0.348575 0.180364 0.040833
0.365905 0.191843 0.041204
0.383460 0.203659 0.041640
0.400189 0.215883 0.042318
0.415524 0.228516 0.042984
0.430944 0.241555 0.043641
0.446445 0.254812 0.044406
0.462025 0.265438 0.045341
0.477683 0.276245 0.046269
0.493415 0.287229 0.047436
0.509220 0.298388 0.048785
0.525096 0.309719 0.050136
0.541042 0.321218 0.051489
0.557056 0.332883 0.053201
0.573135 0.344712 0.055152
0.589266 0.355056 0.057125
0.599656 0.365038 0.059122
0.609986 0.375091 0.061592
0.620259 0.385214 0.064293
0.630475 0.395405 0.067050
0.640636 0.405661 0.069863
0.650745 0.415983 0.072799
0.660801 0.426368 0.075999
0.670806 0.436815 0.079272
0.680762 0.447323 0.082618
0.690669 0.457890 0.086284
0.700529 0.468516 0.090118
0.710343 0.479200 0.094046
0.720112 0.489940 0.098069
0.729836 0.500735 0.102188
0.739518 0.510427 0.106394
0.748256 0.519221 0.110594
0.754129 0.528022 0.114883
0.759948 0.536830 0.119264
0.765716 0.545645 0.123735
0.771433 0.554467 0.128299
0.777100 0.563295 0.132954
0.782720 0.572130 0.137483
0.051020 0.042560 0.037567
0.051030 0.042623 0.037567
0.051111 0.042845 0.037567
0.051373 0.043250 0.037567
0.051689 0.043848 0.037567
0.052024 0.044640 0.037567
0.052807 0.045622 0.037567
0.053905 0.046788 0.037567
0.056067 0.048127 0.037567
0.059049 0.050097 0.037567
0.063962 0.053113 0.037567
0.072116 0.056461 0.037567
0.082507 0.060138 0.037567
0.094363 0.064689 0.037592
0.109494 0.070244 0.037721
0.126735 0.076301 0.037844
0.146543 0.082867 0.037961
0.165967 0.089951 0.038073
0.186163 0.097756 0.038230
0.207168 0.106180 0.038394
0.224535 0.115182 0.038552
0.242471 0.124772 0.038703
0.260966 0.134716 0.038870
0.280010 0.144339 0.039292
0.298951 0.154428 0.039701
0.315534 0.164985 0.040100
0.332365 0.176011 0.040488
0.349436 0.187232 0.040866
0.366740 0.198587 0.041234
0.384272 0.210353 0.041695
0.400863 0.222531 0.042369
0.416176 0.235117 0.043033
0.431575 0.248112 0.043687
0.447057 0.259825 0.044470
0.462618 0.270360 0.045403
0.478258 0.281079 0.046328
0.493974 0.291979 0.047519
0.509764 0.303058 0.048866
0.525625 0.314310 0.050214
0.541557 0.325735 0.051565
0.557557 0.337328 0.053307
0.573624 0.348769 0.055255
0.589573 0.358602 0.057227
0.599953 0.368512 0.059222
0.610273 0.378495 0.061722
0.620536 0.388550 0.064422
0.630744 0.398676 0.067178
0.640897 0.408870 0.069990
0.650998 0.419131 0.072938
0.661046 0.429458 0.076138
0.671045 0.439850 0.079410
0.680994 0.450304 0.082756
0.690895 0.460819 0.086435
0.700749 0.471395 0.090269
0.710557 0.482030 0.094197
0.720320 0.492723 0.098221
0.730039 0.503473 0.102340
0.739715 0.512603 0.106542
0.748374 0.521354 0.110742
0.754244 0.530114 0.115032
0.760060 0.538882 0.119412
0.765824 0.547659 0.123884
0.771538 0.556443 0.128447
0.777203 0.565235 0.133102
0.782819 0.574035 0.137618
0.051194 0.047192 0.037567
0.051235 0.047247 0.037567
0.051371 0.047443 0.037567
0.051590 0.047800 0.037567
0.051863 0.048329 0.037567
0.052287 0.049032 0.037567
0.053100 0.050608 0.037567
0.054520 0.052521 0.037567
0.056580 0.054770 0.037567
0.059982 0.057355 0.037567
0.065449 0.060272 0.037567
0.073513 0.063902 0.037567
0.084201 0.068485 0.037567
0.096352 0.073552 0.037623
0.111480 0.079114 0.037748
0.128929 0.085178 0.037868
0.148761 0.091759 0.037982
0.167916 0.099083 0.038092
0.188101 0.106967 0.038257
0.208656 0.115420 0.038419
0.225981 0.124452 0.038574
0.243879 0.133921 0.038723
0.262338 0.143038 0.038924
0.281348 0.152622 0.039342
0.300034 0.162674 0.039748
0.316582 0.173194 0.040143
0.333379 0.184073 0.040528
0.350419 0.194958 0.040903
0.367694 0.206258 0.041269
0.385198 0.217971 0.041757
0.401632 0.230097 0.042428
0.416920 0.242633 0.043089
0.432295 0.255258 0.043740
0.447754 0.265500 0.044543
0.463295 0.275934 0.045473
0.478915 0.286557 0.046395
0.494612 0.297365 0.047614
0.510384 0.308353 0.048958
0.526229 0.319520 0.050304
0.542144 0.330861 0.051652
0.558129 0.342374 0.053427
0.574182 0.352874 0.055374
0.589924 0.362623 0.057344
0.600291 0.372451 0.059336
0.610601 0.382356 0.061871
0.620854 0.392336 0.064570
0.631051 0.402389 0.067325
0.641195 0.412513 0.070136
0.651287 0.422707 0.073096
0.661327 0.432970 0.076296
0.671317 0.443298 0.079568
0.681258 0.453692 0.082913
0.691152 0.464149 0.086607
0.700999 0.474668 0.090441
0.710800 0.485249 0.094370
0.720557 0.495889 0.098394
0.730270 0.506385 0.102514
0.739941 0.515076 0.106712
0.748509 0.523779 0.110911
0.754374 0.532492 0.115201
0.760187 0.541216 0.119582
0.765948 0.549949 0.124054
0.771658 0.558691 0.128617
0.777320 0.567443 0.133272
0.782933 0.576203 0.137773
0.051468 0.054120 0.037567
0.051501 0.054211 0.037567
0.051614 0.054537 0.037567
0.051799 0.055137 0.037567
0.052037 0.056031 0.037567
0.052662 0.057234 0.037567
0.053406 0.058754 0.037567
0.055177 0.060598 0.037567
0.057134 0.062949 0.037567
0.061005 0.066138 0.037567
0.067104 0.069783 0.037567
0.075384 0.073895 0.037567
0.086103 0.078484 0.037567
0.098595 0.083559 0.037657
0.113718 0.089127 0.037778
0.131405 0.095317 0.037894
0.151212 0.102121 0.038005
0.170111 0.109476 0.038122
0.190286 0.117391 0.038287
0.210328 0.125874 0.038446
0.227607 0.134697 0.038598
0.245462 0.143305 0.038745
0.263882 0.152381 0.038985
0.282854 0.161924 0.039398
0.301252 0.171936 0.039799
0.317760 0.182392 0.040191
0.334520 0.192800 0.040572
0.351524 0.203625 0.040944
0.368767 0.214866 0.041308
0.386240 0.226521 0.041827
0.402498 0.238590 0.042494
0.417758 0.251072 0.043151
0.433106 0.261703 0.043799
0.448540 0.271832 0.044626
0.464057 0.282158 0.045552
0.479654 0.292677 0.046471
0.495330 0.303383 0.047721
0.511082 0.314275 0.049061
0.526908 0.325348 0.050404
0.542806 0.336598 0.051749
0.558774 0.347890 0.053563
0.574810 0.357460 0.055507
0.590318 0.367116 0.057475
0.600673 0.376855 0.059466
0.610970 0.386674 0.062038
0.621211 0.396571 0.064736
0.631398 0.406544 0.067490
0.641531 0.416592 0.070301
0.651612 0.426712 0.073275
0.661643 0.436903 0.076474
0.671624 0.447162 0.079746
0.681557 0.457489 0.083091
0.691442 0.467881 0.086802
0.701281 0.478338 0.090636
0.711075 0.488859 0.094565
0.720825 0.499440 0.098589
0.730531 0.509212 0.102709
0.740195 0.517848 0.106903
0.748661 0.526498 0.111102
0.754522 0.535159 0.115392
0.760330 0.543833 0.119773
0.766087 0.552517 0.124245
0.771793 0.561213 0.128809
0.777451 0.569919 0.133464
0.783061 0.578635 0.137947
0.051719 0.063303 0.037567
0.051747 0.063415 0.037567
0.051841 0.063815 0.037567
0.052000 0.064551 0.037567
0.052406 0.065652 0.037567
0.053041 0.067140 0.037567
0.054041 0.069033 0.037567
0.055868 0.071346 0.037567
0.058103 0.074094 0.037567
0.062112 0.077287 0.037567
0.068925 0.080938 0.037567
0.077556 0.085056 0.037567
0.088214 0.089652 0.037573
0.101095 0.094836 0.037693
0.116214 0.100599 0.037810
0.134172 0.106893 0.037923
0.153672 0.113728 0.038031
0.172559 0.121114 0.038159
0.192720 0.129060 0.038320
0.212188 0.137057 0.038475
0.229416 0.145156 0.038625
0.247224 0.153721 0.038770
0.265600 0.162754 0.039052
0.284531 0.172254 0.039459
0.302608 0.182209 0.039856
0.319071 0.192132 0.040244
0.335789 0.202475 0.040622
0.352755 0.213236 0.040990
0.369961 0.224415 0.041351
0.387401 0.236009 0.041904
0.403462 0.248019 0.042567
0.418690 0.259002 0.043221
0.434008 0.268806 0.043865
0.449414 0.278816 0.044717
0.464905 0.289027 0.045639
0.480478 0.299434 0.046555
0.496131 0.310033 0.047840
0.511860 0.320820 0.049177
0.527665 0.331792 0.050516
0.543543 0.342945 0.051858
0.559492 0.353056 0.053714
0.575511 0.362522 0.055656
0.590758 0.372078 0.057621
0.601098 0.381720 0.059609
0.611381 0.391447 0.062225
0.621609 0.401254 0.064922
0.631783 0.411141 0.067675
0.641905 0.421105 0.070484
0.651975 0.431145 0.073474
0.661995 0.441257 0.076673
0.671966 0.451442 0.079944
0.681889 0.461696 0.083289
0.691765 0.472018 0.087018
0.701596 0.482407 0.090853
0.711381 0.492861 0.094782
0.721123 0.503379 0.098807
0.730821 0.512344 0.102928
0.740478 0.520920 0.107116
0.748830 0.529510 0.111315
0.754686 0.538115 0.115606
0.760490 0.546734 0.119986
0.766242 0.555366 0.124459
0.771944 0.564010 0.129022
0.777598 0.572667 0.133678
0.783204 0.581335 0.138141
0.051952 0.075621 0.037567
0.051975 0.075733 0.037567
0.052055 0.076134 0.037567
0.052365 0.076871 0.037567
0.052850 0.077974 0.037567
0.053420 0.079464 0.037567
0.054877 0.081361 0.037567
0.056587 0.083678 0.037567
0.059429 0.086430 0.037567
0.063633 0.089628 0.037567
0.070908 0.093340 0.037567
0.079940 0.097600 0.037567
0.090534 0.102360 0.037617
0.103857 0.107630 0.037732
0.119042 0.113422 0.037844
0.137235 0.119746 0.037953
0.156389 0.126611 0.038058
0.175261 0.133883 0.038198
0.195409 0.141010 0.038355
0.214237 0.148600 0.038507
0.231410 0.156654 0.038654
0.249166 0.165175 0.038796
0.267493 0.174164 0.039124
0.286380 0.183538 0.039526
0.304101 0.192970 0.039919
0.320516 0.202825 0.040302
0.337189 0.213101 0.040676
0.354112 0.223796 0.041041
0.371278 0.234910 0.041398
0.388680 0.246441 0.041989
0.404525 0.257422 0.042647
0.419718 0.266884 0.043297
0.435004 0.276559 0.043937
0.450379 0.286444 0.044818
0.465841 0.296533 0.045736
0.481387 0.306822 0.046648
0.497014 0.317306 0.047971
0.512719 0.327983 0.049304
