velvia_classic/Velvia50_Hard.cube
TITLE "Velvia 50 Hard"
# Adobe RGB in/out. REPLACES AgX. Velvia 50 color reversal.
LUT_3D_SIZE 5
DOMAIN_MIN 0.0 0.0 0.0
DOMAIN_MAX 1.0 1.0 1.0
0.010768 0.005498 0.006424
0.059168 0.010971 0.006514
0.408988 0.130203 0.008245
0.831301 0.371330 0.019641
1.000000 0.655972 0.058415
0.011685 0.047226 0.006424
0.081122 0.083132 0.006605
0.424983 0.226920 0.008500
0.839873 0.449307 0.020649
1.000000 0.714712 0.059948
0.050650 0.370129 0.006680
0.159282 0.402261 0.007096
0.481907 0.517086 0.009781
0.870157 0.687004 0.024428
1.000000 0.882324 0.065575
0.193862 0.799471 0.007763
0.290880 0.816453 0.008474
0.584760 0.875483 0.013273
0.923967 0.977269 0.032737
1.000000 1.000000 0.076402
0.379252 1.000000 0.011265
0.459105 1.000000 0.013028
0.723577 1.000000 0.021855
1.000000 1.000000 0.046952
1.000000 1.000000 0.093654
0.011495 0.005782 0.092627
0.078210 0.014642 0.097414
0.422862 0.140501 0.114988
0.838738 0.378926 0.148468
1.000000 0.661740 0.198046
0.014786 0.055642 0.094326
0.101116 0.092442 0.099084
0.438798 0.235892 0.116744
0.847255 0.456860 0.150193
1.000000 0.720348 0.199527
0.069649 0.377726 0.100310
0.177673 0.409839 0.105155
0.495531 0.524607 0.123116
0.877352 0.692701 0.156430
1.000000 0.886084 0.204851
0.212987 0.803506 0.111603
0.307231 0.820427 0.116605
0.598096 0.879265 0.135104
0.930858 0.980765 0.168062
1.000000 1.000000 0.214665
0.393242 1.000000 0.129157
0.472803 1.000000 0.134381
0.731796 1.000000 0.152223
1.000000 1.000000 0.185821
1.000000 1.000000 0.229390
0.039448 0.012255 0.518996
0.146598 0.035933 0.522328
0.472294 0.176817 0.534262
0.865067 0.406177 0.556084
1.000000 0.682350 0.588411
0.058896 0.086429 0.520161
0.167498 0.126928 0.523491
0.488037 0.268526 0.535420
0.873397 0.483961 0.557232
1.000000 0.740495 0.589547
0.138357 0.404979 0.524341
0.241604 0.437027 0.527666
0.544138 0.549676 0.539576
0.902856 0.713060 0.561355
1.000000 0.899499 0.593624
0.271843 0.817880 0.532013
0.364498 0.834592 0.535329
0.645732 0.892753 0.547206
0.955311 0.993250 0.568925
1.000000 1.000000 0.601110
0.443053 1.000000 0.543450
0.521653 1.000000 0.546752
0.760785 1.000000 0.558579
1.000000 1.000000 0.580211
1.000000 1.000000 0.612275
0.161943 0.054894 0.985199
0.262915 0.091582 0.986890
0.561790 0.235075 0.992943
0.912052 0.456174 1.000000
1.000000 0.719837 1.000000
0.183258 0.151624 0.985790
0.281689 0.191511 0.987480
0.577234 0.321923 0.993530
0.920070 0.533706 1.000000
1.000000 0.777183 1.000000
0.255380 0.454981 0.987911
0.349591 0.486919 0.989598
0.632343 0.589346 0.995637
0.948464 0.750115 1.000000
1.000000 0.923816 1.000000
0.376442 0.843866 0.991803
0.456355 0.860214 0.993484
0.721922 0.917198 0.999503
0.999157 1.000000 1.000000
1.000000 1.000000 1.000000
0.533132 1.000000 0.997601
0.610243 1.000000 0.999273
0.812129 1.000000 1.000000
1.000000 1.000000 1.000000
1.000000 1.000000 1.000000
0.330370 0.147305 1.000000
0.414517 0.187978 1.000000
0.692797 0.318829 1.000000
0.979227 0.530659 1.000000
1.000000 0.774947 1.000000
0.349339 0.241723 1.000000
0.430488 0.280378 1.000000
0.706275 0.397131 1.000000
0.986844 0.594666 1.000000
1.000000 0.820961 1.000000
0.408073 0.529472 1.000000
0.487335 0.557468 1.000000
0.740473 0.647375 1.000000
1.000000 0.801423 1.000000
1.000000 0.959360 1.000000
0.512647 0.881705 1.000000
0.590072 0.897555 1.000000
0.800573 0.952920 1.000000
1.000000 1.000000 1.000000
1.000000 1.000000 1.000000
0.664824 1.000000 1.000000
0.726857 1.000000 1.000000
0.884814 1.000000 1.000000
1.000000 1.000000 1.000000
1.000000 1.000000 1.000000
