velvia_classic/Velvia50_Punchy.cube
TITLE "Velvia 50 Punchy"
# Adobe RGB in/out. REPLACES AgX. Velvia 50 color reversal.
LUT_3D_SIZE 5
DOMAIN_MIN 0.0 0.0 0.0
DOMAIN_MAX 1.0 1.0 1.0
0.025288 0.015046 0.016969
0.136052 0.027160 0.017153
0.509881 0.184766 0.020575
0.822917 0.405730 0.040230
1.000000 0.624842 0.093364
0.025381 0.085795 0.016969
0.142640 0.131519 0.017336
0.512826 0.280043 0.021066
0.824173 0.470335 0.041815
1.000000 0.667799 0.095251
0.027690 0.405902 0.017490
0.165091 0.432756 0.018323
0.523347 0.524373 0.023479
0.828665 0.648321 0.047611
1.000000 0.779446 0.102086
0.046036 0.723113 0.019641
0.199612 0.734903 0.021016
0.542467 0.775468 0.029722
0.836852 0.844009 0.059694
1.000000 0.922553 0.114876
0.103530 0.938691 0.026186
0.250968 0.943846 0.029297
0.570527 0.961804 0.043690
0.848918 0.992802 0.078868
1.000000 1.000000 0.134439
0.025288 0.015046 0.133298
0.136052 0.028114 0.138589
0.509881 0.186341 0.157531
0.822917 0.406636 0.191906
1.000000 0.625442 0.239742
0.025381 0.087411 0.135184
0.142640 0.133093 0.140421
0.512826 0.281246 0.159386
0.824173 0.471197 0.193627
1.000000 0.668374 0.241125
0.027690 0.406808 0.141760
0.165091 0.433643 0.147021
0.523347 0.525046 0.166065
0.828665 0.648907 0.199809
1.000000 0.779809 0.246080
0.046036 0.723510 0.153937
0.199612 0.735293 0.159239
0.542467 0.775833 0.178422
0.836852 0.844338 0.211190
1.000000 0.922734 0.255138
0.103530 0.938864 0.172325
0.250968 0.944017 0.177683
0.570527 0.961967 0.195644
0.848918 0.992953 0.228228
1.000000 1.000000 0.268554
0.025288 0.015275 0.504569
0.136052 0.031555 0.507069
0.509881 0.192018 0.515995
0.822917 0.409886 0.532200
1.000000 0.627596 0.555943
0.025381 0.092877 0.505444
0.142640 0.138620 0.507941
0.512826 0.285565 0.516859
0.824173 0.474291 0.533049
1.000000 0.670438 0.556772
0.027690 0.410057 0.508578
0.165091 0.436824 0.511067
0.523347 0.527457 0.519955
0.828665 0.651010 0.536092
1.000000 0.781110 0.559743
0.046036 0.724936 0.514317
0.199612 0.736690 0.516791
0.542467 0.777142 0.525625
0.836852 0.845519 0.541668
1.000000 0.923384 0.565188
0.103530 0.939486 0.522836
0.250968 0.944630 0.525288
0.570527 0.962552 0.534043
0.848918 0.993493 0.549949
1.000000 1.000000 0.573279
0.025288 0.016730 0.827808
0.136052 0.039393 0.828905
0.509881 0.202527 0.832830
0.822917 0.415843 0.839984
1.000000 0.631546 0.850532
0.025381 0.102702 0.828192
0.142640 0.148650 0.829288
0.512826 0.293494 0.833210
0.824173 0.479967 0.840360
1.000000 0.674224 0.850902
0.027690 0.416013 0.829568
0.165091 0.442657 0.830661
0.523347 0.531874 0.834574
0.828665 0.654869 0.841709
1.000000 0.783497 0.852227
0.046036 0.727550 0.832091
0.199612 0.739253 0.833180
0.542467 0.779544 0.837077
0.836852 0.847686 0.844182
1.000000 0.924576 0.854658
0.103530 0.940627 0.835845
0.250968 0.945756 0.836928
0.570527 0.963626 0.840801
0.848918 0.994485 0.847863
1.000000 1.000000 0.858277
0.025288 0.020969 1.000000
0.136052 0.052466 1.000000
0.509881 0.216628 1.000000
0.822917 0.424701 1.000000
1.000000 0.637426 1.000000
0.025381 0.117732 1.000000
0.142640 0.163840 1.000000
0.512826 0.305312 1.000000
0.824173 0.488416 1.000000
1.000000 0.679862 1.000000
0.027690 0.424870 1.000000
0.165091 0.451334 1.000000
0.523347 0.538439 1.000000
0.828665 0.660613 1.000000
1.000000 0.787051 1.000000
0.046036 0.731439 1.000000
0.199612 0.743067 1.000000
0.542467 0.783120 1.000000
0.836852 0.850916 1.000000
1.000000 0.926351 1.000000
0.103530 0.942328 1.000000
0.250968 0.947434 1.000000
0.570527 0.965227 1.000000
0.848918 0.995964 1.000000
1.000000 1.000000 1.000000
