velvia_classic/Velvia50_Hard.cube
TITLE "Velvia 50 Hard"
# Adobe RGB in/out. REPLACES AgX. Velvia 50 color reversal.
LUT_3D_SIZE 9
DOMAIN_MIN 0.0 0.0 0.0
DOMAIN_MAX 1.0 1.0 1.0
0.010768 0.005498 0.006424
0.011877 0.005744 0.006424
0.059168 0.010971 0.006514
0.215531 0.047507 0.007004
0.408988 0.130203 0.008245
0.635777 0.245135 0.011497
0.831301 0.371330 0.019641
1.000000 0.515993 0.035112
1.000000 0.655972 0.058415
0.010806 0.007029 0.006424
0.012539 0.008482 0.006424
0.064032 0.020942 0.006534
0.219842 0.065996 0.007047
0.412477 0.153651 0.008296
0.639098 0.265534 0.011631
0.833173 0.388349 0.019859
1.000000 0.532846 0.035415
1.000000 0.668881 0.058748
0.011685 0.047226 0.006424
0.016174 0.055005 0.006424
0.081122 0.083132 0.006605
0.234405 0.142357 0.007192
0.424983 0.226920 0.008500
0.651011 0.330431 0.012111
0.839873 0.449307 0.020649
1.000000 0.583066 0.036513
1.000000 0.714712 0.059948
0.019245 0.186100 0.006472
0.032151 0.194135 0.006533
0.115223 0.223396 0.006744
0.261309 0.278702 0.007431
0.447887 0.349455 0.008965
0.672868 0.442871 0.013001
0.852101 0.557118 0.022133
1.000000 0.669714 0.038549
1.000000 0.795801 0.062181
0.050650 0.370129 0.006680
0.074293 0.377133 0.006737
0.159282 0.402261 0.007096
0.301793 0.448373 0.007859
0.481907 0.517086 0.009781
0.704686 0.595967 0.014407
0.870157 0.687004 0.024428
1.000000 0.793527 0.041634
1.000000 0.882324 0.065575
0.116883 0.585185 0.007104
0.138659 0.590670 0.007217
0.221614 0.610261 0.007572
0.356469 0.645871 0.008611
0.527456 0.698169 0.011051
0.732515 0.767197 0.016873
0.894132 0.836601 0.027921
1.000000 0.909239 0.045962
1.000000 0.990414 0.070266
0.193862 0.799471 0.007763
0.217772 0.803191 0.007923
0.290880 0.816453 0.008474
0.416172 0.840460 0.009979
0.584760 0.875483 0.013273
0.766838 0.921277 0.020255
0.923967 0.977269 0.032737
1.000000 1.000000 0.051725
1.000000 1.000000 0.076402
0.281962 0.974130 0.009009
0.302447 0.977361 0.009204
0.373231 0.988904 0.010156
0.487834 1.000000 0.012255
0.653927 1.000000 0.016781
0.807312 1.000000 0.025017
0.959493 1.000000 0.039038
1.000000 1.000000 0.058970
1.000000 1.000000 0.084150
0.379252 1.000000 0.011265
0.396790 1.000000 0.011646
0.459105 1.000000 0.013028
0.571407 1.000000 0.016096
0.723577 1.000000 0.021855
0.853524 1.000000 0.031797
1.000000 1.000000 0.046952
1.000000 1.000000 0.067396
1.000000 1.000000 0.093654
0.010793 0.005498 0.009724
0.012456 0.005844 0.009999
0.063375 0.011746 0.010975
0.219304 0.049302 0.013424
0.412014 0.132422 0.018443
0.638657 0.247106 0.027314
0.832925 0.372985 0.041745
1.000000 0.517631 0.061881
1.000000 0.657229 0.087459
0.010956 0.007335 0.009820
0.013053 0.008923 0.010095
0.068392 0.022170 0.011069
0.223353 0.067828 0.013560
0.415500 0.155998 0.018638
0.641976 0.267529 0.027585
0.834794 0.390001 0.042063
1.000000 0.534482 0.062221
1.000000 0.670132 0.087845
0.012195 0.049016 0.010165
0.017816 0.056744 0.010438
0.085330 0.085128 0.011497
0.237927 0.144645 0.014049
0.427996 0.228870 0.019345
0.653883 0.332091 0.028570
0.841485 0.450952 0.043214
1.000000 0.584364 0.063447
1.000000 0.715940 0.089235
0.021061 0.187993 0.010793
0.035104 0.196040 0.011062
0.119268 0.225341 0.012381
0.264849 0.280711 0.015211
0.450882 0.351113 0.020780
0.675729 0.444517 0.030422
0.853695 0.558432 0.045365
1.000000 0.670964 0.065725
1.000000 0.796683 0.091813
0.054572 0.371784 0.011944
0.078363 0.378787 0.012328
0.163251 0.403912 0.013719
0.305356 0.450018 0.017055
0.484877 0.518724 0.023021
0.706517 0.597257 0.033287
0.871727 0.688246 0.048665
1.000000 0.794411 0.069188
1.000000 0.883144 0.095486
0.120608 0.586482 0.013749
0.142517 0.591963 0.014139
0.225126 0.611544 0.016010
0.359542 0.647134 0.019671
0.530396 0.699405 0.026296
0.734295 0.768402 0.037337
0.895672 0.837453 0.053280
1.000000 0.910041 0.073970
1.000000 0.991169 0.100341
0.197994 0.800351 0.016732
0.221282 0.804068 0.017275
0.294437 0.817319 0.019273
0.419191 0.841309 0.023498
0.587667 0.876308 0.030993
0.768559 0.922072 0.042641
0.925471 0.978031 0.059197
1.000000 1.000000 0.080220
1.000000 1.000000 0.106620
0.285513 0.974894 0.020924
0.306011 0.978123 0.021565
0.376288 0.989659 0.023929
0.490801 1.000000 0.028868
0.656797 1.000000 0.037186
0.808970 1.000000 0.049509
0.960956 1.000000 0.066276
1.000000 1.000000 0.088103
1.000000 1.000000 0.114444
0.382303 1.000000 0.026842
0.399825 1.000000 0.027617
0.462091 1.000000 0.030478
0.574321 1.000000 0.036061
0.725373 1.000000 0.044963
0.855117 1.000000 0.058123
1.000000 1.000000 0.075054
1.000000 1.000000 0.097376
1.000000 1.000000 0.123946
0.011495 0.005782 0.092627
0.015218 0.006548 0.093705
0.078210 0.014642 0.097414
0.231929 0.055913 0.104349
0.422862 0.140501 0.114988
0.648990 0.254207 0.129848
0.838738 0.378926 0.148468
1.000000 0.523514 0.171149
1.000000 0.661740 0.198046
0.011868 0.008641 0.093020
0.016910 0.010723 0.094064
0.083003 0.026821 0.097777
0.235988 0.074564 0.104720
0.426338 0.164532 0.115370
0.652303 0.274712 0.130243
0.840598 0.395935 0.148843
1.000000 0.540360 0.171537
1.000000 0.674619 0.198368
0.014786 0.055642 0.094326
0.024817 0.063059 0.095356
0.101116 0.092442 0.099084
0.250598 0.152966 0.106055
0.438798 0.235892 0.116744
0.664189 0.338054 0.131668
0.847255 0.456860 0.150193
1.000000 0.589021 0.172933
1.000000 0.720348 0.199527
0.029052 0.194818 0.096710
0.046676 0.202907 0.097748
0.132813 0.232347 0.101503
0.277581 0.287500 0.108524
0.461622 0.357066 0.119285
0.685997 0.450427 0.134303
0.859406 0.563147 0.152685
1.000000 0.675450 0.175509
1.000000 0.799848 0.201659
0.069649 0.377726 0.100310
0.093664 0.384726 0.101359
0.177673 0.409839 0.105155
0.318171 0.455926 0.112249
0.495531 0.524607 0.123116
0.713063 0.601887 0.138218
0.877352 0.692701 0.156430
1.000000 0.797582 0.179379
1.000000 0.886084 0.204851
0.134183 0.591134 0.105236
0.156551 0.596604 0.106300
0.237766 0.616143 0.110151
0.370555 0.651664 0.117342
0.540945 0.703841 0.128351
0.740662 0.772726 0.143168
0.901188 0.840507 0.161526
1.000000 0.912919 0.184641
1.000000 0.993877 0.209168
0.212987 0.803506 0.111603
0.233911 0.807212 0.112687
0.307231 0.820427 0.116605
0.430019 0.844353 0.123918
0.598096 0.879265 0.135104
0.774720 0.924923 0.149523
0.930858 0.980765 0.168062
1.000000 1.000000 0.191384
1.000000 1.000000 0.214665
0.298289 0.977634 0.119533
0.318827 0.980857 0.120639
0.387246 0.992370 0.124638
0.501440 1.000000 0.132096
0.667098 1.000000 0.142988
0.814907 1.000000 0.157374
0.966198 1.000000 0.176129
1.000000 1.000000 0.198584
1.000000 1.000000 0.221391
0.393242 1.000000 0.129157
0.410710 1.000000 0.130289
0.472803 1.000000 0.134381
0.584776 1.000000 0.141631
0.731796 1.000000 0.152223
0.860821 1.000000 0.166815
1.000000 1.000000 0.185821
1.000000 1.000000 0.206538
1.000000 1.000000 0.229390
0.016413 0.007308 0.281788
0.027784 0.008883 0.282728
0.107145 0.022057 0.286106
0.255239 0.067661 0.292327
0.442741 0.155785 0.301646
0.667953 0.267348 0.314262
0.849358 0.389852 0.330346
1.000000 0.534334 0.349046
1.000000 0.670018 0.370327
0.018310 0.012577 0.282117
0.030535 0.016319 0.283057
0.112547 0.036575 0.286435
0.259317 0.087567 0.292656
0.446199 0.177579 0.301975
0.671256 0.287546 0.314592
0.851201 0.406846 0.330677
1.000000 0.549330 0.349348
1.000000 0.682854 0.370628
0.026725 0.067371 0.283297
0.043200 0.075315 0.284237
0.128964 0.105879 0.287616
0.273989 0.168435 0.293838
0.458597 0.248892 0.303159
0.683104 0.349016 0.315779
0.857799 0.467723 0.331867
1.000000 0.597563 0.350433
1.000000 0.728438 0.371711
0.049880 0.207467 0.285468
0.073488 0.215629 0.286409
0.158489 0.245319 0.289789
0.301079 0.298516 0.296014
0.481311 0.368010 0.305339
0.704319 0.461296 0.317963
0.869842 0.571793 0.334057
1.000000 0.683682 0.352429
1.000000 0.805648 0.373702
0.097437 0.388652 0.288718
0.122682 0.395646 0.289660
0.204846 0.420739 0.293042
0.341812 0.466791 0.299270
0.515068 0.535426 0.308600
0.724996 0.610379 0.321231
0.887634 0.700877 0.337334
1.000000 0.803394 0.355414
1.000000 0.891476 0.376681
0.159911 0.599668 0.293113
0.183061 0.605117 0.294055
0.261102 0.624583 0.297440
0.390723 0.659976 0.303674
0.560293 0.711982 0.313011
0.752274 0.780664 0.325651
0.911274 0.846106 0.341501
1.000000 0.918198 0.359446
1.000000 0.998846 0.380704
0.236904 0.809287 0.298708
0.257231 0.812974 0.299651
0.330835 0.826123 0.303040
0.449862 0.849933 0.309279
0.617231 0.884687 0.318625
0.785964 0.930153 0.331277
0.940711 0.985781 0.346637
1.000000 1.000000 0.364572
1.000000 1.000000 0.385818
0.321863 0.982662 0.305551
0.342471 0.985872 0.306495
0.407317 0.997345 0.309887
0.520951 1.000000 0.316134
0.686004 1.000000 0.325491
0.825750 1.000000 0.338157
0.975790 1.000000 0.352908
1.000000 1.000000 0.370830
1.000000 1.000000 0.392063
0.413280 1.000000 0.313685
0.430653 1.000000 0.314630
0.492440 1.000000 0.318027
0.603959 1.000000 0.324282
0.743509 1.000000 0.333651
0.871245 1.000000 0.345662
1.000000 1.000000 0.360346
1.000000 1.000000 0.378254
1.000000 1.000000 0.399471
0.039448 0.012255 0.518996
0.060827 0.015879 0.519722
0.146598 0.035933 0.522328
0.290292 0.086747 0.527116
0.472294 0.176817 0.534262
0.696208 0.286870 0.543889
0.865067 0.406177 0.556084
1.000000 0.548795 0.570910
1.000000 0.682350 0.588411
0.043150 0.022980 0.519250
0.065752 0.028579 0.519976
0.151100 0.053727 0.522581
0.294394 0.107732 0.527369
0.475727 0.196297 0.534515
0.699496 0.304020 0.544140
0.866886 0.423151 0.556334
1.000000 0.562337 0.571159
1.000000 0.695123 0.588659
0.058896 0.086429 0.520161
0.082787 0.095100 0.520886
0.167498 0.126928 0.523491
0.309151 0.187015 0.528277
0.488037 0.268526 0.535420
0.708461 0.365396 0.545043
0.873397 0.483961 0.557232
1.000000 0.610280 0.572053
1.000000 0.740495 0.589547
0.090751 0.226600 0.521836
0.117028 0.234867 0.522561
0.198547 0.264913 0.525165
0.336386 0.314971 0.529947
0.510597 0.384364 0.537086
0.722274 0.477540 0.546703
0.885285 0.584661 0.558885
1.000000 0.695947 0.573696
1.000000 0.814269 0.591181
0.138357 0.404979 0.524341
0.160860 0.411964 0.525065
0.241604 0.437027 0.527666
0.373886 0.483029 0.532444
0.544138 0.549676 0.539576
0.742585 0.623024 0.549184
0.902856 0.713060 0.561355
1.000000 0.812032 0.576154
1.000000 0.899499 0.593624
0.200037 0.612373 0.527721
0.223011 0.617791 0.528444
0.296190 0.637149 0.531041
0.420678 0.672358 0.535814
0.589098 0.724114 0.542937
0.769406 0.792440 0.552533
0.926211 0.854432 0.564690
1.000000 0.926055 0.579471
1.000000 1.000000 0.596922
0.271843 0.817880 0.532013
0.292296 0.821540 0.532736
0.364498 0.834592 0.535329
0.479363 0.858233 0.540094
0.645732 0.892753 0.547206
0.802568 0.937938 0.556787
0.955311 0.993250 0.568925
1.000000 1.000000 0.583685
1.000000 1.000000 0.601110
0.356793 0.990148 0.537249
0.374448 0.993341 0.537969
0.437138 1.000000 0.540558
0.549986 1.000000 0.545313
0.710312 1.000000 0.552411
0.841779 1.000000 0.561975
0.990012 1.000000 0.574091
1.000000 1.000000 0.588824
1.000000 1.000000 0.606220
0.443053 1.000000 0.543450
0.460294 1.000000 0.544169
0.521653 1.000000 0.546752
0.632529 1.000000 0.551496
0.760785 1.000000 0.558579
0.886670 1.000000 0.568121
1.000000 1.000000 0.580211
1.000000 1.000000 0.594914
1.000000 1.000000 0.612275
0.092684 0.026986 0.769989
0.118672 0.033073 0.770577
0.200382 0.059160 0.772688
0.337970 0.114161 0.776566
0.511903 0.202160 0.782356
0.723069 0.309126 0.790155
0.885972 0.428206 0.800037
1.000000 0.566357 0.812053
1.000000 0.698918 0.826239
0.097797 0.042835 0.770194
0.122983 0.050303 0.770782
0.205182 0.078173 0.772893
0.342100 0.136637 0.776771
0.515305 0.222010 0.782560
0.725140 0.326238 0.790359
0.887759 0.445153 0.800240
1.000000 0.579785 0.812255
1.000000 0.711609 0.826439
0.116947 0.113826 0.770932
0.138726 0.122896 0.771520
0.221674 0.157370 0.773630
0.356522 0.212555 0.777507
0.527507 0.293645 0.783294
0.732546 0.387494 0.791090
0.894159 0.505875 0.800968
1.000000 0.627351 0.812979
1.000000 0.756704 0.827159
0.145929 0.252835 0.772289
0.168667 0.261234 0.772877
0.248512 0.290625 0.774985
0.379868 0.337166 0.778860
0.549875 0.406429 0.784643
0.746032 0.499463 0.792435
0.905848 0.601929 0.802308
1.000000 0.712427 0.814312
1.000000 0.825815 0.828484
0.191577 0.427010 0.774318
0.215567 0.433984 0.774905
0.288908 0.459008 0.777011
0.414496 0.504945 0.780882
0.583147 0.567230 0.786661
0.765882 0.640000 0.794446
0.923133 0.729434 0.804309
1.000000 0.823600 0.816304
1.000000 0.910260 0.830464
0.249780 0.629428 0.777056
0.270155 0.634806 0.777642
0.343908 0.654024 0.779746
0.460781 0.688991 0.783612
0.627773 0.740420 0.789384
0.792125 0.804210 0.797160
0.946122 0.865591 0.807012
1.000000 0.936596 0.818992
1.000000 1.000000 0.833136
0.319386 0.829390 0.780533
0.339987 0.833013 0.781119
0.405217 0.845938 0.783220
0.518909 0.869357 0.787080
0.684023 0.903571 0.792843
0.824617 0.948384 0.800607
0.974787 1.000000 0.810445
1.000000 1.000000 0.822407
1.000000 1.000000 0.836532
0.397604 1.000000 0.784775
0.415051 1.000000 0.785359
0.477076 1.000000 0.787456
0.588950 1.000000 0.791309
0.734352 1.000000 0.797061
0.863093 1.000000 0.804811
1.000000 1.000000 0.814631
1.000000 1.000000 0.826573
1.000000 1.000000 0.840673
0.482935 1.000000 0.789800
0.500012 1.000000 0.790383
0.560840 1.000000 0.792475
0.670906 1.000000 0.796320
0.783686 1.000000 0.802060
0.907210 1.000000 0.809793
1.000000 1.000000 0.819592
1.000000 1.000000 0.831509
1.000000 1.000000 0.845580
0.161943 0.054894 0.985199
0.185151 0.062314 0.985568
0.262915 0.091582 0.986890
0.392281 0.151992 0.989319
0.561790 0.235075 0.992943
0.753169 0.337362 0.997823
0.912052 0.456174 1.000000
1.000000 0.588481 1.000000
1.000000 0.719837 1.000000
0.166538 0.073471 0.985328
0.189873 0.081666 0.985696
0.266998 0.112688 0.987018
0.395786 0.174541 0.989447
0.565157 0.255354 0.993071
0.755180 0.354430 0.997950
0.913802 0.473089 1.000000
1.000000 0.601773 1.000000
1.000000 0.732427 1.000000
0.183258 0.151624 0.985790
0.207038 0.161602 0.986158
0.281689 0.191511 0.987480
0.408350 0.245699 0.989908
0.577234 0.321923 0.993530
0.762372 0.415544 0.998408
0.920070 0.533706 1.000000
1.000000 0.648882 1.000000
1.000000 0.777183 1.000000
0.214854 0.286542 0.986640
0.235473 0.293600 0.987008
0.308813 0.318912 0.988329
0.431354 0.365331 0.990755
0.599382 0.434440 0.994375
0.775479 0.527305 0.999249
0.931522 0.623698 1.000000
1.000000 0.733240 1.000000
1.000000 0.840335 1.000000
0.255380 0.454981 0.987911
0.275775 0.461941 0.988278
0.349591 0.486919 0.989598
0.465512 0.532777 0.992021
0.632343 0.589346 0.995637
0.794789 0.661417 1.000000
0.948464 0.750115 1.000000
1.000000 0.838148 1.000000
1.000000 0.923816 1.000000
0.310093 0.650940 0.989625
0.330667 0.656269 0.989992
0.397319 0.675317 0.991310
0.511229 0.709991 0.993730
0.676580 0.761019 0.997340
0.820354 0.819004 1.000000
0.971014 0.879638 1.000000
1.000000 0.949881 1.000000
1.000000 1.000000 1.000000
0.376442 0.843866 0.991803
0.393994 0.847445 0.992169
0.456355 0.860214 0.993484
0.568723 0.883361 0.995899
0.721922 0.917198 0.999503
0.852057 0.961552 1.000000
0.999157 1.000000 1.000000
1.000000 1.000000 1.000000
1.000000 1.000000 1.000000
0.448844 1.000000 0.994457
0.466060 1.000000 0.994823
0.527339 1.000000 0.996134
0.638093 1.000000 0.998545
0.764127 1.000000 1.000000
0.889661 1.000000 1.000000
1.000000 1.000000 1.000000
1.000000 1.000000 1.000000
1.000000 1.000000 1.000000
0.533132 1.000000 0.997601
0.550025 1.000000 0.997965
0.610243 1.000000 0.999273
0.713631 1.000000 1.000000
0.812129 1.000000 1.000000
0.932856 1.000000 1.000000
1.000000 1.000000 1.000000
1.000000 1.000000 1.000000
1.000000 1.000000 1.000000
0.242810 0.094312 1.000000
0.263159 0.102852 1.000000
0.336832 0.135463 1.000000
0.454877 0.194318 1.000000
0.622072 0.276222 1.000000
0.788796 0.371762 1.000000
0.943197 0.490273 1.000000
1.000000 0.615208 1.000000
1.000000 0.745172 1.000000
0.246878 0.115476 1.000000
0.267242 0.124589 1.000000
0.340962 0.159212 1.000000
0.458324 0.214058 1.000000
0.625401 0.294942 1.000000
0.790741 0.388780 1.000000
0.944905 0.507151 1.000000
1.000000 0.628342 1.000000
1.000000 0.757645 1.000000
0.261517 0.194017 1.000000
0.281934 0.202101 1.000000
0.355546 0.231525 1.000000
0.470685 0.286799 1.000000
0.637343 0.356369 1.000000
0.797698 0.449736 1.000000
0.951023 0.562595 1.000000
1.000000 0.674925 1.000000
1.000000 0.799478 1.000000
0.288552 0.321103 1.000000
0.309059 0.328137 1.000000
0.378899 0.353368 1.000000
0.493335 0.399651 1.000000
0.659250 0.468587 1.000000
0.810386 0.557461 1.000000
0.962205 0.650016 1.000000
1.000000 0.758450 1.000000
1.000000 0.857835 1.000000
0.329209 0.489082 1.000000
0.349838 0.496027 1.000000
0.413536 0.520953 1.000000
0.527001 0.561851 1.000000
0.691870 0.616062 1.000000
0.829100 0.687328 1.000000
0.978759 0.775174 1.000000
1.000000 0.855680 1.000000
1.000000 0.940187 1.000000
0.379995 0.676961 1.000000
0.397529 0.682234 1.000000
0.459832 0.701086 1.000000
0.572116 0.735418 1.000000
0.724015 0.785981 1.000000
0.853912 0.836823 1.000000
1.000000 0.896583 1.000000
1.000000 0.965934 1.000000
1.000000 1.000000 1.000000
0.439304 0.861314 1.000000
0.456561 0.864842 1.000000
0.517973 0.877428 1.000000
0.628927 0.900256 1.000000
0.758618 0.933652 1.000000
0.884732 0.977467 1.000000
1.000000 1.000000 1.000000
1.000000 1.000000 1.000000
1.000000 1.000000 1.000000
0.510569 1.000000 1.000000
0.527542 1.000000 1.000000
0.588027 1.000000 1.000000
0.697563 1.000000 1.000000
0.799396 1.000000 1.000000
0.921358 1.000000 1.000000
1.000000 1.000000 1.000000
1.000000 1.000000 1.000000
1.000000 1.000000 1.000000
0.593750 1.000000 1.000000
0.610442 1.000000 1.000000
0.669996 1.000000 1.000000
0.750623 1.000000 1.000000
0.845925 1.000000 1.000000
0.963509 1.000000 1.000000
1.000000 1.000000 1.000000
1.000000 1.000000 1.000000
1.000000 1.000000 1.000000
0.330370 0.147305 1.000000
0.351003 0.157188 1.000000
0.414517 0.187978 1.000000
0.527956 0.242034 1.000000
0.692797 0.318829 1.000000
0.829629 0.412474 1.000000
0.979227 0.530659 1.000000
1.000000 0.646532 1.000000
1.000000 0.774947 1.000000
0.334497 0.170762 1.000000
0.354966 0.178698 1.000000
0.418001 0.207626 1.000000
0.531347 0.262396 1.000000
0.696086 0.335925 1.000000
0.831504 0.429440 1.000000
0.980890 0.546365 1.000000
1.000000 0.659492 1.000000
1.000000 0.787290 1.000000
0.349339 0.241723 1.000000
0.367681 0.250068 1.000000
0.430488 0.280378 1.000000
0.543507 0.327814 1.000000
0.706275 0.397131 1.000000
0.838213 0.490224 1.000000
0.986844 0.594666 1.000000
1.000000 0.705492 1.000000
1.000000 0.820961 1.000000
0.373382 0.361987 1.000000
0.390949 0.368996 1.000000
0.453360 0.394140 1.000000
0.565802 0.440278 1.000000
0.720118 0.509027 1.000000
0.850458 0.589608 1.000000
0.997733 0.680889 1.000000
1.000000 0.788086 1.000000
1.000000 0.878283 1.000000
0.408073 0.529472 1.000000
0.425470 0.536400 1.000000
0.487335 0.557468 1.000000
0.598971 0.593932 1.000000
0.740473 0.647375 1.000000
0.868539 0.717748 1.000000
1.000000 0.801423 1.000000
1.000000 0.876165 1.000000
1.000000 0.959360 1.000000
0.454434 0.707504 1.000000
0.471627 0.712714 1.000000
0.532830 0.731347 1.000000
0.643468 0.765298 1.000000
0.767348 0.809311 1.000000
0.892546 0.857630 1.000000
1.000000 0.916408 1.000000
1.000000 0.984746 1.000000
1.000000 1.000000 1.000000
0.512647 0.881705 1.000000
0.529613 0.885174 1.000000
0.590072 0.897555 1.000000
0.699570 0.920024 1.000000
0.800573 0.952920 1.000000
0.922419 0.996123 1.000000
1.000000 1.000000 1.000000
1.000000 1.000000 1.000000
1.000000 1.000000 1.000000
0.582777 1.000000 1.000000
0.599504 1.000000 1.000000
0.659173 1.000000 1.000000
0.743994 1.000000 1.000000
0.839851 1.000000 1.000000
0.957986 1.000000 1.000000
1.000000 1.000000 1.000000
1.000000 1.000000 1.000000
1.000000 1.000000 1.000000
0.664824 1.000000 1.000000
0.681308 1.000000 1.000000
0.726857 1.000000 1.000000
0.792887 1.000000 1.000000
0.884814 1.000000 1.000000
0.999003 1.000000 1.000000
1.000000 1.000000 1.000000
1.000000 1.000000 1.000000
1.000000 1.000000 1.000000
