velvia_classic/Velvia50_Normal.cube
TITLE "Velvia 50 Normal"
# Adobe RGB in/out. REPLACES AgX. Velvia 50 color reversal.
LUT_3D_SIZE 9
DOMAIN_MIN 0.0 0.0 0.0
DOMAIN_MAX 1.0 1.0 1.0
0.034495 0.021697 0.024158
0.036908 0.022362 0.024158
0.111704 0.034943 0.024391
0.272432 0.096012 0.025642
0.423761 0.192442 0.028693
0.574454 0.297719 0.036090
0.691143 0.396451 0.052213
0.791348 0.497428 0.077943
0.859745 0.586977 0.110722
0.034578 0.025704 0.024158
0.038315 0.029262 0.024158
0.117959 0.054574 0.024442
0.276179 0.120443 0.025750
0.426251 0.215723 0.028816
0.576522 0.314593 0.036378
0.692216 0.408895 0.052612
0.792223 0.508577 0.078406
0.860181 0.594919 0.111156
0.036496 0.095620 0.024158
0.045668 0.106223 0.024158
0.138864 0.141228 0.024624
0.288670 0.204659 0.026113
0.435123 0.282281 0.029303
0.583912 0.365796 0.037408
0.696050 0.452149 0.054046
0.795357 0.541169 0.080074
0.861740 0.622742 0.112718
0.051484 0.246197 0.024281
0.073348 0.253480 0.024438
0.176886 0.279250 0.024981
0.311132 0.325271 0.026709
0.451163 0.380194 0.030400
0.597362 0.447673 0.039283
0.703023 0.524443 0.056697
0.801075 0.595430 0.083128
0.864586 0.670650 0.115597
0.100349 0.395567 0.024818
0.130693 0.400714 0.024962
0.221145 0.418942 0.025872
0.343626 0.451501 0.027761
0.474527 0.498155 0.032282
0.616704 0.549399 0.042165
0.713264 0.605990 0.060688
0.809515 0.669328 0.087661
0.868791 0.720127 0.119913
0.178640 0.542525 0.025894
0.200977 0.546027 0.026177
0.277712 0.558454 0.027057
0.385440 0.580729 0.029568
0.505023 0.612765 0.035118
0.633399 0.653932 0.047020
0.726760 0.694179 0.066547
0.818102 0.735206 0.093847
0.874375 0.779870 0.125765
0.253234 0.672782 0.027527
0.274383 0.674940 0.027917
0.335008 0.682606 0.029241
0.428881 0.696386 0.032731
0.542253 0.716272 0.039847
0.653721 0.741905 0.053334
0.743399 0.772716 0.074268
0.826596 0.808039 0.101813
0.881323 0.843803 0.133240
0.327890 0.771004 0.030503
0.344140 0.772767 0.030956
0.397850 0.779050 0.033130
0.478545 0.790417 0.037715
0.585714 0.806980 0.046844
0.677326 0.828589 0.061693
0.762996 0.848657 0.083852
0.836622 0.867743 0.111447
0.889588 0.888911 0.142419
0.402265 0.856599 0.035585
0.415004 0.857522 0.036411
0.458926 0.860814 0.039338
0.533683 0.866777 0.045516
0.628059 0.875477 0.056205
0.703833 0.886846 0.072789
0.785319 0.900714 0.095238
0.848062 0.916848 0.122199
0.899103 0.934872 0.153326
0.034550 0.021697 0.032152
0.038139 0.022630 0.032778
0.117124 0.036628 0.034952
0.275713 0.098499 0.040159
0.425921 0.194699 0.049994
0.576247 0.299369 0.065546
0.692074 0.397669 0.087822
0.792107 0.498517 0.115212
0.860123 0.587753 0.146257
0.034909 0.026472 0.032371
0.039390 0.030302 0.032994
0.123442 0.056761 0.035157
0.279214 0.122739 0.040439
0.428403 0.217991 0.050359
0.578311 0.316221 0.065995
0.693145 0.410094 0.088282
0.792981 0.509653 0.115648
0.860558 0.595686 0.146702
0.037587 0.098105 0.033151
0.048817 0.108527 0.033763
0.143792 0.143557 0.036088
0.291654 0.206922 0.041441
0.437248 0.283951 0.051669
0.585687 0.367062 0.067611
0.696971 0.453290 0.089941
0.796111 0.542000 0.117215
0.862115 0.623479 0.148299
0.054787 0.247922 0.034550
0.077930 0.255193 0.035141
0.181145 0.280925 0.037981
0.314033 0.326886 0.043774
0.453242 0.381436 0.054284
0.599113 0.448819 0.070604
0.703930 0.525296 0.093005
0.801820 0.596196 0.120102
0.864958 0.671163 0.151240
0.105646 0.396786 0.037052
0.135589 0.401925 0.037869
0.224931 0.420127 0.040767
0.346418 0.452642 0.047369
0.476542 0.499243 0.058256
0.617808 0.550219 0.075125
0.714151 0.606745 0.097620
0.810249 0.669843 0.124431
0.869157 0.720588 0.155388
0.182546 0.543354 0.040828
0.204817 0.546851 0.041624
0.280740 0.559262 0.045348
0.387728 0.581511 0.052267
0.506963 0.613513 0.063852
0.634460 0.654640 0.081315
0.727623 0.694666 0.103914
0.818542 0.735653 0.130301
0.874734 0.780280 0.160795
0.256945 0.673293 0.046748
0.277425 0.675448 0.047790
0.337827 0.683105 0.051537
0.431024 0.696871 0.059085
0.544111 0.716737 0.071516
0.654732 0.742347 0.089117
0.744233 0.773132 0.111742
0.827022 0.808428 0.137797
0.881673 0.844031 0.167668
0.330733 0.771421 0.054541
0.346931 0.773182 0.055689
0.400094 0.779460 0.059831
0.480550 0.790818 0.068097
0.587486 0.807370 0.081089
0.678285 0.828964 0.098784
0.763798 0.848881 0.120796
0.837032 0.867953 0.146999
0.889928 0.889107 0.176060
0.404494 0.856817 0.064764
0.417191 0.857739 0.066047
0.460983 0.861029 0.070693
0.535558 0.866987 0.079389
0.629133 0.875682 0.092436
0.704739 0.887043 0.110340
0.786087 0.900902 0.131614
0.848456 0.917027 0.157503
0.899432 0.934941 0.186016
0.036085 0.022465 0.152164
0.043788 0.024479 0.153384
0.135407 0.042639 0.157545
0.286563 0.107429 0.165197
0.433624 0.202815 0.176637
0.582661 0.305275 0.192080
0.695401 0.402027 0.210678
0.794826 0.502417 0.232380
0.861476 0.590532 0.256991
0.036889 0.029638 0.152609
0.047091 0.034397 0.153788
0.141077 0.064729 0.157949
0.290013 0.131021 0.165602
0.436079 0.226147 0.177041
0.584711 0.322052 0.192484
0.696465 0.414387 0.211045
0.795696 0.513512 0.232744
0.861909 0.598434 0.257280
0.042927 0.107070 0.154084
0.061353 0.116720 0.155242
0.161650 0.151954 0.159403
0.302280 0.215059 0.167055
0.444829 0.289931 0.178492
0.592038 0.371595 0.193934
0.700264 0.457377 0.212363
0.798809 0.544975 0.234049
0.863458 0.626124 0.258315
0.068396 0.254095 0.156759
0.094850 0.261325 0.157917
0.195095 0.286920 0.162077
0.324368 0.332318 0.169727
0.460660 0.385885 0.181163
0.605377 0.452926 0.196601
0.707175 0.528350 0.214787
0.804490 0.598942 0.236448
0.866287 0.673001 0.260215
0.125002 0.401149 0.160760
0.153337 0.406261 0.161918
0.238454 0.424369 0.166076
0.356381 0.456732 0.173724
0.483739 0.503141 0.185156
0.621750 0.553157 0.200537
0.717326 0.609451 0.218407
0.812877 0.671686 0.240031
0.870467 0.722242 0.263049
0.196481 0.546322 0.166164
0.218523 0.549804 0.167321
0.291518 0.562160 0.171478
0.395880 0.584316 0.179123
0.513895 0.616193 0.190551
0.638249 0.657178 0.205462
0.730710 0.696412 0.223289
0.820117 0.737257 0.244865
0.876019 0.781749 0.266859
0.270210 0.675122 0.173034
0.288250 0.677268 0.174191
0.347884 0.684895 0.178346
0.438672 0.698609 0.185987
0.550752 0.718404 0.197409
0.658348 0.743929 0.211709
0.747218 0.774622 0.229481
0.828548 0.809822 0.250998
0.882927 0.844849 0.271677
0.340870 0.772916 0.181423
0.356888 0.774672 0.182579
0.408094 0.780932 0.186731
0.487710 0.792259 0.194368
0.593825 0.808767 0.205284
0.681714 0.830307 0.219314
0.766669 0.849685 0.237023
0.838503 0.868707 0.257472
0.891147 0.889809 0.277520
0.412441 0.857600 0.191375
0.424991 0.858520 0.192530
0.468326 0.861801 0.196680
0.542263 0.867744 0.203939
0.632970 0.876416 0.214338
0.707977 0.887750 0.228307
0.788837 0.901578 0.245943
0.849867 0.917668 0.264541
0.900612 0.935191 0.284397
0.046132 0.026404 0.327751
0.066323 0.030209 0.328504
0.168237 0.056562 0.331206
0.306130 0.122531 0.336156
0.447582 0.217785 0.343510
0.594350 0.316073 0.353355
0.701462 0.409986 0.365731
0.799792 0.509556 0.379886
0.863948 0.595617 0.395712
0.049747 0.038395 0.328014
0.070785 0.045951 0.328767
0.174043 0.080167 0.331468
0.309494 0.146382 0.336417
0.449990 0.238367 0.343769
0.596375 0.332355 0.353611
0.702512 0.422229 0.365984
0.800654 0.519376 0.380113
0.864377 0.603463 0.395934
0.064570 0.122168 0.328959
0.089921 0.131929 0.329712
0.191177 0.166863 0.332410
0.321467 0.229833 0.337353
0.458576 0.300859 0.344698
0.603615 0.379864 0.354531
0.706262 0.464851 0.366892
0.803739 0.550414 0.380927
0.865913 0.630965 0.396732
0.099294 0.265361 0.330697
0.129714 0.272518 0.331448
0.220386 0.297874 0.334141
0.343065 0.341048 0.339074
0.474123 0.394004 0.346405
0.616482 0.460436 0.356220
0.713086 0.533932 0.368559
0.809368 0.603967 0.382422
0.868718 0.676363 0.398196
0.157570 0.409116 0.333289
0.184705 0.414179 0.334038
0.263045 0.432121 0.336723
0.374439 0.464211 0.341642
0.496813 0.510274 0.348953
0.628908 0.558528 0.358741
0.723114 0.614403 0.371049
0.816244 0.675057 0.384652
0.872862 0.725271 0.400382
0.221747 0.551750 0.336779
0.243418 0.555203 0.337525
0.310962 0.567459 0.340200
0.410617 0.589446 0.345101
0.526503 0.621100 0.352385
0.645133 0.661827 0.362138
0.736340 0.699608 0.374204
0.822991 0.740195 0.387657
0.878367 0.784442 0.403327
0.290788 0.678468 0.341200
0.307775 0.680599 0.341942
0.366104 0.688171 0.344604
0.452534 0.701790 0.349482
0.562844 0.721456 0.356731
0.664922 0.746828 0.366441
0.752664 0.777352 0.378076
0.831333 0.812378 0.391461
0.885220 0.846348 0.407056
0.359227 0.775655 0.346571
0.374936 0.777402 0.347309
0.422567 0.783629 0.349956
0.500720 0.794900 0.354806
0.605381 0.811328 0.362015
0.687957 0.832770 0.371673
0.771910 0.851160 0.382780
0.841188 0.870089 0.396083
0.893376 0.891097 0.411588
0.426823 0.859035 0.352908
0.439118 0.859950 0.353641
0.481656 0.863215 0.356270
0.554470 0.869130 0.361088
0.639940 0.877763 0.368251
0.713879 0.889047 0.377342
0.793860 0.902817 0.388326
0.852444 0.918845 0.401535
0.902770 0.935650 0.416936
0.084460 0.037715 0.499423
0.113855 0.045092 0.499905
0.208844 0.079195 0.501632
0.334541 0.145435 0.504799
0.467978 0.237661 0.509509
0.611577 0.331816 0.515823
0.710384 0.421751 0.523771
0.807136 0.519027 0.533363
0.867606 0.603155 0.544586
0.089849 0.058184 0.499591
0.120135 0.067626 0.500073
0.213246 0.104514 0.501800
0.337794 0.168872 0.504966
0.470322 0.255424 0.509675
0.613567 0.345373 0.515987
0.711414 0.433828 0.523934
0.807986 0.527827 0.533523
0.868029 0.610920 0.544744
0.111349 0.145067 0.500196
0.140823 0.154954 0.500677
0.228951 0.189091 0.502402
0.349382 0.247031 0.505565
0.478682 0.317033 0.510270
0.618980 0.392071 0.516577
0.715094 0.475921 0.524517
0.811029 0.558465 0.534099
0.869546 0.638150 0.545311
0.150033 0.282007 0.501306
0.178792 0.289063 0.501787
0.257440 0.314085 0.503509
0.370330 0.353905 0.506667
0.493835 0.405997 0.511364
0.627278 0.471557 0.517661
0.721793 0.542190 0.525589
0.815571 0.611419 0.535157
0.872315 0.681346 0.546353
0.200676 0.420893 0.502964
0.222653 0.425886 0.503443
0.294755 0.443590 0.505162
0.398332 0.475289 0.508312
0.515986 0.519601 0.512998
0.639391 0.566482 0.519280
0.731643 0.621749 0.527190
0.820593 0.680054 0.536737
0.876407 0.729766 0.547909
0.258770 0.559785 0.505198
0.278919 0.563196 0.505676
0.339213 0.575309 0.507388
0.432078 0.597050 0.510529
0.545024 0.628380 0.515200
0.655230 0.668696 0.521462
0.744643 0.704349 0.529348
0.827232 0.744557 0.538866
0.881845 0.788446 0.550006
0.319729 0.683428 0.508029
0.336131 0.685536 0.508504
0.391406 0.693029 0.510210
0.472798 0.706509 0.513337
0.580642 0.725987 0.517990
0.674579 0.751133 0.524228
0.760701 0.781409 0.532083
0.835447 0.816180 0.541565
0.888616 0.848576 0.552665
0.385682 0.779725 0.511471
0.398744 0.781459 0.511944
0.443667 0.787639 0.513642
0.519803 0.798825 0.516754
0.620095 0.815137 0.521383
0.697139 0.836435 0.527592
0.779652 0.853352 0.535410
0.845156 0.872144 0.544849
0.896678 0.893014 0.555900
0.447800 0.861168 0.515536
0.459746 0.862077 0.516006
0.501185 0.865319 0.517693
0.572428 0.871192 0.520788
0.650158 0.879766 0.525391
0.722572 0.890977 0.531564
0.801286 0.904662 0.539341
0.856255 0.920598 0.548729
0.905968 0.936332 0.559723
0.152228 0.065004 0.655572
0.180521 0.074792 0.655917
0.259078 0.111694 0.657156
0.371531 0.175759 0.659429
0.494705 0.260661 0.662816
0.627754 0.349363 0.667366
0.722179 0.437396 0.673111
0.815767 0.530426 0.680067
0.872475 0.613218 0.688238
0.157971 0.089397 0.655693
0.185018 0.099875 0.656038
0.263342 0.135362 0.657276
0.374657 0.198951 0.659549
0.496971 0.278055 0.662935
0.628994 0.362588 0.667484
0.723184 0.449262 0.673228
0.816279 0.539067 0.680183
0.872891 0.620875 0.688353
0.178707 0.175404 0.656126
0.201044 0.184927 0.656471
0.277764 0.219311 0.657708
0.385480 0.269833 0.659980
0.505057 0.337200 0.663364
0.633417 0.408274 0.667910
0.726775 0.490681 0.673651
0.818110 0.569192 0.680602
0.874382 0.647750 0.688766
0.208186 0.304138 0.656922
0.230051 0.311070 0.657267
0.300542 0.334805 0.658503
0.402716 0.370922 0.660772
0.519731 0.421931 0.664152
0.641437 0.486383 0.668693
0.733314 0.553183 0.674428
0.821446 0.621368 0.681371
0.877104 0.687994 0.689527
0.251173 0.436553 0.658112
0.272464 0.441458 0.658456
0.333440 0.458860 0.659690
0.427689 0.490058 0.661955
0.541221 0.530989 0.665329
0.653159 0.577083 0.669863
0.742936 0.631560 0.675588
0.826359 0.686721 0.682520
0.881129 0.735776 0.690663
0.301599 0.570491 0.659716
0.318358 0.573849 0.660059
0.376021 0.585774 0.661290
0.460081 0.607198 0.663550
0.569457 0.638105 0.666916
0.668513 0.675530 0.671440
0.755647 0.710681 0.677152
0.832860 0.750391 0.684069
0.886479 0.793808 0.692195
0.357319 0.690047 0.661751
0.373059 0.692125 0.662093
0.421063 0.699513 0.663320
0.499365 0.712812 0.665573
0.604175 0.732043 0.668930
0.687306 0.756892 0.673441
0.771363 0.786843 0.679137
0.840908 0.821275 0.686035
0.893143 0.851560 0.694139
0.415591 0.785176 0.664228
0.428084 0.786892 0.664569
0.471242 0.793009 0.665793
0.544929 0.804085 0.668038
0.634494 0.820242 0.671383
0.709266 0.840117 0.675878
0.789932 0.856287 0.681555
0.850429 0.874899 0.688430
0.901082 0.895585 0.696507
0.475225 0.864027 0.667159
0.486752 0.864927 0.667498
0.526857 0.868137 0.668716
0.596161 0.873956 0.670952
0.663593 0.882452 0.674284
0.734074 0.893565 0.678761
0.811158 0.907138 0.684415
0.861322 0.922951 0.691262
0.910236 0.937247 0.699309
0.223687 0.106076 0.777036
0.245331 0.115767 0.777236
0.312449 0.150978 0.777955
0.411746 0.214115 0.779275
0.527472 0.289239 0.781243
0.645662 0.371070 0.783889
0.736774 0.456904 0.787232
0.823212 0.544631 0.791285
0.878549 0.625818 0.796053
0.228044 0.129693 0.777106
0.249629 0.139505 0.777306
0.315788 0.174193 0.778025
0.414280 0.235547 0.779345
0.529650 0.306224 0.781312
0.646851 0.383918 0.783957
0.737749 0.468522 0.787301
0.823710 0.553085 0.791353
0.878956 0.633346 0.796120
0.243598 0.213756 0.777357
0.264983 0.223362 0.777557
0.327671 0.251112 0.778276
0.423305 0.298192 0.779595
0.537430 0.359274 0.781561
0.651093 0.428434 0.784205
0.741235 0.509143 0.787547
0.825490 0.582594 0.791597
0.880416 0.659790 0.796361
0.271842 0.331554 0.777819
0.289576 0.337164 0.778019
0.349118 0.356953 0.778737
0.439611 0.392023 0.780055
0.551568 0.441777 0.782019
0.658792 0.504923 0.784661
0.747585 0.566905 0.787999
0.828736 0.633831 0.792046
0.883081 0.696314 0.796805
0.306246 0.456079 0.778510
0.322911 0.460880 0.778710
0.380295 0.477926 0.779426
0.463334 0.508532 0.780742
0.572312 0.545182 0.782704
0.670062 0.590333 0.785341
0.756936 0.643856 0.788675
0.833519 0.695064 0.792716
0.887023 0.743315 0.797469
0.350116 0.583868 0.779442
0.365976 0.587160 0.779641
0.415386 0.598861 0.780356
0.494256 0.619902 0.781669
0.599634 0.650295 0.783627
0.684854 0.684076 0.786260
0.769302 0.718614 0.789587
0.839852 0.757716 0.793620
0.892266 0.800551 0.798364
0.400207 0.698331 0.780624
0.412985 0.700372 0.780823
0.457029 0.707633 0.781536
0.531953 0.720711 0.782846
0.627068 0.739639 0.784799
0.702998 0.764125 0.787425
0.784611 0.793674 0.790744
0.847699 0.827689 0.794767
0.898800 0.855312 0.799500
0.451828 0.792029 0.782064
0.463710 0.793722 0.782262
0.504946 0.799762 0.782973
0.575897 0.810702 0.784279
0.652126 0.826667 0.786226
0.724252 0.844019 0.788844
0.802724 0.859978 0.792153
0.856993 0.878367 0.796165
0.906589 0.898825 0.800884
0.508765 0.867623 0.783768
0.519829 0.868512 0.783965
0.558442 0.871684 0.784674
0.622092 0.877434 0.785975
0.680111 0.885834 0.787915
0.748324 0.896826 0.790524
0.819782 0.910259 0.793821
0.867638 0.925918 0.797819
0.915577 0.938400 0.802522
0.295769 0.154068 0.875512
0.312649 0.163559 0.875643
0.370668 0.197771 0.876113
0.456007 0.253645 0.876976
0.565885 0.323272 0.878264
0.666574 0.396769 0.879997
0.754035 0.480193 0.882190
0.832035 0.561571 0.884852
0.885798 0.640926 0.887989
0.299178 0.177154 0.875558
0.315987 0.186681 0.875689
0.373797 0.221078 0.876159
0.458388 0.271147 0.877022
0.567972 0.338227 0.878309
0.667707 0.409208 0.880042
0.754977 0.491534 0.882235
0.832517 0.569812 0.884897
0.886196 0.648306 0.888034
0.311303 0.253374 0.875722
0.327868 0.260609 0.875853
0.384751 0.286219 0.876323
0.466879 0.331759 0.877185
0.575429 0.385365 0.878472
0.671753 0.452447 0.880204
0.758344 0.527993 0.882396
0.834240 0.598621 0.885057
0.887619 0.672786 0.888193
0.333156 0.358643 0.876024
0.349310 0.364042 0.876155
0.402007 0.383124 0.876624
0.482260 0.417066 0.877486
0.588999 0.465442 0.878772
0.679104 0.524665 0.880503
0.764483 0.583296 0.882693
0.837383 0.648781 0.885352
0.890219 0.706283 0.888485
0.364862 0.479388 0.876476
0.380481 0.484073 0.876607
0.427005 0.500721 0.877075
0.504723 0.527512 0.877936
0.608947 0.562109 0.879221
0.689881 0.606187 0.880949
0.773529 0.658613 0.883137
0.842018 0.705059 0.885793
0.894065 0.752375 0.888922
0.402808 0.599866 0.877085
0.415537 0.603085 0.877216
0.459427 0.614529 0.877684
0.534139 0.635129 0.878543
0.628320 0.664932 0.879825
0.704054 0.694306 0.881551
0.785506 0.728133 0.883736
0.848158 0.766524 0.886388
0.899183 0.808676 0.889512
0.445183 0.708257 0.877859
0.457171 0.710256 0.877989
0.498743 0.717369 0.878456
0.570178 0.730189 0.879314
0.648880 0.748764 0.880593
0.721482 0.772825 0.882316
0.800353 0.801903 0.884496
0.855776 0.835425 0.887143
0.905566 0.859830 0.890261
0.493816 0.800283 0.878801
0.505080 0.801950 0.878931
0.544340 0.807899 0.879397
0.612398 0.818678 0.880253
0.672739 0.834418 0.881530
0.741950 0.848715 0.883248
0.816408 0.864426 0.885423
0.864808 0.882549 0.888063
0.913181 0.902736 0.891175
0.547989 0.871957 0.879918
0.558568 0.872834 0.880047
0.595603 0.875960 0.880512
0.644156 0.881629 0.881365
0.699506 0.889915 0.882638
0.765197 0.900763 0.884352
0.828717 0.914029 0.886520
0.875167 0.929505 0.889153
0.920688 0.939792 0.892256
0.365749 0.209539 0.926608
0.381354 0.219136 0.926657
0.427704 0.247909 0.926833
0.505354 0.295117 0.927155
0.609509 0.356889 0.927636
0.690184 0.426249 0.928284
0.773784 0.507137 0.929103
0.842148 0.581139 0.930099
0.894174 0.658480 0.931273
0.368894 0.232018 0.926625
0.384318 0.239402 0.926674
0.430179 0.265502 0.926850
0.507590 0.312024 0.927172
0.611503 0.369979 0.927653
0.691259 0.438264 0.928301
0.774690 0.517441 0.929120
0.842613 0.589147 0.930116
0.894560 0.665696 0.931290
0.380106 0.294856 0.926687
0.393760 0.301839 0.926736
0.439002 0.326618 0.926911
0.515573 0.363796 0.927233
0.617663 0.415250 0.927714
0.695101 0.480160 0.928361
0.777930 0.548571 0.929181
0.844274 0.617190 0.930176
0.895943 0.685203 0.931349
0.397961 0.389545 0.926800
0.410781 0.394731 0.926848
0.454958 0.413090 0.927024
0.530067 0.445863 0.927346
0.625986 0.492787 0.927826
0.702088 0.545350 0.928473
0.783840 0.602264 0.929292
0.847304 0.666160 0.930286
0.898470 0.717851 0.931459
0.423107 0.506353 0.926968
0.435466 0.510914 0.927017
0.478207 0.524670 0.927192
0.551307 0.548105 0.927514
0.638136 0.581661 0.927994
0.712349 0.624565 0.928640
0.792557 0.673915 0.929458
0.851775 0.716656 0.930451
0.902209 0.762923 0.931622
0.455701 0.618403 0.927196
0.467523 0.621540 0.927244
0.508566 0.632702 0.927419
0.579238 0.652815 0.927740
0.654021 0.678482 0.928220
0.725871 0.706167 0.928865
0.804112 0.739199 0.929682
0.857705 0.776789 0.930674
0.907188 0.818167 0.931843
0.495201 0.719779 0.927485
0.506446 0.721730 0.927533
0.545646 0.728678 0.927708
0.613612 0.741209 0.928028
0.673421 0.759387 0.928507
0.742539 0.782967 0.929151
0.816720 0.811511 0.929966
0.865069 0.842088 0.930956
0.913402 0.865105 0.932124
0.540984 0.809919 0.927837
0.551646 0.811558 0.927885
0.588951 0.817403 0.928060
0.640227 0.827999 0.928379
0.696038 0.841463 0.928857
0.762169 0.854193 0.929499
0.827113 0.869620 0.930313
0.873812 0.887440 0.931301
0.920000 0.907316 0.932466
0.592428 0.877023 0.928254
0.602520 0.877884 0.928302
0.630021 0.880959 0.928476
0.668956 0.886535 0.928795
0.721528 0.894689 0.929271
0.784528 0.905372 0.929912
0.838952 0.918446 0.930723
0.883853 0.933712 0.931709
0.925106 0.941423 0.932871
