velvia_classic/Velvia50_RadianceIII.cube
TITLE "Velvia 50 RadianceIII"
# Adobe RGB in/out. REPLACES AgX. Velvia 50 color reversal.
LUT_3D_SIZE 5
DOMAIN_MIN 0.0 0.0 0.0
DOMAIN_MAX 1.0 1.0 1.0
0.078461 0.087030 0.084083
0.086405 0.087030 0.084083
0.525162 0.116175 0.084083
0.938709 0.388207 0.084083
0.986975 0.674521 0.084129
0.078461 0.087458 0.084083
0.088131 0.093267 0.084083
0.528998 0.217996 0.084083
0.939435 0.474556 0.084083
0.987004 0.735568 0.084406
0.078422 0.388431 0.084083
0.097055 0.423969 0.084083
0.542422 0.535914 0.084083
0.942027 0.708187 0.084083
0.987051 0.884988 0.085409
0.078249 0.818036 0.084083
0.122957 0.833703 0.084083
0.566977 0.881496 0.084083
0.946735 0.935526 0.083939
0.987137 0.968334 0.087054
0.080718 0.972595 0.084083
0.173179 0.973945 0.084083
0.603507 0.978605 0.084083
0.953631 0.982951 0.083682
0.987263 0.986218 0.089713
0.078461 0.087030 0.089425
0.086405 0.087030 0.090809
0.525162 0.116987 0.098196
0.938709 0.389388 0.120684
0.986975 0.675377 0.173257
0.078461 0.087574 0.089911
0.088131 0.093482 0.091286
0.528998 0.219678 0.099131
0.939435 0.475732 0.122278
0.987004 0.736372 0.175161
0.078422 0.389613 0.091633
0.097055 0.425157 0.092975
0.542422 0.536812 0.102480
0.942027 0.709032 0.128059
0.987051 0.885306 0.182058
0.078249 0.818563 0.096378
0.122957 0.834221 0.099057
0.566977 0.881816 0.110579
0.946735 0.935687 0.139458
0.987137 0.968382 0.194757
0.080718 0.972641 0.106725
0.173179 0.973990 0.110112
0.603507 0.978647 0.124155
0.953631 0.982963 0.158926
0.987263 0.986229 0.213840
0.078461 0.087030 0.521404
0.086405 0.087030 0.524961
0.525162 0.119986 0.537476
0.938709 0.393647 0.559936
0.986975 0.678450 0.590655
0.078461 0.087981 0.522647
0.088131 0.094882 0.526203
0.528998 0.225760 0.538682
0.939435 0.479901 0.561028
0.987004 0.739260 0.591737
0.078422 0.393872 0.527110
0.097055 0.429425 0.530609
0.542422 0.540034 0.543009
0.942027 0.712068 0.564945
0.987051 0.886447 0.595621
0.078249 0.820455 0.535135
0.122957 0.836082 0.538586
0.566977 0.882966 0.550957
0.946735 0.936263 0.572132
0.987137 0.968554 0.602751
0.080718 0.972804 0.547044
0.173179 0.974150 0.550484
0.603507 0.978797 0.562307
0.953631 0.983006 0.582838
0.987263 0.986265 0.613375
0.078461 0.087030 0.928755
0.086405 0.087030 0.929304
0.525162 0.126129 0.931267
0.938709 0.401486 0.934832
0.986975 0.684094 0.940057
0.078461 0.088993 0.928947
0.088131 0.098721 0.929496
0.528998 0.236981 0.931457
0.939435 0.486296 0.935018
0.987004 0.744564 0.940239
0.078422 0.401711 0.929636
0.097055 0.437209 0.930183
0.542422 0.545949 0.932138
0.942027 0.717533 0.935688
0.987051 0.888540 0.940893
0.078249 0.823927 0.930898
0.122957 0.839495 0.931442
0.566977 0.885074 0.933385
0.946735 0.937319 0.936915
0.987137 0.968871 0.942091
0.080718 0.973103 0.932771
0.173179 0.974444 0.933311
0.603507 0.979074 0.935237
0.953631 0.983084 0.938738
0.987263 0.986333 0.943871
0.078461 0.087030 0.985353
0.086405 0.087030 0.985388
0.525162 0.135704 0.985513
0.938709 0.413220 0.985741
0.986975 0.692516 0.986077
0.078461 0.091295 0.985365
0.088131 0.104852 0.985400
0.528998 0.253692 0.985525
0.939435 0.495598 0.985753
0.987004 0.752478 0.986089
0.078422 0.413445 0.985409
0.097055 0.448832 0.985444
0.542422 0.554766 0.985568
0.942027 0.725533 0.985796
0.987051 0.891653 0.986131
0.078249 0.829095 0.985489
0.122957 0.844578 0.985524
0.566977 0.888210 0.985648
0.946735 0.938890 0.985875
0.987137 0.969342 0.986209
0.080718 0.973548 0.985609
0.173179 0.974881 0.985643
0.603507 0.979485 0.985767
0.953631 0.983200 0.985992
0.987263 0.986434 0.986324
