velvia_classic/Velvia50_Punchy.cube
TITLE "Velvia 50 Punchy"
# Adobe RGB in/out. REPLACES AgX. Velvia 50 color reversal.
LUT_3D_SIZE 9
DOMAIN_MIN 0.0 0.0 0.0
DOMAIN_MAX 1.0 1.0 1.0
0.025288 0.015046 0.016969
0.029089 0.015616 0.016969
0.136052 0.027160 0.017153
0.321404 0.085729 0.018141
0.509881 0.184766 0.020575
0.687806 0.296888 0.026602
0.822917 0.405730 0.040230
0.923650 0.522800 0.063012
1.000000 0.624842 0.093364
0.025288 0.018569 0.016969
0.029341 0.021748 0.016969
0.137481 0.045513 0.017193
0.322293 0.109761 0.018226
0.510523 0.210075 0.020674
0.688148 0.315871 0.026840
0.823191 0.420076 0.040574
0.923784 0.533460 0.063432
1.000000 0.634356 0.093774
0.025381 0.085795 0.016969
0.030799 0.095727 0.016969
0.142640 0.131519 0.017336
0.325481 0.198405 0.018515
0.512826 0.280043 0.021066
0.689373 0.371025 0.027692
0.824173 0.470335 0.041815
0.924266 0.570671 0.064945
1.000000 0.667799 0.095251
0.025989 0.240825 0.017066
0.034171 0.248787 0.017190
0.152233 0.277176 0.017618
0.331327 0.326773 0.018988
0.517053 0.387781 0.021951
0.691620 0.465481 0.029251
0.825976 0.551230 0.044119
0.925152 0.635341 0.067726
1.000000 0.719560 0.097979
0.027690 0.405902 0.017490
0.041970 0.411799 0.017603
0.165091 0.432756 0.018323
0.340028 0.470463 0.019828
0.523347 0.524373 0.023479
0.694965 0.581038 0.031666
0.828665 0.648321 0.047611
0.926473 0.718218 0.071875
1.000000 0.779446 0.102086
0.032553 0.573447 0.018341
0.054956 0.577579 0.018565
0.180307 0.592265 0.019266
0.351704 0.618689 0.021279
0.531800 0.656910 0.025801
0.699453 0.704612 0.035776
0.832281 0.748419 0.052789
0.928250 0.798016 0.077579
1.000000 0.852398 0.107682
0.046036 0.723113 0.019641
0.075526 0.725700 0.019953
0.199612 0.734903 0.021016
0.366423 0.751477 0.023845
0.542467 0.775468 0.029722
0.705111 0.806515 0.041198
0.836852 0.844009 0.059694
0.930498 0.887221 0.084991
1.000000 0.922553 0.114876
0.068783 0.842345 0.022034
0.105822 0.844494 0.022401
0.223131 0.852158 0.024170
0.382950 0.866044 0.027947
0.555374 0.886321 0.035626
0.711948 0.908435 0.048496
0.842396 0.928715 0.068387
0.933224 0.952072 0.094049
1.000000 0.978052 0.123774
0.103530 0.938691 0.026186
0.140270 0.939820 0.026867
0.250968 0.943846 0.029297
0.400724 0.951144 0.034496
0.570527 0.961804 0.043690
0.719961 0.975754 0.058365
0.848918 0.992802 0.078868
0.936434 1.000000 0.104268
1.000000 1.000000 0.134439
0.025288 0.015046 0.023372
0.029089 0.015648 0.023883
0.136052 0.027367 0.025664
0.321404 0.086080 0.029983
0.509881 0.185109 0.038320
0.687806 0.297149 0.051900
0.822917 0.405928 0.072023
0.923650 0.522947 0.097614
1.000000 0.624973 0.127517
0.025288 0.018659 0.023551
0.029341 0.021871 0.024059
0.137481 0.045801 0.025833
0.322293 0.110092 0.030217
0.510523 0.210424 0.038633
0.688148 0.316129 0.052298
0.823191 0.420271 0.072446
0.923784 0.533604 0.098028
1.000000 0.634485 0.127951
0.025381 0.086147 0.024188
0.030799 0.096049 0.024688
0.142640 0.131862 0.026600
0.325481 0.198751 0.031057
0.512826 0.280305 0.039761
0.689373 0.371228 0.053735
0.824173 0.470522 0.073972
0.924266 0.570809 0.099517
1.000000 0.667924 0.129512
0.025989 0.241091 0.025333
0.034171 0.249052 0.025819
0.152233 0.277438 0.028168
0.331327 0.326985 0.033022
0.517053 0.387982 0.042021
0.691620 0.465670 0.056406
0.825976 0.551372 0.076801
0.925152 0.635471 0.102266
1.000000 0.719647 0.132393
0.027690 0.406100 0.027397
0.041970 0.411996 0.028075
0.165091 0.432950 0.030492
0.340028 0.470650 0.036073
0.523347 0.524520 0.045479
0.694965 0.581175 0.060467
0.828665 0.648448 0.081081
0.926473 0.718306 0.106404
1.000000 0.779525 0.136466
0.032553 0.573585 0.030542
0.054956 0.577716 0.031210
0.180307 0.592400 0.034354
0.351704 0.618821 0.040277
0.531800 0.657037 0.050400
0.699453 0.704701 0.066074
0.832281 0.748502 0.086958
0.928250 0.798093 0.112041
1.000000 0.852469 0.141795
0.046036 0.723200 0.035544
0.075526 0.725786 0.036433
0.199612 0.734988 0.039647
0.366423 0.751560 0.046206
0.542467 0.775548 0.057223
0.705111 0.806591 0.073214
0.836852 0.844081 0.094328
0.930498 0.887288 0.119284
1.000000 0.922593 0.148600
0.068783 0.842417 0.042244
0.105822 0.844565 0.043241
0.223131 0.852229 0.046859
0.382950 0.866113 0.054168
0.555374 0.886389 0.065868
0.711948 0.908476 0.082165
0.842396 0.928754 0.102928
0.933224 0.952108 0.128241
1.000000 0.978086 0.156955
0.103530 0.938729 0.051207
0.140270 0.939857 0.052345
0.250968 0.943883 0.056486
0.400724 0.951180 0.064323
0.570527 0.961840 0.076275
0.719961 0.975788 0.093003
0.848918 0.992835 0.113307
0.936434 1.000000 0.138548
1.000000 1.000000 0.166929
0.025288 0.015046 0.133298
0.029089 0.015757 0.134496
0.136052 0.028114 0.138589
0.321404 0.087344 0.146150
0.509881 0.186341 0.157531
0.687806 0.298084 0.173036
0.822917 0.406636 0.191906
0.923650 0.523474 0.214180
1.000000 0.625442 0.239742
0.025288 0.018976 0.133736
0.029341 0.022312 0.134893
0.137481 0.046838 0.138988
0.322293 0.111282 0.146551
0.510523 0.211465 0.157935
0.688148 0.317059 0.173443
0.823191 0.420972 0.192281
0.923784 0.534125 0.214555
1.000000 0.634950 0.240043
0.025381 0.087411 0.135184
0.030799 0.097209 0.136322
0.142640 0.133093 0.140421
0.325481 0.199997 0.147992
0.512826 0.281246 0.159386
0.689373 0.371959 0.174907
0.824173 0.471197 0.193627
0.924266 0.571307 0.215903
1.000000 0.668374 0.241125
0.025989 0.242047 0.137815
0.034171 0.250005 0.138956
0.152233 0.278381 0.143062
0.331327 0.327746 0.150646
0.517053 0.388701 0.162059
0.691620 0.466347 0.177604
0.825976 0.551881 0.196103
0.925152 0.635935 0.218383
1.000000 0.719960 0.243113
0.027690 0.406808 0.141760
0.041970 0.412701 0.142904
0.165091 0.433643 0.147021
0.340028 0.471325 0.154625
0.523347 0.525046 0.166065
0.694965 0.581668 0.181590
0.828665 0.648907 0.199809
0.926473 0.718619 0.222093
1.000000 0.779809 0.246080
0.032553 0.574082 0.147108
0.054956 0.578210 0.148257
0.180307 0.592886 0.152388
0.351704 0.619293 0.160017
0.531800 0.657491 0.171494
0.699453 0.705022 0.186593
0.832281 0.748800 0.204817
0.928250 0.798369 0.227108
1.000000 0.852723 0.250076
0.046036 0.723510 0.153937
0.075526 0.726096 0.155090
0.199612 0.735293 0.159239
0.366423 0.751856 0.166900
0.542467 0.775833 0.178422
0.705111 0.806863 0.192959
0.836852 0.844338 0.211190
0.930498 0.887530 0.233489
1.000000 0.922734 0.255138
0.068783 0.842675 0.162320
0.105822 0.844823 0.163479
0.223131 0.852483 0.167648
0.382950 0.866362 0.175346
0.555374 0.886631 0.186412
0.711948 0.908623 0.200739
0.842396 0.928893 0.218978
0.933224 0.952239 0.240245
1.000000 0.978208 0.261291
0.103530 0.938864 0.172325
0.140270 0.939992 0.173490
0.250968 0.944017 0.177683
0.400724 0.951311 0.185044
0.570527 0.961967 0.195644
0.719961 0.975911 0.209979
0.848918 0.992953 0.228228
0.936434 1.000000 0.247645
1.000000 1.000000 0.268554
0.025288 0.015046 0.314807
0.029089 0.016153 0.315618
0.136052 0.029490 0.318527
0.321404 0.089657 0.323863
0.509881 0.188613 0.331809
0.687806 0.299805 0.342478
0.822917 0.407939 0.355940
0.923650 0.524443 0.371405
1.000000 0.626306 0.388778
0.025288 0.019536 0.315091
0.029341 0.023107 0.315901
0.137481 0.048762 0.318809
0.322293 0.113478 0.324145
0.510523 0.213248 0.332089
0.688148 0.318618 0.342756
0.823191 0.422260 0.356216
0.923784 0.535081 0.371653
1.000000 0.635805 0.389022
0.025381 0.089718 0.316108
0.030799 0.099351 0.316918
0.142640 0.135364 0.319824
0.325481 0.202292 0.325156
0.512826 0.282978 0.333094
0.689373 0.373301 0.343754
0.824173 0.472438 0.357206
0.924266 0.572223 0.372544
1.000000 0.669201 0.389899
0.025989 0.243806 0.317978
0.034171 0.251758 0.318787
0.152233 0.280114 0.321689
0.331327 0.329147 0.327014
0.517053 0.390024 0.334943
0.691620 0.467592 0.345589
0.825976 0.552818 0.359025
0.925152 0.636790 0.374182
1.000000 0.720535 0.391512
0.027690 0.408111 0.320771
0.041970 0.413998 0.321578
0.165091 0.434919 0.324475
0.340028 0.472566 0.329789
0.523347 0.526012 0.337703
0.694965 0.582573 0.348330
0.828665 0.649750 0.361742
0.926473 0.719195 0.376628
1.000000 0.780331 0.393920
0.032553 0.574995 0.324536
0.054956 0.579119 0.325341
0.180307 0.593780 0.328230
0.351704 0.620162 0.333531
0.531800 0.658327 0.341425
0.699453 0.705612 0.352026
0.832281 0.749348 0.365189
0.928250 0.798876 0.379924
1.000000 0.853191 0.397165
0.046036 0.724082 0.329311
0.075526 0.726665 0.330113
0.199612 0.735853 0.332993
0.366423 0.752402 0.338276
0.542467 0.776358 0.346145
0.705111 0.807363 0.356715
0.836852 0.844811 0.369424
0.930498 0.887976 0.384102
1.000000 0.922995 0.401280
0.068783 0.843150 0.335123
0.105822 0.845296 0.335922
0.223131 0.852951 0.338790
0.382950 0.866821 0.344053
0.555374 0.887077 0.351892
0.711948 0.908894 0.362423
0.842396 0.929149 0.374575
0.933224 0.952480 0.389185
1.000000 0.978433 0.406288
0.103530 0.939113 0.341993
0.140270 0.940241 0.342788
0.250968 0.944263 0.345644
0.400724 0.951552 0.350883
0.570527 0.962202 0.358688
0.719961 0.976137 0.368621
0.848918 0.993169 0.380659
0.936434 1.000000 0.395190
1.000000 1.000000 0.412205
0.025288 0.015275 0.504569
0.029089 0.016709 0.505114
0.136052 0.031555 0.507069
0.321404 0.092817 0.510656
0.509881 0.192018 0.515995
0.687806 0.302377 0.523162
0.822917 0.409886 0.532200
0.923650 0.525890 0.543127
1.000000 0.627596 0.555943
0.025288 0.020629 0.504760
0.029341 0.024384 0.505305
0.137481 0.051676 0.507259
0.322293 0.116778 0.510845
0.510523 0.215913 0.516184
0.688148 0.320732 0.523349
0.823191 0.424184 0.532385
0.923784 0.536509 0.543310
1.000000 0.637083 0.556124
0.025381 0.092877 0.505444
0.030799 0.102571 0.505988
0.142640 0.138620 0.507941
0.325481 0.205732 0.511525
0.512826 0.285565 0.516859
0.689373 0.375306 0.524019
0.824173 0.474291 0.533049
0.924266 0.573591 0.543966
1.000000 0.670438 0.556772
0.025989 0.246434 0.506701
0.034171 0.254377 0.507244
0.152233 0.282704 0.509195
0.331327 0.331237 0.512773
0.517053 0.392000 0.518101
0.691620 0.469452 0.525251
0.825976 0.554216 0.534269
0.925152 0.638066 0.545173
1.000000 0.721394 0.557963
0.027690 0.410057 0.508578
0.041970 0.415935 0.509120
0.165091 0.436824 0.511067
0.340028 0.474419 0.514638
0.523347 0.527457 0.519955
0.694965 0.583925 0.527092
0.828665 0.651010 0.536092
0.926473 0.720056 0.546976
1.000000 0.781110 0.559743
0.032553 0.576358 0.511108
0.054956 0.580476 0.511649
0.180307 0.595115 0.513591
0.351704 0.621461 0.517152
0.531800 0.659577 0.522455
0.699453 0.706493 0.529573
0.832281 0.750167 0.538550
0.928250 0.799633 0.549407
1.000000 0.853890 0.562144
0.046036 0.724936 0.514317
0.075526 0.727515 0.514856
0.199612 0.736690 0.516791
0.366423 0.753217 0.520340
0.542467 0.777142 0.525625
0.705111 0.808111 0.532719
0.836852 0.845519 0.541668
0.930498 0.888642 0.552490
1.000000 0.923384 0.565188
0.068783 0.843859 0.518222
0.105822 0.846003 0.518759
0.223131 0.853650 0.520685
0.382950 0.867507 0.524220
0.555374 0.887744 0.529483
0.711948 0.909298 0.536549
0.842396 0.929532 0.545463
0.933224 0.952839 0.556244
1.000000 0.978769 0.568895
0.103530 0.939486 0.522836
0.140270 0.940612 0.523371
0.250968 0.944630 0.525288
0.400724 0.951913 0.528805
0.570527 0.962552 0.534043
0.719961 0.976475 0.541076
0.848918 0.993493 0.549949
0.936434 1.000000 0.560683
1.000000 1.000000 0.573279
0.025288 0.015754 0.684307
0.029089 0.017751 0.684710
0.136052 0.034751 0.686159
0.321404 0.097118 0.688818
0.509881 0.196633 0.692781
0.687806 0.305849 0.698110
0.822917 0.412511 0.704844
0.923650 0.527841 0.713007
1.000000 0.629337 0.722608
0.025288 0.022300 0.684448
0.029341 0.027151 0.684851
0.137481 0.055704 0.686299
0.322293 0.121266 0.688958
0.510523 0.219508 0.692920
0.688148 0.323580 0.698249
0.823191 0.426780 0.704982
0.923784 0.538435 0.713144
1.000000 0.638807 0.722744
0.025381 0.097179 0.684954
0.030799 0.106952 0.685358
0.142640 0.143022 0.686805
0.325481 0.210394 0.689462
0.512826 0.289058 0.693422
0.689373 0.378009 0.698748
0.824173 0.476792 0.705477
0.924266 0.575436 0.713635
1.000000 0.672106 0.723230
0.025989 0.249980 0.685885
0.034171 0.257911 0.686288
0.152233 0.286200 0.687734
0.331327 0.334055 0.690388
0.517053 0.394665 0.694345
0.691620 0.471961 0.699665
0.825976 0.556103 0.706388
0.925152 0.639788 0.714538
1.000000 0.722553 0.724125
0.027690 0.412682 0.687277
0.041970 0.418547 0.687679
0.165091 0.439395 0.689122
0.340028 0.476920 0.691773
0.523347 0.529404 0.695723
0.694965 0.585748 0.701036
0.828665 0.652710 0.707749
0.926473 0.721218 0.715888
1.000000 0.782162 0.725461
0.032553 0.578197 0.689153
0.054956 0.582307 0.689554
0.180307 0.596917 0.690995
0.351704 0.623213 0.693640
0.531800 0.661263 0.697583
0.699453 0.707682 0.702885
0.832281 0.751272 0.709585
0.928250 0.800655 0.717708
1.000000 0.854833 0.727264
0.046036 0.726088 0.691534
0.075526 0.728662 0.691935
0.199612 0.737820 0.693372
0.366423 0.754316 0.696010
0.542467 0.778201 0.699943
0.705111 0.809120 0.705231
0.836852 0.846474 0.711916
0.930498 0.889540 0.720019
1.000000 0.923909 0.729552
0.068783 0.844816 0.694435
0.105822 0.846957 0.694834
0.223131 0.854594 0.696267
0.382950 0.868432 0.698897
0.555374 0.888644 0.702818
0.711948 0.909844 0.708090
0.842396 0.930048 0.714755
0.933224 0.953324 0.722834
1.000000 0.979223 0.732340
0.103530 0.939989 0.697867
0.140270 0.941113 0.698265
0.250968 0.945126 0.699692
0.400724 0.952399 0.702313
0.570527 0.963025 0.706220
0.719961 0.976932 0.711473
0.848918 0.993930 0.718114
0.936434 1.000000 0.726166
1.000000 1.000000 0.735640
0.025288 0.016730 0.827808
0.029089 0.019293 0.828047
0.136052 0.039393 0.828905
0.321404 0.102640 0.830481
0.509881 0.202527 0.832830
0.687806 0.310259 0.835989
0.822917 0.415843 0.839984
0.923650 0.530316 0.844830
1.000000 0.631546 0.850532
0.025288 0.024467 0.827892
0.029341 0.030689 0.828131
0.137481 0.061074 0.828989
0.322293 0.127019 0.830564
0.510523 0.224072 0.832913
0.688148 0.327191 0.836072
0.823191 0.430073 0.840066
0.923784 0.540879 0.844911
1.000000 0.640996 0.850613
0.025381 0.102702 0.828192
0.030799 0.112573 0.828431
0.142640 0.148650 0.829288
0.325481 0.215055 0.830863
0.512826 0.293494 0.833210
0.689373 0.381439 0.836368
0.824173 0.479967 0.840360
0.924266 0.577777 0.845202
1.000000 0.674224 0.850902
0.025989 0.254483 0.828743
0.034171 0.262400 0.828982
0.152233 0.290641 0.829839
0.331327 0.337628 0.831412
0.517053 0.398045 0.833757
0.691620 0.475147 0.836912
0.825976 0.558496 0.840901
0.925152 0.641975 0.845739
1.000000 0.724023 0.851433
0.027690 0.416013 0.829568
0.041970 0.421862 0.829806
0.165091 0.442657 0.830661
0.340028 0.480094 0.832232
0.523347 0.531874 0.834574
0.694965 0.588063 0.837725
0.828665 0.654869 0.841709
0.926473 0.722692 0.846540
1.000000 0.783497 0.852227
0.032553 0.580531 0.830680
0.054956 0.584630 0.830917
0.180307 0.599203 0.831771
0.351704 0.625436 0.833339
0.531800 0.663403 0.835677
0.699453 0.709190 0.838822
0.832281 0.752674 0.842798
0.928250 0.801953 0.847621
1.000000 0.856031 0.853298
0.046036 0.727550 0.832091
0.075526 0.730118 0.832328
0.199612 0.739253 0.833180
0.366423 0.755711 0.834744
0.542467 0.779544 0.837077
0.705111 0.810401 0.840214
0.836852 0.847686 0.844182
0.930498 0.890682 0.848994
1.000000 0.924576 0.854658
0.068783 0.846031 0.833810
0.105822 0.848169 0.834047
0.223131 0.855793 0.834896
0.382950 0.869608 0.836456
0.555374 0.889787 0.838782
0.711948 0.910537 0.841911
0.842396 0.930704 0.845867
0.933224 0.953941 0.850666
1.000000 0.979799 0.856315
0.103530 0.940627 0.835845
0.140270 0.941750 0.836081
0.250968 0.945756 0.836928
0.400724 0.953017 0.838483
0.570527 0.963626 0.840801
0.719961 0.977511 0.843919
0.848918 0.994485 0.847863
0.936434 1.000000 0.852646
1.000000 1.000000 0.858277
0.025288 0.018488 0.946171
0.029089 0.021636 0.946330
0.136052 0.045255 0.946898
0.321404 0.109463 0.947943
0.509881 0.209761 0.949502
0.687806 0.315638 0.951601
0.822917 0.419900 0.954257
0.923650 0.533329 0.957483
1.000000 0.634239 0.961286
0.025288 0.028773 0.946226
0.029341 0.035630 0.946385
0.137481 0.067813 0.946954
0.322293 0.134114 0.947998
0.510523 0.229634 0.949557
0.688148 0.331584 0.951655
0.823191 0.434086 0.954312
0.923784 0.543854 0.957537
1.000000 0.643663 0.961340
0.025381 0.109526 0.946425
0.030799 0.119513 0.946584
0.142640 0.155568 0.947152
0.325481 0.220641 0.948196
0.512826 0.298903 0.949755
0.689373 0.385614 0.951852
0.824173 0.483836 0.954507
0.924266 0.580628 0.957732
1.000000 0.676805 0.961533
0.025989 0.259973 0.946791
0.034171 0.267873 0.946949
0.152233 0.296056 0.947517
0.331327 0.341976 0.948561
0.517053 0.402162 0.950118
0.691620 0.479029 0.952214
0.825976 0.561410 0.954867
0.925152 0.644639 0.958089
1.000000 0.725815 0.961887
0.027690 0.420070 0.947338
0.041970 0.425901 0.947496
0.165091 0.446631 0.948063
0.340028 0.483963 0.949105
0.523347 0.534882 0.950661
0.694965 0.590882 0.952754
0.828665 0.657499 0.955405
0.926473 0.724488 0.958623
1.000000 0.785124 0.962417
0.032553 0.583374 0.948075
0.054956 0.587460 0.948233
0.180307 0.601989 0.948799
0.351704 0.628146 0.949840
0.531800 0.666011 0.951393
0.699453 0.711027 0.953484
0.832281 0.754383 0.956130
0.928250 0.803535 0.959344
1.000000 0.857492 0.963133
0.046036 0.729331 0.949011
0.075526 0.731891 0.949169
0.199612 0.741000 0.949735
0.366423 0.757412 0.950773
0.542467 0.781182 0.952323
0.705111 0.811963 0.954410
0.836852 0.849165 0.957051
0.930498 0.892074 0.960259
1.000000 0.925388 0.964041
0.068783 0.847513 0.950153
0.105822 0.849646 0.950310
0.223131 0.857254 0.950875
0.382950 0.871041 0.951911
0.555374 0.891180 0.953457
0.711948 0.911382 0.955539
0.842396 0.931504 0.958175
0.933224 0.954692 0.961376
1.000000 0.980502 0.965149
0.103530 0.941406 0.951505
0.140270 0.942526 0.951662
0.250968 0.946524 0.952224
0.400724 0.953770 0.953258
0.570527 0.964359 0.954800
0.719961 0.978218 0.956877
0.848918 0.995162 0.959505
0.936434 1.000000 0.962697
1.000000 1.000000 0.966461
0.025288 0.020969 1.000000
0.029089 0.024933 1.000000
0.136052 0.052466 1.000000
0.321404 0.117668 1.000000
0.509881 0.216628 1.000000
0.687806 0.321299 1.000000
0.822917 0.424701 1.000000
0.923650 0.536893 1.000000
1.000000 0.637426 1.000000
0.025288 0.034202 1.000000
0.029341 0.042449 1.000000
0.137481 0.076055 1.000000
0.322293 0.142284 1.000000
0.510523 0.236220 1.000000
0.688148 0.336775 1.000000
0.823191 0.438834 1.000000
0.923784 0.547373 1.000000
1.000000 0.646819 1.000000
0.025381 0.117732 1.000000
0.030799 0.127851 1.000000
0.142640 0.163840 1.000000
0.325481 0.227254 1.000000
0.512826 0.305312 1.000000
0.689373 0.390552 1.000000
0.824173 0.488416 1.000000
0.924266 0.584002 1.000000
1.000000 0.679862 1.000000
0.025989 0.266475 1.000000
0.034171 0.274354 1.000000
0.152233 0.302471 1.000000
0.331327 0.347114 1.000000
0.517053 0.407031 1.000000
0.691620 0.483623 1.000000
0.825976 0.564858 1.000000
0.925152 0.647793 1.000000
1.000000 0.727935 1.000000
0.027690 0.424870 1.000000
0.041970 0.430678 1.000000
0.165091 0.451334 1.000000
0.340028 0.488542 1.000000
0.523347 0.538439 1.000000
0.694965 0.594218 1.000000
0.828665 0.660613 1.000000
0.926473 0.726612 1.000000
1.000000 0.787051 1.000000
0.032553 0.586737 1.000000
0.054956 0.590808 1.000000
0.180307 0.605285 1.000000
0.351704 0.631353 1.000000
0.531800 0.669100 1.000000
0.699453 0.713201 1.000000
0.832281 0.756406 1.000000
0.928250 0.805408 1.000000
1.000000 0.859223 1.000000
0.046036 0.731439 1.000000
0.075526 0.733990 1.000000
0.199612 0.743067 1.000000
0.366423 0.759425 1.000000
0.542467 0.783120 1.000000
0.705111 0.813812 1.000000
0.836852 0.850916 1.000000
0.930498 0.893723 1.000000
1.000000 0.926351 1.000000
0.068783 0.849269 1.000000
0.105822 0.851396 1.000000
0.223131 0.858985 1.000000
0.382950 0.872738 1.000000
0.555374 0.892831 1.000000
0.711948 0.912382 1.000000
0.842396 0.932451 1.000000
0.933224 0.955583 1.000000
1.000000 0.981334 1.000000
0.103530 0.942328 1.000000
0.140270 0.943446 1.000000
0.250968 0.947434 1.000000
0.400724 0.954663 1.000000
0.570527 0.965227 1.000000
0.719961 0.979056 1.000000
0.848918 0.995964 1.000000
0.936434 1.000000 1.000000
1.000000 1.000000 1.000000
