velvia_classic/Velvia50_Soft.cube
TITLE "Velvia 50 Soft"
# Adobe RGB in/out. REPLACES AgX. Velvia 50 color reversal.
LUT_3D_SIZE 9
DOMAIN_MIN 0.0 0.0 0.0
DOMAIN_MAX 1.0 1.0 1.0
0.050851 0.034289 0.037567
0.053859 0.035180 0.037567
0.138059 0.051411 0.037875
0.294561 0.121389 0.039520
0.428803 0.219210 0.043483
0.555357 0.317644 0.052842
0.649887 0.405197 0.072330
0.729151 0.491390 0.101675
0.782383 0.565631 0.137026
0.050955 0.039600 0.037567
0.055599 0.044214 0.037567
0.144603 0.075100 0.037942
0.298000 0.147187 0.039661
0.430944 0.241555 0.043641
0.557056 0.332883 0.053201
0.650745 0.415983 0.072799
0.729836 0.500735 0.102188
0.782720 0.572130 0.137483
0.053348 0.120968 0.037567
0.064547 0.132278 0.037567
0.166114 0.168515 0.038182
0.309419 0.230984 0.040136
0.438556 0.303588 0.044267
0.563119 0.378406 0.054478
0.653807 0.453100 0.074483
0.732290 0.527884 0.104034
0.783926 0.594794 0.139123
0.071471 0.270269 0.037730
0.096557 0.277050 0.037937
0.204054 0.300815 0.038652
0.329768 0.342463 0.040913
0.452261 0.391029 0.045671
0.574126 0.449285 0.056791
0.659370 0.513983 0.077577
0.736762 0.572547 0.107397
0.786126 0.633471 0.142137
0.126035 0.404429 0.038438
0.157768 0.408897 0.038628
0.246707 0.424655 0.039821
0.358821 0.452548 0.042279
0.472092 0.492000 0.048064
0.589889 0.534699 0.060314
0.667525 0.581167 0.082194
0.743355 0.632409 0.112354
0.789375 0.672981 0.146636
0.205772 0.529007 0.039850
0.227447 0.531908 0.040219
0.299406 0.542181 0.041366
0.395611 0.560509 0.044607
0.497760 0.586685 0.051631
0.603435 0.620023 0.066168
0.678246 0.652313 0.088893
0.750052 0.684940 0.119059
0.793685 0.720151 0.152697
0.276821 0.635183 0.041976
0.296352 0.636913 0.042480
0.351157 0.643057 0.044187
0.433203 0.654075 0.048632
0.528782 0.669918 0.057483
0.619853 0.690242 0.073648
0.691423 0.714533 0.097585
0.756666 0.742203 0.127596
0.799042 0.770034 0.160378
0.344805 0.713187 0.045803
0.359277 0.714572 0.046381
0.406412 0.719508 0.049135
0.475488 0.728422 0.054858
0.564596 0.741376 0.065957
0.638827 0.758217 0.083350
0.706885 0.773797 0.108192
0.764460 0.788565 0.137789
0.805408 0.804886 0.169721
0.410243 0.779948 0.052214
0.421259 0.780663 0.053242
0.458867 0.783210 0.056859
0.521670 0.787818 0.064364
0.599108 0.794535 0.077004
0.660016 0.803297 0.095932
0.724426 0.813961 0.120557
0.773337 0.826338 0.149009
0.812724 0.840126 0.180709
0.050920 0.034289 0.047899
0.055382 0.035538 0.048691
0.143732 0.053511 0.051422
0.297573 0.124058 0.057866
0.430660 0.221393 0.069709
0.556830 0.319139 0.087755
0.650631 0.406255 0.112529
0.729745 0.492303 0.141735
0.782675 0.566266 0.173602
0.051368 0.040604 0.048177
0.056923 0.045546 0.048964
0.150297 0.077651 0.051679
0.300781 0.149569 0.058209
0.432792 0.243712 0.070141
0.558525 0.334347 0.088265
0.651486 0.417019 0.113031
0.730430 0.501636 0.142191
0.783012 0.572756 0.174050
0.054700 0.123636 0.049162
0.068310 0.134714 0.049932
0.171112 0.170874 0.052841
0.312136 0.233153 0.059432
0.440376 0.305114 0.071689
0.564574 0.379519 0.090099
0.654542 0.454072 0.114833
0.732879 0.528572 0.143827
0.784216 0.595393 0.175659
0.075350 0.271877 0.050919
0.101661 0.278640 0.051659
0.208222 0.302347 0.055187
0.332379 0.343908 0.062264
0.454031 0.392115 0.074761
0.575556 0.450263 0.093478
0.660093 0.514693 0.118151
0.737345 0.573173 0.146833
0.786413 0.633883 0.178617
0.131668 0.405488 0.054038
0.162778 0.409948 0.055049
0.250292 0.425675 0.058609
0.361298 0.453521 0.066585
0.473796 0.492913 0.079386
0.590787 0.535378 0.098542
0.668231 0.581782 0.123116
0.743928 0.632823 0.151320
0.789657 0.673348 0.182772
0.209591 0.529694 0.058683
0.231135 0.532591 0.059655
0.302179 0.542848 0.064162
0.397606 0.561151 0.072394
0.499384 0.587293 0.085823
0.604294 0.620594 0.105403
0.678931 0.652702 0.129831
0.750395 0.685295 0.157366
0.793962 0.720473 0.188164
0.280265 0.635592 0.065842
0.299143 0.637321 0.067087
0.353668 0.643457 0.071533
0.435042 0.654462 0.080346
0.530321 0.670287 0.094504
0.620668 0.690591 0.113939
0.692082 0.714859 0.138099
0.756998 0.742506 0.165028
0.799312 0.770211 0.194979
0.347345 0.713515 0.075062
0.361752 0.714899 0.076402
0.408360 0.719830 0.081206
0.477180 0.728736 0.090649
0.566048 0.741680 0.105154
0.639596 0.758508 0.124362
0.707517 0.773971 0.147553
0.764779 0.788728 0.174350
0.805669 0.805037 0.203243
0.412174 0.780117 0.086864
0.423146 0.780831 0.088324
0.460614 0.783376 0.093578
0.523228 0.787981 0.103277
0.599979 0.794693 0.117536
0.660738 0.803448 0.136624
0.725029 0.814106 0.158713
0.773642 0.826475 0.184884
0.812977 0.840179 0.212972
0.052837 0.035317 0.179543
0.062281 0.037990 0.180766
0.162592 0.060890 0.184926
0.307498 0.133555 0.192534
0.437271 0.229213 0.203809
0.562094 0.324484 0.218859
0.653289 0.410036 0.236745
0.731874 0.495576 0.257321
0.783721 0.568541 0.280308
0.053835 0.044697 0.179990
0.066253 0.050728 0.181172
0.168362 0.086824 0.185330
0.310642 0.158105 0.192935
0.439375 0.251442 0.204206
0.563774 0.339580 0.219250
0.654138 0.420727 0.237096
0.732555 0.504862 0.257663
0.784056 0.575002 0.280575
0.061239 0.133175 0.181468
0.082960 0.143311 0.182627
0.189014 0.179333 0.186779
0.321775 0.240924 0.194372
0.446858 0.310567 0.205628
0.569774 0.383499 0.220653
0.657170 0.457550 0.238354
0.734990 0.531038 0.258890
0.785254 0.597539 0.281535
0.090987 0.277621 0.184142
0.120140 0.284321 0.185298
0.221775 0.307823 0.189439
0.341655 0.348759 0.197012
0.460340 0.395999 0.208240
0.580667 0.453763 0.223230
0.662678 0.517236 0.240664
0.739431 0.575417 0.261144
0.787441 0.635358 0.283294
0.151909 0.409274 0.188129
0.180720 0.413703 0.189280
0.263026 0.429326 0.193404
0.370111 0.457002 0.200949
0.479871 0.496182 0.212135
0.593989 0.537807 0.227023
0.670756 0.583987 0.244108
0.745978 0.634302 0.264504
0.790669 0.674661 0.285914
0.223114 0.532153 0.193491
0.244218 0.535035 0.194636
0.312011 0.545238 0.198739
0.404701 0.563450 0.206245
0.505183 0.589474 0.217377
0.607360 0.622638 0.231754
0.681379 0.654096 0.248738
0.751622 0.686564 0.269025
0.794953 0.721626 0.289431
0.292517 0.637059 0.200271
0.309036 0.638780 0.201408
0.362597 0.644890 0.205484
0.441595 0.655849 0.212944
0.535818 0.671612 0.224010
0.623580 0.691842 0.237730
0.694441 0.716030 0.254589
0.758185 0.743594 0.274741
0.800278 0.770845 0.293866
0.356373 0.714690 0.208494
0.370559 0.716069 0.209623
0.415289 0.720985 0.213668
0.483217 0.729864 0.221073
0.571235 0.742771 0.231583
0.642343 0.759553 0.244969
0.709777 0.774595 0.261684
0.765921 0.789310 0.280754
0.806607 0.805578 0.299230
0.419047 0.780723 0.218176
0.429861 0.781435 0.219295
0.466843 0.783973 0.223306
0.528791 0.788566 0.230293
0.603088 0.795260 0.240237
0.663318 0.803993 0.253481
0.727184 0.814625 0.270031
0.774735 0.826967 0.287293
0.813883 0.840370 0.305521
0.065104 0.040516 0.344681
0.088638 0.045427 0.345354
0.195541 0.077420 0.347767
0.325256 0.149353 0.352180
0.449207 0.243517 0.358718
0.571664 0.334214 0.367439
0.658126 0.416925 0.378349
0.735759 0.501554 0.390760
0.785633 0.572700 0.404555
0.069416 0.055698 0.344916
0.093681 0.064886 0.345589
0.201262 0.104136 0.348001
0.328292 0.173728 0.352412
0.451261 0.262945 0.358948
0.573319 0.348792 0.367665
0.658962 0.427485 0.378571
0.736433 0.509759 0.390958
0.785964 0.579106 0.404748
0.086642 0.148977 0.345761
0.114812 0.159036 0.346433
0.217985 0.194183 0.348842
0.339056 0.254921 0.353246
0.458569 0.320489 0.359773
0.579230 0.390741 0.368477
0.661951 0.463897 0.379369
0.738844 0.535539 0.391670
0.787151 0.601464 0.405441
0.124908 0.288049 0.347312
0.156764 0.294640 0.347983
0.245986 0.317784 0.350385
0.358323 0.356532 0.354777
0.471750 0.403070 0.361286
0.589709 0.460149 0.369969
0.667384 0.521877 0.380835
0.743240 0.579517 0.392976
0.789318 0.638055 0.406713
0.184951 0.416173 0.349625
0.211696 0.420547 0.350293
0.285911 0.435983 0.352685
0.385993 0.463354 0.357060
0.490873 0.502155 0.363544
0.599796 0.542242 0.372194
0.675353 0.588018 0.383020
0.748604 0.637008 0.394924
0.792517 0.677065 0.408610
0.247277 0.536644 0.352735
0.267673 0.539497 0.353399
0.329614 0.549604 0.355778
0.417472 0.567652 0.360130
0.515698 0.593461 0.366581
0.612925 0.626380 0.375187
0.685839 0.656647 0.385787
0.753860 0.688889 0.397544
0.796764 0.723739 0.411162
0.311348 0.639742 0.356667
0.326741 0.641449 0.357326
0.378677 0.647511 0.359689
0.453428 0.658387 0.364012
0.545802 0.674037 0.370421
0.628869 0.694133 0.378973
0.698741 0.718175 0.389177
0.760351 0.745589 0.400858
0.802045 0.772008 0.414391
0.372623 0.716842 0.361434
0.386428 0.718214 0.362088
0.427776 0.723101 0.364432
0.494152 0.731932 0.368721
0.580670 0.744770 0.375079
0.647340 0.761468 0.383567
0.713899 0.775737 0.393289
0.768005 0.790377 0.404877
0.808321 0.806569 0.418310
0.431435 0.781833 0.367043
0.441976 0.782542 0.367691
0.478114 0.785066 0.370013
0.538891 0.789636 0.374262
0.608728 0.796298 0.380563
0.668014 0.804991 0.388535
0.731118 0.815577 0.398127
0.776732 0.827868 0.409609
0.815540 0.840720 0.422926
0.108857 0.054858 0.493064
0.140315 0.063854 0.493468
0.234993 0.103062 0.494917
0.350741 0.172773 0.497572
0.466549 0.262283 0.501515
0.585718 0.348311 0.506793
0.665234 0.427073 0.513423
0.741498 0.509468 0.521404
0.788459 0.578855 0.530715
0.114734 0.079303 0.493205
0.146867 0.090116 0.493609
0.239196 0.130468 0.495058
0.353638 0.196168 0.497712
0.468534 0.278854 0.501654
0.587338 0.360371 0.506930
0.666053 0.437447 0.513559
0.742162 0.516800 0.521537
0.788786 0.585183 0.530846
0.137686 0.172400 0.493712
0.168104 0.182338 0.494116
0.254089 0.215961 0.495563
0.363924 0.271047 0.498214
0.475604 0.335076 0.502152
0.591739 0.401389 0.507423
0.668981 0.473271 0.514045
0.744536 0.542191 0.522015
0.789957 0.607280 0.531316
0.177404 0.303337 0.494644
0.205921 0.309776 0.495047
0.280724 0.332426 0.496491
0.382389 0.367925 0.499137
0.488371 0.413475 0.503067
0.598475 0.469580 0.508328
0.674304 0.528730 0.514938
0.748079 0.585589 0.522894
0.792095 0.642048 0.532178
0.227157 0.426335 0.496034
0.248136 0.430630 0.496436
0.314954 0.445800 0.497876
0.406830 0.472736 0.500514
0.506929 0.509947 0.504433
0.608284 0.548799 0.509679
0.682118 0.593988 0.516271
0.751993 0.641013 0.524206
0.795253 0.680630 0.533466
0.281956 0.543280 0.497906
0.300511 0.546092 0.498306
0.354901 0.556059 0.499740
0.435946 0.573871 0.502368
0.531078 0.599368 0.506273
0.621069 0.631902 0.511499
0.692407 0.660427 0.518066
0.757161 0.692338 0.525973
0.799445 0.726877 0.535201
0.337497 0.643716 0.500276
0.352158 0.645403 0.500674
0.400810 0.651394 0.502102
0.470630 0.662148 0.504717
0.560438 0.677633 0.508602
0.636624 0.697532 0.513804
0.705078 0.721360 0.520341
0.763547 0.748554 0.528212
0.804659 0.773735 0.537400
0.395822 0.720038 0.503156
0.407188 0.721399 0.503552
0.445866 0.726245 0.504971
0.510115 0.735003 0.507570
0.592645 0.747740 0.511433
0.654676 0.764315 0.516605
0.719980 0.777435 0.523105
0.771084 0.791964 0.530933
0.810861 0.808043 0.540073
0.449393 0.783484 0.506553
0.459563 0.784186 0.506946
0.494542 0.786692 0.508355
0.553692 0.791228 0.510936
0.616980 0.797843 0.514772
0.674922 0.806476 0.519909
0.736927 0.816994 0.526367
0.779682 0.829210 0.534146
0.817996 0.841241 0.543228
0.179608 0.087137 0.621345
0.207613 0.098170 0.621623
0.282241 0.138048 0.622620
0.383443 0.202948 0.624450
0.489102 0.283707 0.627175
0.598861 0.363907 0.630833
0.674611 0.440503 0.635446
0.748232 0.518962 0.641023
0.792218 0.587053 0.647564
0.185352 0.114243 0.621442
0.212001 0.125529 0.621720
0.286185 0.162546 0.622717
0.386183 0.225496 0.624547
0.491005 0.299720 0.627271
0.599866 0.375583 0.630928
0.675408 0.450640 0.635540
0.748631 0.526140 0.641117
0.792540 0.593279 0.647656
0.205838 0.202600 0.621791
0.227511 0.211912 0.622069
0.299454 0.244967 0.623065
0.395646 0.292170 0.624894
0.497788 0.353110 0.627616
0.603450 0.415445 0.631271
0.678258 0.485718 0.635879
0.750058 0.551030 0.641452
0.793690 0.615038 0.647987
0.234363 0.323456 0.622432
0.255126 0.329712 0.622710
0.320203 0.350977 0.623705
0.410633 0.382908 0.625531
0.510055 0.427228 0.628250
0.609938 0.482100 0.631899
0.683442 0.537829 0.636502
0.752657 0.593679 0.642068
0.795790 0.647369 0.648595
0.274904 0.439781 0.623390
0.294590 0.443977 0.623667
0.349760 0.458810 0.624660
0.432179 0.485194 0.626483
0.527927 0.519431 0.629196
0.619400 0.557516 0.632839
0.691057 0.601946 0.637433
0.756482 0.646351 0.642988
0.798893 0.685391 0.649503
0.321159 0.552099 0.624681
0.336267 0.554859 0.624957
0.387379 0.564646 0.625948
0.459848 0.582151 0.627766
0.551247 0.607244 0.630472
0.631754 0.637387 0.634105
0.701094 0.665470 0.638688
0.761537 0.696947 0.644229
0.803014 0.731077 0.650728
0.370939 0.649011 0.626319
0.384783 0.650671 0.626594
0.426481 0.656571 0.627581
0.493015 0.667166 0.629393
0.579687 0.682435 0.632090
0.646819 0.702076 0.635711
0.713469 0.725621 0.640279
0.767788 0.752524 0.645802
0.808142 0.776047 0.652281
0.421766 0.724315 0.628311
0.432518 0.725659 0.628586
0.469312 0.730452 0.629569
0.531000 0.739115 0.631373
0.604322 0.751719 0.634059
0.664343 0.767174 0.637666
0.728042 0.779707 0.642216
0.775171 0.794089 0.647718
0.814244 0.810021 0.654172
0.472682 0.785694 0.630667
0.482410 0.786389 0.630939
0.515993 0.788870 0.631918
0.573144 0.793361 0.633713
0.627800 0.799913 0.636387
0.684044 0.808467 0.639977
0.744637 0.818894 0.644505
0.783603 0.831011 0.649982
0.821270 0.841940 0.656408
0.249115 0.132123 0.717926
0.269460 0.142315 0.718084
0.330954 0.178353 0.718648
0.418447 0.240024 0.719685
0.516505 0.309937 0.721229
0.613352 0.383039 0.723305
0.686182 0.457147 0.725926
0.754032 0.530752 0.729102
0.796904 0.597291 0.732834
0.253234 0.156741 0.717981
0.273468 0.166766 0.718139
0.333957 0.201410 0.718703
0.420635 0.260298 0.719739
0.518317 0.325341 0.721283
0.614311 0.394283 0.723359
0.686954 0.467009 0.725980
0.754420 0.537747 0.729155
0.797218 0.603393 0.732887
0.267842 0.239682 0.718179
0.287700 0.248807 0.718336
0.344610 0.274848 0.718900
0.428411 0.318073 0.719936
0.524782 0.372664 0.721479
0.617734 0.432820 0.723553
0.689712 0.501209 0.726173
0.755806 0.562039 0.729346
0.798343 0.624741 0.733076
0.294018 0.348077 0.718542
0.310244 0.353078 0.718699
0.363690 0.370617 0.719262
0.442398 0.401347 0.720297
0.536494 0.444251 0.721838
0.623938 0.497676 0.723910
0.694731 0.549147 0.726527
0.758331 0.603785 0.729697
0.800397 0.654018 0.733423
0.325360 0.456446 0.719084
0.340350 0.460526 0.719241
0.391118 0.474965 0.719803
0.462610 0.500697 0.720836
0.553596 0.531209 0.722375
0.632999 0.568378 0.724444
0.702111 0.611893 0.727057
0.762050 0.653020 0.730222
0.803433 0.691357 0.733942
0.364574 0.563083 0.719815
0.378564 0.565781 0.719972
0.421589 0.575350 0.720533
0.488725 0.592488 0.721564
0.575981 0.617091 0.723100
0.644857 0.644234 0.725164
0.711849 0.671779 0.727771
0.766968 0.702725 0.730930
0.807468 0.736353 0.734642
0.408458 0.655628 0.720743
0.419517 0.657256 0.720899
0.457253 0.663044 0.721459
0.520233 0.673445 0.722487
0.598305 0.688449 0.724018
0.659350 0.707774 0.726077
0.723871 0.730972 0.728678
0.773056 0.757516 0.731828
0.812491 0.778952 0.735530
0.452827 0.729684 0.721873
0.462929 0.731010 0.722029
0.497695 0.735736 0.722587
0.556542 0.744281 0.723611
0.618567 0.756722 0.725138
0.676256 0.770202 0.727190
0.738051 0.782563 0.729782
0.780254 0.796764 0.732922
0.818472 0.812510 0.736613
0.500893 0.788472 0.723210
0.510136 0.789159 0.723365
0.542171 0.791608 0.723921
0.594267 0.796044 0.724941
0.641059 0.802518 0.726462
0.695314 0.810974 0.728506
0.751361 0.821287 0.731088
0.788484 0.833281 0.734216
0.825364 0.842820 0.737893
0.315875 0.181451 0.794562
0.331134 0.190910 0.794663
0.382686 0.224359 0.795026
0.456385 0.277203 0.795692
0.548307 0.340673 0.796684
0.630197 0.405473 0.798020
0.699822 0.476879 0.799710
0.760896 0.544753 0.801761
0.802490 0.609525 0.804177
0.318966 0.204316 0.794598
0.334137 0.213619 0.794699
0.385430 0.246643 0.795061
0.458409 0.293379 0.795727
0.550025 0.354023 0.796719
0.631107 0.416253 0.798055
0.700565 0.486436 0.799745
0.761271 0.551540 0.801796
0.802796 0.615486 0.804211
0.329922 0.276951 0.794724
0.344786 0.283658 0.794825
0.395010 0.307185 0.795188
0.465617 0.348260 0.795853
0.556158 0.395546 0.796845
0.634356 0.453354 0.798180
0.703221 0.516939 0.799870
0.762610 0.575154 0.801919
0.803892 0.635186 0.804334
0.349507 0.372107 0.794957
0.363860 0.376864 0.795058
0.410019 0.393590 0.795420
0.478623 0.423037 0.796085
0.567286 0.464399 0.797076
0.640252 0.514168 0.798411
0.708056 0.562615 0.800098
0.765051 0.615869 0.802146
0.805893 0.661968 0.804559
0.377585 0.476200 0.795306
0.391280 0.480153 0.795406
0.431592 0.494153 0.795768
0.497508 0.516538 0.796432
0.583576 0.545196 0.797422
0.648878 0.581327 0.798755
0.715171 0.623794 0.800440
0.768649 0.660993 0.802486
0.808852 0.698512 0.804895
0.410713 0.576171 0.795776
0.421719 0.578798 0.795876
0.459293 0.588120 0.796237
0.522049 0.604836 0.796900
0.599320 0.628877 0.797888
0.660192 0.652414 0.799219
0.724573 0.679336 0.800902
0.773411 0.709663 0.802944
0.812786 0.742700 0.805349
0.447160 0.663540 0.796372
0.457375 0.665132 0.796472
0.492494 0.670790 0.796832
0.551841 0.680966 0.797494
0.615949 0.695662 0.798480
0.674057 0.714618 0.799808
0.736198 0.737409 0.801487
0.779312 0.763531 0.803525
0.817687 0.782449 0.805926
0.488355 0.736143 0.797099
0.497807 0.737446 0.797199
0.530512 0.742094 0.797558
0.586386 0.750501 0.798218
0.635148 0.762748 0.799202
0.690277 0.773843 0.800526
0.748732 0.786002 0.802201
0.786297 0.799987 0.804234
0.823528 0.815515 0.806628
0.533533 0.791819 0.797960
0.542275 0.792496 0.798059
0.572689 0.794908 0.798417
0.612136 0.799279 0.799075
0.656565 0.805659 0.800056
0.708618 0.813999 0.801376
0.758316 0.824178 0.803046
0.794296 0.836025 0.805073
0.829279 0.843883 0.807460
0.378365 0.235656 0.833810
0.392043 0.244800 0.833847
0.432192 0.271865 0.833981
0.498036 0.315283 0.834228
0.584034 0.370560 0.834596
0.649120 0.430942 0.835091
0.715372 0.499530 0.835718
0.768751 0.560845 0.836479
0.808935 0.623687 0.837376
0.381128 0.256979 0.833823
0.394632 0.263915 0.833860
0.434318 0.288179 0.833994
0.499909 0.330571 0.834241
0.585658 0.382082 0.834609
0.649980 0.441246 0.835104
0.716084 0.508144 0.835730
0.769111 0.567408 0.836492
0.809232 0.629491 0.837389
0.390953 0.315045 0.833870
0.402858 0.321376 0.833907
0.441877 0.343668 0.834041
0.506584 0.376646 0.834287
0.590668 0.421472 0.834655
0.653049 0.476852 0.835150
0.718629 0.534015 0.835777
0.770399 0.590284 0.836537
0.810295 0.645136 0.837434
0.406508 0.399189 0.833956
0.417613 0.403702 0.833993
0.455492 0.419608 0.834127
0.518664 0.447741 0.834373
0.597428 0.487490 0.834741
0.658625 0.531348 0.835235
0.723266 0.578128 0.835861
0.772749 0.629864 0.836622
0.812237 0.671173 0.837518
0.428241 0.498874 0.834085
0.438850 0.502690 0.834122
0.475202 0.514172 0.834256
0.536278 0.533629 0.834502
0.607269 0.561273 0.834869
0.666798 0.596274 0.835363
0.730098 0.636091 0.835988
0.776214 0.670223 0.836748
0.815110 0.706828 0.837643
0.456124 0.591270 0.834259
0.466162 0.593819 0.834296
0.500726 0.602871 0.834430
0.559285 0.619123 0.834675
0.620094 0.639754 0.835042
0.677541 0.661875 0.835535
0.739135 0.688101 0.836160
0.780805 0.717733 0.836918
0.818932 0.750103 0.837812
0.489519 0.672704 0.834480
0.498952 0.674254 0.834517
0.531593 0.679767 0.834650
0.587374 0.689691 0.834896
0.635695 0.704042 0.835261
0.690743 0.722582 0.835754
0.748975 0.744913 0.836377
0.786499 0.768703 0.837134
0.823697 0.786527 0.838026
0.527730 0.743671 0.834749
0.536558 0.744949 0.834786
0.567247 0.749507 0.834919
0.608961 0.757758 0.835164
0.653797 0.768218 0.835529
0.706234 0.778086 0.836020
0.757069 0.790015 0.836642
0.793251 0.803754 0.837397
0.828752 0.819030 0.838288
0.570093 0.795727 0.835068
0.578337 0.796392 0.835105
0.600699 0.798762 0.835238
0.632111 0.803057 0.835482
0.674094 0.809331 0.835846
0.723806 0.817538 0.836336
0.766270 0.827562 0.836956
0.800992 0.839240 0.837709
0.832660 0.845127 0.838597
