velvia_classic/Velvia50_Hard.cube
TITLE "Velvia 50 Hard"
# Adobe RGB in/out. REPLACES AgX. Velvia 50 color reversal.
LUT_3D_SIZE 65
DOMAIN_MIN 0.0 0.0 0.0
DOMAIN_MAX 1.0 1.0 1.0
0.010768 0.005498 0.006424
0.010768 0.005498 0.006424
0.010768 0.005498 0.006424
0.010768 0.005498 0.006424
0.010813 0.005498 0.006424
0.010932 0.005498 0.006424
0.011124 0.005535 0.006424
0.011407 0.005608 0.006424
0.011877 0.005744 0.006424
0.012827 0.005891 0.006424
0.014331 0.006175 0.006424
0.017070 0.006446 0.006424
0.021340 0.007040 0.006424
0.027309 0.007634 0.006424
0.035230 0.008468 0.006436
0.045496 0.009504 0.006477
0.059168 0.010971 0.006514
0.074870 0.013155 0.006550
0.091904 0.015736 0.006587
0.111570 0.019315 0.006639
0.129948 0.023458 0.006688
0.148790 0.028222 0.006736
0.169293 0.033809 0.006781
0.191520 0.040225 0.006876
0.215531 0.047507 0.007004
0.237098 0.055677 0.007129
0.259542 0.063886 0.007252
0.283143 0.072925 0.007371
0.307914 0.082844 0.007489
0.333867 0.093691 0.007603
0.359995 0.104970 0.007815
0.384106 0.117111 0.008031
0.408988 0.130203 0.008245
0.434642 0.144286 0.008473
0.461067 0.159404 0.008785
0.488262 0.173742 0.009098
0.516227 0.186829 0.009466
0.544962 0.200503 0.009936
0.574465 0.214772 0.010416
0.604737 0.229646 0.010905
0.635777 0.245135 0.011497
0.667585 0.261247 0.012233
0.700160 0.277990 0.012997
0.722634 0.293629 0.013788
0.744104 0.308396 0.014750
0.765708 0.323548 0.015880
0.787443 0.339087 0.017068
0.809308 0.355014 0.018317
0.831301 0.371330 0.019641
0.853420 0.388036 0.021147
0.875662 0.405134 0.022734
0.898027 0.422624 0.024406
0.920511 0.440507 0.026271
0.943114 0.458784 0.028304
0.965835 0.477457 0.030453
0.988670 0.496526 0.032721
1.000000 0.515993 0.035112
1.000000 0.535858 0.037631
1.000000 0.553325 0.040215
1.000000 0.569921 0.042924
1.000000 0.586722 0.045766
1.000000 0.603729 0.048744
1.000000 0.620940 0.051863
1.000000 0.638355 0.055127
1.000000 0.655972 0.058415
0.010768 0.005498 0.006424
0.010768 0.005498 0.006424
0.010768 0.005498 0.006424
0.010768 0.005498 0.006424
0.010814 0.005498 0.006424
0.010935 0.005498 0.006424
0.011126 0.005541 0.006424
0.011410 0.005623 0.006424
0.011884 0.005755 0.006424
0.012834 0.005914 0.006424
0.014343 0.006194 0.006424
0.017090 0.006483 0.006424
0.021365 0.007073 0.006424
0.027336 0.007664 0.006424
0.035265 0.008516 0.006437
0.045540 0.009550 0.006477
0.059217 0.011053 0.006515
0.074919 0.013240 0.006550
0.091957 0.015851 0.006587
0.111626 0.019439 0.006639
0.129993 0.023594 0.006689
0.148836 0.028368 0.006736
0.169341 0.033972 0.006782
0.191569 0.040401 0.006877
0.215581 0.047696 0.007005
0.237140 0.055859 0.007130
0.259584 0.064077 0.007252
0.283185 0.073126 0.007372
0.307956 0.083055 0.007489
0.333910 0.093912 0.007604
0.360032 0.105189 0.007816
0.384142 0.117338 0.008031
0.409024 0.130438 0.008245
0.434678 0.144530 0.008474
0.461102 0.159656 0.008785
0.488297 0.173941 0.009099
0.516262 0.187031 0.009468
0.544997 0.200706 0.009937
0.574500 0.214978 0.010417
0.604772 0.229854 0.010906
0.635812 0.245344 0.011499
0.667619 0.261458 0.012234
0.700194 0.278204 0.012998
0.722655 0.293806 0.013789
0.744125 0.308573 0.014752
0.765728 0.323725 0.015882
0.787463 0.339263 0.017070
0.809328 0.355190 0.018319
0.831321 0.371506 0.019643
0.853439 0.388212 0.021149
0.875681 0.405309 0.022737
0.898045 0.422799 0.024408
0.920529 0.440682 0.026273
0.943132 0.458959 0.028307
0.965852 0.477632 0.030456
0.988687 0.496701 0.032724
1.000000 0.516167 0.035115
1.000000 0.536032 0.037634
1.000000 0.553465 0.040218
1.000000 0.570059 0.042927
1.000000 0.586860 0.045769
1.000000 0.603866 0.048748
1.000000 0.621076 0.051867
1.000000 0.638489 0.055131
1.000000 0.656106 0.058418
0.010768 0.005498 0.006424
0.010768 0.005498 0.006424
0.010768 0.005498 0.006424
0.010768 0.005498 0.006424
0.010817 0.005498 0.006424
0.010944 0.005518 0.006424
0.011133 0.005562 0.006424
0.011423 0.005674 0.006424
0.011910 0.005795 0.006424
0.012855 0.005993 0.006424
0.014384 0.006261 0.006424
0.017160 0.006613 0.006424
0.021457 0.007191 0.006424
0.027434 0.007772 0.006424
0.035394 0.008684 0.006438
0.045697 0.009713 0.006478
0.059395 0.011348 0.006515
0.075091 0.013549 0.006551
0.092144 0.016265 0.006588
0.111828 0.019891 0.006640
0.130155 0.024083 0.006689
0.149003 0.028897 0.006737
0.169513 0.034561 0.006782
0.191745 0.041037 0.006879
0.215761 0.048379 0.007006
0.237290 0.056515 0.007131
0.259736 0.064767 0.007254
0.283337 0.073851 0.007373
0.308109 0.083814 0.007490
0.334063 0.094707 0.007605
0.360163 0.105976 0.007818
0.384272 0.118154 0.008033
0.409154 0.131284 0.008247
0.434806 0.145407 0.008477
0.461230 0.160563 0.008788
0.488424 0.174657 0.009101
0.516389 0.187754 0.009471
0.545122 0.201437 0.009941
0.574625 0.215715 0.010421
0.604896 0.230599 0.010910
0.635935 0.246097 0.011504
0.667742 0.262217 0.012239
0.700315 0.278970 0.013003
0.722732 0.294443 0.013795
0.744200 0.309208 0.014759
0.765802 0.324359 0.015889
0.787536 0.339897 0.017077
0.809399 0.355823 0.018326
0.831390 0.372138 0.019651
0.853507 0.388843 0.021158
0.875748 0.405939 0.022745
0.898111 0.423428 0.024417
0.920594 0.441310 0.026283
0.943196 0.459587 0.028317
0.965914 0.478259 0.030467
0.988749 0.497327 0.032735
1.000000 0.516793 0.035127
1.000000 0.536657 0.037646
1.000000 0.553968 0.040229
1.000000 0.570558 0.042939
1.000000 0.587355 0.045782
1.000000 0.604357 0.048760
1.000000 0.621563 0.051880
1.000000 0.638973 0.055144
1.000000 0.656586 0.058431
0.010768 0.005498 0.006424
0.010768 0.005498 0.006424
0.010768 0.005498 0.006424
0.010773 0.005498 0.006424
0.010822 0.005526 0.006424
0.010962 0.005560 0.006424
0.011145 0.005647 0.006424
0.011447 0.005756 0.006424
0.011958 0.005877 0.006424
0.012895 0.006131 0.006424
0.014459 0.006377 0.006424
0.017290 0.006846 0.006424
0.021624 0.007402 0.006424
0.027614 0.008025 0.006424
0.035632 0.008992 0.006439
0.045987 0.010010 0.006479
0.059721 0.011896 0.006517
0.075410 0.014123 0.006552
0.092488 0.017040 0.006590
0.112200 0.020732 0.006641
0.130454 0.024994 0.006691
0.149310 0.029896 0.006738
0.169828 0.035657 0.006783
0.192069 0.042217 0.006882
0.216093 0.049647 0.007009
0.237568 0.057728 0.007134
0.260014 0.066043 0.007256
0.283617 0.075191 0.007375
0.308389 0.085219 0.007492
0.334345 0.096105 0.007607
0.360405 0.107428 0.007822
0.384512 0.119662 0.008037
0.409392 0.132847 0.008250
0.435043 0.147024 0.008482
0.461465 0.162236 0.008793
0.488658 0.175974 0.009106
0.516621 0.189085 0.009478
0.545353 0.202782 0.009947
0.574854 0.217074 0.010427
0.605124 0.231971 0.010916
0.636162 0.247482 0.011513
0.667967 0.263616 0.012249
0.700540 0.280381 0.013012
0.722874 0.295613 0.013804
0.744339 0.310377 0.014771
0.765938 0.325526 0.015901
0.787669 0.341062 0.017090
0.809529 0.356987 0.018340
0.831518 0.373300 0.019666
0.853632 0.390003 0.021173
0.875871 0.407098 0.022761
0.898231 0.424586 0.024433
0.920712 0.442466 0.026301
0.943312 0.460741 0.028336
0.966029 0.479412 0.030486
0.988861 0.498479 0.032755
1.000000 0.517943 0.035147
1.000000 0.537806 0.037667
1.000000 0.554893 0.040251
1.000000 0.571476 0.042961
1.000000 0.588265 0.045804
1.000000 0.605260 0.048783
1.000000 0.622459 0.051903
1.000000 0.639863 0.055168
1.000000 0.657469 0.058453
0.010768 0.005534 0.006424
0.010768 0.005537 0.006424
0.010768 0.005546 0.006424
0.010785 0.005562 0.006424
0.010830 0.005609 0.006424
0.010987 0.005687 0.006424
0.011162 0.005771 0.006424
0.011482 0.005871 0.006424
0.012029 0.006093 0.006424
0.012954 0.006315 0.006424
0.014571 0.006660 0.006424
0.017483 0.007177 0.006424
0.021876 0.007706 0.006424
0.027884 0.008496 0.006424
0.035989 0.009447 0.006442
0.046422 0.010717 0.006482
0.060212 0.012728 0.006519
0.075888 0.014993 0.006554
0.093005 0.018226 0.006593
0.112756 0.022018 0.006644
0.130902 0.026383 0.006693
0.149770 0.031441 0.006740
0.170301 0.037324 0.006785
0.192554 0.044011 0.006886
0.216590 0.051571 0.007014
0.237982 0.059561 0.007138
0.260431 0.067970 0.007260
0.284035 0.077212 0.007379
0.308809 0.087335 0.007496
0.334766 0.098210 0.007612
0.360766 0.109614 0.007828
0.384871 0.121929 0.008042
0.409748 0.135195 0.008256
0.435397 0.149455 0.008489
0.461817 0.164749 0.008800
0.489007 0.177948 0.009113
0.516968 0.191079 0.009488
0.545698 0.204797 0.009957
0.575197 0.219109 0.010437
0.605465 0.234026 0.010926
0.636501 0.249556 0.011526
0.668304 0.265709 0.012262
0.700875 0.282494 0.013026
0.723085 0.297364 0.013818
0.744546 0.312125 0.014790
0.766141 0.327272 0.015920
0.787867 0.342805 0.017110
0.809724 0.358727 0.018359
0.831709 0.375038 0.019688
0.853820 0.391739 0.021196
0.876055 0.408832 0.022785
0.898412 0.426317 0.024457
0.920890 0.444196 0.026329
0.943487 0.462469 0.028364
0.966200 0.481137 0.030515
0.989030 0.500202 0.032785
1.000000 0.519664 0.035178
1.000000 0.539525 0.037699
1.000000 0.556275 0.040283
1.000000 0.572847 0.042994
1.000000 0.589626 0.045838
1.000000 0.606610 0.048818
1.000000 0.623799 0.051939
1.000000 0.641193 0.055205
1.000000 0.658789 0.058487
0.010768 0.005676 0.006424
0.010768 0.005681 0.006424
0.010768 0.005701 0.006424
0.010799 0.005734 0.006424
0.010839 0.005781 0.006424
0.011019 0.005838 0.006424
0.011185 0.005980 0.006424
0.011527 0.006157 0.006424
0.012122 0.006343 0.006424
0.013033 0.006657 0.006424
0.014721 0.007117 0.006424
0.017746 0.007598 0.006424
0.022218 0.008242 0.006424
0.028250 0.009119 0.006424
0.036473 0.010051 0.006446
0.047013 0.011816 0.006485
0.060878 0.013876 0.006522
0.076535 0.016482 0.006556
0.093705 0.019882 0.006596
0.113510 0.023807 0.006647
0.131507 0.028310 0.006696
0.150393 0.033583 0.006742
0.170940 0.039630 0.006787
0.193209 0.046485 0.006893
0.217235 0.054220 0.007020
0.238543 0.062072 0.007144
0.260993 0.070606 0.007265
0.284600 0.079975 0.007384
0.309376 0.090227 0.007500
0.335336 0.101079 0.007620
0.361255 0.112591 0.007835
0.385356 0.125015 0.008050
0.410230 0.138391 0.008263
0.435875 0.152761 0.008499
0.462292 0.168035 0.008810
0.489479 0.180619 0.009122
0.517437 0.193779 0.009501
0.546164 0.207524 0.009971
0.575660 0.221864 0.010450
0.605926 0.236807 0.010939
0.636959 0.252364 0.011545
0.668760 0.268542 0.012281
0.701328 0.285352 0.013045
0.723371 0.299729 0.013837
0.744826 0.314486 0.014815
0.766415 0.329630 0.015946
0.788136 0.345160 0.017136
0.809988 0.361079 0.018386
0.831967 0.377387 0.019718
0.854073 0.394085 0.021227
0.876304 0.411174 0.022816
0.898656 0.428656 0.024490
0.921130 0.446532 0.026365
0.943722 0.464802 0.028402
0.966432 0.483468 0.030554
0.989258 0.502530 0.032825
1.000000 0.521990 0.035220
1.000000 0.541793 0.037742
1.000000 0.558142 0.040326
1.000000 0.574699 0.043038
1.000000 0.591463 0.045883
1.000000 0.608433 0.048865
1.000000 0.625609 0.051987
1.000000 0.642989 0.055254
1.000000 0.660572 0.058533
0.010768 0.005887 0.006424
0.010768 0.005896 0.006424
0.010782 0.005930 0.006424
0.010815 0.005990 0.006424
0.010888 0.006076 0.006424
0.011057 0.006185 0.006424
0.011213 0.006314 0.006424
0.011583 0.006479 0.006424
0.012239 0.006840 0.006424
0.013132 0.007233 0.006424
0.014911 0.007653 0.006424
0.018080 0.008246 0.006424
0.022655 0.009040 0.006424
0.028718 0.009893 0.006424
0.037093 0.011372 0.006450
0.047769 0.013253 0.006489
0.061730 0.015435 0.006525
0.077361 0.018513 0.006560
0.094598 0.022074 0.006600
0.114472 0.026167 0.006651
0.132277 0.030891 0.006699
0.151185 0.036395 0.006746
0.171753 0.042649 0.006790
0.194043 0.049718 0.006901
0.217945 0.057420 0.007027
0.239256 0.065321 0.007151
0.261709 0.074012 0.007272
0.285319 0.083541 0.007390
0.310098 0.093954 0.007506
0.336060 0.104767 0.007630
0.361876 0.116416 0.007845
0.385972 0.128978 0.008059
0.410842 0.142493 0.008272
0.436483 0.157002 0.008512
0.462896 0.171406 0.008822
0.490079 0.184026 0.009134
0.518033 0.197221 0.009518
0.546757 0.211000 0.009987
0.576250 0.225374 0.010466
0.606511 0.240351 0.010955
0.637542 0.255941 0.011568
0.669339 0.272152 0.012304
0.701905 0.288368 0.013068
0.723735 0.302736 0.013860
0.745182 0.317489 0.014847
0.766763 0.332628 0.015978
0.788478 0.348155 0.017169
0.810323 0.364069 0.018421
0.832296 0.380373 0.019757
0.854396 0.397067 0.021266
0.876620 0.414153 0.022857
0.898967 0.431631 0.024532
0.921435 0.449503 0.026412
0.944022 0.467770 0.028451
0.966727 0.486432 0.030604
0.989547 0.505491 0.032877
1.000000 0.524947 0.035273
1.000000 0.544184 0.037795
1.000000 0.560514 0.040381
1.000000 0.577052 0.043095
1.000000 0.593798 0.045941
1.000000 0.610750 0.048924
1.000000 0.627908 0.052048
1.000000 0.645271 0.055317
1.000000 0.662837 0.058592
0.010779 0.006307 0.006424
0.010785 0.006314 0.006424
0.010804 0.006340 0.006424
0.010831 0.006386 0.006424
0.010947 0.006469 0.006424
0.011100 0.006668 0.006424
0.011287 0.006911 0.006424
0.011649 0.007195 0.006424
0.012378 0.007517 0.006424
0.013269 0.007871 0.006424
0.015141 0.008510 0.006424
0.018489 0.009217 0.006424
0.023192 0.009985 0.006424
0.029293 0.011393 0.006424
0.037856 0.013117 0.006456
0.048701 0.015066 0.006493
0.062777 0.017865 0.006529
0.078375 0.021128 0.006563
0.095694 0.024882 0.006606
0.115651 0.029175 0.006656
0.133219 0.034220 0.006703
0.152153 0.039965 0.006749
0.172748 0.046468 0.006794
0.195063 0.053796 0.006911
0.218812 0.061286 0.007036
0.240127 0.069374 0.007159
0.262584 0.078254 0.007279
0.286197 0.087975 0.007397
0.310980 0.098395 0.007513
0.336945 0.109335 0.007643
0.362634 0.121149 0.007857
0.386725 0.133877 0.008070
0.411589 0.147559 0.008283
0.437226 0.162236 0.008527
0.463634 0.175538 0.008837
0.490812 0.188201 0.009149
0.518762 0.201438 0.009539
0.547481 0.215259 0.010008
0.576970 0.229673 0.010487
0.607227 0.244691 0.010975
0.638253 0.260321 0.011597
0.670047 0.276571 0.012333
0.702609 0.292046 0.013097
0.724179 0.306409 0.013890
0.745617 0.321157 0.014885
0.767189 0.336291 0.016018
0.788895 0.351812 0.017210
0.810732 0.367722 0.018462
0.832697 0.384021 0.019803
0.854789 0.400710 0.021314
0.877006 0.417791 0.022906
0.899346 0.435265 0.024582
0.921808 0.453132 0.026469
0.944388 0.471394 0.028510
0.967087 0.490052 0.030665
0.989901 0.509107 0.032940
1.000000 0.528559 0.035338
1.000000 0.547101 0.037860
1.000000 0.563408 0.040448
1.000000 0.579923 0.043164
1.000000 0.596647 0.046012
1.000000 0.613577 0.048997
1.000000 0.630714 0.052123
1.000000 0.648056 0.055393
1.000000 0.665603 0.058663
0.010806 0.007029 0.006424
0.010810 0.007042 0.006424
0.010825 0.007092 0.006424
0.010876 0.007181 0.006424
0.011009 0.007312 0.006424
0.011146 0.007485 0.006424
0.011382 0.007698 0.006424
0.011723 0.008000 0.006424
0.012539 0.008482 0.006424
0.013561 0.009033 0.006424
0.015411 0.009649 0.006424
0.018975 0.010497 0.006424
0.023834 0.011886 0.006424
0.029979 0.013472 0.006424
0.038770 0.015305 0.006462
0.049818 0.017918 0.006499
0.064032 0.020942 0.006534
0.079585 0.024419 0.006568
0.097001 0.028397 0.006612
0.116972 0.033043 0.006661
0.134340 0.038364 0.006708
0.153305 0.044391 0.006754
0.173930 0.051187 0.006798
0.196276 0.058441 0.006922
0.219842 0.065996 0.007047
0.241161 0.074302 0.007169
0.263623 0.083404 0.007289
0.287240 0.093350 0.007406
0.312027 0.103711 0.007521
0.337996 0.114843 0.007658
0.363534 0.126850 0.007871
0.387619 0.139772 0.008084
0.412477 0.153651 0.008296
0.438107 0.168313 0.008545
0.464509 0.180461 0.008855
0.491683 0.193174 0.009166
0.519626 0.206460 0.009564
0.548340 0.220330 0.010032
0.577824 0.234793 0.010511
0.608077 0.249858 0.010999
0.639098 0.265534 0.011631
0.670888 0.281831 0.012367
0.703418 0.296410 0.013132
0.724706 0.310767 0.013924
0.746132 0.325509 0.014932
0.767695 0.340637 0.016066
0.789390 0.356152 0.017259
0.811217 0.372056 0.018512
0.833173 0.388349 0.019859
0.855256 0.405033 0.021371
0.877465 0.422109 0.022965
0.899797 0.439577 0.024643
0.922250 0.457439 0.026537
0.944823 0.475696 0.028580
0.967514 0.494349 0.030738
0.990321 0.513399 0.033015
1.000000 0.532846 0.035415
1.000000 0.550559 0.037938
1.000000 0.566838 0.040528
1.000000 0.583326 0.043246
1.000000 0.600024 0.046096
1.000000 0.616929 0.049084
1.000000 0.634041 0.052212
1.000000 0.651359 0.055484
1.000000 0.668881 0.058748
0.010829 0.007948 0.006424
0.010833 0.007968 0.006424
0.010862 0.008039 0.006424
0.010957 0.008169 0.006424
0.011072 0.008363 0.006424
0.011195 0.008622 0.006424
0.011484 0.008948 0.006424
0.011894 0.009342 0.006424
0.012720 0.009803 0.006424
0.013895 0.010497 0.006424
0.015925 0.011598 0.006424
0.019542 0.012873 0.006424
0.024586 0.014335 0.006424
0.030915 0.016235 0.006431
0.039842 0.018685 0.006469
0.051131 0.021516 0.006505
0.065504 0.024770 0.006540
0.081000 0.028490 0.006573
0.098528 0.032835 0.006619
0.118240 0.037807 0.006667
0.135644 0.043438 0.006714
0.154645 0.049787 0.006759
0.175306 0.056745 0.006809
0.197687 0.063832 0.006935
0.221039 0.071631 0.007059
0.242364 0.080184 0.007181
0.264830 0.089539 0.007300
0.288452 0.099495 0.007416
0.313243 0.110007 0.007531
0.339217 0.121358 0.007675
0.364580 0.133585 0.007888
0.388657 0.146730 0.008100
0.413508 0.160834 0.008311
0.439131 0.174000 0.008566
0.465527 0.186207 0.008875
0.492693 0.198976 0.009186
0.520631 0.212319 0.009592
0.549339 0.226244 0.010061
0.578817 0.240762 0.010539
0.609064 0.255881 0.011027
0.640080 0.271611 0.011670
0.671864 0.287514 0.012407
0.704043 0.301479 0.013172
0.725318 0.315829 0.013965
0.746732 0.330564 0.014986
0.768281 0.345685 0.016121
0.789965 0.361193 0.017315
0.811781 0.377090 0.018570
0.833726 0.393377 0.019923
0.855799 0.410054 0.021438
0.877997 0.427124 0.023033
0.900319 0.444586 0.024713
0.922763 0.462442 0.026617
0.945327 0.480693 0.028662
0.968010 0.499340 0.030822
0.990809 0.518384 0.033102
1.000000 0.537826 0.035505
1.000000 0.554569 0.038028
1.000000 0.570816 0.040620
1.000000 0.587274 0.043341
1.000000 0.603942 0.046194
1.000000 0.620817 0.049184
1.000000 0.637900 0.052315
1.000000 0.655190 0.055590
1.000000 0.672685 0.058846
0.010892 0.009480 0.006424
0.010907 0.009499 0.006424
0.010956 0.009566 0.006424
0.011036 0.009689 0.006424
0.011136 0.009873 0.006424
0.011292 0.010119 0.006424
0.011593 0.010680 0.006424
0.012127 0.011378 0.006424
0.012919 0.012222 0.006424
0.014272 0.013222 0.006424
0.016562 0.014390 0.006424
0.020192 0.015900 0.006424
0.025454 0.017893 0.006424
0.032035 0.020211 0.006441
0.041083 0.022887 0.006477
0.052650 0.025960 0.006512
0.067205 0.029474 0.006546
0.082629 0.033599 0.006578
0.100284 0.038287 0.006627
0.119691 0.043591 0.006675
0.137137 0.049569 0.006721
0.156180 0.056175 0.006765
0.176881 0.062854 0.006825
0.199301 0.070207 0.006951
0.222407 0.078277 0.007073
0.243738 0.087109 0.007194
0.266210 0.096648 0.007312
0.289837 0.106601 0.007428
0.314634 0.117355 0.007541
0.340612 0.128950 0.007694
0.365774 0.141426 0.007906
0.389843 0.154821 0.008118
0.414686 0.168815 0.008328
0.440301 0.180533 0.008590
0.466689 0.192803 0.008898
0.493848 0.205637 0.009209
0.521779 0.219042 0.009625
0.550480 0.233030 0.010093
0.579951 0.247609 0.010571
0.610191 0.262789 0.011059
0.641201 0.278579 0.011715
0.672979 0.293311 0.012453
0.704757 0.307268 0.013218
0.726017 0.321610 0.014011
0.747416 0.336336 0.015047
0.768952 0.351450 0.016184
0.790622 0.366950 0.017380
0.812425 0.382840 0.018636
0.834358 0.399119 0.019997
0.856419 0.415790 0.021514
0.878606 0.432852 0.023111
0.900917 0.450307 0.024793
0.923350 0.468157 0.026707
0.945904 0.486401 0.028755
0.968576 0.505042 0.030919
0.991366 0.524079 0.033201
1.000000 0.543142 0.035608
1.000000 0.559142 0.038131
1.000000 0.575353 0.040726
1.000000 0.591776 0.043450
1.000000 0.608410 0.046306
1.000000 0.625252 0.049299
1.000000 0.642303 0.052433
1.000000 0.659561 0.055711
1.000000 0.677024 0.058959
0.010992 0.011975 0.006424
0.011004 0.012010 0.006424
0.011045 0.012133 0.006424
0.011113 0.012362 0.006424
0.011200 0.012706 0.006424
0.011430 0.013175 0.006424
0.011707 0.013777 0.006424
0.012377 0.014523 0.006424
0.013135 0.015497 0.006424
0.014690 0.016860 0.006424
0.017283 0.018476 0.006424
0.021077 0.020372 0.006424
0.026443 0.022577 0.006424
0.033317 0.025124 0.006450
0.042500 0.028046 0.006486
0.054387 0.031450 0.006520
0.069104 0.035376 0.006553
0.084481 0.039831 0.006587
0.102279 0.044868 0.006636
0.121333 0.050540 0.006683
0.138826 0.056731 0.006728
0.157914 0.063055 0.006772
0.178660 0.070018 0.006843
0.201125 0.077663 0.006967
0.223950 0.086032 0.007089
0.245287 0.095147 0.007208
0.267766 0.104595 0.007326
0.291399 0.114810 0.007441
0.316202 0.125832 0.007553
0.342186 0.137698 0.007716
0.367121 0.150447 0.007927
0.391180 0.164120 0.008138
0.416013 0.176151 0.008347
0.441619 0.187940 0.008618
0.467999 0.200281 0.008925
0.495150 0.213185 0.009234
0.523072 0.226660 0.009662
0.551766 0.240716 0.010130
0.581229 0.255363 0.010607
0.611462 0.270610 0.011094
0.642465 0.286278 0.011766
0.674236 0.299843 0.012504
0.705561 0.313791 0.013269
0.726804 0.328123 0.014063
0.748186 0.342841 0.015117
0.769707 0.357946 0.016255
0.791362 0.373438 0.017453
0.813150 0.389320 0.018710
0.835069 0.405591 0.020081
0.857117 0.422254 0.021599
0.879291 0.439308 0.023199
0.901590 0.456756 0.024884
0.924011 0.474597 0.026809
0.946553 0.492834 0.028861
0.969215 0.511467 0.031028
0.991994 0.530498 0.033314
1.000000 0.548326 0.035724
1.000000 0.564285 0.038248
1.000000 0.580457 0.040846
1.000000 0.596841 0.043573
1.000000 0.613437 0.046433
1.000000 0.630242 0.049429
1.000000 0.647257 0.052566
1.000000 0.664479 0.055848
1.000000 0.681908 0.059086
0.011084 0.015646 0.006424
0.011094 0.015693 0.006424
0.011128 0.015862 0.006424
0.011186 0.016176 0.006424
0.011336 0.016649 0.006424
0.011571 0.017298 0.006424
0.011946 0.018138 0.006424
0.012643 0.019188 0.006424
0.013518 0.020465 0.006424
0.015147 0.021993 0.006424
0.018090 0.023794 0.006424
0.022123 0.025896 0.006424
0.027558 0.028328 0.006426
0.034771 0.031180 0.006461
0.044104 0.034481 0.006495
0.056355 0.038242 0.006528
0.071033 0.042507 0.006560
0.086564 0.047323 0.006598
0.104521 0.052741 0.006645
0.123169 0.058437 0.006691
0.140713 0.064450 0.006736
0.159852 0.071072 0.006779
0.180648 0.078343 0.006863
0.203163 0.086304 0.006986
0.225672 0.094984 0.007106
0.247016 0.103977 0.007225
0.269501 0.113706 0.007341
0.293142 0.124208 0.007455
0.317951 0.135520 0.007567
0.343942 0.147681 0.007740
0.368621 0.160730 0.007951
0.392670 0.173060 0.008160
0.417493 0.184385 0.008368
0.443089 0.196252 0.008648
0.469459 0.208670 0.008954
0.496601 0.221649 0.009263
0.524514 0.235199 0.009703
0.553199 0.249330 0.010170
0.582654 0.264051 0.010647
0.612880 0.279372 0.011134
0.643874 0.293568 0.011823
0.675638 0.307123 0.012561
0.706458 0.321061 0.013327
0.727681 0.335384 0.014121
0.749045 0.350092 0.015194
0.770548 0.365187 0.016335
0.792187 0.380670 0.017534
0.813959 0.396543 0.018794
0.835862 0.412805 0.020174
0.857895 0.429459 0.021695
0.880055 0.446504 0.023298
0.902340 0.463944 0.024985
0.924748 0.481777 0.026924
0.947277 0.500006 0.028979
0.969927 0.518631 0.031150
0.992693 0.537653 0.033440
1.000000 0.554092 0.035853
1.000000 0.570006 0.038378
1.000000 0.586134 0.040980
1.000000 0.602476 0.043711
1.000000 0.619030 0.046574
1.000000 0.635794 0.049574
1.000000 0.652769 0.052715
1.000000 0.669952 0.056001
1.000000 0.687343 0.059228
0.011169 0.021190 0.006424
0.011177 0.021244 0.006424
0.011207 0.021436 0.006424
0.011321 0.021791 0.006424
0.011500 0.022327 0.006424
0.011713 0.023060 0.006424
0.012263 0.024007 0.006424
0.012922 0.025185 0.006424
0.014048 0.026614 0.006424
0.015785 0.028316 0.006424
0.018987 0.030345 0.006424
0.023296 0.032746 0.006424
0.028805 0.035517 0.006439
0.036408 0.038693 0.006473
0.045950 0.042312 0.006505
0.058567 0.046415 0.006537
0.073189 0.051046 0.006568
0.088890 0.056148 0.006609
0.107021 0.061341 0.006656
0.125204 0.067080 0.006701
0.142805 0.073401 0.006745
0.162000 0.080342 0.006787
0.182851 0.087942 0.006885
0.205420 0.096169 0.007006
0.227575 0.104753 0.007125
0.248927 0.114042 0.007242
0.271420 0.124074 0.007357
0.295068 0.134884 0.007470
0.319884 0.146510 0.007582
0.345882 0.158989 0.007767
0.370279 0.171264 0.007976
0.394316 0.182141 0.008184
0.419127 0.193549 0.008392
0.444713 0.205498 0.008681
0.471072 0.217998 0.008987
0.498204 0.231059 0.009294
0.526108 0.244690 0.009749
0.554783 0.258901 0.010215
