velvia_classic/Velvia50_Punchy.cube
TITLE "Velvia 50 Punchy"
# Adobe RGB in/out. REPLACES AgX. Velvia 50 color reversal.
LUT_3D_SIZE 65
DOMAIN_MIN 0.0 0.0 0.0
DOMAIN_MAX 1.0 1.0 1.0
0.025288 0.015046 0.016969
0.025288 0.015046 0.016969
0.025288 0.015046 0.016969
0.025313 0.015046 0.016969
0.025416 0.015046 0.016969
0.025827 0.015046 0.016969
0.026301 0.015140 0.016969
0.027193 0.015330 0.016969
0.029089 0.015616 0.016969
0.032286 0.016005 0.016969
0.038360 0.016598 0.016969
0.047214 0.017344 0.016969
0.058510 0.018566 0.016969
0.073572 0.019765 0.016969
0.092476 0.021685 0.016994
0.113778 0.023706 0.017076
0.136052 0.027160 0.017153
0.160565 0.031247 0.017226
0.181494 0.036433 0.017301
0.203796 0.042680 0.017405
0.227482 0.049594 0.017506
0.252561 0.057282 0.017602
0.275258 0.065921 0.017693
0.297939 0.075391 0.017885
0.321404 0.085729 0.018141
0.345646 0.096170 0.018391
0.370657 0.106948 0.018634
0.393360 0.118458 0.018871
0.415824 0.130720 0.019102
0.438715 0.143351 0.019328
0.462026 0.156444 0.019743
0.485750 0.170244 0.020162
0.509881 0.184766 0.020575
0.534412 0.200021 0.021015
0.559339 0.214808 0.021609
0.584655 0.227571 0.022202
0.610356 0.240702 0.022894
0.636435 0.254199 0.023766
0.653962 0.268062 0.024648
0.670888 0.282292 0.025538
0.687806 0.296888 0.026602
0.704717 0.311851 0.027907
0.721622 0.325563 0.029243
0.738520 0.338440 0.030610
0.755412 0.351513 0.032247
0.772297 0.364780 0.034138
0.789176 0.378239 0.036095
0.806050 0.391890 0.038119
0.822917 0.405730 0.040230
0.839779 0.419759 0.042592
0.856635 0.433975 0.045041
0.872909 0.448376 0.047579
0.883210 0.462961 0.050363
0.893432 0.477730 0.053348
0.903578 0.492680 0.056450
0.913650 0.507811 0.059671
0.923650 0.522800 0.063012
0.933579 0.535303 0.066476
0.943440 0.547879 0.069974
0.953233 0.560529 0.073589
0.962961 0.573250 0.077324
0.972625 0.586043 0.081183
0.982226 0.598907 0.085167
0.991767 0.611840 0.089278
1.000000 0.624842 0.093364
0.025288 0.015046 0.016969
0.025288 0.015046 0.016969
0.025288 0.015046 0.016969
0.025314 0.015046 0.016969
0.025417 0.015046 0.016969
0.025828 0.015046 0.016969
0.026303 0.015154 0.016969
0.027196 0.015362 0.016969
0.029092 0.015641 0.016969
0.032291 0.016054 0.016969
0.038368 0.016638 0.016969
0.047224 0.017421 0.016969
0.058522 0.018634 0.016969
0.073585 0.019826 0.016969
0.092491 0.021778 0.016994
0.113793 0.023794 0.017076
0.136066 0.027316 0.017153
0.160577 0.031405 0.017226
0.181506 0.036639 0.017301
0.203808 0.042894 0.017406
0.227493 0.049815 0.017506
0.252573 0.057520 0.017602
0.275268 0.066168 0.017694
0.297949 0.075646 0.017886
0.321413 0.085994 0.018142
0.345655 0.096413 0.018392
0.370666 0.107196 0.018635
0.393368 0.118711 0.018872
0.415831 0.130978 0.019103
0.438722 0.143600 0.019329
0.462033 0.156697 0.019744
0.485757 0.170500 0.020163
0.509887 0.185024 0.020576
0.534419 0.200283 0.021017
0.559346 0.215011 0.021611
0.584662 0.227773 0.022203
0.610362 0.240903 0.022895
0.636441 0.254399 0.023768
0.653966 0.268261 0.024650
0.670891 0.282490 0.025539
0.687810 0.297085 0.026604
0.704721 0.312046 0.027910
0.721625 0.325723 0.029246
0.738523 0.338598 0.030612
0.755415 0.351669 0.032250
0.772300 0.364934 0.034141
0.789179 0.378392 0.036098
0.806053 0.392041 0.038122
0.822920 0.405879 0.040234
0.839782 0.419906 0.042596
0.856638 0.434120 0.045045
0.872911 0.448520 0.047582
0.883211 0.463104 0.050367
0.893433 0.477871 0.053353
0.903579 0.492820 0.056455
0.913651 0.507949 0.059675
0.923651 0.522911 0.063016
0.933580 0.535412 0.066481
0.943441 0.547987 0.069979
0.953234 0.560635 0.073593
0.962962 0.573355 0.077329
0.972626 0.586146 0.081188
0.982228 0.599008 0.085171
0.991768 0.611940 0.089282
1.000000 0.624941 0.093368
0.025288 0.015046 0.016969
0.025288 0.015046 0.016969
0.025288 0.015046 0.016969
0.025316 0.015046 0.016969
0.025418 0.015046 0.016969
0.025831 0.015105 0.016969
0.026309 0.015198 0.016969
0.027208 0.015470 0.016969
0.029101 0.015724 0.016969
0.032308 0.016222 0.016969
0.038397 0.016778 0.016969
0.047260 0.017692 0.016969
0.058566 0.018874 0.016969
0.073632 0.020162 0.016969
0.092546 0.022112 0.016996
0.113844 0.024109 0.017078
0.136119 0.027880 0.017155
0.160619 0.031972 0.017227
0.181548 0.037379 0.017303
0.203850 0.043664 0.017408
0.227535 0.050614 0.017508
0.252615 0.058375 0.017603
0.275302 0.067056 0.017695
0.297982 0.076567 0.017889
0.321446 0.086947 0.018145
0.345687 0.097289 0.018395
0.370698 0.108090 0.018638
0.393394 0.119622 0.018874
0.415858 0.131906 0.019105
0.438748 0.144497 0.019331
0.462058 0.157605 0.019748
0.485781 0.171419 0.020167
0.509911 0.185955 0.020580
0.534442 0.201224 0.021022
0.559368 0.215741 0.021616
0.584684 0.228500 0.022208
0.610384 0.241625 0.022902
0.636463 0.255116 0.023775
0.653980 0.268975 0.024656
0.670905 0.283200 0.025546
0.687822 0.297791 0.026613
0.704733 0.312749 0.027919
0.721637 0.326299 0.029255
0.738535 0.339167 0.030621
0.755426 0.352230 0.032261
0.772311 0.365488 0.034153
0.789190 0.378939 0.036110
0.806063 0.392582 0.038134
0.822930 0.406414 0.040246
0.839791 0.420435 0.042609
0.856647 0.434643 0.045058
0.872917 0.449037 0.047595
0.883217 0.463616 0.050381
0.893439 0.478377 0.053367
0.903585 0.493321 0.056470
0.913656 0.508446 0.059690
0.923656 0.523309 0.063032
0.933585 0.535804 0.066496
0.943446 0.548373 0.069994
0.953239 0.561015 0.073609
0.962967 0.573730 0.077345
0.972631 0.586516 0.081204
0.982232 0.599372 0.085188
0.991772 0.612299 0.089299
1.000000 0.625295 0.093383
0.025288 0.015046 0.016969
0.025288 0.015046 0.016969
0.025288 0.015046 0.016969
0.025319 0.015056 0.016969
0.025423 0.015122 0.016969
0.025838 0.015194 0.016969
0.026321 0.015415 0.016969
0.027230 0.015643 0.016969
0.029119 0.015979 0.016969
0.032339 0.016508 0.016969
0.038450 0.017037 0.016969
0.047326 0.018172 0.016969
0.058648 0.019303 0.016969
0.073718 0.020807 0.016969
0.092647 0.022718 0.017000
0.113938 0.025140 0.017081
0.136217 0.028918 0.017158
0.160697 0.033047 0.017230
0.181626 0.038752 0.017306
0.203927 0.045089 0.017411
0.227612 0.052093 0.017510
0.252692 0.059957 0.017606
0.275365 0.068699 0.017697
0.298044 0.078270 0.017895
0.321507 0.088709 0.018151
0.345747 0.098905 0.018400
0.370756 0.109738 0.018643
0.393444 0.121302 0.018879
0.415905 0.133617 0.019110
0.438794 0.146148 0.019335
0.462103 0.159277 0.019756
0.485826 0.173113 0.020174
0.509955 0.187668 0.020587
0.534485 0.202957 0.021031
0.559411 0.217085 0.021625
0.584725 0.229835 0.022217
0.610424 0.242952 0.022915
0.636503 0.256436 0.023787
0.654005 0.270288 0.024668
0.670929 0.284506 0.025557
0.687846 0.299090 0.026629
0.704756 0.314042 0.027935
0.721659 0.327357 0.029271
0.738556 0.340212 0.030637
0.755447 0.353262 0.032282
0.772331 0.366508 0.034174
0.789210 0.379947 0.036131
0.806082 0.393577 0.038155
0.822949 0.407398 0.040270
0.839810 0.421408 0.042633
0.856665 0.435605 0.045082
0.872927 0.449989 0.047620
0.883227 0.464557 0.050408
0.893449 0.479309 0.053395
0.903594 0.494243 0.056497
0.913666 0.509359 0.059719
0.923665 0.524040 0.063061
0.933594 0.536524 0.066525
0.943454 0.549083 0.070023
0.953247 0.561714 0.073638
0.962975 0.574419 0.077374
0.972639 0.587195 0.081233
0.982240 0.600042 0.085218
0.991780 0.612960 0.089329
1.000000 0.625947 0.093411
0.025288 0.015140 0.016969
0.025288 0.015146 0.016969
0.025288 0.015165 0.016969
0.025324 0.015198 0.016969
0.025437 0.015335 0.016969
0.025847 0.015499 0.016969
0.026338 0.015676 0.016969
0.027262 0.015969 0.016969
0.029145 0.016431 0.016969
0.032386 0.016893 0.016969
0.038529 0.017794 0.016969
0.047425 0.018850 0.016969
0.058770 0.019950 0.016969
0.073846 0.021746 0.016969
0.092798 0.023603 0.017006
0.114078 0.026686 0.017086
0.136363 0.030474 0.017162
0.160814 0.035043 0.017234
0.181742 0.040827 0.017312
0.204043 0.047243 0.017415
0.227728 0.054324 0.017515
0.252807 0.062346 0.017610
0.275459 0.071176 0.017701
0.298136 0.080835 0.017905
0.321598 0.091162 0.018160
0.345836 0.101332 0.018408
0.370844 0.112212 0.018650
0.393517 0.123823 0.018886
0.415977 0.136156 0.019116
0.438864 0.148624 0.019345
0.462172 0.161784 0.019767
0.485893 0.175650 0.020184
0.510021 0.190236 0.020597
0.534549 0.205554 0.021045
0.559473 0.219093 0.021638
0.584787 0.231831 0.022230
0.610485 0.244937 0.022933
0.636562 0.258410 0.023805
0.654042 0.272250 0.024686
0.670965 0.286458 0.025575
0.687880 0.301032 0.026653
0.704790 0.315974 0.027959
0.721692 0.328939 0.029295
0.738588 0.341773 0.030661
0.755478 0.354804 0.032313
0.772362 0.368031 0.034205
0.789239 0.381451 0.036163
0.806111 0.395064 0.038187
0.822977 0.408868 0.040305
0.839837 0.422862 0.042668
0.856692 0.437043 0.045118
0.872943 0.451411 0.047656
0.883243 0.465965 0.050448
0.893464 0.480702 0.053436
0.903609 0.495622 0.056539
0.913680 0.510724 0.059761
0.923679 0.525133 0.063103
0.933607 0.537601 0.066569
0.943467 0.550143 0.070066
0.953260 0.562759 0.073681
0.962987 0.575449 0.077418
0.972651 0.588211 0.081278
0.982251 0.601044 0.085263
0.991791 0.613948 0.089375
1.000000 0.626921 0.093453
0.025288 0.015478 0.016969
0.025288 0.015489 0.016969
0.025288 0.015530 0.016969
0.025331 0.015600 0.016969
0.025457 0.015697 0.016969
0.025860 0.015863 0.016969
0.026361 0.016200 0.016969
0.027306 0.016567 0.016969
0.029179 0.016952 0.016969
0.032450 0.017791 0.016969
0.038635 0.018733 0.016969
0.047559 0.019702 0.016969
0.058935 0.021249 0.016969
0.074020 0.022972 0.016969
0.093002 0.025295 0.017013
0.114268 0.028782 0.017092
0.136560 0.032583 0.017167
0.160971 0.037787 0.017238
0.181899 0.043674 0.017319
0.204199 0.050192 0.017422
0.227884 0.057456 0.017520
0.252963 0.065613 0.017615
0.275586 0.074561 0.017705
0.298261 0.084337 0.017918
0.321721 0.094394 0.018172
0.345957 0.104628 0.018419
0.370963 0.115571 0.018660
0.393616 0.127244 0.018896
0.416074 0.139468 0.019125
0.438959 0.151979 0.019361
0.462264 0.165180 0.019782
0.485983 0.179088 0.020199
0.510109 0.193713 0.020611
0.534636 0.209071 0.021064
0.559559 0.221803 0.021656
0.584870 0.234525 0.022248
0.610567 0.247616 0.022958
0.636642 0.261074 0.023829
0.654092 0.274900 0.024709
0.671013 0.289094 0.025598
0.687928 0.303655 0.026686
0.704835 0.318465 0.027992
0.721737 0.331072 0.029327
0.738631 0.343879 0.030693
0.755520 0.356884 0.032356
0.772402 0.370085 0.034248
0.789279 0.383482 0.036206
0.806150 0.397071 0.038230
0.823014 0.410852 0.040352
0.839874 0.424824 0.042716
0.856728 0.438984 0.045167
0.872965 0.453331 0.047705
0.883264 0.467864 0.050503
0.893484 0.482582 0.053491
0.903629 0.497483 0.056595
0.913699 0.512566 0.059818
0.923697 0.526608 0.063161
0.933625 0.539053 0.066627
0.943485 0.551574 0.070124
0.953277 0.564170 0.073740
0.963004 0.576839 0.077478
0.972667 0.589581 0.081338
0.982267 0.602395 0.085324
0.991806 0.615281 0.089437
1.000000 0.628237 0.093510
0.025288 0.016007 0.016969
0.025288 0.016027 0.016969
0.025288 0.016097 0.016969
0.025339 0.016223 0.016969
0.025482 0.016402 0.016969
0.025875 0.016628 0.016969
0.026389 0.016894 0.016969
0.027361 0.017428 0.016969
0.029224 0.018171 0.016969
0.032531 0.018971 0.016969
0.038771 0.019816 0.016969
0.047730 0.021262 0.016969
0.059145 0.022825 0.016969
0.074241 0.024758 0.016969
0.093261 0.027955 0.017022
0.114510 0.031458 0.017101
0.136810 0.035934 0.017175
0.161171 0.041348 0.017245
0.182098 0.047362 0.017328
0.204398 0.054006 0.017430
0.228082 0.061531 0.017527
0.253160 0.069834 0.017621
0.275748 0.078927 0.017711
0.298420 0.088849 0.017934
0.321876 0.098535 0.018187
0.346110 0.108849 0.018433
0.371114 0.119871 0.018673
0.393743 0.131621 0.018908
0.416197 0.143697 0.019136
0.439079 0.156261 0.019381
0.462382 0.169515 0.019801
0.486098 0.183474 0.020217
0.510222 0.198150 0.020628
0.534747 0.212911 0.021088
0.559667 0.225245 0.021680
0.584977 0.237948 0.022270
0.610671 0.251019 0.022990
0.636745 0.264458 0.023861
0.654156 0.278266 0.024740
0.671075 0.292442 0.025628
0.687987 0.306986 0.026728
0.704893 0.321206 0.028033
0.721793 0.333778 0.029368
0.738686 0.346551 0.030734
0.755573 0.359523 0.032409
0.772454 0.372693 0.034302
0.789329 0.386059 0.036260
0.806199 0.399619 0.038285
0.823063 0.413371 0.040413
0.839921 0.427314 0.042777
0.856773 0.441447 0.045228
0.872992 0.455768 0.047768
0.883290 0.470276 0.050572
0.893510 0.484969 0.053561
0.903654 0.499846 0.056667
0.913723 0.514906 0.059890
0.923721 0.528479 0.063235
0.933648 0.540897 0.066699
0.943507 0.553391 0.070197
0.953299 0.565960 0.073815
0.963025 0.578604 0.077553
0.972687 0.591321 0.081415
0.982287 0.604111 0.085401
0.991826 0.616974 0.089515
1.000000 0.629907 0.093582
0.025288 0.016882 0.016969
0.025288 0.016897 0.016969
0.025288 0.016950 0.016969
0.025349 0.017098 0.016969
0.025510 0.017414 0.016969
0.025894 0.017824 0.016969
0.026424 0.018323 0.016969
0.027428 0.018901 0.016969
0.029277 0.019548 0.016969
0.032629 0.020515 0.016969
0.038937 0.021794 0.016969
0.047938 0.023176 0.016969
0.059401 0.025090 0.016969
0.074512 0.028006 0.016969
0.093579 0.031222 0.017033
0.114805 0.035249 0.017110
0.137117 0.040244 0.017183
0.161416 0.045805 0.017252
0.182342 0.051966 0.017338
0.204641 0.058886 0.017439
0.228325 0.066609 0.017536
0.253402 0.075085 0.017629
0.275945 0.084352 0.017718
0.298614 0.093918 0.017953
0.322067 0.103640 0.018205
0.346297 0.114048 0.018450
0.371298 0.125163 0.018689
0.393897 0.136938 0.018922
0.416348 0.148889 0.019150
0.439227 0.161517 0.019405
0.462526 0.174833 0.019825
0.486239 0.188853 0.020239
0.510359 0.203589 0.020649
0.534881 0.217134 0.021118
0.559799 0.229443 0.021708
0.585106 0.242122 0.022297
0.610798 0.255170 0.023029
0.636869 0.268587 0.023899
0.654234 0.282373 0.024777
0.671150 0.296528 0.025664
0.688061 0.311052 0.026779
0.704965 0.324544 0.028084
0.721862 0.337074 0.029419
0.738753 0.349806 0.030784
0.755639 0.362739 0.032475
0.772518 0.375871 0.034368
0.789391 0.389199 0.036327
0.806259 0.402723 0.038352
0.823121 0.416441 0.040487
0.839978 0.430351 0.042852
0.856829 0.444451 0.045304
0.873026 0.458740 0.047844
0.883322 0.473217 0.050657
0.893541 0.487880 0.053647
0.903684 0.502728 0.056754
0.913753 0.517759 0.059979
0.923750 0.530760 0.063325
0.933676 0.543144 0.066788
0.943534 0.555605 0.070288
0.953325 0.568142 0.073906
0.963051 0.580755 0.077646
0.972712 0.593443 0.081508
0.982312 0.606204 0.085496
0.991850 0.619038 0.089611
1.000000 0.631943 0.093670
0.025288 0.018569 0.016969
0.025288 0.018597 0.016969
0.025288 0.018697 0.016969
0.025360 0.018878 0.016969
0.025544 0.019143 0.016969
0.025916 0.019490 0.016969
0.026464 0.019955 0.016969
0.027507 0.020788 0.016969
0.029341 0.021748 0.016969
0.032745 0.022827 0.016969
0.039133 0.024018 0.016969
0.048185 0.026307 0.016969
0.059707 0.028951 0.016969
0.074834 0.031887 0.016969
0.093957 0.035736 0.017046
0.115156 0.040356 0.017121
0.137481 0.045513 0.017193
0.161706 0.051239 0.017261
0.182631 0.057654 0.017351
0.204930 0.064858 0.017451
0.228612 0.072778 0.017546
0.253689 0.081451 0.017638
0.276180 0.090762 0.017727
0.298844 0.099929 0.017977
0.322293 0.109761 0.018226
0.346520 0.120277 0.018470
0.371517 0.131500 0.018708
0.394080 0.143061 0.018940
0.416527 0.155088 0.019166
0.439401 0.167788 0.019434
0.462696 0.181177 0.019852
0.486406 0.195268 0.020265
0.510523 0.210075 0.020674
0.535041 0.222135 0.021153
0.559956 0.234416 0.021742
0.585260 0.247067 0.022330
0.610949 0.260088 0.023075
0.637018 0.273480 0.023944
0.654326 0.287241 0.024821
0.671240 0.301371 0.025707
0.688148 0.315871 0.026840
0.705049 0.328492 0.028144
0.721944 0.340973 0.029478
0.738833 0.353657 0.030843
0.755716 0.366544 0.032553
0.772593 0.379631 0.034447
0.789465 0.392917 0.036406
0.806330 0.406399 0.038432
0.823191 0.420076 0.040574
0.840046 0.433946 0.042940
0.856895 0.448008 0.045394
0.873065 0.462260 0.047935
0.883361 0.476701 0.050757
0.893579 0.491329 0.053749
0.903720 0.506143 0.056858
0.913788 0.521141 0.060084
0.923784 0.533460 0.063432
0.933710 0.545803 0.066894
0.943567 0.558226 0.070395
0.953357 0.570726 0.074014
0.963081 0.583302 0.077755
0.972742 0.595955 0.081619
0.982341 0.608682 0.085609
0.991878 0.621482 0.089725
1.000000 0.634356 0.093774
0.025288 0.020696 0.016969
0.025288 0.020736 0.016969
0.025288 0.020878 0.016969
0.025371 0.021138 0.016969
0.025581 0.021522 0.016969
0.025940 0.022034 0.016969
0.026511 0.022673 0.016969
0.027597 0.023437 0.016969
0.029414 0.024492 0.016969
0.032879 0.026325 0.016969
0.039362 0.028427 0.016969
0.048473 0.030806 0.016969
0.060062 0.033621 0.016969
0.075208 0.037422 0.016984
0.094396 0.041704 0.017061
0.115564 0.046497 0.017134
0.137904 0.051832 0.017204
0.162043 0.057831 0.017271
0.182967 0.064569 0.017365
0.205265 0.071989 0.017463
0.228947 0.080127 0.017558
0.254022 0.089021 0.017649
0.276452 0.097710 0.017749
0.299111 0.107000 0.018003
0.322556 0.116954 0.018251
0.346778 0.127593 0.018493
0.371771 0.138774 0.018729
0.394293 0.150226 0.018960
0.416734 0.162336 0.019185
0.439604 0.175119 0.019468
0.462895 0.188589 0.019884
0.486600 0.202761 0.020296
0.510713 0.216054 0.020703
0.535227 0.227931 0.021193
0.560138 0.240180 0.021781
0.585439 0.252800 0.022367
0.611124 0.265791 0.023128
0.637190 0.279153 0.023996
0.654433 0.292885 0.024872
0.671344 0.306988 0.025757
0.688249 0.320844 0.026910
0.705147 0.333060 0.028214
0.722039 0.345484 0.029548
0.738925 0.358115 0.030912
0.755806 0.370949 0.032643
0.772681 0.383985 0.034538
0.789550 0.397221 0.036498
0.806413 0.410656 0.038524
0.823272 0.424286 0.040676
0.840125 0.438111 0.043044
0.856972 0.452129 0.045498
0.873112 0.466339 0.048040
0.883406 0.480738 0.050874
0.893622 0.495326 0.053868
0.903762 0.510100 0.056978
0.913829 0.524368 0.060207
0.923824 0.536585 0.063556
0.933748 0.548883 0.067017
0.943604 0.561261 0.070519
0.953393 0.573718 0.074140
0.963117 0.586253 0.077883
0.972777 0.598865 0.081749
0.982375 0.611552 0.085739
0.991911 0.624315 0.089857
1.000000 0.637151 0.093895
0.025288 0.023714 0.016969
0.025288 0.023750 0.016969
0.025305 0.023879 0.016969
0.025384 0.024123 0.016969
0.025621 0.024754 0.016969
0.025968 0.025609 0.016969
0.026563 0.026698 0.016969
0.027700 0.028032 0.016969
0.029497 0.029619 0.016969
0.033032 0.031468 0.016969
0.039622 0.033771 0.016969
0.048801 0.036851 0.016969
0.060468 0.040363 0.016969
0.075635 0.044335 0.017003
0.094899 0.048794 0.017077
0.116031 0.053770 0.017149
0.138388 0.059439 0.017217
0.162429 0.065757 0.017282
0.183352 0.072724 0.017381
0.205648 0.080378 0.017478
0.229329 0.088755 0.017571
0.254403 0.096983 0.017661
0.276763 0.105764 0.017782
0.299417 0.115189 0.018033
0.322856 0.125277 0.018279
0.347073 0.136028 0.018519
0.372061 0.146929 0.018753
0.394536 0.158473 0.018982
0.416971 0.170676 0.019206
0.439835 0.183551 0.019506
0.463121 0.197112 0.019920
0.486821 0.211227 0.020330
0.510929 0.222695 0.020736
0.535440 0.234536 0.021239
0.560346 0.246749 0.021825
0.585643 0.259335 0.022410
0.611325 0.272292 0.023189
0.637387 0.285621 0.024055
0.654556 0.299321 0.024931
0.671463 0.313393 0.025815
0.688364 0.326102 0.026990
0.705259 0.338254 0.028293
0.722148 0.350616 0.029627
0.739031 0.363186 0.030991
0.755909 0.375961 0.032747
0.772781 0.388940 0.034642
0.789647 0.402121 0.036603
0.806508 0.415501 0.038630
0.823364 0.429080 0.040792
0.840215 0.442854 0.043161
0.857060 0.456823 0.045617
0.873164 0.470985 0.048161
0.883457 0.485337 0.051008
0.893672 0.499879 0.054004
0.903811 0.514610 0.057116
0.913876 0.527978 0.060347
0.923869 0.540142 0.063698
0.933792 0.552388 0.067157
0.943647 0.564716 0.070661
0.953435 0.577125 0.074284
0.963158 0.589613 0.078029
0.972817 0.602179 0.081896
0.982413 0.614822 0.085889
0.991949 0.627541 0.090008
1.000000 0.640335 0.094034
0.025288 0.029180 0.016969
0.025288 0.029244 0.016969
0.025325 0.029476 0.016969
0.025396 0.029902 0.016969
0.025665 0.030540 0.016969
0.025998 0.031404 0.016969
0.026620 0.032504 0.016969
0.027814 0.034105 0.016969
0.029589 0.036160 0.016969
0.033204 0.038585 0.016969
0.039915 0.041403 0.016969
0.049172 0.044638 0.016969
0.060927 0.048315 0.016969
0.076119 0.052462 0.017023
0.095466 0.057178 0.017095
0.116557 0.062524 0.017164
0.138934 0.068458 0.017231
0.162863 0.075014 0.017301
0.183785 0.082226 0.017399
0.206080 0.090059 0.017494
0.229759 0.097758 0.017586
0.254833 0.106060 0.017674
0.277114 0.114985 0.017818
0.299761 0.124554 0.018067
0.323194 0.134786 0.018310
0.347405 0.145201 0.018548
0.372388 0.156203 0.018780
0.394809 0.167849 0.019008
0.417238 0.180152 0.019230
0.440096 0.193126 0.019549
0.463376 0.206786 0.019961
0.487071 0.218731 0.020369
0.511174 0.230158 0.020773
0.535679 0.241959 0.021291
0.560581 0.254134 0.021875
0.585873 0.266682 0.022458
0.611551 0.279602 0.023258
0.637608 0.292895 0.024123
0.654694 0.306561 0.024996
0.671597 0.320131 0.025879
0.688494 0.331997 0.027081
0.705385 0.344078 0.028383
0.722270 0.356371 0.029716
0.739150 0.368875 0.031080
0.756024 0.381585 0.032864
0.772893 0.394502 0.034760
0.789757 0.407622 0.036721
0.806615 0.420943 0.038749
0.823468 0.434464 0.040924
0.840316 0.448182 0.043294
0.857159 0.462096 0.045751
0.873224 0.476205 0.048297
0.883514 0.490506 0.051159
0.893727 0.504997 0.054157
0.903865 0.519678 0.057272
0.913929 0.532030 0.060505
0.923920 0.544134 0.063858
0.933842 0.556324 0.067316
0.943695 0.568596 0.070822
0.953482 0.580951 0.074447
0.963203 0.593386 0.078193
0.972861 0.605901 0.082063
0.982457 0.618495 0.086057
0.991991 0.631166 0.090179
1.000000 0.643914 0.094191
0.025288 0.036461 0.016969
0.025295 0.036545 0.016969
0.025345 0.036848 0.016969
0.025410 0.037406 0.016969
0.025711 0.038246 0.016969
0.026030 0.039388 0.016969
0.026683 0.040853 0.016969
0.027939 0.042660 0.016969
0.029733 0.044830 0.016969
0.033394 0.047385 0.016969
0.040242 0.050346 0.016969
0.049585 0.053738 0.016969
0.061439 0.057673 0.016973
0.076658 0.062148 0.017045
0.096101 0.067159 0.017114
0.117145 0.072736 0.017181
0.139543 0.078911 0.017246
0.163348 0.085716 0.017322
0.184268 0.092793 0.017419
0.206561 0.100058 0.017512
0.230239 0.107906 0.017602
0.255312 0.116359 0.017689
0.277505 0.125435 0.017858
0.300145 0.135157 0.018104
0.323571 0.145049 0.018345
0.347776 0.155532 0.018580
0.372753 0.166643 0.018810
0.395115 0.178397 0.019036
0.417536 0.190807 0.019256
0.440387 0.203888 0.019597
0.463661 0.216059 0.020006
0.487349 0.227067 0.020412
0.511446 0.238451 0.020814
0.535946 0.250210 0.021349
0.560842 0.262343 0.021930
0.586130 0.274850 0.022512
0.611802 0.287732 0.023334
0.637856 0.300986 0.024197
0.654849 0.314613 0.025069
0.671747 0.326744 0.025950
0.688639 0.338531 0.027182
0.705526 0.350535 0.028484
0.722407 0.362754 0.029816
0.739283 0.375185 0.031179
0.756153 0.387826 0.032994
0.773019 0.400674 0.034891
0.789879 0.413727 0.036854
0.806734 0.426984 0.038883
0.823584 0.440441 0.041071
0.840430 0.454099 0.043443
0.857270 0.467953 0.045901
0.873290 0.482004 0.048448
0.883579 0.496248 0.051327
0.893790 0.510685 0.054328
0.903925 0.524572 0.057445
0.913987 0.536524 0.060681
0.923977 0.548564 0.064037
0.933898 0.560691 0.067492
0.943749 0.572903 0.071001
0.953535 0.585198 0.074628
0.963255 0.597576 0.078377
0.972911 0.610036 0.082248
0.982505 0.622575 0.086245
0.992039 0.635193 0.090369
1.000000 0.647889 0.094365
0.025307 0.046086 0.016969
0.025321 0.046175 0.016969
0.025365 0.046496 0.016969
0.025441 0.047088 0.016969
0.025760 0.047977 0.016969
0.026064 0.049184 0.016969
0.026750 0.050731 0.016969
0.028075 0.052636 0.016969
0.029969 0.054923 0.016969
0.033726 0.057694 0.016969
0.040603 0.060906 0.016969
0.050043 0.064583 0.016969
0.062007 0.068752 0.016999
0.077291 0.073440 0.017068
0.096803 0.078677 0.017135
0.117795 0.084492 0.017199
0.140217 0.090763 0.017262
0.163883 0.097065 0.017346
0.184802 0.103914 0.017440
0.207094 0.111330 0.017531
0.230770 0.119333 0.017619
0.255841 0.127942 0.017705
0.277937 0.137102 0.017902
0.300569 0.146487 0.018145
0.323988 0.156471 0.018383
0.348186 0.167068 0.018615
0.373156 0.178293 0.018843
0.395452 0.190161 0.019067
0.417866 0.202685 0.019285
0.440709 0.214697 0.019649
0.463975 0.225282 0.020056
0.487657 0.236244 0.020459
0.511747 0.247581 0.020859
0.536241 0.259295 0.021412
0.561131 0.271385 0.021992
0.586413 0.283849 0.022571
0.612081 0.296688 0.023419
0.638121 0.309901 0.024280
