velvia_classic/Velvia50_ExtraSoft.cube
TITLE "Velvia 50 ExtraSoft"
# Adobe RGB in/out. REPLACES AgX. Velvia 50 color reversal.
LUT_3D_SIZE 5
DOMAIN_MIN 0.0 0.0 0.0
DOMAIN_MAX 1.0 1.0 1.0
0.065865 0.046521 0.050424
0.158999 0.066506 0.050789
0.432198 0.239093 0.057369
0.623760 0.411135 0.089883
0.734715 0.551833 0.157949
0.068711 0.141499 0.050424
0.187190 0.189575 0.051152
0.440860 0.318679 0.058281
0.627079 0.453736 0.092240
0.735994 0.576863 0.160080
0.146715 0.410447 0.051454
0.265369 0.428506 0.053084
0.470476 0.487939 0.062670
0.638674 0.565185 0.100616
0.740506 0.643278 0.167684
0.293754 0.611291 0.055611
0.362354 0.617973 0.058188
0.519988 0.640693 0.073390
0.658807 0.678199 0.117069
0.748502 0.724473 0.181476
0.415649 0.732698 0.067421
0.458827 0.735400 0.072686
0.580553 0.744776 0.094989
0.686478 0.760820 0.141075
0.759799 0.782359 0.201629
0.068130 0.047749 0.200482
0.183684 0.077215 0.205776
0.439720 0.248695 0.224209
0.626641 0.415464 0.255891
0.735824 0.554338 0.297016
0.077605 0.154026 0.202376
0.209785 0.200275 0.207594
0.448215 0.325135 0.225973
0.629924 0.457665 0.257425
0.737094 0.579211 0.298163
0.172993 0.414783 0.208918
0.280799 0.432663 0.214078
0.477310 0.491597 0.232271
0.641401 0.567604 0.262901
0.741577 0.644695 0.302252
0.308403 0.612884 0.220770
0.372750 0.619527 0.225834
0.526088 0.642123 0.243707
0.661344 0.679452 0.272836
0.749524 0.725147 0.309657
0.423510 0.733340 0.238098
0.465857 0.736032 0.243031
0.583955 0.745375 0.259219
0.688783 0.761367 0.287387
0.760755 0.782559 0.320468
0.128922 0.070425 0.488870
0.254220 0.122847 0.490491
0.465598 0.280099 0.496256
0.636739 0.430659 0.506638
0.739748 0.563201 0.521665
0.158620 0.193427 0.489437
0.272363 0.235964 0.491055
0.473562 0.347672 0.496812
0.639903 0.471512 0.507179
0.740988 0.587535 0.522186
0.246725 0.430002 0.491467
0.329183 0.447279 0.493077
0.500980 0.503610 0.498803
0.650978 0.576173 0.509117
0.745369 0.649725 0.524050
0.349887 0.618531 0.495174
0.407205 0.625036 0.496768
0.547360 0.647200 0.502438
0.670274 0.683913 0.512656
0.753143 0.727545 0.527458
0.450458 0.735627 0.500652
0.490163 0.738285 0.502223
0.595807 0.747511 0.507813
0.696919 0.763320 0.517892
0.764146 0.783275 0.532503
0.267653 0.152952 0.681040
0.343895 0.199309 0.681644
0.509321 0.324552 0.683803
0.654399 0.457310 0.687732
0.746734 0.578999 0.693503
0.285330 0.258691 0.681251
0.356386 0.291906 0.681855
0.516516 0.381866 0.684013
0.657368 0.495988 0.687938
0.747924 0.602416 0.693704
0.338762 0.456691 0.682009
0.398504 0.473001 0.682611
0.541460 0.522093 0.684762
0.667784 0.591471 0.688677
0.752130 0.658751 0.694428
0.414053 0.628619 0.683397
0.457403 0.634889 0.683996
0.579866 0.656306 0.686137
0.686013 0.691948 0.690031
0.759607 0.731872 0.695754
0.495712 0.739759 0.685461
0.531588 0.742354 0.686055
0.616278 0.751374 0.688179
0.708950 0.766859 0.692044
0.770216 0.784572 0.697725
0.387017 0.254853 0.777166
0.435210 0.289108 0.777307
0.567645 0.379963 0.777813
0.678901 0.494522 0.778735
0.756673 0.601518 0.780099
0.398355 0.329267 0.777216
0.443805 0.355527 0.777357
0.573331 0.425671 0.777862
0.681628 0.524526 0.778784
0.757795 0.619735 0.780147
0.431697 0.493949 0.777393
0.473210 0.507290 0.777533
0.587526 0.548080 0.778037
0.691217 0.612062 0.778958
0.761767 0.671742 0.780318
0.485767 0.643045 0.777718
0.522426 0.648998 0.777858
0.611726 0.669405 0.778360
0.706963 0.703579 0.779277
0.768844 0.738148 0.780633
0.555672 0.745761 0.778201
0.581913 0.748270 0.778341
0.644216 0.757000 0.778841
0.721348 0.772026 0.779753
0.776221 0.786467 0.781102
