velvia_classic/Velvia50_RadianceIII.cube
TITLE "Velvia 50 RadianceIII"
# Adobe RGB in/out. REPLACES AgX. Velvia 50 color reversal.
LUT_3D_SIZE 65
DOMAIN_MIN 0.0 0.0 0.0
DOMAIN_MAX 1.0 1.0 1.0
0.078461 0.087030 0.084083
0.078461 0.087030 0.084083
0.078461 0.087030 0.084083
0.078461 0.087030 0.084083
0.078460 0.087030 0.084083
0.078455 0.087030 0.084083
0.078443 0.087030 0.084083
0.078426 0.087030 0.084083
0.078407 0.087030 0.084083
0.078373 0.087030 0.084083
0.078313 0.087030 0.084083
0.078241 0.087030 0.084083
0.078216 0.087030 0.084083
0.078355 0.087030 0.084083
0.079375 0.087030 0.084083
0.082231 0.087030 0.084083
0.086405 0.087030 0.084083
0.094169 0.087030 0.084083
0.107877 0.087030 0.084083
0.126516 0.087030 0.084083
0.149037 0.087030 0.084083
0.174944 0.087014 0.084083
0.206540 0.086954 0.084083
0.244165 0.086884 0.084083
0.274131 0.087453 0.084083
0.303564 0.088225 0.084083
0.333683 0.089658 0.084083
0.365394 0.091403 0.084083
0.398985 0.093158 0.084083
0.432841 0.096707 0.084083
0.463098 0.101627 0.084083
0.493882 0.108592 0.084083
0.525162 0.116175 0.084083
0.556608 0.124666 0.084083
0.588851 0.133991 0.084083
0.622113 0.149189 0.084083
0.653954 0.166176 0.084083
0.683880 0.183819 0.084083
0.714324 0.201871 0.084083
0.744080 0.221144 0.084083
0.774259 0.241732 0.084083
0.802656 0.262717 0.084083
0.828763 0.283269 0.084083
0.855074 0.303453 0.084083
0.877337 0.319572 0.084083
0.894760 0.335980 0.084083
0.912135 0.352850 0.084083
0.928904 0.370294 0.084083
0.938709 0.388207 0.084083
0.948412 0.406663 0.084083
0.958016 0.425601 0.084083
0.964299 0.444860 0.084083
0.967253 0.464529 0.084083
0.970158 0.483835 0.084043
0.973018 0.500298 0.083991
0.975834 0.517005 0.083939
0.978607 0.533815 0.083879
0.981333 0.550550 0.083815
0.982178 0.567504 0.083751
0.983009 0.584686 0.083718
0.983828 0.602183 0.083692
0.984633 0.619901 0.083667
0.985425 0.637839 0.083639
0.986206 0.656050 0.083612
0.986975 0.674521 0.084129
0.078461 0.087030 0.084083
0.078461 0.087030 0.084083
0.078461 0.087030 0.084083
0.078461 0.087030 0.084083
0.078460 0.087030 0.084083
0.078455 0.087030 0.084083
0.078443 0.087030 0.084083
0.078426 0.087030 0.084083
0.078407 0.087030 0.084083
0.078373 0.087030 0.084083
0.078313 0.087030 0.084083
0.078241 0.087030 0.084083
0.078216 0.087030 0.084083
0.078355 0.087030 0.084083
0.079376 0.087030 0.084083
0.082234 0.087030 0.084083
0.086408 0.087030 0.084083
0.094176 0.087030 0.084083
0.107886 0.087030 0.084083
0.126526 0.087030 0.084083
0.149048 0.087030 0.084083
0.174957 0.087012 0.084083
0.206555 0.086953 0.084083
0.244177 0.086883 0.084083
0.274143 0.087472 0.084083
0.303575 0.088242 0.084083
0.333694 0.089696 0.084083
0.365405 0.091441 0.084083
0.398996 0.093193 0.084083
0.432850 0.096803 0.084083
0.463107 0.101720 0.084083
0.493891 0.108741 0.084083
0.525170 0.116309 0.084083
0.556617 0.124819 0.084083
0.588859 0.134145 0.084083
0.622121 0.149444 0.084083
0.653961 0.166443 0.084083
0.683887 0.184084 0.084083
0.714331 0.202130 0.084083
0.744086 0.221421 0.084083
0.774265 0.242008 0.084083
0.802661 0.262975 0.084083
0.828768 0.283533 0.084083
0.855079 0.303647 0.084083
0.877341 0.319764 0.084083
0.894763 0.336172 0.084083
0.912138 0.353043 0.084083
0.928906 0.370488 0.084083
0.938710 0.388401 0.084083
0.948413 0.406858 0.084083
0.958017 0.425796 0.084083
0.964300 0.445054 0.084083
0.967253 0.464722 0.084083
0.970159 0.483990 0.084043
0.973019 0.500452 0.083990
0.975835 0.517157 0.083939
0.978607 0.533963 0.083879
0.981333 0.550696 0.083814
0.982178 0.567649 0.083751
0.983010 0.584831 0.083718
0.983828 0.602327 0.083692
0.984633 0.620044 0.083667
0.985426 0.637981 0.083639
0.986206 0.656192 0.083612
0.986975 0.674662 0.084129
0.078461 0.087030 0.084083
0.078461 0.087030 0.084083
0.078461 0.087030 0.084083
0.078461 0.087030 0.084083
0.078460 0.087030 0.084083
0.078455 0.087030 0.084083
0.078443 0.087030 0.084083
0.078426 0.087030 0.084083
0.078407 0.087030 0.084083
0.078373 0.087030 0.084083
0.078313 0.087030 0.084083
0.078241 0.087030 0.084083
0.078217 0.087030 0.084083
0.078355 0.087030 0.084083
0.079382 0.087030 0.084083
0.082244 0.087030 0.084083
0.086417 0.087030 0.084083
0.094203 0.087030 0.084083
0.107921 0.087030 0.084083
0.126561 0.087030 0.084083
0.149085 0.087030 0.084083
0.175003 0.087006 0.084083
0.206608 0.086947 0.084083
0.244221 0.086876 0.084083
0.274184 0.087541 0.084083
0.303614 0.088306 0.084083
0.333732 0.089833 0.084083
0.365445 0.091576 0.084083
0.399036 0.093320 0.084083
0.432883 0.097145 0.084083
0.463140 0.102055 0.084083
0.493922 0.109249 0.084083
0.525201 0.116788 0.084083
0.556647 0.125369 0.084083
0.588889 0.134698 0.084083
0.622151 0.150361 0.084083
0.653986 0.167403 0.084083
0.683912 0.185035 0.084083
0.714355 0.203063 0.084083
0.744109 0.222420 0.084083
0.774288 0.243002 0.084083
0.802680 0.263905 0.084083
0.828786 0.284484 0.084083
0.855097 0.304345 0.084083
0.877352 0.320454 0.084083
0.894775 0.336862 0.084083
0.912149 0.353739 0.084083
0.928912 0.371185 0.084083
0.938716 0.389098 0.084083
0.948419 0.407558 0.084083
0.958023 0.426498 0.084083
0.964301 0.445748 0.084083
0.967255 0.465417 0.084083
0.970160 0.484547 0.084043
0.973020 0.501005 0.083990
0.975836 0.517706 0.083939
0.978609 0.534494 0.083879
0.981334 0.551223 0.083814
0.982179 0.568171 0.083751
0.983010 0.585353 0.083718
0.983828 0.602844 0.083692
0.984633 0.620557 0.083666
0.985426 0.638491 0.083639
0.986207 0.656701 0.083612
0.986976 0.675167 0.084131
0.078461 0.087030 0.084083
0.078461 0.087030 0.084083
0.078461 0.087030 0.084083
0.078461 0.087030 0.084083
0.078460 0.087030 0.084083
0.078455 0.087030 0.084083
0.078443 0.087030 0.084083
0.078426 0.087030 0.084083
0.078407 0.087030 0.084083
0.078372 0.087030 0.084083
0.078312 0.087030 0.084083
0.078241 0.087030 0.084083
0.078217 0.087030 0.084083
0.078356 0.087030 0.084083
0.079393 0.087030 0.084083
0.082263 0.087030 0.084083
0.086434 0.087030 0.084083
0.094253 0.087030 0.084083
0.107984 0.087030 0.084083
0.126627 0.087030 0.084083
0.149154 0.087030 0.084083
0.175089 0.086995 0.084083
0.206706 0.086935 0.084083
0.244302 0.086887 0.084083
0.274259 0.087666 0.084083
0.303685 0.088421 0.084083
0.333803 0.090083 0.084083
0.365517 0.091823 0.084083
0.399109 0.093553 0.084083
0.432944 0.097774 0.084083
0.463200 0.102668 0.084083
0.493980 0.110133 0.084083
0.525259 0.117669 0.084083
0.556702 0.126381 0.084083
0.588944 0.136254 0.084083
0.622205 0.152055 0.084083
0.654032 0.169176 0.084083
0.683958 0.186791 0.084083
0.714400 0.204783 0.084083
0.744152 0.224261 0.084083
0.774330 0.244835 0.084083
0.802715 0.265619 0.084083
0.828820 0.286237 0.084083
0.855131 0.305628 0.084083
0.877374 0.321723 0.084083
0.894796 0.338133 0.084083
0.912169 0.355019 0.084083
0.928923 0.372466 0.084083
0.938727 0.390385 0.084083
0.948429 0.408848 0.084083
0.958033 0.427788 0.084083
0.964304 0.447025 0.084083
0.967258 0.466695 0.084083
0.970163 0.485572 0.084042
0.973023 0.502022 0.083990
0.975839 0.518716 0.083938
0.978611 0.535470 0.083878
0.981334 0.552191 0.083814
0.982179 0.569132 0.083750
0.983011 0.586312 0.083718
0.983829 0.603796 0.083692
0.984634 0.621502 0.083666
0.985427 0.639429 0.083639
0.986207 0.657637 0.083612
0.986976 0.676097 0.084136
0.078461 0.087030 0.084083
0.078461 0.087030 0.084083
0.078461 0.087030 0.084083
0.078461 0.087030 0.084083
0.078460 0.087030 0.084083
0.078455 0.087030 0.084083
0.078442 0.087030 0.084083
0.078426 0.087030 0.084083
0.078406 0.087030 0.084083
0.078372 0.087030 0.084083
0.078312 0.087030 0.084083
0.078240 0.087030 0.084083
0.078218 0.087030 0.084083
0.078358 0.087030 0.084083
0.079409 0.087030 0.084083
0.082291 0.087030 0.084083
0.086460 0.087030 0.084083
0.094327 0.087030 0.084083
0.108079 0.087030 0.084083
0.126726 0.087030 0.084083
0.149256 0.087030 0.084083
0.175217 0.086978 0.084083
0.206853 0.086916 0.084083
0.244424 0.087087 0.084083
0.274372 0.087850 0.084083
0.303792 0.088773 0.084083
0.333910 0.090456 0.084083
0.365625 0.092188 0.084083
0.399218 0.093920 0.084083
0.433034 0.098711 0.084083
0.463289 0.103649 0.084083
0.494066 0.111455 0.084083
0.525344 0.118988 0.084083
0.556784 0.127896 0.084083
0.589026 0.138687 0.084083
0.622287 0.154603 0.084083
0.654102 0.171749 0.084083
0.684026 0.189430 0.084083
0.714467 0.207365 0.084083
0.744215 0.227026 0.084083
0.774392 0.247585 0.084083
0.802767 0.268189 0.084083
0.828871 0.288700 0.084083
0.855181 0.307549 0.084083
0.877406 0.323622 0.084083
0.894827 0.340033 0.084083
0.912199 0.356934 0.084083
0.928940 0.374383 0.084083
0.938743 0.392312 0.084083
0.948445 0.410776 0.084083
0.958048 0.429719 0.084083
0.964309 0.448936 0.084083
0.967262 0.468606 0.084083
0.970167 0.487104 0.084041
0.973027 0.503543 0.083989
0.975843 0.520225 0.083938
0.978615 0.536929 0.083878
0.981335 0.553638 0.083813
0.982180 0.570568 0.083749
0.983012 0.587745 0.083718
0.983830 0.605219 0.083692
0.984635 0.622915 0.083666
0.985428 0.640832 0.083638
0.986208 0.659037 0.083611
0.986977 0.677487 0.084142
0.078461 0.087030 0.084083
0.078461 0.087030 0.084083
0.078461 0.087030 0.084083
0.078461 0.087030 0.084083
0.078460 0.087030 0.084083
0.078455 0.087030 0.084083
0.078442 0.087030 0.084083
0.078425 0.087030 0.084083
0.078406 0.087030 0.084083
0.078372 0.087030 0.084083
0.078311 0.087030 0.084083
0.078239 0.087030 0.084083
0.078220 0.087030 0.084083
0.078360 0.087030 0.084083
0.079431 0.087030 0.084083
0.082329 0.087030 0.084083
0.086494 0.087030 0.084083
0.094427 0.087030 0.084083
0.108208 0.087030 0.084083
0.126860 0.087030 0.084083
0.149395 0.087013 0.084083
0.175389 0.086956 0.084083
0.207052 0.086890 0.084083
0.244588 0.087351 0.084083
0.274525 0.088094 0.084083
0.303936 0.089297 0.084083
0.334054 0.090969 0.084083
0.365771 0.092674 0.084083
0.399366 0.095211 0.084083
0.433156 0.099970 0.084083
0.463410 0.105636 0.084083
0.494183 0.113240 0.084083
0.525460 0.120978 0.084083
0.556896 0.129945 0.084083
0.589138 0.142004 0.084083
0.622397 0.158076 0.084083
0.654195 0.175202 0.084083
0.684119 0.192841 0.084083
0.714558 0.210874 0.084083
0.744301 0.230783 0.084083
0.774477 0.251319 0.084083
0.802837 0.271673 0.084083
0.828940 0.292024 0.084083
0.855248 0.310144 0.084083
0.877449 0.326189 0.084083
0.894869 0.342601 0.084083
0.912240 0.359523 0.084083
0.928962 0.376974 0.084083
0.938765 0.394916 0.084083
0.948466 0.413383 0.084083
0.958068 0.432313 0.084083
0.964315 0.451518 0.084083
0.967268 0.471190 0.084083
0.970173 0.489173 0.084040
0.973033 0.505596 0.083988
0.975848 0.522263 0.083937
0.978620 0.538899 0.083877
0.981337 0.555593 0.083812
0.982182 0.572507 0.083748
0.983013 0.589681 0.083717
0.983831 0.607141 0.083691
0.984636 0.624822 0.083666
0.985429 0.642725 0.083638
0.986209 0.660927 0.083611
0.986978 0.679364 0.084150
0.078461 0.087030 0.084083
0.078461 0.087030 0.084083
0.078461 0.087030 0.084083
0.078461 0.087030 0.084083
0.078459 0.087030 0.084083
0.078455 0.087030 0.084083
0.078441 0.087030 0.084083
0.078425 0.087030 0.084083
0.078405 0.087030 0.084083
0.078371 0.087030 0.084083
0.078309 0.087030 0.084083
0.078238 0.087030 0.084083
0.078221 0.087030 0.084083
0.078362 0.087030 0.084083
0.079458 0.087030 0.084083
0.082377 0.087030 0.084083
0.086538 0.087030 0.084083
0.094555 0.087030 0.084083
0.108371 0.087030 0.084083
0.127030 0.087030 0.084083
0.149571 0.086984 0.084083
0.175609 0.086926 0.084083
0.207305 0.086939 0.084083
0.244797 0.087676 0.084083
0.274719 0.088395 0.084083
0.304120 0.089949 0.084083
0.334237 0.091612 0.084083
0.365956 0.093281 0.084083
0.399554 0.096840 0.084083
0.433311 0.101560 0.084083
0.463564 0.108167 0.084083
0.494331 0.115509 0.084083
0.525607 0.123573 0.084083
0.557038 0.132557 0.084083
0.589279 0.146271 0.084083
0.622537 0.162540 0.084083
0.654315 0.179633 0.084083
0.684236 0.197192 0.084083
0.714674 0.215524 0.084083
0.744411 0.235518 0.084083
0.774585 0.256098 0.084083
0.802927 0.276124 0.084083
0.829028 0.296265 0.084083
0.855334 0.313446 0.084083
0.877504 0.329453 0.084083
0.894922 0.345868 0.084083
0.912292 0.362815 0.084083
0.928991 0.380269 0.084083
0.938793 0.398228 0.084083
0.948493 0.416699 0.084083
0.958094 0.435596 0.084083
0.964323 0.454802 0.084083
0.967275 0.474476 0.084083
0.970180 0.491801 0.084039
0.973040 0.508205 0.083987
0.975855 0.524853 0.083936
0.978627 0.541402 0.083875
0.981339 0.558076 0.083810
0.982184 0.574971 0.083747
0.983015 0.592141 0.083717
0.983833 0.609582 0.083691
0.984638 0.627246 0.083665
0.985430 0.645132 0.083638
0.986211 0.663329 0.083610
0.986980 0.681750 0.084161
0.078461 0.087030 0.084083
0.078461 0.087030 0.084083
0.078461 0.087030 0.084083
0.078461 0.087030 0.084083
0.078459 0.087030 0.084083
0.078455 0.087030 0.084083
0.078441 0.087030 0.084083
0.078424 0.087030 0.084083
0.078404 0.087030 0.084083
0.078370 0.087030 0.084083
0.078307 0.087030 0.084083
0.078237 0.087030 0.084083
0.078223 0.087030 0.084083
0.078365 0.087030 0.084083
0.079492 0.087030 0.084083
0.082436 0.087030 0.084083
0.086602 0.087030 0.084083
0.094711 0.087030 0.084083
0.108570 0.087030 0.084083
0.127238 0.087002 0.084083
0.149786 0.086950 0.084083
0.175878 0.086887 0.084083
0.207614 0.087352 0.084083
0.245052 0.088059 0.084083
0.274956 0.089141 0.084083
0.304344 0.090736 0.084083
0.334460 0.092380 0.084083
0.366183 0.094226 0.084083
0.399783 0.098811 0.084083
0.433500 0.103492 0.084083
0.463752 0.111030 0.084083
0.494512 0.118278 0.084083
0.525786 0.126750 0.084083
0.557211 0.136313 0.084083
0.589452 0.151556 0.084083
0.622708 0.168066 0.084083
0.654460 0.185106 0.084083
0.684379 0.202556 0.084083
0.714811 0.221258 0.084083
0.744545 0.241226 0.084083
0.774716 0.261661 0.084083
0.803036 0.281591 0.084083
0.829135 0.301467 0.084083
0.855439 0.317477 0.084083
0.877572 0.333442 0.084083
0.894988 0.349859 0.084083
0.912356 0.366838 0.084083
0.929026 0.384296 0.084083
0.938827 0.402276 0.084083
0.948526 0.420751 0.084083
0.958126 0.439606 0.084083
0.964333 0.458814 0.084083
0.967285 0.478476 0.084083
0.970189 0.495008 0.084038
0.973048 0.511388 0.083986
0.975863 0.528012 0.083934
0.978635 0.544456 0.083873
0.981341 0.561106 0.083809
0.982186 0.577977 0.083745
0.983017 0.595142 0.083716
0.983835 0.612562 0.083690
0.984640 0.630205 0.083664
0.985432 0.648083 0.083637
0.986213 0.666260 0.083610
0.986982 0.684662 0.084174
0.078461 0.087030 0.084083
0.078461 0.087030 0.084083
0.078461 0.087030 0.084083
0.078461 0.087030 0.084083
0.078459 0.087030 0.084083
0.078454 0.087030 0.084083
0.078440 0.087030 0.084083
0.078424 0.087030 0.084083
0.078402 0.087030 0.084083
0.078369 0.087030 0.084083
0.078305 0.087030 0.084083
0.078235 0.087030 0.084083
0.078226 0.087030 0.084083
0.078369 0.087030 0.084083
0.079532 0.087030 0.084083
0.082506 0.087030 0.084083
0.086678 0.087030 0.084083
0.094895 0.087030 0.084083
0.108808 0.087011 0.084083
0.127484 0.086961 0.084083
0.150042 0.086904 0.084083
0.176197 0.087134 0.084083
0.207981 0.087820 0.084083
0.245355 0.088546 0.084083
0.275238 0.090087 0.084083
0.304611 0.091672 0.084083
0.334725 0.093265 0.084083
0.366452 0.096596 0.084083
0.400056 0.101126 0.084083
0.433725 0.107159 0.084083
0.463975 0.114322 0.084083
0.494727 0.121888 0.084083
0.526000 0.130530 0.084083
0.557417 0.142413 0.084083
0.589657 0.157934 0.084083
0.622912 0.174492 0.084083
0.654633 0.191582 0.084083
0.684550 0.208990 0.084083
0.714973 0.228139 0.084083
0.744703 0.248066 0.084083
0.774872 0.268052 0.084083
0.803166 0.288006 0.084083
0.829262 0.306565 0.084083
0.855563 0.322210 0.084083
0.877652 0.338178 0.084083
0.895065 0.354618 0.084083
0.912431 0.371615 0.084083
0.929068 0.389078 0.084083
0.938867 0.407082 0.084083
0.948564 0.425563 0.084083
0.958164 0.444368 0.084083
0.964344 0.463579 0.084083
0.967296 0.482703 0.084083
0.970200 0.498808 0.084036
0.973058 0.515160 0.083984
0.975873 0.531677 0.083933
0.978644 0.548075 0.083871
0.981344 0.564697 0.083807
0.982189 0.581541 0.083744
0.983020 0.598701 0.083715
0.983838 0.616094 0.083689
0.984642 0.633712 0.083664
0.985435 0.651583 0.083636
0.986215 0.669736 0.083609
0.986984 0.688115 0.084189
0.078461 0.087030 0.084083
0.078461 0.087030 0.084083
0.078461 0.087030 0.084083
0.078461 0.087030 0.084083
0.078458 0.087030 0.084083
0.078454 0.087030 0.084083
0.078439 0.087030 0.084083
0.078423 0.087030 0.084083
0.078401 0.087030 0.084083
0.078368 0.087030 0.084083
0.078303 0.087030 0.084083
0.078233 0.087030 0.084083
0.078229 0.087030 0.084083
0.078373 0.087030 0.084083
0.079578 0.087030 0.084083
0.082587 0.087030 0.084083
0.086767 0.087030 0.084083
0.095110 0.087010 0.084083
0.109083 0.086963 0.084083
0.127771 0.086909 0.084083
0.150339 0.087033 0.084083
0.176569 0.087688 0.084083
0.208408 0.088336 0.084083
0.245707 0.089666 0.084083
0.275565 0.091178 0.084083
0.304920 0.092723 0.084083
0.335033 0.094942 0.084083
0.366765 0.099314 0.084083
0.400372 0.103972 0.084083
0.433986 0.111179 0.084083
0.464235 0.118143 0.084083
0.494977 0.126266 0.084083
0.526247 0.135013 0.084083
0.557656 0.149643 0.084083
0.589895 0.165484 0.084083
0.623148 0.181973 0.084083
0.654834 0.198917 0.084083
0.684748 0.216756 0.084083
0.715160 0.236134 0.084083
0.744888 0.256100 0.084083
0.775054 0.275535 0.084083
0.803317 0.295138 0.084083
0.829409 0.312128 0.084083
0.855708 0.327710 0.084083
0.877744 0.343682 0.084083
0.895155 0.360165 0.084083
0.912519 0.377168 0.084083
0.929116 0.394657 0.084083
0.938914 0.412669 0.084083
0.948610 0.431153 0.084083
0.958207 0.449901 0.084083
0.964357 0.469115 0.084083
0.967308 0.487144 0.084083
0.970212 0.503216 0.084034
0.973070 0.519536 0.083982
0.975884 0.535908 0.083931
0.978655 0.552273 0.083869
0.981348 0.568862 0.083805
0.982192 0.585690 0.083741
0.983023 0.602828 0.083714
0.983841 0.620192 0.083688
0.984645 0.637781 0.083663
0.985438 0.655644 0.083635
0.986218 0.673770 0.083628
0.986987 0.692121 0.084207
0.078461 0.087030 0.084083
0.078461 0.087030 0.084083
0.078461 0.087030 0.084083
0.078461 0.087030 0.084083
0.078458 0.087030 0.084083
0.078454 0.087030 0.084083
0.078438 0.087030 0.084083
0.078422 0.087030 0.084083
0.078399 0.087030 0.084083
0.078367 0.087030 0.084083
0.078301 0.087030 0.084083
0.078231 0.087030 0.084083
0.078232 0.087030 0.084083
0.078378 0.087030 0.084083
0.079630 0.087030 0.084083
0.082679 0.087030 0.084083
0.086868 0.086998 0.084083
0.095356 0.086955 0.084083
0.109398 0.086904 0.084083
0.128099 0.087052 0.084083
0.150679 0.087669 0.084083
0.176993 0.088284 0.084083
0.208897 0.089475 0.084083
0.246110 0.090911 0.084083
0.275939 0.092396 0.084083
0.305274 0.093879 0.084083
0.335386 0.098070 0.084083
0.367123 0.102374 0.084083
0.400734 0.108843 0.084083
0.434284 0.115549 0.084083
0.464531 0.122966 0.084083
0.495262 0.131286 0.084083
0.526530 0.143104 0.084083
0.557929 0.158089 0.084083
0.590167 0.174081 0.084083
0.623417 0.190621 0.084083
0.655064 0.207420 0.084083
0.684974 0.225839 0.084083
0.715374 0.245161 0.084083
0.745098 0.264758 0.084083
0.775261 0.284159 0.084083
0.803489 0.303225 0.084083
0.829578 0.318470 0.084083
0.855873 0.333997 0.084083
0.877851 0.349973 0.084083
0.895258 0.366506 0.084083
0.912619 0.383514 0.084083
0.929172 0.401036 0.084083
0.938967 0.419054 0.084083
0.948661 0.437473 0.084083
0.958257 0.456225 0.084083
0.964373 0.475442 0.084083
0.967323 0.492207 0.084083
0.970226 0.508242 0.084032
0.973084 0.524525 0.083980
0.975897 0.540732 0.083929
0.978668 0.557059 0.083866
0.981351 0.573611 0.083802
0.982196 0.590432 0.083740
0.983027 0.607536 0.083713
0.983844 0.624866 0.083687
0.984649 0.642422 0.083662
0.985441 0.660276 0.083634
0.986221 0.678371 0.083649
0.986990 0.696692 0.084228
0.078461 0.087030 0.084083
0.078461 0.087030 0.084083
0.078461 0.087030 0.084083
0.078461 0.087030 0.084083
0.078457 0.087030 0.084083
0.078454 0.087030 0.084083
0.078436 0.087030 0.084083
0.078421 0.087030 0.084083
0.078398 0.087030 0.084083
0.078365 0.087030 0.084083
0.078298 0.087030 0.084083
0.078228 0.087030 0.084083
0.078235 0.087030 0.084083
0.078383 0.087030 0.084083
0.079704 0.087015 0.084083
0.082783 0.086977 0.084083
0.086982 0.086937 0.084083
0.095633 0.086887 0.084083
0.109754 0.087193 0.084083
0.128469 0.087766 0.084083
0.151063 0.088339 0.084083
0.177472 0.089521 0.084083
0.209448 0.090880 0.084083
0.246564 0.092293 0.084083
0.276361 0.093710 0.084083
0.305673 0.097414 0.084083
0.335783 0.101539 0.084083
0.367526 0.107194 0.084083
0.401142 0.113791 0.084083
0.434621 0.120635 0.084083
0.464865 0.128614 0.084083
0.495584 0.138247 0.084083
0.526849 0.152465 0.084083
0.558237 0.167849 0.084083
0.590474 0.183733 0.084083
0.623722 0.200073 0.084083
0.655323 0.217382 0.084083
0.685229 0.236148 0.084083
0.715616 0.255485 0.084083
0.745336 0.274375 0.084083
0.775495 0.293472 0.084083
0.803683 0.310391 0.084083
0.829768 0.325556 0.084083
0.856059 0.341087 0.084083
0.877970 0.357105 0.084083
0.895375 0.373657 0.084083
0.912732 0.390678 0.084083
0.929234 0.408231 0.084083
0.939027 0.426256 0.084083
0.948719 0.444601 0.084083
0.958313 0.463356 0.084083
0.964390 0.482158 0.084083
0.967339 0.497901 0.084082
0.970242 0.513895 0.084029
0.973099 0.530099 0.083977
0.975912 0.546157 0.083926
0.978682 0.562442 0.083863
0.981356 0.578954 0.083799
0.982200 0.595767 0.083739
0.983031 0.612833 0.083712
0.983848 0.630126 0.083686
0.984652 0.647656 0.083660
0.985444 0.665489 0.083633
0.986224 0.683550 0.083672
0.986993 0.701837 0.084251
0.078461 0.087030 0.084083
0.078461 0.087030 0.084083
0.078461 0.087030 0.084083
0.078461 0.087030 0.084083
0.078457 0.087030 0.084083
0.078452 0.087030 0.084083
0.078435 0.087030 0.084083
0.078420 0.087030 0.084083
0.078396 0.087030 0.084083
0.078364 0.087030 0.084083
0.078294 0.087030 0.084083
0.078226 0.087030 0.084083
0.078239 0.087011 0.084083
0.078389 0.086979 0.084083
0.079786 0.086946 0.084083
0.082898 0.086904 0.084083
0.087151 0.086938 0.084083
0.095942 0.087452 0.084083
0.110151 0.087974 0.084083
0.128904 0.088567 0.084083
0.151491 0.089805 0.084083
0.178007 0.091088 0.084083
0.210063 0.092418 0.084083
0.247071 0.093760 0.084083
0.276832 0.097356 0.084083
0.306117 0.101290 0.084083
0.336226 0.106490 0.084083
0.367976 0.112882 0.084083
0.401597 0.119280 0.084083
0.434996 0.126924 0.084083
0.465238 0.135019 0.084083
0.495943 0.148554 0.084083
0.527205 0.163202 0.084083
0.558580 0.178575 0.084083
0.590816 0.194468 0.084083
0.624061 0.210808 0.084083
0.655611 0.228838 0.084083
0.685513 0.247519 0.084083
0.715885 0.266379 0.084083
0.745600 0.285220 0.084083
0.775756 0.303565 0.084083
0.803899 0.318371 0.084083
0.829980 0.333461 0.084083
0.856267 0.348997 0.084083
0.878104 0.365077 0.084083
0.895504 0.381636 0.084083
0.912857 0.398697 0.084083
0.929304 0.416258 0.084083
0.939095 0.434255 0.084083
0.948784 0.452552 0.084083
0.958376 0.471311 0.084083
0.964409 0.488537 0.084083
0.967358 0.504234 0.084079
0.970260 0.520182 0.084026
0.973116 0.536180 0.083974
0.975928 0.552191 0.083923
0.978698 0.568431 0.083860
0.981360 0.584909 0.083796
0.982205 0.601703 0.083737
0.983035 0.618727 0.083711
0.983852 0.635979 0.083685
0.984656 0.653498 0.083659
0.985448 0.671292 0.083632
0.986228 0.689314 0.083699
0.986997 0.707564 0.084276
0.078461 0.087030 0.084083
0.078461 0.087030 0.084083
0.078461 0.087030 0.084083
0.078460 0.087030 0.084083
0.078456 0.087030 0.084083
0.078450 0.087030 0.084083
0.078434 0.087030 0.084083
0.078419 0.087030 0.084083
0.078393 0.087030 0.084083
0.078362 0.087011 0.084083
0.078291 0.086988 0.084083
0.078223 0.086963 0.084083
0.078243 0.086934 0.084083
0.078395 0.086899 0.084083
0.079877 0.086920 0.084083
0.083025 0.087362 0.084083
0.087365 0.087820 0.084083
0.096284 0.088289 0.084083
0.110590 0.089185 0.084083
0.129415 0.090322 0.084083
0.151964 0.091533 0.084083
0.178599 0.092772 0.084083
0.210744 0.094290 0.084083
0.247631 0.097903 0.084083
0.277352 0.101637 0.084083
0.306609 0.106739 0.084083
0.336716 0.112828 0.084083
0.368473 0.118949 0.084083
0.402100 0.126222 0.084083
0.435411 0.133907 0.084083
0.465649 0.146317 0.084083
0.496339 0.160310 0.084083
0.527598 0.175158 0.084083
0.558959 0.190571 0.084083
0.591194 0.206225 0.084083
0.624435 0.223334 0.084083
0.655930 0.241450 0.084083
0.685827 0.260143 0.084083
