velvia_classic/Velvia50_Normal.cube
TITLE "Velvia 50 Normal"
# Adobe RGB in/out. REPLACES AgX. Velvia 50 color reversal.
LUT_3D_SIZE 5
DOMAIN_MIN 0.0 0.0 0.0
DOMAIN_MAX 1.0 1.0 1.0
0.034495 0.021697 0.024158
0.111704 0.034943 0.024391
0.423761 0.192442 0.028693
0.691143 0.396451 0.052213
0.859745 0.586977 0.110722
0.036496 0.095620 0.024158
0.138864 0.141228 0.024624
0.435123 0.282281 0.029303
0.696050 0.452149 0.054046
0.861740 0.622742 0.112718
0.100349 0.395567 0.024818
0.221145 0.418942 0.025872
0.474527 0.498155 0.032282
0.713264 0.605990 0.060688
0.868791 0.720127 0.119913
0.253234 0.672782 0.027527
0.335008 0.682606 0.029241
0.542253 0.716272 0.039847
0.743399 0.772716 0.074268
0.881323 0.843803 0.133240
0.402265 0.856599 0.035585
0.458926 0.860814 0.039338
0.628059 0.875477 0.056205
0.785319 0.900714 0.095238
0.899103 0.934872 0.153326
0.036085 0.022465 0.152164
0.135407 0.042639 0.157545
0.433624 0.202815 0.176637
0.695401 0.402027 0.210678
0.861476 0.590532 0.256991
0.042927 0.107070 0.154084
0.161650 0.151954 0.159403
0.444829 0.289931 0.178492
0.700264 0.457377 0.212363
0.863458 0.626124 0.258315
0.125002 0.401149 0.160760
0.238454 0.424369 0.166076
0.483739 0.503141 0.185156
0.717326 0.609451 0.218407
0.870467 0.722242 0.263049
0.270210 0.675122 0.173034
0.347884 0.684895 0.178346
0.550752 0.718404 0.197409
0.747218 0.774622 0.229481
0.882927 0.844849 0.271677
0.412441 0.857600 0.191375
0.468326 0.861801 0.196680
0.632970 0.876416 0.214338
0.788837 0.901578 0.245943
0.900612 0.935191 0.284397
0.084460 0.037715 0.499423
0.208844 0.079195 0.501632
0.467978 0.237661 0.509509
0.710384 0.421751 0.523771
0.867606 0.603155 0.544586
0.111349 0.145067 0.500196
0.228951 0.189091 0.502402
0.478682 0.317033 0.510270
0.715094 0.475921 0.524517
0.869546 0.638150 0.545311
0.200676 0.420893 0.502964
0.294755 0.443590 0.505162
0.515986 0.519601 0.512998
0.731643 0.621749 0.527190
0.876407 0.729766 0.547909
0.319729 0.683428 0.508029
0.391406 0.693029 0.510210
0.580642 0.725987 0.517990
0.760701 0.781409 0.532083
0.888616 0.848576 0.552665
0.447800 0.861168 0.515536
0.501185 0.865319 0.517693
0.650158 0.879766 0.525391
0.801286 0.904662 0.539341
0.905968 0.936332 0.559723
0.223687 0.106076 0.777036
0.312449 0.150978 0.777955
0.527472 0.289239 0.781243
0.736774 0.456904 0.787232
0.878549 0.625818 0.796053
0.243598 0.213756 0.777357
0.327671 0.251112 0.778276
0.537430 0.359274 0.781561
0.741235 0.509143 0.787547
0.880416 0.659790 0.796361
0.306246 0.456079 0.778510
0.380295 0.477926 0.779426
0.572312 0.545182 0.782704
0.756936 0.643856 0.788675
0.887023 0.743315 0.797469
0.400207 0.698331 0.780624
0.457029 0.707633 0.781536
0.627068 0.739639 0.784799
0.784611 0.793674 0.790744
0.898800 0.855312 0.799500
0.508765 0.867623 0.783768
0.558442 0.871684 0.784674
0.680111 0.885834 0.787915
0.819782 0.910259 0.793821
0.915577 0.938400 0.802522
0.365749 0.209539 0.926608
0.427704 0.247909 0.926833
0.609509 0.356889 0.927636
0.773784 0.507137 0.929103
0.894174 0.658480 0.931273
0.380106 0.294856 0.926687
0.439002 0.326618 0.926911
0.617663 0.415250 0.927714
0.777930 0.548571 0.929181
0.895943 0.685203 0.931349
0.423107 0.506353 0.926968
0.478207 0.524670 0.927192
0.638136 0.581661 0.927994
0.792557 0.673915 0.929458
0.902209 0.762923 0.931622
0.495201 0.719779 0.927485
0.545646 0.728678 0.927708
0.673421 0.759387 0.928507
0.816720 0.811511 0.929966
0.913402 0.865105 0.932124
0.592428 0.877023 0.928254
0.630021 0.880959 0.928476
0.721528 0.894689 0.929271
0.838952 0.918446 0.930723
0.925106 0.941423 0.932871
