velvia_classic/Velvia50_Normal.cube
TITLE "Velvia 50 Normal"
# Adobe RGB in/out. REPLACES AgX. Velvia 50 color reversal.
LUT_3D_SIZE 65
DOMAIN_MIN 0.0 0.0 0.0
DOMAIN_MAX 1.0 1.0 1.0
0.034495 0.021697 0.024158
0.034495 0.021697 0.024158
0.034495 0.021697 0.024158
0.034495 0.021697 0.024158
0.034595 0.021697 0.024158
0.034857 0.021697 0.024158
0.035278 0.021799 0.024158
0.035894 0.021996 0.024158
0.036908 0.022362 0.024158
0.038920 0.022755 0.024158
0.042013 0.023507 0.024158
0.047399 0.024214 0.024158
0.055288 0.025731 0.024158
0.065539 0.027211 0.024158
0.078122 0.029228 0.024189
0.093190 0.031650 0.024293
0.111704 0.034943 0.024391
0.131392 0.039602 0.024484
0.151345 0.044812 0.024579
0.172999 0.051613 0.024712
0.192182 0.059017 0.024839
0.210993 0.067042 0.024960
0.230640 0.075936 0.025076
0.251121 0.085604 0.025318
0.272432 0.096012 0.025642
0.290953 0.107117 0.025957
0.309680 0.117774 0.026263
0.328837 0.129028 0.026561
0.348417 0.140890 0.026852
0.368415 0.153367 0.027135
0.388065 0.165875 0.027655
0.405809 0.178880 0.028178
0.423761 0.192442 0.028693
0.441919 0.206568 0.029240
0.460278 0.221262 0.029977
0.478834 0.234803 0.030710
0.497584 0.246863 0.031563
0.516524 0.259186 0.032635
0.535651 0.271770 0.033714
0.554962 0.284616 0.034798
0.574454 0.297719 0.036090
0.594124 0.311081 0.037668
0.613969 0.324698 0.039274
0.627494 0.337188 0.040908
0.640293 0.348793 0.042856
0.653056 0.360524 0.045093
0.665785 0.372378 0.047394
0.678481 0.384354 0.049760
0.691143 0.396451 0.052213
0.703774 0.408668 0.054942
0.716373 0.421003 0.057754
0.728942 0.433455 0.060651
0.741480 0.446023 0.063810
0.753989 0.458705 0.067177
0.766470 0.471501 0.070654
0.778923 0.484409 0.074242
0.791348 0.497428 0.077943
0.803746 0.510558 0.081757
0.815285 0.521978 0.085588
0.822837 0.532725 0.089525
0.830331 0.543507 0.093571
0.837767 0.554324 0.097730
0.845147 0.565175 0.102001
0.852473 0.576059 0.106385
0.859745 0.586977 0.110722
0.034495 0.021697 0.024158
0.034495 0.021697 0.024158
0.034495 0.021697 0.024158
0.034495 0.021697 0.024158
0.034597 0.021697 0.024158
0.034863 0.021697 0.024158
0.035282 0.021816 0.024158
0.035901 0.022037 0.024158
0.036923 0.022393 0.024158
0.038933 0.022817 0.024158
0.042036 0.023557 0.024158
0.047436 0.024309 0.024158
0.055333 0.025815 0.024158
0.065584 0.027285 0.024158
0.078177 0.029341 0.024190
0.093252 0.031754 0.024294
0.111769 0.035122 0.024392
0.131450 0.039780 0.024484
0.151404 0.045037 0.024579
0.173059 0.051843 0.024712
0.192228 0.059251 0.024839
0.211038 0.067282 0.024960
0.230685 0.076188 0.025077
0.251165 0.085862 0.025319
0.272476 0.096275 0.025643
0.290988 0.107358 0.025958
0.309714 0.118017 0.026264
0.328870 0.129273 0.026562
0.348450 0.141137 0.026853
0.368448 0.153617 0.027136
0.388093 0.166113 0.027656
0.405835 0.179119 0.028179
0.423787 0.192682 0.028695
0.441944 0.206808 0.029242
0.460302 0.221503 0.029979
0.478858 0.234989 0.030712
0.497607 0.247046 0.031565
0.516547 0.259367 0.032637
0.535674 0.271950 0.033716
0.554984 0.284793 0.034800
0.574476 0.297895 0.036093
0.594145 0.311254 0.037670
0.613989 0.324870 0.039276
0.627506 0.337328 0.040911
0.640305 0.348931 0.042860
0.653068 0.360659 0.045097
0.665797 0.372511 0.047398
0.678492 0.384486 0.049763
0.691154 0.396581 0.052217
0.703785 0.408796 0.054946
0.716383 0.421129 0.057759
0.728952 0.433579 0.060655
0.741490 0.446145 0.063814
0.753999 0.458826 0.067181
0.766480 0.471620 0.070658
0.778932 0.484526 0.074247
0.791357 0.497544 0.077947
0.803754 0.510672 0.081762
0.815291 0.522069 0.085593
0.822843 0.532815 0.089529
0.830336 0.543595 0.093576
0.837772 0.554410 0.097734
0.845152 0.565260 0.102005
0.852478 0.576143 0.106390
0.859750 0.587059 0.110726
0.034495 0.021697 0.024158
0.034495 0.021697 0.024158
0.034495 0.021697 0.024158
0.034495 0.021697 0.024158
0.034604 0.021697 0.024158
0.034884 0.021753 0.024158
0.035296 0.021873 0.024158
0.035930 0.022175 0.024158
0.036979 0.022500 0.024158
0.038979 0.023029 0.024158
0.042119 0.023733 0.024158
0.047571 0.024645 0.024158
0.055496 0.026111 0.024158
0.065745 0.027549 0.024158
0.078374 0.029740 0.024192
0.093474 0.032127 0.024296
0.111999 0.035766 0.024394
0.131660 0.040418 0.024486
0.151616 0.045846 0.024582
0.173275 0.052670 0.024714
0.192394 0.060096 0.024841
0.211201 0.068143 0.024962
0.230846 0.077097 0.025078
0.251324 0.086791 0.025324
0.272633 0.097224 0.025647
0.291116 0.108225 0.025962
0.309839 0.118892 0.026268
0.328992 0.130155 0.026566
0.348569 0.142026 0.026856
0.368564 0.154512 0.027139
0.388190 0.166969 0.027661
0.405930 0.179977 0.028184
0.423880 0.193543 0.028699
0.442034 0.207672 0.029248
0.460390 0.222370 0.029985
0.478944 0.235655 0.030718
0.497691 0.247704 0.031573
0.516629 0.260018 0.032645
0.535754 0.272593 0.033724
0.555063 0.285429 0.034808
0.574552 0.298525 0.036104
0.594220 0.311878 0.037681
0.614063 0.325487 0.039287
0.627553 0.337832 0.040921
0.640350 0.349427 0.042873
0.653112 0.361147 0.045110
0.665839 0.372991 0.047412
0.678533 0.384958 0.049777
0.691194 0.397046 0.052232
0.703823 0.409254 0.054961
0.716421 0.421580 0.057774
0.728989 0.434024 0.060670
0.741526 0.446584 0.063831
0.754034 0.459258 0.067198
0.766514 0.472047 0.070675
0.778965 0.484947 0.074264
0.791389 0.497960 0.077965
0.803786 0.511082 0.081780
0.815310 0.522396 0.085610
0.822861 0.533136 0.089546
0.830354 0.543911 0.093593
0.837789 0.554721 0.097752
0.845169 0.565566 0.102023
0.852494 0.576444 0.106408
0.859766 0.587356 0.110743
0.034495 0.021697 0.024158
0.034495 0.021697 0.024158
0.034495 0.021697 0.024158
0.034505 0.021697 0.024158
0.034615 0.021775 0.024158
0.034923 0.021867 0.024158
0.035323 0.022103 0.024158
0.035981 0.022395 0.024158
0.037081 0.022719 0.024158
0.039062 0.023391 0.024158
0.042270 0.024036 0.024158
0.047818 0.025240 0.024158
0.055795 0.026638 0.024158
0.066043 0.028164 0.024158
0.078736 0.030464 0.024197
0.093882 0.032802 0.024300
0.112424 0.036948 0.024397
0.132044 0.041591 0.024489
0.152007 0.047340 0.024586
0.173672 0.054197 0.024718
0.192698 0.061655 0.024845
0.211502 0.069760 0.024965
0.231142 0.078775 0.025081
0.251617 0.088505 0.025332
0.272922 0.098975 0.025655
0.291350 0.109823 0.025969
0.310068 0.120503 0.026274
0.329216 0.131779 0.026571
0.348788 0.143663 0.026861
0.368778 0.156082 0.027144
0.388370 0.168544 0.027671
0.406105 0.181558 0.028193
0.424050 0.195129 0.028708
0.442200 0.209263 0.029260
0.460552 0.223965 0.029996
0.479102 0.236879 0.030729
0.497845 0.248914 0.031589
0.516780 0.261214 0.032660
0.535901 0.273776 0.033738
0.555207 0.286600 0.034822
0.574694 0.299682 0.036123
0.594358 0.313024 0.037700
0.614199 0.326621 0.039306
0.627637 0.338758 0.040940
0.640432 0.350337 0.042898
0.653191 0.362042 0.045135
0.665917 0.373872 0.047436
0.678608 0.385826 0.049802
0.691267 0.397901 0.052259
0.703895 0.410096 0.054989
0.716491 0.422410 0.057801
0.729056 0.434842 0.060697
0.741592 0.447390 0.063861
0.754098 0.460054 0.067229
0.766576 0.472831 0.070706
0.779026 0.485722 0.074295
0.791449 0.498724 0.077996
0.803845 0.511837 0.081811
0.815345 0.522997 0.085641
0.822895 0.533727 0.089578
0.830387 0.544492 0.093625
0.837822 0.555293 0.097784
0.845200 0.566128 0.102055
0.852525 0.576997 0.106440
0.859796 0.587900 0.110772
0.034495 0.021797 0.024158
0.034495 0.021805 0.024158
0.034495 0.021830 0.024158
0.034533 0.021872 0.024158
0.034631 0.021999 0.024158
0.034978 0.022209 0.024158
0.035361 0.022436 0.024158
0.036056 0.022704 0.024158
0.037232 0.023291 0.024158
0.039185 0.023875 0.024158
0.042495 0.024767 0.024158
0.048187 0.026076 0.024158
0.056242 0.027387 0.024158
0.066488 0.029293 0.024158
0.079279 0.031518 0.024204
0.094494 0.034384 0.024306
0.113060 0.038712 0.024403
0.132621 0.043342 0.024494
0.152592 0.049589 0.024593
0.174265 0.056493 0.024724
0.193154 0.063998 0.024850
0.211951 0.072227 0.024970
0.231586 0.081297 0.025086
0.252055 0.091081 0.025344
0.273355 0.101603 0.025666
0.291701 0.112216 0.025979
0.310410 0.122916 0.026284
0.329551 0.134212 0.026580
0.349116 0.146115 0.026869
0.369099 0.158432 0.027156
0.388638 0.170901 0.027685
0.406366 0.183923 0.028206
0.424304 0.197501 0.028720
0.442448 0.211643 0.029277
0.460794 0.226352 0.030013
0.479338 0.238708 0.030745
0.498076 0.250722 0.031611
0.517005 0.263001 0.032682
0.536122 0.275544 0.033760
0.555423 0.288348 0.034843
0.574905 0.301413 0.036153
0.594565 0.314736 0.037730
0.614402 0.328316 0.039335
0.627764 0.340140 0.040969
0.640555 0.351696 0.042935
0.653311 0.363380 0.045172
0.666033 0.375189 0.047474
0.678721 0.387122 0.049839
0.691377 0.399177 0.052300
0.704001 0.411354 0.055030
0.716595 0.423650 0.057842
0.729157 0.436064 0.060739
0.741691 0.448595 0.063907
0.754195 0.461242 0.067275
0.766670 0.474004 0.070753
0.779118 0.486879 0.074342
0.791538 0.499866 0.078043
0.803932 0.512965 0.081859
0.815397 0.523896 0.085688
0.822946 0.534610 0.089625
0.830437 0.545361 0.093673
0.837870 0.556147 0.097832
0.845247 0.566968 0.102103
0.852570 0.577824 0.106489
0.859840 0.588714 0.110817
0.034495 0.022180 0.024158
0.034495 0.022195 0.024158
0.034495 0.022247 0.024158
0.034565 0.022337 0.024158
0.034651 0.022462 0.024158
0.035048 0.022614 0.024158
0.035411 0.022994 0.024158
0.036155 0.023460 0.024158
0.037432 0.023947 0.024158
0.039350 0.024758 0.024158
0.042797 0.025927 0.024158
0.048684 0.027122 0.024158
0.056847 0.028688 0.024158
0.067089 0.030759 0.024158
0.080013 0.032893 0.024214
0.095322 0.036777 0.024315
0.113921 0.041087 0.024410
0.133399 0.046265 0.024500
0.153383 0.052653 0.024602
0.175068 0.059620 0.024732
0.193769 0.067186 0.024857
0.212558 0.075585 0.024977
0.232185 0.084727 0.025091
0.252646 0.094583 0.025360
0.273916 0.105176 0.025681
0.292175 0.115457 0.025993
0.310873 0.126184 0.026296
0.330003 0.137506 0.026592
0.349558 0.149434 0.026881
0.369532 0.161609 0.027176
0.389001 0.174089 0.027703
0.406719 0.187121 0.028224
0.424648 0.200710 0.028737
0.442783 0.214861 0.029301
0.461121 0.229457 0.030036
0.479657 0.241174 0.030767
0.498388 0.253160 0.031642
0.517310 0.265412 0.032712
0.536419 0.277928 0.033789
0.555714 0.290707 0.034872
0.575190 0.303747 0.036192
0.594845 0.317046 0.037769
0.614676 0.330604 0.039374
0.627935 0.342003 0.041007
0.640721 0.353529 0.042985
0.653472 0.365184 0.045222
0.666189 0.376965 0.047524
0.678873 0.388871 0.049889
0.691525 0.400900 0.052355
0.704145 0.413051 0.055085
0.716735 0.425322 0.057898
0.729294 0.437713 0.060795
0.741824 0.450221 0.063968
0.754325 0.462846 0.067337
0.766797 0.475587 0.070815
0.779242 0.488441 0.074405
0.791659 0.501408 0.078107
0.804050 0.514451 0.081923
0.815468 0.525108 0.085751
0.823015 0.535801 0.089689
0.830503 0.546532 0.093737
0.837935 0.557299 0.097896
0.845311 0.568102 0.102168
0.852632 0.578940 0.106554
0.859900 0.589813 0.110877
0.034495 0.022745 0.024158
0.034495 0.022770 0.024158
0.034526 0.022860 0.024158
0.034599 0.023020 0.024158
0.034760 0.023247 0.024158
0.035131 0.023534 0.024158
0.035471 0.023870 0.024158
0.036276 0.024299 0.024158
0.037680 0.025225 0.024158
0.039555 0.026216 0.024158
0.043177 0.027258 0.024158
0.049314 0.028696 0.024158
0.057615 0.030575 0.024158
0.067853 0.032536 0.024158
0.080949 0.035819 0.024225
0.096377 0.039806 0.024325
0.115018 0.044218 0.024419
0.134391 0.050127 0.024508
0.154390 0.056592 0.024613
0.176090 0.063636 0.024742
0.194551 0.071353 0.024866
0.213329 0.079896 0.024985
0.232946 0.089128 0.025099
0.253398 0.099072 0.025380
0.274533 0.109418 0.025700
0.292777 0.119592 0.026010
0.311461 0.130352 0.026313
0.330577 0.141706 0.026607
0.350120 0.153665 0.026895
0.370082 0.165654 0.027201
0.389462 0.178147 0.027727
0.407168 0.191192 0.028246
0.425085 0.204793 0.028759
0.443209 0.218957 0.029331
0.461536 0.232622 0.030064
0.480062 0.244302 0.030794
0.498784 0.256252 0.031681
0.517697 0.268470 0.032751
0.536798 0.280953 0.033826
0.556085 0.293700 0.034908
0.575553 0.306710 0.036243
0.595200 0.319979 0.037819
0.615024 0.333009 0.039423
0.628153 0.344366 0.041056
0.640932 0.355854 0.043049
0.653677 0.367472 0.045286
0.666388 0.379217 0.047588
0.679067 0.391089 0.049953
0.691713 0.403085 0.052425
0.704329 0.415204 0.055155
0.716913 0.427445 0.057969
0.729468 0.439806 0.060866
0.741993 0.452285 0.064047
0.754490 0.464882 0.067416
0.766958 0.477595 0.070895
0.779399 0.490423 0.074486
0.791813 0.503365 0.078189
0.804200 0.516016 0.082002
0.815558 0.526645 0.085832
0.823102 0.537313 0.089770
0.830589 0.548019 0.093819
0.838018 0.558762 0.097979
0.845391 0.569541 0.102251
0.852711 0.580356 0.106638
0.859977 0.591207 0.110953
0.034520 0.023852 0.024158
0.034533 0.023871 0.024158
0.034575 0.023939 0.024158
0.034634 0.024060 0.024158
0.034889 0.024274 0.024158
0.035224 0.024786 0.024158
0.035634 0.025406 0.024158
0.036418 0.026122 0.024158
0.037975 0.026921 0.024158
0.039839 0.027790 0.024158
0.043635 0.029328 0.024158
0.050080 0.030986 0.024158
0.058553 0.032745 0.024158
0.068786 0.035863 0.024158
0.082093 0.039523 0.024239
0.097670 0.043486 0.024337
0.116361 0.048910 0.024429
0.135603 0.054909 0.024517
0.155621 0.061464 0.024626
0.177339 0.068596 0.024755
0.195506 0.076572 0.024877
0.214271 0.085221 0.024995
0.233875 0.094559 0.025108
0.254316 0.104607 0.025405
0.275286 0.114447 0.025723
0.293511 0.124661 0.026032
0.312178 0.135460 0.026332
0.331279 0.146852 0.026626
0.350806 0.158637 0.026912
0.370754 0.170601 0.027232
0.390025 0.183111 0.027756
0.407716 0.196171 0.028274
0.425618 0.209787 0.028785
0.443729 0.223966 0.029368
0.462043 0.236474 0.030099
0.480557 0.248111 0.030828
0.499267 0.260018 0.031729
0.518170 0.272195 0.032797
0.537261 0.284639 0.033871
0.556537 0.297347 0.034952
0.575996 0.310320 0.036305
0.595634 0.323554 0.037880
0.615449 0.335933 0.039484
0.628419 0.347242 0.041116
0.641190 0.358684 0.043126
0.653927 0.370257 0.045364
0.666632 0.381960 0.047666
0.679303 0.393790 0.050031
0.691943 0.405747 0.052510
0.704552 0.417827 0.055241
0.717131 0.430031 0.058055
0.729680 0.442356 0.060953
0.742200 0.454800 0.064142
0.754692 0.467364 0.067513
0.767155 0.480044 0.070993
0.779591 0.492840 0.074584
0.792001 0.505751 0.078288
0.804383 0.517922 0.082100
0.815668 0.528519 0.085930
0.823209 0.539156 0.089869
0.830692 0.549831 0.093918
0.838119 0.560544 0.098079
0.845490 0.571295 0.102353
0.852806 0.582083 0.106740
0.860070 0.592907 0.111046
0.034578 0.025704 0.024158
0.034588 0.025738 0.024158
0.034621 0.025862 0.024158
0.034733 0.026086 0.024158
0.035025 0.026414 0.024158
0.035326 0.026843 0.024158
0.035839 0.027369 0.024158
0.036578 0.028103 0.024158
0.038315 0.029262 0.024158
0.040441 0.030558 0.024158
0.044171 0.031981 0.024158
0.050986 0.033894 0.024158
0.059667 0.036926 0.024158
0.069893 0.040258 0.024158
0.083455 0.043961 0.024256
0.099210 0.049010 0.024351
0.117959 0.054574 0.024442
0.137044 0.060673 0.024528
0.157084 0.067328 0.024642
0.178733 0.074746 0.024769
0.196638 0.082853 0.024890
0.215388 0.091623 0.025007
0.234978 0.101081 0.025119
0.255405 0.110756 0.025434
0.276179 0.120443 0.025750
0.294383 0.130703 0.026057
0.313029 0.141546 0.026356
0.332111 0.152982 0.026647
0.351620 0.164500 0.026932
0.371551 0.176483 0.027268
0.390692 0.189011 0.027791
0.408365 0.202089 0.028307
0.426251 0.215723 0.028816
0.444346 0.229718 0.029411
0.462645 0.241029 0.030141
0.481145 0.252614 0.030868
0.499841 0.264473 0.031786
0.518730 0.276602 0.032852
0.537809 0.288999 0.033925
0.557074 0.301664 0.035005
0.576522 0.314593 0.036378
0.596150 0.327785 0.037952
0.615938 0.339387 0.039555
0.628734 0.350641 0.041186
0.641496 0.362029 0.043219
0.654224 0.373551 0.045457
0.666920 0.385204 0.047758
0.679584 0.396986 0.050124
0.692216 0.408895 0.052612
0.704818 0.420931 0.055343
0.717390 0.433091 0.058158
0.729932 0.445374 0.061056
0.742446 0.457777 0.064256
0.754931 0.470301 0.067628
0.767389 0.482943 0.071109
0.779819 0.495702 0.074701
0.792223 0.508577 0.078406
0.804601 0.520177 0.082216
0.815798 0.530736 0.086047
0.823336 0.541336 0.089987
0.830816 0.551976 0.094037
0.838239 0.562654 0.098199
0.845606 0.573372 0.102473
0.852920 0.584127 0.106861
0.860181 0.594919 0.111156
0.034630 0.027978 0.024158
0.034638 0.028027 0.024158
0.034703 0.028199 0.024158
0.034912 0.028513 0.024158
0.035165 0.028977 0.024158
0.035433 0.029593 0.024158
0.036061 0.030361 0.024158
0.036945 0.031276 0.024158
0.038695 0.032332 0.024158
0.041127 0.033894 0.024158
0.045182 0.036307 0.024158
0.052032 0.039015 0.024158
0.060959 0.042020 0.024158
0.071391 0.045786 0.024177
0.085041 0.050446 0.024274
0.101005 0.055601 0.024368
0.119823 0.061273 0.024456
0.138720 0.067480 0.024541
0.158785 0.074420 0.024661
0.180067 0.082021 0.024785
0.197953 0.090262 0.024905
0.216685 0.099167 0.025020
0.236258 0.108529 0.025147
0.256669 0.117706 0.025468
0.277215 0.127444 0.025781
0.295394 0.137755 0.026086
0.314017 0.148648 0.026383
0.333077 0.159858 0.026673
0.352565 0.171324 0.026956
0.372476 0.183328 0.027310
0.391467 0.195876 0.027831
0.409119 0.208975 0.028345
0.426986 0.222628 0.028852
0.445062 0.235044 0.029461
0.463344 0.246295 0.030189
0.481827 0.257823 0.030914
0.500507 0.269626 0.031852
0.519382 0.281701 0.032916
0.538446 0.294046 0.033988
0.557697 0.306660 0.035066
0.577132 0.319541 0.036463
0.596748 0.332329 0.038036
0.616315 0.343380 0.039638
0.629100 0.354570 0.041269
0.641851 0.365897 0.043326
0.654569 0.377360 0.045564
0.667255 0.388955 0.047866
0.679910 0.400682 0.050232
0.692533 0.412539 0.052730
0.705126 0.424523 0.055462
0.717690 0.436633 0.058277
0.730225 0.448867 0.061176
0.742731 0.461224 0.064388
0.755209 0.473703 0.067761
0.767660 0.486300 0.071243
0.780084 0.499017 0.074837
0.792482 0.511850 0.078543
0.804854 0.522787 0.082351
0.815950 0.533302 0.086183
0.823483 0.543860 0.090123
0.830959 0.554459 0.094175
0.838378 0.565098 0.098337
0.845742 0.575776 0.102612
0.853052 0.586494 0.107001
0.860309 0.597251 0.111285
0.034769 0.031594 0.024158
0.034801 0.031637 0.024158
0.034910 0.031791 0.024158
0.035086 0.032073 0.024158
0.035305 0.032491 0.024158
0.035644 0.033048 0.024158
0.036297 0.034301 0.024158
0.037442 0.035832 0.024158
0.039112 0.037644 0.024158
0.041892 0.039742 0.024158
0.046420 0.042131 0.024158
0.053220 0.045132 0.024158
0.062435 0.048963 0.024158
0.073165 0.053253 0.024200
0.086858 0.058021 0.024295
0.103065 0.063288 0.024386
0.121960 0.069079 0.024472
0.140638 0.075610 0.024555
0.160732 0.082737 0.024681
0.181589 0.090482 0.024804
0.199454 0.098867 0.024922
0.218166 0.107776 0.025035
0.237720 0.116459 0.025188
0.258113 0.125692 0.025506
0.278397 0.135487 0.025816
0.296548 0.145853 0.026118
0.315144 0.156690 0.026413
0.334179 0.167647 0.026701
0.353644 0.179136 0.026982
0.373532 0.191164 0.027358
0.392351 0.203735 0.027876
0.409980 0.216855 0.028388
0.427824 0.230190 0.028893
0.445879 0.241094 0.029518
0.464141 0.252280 0.030244
0.482605 0.263744 0.030967
0.501268 0.275486 0.031927
0.520125 0.287501 0.032989
0.539174 0.299789 0.034059
0.558409 0.312346 0.035135
0.577829 0.325172 0.036560
0.597431 0.336936 0.038132
0.616746 0.347913 0.039733
0.629518 0.359033 0.041363
0.642257 0.370292 0.043449
0.654963 0.381689 0.045687
0.667638 0.393221 0.047989
0.680281 0.404886 0.050355
0.692895 0.416683 0.052865
0.705478 0.428609 0.055597
0.718033 0.440663 0.058413
0.730559 0.452843 0.061313
0.743056 0.465148 0.064539
0.755527 0.477575 0.067913
0.767970 0.490123 0.071397
0.780387 0.502791 0.074992
0.792777 0.515334 0.078700
0.805142 0.525756 0.082505
0.816122 0.536222 0.086338
0.823651 0.546732 0.090280
0.831122 0.557284 0.094332
0.838537 0.567879 0.098496
0.845897 0.578514 0.102772
0.853203 0.589190 0.107162
0.860456 0.599905 0.111432
0.034988 0.037118 0.024158
0.035015 0.037192 0.024158
0.035105 0.037456 0.024158
0.035253 0.037941 0.024158
0.035443 0.038666 0.024158
0.035945 0.039644 0.024158
0.036543 0.040886 0.024158
0.037973 0.042399 0.024158
0.039562 0.044341 0.024158
0.042734 0.046995 0.024158
0.047804 0.050057 0.024158
0.054817 0.053545 0.024158
0.064098 0.057478 0.024158
0.075172 0.061875 0.024226
0.088914 0.066754 0.024318
0.105398 0.072241 0.024406
0.124327 0.078345 0.024490
0.142804 0.085025 0.024579
0.162930 0.092302 0.024704
0.183302 0.100199 0.024824
0.201144 0.108511 0.024940
0.219833 0.116715 0.025052
0.239367 0.125459 0.025234
0.259740 0.134752 0.025549
0.279728 0.144607 0.025856
0.297847 0.155008 0.026155
0.316414 0.165465 0.026447
0.335420 0.176448 0.026733
0.354858 0.187963 0.027012
0.374722 0.200015 0.027412
0.393346 0.212611 0.027927
0.410948 0.225756 0.028436
0.428768 0.237043 0.028939
0.446800 0.247874 0.029583
0.465039 0.258988 0.030306
0.483482 0.270383 0.031027
0.502125 0.282057 0.032011
0.520963 0.294008 0.033071
0.539993 0.306232 0.034139
0.559211 0.318728 0.035213
0.578615 0.331343 0.036670
0.598200 0.342093 0.038241
0.617232 0.352990 0.039840
0.629989 0.364032 0.041468
0.642713 0.375216 0.043587
0.655406 0.386541 0.045826
0.668069 0.398002 0.048128
0.680700 0.409600 0.050494
0.693302 0.421331 0.053017
0.705875 0.433193 0.055750
0.718419 0.445185 0.058567
0.730935 0.457305 0.061467
0.743423 0.469551 0.064710
0.755884 0.481922 0.068085
0.768319 0.494415 0.071571
0.780727 0.507030 0.075167
0.793110 0.518721 0.078876
0.805467 0.529086 0.082678
0.816317 0.539498 0.086513
0.823841 0.549955 0.090456
0.831307 0.560456 0.094510
0.838716 0.571000 0.098675
0.846071 0.581587 0.102952
0.853373 0.592216 0.107343
0.860622 0.602886 0.111597
0.035189 0.044635 0.024158
0.035211 0.044727 0.024158
0.035287 0.045059 0.024158
0.035414 0.045671 0.024158
0.035739 0.046589 0.024158
0.036249 0.047834 0.024158
0.037055 0.049424 0.024158
0.038533 0.051379 0.024158
0.040353 0.053714 0.024158
0.043648 0.056448 0.024158
0.049334 0.059598 0.024158
0.056679 0.063182 0.024158
0.065950 0.067216 0.024162
0.077420 0.071812 0.024254
0.091214 0.076973 0.024342
0.108014 0.082670 0.024427
0.126710 0.088923 0.024509
0.145223 0.095755 0.024606
0.165385 0.103188 0.024728
0.185210 0.110751 0.024846
0.203026 0.118490 0.024960
0.221691 0.126758 0.025070
0.241201 0.135565 0.025285
0.261552 0.144922 0.025596
0.281209 0.154824 0.025899
0.299293 0.164791 0.026196
0.317827 0.175277 0.026485
0.336802 0.186287 0.026768
0.356211 0.197829 0.027045
0.376046 0.209908 0.027472
0.394455 0.222530 0.027984
0.412027 0.234167 0.028490
0.429819 0.244631 0.028990
0.447825 0.255383 0.029654
0.466039 0.266421 0.030375
0.484459 0.277742 0.031093
0.503079 0.289344 0.032105
0.521896 0.301224 0.033163
0.540906 0.313380 0.034228
0.560105 0.325810 0.035300
0.579490 0.337139 0.036792
0.599057 0.347800 0.038361
0.617773 0.358610 0.039960
0.630513 0.369568 0.041586
0.643222 0.380671 0.043741
0.655900 0.391917 0.045980
0.668549 0.403302 0.048282
0.681167 0.414826 0.050649
0.693756 0.426485 0.053186
0.706317 0.438278 0.055921
0.718849 0.450202 0.058738
0.731354 0.462257 0.061640
0.743832 0.474439 0.064900
0.756283 0.486747 0.068277
0.768708 0.499181 0.071764
0.781107 0.511737 0.075363
0.793481 0.522477 0.079074
0.805830 0.532780 0.082872
0.816534 0.543132 0.086708
0.824052 0.553530 0.090653
0.831512 0.563975 0.094708
0.838916 0.574465 0.098874
0.846266 0.584999 0.103153
0.853562 0.595576 0.107546
0.860807 0.606196 0.111782
0.035375 0.055020 0.024158
0.035394 0.055115 0.024158
0.035458 0.055458 0.024158
0.035706 0.056091 0.024158
0.036096 0.057039 0.024158
0.036555 0.058323 0.024158
0.037731 0.059964 0.024158
0.039117 0.061979 0.024158
0.041438 0.064383 0.024158
0.044908 0.067195 0.024158
0.051008 0.070481 0.024158
0.058735 0.074281 0.024158
0.067995 0.078561 0.024195
0.079914 0.083341 0.024283
0.093831 0.088642 0.024368
0.110920 0.094484 0.024450
0.129350 0.100889 0.024530
0.147903 0.107740 0.024636
0.168103 0.114518 0.024755
0.187316 0.121804 0.024871
0.205103 0.129608 0.024982
0.223741 0.137941 0.025091
0.243226 0.146814 0.025340
0.263552 0.156154 0.025647
0.282842 0.165638 0.025947
0.300888 0.175634 0.026240
0.319386 0.186148 0.026527
0.338327 0.197187 0.026807
0.357703 0.208758 0.027081
0.377508 0.220865 0.027537
0.395677 0.232488 0.028046
0.413218 0.242573 0.028549
0.430979 0.252952 0.029046
0.448956 0.263622 0.029733
0.467143 0.274579 0.030450
0.485537 0.285822 0.031166
0.504133 0.297347 0.032208
0.522926 0.309152 0.033264
