velvia_classic/Velvia50_ExtraPunchy.cube
TITLE "Velvia 50 ExtraPunchy"
# Adobe RGB in/out. REPLACES AgX. Velvia 50 color reversal.
LUT_3D_SIZE 5
DOMAIN_MIN 0.0 0.0 0.0
DOMAIN_MAX 1.0 1.0 1.0
0.018066 0.010120 0.011574
0.118156 0.019564 0.011714
0.516202 0.166266 0.014351
0.880718 0.400010 0.030331
1.000000 0.647695 0.077616
0.018140 0.070628 0.011574
0.124560 0.113772 0.011854
0.519531 0.264465 0.014733
0.882218 0.471724 0.031668
1.000000 0.697586 0.079369
0.019991 0.400199 0.011971
0.146633 0.429860 0.012609
0.531441 0.532604 0.016629
0.887587 0.674916 0.036604
1.000000 0.828956 0.085751
0.035256 0.762377 0.013625
0.181244 0.776263 0.014694
0.553155 0.824235 0.021635
0.897380 0.905949 0.047115
1.000000 1.000000 0.097826
0.087106 1.000000 0.018782
0.234011 1.000000 0.021290
0.585184 1.000000 0.033257
0.911832 1.000000 0.064294
1.000000 1.000000 0.116595
0.018066 0.010120 0.115491
0.118156 0.020333 0.120618
0.516202 0.167849 0.139159
0.880718 0.401007 0.173453
1.000000 0.648389 0.222360
0.018140 0.072114 0.117315
0.124560 0.115292 0.122399
0.519531 0.265734 0.140988
0.882218 0.472690 0.175189
1.000000 0.698257 0.223792
0.019991 0.401196 0.123703
0.146633 0.430844 0.128837
0.531441 0.533366 0.147598
0.887587 0.675597 0.181444
1.000000 0.829386 0.228930
0.035256 0.762844 0.135620
0.181244 0.776722 0.140843
0.553155 0.824668 0.159907
0.897380 0.906343 0.193016
1.000000 1.000000 0.238355
0.087106 1.000000 0.153821
0.234011 1.000000 0.159169
0.585184 1.000000 0.177228
0.911832 1.000000 0.210475
1.000000 1.000000 0.252385
0.018066 0.010292 0.510204
0.118156 0.023129 0.513027
0.516202 0.173565 0.523116
0.880718 0.404585 0.541484
1.000000 0.650882 0.568514
0.018140 0.077165 0.511191
0.124560 0.120649 0.514011
0.519531 0.270292 0.524093
0.882218 0.476156 0.542448
1.000000 0.700663 0.569460
0.019991 0.404774 0.514730
0.146633 0.434372 0.517543
0.531441 0.536100 0.527598
0.887587 0.678041 0.545906
1.000000 0.830931 0.572853
0.035256 0.764522 0.521217
0.181244 0.778370 0.524016
0.553155 0.826221 0.534023
0.897380 0.907758 0.552246
1.000000 1.000000 0.579076
0.087106 1.000000 0.530862
0.234011 1.000000 0.533641
0.585184 1.000000 0.543577
0.911832 1.000000 0.561677
1.000000 1.000000 0.588335
0.018066 0.011392 0.886563
0.118156 0.029628 0.887874
0.516202 0.184200 0.892567
0.880718 0.411153 0.901129
1.000000 0.655456 0.913767
0.018140 0.086329 0.887021
0.124560 0.130431 0.888332
0.519531 0.278681 0.893022
0.882218 0.482519 0.901579
1.000000 0.705080 0.914210
0.019991 0.411341 0.888666
0.146633 0.440850 0.889973
0.531441 0.541114 0.894654
0.887587 0.682528 0.903193
1.000000 0.833765 0.915799
0.035256 0.767599 0.891683
0.181244 0.781393 0.892986
0.553155 0.829072 0.897648
0.897380 0.910355 0.906156
1.000000 1.000000 0.918716
0.087106 1.000000 0.896175
0.234011 1.000000 0.897470
0.585184 1.000000 0.902106
0.911832 1.000000 0.910567
1.000000 1.000000 0.923058
0.018066 0.014657 1.000000
0.118156 0.040794 1.000000
0.516202 0.198571 1.000000
0.880718 0.420939 1.000000
1.000000 0.662270 1.000000
0.018140 0.100544 1.000000
0.124560 0.145392 1.000000
0.519531 0.291235 1.000000
0.882218 0.492008 1.000000
1.000000 0.711664 1.000000
0.019991 0.421127 1.000000
0.146633 0.450506 1.000000
0.531441 0.548573 1.000000
0.887587 0.689213 1.000000
1.000000 0.837987 1.000000
0.035256 0.772180 1.000000
0.181244 0.785894 1.000000
0.553155 0.833317 1.000000
0.897380 0.914227 1.000000
1.000000 1.000000 1.000000
0.087106 1.000000 1.000000
0.234011 1.000000 1.000000
0.585184 1.000000 1.000000
0.911832 1.000000 1.000000
1.000000 1.000000 1.000000
