velvia_classic/Velvia50_ExtraSoft.cube
TITLE "Velvia 50 ExtraSoft"
# Adobe RGB in/out. REPLACES AgX. Velvia 50 color reversal.
LUT_3D_SIZE 9
DOMAIN_MIN 0.0 0.0 0.0
DOMAIN_MAX 1.0 1.0 1.0
0.065865 0.046521 0.050424
0.069292 0.047586 0.050424
0.158999 0.066506 0.050789
0.310303 0.141933 0.052730
0.432198 0.239093 0.057369
0.542979 0.331663 0.068137
0.623760 0.411135 0.089883
0.690426 0.487405 0.121387
0.734715 0.551833 0.157949
0.065985 0.052825 0.050424
0.071263 0.058219 0.050424
0.165631 0.092913 0.050868
0.313498 0.168239 0.052896
0.434101 0.260474 0.057553
0.544445 0.345663 0.068544
0.624487 0.420776 0.090397
0.690999 0.495575 0.121928
0.734995 0.557424 0.158414
0.068711 0.141499 0.050424
0.081293 0.153110 0.050424
0.187190 0.189575 0.051152
0.324073 0.250389 0.053455
0.440860 0.318679 0.058281
0.549671 0.387053 0.069995
0.627079 0.453736 0.092240
0.693048 0.519208 0.123869
0.735994 0.576863 0.160080
0.088940 0.287610 0.050617
0.115980 0.293968 0.050862
0.224446 0.316109 0.051707
0.342808 0.354426 0.054366
0.452994 0.398424 0.059909
0.559140 0.450363 0.072610
0.631785 0.507125 0.095612
0.696781 0.557782 0.127395
0.737816 0.609837 0.163136
0.146715 0.410447 0.051454
0.178867 0.414446 0.051678
0.265369 0.428506 0.053084
0.369323 0.453248 0.055965
0.470476 0.487939 0.062670
0.572663 0.525119 0.076570
0.638674 0.565185 0.100616
0.702280 0.608935 0.132570
0.740506 0.643278 0.167684
0.226113 0.520183 0.053118
0.247003 0.522700 0.053552
0.314802 0.531596 0.054898
0.402540 0.547421 0.058675
0.492975 0.569918 0.066756
0.584251 0.598400 0.083091
0.647717 0.625814 0.107818
0.707860 0.653354 0.139527
0.744072 0.682902 0.173785
0.293754 0.611291 0.055611
0.311967 0.612760 0.056200
0.362354 0.617973 0.058188
0.436108 0.627306 0.063323
0.519988 0.640693 0.073390
0.598255 0.657814 0.091326
0.658807 0.678199 0.117069
0.713365 0.701320 0.148318
0.748502 0.724473 0.181476
0.356564 0.677071 0.060062
0.369737 0.678232 0.060729
0.412222 0.682363 0.063901
0.473460 0.689817 0.070425
0.550942 0.700630 0.082857
0.614384 0.714655 0.101864
0.671790 0.727597 0.128227
0.719844 0.739836 0.158724
0.753761 0.753330 0.190773
0.415649 0.732698 0.067421
0.425482 0.733290 0.068591
0.458827 0.735400 0.072686
0.513812 0.739217 0.081089
0.580553 0.744776 0.094989
0.632330 0.752017 0.115317
0.686478 0.760820 0.141075
0.727215 0.771018 0.170076
0.759799 0.782359 0.201629
0.065944 0.046521 0.062480
0.071018 0.048013 0.063391
0.164750 0.068897 0.066518
0.313101 0.144683 0.073821
0.433849 0.241193 0.087003
0.544250 0.333040 0.106599
0.624390 0.412081 0.132753
0.690923 0.488204 0.162729
0.734957 0.552380 0.194617
0.066457 0.054005 0.062800
0.072759 0.059764 0.063704
0.171372 0.095693 0.066812
0.316078 0.170640 0.074207
0.435744 0.262525 0.087478
0.545711 0.347004 0.107146
0.625115 0.421701 0.133275
0.691495 0.496361 0.163191
0.735236 0.557962 0.195060
0.070246 0.144249 0.063932
0.085461 0.155595 0.064814
0.192152 0.191916 0.068135
0.326583 0.252462 0.075581
0.442474 0.320092 0.089180
0.550923 0.388058 0.109108
0.627701 0.454594 0.135148
0.693541 0.519806 0.164846
0.736234 0.577376 0.196650
0.093186 0.289120 0.065944
0.121373 0.295457 0.066789
0.228487 0.317529 0.070798
0.345202 0.355745 0.078751
0.454558 0.399400 0.092543
0.560368 0.451227 0.112711
0.632396 0.507744 0.138587
0.697268 0.558321 0.167882
0.738054 0.610187 0.199569
0.152487 0.411395 0.069495
0.183870 0.415385 0.070641
0.268769 0.429415 0.074657
0.371572 0.454107 0.083553
0.471974 0.488737 0.097576
0.573432 0.525707 0.118081
0.639270 0.565713 0.143713
0.702758 0.609286 0.172401
0.740739 0.643587 0.203660
0.229811 0.520779 0.074741
0.250534 0.523291 0.075831
0.317373 0.532174 0.080865
0.404331 0.547975 0.089953
0.494395 0.570439 0.104526
0.584985 0.598885 0.125306
0.648293 0.626144 0.150608
0.708146 0.653652 0.178464
0.744301 0.683171 0.208952
0.296976 0.611639 0.082730
0.314558 0.613106 0.084109
0.364639 0.618312 0.089008
0.437742 0.627633 0.098617
0.521323 0.641005 0.113801
0.598949 0.658108 0.134219
0.659361 0.678472 0.159039
0.713641 0.701573 0.186110
0.748725 0.724620 0.215615
0.358880 0.677346 0.092872
0.371984 0.678505 0.094334
0.413965 0.682633 0.099548
0.474947 0.690080 0.109695
0.552192 0.700884 0.125044
0.615037 0.714897 0.144996
0.672319 0.727741 0.168609
0.720109 0.739970 0.195356
0.753977 0.753455 0.223659
0.417375 0.732838 0.105644
0.427162 0.733429 0.107209
0.460368 0.735538 0.112817
0.515166 0.739352 0.123073
0.581298 0.744906 0.137951
0.632941 0.752143 0.157540
0.686981 0.760939 0.179812
0.727468 0.771131 0.205735
0.760008 0.782402 0.233079
0.068130 0.047749 0.200482
0.078770 0.050925 0.201686
0.183684 0.077215 0.205776
0.322298 0.154413 0.213228
0.439720 0.248695 0.224209
0.548787 0.337956 0.238755
0.626641 0.415464 0.255891
0.692701 0.491067 0.275417
0.735824 0.554338 0.297016
0.069265 0.058781 0.200922
0.083186 0.065725 0.202085
0.189424 0.105600 0.206172
0.325203 0.179204 0.213619
0.441586 0.269858 0.224593
0.550234 0.351792 0.239132
0.627359 0.425008 0.256226
0.693270 0.499177 0.275740
0.736102 0.559892 0.297266
0.077605 0.154026 0.202376
0.101442 0.164324 0.203516
0.209785 0.200275 0.207594
0.335466 0.259873 0.215023
0.448215 0.325135 0.225973
0.555398 0.391646 0.240481
0.629924 0.457665 0.257425
0.695303 0.521944 0.276899
0.737094 0.579211 0.298163
0.110056 0.294502 0.205006
0.140644 0.300765 0.206141
0.241560 0.322598 0.210200
0.353688 0.360170 0.217598
0.460127 0.402889 0.228504
0.564756 0.454321 0.242958
0.634581 0.509957 0.259626
0.699008 0.560248 0.279025
0.738904 0.611440 0.299807
0.172993 0.414783 0.208918
0.201640 0.418741 0.210045
0.280799 0.432663 0.214078
0.379557 0.457181 0.221430
0.477310 0.491597 0.232271
0.576174 0.527810 0.246597
0.641401 0.567604 0.262901
0.704467 0.610543 0.282191
0.741577 0.644695 0.302252
0.242846 0.522912 0.214163
0.263006 0.525409 0.215281
0.326468 0.534241 0.219280
0.410690 0.549955 0.226571
0.499457 0.572308 0.237329
0.587603 0.600626 0.251126
0.650355 0.627324 0.267296
0.709167 0.654721 0.286442
0.745121 0.684136 0.305530
0.308403 0.612884 0.220770
0.323720 0.614345 0.221876
0.372750 0.619527 0.225834
0.443554 0.628807 0.233052
0.526088 0.642123 0.243707
0.601427 0.659160 0.256830
0.661344 0.679452 0.272836
0.714628 0.702480 0.291806
0.749524 0.725147 0.309657
0.367099 0.678330 0.228750
0.379962 0.679485 0.229842
0.420157 0.683599 0.233752
0.480245 0.691023 0.240885
0.556654 0.701793 0.250962
0.617367 0.715766 0.263719
0.674214 0.728258 0.279534
0.721058 0.740452 0.297433
0.754751 0.753901 0.314639
0.423510 0.733340 0.238098
0.433138 0.733930 0.239175
0.465857 0.736032 0.243031
0.519995 0.739836 0.249728
0.583955 0.745375 0.259219
0.635121 0.752592 0.271788
0.688783 0.761367 0.287387
0.728375 0.771536 0.303537
0.760755 0.782559 0.320468
0.081912 0.053901 0.356451
0.107545 0.059627 0.357065
0.216164 0.095441 0.359265
0.338665 0.170422 0.363285
0.450294 0.262339 0.369229
0.557023 0.346883 0.377138
0.630732 0.421617 0.387002
0.695945 0.496290 0.398182
0.737407 0.557914 0.410560
0.086680 0.071375 0.356665
0.112927 0.081670 0.357280
0.221735 0.123976 0.359479
0.341453 0.194741 0.363496
0.452110 0.280722 0.369438
0.558446 0.360200 0.377343
0.631440 0.431026 0.387203
0.696507 0.503446 0.398360
0.737682 0.563417 0.410733
0.105405 0.170043 0.357436
0.135126 0.180135 0.358049
0.237913 0.214839 0.360245
0.351313 0.273150 0.364255
0.458564 0.334283 0.370187
0.563523 0.398165 0.378079
0.633966 0.463262 0.387923
0.698519 0.525846 0.399000
0.738665 0.582567 0.411353
0.145558 0.304242 0.358851
0.177862 0.310376 0.359462
0.264685 0.331792 0.361650
0.368871 0.367243 0.365648
0.470175 0.409229 0.371561
0.572509 0.459958 0.379429
0.638555 0.513992 0.389244
0.702184 0.563770 0.400174
0.740459 0.613729 0.412491
0.205801 0.420946 0.360958
0.231847 0.424847 0.361567
0.302248 0.438577 0.363744
0.393892 0.462784 0.367723
0.486952 0.496815 0.373609
0.581142 0.531650 0.381442
0.645278 0.571060 0.391215
0.706654 0.612840 0.401923
0.743106 0.646721 0.414188
0.265910 0.526803 0.363790
0.285171 0.529274 0.364394
0.342667 0.538013 0.366558
0.422104 0.553573 0.370512
0.508619 0.575722 0.376361
0.592351 0.603810 0.384147
0.654110 0.629482 0.393707
0.711030 0.656676 0.404275
0.746619 0.685903 0.416471
0.325855 0.615161 0.367366
0.340030 0.616609 0.367965
0.387298 0.621748 0.370111
0.454025 0.630953 0.374033
0.534728 0.644168 0.379838
0.605927 0.661085 0.387565
0.664955 0.681248 0.396759
0.716429 0.704142 0.407247
0.750983 0.726112 0.419355
0.381829 0.680132 0.371695
0.394285 0.681280 0.372288
0.431284 0.685370 0.374414
0.489822 0.692749 0.378299
0.564759 0.703459 0.384049
0.621602 0.717358 0.391708
0.677668 0.729206 0.400455
0.722789 0.741335 0.410848
0.756166 0.754720 0.422852
0.434538 0.734260 0.376780
0.443892 0.734847 0.377367
0.475767 0.736938 0.379469
0.528750 0.740722 0.383311
0.588771 0.746234 0.389000
0.639087 0.753417 0.396181
0.692070 0.762152 0.404799
0.730031 0.772278 0.415082
0.762122 0.782847 0.426967
0.128922 0.070425 0.488870
0.161289 0.080522 0.489223
0.254220 0.122847 0.490491
0.361975 0.193796 0.492811
0.465598 0.280099 0.496256
0.569089 0.359761 0.500861
0.636739 0.430659 0.506638
0.700732 0.503193 0.513581
0.739748 0.563201 0.521665
0.135045 0.097486 0.488993
0.167917 0.109125 0.489347
0.258228 0.151260 0.490614
0.364611 0.216775 0.492933
0.467346 0.295657 0.496377
0.570477 0.370730 0.500981
0.637432 0.439876 0.506756
0.701285 0.509577 0.513697
0.740019 0.568630 0.521778
0.158620 0.193427 0.489437
0.189168 0.203233 0.489790
0.272363 0.235964 0.491055
0.373953 0.288341 0.493372
0.473562 0.347672 0.496812
0.574248 0.407723 0.501410
0.639903 0.471512 0.507179
0.703265 0.531605 0.514112
0.740988 0.587535 0.522186
0.198372 0.318446 0.490252
0.226257 0.324404 0.490604
0.297405 0.345245 0.491867
0.390646 0.377578 0.494179
0.484762 0.418537 0.497611
0.580012 0.468266 0.502199
0.644394 0.519943 0.507957
0.706217 0.568979 0.514876
0.742757 0.617117 0.522934
0.246725 0.430002 0.491467
0.266725 0.433822 0.491818
0.329183 0.447279 0.493077
0.412596 0.471042 0.495381
0.500980 0.503610 0.498803
0.588392 0.537318 0.503377
0.650978 0.576173 0.509117
0.709476 0.616239 0.516015
0.745369 0.649725 0.524050
0.298557 0.532547 0.493103
0.315828 0.534979 0.493453
0.365760 0.543585 0.494706
0.438544 0.558920 0.497001
0.521980 0.580776 0.500407
0.599290 0.608504 0.504962
0.659634 0.632678 0.510679
0.713777 0.659577 0.517550
0.748835 0.688527 0.525554
0.349887 0.618531 0.495174
0.363265 0.619961 0.495522
0.407205 0.625036 0.496768
0.469190 0.634132 0.499050
0.547360 0.647200 0.502438
0.612514 0.663941 0.506969
0.670274 0.683913 0.512656
0.719086 0.706612 0.519493
0.753143 0.727545 0.527458
0.402729 0.682807 0.497688
0.412917 0.683945 0.498034
0.447337 0.687998 0.499272
0.503757 0.695314 0.501539
0.575023 0.705935 0.504905
0.627815 0.719724 0.509407
0.682759 0.730614 0.515059
0.725345 0.742648 0.521854
0.758262 0.755937 0.529773
0.450458 0.735627 0.500652
0.459441 0.736209 0.500994
0.490163 0.738285 0.502223
0.541542 0.742040 0.504472
0.595807 0.747511 0.507813
0.644915 0.754643 0.512282
0.696919 0.763320 0.517892
0.732477 0.773382 0.524639
0.764146 0.783275 0.532503
0.200546 0.105936 0.599525
0.227897 0.117688 0.599762
0.298823 0.158988 0.600611
0.391596 0.223373 0.602168
0.485402 0.300192 0.604486
0.580342 0.373938 0.607596
0.644652 0.442586 0.611514
0.706344 0.511458 0.616248
0.742859 0.570234 0.621793
0.206194 0.134535 0.599608
0.232142 0.146196 0.599844
0.302504 0.183639 0.600693
0.394064 0.245133 0.602250
0.487068 0.315093 0.604568
0.581201 0.384505 0.607677
0.645325 0.451561 0.611595
0.706677 0.517695 0.616327
0.743125 0.575566 0.621871
0.226177 0.223034 0.599905
0.247064 0.232056 0.600141
0.314847 0.263717 0.600990
0.402571 0.308079 0.602545
0.493000 0.364131 0.604861
0.584264 0.420296 0.607968
0.647727 0.482438 0.611882
0.707865 0.539245 0.616611
0.744076 0.594152 0.622151
0.253619 0.337011 0.600451
0.273344 0.342757 0.600687
0.334019 0.362190 0.601534
0.415998 0.391114 0.603088
0.503705 0.430797 0.605400
0.589803 0.479265 0.608502
0.652093 0.527830 0.612411
0.710029 0.575908 0.617134
0.745813 0.621628 0.622666
0.291958 0.441946 0.601266
0.310330 0.445665 0.601501
0.361081 0.458777 0.602347
0.435199 0.481978 0.603897
0.519246 0.511866 0.606204
0.597869 0.544842 0.609300
0.658499 0.582979 0.613201
0.713212 0.620765 0.617914
0.748378 0.653734 0.623435
0.334899 0.540168 0.602365
0.348762 0.542550 0.602600
0.395140 0.550985 0.603442
0.459692 0.566030 0.604988
0.539433 0.587504 0.607289
0.608379 0.613162 0.610376
0.666931 0.636939 0.614266
0.717415 0.663449 0.618966
0.751784 0.692036 0.624472
0.380307 0.623018 0.603758
0.392803 0.624425 0.603992
0.430132 0.629417 0.604831
0.488827 0.638371 0.606372
0.563915 0.651245 0.608664
0.621161 0.667755 0.611740
0.677307 0.687476 0.615616
0.722608 0.709918 0.620300
0.756019 0.729463 0.625787
0.425933 0.686384 0.605452
0.435500 0.687509 0.605685
0.468031 0.691513 0.606521
0.521912 0.698744 0.608055
0.585009 0.709248 0.610337
0.635987 0.722099 0.613399
0.689500 0.732498 0.617259
0.728736 0.744407 0.621923
0.761053 0.757569 0.627388
0.470995 0.737458 0.607454
0.479537 0.738034 0.607686
0.508875 0.740088 0.608518
0.558296 0.743805 0.610043
0.605018 0.749221 0.612313
0.652600 0.756287 0.615360
0.703349 0.764886 0.619201
0.735726 0.774864 0.623841
0.766845 0.783849 0.629280
0.267653 0.152952 0.681040
0.286851 0.163317 0.681172
0.343895 0.199309 0.681644
0.422974 0.259016 0.682511
0.509321 0.324552 0.683803
0.592715 0.391232 0.685540
0.654399 0.457310 0.687732
0.711174 0.521697 0.690386
0.746734 0.578999 0.693503
0.271554 0.177840 0.681086
0.290612 0.187839 0.681218
0.346648 0.221878 0.681690
0.424925 0.278228 0.682557
0.510897 0.338744 0.683849
0.593533 0.401347 0.685585
0.655048 0.466004 0.687776
0.711496 0.527759 0.690430
0.746994 0.584215 0.693547
0.285330 0.258691 0.681251
0.303917 0.267361 0.681383
0.356386 0.291906 0.681855
0.431849 0.332058 0.682721
0.516516 0.381866 0.684013
0.596450 0.435768 0.685747
0.657368 0.495988 0.687938
0.712649 0.548740 0.690590
0.747924 0.602416 0.693704
0.309798 0.359548 0.681555
0.324836 0.364102 0.681686
0.373742 0.380015 0.682158
0.444266 0.407686 0.683024
0.526673 0.445907 0.684313
0.601732 0.492902 0.686046
0.661588 0.537619 0.688234
0.714750 0.584550 0.690883
0.749622 0.627258 0.693994
0.338762 0.456691 0.682009
0.352496 0.460291 0.682140
0.398504 0.473001 0.682611
0.462128 0.495542 0.683475
0.541460 0.522093 0.684762
0.609436 0.554197 0.686492
0.667784 0.591471 0.688677
0.717842 0.626413 0.691321
0.752130 0.658751 0.694428
0.374542 0.549639 0.682621
0.387196 0.551962 0.682752
0.425775 0.560192 0.683221
0.485072 0.574889 0.684084
0.560733 0.595902 0.685368
0.619498 0.618971 0.687094
0.675950 0.642264 0.689274
0.721928 0.668300 0.691913
0.755462 0.696440 0.695012
0.414053 0.628619 0.683397
0.423928 0.629997 0.683528
0.457403 0.634889 0.683996
0.512563 0.643669 0.684856
0.579866 0.656306 0.686137
0.631768 0.672535 0.687858
0.686013 0.691948 0.690031
0.726981 0.714072 0.692663
0.759607 0.731872 0.695754
0.453494 0.690872 0.684343
0.462409 0.691980 0.684473
0.492919 0.695925 0.684939
0.544002 0.703052 0.685796
0.597160 0.713411 0.687072
0.646039 0.724613 0.688788
0.697857 0.734865 0.690953
0.732951 0.746618 0.693576
0.764539 0.759623 0.696657
0.495712 0.739759 0.685461
0.503775 0.740327 0.685590
0.531588 0.742354 0.686055
0.576412 0.746024 0.686908
0.616278 0.751374 0.688179
0.662078 0.758356 0.689887
0.708950 0.766859 0.692044
0.739768 0.776732 0.694656
0.770216 0.784572 0.697725
0.330032 0.202360 0.744798
0.344061 0.211640 0.744882
0.390914 0.244041 0.745181
0.456636 0.294111 0.745732
0.536893 0.352792 0.746553
0.607055 0.411382 0.747657
0.665864 0.474683 0.749054
0.716882 0.533821 0.750749
0.751351 0.589451 0.752745
0.332881 0.224701 0.744827
0.346812 0.233704 0.744911
0.393386 0.265309 0.745210
0.458423 0.309204 0.745761
0.538377 0.364962 0.746582
0.607829 0.421017 0.747686
0.666487 0.483067 0.749083
0.717194 0.539685 0.750778
0.751604 0.594534 0.752773
0.342949 0.293876 0.744932
0.356546 0.300147 0.745015
0.402001 0.322008 0.745315
0.464777 0.359715 0.745865
0.543671 0.402482 0.746686
0.610589 0.453960 0.747790
0.668716 0.509698 0.749186
0.718307 0.560023 0.750880
0.752509 0.611293 0.752874
0.360851 0.381363 0.745125
0.373895 0.385661 0.745208
0.415448 0.400725 0.745507
0.476214 0.427066 0.746057
0.553258 0.463705 0.746877
0.615593 0.507287 0.747980
0.672771 0.549236 0.749375
0.720336 0.594861 0.751067
0.754162 0.633980 0.753060
0.386312 0.474086 0.745413
0.398650 0.477557 0.745496
0.434677 0.489822 0.745795
0.492756 0.509349 0.746344
0.567252 0.534204 0.747163
0.622906 0.565323 0.748264
0.678733 0.601609 0.749657
0.723324 0.633156 0.751348
0.756604 0.664764 0.753338
0.416069 0.560896 0.745801
0.425891 0.563152 0.745884
0.459203 0.571148 0.746183
0.514142 0.585448 0.746731
0.580735 0.605933 0.747548
0.632479 0.625900 0.748648
0.686600 0.648635 0.750039
0.727276 0.674119 0.751726
0.759850 0.701734 0.753713
0.448483 0.635309 0.746295
0.457510 0.636653 0.746377
0.488371 0.641429 0.746675
0.539945 0.650008 0.747222
0.594929 0.662370 0.748038
0.644186 0.678270 0.749135
0.696311 0.697322 0.750522
0.732170 0.719072 0.752206
0.763892 0.734770 0.754189
0.484748 0.696265 0.746896
0.493017 0.697353 0.746978
0.521489 0.701229 0.747275
0.569662 0.708234 0.747821
0.611261 0.718422 0.748634
0.657844 0.727635 0.749728
0.706760 0.737713 0.751112
0.737958 0.749283 0.752792
0.768704 0.762101 0.754769
0.524108 0.742529 0.747607
0.531678 0.743088 0.747690
0.557904 0.745084 0.747986
0.591678 0.748697 0.748529
0.629412 0.753968 0.749340
0.673243 0.760851 0.750431
0.714737 0.769240 0.751810
0.744578 0.778988 0.753484
0.773439 0.785445 0.755456
0.387017 0.254853 0.777166
0.399335 0.263558 0.777197
0.435210 0.289108 0.777307
0.493217 0.329486 0.777510
0.567645 0.379963 0.777813
0.623111 0.434099 0.778220
0.678901 0.494522 0.778735
0.723408 0.547711 0.779361
0.756673 0.601518 0.780099
0.389509 0.275095 0.777177
0.401661 0.281636 0.777208
0.437098 0.304363 0.777318
0.494853 0.343545 0.777521
0.569037 0.390369 0.777823
0.623839 0.443245 0.778231
0.679497 0.502039 0.778746
0.723707 0.553363 0.779372
0.756918 0.606455 0.780109
0.398355 0.329267 0.777216
0.409040 0.335099 0.777246
0.443805 0.355527 0.777357
0.500679 0.385465 0.777559
0.573331 0.425671 0.777862
0.626438 0.474659 0.778269
0.681628 0.524526 0.778784
0.724777 0.573002 0.779409
0.757795 0.619735 0.780147
0.412308 0.405751 0.777287
0.422231 0.409796 0.777317
0.455848 0.424010 0.777428
0.511199 0.448997 0.777630
0.579116 0.483990 0.777932
0.631154 0.522213 0.778339
0.685508 0.562577 0.778854
0.726727 0.606772 0.779479
0.759398 0.641753 0.780215
0.431697 0.493949 0.777393
0.441121 0.497282 0.777423
0.473210 0.507290 0.777533
0.526486 0.524191 0.777736
0.587526 0.548080 0.778037
0.638060 0.578129 0.778444
0.691217 0.612062 0.778958
0.729601 0.640951 0.779582
0.761767 0.671742 0.780318
0.456407 0.573846 0.777536
0.465258 0.576028 0.777566
0.495567 0.583769 0.777676
0.546367 0.597633 0.777878
0.598460 0.615171 0.778180
0.647122 0.633902 0.778585
0.698762 0.656014 0.779099
0.733407 0.680878 0.779722
0.764918 0.707902 0.780457
0.485767 0.643045 0.777718
0.494017 0.644352 0.777748
0.522426 0.648998 0.777858
0.570509 0.657351 0.778059
0.611726 0.669405 0.778360
0.658236 0.684935 0.778765
0.706963 0.703579 0.779277
0.738125 0.723369 0.779900
0.768844 0.738148 0.780633
0.519075 0.702543 0.777939
0.526729 0.703609 0.777970
0.553224 0.707406 0.778079
0.588969 0.714273 0.778280
0.627071 0.722966 0.778580
0.671244 0.731154 0.778984
0.713700 0.741036 0.779495
0.743713 0.752395 0.780116
0.773006 0.764999 0.780848
0.555672 0.745761 0.778201
0.562757 0.746311 0.778232
0.581913 0.748270 0.778341
0.608681 0.751820 0.778541
0.644216 0.757000 0.778841
0.685959 0.763769 0.779244
0.721348 0.772026 0.779753
0.750114 0.781630 0.780373
0.776221 0.786467 0.781102
