velvia_classic/Velvia50_RadianceIII.cube
TITLE "Velvia 50 RadianceIII"
# Adobe RGB in/out. REPLACES AgX. Velvia 50 color reversal.
LUT_3D_SIZE 9
DOMAIN_MIN 0.0 0.0 0.0
DOMAIN_MAX 1.0 1.0 1.0
0.078461 0.087030 0.084083
0.078407 0.087030 0.084083
0.086405 0.087030 0.084083
0.274131 0.087453 0.084083
0.525162 0.116175 0.084083
0.774259 0.241732 0.084083
0.938709 0.388207 0.084083
0.978607 0.533815 0.083879
0.986975 0.674521 0.084129
0.078461 0.087030 0.084083
0.078402 0.087030 0.084083
0.086678 0.087030 0.084083
0.275238 0.090087 0.084083
0.526000 0.130530 0.084083
0.774872 0.268052 0.084083
0.938867 0.407082 0.084083
0.978644 0.548075 0.083871
0.986984 0.688115 0.084189
0.078461 0.087458 0.084083
0.078386 0.088192 0.084083
0.088131 0.093267 0.084083
0.279219 0.123722 0.084083
0.528998 0.217996 0.084083
0.777076 0.343777 0.084083
0.939435 0.474556 0.084083
0.978777 0.598625 0.083843
0.987004 0.735568 0.084406
0.078454 0.166340 0.084083
0.078360 0.176721 0.084083
0.091101 0.214013 0.084083
0.286554 0.285268 0.084083
0.534383 0.365020 0.084083
0.781124 0.467950 0.084083
0.940476 0.572041 0.084083
0.979022 0.689527 0.083792
0.987022 0.813323 0.084799
0.078422 0.388431 0.084083
0.078279 0.396160 0.084083
0.097055 0.423969 0.084083
0.296860 0.474730 0.084083
0.542422 0.535914 0.084083
0.787163 0.612954 0.084083
0.942027 0.708187 0.084083
0.979386 0.811545 0.083731
0.987051 0.884988 0.085409
0.078371 0.602455 0.084083
0.078185 0.608163 0.084083
0.106908 0.628561 0.084083
0.310839 0.665765 0.084083
0.553253 0.720374 0.084083
0.794571 0.789941 0.084083
0.944109 0.851717 0.084053
0.979875 0.901238 0.083690
0.987089 0.939610 0.086232
0.078249 0.818036 0.084083
0.078376 0.821470 0.084083
0.122957 0.833703 0.084083
0.328561 0.855801 0.084083
0.566977 0.881496 0.084083
0.803262 0.908646 0.084083
0.946735 0.935526 0.083939
0.980493 0.956328 0.083640
0.987137 0.968334 0.087054
0.078298 0.934713 0.084083
0.080994 0.935763 0.084083
0.145148 0.939494 0.084083
0.350227 0.946206 0.084083
0.583673 0.955900 0.084083
0.813797 0.964560 0.084083
0.949909 0.969968 0.083779
0.981241 0.976088 0.084230
0.987195 0.981781 0.087929
0.080718 0.972595 0.084083
0.087382 0.972891 0.084083
0.173179 0.973945 0.084083
0.376272 0.975846 0.084083
0.603507 0.978605 0.084083
0.826188 0.981597 0.083960
0.953631 0.982951 0.083682
0.981579 0.984503 0.085734
0.987263 0.986218 0.089713
0.078461 0.087030 0.084083
0.078407 0.087030 0.084083
0.086405 0.087030 0.084083
0.274131 0.087478 0.084083
0.525162 0.116352 0.084083
0.774259 0.242098 0.084069
0.938709 0.388464 0.083730
0.978607 0.534011 0.084747
0.986975 0.674707 0.088280
0.078461 0.087030 0.084083
0.078402 0.087030 0.084083
0.086678 0.087030 0.084083
0.275238 0.090137 0.084083
0.526000 0.130733 0.084083
0.774872 0.268397 0.084061
0.938867 0.407341 0.083727
0.978644 0.548269 0.084806
0.986984 0.688300 0.088321
0.078461 0.087483 0.084083
0.078386 0.088216 0.084083
0.088131 0.093314 0.084083
0.279219 0.123925 0.084083
0.528998 0.218362 0.084083
0.777076 0.344032 0.084036
0.939435 0.474812 0.083716
0.978777 0.598816 0.085019
0.987004 0.735743 0.088483
0.078454 0.166693 0.084083
0.078360 0.177066 0.084083
0.091101 0.214376 0.084083
0.286554 0.285619 0.084083
0.534383 0.365277 0.084083
0.781124 0.468206 0.083991
0.940476 0.572234 0.083696
0.979022 0.689712 0.085436
0.987022 0.813439 0.089204
0.078422 0.388688 0.084083
0.078279 0.396419 0.084083
0.097055 0.424228 0.084083
0.296860 0.474986 0.084083
0.542422 0.536110 0.084083
0.787163 0.613144 0.083927
0.942027 0.708371 0.083667
0.979386 0.811660 0.086047
0.987051 0.885057 0.090251
0.078371 0.602645 0.084083
0.078185 0.608354 0.084083
0.106908 0.628750 0.084083
0.310839 0.665952 0.084083
0.553253 0.720550 0.084083
0.794571 0.790113 0.083822
0.944109 0.851828 0.083627
0.979875 0.901305 0.086763
0.987089 0.939645 0.091642
0.078249 0.818151 0.084083
0.078376 0.821585 0.084083
0.122957 0.833816 0.084083
0.328561 0.855912 0.084083
0.566977 0.881565 0.083978
0.803262 0.908711 0.083721
0.946735 0.935561 0.084271
0.980493 0.956360 0.087495
0.987137 0.968344 0.093664
0.078298 0.934748 0.084083
0.080994 0.935798 0.084083
0.145148 0.939528 0.084083
0.350227 0.946239 0.084029
0.583673 0.955933 0.083826
0.813797 0.964571 0.083660
0.949909 0.969978 0.085535
0.981241 0.976097 0.088347
0.987195 0.981784 0.097905
0.080718 0.972605 0.084081
0.087382 0.972901 0.084061
0.173179 0.973955 0.083990
0.376272 0.975856 0.083854
0.603507 0.978614 0.083699
0.826188 0.981600 0.084075
0.953631 0.982954 0.086894
0.981579 0.984506 0.090798
0.987263 0.986221 0.103020
0.078461 0.087030 0.089425
0.078407 0.087030 0.089728
0.086405 0.087030 0.090809
0.274131 0.087569 0.092755
0.525162 0.116987 0.098196
0.774259 0.243415 0.107175
0.938709 0.389388 0.120684
0.978607 0.534714 0.142800
0.986975 0.675377 0.173257
0.078461 0.087030 0.089531
0.078402 0.087030 0.089834
0.086678 0.087030 0.090913
0.275238 0.090315 0.092857
0.526000 0.131465 0.098399
0.774872 0.269636 0.107432
0.938867 0.408269 0.121030
0.978644 0.548968 0.143222
0.986984 0.688966 0.173671
0.078461 0.087574 0.089911
0.078386 0.088300 0.090213
0.088131 0.093482 0.091286
0.279219 0.124652 0.093353
0.528998 0.219678 0.099131
0.777076 0.344947 0.108357
0.939435 0.475732 0.122278
0.978777 0.599503 0.144740
0.987004 0.736372 0.175161
0.078454 0.167967 0.090606
0.078360 0.178308 0.090905
0.091101 0.215683 0.091968
0.286554 0.286849 0.094706
0.534383 0.366199 0.100474
0.781124 0.469126 0.110061
0.940476 0.572924 0.124584
0.979022 0.690378 0.147551
0.987022 0.813853 0.177913
0.078422 0.389613 0.091633
0.078279 0.397346 0.091927
0.097055 0.425157 0.092975
0.296860 0.475907 0.096726
0.542422 0.536812 0.102480
0.787163 0.613827 0.112617
0.942027 0.709032 0.128059
0.979386 0.812076 0.151798
0.987051 0.885306 0.182058
0.078371 0.603331 0.092998
0.078185 0.609038 0.093488
0.106908 0.629428 0.095592
0.310839 0.666624 0.099448
0.553253 0.721183 0.106186
0.794571 0.790711 0.116080
0.944109 0.852226 0.132806
0.979875 0.901545 0.157615
0.987089 0.939768 0.187713
0.078249 0.818563 0.096378
0.078376 0.821996 0.096962
0.122957 0.834221 0.099057
0.328561 0.856308 0.102999
0.566977 0.881816 0.110579
0.803262 0.908948 0.121658
0.946735 0.935687 0.139458
0.980493 0.956475 0.165144
0.987137 0.968382 0.194757
0.078298 0.934874 0.100605
0.080994 0.935923 0.101186
0.145148 0.939651 0.103518
0.350227 0.946359 0.108634
0.583673 0.956048 0.115954
0.813797 0.964610 0.128936
0.949909 0.970015 0.148229
0.981241 0.976131 0.173948
0.987195 0.981793 0.203366
0.080718 0.972641 0.106725
0.087382 0.972937 0.107462
0.173179 0.973990 0.110112
0.376272 0.975890 0.115006
0.603507 0.978647 0.124155
0.826188 0.981610 0.138115
0.953631 0.982963 0.158926
0.981579 0.984514 0.184262
0.987263 0.986229 0.213840
0.078461 0.087030 0.280756
0.078407 0.087030 0.281845
0.086405 0.087030 0.285764
0.274131 0.087734 0.292561
0.525162 0.118155 0.302705
0.774259 0.245845 0.316482
0.938709 0.391094 0.333903
0.978607 0.536007 0.353424
0.986975 0.676608 0.373962
0.078461 0.087030 0.281137
0.078402 0.087030 0.282226
0.086678 0.087030 0.286146
0.275238 0.090649 0.292919
0.526000 0.132811 0.303064
0.774872 0.271922 0.316843
0.938867 0.409977 0.334262
0.978644 0.550252 0.353716
0.986984 0.690192 0.374252
0.078461 0.087739 0.282504
0.078386 0.088453 0.283595
0.088131 0.093787 0.287443
0.279219 0.125992 0.294204
0.528998 0.222107 0.304355
0.777076 0.346630 0.318129
0.939435 0.477426 0.335552
0.978777 0.600765 0.354764
0.987004 0.737530 0.375295
0.078454 0.170301 0.285024
0.078360 0.180602 0.286116
0.091101 0.218095 0.289803
0.286554 0.289023 0.296571
0.534383 0.367897 0.306733
0.781124 0.470819 0.320490
0.940476 0.574194 0.337929
0.979022 0.691603 0.356693
0.987022 0.814616 0.377214
0.078422 0.391319 0.288640
0.078279 0.399053 0.289663
0.097055 0.426867 0.293338
0.296860 0.477600 0.300117
0.542422 0.538103 0.310294
0.787163 0.615082 0.324027
0.942027 0.710249 0.341487
0.979386 0.812840 0.359575
0.987051 0.885764 0.380083
0.078371 0.604591 0.293416
0.078185 0.610295 0.294441
0.106908 0.630675 0.298124
0.310839 0.667859 0.304916
0.553253 0.722348 0.315113
0.794571 0.791669 0.328813
0.944109 0.852958 0.346169
0.979875 0.901987 0.363468
0.987089 0.939995 0.383956
0.078249 0.819322 0.299505
0.078376 0.822751 0.300532
0.122957 0.834967 0.304225
0.328561 0.857036 0.311035
0.566977 0.882277 0.321206
0.803262 0.909384 0.334912
0.946735 0.935918 0.351101
0.980493 0.956686 0.368413
0.987137 0.968451 0.388877
0.078298 0.935106 0.306965
0.080994 0.936154 0.307995
0.145148 0.939879 0.311700
0.350227 0.946580 0.318513
0.583673 0.956259 0.328639
0.813797 0.964683 0.342381
0.949909 0.970082 0.357155
0.981241 0.976193 0.374446
0.987195 0.981811 0.394906
0.080718 0.972706 0.315851
0.087382 0.973002 0.316885
0.173179 0.974054 0.320560
0.376272 0.975953 0.327330
0.603507 0.978707 0.337488
0.826188 0.981628 0.350165
0.953631 0.982980 0.364336
0.981579 0.984530 0.381598
0.987263 0.986243 0.402054
0.078461 0.087030 0.521404
0.078407 0.087030 0.522179
0.086405 0.087030 0.524961
0.274131 0.087976 0.530038
0.525162 0.119986 0.537476
0.774259 0.249497 0.547501
0.938709 0.393647 0.559936
0.978607 0.537939 0.574016
0.986975 0.678450 0.590655
0.078461 0.087030 0.521675
0.078402 0.087030 0.522450
0.086678 0.087030 0.525231
0.275238 0.091151 0.530301
0.526000 0.134843 0.537739
0.774872 0.275352 0.547763
0.938867 0.412533 0.560174
0.978644 0.552171 0.574252
0.986984 0.692024 0.590890
0.078461 0.087981 0.522647
0.078386 0.088972 0.523422
0.088131 0.094882 0.526203
0.279219 0.127999 0.531246
0.528998 0.225760 0.538682
0.777076 0.349149 0.548704
0.939435 0.479901 0.561028
0.978777 0.602653 0.575100
0.987004 0.739260 0.591737
0.078454 0.173675 0.524436
0.078360 0.184055 0.525210
0.091101 0.221722 0.527990
0.286554 0.292283 0.532984
0.534383 0.370436 0.540416
0.781124 0.473352 0.550433
0.940476 0.576092 0.562598
0.979022 0.693434 0.576660
0.987022 0.815755 0.593294
0.078422 0.393872 0.527110
0.078279 0.401607 0.527883
0.097055 0.429425 0.530609
0.296860 0.480071 0.535583
0.542422 0.540034 0.543009
0.787163 0.616958 0.553018
0.942027 0.712068 0.564945
0.979386 0.813981 0.578991
0.987051 0.886447 0.595621
0.078371 0.606476 0.530667
0.078185 0.612175 0.531420
0.106908 0.632540 0.534123
0.310839 0.669706 0.539091
0.553253 0.724089 0.546510
0.794571 0.793101 0.556509
0.944109 0.854051 0.568111
0.979875 0.902648 0.582136
0.987089 0.940334 0.598762
0.078249 0.820455 0.535135
0.078376 0.823881 0.535887
0.122957 0.836082 0.538586
0.328561 0.858125 0.543548
0.566977 0.882966 0.550957
0.803262 0.910035 0.560604
0.946735 0.936263 0.572132
0.980493 0.957002 0.586149
0.987137 0.968554 0.602751
0.078298 0.935453 0.540585
0.080994 0.936499 0.541336
0.145148 0.940218 0.544031
0.350227 0.946909 0.548985
0.583673 0.956576 0.556382
0.813797 0.964792 0.565533
0.949909 0.970183 0.577034
0.981241 0.976287 0.591048
0.987195 0.981838 0.607614
0.080718 0.972804 0.547044
0.087382 0.973099 0.547794
0.173179 0.974150 0.550484
0.376272 0.976046 0.555429
0.603507 0.978797 0.562307
0.826188 0.981655 0.571369
0.953631 0.983006 0.582838
0.981579 0.984554 0.596850
0.987263 0.986265 0.613375
0.078461 0.087030 0.765995
0.078407 0.087030 0.766516
0.086405 0.087030 0.768385
0.274131 0.088293 0.771820
0.525162 0.122686 0.776943
0.774259 0.254462 0.783838
0.938709 0.397097 0.792262
0.978607 0.540548 0.801210
0.986975 0.680935 0.811732
0.078461 0.087030 0.766177
0.078402 0.087030 0.766698
0.086678 0.087026 0.768567
0.275238 0.091817 0.772001
0.526000 0.139193 0.777123
0.774872 0.280007 0.784018
0.938867 0.415987 0.792414
0.978644 0.554761 0.801360
0.986984 0.694498 0.811880
0.078461 0.088298 0.766830
0.078386 0.089658 0.767351
0.088131 0.096581 0.769220
0.279219 0.130716 0.772652
0.528998 0.230732 0.777773
0.777076 0.352558 0.784664
0.939435 0.482804 0.792957
0.978777 0.605201 0.801899
0.987004 0.741596 0.812413
0.078454 0.178275 0.768033
0.078360 0.188762 0.768553
0.091101 0.226660 0.770420
0.286554 0.296702 0.773850
0.534383 0.373867 0.778966
0.781124 0.476775 0.785852
0.940476 0.578654 0.793955
0.979022 0.695906 0.802888
0.987022 0.817292 0.813393
0.078422 0.397322 0.769829
0.078279 0.405059 0.770349
0.097055 0.432860 0.772214
0.296860 0.482944 0.775639
0.542422 0.542639 0.780750
0.787163 0.619491 0.787628
0.942027 0.714525 0.795447
0.979386 0.815522 0.804367
0.987051 0.887370 0.814857
0.078371 0.609020 0.772253
0.078185 0.614713 0.772772
0.106908 0.635057 0.774634
0.310839 0.672200 0.778054
0.553253 0.726439 0.783156
0.794571 0.795035 0.790024
0.944109 0.855527 0.797460
0.979875 0.903540 0.806363
0.987089 0.940792 0.816832
0.078249 0.821985 0.775331
0.078376 0.825405 0.775849
0.122957 0.837586 0.777707
0.328561 0.859595 0.781120
0.566977 0.883895 0.786212
0.803262 0.910913 0.792687
0.946735 0.936728 0.800014
0.980493 0.957428 0.808895
0.987137 0.968694 0.819338
0.078298 0.935920 0.779082
0.080994 0.936964 0.779599
0.145148 0.940676 0.781453
0.350227 0.947354 0.784858
0.583673 0.957003 0.789937
0.813797 0.964938 0.795821
0.949909 0.970320 0.803126
0.981241 0.976413 0.811979
0.987195 0.981874 0.822392
0.080718 0.972936 0.783524
0.087382 0.973230 0.784039
0.173179 0.974279 0.785887
0.376272 0.976173 0.789282
0.603507 0.978919 0.793771
0.826188 0.981691 0.799530
0.953631 0.983040 0.806808
0.981579 0.984586 0.815630
0.987263 0.986295 0.826006
0.078461 0.087030 0.928755
0.078407 0.087030 0.928874
0.086405 0.087030 0.929304
0.274131 0.088983 0.930093
0.525162 0.126129 0.931267
0.774259 0.260615 0.932843
0.938709 0.401486 0.934832
0.978607 0.543860 0.937236
0.986975 0.684094 0.940057
0.078461 0.087030 0.928796
0.078402 0.087030 0.928916
0.086678 0.086987 0.929346
0.275238 0.092642 0.930134
0.526000 0.144810 0.931308
0.774872 0.285961 0.932884
0.938867 0.420381 0.934872
0.978644 0.558052 0.937276
0.986984 0.697641 0.940096
0.078461 0.088993 0.928947
0.078386 0.090511 0.929066
0.088131 0.098721 0.929496
0.279219 0.134178 0.930284
0.528998 0.236981 0.931457
0.777076 0.356918 0.933032
0.939435 0.486296 0.935018
0.978777 0.608438 0.937421
0.987004 0.744564 0.940239
0.078454 0.184196 0.929223
0.078360 0.194541 0.929343
0.091101 0.233001 0.929771
0.286554 0.302346 0.930558
0.534383 0.378233 0.931730
0.781124 0.480995 0.933303
0.940476 0.581908 0.935287
0.979022 0.699048 0.937687
0.987022 0.819244 0.940501
0.078422 0.401711 0.929636
0.078279 0.409450 0.929755
0.097055 0.437209 0.930183
0.296860 0.486436 0.930968
0.542422 0.545949 0.932138
0.787163 0.622709 0.933708
0.942027 0.717533 0.935688
0.979386 0.817477 0.938083
0.987051 0.888540 0.940893
0.078371 0.612251 0.930192
0.078185 0.617937 0.930311
0.106908 0.638254 0.930738
0.310839 0.675369 0.931521
0.553253 0.729425 0.932687
0.794571 0.797490 0.934254
0.944109 0.857400 0.936229
0.979875 0.904671 0.938618
0.987089 0.941372 0.941421
0.078249 0.823927 0.930898
0.078376 0.827339 0.931016
0.122957 0.839495 0.931442
0.328561 0.861461 0.932222
0.566977 0.885074 0.933385
0.803262 0.912027 0.934946
0.946735 0.937319 0.936915
0.980493 0.957925 0.939297
0.987137 0.968871 0.942091
0.078298 0.936513 0.931756
0.080994 0.937554 0.931874
0.145148 0.941256 0.932298
0.350227 0.947919 0.933076
0.583673 0.957545 0.934234
0.813797 0.965124 0.935789
0.949909 0.970493 0.937750
0.981241 0.976572 0.940123
0.987195 0.981920 0.942906
0.080718 0.973103 0.932771
0.087382 0.973397 0.932889
0.173179 0.974444 0.933311
0.376272 0.976333 0.934085
0.603507 0.979074 0.935237
0.826188 0.981738 0.936785
0.953631 0.983084 0.938738
0.981579 0.984627 0.941100
0.987263 0.986333 0.943871
0.078461 0.087030 0.974759
0.078407 0.087030 0.974791
0.086405 0.087030 0.974906
0.274131 0.090042 0.975118
0.525162 0.130347 0.975433
0.774259 0.267742 0.975857
0.938709 0.406850 0.976392
0.978607 0.547900 0.977040
0.986975 0.687948 0.977802
0.078461 0.087030 0.974770
0.078402 0.087030 0.974802
0.086678 0.086942 0.974917
0.275238 0.093620 0.975129
0.526000 0.151800 0.975444
0.774872 0.292826 0.975868
0.938867 0.425750 0.976403
0.978644 0.562065 0.977051
0.986984 0.701476 0.977813
0.078461 0.090051 0.974810
0.078386 0.091560 0.974843
0.088131 0.101304 0.974958
0.279219 0.140578 0.975169
0.528998 0.244570 0.975484
0.777076 0.362247 0.975907
0.939435 0.490554 0.976442
0.978777 0.612386 0.977090
0.987004 0.748185 0.977852
0.078454 0.191435 0.974885
0.078360 0.201623 0.974917
0.091101 0.240563 0.975032
0.286554 0.307799 0.975243
0.534383 0.383567 0.975557
0.781124 0.485263 0.975980
0.940476 0.585895 0.976515
0.979022 0.702881 0.977162
0.987022 0.821623 0.977923
0.078422 0.407075 0.974995
0.078279 0.414817 0.975027
0.097055 0.442523 0.975142
0.296860 0.490693 0.975353
0.542422 0.549985 0.975667
0.787163 0.626635 0.976089
0.942027 0.721194 0.976623
0.979386 0.819860 0.977269
0.987051 0.889966 0.978029
0.078371 0.616194 0.975144
0.078185 0.621870 0.975176
0.106908 0.642156 0.975291
0.310839 0.679235 0.975501
0.553253 0.733069 0.975815
0.794571 0.800484 0.976236
0.944109 0.859684 0.976769
0.979875 0.906050 0.977413
0.987089 0.942079 0.978171
0.078249 0.826293 0.975334
0.078376 0.829697 0.975366
0.122957 0.841823 0.975480
0.328561 0.863735 0.975690
0.566977 0.886510 0.976002
0.803262 0.913385 0.976423
0.946735 0.938039 0.976954
0.980493 0.958414 0.977597
0.987137 0.969087 0.978353
0.078298 0.937235 0.975565
0.080994 0.938273 0.975596
0.145148 0.941964 0.975710
0.350227 0.948607 0.975919
0.583673 0.958100 0.976231
0.813797 0.965351 0.976650
0.949909 0.970704 0.977179
0.981241 0.976767 0.977820
0.987195 0.981976 0.978574
0.080718 0.973307 0.975837
0.087382 0.973600 0.975869
0.173179 0.974644 0.975982
0.376272 0.976528 0.976191
0.603507 0.979262 0.976501
0.826188 0.981794 0.976918
0.953631 0.983137 0.977446
0.981579 0.984677 0.978084
0.987263 0.986379 0.978835
0.078461 0.087030 0.985353
0.078407 0.087030 0.985361
0.086405 0.087030 0.985388
0.274131 0.091285 0.985438
0.525162 0.135704 0.985513
0.774259 0.276276 0.985613
0.938709 0.413220 0.985741
0.978607 0.552686 0.985895
0.986975 0.692516 0.986077
0.078461 0.087030 0.985356
0.078402 0.087030 0.985363
0.086678 0.086880 0.985391
0.275238 0.096298 0.985441
0.526000 0.160279 0.985515
0.774872 0.300994 0.985616
0.938867 0.432114 0.985743
0.978644 0.566819 0.985898
0.986984 0.706022 0.986080
0.078461 0.091295 0.985365
0.078386 0.092759 0.985373
0.088131 0.104852 0.985400
0.279219 0.148789 0.985450
0.528998 0.253692 0.985525
0.777076 0.368574 0.985625
0.939435 0.495598 0.985753
0.978777 0.617065 0.985907
0.987004 0.752478 0.986089
0.078454 0.199804 0.985383
0.078360 0.210149 0.985390
0.091101 0.249631 0.985418
0.286554 0.314143 0.985468
0.534383 0.389905 0.985542
0.781124 0.490320 0.985643
0.940476 0.590626 0.985770
0.979022 0.707425 0.985924
0.987022 0.824438 0.986106
0.078422 0.413445 0.985409
0.078279 0.421189 0.985417
0.097055 0.448832 0.985444
0.296860 0.495737 0.985494
0.542422 0.554766 0.985568
0.787163 0.631287 0.985669
0.942027 0.725533 0.985796
0.979386 0.822681 0.985950
0.987051 0.891653 0.986131
0.078371 0.620866 0.985444
0.078185 0.626531 0.985452
0.106908 0.646786 0.985479
0.310839 0.683817 0.985529
0.553253 0.737387 0.985603
0.794571 0.804031 0.985704
0.944109 0.862389 0.985830
0.979875 0.907681 0.985984
0.987089 0.942916 0.986165
0.078249 0.829095 0.985489
0.078376 0.832488 0.985497
0.122957 0.844578 0.985524
0.328561 0.866428 0.985574
0.566977 0.888210 0.985648
0.803262 0.914992 0.985748
0.946735 0.938890 0.985875
0.980493 0.958992 0.986028
0.987137 0.969342 0.986209
0.078298 0.938089 0.985544
0.080994 0.939124 0.985552
0.145148 0.942801 0.985579
0.350227 0.949420 0.985628
0.583673 0.958679 0.985702
0.813797 0.965619 0.985802
0.949909 0.970954 0.985928
0.981241 0.976998 0.986081
0.987195 0.982043 0.986262
0.080718 0.973548 0.985609
0.087382 0.973840 0.985616
0.173179 0.974881 0.985643
0.376272 0.976760 0.985693
0.603507 0.979485 0.985767
0.826188 0.981861 0.985866
0.953631 0.983200 0.985992
0.981579 0.984736 0.986145
0.987263 0.986434 0.986324
