velvia_classic/Velvia50_ExtraPunchy.cube
TITLE "Velvia 50 ExtraPunchy"
# Adobe RGB in/out. REPLACES AgX. Velvia 50 color reversal.
LUT_3D_SIZE 9
DOMAIN_MIN 0.0 0.0 0.0
DOMAIN_MAX 1.0 1.0 1.0
0.018066 0.010120 0.011574
0.021121 0.010549 0.011574
0.118156 0.019564 0.011714
0.308418 0.070567 0.012470
0.516202 0.166266 0.014351
0.720951 0.282281 0.019116
0.880718 0.400010 0.030331
1.000000 0.530821 0.050047
1.000000 0.647695 0.077616
0.018066 0.012799 0.011574
0.021325 0.015267 0.011574
0.119542 0.034809 0.011744
0.309370 0.092977 0.012535
0.516928 0.191879 0.014428
0.721351 0.302498 0.019307
0.881045 0.415827 0.030621
1.000000 0.542914 0.050419
1.000000 0.658711 0.077997
0.018140 0.070628 0.011574
0.022511 0.079811 0.011574
0.124560 0.113772 0.011854
0.312787 0.180021 0.012757
0.519531 0.264465 0.014733
0.722785 0.362017 0.019992
0.882218 0.471724 0.031668
1.000000 0.585349 0.051764
1.000000 0.697586 0.079369
0.018625 0.223481 0.011648
0.025280 0.231742 0.011742
0.133945 0.261445 0.012069
0.319065 0.314173 0.013121
0.524313 0.380311 0.015426
0.725415 0.466295 0.021253
0.884373 0.563138 0.033621
1.000000 0.659853 0.054243
1.000000 0.758197 0.081910
0.019991 0.400199 0.011971
0.031798 0.406693 0.012058
0.146633 0.429860 0.012609
0.328430 0.471868 0.013771
0.531441 0.532604 0.016629
0.729331 0.597230 0.023220
0.887587 0.674916 0.036604
1.000000 0.756620 0.057965
1.000000 0.828956 0.085751
0.023947 0.588528 0.012623
0.042961 0.593262 0.012795
0.161794 0.610122 0.013336
0.341041 0.640581 0.014900
0.541030 0.684903 0.018475
0.734590 0.740639 0.026608
0.891910 0.792213 0.041074
1.000000 0.851028 0.063122
1.000000 0.916004 0.091014
0.035256 0.762377 0.013625
0.061261 0.765422 0.013867
0.181244 0.776263 0.014694
0.357009 0.795827 0.016919
0.553155 0.824235 0.021635
0.741225 0.861149 0.031147
0.897380 0.905949 0.047115
1.000000 0.957867 0.069889
1.000000 1.000000 0.097826
0.055189 0.903956 0.015491
0.089261 0.906530 0.015779
0.205235 0.915716 0.017176
0.375027 0.932385 0.020198
0.567864 0.956784 0.026483
0.749251 0.983464 0.037364
0.904016 1.000000 0.054834
1.000000 1.000000 0.078252
1.000000 1.000000 0.106320
0.087106 1.000000 0.018782
0.122253 1.000000 0.019329
0.234011 1.000000 0.021290
0.394505 1.000000 0.025548
0.585184 1.000000 0.033257
0.758669 1.000000 0.045945
0.911832 1.000000 0.064294
1.000000 1.000000 0.087800
1.000000 1.000000 0.116595
0.018066 0.010120 0.016545
0.021121 0.010573 0.016948
0.118156 0.019731 0.018365
0.308418 0.070889 0.021847
0.516202 0.166610 0.028728
0.720951 0.282558 0.040304
0.880718 0.400227 0.058098
1.000000 0.530987 0.081570
1.000000 0.647846 0.109915
0.018066 0.012868 0.016686
0.021325 0.015364 0.017088
0.119542 0.035055 0.018500
0.309370 0.093290 0.022037
0.516928 0.192235 0.028990
0.721351 0.302774 0.040649
0.881045 0.416042 0.058479
1.000000 0.543079 0.081956
1.000000 0.658861 0.110332
0.018140 0.070950 0.017190
0.022511 0.080112 0.017587
0.124560 0.114102 0.019115
0.312787 0.180372 0.022722
0.519531 0.264742 0.029936
0.722785 0.362238 0.041897
0.882218 0.471935 0.059855
1.000000 0.585507 0.083346
1.000000 0.697732 0.111835
0.018625 0.223757 0.018101
0.025280 0.232018 0.018489
0.133945 0.261722 0.020376
0.319065 0.314401 0.024332
0.524313 0.380531 0.031841
0.725415 0.466506 0.044228
0.884373 0.563300 0.062416
1.000000 0.660003 0.085920
1.000000 0.758300 0.114615
0.019991 0.400416 0.019755
0.031798 0.406910 0.020301
0.146633 0.430074 0.022261
0.328430 0.472078 0.026855
0.531441 0.532770 0.034780
0.729331 0.597387 0.047796
0.887587 0.675064 0.066311
1.000000 0.756722 0.089809
1.000000 0.829049 0.118558
0.023947 0.588686 0.022302
0.042961 0.593420 0.022847
0.161794 0.610278 0.025430
0.341041 0.640733 0.030370
0.541030 0.685050 0.039006
0.734590 0.740744 0.052768
0.891910 0.792311 0.071697
1.000000 0.851119 0.095135
1.000000 0.916089 0.123737
0.035256 0.762479 0.026416
0.061261 0.765523 0.027153
0.181244 0.776363 0.029840
0.357009 0.795925 0.035400
0.553155 0.824329 0.044943
0.741225 0.861240 0.059171
0.897380 0.906035 0.078511
1.000000 0.957948 0.102025
1.000000 1.000000 0.130383
0.055189 0.904042 0.032031
0.089261 0.906615 0.032875
0.205235 0.915801 0.035959
0.375027 0.932469 0.042273
0.567864 0.956865 0.052585
0.749251 0.983514 0.067300
0.904016 1.000000 0.086541
1.000000 1.000000 0.110612
1.000000 1.000000 0.138590
0.087106 1.000000 0.039703
0.122253 1.000000 0.040689
0.234011 1.000000 0.044297
0.394505 1.000000 0.051211
0.585184 1.000000 0.061939
0.758669 1.000000 0.077281
0.911832 1.000000 0.096336
1.000000 1.000000 0.120578
1.000000 1.000000 0.148455
0.018066 0.010120 0.115491
0.021121 0.010655 0.116649
0.118156 0.020333 0.120618
0.308418 0.072052 0.127986
0.516202 0.167849 0.139159
0.720951 0.283551 0.154529
0.880718 0.401007 0.173453
1.000000 0.531585 0.196068
1.000000 0.648389 0.222360
0.018066 0.013112 0.115914
0.021325 0.015709 0.117034
0.119542 0.035942 0.121006
0.309370 0.094416 0.128378
0.516928 0.193296 0.139557
0.721351 0.303768 0.154935
0.881045 0.416816 0.173831
1.000000 0.543670 0.196452
1.000000 0.659400 0.222672
0.018140 0.072114 0.117315
0.022511 0.081192 0.118419
0.124560 0.115292 0.122399
0.312787 0.181634 0.129787
0.519531 0.265734 0.140988
0.722785 0.363034 0.156396
0.882218 0.472690 0.175189
1.000000 0.586077 0.197829
1.000000 0.698257 0.223792
0.018625 0.224747 0.119867
0.025280 0.233009 0.120975
0.133945 0.262714 0.124971
0.319065 0.315218 0.132388
0.524313 0.381318 0.143630
0.725415 0.467263 0.159089
0.884373 0.563880 0.177692
1.000000 0.660542 0.200367
1.000000 0.758667 0.225852
0.019991 0.401196 0.123703
0.031798 0.407687 0.124818
0.146633 0.430844 0.128837
0.328430 0.472833 0.136296
0.531441 0.533366 0.147598
0.729331 0.597952 0.163080
0.887587 0.675597 0.181444
1.000000 0.757091 0.204170
1.000000 0.829386 0.228930
0.023947 0.589255 0.128923
0.042961 0.593986 0.130046
0.161794 0.610837 0.134097
0.341041 0.641279 0.141611
0.541030 0.685580 0.152993
0.734590 0.741120 0.168102
0.891910 0.792663 0.186527
1.000000 0.851447 0.209322
1.000000 0.916394 0.233083
0.035256 0.762844 0.135620
0.061261 0.765888 0.136754
0.181244 0.776722 0.140843
0.357009 0.796275 0.148426
0.553155 0.824668 0.159907
0.741225 0.861564 0.174515
0.897380 0.906343 0.193016
1.000000 0.958240 0.215896
1.000000 1.000000 0.238355
0.055189 0.904351 0.143888
0.089261 0.906924 0.145035
0.205235 0.916106 0.149169
0.375027 0.932769 0.156833
0.567864 0.957157 0.167920
0.749251 0.983692 0.182386
0.904016 1.000000 0.200977
1.000000 1.000000 0.222880
1.000000 1.000000 0.244780
0.087106 1.000000 0.153821
0.122253 1.000000 0.154982
0.234011 1.000000 0.159169
0.394505 1.000000 0.166546
0.585184 1.000000 0.177228
0.758669 1.000000 0.191781
0.911832 1.000000 0.210475
1.000000 1.000000 0.230555
1.000000 1.000000 0.252385
0.018066 0.010120 0.301361
0.021121 0.010955 0.302228
0.118156 0.021446 0.305338
0.308418 0.074185 0.311053
0.516202 0.170134 0.319582
0.720951 0.285378 0.331072
0.880718 0.402441 0.345629
1.000000 0.532683 0.362431
1.000000 0.649389 0.381402
0.018066 0.013544 0.301664
0.021325 0.016335 0.302530
0.119542 0.037594 0.305640
0.309370 0.096498 0.311355
0.516928 0.195116 0.319883
0.721351 0.305436 0.331372
0.881045 0.418240 0.345928
1.000000 0.544756 0.362701
1.000000 0.660391 0.381669
0.018140 0.074241 0.302751
0.022511 0.083191 0.303617
0.124560 0.117490 0.306726
0.312787 0.183962 0.312439
0.519531 0.267560 0.320964
0.722785 0.364496 0.332449
0.882218 0.474079 0.347001
1.000000 0.587126 0.363672
1.000000 0.699221 0.382630
0.018625 0.226570 0.304751
0.025280 0.234833 0.305617
0.133945 0.264540 0.308723
0.319065 0.316722 0.314432
0.524313 0.382767 0.322952
0.725415 0.468655 0.334431
0.884373 0.564948 0.348974
1.000000 0.661532 0.365457
1.000000 0.759344 0.384397
0.019991 0.402630 0.307740
0.031798 0.409117 0.308605
0.146633 0.432258 0.311709
0.328430 0.474222 0.317412
0.531441 0.534462 0.325924
0.729331 0.598990 0.337392
0.887587 0.676577 0.351923
1.000000 0.757769 0.368124
1.000000 0.830005 0.387036
0.023947 0.590301 0.311774
0.042961 0.595028 0.312638
0.161794 0.611865 0.315738
0.341041 0.642284 0.321434
0.541030 0.686553 0.329936
0.734590 0.741813 0.341390
0.891910 0.793311 0.355667
1.000000 0.852051 0.371721
1.000000 0.916955 0.390597
0.035256 0.763517 0.316898
0.061261 0.766557 0.317760
0.181244 0.777383 0.320855
0.357009 0.796920 0.326542
0.553155 0.825291 0.335031
0.741225 0.862160 0.346468
0.897380 0.906910 0.360274
1.000000 0.958777 0.376286
1.000000 1.000000 0.395117
0.055189 0.904919 0.323146
0.089261 0.907490 0.324007
0.205235 0.916668 0.327096
0.375027 0.933320 0.332772
0.567864 0.957694 0.341245
0.749251 0.984019 0.352662
0.904016 1.000000 0.365885
1.000000 1.000000 0.381848
1.000000 1.000000 0.400624
0.087106 1.000000 0.330548
0.122253 1.000000 0.331407
0.234011 1.000000 0.334489
0.394505 1.000000 0.340153
0.585184 1.000000 0.348608
0.758669 1.000000 0.359400
0.911832 1.000000 0.372524
1.000000 1.000000 0.388430
1.000000 1.000000 0.407141
0.018066 0.010292 0.510204
0.021121 0.011376 0.510819
0.118156 0.023129 0.513027
0.308418 0.077108 0.517078
0.516202 0.173565 0.523116
0.720951 0.288112 0.531231
0.880718 0.404585 0.541484
1.000000 0.534323 0.553906
1.000000 0.650882 0.568514
0.018066 0.014392 0.510419
0.021325 0.017346 0.511034
0.119542 0.040109 0.513241
0.309370 0.099636 0.517292
0.516928 0.197839 0.523329
0.721351 0.307698 0.531443
0.881045 0.420368 0.541694
1.000000 0.546380 0.554115
1.000000 0.661873 0.568720
0.018140 0.077165 0.511191
0.022511 0.086206 0.511806
0.124560 0.120649 0.514011
0.312787 0.187457 0.518060
0.519531 0.270292 0.524093
0.722785 0.366682 0.532203
0.882218 0.476156 0.542448
1.000000 0.588692 0.554862
1.000000 0.700663 0.569460
0.018625 0.229298 0.512610
0.025280 0.237561 0.513224
0.133945 0.267272 0.515427
0.319065 0.318968 0.519472
0.524313 0.384932 0.525498
0.725415 0.470736 0.533600
0.884373 0.566544 0.543834
1.000000 0.663013 0.556236
1.000000 0.760354 0.570820
0.019991 0.404774 0.514730
0.031798 0.411254 0.515343
0.146633 0.434372 0.517543
0.328430 0.476299 0.521580
0.531441 0.536100 0.527598
0.729331 0.600542 0.535687
0.887587 0.678041 0.545906
1.000000 0.758781 0.558290
1.000000 0.830931 0.572853
0.023947 0.591863 0.517589
0.042961 0.596584 0.518201
0.161794 0.613401 0.520396
0.341041 0.643785 0.524425
0.541030 0.688007 0.530430
0.734590 0.742847 0.538502
0.891910 0.794278 0.548700
1.000000 0.852952 0.561060
1.000000 0.917794 0.575595
0.035256 0.764522 0.521217
0.061261 0.767559 0.521827
0.181244 0.778370 0.524016
0.357009 0.797883 0.528034
0.553155 0.826221 0.534023
0.741225 0.863051 0.542074
0.897380 0.907758 0.552246
1.000000 0.959579 0.564575
1.000000 1.000000 0.579076
0.055189 0.905769 0.525635
0.089261 0.908338 0.526243
0.205235 0.917506 0.528425
0.375027 0.934144 0.532430
0.567864 0.958498 0.538400
0.749251 0.984507 0.546425
0.904016 1.000000 0.556566
1.000000 1.000000 0.568858
1.000000 1.000000 0.583317
0.087106 1.000000 0.530862
0.122253 1.000000 0.531467
0.234011 1.000000 0.533641
0.394505 1.000000 0.537631
0.585184 1.000000 0.543577
0.758669 1.000000 0.551573
0.911832 1.000000 0.561677
1.000000 1.000000 0.573926
1.000000 1.000000 0.588335
0.018066 0.010653 0.716859
0.021121 0.012171 0.717331
0.118156 0.025758 0.719025
0.308418 0.081107 0.722135
0.516202 0.178228 0.726774
0.720951 0.291807 0.733015
0.880718 0.407479 0.740912
1.000000 0.536536 0.750495
1.000000 0.652897 0.761783
0.018066 0.015700 0.717024
0.021325 0.019557 0.717496
0.119542 0.043614 0.719189
0.309370 0.103918 0.722299
0.516928 0.201519 0.726937
0.721351 0.310749 0.733178
0.881045 0.423240 0.741073
1.000000 0.548569 0.750655
1.000000 0.663872 0.761942
0.018140 0.081164 0.717616
0.022511 0.090326 0.718088
0.124560 0.124932 0.719780
0.312787 0.192204 0.722889
0.519531 0.273984 0.727525
0.722785 0.369631 0.733763
0.882218 0.478959 0.741655
1.000000 0.590806 0.751233
1.000000 0.702609 0.762515
0.018625 0.232983 0.718705
0.025280 0.241249 0.719176
0.133945 0.270963 0.720867
0.319065 0.321998 0.723973
0.524313 0.387853 0.728605
0.725415 0.473546 0.734838
0.884373 0.568696 0.742724
1.000000 0.665010 0.752294
1.000000 0.761717 0.763567
0.019991 0.407667 0.720332
0.031798 0.414138 0.720803
0.146633 0.437226 0.722492
0.328430 0.479102 0.725594
0.531441 0.538310 0.730220
0.729331 0.602635 0.736445
0.887587 0.680018 0.744321
1.000000 0.760147 0.753880
1.000000 0.832179 0.765140
0.023947 0.593971 0.722527
0.042961 0.598685 0.722997
0.161794 0.615474 0.724683
0.341041 0.645811 0.727780
0.541030 0.689970 0.732399
0.734590 0.744242 0.738614
0.891910 0.795584 0.746476
1.000000 0.854169 0.756020
1.000000 0.918926 0.767262
0.035256 0.765878 0.725314
0.061261 0.768909 0.725783
0.181244 0.779702 0.727465
0.357009 0.799183 0.730555
0.553155 0.827477 0.735164
0.741225 0.864254 0.741366
0.897380 0.908902 0.749213
1.000000 0.960662 0.758737
1.000000 1.000000 0.769957
0.055189 0.906916 0.728711
0.089261 0.909481 0.729178
0.205235 0.918639 0.730856
0.375027 0.935256 0.733938
0.567864 0.959582 0.738535
0.749251 0.985167 0.744721
0.904016 1.000000 0.752548
1.000000 1.000000 0.762049
1.000000 1.000000 0.773242
0.087106 1.000000 0.732731
0.122253 1.000000 0.733197
0.234011 1.000000 0.734870
0.394505 1.000000 0.737943
0.585184 1.000000 0.742526
0.758669 1.000000 0.748694
0.911832 1.000000 0.756497
1.000000 1.000000 0.765970
1.000000 1.000000 0.777132
0.018066 0.011392 0.886563
0.021121 0.013356 0.886848
0.118156 0.029628 0.887874
0.308418 0.086271 0.889757
0.516202 0.184200 0.892567
0.720951 0.296506 0.896347
0.880718 0.411153 0.901129
1.000000 0.539345 0.906932
1.000000 0.655456 0.913767
0.018066 0.017412 0.886662
0.021325 0.022422 0.886948
0.119542 0.048332 0.887974
0.309370 0.109436 0.889857
0.516928 0.206201 0.892666
0.721351 0.314622 0.896445
0.881045 0.426887 0.901227
1.000000 0.551348 0.907029
1.000000 0.666411 0.913863
0.018140 0.086329 0.887021
0.022511 0.095640 0.887307
0.124560 0.130431 0.888332
0.312787 0.196962 0.890214
0.519531 0.278681 0.893022
0.722785 0.373375 0.896800
0.882218 0.482519 0.901579
1.000000 0.593489 0.907379
1.000000 0.705080 0.914210
0.018625 0.237672 0.887680
0.025280 0.245939 0.887966
0.133945 0.275659 0.888990
0.319065 0.325844 0.890871
0.524313 0.391563 0.893676
0.725415 0.477114 0.897451
0.884373 0.571428 0.902226
1.000000 0.667547 0.908021
1.000000 0.763448 0.914847
0.019991 0.411341 0.888666
0.031798 0.417801 0.888951
0.146633 0.440850 0.889973
0.328430 0.482662 0.891852
0.531441 0.541114 0.894654
0.729331 0.605293 0.898424
0.887587 0.682528 0.903193
1.000000 0.761881 0.908982
1.000000 0.833765 0.915799
0.023947 0.596648 0.889995
0.042961 0.601351 0.890280
0.161794 0.618105 0.891301
0.341041 0.648383 0.893176
0.541030 0.692463 0.895973
0.734590 0.746012 0.899737
0.891910 0.797242 0.904499
1.000000 0.855714 0.910277
1.000000 0.920363 0.917084
0.035256 0.767599 0.891683
0.061261 0.770624 0.891967
0.181244 0.781393 0.892986
0.357009 0.800833 0.894857
0.553155 0.829072 0.897648
0.741225 0.865782 0.901404
0.897380 0.910355 0.906156
1.000000 0.962038 0.911923
1.000000 1.000000 0.918716
0.055189 0.908372 0.893740
0.089261 0.910933 0.894023
0.205235 0.920077 0.895039
0.375027 0.936669 0.896906
0.567864 0.960959 0.899689
0.749251 0.986004 0.903436
0.904016 1.000000 0.908175
1.000000 1.000000 0.913928
1.000000 1.000000 0.920704
0.087106 1.000000 0.896175
0.122253 1.000000 0.896457
0.234011 1.000000 0.897470
0.394505 1.000000 0.899331
0.585184 1.000000 0.902106
0.758669 1.000000 0.905841
0.911832 1.000000 0.910567
1.000000 1.000000 0.916302
1.000000 1.000000 0.923058
0.018066 0.012736 1.000000
0.021121 0.015179 1.000000
0.118156 0.034588 1.000000
0.308418 0.092696 1.000000
0.516202 0.191558 1.000000
0.720951 0.302249 1.000000
0.880718 0.415633 1.000000
1.000000 0.542766 1.000000
1.000000 0.658576 1.000000
0.018066 0.020865 1.000000
0.021325 0.026487 1.000000
0.119542 0.054321 1.000000
0.309370 0.116280 1.000000
0.516928 0.211922 1.000000
0.721351 0.319341 1.000000
0.881045 0.431335 1.000000
1.000000 0.554735 1.000000
1.000000 0.669506 1.000000
0.018140 0.092755 1.000000
0.022511 0.102243 1.000000
0.124560 0.137224 1.000000
0.312787 0.202681 1.000000
0.519531 0.284420 1.000000
0.722785 0.377940 1.000000
0.882218 0.486862 1.000000
1.000000 0.596759 1.000000
1.000000 0.708094 1.000000
0.018625 0.243402 1.000000
0.025280 0.251671 1.000000
0.133945 0.281398 1.000000
0.319065 0.330531 1.000000
0.524313 0.396086 1.000000
0.725415 0.481467 1.000000
0.884373 0.574758 1.000000
1.000000 0.670640 1.000000
1.000000 0.765557 1.000000
0.019991 0.415821 1.000000
0.031798 0.422267 1.000000
0.146633 0.445270 1.000000
0.328430 0.487005 1.000000
0.531441 0.544531 1.000000
0.729331 0.608533 1.000000
0.887587 0.685588 1.000000
1.000000 0.763994 1.000000
1.000000 0.835698 1.000000
0.023947 0.599910 1.000000
0.042961 0.604601 1.000000
0.161794 0.621313 1.000000
0.341041 0.651519 1.000000
0.541030 0.695502 1.000000
0.734590 0.748170 1.000000
0.891910 0.799262 1.000000
1.000000 0.857599 1.000000
1.000000 0.922117 1.000000
0.035256 0.769697 1.000000
0.061261 0.772713 1.000000
0.181244 0.783454 1.000000
0.357009 0.802845 1.000000
0.553155 0.831016 1.000000
0.741225 0.867644 1.000000
0.897380 0.912128 1.000000
1.000000 0.963716 1.000000
1.000000 1.000000 1.000000
0.055189 0.910148 1.000000
0.089261 0.912705 1.000000
0.205235 0.921830 1.000000
0.375027 0.938392 1.000000
0.567864 0.962639 1.000000
0.749251 0.987025 1.000000
0.904016 1.000000 1.000000
1.000000 1.000000 1.000000
1.000000 1.000000 1.000000
0.087106 1.000000 1.000000
0.122253 1.000000 1.000000
0.234011 1.000000 1.000000
0.394505 1.000000 1.000000
0.585184 1.000000 1.000000
0.758669 1.000000 1.000000
0.911832 1.000000 1.000000
1.000000 1.000000 1.000000
1.000000 1.000000 1.000000
0.018066 0.014657 1.000000
0.021121 0.017782 1.000000
0.118156 0.040794 1.000000
0.308418 0.100483 1.000000
0.516202 0.198571 1.000000
0.720951 0.308305 1.000000
0.880718 0.420939 1.000000
1.000000 0.546815 1.000000
1.000000 0.662270 1.000000
0.018066 0.025304 1.000000
0.021325 0.032204 1.000000
0.119542 0.061740 1.000000
0.309370 0.124213 1.000000
0.516928 0.218717 1.000000
0.721351 0.324925 1.000000
0.881045 0.436603 1.000000
1.000000 0.558742 1.000000
1.000000 0.673172 1.000000
0.018140 0.100544 1.000000
0.022511 0.110236 1.000000
0.124560 0.145392 1.000000
0.312787 0.209472 1.000000
0.519531 0.291235 1.000000
0.722785 0.383345 1.000000
0.882218 0.492008 1.000000
1.000000 0.600630 1.000000
1.000000 0.711664 1.000000
0.018625 0.250206 1.000000
0.025280 0.258477 1.000000
0.133945 0.288212 1.000000
0.319065 0.336078 1.000000
0.524313 0.401442 1.000000
0.725415 0.486624 1.000000
0.884373 0.578698 1.000000
1.000000 0.674303 1.000000
1.000000 0.768053 1.000000
0.019991 0.421127 1.000000
0.031798 0.427557 1.000000
0.146633 0.450506 1.000000
0.328430 0.492151 1.000000
0.531441 0.548573 1.000000
0.729331 0.612369 1.000000
0.887587 0.689213 1.000000
1.000000 0.766495 1.000000
1.000000 0.837987 1.000000
0.023947 0.603771 1.000000
0.042961 0.608448 1.000000
0.161794 0.625111 1.000000
0.341041 0.655232 1.000000
0.541030 0.699102 1.000000
0.734590 0.750723 1.000000
0.891910 0.801655 1.000000
1.000000 0.859830 1.000000
1.000000 0.924194 1.000000
0.035256 0.772180 1.000000
0.061261 0.775186 1.000000
0.181244 0.785894 1.000000
0.357009 0.805227 1.000000
0.553155 0.833317 1.000000
0.741225 0.869850 1.000000
0.897380 0.914227 1.000000
1.000000 0.965705 1.000000
1.000000 1.000000 1.000000
0.055189 0.912252 1.000000
0.089261 0.914803 1.000000
0.205235 0.923908 1.000000
0.375027 0.940433 1.000000
0.567864 0.964630 1.000000
0.749251 0.988234 1.000000
0.904016 1.000000 1.000000
1.000000 1.000000 1.000000
1.000000 1.000000 1.000000
0.087106 1.000000 1.000000
0.122253 1.000000 1.000000
0.234011 1.000000 1.000000
0.394505 1.000000 1.000000
0.585184 1.000000 1.000000
0.758669 1.000000 1.000000
0.911832 1.000000 1.000000
1.000000 1.000000 1.000000
1.000000 1.000000 1.000000
