ektachrome100d/Ektachrome100D_Modern_IlfochromeP.cube
TITLE "Kodak Ektachrome 100D Modern IlfochromeP"
# Adobe RGB in/out. REPLACES AgX. Kodak Ektachrome 100D Modern IlfochromeP.
LUT_3D_SIZE 33
DOMAIN_MIN 0.0 0.0 0.0
DOMAIN_MAX 1.0 1.0 1.0
0.138981 0.101282 0.098429
0.144170 0.109696 0.100482
0.158984 0.120028 0.102252
0.184251 0.132119 0.104197
0.220481 0.149193 0.105971
0.271597 0.169441 0.108775
0.322307 0.191369 0.112814
0.365820 0.213457 0.116748
0.406709 0.237100 0.121040
0.446585 0.260783 0.126283
0.484028 0.283671 0.132104
0.519922 0.306277 0.138139
0.556914 0.328389 0.144012
0.593060 0.349797 0.150731
0.626302 0.371019 0.157140
0.653287 0.391919 0.163253
0.679162 0.412202 0.169091
0.703996 0.431889 0.176220
0.724746 0.450998 0.183602
0.742339 0.470028 0.190753
0.759154 0.486705 0.197683
0.775273 0.502885 0.204411
0.790769 0.518503 0.211409
0.804168 0.533272 0.218383
0.815722 0.547624 0.225189
0.826818 0.561572 0.231831
0.837481 0.575128 0.238421
0.847734 0.588178 0.245045
0.857600 0.599590 0.251514
0.867096 0.610658 0.257829
0.873761 0.621392 0.263993
0.880012 0.631804 0.270008
0.885982 0.641902 0.275876
0.139175 0.113842 0.099552
0.142125 0.112886 0.100081
0.153527 0.120899 0.101754
0.177333 0.133014 0.103811
0.212780 0.149901 0.105700
0.264441 0.169932 0.108466
0.316451 0.191686 0.112390
0.361332 0.213788 0.116338
0.403008 0.237478 0.120645
0.443530 0.261162 0.125895
0.481533 0.284037 0.131773
0.517786 0.306635 0.137823
0.554904 0.328725 0.143744
0.591287 0.350111 0.150450
0.625036 0.371324 0.156894
0.652163 0.392205 0.163036
0.678156 0.412470 0.168898
0.703090 0.432139 0.175982
0.724114 0.451234 0.183385
0.741768 0.470234 0.190554
0.758636 0.486898 0.197500
0.774802 0.503069 0.204243
0.790340 0.518673 0.211240
0.803851 0.533435 0.218227
0.815432 0.547780 0.225044
0.826552 0.561721 0.231696
0.837237 0.575272 0.238290
0.847509 0.588302 0.244922
0.857392 0.599709 0.251399
0.866904 0.610773 0.257721
0.873634 0.621503 0.263892
0.879894 0.631911 0.269913
0.885881 0.642006 0.275787
0.139789 0.129715 0.100668
0.143385 0.128877 0.101068
0.150632 0.127578 0.101679
0.165507 0.135886 0.103144
0.195811 0.151916 0.105053
0.243586 0.171388 0.107540
0.298440 0.192744 0.111114
0.346717 0.215077 0.115038
0.390969 0.238883 0.119475
0.433374 0.262546 0.124606
0.473105 0.285360 0.130656
0.510487 0.307924 0.136743
0.547981 0.329933 0.142822
0.585136 0.351239 0.149478
0.620620 0.372420 0.156039
0.648224 0.393229 0.162276
0.674618 0.413428 0.168219
0.699894 0.433038 0.175145
0.721879 0.452078 0.182620
0.739744 0.470970 0.189852
0.756795 0.487592 0.196853
0.773128 0.503730 0.203648
0.788812 0.519283 0.210640
0.802723 0.534018 0.217671
0.814400 0.548339 0.224528
0.825605 0.562258 0.231216
0.836365 0.575788 0.237821
0.846706 0.588746 0.244484
0.856649 0.600137 0.250989
0.866216 0.611185 0.257337
0.873181 0.621901 0.263532
0.879474 0.632296 0.269575
0.885519 0.642379 0.275469
0.140303 0.154022 0.101597
0.144191 0.153281 0.101794
0.153329 0.151342 0.102511
0.164039 0.150067 0.103307
0.182864 0.157197 0.104512
0.221968 0.174461 0.106466
0.274532 0.195534 0.109559
0.326132 0.218021 0.113595
0.373266 0.241757 0.118003
0.417572 0.265235 0.122869
0.459533 0.287865 0.128867
0.498439 0.310331 0.134971
0.536355 0.332172 0.141278
0.574655 0.353320 0.147828
0.611351 0.374435 0.154569
0.641356 0.395110 0.160959
0.668407 0.415188 0.167033
0.694251 0.434687 0.173675
0.717909 0.453626 0.181268
0.736135 0.472321 0.188606
0.753505 0.488865 0.195702
0.770127 0.504944 0.202586
0.786066 0.520403 0.209568
0.800690 0.535090 0.216675
0.812537 0.549366 0.223601
0.823893 0.563245 0.230352
0.834788 0.576738 0.236977
0.845250 0.589562 0.243694
0.855302 0.600923 0.250248
0.864968 0.611943 0.256643
0.872357 0.622633 0.262880
0.878710 0.633004 0.268962
0.884809 0.643064 0.274893
0.142317 0.183803 0.102727
0.146151 0.183012 0.102946
0.155979 0.180497 0.103522
0.169600 0.177847 0.104222
0.185710 0.176804 0.104995
0.209963 0.183509 0.106070
0.255539 0.202489 0.108589
0.306430 0.224003 0.112341
0.354566 0.246907 0.116460
0.399371 0.269711 0.121068
0.442794 0.291886 0.126726
0.483240 0.314069 0.132864
0.521519 0.335593 0.139294
0.560761 0.356470 0.145660
0.598658 0.377466 0.152600
0.631928 0.397929 0.159168
0.659784 0.417818 0.165399
0.686345 0.437148 0.171635
0.711716 0.455935 0.179377
0.730998 0.474333 0.186849
0.748802 0.490768 0.194072
0.765819 0.506758 0.201075
0.782111 0.522077 0.208012
0.797728 0.536691 0.215246
0.809836 0.550902 0.222267
0.821404 0.564720 0.229104
0.832491 0.578157 0.235763
0.843124 0.590782 0.242547
0.853333 0.602098 0.249172
0.863139 0.613076 0.255631
0.871148 0.623727 0.261928
0.877588 0.634062 0.268067
0.883766 0.644088 0.274049
0.144757 0.233074 0.104255
0.149401 0.231977 0.104425
0.160998 0.228123 0.104906
0.178289 0.221493 0.105474
0.196180 0.213398 0.106006
0.216560 0.210209 0.106971
0.245246 0.215716 0.108396
0.291807 0.234469 0.111590
0.337841 0.255373 0.115250
0.382101 0.276652 0.119541
0.425494 0.298002 0.124707
0.466932 0.319444 0.130857
0.505955 0.340404 0.137126
0.544832 0.360945 0.143363
0.583620 0.381625 0.150319
0.620601 0.401771 0.157048
0.649268 0.421385 0.163432
0.676582 0.440475 0.169500
0.702648 0.459050 0.177047
0.724519 0.477045 0.184663
0.742839 0.493341 0.192030
0.760325 0.509209 0.199168
0.777040 0.524337 0.206088
0.793040 0.538854 0.213423
0.806340 0.552975 0.220557
0.818173 0.566711 0.227499
0.829499 0.580073 0.234255
0.840350 0.592428 0.241062
0.850755 0.603683 0.247773
0.860742 0.614605 0.254314
0.869559 0.625204 0.260686
0.876110 0.635490 0.266895
0.882390 0.645471 0.272944
0.148331 0.280642 0.105580
0.152342 0.281412 0.105740
0.165708 0.276993 0.106148
0.184942 0.267358 0.106826
0.205167 0.256070 0.107518
0.228349 0.248765 0.108327
0.254097 0.246902 0.109594
0.283062 0.250215 0.111437
0.325846 0.267781 0.114619
0.368283 0.286661 0.118642
0.410025 0.306607 0.123223
0.451370 0.326819 0.129039
0.490383 0.346871 0.135036
0.528338 0.366942 0.141326
0.567588 0.387057 0.147940
0.605456 0.406742 0.154774
0.637520 0.425971 0.161274
0.665507 0.444731 0.167462
0.692228 0.463425 0.174415
0.716987 0.480507 0.182168
0.735850 0.496624 0.189676
0.753837 0.512333 0.196950
0.771013 0.527216 0.204000
0.787436 0.541606 0.211273
0.802136 0.555612 0.218528
0.814270 0.569244 0.225584
0.825871 0.582510 0.232449
0.836974 0.594520 0.239276
0.847611 0.605698 0.246085
0.857808 0.616548 0.252717
0.867594 0.627081 0.259177
0.874292 0.637305 0.265468
0.880693 0.647228 0.271594
0.150936 0.321501 0.107008
0.155223 0.322151 0.107230
0.169093 0.320625 0.107803
0.189596 0.309657 0.108298
0.212942 0.298105 0.108936
0.238288 0.288840 0.110071
0.265488 0.283560 0.111367
0.292811 0.282554 0.112938
0.320060 0.285404 0.114684
0.358254 0.300180 0.118181
0.397534 0.318006 0.122327
0.437423 0.336500 0.127609
0.476062 0.355250 0.133278
0.513406 0.374618 0.139462
0.551708 0.393931 0.145666
0.589791 0.412973 0.152522
0.625236 0.431674 0.159078
0.653715 0.449994 0.165340
0.680975 0.468516 0.171637
0.707129 0.484781 0.179502
0.728120 0.500666 0.187128
0.746596 0.516141 0.194523
0.764234 0.530747 0.201692
0.781091 0.544977 0.208880
0.797219 0.558840 0.216253
0.809795 0.572342 0.223423
0.821693 0.585489 0.230397
0.833070 0.597076 0.237238
0.843960 0.608158 0.244150
0.854392 0.618921 0.250881
0.864394 0.629372 0.257434
0.872161 0.639520 0.263814
0.878700 0.649373 0.270024
0.154436 0.362201 0.108612
0.158457 0.362768 0.108781
0.172413 0.359494 0.109378
0.193283 0.349874 0.110074
0.219365 0.339078 0.110947
0.247269 0.329175 0.111968
0.275427 0.321763 0.113172
0.302350 0.317730 0.114508
0.328247 0.317262 0.116392
0.354708 0.320001 0.118484
0.388183 0.332137 0.121883
0.426139 0.348594 0.126666
0.463748 0.366011 0.132090
0.500201 0.384152 0.137913
0.536876 0.402406 0.143733
0.574662 0.420596 0.150446
0.611427 0.438603 0.156980
0.641784 0.456357 0.163260
0.669439 0.474016 0.169298
0.696046 0.489936 0.176805
0.719958 0.505526 0.184511
0.738871 0.520586 0.191996
0.756935 0.534969 0.199262
0.774204 0.549003 0.206314
0.790726 0.562689 0.213814
0.804867 0.576031 0.221089
0.817067 0.588828 0.228167
0.828727 0.600114 0.235051
0.839881 0.611082 0.242022
0.850560 0.621739 0.248851
0.860793 0.632093 0.255499
0.869752 0.642150 0.261971
0.876441 0.651918 0.268269
0.158175 0.403840 0.110871
0.162181 0.402841 0.111012
0.175581 0.397441 0.111375
0.196870 0.388854 0.111999
0.224361 0.378600 0.112834
0.254241 0.368403 0.113797
0.283561 0.359729 0.114914
0.310578 0.353742 0.116458
0.336165 0.350728 0.118141
0.361488 0.350660 0.119979
0.386347 0.353255 0.122475
0.417463 0.363144 0.126215
0.453691 0.379050 0.131320
0.488879 0.395624 0.136758
0.523727 0.412588 0.142390
0.560743 0.429720 0.148660
0.597221 0.446874 0.155098
0.630269 0.464486 0.161342
0.658102 0.480566 0.167380
0.684978 0.496049 0.174209
0.710904 0.511267 0.181943
0.730929 0.525819 0.189477
0.749355 0.539928 0.196808
0.766987 0.553720 0.203934
0.783868 0.567191 0.211299
0.799618 0.580341 0.218660
0.812109 0.592516 0.225827
0.824046 0.603653 0.232802
0.835463 0.614484 0.239761
0.846392 0.625017 0.246682
0.856859 0.635256 0.253421
0.866892 0.645207 0.259982
0.873954 0.654877 0.266368
0.161956 0.439329 0.112865
0.165826 0.437991 0.112961
0.178666 0.433438 0.113294
0.200115 0.425994 0.113853
0.228413 0.416725 0.114590
0.259672 0.406962 0.115701
0.290020 0.397951 0.116976
0.317453 0.390658 0.118360
0.343245 0.385702 0.119852
0.367906 0.383359 0.121927
0.392214 0.383603 0.124210
0.417054 0.386197 0.127191
0.445588 0.394086 0.130953
0.479531 0.408983 0.136019
0.513223 0.424501 0.141403
0.548457 0.440448 0.147245
0.584287 0.456647 0.153533
0.619448 0.473177 0.159678
0.647355 0.488250 0.165658
0.674300 0.503195 0.171823
0.700388 0.517864 0.179531
0.723021 0.531895 0.187067
0.741721 0.545669 0.194421
0.759646 0.559169 0.201587
0.776831 0.572382 0.208792
0.793309 0.585301 0.216214
0.806937 0.596751 0.223449
0.819134 0.607712 0.230498
0.830802 0.618384 0.237429
0.841971 0.628771 0.244430
0.852670 0.638877 0.251251
0.862922 0.648705 0.257895
0.871281 0.658260 0.264362
0.165966 0.472908 0.114683
0.169468 0.471861 0.114786
0.182112 0.468264 0.115164
0.203166 0.461353 0.115809
0.231848 0.452844 0.116678
0.263968 0.443696 0.117715
0.295082 0.434756 0.118877
0.323000 0.426903 0.120216
0.349245 0.420780 0.121973
0.373665 0.416778 0.123849
0.397803 0.415050 0.126354
0.422024 0.415547 0.129156
0.446380 0.418078 0.132089
0.472044 0.424090 0.135678
0.504568 0.438174 0.140797
0.538049 0.452867 0.146252
0.573004 0.468574 0.152334
0.607648 0.482813 0.158325
0.637486 0.497134 0.164196
0.664306 0.511438 0.169928
0.690383 0.525294 0.177360
0.715365 0.538864 0.184848
0.734238 0.552239 0.192182
0.752371 0.565390 0.199350
0.769789 0.578296 0.206347
0.786517 0.590532 0.213824
0.801670 0.601556 0.221101
0.814097 0.612313 0.228202
0.825994 0.622800 0.235126
0.837387 0.633018 0.242152
0.848303 0.642970 0.249042
0.858766 0.652656 0.255756
0.868467 0.662080 0.262297
0.169990 0.502348 0.116866
0.173728 0.501459 0.116960
0.185907 0.498379 0.117288
0.206364 0.493153 0.117856
0.234885 0.486265 0.118631
0.267447 0.478435 0.119571
0.299001 0.470444 0.120863
0.327373 0.462258 0.122372
0.354140 0.455184 0.124018
0.378583 0.450051 0.126183
0.402844 0.446846 0.128601
0.426785 0.445662 0.131169
0.450678 0.446448 0.133919
0.473985 0.449050 0.137160
0.497655 0.453508 0.140557
0.529476 0.467579 0.145677
0.563436 0.480506 0.151518
0.597329 0.493773 0.157314
0.628669 0.507247 0.163033
0.655198 0.520628 0.168650
0.681105 0.533735 0.175494
0.706343 0.546769 0.182887
0.727075 0.559678 0.190157
0.745327 0.572421 0.197289
0.762899 0.584969 0.204270
0.779809 0.596194 0.211557
0.796077 0.606955 0.218847
0.809037 0.617475 0.225974
0.821131 0.627749 0.232934
0.832723 0.637774 0.239903
0.843836 0.647549 0.246844
0.854494 0.657073 0.253615
0.864719 0.666349 0.260216
0.174484 0.529837 0.118868
0.177733 0.529101 0.118950
0.189613 0.526536 0.119238
0.209720 0.522129 0.119741
0.237669 0.516210 0.120606
0.270353 0.509099 0.121718
0.301973 0.501572 0.122993
0.330793 0.494276 0.124527
0.357995 0.487740 0.126431
0.382812 0.482380 0.128562
0.407298 0.478479 0.130819
0.431218 0.476200 0.133201
0.454778 0.475585 0.136034
0.477674 0.476584 0.139051
0.500623 0.479075 0.142186
0.523676 0.482895 0.145701
0.555499 0.493762 0.151072
0.588491 0.506012 0.156648
0.620973 0.518463 0.162184
0.647087 0.530788 0.167653
0.672692 0.543204 0.173971
0.697734 0.555633 0.181228
0.720365 0.568011 0.188395
0.738644 0.580289 0.195453
0.756291 0.591853 0.202385
0.773313 0.602507 0.209466
0.789721 0.612967 0.216739
0.804047 0.623217 0.223865
0.816301 0.633248 0.230838
0.828061 0.643053 0.237732
0.839346 0.652628 0.244704
0.850177 0.661970 0.251514
0.860574 0.671078 0.258161
0.178660 0.555617 0.120965
0.181892 0.554982 0.121060
0.193268 0.552763 0.121391
0.213155 0.548912 0.121976
0.240682 0.543664 0.122796
0.272914 0.537423 0.123815
0.304406 0.530680 0.125286
0.333515 0.523934 0.126970
0.360993 0.517641 0.128854
0.386303 0.512072 0.130860
0.411094 0.507580 0.132981
0.435154 0.504448 0.135469
0.458551 0.502779 0.138169
0.481236 0.502593 0.140995
0.503851 0.503837 0.143935
0.526658 0.506407 0.147597
0.551216 0.510166 0.151402
0.581104 0.519292 0.156310
0.613064 0.530518 0.161645
0.640002 0.542015 0.166944
0.665211 0.553689 0.172809
0.689953 0.565458 0.179897
0.714176 0.577251 0.186928
0.732420 0.588807 0.193879
0.750065 0.599210 0.200730
0.767128 0.609485 0.207553
0.783614 0.619606 0.214822
0.799205 0.629552 0.221920
0.811580 0.639310 0.228880
0.823472 0.648868 0.235696
0.834899 0.658219 0.242666
0.845878 0.667356 0.249497
0.856426 0.676276 0.256172
0.183248 0.580247 0.123194
0.186503 0.579698 0.123279
0.197337 0.577768 0.123577
0.216850 0.574394 0.124162
0.243679 0.569742 0.125102
0.275250 0.564121 0.126286
0.306442 0.557926 0.127745
0.335674 0.551573 0.129382
0.363345 0.545460 0.131162
0.389086 0.539935 0.133062
0.414209 0.535280 0.135304
0.438498 0.531702 0.137736
0.461881 0.529335 0.140287
0.484503 0.528246 0.142951
0.506927 0.528434 0.146076
0.529667 0.529852 0.149570
0.553856 0.532413 0.153182
0.578175 0.536006 0.156895
0.606239 0.543587 0.161398
0.633909 0.554246 0.166515
0.658665 0.565151 0.172008
0.683035 0.576222 0.178904
0.706967 0.587359 0.185773
0.726718 0.597337 0.192589
0.744293 0.607274 0.199332
0.761333 0.617132 0.205984
0.777835 0.626879 0.213129
0.793800 0.636490 0.220172
0.807032 0.645945 0.227096
0.819021 0.655229 0.233890
0.830557 0.664331 0.240766
0.841656 0.673241 0.247597
0.852330 0.681791 0.254284
0.187972 0.601973 0.125636
0.190885 0.601547 0.125732
0.201307 0.600048 0.126072
0.220533 0.597411 0.126697
0.246640 0.593737 0.127608
0.277432 0.589236 0.128765
0.308181 0.583834 0.130131
0.337385 0.577916 0.131673
0.365151 0.572081 0.133358
0.391232 0.566640 0.135413
0.416667 0.561859 0.137617
0.441222 0.557946 0.139935
0.464687 0.555054 0.142360
0.487357 0.553274 0.145065
0.509713 0.552648 0.148260
0.532489 0.553168 0.151582
0.556417 0.554786 0.155020
0.580416 0.557427 0.158563
0.604480 0.561000 0.162193
0.628727 0.567385 0.166346
0.653008 0.577519 0.171551
0.676965 0.587796 0.178242
0.700553 0.597164 0.184930
0.721567 0.606593 0.191591
0.739016 0.616033 0.198204
0.755977 0.625443 0.204749
0.772442 0.634785 0.211683
0.788406 0.644031 0.218649
0.802708 0.653155 0.225513
0.814758 0.662140 0.232264
0.826371 0.670968 0.239033
0.837559 0.679629 0.245846
0.848334 0.686770 0.252525
0.192428 0.621955 0.128192
0.195350 0.621585 0.128285
0.205270 0.620278 0.128612
0.224194 0.617968 0.129199
0.249579 0.614722 0.130040
0.279508 0.610704 0.131115
0.309698 0.606137 0.132395
0.338742 0.601276 0.133899
0.366504 0.596381 0.135741
0.392824 0.591699 0.137727
0.418522 0.587447 0.139835
0.443337 0.583408 0.142053
0.466941 0.580176 0.144438
0.489731 0.577901 0.147371
0.512111 0.576647 0.150426
0.535004 0.576436 0.153600
0.558773 0.577254 0.156886
0.582543 0.579059 0.160275
0.606308 0.581785 0.163753
0.628074 0.585352 0.167309
0.648162 0.590319 0.171412
0.671694 0.598914 0.177893
0.694907 0.607671 0.184391
0.716967 0.616537 0.190884
0.734249 0.625462 0.197350
0.751086 0.634400 0.203769
0.767468 0.643313 0.210497
0.783386 0.652168 0.217365
0.798646 0.660938 0.224150
0.810722 0.669598 0.230839
0.822380 0.678132 0.237490
0.833629 0.685485 0.244266
0.844477 0.692133 0.250922
0.197173 0.640990 0.130634
0.199905 0.640667 0.130718
0.209650 0.639524 0.131019
0.227820 0.637495 0.131560
0.252500 0.634627 0.132340
0.281511 0.631045 0.133342
0.311049 0.626927 0.134699
0.339820 0.622484 0.136283
0.367486 0.617936 0.138037
0.393942 0.613498 0.139936
0.419837 0.609367 0.141957
0.444883 0.605713 0.144091
0.468648 0.602673 0.146794
0.491595 0.600353 0.149616
0.514062 0.598825 0.152553
0.537121 0.598128 0.155600
0.560821 0.598274 0.158753
0.584448 0.599246 0.162005
0.607992 0.601008 0.165346
0.629245 0.603509 0.168768
0.648143 0.606687 0.172908
0.667146 0.610660 0.177832
0.689979 0.618818 0.184138
0.712497 0.627120 0.190455
0.729985 0.635520 0.196764
0.746666 0.643973 0.203045
0.762929 0.652440 0.209575
0.778763 0.660886 0.216329
0.794162 0.669280 0.223017
0.806941 0.677597 0.229627
0.818615 0.684914 0.236155
0.829897 0.691455 0.242877
0.840794 0.697875 0.249492
0.201755 0.659126 0.132934
0.204246 0.658843 0.133013
0.214096 0.657842 0.133291
0.231398 0.656059 0.133832
0.255404 0.653523 0.134667
0.283463 0.650333 0.135748
0.312278 0.646630 0.137053
0.340682 0.642589 0.138554
0.368166 0.638396 0.140226
0.394659 0.634238 0.142043
0.420680 0.630288 0.143985
0.445909 0.626703 0.146453
0.469833 0.623614 0.149063
0.492948 0.621128 0.151789
0.515539 0.619322 0.154623
0.538785 0.618249 0.157561
0.562487 0.617934 0.160598
0.586047 0.618381 0.163730
0.609446 0.619572 0.166949
0.630280 0.621475 0.170248
0.649004 0.624042 0.174769
0.667625 0.627223 0.179482
0.686150 0.630959 0.184296
0.707876 0.638279 0.190287
0.726199 0.646157 0.196434
0.742703 0.654121 0.202568
0.758821 0.662134 0.208913
0.774543 0.670158 0.215540
0.789860 0.678163 0.222119
0.803431 0.685161 0.228636
0.815095 0.691528 0.235076
0.826386 0.697808 0.241689
0.837307 0.703988 0.248248
0.206360 0.676407 0.135346
0.209029 0.676159 0.135429
0.218670 0.675281 0.135727
0.234916 0.673712 0.136264
0.258285 0.671471 0.137045
0.285375 0.668633 0.138061
0.313416 0.665313 0.139292
0.341374 0.661654 0.140718
0.368601 0.657813 0.142313
0.395041 0.653951 0.144053
0.421115 0.650222 0.146314
0.446472 0.646768 0.148717
0.470537 0.643711 0.151243
0.493812 0.641154 0.153882
0.516539 0.639177 0.156625
0.539969 0.637840 0.159468
0.563724 0.637178 0.162405
0.587276 0.637209 0.165432
0.610596 0.637929 0.168543
0.631119 0.639322 0.172191
0.649714 0.641356 0.176653
0.668186 0.643992 0.181231
0.686551 0.647183 0.185911
0.704814 0.650881 0.190683
0.722854 0.657314 0.196342
0.739171 0.664796 0.202327
0.755129 0.672353 0.208499
0.770719 0.679951 0.214994
0.785931 0.686323 0.221454
0.800198 0.692446 0.227866
0.811831 0.698522 0.234217
0.823109 0.704532 0.240708
0.834033 0.710463 0.247200
0.211187 0.690613 0.137711
0.213817 0.690438 0.137789
0.223096 0.689816 0.138066
0.238422 0.688701 0.138569
0.261138 0.687103 0.139302
0.287256 0.685066 0.140258
0.314483 0.682665 0.141423
0.341933 0.679733 0.142778
0.368839 0.676235 0.144350
0.395144 0.672677 0.146375
0.421201 0.669194 0.148559
0.446626 0.665913 0.150883
0.470804 0.662948 0.153331
0.494216 0.660395 0.155891
0.517076 0.658334 0.158554
0.540668 0.656827 0.161312
0.564505 0.655917 0.164161
0.588093 0.655630 0.167096
0.611390 0.655974 0.170111
0.631712 0.656945 0.174200
0.650222 0.658523 0.178539
0.668585 0.660683 0.182992
0.686823 0.663387 0.187549
0.704948 0.666595 0.192201
0.720981 0.670266 0.196935
0.736035 0.675941 0.202304
0.751826 0.682679 0.208315
0.767272 0.688476 0.214680
0.782364 0.694289 0.221014
0.797096 0.700095 0.227314
0.808825 0.705874 0.233566
0.820071 0.711608 0.239936
0.830980 0.717282 0.246349
0.216191 0.703239 0.139950
0.218723 0.703086 0.140023
0.227369 0.702543 0.140283
0.242303 0.701566 0.140754
0.263954 0.700161 0.141444
0.289107 0.698363 0.142346
0.315496 0.696231 0.143450
0.342389 0.693843 0.144882
0.368918 0.691288 0.146648
0.395016 0.688662 0.148596
0.420989 0.686059 0.150704
0.446425 0.683571 0.152954
0.470680 0.681282 0.155328
0.494198 0.678832 0.157815
0.517175 0.676757 0.160404
0.540894 0.675158 0.163087
0.564828 0.674084 0.165857
0.588478 0.673565 0.168710
0.611794 0.673619 0.172067
0.632025 0.674250 0.176177
0.650488 0.675451 0.180406
0.668777 0.677203 0.184747
0.686921 0.679481 0.189191
0.704939 0.682034 0.193730
0.720884 0.684647 0.198354
0.734560 0.687599 0.203054
0.748879 0.691662 0.208359
0.764175 0.697107 0.214582
0.779139 0.702586 0.220788
0.793763 0.708077 0.226971
0.806069 0.713559 0.233118
0.817271 0.719014 0.239369
0.828151 0.724426 0.245696
0.221060 0.715215 0.142069
0.223414 0.715082 0.142137
0.231488 0.714607 0.142382
0.246091 0.713752 0.142826
0.266726 0.712518 0.143476
0.290927 0.710933 0.144385
0.316464 0.709044 0.145656
0.342761 0.706916 0.147148
0.368868 0.704624 0.148842
0.394697 0.702248 0.150716
0.420527 0.699870 0.152752
0.445915 0.697572 0.154931
0.470210 0.695427 0.157236
0.493797 0.693505 0.159655
0.516867 0.691863 0.162175
0.540669 0.690552 0.164788
0.564699 0.689609 0.167488
0.588426 0.689064 0.170267
0.611789 0.688936 0.174092
0.632032 0.689232 0.178107
0.650479 0.689954 0.182238
0.668727 0.691093 0.186477
0.686809 0.692636 0.190818
0.704748 0.694563 0.195254
0.720666 0.696850 0.199777
0.734268 0.699473 0.204376
0.747709 0.702402 0.209318
0.761400 0.706023 0.214686
0.776231 0.711177 0.220763
0.790740 0.716358 0.226827
0.803555 0.721546 0.232865
0.814701 0.726724 0.239001
0.825540 0.731874 0.245235
0.225702 0.726573 0.144077
0.227896 0.726456 0.144155
0.235450 0.726041 0.144434
0.249777 0.725294 0.144942
0.269444 0.724213 0.145687
0.292715 0.722819 0.146670
0.317394 0.721151 0.147882
0.343067 0.719262 0.149309
0.368714 0.717214 0.150934
0.394220 0.715078 0.152740
0.419851 0.712922 0.154707
0.445140 0.710819 0.156817
0.469435 0.708835 0.159056
0.493053 0.707031 0.161409
0.516187 0.705461 0.163865
0.540020 0.704174 0.166414
0.564137 0.703207 0.169048
0.587942 0.702589 0.172232
0.611369 0.702343 0.176047
0.631721 0.702481 0.179978
0.650176 0.703008 0.184020
0.668410 0.703921 0.188168
0.686457 0.705214 0.192417
0.704344 0.706871 0.196759
0.720304 0.708876 0.201187
0.733849 0.711206 0.205693
0.747229 0.713841 0.210657
0.760450 0.716756 0.215731
0.773611 0.720024 0.220923
0.788003 0.724904 0.226868
0.801265 0.729806 0.232795
0.812350 0.734709 0.238822
0.823140 0.739600 0.244959
0.230125 0.737340 0.146380
0.232174 0.737239 0.146454
0.239446 0.736877 0.146718
0.253355 0.736225 0.147200
0.272102 0.735280 0.147908
0.294466 0.734057 0.148844
0.318288 0.732589 0.150001
0.343318 0.730920 0.151367
0.368474 0.729101 0.152929
0.393612 0.727191 0.154668
0.418997 0.725252 0.156569
0.444137 0.723345 0.158615
0.468395 0.721530 0.160790
0.492003 0.719861 0.163081
0.515169 0.718388 0.165476
0.538980 0.717156 0.167964
0.563167 0.716202 0.170564
0.587043 0.715555 0.174184
0.610542 0.715238 0.177925
0.631088 0.715266 0.181779
0.649568 0.715647 0.185742
0.667809 0.716385 0.189809
0.685843 0.717475 0.193973
0.703701 0.718908 0.198229
0.719775 0.720673 0.202571
0.733281 0.722751 0.207011
0.746616 0.725125 0.211983
0.759788 0.727775 0.216969
0.772803 0.730680 0.222027
0.785663 0.733818 0.227148
0.799183 0.738303 0.232896
0.810203 0.742941 0.238821
0.820939 0.747576 0.244860
0.234335 0.747544 0.148565
0.236253 0.747456 0.148635
0.243650 0.747142 0.148886
0.256817 0.746574 0.149344
0.274692 0.745750 0.150018
0.296176 0.744682 0.150911
0.319148 0.743396 0.152017
0.343522 0.741928 0.153327
0.368163 0.740321 0.154828
0.392894 0.738626 0.156505
0.417991 0.736896 0.158343
0.442939 0.735183 0.160327
0.467123 0.733540 0.162440
0.490683 0.732017 0.164671
0.513846 0.730658 0.167007
0.537582 0.729506 0.169438
0.561817 0.728594 0.172496
0.585749 0.727952 0.176049
0.609320 0.727603 0.179721
0.630138 0.727563 0.183505
0.648653 0.727843 0.187396
0.666913 0.728450 0.191388
0.684953 0.729381 0.195476
0.702801 0.730634 0.199655
