ektachrome100d/Ektachrome100D_Classic_RadianceIII.cube
TITLE "Kodak Ektachrome 100D Classic RadianceIII"
# Adobe RGB in/out. REPLACES AgX. Kodak Ektachrome 100D Classic RadianceIII.
LUT_3D_SIZE 33
DOMAIN_MIN 0.0 0.0 0.0
DOMAIN_MAX 1.0 1.0 1.0
0.116088 0.122908 0.121239
0.116088 0.122908 0.121239
0.116088 0.122908 0.121239
0.116088 0.122908 0.121239
0.117109 0.122908 0.121239
0.123903 0.122908 0.121239
0.140526 0.122908 0.121239
0.161221 0.122908 0.121239
0.187897 0.124230 0.121239
0.221335 0.127481 0.121239
0.262414 0.132358 0.121239
0.301816 0.142843 0.121239
0.340798 0.157056 0.121239
0.381093 0.172849 0.121239
0.422534 0.191536 0.121239
0.463106 0.209779 0.121239
0.503673 0.227329 0.121239
0.543656 0.244749 0.121239
0.582830 0.264792 0.121239
0.622723 0.284766 0.121239
0.663182 0.304506 0.121239
0.701946 0.324611 0.122465
0.736329 0.344854 0.124684
0.770246 0.365473 0.126841
0.802075 0.387533 0.129800
0.830628 0.410669 0.133424
0.858624 0.434169 0.137249
0.876702 0.457815 0.142414
0.890891 0.481705 0.147927
0.904801 0.504079 0.153448
0.918445 0.525800 0.160061
0.930256 0.547200 0.167701
0.937717 0.568271 0.175446
0.116088 0.122908 0.121239
0.116088 0.122908 0.121239
0.116088 0.122908 0.121239
0.116088 0.122908 0.121239
0.117122 0.122908 0.121239
0.123935 0.122908 0.121239
0.140556 0.122908 0.121239
0.161256 0.122912 0.121239
0.187931 0.124547 0.121239
0.221374 0.127915 0.121239
0.262451 0.132960 0.121239
0.301849 0.143679 0.121239
0.340827 0.158055 0.121239
0.381121 0.173771 0.121239
0.422560 0.192510 0.121239
0.463130 0.210603 0.121239
0.503694 0.228130 0.121239
0.543675 0.245476 0.121239
0.582848 0.265569 0.121239
0.622741 0.285508 0.121239
0.663199 0.305200 0.121239
0.701960 0.325267 0.122474
0.736342 0.345483 0.124692
0.770258 0.366083 0.126848
0.802085 0.388168 0.129812
0.830637 0.411287 0.133435
0.858631 0.434762 0.137262
0.876706 0.458390 0.142430
0.890895 0.482247 0.147942
0.904804 0.504559 0.153462
0.918448 0.526265 0.160081
0.930258 0.547637 0.167720
0.937719 0.568659 0.175465
0.116088 0.122908 0.121239
0.116088 0.122908 0.121239
0.116088 0.122908 0.121239
0.116088 0.122908 0.121239
0.117170 0.122908 0.121239
0.124049 0.122908 0.121239
0.140667 0.122908 0.121239
0.161384 0.123314 0.121239
0.188054 0.125621 0.121239
0.221512 0.129411 0.121239
0.262584 0.135214 0.121239
0.301964 0.146629 0.121239
0.340934 0.161599 0.121239
0.381222 0.177499 0.121239
0.422650 0.195983 0.121239
0.463214 0.213631 0.121239
0.503772 0.230991 0.121239
0.543744 0.248073 0.121239
0.582914 0.268348 0.121239
0.622803 0.288045 0.121239
0.663258 0.307683 0.121239
0.702008 0.327617 0.122506
0.736386 0.347737 0.124721
0.770300 0.368265 0.126875
0.802118 0.390452 0.129855
0.830669 0.413504 0.133476
0.858655 0.436889 0.137306
0.876720 0.460454 0.142487
0.890909 0.484193 0.147997
0.904817 0.506279 0.153515
0.918460 0.527930 0.160150
0.930264 0.549209 0.167788
0.937725 0.570052 0.175531
0.116088 0.122908 0.121239
0.116088 0.122908 0.121239
0.116088 0.122908 0.121239
0.116088 0.122908 0.121239
0.117258 0.122908 0.121239
0.124257 0.122908 0.121239
0.140869 0.123218 0.121239
0.161619 0.124945 0.121239
0.188280 0.127850 0.121239
0.221768 0.131978 0.121239
0.262828 0.141035 0.121239
0.302177 0.153345 0.121239
0.341130 0.167955 0.121239
0.381407 0.184531 0.121239
0.422817 0.202273 0.121239
0.463370 0.219137 0.121239
0.503914 0.236084 0.121239
0.543871 0.253819 0.121239
0.583034 0.273413 0.121239
0.622918 0.292684 0.121239
0.663368 0.312216 0.121239
0.702098 0.331909 0.122564
0.736467 0.351859 0.124774
0.770377 0.372258 0.126924
0.802180 0.394642 0.129936
0.830727 0.417566 0.133552
0.858698 0.440786 0.137388
0.876747 0.464238 0.142593
0.890934 0.487761 0.148098
0.904841 0.509432 0.153612
0.918483 0.530924 0.160278
0.930276 0.552090 0.167913
0.937736 0.572605 0.175653
0.116088 0.122908 0.121239
0.116088 0.122908 0.121239
0.116088 0.122908 0.121239
0.116088 0.122908 0.121239
0.117387 0.123098 0.121239
0.124568 0.123751 0.121239
0.141171 0.125646 0.121239
0.161969 0.128269 0.121239
0.188617 0.131772 0.121239
0.222149 0.139362 0.121239
0.263193 0.149789 0.121239
0.302494 0.163180 0.121239
0.341422 0.177564 0.121239
0.381683 0.194510 0.121239
0.423067 0.210977 0.121239
0.463602 0.227182 0.121239
0.504127 0.243407 0.121239
0.544062 0.262050 0.121239
0.583215 0.280880 0.121239
0.623090 0.299675 0.121239
0.663532 0.318894 0.121239
0.702231 0.338259 0.122650
0.736589 0.358005 0.124854
0.770493 0.378605 0.126998
0.802273 0.400866 0.130056
0.830815 0.423603 0.133664
0.858763 0.446580 0.137510
0.876787 0.469867 0.142750
0.890972 0.492917 0.148249
0.904876 0.514120 0.153757
0.918516 0.535348 0.160469
0.930294 0.556377 0.168099
0.937753 0.576404 0.175834
0.116088 0.124050 0.121239
0.116088 0.124167 0.121239
0.116088 0.124579 0.121239
0.116088 0.125302 0.121239
0.117559 0.126311 0.121239
0.124985 0.128147 0.121239
0.141577 0.130628 0.121239
0.162441 0.134353 0.121239
0.189072 0.141946 0.121239
0.222664 0.151379 0.121239
0.263686 0.163205 0.121239
0.302924 0.175935 0.121239
0.341818 0.191525 0.121239
0.382057 0.207116 0.121239
0.423404 0.222101 0.121239
0.463916 0.237562 0.121239
0.504415 0.254099 0.121239
0.544319 0.272378 0.121239
0.583459 0.290503 0.121239
0.623322 0.308951 0.121239
0.663754 0.327690 0.121239
0.702412 0.346712 0.122767
0.736754 0.366199 0.124961
0.770649 0.387158 0.127097
0.802398 0.409193 0.130217
0.830933 0.431677 0.133816
0.858851 0.454342 0.137674
0.876842 0.477412 0.142962
0.891023 0.499405 0.148452
0.904924 0.520404 0.153952
0.918561 0.541280 0.160728
0.930318 0.562127 0.168351
0.937776 0.581498 0.176080
0.116088 0.130006 0.121239
0.116088 0.130148 0.121239
0.116088 0.130651 0.121239
0.116088 0.131550 0.121239
0.117774 0.133484 0.121239
0.125509 0.137117 0.121239
0.142090 0.142437 0.121239
0.163040 0.149024 0.121239
0.189650 0.158112 0.121239
0.223319 0.168150 0.121239
0.264313 0.179864 0.121239
0.303469 0.193587 0.121239
0.342320 0.207580 0.121239
0.382532 0.221257 0.121239
0.423833 0.235581 0.121239
0.464316 0.250339 0.121239
0.504780 0.267821 0.121239
0.544646 0.285165 0.121239
0.583770 0.302509 0.121239
0.623617 0.320446 0.121239
0.664036 0.338647 0.121239
0.702641 0.357300 0.122914
0.736963 0.376731 0.125097
0.770847 0.397923 0.127222
0.802557 0.419651 0.130422
0.831084 0.441724 0.134009
0.858963 0.464108 0.137882
0.876911 0.486647 0.143232
0.891088 0.507565 0.148711
0.904985 0.528313 0.154201
0.918619 0.548750 0.161056
0.930349 0.568913 0.168671
0.937805 0.587944 0.176392
0.116088 0.144246 0.121239
0.116088 0.144545 0.121239
0.116088 0.145612 0.121239
0.116088 0.147670 0.121239
0.118029 0.151398 0.121239
0.126142 0.156317 0.121239
0.142712 0.162392 0.121239
0.163768 0.169564 0.121239
0.190404 0.178347 0.121239
0.224117 0.189267 0.121239
0.265077 0.200698 0.121239
0.304134 0.212485 0.121239
0.342934 0.224777 0.121239
0.383111 0.237629 0.121239
0.424356 0.251328 0.121239
0.464803 0.267425 0.121239
0.505227 0.283554 0.121239
0.545045 0.299821 0.121239
0.584150 0.316757 0.121239
0.623977 0.334000 0.121239
0.664381 0.351710 0.121239
0.702922 0.369995 0.123094
0.737218 0.390015 0.125262
0.771089 0.410873 0.127374
0.802751 0.432224 0.130671
0.831268 0.453827 0.134243
0.859099 0.475884 0.138136
0.876995 0.497201 0.143560
0.891167 0.517399 0.149026
0.905060 0.537615 0.154504
0.918689 0.557764 0.161456
0.930387 0.576911 0.169061
0.937841 0.595738 0.176773
0.116088 0.168195 0.121239
0.116088 0.168537 0.121239
0.116088 0.169758 0.121239
0.116098 0.171987 0.121239
0.118324 0.175395 0.121239
0.126882 0.180582 0.121239
0.143479 0.187061 0.121239
0.164629 0.194539 0.121239
0.191303 0.203026 0.121239
0.225063 0.212048 0.121239
0.265984 0.221880 0.121239
0.304923 0.232582 0.121239
0.343661 0.243690 0.121239
0.383799 0.257122 0.121239
0.424977 0.271277 0.121239
0.465381 0.286057 0.121239
0.505757 0.301023 0.121239
0.545518 0.316785 0.121239
0.584600 0.332933 0.121239
0.624404 0.349613 0.121239
0.664789 0.366904 0.121239
0.703255 0.385659 0.123305
0.737521 0.405528 0.125456
0.771377 0.425962 0.127554
0.802982 0.446743 0.130966
0.831486 0.467961 0.134521
0.859261 0.489305 0.138514
0.877096 0.509042 0.143949
0.891261 0.528884 0.149399
0.905148 0.548480 0.154862
0.918772 0.567944 0.161930
0.930432 0.586285 0.169524
0.937883 0.604865 0.177225
0.116088 0.196979 0.121239
0.116088 0.197325 0.121239
0.116088 0.198566 0.121239
0.116157 0.200835 0.121239
0.118655 0.204200 0.121239
0.127728 0.208494 0.121239
0.144425 0.213627 0.121239
0.165622 0.219870 0.121239
0.192343 0.227110 0.121239
0.226159 0.235240 0.121239
0.267035 0.244003 0.121239
0.305838 0.254791 0.121239
0.344505 0.266793 0.121239
0.384596 0.279325 0.121239
0.425697 0.292354 0.121239
0.466052 0.306144 0.121239
0.506372 0.320583 0.121239
0.546068 0.335527 0.121239
0.585123 0.351067 0.121239
0.624901 0.367281 0.121239
0.665264 0.384950 0.121361
0.703641 0.403745 0.123548
0.737873 0.423154 0.125680
0.771710 0.442997 0.127762
0.803250 0.463286 0.131306
0.831740 0.483907 0.134841
0.859449 0.503383 0.138984
0.877212 0.522539 0.144400
0.891370 0.541657 0.149832
0.905251 0.560888 0.155278
0.918869 0.578966 0.162481
0.930484 0.597039 0.170061
0.937931 0.615304 0.177748
0.116088 0.225269 0.121239
0.116088 0.225561 0.121239
0.116088 0.226607 0.121239
0.116221 0.228522 0.121239
0.119020 0.231364 0.121239
0.128676 0.235100 0.121239
0.145493 0.239687 0.121239
0.166750 0.245193 0.121239
0.193527 0.252344 0.121239
0.227409 0.261095 0.121239
0.268233 0.270271 0.121239
0.306882 0.280385 0.121239
0.345468 0.291111 0.121239
0.385507 0.302713 0.121239
0.426519 0.315104 0.121239
0.466819 0.328103 0.121239
0.507074 0.341770 0.121239
0.546696 0.356121 0.121239
0.585721 0.371167 0.121239
0.625468 0.387948 0.121239
0.665806 0.405600 0.121660
0.704082 0.423900 0.123823
0.738274 0.442681 0.125934
0.772092 0.461959 0.128143
0.803555 0.481678 0.131693
0.832029 0.500532 0.135205
0.859664 0.518914 0.139519
0.877345 0.537408 0.144913
0.891495 0.555959 0.150324
0.905368 0.573872 0.155751
0.918979 0.591362 0.163108
0.930543 0.609102 0.170673
0.937987 0.627025 0.178346
0.116088 0.253997 0.121239
0.116088 0.254313 0.121239
0.116088 0.255448 0.121239
0.116287 0.257530 0.121239
0.119608 0.260434 0.121239
0.129845 0.264211 0.121239
0.146683 0.268966 0.121239
0.168013 0.274703 0.121239
0.194856 0.281418 0.121239
0.228896 0.288914 0.121239
0.269582 0.297280 0.121239
0.308057 0.306588 0.121239
0.346551 0.316750 0.121239
0.386532 0.327601 0.121239
0.427445 0.339218 0.121239
0.467682 0.351569 0.121239
0.507864 0.364712 0.121239
0.547403 0.378985 0.121239
0.586393 0.394670 0.121239
0.626106 0.411109 0.121239
0.666417 0.428232 0.121993
0.704579 0.445842 0.124129
0.738727 0.464038 0.126218
0.772521 0.482683 0.128603
0.803900 0.500560 0.132126
0.832356 0.518091 0.135657
0.859906 0.535816 0.140119
0.877495 0.553613 0.145489
0.891635 0.571070 0.150877
0.905500 0.587922 0.156379
0.919104 0.605070 0.163814
0.930610 0.622431 0.171362
0.938050 0.639991 0.179019
0.116088 0.285985 0.121239
0.116088 0.286252 0.121239
0.116088 0.287157 0.121239
0.116357 0.288801 0.121239
0.120471 0.291302 0.121239
0.131151 0.294742 0.121239
0.147992 0.299077 0.121239
0.169409 0.304318 0.121239
0.196330 0.310462 0.121239
0.230712 0.317495 0.121239
0.271083 0.325313 0.121239
0.309364 0.333975 0.121239
0.347758 0.343456 0.121239
0.387673 0.353742 0.121239
0.428476 0.364855 0.121239
0.468643 0.377014 0.121239
0.508745 0.390619 0.121239
0.548190 0.405051 0.121239
0.587143 0.420230 0.121239
0.626818 0.436072 0.121239
0.667098 0.452476 0.122359
0.705133 0.469533 0.124467
0.739232 0.486945 0.126530
0.773000 0.503498 0.129112
0.804284 0.520113 0.132605
0.832719 0.536930 0.136175
0.860175 0.553906 0.140785
0.877661 0.570621 0.146128
0.891792 0.586782 0.151491
0.905648 0.603275 0.157185
0.919243 0.620011 0.164600
0.930684 0.636976 0.172128
0.938120 0.654202 0.179836
0.116088 0.317570 0.121239
0.116088 0.317811 0.121239
0.116088 0.318675 0.121239
0.116805 0.320261 0.121239
0.121386 0.322623 0.121239
0.132725 0.325796 0.121239
0.149419 0.329802 0.121239
0.170960 0.334650 0.121239
0.197994 0.340343 0.121239
0.232714 0.346876 0.121239
0.272736 0.354257 0.121239
0.310805 0.362493 0.121239
0.349088 0.371530 0.121239
0.388932 0.382037 0.121239
0.429614 0.393513 0.121239
0.469703 0.405841 0.121239
0.509717 0.418969 0.121239
0.549059 0.432849 0.121239
0.587970 0.447334 0.121239
0.627603 0.462529 0.121239
0.667849 0.478398 0.122758
0.705744 0.494173 0.124836
0.739789 0.509336 0.126872
0.773529 0.524981 0.129669
0.804708 0.540761 0.133129
0.833121 0.556861 0.136743
0.860473 0.572552 0.141517
0.877846 0.587978 0.146831
0.891965 0.603758 0.152167
0.905810 0.619812 0.158072
0.919396 0.636126 0.165465
0.930767 0.652721 0.172973
0.938198 0.668401 0.180797
0.116088 0.349696 0.121239
0.116088 0.349921 0.121239
0.116163 0.350730 0.121239
0.117471 0.352218 0.121239
0.122346 0.354446 0.121239
0.134412 0.357443 0.121239
0.150958 0.361229 0.121239
0.172799 0.365819 0.121239
0.199962 0.371218 0.121239
0.234851 0.377791 0.121239
0.274545 0.385377 0.121239
0.312380 0.393851 0.121239
0.350544 0.403202 0.121239
0.390315 0.413401 0.121239
0.430859 0.424429 0.121239
0.470865 0.436208 0.121239
0.510782 0.448694 0.121239
0.550012 0.461934 0.121239
0.588877 0.475909 0.121239
0.628464 0.490218 0.121239
0.668673 0.503901 0.123189
0.706415 0.518023 0.125234
0.740399 0.532557 0.127241
0.774108 0.547288 0.130274
0.805172 0.562467 0.133699
0.833561 0.576862 0.137361
0.860799 0.591519 0.142316
0.878048 0.606536 0.147597
0.892154 0.621858 0.152904
0.905988 0.637470 0.159043
0.919564 0.653396 0.166412
0.930857 0.668424 0.173897
0.938282 0.683066 0.181849
0.116088 0.383552 0.121239
0.116088 0.383783 0.121239
0.116266 0.384613 0.121239
0.118146 0.386137 0.121239
0.123346 0.388410 0.121239
0.136205 0.391480 0.121239
0.152608 0.395369 0.121239
0.174785 0.400093 0.121239
0.202093 0.405661 0.121239
0.237142 0.412079 0.121239
0.276509 0.419346 0.121239
0.314092 0.427457 0.121239
0.352128 0.436344 0.121239
0.391819 0.446006 0.121239
0.432199 0.456469 0.121239
0.472128 0.467715 0.121239
0.511940 0.479676 0.121239
0.551047 0.491992 0.121239
0.589863 0.503907 0.121239
0.629401 0.516409 0.121604
0.669569 0.529454 0.123650
0.707144 0.542706 0.125661
0.741063 0.556456 0.127638
0.774739 0.570109 0.130926
0.805678 0.583521 0.134314
0.834040 0.597382 0.138029
0.861154 0.611596 0.143180
0.878267 0.626145 0.148427
0.892361 0.641013 0.153702
0.906182 0.656237 0.160096
0.919747 0.670336 0.167440
0.930955 0.684382 0.174900
0.938375 0.698625 0.182993
0.116106 0.420364 0.121239
0.116169 0.420584 0.121239
0.116365 0.421377 0.121239
0.118827 0.422833 0.121239
0.124969 0.425005 0.121239
0.138098 0.427931 0.121239
0.154364 0.431629 0.121239
0.176914 0.436082 0.121239
0.204389 0.441336 0.121239
0.239616 0.447396 0.121239
0.278629 0.454264 0.121239
0.315940 0.461939 0.121239
0.353849 0.470413 0.121239
0.393445 0.479630 0.121239
0.433647 0.489378 0.121239
0.473494 0.499113 0.121239
0.513193 0.509316 0.121239
0.552168 0.520141 0.121239
0.590930 0.531492 0.121239
0.630414 0.543187 0.122135
0.670539 0.555423 0.124141
0.707933 0.567820 0.126117
0.741782 0.579933 0.128255
0.775421 0.592517 0.131624
0.806225 0.605520 0.134973
0.834558 0.618902 0.138930
0.861539 0.632647 0.144109
0.878505 0.646744 0.149321
0.892584 0.660954 0.154562
0.906392 0.674132 0.161233
0.919945 0.687545 0.168549
0.931061 0.701180 0.175984
0.938475 0.715012 0.184229
0.116231 0.457869 0.121239
0.116286 0.458077 0.121239
0.117122 0.458824 0.121239
0.119802 0.460196 0.121239
0.126898 0.462245 0.121239
0.140085 0.465006 0.121239
0.156520 0.468503 0.121239
0.179186 0.472757 0.121239
0.206848 0.477778 0.121239
0.242273 0.483410 0.121239
0.280906 0.489788 0.121239
0.317915 0.496430 0.121239
0.355699 0.503609 0.121239
0.395194 0.511453 0.121239
0.435204 0.519950 0.121239
0.474963 0.529077 0.121239
0.514540 0.538587 0.121239
0.553373 0.548686 0.121239
0.592078 0.559358 0.121239
0.631505 0.570021 0.122694
0.671583 0.580768 0.124660
0.708782 0.592022 0.126599
0.742556 0.603731 0.129043
0.776156 0.615860 0.132367
0.806814 0.628394 0.135729
0.835116 0.641313 0.139966
0.861952 0.654647 0.145104
0.878761 0.667297 0.150277
0.892824 0.679788 0.155483
0.906618 0.692538 0.162454
0.920158 0.705534 0.169741
0.931176 0.718605 0.177148
0.938582 0.731528 0.185559
0.116350 0.495240 0.121239
0.116537 0.495416 0.121239
0.117991 0.496047 0.121239
0.121199 0.497206 0.121239
0.128906 0.498936 0.121239
0.142160 0.501267 0.121239
0.158997 0.504220 0.121239
0.181597 0.507809 0.121239
0.209470 0.512045 0.121239
0.245113 0.516934 0.121239
0.283341 0.522476 0.121239
0.320012 0.528672 0.121239
0.357677 0.535339 0.121239
0.397065 0.542629 0.121239
0.436870 0.550533 0.121239
0.476537 0.559041 0.121239
0.515984 0.567785 0.121239
0.554664 0.576629 0.121239
0.593309 0.585991 0.121338
0.632673 0.595880 0.123282
0.672702 0.606241 0.125206
0.709692 0.617058 0.127107
0.743385 0.628313 0.129876
0.776943 0.639991 0.133154
0.807446 0.652107 0.136583
0.835715 0.663990 0.141067
0.862396 0.675478 0.146163
0.879036 0.687261 0.151296
0.893082 0.699326 0.156626
0.906861 0.711659 0.163758
0.920386 0.723876 0.171014
0.931299 0.736199 0.178392
0.938698 0.748315 0.186982
0.117117 0.529680 0.121239
0.117519 0.529843 0.121239
0.118839 0.530427 0.121239
0.122598 0.531499 0.121239
0.131221 0.533101 0.121239
0.144459 0.535259 0.121239
0.161601 0.537993 0.121239
0.184144 0.541318 0.121239
0.212300 0.545244 0.121239
0.248138 0.549777 0.121239
0.285932 0.554919 0.121239
0.322244 0.560671 0.121239
0.359785 0.566769 0.121239
0.399060 0.573134 0.121239
0.438647 0.580035 0.121239
0.478209 0.587488 0.121239
0.517523 0.595480 0.121239
0.556041 0.603978 0.121239
0.594621 0.612971 0.121999
0.633921 0.622444 0.123896
0.673896 0.632382 0.125777
0.710664 0.642772 0.127640
0.744271 0.653639 0.130753
0.777784 0.664257 0.133983
0.808120 0.674677 0.137485
0.836353 0.685427 0.142235
0.862870 0.696493 0.147285
0.879329 0.707859 0.152377
0.893357 0.719326 0.158048
0.907120 0.730788 0.165146
0.920630 0.742491 0.172370
0.931430 0.753128 0.179777
0.938821 0.763382 0.188500
0.118101 0.563664 0.121239
0.118464 0.563818 0.121239
0.120120 0.564338 0.121239
0.124274 0.565272 0.121239
0.133880 0.566665 0.121239
0.146969 0.568543 0.121239
0.164328 0.570922 0.121239
0.186825 0.573816 0.121239
0.215346 0.577233 0.121239
0.251346 0.581178 0.121239
0.288529 0.585669 0.121239
0.324612 0.590706 0.121239
0.362023 0.596274 0.121239
0.401178 0.602370 0.121239
0.440534 0.608988 0.121239
0.479939 0.616118 0.121239
0.519160 0.623754 0.121239
0.557506 0.631883 0.121239
0.596017 0.640495 0.122684
0.635248 0.649599 0.124534
0.675167 0.659131 0.126372
0.711697 0.668071 0.128491
0.745212 0.677383 0.131673
0.778678 0.687052 0.134854
0.808837 0.697066 0.138509
0.837033 0.707410 0.143466
0.863373 0.717942 0.148471
0.879640 0.728480 0.153519
0.893649 0.739291 0.159555
0.907395 0.749693 0.166617
0.920890 0.759253 0.173807
0.931569 0.768990 0.181414
0.938952 0.778893 0.190094
0.119044 0.595118 0.121239
0.119523 0.595253 0.121239
0.121774 0.595737 0.121239
0.126798 0.596628 0.121239
0.136599 0.597958 0.121239
0.149563 0.599750 0.121239
0.167172 0.602023 0.121239
0.189637 0.604788 0.121239
0.218558 0.608054 0.121239
0.254739 0.611828 0.121239
0.291239 0.616114 0.121239
0.327116 0.620911 0.121239
0.364391 0.626218 0.121239
0.403421 0.632034 0.121239
0.442532 0.638353 0.121239
0.481771 0.645168 0.121239
0.520893 0.652509 0.121239
0.559057 0.660152 0.121587
0.597497 0.667544 0.123393
0.636654 0.675338 0.125196
0.676514 0.683523 0.126991
0.712792 0.692087 0.129506
0.746211 0.701018 0.132634
0.779627 0.710304 0.135832
0.809598 0.719730 0.139855
0.837754 0.729299 0.144761
0.863907 0.739168 0.149718
0.879971 0.748816 0.154722
0.893960 0.757628 0.161147
0.907687 0.766645 0.168172
0.921165 0.775853 0.175327
0.931717 0.785244 0.183148
0.939091 0.794158 0.191725
0.120701 0.626835 0.121239
0.121318 0.626964 0.121239
0.123397 0.627424 0.121239
0.129405 0.628271 0.121239
0.139370 0.629536 0.121239
0.152233 0.631242 0.121239
0.170130 0.633405 0.121239
0.192803 0.636037 0.121239
0.221934 0.639149 0.121239
0.258314 0.642745 0.121239
0.294092 0.646839 0.121239
0.329754 0.651439 0.121239
0.366888 0.656533 0.121239
0.405788 0.661742 0.121239
0.444641 0.667151 0.121239
0.483706 0.672985 0.121239
0.522724 0.679237 0.121239
0.560696 0.685899 0.122369
0.599060 0.692963 0.124124
0.638140 0.700420 0.125879
0.677937 0.708259 0.127630
0.713950 0.716402 0.130562
0.747266 0.724643 0.133635
0.780629 0.733216 0.136922
0.810401 0.742110 0.141265
0.838516 0.750499 0.146119
0.864472 0.758525 0.151027
0.880320 0.766779 0.155984
0.894288 0.775248 0.162822
0.907996 0.783924 0.169809
0.921457 0.792458 0.176927
0.931873 0.800108 0.184977
0.939238 0.807894 0.193446
0.122495 0.658773 0.121239
0.123063 0.658883 0.121239
0.126073 0.659277 0.121239
0.132432 0.660000 0.121239
0.142187 0.661080 0.121239
0.154977 0.662536 0.121239
0.173462 0.664383 0.121239
0.196114 0.666630 0.121239
0.225472 0.669287 0.121239
0.261745 0.672358 0.121239
0.297087 0.675846 0.121239
0.332527 0.679753 0.121239
0.369514 0.684080 0.121239
0.408279 0.688823 0.121239
0.446861 0.693980 0.121239
0.485744 0.699547 0.121239
0.524653 0.705518 0.121475
0.562422 0.711887 0.123169
0.600707 0.718494 0.124873
0.639706 0.725358 0.126582
0.679438 0.732579 0.128655
0.715153 0.740147 0.131656
0.748379 0.747740 0.134674
0.781687 0.754700 0.138055
0.811249 0.761915 0.142737
0.839319 0.769378 0.147537
0.865068 0.777076 0.152395
0.880688 0.785002 0.157772
0.894634 0.792753 0.164582
0.908321 0.799806 0.171529
0.921764 0.807014 0.178609
0.932038 0.814369 0.186902
0.939394 0.821863 0.195257
0.124711 0.687415 0.121239
0.125661 0.687519 0.121239
0.128951 0.687893 0.121239
0.135688 0.688581 0.121239
0.145279 0.689607 0.121239
0.158497 0.690992 0.121239
0.176980 0.692748 0.121239
0.199787 0.694886 0.121239
0.229309 0.697414 0.121239
0.265322 0.700337 0.121239
0.300224 0.703660 0.121239
0.335434 0.707384 0.121239
0.372270 0.711510 0.121239
0.410894 0.715985 0.121239
0.449192 0.720720 0.121239
0.487884 0.725833 0.121239
0.526679 0.731320 0.122347
0.564236 0.737175 0.123988
0.602438 0.743392 0.125641
0.641353 0.749357 0.127303
0.681017 0.755206 0.129846
0.716386 0.761332 0.132787
0.749549 0.767728 0.135814
0.782799 0.774385 0.139589
0.812140 0.781295 0.144270
0.840164 0.788449 0.149016
0.865694 0.795030 0.153821
0.881076 0.801458 0.159657
0.894998 0.808060 0.166424
0.908664 0.814827 0.173331
0.922087 0.821751 0.180540
0.932212 0.828824 0.188923
0.939557 0.836038 0.197158
0.127789 0.716005 0.121239
0.128680 0.716100 0.121239
0.132281 0.716443 0.121239
0.138958 0.717072 0.121239
0.148537 0.718012 0.121239
0.162143 0.719280 0.121239
0.180616 0.720888 0.121239
0.203777 0.722847 0.121239
0.233785 0.725164 0.121239
0.269058 0.727843 0.121239
0.303502 0.730890 0.121239
0.338474 0.734305 0.121239
0.375154 0.738090 0.121239
0.413633 0.742244 0.121239
0.451634 0.746651 0.121239
0.490126 0.750784 0.121669
0.528786 0.755217 0.123234
0.566138 0.759947 0.124821
0.604254 0.764967 0.126425
0.643081 0.770272 0.128219
0.682673 0.775855 0.131071
0.717681 0.781709 0.133953
0.750776 0.787827 0.137087
0.783966 0.793646 0.141239
0.813076 0.799240 0.145862
0.841051 0.805030 0.150552
0.866351 0.811007 0.155306
0.881482 0.817164 0.161626
0.895379 0.823494 0.168349
0.909024 0.829989 0.175214
0.922426 0.836642 0.182689
0.932394 0.843298 0.190982
0.939728 0.849641 0.199148
0.131090 0.743523 0.121239
0.132159 0.743613 0.121239
0.135871 0.743940 0.121239
0.142240 0.744539 0.121239
0.151838 0.745435 0.121239
0.165880 0.746547 0.121239
0.184366 0.747844 0.121239
0.207919 0.749424 0.121239
0.238293 0.751292 0.121239
0.272952 0.753452 0.121239
0.306920 0.755908 0.121239
0.341647 0.758660 0.121239
0.378166 0.761710 0.121239
0.416455 0.765057 0.121239
0.454187 0.768698 0.121239
0.492471 0.772633 0.122622
0.530888 0.776856 0.124132
0.568128 0.781366 0.125668
0.606154 0.786156 0.127224
0.644890 0.791128 0.129541
0.684408 0.795638 0.132330
0.719036 0.800366 0.135152
0.752062 0.805307 0.138463
