ektachrome100d/Ektachrome100D_Modern_Normal.cube
TITLE "Kodak Ektachrome 100D Modern Normal"
# Adobe RGB in/out. REPLACES AgX. Kodak Ektachrome 100D Modern Normal.
LUT_3D_SIZE 33
DOMAIN_MIN 0.0 0.0 0.0
DOMAIN_MAX 1.0 1.0 1.0
0.073574 0.072697 0.087608
0.073574 0.072697 0.087608
0.073574 0.072697 0.087608
0.074399 0.072697 0.087608
0.078742 0.072697 0.087608
0.090498 0.072714 0.087608
0.132244 0.072751 0.087608
0.222808 0.073013 0.087608
0.347152 0.073825 0.087608
0.439569 0.075781 0.087608
0.504667 0.080303 0.087608
0.552822 0.090250 0.087608
0.599608 0.102422 0.087608
0.662386 0.123165 0.087608
0.691620 0.168348 0.087608
0.721797 0.237906 0.087608
0.746125 0.313676 0.087608
0.778898 0.391323 0.087608
0.801132 0.438771 0.087613
0.816632 0.483029 0.087700
0.826918 0.526393 0.087799
0.844677 0.562320 0.087909
0.854010 0.598401 0.088031
0.862463 0.626827 0.088166
0.870533 0.647406 0.088293
0.878245 0.667518 0.088543
0.884577 0.687170 0.088840
0.890550 0.702889 0.089162
0.896266 0.716300 0.089751
0.901741 0.731266 0.090315
0.905983 0.745816 0.091141
0.909021 0.759960 0.092103
0.911689 0.772909 0.092794
0.073574 0.072697 0.087608
0.073574 0.072697 0.087608
0.073574 0.072697 0.087608
0.073904 0.072697 0.087608
0.077861 0.072697 0.087608
0.089032 0.072715 0.087608
0.123662 0.072751 0.087608
0.207483 0.073019 0.087608
0.336636 0.073846 0.087608
0.434852 0.075820 0.087608
0.501340 0.080386 0.087608
0.549999 0.090446 0.087608
0.596374 0.102671 0.087608
0.661073 0.123558 0.087608
0.689820 0.169155 0.087608
0.720737 0.239005 0.087608
0.745182 0.314445 0.087608
0.777684 0.392081 0.087608
0.800394 0.439579 0.087610
0.816280 0.483529 0.087697
0.826602 0.526815 0.087796
0.844303 0.562735 0.087906
0.853765 0.598811 0.088027
0.862241 0.627060 0.088163
0.870331 0.647630 0.088291
0.878061 0.667734 0.088537
0.884435 0.687379 0.088834
0.890419 0.703040 0.089150
0.896146 0.716461 0.089741
0.901630 0.731422 0.090306
0.905917 0.745967 0.091124
0.908968 0.760106 0.092088
0.911641 0.773025 0.092777
0.073574 0.072697 0.087608
0.073574 0.072697 0.087608
0.073574 0.072697 0.087608
0.073594 0.072697 0.087608
0.075652 0.072698 0.087608
0.083849 0.072717 0.087608
0.106503 0.072753 0.087608
0.171934 0.073043 0.087608
0.303982 0.073925 0.087608
0.418699 0.075959 0.087608
0.484033 0.080685 0.087608
0.540249 0.091151 0.087608
0.587808 0.103572 0.087608
0.651183 0.124979 0.087608
0.685917 0.172075 0.087608
0.717019 0.242982 0.087608
0.741863 0.317212 0.087608
0.773403 0.394677 0.087608
0.797786 0.442488 0.087608
0.815035 0.485324 0.087689
0.825481 0.528331 0.087785
0.842977 0.564229 0.087897
0.852894 0.600283 0.088016
0.861451 0.627894 0.088152
0.869612 0.648434 0.088281
0.877404 0.668511 0.088515
0.883925 0.688130 0.088814
0.889952 0.703583 0.089110
0.895716 0.717038 0.089704
0.901234 0.731980 0.090272
0.905683 0.746507 0.091066
0.908781 0.760629 0.092034
0.911468 0.773443 0.092716
0.073574 0.072699 0.087608
0.073574 0.072698 0.087608
0.073574 0.072698 0.087608
0.073585 0.072697 0.087608
0.074276 0.072701 0.087608
0.079056 0.072721 0.087608
0.092007 0.072758 0.087608
0.138079 0.073128 0.087608
0.243862 0.074127 0.087608
0.379346 0.076379 0.087608
0.460156 0.081252 0.087608
0.523982 0.092474 0.087608
0.573459 0.105253 0.087608
0.631830 0.127950 0.087608
0.678283 0.177558 0.087608
0.710532 0.250433 0.087608
0.736030 0.323824 0.087608
0.765855 0.398062 0.087608
0.793154 0.447852 0.087608
0.812129 0.488624 0.087673
0.823473 0.531121 0.087766
0.840597 0.566978 0.087879
0.851328 0.602994 0.087994
0.860027 0.629427 0.088133
0.868313 0.649913 0.088264
0.876216 0.669939 0.088475
0.883003 0.689511 0.088777
0.889105 0.704581 0.089065
0.894937 0.718100 0.089637
0.900516 0.733007 0.090210
0.905257 0.747501 0.090961
0.908441 0.761592 0.091936
0.911153 0.774210 0.092604
0.073574 0.072738 0.087608
0.073574 0.072737 0.087608
0.073574 0.072732 0.087608
0.073616 0.072727 0.087608
0.074529 0.072724 0.087608
0.077521 0.072737 0.087608
0.086265 0.072781 0.087608
0.112730 0.073317 0.087608
0.188013 0.074488 0.087608
0.326525 0.077214 0.087608
0.433719 0.082749 0.087608
0.503616 0.094157 0.087608
0.554934 0.108055 0.087608
0.606538 0.133294 0.087608
0.666522 0.186076 0.087608
0.699640 0.261956 0.087608
0.727918 0.334616 0.087608
0.755301 0.403143 0.087608
0.786603 0.452862 0.087608
0.807446 0.493676 0.087651
0.820597 0.535304 0.087740
0.837177 0.571098 0.087855
0.849066 0.607054 0.087964
0.857965 0.631719 0.088105
0.866427 0.652123 0.088239
0.874487 0.672073 0.088416
0.881659 0.691575 0.088724
0.887869 0.706023 0.089016
0.893797 0.719687 0.089539
0.899463 0.734541 0.090120
0.904632 0.748986 0.090808
0.907941 0.763031 0.091793
0.910690 0.775357 0.092440
0.073574 0.073595 0.087608
0.073574 0.073562 0.087608
0.073574 0.073445 0.087608
0.073945 0.073238 0.087608
0.075701 0.073012 0.087608
0.078277 0.072951 0.087608
0.083983 0.073055 0.087608
0.101701 0.073675 0.087608
0.155019 0.075230 0.087608
0.270550 0.078708 0.087608
0.401632 0.085837 0.087608
0.472217 0.096585 0.087608
0.534117 0.112434 0.087608
0.583917 0.143344 0.087608
0.648370 0.199661 0.087608
0.685908 0.278375 0.087608
0.718005 0.349715 0.087608
0.743706 0.410071 0.087608
0.777091 0.459671 0.087608
0.800868 0.501613 0.087625
0.816939 0.540983 0.087715
0.827630 0.576687 0.087824
0.846076 0.612560 0.087936
0.855302 0.634816 0.088070
0.863983 0.655109 0.088207
0.872240 0.674957 0.088341
0.879905 0.693908 0.088655
0.886252 0.707726 0.088953
0.892303 0.721830 0.089412
0.898080 0.736613 0.090003
0.903600 0.750991 0.090607
0.907195 0.764974 0.091606
0.910078 0.776904 0.092362
0.073574 0.079616 0.087608
0.073574 0.079791 0.087608
0.073595 0.078786 0.087608
0.074461 0.076776 0.087608
0.076920 0.075302 0.087608
0.080394 0.074617 0.087608
0.085828 0.074488 0.087608
0.096440 0.074717 0.087608
0.137636 0.076855 0.087608
0.229610 0.080980 0.087608
0.356766 0.090431 0.087608
0.446993 0.101260 0.087608
0.513164 0.119543 0.087608
0.563592 0.157590 0.087608
0.618914 0.219314 0.087608
0.671561 0.297768 0.087608
0.706903 0.369929 0.087608
0.733303 0.419029 0.087608
0.763152 0.468433 0.087608
0.792078 0.511867 0.087608
0.811870 0.548276 0.087686
0.823676 0.583853 0.087787
0.841300 0.617289 0.087902
0.852110 0.638762 0.088028
0.861040 0.658911 0.088168
0.869521 0.678627 0.088301
0.877588 0.696567 0.088572
0.884281 0.709889 0.088876
0.890478 0.724554 0.089257
0.896387 0.739246 0.089859
0.902027 0.753540 0.090435
0.906257 0.767445 0.091378
0.909324 0.778871 0.092333
0.073574 0.097519 0.087608
0.073574 0.097850 0.087608
0.073613 0.097121 0.087608
0.074869 0.092103 0.087608
0.077879 0.085890 0.087608
0.082553 0.081594 0.087608
0.089160 0.080278 0.087608
0.102419 0.080050 0.087608
0.128901 0.080695 0.087608
0.196128 0.086953 0.087608
0.321499 0.095933 0.087608
0.425161 0.108872 0.087608
0.490104 0.131047 0.087608
0.544207 0.178063 0.087608
0.592417 0.245742 0.087608
0.659792 0.315895 0.087608
0.690104 0.390675 0.087608
0.722200 0.435334 0.087608
0.748147 0.479359 0.087608
0.782463 0.522200 0.087608
0.804820 0.557323 0.087655
0.819245 0.592719 0.087747
0.834439 0.622937 0.087865
0.848482 0.643603 0.087981
0.857676 0.663571 0.088125
0.866399 0.683122 0.088261
0.874687 0.699818 0.088477
0.881998 0.712905 0.088788
0.888355 0.727883 0.089084
0.894411 0.742463 0.089694
0.900185 0.756654 0.090280
0.905156 0.770241 0.091112
0.908437 0.781103 0.092105
0.073574 0.146235 0.087608
0.073574 0.147557 0.087608
0.073717 0.140061 0.087608
0.075313 0.123262 0.087608
0.078583 0.111216 0.087608
0.084145 0.103006 0.087608
0.092468 0.097639 0.087608
0.109527 0.095809 0.087608
0.141385 0.095597 0.087608
0.188313 0.096838 0.087608
0.296755 0.105226 0.087608
0.403532 0.121667 0.087608
0.467012 0.155304 0.087608
0.526354 0.208609 0.087608
0.574101 0.281171 0.087608
0.631844 0.346327 0.087608
0.678464 0.406165 0.087608
0.710936 0.453782 0.087608
0.736999 0.492751 0.087608
0.768255 0.533472 0.087608
0.795544 0.568298 0.087623
0.814497 0.603437 0.087715
0.825566 0.629254 0.087825
0.843830 0.649390 0.087939
0.853985 0.669134 0.088078
0.862953 0.688483 0.088217
0.871470 0.703684 0.088372
0.879452 0.717007 0.088691
0.885978 0.731840 0.088994
0.892190 0.746286 0.089510
0.898110 0.760352 0.090108
0.903756 0.773187 0.090815
0.907366 0.783470 0.091826
0.073574 0.287572 0.087608
0.073574 0.283100 0.087608
0.073838 0.259930 0.087608
0.075793 0.226166 0.087608
0.079560 0.189382 0.087608
0.085871 0.161565 0.087608
0.096702 0.140588 0.087608
0.116038 0.128623 0.087608
0.152720 0.124334 0.087608
0.208561 0.124249 0.087608
0.288702 0.127845 0.087608
0.379012 0.148438 0.087608
0.450717 0.190882 0.087608
0.511151 0.252502 0.087608
0.557855 0.314785 0.087608
0.606506 0.384812 0.087608
0.665461 0.424780 0.087608
0.697274 0.470541 0.087608
0.726334 0.512043 0.087608
0.753479 0.546995 0.087608
0.785871 0.581402 0.087608
0.807383 0.615059 0.087684
0.820936 0.636356 0.087785
0.838105 0.656183 0.087901
0.850072 0.675652 0.088029
0.859274 0.694200 0.088171
0.868013 0.707817 0.088305
0.876322 0.721789 0.088588
0.883398 0.736449 0.088897
0.889770 0.750737 0.089312
0.895838 0.764656 0.089923
0.901623 0.776610 0.090509
0.906082 0.786217 0.091522
0.073574 0.407678 0.087608
0.073595 0.404892 0.087608
0.073967 0.395496 0.087608
0.076222 0.370033 0.087608
0.080407 0.330095 0.087608
0.087613 0.298516 0.087608
0.100428 0.262047 0.087608
0.125101 0.233104 0.087608
0.165161 0.214265 0.087608
0.228557 0.205764 0.087608
0.307251 0.206636 0.087608
0.377764 0.216096 0.087608
0.438028 0.246352 0.087608
0.497274 0.304531 0.087608
0.543959 0.363349 0.087608
0.588395 0.410013 0.087608
0.649606 0.454413 0.087608
0.685393 0.490717 0.087608
0.716200 0.529773 0.087608
0.741564 0.563021 0.087608
0.774065 0.596860 0.087608
0.799119 0.624777 0.087654
0.816252 0.644596 0.087745
0.827217 0.664046 0.087863
0.845910 0.683181 0.087979
0.855455 0.699613 0.088124
0.864401 0.712466 0.088261
0.872908 0.727279 0.088481
0.880669 0.741736 0.088797
0.887197 0.755837 0.089105
0.893413 0.769521 0.089727
0.899338 0.780482 0.090321
0.904701 0.789356 0.091200
0.073596 0.490063 0.087608
0.073615 0.487499 0.087608
0.074209 0.478749 0.087608
0.076638 0.464334 0.087608
0.081121 0.445140 0.087608
0.088974 0.416839 0.087608
0.104054 0.398203 0.087608
0.133287 0.373943 0.087608
0.176995 0.347116 0.087608
0.245032 0.330316 0.087608
0.322231 0.323267 0.087608
0.391515 0.325278 0.087608
0.439253 0.335698 0.087608
0.481864 0.361527 0.087608
0.532243 0.405272 0.087608
0.575546 0.445217 0.087608
0.628803 0.479500 0.087608
0.673190 0.517930 0.087608
0.706871 0.549413 0.087608
0.732174 0.581796 0.087608
0.760688 0.614221 0.087608
0.790186 0.634832 0.087627
0.810400 0.654049 0.087717
0.822781 0.673043 0.087827
0.840329 0.691777 0.087940
0.851585 0.705764 0.088078
0.860714 0.718956 0.088217
0.869400 0.733507 0.088374
0.877673 0.747727 0.088695
0.884522 0.761612 0.088999
0.890880 0.774104 0.089527
0.896940 0.784155 0.090131
0.902720 0.792895 0.090867
0.073623 0.561109 0.087608
0.073768 0.559105 0.087608
0.074546 0.552195 0.087608
0.077071 0.540567 0.087608
0.081748 0.525433 0.087608
0.089399 0.505716 0.087608
0.106935 0.484041 0.087608
0.140011 0.466123 0.087608
0.187111 0.451229 0.087608
0.259819 0.435529 0.087608
0.336176 0.424686 0.087608
0.405441 0.421002 0.087608
0.445918 0.423352 0.087608
0.485836 0.432121 0.087608
0.522927 0.447445 0.087608
0.564991 0.477093 0.087608
0.611375 0.511866 0.087608
0.665541 0.541940 0.087608
0.694992 0.572210 0.087608
0.723598 0.603539 0.087608
0.748320 0.627489 0.087608
0.781753 0.646177 0.087608
0.803852 0.664781 0.087692
0.818467 0.683237 0.087793
0.831545 0.699250 0.087907
0.847748 0.711715 0.088034
0.857028 0.726255 0.088174
0.865869 0.740503 0.088308
0.874297 0.754448 0.088594
0.881795 0.768084 0.088903
0.888283 0.779231 0.089327
0.894470 0.788255 0.089940
0.900372 0.796789 0.090533
0.073796 0.621481 0.087608
0.073919 0.620302 0.087608
0.074871 0.616204 0.087608
0.077490 0.607181 0.087608
0.082388 0.592883 0.087608
0.090010 0.576436 0.087608
0.109233 0.559360 0.087608
0.145439 0.543055 0.087608
0.195535 0.528657 0.087608
0.272747 0.516992 0.087608
0.348846 0.505847 0.087608
0.415276 0.499131 0.087608
0.452468 0.497330 0.087608
0.493429 0.500260 0.087608
0.526922 0.507612 0.087608
0.557788 0.518108 0.087608
0.597111 0.541917 0.087608
0.657427 0.569401 0.087608
0.686090 0.598305 0.087608
0.715946 0.623002 0.087608
0.740055 0.641055 0.087608
0.770512 0.658941 0.087608
0.796019 0.676841 0.087670
0.814358 0.694143 0.087762
0.825173 0.707131 0.087876
0.843123 0.720241 0.087992
0.853412 0.734393 0.088134
0.862379 0.748293 0.088269
0.870936 0.761924 0.088497
0.879061 0.774198 0.088810
0.885666 0.784129 0.089130
0.891968 0.792793 0.089751
0.897984 0.800779 0.090345
0.073966 0.658918 0.087608
0.074189 0.658003 0.087608
0.075311 0.654803 0.087608
0.077902 0.649259 0.087608
0.083145 0.641716 0.087608
0.091174 0.632767 0.087608
0.111135 0.622831 0.087608
0.149195 0.611577 0.087608
0.205168 0.596325 0.087608
0.288404 0.583252 0.087608
0.359907 0.572969 0.087608
0.421536 0.565853 0.087608
0.458565 0.562082 0.087608
0.500816 0.561662 0.087608
0.531276 0.564472 0.087608
0.561527 0.570299 0.087608
0.591809 0.578879 0.087608
0.643711 0.600306 0.087608
0.682406 0.622571 0.087608
0.709251 0.639350 0.087608
0.733025 0.656139 0.087608
0.760114 0.673142 0.087608
0.788822 0.690256 0.087652
0.808743 0.703657 0.087738
0.821370 0.715786 0.087849
0.838217 0.729678 0.087957
0.849926 0.743392 0.088097
0.858985 0.756899 0.088232
0.867645 0.770006 0.088406
0.875924 0.780634 0.088721
0.883068 0.789318 0.089021
0.889471 0.797639 0.089568
0.895588 0.805157 0.090168
0.074310 0.694098 0.087608
0.074599 0.693497 0.087608
0.075855 0.691009 0.087608
0.078309 0.686104 0.087608
0.083856 0.679350 0.087608
0.092377 0.671207 0.087608
0.112740 0.662251 0.087608
0.152064 0.653089 0.087608
0.216131 0.644296 0.087608
0.299083 0.636367 0.087608
0.369164 0.629699 0.087608
0.426884 0.624467 0.087608
0.463971 0.620678 0.087608
0.505301 0.618935 0.087608
0.535431 0.619237 0.087608
0.565225 0.621505 0.087608
0.595077 0.625599 0.087608
0.638303 0.630738 0.087608
0.672143 0.641606 0.087608
0.702468 0.656941 0.087608
0.726864 0.672697 0.087608
0.750890 0.688760 0.087608
0.782317 0.701888 0.087638
0.803435 0.713257 0.087722
0.817832 0.726687 0.087826
0.828243 0.740038 0.087934
0.846616 0.753266 0.088064
0.855734 0.766336 0.088200
0.864467 0.777436 0.088328
0.872830 0.786544 0.088638
0.880526 0.794978 0.088940
0.887013 0.802602 0.089396
0.893216 0.809462 0.090000
0.074728 0.719518 0.087608
0.074981 0.718943 0.087608
0.076378 0.716919 0.087608
0.078753 0.713358 0.087608
0.084095 0.709080 0.087608
0.093506 0.704183 0.087608
0.114120 0.698012 0.087608
0.154362 0.691225 0.087608
0.220988 0.682744 0.087608
0.304671 0.674854 0.087608
0.376587 0.667934 0.087608
0.431259 0.662280 0.087608
0.468546 0.658106 0.087608
0.509115 0.655541 0.087608
0.539201 0.654639 0.087608
0.568698 0.655387 0.087608
0.598716 0.657719 0.087608
0.642439 0.661531 0.087608
0.670835 0.666691 0.087608
0.695075 0.675934 0.087608
0.721533 0.690647 0.087608
0.744065 0.702422 0.087608
0.774285 0.713023 0.087628
0.797422 0.725765 0.087710
0.814587 0.738548 0.087808
0.824982 0.751315 0.087914
0.842433 0.764016 0.088036
0.852663 0.775293 0.088171
0.861441 0.784619 0.088299
0.869861 0.792950 0.088563
0.877935 0.800687 0.088866
0.884623 0.807727 0.089235
0.890898 0.814050 0.089842
0.075186 0.746580 0.087608
0.075590 0.746078 0.087608
0.076933 0.744305 0.087608
0.079525 0.741171 0.087608
0.084454 0.736771 0.087608
0.094584 0.731329 0.087608
0.115332 0.725149 0.087608
0.156676 0.718577 0.087608
0.224681 0.711966 0.087608
0.308862 0.706971 0.087608
0.382256 0.701995 0.087608
0.434555 0.697547 0.087608
0.472233 0.694020 0.087608
0.512291 0.691203 0.087608
0.542451 0.689378 0.087608
0.571794 0.689071 0.087608
0.602953 0.690262 0.087608
0.646373 0.692800 0.087608
0.672194 0.695776 0.087608
0.694144 0.699668 0.087608
0.716962 0.705507 0.087608
0.739117 0.715386 0.087608
0.766732 0.727224 0.087622
0.792055 0.739232 0.087701
0.810410 0.751341 0.087794
0.821995 0.763491 0.087899
0.838487 0.774489 0.088013
0.849796 0.783702 0.088146
0.858592 0.791837 0.088274
0.867045 0.799532 0.088497
0.875165 0.806609 0.088799
0.882325 0.812867 0.089090
0.888656 0.818982 0.089698
0.075833 0.771887 0.087608
0.076194 0.771526 0.087608
0.077482 0.770246 0.087608
0.080284 0.767705 0.087608
0.085342 0.763801 0.087608
0.095629 0.758928 0.087608
0.116417 0.753331 0.087608
0.158678 0.747297 0.087608
0.227391 0.741127 0.087608
0.311828 0.735113 0.087608
0.385831 0.729519 0.087608
0.436938 0.724574 0.087608
0.475032 0.720464 0.087608
0.514788 0.717330 0.087608
0.545086 0.715266 0.087608
0.574402 0.714325 0.087608
0.606647 0.714522 0.087608
0.649906 0.715835 0.087608
0.673446 0.718215 0.087608
0.695813 0.721595 0.087608
0.716943 0.725892 0.087608
0.734845 0.731270 0.087608
0.760149 0.742323 0.087619
0.787308 0.753593 0.087696
0.806521 0.765015 0.087784
0.819288 0.775228 0.087887
0.831609 0.783954 0.087995
0.847148 0.791789 0.088126
0.855940 0.799263 0.088253
0.864403 0.806209 0.088441
0.872547 0.812341 0.088741
0.880139 0.818359 0.089030
0.886511 0.824254 0.089568
0.076436 0.790158 0.087608
0.076797 0.789896 0.087608
0.078006 0.788968 0.087608
0.081028 0.787314 0.087608
0.086224 0.784961 0.087608
0.096650 0.781996 0.087608
0.117825 0.778203 0.087608
0.160290 0.773679 0.087608
0.229283 0.768931 0.087608
0.313742 0.763270 0.087608
0.387642 0.757899 0.087608
0.438524 0.753026 0.087608
0.477361 0.748832 0.087608
0.516604 0.745457 0.087608
0.547033 0.743007 0.087608
0.576454 0.741552 0.087608
0.609658 0.741125 0.087608
0.652877 0.741731 0.087608
0.674524 0.743347 0.087608
0.697289 0.745928 0.087608
0.717756 0.749413 0.087608
0.735295 0.753733 0.087608
0.755041 0.758811 0.087621
0.783138 0.768771 0.087694
0.802828 0.777673 0.087778
0.816855 0.785516 0.087879
0.826715 0.792944 0.087981
0.844099 0.800004 0.088111
0.853492 0.806632 0.088236
0.861947 0.812568 0.088394
0.870096 0.818427 0.088693
0.877945 0.824193 0.088980
0.884476 0.829857 0.089455
0.077071 0.805267 0.087608
0.077404 0.805059 0.087608
0.078508 0.804320 0.087608
0.081755 0.802999 0.087608
0.087147 0.801111 0.087608
0.097655 0.798717 0.087608
0.119376 0.795887 0.087608
0.161594 0.792500 0.087608
0.230500 0.788941 0.087608
0.314766 0.785358 0.087608
0.388893 0.781893 0.087608
0.439394 0.778357 0.087608
0.478792 0.774934 0.087608
0.517763 0.772071 0.087608
0.548353 0.769857 0.087608
0.577914 0.768174 0.087608
0.611896 0.767273 0.087608
0.655163 0.767314 0.087608
0.676469 0.768295 0.087608
0.698485 0.770019 0.087608
0.718426 0.772298 0.087608
0.735822 0.775249 0.087608
0.755576 0.778821 0.087639
0.779995 0.782506 0.087699
0.798924 0.788478 0.087777
0.814682 0.795408 0.087875
0.824464 0.801854 0.087973
0.841067 0.807968 0.088101
0.851251 0.813638 0.088224
0.859682 0.819271 0.088358
0.867820 0.824848 0.088653
0.875671 0.830355 0.088938
0.882562 0.835778 0.089359
0.077672 0.817585 0.087608
0.077976 0.817424 0.087608
0.079294 0.816853 0.087608
0.082586 0.815827 0.087608
0.088105 0.814356 0.087608
0.098708 0.812481 0.087608
0.120871 0.810268 0.087608
0.162654 0.807805 0.087608
0.231168 0.805122 0.087608
0.315043 0.802127 0.087608
0.389139 0.799191 0.087608
0.439633 0.796421 0.087608
0.479336 0.793698 0.087608
0.518305 0.791334 0.087608
0.549061 0.789424 0.087608
0.578777 0.788027 0.087608
0.613314 0.787183 0.087608
0.656686 0.786916 0.087608
0.678377 0.787235 0.087608
0.699332 0.788136 0.087608
0.718906 0.789600 0.087608
0.736197 0.791601 0.087608
0.755938 0.794104 0.087660
0.780175 0.796997 0.087717
0.796738 0.800095 0.087787
0.812038 0.804874 0.087875
0.822447 0.810281 0.087970
0.838331 0.815620 0.088094
0.849211 0.820963 0.088215
0.857606 0.826290 0.088332
0.865720 0.831583 0.088623
0.873560 0.836825 0.088905
0.880774 0.839908 0.089281
0.078237 0.829171 0.087608
0.078513 0.829031 0.087608
0.080189 0.828533 0.087608
0.083544 0.827639 0.087608
0.088972 0.826351 0.087608
0.099799 0.824702 0.087608
0.122301 0.822746 0.087608
0.163521 0.820554 0.087608
0.231389 0.818206 0.087608
0.314700 0.815791 0.087608
0.388531 0.813395 0.087608
0.439321 0.811103 0.087608
0.479083 0.808993 0.087608
0.518280 0.807132 0.087608
0.549192 0.805561 0.087608
0.579056 0.804216 0.087608
0.613898 0.803312 0.087608
0.657404 0.802875 0.087608
0.679348 0.802921 0.087608
0.699778 0.803452 0.087608
0.719156 0.804462 0.087608
0.736377 0.805914 0.087626
0.756069 0.807617 0.087680
0.780162 0.809686 0.087736
0.796625 0.812095 0.087810
0.810694 0.814813 0.087887
0.820644 0.818549 0.087971
0.834311 0.823550 0.088093
0.847364 0.828573 0.088211
0.855713 0.833598 0.088326
0.863794 0.838517 0.088603
0.871611 0.840554 0.088880
0.879114 0.845756 0.089222
0.078865 0.839137 0.087608
0.079361 0.839087 0.087608
0.081046 0.838909 0.087608
0.084051 0.838589 0.087608
0.089311 0.837656 0.087608
0.101073 0.836208 0.087608
0.123680 0.834483 0.087608
0.164234 0.832537 0.087608
0.231249 0.830439 0.087608
0.313846 0.828263 0.087608
0.387215 0.826085 0.087608
0.438533 0.823977 0.087608
0.478126 0.822009 0.087608
0.517742 0.820243 0.087608
0.548786 0.818735 0.087608
0.578777 0.817529 0.087608
0.613665 0.816662 0.087608
0.657306 0.816161 0.087608
0.679335 0.816043 0.087608
0.699788 0.816316 0.087608
0.719148 0.816979 0.087608
0.736331 0.818027 0.087646
0.755920 0.819445 0.087700
0.779906 0.821215 0.087759
0.796371 0.823315 0.087834
0.810428 0.825720 0.087908
0.819928 0.828405 0.087989
0.828300 0.831719 0.088095
0.845435 0.836431 0.088211
0.853993 0.839564 0.088324
0.862034 0.842741 0.088591
0.869821 0.847747 0.088865
0.877359 0.851880 0.089179
0.079841 0.847625 0.087608
0.080299 0.847532 0.087608
0.081865 0.847199 0.087608
0.084515 0.846598 0.087608
0.089732 0.845532 0.087608
0.102350 0.844073 0.087608
0.125015 0.842327 0.087608
0.164820 0.840646 0.087608
0.230815 0.839883 0.087608
0.312571 0.839085 0.087608
0.385860 0.838025 0.087608
0.437336 0.836104 0.087608
0.476552 0.834291 0.087608
0.516744 0.832641 0.087608
0.547888 0.831205 0.087608
0.577977 0.830027 0.087608
0.612646 0.829141 0.087608
0.656404 0.828576 0.087608
0.678327 0.828350 0.087608
0.699344 0.828477 0.087608
0.718862 0.828959 0.087618
0.736033 0.829796 0.087668
0.755451 0.830979 0.087720
0.779364 0.832495 0.087784
0.795948 0.834328 0.087857
0.810046 0.836458 0.087929
0.819633 0.838623 0.088016
0.827706 0.839712 0.088115
0.843360 0.841147 0.088214
0.852433 0.846256 0.088324
0.860430 0.850221 0.088588
0.868182 0.854151 0.088857
0.875693 0.857295 0.089154
0.080763 0.855858 0.087608
0.081188 0.855794 0.087608
0.082840 0.855564 0.087608
0.085602 0.855148 0.087608
0.090757 0.854546 0.087608
0.103610 0.853628 0.087608
0.126309 0.852453 0.087608
0.165302 0.851114 0.087608
0.230143 0.849655 0.087608
0.310951 0.848122 0.087608
0.383718 0.846564 0.087608
0.435788 0.844625 0.087608
0.474616 0.842724 0.087608
0.515336 0.840976 0.087608
0.546545 0.840321 0.087608
0.576694 0.839861 0.087608
0.610889 0.839505 0.087608
0.654729 0.839264 0.087608
0.676340 0.839145 0.087608
0.698442 0.839156 0.087608
0.718288 0.839298 0.087637
0.735467 0.839574 0.087688
0.754633 0.839980 0.087739
0.778502 0.840515 0.087808
0.795331 0.841827 0.087879
0.809528 0.844003 0.087950
0.819258 0.846462 0.088042
0.827303 0.848591 0.088139
0.842719 0.850922 0.088234
0.851098 0.853437 0.088329
0.858970 0.856471 0.088592
0.866683 0.859417 0.088857
0.874163 0.862353 0.089145
0.081635 0.862333 0.087608
0.082030 0.862277 0.087608
0.083854 0.862078 0.087608
0.086654 0.861719 0.087608
0.092089 0.861197 0.087608
0.104847 0.860521 0.087608
0.127562 0.859706 0.087608
0.165693 0.858774 0.087608
0.229274 0.857754 0.087608
0.309048 0.856676 0.087608
0.380629 0.855575 0.087608
0.433941 0.854484 0.087608
0.472530 0.853214 0.087608
0.513567 0.851994 0.087608
0.544801 0.850905 0.087608
0.574971 0.849980 0.087608
0.608446 0.849249 0.087608
0.652323 0.848733 0.087608
0.674431 0.848453 0.087608
0.697087 0.848421 0.087612
0.717424 0.848646 0.087658
0.734626 0.849133 0.087707
0.753446 0.849880 0.087763
0.777297 0.850885 0.087832
