ektachrome100d/Ektachrome100D_Modern_IlfochromeM.cube
TITLE "Kodak Ektachrome 100D Modern IlfochromeM"
# Adobe RGB in/out. REPLACES AgX. Kodak Ektachrome 100D Modern IlfochromeM.
LUT_3D_SIZE 5
DOMAIN_MIN 0.0 0.0 0.0
DOMAIN_MAX 1.0 1.0 1.0
0.134039 0.109935 0.109507
0.372280 0.159180 0.109507
0.829360 0.379579 0.115895
0.945426 0.615201 0.166524
0.969368 0.769057 0.217194
0.134039 0.310640 0.109507
0.256325 0.252778 0.109507
0.733380 0.425168 0.111137
0.926986 0.641800 0.150972
0.967800 0.782215 0.209823
0.139733 0.714010 0.109507
0.308660 0.658585 0.109507
0.634531 0.627795 0.110467
0.891861 0.733387 0.134578
0.957747 0.821148 0.198518
0.164454 0.864538 0.109507
0.314329 0.856426 0.109507
0.648406 0.843008 0.115870
0.872375 0.848846 0.136978
0.948290 0.875277 0.193076
0.184533 0.922035 0.111969
0.308845 0.918963 0.113619
0.618401 0.915563 0.122630
0.860739 0.917393 0.147911
0.941487 0.934361 0.195785
0.134039 0.109935 0.372680
0.384034 0.172714 0.382384
0.819170 0.371360 0.349922
0.939486 0.600700 0.350623
0.968772 0.761478 0.367078
0.134039 0.248852 0.288867
0.194456 0.198818 0.195912
0.688134 0.394562 0.271343
0.920272 0.623625 0.316279
0.967198 0.775003 0.349145
0.137808 0.667516 0.297714
0.284079 0.615683 0.265481
0.590119 0.588261 0.234530
0.881218 0.718494 0.267680
0.956052 0.815054 0.312031
0.162043 0.857408 0.273462
0.305162 0.849358 0.265923
0.632518 0.833561 0.254703
0.866350 0.843043 0.260633
0.947316 0.872937 0.289947
0.183536 0.918723 0.248297
0.305815 0.916427 0.248257
0.613812 0.914466 0.251200
0.858791 0.916337 0.263113
0.941092 0.933808 0.286458
0.134039 0.110431 0.860700
0.384034 0.201580 0.862076
0.866808 0.449218 0.860236
0.943967 0.620775 0.794744
0.968504 0.760974 0.756201
0.134039 0.319188 0.850810
0.337904 0.344509 0.821218
0.763635 0.465074 0.769903
0.922572 0.636654 0.748789
0.966363 0.772640 0.735278
0.135702 0.596602 0.717818
0.254963 0.563928 0.649875
0.519033 0.522132 0.527263
0.871581 0.704621 0.613386
0.954057 0.809075 0.653846
0.156811 0.839096 0.683444
0.286289 0.829945 0.658077
0.601612 0.815519 0.603778
0.850783 0.827871 0.576829
0.945343 0.868758 0.601493
0.180941 0.914053 0.614141
0.298148 0.912795 0.606941
0.602665 0.910717 0.589994
0.854108 0.914654 0.580465
0.940147 0.932726 0.588461
0.134039 0.136528 0.987840
0.384034 0.233106 0.987885
0.874152 0.490545 0.988046
0.951650 0.676566 0.975570
0.969196 0.776930 0.921815
0.134039 0.361783 0.987855
0.392510 0.435443 0.987900
0.838253 0.576800 0.984514
0.937275 0.693989 0.943464
0.967474 0.785733 0.903001
0.135773 0.612140 0.905811
0.273460 0.612161 0.896451
0.637678 0.646408 0.880583
0.888786 0.737524 0.876248
0.955009 0.815877 0.874558
0.152128 0.817799 0.879000
0.270993 0.812684 0.872535
0.580661 0.804788 0.852322
0.834874 0.813445 0.832932
0.943398 0.867629 0.847169
0.177915 0.907243 0.859133
0.289046 0.906451 0.855980
0.590224 0.906247 0.847751
0.849110 0.912778 0.840923
0.939245 0.932333 0.840762
0.134039 0.208685 0.994098
0.384034 0.283249 0.994111
0.874152 0.529135 0.994156
0.957043 0.725478 0.992789
0.970115 0.795031 0.989790
0.134039 0.410191 0.994103
0.392510 0.479376 0.994115
0.870988 0.657004 0.993986
0.948004 0.740466 0.991734
0.968456 0.803365 0.988669
0.137405 0.695140 0.991046
0.312851 0.703934 0.990453
0.725822 0.732863 0.988886
0.907089 0.781777 0.987618
0.957952 0.832045 0.984329
0.150838 0.815242 0.982983
0.269040 0.814887 0.980836
0.596542 0.819614 0.969844
0.859414 0.843505 0.958446
0.945915 0.873421 0.955486
0.175344 0.901557 0.960846
0.281593 0.901611 0.957992
0.580609 0.903561 0.950224
0.845938 0.912036 0.943050
0.938855 0.933568 0.942293
