ektachrome100d/Ektachrome100D_Modern_IlfochromeM.cube
TITLE "Kodak Ektachrome 100D Modern IlfochromeM"
# Adobe RGB in/out. REPLACES AgX. Kodak Ektachrome 100D Modern IlfochromeM.
LUT_3D_SIZE 9
DOMAIN_MIN 0.0 0.0 0.0
DOMAIN_MAX 1.0 1.0 1.0
0.134039 0.109935 0.109507
0.160945 0.109935 0.109507
0.372280 0.159180 0.109507
0.635420 0.266205 0.109507
0.829360 0.379579 0.115895
0.906769 0.507399 0.134162
0.945426 0.615201 0.166524
0.961178 0.709612 0.197791
0.969368 0.769057 0.217194
0.134039 0.116407 0.109507
0.138921 0.113699 0.109507
0.292268 0.171898 0.109507
0.572786 0.275180 0.109507
0.808060 0.389080 0.113966
0.900056 0.514459 0.131322
0.940849 0.620954 0.162008
0.959602 0.714241 0.196108
0.969001 0.772082 0.215373
0.134039 0.310640 0.109507
0.160210 0.279777 0.109507
0.256325 0.252778 0.109507
0.467667 0.315406 0.109507
0.733380 0.425168 0.111137
0.872014 0.540287 0.124245
0.926986 0.641800 0.150972
0.954596 0.726585 0.190891
0.967800 0.782215 0.209823
0.134715 0.534708 0.109507
0.170831 0.506637 0.109507
0.291641 0.452901 0.109507
0.444969 0.438339 0.109507
0.647141 0.496706 0.109507
0.831379 0.591039 0.119275
0.909186 0.681870 0.140359
0.947528 0.749514 0.179833
0.963797 0.797763 0.204035
0.139733 0.714010 0.109507
0.177429 0.698846 0.109507
0.308660 0.658585 0.109507
0.469321 0.628268 0.109507
0.634531 0.627795 0.110467
0.797848 0.668376 0.117310
0.891861 0.733387 0.134578
0.935293 0.783549 0.167028
0.957747 0.821148 0.198518
0.151543 0.808580 0.109507
0.184578 0.803274 0.109507
0.314150 0.788570 0.109507
0.479671 0.771560 0.109507
0.647659 0.762527 0.112969
0.792893 0.768302 0.119850
0.875035 0.788032 0.133092
0.923940 0.820553 0.160765
0.952403 0.850290 0.194689
0.164454 0.864538 0.109507
0.192315 0.862587 0.109507
0.314329 0.856426 0.109507
0.477713 0.848808 0.111842
0.648406 0.843008 0.115870
0.793588 0.842743 0.123885
0.872375 0.848846 0.136978
0.916073 0.858975 0.159955
0.948290 0.875277 0.193076
0.175211 0.897152 0.109633
0.199946 0.896061 0.110089
0.312186 0.892709 0.111602
0.468114 0.888399 0.113998
0.637536 0.885113 0.119565
0.787187 0.884484 0.128655
0.868975 0.887317 0.142893
0.913659 0.893576 0.166772
0.945418 0.902674 0.193634
0.184533 0.922035 0.111969
0.208325 0.921284 0.112345
0.308845 0.918963 0.113619
0.454276 0.916476 0.116915
0.618401 0.915563 0.122630
0.774039 0.915634 0.132528
0.860739 0.917393 0.147911
0.909609 0.924266 0.173034
0.941487 0.934361 0.195785
0.134039 0.109935 0.138403
0.165622 0.109935 0.141669
0.372252 0.160717 0.148804
0.619351 0.260677 0.157709
0.820629 0.370197 0.181235
0.903266 0.498720 0.197766
0.942928 0.608649 0.211741
0.960318 0.704970 0.230997
0.969174 0.766484 0.251821
0.134039 0.113622 0.117293
0.135014 0.110163 0.109507
0.278695 0.164033 0.120684
0.552610 0.266473 0.139501
0.794404 0.377314 0.166046
0.896330 0.505347 0.193593
0.938342 0.614254 0.208503
0.958743 0.709558 0.228042
0.968808 0.769508 0.249457
0.134039 0.290588 0.134497
0.153168 0.257229 0.121697
0.229950 0.231620 0.113160
0.441889 0.299063 0.120905
0.712529 0.409401 0.140938
0.865886 0.530128 0.175405
0.924483 0.634707 0.200222
0.953750 0.723061 0.219034
0.967612 0.780185 0.241602
0.134269 0.512271 0.135169
0.167124 0.484520 0.130130
0.277865 0.430884 0.121593
0.425185 0.416735 0.120036
0.628671 0.481389 0.129586
0.824596 0.581163 0.153578
0.906824 0.674543 0.190403
0.946729 0.746024 0.208366
0.963252 0.795842 0.230870
0.139166 0.701441 0.134423
0.175417 0.685682 0.132605
0.301178 0.645589 0.128858
0.458503 0.615556 0.127496
0.621517 0.616148 0.131177
0.790576 0.659708 0.144729
0.888742 0.728951 0.177697
0.933891 0.781054 0.201205
0.957272 0.819407 0.221309
0.150732 0.804024 0.134034
0.183292 0.798790 0.133617
0.309997 0.784226 0.132916
0.473787 0.766101 0.133735
0.640171 0.757282 0.137932
0.787787 0.763645 0.148771
0.872859 0.785397 0.170371
0.922882 0.818559 0.196832
0.952032 0.849322 0.214482
0.163788 0.862792 0.134136
0.191451 0.860861 0.134348
0.311957 0.854598 0.135348
0.474449 0.847041 0.138215
0.644253 0.840532 0.144941
0.790638 0.840467 0.156493
0.870894 0.847524 0.177319
0.915392 0.858056 0.195346
0.948042 0.874674 0.211034
0.174841 0.896117 0.134523
0.199251 0.895038 0.135023
0.310836 0.891723 0.136870
0.466318 0.887463 0.141758
0.635300 0.884236 0.149798
0.785600 0.883687 0.163148
0.868166 0.886638 0.185149
0.913243 0.893052 0.197866
0.945124 0.902320 0.210726
0.184295 0.921240 0.134946
0.207927 0.920501 0.135572
0.308118 0.918215 0.138127
0.453350 0.916179 0.143860
0.617291 0.915296 0.152955
0.773279 0.915404 0.167646
0.860269 0.916968 0.188405
0.909437 0.923976 0.199722
0.941393 0.934224 0.212724
0.134039 0.109935 0.372680
0.165622 0.110225 0.374802
0.384034 0.172714 0.382384
0.644589 0.274460 0.370741
0.819170 0.371360 0.349922
0.900205 0.492625 0.346767
0.939486 0.600700 0.350623
0.958799 0.697445 0.357922
0.968772 0.761478 0.367078
0.134039 0.130380 0.373384
0.165318 0.148020 0.365763
0.332416 0.203603 0.326360
0.566428 0.275851 0.320875
0.789017 0.375241 0.325335
0.890693 0.497909 0.332736
0.934710 0.605569 0.341690
0.957188 0.701723 0.351862
0.968402 0.764412 0.362766
0.134039 0.248852 0.288867
0.144667 0.229199 0.253583
0.194456 0.198818 0.195912
0.419051 0.285507 0.236977
0.688134 0.394562 0.271343
0.855710 0.517325 0.295908
0.920272 0.623625 0.316279
0.952091 0.716541 0.333531
0.967198 0.775003 0.349145
0.134150 0.462124 0.301930
0.158904 0.438508 0.282481
0.251819 0.386919 0.242883
0.383588 0.372544 0.218641
0.594175 0.453344 0.235168
0.811540 0.561392 0.263121
0.902001 0.660248 0.286832
0.944409 0.738640 0.309993
0.961961 0.791458 0.330294
0.137808 0.667516 0.297714
0.170864 0.652764 0.287972
0.284079 0.615683 0.265481
0.433351 0.586233 0.243873
0.590119 0.588261 0.234530
0.773367 0.639647 0.245655
0.881218 0.718494 0.267680
0.930419 0.773696 0.289387
0.956052 0.815054 0.312031
0.148485 0.791552 0.285811
0.179778 0.786637 0.281719
0.299072 0.770791 0.269943
0.458493 0.751943 0.256644
0.620445 0.743492 0.248330
0.773938 0.751129 0.248178
0.866941 0.778086 0.257998
0.920003 0.813227 0.277242
0.951004 0.846696 0.298247
0.162043 0.857408 0.273462
0.188926 0.855391 0.271560
0.305162 0.849358 0.265923
0.465213 0.840627 0.259145
0.632518 0.833561 0.254703
0.782169 0.833984 0.254955
0.866350 0.843043 0.260633
0.913425 0.855442 0.271543
0.947316 0.872937 0.289947
0.173768 0.892948 0.260765
0.197386 0.891917 0.260049
0.306738 0.888741 0.257965
0.460918 0.884663 0.255713
0.628610 0.881628 0.255033
0.780830 0.881313 0.257364
0.865251 0.884598 0.263469
0.911971 0.891465 0.273312
0.944216 0.901249 0.286448
0.183536 0.918723 0.248297
0.206659 0.918022 0.248244
0.305815 0.916427 0.248257
0.450431 0.915251 0.248979
0.613812 0.914466 0.251200
0.770897 0.914692 0.255741
0.858791 0.916337 0.263113
0.908895 0.923081 0.273392
0.941092 0.933808 0.286458
0.134039 0.109935 0.691058
0.165622 0.112893 0.692474
0.384034 0.184611 0.697547
0.683487 0.298620 0.706826
0.838124 0.401384 0.651266
0.903587 0.505872 0.605589
0.939687 0.604234 0.581647
0.958202 0.696228 0.568217
0.968504 0.758995 0.560135
0.134039 0.138731 0.691527
0.167603 0.162223 0.692943
0.385887 0.234570 0.698015
0.640747 0.318633 0.662069
0.813691 0.404571 0.608427
0.895332 0.509544 0.581368
0.934635 0.608205 0.567048
0.956522 0.700011 0.558808
0.968124 0.761734 0.553753
0.134039 0.259863 0.559460
0.151165 0.257271 0.527481
0.266111 0.268285 0.475615
0.469157 0.322318 0.474737
0.711140 0.414677 0.494679
0.857553 0.523043 0.510878
0.919172 0.622871 0.521252
0.951181 0.713850 0.527666
0.966534 0.771662 0.531750
0.134041 0.417752 0.507546
0.152428 0.400886 0.478096
0.234054 0.362630 0.403465
0.341885 0.334825 0.332966
0.579435 0.443367 0.388618
0.802818 0.554076 0.432293
0.899126 0.653196 0.463154
0.941763 0.733931 0.484558
0.960832 0.788065 0.499458
0.136344 0.627712 0.510016
0.164804 0.615945 0.493221
0.266695 0.584566 0.446208
0.406573 0.553632 0.395381
0.554380 0.554791 0.368327
0.756272 0.620658 0.387176
0.874101 0.707388 0.419105
0.927065 0.766731 0.446105
0.954800 0.810913 0.467447
0.145573 0.774073 0.496038
0.175602 0.768570 0.486782
0.285768 0.752711 0.459244
0.440262 0.735176 0.425286
0.596601 0.726913 0.398635
0.756525 0.735658 0.387506
0.858125 0.767864 0.397708
0.916627 0.807226 0.421106
0.949789 0.843093 0.442994
0.159592 0.849642 0.471455
0.185437 0.847817 0.466511
0.296041 0.841005 0.451213
0.453107 0.831137 0.430734
0.617294 0.824597 0.412331
0.770958 0.825538 0.401399
0.858897 0.835672 0.400040
0.910870 0.852153 0.408945
0.946365 0.870755 0.428071
0.172275 0.888337 0.442463
0.195063 0.887394 0.439995
0.300873 0.884487 0.432181
0.453312 0.880754 0.421288
0.619319 0.878049 0.411028
0.774187 0.878066 0.404666
0.860830 0.881790 0.404103
0.910163 0.889273 0.409667
0.942952 0.899818 0.420495
0.182371 0.916022 0.412268
0.204725 0.915751 0.411232
0.302341 0.914920 0.407958
0.446073 0.913884 0.403483
0.608679 0.913028 0.399651
0.767397 0.913673 0.398295
0.856618 0.915535 0.400706
0.908093 0.921821 0.407423
0.940648 0.933251 0.418269
0.134039 0.110431 0.860700
0.165622 0.119292 0.861001
0.384034 0.201580 0.862076
0.683487 0.309062 0.864041
0.866808 0.449218 0.860236
0.912210 0.535627 0.827457
0.943967 0.620775 0.794744
0.958953 0.703813 0.772223
0.968504 0.760974 0.756201
0.134039 0.153650 0.860800
0.167603 0.180002 0.861100
0.385887 0.245670 0.862175
0.684741 0.351384 0.864139
0.843182 0.453731 0.842831
0.904447 0.539145 0.810784
0.938764 0.624257 0.783416
0.957214 0.707181 0.764883
0.968112 0.763497 0.751254
0.134039 0.319188 0.850810
0.167677 0.323598 0.843238
0.337904 0.344509 0.821218
0.553590 0.389761 0.790178
0.763635 0.465074 0.769903
0.872087 0.550624 0.757442
0.922572 0.636654 0.748789
0.951635 0.718079 0.741719
0.966363 0.772640 0.735278
0.134039 0.415861 0.742455
0.152764 0.409528 0.727335
0.253655 0.399189 0.670504
0.417028 0.417136 0.631248
0.622047 0.484280 0.639179
0.814990 0.572917 0.662523
0.900678 0.661131 0.680719
0.941675 0.735523 0.691228
0.960411 0.787706 0.695579
0.135702 0.596602 0.717818
0.160019 0.588376 0.700611
0.254963 0.563928 0.649875
0.391094 0.536997 0.585999
0.519033 0.522132 0.527263
0.748712 0.615621 0.577271
0.871581 0.704621 0.613386
0.925514 0.764538 0.638006
0.954057 0.809075 0.653846
0.143210 0.752984 0.706641
0.171676 0.748566 0.696146
0.273539 0.735493 0.663844
0.423510 0.720103 0.620734
0.573959 0.710410 0.581295
0.733662 0.719875 0.561009
0.850332 0.759378 0.576746
0.913888 0.802802 0.601669
0.948803 0.839985 0.621346
0.156811 0.839096 0.683444
0.181928 0.836835 0.677365
0.286289 0.829945 0.658077
0.440425 0.821330 0.630824
0.601612 0.815519 0.603778
0.759054 0.816782 0.584180
0.850783 0.827871 0.576829
0.908289 0.849006 0.584724
0.945343 0.868758 0.601493
0.170505 0.882957 0.651141
0.192330 0.882143 0.647794
0.294126 0.879627 0.636958
0.444736 0.876406 0.621042
0.609056 0.874171 0.604297
0.766855 0.874581 0.590988
0.855892 0.878754 0.584184
0.908130 0.886906 0.584676
0.941747 0.898588 0.591869
0.180941 0.914053 0.614141
0.202363 0.913823 0.612477
0.298148 0.912795 0.606941
0.440883 0.911385 0.598673
0.602665 0.910717 0.589994
0.763339 0.911801 0.583321
0.854108 0.914654 0.580465
0.907169 0.920473 0.582253
0.940147 0.932726 0.588461
0.134039 0.118079 0.945664
0.165622 0.133886 0.945868
0.384034 0.216011 0.946602
0.683487 0.322163 0.947946
0.874152 0.474461 0.949942
0.922581 0.573977 0.915020
0.948080 0.646599 0.889443
0.960793 0.717774 0.873663
0.968765 0.767344 0.859952
0.134039 0.176885 0.945731
0.167603 0.202584 0.945936
0.385887 0.260672 0.946669
0.684741 0.363789 0.948013
0.871147 0.506218 0.946613
0.915163 0.578400 0.903202
0.945557 0.650161 0.883990
0.959037 0.720135 0.870003
0.968366 0.769712 0.856620
0.134039 0.345563 0.945975
0.173175 0.360044 0.946179
0.392510 0.417705 0.946912
0.629387 0.464525 0.913799
0.810211 0.523158 0.892498
0.890053 0.590907 0.877887
0.929329 0.662296 0.866473
0.953349 0.728519 0.855068
0.967051 0.778237 0.845728
0.134109 0.463451 0.876754
0.160011 0.464389 0.873340
0.291058 0.472340 0.862556
0.484283 0.498637 0.849327
0.691455 0.546276 0.841010
0.836637 0.611187 0.837063
0.906614 0.684422 0.834418
0.944467 0.744207 0.831707
0.960868 0.791034 0.828264
0.135471 0.589424 0.839864
0.158815 0.585311 0.834989
0.257471 0.574251 0.816145
0.411902 0.568281 0.786397
0.581354 0.588550 0.769478
0.771543 0.645335 0.774717
0.877144 0.717463 0.786491
0.926835 0.769655 0.795344
0.954123 0.810705 0.799946
0.141264 0.736674 0.829022
0.168590 0.733498 0.825126
0.264666 0.723958 0.806694
0.413634 0.711612 0.779545
0.562164 0.701058 0.751277
0.708480 0.701657 0.723203
0.847688 0.757805 0.749009
0.913042 0.802409 0.764607
0.948384 0.839460 0.774838
0.154040 0.827082 0.818411
0.178601 0.825300 0.814689
0.277608 0.819821 0.802578
0.429071 0.812850 0.784542
0.588046 0.808001 0.765195
0.746239 0.809052 0.749347
0.842649 0.820326 0.742077
0.906099 0.846599 0.749099
0.943871 0.867474 0.759040
0.168597 0.877398 0.799903
0.189464 0.876739 0.797694
0.287237 0.874706 0.790417
0.436114 0.872134 0.779325
0.598996 0.870492 0.767058
0.759686 0.871319 0.756462
0.850943 0.875849 0.749848
0.906062 0.884633 0.748376
0.940612 0.897582 0.752180
0.179367 0.910778 0.776616
0.199776 0.910476 0.775413
0.293603 0.909578 0.771423
0.435329 0.908584 0.765271
0.596347 0.908380 0.758396
0.759135 0.909921 0.752430
0.851528 0.913813 0.748717
0.906227 0.919250 0.747977
0.939659 0.932379 0.750101
0.134039 0.136528 0.987840
0.165622 0.159695 0.987850
0.384034 0.233106 0.987885
0.683487 0.339596 0.987950
0.874152 0.490545 0.988046
0.931976 0.611044 0.987618
0.951650 0.676566 0.975570
0.963160 0.732376 0.947310
0.969196 0.776930 0.921815
0.134039 0.204692 0.987843
0.167603 0.220683 0.987853
0.385887 0.279154 0.987888
0.684741 0.381145 0.987953
0.874443 0.526145 0.988049
0.925086 0.616341 0.987155
0.949225 0.680615 0.967873
0.961430 0.734773 0.942050
0.968797 0.779224 0.915779
0.134039 0.361783 0.987855
0.173175 0.376698 0.987865
0.392510 0.435443 0.987900
0.688283 0.526037 0.987934
0.838253 0.576800 0.984514
0.903764 0.632102 0.966605
0.937275 0.693989 0.943464
0.955786 0.743117 0.920689
0.967474 0.785733 0.903001
0.134216 0.525311 0.978579
0.169050 0.528445 0.975072
0.328423 0.540776 0.963574
0.541801 0.566309 0.947984
0.751133 0.605040 0.932612
0.860857 0.655786 0.911678
0.914702 0.714362 0.902155
0.947351 0.758178 0.895503
0.962054 0.797540 0.889518
0.135773 0.612140 0.905811
0.161760 0.611610 0.903500
0.273460 0.612161 0.896451
0.449080 0.620991 0.887528
0.637678 0.646408 0.880583
0.804933 0.691597 0.877249
0.888786 0.737524 0.876248
0.930800 0.781233 0.875690
0.955009 0.815877 0.874558
0.140311 0.730709 0.886997
0.166878 0.728940 0.884894
0.262693 0.723890 0.878094
0.417415 0.719043 0.868188
0.579577 0.720388 0.855374
0.750746 0.736728 0.848747
0.857652 0.772609 0.851206
0.915245 0.808340 0.855986
0.948765 0.842454 0.859238
0.152128 0.817799 0.879000
0.176095 0.816541 0.877500
0.270993 0.812684 0.872535
0.421428 0.807864 0.863897
0.580661 0.804788 0.852322
0.739093 0.806045 0.841619
0.834874 0.813445 0.832932
0.905371 0.846467 0.841621
0.943398 0.867629 0.847169
0.166321 0.872282 0.871166
0.186749 0.871794 0.870217
0.281199 0.870302 0.866794
0.428375 0.868485 0.860209
0.590359 0.867553 0.852617
0.753446 0.868820 0.845601
0.846533 0.873467 0.840627
0.904084 0.882624 0.839074
0.939685 0.896985 0.841810
0.177915 0.907243 0.859133
0.197412 0.907037 0.858408
0.289046 0.906451 0.855980
0.429830 0.905927 0.852161
0.590224 0.906247 0.847751
0.755142 0.908285 0.843716
0.849110 0.912778 0.840923
0.905351 0.918323 0.839933
0.939245 0.932333 0.840762
0.134039 0.169704 0.991963
0.165622 0.196636 0.991967
0.384034 0.256307 0.991980
0.683487 0.360027 0.992004
0.874152 0.508630 0.992040
0.939083 0.644845 0.991863
0.954759 0.705209 0.989634
0.965499 0.748003 0.987618
0.969681 0.786255 0.983666
0.134039 0.226408 0.991965
0.167603 0.242059 0.991968
0.385887 0.301823 0.991981
0.684741 0.404097 0.992006
0.874443 0.542998 0.992042
0.932788 0.651483 0.991496
0.952477 0.709420 0.989128
0.963828 0.750552 0.987618
0.969288 0.788058 0.982220
0.134039 0.383028 0.991969
0.173175 0.399728 0.991973
0.392510 0.455746 0.991986
0.689234 0.543617 0.992010
0.858707 0.620590 0.991467
0.913040 0.671179 0.989414
0.944679 0.720794 0.987618
0.958339 0.759287 0.985079
0.967979 0.794420 0.976331
0.134640 0.581807 0.990981
0.175312 0.585370 0.990750
0.356315 0.598147 0.989993
0.586400 0.621434 0.988840
0.786156 0.655400 0.987618
0.879099 0.698789 0.987302
0.922767 0.737060 0.980709
0.950019 0.774535 0.969804
0.963614 0.805952 0.956699
0.136336 0.652075 0.985009
0.167000 0.653411 0.984062
0.293591 0.659259 0.981262
0.485303 0.673255 0.975578
0.686563 0.698488 0.964479
0.828585 0.728038 0.954957
0.899856 0.760465 0.947266
0.936010 0.793451 0.940738
0.956419 0.823497 0.934595
0.140646 0.737894 0.953850
0.167893 0.737462 0.951720
0.268442 0.736792 0.944854
0.433180 0.738623 0.934972
0.610581 0.747046 0.921180
0.778682 0.765574 0.910400
0.871527 0.791228 0.907421
0.919617 0.818946 0.906864
0.949826 0.847458 0.906302
0.150995 0.813453 0.934707
0.174672 0.812758 0.932971
0.267929 0.810745 0.924314
0.420045 0.808760 0.909537
0.584202 0.809125 0.901614
0.749784 0.814692 0.895193
0.848153 0.829359 0.892217
0.908043 0.851384 0.893417
0.944405 0.869846 0.895348
0.164411 0.868291 0.916553
0.184609 0.867982 0.914605
0.276352 0.867071 0.908405
0.422578 0.866109 0.903768
0.584715 0.866069 0.898276
0.749282 0.868008 0.892964
0.844338 0.872802 0.888750
0.902290 0.881012 0.886291
0.939344 0.897304 0.889487
0.176541 0.904069 0.902626
0.195572 0.903962 0.902107
0.284985 0.903701 0.900358
0.424809 0.903677 0.897571
0.584808 0.904559 0.894284
0.750971 0.907120 0.891178
0.847123 0.912046 0.888904
0.904632 0.917874 0.887961
0.938961 0.932696 0.888519
0.134039 0.208685 0.994098
0.165622 0.224384 0.994101
0.384034 0.283249 0.994111
0.683487 0.385215 0.994129
0.874152 0.529135 0.994156
0.943051 0.672623 0.994186
0.957043 0.725478 0.992789
0.967170 0.762889 0.991560
0.970115 0.795031 0.989790
0.134039 0.253088 0.994099
0.167603 0.269464 0.994102
0.385887 0.326403 0.994112
0.684741 0.430665 0.994130
0.874443 0.562630 0.994157
0.937835 0.681976 0.993888
0.954921 0.729046 0.992542
0.965827 0.765650 0.991351
0.969733 0.796885 0.989532
0.134039 0.410191 0.994103
0.173175 0.426557 0.994105
0.392510 0.479376 0.994115
0.689234 0.563236 0.994133
0.870988 0.657004 0.993986
0.919747 0.704316 0.992820
0.948004 0.740466 0.991734
0.960561 0.774996 0.990265
0.968456 0.803365 0.988669
0.135167 0.626255 0.993865
0.180176 0.630094 0.993752
0.377117 0.643448 0.993372
0.618932 0.666558 0.992765
0.811717 0.698106 0.992027
0.892338 0.728383 0.991183
0.929611 0.758240 0.989768
0.952474 0.788374 0.988471
0.965176 0.814896 0.987618
0.137405 0.695140 0.991046
0.171608 0.696987 0.990909
0.312851 0.703934 0.990453
0.515912 0.716793 0.989737
0.725822 0.732863 0.988886
0.846383 0.754962 0.988014
0.907089 0.781777 0.987618
0.941142 0.806087 0.987618
0.957952 0.832045 0.984329
0.141866 0.754545 0.987618
0.170280 0.754981 0.987618
0.278306 0.757025 0.987618
0.452575 0.762407 0.987618
0.640511 0.773262 0.985246
0.801502 0.788528 0.982156
0.882354 0.807629 0.979890
0.924349 0.830726 0.977311
0.951157 0.852602 0.972559
0.150838 0.815242 0.982983
0.174588 0.815088 0.982483
0.269040 0.814887 0.980836
0.425107 0.815779 0.977945
0.596542 0.819614 0.969844
0.764849 0.828406 0.962863
0.859414 0.843505 0.958446
0.911928 0.858257 0.956493
0.945915 0.873421 0.955486
0.163206 0.866073 0.974607
0.183249 0.865946 0.973564
0.273350 0.865640 0.970048
0.419702 0.865627 0.964421
0.583506 0.866712 0.957718
0.750938 0.869824 0.951253
0.847218 0.875889 0.946386
0.905139 0.885873 0.944495
0.940151 0.899295 0.945242
0.175344 0.901557 0.960846
0.193978 0.901548 0.960195
0.281593 0.901611 0.957992
0.420672 0.902094 0.954453
0.580609 0.903561 0.950224
0.747907 0.906673 0.946146
0.845938 0.912036 0.943050
0.904252 0.918261 0.941612
0.938855 0.933568 0.942293
