ektachrome100d/Ektachrome100D_Classic_Punchy.cube
TITLE "Kodak Ektachrome 100D Classic Punchy"
# Adobe RGB in/out. REPLACES AgX. Kodak Ektachrome 100D Classic Punchy.
LUT_3D_SIZE 9
DOMAIN_MIN 0.0 0.0 0.0
DOMAIN_MAX 1.0 1.0 1.0
0.100571 0.090407 0.084157
0.100695 0.090407 0.084157
0.124243 0.090421 0.084157
0.283327 0.090925 0.084157
0.522265 0.096454 0.084157
0.727659 0.139043 0.084157
0.848466 0.296028 0.084157
0.922766 0.495835 0.084266
0.955743 0.655834 0.084569
0.100571 0.090408 0.084157
0.100769 0.090414 0.084157
0.124606 0.090457 0.084157
0.284199 0.091716 0.084157
0.522817 0.102189 0.084157
0.728142 0.158324 0.084157
0.848640 0.328093 0.084157
0.922815 0.516234 0.084270
0.955775 0.668787 0.084573
0.100571 0.091233 0.084157
0.101017 0.091605 0.084157
0.126398 0.093119 0.084157
0.287330 0.102312 0.084157
0.524796 0.135696 0.084157
0.729844 0.252576 0.084157
0.849265 0.432497 0.084157
0.922990 0.589949 0.084285
0.955888 0.712797 0.084589
0.100571 0.122371 0.084157
0.101424 0.126581 0.084157
0.129770 0.145704 0.084157
0.298922 0.201121 0.084157
0.528429 0.301802 0.084157
0.731935 0.447511 0.084157
0.850411 0.571534 0.084157
0.923312 0.684795 0.084312
0.956096 0.790483 0.084617
0.100571 0.376688 0.084157
0.102430 0.385667 0.084157
0.134705 0.417257 0.084157
0.307906 0.479350 0.084157
0.533842 0.549262 0.084157
0.735049 0.635086 0.084157
0.851842 0.713817 0.084157
0.923792 0.798152 0.084350
0.956407 0.852428 0.084657
0.100958 0.647970 0.084157
0.104321 0.653075 0.084157
0.142583 0.670065 0.084157
0.319330 0.699461 0.084157
0.541116 0.742336 0.084157
0.739233 0.796712 0.084157
0.854031 0.834123 0.084157
0.924438 0.876104 0.084400
0.956825 0.903272 0.084722
0.102394 0.824257 0.084157
0.106940 0.826500 0.084157
0.153394 0.834478 0.084157
0.333908 0.848852 0.084157
0.550304 0.869662 0.084157
0.744516 0.887357 0.084157
0.856798 0.904803 0.084218
0.925255 0.923732 0.084466
0.957355 0.935495 0.084888
0.105344 0.910425 0.084157
0.112517 0.911350 0.084157
0.169550 0.914644 0.084157
0.351812 0.920587 0.084157
0.561434 0.928221 0.084157
0.750910 0.934557 0.084157
0.860150 0.940815 0.084305
0.926245 0.949864 0.084560
0.957998 0.958736 0.085079
0.110884 0.948349 0.084157
0.120256 0.948728 0.084157
0.191405 0.950078 0.084157
0.373093 0.952521 0.084157
0.574517 0.956081 0.084157
0.757105 0.960723 0.084192
0.864093 0.965007 0.084399
0.927411 0.968722 0.084663
0.958617 0.972865 0.085368
0.100571 0.090407 0.084157
0.100695 0.090407 0.084157
0.124243 0.090422 0.084157
0.283327 0.090938 0.084157
0.522265 0.096512 0.084157
0.727659 0.139392 0.084157
0.848466 0.296627 0.084346
0.922766 0.496323 0.084604
0.955743 0.656171 0.085171
0.100571 0.090408 0.084157
0.100769 0.090414 0.084157
0.124606 0.090457 0.084157
0.284199 0.091744 0.084157
0.522817 0.102349 0.084157
0.728142 0.158872 0.084157
0.848640 0.328960 0.084350
0.922815 0.516723 0.084608
0.955775 0.669085 0.085180
0.100571 0.091257 0.084157
0.101017 0.091633 0.084157
0.126398 0.093174 0.084157
0.287330 0.102474 0.084157
0.524796 0.136033 0.084157
0.729844 0.253307 0.084157
0.849265 0.433338 0.084364
0.922990 0.590442 0.084623
0.955888 0.713086 0.085211
0.100571 0.122561 0.084157
0.101424 0.126914 0.084157
0.129770 0.146140 0.084157
0.298922 0.201768 0.084157
0.528429 0.302405 0.084157
0.731935 0.448041 0.084179
0.850411 0.572027 0.084388
0.923312 0.685090 0.084651
0.956096 0.790758 0.085312
0.100571 0.377281 0.084157
0.102430 0.386264 0.084157
0.134705 0.418084 0.084157
0.307906 0.479764 0.084157
0.533842 0.549753 0.084157
0.735049 0.635426 0.084222
0.851842 0.714105 0.084424
0.923792 0.798272 0.084690
0.956407 0.852569 0.085493
0.100958 0.648309 0.084157
0.104321 0.653412 0.084157
0.142583 0.670363 0.084157
0.319330 0.699753 0.084157
0.541116 0.742619 0.084157
0.739233 0.796833 0.084279
0.854031 0.834269 0.084480
0.924438 0.876197 0.084804
0.956825 0.903335 0.085732
0.102394 0.824406 0.084157
0.106940 0.826648 0.084157
0.153394 0.834624 0.084157
0.333908 0.848994 0.084157
0.550304 0.869799 0.084178
0.744516 0.887431 0.084347
0.856798 0.904865 0.084556
0.925255 0.923790 0.084965
0.957355 0.935508 0.086025
0.105344 0.910486 0.084157
0.112517 0.911411 0.084157
0.169550 0.914705 0.084157
0.351812 0.920645 0.084157
0.561434 0.928254 0.084268
0.750910 0.934570 0.084423
0.860150 0.940848 0.084644
0.926245 0.949889 0.085153
0.957998 0.958759 0.086487
0.110884 0.948374 0.084157
0.120256 0.948753 0.084157
0.191405 0.950102 0.084160
0.373093 0.952545 0.084247
0.574517 0.956105 0.084366
0.757105 0.960745 0.084530
0.864093 0.965020 0.084801
0.927411 0.968734 0.085519
0.958617 0.972876 0.087315
0.100571 0.090407 0.085211
0.100695 0.090407 0.085244
0.124243 0.090425 0.085445
0.283327 0.090987 0.085800
0.522265 0.096719 0.086366
0.727659 0.140793 0.087694
0.848466 0.298781 0.089688
0.922766 0.498076 0.092897
0.955743 0.657382 0.099628
0.100571 0.090409 0.085220
0.100769 0.090416 0.085263
0.124606 0.090461 0.085463
0.284199 0.091842 0.085817
0.522817 0.102947 0.086396
0.728142 0.160849 0.087699
0.848640 0.332083 0.089731
0.922815 0.518481 0.092984
0.955775 0.670156 0.099734
0.100571 0.091341 0.085274
0.101017 0.091733 0.085330
0.126398 0.093371 0.085528
0.287330 0.103075 0.085880
0.524796 0.137247 0.086504
0.729844 0.255941 0.087717
0.849265 0.436366 0.089885
0.922990 0.592216 0.093298
0.955888 0.714124 0.100115
0.100571 0.123271 0.085396
0.101424 0.128110 0.085451
0.129770 0.147899 0.085646
0.298922 0.204102 0.085993
0.528429 0.304707 0.086700
0.731935 0.449945 0.087918
0.850411 0.573797 0.090165
0.923312 0.686148 0.093874
0.956096 0.791744 0.100836
0.100571 0.379414 0.085575
0.102430 0.388411 0.085629
0.134705 0.421062 0.085820
0.307906 0.481251 0.086159
0.533842 0.551518 0.087022
0.735049 0.636651 0.088365
0.851842 0.715142 0.090580
0.923792 0.798704 0.094729
0.956407 0.853076 0.102046
0.100958 0.649525 0.085811
0.104321 0.654625 0.085864
0.142583 0.671432 0.086049
0.319330 0.700800 0.086505
0.541116 0.743636 0.087535
0.739233 0.797267 0.088958
0.854031 0.834794 0.091133
0.924438 0.876530 0.095876
0.956825 0.903563 0.103705
0.102394 0.824941 0.086102
0.106940 0.827180 0.086152
0.153394 0.835148 0.086417
0.333908 0.849504 0.087043
0.550304 0.870290 0.087915
0.744516 0.887697 0.089696
0.856798 0.905091 0.092062
0.925255 0.923999 0.097319
0.957355 0.935552 0.106072
0.105344 0.910707 0.086623
0.112517 0.911631 0.086712
0.169550 0.914921 0.087075
0.351812 0.920857 0.087704
0.561434 0.928370 0.088845
0.750910 0.934615 0.090574
0.860150 0.940968 0.093732
0.926245 0.949978 0.099399
0.957998 0.958842 0.109607
0.110884 0.948464 0.087489
0.120256 0.948842 0.087603
0.191405 0.950191 0.087728
0.373093 0.952632 0.088616
0.574517 0.956189 0.089914
0.757105 0.960826 0.091635
0.864093 0.965063 0.095856
0.927411 0.968775 0.102221
0.958617 0.972915 0.113901
0.100571 0.090407 0.151746
0.100695 0.090407 0.152887
0.124243 0.090429 0.157025
0.283327 0.091073 0.164914
0.522265 0.097205 0.177810
0.727659 0.143382 0.196158
0.848466 0.302760 0.220909
0.922766 0.501303 0.250013
0.955743 0.659609 0.288321
0.100571 0.090412 0.152124
0.100769 0.090420 0.153266
0.124606 0.090468 0.157410
0.284199 0.092019 0.165337
0.522817 0.104047 0.178252
0.728142 0.164518 0.196627
0.848640 0.337870 0.221359
0.922815 0.521716 0.250494
0.955775 0.672123 0.288896
0.100571 0.091494 0.153485
0.101017 0.091913 0.154633
0.126398 0.093729 0.158798
0.287330 0.104175 0.166862
0.524796 0.139510 0.179846
0.729844 0.260825 0.198316
0.849265 0.441964 0.222977
0.922990 0.595480 0.252225
0.955888 0.716030 0.290966
0.100571 0.125290 0.156007
0.101424 0.130316 0.157166
0.129770 0.151161 0.161369
0.298922 0.208432 0.169690
0.528429 0.310234 0.182802
0.731935 0.453452 0.201448
0.850411 0.577054 0.225971
0.923312 0.688092 0.255426
0.956096 0.793556 0.294799
0.100571 0.383347 0.159823
0.102430 0.392370 0.160998
0.134705 0.426567 0.165401
0.307906 0.483986 0.173972
0.533842 0.554767 0.187277
0.735049 0.638901 0.206186
0.851842 0.717047 0.230491
0.923792 0.799497 0.260256
0.956407 0.854008 0.300587
0.100958 0.651760 0.165192
0.104321 0.656855 0.166471
0.142583 0.673398 0.171116
0.319330 0.702724 0.179860
0.541116 0.745505 0.193425
0.739233 0.798064 0.212696
0.854031 0.835758 0.236676
0.924438 0.877142 0.266862
0.956825 0.903981 0.308513
0.102394 0.825923 0.172475
0.106940 0.828158 0.173788
0.153394 0.836112 0.178551
0.333908 0.850442 0.187516
0.550304 0.871193 0.201417
0.744516 0.888185 0.220990
0.856798 0.905507 0.244671
0.925255 0.924382 0.275394
0.957355 0.935634 0.318770
0.105344 0.911112 0.181627
0.112517 0.912035 0.182980
0.169550 0.915319 0.187891
0.351812 0.921245 0.197129
0.561434 0.928585 0.211441
0.750910 0.934699 0.230422
0.860150 0.941188 0.254636
0.926245 0.950141 0.287090
0.957998 0.958993 0.331570
0.110884 0.948630 0.192858
0.120256 0.949008 0.194260
0.191405 0.950355 0.199347
0.373093 0.952792 0.208912
0.574517 0.956344 0.223287
0.757105 0.960975 0.241899
0.864093 0.965144 0.266747
0.927411 0.968851 0.301418
0.958617 0.972986 0.347151
0.100571 0.090407 0.572163
0.100695 0.090407 0.573264
0.124243 0.090438 0.577221
0.283327 0.091196 0.582978
0.522265 0.098833 0.590261
0.727659 0.147604 0.600055
0.848466 0.310464 0.612432
0.922766 0.506132 0.627746
0.955743 0.662613 0.651176
0.100571 0.090417 0.572528
0.100769 0.090428 0.573629
0.124606 0.090514 0.577586
0.284199 0.092275 0.583222
0.522817 0.105894 0.590505
0.728142 0.170081 0.600297
0.848640 0.346627 0.612673
0.922815 0.526558 0.628061
0.955775 0.675060 0.651491
0.100571 0.091772 0.573839
0.101017 0.092174 0.574940
0.126398 0.094255 0.578898
0.287330 0.106060 0.584101
0.524796 0.143377 0.591380
0.729844 0.268220 0.601167
0.849265 0.448347 0.613537
0.922990 0.600366 0.629193
0.955888 0.718878 0.652623
0.100571 0.128578 0.576252
0.101424 0.133632 0.577354
0.129770 0.156378 0.580838
0.298922 0.214997 0.585717
0.528429 0.318602 0.592989
0.731935 0.458705 0.602767
0.850411 0.581929 0.615126
0.923312 0.690996 0.631277
0.956096 0.795762 0.654705
0.100571 0.389252 0.579864
0.102430 0.398037 0.580606
0.134705 0.434864 0.583259
0.307906 0.488075 0.588131
0.533842 0.559629 0.595392
0.735049 0.642262 0.605157
0.851842 0.719893 0.617500
0.923792 0.800681 0.634393
0.956407 0.855398 0.657819
0.100958 0.655100 0.583138
0.104321 0.660163 0.583876
0.142583 0.676332 0.586525
0.319330 0.705598 0.591387
0.541116 0.748297 0.598635
0.739233 0.799252 0.608382
0.854031 0.837197 0.620702
0.924438 0.878056 0.638604
0.956825 0.904604 0.662028
0.102394 0.827388 0.587291
0.106940 0.829618 0.588027
0.153394 0.837549 0.590669
0.333908 0.851842 0.595520
0.550304 0.872293 0.602751
0.744516 0.888914 0.612475
0.856798 0.906126 0.624768
0.925255 0.924953 0.643959
0.957355 0.935756 0.667379
0.105344 0.911717 0.592351
0.112517 0.912637 0.593085
0.169550 0.915913 0.595719
0.351812 0.921824 0.600556
0.561434 0.928904 0.607766
0.750910 0.934823 0.617464
0.860150 0.941518 0.630764
0.926245 0.950386 0.650500
0.957998 0.959219 0.673917
0.110884 0.948878 0.598339
0.120256 0.949255 0.599070
0.191405 0.950599 0.601695
0.373093 0.953031 0.606516
0.574517 0.956575 0.613702
0.757105 0.961198 0.623367
0.864093 0.965264 0.638531
0.927411 0.968965 0.658264
0.958617 0.973092 0.679527
0.100571 0.090407 0.806711
0.100695 0.090409 0.807053
0.124243 0.090451 0.808279
0.283327 0.091511 0.810527
0.522265 0.101013 0.813873
0.727659 0.154349 0.818362
0.848466 0.321804 0.824018
0.922766 0.512663 0.830850
0.955743 0.666609 0.838852
0.100571 0.090426 0.806824
0.100769 0.090439 0.807166
0.124606 0.090641 0.808392
0.284199 0.092615 0.810639
0.522817 0.108712 0.813985
0.728142 0.177741 0.818472
0.848640 0.358300 0.824127
0.922815 0.533106 0.830958
0.955775 0.679020 0.838959
0.100571 0.092129 0.807231
0.101017 0.092509 0.807573
0.126398 0.095093 0.808797
0.287330 0.108845 0.811043
0.524796 0.149307 0.814386
0.729844 0.278381 0.818871
0.849265 0.455436 0.824522
0.922990 0.606034 0.831347
0.955888 0.722717 0.839343
0.100571 0.133050 0.807979
0.101424 0.138140 0.808320
0.129770 0.163735 0.809543
0.298922 0.224033 0.811786
0.528429 0.330099 0.815124
0.731935 0.465818 0.819603
0.850411 0.588521 0.825246
0.923312 0.694910 0.832063
0.956096 0.797378 0.840048
0.100571 0.397136 0.809096
0.102430 0.405002 0.809436
0.134705 0.445742 0.810656
0.307906 0.493594 0.812895
0.533842 0.566204 0.816226
0.735049 0.646795 0.820696
0.851842 0.723729 0.826328
0.923792 0.802481 0.833131
0.956407 0.857272 0.841101
0.100958 0.659603 0.810601
0.104321 0.664166 0.810940
0.142583 0.680288 0.812157
0.319330 0.709472 0.814389
0.541116 0.752061 0.817712
0.739233 0.800852 0.822169
0.854031 0.839134 0.827786
0.924438 0.879286 0.834572
0.956825 0.905445 0.842522
0.102394 0.829363 0.812509
0.106940 0.831584 0.812847
0.153394 0.839486 0.814060
0.333908 0.853727 0.816285
0.550304 0.873546 0.819595
0.744516 0.889896 0.824037
0.856798 0.906961 0.829636
0.925255 0.925724 0.836399
0.957355 0.935920 0.844323
0.105344 0.912532 0.814832
0.112517 0.913449 0.815168
0.169550 0.916714 0.816376
0.351812 0.922604 0.818591
0.561434 0.929335 0.821888
0.750910 0.934991 0.826311
0.860150 0.941961 0.831887
0.926245 0.950715 0.838623
0.957998 0.959524 0.846516
0.110884 0.949211 0.817576
0.120256 0.949587 0.817911
0.191405 0.950927 0.819112
0.373093 0.953353 0.821316
0.574517 0.956887 0.824597
0.757105 0.961497 0.828999
0.864093 0.965427 0.834547
0.927411 0.969118 0.841251
0.958617 0.973236 0.849108
0.100571 0.090411 0.916195
0.100695 0.090419 0.916320
0.124243 0.090466 0.916770
0.283327 0.091979 0.917597
0.522265 0.103797 0.918741
0.727659 0.163676 0.919885
0.848466 0.336543 0.921327
0.922766 0.520977 0.923070
0.955743 0.671674 0.925111
0.100571 0.090441 0.916236
0.100769 0.090454 0.916362
0.124606 0.090834 0.916812
0.284199 0.093186 0.917638
0.522817 0.111636 0.918769
0.728142 0.186120 0.919913
0.848640 0.370206 0.921355
0.922815 0.541442 0.923097
0.955775 0.684039 0.925138
0.100571 0.092555 0.916386
0.101017 0.093014 0.916511
0.126398 0.096116 0.916961
0.287330 0.111768 0.917787
0.524796 0.158211 0.918872
0.729844 0.288196 0.920015
0.849265 0.464475 0.921456
0.922990 0.611908 0.923197
0.955888 0.727585 0.925236
0.100571 0.138785 0.916660
0.101424 0.144611 0.916786
0.129770 0.173329 0.917235
0.298922 0.235800 0.918060
0.528429 0.345038 0.919060
0.731935 0.474886 0.920201
0.850411 0.596912 0.921641
0.923312 0.699873 0.923379
0.956096 0.799422 0.925416
0.100571 0.405994 0.917071
0.102430 0.414969 0.917196
0.134705 0.454754 0.917644
0.307906 0.501373 0.918467
0.533842 0.574573 0.919341
0.735049 0.652544 0.920480
0.851842 0.728594 0.921916
0.923792 0.805114 0.923652
0.956407 0.859645 0.925685
0.100958 0.664734 0.917624
0.104321 0.669240 0.917749
0.142583 0.685303 0.918196
0.319330 0.714385 0.918872
0.541116 0.756835 0.919719
0.739233 0.803267 0.920856
0.854031 0.841589 0.922288
0.924438 0.880734 0.924019
0.956825 0.906509 0.926047
0.102394 0.831863 0.918325
0.106940 0.834073 0.918450
0.153394 0.841939 0.918789
0.333908 0.856116 0.919356
0.550304 0.875131 0.920200
0.744516 0.891138 0.921332
0.856798 0.908018 0.922760
0.925255 0.926700 0.924485
0.957355 0.936404 0.926506
0.105344 0.913564 0.918985
0.112517 0.914477 0.919071
0.169550 0.917728 0.919379
0.351812 0.923593 0.919944
0.561434 0.929881 0.920784
0.750910 0.935203 0.921912
0.860150 0.942523 0.923334
0.926245 0.951133 0.925052
0.957998 0.959911 0.927066
0.110884 0.949635 0.919685
0.120256 0.950009 0.919770
0.191405 0.951344 0.920077
0.373093 0.953761 0.920639
0.574517 0.957283 0.921475
0.757105 0.961878 0.922598
0.864093 0.965633 0.924013
0.927411 0.969312 0.925723
0.958617 0.973418 0.927727
0.100571 0.090423 0.947336
0.100695 0.090435 0.947377
0.124243 0.090604 0.947524
0.283327 0.092508 0.947796
0.522265 0.107909 0.948199
0.727659 0.175431 0.948681
0.848466 0.354997 0.949289
0.922766 0.531146 0.950026
0.955743 0.677836 0.950893
0.100571 0.090459 0.947349
0.100769 0.090482 0.947390
0.124606 0.091111 0.947538
0.284199 0.094311 0.947809
0.522817 0.115553 0.948211
0.728142 0.199254 0.948693
0.848640 0.382514 0.949301
0.922815 0.551638 0.950038
0.955775 0.690146 0.950904
0.100571 0.093279 0.947398
0.101017 0.094088 0.947439
0.126398 0.097823 0.947587
0.287330 0.115702 0.947858
0.524796 0.169777 0.948254
0.729844 0.300522 0.948736
0.849265 0.475510 0.949344
0.922990 0.619059 0.950080
0.955888 0.733511 0.950946
0.100571 0.147068 0.947488
0.101424 0.154694 0.947529
0.129770 0.184094 0.947677
0.298922 0.250620 0.947948
0.528429 0.362965 0.948333
0.731935 0.483589 0.948814
0.850411 0.606176 0.949422
0.923312 0.705913 0.950158
0.956096 0.801996 0.951022
0.100571 0.419656 0.947623
0.102430 0.432255 0.947664
0.134705 0.465798 0.947811
0.307906 0.511517 0.948081
0.533842 0.584810 0.948452
0.735049 0.659547 0.948932
0.851842 0.734516 0.949538
0.923792 0.808312 0.950273
0.956407 0.862531 0.951136
0.100958 0.670928 0.947805
0.104321 0.675413 0.947845
0.142583 0.691405 0.947992
0.319330 0.720364 0.948254
0.541116 0.762648 0.948611
0.739233 0.806477 0.949090
0.854031 0.844573 0.949696
0.924438 0.882307 0.950429
0.956825 0.907802 0.951291
0.102394 0.834901 0.948035
0.106940 0.837099 0.948076
0.153394 0.844921 0.948219
0.333908 0.859021 0.948458
0.550304 0.877058 0.948813
0.744516 0.892649 0.949291
0.856798 0.909303 0.949895
0.925255 0.927466 0.950627
0.957355 0.937117 0.951486
0.105344 0.914819 0.948302
0.112517 0.915727 0.948338
0.169550 0.918961 0.948468
0.351812 0.924796 0.948706
0.561434 0.930544 0.949060
0.750910 0.935462 0.949537
0.860150 0.943207 0.950138
0.926245 0.951641 0.950868
0.957998 0.960382 0.951725
0.110884 0.950149 0.948596
0.120256 0.950522 0.948632
0.191405 0.951851 0.948762
0.373093 0.954257 0.948999
0.574517 0.957765 0.949352
0.757105 0.962341 0.949827
0.864093 0.965883 0.950426
0.927411 0.969548 0.951153
0.958617 0.973639 0.952007
0.100571 0.090444 0.966430
0.100695 0.090457 0.966458
0.124243 0.090885 0.966559
0.283327 0.093386 0.966743
0.522265 0.112260 0.967018
0.727659 0.188399 0.967388
0.848466 0.372364 0.967856
0.922766 0.543236 0.968424
0.955743 0.685116 0.969094
0.100571 0.090576 0.966439
0.100769 0.090713 0.966467
0.124606 0.091635 0.966568
0.284199 0.095830 0.966752
0.522817 0.120306 0.967027
0.728142 0.215440 0.967397
0.848640 0.397135 0.967865
0.922815 0.563758 0.968433
0.955775 0.697363 0.969103
0.100571 0.094664 0.966473
0.101017 0.095592 0.966501
0.126398 0.101846 0.966601
0.287330 0.120453 0.966785
0.524796 0.182962 0.967060
0.729844 0.319822 0.967430
0.849265 0.485713 0.967898
0.922990 0.627513 0.968466
0.955888 0.740516 0.969135
0.100571 0.159911 0.966534
0.101424 0.168323 0.966562
0.129770 0.199249 0.966662
0.298922 0.268878 0.966846
0.528429 0.378059 0.967121
0.731935 0.493775 0.967490
0.850411 0.614689 0.967958
0.923312 0.713050 0.968525
0.956096 0.805814 0.969194
0.100571 0.440321 0.966625
0.102430 0.450080 0.966653
0.134705 0.478148 0.966753
0.307906 0.523576 0.966937
0.533842 0.596977 0.967212
0.735049 0.666971 0.967581
0.851842 0.741516 0.968048
0.923792 0.812083 0.968615
0.956407 0.865937 0.969283
0.100958 0.678245 0.966749
0.104321 0.682706 0.966777
0.142583 0.698615 0.966877
0.319330 0.727431 0.967060
0.541116 0.769521 0.967334
0.739233 0.810261 0.967703
0.854031 0.848093 0.968169
0.924438 0.884162 0.968735
0.956825 0.909329 0.969402
0.102394 0.838486 0.966906
0.106940 0.840669 0.966933
0.153394 0.848439 0.967033
0.333908 0.862449 0.967216
0.550304 0.879331 0.967490
0.744516 0.894430 0.967858
0.856798 0.910820 0.968323
0.925255 0.928269 0.968888
0.957355 0.937959 0.969554
0.105344 0.916300 0.967097
0.112517 0.917203 0.967124
0.169550 0.920416 0.967224
0.351812 0.926216 0.967407
0.561434 0.931327 0.967679
0.750910 0.935766 0.968046
0.860150 0.944015 0.968511
0.926245 0.952241 0.969074
0.957998 0.960938 0.969739
0.110884 0.950758 0.967323
0.120256 0.951128 0.967351
0.191405 0.952451 0.967450
0.373093 0.954844 0.967632
0.574517 0.958334 0.967904
0.757105 0.962888 0.968270
0.864093 0.966179 0.968733
0.927411 0.969828 0.969295
0.958617 0.973901 0.969958
