ektachrome100d/Ektachrome100D_Classic_IlfochromeP.cube
TITLE "Kodak Ektachrome 100D Classic IlfochromeP"
# Adobe RGB in/out. REPLACES AgX. Kodak Ektachrome 100D Classic IlfochromeP.
LUT_3D_SIZE 33
DOMAIN_MIN 0.0 0.0 0.0
DOMAIN_MAX 1.0 1.0 1.0
0.138981 0.101282 0.098429
0.139669 0.103739 0.098954
0.142516 0.107256 0.099586
0.148346 0.110804 0.100302
0.156322 0.116053 0.101117
0.168702 0.121471 0.101754
0.186367 0.127250 0.102627
0.208549 0.135874 0.103511
0.236823 0.146125 0.104386
0.269744 0.156742 0.105271
0.303018 0.168154 0.106152
0.335214 0.179432 0.107511
0.367051 0.193694 0.108798
0.398488 0.207995 0.110784
0.430365 0.223897 0.112764
0.462004 0.240379 0.114711
0.493043 0.257350 0.117171
0.524097 0.274381 0.119530
0.557659 0.291487 0.122379
0.591413 0.309207 0.125590
0.624116 0.327012 0.129251
0.651269 0.344899 0.132872
0.678258 0.363055 0.136863
0.705091 0.381823 0.140887
0.727762 0.400701 0.145016
0.748083 0.419684 0.149767
0.768142 0.438769 0.154477
0.787951 0.457953 0.159150
0.805654 0.477146 0.163786
0.821208 0.495057 0.168388
0.836520 0.512998 0.173864
0.851601 0.530428 0.180100
0.866463 0.547789 0.186352
0.138997 0.105599 0.098702
0.139689 0.106605 0.099036
0.142543 0.108822 0.099624
0.148374 0.112221 0.100340
0.156346 0.117254 0.101138
0.168738 0.122434 0.101767
0.186402 0.128360 0.102644
0.208586 0.136940 0.103523
0.236858 0.147196 0.104397
0.269780 0.157782 0.105281
0.303048 0.169054 0.106162
0.335241 0.180344 0.107522
0.367074 0.194605 0.108807
0.398509 0.208823 0.110798
0.430385 0.224758 0.112776
0.462021 0.241205 0.114726
0.493060 0.258118 0.117184
0.524113 0.275098 0.119542
0.557675 0.292181 0.122392
0.591428 0.309860 0.125605
0.624127 0.327629 0.129266
0.651279 0.345484 0.132886
0.678267 0.363633 0.136878
0.705100 0.382374 0.140901
0.727768 0.401227 0.145032
0.748089 0.420188 0.149782
0.768148 0.439253 0.154491
0.787957 0.458417 0.159163
0.805658 0.477559 0.163799
0.821212 0.495454 0.168400
0.836524 0.513381 0.173880
0.851605 0.530784 0.180116
0.866467 0.548131 0.186366
0.139026 0.111587 0.099074
0.139755 0.112093 0.099262
0.142637 0.114147 0.099741
0.148470 0.117275 0.100466
0.156434 0.121232 0.101208
0.168869 0.125434 0.101811
0.186527 0.132573 0.102703
0.208720 0.141223 0.103566
0.236983 0.150872 0.104439
0.269907 0.161395 0.105313
0.303156 0.172221 0.106198
0.335337 0.183939 0.107563
0.367157 0.197825 0.108849
0.398587 0.211942 0.110846
0.430456 0.227818 0.112822
0.462085 0.244150 0.114778
0.493119 0.260857 0.117231
0.524168 0.277657 0.119583
0.557731 0.294659 0.122441
0.591480 0.312196 0.125661
0.624167 0.329838 0.129320
0.651317 0.347577 0.132937
0.678302 0.365701 0.136932
0.705133 0.384347 0.140951
0.727792 0.403113 0.145089
0.748112 0.421994 0.149836
0.768169 0.440985 0.154542
0.787977 0.460139 0.159212
0.805673 0.479042 0.163845
0.821226 0.496879 0.168443
0.836537 0.514751 0.173937
0.851618 0.532057 0.180171
0.866479 0.549358 0.186420
0.139188 0.120163 0.099471
0.139862 0.120554 0.099600
0.142804 0.121873 0.099947
0.148646 0.124016 0.100670
0.156623 0.127510 0.101327
0.169110 0.133124 0.101926
0.186756 0.140144 0.102808
0.208965 0.148550 0.103643
0.237214 0.157629 0.104514
0.270140 0.167594 0.105372
0.303354 0.177733 0.106272
0.335515 0.190296 0.107637
0.367310 0.203580 0.108953
0.398731 0.217920 0.110935
0.430588 0.233326 0.112905
0.462203 0.249471 0.114875
0.493228 0.265818 0.117317
0.524270 0.282300 0.119660
0.557833 0.299165 0.122531
0.591577 0.316449 0.125765
0.624240 0.333862 0.129420
0.651385 0.351396 0.133029
0.678367 0.369477 0.137031
0.705194 0.387952 0.141043
0.727837 0.406562 0.145194
0.748154 0.425299 0.149935
0.768208 0.444157 0.154636
0.788014 0.463546 0.159301
0.805701 0.481758 0.163929
0.821253 0.499489 0.168524
0.836563 0.517195 0.174042
0.851642 0.534392 0.180272
0.866501 0.551607 0.186517
0.139435 0.129985 0.099817
0.139993 0.130445 0.099918
0.143041 0.132049 0.100345
0.148903 0.134819 0.100926
0.156929 0.138803 0.101489
0.169467 0.144513 0.102091
0.187097 0.150955 0.102959
0.209331 0.158634 0.103754
0.237558 0.167176 0.104623
0.270488 0.176155 0.105458
0.303650 0.187020 0.106405
0.335781 0.199256 0.107747
0.367539 0.211998 0.109107
0.398946 0.226522 0.111066
0.430785 0.241578 0.113029
0.462380 0.257209 0.115019
0.493391 0.273057 0.117444
0.524421 0.289095 0.119774
0.557987 0.305779 0.122666
0.591722 0.322703 0.125919
0.624350 0.339792 0.129570
0.651488 0.357030 0.133167
0.678464 0.375059 0.137178
0.705285 0.393287 0.141182
0.727903 0.411670 0.145351
0.748216 0.430198 0.150083
0.768267 0.448862 0.154776
0.788069 0.468272 0.159433
0.805744 0.485790 0.164056
0.821293 0.503365 0.168644
0.836600 0.520799 0.174199
0.851677 0.537862 0.180423
0.866535 0.554952 0.186663
0.139739 0.145518 0.100327
0.140148 0.145913 0.100435
0.143340 0.147305 0.100762
0.149241 0.149773 0.101208
0.157337 0.153261 0.101679
0.169946 0.158342 0.102330
0.187556 0.164364 0.103149
0.209824 0.171153 0.103896
0.238028 0.178590 0.104766
0.270959 0.188487 0.105571
0.304050 0.199278 0.106580
0.336140 0.210603 0.107892
0.367848 0.223888 0.109311
0.399235 0.237702 0.111242
0.431051 0.252326 0.113195
0.462618 0.267281 0.115212
0.493612 0.282522 0.117616
0.524639 0.298245 0.119944
0.558195 0.314492 0.122846
0.591917 0.330965 0.126126
0.624498 0.347642 0.129771
0.651627 0.364760 0.133353
0.678594 0.382480 0.137377
0.705408 0.400390 0.141368
0.727992 0.418480 0.145562
0.748300 0.436735 0.150282
0.768346 0.455148 0.154965
0.788144 0.473881 0.159613
0.805801 0.491180 0.164226
0.821347 0.508552 0.168806
0.836651 0.525623 0.174411
0.851726 0.542510 0.180627
0.866581 0.559435 0.186860
0.139989 0.162843 0.100843
0.140495 0.163189 0.100916
0.143690 0.164419 0.101151
0.149654 0.166628 0.101497
0.157846 0.169842 0.101925
0.170549 0.174030 0.102630
0.188136 0.179051 0.103373
0.210448 0.186313 0.104108
0.238706 0.194657 0.104939
0.271556 0.203757 0.105710
0.304558 0.213960 0.106797
0.336596 0.225708 0.108073
0.368241 0.238168 0.109567
0.399604 0.251514 0.111462
0.431389 0.265320 0.113403
0.462920 0.279528 0.115455
0.493892 0.294190 0.117832
0.524920 0.309558 0.120196
0.558459 0.325232 0.123074
0.592166 0.341180 0.126391
0.624686 0.357374 0.130025
0.651803 0.374419 0.133598
0.678760 0.391727 0.137630
0.705564 0.409257 0.141603
0.728106 0.426993 0.145831
0.748407 0.444920 0.150536
0.768447 0.463429 0.155205
0.788239 0.480911 0.159840
0.805873 0.497943 0.164442
0.821415 0.515066 0.169012
0.836716 0.531686 0.174680
0.851787 0.548355 0.180887
0.866639 0.565076 0.187110
0.140247 0.181035 0.101281
0.141332 0.181400 0.101334
0.144155 0.182700 0.101509
0.150137 0.185058 0.101780
0.158453 0.188505 0.102282
0.171276 0.193019 0.102956
0.188839 0.198543 0.103624
0.211207 0.205036 0.104360
0.239531 0.212666 0.105140
0.272284 0.221910 0.105877
0.305177 0.231951 0.107053
0.337152 0.243040 0.108287
0.368720 0.254900 0.109872
0.400053 0.267348 0.111733
0.431801 0.280317 0.113653
0.463289 0.293837 0.115747
0.494234 0.308138 0.118093
0.525264 0.322834 0.120500
0.558781 0.337884 0.123350
0.592469 0.353253 0.126726
0.624916 0.369341 0.130334
0.652019 0.385910 0.133927
0.678963 0.402753 0.137936
0.705755 0.419850 0.141890
0.728244 0.437182 0.146157
0.748537 0.454731 0.150844
0.768569 0.472747 0.155497
0.788355 0.489350 0.160117
0.805961 0.506072 0.164706
0.821498 0.522643 0.169263
0.836795 0.538984 0.175008
0.851861 0.555398 0.181203
0.866710 0.571880 0.187416
0.141105 0.203798 0.101663
0.142135 0.204106 0.101702
0.144932 0.205211 0.101847
0.150682 0.207220 0.102181
0.159154 0.210173 0.102714
0.172126 0.214571 0.103298
0.189666 0.220055 0.103894
0.212103 0.226547 0.104639
0.240507 0.233982 0.105365
0.273145 0.242616 0.106133
0.305910 0.252114 0.107345
0.337810 0.262379 0.108534
0.369288 0.273337 0.110226
0.400585 0.284920 0.112066
0.432291 0.297266 0.113944
0.463727 0.310344 0.116089
0.494640 0.323907 0.118398
0.525671 0.337908 0.120857
0.559164 0.352306 0.123674
0.592830 0.367420 0.127121
0.625189 0.383117 0.130698
0.652274 0.399148 0.134315
0.679203 0.415486 0.138298
0.705982 0.432109 0.142229
0.728409 0.448995 0.146543
0.748692 0.466853 0.151209
0.768715 0.482932 0.155843
0.788493 0.499166 0.160445
0.806066 0.515532 0.165017
0.821597 0.531467 0.169560
0.836888 0.547501 0.175396
0.851950 0.563627 0.181577
0.866794 0.579836 0.187777
0.142073 0.228693 0.102098
0.142897 0.228997 0.102146
0.145974 0.230085 0.102348
0.151280 0.232071 0.102695
0.159945 0.235027 0.103142
0.173095 0.239087 0.103647
0.190615 0.244147 0.104249
0.213249 0.250178 0.104936
0.241636 0.257140 0.105610
0.274143 0.264982 0.106480
0.306759 0.273646 0.107670
0.338574 0.283072 0.108811
0.369947 0.293273 0.110625
0.401203 0.304403 0.112443
0.432858 0.316153 0.114276
0.464236 0.328469 0.116480
0.495111 0.341303 0.118748
0.526144 0.354608 0.121266
0.559608 0.368753 0.124089
0.593248 0.383458 0.127574
0.625505 0.398560 0.131117
0.652571 0.414028 0.134763
0.679482 0.429834 0.138716
0.706245 0.445954 0.142620
0.728600 0.462689 0.146988
0.748871 0.478824 0.151630
0.768885 0.494479 0.156242
0.788652 0.510312 0.160825
0.806188 0.525929 0.165378
0.821712 0.541508 0.169904
0.836997 0.557207 0.175847
0.852053 0.573015 0.182012
0.866892 0.588730 0.188197
0.142945 0.255373 0.102677
0.143617 0.255653 0.102726
0.147042 0.256657 0.102895
0.152310 0.258493 0.103181
0.160920 0.261215 0.103559
0.174182 0.264844 0.104017
0.191686 0.269383 0.104625
0.214551 0.274820 0.105248
0.242921 0.281126 0.105873
0.275278 0.288267 0.106897
0.307726 0.296372 0.108025
0.339444 0.305341 0.109306
0.370698 0.315038 0.111066
0.401908 0.325414 0.112862
0.433506 0.336421 0.114646
0.464815 0.348010 0.116917
0.495648 0.360223 0.119140
0.526684 0.373349 0.121727
0.560115 0.386968 0.124617
0.593726 0.401045 0.128087
0.625867 0.415545 0.131592
0.652910 0.430439 0.135270
0.679801 0.445697 0.139190
0.706546 0.461494 0.143063
0.728819 0.477125 0.147495
0.749077 0.492115 0.152110
0.769078 0.507323 0.156697
0.788835 0.522475 0.161256
0.806327 0.537524 0.165789
0.821844 0.552723 0.170296
0.837121 0.568061 0.176360
0.852171 0.583527 0.182507
0.867003 0.597808 0.188675
0.143738 0.282441 0.103223
0.144461 0.282692 0.103263
0.148123 0.283594 0.103402
0.153415 0.285244 0.103641
0.162165 0.287693 0.103972
0.175380 0.290967 0.104465
0.192877 0.295210 0.105005
0.216006 0.300310 0.105570
0.244361 0.306253 0.106256
0.276553 0.313015 0.107340
0.308813 0.320564 0.108405
0.340422 0.328864 0.109855
0.371542 0.337878 0.111545
0.402701 0.347563 0.113320
0.434234 0.357879 0.115165
0.465468 0.369212 0.117399
0.496253 0.381134 0.119573
0.527292 0.393604 0.122238
0.560686 0.406585 0.125205
0.594264 0.420043 0.128659
0.626274 0.433946 0.132121
0.653292 0.448264 0.135837
0.680160 0.463366 0.139720
0.706884 0.477891 0.143560
0.729065 0.492138 0.148062
0.749308 0.506644 0.152647
0.769296 0.521180 0.157206
0.789041 0.535625 0.161741
0.806484 0.550256 0.166250
0.821992 0.565057 0.170833
0.837261 0.580015 0.176936
0.852304 0.594254 0.183063
0.867129 0.607813 0.189212
0.144863 0.310280 0.103724
0.145984 0.310516 0.103757
0.149205 0.311360 0.103874
0.154570 0.312908 0.104118
0.163503 0.315210 0.104474
0.176685 0.318292 0.104905
0.194358 0.322170 0.105386
0.217615 0.326844 0.105912
0.245957 0.332306 0.106793
0.277968 0.338540 0.107803
0.310020 0.345524 0.108806
0.341510 0.353231 0.110440
0.372481 0.361772 0.112096
0.403583 0.371188 0.113815
0.435045 0.381263 0.115749
0.466195 0.391963 0.117923
0.496927 0.403252 0.120099
0.527970 0.415096 0.122798
0.561322 0.427462 0.125851
0.594863 0.440320 0.129288
0.626728 0.453638 0.132703
0.653717 0.468024 0.136462
0.680560 0.481138 0.140305
0.707262 0.494575 0.144117
0.729339 0.508312 0.148691
0.749566 0.522086 0.153242
0.769539 0.535862 0.157771
0.789270 0.549860 0.162278
0.806659 0.564061 0.166762
0.822157 0.578451 0.171497
0.837417 0.592380 0.177577
0.852451 0.605490 0.183682
0.867270 0.618700 0.189810
0.146479 0.338608 0.104262
0.147439 0.338823 0.104298
0.150279 0.339597 0.104425
0.155764 0.341015 0.104648
0.164922 0.343125 0.104956
0.178090 0.345955 0.105335
0.195991 0.349522 0.105765
0.219376 0.353830 0.106420
0.247709 0.358911 0.107342
0.279524 0.364911 0.108282
0.311349 0.371656 0.109490
0.342708 0.379126 0.111058
0.373515 0.387296 0.112689
0.404556 0.396141 0.114342
0.435940 0.405633 0.116376
0.466997 0.415742 0.118488
0.497671 0.426439 0.120763
0.528717 0.437692 0.123404
0.562024 0.449474 0.126565
0.595525 0.462008 0.129972
0.627228 0.474621 0.133339
0.654187 0.486834 0.137145
0.681002 0.499409 0.140945
0.707679 0.512323 0.144846
0.729642 0.525201 0.149380
0.749850 0.538253 0.153895
0.769807 0.551561 0.158391
0.789523 0.565106 0.162868
0.806852 0.578872 0.167324
0.822339 0.592226 0.172229
0.837590 0.604834 0.178282
0.852615 0.617570 0.184363
0.867425 0.630421 0.190468
0.147992 0.367496 0.104817
0.148821 0.367703 0.104848
0.151361 0.368444 0.104957
0.157128 0.369803 0.105150
0.166414 0.371828 0.105419
0.179590 0.374548 0.105754
0.197753 0.377981 0.106249
0.221286 0.382136 0.107052
0.249617 0.387014 0.107900
0.281220 0.392610 0.108774
0.312799 0.398914 0.110216
0.344016 0.405911 0.111707
0.374646 0.413583 0.113312
0.405619 0.421910 0.114963
0.436918 0.430867 0.117042
0.467874 0.440431 0.119090
0.498485 0.450576 0.121475
0.529536 0.461472 0.124101
0.562793 0.472766 0.127363
0.596249 0.483626 0.130712
0.627777 0.494908 0.134103
0.654702 0.506588 0.137885
0.681486 0.518526 0.141639
0.708135 0.530500 0.145637
0.729973 0.542784 0.150129
0.750162 0.555355 0.154606
0.770101 0.568197 0.159067
0.789801 0.581292 0.163510
0.807064 0.593811 0.167936
0.822539 0.605871 0.173027
0.837778 0.618085 0.179053
0.852794 0.630441 0.185106
0.867594 0.642927 0.191187
0.149414 0.397400 0.105338
0.150137 0.397591 0.105364
0.153051 0.398280 0.105459
0.158732 0.399544 0.105626
0.167969 0.401428 0.105864
0.181464 0.403960 0.106291
0.199638 0.407160 0.106951
0.223344 0.411037 0.107681
0.251680 0.415595 0.108462
0.283057 0.420833 0.109572
0.314370 0.426745 0.110963
0.345435 0.433319 0.112432
0.375873 0.440542 0.113961
0.406775 0.448397 0.115739
0.437982 0.456866 0.117744
0.468828 0.466669 0.119727
0.499369 0.475597 0.122231
0.530426 0.485020 0.124975
0.563629 0.494914 0.128215
0.597038 0.505255 0.131504
0.628373 0.515996 0.134952
0.655261 0.526781 0.138681
0.682013 0.537926 0.142386
0.708632 0.549409 0.146490
0.730334 0.561211 0.150937
0.750501 0.573314 0.155373
0.770421 0.585698 0.159796
0.790103 0.597128 0.164205
0.807294 0.608600 0.168599
0.822756 0.620252 0.173893
0.837984 0.632073 0.179888
0.852988 0.644048 0.185913
0.867741 0.656168 0.191967
0.150757 0.427571 0.105826
0.151449 0.427750 0.105850
0.154713 0.428393 0.105960
0.160356 0.429574 0.106165
0.169929 0.431334 0.106537
0.183616 0.433702 0.107043
0.201641 0.436696 0.107639
0.225546 0.440328 0.108306
0.253895 0.444604 0.109155
0.285034 0.449524 0.110419
0.316063 0.455085 0.111733
0.346965 0.461476 0.113177
0.377197 0.468680 0.114634
0.408022 0.475562 0.116546
0.439130 0.482987 0.118478
0.469858 0.490937 0.120553
0.500326 0.499393 0.123028
0.531388 0.508335 0.125900
0.564534 0.517658 0.129121
0.597891 0.527172 0.132346
0.629019 0.537090 0.135858
0.655867 0.547392 0.139531
0.682583 0.558058 0.143185
0.709170 0.569069 0.147404
0.730725 0.580407 0.151804
0.750869 0.591521 0.156197
0.770767 0.602151 0.160580
0.790430 0.613002 0.164952
0.807543 0.624061 0.169312
0.822992 0.635312 0.174825
0.838207 0.646742 0.180788
0.853199 0.658340 0.186783
0.867883 0.670093 0.192808
0.152481 0.457996 0.106534
0.153398 0.458164 0.106573
0.156345 0.458767 0.106712
0.162465 0.459906 0.106961
0.172144 0.461752 0.107318
0.185869 0.464237 0.107774
0.203758 0.467257 0.108314
0.227889 0.470423 0.108986
0.256262 0.474152 0.110096
0.287150 0.478445 0.111274
0.317876 0.483300 0.112574
0.348607 0.488710 0.113940
0.378618 0.494667 0.115529
0.409361 0.501161 0.117383
0.440365 0.508178 0.119241
0.470966 0.515689 0.121462
0.501354 0.523434 0.123865
0.532424 0.531634 0.126905
0.565508 0.540272 0.130077
0.598809 0.549331 0.133237
0.629713 0.558792 0.136819
0.656519 0.568637 0.140433
0.683196 0.578848 0.144034
0.709749 0.589162 0.148379
0.731145 0.598866 0.152729
0.751264 0.608830 0.157076
0.771139 0.619040 0.161417
0.790782 0.629479 0.165750
0.807812 0.640134 0.170074
0.823245 0.650991 0.175825
0.838446 0.662038 0.181753
0.853427 0.673263 0.187716
0.868037 0.683974 0.193711
0.154450 0.487721 0.107370
0.155272 0.487867 0.107405
0.158361 0.488391 0.107529
0.164632 0.489354 0.107751
0.174420 0.490791 0.108071
0.188216 0.492725 0.108483
0.206223 0.495173 0.109071
0.230370 0.498146 0.110005
0.258779 0.501650 0.111033
0.289403 0.505689 0.112174
0.319810 0.510260 0.113425
0.350359 0.515358 0.114720
0.380165 0.520791 0.116470
0.410793 0.526719 0.118244
0.441685 0.533131 0.120078
0.472151 0.540016 0.122406
0.502455 0.547361 0.124959
0.533533 0.555150 0.127981
0.566551 0.563370 0.131080
0.599793 0.572003 0.134274
0.630457 0.581035 0.137833
0.657217 0.590091 0.141387
0.683854 0.598804 0.145116
0.710369 0.607812 0.149412
0.731596 0.617101 0.153711
0.751688 0.626655 0.158010
0.771539 0.636459 0.162307
0.791159 0.646500 0.166599
0.808100 0.656764 0.171037
0.823517 0.667238 0.176890
0.838703 0.677910 0.182783
0.853670 0.687299 0.188711
0.868202 0.696194 0.194674
0.156336 0.516181 0.108167
0.157243 0.516314 0.108198
0.160383 0.516790 0.108309
0.166805 0.517664 0.108509
0.176747 0.518969 0.108798
0.190650 0.520726 0.109399
0.208947 0.522951 0.110150
0.232984 0.525654 0.111012
0.261443 0.528842 0.111992
0.291793 0.532518 0.113106
0.321864 0.536683 0.114282
0.352221 0.541333 0.115764
0.381827 0.546466 0.117430
0.412318 0.552073 0.119127
0.443091 0.558147 0.121135
0.473414 0.564678 0.123383
0.503629 0.571654 0.126100
0.534716 0.579064 0.129104
0.567663 0.586894 0.132129
0.600842 0.594264 0.135405
0.631251 0.601946 0.138897
0.657962 0.609953 0.142389
0.684555 0.618270 0.146264
0.711032 0.626883 0.150502
0.732076 0.635777 0.154748
0.752140 0.644939 0.158998
0.771965 0.654355 0.163249
0.791562 0.664013 0.167499
0.808407 0.673899 0.172209
0.823807 0.683447 0.178022
0.838978 0.691769 0.183877
0.853930 0.700222 0.189770
0.868377 0.708798 0.195699
0.158623 0.543750 0.108994
0.159489 0.543875 0.109041
0.162958 0.544323 0.109208
0.169129 0.545146 0.109510
0.179118 0.546374 0.109949
0.193185 0.548029 0.110518
0.211790 0.550125 0.111208
0.235728 0.552674 0.112034
0.264251 0.555682 0.112996
0.294318 0.559153 0.114037
0.324035 0.563089 0.115286
0.354194 0.567488 0.116820
0.383589 0.572348 0.118406
0.413935 0.577663 0.120075
0.444584 0.583427 0.122219
0.474755 0.589363 0.124522
0.504876 0.595278 0.127335
0.535973 0.601561 0.130270
0.568846 0.608201 0.133221
0.601953 0.615185 0.136586
0.632095 0.622503 0.140009
0.658755 0.630140 0.143439
0.685301 0.638084 0.147469
0.711736 0.646323 0.151648
0.732588 0.654843 0.155839
0.752621 0.663632 0.160038
0.772419 0.672678 0.164242
0.791991 0.681803 0.168447
0.808734 0.689496 0.173448
0.824115 0.697347 0.179220
0.839270 0.705346 0.185034
0.854207 0.713482 0.190890
0.868565 0.721747 0.196784
0.160995 0.571338 0.110216
0.162034 0.571456 0.110258
0.165524 0.571879 0.110410
0.172029 0.572656 0.110685
0.181912 0.573816 0.111086
0.196156 0.575379 0.111609
0.215038 0.577360 0.112295
0.238690 0.579769 0.113095
0.267202 0.582615 0.113989
0.296976 0.585900 0.115049
0.326324 0.589359 0.116431
0.356275 0.593077 0.117885
0.385449 0.597185 0.119394
0.415644 0.601678 0.121268
0.446162 0.606551 0.123329
0.476174 0.611797 0.125825
0.506195 0.617408 0.128620
0.537304 0.623375 0.131475
0.570099 0.629689 0.134478
0.603122 0.636340 0.137814
0.632989 0.643316 0.141168
0.659595 0.650607 0.144633
0.686092 0.658202 0.148730
0.712483 0.666088 0.152848
0.733130 0.674254 0.156983
0.753131 0.682387 0.161129
0.772900 0.689409 0.165284
0.792446 0.696613 0.169444
0.809080 0.703988 0.174754
0.824443 0.711524 0.180482
0.839580 0.719211 0.186256
0.854501 0.727041 0.192072
0.868763 0.735005 0.197929
0.163860 0.597662 0.111393
0.164816 0.597761 0.111432
0.168048 0.598117 0.111571
0.174930 0.598772 0.111838
0.185058 0.599749 0.112237
0.199209 0.601066 0.112758
0.218446 0.602736 0.113396
0.242136 0.604766 0.114138
0.270291 0.607164 0.115060
0.299694 0.609933 0.116274
0.328729 0.613075 0.117578
0.358372 0.616591 0.118956
0.387408 0.620478 0.120548
0.417446 0.624734 0.122479
0.447827 0.629354 0.124611
0.477671 0.634333 0.127206
0.507588 0.639665 0.129943
0.538710 0.645341 0.132718
0.571422 0.651353 0.135826
0.604357 0.657693 0.139087
0.633934 0.664352 0.142371
0.660482 0.671320 0.146014
0.686928 0.678586 0.150044
0.713272 0.685176 0.154101
0.733703 0.691499 0.158178
0.753671 0.698022 0.162270
0.773409 0.704738 0.166375
0.792927 0.711636 0.170496
0.809447 0.718706 0.176126
0.824789 0.725941 0.181808
0.839907 0.733331 0.187539
0.854811 0.740866 0.193316
0.868973 0.748540 0.199134
0.166646 0.622197 0.112606
0.167529 0.622291 0.112645
0.171197 0.622627 0.112783
0.177829 0.623245 0.113034
0.188247 0.624168 0.113401
0.202338 0.625413 0.113883
0.221974 0.626990 0.114473
0.245723 0.628910 0.115314
0.273517 0.631177 0.116351
0.302475 0.633798 0.117492
0.331249 0.636773 0.118724
0.360558 0.640105 0.120077
0.389465 0.643791 0.121857
0.419338 0.647830 0.123707
0.449577 0.652218 0.126062
0.479246 0.656952 0.128645
0.509054 0.662025 0.131298
0.540191 0.667432 0.134067
0.572816 0.673165 0.137215
0.605658 0.679216 0.140401
0.634929 0.684723 0.143616
0.661417 0.690105 0.147447
0.687809 0.695712 0.151410
0.714104 0.701538 0.155404
0.734307 0.707572 0.159422
0.754239 0.713806 0.163460
0.773945 0.720231 0.167513
0.793434 0.726839 0.171982
0.809833 0.733621 0.177562
0.825154 0.740568 0.183198
0.840253 0.747673 0.188885
0.855139 0.754926 0.194620
0.869195 0.762320 0.200399
0.169632 0.646631 0.113800
0.170724 0.646720 0.113836
0.174466 0.647038 0.113963
0.180876 0.647624 0.114195
0.191472 0.648497 0.114534
0.205699 0.649676 0.115070
0.225614 0.651170 0.115799
0.249447 0.652989 0.116655
0.276875 0.655138 0.117627
0.305374 0.657623 0.118702
0.333880 0.660447 0.119866
0.362845 0.663610 0.121477
0.391618 0.667112 0.123176
0.421322 0.670952 0.125224
0.451413 0.675127 0.127602
0.480898 0.679635 0.130113
0.510593 0.683826 0.132684
0.541747 0.687993 0.135574
0.574282 0.692408 0.138643
0.607026 0.697067 0.141755
0.635975 0.701961 0.145076
0.662400 0.707084 0.148931
0.688736 0.712428 0.152826
0.714816 0.717986 0.156756
0.734942 0.723750 0.160715
0.754837 0.729712 0.164697
0.774509 0.735863 0.168698
0.793967 0.742197 0.173532
0.810240 0.748704 0.179063
0.825538 0.755377 0.184651
0.840616 0.762209 0.190292
0.855484 0.769192 0.195984
0.869428 0.776318 0.201722
0.173166 0.670969 0.115041
0.174186 0.671053 0.115085
0.177694 0.671355 0.115241
0.184591 0.671910 0.115525
0.194982 0.672740 0.115943
0.209513 0.673858 0.116494
0.229362 0.675276 0.117174
0.253305 0.677003 0.117976
0.280364 0.679045 0.118889
0.308391 0.681349 0.119912
0.336623 0.683520 0.121344
0.365231 0.685951 0.122879
0.393868 0.688643 0.124663
0.423397 0.691593 0.126831
0.453280 0.694800 0.129180
0.482628 0.698261 0.131607
0.512205 0.701971 0.134184
0.543377 0.705926 0.137118
0.575818 0.710122 0.140108
0.608460 0.714553 0.143146
0.637071 0.719212 0.146680
0.663431 0.724095 0.150462
0.689708 0.729193 0.154290
0.715526 0.734501 0.158156
0.735609 0.740011 0.162054
0.755464 0.745716 0.165980
0.775101 0.751609 0.169927
0.794527 0.757683 0.175147
0.810667 0.763930 0.180626
0.825941 0.770343 0.186165
0.840998 0.776915 0.191760
0.855845 0.783639 0.197407
0.869672 0.790507 0.203103
0.176630 0.692501 0.116534
0.177585 0.692565 0.116575
0.181085 0.692797 0.116720
0.188306 0.693222 0.116984
0.198758 0.693857 0.117374
0.213546 0.694714 0.117888
0.233211 0.695800 0.118525
0.257291 0.697122 0.119277
0.283978 0.698686 0.120216
0.311522 0.700494 0.121460
0.339476 0.702548 0.122820
0.367714 0.704851 0.124386
0.396213 0.707400 0.126343
0.425561 0.710197 0.128513
0.455225 0.713239 0.130777
0.484435 0.716524 0.133123
0.513890 0.720048 0.135842
0.545082 0.723809 0.138694
0.577425 0.727801 0.141607
0.609961 0.732021 0.144678
0.638219 0.736462 0.148330
0.664510 0.741121 0.152040
0.690725 0.745990 0.155799
