ektachrome100d/Ektachrome100D_Modern_IlfochromeM.cube
TITLE "Kodak Ektachrome 100D Modern IlfochromeM"
# Adobe RGB in/out. REPLACES AgX. Kodak Ektachrome 100D Modern IlfochromeM.
LUT_3D_SIZE 33
DOMAIN_MIN 0.0 0.0 0.0
DOMAIN_MAX 1.0 1.0 1.0
0.134039 0.109935 0.109507
0.134039 0.109935 0.109507
0.134039 0.109935 0.109507
0.138394 0.109935 0.109507
0.160945 0.109935 0.109507
0.193830 0.111562 0.109507
0.248366 0.119303 0.109507
0.309721 0.134607 0.109507
0.372280 0.159180 0.109507
0.438152 0.191605 0.109507
0.503906 0.216967 0.109507
0.569819 0.239405 0.109507
0.635420 0.266205 0.109507
0.701347 0.294149 0.109507
0.757842 0.321706 0.111191
0.798269 0.350852 0.113252
0.829360 0.379579 0.115895
0.855108 0.413352 0.119636
0.877007 0.445900 0.123607
0.895315 0.477268 0.128862
0.906769 0.507399 0.134162
0.917138 0.535648 0.140521
0.927013 0.563511 0.148159
0.936432 0.590241 0.156590
0.945426 0.615201 0.166524
0.949683 0.639813 0.177860
0.953697 0.664064 0.188140
0.957525 0.687945 0.193138
0.961178 0.709612 0.197791
0.964669 0.726003 0.202324
0.967359 0.740758 0.206750
0.968387 0.755106 0.211356
0.969368 0.769057 0.217194
0.134039 0.109935 0.109507
0.134039 0.109935 0.109507
0.134039 0.109935 0.109507
0.136193 0.109935 0.109507
0.155825 0.109935 0.109507
0.188791 0.111706 0.109507
0.240593 0.119434 0.109507
0.302642 0.134914 0.109507
0.366410 0.159618 0.109507
0.433094 0.192160 0.109507
0.499386 0.217324 0.109507
0.565860 0.239836 0.109507
0.631825 0.266613 0.109507
0.698058 0.294571 0.109507
0.755956 0.322091 0.111108
0.796577 0.351225 0.113179
0.828314 0.380029 0.115783
0.854170 0.413790 0.119517
0.876348 0.446292 0.123463
0.894721 0.477648 0.128715
0.906433 0.507734 0.134016
0.916836 0.535971 0.140327
0.926741 0.563826 0.147977
0.936185 0.590521 0.156396
0.945201 0.615474 0.166298
0.949583 0.640079 0.177620
0.953606 0.664323 0.188039
0.957441 0.688198 0.193050
0.961102 0.709831 0.197709
0.964598 0.726161 0.202247
0.967338 0.740910 0.206678
0.968367 0.755254 0.211262
0.969351 0.769201 0.217106
0.134039 0.109935 0.109507
0.134039 0.109935 0.109507
0.134039 0.109935 0.109507
0.134186 0.109935 0.109507
0.144402 0.109935 0.109507
0.175678 0.112132 0.109507
0.217599 0.119870 0.109507
0.281231 0.136112 0.109507
0.347778 0.161251 0.109507
0.416449 0.194193 0.109507
0.484244 0.218619 0.109507
0.552416 0.241393 0.109507
0.619495 0.268083 0.109507
0.686692 0.296089 0.109507
0.747901 0.323475 0.110815
0.790653 0.352567 0.112925
0.824634 0.381645 0.115392
0.850864 0.415364 0.119101
0.874018 0.447702 0.122953
0.892618 0.479012 0.128194
0.905243 0.508936 0.133500
0.915763 0.537130 0.139673
0.925771 0.564956 0.147331
0.935304 0.591529 0.155709
0.944399 0.616454 0.165497
0.949224 0.641033 0.176766
0.953279 0.665254 0.187681
0.957142 0.689106 0.192734
0.960827 0.710620 0.197414
0.964346 0.726727 0.201972
0.967263 0.741458 0.206419
0.968298 0.755785 0.210927
0.969287 0.769716 0.216789
0.134039 0.109935 0.109507
0.134039 0.109935 0.109507
0.134039 0.109935 0.109507
0.134141 0.109935 0.109507
0.137960 0.109935 0.109507
0.161925 0.113024 0.109507
0.195896 0.121688 0.109507
0.253500 0.138861 0.109507
0.321642 0.165026 0.109507
0.390088 0.198166 0.109507
0.460281 0.221076 0.109507
0.530356 0.244311 0.109507
0.598988 0.270856 0.109507
0.667482 0.298896 0.109507
0.733263 0.326025 0.110312
0.780346 0.355035 0.112484
0.818166 0.384618 0.114707
0.845020 0.418258 0.118370
0.869876 0.450291 0.122131
0.888866 0.481517 0.127272
0.903110 0.511148 0.132582
0.913838 0.539263 0.138508
0.924025 0.567035 0.146178
0.933717 0.593382 0.154480
0.942951 0.618257 0.164063
0.948576 0.642789 0.175236
0.952687 0.666966 0.187035
0.956600 0.690777 0.192165
0.960330 0.712071 0.196882
0.963889 0.727768 0.201473
0.967127 0.742466 0.205950
0.968173 0.756762 0.210321
0.969171 0.770664 0.216214
0.134039 0.116407 0.109507
0.134039 0.116110 0.109507
0.134039 0.115164 0.109507
0.134635 0.113997 0.109507
0.138921 0.113699 0.109507
0.153809 0.116297 0.109507
0.182847 0.126534 0.109507
0.225903 0.144684 0.109507
0.292268 0.171898 0.109507
0.360739 0.203391 0.109507
0.431879 0.225009 0.109507
0.502477 0.248865 0.109507
0.572786 0.275180 0.109507
0.642325 0.303163 0.109507
0.711767 0.330088 0.109634
0.766238 0.358743 0.111880
0.808060 0.389080 0.113966
0.836821 0.422594 0.117352
0.863083 0.454162 0.121199
0.883520 0.485259 0.125973
0.900056 0.514459 0.131322
0.911068 0.542456 0.136875
0.921506 0.570146 0.144536
0.931419 0.596154 0.152723
0.940849 0.620954 0.162008
0.947632 0.645416 0.173038
0.951823 0.669528 0.185078
0.955808 0.693277 0.191292
0.959602 0.714241 0.196108
0.963218 0.729323 0.200747
0.966667 0.743972 0.205265
0.967989 0.758222 0.209678
0.969001 0.772082 0.215373
0.134039 0.154480 0.109507
0.134039 0.153177 0.109507
0.134047 0.148951 0.109507
0.136382 0.142124 0.109507
0.144608 0.134553 0.109507
0.158359 0.132347 0.109507
0.176630 0.136707 0.109507
0.211514 0.156146 0.109507
0.269208 0.183776 0.109507
0.334865 0.210127 0.109507
0.403303 0.230894 0.109507
0.473280 0.255410 0.109507
0.544137 0.281551 0.109507
0.613916 0.309075 0.109507
0.683902 0.336031 0.109507
0.747866 0.363937 0.111160
0.792222 0.395171 0.113312
0.826677 0.428489 0.116131
0.853713 0.459408 0.120046
0.876771 0.490321 0.124357
0.895835 0.518947 0.129808
0.907525 0.546781 0.135349
0.918268 0.574359 0.142462
0.928453 0.599904 0.150495
0.938126 0.624602 0.159397
0.946403 0.648969 0.170236
0.950696 0.672992 0.182263
0.954771 0.696447 0.190158
0.958647 0.716438 0.195102
0.962336 0.731424 0.199802
0.965852 0.746007 0.204372
0.967746 0.760194 0.208836
0.968776 0.773996 0.214273
0.134039 0.214009 0.109507
0.134039 0.214761 0.109507
0.134192 0.210459 0.109507
0.138644 0.201119 0.109507
0.150793 0.184774 0.109507
0.166456 0.174452 0.109507
0.181937 0.171891 0.109507
0.203194 0.176478 0.109507
0.253115 0.201526 0.109507
0.313642 0.219894 0.109507
0.377677 0.239803 0.109507
0.446124 0.264299 0.109507
0.515498 0.290229 0.109507
0.584994 0.316574 0.109507
0.654643 0.343855 0.109507
0.724098 0.371074 0.110382
0.774600 0.403063 0.112589
0.815143 0.435500 0.114955
0.842924 0.466131 0.118738
0.868914 0.496707 0.122653
0.888569 0.524699 0.128064
0.903326 0.552315 0.133577
0.914407 0.579743 0.140059
0.924897 0.604689 0.148013
0.934846 0.629254 0.156769
0.944298 0.653498 0.167139
0.949325 0.677405 0.178963
0.953507 0.700283 0.188793
0.957479 0.719199 0.193887
0.961255 0.734094 0.198656
0.964851 0.748592 0.203290
0.967446 0.762701 0.207811
0.968498 0.776429 0.212930
0.134039 0.257880 0.109507
0.134039 0.258661 0.109507
0.134531 0.256827 0.109507
0.140647 0.243493 0.109507
0.155935 0.230993 0.109507
0.172816 0.222034 0.109507
0.189529 0.216859 0.109507
0.212431 0.215875 0.109507
0.245371 0.218663 0.109507
0.297836 0.232997 0.109507
0.357888 0.253690 0.109507
0.423053 0.276341 0.109507
0.489535 0.301507 0.109507
0.557776 0.326257 0.109507
0.626121 0.353487 0.109507
0.695287 0.380877 0.109607
0.756253 0.412976 0.111849
0.798912 0.444226 0.113946
0.831244 0.474475 0.117353
0.858346 0.504070 0.121260
0.880523 0.531764 0.126179
0.898620 0.559144 0.131657
0.910047 0.585886 0.137529
0.920856 0.610571 0.145440
0.931098 0.634966 0.153960
0.940818 0.659053 0.163788
0.947741 0.682816 0.175316
0.952041 0.704980 0.187235
0.956119 0.722573 0.192494
0.959993 0.737357 0.197336
0.963678 0.751751 0.202041
0.967095 0.765764 0.206622
0.968172 0.779365 0.211372
0.134039 0.310640 0.109507
0.134039 0.311348 0.109507
0.135208 0.307203 0.109507
0.142993 0.294253 0.109507
0.160210 0.279777 0.109507
0.177790 0.267159 0.109507
0.196527 0.258195 0.109507
0.221376 0.253354 0.109507
0.256325 0.252778 0.109507
0.292475 0.256079 0.109507
0.343646 0.270812 0.109507
0.404387 0.292536 0.109507
0.467667 0.315406 0.109507
0.533629 0.339662 0.109507
0.599902 0.364846 0.109507
0.667496 0.393819 0.109507
0.733380 0.425168 0.111137
0.780988 0.454872 0.113254
0.819242 0.484667 0.116014
0.846880 0.513009 0.119926
0.872014 0.540287 0.124245
0.891711 0.567375 0.129782
0.905333 0.593173 0.135424
0.916453 0.617619 0.142725
0.926986 0.641800 0.150972
0.936978 0.665691 0.160207
0.945982 0.689275 0.171399
0.950404 0.710578 0.183746
0.954596 0.726585 0.190891
0.958574 0.741234 0.195877
0.962355 0.755504 0.200653
0.965951 0.769400 0.205296
0.967800 0.782215 0.209823
0.134039 0.366901 0.109507
0.134084 0.365469 0.109507
0.135844 0.358100 0.109507
0.144991 0.346458 0.109507
0.163500 0.331705 0.109507
0.182028 0.318411 0.109507
0.203669 0.307512 0.109507
0.232019 0.299466 0.109507
0.266938 0.295401 0.109507
0.302887 0.295310 0.109507
0.340985 0.298807 0.109507
0.389907 0.311818 0.109507
0.450126 0.332347 0.109507
0.512745 0.355710 0.109507
0.576898 0.380228 0.109507
0.642293 0.409568 0.109507
0.709087 0.439045 0.110494
0.763761 0.467745 0.112612
0.805522 0.496808 0.114908
0.835402 0.523690 0.118636
0.862245 0.550424 0.122504
0.883448 0.577128 0.127917
0.900415 0.601770 0.133464
0.911820 0.625915 0.139987
0.922626 0.649827 0.148041
0.932879 0.673475 0.156933
0.942618 0.696607 0.167517
0.948634 0.716396 0.179596
0.952940 0.731258 0.189164
0.957025 0.745749 0.194317
0.960905 0.759871 0.199161
0.964594 0.773631 0.203867
0.967391 0.785406 0.208457
0.134077 0.426455 0.109507
0.134196 0.424084 0.109507
0.136524 0.416065 0.109507
0.147140 0.403103 0.109507
0.166505 0.387222 0.109507
0.185451 0.371391 0.109507
0.209833 0.358772 0.109507
0.241916 0.349079 0.109507
0.276510 0.341897 0.109507
0.313039 0.338520 0.109507
0.349686 0.338871 0.109507
0.389230 0.342611 0.109507
0.436499 0.353690 0.109507
0.495771 0.374308 0.109507
0.557441 0.400525 0.109507
0.620339 0.428440 0.109507
0.685128 0.455359 0.109956
0.745894 0.483107 0.112052
0.789348 0.510080 0.114052
0.824303 0.536193 0.117446
0.851375 0.562327 0.121275
0.875210 0.587865 0.126134
0.894673 0.611780 0.131581
0.907086 0.635548 0.137415
0.918134 0.659125 0.145346
0.928624 0.682475 0.153912
0.938592 0.704382 0.163827
0.946769 0.721961 0.175494
0.951187 0.736619 0.187381
0.955377 0.750923 0.192695
0.959356 0.764874 0.197603
0.963138 0.778475 0.202371
0.966736 0.789052 0.207016
0.134200 0.482607 0.109507
0.134608 0.480663 0.109507
0.137728 0.474011 0.109507
0.149385 0.462989 0.109507
0.169033 0.448982 0.109507
0.188458 0.433791 0.109507
0.214509 0.418379 0.109507
0.249293 0.404676 0.109507
0.284686 0.394135 0.109507
0.322287 0.387314 0.109507
0.358305 0.384385 0.109507
0.397492 0.385225 0.109507
0.437813 0.389523 0.109507
0.482352 0.399817 0.109507
0.541613 0.424408 0.109507
0.601959 0.449020 0.109507
0.664475 0.474583 0.109542
0.727502 0.500675 0.111594
0.774549 0.525595 0.113566
0.813891 0.550728 0.116400
0.841011 0.576147 0.120201
0.867184 0.599922 0.124494
0.886892 0.623307 0.129921
0.902375 0.646611 0.135495
0.913621 0.669779 0.142762
0.924312 0.692764 0.150985
0.934483 0.713241 0.160227
0.944164 0.728275 0.171461
0.949371 0.742696 0.183885
0.953662 0.756782 0.190991
0.957736 0.770534 0.196014
0.961608 0.783010 0.200837
0.965292 0.793167 0.205530
0.134715 0.534708 0.109507
0.135473 0.533150 0.109507
0.138992 0.527771 0.109507
0.151547 0.518619 0.109507
0.170831 0.506637 0.109507
0.190909 0.492927 0.109507
0.218140 0.478037 0.109507
0.255164 0.464362 0.109507
0.291641 0.452901 0.109507
0.329802 0.444321 0.109507
0.366153 0.438999 0.109507
0.405474 0.437038 0.109507
0.444969 0.438339 0.109507
0.485816 0.442656 0.109507
0.528903 0.450092 0.109507
0.586972 0.472749 0.109507
0.647141 0.496706 0.109507
0.709288 0.519702 0.111250
0.761372 0.543318 0.113178
0.801146 0.567453 0.115640
0.831379 0.591039 0.119275
0.857534 0.613704 0.123131
0.879435 0.636450 0.128420
0.897792 0.659195 0.133848
0.909186 0.681870 0.140359
0.920038 0.703359 0.148319
0.930376 0.720923 0.157165
0.940228 0.735369 0.167747
0.947528 0.749514 0.179833
0.951910 0.763350 0.189272
0.956073 0.776873 0.194433
0.960031 0.787773 0.199300
0.963797 0.797763 0.204035
0.135625 0.584321 0.109507
0.136272 0.583055 0.109507
0.140658 0.578470 0.109507
0.153656 0.570243 0.109507
0.172474 0.559270 0.109507
0.192955 0.546587 0.109507
0.221011 0.533348 0.109507
0.259718 0.520583 0.109507
0.297433 0.509195 0.109507
0.335886 0.499928 0.109507
0.373236 0.493010 0.109507
0.412951 0.488741 0.109507
0.452008 0.487593 0.109507
0.492428 0.489460 0.109507
0.534414 0.494129 0.109507
0.576803 0.500816 0.109507
0.632888 0.519684 0.109507
0.692883 0.541142 0.111023
0.748582 0.563437 0.112894
0.788945 0.585957 0.115065
0.822630 0.607474 0.118517
0.848628 0.629291 0.122111
0.872439 0.651292 0.127116
0.891475 0.673381 0.132383
0.904916 0.695393 0.138287
0.915882 0.714827 0.146069
0.926348 0.729173 0.154558
0.936338 0.743269 0.164470
0.945694 0.757099 0.176095
0.950153 0.770650 0.187613
0.954396 0.782980 0.192893
0.958432 0.793048 0.197792
0.962274 0.802850 0.202562
0.136522 0.629263 0.109507
0.137661 0.628142 0.109507
0.142984 0.624229 0.109507
0.156079 0.617460 0.109507
0.174042 0.608277 0.109507
0.194757 0.597422 0.109507
0.223369 0.585772 0.109507
0.263366 0.573607 0.109507
0.302111 0.561916 0.109507
0.340922 0.551851 0.109507
0.379425 0.543905 0.109507
0.419348 0.538391 0.109507
0.458568 0.535463 0.109507
0.498848 0.535137 0.109507
0.540312 0.537319 0.109507
0.582076 0.541837 0.109507
0.625245 0.548475 0.109507
0.679280 0.564973 0.110908
0.735931 0.585493 0.112714
0.778316 0.605402 0.114656
0.814835 0.625861 0.117938
0.840564 0.646732 0.121455
0.865623 0.667891 0.126031
0.885001 0.689230 0.131179
0.900877 0.708910 0.136599
0.911911 0.724393 0.144067
0.922464 0.738299 0.152204
0.932556 0.752000 0.161477
0.942207 0.765473 0.172646
0.948417 0.778702 0.184952
0.952728 0.789008 0.191383
0.956834 0.798847 0.196341
0.960745 0.808439 0.201136
0.138079 0.673306 0.109507
0.139206 0.672312 0.109507
0.145251 0.668824 0.109507
0.158550 0.662744 0.109507
0.175731 0.654390 0.109507
0.196402 0.644350 0.109507
0.225921 0.633346 0.109507
0.266276 0.622134 0.109507
0.305805 0.611414 0.109507
0.344957 0.601783 0.109507
0.384536 0.593710 0.109507
0.424814 0.587531 0.109507
0.464389 0.583458 0.109507
0.504768 0.581586 0.109507
0.545909 0.581910 0.109507
0.587304 0.584347 0.109507
0.629953 0.588758 0.109835
0.673911 0.594967 0.111108
0.725314 0.608143 0.112631
0.769198 0.626843 0.114408
0.806372 0.646184 0.117538
0.833384 0.666035 0.120965
0.858179 0.686271 0.125177
0.879063 0.705460 0.130222
0.897118 0.721361 0.135480
0.908176 0.734897 0.142342
0.918777 0.748314 0.150137
0.928935 0.761576 0.158837
0.938666 0.774652 0.169536
0.946726 0.785785 0.181584
0.951095 0.795590 0.189931
0.955259 0.805176 0.194975
0.959230 0.814536 0.199781
0.139733 0.714010 0.109507
0.141475 0.713224 0.109507
0.148017 0.710457 0.109507
0.160980 0.705597 0.109507
0.177429 0.698846 0.109507
0.197985 0.690110 0.109507
0.228475 0.679809 0.109507
0.268590 0.669092 0.109507
0.308660 0.658585 0.109507
0.348181 0.648842 0.109507
0.388591 0.640323 0.109507
0.429287 0.633382 0.109507
0.469321 0.628268 0.109507
0.509965 0.625130 0.109507
0.551000 0.624027 0.109507
0.592225 0.624942 0.109507
0.634531 0.627795 0.110467
0.678018 0.632464 0.111674
0.722357 0.638797 0.112897
0.761459 0.650174 0.114310
0.797848 0.668376 0.117310
0.827076 0.687164 0.120637
0.851545 0.705141 0.124554
0.873693 0.720426 0.129483
0.891861 0.733387 0.134578
0.904713 0.746336 0.140911
0.915323 0.759221 0.148455
0.925513 0.772003 0.156919
0.935293 0.783549 0.167028
0.944677 0.793231 0.178634
0.949514 0.802732 0.188607
0.953726 0.812041 0.193715
0.957747 0.821148 0.198518
0.142465 0.741533 0.109507
0.144146 0.741023 0.109507
0.150858 0.739225 0.109507
0.163390 0.736046 0.109507
0.179111 0.731585 0.109507
0.199823 0.726067 0.109507
0.230714 0.719802 0.109507
0.270431 0.712723 0.109507
0.310808 0.703701 0.109507
0.350622 0.695111 0.109507
0.391662 0.686451 0.109507
0.432775 0.679034 0.109507
0.473297 0.673178 0.109507
0.514304 0.669065 0.109507
0.555397 0.666801 0.109507
0.596620 0.666421 0.109979
0.638753 0.667897 0.111105
0.681921 0.671157 0.112253
0.725420 0.676091 0.113419
0.760484 0.682567 0.114867
0.790561 0.692328 0.117240
0.821590 0.708364 0.120464
0.845700 0.721905 0.124156
0.868893 0.734080 0.128959
0.886904 0.746361 0.133896
0.901541 0.758689 0.139806
0.912129 0.771009 0.147177
0.922319 0.782484 0.155330
0.932119 0.791937 0.164910
0.941539 0.801259 0.176097
0.948002 0.810433 0.187428
0.952251 0.819441 0.192577
0.956312 0.828273 0.197366
0.145160 0.767796 0.109507
0.146985 0.767349 0.109507
0.153612 0.765769 0.109507
0.166056 0.762965 0.109507
0.180928 0.759003 0.109507
0.201722 0.754059 0.109507
0.232719 0.748381 0.109507
0.271885 0.742260 0.109507
0.312370 0.736002 0.109507
0.352341 0.729903 0.109507
0.393847 0.724232 0.109507
0.435331 0.719219 0.109507
0.476317 0.715054 0.109507
0.517722 0.711018 0.109507
0.558985 0.708200 0.109617
0.600330 0.706917 0.110666
0.642433 0.707185 0.111739
0.685426 0.708977 0.112834
0.728038 0.712228 0.113948
0.762231 0.716199 0.115708
0.790531 0.720555 0.117987
0.816853 0.726007 0.120434
0.840592 0.737215 0.123969
0.863890 0.748646 0.128641
0.882465 0.760236 0.133429
0.898665 0.771923 0.139010
0.909206 0.782777 0.146186
0.919370 0.791881 0.154053
0.929163 0.800917 0.163162
0.938594 0.809858 0.173958
0.946571 0.818683 0.185797
0.950846 0.827372 0.191544
0.954937 0.835910 0.196338
0.148346 0.789985 0.109507
0.150179 0.789680 0.109507
0.156716 0.788602 0.109507
0.168764 0.786679 0.109507
0.182761 0.783946 0.109507
0.203575 0.780491 0.109507
0.234550 0.775602 0.109507
0.273045 0.770008 0.109507
0.313454 0.764210 0.109507
0.353445 0.758465 0.109507
0.395250 0.753014 0.109507
0.437031 0.748071 0.109507
0.478420 0.743816 0.109507
0.520210 0.740393 0.109507
0.561707 0.737909 0.110330
0.603253 0.736433 0.111334
0.645431 0.736000 0.112362
0.688372 0.736615 0.113411
0.730297 0.738253 0.114659
0.763776 0.740871 0.116619
0.791825 0.744406 0.118914
0.817352 0.748788 0.121250
0.836619 0.753940 0.124086
0.859118 0.764047 0.128516
0.878522 0.774946 0.133165
0.895693 0.784591 0.138488
0.906553 0.793225 0.145476
0.916670 0.801861 0.153085
0.926436 0.810466 0.161783
0.935857 0.819011 0.172218
0.944939 0.827470 0.183793
0.949520 0.835822 0.190636
0.953632 0.844049 0.195444
0.151543 0.808580 0.109507
0.153222 0.808314 0.109507
0.159751 0.807370 0.109507
0.170849 0.805683 0.109507
0.184578 0.803274 0.109507
0.205396 0.800221 0.109507
0.236250 0.796648 0.109507
0.273979 0.792708 0.109507
0.314150 0.788570 0.109507
0.354034 0.784407 0.109507
0.395975 0.780361 0.109507
0.437965 0.775792 0.109507
0.479671 0.771560 0.109507
0.521800 0.768022 0.110076
0.563553 0.765290 0.111016
0.605335 0.763441 0.111981
0.647659 0.762527 0.112969
0.690638 0.762569 0.113977
0.732087 0.763564 0.115579
0.765029 0.765489 0.117630
0.792893 0.768302 0.119850
0.817937 0.771949 0.122113
0.837036 0.776367 0.125279
0.855953 0.781096 0.128810
0.875035 0.788032 0.133092
0.892022 0.796091 0.138224
0.904163 0.804222 0.145035
0.914218 0.812387 0.152415
0.923940 0.820553 0.160765
0.933333 0.828690 0.170875
0.942402 0.836771 0.182190
0.948279 0.844773 0.189887
0.952403 0.850290 0.194689
0.154677 0.826253 0.109507
0.156527 0.826020 0.109507
0.162667 0.825194 0.109507
0.172885 0.823713 0.109507
0.186465 0.821590 0.109507
0.207190 0.818884 0.109507
0.237851 0.815697 0.109507
0.274735 0.812153 0.109507
0.314530 0.808395 0.109507
0.354194 0.804570 0.109507
0.396118 0.800824 0.109507
0.438221 0.797294 0.109507
0.480145 0.794101 0.109886
0.522545 0.791352 0.110765
0.564546 0.789132 0.111671
0.606567 0.787508 0.112602
0.649070 0.786527 0.113555
0.692148 0.786217 0.114743
0.733324 0.786588 0.116525
0.765916 0.787634 0.118631
0.793657 0.789336 0.120784
0.818352 0.791662 0.123201
0.837317 0.794574 0.126490
0.856092 0.798028 0.129935
0.873082 0.801978 0.133565
0.888762 0.808078 0.138198
0.902021 0.815715 0.144846
0.912003 0.823413 0.152030
0.921668 0.831140 0.160094
0.931020 0.838865 0.169915
0.940062 0.846112 0.180983
0.947125 0.851332 0.189297
0.951254 0.856487 0.194077
0.158115 0.843051 0.109507
0.159786 0.842848 0.109507
0.165715 0.842124 0.109507
0.174940 0.840824 0.109507
0.188448 0.838953 0.109507
0.208959 0.836560 0.109507
0.239336 0.833723 0.109507
0.275351 0.830547 0.109507
0.314656 0.827150 0.109507
0.353997 0.823660 0.109507
0.395765 0.820203 0.109507
0.437887 0.816900 0.109756
0.479924 0.813861 0.110573
0.522511 0.811185 0.111421
0.564729 0.808955 0.112297
0.606965 0.807238 0.113197
0.649652 0.806083 0.114118
0.692860 0.805525 0.115675
0.733952 0.805583 0.117568
0.766382 0.806262 0.119614
0.794056 0.807552 0.121706
0.818552 0.809435 0.124419
0.837419 0.811882 0.127705
0.856082 0.814859 0.131069
0.872981 0.818328 0.134699
0.887228 0.822248 0.139020
0.900105 0.827647 0.144891
0.910009 0.834889 0.151910
0.919610 0.842181 0.159749
0.928911 0.848118 0.169320
0.937915 0.853106 0.180162
0.946060 0.858059 0.188864
0.950187 0.862764 0.193607
0.161327 0.854611 0.109507
0.162877 0.854490 0.109507
0.168819 0.854058 0.109507
0.177115 0.853281 0.109507
0.190400 0.852160 0.109507
0.210703 0.850718 0.109507
0.240611 0.848999 0.109507
0.275855 0.847062 0.109507
0.314576 0.844895 0.109507
0.353505 0.841731 0.109507
0.394994 0.838566 0.109686
0.437041 0.835507 0.110436
0.479088 0.832655 0.111224
0.521772 0.830098 0.112044
0.564160 0.827915 0.112891
0.606567 0.826172 0.113763
0.649419 0.824919 0.114970
0.692763 0.824195 0.116632
0.733944 0.824024 0.118577
0.766393 0.824418 0.120571
0.794043 0.825377 0.122700
0.818500 0.826892 0.125697
0.837303 0.828943 0.128910
0.855885 0.831505 0.132225
0.872754 0.834547 0.135836
0.886924 0.838036 0.140481
0.899344 0.841937 0.145910
0.908219 0.846247 0.152037
0.917751 0.850940 0.159711
0.926995 0.855649 0.169083
0.935954 0.860356 0.179708
0.944633 0.864663 0.188582
0.949200 0.868916 0.193275
0.164454 0.864538 0.109507
0.166114 0.864442 0.109507
0.171164 0.864099 0.109507
0.179225 0.863481 0.109507
0.192315 0.862587 0.109507
0.212343 0.861433 0.109507
0.241837 0.859997 0.109507
0.276270 0.858284 0.109507
0.314329 0.856426 0.109507
0.352769 0.854486 0.109682
0.393871 0.852527 0.110359
0.435757 0.850614 0.111081
0.477713 0.848808 0.111842
0.520402 0.847166 0.112635
0.562903 0.845736 0.113456
0.605425 0.844296 0.114349
0.648406 0.843008 0.115870
0.691869 0.842186 0.117650
0.733291 0.841858 0.119549
0.765928 0.842041 0.121495
0.793588 0.842743 0.123885
0.818170 0.843959 0.126948
0.836938 0.845510 0.130095
0.855467 0.847020 0.133424
0.872375 0.848846 0.136978
0.886488 0.850967 0.142004
0.899032 0.853362 0.147349
0.907606 0.856010 0.153319
0.916073 0.858975 0.159955
0.925257 0.863159 0.169146
0.934167 0.867209 0.179583
0.942806 0.871253 0.188446
0.948290 0.875277 0.193076
0.167800 0.873419 0.109507
0.169226 0.873335 0.109507
0.173410 0.873038 0.109507
0.181468 0.872501 0.109507
0.194186 0.871722 0.109507
0.213946 0.870715 0.109507
0.243020 0.869505 0.109507
0.276609 0.868128 0.109507
0.313946 0.866627 0.109747
0.351833 0.865050 0.110346
0.392451 0.863447 0.110997
0.434097 0.861869 0.111692
0.475869 0.860341 0.112427
0.518472 0.858827 0.113195
0.561024 0.857491 0.113991
0.603595 0.856373 0.115245
0.646656 0.855507 0.116816
0.690208 0.854919 0.118624
0.732003 0.854631 0.120480
0.764984 0.854657 0.122395
0.792674 0.855003 0.125154
0.817543 0.855673 0.128162
0.836301 0.856663 0.131249
0.854802 0.857964 0.134599
0.871823 0.859564 0.138491
0.885897 0.861377 0.143512
0.898633 0.863342 0.148779
0.907178 0.865532 0.154842
0.915555 0.867931 0.161641
0.923769 0.870518 0.169626
0.932539 0.874211 0.179765
0.941135 0.878022 0.188445
0.947455 0.881824 0.193005
0.170505 0.881797 0.109507
0.171639 0.881725 0.109507
0.175714 0.881468 0.109507
0.183652 0.881003 0.109507
0.196009 0.880327 0.109507
0.215513 0.879451 0.109507
0.244160 0.878396 0.109507
0.276885 0.877190 0.109885
0.313449 0.875870 0.110401
0.350730 0.874476 0.110975
0.390783 0.873053 0.111600
0.432117 0.871642 0.112271
0.473617 0.870289 0.112980
0.516049 0.869033 0.113724
0.558588 0.867913 0.114692
0.601140 0.866962 0.116095
0.644224 0.866209 0.117782
0.687823 0.865678 0.119550
0.730102 0.865390 0.121368
0.763565 0.865357 0.123542
0.791298 0.865589 0.126377
0.816610 0.866089 0.129332
0.835377 0.866858 0.132402
0.853872 0.867892 0.135738
