ektachrome100d/Ektachrome100D_Modern_Punchy.cube
TITLE "Kodak Ektachrome 100D Modern Punchy"
# Adobe RGB in/out. REPLACES AgX. Kodak Ektachrome 100D Modern Punchy.
LUT_3D_SIZE 5
DOMAIN_MIN 0.0 0.0 0.0
DOMAIN_MAX 1.0 1.0 1.0
0.091497 0.087999 0.082099
0.323114 0.090794 0.082099
0.902218 0.300573 0.082210
0.970527 0.749268 0.083344
0.984872 0.912557 0.087913
0.091497 0.179324 0.082099
0.194269 0.115417 0.082099
0.818530 0.383127 0.082128
0.962097 0.799865 0.082888
0.983091 0.924903 0.086729
0.094293 0.864555 0.082099
0.248245 0.815071 0.082099
0.717500 0.775134 0.082116
0.941766 0.879198 0.082549
0.978034 0.947490 0.085369
0.105680 0.965904 0.082099
0.253377 0.963866 0.082099
0.737213 0.957215 0.082210
0.933012 0.960539 0.082603
0.972803 0.970942 0.084693
0.122161 0.985592 0.082143
0.248408 0.985096 0.082171
0.694721 0.984143 0.082305
0.925344 0.984843 0.082832
0.968734 0.986875 0.085031
0.091497 0.087999 0.232855
0.337414 0.091823 0.254017
0.892729 0.279934 0.188072
0.967822 0.719924 0.189344
0.984399 0.905497 0.221107
0.091497 0.113008 0.113199
0.130581 0.094904 0.085047
0.773575 0.323895 0.103737
0.959004 0.766530 0.135976
0.982280 0.918085 0.186668
0.093367 0.823118 0.120226
0.226488 0.750251 0.101735
0.655143 0.695133 0.091001
0.937308 0.869799 0.102707
0.977294 0.944546 0.132279
0.104462 0.964110 0.104215
0.245170 0.960868 0.101930
0.714649 0.953032 0.097198
0.929046 0.957231 0.099614
0.972039 0.969848 0.113974
0.121410 0.985058 0.095014
0.245745 0.984554 0.095001
0.688268 0.983622 0.095997
0.924056 0.984511 0.100698
0.968554 0.986849 0.111685
0.091497 0.088019 0.969218
0.337414 0.095333 0.970046
0.929348 0.437066 0.968939
0.969864 0.760672 0.934953
0.984038 0.905027 0.910554
0.091497 0.191824 0.963252
0.280931 0.233974 0.945852
0.847302 0.473969 0.923434
0.960065 0.793540 0.903565
0.981784 0.915889 0.890787
0.092225 0.711719 0.878533
0.192840 0.651751 0.815374
0.555232 0.584932 0.606179
0.932489 0.856248 0.760420
0.976422 0.941154 0.820000
0.101823 0.955486 0.853459
0.228537 0.951423 0.824926
0.671170 0.944810 0.743779
0.918712 0.950498 0.697838
0.970489 0.967888 0.739851
0.119460 0.983425 0.761756
0.239007 0.982984 0.749224
0.672642 0.982397 0.720175
0.920956 0.983711 0.703987
0.968123 0.986798 0.717565
0.091497 0.089569 0.991922
0.337414 0.104919 0.991934
0.934179 0.522391 0.991979
0.975369 0.831244 0.989986
0.984752 0.919874 0.984928
0.091497 0.262672 0.991926
0.347860 0.406385 0.991938
0.909080 0.672601 0.991251
0.966812 0.846805 0.987085
0.982651 0.927787 0.982763
0.092263 0.743034 0.983352
0.216684 0.743077 0.981385
0.721962 0.804050 0.978596
0.940481 0.883085 0.977502
0.976839 0.945012 0.977075
0.099897 0.945987 0.978197
0.214415 0.943203 0.976562
0.638801 0.938714 0.964166
0.906475 0.943635 0.952384
0.969604 0.967358 0.961047
0.117190 0.981413 0.968275
0.231030 0.981189 0.966375
0.655289 0.981131 0.961400
0.917429 0.982979 0.957255
0.967712 0.986780 0.957157
0.091497 0.096864 0.992930
0.337414 0.145163 0.992930
0.934179 0.599277 0.992930
0.977727 0.876140 0.992917
0.985390 0.933136 0.992341
0.091497 0.350347 0.992930
0.347860 0.501039 0.992930
0.932099 0.813643 0.992930
0.972578 0.885845 0.992679
0.983973 0.937903 0.992152
0.093149 0.847828 0.992549
0.251932 0.855639 0.992450
0.811905 0.878983 0.992191
0.950639 0.924461 0.991740
0.978124 0.952358 0.991234
0.099306 0.944653 0.991109
0.212640 0.944452 0.990855
0.664091 0.946802 0.989332
0.924468 0.957434 0.988021
0.970940 0.970074 0.987986
0.114819 0.979774 0.988298
0.224188 0.979791 0.987990
0.638704 0.980368 0.987897
0.914992 0.982769 0.987036
0.967534 0.986838 0.986944
