ektachrome100d/Ektachrome100D_Modern_Soft.cube
TITLE "Kodak Ektachrome 100D Modern Soft"
# Adobe RGB in/out. REPLACES AgX. Kodak Ektachrome 100D Modern Soft.
LUT_3D_SIZE 5
DOMAIN_MIN 0.0 0.0 0.0
DOMAIN_MAX 1.0 1.0 1.0
0.086071 0.084324 0.090717
0.328298 0.088669 0.090717
0.892219 0.321016 0.090780
0.962397 0.734519 0.091386
0.980939 0.897006 0.094383
0.086071 0.198754 0.090717
0.189579 0.124415 0.090717
0.810169 0.389889 0.090733
0.952632 0.772824 0.091164
0.978927 0.911405 0.093511
0.087885 0.843927 0.090717
0.248622 0.793146 0.090717
0.710386 0.752742 0.090726
0.931919 0.858279 0.090972
0.971067 0.935948 0.092602
0.097067 0.950499 0.090717
0.254221 0.947954 0.090717
0.728720 0.942876 0.090780
0.922218 0.945239 0.091003
0.964652 0.956793 0.092147
0.112178 0.975146 0.090742
0.248800 0.974524 0.090758
0.689161 0.973328 0.090834
0.916370 0.974205 0.091132
0.960319 0.977626 0.092375
0.086071 0.084324 0.245251
0.342895 0.090331 0.267346
0.882695 0.300511 0.201205
0.959261 0.713632 0.202459
0.980407 0.888788 0.233449
0.086071 0.121092 0.121138
0.119725 0.096272 0.092385
0.763160 0.340816 0.110253
0.949053 0.746700 0.148630
0.977665 0.903449 0.199820
0.087256 0.803959 0.128336
0.225004 0.735215 0.107715
0.650689 0.693788 0.097364
0.926634 0.848111 0.108946
0.969918 0.933847 0.143666
0.095816 0.948259 0.110860
0.245273 0.945473 0.107962
0.707731 0.939898 0.102992
0.919195 0.942887 0.105036
0.963990 0.955425 0.122006
0.111347 0.974475 0.100975
0.245899 0.973843 0.100963
0.683141 0.972673 0.101883
0.915387 0.973789 0.106404
0.960110 0.977515 0.119213
0.086071 0.084372 0.958966
0.342895 0.097053 0.959868
0.919425 0.438617 0.958661
0.961628 0.742575 0.909301
0.980169 0.888241 0.880442
0.086071 0.212081 0.952462
0.284445 0.253178 0.932383
0.834458 0.470502 0.892539
0.950281 0.765607 0.873876
0.976894 0.900888 0.861868
0.086477 0.707749 0.850347
0.187930 0.647971 0.793596
0.550331 0.577033 0.598784
0.921820 0.837289 0.747197
0.968566 0.931423 0.797839
0.093100 0.941645 0.828496
0.227219 0.938751 0.802357
0.667174 0.934035 0.731841
0.911304 0.938092 0.689337
0.962353 0.952976 0.728214
0.109215 0.972427 0.748429
0.238571 0.971873 0.736868
0.668550 0.971137 0.710025
0.913019 0.972786 0.695037
0.959611 0.977299 0.707609
0.086071 0.086826 0.988345
0.342895 0.110468 0.988379
0.923107 0.516894 0.988497
0.966933 0.814918 0.984455
0.980786 0.905536 0.979487
0.086071 0.282800 0.988356
0.353531 0.410026 0.988390
0.900519 0.669969 0.986570
0.958092 0.829730 0.981606
0.978243 0.915546 0.977361
0.086503 0.730101 0.977939
0.214425 0.730132 0.976008
0.714538 0.778403 0.973114
0.930395 0.862778 0.969956
0.969212 0.934179 0.968724
0.091659 0.934875 0.971961
0.211982 0.932887 0.967248
0.632937 0.929678 0.953458
0.897367 0.933196 0.940625
0.961327 0.952314 0.950059
0.107135 0.969904 0.957937
0.229918 0.969622 0.955865
0.650886 0.969549 0.950444
0.910322 0.971867 0.945928
0.959134 0.977220 0.945822
0.086071 0.099870 0.991016
0.342895 0.159775 0.991016
0.923107 0.590803 0.991016
0.970590 0.854743 0.990982
0.981605 0.925685 0.989455
0.086071 0.362935 0.991016
0.353531 0.496320 0.991016
0.921522 0.791232 0.991016
0.964457 0.865975 0.990352
0.980125 0.929098 0.988955
0.087107 0.830550 0.990006
0.252643 0.836802 0.989746
0.804287 0.858031 0.989058
0.941990 0.910889 0.987865
0.971206 0.939418 0.986525
0.091263 0.933922 0.986195
0.210073 0.933779 0.985524
0.660555 0.935457 0.983813
0.915702 0.943032 0.982525
0.962875 0.955708 0.982491
0.104962 0.967849 0.982797
0.222518 0.967871 0.982494
0.632840 0.968593 0.982403
0.907681 0.971604 0.981557
0.958928 0.977467 0.981468
