ektachrome100d/Ektachrome100D_Modern_RadianceIII.cube
TITLE "Kodak Ektachrome 100D Modern RadianceIII"
# Adobe RGB in/out. REPLACES AgX. Kodak Ektachrome 100D Modern RadianceIII.
LUT_3D_SIZE 5
DOMAIN_MIN 0.0 0.0 0.0
DOMAIN_MAX 1.0 1.0 1.0
0.081523 0.088043 0.083657
0.504356 0.110682 0.086876
0.933339 0.210308 0.099606
0.969865 0.263325 0.149765
0.968034 0.404061 0.736164
0.085162 0.331406 0.086784
0.158830 0.259256 0.087708
0.731635 0.327050 0.098949
0.952288 0.386218 0.134317
0.963806 0.386447 0.710906
0.093083 0.674443 0.093093
0.129765 0.644253 0.099100
0.389658 0.580366 0.108664
0.835791 0.598428 0.133472
0.942839 0.632493 0.318943
0.096827 0.861698 0.103286
0.118333 0.853675 0.110101
0.274740 0.826361 0.125931
0.624256 0.798089 0.146979
0.918659 0.805226 0.197905
0.086119 0.899028 0.096294
0.092033 0.929231 0.095618
0.138025 0.925362 0.106044
0.429621 0.905805 0.122552
0.904625 0.899849 0.129628
0.082995 0.098707 0.342998
0.453991 0.137991 0.590739
0.935170 0.231570 0.482984
0.967459 0.276950 0.505959
0.966463 0.397411 0.726753
0.099227 0.258096 0.235775
0.212147 0.208743 0.205652
0.781492 0.319456 0.297177
0.948688 0.383423 0.363073
0.960863 0.380026 0.701303
0.122231 0.624327 0.225671
0.178865 0.590976 0.223719
0.472628 0.539010 0.220168
0.862009 0.580139 0.260711
0.939858 0.630049 0.504783
0.117471 0.843166 0.190864
0.145973 0.833893 0.200851
0.330514 0.806347 0.219534
0.679609 0.783623 0.237922
0.916929 0.800756 0.293805
0.086058 0.901101 0.121084
0.091885 0.930048 0.119547
0.159972 0.921024 0.133868
0.456220 0.903172 0.173278
0.906040 0.898984 0.188088
0.087078 0.168321 0.787125
0.413851 0.260622 0.930066
0.945257 0.345288 0.923679
0.968240 0.351042 0.870123
0.965754 0.394455 0.875024
0.122812 0.371002 0.762886
0.336110 0.386417 0.818681
0.830890 0.398823 0.793609
0.949637 0.430429 0.794902
0.958880 0.376156 0.844784
0.145361 0.569028 0.538229
0.216326 0.547460 0.528420
0.506133 0.502077 0.502584
0.869989 0.573166 0.588922
0.936191 0.638621 0.759208
0.148842 0.811763 0.479303
0.192802 0.803354 0.480630
0.399465 0.776732 0.481411
0.736579 0.760271 0.489016
0.912214 0.795818 0.610994
0.089171 0.915780 0.413260
0.090470 0.920698 0.407010
0.210712 0.910800 0.381605
0.512586 0.897583 0.402618
0.905778 0.898430 0.461309
0.095019 0.298632 0.969508
0.328729 0.381723 0.979801
0.939313 0.464335 0.980588
0.972658 0.460003 0.966543
0.967588 0.402116 0.941880
0.131203 0.465575 0.970167
0.348546 0.512770 0.977229
0.886781 0.528646 0.970120
0.961432 0.510340 0.949011
0.962347 0.382710 0.930895
0.166605 0.600080 0.870778
0.261137 0.600436 0.877036
0.614936 0.598025 0.874095
0.891342 0.616260 0.875419
0.937634 0.666456 0.890885
0.162719 0.792744 0.759969
0.212114 0.787035 0.761614
0.430329 0.765801 0.763189
0.747558 0.746915 0.757313
0.909786 0.799239 0.833152
0.089109 0.908014 0.602313
0.090721 0.915335 0.597029
0.211938 0.907135 0.653834
0.522337 0.896201 0.659797
0.904712 0.900342 0.766745
0.255111 0.383004 0.987207
0.597174 0.405745 0.987208
0.972177 0.469711 0.987212
0.980305 0.457137 0.984303
0.969775 0.426202 0.972686
0.319723 0.496706 0.987186
0.604182 0.513786 0.987189
0.968697 0.554576 0.987065
0.972757 0.506562 0.981787
0.965540 0.413216 0.968679
0.319646 0.667502 0.978683
0.471018 0.662794 0.976399
0.865412 0.651235 0.970210
0.939716 0.634355 0.963266
0.943898 0.670835 0.950997
0.194683 0.795648 0.949077
0.280209 0.791681 0.945835
0.617444 0.778901 0.936995
0.874704 0.771615 0.929894
0.917538 0.801721 0.927740
0.087645 0.892223 0.833151
0.090631 0.909676 0.870362
0.133656 0.915158 0.909132
0.483212 0.901827 0.916577
0.904401 0.904635 0.914187
