ektachrome100d/Ektachrome100D_Modern_ExtraSoft.cube
TITLE "Kodak Ektachrome 100D Modern ExtraSoft"
# Adobe RGB in/out. REPLACES AgX. Kodak Ektachrome 100D Modern ExtraSoft.
LUT_3D_SIZE 33
DOMAIN_MIN 0.0 0.0 0.0
DOMAIN_MAX 1.0 1.0 1.0
0.068633 0.069845 0.084864
0.068633 0.069845 0.084864
0.068633 0.069845 0.084864
0.069833 0.069845 0.084864
0.076137 0.069845 0.084864
0.093712 0.069952 0.084864
0.141582 0.070396 0.084864
0.221132 0.071603 0.084864
0.323552 0.073138 0.084864
0.426616 0.077339 0.084864
0.512474 0.083650 0.084864
0.573498 0.092215 0.084864
0.651146 0.109746 0.084864
0.694637 0.137877 0.084864
0.738738 0.181152 0.084913
0.772729 0.245167 0.084971
0.797411 0.314559 0.085044
0.817821 0.374392 0.085131
0.833060 0.435559 0.085218
0.845721 0.493601 0.085367
0.854589 0.541976 0.085574
0.862819 0.582517 0.085803
0.870643 0.619802 0.086054
0.878093 0.650566 0.086301
0.885197 0.682091 0.086774
0.891049 0.708100 0.087270
0.896528 0.727268 0.087545
0.901762 0.745812 0.088331
0.905842 0.762477 0.089158
0.908910 0.776536 0.089954
0.911843 0.786395 0.090718
0.914648 0.800293 0.091500
0.917334 0.812892 0.092577
0.068633 0.069845 0.084864
0.068633 0.069845 0.084864
0.068633 0.069845 0.084864
0.069180 0.069845 0.084864
0.074110 0.069845 0.084864
0.090134 0.069960 0.084864
0.133906 0.070403 0.084864
0.212458 0.071625 0.084864
0.314407 0.073160 0.084864
0.418463 0.077431 0.084864
0.506625 0.083780 0.084864
0.570135 0.092396 0.084864
0.646737 0.110116 0.084864
0.693040 0.138439 0.084864
0.737146 0.181741 0.084910
0.771311 0.245912 0.084969
0.796562 0.315286 0.085041
0.817167 0.375393 0.085128
0.832603 0.436265 0.085215
0.845311 0.494324 0.085361
0.854322 0.542451 0.085569
0.862579 0.582988 0.085797
0.870427 0.620104 0.086048
0.877898 0.650920 0.086293
0.885019 0.682437 0.086763
0.890912 0.708352 0.087260
0.896403 0.727471 0.087533
0.901648 0.746007 0.088315
0.905774 0.762645 0.089144
0.908848 0.776669 0.089940
0.911786 0.786543 0.090705
0.914596 0.800436 0.091484
0.917285 0.813016 0.092559
0.068633 0.069845 0.084864
0.068633 0.069845 0.084864
0.068633 0.069845 0.084864
0.068650 0.069845 0.084864
0.071328 0.069845 0.084864
0.083734 0.069986 0.084864
0.112024 0.070424 0.084864
0.186581 0.071713 0.084864
0.285879 0.073244 0.084864
0.392083 0.077768 0.084864
0.496921 0.084249 0.084864
0.558690 0.093049 0.084864
0.631655 0.111454 0.084864
0.687489 0.140475 0.084864
0.731593 0.183868 0.084902
0.766343 0.248596 0.084962
0.793574 0.317905 0.085030
0.814825 0.379001 0.085119
0.830986 0.438803 0.085204
0.843860 0.496924 0.085340
0.853376 0.544157 0.085550
0.861729 0.584679 0.085774
0.869659 0.621192 0.086027
0.877202 0.652188 0.086267
0.884386 0.683679 0.086723
0.890424 0.709203 0.087225
0.895956 0.728197 0.087529
0.901239 0.746709 0.088258
0.905533 0.763249 0.089092
0.908627 0.776902 0.089892
0.911582 0.787074 0.090661
0.914408 0.800950 0.091428
0.917111 0.813458 0.092495
0.068633 0.069845 0.084864
0.068633 0.069845 0.084864
0.068633 0.069845 0.084864
0.068645 0.069845 0.084864
0.069707 0.069845 0.084864
0.076561 0.070039 0.084864
0.095219 0.070525 0.084864
0.146752 0.071911 0.084864
0.238486 0.073482 0.084864
0.351438 0.078422 0.084864
0.460440 0.085138 0.084864
0.539812 0.094274 0.084864
0.606703 0.113942 0.084864
0.678000 0.144291 0.084864
0.722004 0.187830 0.084888
0.757689 0.253585 0.084949
0.788319 0.322752 0.085011
0.810099 0.385690 0.085102
0.828109 0.443484 0.085186
0.841269 0.501715 0.085302
0.851682 0.547298 0.085516
0.860201 0.587792 0.085732
0.868277 0.623191 0.085990
0.875947 0.654523 0.086234
0.883243 0.685964 0.086653
0.889540 0.710587 0.087161
0.895148 0.729532 0.087520
0.900497 0.747999 0.088156
0.905096 0.764359 0.088998
0.908224 0.777263 0.089805
0.911211 0.788051 0.090580
0.914065 0.801895 0.091325
0.916794 0.814272 0.092379
0.068633 0.070236 0.084864
0.068633 0.070219 0.084864
0.068633 0.070164 0.084864
0.068715 0.070096 0.084864
0.069965 0.070078 0.084864
0.073625 0.070230 0.084864
0.087436 0.070961 0.084864
0.121427 0.072306 0.084864
0.200001 0.074216 0.084864
0.305595 0.079690 0.084864
0.416514 0.086559 0.084864
0.510623 0.096188 0.084864
0.576015 0.117806 0.084864
0.659626 0.150219 0.084864
0.707892 0.195663 0.084868
0.745817 0.261202 0.084932
0.780926 0.330094 0.084991
0.803461 0.395375 0.085079
0.823383 0.450526 0.085165
0.837572 0.508913 0.085265
0.849253 0.552008 0.085467
0.858003 0.592460 0.085673
0.866282 0.626181 0.085937
0.874130 0.658017 0.086185
0.881583 0.689384 0.086551
0.888253 0.712655 0.087068
0.893968 0.731528 0.087508
0.899413 0.749927 0.088007
0.904455 0.766018 0.088860
0.907634 0.777801 0.089678
0.910667 0.789511 0.090463
0.913562 0.803308 0.091216
0.916328 0.815488 0.092208
0.068633 0.072891 0.084864
0.068633 0.072821 0.084864
0.068634 0.072574 0.084864
0.069237 0.072141 0.084864
0.071378 0.071599 0.084864
0.075019 0.071428 0.084864
0.084302 0.071756 0.084864
0.107631 0.072979 0.084864
0.172140 0.076018 0.084864
0.261667 0.081576 0.084864
0.372776 0.088673 0.084864
0.474642 0.100206 0.084864
0.551619 0.123962 0.084864
0.624850 0.158789 0.084864
0.686119 0.209443 0.084864
0.731570 0.272118 0.084912
0.767660 0.340245 0.084973
0.795234 0.404789 0.085050
0.816847 0.460147 0.085140
0.832896 0.517896 0.085234
0.846079 0.558410 0.085406
0.855190 0.598799 0.085618
0.863715 0.630606 0.085868
0.871783 0.662749 0.086123
0.879432 0.693644 0.086420
0.886580 0.715449 0.086948
0.892430 0.734223 0.087449
0.897996 0.752369 0.087814
0.903298 0.768259 0.088681
0.906859 0.778528 0.089512
0.909950 0.791481 0.090309
0.912898 0.805216 0.091073
0.915713 0.817130 0.091991
0.068633 0.082578 0.084864
0.068633 0.082850 0.084864
0.068651 0.081661 0.084864
0.069896 0.078964 0.084864
0.072881 0.076189 0.084864
0.078371 0.074519 0.084864
0.086998 0.074215 0.084864
0.101965 0.074755 0.084864
0.146361 0.079094 0.084864
0.225997 0.084710 0.084864
0.331897 0.092382 0.084864
0.439589 0.108027 0.084864
0.527030 0.132721 0.084864
0.589770 0.173413 0.084864
0.668788 0.228660 0.084864
0.715969 0.289487 0.084890
0.752857 0.353621 0.084952
0.785860 0.417051 0.085018
0.808403 0.472614 0.085110
0.827440 0.526868 0.085198
0.841064 0.566640 0.085334
0.851853 0.606933 0.085553
0.860652 0.637364 0.085787
0.868967 0.668792 0.086049
0.876840 0.698070 0.086309
0.884306 0.719003 0.086803
0.890561 0.737651 0.087316
0.896268 0.755320 0.087626
0.901699 0.770771 0.088465
0.905909 0.779932 0.089311
0.909070 0.793986 0.090122
0.912082 0.807430 0.090899
0.914954 0.819216 0.091765
0.068633 0.102346 0.084864
0.068633 0.103029 0.084864
0.068691 0.101431 0.084864
0.070397 0.093930 0.084864
0.074144 0.088708 0.084864
0.081922 0.085485 0.084864
0.090599 0.083611 0.084864
0.108290 0.083254 0.084864
0.138602 0.084265 0.084864
0.206647 0.089518 0.084864
0.301207 0.098729 0.084864
0.402467 0.118914 0.084864
0.500174 0.147901 0.084864
0.563258 0.188193 0.084864
0.639753 0.250450 0.084864
0.691691 0.316659 0.084867
0.737397 0.373535 0.084931
0.773267 0.432556 0.084990
0.798940 0.488298 0.085079
0.820081 0.537261 0.085167
0.835497 0.576864 0.085269
0.848111 0.615598 0.085481
0.857193 0.645086 0.085697
0.865766 0.676229 0.085966
0.873875 0.703499 0.086220
0.881559 0.723353 0.086639
0.888403 0.741845 0.087164
0.894266 0.758927 0.087522
0.899839 0.773632 0.088215
0.904800 0.783097 0.089078
0.908039 0.797045 0.089904
0.911123 0.810063 0.090696
0.914061 0.821733 0.091503
0.068633 0.161783 0.084864
0.068633 0.163150 0.084864
0.068886 0.155976 0.084864
0.070980 0.138016 0.084864
0.075819 0.122230 0.084864
0.084993 0.110612 0.084864
0.095681 0.102621 0.084864
0.115058 0.098447 0.084864
0.149665 0.097969 0.084864
0.200247 0.100783 0.084864
0.278241 0.113910 0.084864
0.374550 0.135740 0.084864
0.468505 0.171149 0.084864
0.542621 0.218206 0.084864
0.607810 0.274058 0.084864
0.678007 0.337979 0.084864
0.722082 0.399474 0.084911
0.758228 0.451822 0.084971
0.789193 0.507772 0.085047
0.811604 0.549944 0.085137
0.829595 0.589287 0.085231
0.843234 0.623518 0.085405
0.853448 0.654260 0.085621
0.862276 0.685155 0.085877
0.870622 0.709807 0.086137
0.878525 0.728538 0.086461
0.886006 0.746839 0.086998
0.892033 0.763216 0.087501
0.897756 0.776852 0.087939
0.903199 0.786857 0.088819
0.906876 0.800678 0.089662
0.910037 0.813187 0.090468
0.913047 0.824289 0.091241
0.068633 0.278479 0.084864
0.068638 0.275393 0.084864
0.069076 0.259871 0.084864
0.071473 0.235109 0.084864
0.077241 0.199344 0.084864
0.087042 0.176158 0.084864
0.102285 0.156422 0.084864
0.126493 0.145075 0.084864
0.167884 0.139550 0.084864
0.212756 0.139428 0.084864
0.273158 0.144169 0.084864
0.351149 0.164061 0.084864
0.446161 0.200819 0.084864
0.523952 0.254961 0.084864
0.580011 0.315608 0.084864
0.659587 0.365816 0.084864
0.706192 0.423319 0.084893
0.743729 0.475629 0.084953
0.778802 0.527011 0.085017
0.802311 0.565194 0.085108
0.822799 0.604150 0.085194
0.837523 0.634081 0.085328
0.849539 0.665105 0.085549
0.858600 0.694894 0.085785
0.867169 0.716122 0.086050
0.875284 0.734599 0.086316
0.882980 0.752492 0.086822
0.889619 0.768216 0.087342
0.895494 0.778470 0.087672
0.901079 0.791231 0.088541
0.905601 0.804903 0.089400
0.908844 0.816818 0.090222
0.911930 0.827257 0.091009
0.068637 0.401530 0.084864
0.068651 0.397746 0.084864
0.069279 0.380614 0.084864
0.071971 0.353689 0.084864
0.078389 0.327028 0.084864
0.088690 0.290594 0.084864
0.106462 0.261261 0.084864
0.135200 0.241637 0.084864
0.180838 0.223734 0.084864
0.225244 0.215422 0.084864
0.288745 0.216276 0.084864
0.350072 0.225521 0.084864
0.423945 0.250859 0.084864
0.502973 0.300859 0.084864
0.562973 0.349292 0.084864
0.632685 0.404711 0.084864
0.686722 0.452712 0.084877
0.730282 0.504769 0.084937
0.765248 0.545780 0.084993
0.793306 0.583311 0.085081
0.815214 0.618663 0.085167
0.831813 0.647575 0.085268
0.845278 0.677759 0.085478
0.854841 0.704052 0.085693
0.863609 0.723410 0.085963
0.871918 0.741581 0.086218
0.879800 0.758468 0.086641
0.887078 0.773113 0.087172
0.893100 0.782382 0.087524
0.898824 0.796243 0.088251
0.904239 0.809298 0.089125
0.907564 0.820970 0.089962
0.910726 0.830648 0.090763
0.068652 0.503808 0.084864
0.068706 0.500081 0.084864
0.069638 0.487419 0.084864
0.072532 0.466770 0.084864
0.079409 0.441116 0.084864
0.089991 0.414044 0.084864
0.109787 0.385971 0.084864
0.142509 0.356385 0.084864
0.190835 0.338508 0.084864
0.239508 0.327178 0.084864
0.301847 0.322370 0.084864
0.363325 0.323746 0.084864
0.426067 0.330826 0.084864
0.490258 0.348090 0.084864
0.549461 0.398262 0.084864
0.610307 0.441183 0.084864
0.676045 0.488501 0.084865
0.718214 0.532463 0.084924
0.752814 0.567925 0.084980
0.784841 0.604598 0.085057
0.806854 0.632849 0.085143
0.826237 0.662772 0.085236
0.839905 0.692369 0.085411
0.851097 0.713595 0.085623
0.860029 0.731723 0.085878
0.868504 0.749531 0.086137
0.876552 0.765254 0.086462
0.884200 0.777439 0.087000
0.890624 0.788273 0.087502
0.896480 0.801915 0.087956
0.902051 0.814160 0.088844
0.906220 0.825029 0.089694
0.909458 0.834472 0.090509
0.068738 0.581148 0.084864
0.068965 0.578880 0.084864
0.069983 0.571068 0.084864
0.073068 0.557941 0.084864
0.080600 0.540896 0.084864
0.091594 0.521553 0.084864
0.112417 0.495065 0.084864
0.148456 0.469318 0.084864
0.199256 0.448227 0.084864
0.252377 0.432727 0.084864
0.314006 0.423236 0.084864
0.376333 0.419765 0.084864
0.437700 0.422066 0.084864
0.497889 0.429747 0.084864
0.538565 0.443125 0.084864
0.592158 0.485034 0.084864
0.663231 0.526867 0.084864
0.706319 0.559489 0.084914
0.741715 0.593722 0.084969
0.775139 0.623593 0.085037
0.799049 0.651572 0.085123
0.819515 0.680195 0.085208
0.834743 0.704909 0.085349
0.847453 0.723465 0.085563
0.856509 0.741113 0.085798
0.865118 0.757682 0.086059
0.873304 0.772233 0.086326
0.881093 0.781169 0.086833
0.888112 0.794879 0.087352
0.894088 0.807988 0.087685
0.899776 0.819598 0.088562
0.904833 0.829459 0.089424
0.908144 0.838740 0.090251
0.069011 0.643118 0.084864
0.069204 0.641526 0.084864
0.070400 0.635766 0.084864
0.073587 0.626275 0.084864
0.081694 0.615719 0.084864
0.093075 0.598514 0.084864
0.114509 0.579169 0.084864
0.153274 0.560748 0.084864
0.206163 0.544523 0.084864
0.263564 0.531409 0.084864
0.325024 0.521669 0.084864
0.387375 0.515654 0.084864
0.449266 0.513427 0.084864
0.501667 0.516689 0.084864
0.543294 0.523242 0.084864
0.579897 0.532662 0.084864
0.648040 0.559463 0.084864
0.690518 0.590537 0.084908
0.732038 0.619730 0.084961
0.764910 0.645175 0.085021
0.791946 0.672312 0.085105
0.813017 0.698105 0.085186
0.829890 0.717273 0.085295
0.843071 0.734526 0.085509
0.853117 0.751557 0.085724
0.861823 0.766597 0.085987
0.870116 0.777750 0.086236
0.878019 0.788829 0.086673
0.885551 0.802221 0.087197
0.891689 0.814259 0.087528
0.897482 0.825001 0.088287
0.903004 0.834361 0.089159
0.906805 0.843461 0.089995
0.069279 0.698079 0.084864
0.069618 0.697013 0.084864
0.070978 0.693288 0.084864
0.074189 0.684953 0.084864
0.082741 0.673328 0.084864
0.094387 0.659618 0.084864
0.119038 0.644943 0.084864
0.160252 0.629664 0.084864
0.211813 0.618267 0.084864
0.273038 0.606250 0.084864
0.334621 0.594581 0.084864
0.396627 0.586518 0.084864
0.458571 0.582249 0.084864
0.505930 0.581774 0.084864
0.548347 0.584954 0.084864
0.586250 0.591555 0.084864
0.638681 0.601286 0.084864
0.683844 0.621209 0.084905
0.723757 0.644592 0.084956
0.755982 0.669693 0.085010
0.785609 0.694843 0.085092
0.806493 0.713690 0.085171
0.825151 0.730253 0.085266
0.838597 0.746805 0.085462
0.849906 0.761940 0.085663
0.858672 0.775173 0.085921
0.867040 0.784011 0.086171
0.875029 0.797286 0.086524
0.882655 0.809813 0.087051
0.889322 0.821164 0.087507
0.895205 0.830606 0.088023
0.900817 0.839746 0.088902
0.905461 0.848119 0.089746
0.069742 0.734468 0.084864
0.070037 0.733694 0.084864
0.071536 0.730980 0.084864
0.075101 0.726238 0.084864
0.083766 0.719703 0.084864
0.095589 0.711816 0.084864
0.121442 0.701960 0.084864
0.166449 0.690880 0.084864
0.216319 0.677297 0.084864
0.280767 0.665121 0.084864
0.342636 0.654937 0.084864
0.405255 0.647156 0.084864
0.464925 0.642033 0.084864
0.513590 0.639679 0.084864
0.553134 0.640087 0.084864
0.592560 0.643151 0.084864
0.644443 0.648699 0.084874
0.681191 0.656521 0.084910
0.716771 0.673159 0.084953
0.748310 0.695776 0.085003
0.779513 0.713259 0.085083
0.800675 0.728806 0.085160
0.819964 0.744518 0.085249
0.834485 0.759295 0.085423
0.846916 0.772604 0.085623
0.855707 0.780711 0.085864
0.864118 0.793717 0.086113
0.872164 0.806462 0.086396
0.879858 0.817694 0.086917
0.887019 0.827610 0.087422
0.892975 0.836723 0.087775
0.898663 0.845619 0.088659
0.904097 0.852453 0.089509
0.070169 0.765842 0.084864
0.070604 0.765240 0.084864
0.072191 0.763124 0.084864
0.076152 0.759400 0.084864
0.084778 0.754215 0.084864
0.096716 0.747484 0.084864
0.123549 0.739515 0.084864
0.171420 0.731189 0.084864
0.219824 0.722987 0.084864
0.286483 0.715349 0.084864
0.349054 0.708584 0.084864
0.412370 0.701995 0.084864
0.470313 0.697133 0.084864
0.520336 0.694147 0.084864
0.557481 0.693096 0.084864
0.598509 0.693967 0.084864
0.650055 0.696683 0.084892
0.683221 0.701122 0.084926
0.714819 0.707136 0.084961
0.741789 0.716395 0.085000
0.772376 0.730630 0.085078
0.795557 0.745209 0.085153
0.815333 0.759050 0.085237
0.830760 0.771812 0.085393
0.843338 0.779246 0.085590
0.852955 0.791800 0.085816
0.861380 0.804275 0.086063
0.869455 0.815421 0.086315
0.877193 0.825530 0.086798
0.884605 0.834531 0.087302
0.890818 0.843352 0.087603
0.896568 0.850680 0.088434
0.902067 0.856513 0.089287
0.070849 0.787146 0.084864
0.071264 0.786652 0.084864
0.072897 0.784908 0.084864
0.077193 0.781826 0.084864
0.085637 0.778583 0.084864
0.099700 0.776590 0.084864
0.125406 0.771282 0.084864
0.173570 0.764857 0.084864
0.222475 0.757946 0.084864
0.290155 0.751340 0.084864
0.353950 0.744657 0.084864
0.417952 0.738915 0.084864
0.474661 0.734368 0.084864
0.525983 0.731167 0.084864
0.561231 0.729404 0.084864
0.603832 0.729107 0.084878
0.655237 0.730258 0.084910
0.685145 0.732796 0.084943
0.716841 0.736631 0.084976
0.740967 0.741652 0.085016
0.766266 0.749195 0.085076
0.791102 0.761521 0.085149
0.810649 0.773066 0.085230
0.827426 0.779918 0.085371
0.839913 0.791825 0.085565
0.850434 0.803760 0.085778
0.858845 0.814568 0.086022
0.866925 0.824539 0.086257
0.874683 0.833328 0.086695
0.882128 0.841985 0.087197
0.888758 0.849537 0.087525
0.894553 0.855552 0.088230
0.900103 0.860515 0.089083
0.071514 0.811809 0.084864
0.071932 0.811425 0.084864
0.073576 0.810068 0.084864
0.078222 0.807657 0.084864
0.086512 0.804064 0.084864
0.100974 0.799279 0.084864
0.127078 0.793781 0.084864
0.175292 0.787851 0.084864
0.224413 0.781783 0.084864
0.292752 0.778002 0.084864
0.357451 0.775036 0.084864
0.422061 0.770789 0.084864
0.477966 0.766831 0.084864
0.528946 0.763553 0.084864
0.564288 0.761395 0.084868
0.608330 0.760412 0.084898
0.659735 0.760618 0.084928
0.686868 0.761990 0.084959
0.718566 0.764479 0.084990
0.742440 0.768013 0.085039
0.766241 0.771921 0.085093
0.787250 0.776539 0.085149
0.806515 0.782960 0.085226
0.823945 0.794039 0.085358
0.836842 0.805256 0.085547
0.848147 0.815352 0.085750
0.856524 0.824812 0.085990
0.864588 0.833276 0.086222
0.872345 0.841667 0.086608
0.879802 0.849128 0.087107
0.886809 0.855124 0.087512
0.892635 0.860010 0.088050
0.898223 0.864787 0.088901
0.072273 0.831514 0.084864
0.072729 0.831231 0.084864
0.074389 0.830229 0.084864
0.079233 0.828441 0.084864
0.087395 0.825899 0.084864
0.102222 0.822697 0.084864
0.128610 0.818507 0.084864
0.176676 0.813709 0.084864
0.225761 0.808727 0.084864
0.294427 0.803543 0.084864
0.359708 0.798268 0.084864
0.424803 0.793482 0.084864
0.480268 0.789359 0.084864
0.531090 0.786041 0.084864
0.566604 0.783632 0.084888
0.611877 0.782201 0.084917
0.661963 0.781781 0.084946
0.688312 0.782377 0.084975
0.720054 0.783966 0.085010
0.743743 0.786504 0.085062
0.767326 0.789931 0.085114
0.787656 0.794176 0.085167
0.803297 0.799164 0.085228
0.820620 0.808587 0.085353
0.834110 0.817945 0.085538
0.845981 0.826499 0.085731
0.854418 0.834525 0.085967
0.862448 0.842543 0.086195
0.870186 0.849561 0.086540
0.877639 0.855309 0.087033
0.884812 0.860065 0.087501
0.890826 0.864738 0.087896
0.896439 0.869321 0.088742
0.073067 0.848219 0.084864
0.073480 0.848029 0.084864
0.075621 0.847358 0.084864
0.080613 0.846089 0.084864
0.088269 0.843854 0.084864
0.103451 0.841021 0.084864
0.130040 0.837704 0.084864
0.177793 0.834045 0.084864
0.226779 0.830199 0.084864
0.295322 0.826328 0.084864
0.360875 0.822586 0.084864
0.426312 0.818671 0.084864
0.481637 0.815041 0.084864
0.532459 0.812003 0.084881
0.568175 0.809655 0.084908
0.614408 0.808066 0.084935
0.663616 0.807280 0.084963
0.689422 0.807316 0.084991
0.721232 0.808172 0.085035
0.744798 0.809827 0.085085
0.768222 0.812244 0.085135
0.788132 0.815374 0.085186
0.803634 0.819164 0.085251
0.818411 0.823247 0.085365
0.831692 0.829700 0.085535
0.843449 0.837188 0.085722
0.852519 0.844733 0.085953
0.860503 0.850926 0.086177
0.868209 0.856178 0.086489
0.875643 0.860749 0.086975
0.882810 0.865268 0.087446
0.889135 0.869723 0.087768
0.894760 0.874104 0.088608
0.073813 0.859382 0.084864
0.074330 0.859252 0.084864
0.076881 0.858788 0.084864
0.081968 0.857956 0.084864
0.089134 0.856761 0.084864
0.104666 0.855238 0.084864
0.131391 0.853277 0.084864
0.178700 0.850760 0.084864
0.227366 0.848087 0.084864
0.295564 0.845056 0.084864
0.361106 0.841581 0.084864
0.426727 0.838305 0.084864
0.482397 0.835340 0.084875
0.533099 0.832785 0.084901
0.569019 0.830722 0.084926
0.615905 0.829212 0.084953
0.664662 0.828300 0.084979
0.690159 0.828012 0.085012
0.722044 0.828357 0.085060
0.745545 0.829330 0.085108
0.768863 0.830911 0.085156
0.788469 0.833073 0.085209
0.803863 0.835779 0.085275
0.818508 0.838986 0.085411
0.830336 0.842652 0.085552
0.841197 0.847862 0.085721
0.850816 0.853290 0.085947
0.858745 0.857787 0.086166
0.866410 0.862121 0.086455
0.873814 0.866436 0.086934
0.880962 0.870716 0.087398
0.887563 0.874939 0.087688
0.893192 0.877794 0.088499
0.074913 0.868766 0.084864
0.075636 0.868653 0.084864
0.078094 0.868250 0.084864
0.083295 0.867527 0.084864
0.089987 0.866485 0.084864
0.105867 0.865150 0.084864
0.132681 0.863566 0.084864
0.179440 0.861789 0.084864
0.227560 0.859886 0.084864
0.295265 0.857926 0.084864
0.360538 0.855981 0.084864
0.426186 0.854119 0.084872
0.481915 0.851973 0.084895
0.533070 0.850072 0.084919
0.569174 0.848486 0.084944
0.616388 0.847263 0.084969
0.665093 0.846441 0.084995
0.690507 0.845942 0.085038
0.722457 0.845996 0.085084
0.745938 0.846568 0.085130
0.769198 0.847487 0.085177
0.788632 0.848827 0.085235
0.803945 0.850567 0.085320
0.818502 0.852682 0.085457
0.830266 0.854924 0.085594
0.840137 0.857132 0.085750
0.849293 0.860164 0.085948
0.857163 0.864217 0.086163
0.864779 0.868282 0.086438
0.872145 0.872343 0.086908
0.879266 0.875922 0.087365
0.886112 0.878663 0.087635
0.891736 0.880926 0.088414
0.076302 0.876755 0.084864
0.076972 0.876688 0.084864
0.079268 0.876449 0.084864
0.084590 0.876019 0.084864
0.091227 0.875398 0.084864
0.107055 0.874451 0.084864
0.133923 0.873058 0.084864
0.180048 0.871486 0.084864
0.227437 0.869791 0.084864
0.294517 0.868032 0.084864
0.359296 0.866269 0.084870
0.424820 0.864563 0.084891
0.481000 0.862968 0.084914
0.532434 0.861538 0.084937
0.568691 0.860315 0.084961
0.615905 0.859337 0.084985
0.664921 0.858633 0.085019
0.690459 0.858227 0.085062
0.722452 0.858130 0.085107
0.745947 0.858352 0.085152
0.769186 0.858891 0.085199
0.788590 0.859741 0.085260
0.803851 0.860891 0.085369
0.818364 0.862325 0.085503
0.830108 0.864026 0.085636
0.839927 0.865974 0.085802
0.848687 0.868146 0.085981
0.855741 0.870826 0.086166
0.863305 0.874631 0.086436
0.870628 0.877330 0.086897
0.877716 0.879830 0.087347
0.884571 0.881889 0.087600
0.890390 0.885568 0.088355
0.077621 0.881781 0.084864
0.078243 0.881697 0.084864
0.080822 0.881533 0.084864
0.085692 0.881252 0.084864
0.092611 0.880845 0.084864
0.108227 0.880320 0.084864
0.135122 0.879666 0.084864
0.180548 0.878787 0.084864
0.227056 0.877760 0.084864
0.293402 0.876686 0.084869
0.357489 0.875601 0.084889
0.422748 0.874367 0.084910
0.479494 0.872903 0.084931
0.531255 0.871571 0.084954
0.567622 0.870411 0.084977
0.614516 0.869458 0.085001
0.664170 0.868742 0.085043
0.690023 0.868285 0.085086
0.722023 0.868102 0.085129
0.745556 0.868204 0.085172
0.768805 0.868595 0.085224
0.788321 0.869271 0.085288
0.803555 0.870227 0.085418
0.818072 0.871453 0.085547
0.829846 0.872933 0.085677
0.839625 0.874653 0.085853
0.848439 0.876064 0.086028
0.855254 0.877529 0.086202
0.861974 0.879169 0.086448
0.869253 0.881106 0.086900
0.876302 0.884092 0.087342
0.883128 0.887589 0.087583
0.889151 0.891067 0.088320
0.078874 0.889461 0.084864
0.079537 0.889389 0.084864
0.082318 0.889132 0.084864
0.086772 0.888668 0.084864
0.093971 0.887995 0.084864
0.109381 0.887124 0.084864
0.136283 0.886078 0.084864
0.180958 0.884887 0.084864
0.226465 0.883588 0.084871
0.291984 0.882223 0.084889
0.355213 0.881237 0.084907
0.420075 0.880519 0.084927
0.477475 0.879823 0.084948
0.529593 0.879087 0.084969
0.566023 0.878349 0.084991
0.612294 0.877731 0.085026
0.662872 0.877251 0.085067
0.689211 0.876926 0.085108
0.721177 0.876767 0.085150
0.744760 0.876781 0.085192
0.768038 0.876973 0.085249
0.787812 0.877343 0.085338
0.803039 0.877891 0.085464
0.817608 0.878610 0.085591
0.829462 0.879469 0.085732
0.839216 0.880295 0.085903
0.848121 0.881189 0.086074
0.854914 0.882641 0.086244
0.861563 0.884716 0.086533
0.868074 0.886954 0.086921
0.875016 0.890146 0.087349
0.881809 0.893360 0.087583
0.888012 0.895649 0.088307
0.080384 0.895633 0.084864
0.081138 0.895589 0.084864
0.083756 0.895435 0.084864
0.087824 0.895155 0.084864
0.095302 0.894748 0.084864
0.110512 0.894221 0.084864
0.137406 0.893585 0.084864
0.181292 0.892719 0.084875
0.225755 0.891579 0.084890
0.290318 0.890375 0.084907
0.352546 0.889145 0.084924
0.416897 0.887926 0.084943
0.475011 0.886756 0.084963
0.527504 0.885670 0.084984
0.563949 0.884701 0.085011
0.609312 0.883878 0.085049
0.661066 0.883226 0.085089
0.688043 0.882767 0.085129
0.719925 0.882518 0.085169
0.743565 0.882489 0.085217
0.766884 0.882690 0.085273
0.787053 0.883123 0.085387
0.802290 0.883789 0.085509
0.816958 0.884683 0.085632
