ektachrome100d/Ektachrome100D_Classic_RadianceIII.cube
TITLE "Kodak Ektachrome 100D Classic RadianceIII"
# Adobe RGB in/out. REPLACES AgX. Kodak Ektachrome 100D Classic RadianceIII.
LUT_3D_SIZE 5
DOMAIN_MIN 0.0 0.0 0.0
DOMAIN_MAX 1.0 1.0 1.0
0.116088 0.122908 0.121239
0.187897 0.124230 0.121239
0.503673 0.227329 0.121239
0.802075 0.387533 0.129800
0.937717 0.568271 0.175446
0.116088 0.168195 0.121239
0.191303 0.203026 0.121239
0.505757 0.301023 0.121239
0.802982 0.446743 0.130966
0.937883 0.604865 0.177225
0.116106 0.420364 0.121239
0.204389 0.441336 0.121239
0.513193 0.509316 0.121239
0.806225 0.605520 0.134973
0.938475 0.715012 0.184229
0.124711 0.687415 0.121239
0.229309 0.697414 0.121239
0.526679 0.731320 0.122347
0.812140 0.781295 0.144270
0.939557 0.836038 0.197158
0.154837 0.864147 0.121239
0.268152 0.868357 0.121520
0.545427 0.878313 0.131138
0.820864 0.894994 0.159461
0.941158 0.921808 0.210459
0.116088 0.122908 0.208103
0.187897 0.124952 0.211481
0.503673 0.229184 0.223443
0.802075 0.389006 0.248504
0.937717 0.569171 0.283261
0.116088 0.170376 0.209223
0.191303 0.205199 0.212618
0.505757 0.302643 0.224510
0.802982 0.448096 0.249812
0.937883 0.605717 0.284341
0.116106 0.421779 0.213269
0.204389 0.442698 0.216644
0.513193 0.510419 0.228293
0.806225 0.606371 0.254477
0.938475 0.715624 0.288073
0.124711 0.688083 0.220586
0.229309 0.698070 0.223833
0.526679 0.731915 0.236882
0.812140 0.781749 0.262517
0.939557 0.836370 0.294590
0.154837 0.864427 0.231410
0.268152 0.868634 0.235597
0.545427 0.878487 0.250008
0.820864 0.895155 0.273684
0.941158 0.922019 0.304098
0.116088 0.122908 0.500153
0.187897 0.127612 0.502533
0.503673 0.235671 0.511021
0.802075 0.394295 0.526399
0.937717 0.572393 0.546089
0.116088 0.178658 0.500943
0.191303 0.212303 0.503320
0.505757 0.308413 0.511800
0.802982 0.452937 0.527162
0.937883 0.608768 0.546723
0.116106 0.426842 0.503773
0.204389 0.447572 0.506142
0.513193 0.514367 0.514590
0.806225 0.609419 0.529866
0.938475 0.717819 0.548993
0.124711 0.690476 0.508953
0.229309 0.700422 0.511306
0.526679 0.734047 0.519698
0.812140 0.783376 0.534160
0.939557 0.837563 0.553147
0.154837 0.865433 0.516637
0.268152 0.869479 0.518966
0.545427 0.879111 0.527276
0.820864 0.895731 0.540524
0.941158 0.922777 0.559306
0.116088 0.122908 0.768702
0.187897 0.134610 0.769687
0.503673 0.246965 0.773211
0.802075 0.403928 0.779631
0.937717 0.578275 0.789084
0.116088 0.194429 0.769029
0.191303 0.224975 0.770013
0.505757 0.318824 0.773535
0.802982 0.461769 0.779950
0.937883 0.614344 0.789398
0.116106 0.436015 0.770201
0.204389 0.456462 0.771183
0.513193 0.521570 0.774697
0.806225 0.614990 0.781098
0.938475 0.721836 0.790432
0.124711 0.694853 0.772351
0.229309 0.704726 0.773329
0.526679 0.737951 0.776827
0.812140 0.786353 0.783202
0.939557 0.839749 0.791977
0.154837 0.867277 0.775550
0.268152 0.870678 0.776522
0.545427 0.880255 0.779998
0.820864 0.896786 0.786333
0.941158 0.924167 0.794235
0.116088 0.128991 0.915880
0.187897 0.155583 0.916334
0.503673 0.265869 0.917960
0.802075 0.418108 0.920933
0.937717 0.586990 0.925337
0.116088 0.215045 0.916031
0.191303 0.242618 0.916484
0.505757 0.333827 0.918110
0.802982 0.474805 0.921082
0.937883 0.622595 0.925484
0.116106 0.449471 0.916571
0.204389 0.469582 0.917024
0.513193 0.532114 0.918647
0.806225 0.623232 0.921615
0.938475 0.727791 0.926010
0.124711 0.701340 0.917563
0.229309 0.711105 0.918015
0.526679 0.743741 0.919633
0.812140 0.790748 0.922593
0.939557 0.842887 0.926977
0.154837 0.869734 0.919042
0.268152 0.872459 0.919492
0.545427 0.881954 0.921104
0.820864 0.898355 0.924052
0.941158 0.926236 0.928310
