ektachrome100d/Ektachrome100D_Modern_ExtraPunchy.cube
TITLE "Kodak Ektachrome 100D Modern ExtraPunchy"
# Adobe RGB in/out. REPLACES AgX. Kodak Ektachrome 100D Modern ExtraPunchy.
LUT_3D_SIZE 33
DOMAIN_MIN 0.0 0.0 0.0
DOMAIN_MAX 1.0 1.0 1.0
0.069243 0.072709 0.079439
0.069243 0.072709 0.079439
0.069243 0.072709 0.079439
0.069545 0.072709 0.079439
0.071947 0.072709 0.079439
0.079710 0.072757 0.079439
0.112524 0.072960 0.079439
0.174713 0.073506 0.079439
0.278412 0.074479 0.079439
0.406452 0.077142 0.079439
0.540233 0.081531 0.079439
0.640841 0.087072 0.079439
0.738258 0.100881 0.079439
0.806181 0.123751 0.079439
0.860127 0.161403 0.079390
0.891593 0.212616 0.079332
0.917808 0.280276 0.079259
0.935771 0.343282 0.079173
0.948956 0.426593 0.079086
0.954453 0.508545 0.078939
0.959616 0.578447 0.078799
0.964484 0.638908 0.078702
0.969092 0.687837 0.078596
0.973462 0.744460 0.078492
0.977611 0.791524 0.078294
0.981018 0.834665 0.078088
0.982403 0.863715 0.078074
0.983388 0.887761 0.078191
0.984325 0.905731 0.078302
0.985218 0.921309 0.078408
0.986069 0.932600 0.078527
0.986882 0.946172 0.078657
0.987658 0.955698 0.078836
0.069243 0.072709 0.079439
0.069243 0.072709 0.079439
0.069243 0.072709 0.079439
0.069381 0.072709 0.079439
0.071319 0.072709 0.079439
0.078048 0.072761 0.079439
0.106228 0.072963 0.079439
0.167352 0.073516 0.079439
0.268829 0.074494 0.079439
0.393555 0.077200 0.079439
0.527990 0.081602 0.079439
0.635520 0.087240 0.079439
0.732868 0.101155 0.079439
0.803837 0.124195 0.079439
0.858646 0.161878 0.079393
0.890286 0.213302 0.079334
0.917058 0.281125 0.079263
0.935196 0.344343 0.079176
0.948715 0.427565 0.079089
0.954277 0.509592 0.078945
0.959458 0.579153 0.078801
0.964343 0.639469 0.078705
0.968965 0.688396 0.078598
0.973347 0.744983 0.078495
0.977508 0.792044 0.078299
0.980939 0.835046 0.078093
0.982379 0.864023 0.078072
0.983366 0.887972 0.078189
0.984305 0.905913 0.078300
0.985200 0.921461 0.078406
0.986053 0.932769 0.078524
0.986867 0.946274 0.078655
0.987644 0.955796 0.078833
0.069243 0.072709 0.079439
0.069243 0.072709 0.079439
0.069243 0.072709 0.079439
0.069248 0.072709 0.079439
0.070041 0.072709 0.079439
0.074483 0.072773 0.079439
0.089999 0.072973 0.079439
0.147713 0.073555 0.079439
0.233351 0.074553 0.079439
0.352977 0.077412 0.079439
0.511107 0.081860 0.079439
0.617508 0.087845 0.079439
0.714452 0.102145 0.079439
0.795705 0.125801 0.079439
0.853476 0.163591 0.079401
0.885703 0.215779 0.079341
0.914419 0.284154 0.079273
0.933140 0.348171 0.079185
0.947302 0.431064 0.079100
0.953649 0.513361 0.078966
0.958897 0.581688 0.078809
0.963841 0.641483 0.078714
0.968514 0.690405 0.078607
0.972940 0.746865 0.078506
0.977138 0.793911 0.078315
0.980655 0.836331 0.078107
0.982295 0.865128 0.078071
0.983290 0.888729 0.078181
0.984235 0.906563 0.078293
0.985136 0.921728 0.078400
0.985994 0.933378 0.078517
0.986812 0.946638 0.078645
0.987594 0.956146 0.078823
0.069243 0.072709 0.079439
0.069243 0.072709 0.079439
0.069243 0.072709 0.079439
0.069246 0.072709 0.079439
0.069513 0.072709 0.079439
0.072084 0.072797 0.079439
0.080390 0.073018 0.079439
0.117252 0.073644 0.079439
0.189504 0.074717 0.079439
0.307358 0.077824 0.079439
0.461727 0.082348 0.079439
0.588135 0.088981 0.079439
0.684060 0.104341 0.079439
0.781844 0.128815 0.079439
0.844529 0.166776 0.079416
0.877705 0.220387 0.079354
0.909138 0.289167 0.079292
0.928987 0.355284 0.079202
0.944786 0.437537 0.079118
0.952526 0.520328 0.079004
0.957891 0.586364 0.078824
0.962938 0.645193 0.078732
0.967701 0.694105 0.078623
0.972205 0.750330 0.078520
0.976471 0.797350 0.078345
0.980141 0.838422 0.078134
0.982143 0.867160 0.078069
0.983150 0.890121 0.078167
0.984108 0.907759 0.078280
0.985019 0.922141 0.078388
0.985886 0.934496 0.078504
0.986713 0.947307 0.078628
0.987502 0.956790 0.078803
0.069243 0.072887 0.079439
0.069243 0.072879 0.079439
0.069243 0.072854 0.079439
0.069264 0.072823 0.079439
0.069578 0.072815 0.079439
0.071122 0.072884 0.079439
0.076485 0.073216 0.079439
0.096386 0.073902 0.079439
0.157782 0.075224 0.079439
0.257695 0.078663 0.079439
0.390497 0.083283 0.079439
0.536343 0.090756 0.079439
0.644834 0.107301 0.079439
0.748633 0.134724 0.079439
0.825680 0.172391 0.079435
0.866704 0.227434 0.079371
0.899139 0.296784 0.079313
0.923143 0.366116 0.079225
0.940648 0.447327 0.079139
0.950921 0.530844 0.079040
0.956448 0.593397 0.078844
0.961638 0.650759 0.078757
0.966526 0.699654 0.078645
0.971139 0.755524 0.078541
0.975502 0.802504 0.078387
0.979392 0.841549 0.078172
0.981920 0.870199 0.078067
0.982946 0.892202 0.078147
0.983921 0.909546 0.078262
0.984847 0.922758 0.078371
0.985728 0.936168 0.078484
0.986568 0.948307 0.078610
0.987368 0.957752 0.078775
0.069243 0.074308 0.079439
0.069243 0.074259 0.079439
0.069244 0.074088 0.079439
0.069395 0.073787 0.079439
0.070065 0.073504 0.079439
0.071591 0.073427 0.079439
0.074792 0.073575 0.079439
0.086732 0.074369 0.079439
0.136838 0.076306 0.079439
0.209658 0.080154 0.079439
0.329817 0.084684 0.079439
0.482007 0.093744 0.079439
0.606457 0.111727 0.079439
0.706154 0.143269 0.079439
0.793701 0.181932 0.079439
0.853455 0.237555 0.079391
0.886919 0.307358 0.079331
0.915885 0.381188 0.079253
0.934916 0.460804 0.079164
0.948885 0.543006 0.079071
0.954608 0.602994 0.078900
0.959972 0.658323 0.078780
0.965013 0.707897 0.078674
0.969762 0.762569 0.078567
0.974245 0.809491 0.078442
0.978417 0.845776 0.078222
0.981629 0.874308 0.078056
0.982680 0.894836 0.078121
0.983676 0.911958 0.078238
0.984622 0.923590 0.078349
0.985520 0.938424 0.078458
0.986375 0.949656 0.078586
0.987190 0.959051 0.078739
0.069243 0.080938 0.079439
0.069243 0.081089 0.079439
0.069248 0.080221 0.079439
0.069560 0.078163 0.079439
0.070774 0.076414 0.079439
0.072668 0.075433 0.079439
0.076250 0.075223 0.079439
0.083741 0.075595 0.079439
0.116891 0.078244 0.079439
0.178851 0.082114 0.079439
0.287025 0.087227 0.079439
0.427318 0.099604 0.079439
0.568487 0.119671 0.079439
0.663492 0.155153 0.079439
0.767224 0.197511 0.079439
0.837609 0.253712 0.079414
0.873232 0.321366 0.079351
0.905778 0.401200 0.079285
0.927495 0.478437 0.079193
0.944200 0.556137 0.079107
0.952437 0.615393 0.078971
0.957993 0.668040 0.078808
0.963205 0.720559 0.078709
0.968107 0.771589 0.078598
0.972727 0.818431 0.078489
0.977092 0.851162 0.078282
0.980734 0.878947 0.078070
0.982354 0.898018 0.078089
0.983376 0.914704 0.078209
0.984345 0.925199 0.078322
0.985265 0.941291 0.078430
0.986139 0.951368 0.078557
0.986970 0.960699 0.078702
0.069243 0.095357 0.079439
0.069243 0.095870 0.079439
0.069258 0.094668 0.079439
0.069685 0.088662 0.079439
0.071329 0.084707 0.079439
0.073787 0.082568 0.079439
0.078291 0.081509 0.079439
0.087076 0.081312 0.079439
0.110079 0.081869 0.079439
0.162780 0.085241 0.079439
0.252209 0.092776 0.079439
0.368738 0.108102 0.079439
0.515386 0.132410 0.079439
0.624680 0.167067 0.079439
0.724335 0.217491 0.079439
0.801859 0.282729 0.079436
0.858880 0.342375 0.079372
0.892090 0.422468 0.079313
0.919157 0.500888 0.079225
0.937753 0.571458 0.079137
0.950018 0.630896 0.079036
0.955769 0.680094 0.078839
0.961159 0.735139 0.078747
0.966222 0.782723 0.078633
0.970990 0.827725 0.078526
0.975488 0.857764 0.078350
0.979479 0.883478 0.078132
0.981976 0.901907 0.078070
0.983027 0.917981 0.078175
0.984021 0.928824 0.078291
0.984965 0.943870 0.078401
0.985861 0.953456 0.078523
0.986712 0.962686 0.078658
0.069243 0.145710 0.079439
0.069243 0.146824 0.079439
0.069307 0.140488 0.079439
0.069875 0.123861 0.079439
0.071843 0.110487 0.079439
0.075168 0.101523 0.079439
0.080597 0.095563 0.079439
0.092475 0.092612 0.079439
0.119945 0.092334 0.079439
0.157968 0.094180 0.079439
0.225691 0.104311 0.079439
0.331696 0.122062 0.079439
0.474056 0.153320 0.079439
0.592478 0.188366 0.079439
0.685407 0.239356 0.079439
0.781855 0.304993 0.079439
0.844602 0.372647 0.079392
0.878204 0.449136 0.079332
0.910334 0.529173 0.079256
0.930310 0.590313 0.079167
0.946085 0.646975 0.079073
0.953378 0.694711 0.078901
0.958940 0.749940 0.078779
0.964164 0.796133 0.078671
0.969079 0.837243 0.078561
0.973714 0.865647 0.078425
0.978083 0.888870 0.078201
0.981554 0.906528 0.078066
0.982635 0.921671 0.078138
0.983657 0.933129 0.078257
0.984626 0.946445 0.078369
0.985546 0.955931 0.078485
0.986419 0.964702 0.078614
0.069243 0.243465 0.079439
0.069245 0.240597 0.079439
0.069355 0.226201 0.079439
0.070109 0.203352 0.079439
0.072305 0.174953 0.079439
0.076274 0.157373 0.079439
0.083911 0.140936 0.079439
0.100158 0.129594 0.079439
0.133673 0.125072 0.079439
0.167605 0.124975 0.079439
0.220753 0.128707 0.079439
0.307057 0.147565 0.079439
0.438048 0.175977 0.079439
0.563786 0.221659 0.079439
0.651185 0.281501 0.079439
0.748585 0.334210 0.079439
0.823173 0.409850 0.079410
0.864765 0.482729 0.079350
0.897186 0.556347 0.079287
0.922130 0.613209 0.079196
0.940136 0.664715 0.079110
0.950900 0.714397 0.078977
0.956618 0.766082 0.078810
0.961991 0.812011 0.078710
0.967048 0.846796 0.078597
0.971816 0.874882 0.078486
0.976318 0.894969 0.078274
0.980187 0.911912 0.078059
0.982208 0.923525 0.078098
0.983260 0.938138 0.078219
0.984255 0.949435 0.078334
0.985199 0.958804 0.078443
0.986095 0.967040 0.078575
0.069244 0.375942 0.079439
0.069248 0.369887 0.079439
0.069406 0.349885 0.079439
0.070345 0.321438 0.079439
0.072674 0.293600 0.079439
0.077156 0.254743 0.079439
0.086119 0.227489 0.079439
0.107288 0.209361 0.079439
0.143393 0.193201 0.079439
0.178210 0.186032 0.079439
0.236839 0.186678 0.079439
0.305930 0.194765 0.079439
0.402209 0.217869 0.079439
0.520417 0.264399 0.079439
0.624230 0.316823 0.079439
0.715709 0.381062 0.079439
0.794583 0.450378 0.079426
0.852254 0.524781 0.079366
0.884693 0.584103 0.079310
0.914182 0.639854 0.079223
0.933482 0.685736 0.079137
0.948025 0.739863 0.079037
0.954262 0.785018 0.078840
0.959766 0.828558 0.078749
0.964950 0.857850 0.078634
0.969841 0.883193 0.078527
0.974460 0.901412 0.078350
0.978707 0.917387 0.078129
0.981756 0.928005 0.078070
0.982836 0.943301 0.078180
0.983858 0.952850 0.078298
0.984827 0.962084 0.078409
0.985746 0.968862 0.078534
0.069248 0.523379 0.079439
0.069262 0.517948 0.079439
0.069496 0.499622 0.079439
0.070610 0.470146 0.079439
0.072999 0.434258 0.079439
0.077937 0.396253 0.079439
0.088174 0.355583 0.079439
0.113343 0.324271 0.079439
0.150909 0.305544 0.079439
0.190378 0.293756 0.079439
0.253006 0.288772 0.079439
0.319838 0.290197 0.079439
0.405579 0.297545 0.079439
0.502364 0.315563 0.079439
0.603095 0.370710 0.079439
0.688445 0.434351 0.079439
0.778995 0.501181 0.079438
0.840932 0.564370 0.079379
0.873192 0.617335 0.079324
0.904385 0.665249 0.079246
0.926132 0.712089 0.079161
0.943147 0.762604 0.079068
0.951934 0.807008 0.078896
0.957544 0.842971 0.078778
0.962837 0.870497 0.078670
0.967834 0.891775 0.078561
0.972559 0.908722 0.078425
0.977030 0.922343 0.078200
0.980771 0.934751 0.078066
0.982394 0.947321 0.078140
0.983442 0.956702 0.078260
0.984435 0.965285 0.078373
0.985377 0.970102 0.078491
0.069270 0.637277 0.079439
0.069327 0.633965 0.079439
0.069582 0.622093 0.079439
0.070861 0.602289 0.079439
0.073374 0.576845 0.079439
0.078747 0.548348 0.079439
0.090320 0.510666 0.079439
0.118826 0.473757 0.079439
0.157224 0.444123 0.079439
0.201403 0.422702 0.079439
0.268319 0.409737 0.079439
0.333587 0.405025 0.079439
0.424254 0.408147 0.079439
0.512380 0.418619 0.079439
0.586209 0.437038 0.079439
0.666391 0.496191 0.079439
0.755889 0.556136 0.079439
0.823361 0.604615 0.079389
0.862895 0.652264 0.079334
0.893813 0.694850 0.079266
0.919253 0.745951 0.079181
0.937257 0.788675 0.079096
0.949690 0.829850 0.078957
0.955377 0.857933 0.078804
0.960754 0.882687 0.078704
0.965840 0.900565 0.078594
0.970655 0.916379 0.078482
0.975216 0.926615 0.078270
0.979310 0.942313 0.078055
0.981942 0.951811 0.078101
0.983015 0.961000 0.078222
0.984031 0.968476 0.078337
0.984995 0.971481 0.078448
0.069339 0.731412 0.079439
0.069387 0.728403 0.079439
0.069686 0.717556 0.079439
0.071104 0.699828 0.079439
0.073716 0.680318 0.079439
0.079422 0.657983 0.079439
0.092028 0.634405 0.079439
0.123293 0.606508 0.079439
0.162417 0.582233 0.079439
0.211483 0.562817 0.079439
0.279928 0.548518 0.079439
0.345922 0.539779 0.079439
0.443154 0.537440 0.079439
0.517722 0.541246 0.079439
0.593521 0.550819 0.079439
0.651003 0.564665 0.079439
0.734461 0.604576 0.079439
0.800140 0.648466 0.079395
0.853890 0.687706 0.079342
0.884380 0.735307 0.079282
0.912980 0.776854 0.079198
0.931552 0.818501 0.079119
0.946343 0.848540 0.079010
0.953307 0.874770 0.078827
0.958743 0.893961 0.078735
0.963896 0.910169 0.078624
0.968782 0.922699 0.078519
0.973418 0.935388 0.078336
0.977818 0.947538 0.078119
0.981390 0.956780 0.078071
0.982583 0.965263 0.078185
0.983621 0.970066 0.078302
0.984606 0.973001 0.078413
0.069406 0.818447 0.079439
0.069491 0.816290 0.079439
0.069874 0.808775 0.079439
0.071343 0.795829 0.079439
0.074041 0.778375 0.079439
0.080015 0.757905 0.079439
0.095067 0.734867 0.079439
0.128468 0.706138 0.079439
0.166805 0.685006 0.079439
0.220636 0.667225 0.079439
0.289845 0.653290 0.079439
0.359841 0.643675 0.079439
0.458599 0.638588 0.079439
0.526545 0.638022 0.079439
0.601362 0.641811 0.079439
0.659222 0.649679 0.079439
0.723027 0.661294 0.079439
0.790374 0.690436 0.079399
0.846166 0.734202 0.079347
0.876126 0.772936 0.079293
0.905435 0.811908 0.079211
0.925814 0.843115 0.079133
0.942196 0.868257 0.079039
0.951366 0.888833 0.078847
0.956836 0.905153 0.078761
0.962034 0.919747 0.078652
0.966973 0.929870 0.078547
0.971666 0.944041 0.078398
0.976128 0.953258 0.078179
0.980014 0.962237 0.078067
0.982153 0.968849 0.078149
0.983210 0.971805 0.078268
0.984214 0.974661 0.078380
0.069522 0.874681 0.079439
0.069596 0.873501 0.079439
0.070140 0.869365 0.079439
0.071616 0.862147 0.079439
0.074500 0.852223 0.079439
0.080556 0.840279 0.079439
0.096395 0.825407 0.079439
0.132697 0.804762 0.079439
0.170626 0.784324 0.079439
0.228151 0.766107 0.079439
0.298172 0.750945 0.079439
0.373018 0.739067 0.079439
0.469267 0.729361 0.079439
0.542586 0.724919 0.079439
0.608820 0.725687 0.079439
0.666878 0.731474 0.079439
0.730065 0.741693 0.079429
0.786500 0.753299 0.079393
0.838796 0.778122 0.079350
0.869017 0.813792 0.079300
0.897840 0.842463 0.079220
0.920687 0.866055 0.079144
0.937651 0.886364 0.079055
0.949577 0.902303 0.078884
0.955058 0.916804 0.078778
0.960279 0.926091 0.078676
0.965251 0.940983 0.078571
0.969985 0.950599 0.078452
0.974494 0.959496 0.078235
0.978673 0.967318 0.078051
0.981732 0.970830 0.078116
0.982805 0.973693 0.078235
0.983826 0.976464 0.078349
0.069628 0.909356 0.079439
0.069736 0.908708 0.079439
0.070449 0.906428 0.079439
0.071952 0.902417 0.079439
0.075051 0.896827 0.079439
0.081059 0.889566 0.079439
0.097751 0.880961 0.079439
0.136294 0.869683 0.079439
0.173601 0.857208 0.079439
0.234085 0.845625 0.079439
0.304866 0.835396 0.079439
0.384026 0.825459 0.079439
0.476395 0.816533 0.079439
0.556911 0.810504 0.079439
0.615614 0.808388 0.079439
0.674102 0.810143 0.079439
0.736924 0.815623 0.079411
0.789465 0.824144 0.079377
0.835910 0.833210 0.079342
0.862963 0.847209 0.079303
0.891268 0.868832 0.079226
0.916171 0.887110 0.079151
0.933586 0.902040 0.079067
0.947104 0.915896 0.078914
0.953423 0.924413 0.078792
0.958647 0.938789 0.078696
0.963635 0.948991 0.078592
0.968394 0.957699 0.078486
0.972934 0.965680 0.078284
0.977266 0.970121 0.078075
0.980884 0.972965 0.078085
0.982411 0.975727 0.078205
0.983445 0.978147 0.078319
0.069813 0.933460 0.079439
0.070011 0.932894 0.079439
0.070781 0.930898 0.079439
0.072289 0.927368 0.079439
0.075516 0.923654 0.079439
0.082529 0.921370 0.079439
0.099270 0.915290 0.079439
0.137917 0.908296 0.079439
0.175855 0.900849 0.079439
0.238563 0.893726 0.079439
0.309989 0.886515 0.079439
0.392752 0.880313 0.079439
0.482031 0.874529 0.079439
0.566887 0.869650 0.079439
0.621494 0.866964 0.079439
0.680570 0.866512 0.079425
0.743262 0.868265 0.079393
0.792276 0.872132 0.079360
0.838900 0.877845 0.079328
0.862199 0.883270 0.079288
0.885632 0.891413 0.079227
0.912233 0.904702 0.079155
0.929471 0.917333 0.079075
0.944188 0.925183 0.078935
0.951938 0.938818 0.078803
0.957150 0.948626 0.078712
0.962137 0.957025 0.078609
0.966905 0.964899 0.078510
0.971464 0.969732 0.078327
0.975820 0.972526 0.078119
0.979686 0.975252 0.078070
0.982030 0.977749 0.078177
0.983076 0.979801 0.078292
0.070129 0.954840 0.079439
0.070327 0.954536 0.079439
0.071099 0.953460 0.079439
0.072620 0.951548 0.079439
0.075989 0.948841 0.079439
0.083212 0.945454 0.079439
0.100637 0.941057 0.079439
0.139215 0.934267 0.079439
0.177503 0.927319 0.079439
0.241747 0.922988 0.079439
0.313661 0.919591 0.079439
0.399225 0.914724 0.079439
0.486324 0.910421 0.079439
0.571421 0.906891 0.079439
0.626298 0.904567 0.079436
0.686040 0.903507 0.079405
0.748796 0.903729 0.079375
0.794796 0.905207 0.079344
0.841316 0.907888 0.079313
0.863568 0.911693 0.079265
0.885609 0.916021 0.079210
0.907678 0.921312 0.079155
0.925833 0.928666 0.079079
0.941140 0.941351 0.078948
0.950604 0.949684 0.078810
0.955790 0.957645 0.078724
0.960763 0.965114 0.078623
0.965528 0.969715 0.078525
0.970092 0.972424 0.078363
0.974461 0.975082 0.078156
0.978551 0.977572 0.078068
0.981668 0.979592 0.078153
0.982722 0.981561 0.078268
0.070488 0.969144 0.079439
0.070702 0.969052 0.079439
0.071403 0.968726 0.079439
0.072943 0.967972 0.079439
0.076463 0.965971 0.079439
0.083877 0.963446 0.079439
0.101891 0.960139 0.079439
0.140259 0.956344 0.079439
0.178650 0.952397 0.079439
0.243808 0.948473 0.079439
0.316032 0.944737 0.079439
0.403571 0.940714 0.079439
0.489320 0.935994 0.079439
0.574707 0.932195 0.079439
0.629948 0.929437 0.079415
0.690355 0.927797 0.079386
0.753312 0.927316 0.079357
0.796910 0.927999 0.079328
0.842707 0.929819 0.079293
0.864778 0.932725 0.079241
0.886611 0.936649 0.079189
0.908233 0.941509 0.079137
0.922999 0.945373 0.079076
0.938225 0.952286 0.078953
0.949414 0.959695 0.078815
0.954566 0.966443 0.078732
0.959515 0.970119 0.078632
0.964265 0.972706 0.078536
0.968824 0.975262 0.078392
0.973196 0.977648 0.078187
0.977387 0.979615 0.078066
0.980889 0.981541 0.078132
0.982386 0.983423 0.078246
0.070861 0.974703 0.079439
0.071054 0.974624 0.079439
0.071778 0.974344 0.079439
0.073378 0.973844 0.079439
0.076932 0.973127 0.079439
0.084531 0.972216 0.079439
0.103061 0.971147 0.079439
0.141100 0.969964 0.079439
0.179517 0.968717 0.079439
0.244912 0.966309 0.079439
0.317260 0.963359 0.079439
0.405969 0.960268 0.079439
0.491103 0.957398 0.079439
0.576808 0.954994 0.079422
0.632424 0.953133 0.079395
0.693435 0.951873 0.079368
0.756672 0.951249 0.079340
0.798534 0.951278 0.079312
0.843808 0.951957 0.079268
0.865758 0.953269 0.079218
0.887438 0.955184 0.079168
0.908883 0.957662 0.079119
0.923296 0.960658 0.079053
0.936289 0.963880 0.078941
0.947919 0.968554 0.078816
0.953471 0.970980 0.078736
0.958388 0.973409 0.078639
0.963116 0.975830 0.078544
0.967661 0.978008 0.078413
0.972026 0.979897 0.078211
0.976218 0.981759 0.078055
0.979905 0.983588 0.078115
0.982069 0.985212 0.078228
0.071210 0.979333 0.079439
0.071385 0.979279 0.079439
0.072188 0.979087 0.079439
0.073802 0.978743 0.079439
0.077393 0.978249 0.079439
0.085173 0.977619 0.079439
0.104167 0.976806 0.079439
0.141783 0.975760 0.079439
0.180016 0.974648 0.079439
0.245211 0.973513 0.079439
0.317502 0.972396 0.079439
0.406629 0.971341 0.079439
0.492093 0.970383 0.079428
0.577792 0.969556 0.079403
0.633756 0.968886 0.079377
0.695257 0.968396 0.079351
0.758801 0.967861 0.079324
0.799615 0.967634 0.079291
0.844567 0.967906 0.079244
0.866452 0.968434 0.079196
0.888029 0.968948 0.079148
0.909345 0.969649 0.079095
0.923497 0.970525 0.079030
0.936374 0.971560 0.078895
0.946734 0.972740 0.078808
0.952495 0.974555 0.078737
0.957377 0.976811 0.078641
0.962077 0.978674 0.078549
0.966601 0.980463 0.078427
0.970954 0.982238 0.078228
0.975139 0.983994 0.078046
0.978990 0.985424 0.078101
0.981773 0.986149 0.078213
0.071560 0.983195 0.079439
0.071783 0.983149 0.079439
0.072579 0.982984 0.079439
0.074243 0.982687 0.079439
0.077934 0.982259 0.079439
0.085807 0.981710 0.079439
0.105224 0.981058 0.079439
0.142341 0.980326 0.079439
0.180182 0.979541 0.079439
0.244841 0.978731 0.079439
0.316904 0.977926 0.079439
0.405769 0.977155 0.079432
0.491465 0.976265 0.079408
0.577748 0.975475 0.079384
0.634002 0.974815 0.079359
0.695846 0.974305 0.079334
0.759679 0.973962 0.079308
0.800124 0.973797 0.079265
0.844953 0.973814 0.079220
0.866816 0.974015 0.079174
0.888337 0.974398 0.079127
0.909567 0.974956 0.079070
0.923570 0.975680 0.078986
0.936368 0.976559 0.078850
0.946672 0.977489 0.078790
0.952035 0.978403 0.078724
0.956472 0.979656 0.078640
0.961141 0.981326 0.078550
0.965640 0.982997 0.078435
0.969974 0.984660 0.078239
0.974147 0.985674 0.078049
0.978145 0.986369 0.078091
0.981417 0.987026 0.078202
0.072000 0.985885 0.079439
0.072218 0.985868 0.079439
0.072954 0.985807 0.079439
0.074949 0.985698 0.079439
0.078579 0.985540 0.079439
0.086430 0.985300 0.079439
0.106242 0.984945 0.079439
0.142799 0.984310 0.079439
0.180077 0.983615 0.079439
0.243920 0.982894 0.079439
0.315599 0.982170 0.079434
0.403597 0.981468 0.079412
0.490272 0.980812 0.079390
0.576771 0.980222 0.079366
0.633239 0.979718 0.079342
0.695258 0.979314 0.079318
0.759328 0.979024 0.079285
0.800055 0.978855 0.079241
0.844948 0.978816 0.079197
0.866825 0.978907 0.079152
0.888327 0.979130 0.079106
0.909509 0.979481 0.079045
0.923487 0.979956 0.078937
0.936247 0.980547 0.078829
0.946534 0.981248 0.078773
0.951944 0.982049 0.078702
0.956112 0.982941 0.078626
0.960299 0.984039 0.078549
0.964771 0.985346 0.078436
0.969083 0.986031 0.078243
0.973240 0.986690 0.078057
0.977246 0.987321 0.078084
0.980635 0.988445 0.078194
0.072427 0.987287 0.079439
0.072627 0.987262 0.079439
0.073444 0.987212 0.079439
0.075546 0.987126 0.079439
0.079211 0.987001 0.079439
0.087043 0.986840 0.079439
0.107225 0.986640 0.079439
0.143175 0.986400 0.079439
0.179753 0.986140 0.079439
0.242546 0.985868 0.079434
0.313701 0.985592 0.079414
0.400312 0.985278 0.079394
0.488312 0.984889 0.079372
0.574960 0.984344 0.079350
0.631552 0.983869 0.079327
0.693567 0.983479 0.079302
0.757798 0.983185 0.079260
0.799415 0.982998 0.079218
0.844547 0.982923 0.079175
0.866462 0.982965 0.079132
0.887975 0.983125 0.079080
0.909142 0.983402 0.079017
0.923227 0.983794 0.078889
0.935991 0.984296 0.078810
0.946305 0.984902 0.078755
0.951813 0.985351 0.078681
0.955964 0.985710 0.078607
0.960010 0.986082 0.078534
0.963986 0.986497 0.078430
0.968275 0.987081 0.078242
0.972413 0.987994 0.078059
0.976404 0.989061 0.078081
0.979914 0.990118 0.078189
0.072828 0.989630 0.079439
0.073039 0.989608 0.079439
0.073910 0.989530 0.079439
0.076129 0.989389 0.079439
0.079827 0.989184 0.079439
0.087842 0.988919 0.079439
0.108176 0.988600 0.079439
0.143484 0.988237 0.079439
0.179249 0.987840 0.079432
0.240804 0.987423 0.079415
0.311313 0.987121 0.079396
0.396092 0.986901 0.079376
0.485685 0.986688 0.079355
0.572411 0.986476 0.079334
0.629031 0.986289 0.079312
0.690862 0.986133 0.079277
0.755159 0.986011 0.079237
0.798226 0.985928 0.079196
0.843756 0.985888 0.079154
0.865723 0.985892 0.079112
0.887268 0.985940 0.079056
0.908445 0.986034 0.078967
0.922772 0.986173 0.078846
0.935584 0.986355 0.078792
0.945969 0.986579 0.078732
0.951636 0.986832 0.078660
0.955775 0.987106 0.078588
0.959809 0.987551 0.078516
0.963743 0.988185 0.078395
0.967581 0.988867 0.078233
0.971659 0.989839 0.078056
0.975634 0.990814 0.078081
0.979252 0.991507 0.078188
0.073307 0.991503 0.079439
0.073543 0.991490 0.079439
0.074495 0.991443 0.079439
0.076693 0.991358 0.079439
0.080427 0.991235 0.079439
0.088765 0.991075 0.079439
0.109097 0.990883 0.079439
0.143735 0.990620 0.079428
0.178645 0.990274 0.079413
0.238763 0.989908 0.079397
0.308519 0.989534 0.079379
0.391097 0.989163 0.079360
0.482486 0.988807 0.079340
0.569214 0.988476 0.079319
0.625766 0.988180 0.079292
0.687235 0.987929 0.079254
0.751493 0.987730 0.079215
0.796516 0.987589 0.079175
0.842587 0.987513 0.079135
0.864613 0.987504 0.079088
0.886203 0.987565 0.079032
0.907408 0.987698 0.078920
0.922112 0.987901 0.078827
0.935013 0.988174 0.078774
