ektachrome100d/Ektachrome100D_Classic_IlfochromeM.cube
TITLE "Kodak Ektachrome 100D Classic IlfochromeM"
# Adobe RGB in/out. REPLACES AgX. Kodak Ektachrome 100D Classic IlfochromeM.
LUT_3D_SIZE 9
DOMAIN_MIN 0.0 0.0 0.0
DOMAIN_MAX 1.0 1.0 1.0
0.117813 0.082450 0.079661
0.148111 0.094269 0.081966
0.245350 0.128780 0.088868
0.369754 0.180357 0.100525
0.492706 0.250401 0.114456
0.615611 0.321816 0.129910
0.730795 0.397513 0.146831
0.807083 0.475873 0.168233
0.854279 0.540485 0.195399
0.119115 0.112558 0.081273
0.148969 0.121754 0.082525
0.246173 0.149761 0.089520
0.370226 0.202241 0.101071
0.493051 0.266658 0.114841
0.615875 0.334930 0.130261
0.730958 0.409511 0.147131
0.807182 0.483710 0.168587
0.854332 0.547075 0.195728
0.122176 0.192539 0.082926
0.151881 0.200255 0.085049
0.249108 0.225854 0.091575
0.371968 0.266946 0.102933
0.494286 0.318808 0.116184
0.616821 0.378350 0.131505
0.731541 0.448841 0.148197
0.807536 0.510586 0.169922
0.854525 0.569927 0.196906
0.128963 0.305442 0.087275
0.157175 0.310379 0.089111
0.254409 0.326944 0.095090
0.375149 0.357844 0.106243
0.496551 0.400300 0.118937
0.618557 0.453559 0.133856
0.732613 0.504068 0.150246
0.808186 0.555447 0.172466
0.854880 0.609068 0.199054
0.139347 0.426960 0.092869
0.165795 0.430903 0.094506
0.261977 0.444380 0.101151
0.379847 0.468186 0.110878
0.499915 0.496016 0.122750
0.621144 0.530630 0.137239
0.734210 0.570450 0.153368
0.809157 0.614588 0.176206
0.855410 0.662066 0.202224
0.151184 0.536766 0.100885
0.177589 0.539182 0.102470
0.271807 0.547746 0.107876
0.386086 0.563057 0.116195
0.504417 0.584981 0.127800
0.624618 0.612983 0.141583
0.736359 0.646320 0.157942
0.810464 0.684186 0.181160
0.856124 0.722823 0.206438
0.165429 0.637848 0.109346
0.192302 0.639773 0.110694
0.283620 0.646625 0.115098
0.393850 0.658987 0.122943
0.510076 0.676925 0.133833
0.629004 0.700210 0.146885
0.739075 0.724744 0.164204
0.811978 0.748647 0.187433
0.857027 0.775059 0.211687
0.183624 0.731814 0.117863
0.211191 0.732980 0.119097
0.297901 0.737136 0.123243
0.403093 0.744655 0.130635
0.516887 0.755609 0.140749
0.634313 0.769893 0.153322
0.742369 0.786747 0.171843
0.813364 0.805286 0.194690
0.858126 0.826038 0.217925
0.205585 0.801775 0.127348
0.233072 0.802652 0.128456
0.314260 0.805782 0.132275
0.413744 0.811465 0.139081
0.524836 0.819792 0.148398
0.640546 0.830730 0.162047
0.746244 0.844159 0.181074
0.814998 0.855211 0.202672
0.859422 0.867304 0.225261
0.117813 0.084008 0.121965
0.148111 0.095012 0.123083
0.245350 0.129332 0.127201
0.369754 0.180909 0.134300
0.492706 0.250811 0.144083
0.615611 0.322118 0.156884
0.730795 0.397804 0.175787
0.807083 0.476063 0.198098
0.854279 0.540644 0.221042
0.119115 0.113213 0.122339
0.148969 0.122338 0.123447
0.246173 0.150223 0.127572
0.370226 0.202737 0.134648
0.493051 0.267033 0.144395
0.615875 0.335256 0.157225
0.730958 0.409795 0.176162
0.807182 0.483895 0.198423
0.854332 0.547232 0.221340
0.122176 0.193060 0.123655
0.151881 0.200756 0.124820
0.249108 0.226303 0.128883
0.371968 0.267322 0.135883
0.494286 0.319113 0.145504
0.616821 0.378652 0.158442
0.731541 0.449083 0.177502
0.807536 0.510759 0.199584
0.854525 0.570075 0.222410
0.128963 0.305779 0.126204
0.157175 0.310693 0.127337
0.254409 0.327242 0.131209
0.375149 0.358119 0.138090
0.496551 0.400589 0.147498
0.618557 0.453799 0.160912
0.732613 0.504244 0.179942
0.808186 0.555601 0.201703
0.854880 0.609204 0.224365
0.139347 0.427235 0.129826
0.165795 0.431155 0.130881
0.261977 0.444625 0.134700
0.379847 0.468380 0.141292
0.499915 0.496196 0.150541
0.621144 0.530793 0.164563
0.734210 0.570598 0.183624
0.809157 0.614722 0.204833
0.855410 0.662188 0.227259
0.151184 0.536926 0.134529
0.177589 0.539341 0.135570
0.271807 0.547902 0.139165
0.386086 0.563207 0.145513
0.504417 0.585124 0.154865
0.624618 0.613118 0.169365
0.736359 0.646445 0.188513
0.810464 0.684303 0.209003
0.856124 0.722903 0.231114
0.165429 0.637976 0.140168
0.192302 0.639900 0.141154
0.283620 0.646750 0.144605
0.393850 0.659109 0.150710
0.510076 0.677044 0.160888
0.629004 0.700323 0.175854
0.739075 0.724823 0.194429
0.811978 0.748721 0.214188
0.857027 0.775127 0.236241
0.183624 0.731891 0.146715
0.211191 0.733057 0.147616
0.297901 0.737212 0.150972
0.403093 0.744730 0.157589
0.516887 0.755681 0.168448
0.634313 0.769962 0.183569
0.742369 0.786808 0.201184
0.813364 0.805343 0.220400
0.858126 0.826092 0.242603
0.205585 0.801833 0.154439
0.233072 0.802710 0.155488
0.314260 0.805839 0.159245
0.413744 0.811522 0.166598
0.524836 0.819847 0.177757
0.640546 0.830784 0.192479
0.746244 0.844211 0.208932
0.814998 0.855245 0.227669
0.859422 0.867336 0.249941
0.117813 0.086418 0.222400
0.148111 0.097488 0.223294
0.245350 0.131274 0.226479
0.369754 0.182880 0.232228
0.492706 0.252281 0.241380
0.615611 0.323202 0.253186
0.730795 0.398846 0.267047
0.807083 0.476743 0.283029
0.854279 0.541215 0.300700
0.119115 0.115475 0.222697
0.148969 0.124377 0.223590
0.246173 0.151909 0.226771
0.370226 0.204509 0.232512
0.493051 0.268378 0.241685
0.615875 0.336424 0.253463
0.730958 0.410814 0.267309
0.807182 0.484561 0.283274
0.854332 0.547794 0.300929
0.122176 0.194922 0.223760
0.151881 0.202544 0.224649
0.249108 0.227907 0.227815
0.371968 0.268665 0.233596
0.494286 0.320207 0.242775
0.616821 0.379734 0.254456
0.731541 0.449955 0.268249
0.807536 0.511380 0.284151
0.854525 0.570607 0.301751
0.128963 0.306986 0.225704
0.157175 0.311818 0.226585
0.254409 0.328336 0.229726
0.375149 0.359108 0.235655
0.496551 0.401626 0.244773
0.618557 0.454662 0.256275
0.732613 0.504876 0.269970
0.808186 0.556151 0.285757
0.854880 0.609692 0.303256
0.139347 0.428223 0.228581
0.165795 0.432059 0.229452
0.261977 0.445504 0.232555
0.379847 0.469075 0.238708
0.499915 0.496841 0.247736
0.621144 0.531378 0.258974
0.734210 0.571129 0.272526
0.809157 0.615204 0.288145
0.855410 0.662624 0.305496
0.151184 0.537502 0.232414
0.177589 0.539914 0.233309
0.271807 0.548463 0.236680
0.386086 0.563748 0.242785
0.504417 0.585639 0.251558
0.624618 0.613601 0.262582
0.736359 0.646896 0.275945
0.810464 0.684721 0.291342
0.856124 0.723188 0.308497
0.165429 0.638435 0.237649
0.192302 0.640357 0.238578
0.283620 0.647201 0.241890
0.393850 0.659548 0.247893
0.510076 0.677468 0.256257
0.629004 0.700728 0.267094
0.739075 0.725106 0.280240
0.811978 0.748985 0.295361
0.857027 0.775373 0.312274
0.183624 0.732169 0.243982
0.211191 0.733334 0.244892
0.297901 0.737486 0.248138
0.403093 0.744998 0.253759
0.516887 0.755941 0.261896
0.634313 0.770211 0.272487
0.742369 0.787026 0.285363
0.813364 0.805550 0.300203
0.858126 0.826287 0.316831
0.205585 0.802042 0.251216
0.233072 0.802918 0.252057
0.314260 0.806045 0.255058
0.413744 0.811725 0.260498
0.524836 0.820045 0.268428
0.640546 0.830975 0.278767
0.746244 0.844395 0.291287
0.814998 0.855365 0.305814
0.859422 0.867449 0.322170
0.117813 0.091776 0.354741
0.148111 0.102170 0.355345
0.245350 0.134716 0.357509
0.369754 0.186461 0.361458
0.492706 0.254925 0.367293
0.615611 0.325185 0.375073
0.730795 0.400759 0.384828
0.807083 0.477992 0.396455
0.854279 0.542263 0.409874
0.119115 0.119409 0.354941
0.148969 0.128075 0.355545
0.246173 0.155211 0.357708
0.370226 0.207733 0.361655
0.493051 0.270880 0.367488
0.615875 0.338566 0.375265
0.730958 0.412685 0.385016
0.807182 0.485784 0.396638
0.854332 0.548825 0.410052
0.122176 0.198297 0.355661
0.151881 0.205797 0.356263
0.249108 0.230832 0.358422
0.371968 0.271173 0.362362
0.494286 0.322210 0.368184
0.616821 0.381719 0.375956
0.731541 0.451555 0.385691
0.807536 0.512520 0.397296
0.854525 0.571585 0.410690
0.128963 0.309155 0.356980
0.157175 0.313877 0.357581
0.254409 0.330520 0.359732
0.375149 0.360919 0.363659
0.496551 0.403529 0.369463
0.618557 0.456247 0.377224
0.732613 0.506035 0.386931
0.808186 0.557163 0.398503
0.854880 0.610588 0.411862
0.139347 0.429921 0.358946
0.165795 0.433719 0.359544
0.261977 0.447119 0.361684
0.379847 0.470350 0.365593
0.499915 0.498024 0.371369
0.621144 0.532452 0.379113
0.734210 0.572106 0.388778
0.809157 0.616089 0.400302
0.855410 0.663427 0.413610
0.151184 0.538560 0.361587
0.177589 0.540966 0.362181
0.271807 0.549494 0.364307
0.386086 0.564742 0.368190
0.504417 0.586583 0.373944
0.624618 0.614490 0.381653
0.736359 0.647725 0.391262
0.810464 0.685489 0.402722
0.856124 0.723712 0.415961
0.165429 0.639278 0.364921
0.192302 0.641197 0.365510
0.283620 0.648029 0.367619
0.393850 0.660356 0.371470
0.510076 0.678247 0.377211
0.629004 0.701473 0.384862
0.739075 0.725628 0.394401
0.811978 0.749472 0.405782
0.857027 0.775825 0.418934
0.183624 0.732680 0.368957
0.211191 0.733843 0.369540
0.297901 0.737989 0.371627
0.403093 0.745490 0.375471
0.516887 0.756418 0.381169
0.634313 0.770670 0.388750
0.742369 0.787428 0.398206
0.813364 0.805930 0.409492
0.858126 0.826644 0.422541
0.205585 0.802426 0.373708
0.233072 0.803301 0.374290
0.314260 0.806425 0.376375
0.413744 0.812097 0.380185
0.524836 0.820409 0.385820
0.640546 0.831328 0.393321
0.746244 0.844734 0.402681
0.814998 0.855586 0.413858
0.859422 0.867658 0.426787
0.117813 0.098526 0.488745
0.148111 0.109012 0.489122
0.245350 0.139750 0.490476
0.369754 0.191708 0.492953
0.492706 0.258779 0.496596
0.615611 0.328136 0.501466
0.730795 0.403607 0.507575
0.807083 0.479852 0.514915
0.854279 0.543827 0.523460
0.119115 0.125152 0.488870
0.148969 0.133377 0.489247
0.246173 0.159952 0.490601
0.370226 0.212462 0.493075
0.493051 0.274632 0.496717
0.615875 0.341748 0.501586
0.730958 0.415471 0.507693
0.807182 0.487606 0.515031
0.854332 0.550364 0.523574
0.122176 0.203240 0.489319
0.151881 0.210573 0.489697
0.249108 0.235143 0.491049
0.371968 0.274922 0.493516
0.494286 0.325182 0.497154
0.616821 0.384675 0.502017
0.731541 0.453938 0.508118
0.807536 0.514220 0.515448
0.854525 0.573043 0.523982
0.128963 0.312257 0.490145
0.157175 0.316931 0.490522
0.254409 0.333767 0.491871
0.375149 0.363611 0.494325
0.496551 0.406362 0.497955
0.618557 0.458608 0.502809
0.732613 0.507763 0.508898
0.808186 0.558672 0.516214
0.854880 0.611924 0.524732
0.139347 0.432413 0.491378
0.165795 0.436190 0.491753
0.261977 0.449523 0.493094
0.379847 0.472249 0.495532
0.499915 0.499788 0.499151
0.621144 0.534054 0.503990
0.734210 0.573563 0.510061
0.809157 0.617410 0.517357
0.855410 0.664625 0.525852
0.151184 0.540138 0.493033
0.177589 0.542535 0.493403
0.271807 0.551030 0.494729
0.386086 0.566224 0.497157
0.504417 0.587993 0.500762
0.624618 0.615815 0.505582
0.736359 0.648961 0.511629
0.810464 0.686637 0.518896
0.856124 0.724495 0.527361
0.165429 0.640536 0.495112
0.192302 0.642450 0.495480
0.283620 0.649264 0.496799
0.393850 0.661561 0.499215
0.510076 0.679410 0.502801
0.629004 0.702586 0.507596
0.739075 0.726406 0.513613
0.811978 0.750198 0.520846
0.857027 0.776499 0.529271
0.183624 0.733442 0.497638
0.211191 0.734603 0.498003
0.297901 0.738739 0.499314
0.403093 0.746224 0.501714
0.516887 0.757130 0.505278
0.634313 0.771354 0.510044
0.742369 0.788028 0.516025
0.813364 0.806497 0.523216
0.858126 0.827178 0.531594
0.205585 0.802999 0.500615
0.233072 0.803873 0.500978
0.314260 0.806991 0.502279
0.413744 0.812655 0.504661
0.524836 0.820953 0.508199
0.640546 0.831855 0.512930
0.746244 0.845209 0.518870
0.814998 0.855916 0.526012
0.859422 0.867970 0.534334
0.117813 0.107932 0.607194
0.148111 0.117380 0.607479
0.245350 0.146302 0.608499
0.369754 0.198584 0.610371
0.492706 0.263900 0.613128
0.615611 0.332542 0.616789
0.730795 0.407432 0.621404
0.807083 0.482351 0.626982
0.854279 0.545930 0.633521
0.119115 0.132484 0.607289
0.148969 0.140189 0.607573
0.246173 0.167012 0.608593
0.370226 0.218692 0.610465
0.493051 0.279629 0.613219
0.615875 0.346010 0.616879
0.730958 0.419213 0.621493
0.807182 0.490053 0.627070
0.854332 0.552435 0.633608
0.122176 0.209746 0.607627
0.151881 0.216853 0.607912
0.249108 0.240874 0.608931
0.371968 0.279914 0.610802
0.494286 0.329283 0.613546
0.616821 0.388641 0.617204
0.731541 0.457141 0.621815
0.807536 0.516504 0.627388
0.854525 0.575007 0.633922
0.128963 0.316398 0.608250
0.157175 0.321009 0.608534
0.254409 0.338112 0.609552
0.375149 0.367216 0.611420
0.496551 0.410168 0.614148
0.618557 0.461781 0.617801
0.732613 0.510085 0.622406
0.808186 0.560702 0.627973
0.854880 0.613725 0.634498
0.139347 0.435759 0.609179
0.165795 0.439510 0.609463
0.261977 0.452754 0.610479
0.379847 0.474800 0.612331
0.499915 0.502159 0.615047
0.621144 0.536208 0.618693
0.734210 0.575524 0.623290
0.809157 0.619189 0.628846
0.855410 0.666239 0.635359
0.151184 0.542260 0.610433
0.177589 0.544645 0.610715
0.271807 0.553097 0.611729
0.386086 0.568218 0.613549
0.504417 0.589890 0.616259
0.624618 0.617601 0.619895
0.736359 0.650627 0.624480
0.810464 0.688183 0.630023
0.856124 0.725550 0.636520
0.165429 0.642231 0.612016
0.192302 0.644138 0.612292
0.283620 0.650929 0.613281
0.393850 0.663185 0.615095
0.510076 0.680979 0.617795
0.629004 0.704087 0.621420
0.739075 0.727455 0.625990
0.811978 0.751178 0.631516
0.857027 0.777409 0.637993
0.183624 0.734470 0.613910
0.211191 0.735627 0.614184
0.297901 0.739751 0.615169
0.403093 0.747215 0.616976
0.516887 0.758090 0.619666
0.634313 0.772277 0.623276
0.742369 0.788837 0.627829
0.813364 0.807262 0.633333
0.858126 0.827898 0.639787
0.205585 0.803773 0.616148
0.233072 0.804644 0.616421
0.314260 0.807755 0.617401
0.413744 0.813406 0.619199
0.524836 0.821686 0.621877
0.640546 0.832565 0.625470
0.746244 0.845677 0.630002
0.814998 0.856360 0.635482
0.859422 0.868391 0.641907
0.117813 0.118469 0.722327
0.148111 0.127218 0.722549
0.245350 0.154466 0.723345
0.369754 0.207001 0.724807
0.492706 0.270302 0.726987
0.615611 0.338077 0.729918
0.730795 0.412258 0.733591
0.807083 0.485505 0.736769
0.854279 0.548590 0.740502
0.119115 0.141107 0.722401
0.148969 0.148466 0.722623
0.246173 0.176696 0.723419
0.370226 0.226396 0.724880
0.493051 0.285870 0.727059
0.615875 0.351258 0.729991
0.730958 0.423936 0.733642
0.807182 0.493143 0.736820
0.854332 0.555053 0.740552
0.122176 0.217733 0.722665
0.151881 0.224607 0.722887
0.249108 0.248012 0.723682
0.371968 0.286150 0.725143
0.494286 0.334863 0.727321
0.616821 0.393641 0.730251
0.731541 0.461185 0.733825
0.807536 0.519391 0.737001
0.854525 0.577491 0.740731
0.128963 0.321585 0.723150
0.157175 0.326119 0.723372
0.254409 0.343572 0.724167
0.375149 0.371749 0.725627
0.496551 0.414969 0.727803
0.618557 0.465789 0.730730
0.732613 0.513019 0.734162
0.808186 0.563269 0.737334
0.854880 0.616004 0.741060
0.139347 0.439981 0.723876
0.165795 0.443700 0.724097
0.261977 0.456834 0.724891
0.379847 0.478019 0.726349
0.499915 0.505153 0.728522
0.621144 0.538931 0.731446
0.734210 0.578005 0.734665
0.809157 0.621442 0.737832
0.855410 0.668285 0.741553
0.151184 0.544944 0.724855
0.177589 0.547313 0.725076
0.271807 0.555712 0.725868
0.386086 0.570741 0.727323
0.504417 0.592292 0.729493
0.624618 0.619861 0.732412
0.736359 0.652738 0.735343
0.810464 0.690143 0.738504
0.856124 0.726887 0.742217
0.165429 0.644378 0.726098
0.192302 0.646277 0.726318
0.283620 0.653039 0.727109
0.393850 0.665244 0.728561
0.510076 0.682966 0.730725
0.629004 0.705988 0.733601
0.739075 0.728784 0.736204
0.811978 0.752419 0.739356
0.857027 0.778563 0.743060
0.183624 0.735772 0.727612
0.211191 0.736925 0.727832
0.297901 0.741034 0.728620
0.403093 0.748470 0.730068
0.516887 0.759308 0.732227
0.634313 0.773447 0.734657
0.742369 0.789863 0.737252
0.813364 0.808233 0.740395
0.858126 0.828811 0.744086
0.205585 0.804754 0.729404
0.233072 0.805622 0.729623
0.314260 0.808725 0.730409
0.413744 0.814359 0.731853
0.524836 0.822616 0.733860
0.640546 0.833466 0.735907
0.746244 0.846270 0.738492
0.814998 0.856925 0.741623
0.859422 0.868925 0.745301
0.117813 0.130367 0.804929
0.148111 0.138214 0.805053
0.245350 0.164678 0.805501
0.369754 0.216845 0.806322
0.492706 0.278143 0.807548
0.615611 0.344739 0.809197
0.730795 0.418096 0.811284
0.807083 0.489322 0.813817
0.854279 0.551816 0.816800
0.119115 0.151092 0.804970
0.148969 0.158490 0.805094
0.246173 0.188068 0.805542
0.370226 0.235524 0.806363
0.493051 0.293255 0.807589
0.615875 0.357045 0.809238
0.730958 0.429567 0.811324
0.807182 0.496885 0.813857
0.854332 0.558231 0.816840
0.122176 0.227152 0.805118
0.151881 0.233800 0.805243
0.249108 0.256402 0.805690
0.371968 0.293524 0.806511
0.494286 0.341577 0.807736
0.616821 0.399685 0.809384
0.731541 0.466082 0.811470
0.807536 0.522890 0.814002
0.854525 0.580506 0.816984
0.128963 0.327805 0.805391
0.157175 0.332752 0.805516
0.254409 0.350147 0.805962
0.375149 0.377540 0.806783
0.496551 0.420778 0.808007
0.618557 0.470165 0.809654
0.732613 0.516574 0.811738
0.808186 0.566386 0.814268
0.854880 0.618774 0.817248
0.139347 0.445090 0.805799
0.165795 0.448771 0.805923
0.261977 0.461773 0.806369
0.379847 0.481914 0.807189
0.499915 0.508779 0.808411
0.621144 0.542234 0.810057
0.734210 0.581017 0.812139
0.809157 0.624180 0.814665
0.855410 0.670773 0.817642
0.151184 0.548199 0.806349
0.177589 0.550549 0.806473
0.271807 0.558884 0.806919
0.386086 0.573804 0.807737
0.504417 0.595209 0.808958
0.624618 0.622609 0.810600
0.736359 0.655304 0.812679
0.810464 0.692528 0.815202
0.856124 0.728513 0.818175
0.165429 0.646988 0.807048
0.192302 0.648877 0.807172
0.283620 0.655604 0.807616
0.393850 0.667747 0.808433
0.510076 0.685384 0.809651
0.629004 0.708303 0.811291
0.739075 0.730402 0.813365
0.811978 0.753930 0.815884
0.857027 0.779968 0.818851
0.183624 0.737357 0.807899
0.211191 0.738504 0.808023
0.297901 0.742595 0.808467
0.403093 0.749998 0.809281
0.516887 0.760790 0.810497
0.634313 0.774872 0.812132
0.742369 0.791113 0.814202
0.813364 0.809415 0.816715
0.858126 0.829924 0.819675
0.205585 0.805948 0.808908
0.233072 0.806814 0.809031
0.314260 0.809905 0.809473
0.413744 0.815520 0.810286
0.524836 0.823749 0.811498
0.640546 0.834564 0.813129
0.746244 0.846993 0.815193
0.814998 0.857613 0.817699
0.859422 0.869576 0.820651
0.117813 0.142880 0.861195
0.148111 0.150169 0.861261
0.245350 0.178745 0.861497
0.369754 0.228028 0.861931
0.492706 0.287196 0.862579
0.615611 0.352284 0.863451
0.730795 0.424946 0.864555
0.807083 0.493805 0.865897
0.854279 0.555614 0.867478
0.119115 0.163139 0.861217
0.148969 0.171694 0.861283
0.246173 0.200795 0.861519
0.370226 0.246004 0.861953
0.493051 0.301771 0.862601
0.615875 0.363791 0.863472
0.730958 0.435758 0.864577
0.807182 0.501279 0.865918
0.854332 0.561971 0.867500
0.122176 0.237919 0.861295
0.151881 0.244336 0.861361
0.249108 0.265855 0.861597
0.371968 0.302033 0.862031
0.494286 0.349408 0.862678
0.616821 0.406771 0.863550
0.731541 0.471153 0.864654
0.807536 0.526999 0.865995
0.854525 0.584060 0.867576
0.128963 0.335871 0.861439
0.157175 0.340751 0.861505
0.254409 0.357043 0.861741
0.375149 0.384935 0.862175
0.496551 0.427596 0.862822
0.618557 0.474884 0.863693
0.732613 0.520754 0.864796
0.808186 0.570056 0.866136
0.854880 0.622042 0.867716
0.139347 0.451087 0.861655
0.165795 0.454723 0.861721
0.261977 0.467575 0.861956
0.379847 0.486485 0.862389
0.499915 0.513042 0.863036
0.621144 0.546120 0.863906
0.734210 0.584566 0.865008
0.809157 0.627410 0.866346
0.855410 0.673711 0.867901
0.151184 0.552030 0.861946
0.177589 0.554359 0.862011
0.271807 0.562619 0.862247
0.386086 0.577412 0.862679
0.504417 0.598648 0.863324
0.624618 0.625850 0.864194
0.736359 0.658334 0.865294
0.810464 0.695345 0.866631
0.856124 0.730433 0.868113
0.165429 0.650069 0.862315
0.192302 0.651947 0.862380
0.283620 0.658631 0.862615
0.393850 0.670702 0.863047
0.510076 0.688240 0.863691
0.629004 0.711037 0.864559
0.739075 0.732311 0.865658
0.811978 0.755715 0.866992
0.857027 0.781551 0.868383
0.183624 0.739229 0.862765
0.211191 0.740370 0.862830
0.297901 0.744439 0.863065
0.403093 0.751804 0.863496
0.516887 0.762541 0.864139
0.634313 0.776556 0.865004
0.742369 0.792590 0.866101
0.813364 0.810813 0.867433
0.858126 0.831241 0.868713
0.205585 0.807361 0.863298
0.233072 0.808223 0.863363
0.314260 0.811301 0.863597
0.413744 0.816893 0.864027
0.524836 0.825090 0.864668
0.640546 0.835863 0.865532
0.746244 0.847848 0.866626
0.814998 0.858426 0.867923
0.859422 0.870346 0.869103
