ektachrome100d/Ektachrome100D_Modern_IlfochromeP.cube
TITLE "Kodak Ektachrome 100D Modern IlfochromeP"
# Adobe RGB in/out. REPLACES AgX. Kodak Ektachrome 100D Modern IlfochromeP.
LUT_3D_SIZE 5
DOMAIN_MIN 0.0 0.0 0.0
DOMAIN_MAX 1.0 1.0 1.0
0.138981 0.101282 0.098429
0.406709 0.237100 0.121040
0.679162 0.412202 0.169091
0.815722 0.547624 0.225189
0.885982 0.641902 0.275876
0.154436 0.362201 0.108612
0.328247 0.317262 0.116392
0.611427 0.438603 0.156980
0.790726 0.562689 0.213814
0.876441 0.651918 0.268269
0.187972 0.601973 0.125636
0.365151 0.572081 0.133358
0.556417 0.554786 0.155020
0.739016 0.616033 0.198204
0.848334 0.686770 0.252525
0.225702 0.726573 0.144077
0.368714 0.717214 0.150934
0.564137 0.703207 0.169048
0.720304 0.708876 0.201187
0.823140 0.739600 0.244959
0.258214 0.797406 0.159432
0.365268 0.795121 0.164353
0.547365 0.790766 0.182134
0.709446 0.793953 0.211178
0.810655 0.806567 0.248723
0.138981 0.124148 0.400753
0.413904 0.247512 0.407729
0.669370 0.406941 0.384850
0.808085 0.539312 0.385341
0.882365 0.636419 0.396768
0.150305 0.314058 0.339962
0.272485 0.265675 0.248900
0.585918 0.421030 0.324876
0.780176 0.552420 0.360555
0.872786 0.646198 0.384305
0.182371 0.577043 0.346648
0.348802 0.547899 0.319668
0.531283 0.532125 0.292514
0.728787 0.605183 0.321625
0.843778 0.682181 0.357394
0.222147 0.718296 0.326751
0.362937 0.709438 0.320062
0.555292 0.696109 0.310076
0.714741 0.703234 0.315365
0.820573 0.736755 0.340782
0.256632 0.794942 0.304361
0.363351 0.792579 0.304327
0.544774 0.788467 0.306936
0.707560 0.792391 0.317569
0.810148 0.806156 0.338129
0.138981 0.164663 0.722382
0.413904 0.267836 0.724321
0.715084 0.452985 0.721728
0.813844 0.550800 0.648561
0.880729 0.636054 0.612487
0.153668 0.369021 0.708506
0.384213 0.387510 0.671704
0.630185 0.462728 0.625281
0.783783 0.559792 0.605582
0.870555 0.644491 0.593020
0.174870 0.536950 0.583078
0.327221 0.518728 0.548759
0.492308 0.495161 0.489404
0.719542 0.596881 0.529996
0.838441 0.676868 0.550775
0.214236 0.700269 0.565654
0.350415 0.693390 0.552918
0.537851 0.682531 0.525070
0.699816 0.691830 0.512225
0.815615 0.731683 0.523898
0.252520 0.787602 0.530389
0.358455 0.785663 0.526689
0.538450 0.783089 0.518417
0.703029 0.788861 0.513942
0.808933 0.805353 0.517699
0.138981 0.215524 0.876262
0.413904 0.300294 0.876701
0.722007 0.477164 0.878269
0.832030 0.582047 0.842777
0.884963 0.647589 0.803923
0.154436 0.400234 0.876408
0.419032 0.444696 0.876846
0.687725 0.525644 0.856082
0.805248 0.591129 0.819125
0.874457 0.655181 0.788024
0.175222 0.545875 0.792591
0.340989 0.545887 0.777424
0.558173 0.565276 0.752024
0.736058 0.619043 0.745152
0.840985 0.682800 0.742483
0.207289 0.684249 0.749511
0.339157 0.680228 0.739291
0.525842 0.672879 0.710620
0.684469 0.680936 0.684444
0.813112 0.730314 0.703425
0.247488 0.778794 0.720176
0.352368 0.777814 0.715746
0.531343 0.777563 0.704236
0.698200 0.785643 0.694742
0.807776 0.805061 0.694519
0.138981 0.275169 0.938305
0.413904 0.341671 0.938408
0.722007 0.499161 0.938774
0.846438 0.610275 0.925069
0.890239 0.663811 0.894594
0.154436 0.430078 0.938339
0.419032 0.471167 0.938442
0.718974 0.571200 0.937394
0.822385 0.621180 0.910760
0.880432 0.671557 0.884373
0.181066 0.591714 0.903332
0.367788 0.596507 0.899196
0.606566 0.615653 0.886505
0.759651 0.651512 0.869924
0.848884 0.694969 0.855780
0.205239 0.682322 0.853587
0.337717 0.682055 0.849637
0.534959 0.685616 0.838573
0.708163 0.703580 0.830192
0.816892 0.737343 0.828013
0.243006 0.771777 0.831958
0.346982 0.771844 0.829858
0.525812 0.774248 0.824138
0.695136 0.784722 0.818771
0.807275 0.805978 0.818123
