ektachrome100d/Ektachrome100D_Modern_Soft.cube
TITLE "Kodak Ektachrome 100D Modern Soft"
# Adobe RGB in/out. REPLACES AgX. Kodak Ektachrome 100D Modern Soft.
LUT_3D_SIZE 33
DOMAIN_MIN 0.0 0.0 0.0
DOMAIN_MAX 1.0 1.0 1.0
0.086071 0.084324 0.090717
0.086071 0.084324 0.090717
0.086071 0.084324 0.090717
0.087469 0.084324 0.090717
0.095229 0.084324 0.090717
0.119253 0.084465 0.090717
0.180158 0.085050 0.090717
0.249639 0.086642 0.090717
0.328298 0.088669 0.090717
0.423790 0.094676 0.090717
0.524389 0.102729 0.090717
0.615905 0.114045 0.090717
0.711559 0.138882 0.090717
0.772283 0.174019 0.090717
0.828949 0.215306 0.090734
0.866972 0.265119 0.090754
0.892219 0.321016 0.090780
0.913525 0.368543 0.090811
0.924534 0.431634 0.090842
0.933627 0.492477 0.090894
0.941818 0.548626 0.090967
0.947378 0.603812 0.091047
0.952647 0.647320 0.091135
0.957646 0.697938 0.091222
0.962397 0.734519 0.091386
0.965598 0.770203 0.091564
0.968322 0.799780 0.091745
0.970916 0.825411 0.092152
0.973389 0.840822 0.092541
0.975749 0.855241 0.092913
0.978002 0.866292 0.093269
0.980064 0.881875 0.093631
0.980939 0.897006 0.094383
0.086071 0.084324 0.090717
0.086071 0.084324 0.090717
0.086071 0.084324 0.090717
0.086659 0.084324 0.090717
0.092717 0.084324 0.090717
0.115461 0.084476 0.090717
0.171172 0.085059 0.090717
0.242861 0.086671 0.090717
0.320936 0.088699 0.090717
0.414954 0.094800 0.090717
0.514713 0.102851 0.090717
0.610749 0.114290 0.090717
0.706818 0.139336 0.090717
0.770018 0.174588 0.090717
0.827155 0.215801 0.090733
0.865683 0.265713 0.090754
0.891242 0.321605 0.090779
0.913050 0.369324 0.090810
0.924205 0.432457 0.090841
0.933334 0.493169 0.090892
0.941637 0.549265 0.090965
0.947217 0.604460 0.091045
0.952501 0.647811 0.091133
0.957515 0.698527 0.091219
0.962278 0.734913 0.091383
0.965530 0.770590 0.091557
0.968260 0.800093 0.091737
0.970860 0.825592 0.092145
0.973337 0.840977 0.092535
0.975701 0.855391 0.092907
0.977959 0.866458 0.093263
0.980047 0.882035 0.093624
0.980923 0.897161 0.094369
0.086071 0.084324 0.090717
0.086071 0.084324 0.090717
0.086071 0.084324 0.090717
0.086086 0.084324 0.090717
0.089323 0.084324 0.090717
0.105244 0.084510 0.090717
0.143967 0.085088 0.090717
0.222156 0.086787 0.090717
0.297677 0.088810 0.090717
0.385198 0.095252 0.090717
0.500615 0.103325 0.090717
0.593294 0.115173 0.090717
0.690597 0.140977 0.090717
0.762161 0.176641 0.090717
0.820893 0.217585 0.090730
0.860080 0.267853 0.090751
0.887804 0.323721 0.090775
0.911351 0.372136 0.090806
0.923040 0.435418 0.090837
0.932294 0.495654 0.090884
0.940997 0.551561 0.090958
0.946643 0.606467 0.091037
0.951985 0.649578 0.091126
0.957048 0.700477 0.091210
0.961855 0.736329 0.091369
0.965286 0.771896 0.091543
0.968038 0.801220 0.091734
0.970657 0.826242 0.092118
0.973152 0.841535 0.092510
0.975531 0.855651 0.092885
0.977802 0.867053 0.093242
0.979971 0.882611 0.093598
0.980867 0.897720 0.094320
0.086071 0.084324 0.090717
0.086071 0.084324 0.090717
0.086071 0.084324 0.090717
0.086082 0.084324 0.090717
0.087312 0.084324 0.090717
0.095753 0.084580 0.090717
0.120814 0.085220 0.090717
0.186189 0.087048 0.090717
0.262956 0.089124 0.090717
0.350483 0.096129 0.090717
0.460617 0.104517 0.090717
0.564841 0.117417 0.090717
0.663747 0.144514 0.090717
0.748769 0.180491 0.090717
0.810081 0.220891 0.090725
0.850320 0.271814 0.090747
0.881756 0.327628 0.090769
0.906827 0.377334 0.090801
0.920965 0.440886 0.090830
0.930435 0.500234 0.090871
0.939332 0.555795 0.090946
0.945612 0.609744 0.091022
0.951056 0.652830 0.091113
0.956207 0.703132 0.091198
0.961092 0.738934 0.091344
0.964846 0.774022 0.091521
0.967637 0.803294 0.091728
0.970290 0.827436 0.092070
0.972815 0.842559 0.092466
0.975222 0.856056 0.092844
0.977517 0.868148 0.093205
0.979708 0.883672 0.093550
0.980763 0.898748 0.094230
0.086071 0.084839 0.090717
0.086071 0.084817 0.090717
0.086071 0.084745 0.090717
0.086144 0.084655 0.090717
0.087633 0.084632 0.090717
0.092171 0.084831 0.090717
0.110773 0.085795 0.090717
0.156470 0.087570 0.090717
0.232974 0.090132 0.090717
0.313800 0.097831 0.090717
0.412844 0.106424 0.090717
0.521664 0.121103 0.090717
0.619775 0.149742 0.090717
0.720676 0.186934 0.090717
0.791128 0.226687 0.090718
0.836932 0.277822 0.090741
0.873335 0.333524 0.090761
0.899183 0.385189 0.090792
0.917551 0.449131 0.090823
0.927780 0.507111 0.090858
0.936935 0.562160 0.090929
0.944127 0.614657 0.091002
0.949712 0.657705 0.091094
0.954988 0.707106 0.091181
0.959982 0.742834 0.091309
0.964204 0.777203 0.091489
0.967051 0.806395 0.091720
0.969753 0.829222 0.092000
0.972322 0.844090 0.092402
0.974768 0.856660 0.092785
0.977099 0.869785 0.093150
0.979322 0.885256 0.093500
0.980612 0.900283 0.094099
0.086071 0.088342 0.090717
0.086071 0.088250 0.090717
0.086072 0.087924 0.090717
0.086729 0.087352 0.090717
0.089385 0.086636 0.090717
0.093843 0.086411 0.090717
0.106052 0.086843 0.090717
0.137397 0.088459 0.090717
0.210237 0.092908 0.090717
0.280283 0.100369 0.090717
0.367210 0.109267 0.090717
0.476155 0.127166 0.090717
0.582588 0.157633 0.090717
0.683277 0.196145 0.090717
0.760224 0.236797 0.090717
0.820867 0.286354 0.090733
0.861565 0.341630 0.090755
0.889713 0.395998 0.090782
0.912819 0.460433 0.090814
0.924416 0.516479 0.090847
0.933883 0.570839 0.090908
0.942224 0.621331 0.090982
0.947983 0.664942 0.091070
0.953412 0.712489 0.091159
0.958542 0.748115 0.091263
0.963320 0.781504 0.091447
0.966285 0.810590 0.091682
0.969050 0.831481 0.091909
0.971676 0.846156 0.092318
0.974172 0.857474 0.092707
0.976549 0.871995 0.093079
0.978813 0.887395 0.093434
0.980411 0.902357 0.093932
0.086071 0.101711 0.090717
0.086071 0.101970 0.090717
0.086087 0.100484 0.090717
0.087547 0.096855 0.090717
0.091249 0.093136 0.090717
0.097995 0.090742 0.090717
0.110017 0.090130 0.090717
0.129524 0.091218 0.090717
0.185734 0.097030 0.090717
0.253405 0.103944 0.090717
0.334978 0.114271 0.090717
0.437885 0.136774 0.090717
0.545814 0.168788 0.090717
0.641043 0.208758 0.090717
0.735816 0.251888 0.090717
0.802660 0.299747 0.090726
0.844871 0.352236 0.090748
0.878927 0.410144 0.090771
0.904873 0.472390 0.090804
0.920482 0.528401 0.090834
0.930288 0.582044 0.090883
0.939500 0.629895 0.090959
0.945917 0.676049 0.091042
0.951520 0.719368 0.091134
0.956806 0.754859 0.091224
0.961802 0.786986 0.091397
0.965355 0.815934 0.091594
0.968193 0.834210 0.091798
0.970885 0.848781 0.092216
0.973441 0.859048 0.092613
0.975872 0.874803 0.092992
0.978186 0.890115 0.093353
0.980163 0.904993 0.093759
0.086071 0.129798 0.090717
0.086071 0.130637 0.090717
0.086123 0.128673 0.090717
0.088169 0.116759 0.090717
0.092760 0.109315 0.090717
0.102669 0.104982 0.090717
0.116014 0.102691 0.090717
0.138315 0.102353 0.090717
0.176675 0.103346 0.090717
0.238273 0.110406 0.090717
0.310231 0.125349 0.090717
0.397662 0.151162 0.090717
0.504195 0.184418 0.090717
0.600243 0.221193 0.090717
0.699307 0.269327 0.090717
0.768107 0.322714 0.090718
0.827438 0.367875 0.090740
0.867390 0.428136 0.090761
0.893979 0.487405 0.090793
0.915162 0.542294 0.090823
0.926288 0.596039 0.090859
0.935808 0.640509 0.090934
0.943579 0.688822 0.091010
0.949365 0.727838 0.091104
0.954817 0.763153 0.091193
0.959965 0.793713 0.091340
0.964279 0.821734 0.091522
0.967199 0.837544 0.091730
0.969964 0.851986 0.092098
0.972588 0.862596 0.092504
0.975080 0.878233 0.092890
0.977449 0.893435 0.093259
0.979705 0.908173 0.093633
0.086071 0.198754 0.090717
0.086071 0.199941 0.090717
0.086297 0.193161 0.090717
0.088891 0.174160 0.090717
0.094835 0.155413 0.090717
0.107038 0.139945 0.090717
0.121292 0.130136 0.090717
0.148746 0.125003 0.090717
0.189579 0.124415 0.090717
0.233172 0.127875 0.090717
0.292377 0.144460 0.090717
0.368592 0.171856 0.090717
0.469435 0.206826 0.090717
0.569047 0.243728 0.090717
0.664939 0.287861 0.090717
0.748778 0.339825 0.090717
0.810169 0.389889 0.090733
0.850927 0.450651 0.090754
0.882762 0.506021 0.090781
0.908559 0.559369 0.090813
0.922037 0.611317 0.090846
0.931844 0.653362 0.090907
0.941046 0.702832 0.090983
0.947012 0.738012 0.091073
0.952632 0.772824 0.091164
0.957935 0.801750 0.091277
0.962938 0.826362 0.091464
0.966088 0.841505 0.091716
0.968932 0.855596 0.091968
0.971627 0.866810 0.092382
0.974185 0.882307 0.092777
0.976615 0.897378 0.093153
0.978927 0.911405 0.093511
0.086071 0.291284 0.090717
0.086076 0.288896 0.090717
0.086530 0.276776 0.090717
0.089502 0.257040 0.090717
0.096595 0.229317 0.090717
0.110093 0.211090 0.090717
0.129967 0.193642 0.090717
0.162452 0.181344 0.090717
0.206665 0.175709 0.090717
0.243096 0.175586 0.090717
0.288692 0.180358 0.090717
0.350256 0.200730 0.090717
0.445039 0.230366 0.090717
0.541263 0.272903 0.090717
0.625931 0.321865 0.090717
0.720634 0.361834 0.090717
0.788706 0.417403 0.090727
0.834578 0.475277 0.090748
0.871689 0.528591 0.090771
0.897859 0.580071 0.090803
0.917129 0.626965 0.090833
0.927744 0.670646 0.090880
0.937217 0.715170 0.090958
0.944530 0.750017 0.091041
0.950310 0.782542 0.091134
0.955763 0.811176 0.091227
0.960916 0.831595 0.091403
0.964885 0.846117 0.091611
0.967809 0.857410 0.091828
0.970578 0.871715 0.092252
0.973204 0.887045 0.092655
0.975698 0.901962 0.093038
0.978069 0.915160 0.093404
0.086075 0.392251 0.090717
0.086087 0.387906 0.090717
0.086782 0.373391 0.090717
0.090121 0.352290 0.090717
0.098018 0.331065 0.090717
0.112945 0.300594 0.090717
0.135770 0.277869 0.090717
0.172689 0.262293 0.090717
0.217452 0.248057 0.090717
0.252824 0.241535 0.090717
0.300034 0.242208 0.090717
0.349405 0.249450 0.090717
0.420894 0.269652 0.090717
0.508398 0.308464 0.090717
0.599808 0.348813 0.090717
0.691705 0.395908 0.090717
0.761076 0.451695 0.090721
0.819415 0.503152 0.090742
0.858845 0.553748 0.090762
0.887494 0.604905 0.090793
0.911634 0.645472 0.090824
0.923636 0.692957 0.090859
0.933310 0.729582 0.090933
0.941989 0.763999 0.091009
0.947911 0.793800 0.091103
0.953503 0.821489 0.091193
0.958789 0.837119 0.091340
0.963618 0.851405 0.091525
0.966619 0.861794 0.091731
0.969461 0.877334 0.092115
0.972156 0.892471 0.092526
0.974714 0.907209 0.092917
0.977145 0.919452 0.093290
0.086088 0.502234 0.090717
0.086137 0.498672 0.090717
0.087226 0.486564 0.090717
0.090816 0.466789 0.090717
0.099280 0.438118 0.090717
0.115211 0.406668 0.090717
0.140461 0.377552 0.090717
0.181241 0.354418 0.090717
0.225611 0.340246 0.090717
0.263731 0.331186 0.090717
0.310752 0.327321 0.090717
0.359827 0.328428 0.090717
0.423195 0.334110 0.090717
0.493288 0.347861 0.090717
0.579331 0.388498 0.090717
0.667627 0.438197 0.090717
0.746015 0.487599 0.090717
0.805807 0.535869 0.090738
0.844822 0.583798 0.090757
0.877755 0.627436 0.090785
0.903090 0.668621 0.090815
0.919614 0.712516 0.090848
0.929456 0.746239 0.090909
0.938755 0.778649 0.090984
0.945496 0.806699 0.091074
0.951208 0.828855 0.091164
0.956613 0.843385 0.091278
0.961731 0.856253 0.091465
0.965386 0.868398 0.091716
0.968298 0.883693 0.091976
0.971059 0.898606 0.092394
0.973680 0.912341 0.092792
0.976170 0.924296 0.093172
0.086165 0.601926 0.090717
0.086392 0.598808 0.090717
0.087655 0.588095 0.090717
0.091481 0.570202 0.090717
0.100796 0.547175 0.090717
0.117051 0.521330 0.090717
0.144584 0.493877 0.090717
0.188173 0.469232 0.090717
0.232379 0.446436 0.090717
0.273399 0.428335 0.090717
0.320612 0.417307 0.090717
0.369980 0.413285 0.090717
0.435830 0.415951 0.090717
0.501680 0.424868 0.090717
0.562975 0.440465 0.090717
0.644758 0.484282 0.090717
0.727046 0.528400 0.090717
0.788887 0.572305 0.090734
0.832307 0.615985 0.090754
0.868845 0.653485 0.090778
0.894105 0.699616 0.090808
0.914752 0.732358 0.090838
0.925745 0.765311 0.090888
0.935158 0.793885 0.090963
0.943117 0.821055 0.091045
0.948928 0.836394 0.091137
0.954434 0.850419 0.091230
0.959654 0.860434 0.091407
0.964134 0.875804 0.091618
0.967110 0.890818 0.091837
0.969933 0.905475 0.092261
0.972613 0.917947 0.092666
0.975160 0.926807 0.093052
0.086449 0.685559 0.090717
0.086688 0.682923 0.090717
0.088172 0.673416 0.090717
0.092125 0.657857 0.090717
0.102346 0.640705 0.090717
0.118592 0.621030 0.090717
0.147879 0.599204 0.090717
0.193772 0.574016 0.090717
0.237889 0.552055 0.090717
0.281679 0.534460 0.090717
0.329479 0.521485 0.090717
0.379562 0.513547 0.090717
0.448422 0.511422 0.090717
0.506147 0.514881 0.090717
0.570057 0.523574 0.090717
0.625755 0.536135 0.090717
0.708220 0.572270 0.090717
0.766446 0.612633 0.090732
0.821394 0.647204 0.090751
0.858463 0.688969 0.090772
0.885930 0.723376 0.090802
0.910039 0.754912 0.090830
0.922250 0.784317 0.090869
0.931728 0.811061 0.090944
0.940747 0.830730 0.091020
0.946707 0.844624 0.091112
0.952292 0.856601 0.091199
0.957596 0.869021 0.091351
0.962634 0.884037 0.091534
0.965917 0.898732 0.091733
0.968796 0.912306 0.092132
0.971531 0.924156 0.092541
0.974131 0.928888 0.092933
0.086781 0.754871 0.090717
0.087201 0.753245 0.090717
0.088889 0.747574 0.090717
0.092815 0.737782 0.090717
0.103832 0.724533 0.090717
0.119953 0.708926 0.090717
0.153775 0.688584 0.090717
0.200205 0.663398 0.090717
0.242354 0.644830 0.090717
0.288605 0.629177 0.090717
0.337150 0.616890 0.090717
0.390651 0.608403 0.090717
0.458575 0.603442 0.090717
0.513508 0.602788 0.090717
0.577652 0.606757 0.090717
0.635579 0.613704 0.090717
0.698155 0.623949 0.090717
0.757010 0.649605 0.090731
0.812057 0.688002 0.090749
0.848395 0.720394 0.090768
0.878638 0.749939 0.090797
0.902674 0.778795 0.090825
0.918829 0.804413 0.090858
0.928516 0.826330 0.090927
0.937580 0.840326 0.090998
0.944579 0.853714 0.091089
0.950223 0.863620 0.091176
0.955591 0.878503 0.091300
0.960699 0.893121 0.091483
0.964738 0.907455 0.091720
0.967665 0.919400 0.092007
0.970449 0.927251 0.092421
0.973096 0.931165 0.092816
0.087355 0.810971 0.090717
0.087722 0.809766 0.090717
0.089581 0.805544 0.090717
0.093945 0.798181 0.090717
0.105289 0.788067 0.090717
0.121197 0.775911 0.090717
0.156487 0.760799 0.090717
0.205454 0.744541 0.090717
0.245889 0.729055 0.090717
0.294132 0.715189 0.090717
0.343522 0.703602 0.090717
0.400672 0.692260 0.090717
0.465518 0.683762 0.090717
0.526024 0.679870 0.090717
0.584877 0.680543 0.090717
0.645383 0.685613 0.090717
0.704352 0.694828 0.090720
0.753267 0.705404 0.090733
0.803807 0.724341 0.090748
0.839743 0.751361 0.090766
0.872240 0.778132 0.090794
0.895976 0.802166 0.090821
0.915077 0.824212 0.090853
0.925560 0.837884 0.090914
0.934629 0.850835 0.090984
0.942574 0.859921 0.091069
0.948255 0.874501 0.091156
0.953668 0.888894 0.091255
0.958828 0.903069 0.091437
0.963588 0.915607 0.091664
0.966556 0.925915 0.091890
0.969381 0.929837 0.092307
0.972071 0.933637 0.092705
0.087885 0.843927 0.090717
0.088425 0.843372 0.090717
0.090393 0.841419 0.090717
0.095247 0.837981 0.090717
0.106731 0.833189 0.090717
0.122361 0.826960 0.090717
0.158978 0.818845 0.090717
0.209635 0.805868 0.090717
0.248622 0.793146 0.090717
0.298174 0.781350 0.090717
0.348602 0.770947 0.090717
0.408360 0.760852 0.090717
0.471413 0.753429 0.090717
0.535930 0.748880 0.090717
0.591460 0.747282 0.090717
0.654668 0.748607 0.090717
0.710386 0.752742 0.090726
0.756131 0.759517 0.090739
0.801017 0.768724 0.090751
0.832390 0.782962 0.090765
0.866697 0.805000 0.090792
0.890085 0.824852 0.090819
0.911720 0.837658 0.090848
0.922877 0.849947 0.090903
0.931919 0.858279 0.090972
0.940588 0.872352 0.091052
0.946408 0.886340 0.091139
0.951848 0.900198 0.091227
0.957042 0.912975 0.091395
0.962002 0.924371 0.091585
0.965483 0.928840 0.091783
0.968342 0.932627 0.092201
0.971067 0.935948 0.092602
0.088729 0.867134 0.090717
0.089244 0.866580 0.090717
0.091269 0.864626 0.090717
0.096537 0.861170 0.090717
0.107957 0.857536 0.090717
0.126388 0.855302 0.090717
0.161171 0.849354 0.090717
0.211431 0.843019 0.090717
0.250682 0.836637 0.090717
0.301193 0.830529 0.090717
0.352464 0.824341 0.090717
0.414400 0.817907 0.090717
0.476175 0.810815 0.090717
0.544265 0.805835 0.090717
0.597156 0.803094 0.090717
0.660657 0.802633 0.090722
0.715958 0.804421 0.090733
0.758848 0.808368 0.090744
0.803908 0.814342 0.090756
0.831463 0.821555 0.090770
0.859993 0.828544 0.090792
0.884958 0.839940 0.090817
0.907460 0.851352 0.090846
0.920472 0.859032 0.090896
0.929462 0.872380 0.090964
0.938100 0.885763 0.091039
0.944696 0.899121 0.091124
0.950146 0.911722 0.091206
0.955360 0.922847 0.091359
0.960346 0.928238 0.091534
0.964456 0.931974 0.091732
0.967341 0.935401 0.092105
0.970095 0.938220 0.092506
0.089554 0.895638 0.090717
0.090073 0.895154 0.090717
0.092111 0.893441 0.090717
0.097810 0.890401 0.090717
0.109206 0.886104 0.090717
0.128151 0.880738 0.090717
0.163141 0.874573 0.090717
0.212865 0.867924 0.090717
0.252182 0.861123 0.090717
0.303323 0.856885 0.090717
0.355218 0.853561 0.090717
0.418851 0.848801 0.090717
0.479797 0.844840 0.090717
0.548655 0.841816 0.090717
0.601812 0.839824 0.090718
0.665499 0.838916 0.090729
0.720819 0.839105 0.090739
0.761282 0.840373 0.090750
0.806205 0.842670 0.090761
0.833124 0.845929 0.090778
0.859965 0.850069 0.090798
0.880527 0.855244 0.090817
0.902699 0.862441 0.090844
0.917958 0.874862 0.090891
0.927255 0.887440 0.090957
0.935843 0.900111 0.091029
0.943127 0.912067 0.091113
0.948571 0.922781 0.091194
0.953790 0.928098 0.091329
0.958790 0.931741 0.091502
0.963473 0.935158 0.091723
0.966387 0.937934 0.092020
0.969163 0.940640 0.092421
0.090495 0.920550 0.090717
0.091061 0.920191 0.090717
0.093063 0.918922 0.090717
0.099063 0.916659 0.090717
0.110702 0.913442 0.090717
0.129880 0.909392 0.090717
0.164947 0.904097 0.090717
0.214014 0.898036 0.090717
0.253223 0.891751 0.090717
0.304695 0.885520 0.090717
0.356990 0.879604 0.090717
0.421825 0.874237 0.090717
0.482321 0.869615 0.090717
0.551837 0.865896 0.090717
0.605348 0.863196 0.090725
0.669317 0.861591 0.090735
0.724784 0.861120 0.090746
0.763325 0.861788 0.090756
0.807883 0.863570 0.090768
0.834593 0.866415 0.090787
0.861189 0.870256 0.090805
0.880993 0.875016 0.090823
0.898995 0.880609 0.090845
0.915552 0.891574 0.090889
0.925290 0.903386 0.090954
0.933813 0.914201 0.091022
0.941702 0.924363 0.091105
0.947128 0.928484 0.091185
0.952340 0.931988 0.091305
0.957341 0.935263 0.091477
0.962140 0.937965 0.091716
0.965487 0.940613 0.091947
0.968278 0.943202 0.092346
0.091480 0.931222 0.090717
0.091992 0.931114 0.090717
0.094589 0.930730 0.090717
0.100813 0.930043 0.090717
0.112216 0.929061 0.090717
0.131585 0.927813 0.090717
0.166629 0.926349 0.090717
0.214939 0.923755 0.090717
0.254008 0.918885 0.090717
0.305427 0.913985 0.090717
0.357907 0.909252 0.090717
0.423461 0.904303 0.090717
0.483823 0.899718 0.090717
0.553871 0.895884 0.090723
0.607748 0.892921 0.090732
0.672040 0.890917 0.090742
0.727732 0.889925 0.090752
0.764894 0.889971 0.090761
0.809210 0.891051 0.090777
0.835783 0.893138 0.090795
0.862199 0.896187 0.090812
0.881541 0.900139 0.090830
0.899383 0.904926 0.090853
0.913953 0.910088 0.090893
0.923549 0.918252 0.090953
0.931999 0.926121 0.091019
0.940157 0.929448 0.091100
0.945816 0.932767 0.091178
0.951010 0.935757 0.091287
0.956003 0.938353 0.091457
0.960802 0.940912 0.091680
0.964644 0.943429 0.091887
0.967444 0.945899 0.092283
0.092404 0.937577 0.090717
0.092990 0.937503 0.090717
0.096150 0.937240 0.090717
0.102734 0.936768 0.090717
0.113717 0.936089 0.090717
0.133272 0.935223 0.090717
0.168218 0.934106 0.090717
0.215689 0.932672 0.090717
0.254460 0.931147 0.090717
0.305625 0.929590 0.090717
0.358088 0.928060 0.090717
0.423911 0.926614 0.090717
0.484657 0.925303 0.090721
0.554824 0.922159 0.090730
0.609039 0.919546 0.090739
0.673651 0.917635 0.090748
0.729600 0.916480 0.090757
0.765939 0.916115 0.090769
0.810127 0.916552 0.090786
0.836626 0.917783 0.090803
0.862922 0.919786 0.090820
0.881929 0.922524 0.090839
0.899646 0.925497 0.090862
0.914023 0.926915 0.090910
0.922571 0.928532 0.090959
0.930383 0.931018 0.091019
0.938477 0.934114 0.091098
0.944629 0.936672 0.091174
0.949798 0.939131 0.091275
0.954776 0.941573 0.091442
0.959566 0.943989 0.091648
0.963860 0.946368 0.091839
0.966665 0.947973 0.092232
0.093712 0.942889 0.090717
0.094608 0.942825 0.090717
0.097652 0.942598 0.090717
0.104620 0.942189 0.090717
0.115203 0.941601 0.090717
0.134942 0.940846 0.090717
0.169734 0.939949 0.090717
0.216300 0.938943 0.090717
0.254609 0.937863 0.090717
0.305380 0.936751 0.090717
0.357642 0.935645 0.090717
0.423325 0.934586 0.090719
0.484128 0.933364 0.090728
0.554781 0.932280 0.090736
0.609277 0.931375 0.090745
0.674172 0.930676 0.090754
0.730371 0.930206 0.090763
0.766431 0.929979 0.090778
0.810592 0.930003 0.090794
0.837069 0.930279 0.090811
0.863299 0.930804 0.090827
0.882116 0.931569 0.090847
0.899741 0.932562 0.090877
0.914018 0.933768 0.090926
0.922521 0.935044 0.090974
0.929622 0.936300 0.091029
0.936974 0.938021 0.091098
0.943559 0.940318 0.091173
0.948700 0.942616 0.091269
0.953656 0.944907 0.091433
0.958431 0.946921 0.091627
0.963008 0.948462 0.091804
0.965940 0.949918 0.092192
0.095433 0.947390 0.090717
0.096262 0.947352 0.090717
0.099105 0.947218 0.090717
0.106464 0.946976 0.090717
0.116669 0.946626 0.090717
0.136595 0.946094 0.090717
0.171191 0.945309 0.090717
0.216802 0.944424 0.090717
0.254514 0.943468 0.090717
0.304769 0.942475 0.090717
0.356667 0.941478 0.090719
0.421843 0.940513 0.090726
0.483124 0.939611 0.090734
0.553835 0.938800 0.090742
0.608537 0.938107 0.090751
0.673652 0.937552 0.090759
0.730063 0.937152 0.090771
0.766363 0.936921 0.090787
0.810586 0.936867 0.090802
0.837079 0.936993 0.090818
0.863287 0.937298 0.090835
0.882068 0.937781 0.090856
0.899633 0.938433 0.090895
0.913918 0.939246 0.090942
0.922407 0.940210 0.090989
0.929472 0.941312 0.091047
0.936377 0.942539 0.091110
0.942597 0.944051 0.091175
0.947706 0.946195 0.091269
0.952637 0.947713 0.091430
0.957393 0.949173 0.091614
0.961979 0.950572 0.091781
0.965270 0.953069 0.092164
0.097067 0.950499 0.090717
0.097837 0.950442 0.090717
0.101110 0.950331 0.090717
0.108035 0.950140 0.090717
0.118110 0.949864 0.090717
0.138228 0.949507 0.090717
0.172598 0.949062 0.090717
0.217213 0.948531 0.090717
0.254221 0.947954 0.090717
0.303856 0.947351 0.090719
0.355248 0.946741 0.090725
0.419596 0.946047 0.090733
0.481472 0.945222 0.090740
0.552082 0.944471 0.090748
0.606903 0.943817 0.090756
0.672157 0.943280 0.090765
0.728720 0.942876 0.090780
0.765745 0.942617 0.090795
0.810103 0.942514 0.090810
0.836638 0.942572 0.090825
0.862856 0.942792 0.090844
0.881759 0.943174 0.090866
0.899292 0.943714 0.090912
0.913707 0.944405 0.090957
0.922218 0.945239 0.091003
0.929255 0.946207 0.091065
0.936131 0.947001 0.091126
0.942268 0.947825 0.091187
0.946809 0.948746 0.091273
0.951712 0.950041 0.091431
0.956445 0.952068 0.091611
0.961015 0.954439 0.091770
0.964652 0.956793 0.092147
0.098617 0.955707 0.090717
0.099438 0.955658 0.090717
0.103232 0.955484 0.090717
0.109628 0.955169 0.090717
0.119522 0.954714 0.090717
0.139836 0.954124 0.090717
0.173959 0.953415 0.090717
0.217551 0.952607 0.090717
0.253766 0.951726 0.090719
0.302694 0.950800 0.090725
0.353457 0.950129 0.090732
0.416700 0.949642 0.090739
0.479258 0.949169 0.090746
0.549614 0.948700 0.090754
0.604460 0.948285 0.090762
0.669765 0.947938 0.090774
0.726405 0.947669 0.090788
0.764597 0.947486 0.090803
0.809148 0.947396 0.090817
0.835740 0.947404 0.090832
0.861992 0.947512 0.090852
0.881172 0.947720 0.090884
0.898698 0.948028 0.090928
0.913370 0.948432 0.090973
0.921941 0.948928 0.091022
0.928961 0.949490 0.091082
0.935818 0.950097 0.091142
0.942038 0.951083 0.091202
0.946532 0.952491 0.091303
0.950919 0.954009 0.091438
0.955583 0.956170 0.091616
0.960133 0.958344 0.091770
0.964084 0.959890 0.092141
0.100490 0.959879 0.090717
0.101557 0.959850 0.090717
0.105275 0.959745 0.090717
0.111444 0.959556 0.090717
0.120900 0.959282 0.090717
0.141596 0.958926 0.090717
0.175274 0.958496 0.090717
0.217825 0.957911 0.090721
0.253218 0.957140 0.090726
0.301327 0.956325 0.090732
0.351357 0.955492 0.090738
0.413258 0.954667 0.090745
0.476559 0.953874 0.090752
0.546518 0.953138 0.090759
0.601296 0.952481 0.090768
0.666556 0.951922 0.090782
0.723187 0.951480 0.090796
0.762944 0.951169 0.090810
0.807737 0.950999 0.090824
0.834392 0.950980 0.090841
0.860690 0.951116 0.090861
0.880299 0.951410 0.090901
0.897836 0.951862 0.090944
0.912899 0.952469 0.090987
