ektachrome100d/Ektachrome100D_Classic_IlfochromeM.cube
TITLE "Kodak Ektachrome 100D Classic IlfochromeM"
# Adobe RGB in/out. REPLACES AgX. Kodak Ektachrome 100D Classic IlfochromeM.
LUT_3D_SIZE 33
DOMAIN_MIN 0.0 0.0 0.0
DOMAIN_MAX 1.0 1.0 1.0
0.117813 0.082450 0.079661
0.119177 0.083901 0.080365
0.124115 0.085174 0.081039
0.134591 0.089326 0.081511
0.148111 0.094269 0.081966
0.164282 0.100914 0.083178
0.185960 0.109396 0.084874
0.213177 0.118607 0.086761
0.245350 0.128780 0.088868
0.276953 0.139457 0.091314
0.309441 0.150753 0.093722
0.340154 0.163668 0.097014
0.369754 0.180357 0.100525
0.400488 0.197617 0.103867
0.431231 0.214992 0.107454
0.461971 0.232547 0.111017
0.492706 0.250401 0.114456
0.523437 0.268023 0.118067
0.554165 0.286201 0.121902
0.584890 0.304343 0.125837
0.615611 0.321816 0.129910
0.646330 0.340479 0.134056
0.677045 0.359052 0.138276
0.706757 0.376944 0.142533
0.730795 0.397513 0.146831
0.754259 0.418297 0.151325
0.772156 0.438453 0.156382
0.789750 0.457943 0.162159
0.807083 0.475873 0.168233
0.820284 0.492097 0.174848
0.831836 0.508295 0.181624
0.843164 0.524469 0.188594
0.854279 0.540485 0.195399
0.118227 0.084355 0.080044
0.119217 0.084757 0.080467
0.124154 0.086989 0.081078
0.134643 0.090869 0.081526
0.148152 0.095702 0.081996
0.164327 0.102436 0.083212
0.186003 0.110566 0.084908
0.213217 0.119837 0.086790
0.245389 0.129869 0.088900
0.276986 0.140424 0.091339
0.309472 0.151676 0.093748
0.340178 0.164727 0.097044
0.369776 0.181448 0.100551
0.400509 0.198619 0.103889
0.431250 0.215916 0.107477
0.461988 0.233411 0.111037
0.492722 0.251213 0.114475
0.523453 0.268762 0.118087
0.554180 0.286919 0.121920
0.584903 0.305012 0.125856
0.615624 0.322414 0.129926
0.646342 0.341115 0.134073
0.677056 0.359596 0.138291
0.706766 0.377542 0.142549
0.730803 0.398088 0.146845
0.754266 0.418850 0.151340
0.772162 0.438944 0.156399
0.789755 0.458415 0.162176
0.807088 0.476249 0.168250
0.820287 0.492456 0.174866
0.831839 0.508639 0.181642
0.843166 0.524800 0.188611
0.854281 0.540800 0.195414
0.118552 0.090179 0.080514
0.119348 0.090718 0.080722
0.124291 0.092578 0.081200
0.134826 0.095727 0.081578
0.148300 0.100617 0.082102
0.164488 0.107480 0.083333
0.186157 0.115206 0.085027
0.213362 0.124001 0.086893
0.245529 0.133614 0.089013
0.277105 0.143907 0.091429
0.309584 0.155233 0.093841
0.340264 0.168856 0.097154
0.369857 0.185323 0.100645
0.400584 0.202181 0.103971
0.431319 0.219204 0.107560
0.462052 0.236488 0.111111
0.492781 0.254096 0.114541
0.523507 0.271464 0.118157
0.554231 0.289464 0.121984
0.584951 0.307404 0.125921
0.615669 0.324553 0.129986
0.646384 0.343393 0.134132
0.677096 0.361542 0.138347
0.706797 0.379688 0.142603
0.730830 0.400149 0.146897
0.754293 0.420833 0.151394
0.772181 0.440704 0.156457
0.789773 0.460108 0.162239
0.807105 0.477594 0.168310
0.820298 0.493744 0.174930
0.831849 0.509875 0.181706
0.843176 0.525986 0.188673
0.854290 0.541929 0.195470
0.118810 0.099289 0.080921
0.119558 0.099774 0.081054
0.124536 0.101507 0.081360
0.135159 0.105080 0.081663
0.148569 0.109670 0.082282
0.164784 0.115771 0.083545
0.186441 0.122999 0.085240
0.213629 0.131246 0.087078
0.245788 0.140281 0.089219
0.277323 0.150185 0.091593
0.309790 0.161460 0.094009
0.340421 0.176296 0.097354
0.370005 0.192277 0.100816
0.400723 0.208585 0.104120
0.431446 0.225142 0.107712
0.462169 0.242082 0.111246
0.492889 0.259200 0.114661
0.523608 0.276410 0.118286
0.554324 0.294069 0.122101
0.585039 0.311580 0.126040
0.615752 0.328497 0.130097
0.646462 0.347551 0.134242
0.677170 0.365094 0.138449
0.706853 0.383611 0.142703
0.730881 0.403920 0.146991
0.754341 0.424463 0.151494
0.772216 0.443926 0.156564
0.789806 0.463206 0.162355
0.807135 0.480056 0.168421
0.820318 0.496103 0.175048
0.831868 0.512137 0.181823
0.843194 0.528142 0.188786
0.854307 0.543998 0.195574
0.119115 0.112558 0.081273
0.120029 0.113028 0.081341
0.124923 0.114669 0.081528
0.135648 0.117511 0.081774
0.148969 0.121754 0.082525
0.165225 0.127144 0.083841
0.186864 0.133699 0.085545
0.214026 0.141215 0.087347
0.246173 0.149761 0.089520
0.277650 0.159672 0.091834
0.310097 0.172411 0.094258
0.340656 0.187055 0.097650
0.370226 0.202241 0.101071
0.400930 0.217811 0.104341
0.431636 0.233800 0.107937
0.462343 0.250252 0.111446
0.493051 0.266658 0.114841
0.523758 0.283663 0.118478
0.554465 0.300834 0.122276
0.585170 0.317642 0.126219
0.615875 0.334930 0.130261
0.646578 0.353345 0.134406
0.677280 0.370341 0.138602
0.706938 0.389423 0.142853
0.730958 0.409511 0.147131
0.754406 0.429749 0.151642
0.772268 0.448706 0.156725
0.789855 0.467807 0.162529
0.807182 0.483710 0.168587
0.820348 0.499604 0.175225
0.831896 0.515497 0.181998
0.843221 0.531341 0.188955
0.854332 0.547075 0.195728
0.119317 0.128163 0.081521
0.120685 0.128564 0.081565
0.125720 0.129979 0.081701
0.136290 0.132493 0.082103
0.149502 0.136175 0.082971
0.165816 0.140944 0.084275
0.187434 0.146910 0.085932
0.214562 0.154031 0.087694
0.246694 0.162565 0.089912
0.278090 0.174142 0.092151
0.310512 0.187082 0.094588
0.340973 0.200750 0.098044
0.370534 0.214982 0.101410
0.401210 0.229753 0.104644
0.431892 0.245094 0.108239
0.462579 0.260706 0.111715
0.493269 0.276647 0.115082
0.523961 0.293129 0.118736
0.554654 0.309683 0.122512
0.585348 0.325645 0.126459
0.616042 0.343464 0.130483
0.646736 0.360657 0.134627
0.677429 0.377657 0.138807
0.707053 0.397174 0.143054
0.731061 0.416975 0.147320
0.754481 0.436388 0.151842
0.772338 0.455093 0.156941
0.789921 0.472910 0.162763
0.807244 0.488590 0.168812
0.820389 0.504285 0.175463
0.831935 0.519993 0.182235
0.843257 0.535623 0.189184
0.854366 0.551196 0.195936
0.120007 0.145370 0.081735
0.121530 0.145720 0.081769
0.126660 0.146965 0.082017
0.137079 0.149204 0.082537
0.150167 0.152560 0.083543
0.166561 0.157271 0.084880
0.188153 0.163169 0.086428
0.215240 0.171593 0.088111
0.247354 0.181511 0.090392
0.278648 0.192490 0.092542
0.311039 0.204340 0.095100
0.341376 0.216937 0.098536
0.370925 0.230240 0.101835
0.401565 0.244237 0.105073
0.432217 0.258687 0.108619
0.462879 0.273456 0.112054
0.493546 0.288984 0.115386
0.524219 0.304702 0.119062
0.554895 0.320092 0.122809
0.585574 0.336437 0.126762
0.616254 0.353681 0.130763
0.646936 0.369740 0.134906
0.677619 0.387722 0.139068
0.707198 0.406869 0.143310
0.731192 0.426324 0.147560
0.754576 0.444701 0.152096
0.772427 0.463100 0.157216
0.790005 0.479288 0.163060
0.807324 0.494706 0.169096
0.820441 0.510159 0.175766
0.831983 0.525640 0.182535
0.843302 0.541005 0.189474
0.854410 0.556380 0.196201
0.121022 0.165519 0.082212
0.122418 0.165937 0.082292
0.127709 0.167431 0.082556
0.138004 0.170146 0.083248
0.150962 0.174163 0.084178
0.167459 0.179548 0.085540
0.189026 0.186191 0.087033
0.216065 0.194035 0.088799
0.248157 0.202955 0.090949
0.279329 0.212861 0.093019
0.311681 0.223652 0.095783
0.341867 0.235328 0.099122
0.371403 0.247812 0.102343
0.401999 0.260775 0.105589
0.432615 0.274297 0.109076
0.463244 0.288624 0.112462
0.493885 0.303249 0.115754
0.524534 0.317768 0.119457
0.555189 0.332859 0.123170
0.585849 0.349575 0.127131
0.616514 0.364966 0.131104
0.647181 0.381388 0.135246
0.677850 0.399756 0.139384
0.707376 0.418479 0.143620
0.731351 0.436841 0.147852
0.754693 0.454669 0.152405
0.772537 0.471881 0.157551
0.790108 0.486934 0.163422
0.807421 0.502048 0.169468
0.820504 0.517217 0.176135
0.832043 0.532375 0.182901
0.843358 0.547485 0.189828
0.854463 0.562627 0.196523
0.122176 0.192539 0.082926
0.123559 0.192912 0.083035
0.129066 0.194247 0.083404
0.139177 0.196680 0.084000
0.151881 0.200255 0.085049
0.168511 0.204994 0.086247
0.190053 0.210874 0.087688
0.217039 0.217838 0.089562
0.249108 0.225854 0.091575
0.280135 0.234885 0.093674
0.312442 0.244870 0.096567
0.342448 0.255660 0.099799
0.371968 0.266946 0.102933
0.402514 0.279205 0.106190
0.433086 0.292129 0.109610
0.463678 0.305507 0.112940
0.494286 0.318808 0.116184
0.524907 0.332885 0.119921
0.555538 0.348543 0.123594
0.586177 0.363159 0.127564
0.616821 0.378350 0.131505
0.647471 0.395817 0.135646
0.678124 0.413692 0.139758
0.707587 0.431690 0.143987
0.731541 0.448841 0.148197
0.754831 0.466251 0.152771
0.772666 0.481121 0.157947
0.790230 0.495811 0.163851
0.807536 0.510586 0.169922
0.820579 0.525436 0.176572
0.832113 0.540219 0.183335
0.843425 0.555049 0.190247
0.854525 0.569927 0.196906
0.123467 0.220145 0.083855
0.124673 0.220472 0.083941
0.130618 0.221643 0.084311
0.140541 0.223782 0.085010
0.152919 0.226964 0.085917
0.169713 0.231199 0.087089
0.191235 0.236484 0.088495
0.218163 0.242827 0.090383
0.250207 0.250179 0.092259
0.281067 0.258339 0.094399
0.313324 0.267264 0.097444
0.343123 0.277233 0.100560
0.372624 0.288048 0.103600
0.403110 0.299427 0.106872
0.433632 0.311294 0.110219
0.464181 0.323228 0.113487
0.494753 0.336570 0.116756
0.525341 0.350974 0.120453
0.555943 0.364413 0.124101
0.586556 0.378721 0.128064
0.617178 0.395176 0.131976
0.647808 0.412094 0.136108
0.678443 0.429380 0.140190
0.707832 0.445751 0.144411
0.731762 0.462427 0.148595
0.754991 0.477396 0.153194
0.772817 0.491575 0.158405
0.790372 0.505873 0.164347
0.807670 0.520279 0.170448
0.820666 0.534701 0.177078
0.832195 0.549148 0.183838
0.843502 0.563669 0.190734
0.854598 0.578255 0.197349
0.124743 0.248311 0.084975
0.126462 0.248607 0.085074
0.132219 0.249668 0.085417
0.142016 0.251610 0.085997
0.154067 0.254463 0.086876
0.171061 0.258197 0.087939
0.192569 0.262871 0.089524
0.219437 0.268475 0.091250
0.251456 0.275159 0.093008
0.282128 0.282778 0.095367
0.314328 0.291214 0.098406
0.343891 0.300386 0.101401
0.373372 0.310213 0.104339
0.403791 0.320268 0.107633
0.434255 0.331271 0.110900
0.464756 0.343864 0.114100
0.495285 0.356385 0.117413
0.525836 0.368734 0.121053
0.556406 0.382540 0.124712
0.586990 0.397889 0.128629
0.617586 0.413757 0.132538
0.648193 0.429994 0.136632
0.678807 0.445491 0.140696
0.708112 0.461341 0.144893
0.732013 0.475854 0.149048
0.755174 0.489436 0.153675
0.772989 0.503176 0.158965
0.790534 0.517060 0.164913
0.807822 0.531029 0.171047
0.820765 0.545025 0.177655
0.832288 0.559121 0.184411
0.843590 0.573310 0.191288
0.854682 0.587581 0.197854
0.126789 0.276561 0.086082
0.128353 0.276829 0.086164
0.134169 0.277790 0.086498
0.143585 0.279550 0.087075
0.155564 0.282164 0.087855
0.172552 0.285663 0.089084
0.194055 0.290027 0.090574
0.220862 0.295240 0.092149
0.252857 0.301319 0.093979
0.283319 0.308242 0.096552
0.315456 0.315568 0.099443
0.344754 0.323610 0.102313
0.374213 0.332852 0.105235
0.404556 0.343378 0.108468
0.434957 0.354176 0.111650
0.465402 0.364845 0.114777
0.495884 0.376195 0.118140
0.526393 0.389768 0.121719
0.556926 0.403945 0.125393
0.587478 0.418690 0.129258
0.618046 0.433555 0.133165
0.648626 0.448098 0.137216
0.679217 0.463043 0.141270
0.708428 0.476550 0.145431
0.732297 0.489457 0.149616
0.755380 0.502564 0.154288
0.773183 0.515853 0.159627
0.790716 0.529280 0.165547
0.807995 0.542754 0.171719
0.820877 0.556362 0.178304
0.832394 0.570091 0.185056
0.843690 0.583929 0.191911
0.854776 0.597867 0.198422
0.128963 0.305442 0.087275
0.130634 0.305683 0.087356
0.136222 0.306548 0.087638
0.145230 0.308133 0.088137
0.157175 0.310379 0.089111
0.174177 0.313367 0.090296
0.195690 0.317125 0.091635
0.222436 0.321653 0.093108
0.254409 0.326944 0.095090
0.284640 0.333571 0.097803
0.316710 0.341159 0.100546
0.345713 0.349551 0.103291
0.375149 0.357844 0.106243
0.405408 0.366703 0.109372
0.435738 0.376335 0.112465
0.466122 0.387979 0.115515
0.496551 0.400300 0.118937
0.527014 0.413264 0.122449
0.557506 0.426841 0.126140
0.588022 0.440028 0.129950
0.618557 0.453559 0.133856
0.649109 0.467535 0.137862
0.679674 0.479494 0.141903
0.708779 0.491661 0.146026
0.732613 0.504068 0.150246
0.755610 0.516697 0.154969
0.773399 0.529498 0.160362
0.790920 0.542390 0.166251
0.808186 0.555447 0.172466
0.821002 0.568656 0.179024
0.832511 0.582003 0.185772
0.843801 0.595478 0.192577
0.854880 0.609068 0.199054
0.131374 0.333644 0.088529
0.132878 0.333878 0.088628
0.138276 0.334718 0.088976
0.147178 0.336258 0.089587
0.158929 0.338550 0.090439
0.176138 0.341628 0.091491
0.197469 0.345510 0.092696
0.224159 0.350204 0.094288
0.256083 0.355150 0.096559
0.286092 0.360799 0.099108
0.318089 0.367143 0.101707
0.346802 0.374162 0.104326
0.376179 0.382897 0.107317
0.406347 0.392536 0.110341
0.436599 0.402904 0.113342
0.466916 0.413973 0.116322
0.497287 0.425715 0.119799
0.527699 0.437359 0.123242
0.558147 0.449327 0.126954
0.588623 0.461807 0.130705
0.619123 0.473583 0.134610
0.649642 0.484656 0.138567
0.680179 0.496031 0.142596
0.709167 0.507687 0.146678
0.732962 0.519600 0.150937
0.755864 0.531702 0.155716
0.773637 0.543955 0.161170
0.791144 0.556407 0.167026
0.808398 0.569042 0.173289
0.821139 0.581846 0.179818
0.832641 0.594804 0.186561
0.843923 0.607905 0.193296
0.854996 0.621139 0.199750
0.133920 0.363231 0.090055
0.135492 0.363425 0.090140
0.140674 0.364122 0.090442
0.149229 0.365401 0.090975
0.161039 0.367305 0.091727
0.178256 0.369862 0.092665
0.199736 0.373087 0.093966
0.226427 0.377284 0.095781
0.257902 0.382589 0.098066
0.287675 0.388685 0.100458
0.319594 0.395562 0.102917
0.348013 0.403208 0.105542
0.377305 0.411607 0.108452
0.407374 0.420740 0.111368
0.437541 0.430429 0.114275
0.467785 0.440141 0.117330
0.498092 0.450447 0.120724
0.528449 0.461320 0.124115
0.558848 0.471898 0.127831
0.589281 0.481750 0.131520
0.619742 0.491963 0.135427
0.650226 0.502513 0.139331
0.680731 0.513378 0.143348
0.709592 0.524536 0.147386
0.733344 0.535876 0.151688
0.756142 0.547446 0.156530
0.773898 0.559247 0.162050
0.791390 0.571261 0.167870
0.808631 0.583473 0.174186
0.821290 0.595869 0.180690
0.832783 0.608435 0.187422
0.844057 0.621159 0.194082
0.855123 0.634029 0.200510
0.136620 0.393909 0.091498
0.138005 0.394118 0.091573
0.143067 0.394870 0.091837
0.151327 0.396250 0.092307
0.163249 0.398307 0.092985
0.180507 0.401075 0.094044
0.202222 0.404574 0.095510
0.229038 0.408817 0.097473
0.259867 0.413812 0.099599
0.289483 0.419558 0.101843
0.321226 0.426052 0.104167
0.349325 0.432918 0.106851
0.378528 0.440254 0.109641
0.408489 0.448233 0.112450
0.438564 0.456839 0.115262
0.468730 0.466049 0.118399
0.498968 0.474468 0.121709
0.529265 0.483012 0.125126
0.559611 0.491968 0.128769
0.589996 0.501311 0.132433
0.620415 0.511020 0.136303
0.650862 0.521072 0.140153
0.681333 0.531400 0.144158
0.710055 0.541975 0.148149
0.733760 0.552829 0.152499
0.756445 0.563943 0.157409
0.774183 0.575299 0.163003
0.791658 0.586882 0.168784
0.808883 0.598676 0.175158
0.821455 0.610666 0.181656
0.832938 0.622840 0.188356
0.844203 0.635184 0.194935
0.855261 0.647688 0.201335
0.139347 0.426960 0.092869
0.140799 0.427157 0.092937
0.145435 0.427864 0.093231
0.153460 0.429116 0.093756
0.165795 0.430903 0.094506
0.182881 0.433307 0.095757
0.204871 0.436348 0.097360
0.231838 0.440037 0.099172
0.261977 0.444380 0.101151
0.291438 0.449378 0.103256
0.322904 0.455028 0.105588
0.350740 0.461324 0.108207
0.379847 0.468186 0.110878
0.409692 0.474437 0.113580
0.439669 0.481171 0.116305
0.469750 0.488370 0.119526
0.499915 0.496016 0.122750
0.530147 0.504089 0.126197
0.560436 0.512569 0.129766
0.590770 0.521436 0.133432
0.621144 0.530630 0.137239
0.651550 0.540119 0.141065
0.681984 0.549931 0.145024
0.710555 0.560047 0.148967
0.734210 0.570450 0.153368
0.756772 0.581121 0.158353
0.774491 0.592045 0.164027
0.791948 0.603205 0.169827
0.809157 0.614588 0.176206
0.821633 0.626178 0.182698
0.833105 0.637962 0.189364
0.844361 0.649929 0.195855
0.855410 0.662066 0.202224
0.142259 0.457988 0.094502
0.143561 0.458158 0.094575
0.148150 0.458771 0.094876
0.155925 0.459896 0.095539
0.168534 0.461575 0.096495
0.185371 0.463834 0.097724
0.207680 0.466694 0.099195
0.234825 0.469770 0.100871
0.264230 0.473157 0.102715
0.293530 0.477052 0.104706
0.324697 0.481454 0.107109
0.352257 0.486354 0.109602
0.381262 0.491744 0.112157
0.410985 0.497613 0.114754
0.440857 0.503948 0.117582
0.470847 0.510733 0.120707
0.500933 0.517953 0.123844
0.531096 0.525592 0.127327
0.561323 0.533562 0.130820
0.591603 0.541904 0.134489
0.621928 0.550606 0.138230
0.652291 0.559650 0.142042
0.682685 0.569020 0.145945
0.711094 0.578699 0.149933
0.734695 0.588668 0.154383
0.757125 0.598913 0.159458
0.774822 0.609418 0.165123
0.792260 0.620168 0.170990
0.809452 0.631148 0.177328
0.821824 0.642346 0.183814
0.833286 0.653747 0.190444
0.844531 0.665341 0.196841
0.855571 0.677115 0.203178
0.145059 0.485458 0.096634
0.146356 0.485591 0.096728
0.150842 0.486065 0.097061
0.158537 0.486937 0.097662
0.171357 0.488238 0.098532
0.188252 0.489988 0.099657
0.210641 0.492202 0.101011
0.237995 0.494890 0.102565
0.266622 0.498056 0.104285
0.295757 0.501702 0.106384
0.326498 0.505826 0.108658
0.353876 0.510425 0.111030
0.382774 0.515490 0.113473
0.412367 0.521014 0.115967
0.442127 0.526980 0.118909
0.472021 0.533326 0.121938
0.502022 0.540090 0.125107
0.532112 0.547257 0.128512
0.562273 0.554813 0.131932
0.592495 0.562741 0.135603
0.622768 0.571026 0.139277
0.653084 0.579652 0.143075
0.683436 0.588604 0.146920
0.711672 0.597866 0.150969
0.735215 0.607423 0.155505
0.757503 0.617259 0.160673
0.775177 0.627361 0.166290
0.792595 0.637713 0.172229
0.809768 0.648303 0.178525
0.822029 0.659117 0.185005
0.833479 0.670144 0.191597
0.844714 0.681370 0.197893
0.855743 0.692786 0.204197
0.148135 0.511192 0.098792
0.149379 0.511316 0.098877
0.153496 0.511759 0.099181
0.161594 0.512575 0.099728
0.174255 0.513791 0.100524
0.191278 0.515429 0.101556
0.213609 0.517503 0.102807
0.241053 0.520022 0.104249
0.269153 0.522992 0.106056
0.298119 0.526414 0.108077
0.328323 0.530254 0.110230
0.355596 0.534540 0.112486
0.384382 0.539266 0.114821
0.413837 0.544427 0.117392
0.443480 0.550013 0.120282
0.473272 0.556014 0.123214
0.503184 0.562420 0.126429
0.533195 0.569218 0.129748
0.563287 0.576396 0.133175
0.593447 0.583939 0.136771
0.623665 0.591835 0.140379
0.653931 0.600068 0.144162
0.684238 0.608626 0.147947
0.712288 0.617494 0.152062
0.735769 0.626657 0.156692
0.757906 0.636103 0.161961
0.775556 0.645817 0.167527
0.792952 0.655786 0.173545
0.810105 0.665998 0.179796
0.822249 0.676441 0.186270
0.833685 0.687102 0.192783
0.844908 0.697970 0.199012
0.855928 0.709034 0.205285
0.151184 0.536766 0.100885
0.152320 0.536880 0.100962
0.156519 0.537293 0.101239
0.164808 0.538051 0.101740
0.177589 0.539182 0.102470
0.194413 0.540705 0.103422
0.216699 0.542635 0.104579
0.244124 0.544980 0.106133
0.271807 0.547746 0.107876
0.300613 0.550937 0.109780
0.330252 0.554554 0.111818
0.357416 0.558595 0.113964
0.386086 0.563057 0.116195
0.415397 0.567933 0.118906
0.444915 0.573219 0.121694
0.474599 0.578904 0.124602
0.504417 0.584981 0.127800
0.534345 0.591439 0.131033
0.564364 0.598266 0.134470
0.594459 0.605452 0.137990
0.624618 0.612983 0.141583
0.654831 0.620849 0.145300
0.685091 0.629035 0.149024
0.712944 0.637530 0.153211
0.736359 0.646320 0.157942
0.758335 0.655393 0.163318
0.775960 0.664737 0.168832
0.793332 0.674338 0.174936
0.810464 0.684186 0.181160
0.822482 0.694269 0.187609
0.833905 0.704576 0.194006
0.845116 0.714898 0.200196
0.856124 0.722823 0.206438
0.154157 0.562130 0.102916
0.155406 0.562238 0.102987
0.159780 0.562626 0.103241
0.168391 0.563340 0.103702
0.181001 0.564404 0.104374
0.197648 0.565838 0.105359
0.219914 0.567655 0.106604
0.247339 0.569865 0.108056
0.274573 0.572474 0.109693
0.303239 0.575485 0.111488
0.332283 0.578900 0.113419
0.359337 0.582719 0.115461
0.387885 0.586940 0.117840
0.417046 0.591558 0.120455
0.446434 0.596569 0.123143
0.476004 0.601965 0.126110
0.505723 0.607739 0.129215
0.535564 0.613882 0.132400
0.565506 0.620385 0.135814
0.595532 0.627238 0.139258
0.625629 0.634430 0.142838
0.655786 0.641950 0.146488
0.685995 0.649787 0.150285
0.713639 0.657929 0.154518
0.736984 0.666366 0.159336
0.758790 0.675085 0.164746
0.776387 0.684075 0.170310
0.793735 0.693325 0.176400
0.810844 0.702823 0.182618
0.822729 0.712559 0.189021
0.834138 0.720392 0.195297
0.845336 0.727898 0.201446
0.856332 0.735529 0.207655
0.157606 0.587430 0.104939
0.158780 0.587532 0.105015
0.163361 0.587898 0.105286
0.171992 0.588571 0.105778
0.184475 0.589576 0.106498
0.201656 0.590930 0.107444
0.223249 0.592646 0.108605
0.250693 0.594734 0.109965
0.277465 0.597199 0.111503
0.305992 0.600048 0.113199
0.334415 0.603280 0.115029
0.361356 0.606898 0.117104
0.389780 0.610899 0.119520
0.418782 0.615281 0.122033
0.448034 0.620040 0.124705
0.477487 0.625170 0.127658
0.507102 0.630664 0.130672
0.536851 0.636517 0.133873
0.566711 0.642719 0.137205
0.596664 0.649262 0.140584
0.626696 0.656137 0.144142
0.656795 0.663333 0.147724
0.686951 0.670842 0.151603
0.714373 0.678653 0.155951
0.737645 0.686755 0.160891
0.759271 0.695137 0.166242
0.776839 0.703791 0.171901
0.794161 0.712704 0.177939
0.811247 0.719908 0.184150
0.822991 0.726844 0.190506
0.834384 0.733925 0.196654
0.845568 0.741143 0.202761
0.856551 0.748490 0.208936
0.161368 0.612669 0.107168
0.162622 0.612765 0.107238
0.167362 0.613111 0.107489
0.175770 0.613748 0.107945
0.188290 0.614698 0.108615
0.205794 0.615980 0.109497
0.227299 0.617604 0.110582
0.254182 0.619582 0.111858
0.280482 0.621918 0.113306
0.308877 0.624618 0.114908
0.336647 0.627684 0.116716
0.363472 0.631118 0.118909
0.391768 0.634919 0.121223
0.420607 0.639084 0.123637
0.449717 0.643612 0.126384
0.479046 0.648496 0.129243
0.508553 0.653734 0.132190
0.538206 0.659317 0.135389
0.567981 0.665240 0.138639
0.597858 0.671494 0.142007
0.627821 0.678073 0.145492
0.657858 0.684967 0.149005
0.687959 0.692167 0.152973
0.715121 0.699664 0.157444
0.738342 0.707450 0.162514
0.759777 0.715208 0.167804
0.777316 0.721370 0.173566
0.794610 0.727705 0.179549
0.811669 0.734203 0.185756
0.823266 0.740858 0.192063
0.834644 0.747660 0.198077
0.845813 0.754601 0.204140
0.856783 0.761675 0.210280
0.165429 0.637848 0.109346
0.166777 0.637940 0.109411
0.171414 0.638268 0.109645
0.179858 0.638872 0.110069
0.192302 0.639773 0.110694
0.210043 0.640988 0.111518
0.231925 0.642530 0.112534
0.257741 0.644406 0.113733
0.283620 0.646625 0.115098
0.311887 0.649190 0.116680
0.338976 0.652104 0.118632
0.365685 0.655370 0.120727
0.393850 0.658987 0.122943
0.422519 0.662953 0.125415
0.451482 0.667268 0.128094
0.480682 0.671927 0.130860
0.510076 0.676925 0.133833
0.539629 0.682259 0.136946
0.569314 0.687922 0.140114
0.599112 0.693908 0.143474
0.629004 0.700210 0.146885
0.658977 0.706820 0.150487
0.689018 0.713730 0.154494
0.715898 0.719218 0.159042
0.739075 0.724744 0.164204
0.760310 0.730457 0.169456
0.777817 0.736351 0.175304
0.795083 0.742417 0.181254
0.811978 0.748647 0.187433
0.823556 0.755034 0.193601
0.834918 0.761569 0.199564
0.846072 0.768247 0.205588
0.857027 0.775059 0.211687
0.169800 0.662972 0.111477
0.171066 0.663058 0.111538
0.175580 0.663370 0.111755
0.183959 0.663944 0.112152
0.196369 0.664801 0.112735
0.214224 0.665956 0.113507
0.236706 0.667422 0.114461
0.261415 0.669206 0.115589
0.286876 0.671317 0.116993
0.315018 0.673758 0.118694
0.341400 0.676534 0.120554
0.367994 0.679645 0.122555
0.396025 0.683093 0.124765
0.424519 0.686876 0.127246
0.453329 0.690994 0.129832
0.482395 0.695444 0.132555
0.511671 0.700222 0.135511
0.541120 0.705324 0.138539
0.570713 0.710746 0.141690
0.600427 0.715924 0.144982
0.630244 0.720393 0.148320
0.660149 0.725074 0.152023
0.690130 0.729960 0.156168
0.716714 0.735046 0.160863
0.739844 0.740324 0.165958
0.760870 0.745787 0.171324
0.778343 0.751428 0.177112
0.795579 0.757239 0.183057
0.812301 0.763215 0.189182
0.823861 0.769347 0.195201
0.835205 0.775629 0.201116
0.846342 0.781942 0.207100
0.857284 0.787975 0.213155
0.174109 0.688041 0.113563
0.175427 0.688124 0.113620
0.180088 0.688421 0.113824
0.188364 0.688967 0.114195
0.201062 0.689783 0.114741
0.218454 0.690883 0.115465
0.241307 0.692279 0.116384
0.265208 0.693980 0.117643
0.290393 0.695992 0.119088
0.318269 0.698319 0.120705
0.343918 0.700967 0.122478
0.370401 0.703936 0.124445
0.398291 0.707228 0.126709
0.426604 0.710843 0.129097
0.455256 0.714664 0.131593
0.484184 0.717815 0.134353
0.513338 0.721194 0.137222
0.542678 0.724800 0.140166
0.572175 0.728626 0.143314
0.601803 0.732670 0.146529
0.631543 0.736925 0.149885
0.661377 0.741386 0.153605
0.691294 0.746048 0.157897
