ektachrome100d/Ektachrome100D_Modern_RadianceIII.cube
TITLE "Kodak Ektachrome 100D Modern RadianceIII"
# Adobe RGB in/out. REPLACES AgX. Kodak Ektachrome 100D Modern RadianceIII.
LUT_3D_SIZE 33
DOMAIN_MIN 0.0 0.0 0.0
DOMAIN_MAX 1.0 1.0 1.0
0.081523 0.088043 0.083657
0.084529 0.088341 0.083635
0.085920 0.088534 0.083630
0.101687 0.089909 0.083643
0.169389 0.092062 0.084184
0.216039 0.093098 0.084683
0.324593 0.098335 0.085491
0.443965 0.105198 0.086541
0.504356 0.110682 0.086876
0.588669 0.118373 0.087325
0.687562 0.131032 0.088236
0.753659 0.140666 0.089301
0.806915 0.151986 0.090404
0.857176 0.167596 0.091780
0.894686 0.188865 0.094086
0.917745 0.200129 0.096929
0.933339 0.210308 0.099606
0.943224 0.223258 0.102978
0.951758 0.239172 0.108650
0.958885 0.245592 0.112135
0.963909 0.252220 0.116072
0.965890 0.259956 0.122192
0.967658 0.265680 0.129247
0.969129 0.264155 0.137165
0.969865 0.263325 0.149765
0.970362 0.260142 0.166730
0.971236 0.239485 0.189377
0.971145 0.224441 0.257437
0.972046 0.134309 0.544863
0.970946 0.133278 0.539130
0.969850 0.132312 0.533516
0.968756 0.131361 0.527951
0.968034 0.404061 0.736164
0.081565 0.089882 0.083648
0.082661 0.089482 0.083645
0.087067 0.088810 0.083640
0.106200 0.090221 0.083610
0.173824 0.092427 0.084197
0.216681 0.093419 0.084685
0.320439 0.098948 0.085487
0.436171 0.106290 0.086538
0.496519 0.111571 0.086874
0.581144 0.119134 0.087322
0.680096 0.131828 0.088227
0.746772 0.141808 0.089280
0.801548 0.153314 0.090386
0.852717 0.168878 0.091763
0.892171 0.190131 0.094040
0.915616 0.201291 0.096885
0.932326 0.211438 0.099563
0.942390 0.224382 0.102919
0.951074 0.240254 0.108586
0.958314 0.246640 0.112068
0.963675 0.253244 0.116001
0.965694 0.260877 0.122086
0.967492 0.266722 0.129122
0.969005 0.265189 0.136945
0.969758 0.264350 0.149468
0.970269 0.261037 0.166289
0.971154 0.240451 0.188505
0.971074 0.225378 0.254624
0.971987 0.134257 0.544556
0.970892 0.133230 0.538850
0.969800 0.132268 0.533262
0.968710 0.131321 0.527714
0.967992 0.403860 0.735875
0.081589 0.090642 0.083645
0.081808 0.090605 0.083637
0.083197 0.090175 0.083638
0.091572 0.091376 0.083615
0.137256 0.093615 0.084115
0.197430 0.095769 0.084626
0.302184 0.101403 0.085472
0.417068 0.111383 0.086560
0.473822 0.115435 0.086882
0.554700 0.122727 0.087319
0.655062 0.135174 0.088207
0.723003 0.147359 0.089218
0.781204 0.158509 0.090330
0.836810 0.173820 0.091710
0.883099 0.194779 0.093892
0.907907 0.205681 0.096740
0.928646 0.215753 0.099420
0.939363 0.228581 0.102716
0.948594 0.244277 0.108367
0.956248 0.250523 0.111837
0.962118 0.257025 0.115751
0.964986 0.264619 0.121714
0.966895 0.270558 0.128686
0.968558 0.268993 0.136176
0.969375 0.268111 0.148430
0.969936 0.264685 0.164758
0.970863 0.244005 0.185534
0.970819 0.228829 0.245345
0.971774 0.134074 0.543460
0.970698 0.133060 0.537853
0.969622 0.132113 0.532356
0.968546 0.131181 0.526867
0.967824 0.403137 0.734842
0.081731 0.095558 0.083629
0.082012 0.095579 0.083621
0.083275 0.094986 0.083613
0.086233 0.093518 0.083611
0.103415 0.098661 0.084125
0.136784 0.099895 0.084605
0.224352 0.106416 0.085401
0.351321 0.118323 0.086540
0.424688 0.122260 0.086884
0.510068 0.129635 0.087327
0.616247 0.147690 0.088201
0.682539 0.160494 0.089167
0.742452 0.170021 0.090271
0.806580 0.184442 0.091645
0.864715 0.204518 0.093685
0.893433 0.214847 0.096524
0.916816 0.224510 0.099197
0.933641 0.236871 0.102456
0.943925 0.252260 0.108003
0.952373 0.258171 0.111448
0.958897 0.264186 0.115324
0.963670 0.272123 0.121072
0.965788 0.278005 0.127930
0.967703 0.276359 0.134903
0.968669 0.275383 0.146639
0.969325 0.271900 0.162140
0.970328 0.250907 0.180659
0.970354 0.235484 0.231562
0.971389 0.133745 0.541476
0.970345 0.132751 0.536046
0.969298 0.131831 0.530711
0.968248 0.130931 0.525328
0.967512 0.401817 0.732964
0.082166 0.118995 0.083803
0.082498 0.119026 0.083910
0.083884 0.119025 0.084161
0.086999 0.116293 0.084394
0.095378 0.111929 0.084615
0.111073 0.107064 0.084722
0.158460 0.116588 0.085394
0.262121 0.128752 0.086525
0.344787 0.131566 0.086892
0.439397 0.139983 0.087336
0.559176 0.164949 0.088232
0.630365 0.176696 0.089199
0.691648 0.186499 0.090264
0.759216 0.201526 0.091611
0.826315 0.222870 0.093560
0.871008 0.231604 0.096321
0.897712 0.239618 0.098959
0.921937 0.250798 0.102181
0.936605 0.265558 0.107554
0.946332 0.270914 0.110949
0.953922 0.276836 0.114764
0.959718 0.284451 0.120215
0.964105 0.289913 0.126908
0.966285 0.288213 0.133332
0.967561 0.287127 0.144225
0.968410 0.283595 0.158665
0.969532 0.261880 0.174588
0.969662 0.246149 0.214467
0.970824 0.133269 0.538586
0.969827 0.132300 0.533404
0.968821 0.131417 0.528295
0.967789 0.130630 0.523073
0.967051 0.399878 0.730210
0.082683 0.146520 0.084427
0.082948 0.145706 0.084535
0.084093 0.145730 0.084689
0.086539 0.139907 0.084952
0.091269 0.131695 0.084984
0.102843 0.126118 0.085145
0.129314 0.130273 0.085624
0.193077 0.147092 0.086640
0.265788 0.148932 0.086923
0.356809 0.160751 0.087347
0.475320 0.185578 0.088237
0.564900 0.196977 0.089243
0.633913 0.205725 0.090336
0.705012 0.219656 0.091653
0.781039 0.240261 0.093524
0.832077 0.250023 0.096199
0.872711 0.259530 0.098785
0.898939 0.273173 0.101952
0.924043 0.287882 0.107122
0.937487 0.291442 0.110429
0.946741 0.295927 0.114151
0.953874 0.302341 0.119242
0.959900 0.307258 0.125724
0.964317 0.305233 0.131507
0.965906 0.303819 0.141426
0.967056 0.300329 0.154706
0.968454 0.279787 0.168249
0.968732 0.262393 0.198329
0.970083 0.132663 0.534827
0.969146 0.131710 0.529952
0.968195 0.130875 0.525058
0.967551 0.401872 0.520112
0.966443 0.397329 0.726588
0.083515 0.216901 0.085265
0.083874 0.218011 0.085391
0.085042 0.216693 0.085708
0.087387 0.207793 0.085903
0.092259 0.193321 0.086034
0.102797 0.178872 0.086130
0.121031 0.167768 0.086340
0.157022 0.178461 0.086825
0.205492 0.176903 0.087053
0.287036 0.186731 0.087444
0.394235 0.210757 0.088305
0.484609 0.221358 0.089390
0.566147 0.227800 0.090379
0.643118 0.241047 0.091679
0.724010 0.262056 0.093588
0.784423 0.273093 0.096284
0.834448 0.279774 0.098737
0.876041 0.291264 0.101797
0.903249 0.307482 0.106783
0.925401 0.313749 0.110001
0.936987 0.321343 0.113605
0.945649 0.329066 0.118301
0.953268 0.333004 0.124530
0.959723 0.330376 0.129892
0.963712 0.328380 0.138561
0.965205 0.324717 0.150721
0.966930 0.305587 0.162582
0.967484 0.288489 0.185065
0.969176 0.131985 0.530298
0.968310 0.130995 0.525670
0.967350 0.130214 0.521104
0.966741 0.398567 0.516486
0.965693 0.394203 0.722138
0.084690 0.293868 0.086402
0.084939 0.294805 0.086498
0.086226 0.297447 0.086733
0.088826 0.286185 0.086862
0.093919 0.271019 0.086943
0.104289 0.255511 0.087054
0.121610 0.241059 0.087127
0.144606 0.229550 0.087252
0.173159 0.209779 0.087238
0.231548 0.215693 0.087628
0.328022 0.240383 0.088428
0.409782 0.248389 0.089610
0.489324 0.253239 0.090552
0.579353 0.265514 0.091803
0.663499 0.287097 0.093740
0.727995 0.295278 0.096333
0.787604 0.302505 0.098776
0.837844 0.315309 0.101804
0.878795 0.331349 0.106647
0.904697 0.335042 0.109732
0.926548 0.340766 0.113222
0.937305 0.349518 0.117627
0.945736 0.357991 0.123599
0.952938 0.360667 0.128645
0.957894 0.364676 0.136005
0.962009 0.360667 0.147215
0.964862 0.344104 0.158472
0.965764 0.326790 0.175880
0.968119 0.131530 0.525165
0.967247 0.130189 0.520686
0.966322 0.129450 0.516511
0.965788 0.394596 0.512257
0.964810 0.390549 0.716930
0.085162 0.331406 0.086784
0.085347 0.332116 0.086836
0.086395 0.330566 0.086975
0.088673 0.322584 0.087112
0.092611 0.311139 0.087221
0.101170 0.297407 0.087302
0.114773 0.283557 0.087411
0.132288 0.269884 0.087535
0.158830 0.259256 0.087708
0.197499 0.252165 0.087911
0.277760 0.272829 0.088852
0.349267 0.279241 0.089940
0.421627 0.282601 0.090819
0.507222 0.293444 0.091981
0.602914 0.313229 0.094133
0.668720 0.320286 0.096611
0.731635 0.327050 0.098949
0.794017 0.338740 0.101887
0.845741 0.354628 0.106649
0.880739 0.360559 0.109652
0.904453 0.368966 0.113056
0.926311 0.375424 0.117186
0.937493 0.382156 0.122923
0.946198 0.383283 0.127706
0.952288 0.386218 0.134317
0.956807 0.389615 0.144597
0.961341 0.385401 0.155696
0.963563 0.382461 0.171544
0.966811 0.149316 0.522453
0.965996 0.129715 0.515421
0.965160 0.128676 0.511439
0.964709 0.390134 0.507522
0.963806 0.386447 0.710906
0.086022 0.386386 0.087248
0.086231 0.385042 0.087271
0.087005 0.379515 0.087343
0.089205 0.373145 0.087514
0.092776 0.362983 0.087685
0.100662 0.350984 0.087827
0.112096 0.337433 0.087962
0.127751 0.324066 0.088090
0.149411 0.311962 0.088225
0.181872 0.301959 0.088385
0.241911 0.313382 0.089624
0.302451 0.312172 0.090381
0.366241 0.313319 0.091136
0.444028 0.322431 0.092241
0.538919 0.341814 0.094693
0.611151 0.347724 0.097021
0.674935 0.353282 0.099274
0.741251 0.364065 0.102112
0.804537 0.381297 0.106886
0.849317 0.386967 0.109777
0.883222 0.392326 0.112982
0.906681 0.402200 0.116945
0.926815 0.412791 0.122503
0.937687 0.414663 0.127004
0.945442 0.415578 0.132961
0.951173 0.417461 0.142330
0.956634 0.412231 0.152395
0.959587 0.408080 0.166296
0.962334 0.398046 0.185494
0.963543 0.387237 0.230212
0.964009 0.347072 0.469322
0.963521 0.385293 0.507101
0.961850 0.381970 0.704211
0.087479 0.462409 0.088043
0.087715 0.460466 0.088061
0.088641 0.455035 0.088138
0.090798 0.450653 0.088312
0.095459 0.441318 0.088504
0.102480 0.428787 0.088914
0.114257 0.415335 0.089305
0.129097 0.400905 0.089654
0.149994 0.387010 0.089978
0.180737 0.374457 0.090357
0.220096 0.364137 0.090790
0.271059 0.353735 0.091149
0.322036 0.345677 0.091548
0.391802 0.353562 0.092558
0.479360 0.372897 0.095423
0.553433 0.377357 0.097634
0.620706 0.381605 0.099715
0.687914 0.391844 0.102436
0.757238 0.409480 0.107283
0.810621 0.413524 0.110028
0.854577 0.420536 0.113150
0.885310 0.431435 0.116997
0.909172 0.439215 0.122277
0.928966 0.442124 0.126562
0.937614 0.447822 0.132026
0.944210 0.455077 0.140521
0.951020 0.448528 0.149650
0.954933 0.442761 0.161841
0.958344 0.431948 0.177823
0.960128 0.418604 0.207627
0.961597 0.361798 0.390516
0.960926 0.380155 0.516019
0.959417 0.377205 0.517833
0.088473 0.500169 0.088526
0.088668 0.498833 0.088566
0.089419 0.494883 0.088734
0.091453 0.491297 0.089129
0.095599 0.484433 0.089532
0.102114 0.476377 0.089969
0.112711 0.466905 0.090411
0.125958 0.453772 0.090749
0.143500 0.439925 0.091079
0.169891 0.426681 0.091406
0.203607 0.414499 0.091764
0.249757 0.404429 0.092182
0.293787 0.388570 0.092302
0.349559 0.387002 0.092943
0.428881 0.405850 0.096319
0.497748 0.408762 0.098347
0.569191 0.412333 0.100366
0.637237 0.422110 0.103124
0.708141 0.438818 0.107745
0.766209 0.442277 0.110414
0.817823 0.450006 0.113519
0.861484 0.458716 0.117229
0.889538 0.468159 0.122352
0.911893 0.472274 0.126460
0.929529 0.474792 0.131526
0.937639 0.479056 0.139461
0.945068 0.479205 0.147728
0.949583 0.480821 0.158522
0.953669 0.476390 0.172626
0.956230 0.463895 0.194563
0.958334 0.400203 0.298574
0.958191 0.374822 0.510106
0.956850 0.372232 0.516951
0.089154 0.530309 0.089370
0.089319 0.529193 0.089405
0.089945 0.525690 0.089549
0.091796 0.521784 0.089872
0.095771 0.516846 0.090290
0.101672 0.510243 0.090727
0.110285 0.501525 0.091125
0.122562 0.491762 0.091507
0.137213 0.481516 0.091843
0.159353 0.470653 0.092162
0.188488 0.459588 0.092491
0.225422 0.448031 0.092823
0.273292 0.438554 0.093359
0.322833 0.432700 0.094581
0.387565 0.440723 0.097380
0.450537 0.442709 0.099259
0.517029 0.445112 0.101097
0.591390 0.454126 0.104055
0.660835 0.468801 0.108642
0.720026 0.471031 0.111038
0.777792 0.476286 0.113912
0.828140 0.483984 0.117701
0.869327 0.493102 0.122724
0.894584 0.495126 0.126520
0.914811 0.500288 0.131365
0.929718 0.507188 0.138922
0.938785 0.505381 0.146390
0.944429 0.505216 0.156126
0.949106 0.504491 0.168719
0.952008 0.503369 0.187395
0.953955 0.504651 0.222182
0.955370 0.369508 0.504075
0.954190 0.367203 0.517857
0.090017 0.567770 0.090440
0.090159 0.566801 0.090472
0.090919 0.563745 0.090597
0.092631 0.559922 0.090872
0.096958 0.556931 0.091314
0.102073 0.550549 0.091713
0.109975 0.542981 0.092102
0.121504 0.534681 0.092497
0.134855 0.525301 0.092861
0.153825 0.514952 0.093261
0.180384 0.504793 0.093966
0.212869 0.495243 0.094925
0.256775 0.486419 0.095849
0.302518 0.479031 0.096956
0.361969 0.484215 0.099545
0.411912 0.476524 0.100416
0.472608 0.476185 0.101991
0.543359 0.482469 0.105027
0.617278 0.494668 0.109503
0.675300 0.496709 0.111896
0.734583 0.501067 0.114629
0.792732 0.508566 0.118380
0.839278 0.516453 0.123185
0.875815 0.519985 0.126862
0.898288 0.525581 0.131526
0.917470 0.530463 0.138594
0.931976 0.532229 0.145567
0.938411 0.535805 0.154380
0.944249 0.533533 0.165493
0.947958 0.530520 0.181074
0.950466 0.528942 0.206811
0.951552 0.531550 0.300847
0.951578 0.550306 0.518914
0.091580 0.615403 0.091801
0.091775 0.614559 0.091831
0.092505 0.611841 0.091944
0.094609 0.608178 0.092185
0.098938 0.606200 0.092629
0.103373 0.599776 0.092990
0.111742 0.593706 0.093787
0.122462 0.585981 0.094856
0.135098 0.577291 0.095933
0.153443 0.567898 0.096902
0.179090 0.558240 0.097878
0.209397 0.548538 0.098737
0.250787 0.539346 0.099702
0.294469 0.531078 0.100648
0.340442 0.523814 0.101743
0.386704 0.514607 0.102436
0.436480 0.506765 0.103451
0.500621 0.510050 0.106264
0.577121 0.521412 0.110544
0.633789 0.522735 0.112761
0.692800 0.526694 0.115446
0.752794 0.533680 0.119337
0.807586 0.540751 0.123900
0.850283 0.544774 0.127418
0.881722 0.549086 0.131881
0.902506 0.555848 0.138728
0.922321 0.557809 0.145212
0.932722 0.559414 0.153323
0.939168 0.561529 0.163285
0.943450 0.563872 0.176510
0.946705 0.560823 0.197164
0.948332 0.558185 0.249566
0.948816 0.553090 0.502069
0.092382 0.645458 0.092487
0.092554 0.644716 0.092513
0.093306 0.642290 0.092613
0.095421 0.638819 0.092821
0.099082 0.636200 0.093302
0.103413 0.631668 0.094268
0.111526 0.627296 0.095583
0.120853 0.619474 0.096557
0.132281 0.611596 0.097616
0.148656 0.603282 0.098722
0.171020 0.593965 0.099620
0.198093 0.584496 0.100537
0.234097 0.575523 0.101473
0.276461 0.566873 0.102419
0.318914 0.559212 0.103663
0.365515 0.552541 0.105163
0.411176 0.543794 0.106071
0.466755 0.541005 0.108050
0.535683 0.548450 0.111745
0.596909 0.549351 0.113863
0.653234 0.552270 0.116325
0.714247 0.558675 0.120397
0.772950 0.565418 0.124816
0.821732 0.568718 0.128126
0.861987 0.573560 0.132548
0.887402 0.580297 0.139174
0.909472 0.582228 0.145164
0.924870 0.586426 0.152806
0.933958 0.588165 0.161817
0.939222 0.588324 0.173333
0.942891 0.590950 0.191055
0.944846 0.597429 0.226709
0.945934 0.577940 0.434174
0.093083 0.674443 0.093093
0.093335 0.673786 0.093140
0.094273 0.671606 0.093319
0.096132 0.668348 0.093705
0.099282 0.665410 0.094608
0.103571 0.662565 0.095785
0.110129 0.656972 0.096865
0.119203 0.650987 0.097995
0.129765 0.644253 0.099100
0.143908 0.636509 0.100161
0.163692 0.628075 0.101189
0.188354 0.619202 0.102129
0.219264 0.610413 0.103183
0.259341 0.601820 0.104505
0.300036 0.593737 0.105815
0.343012 0.586552 0.107164
0.389658 0.580366 0.108664
0.441256 0.576790 0.110526
0.503327 0.579447 0.113593
0.559290 0.575598 0.114955
0.617830 0.578231 0.117506
0.676778 0.583943 0.121590
0.736665 0.590495 0.125897
0.791765 0.593349 0.129012
0.835791 0.598428 0.133472
0.872236 0.604386 0.139855
0.895724 0.607696 0.145516
0.913607 0.611022 0.152573
0.928601 0.613978 0.160871
0.934574 0.617239 0.171069
0.939104 0.618265 0.186078
0.941647 0.620962 0.212768
0.942839 0.632493 0.318943
0.094459 0.707806 0.094968
0.094687 0.707232 0.095027
0.095533 0.705308 0.095252
0.097192 0.702340 0.095708
0.099960 0.699364 0.096502
0.104273 0.698115 0.097764
0.110130 0.692015 0.098675
0.119162 0.687701 0.099939
0.128739 0.681331 0.101042
0.141236 0.673969 0.102071
0.159330 0.666273 0.103346
0.182720 0.658008 0.104732
0.210982 0.649618 0.106131
0.247341 0.640932 0.107338
0.287296 0.632871 0.108721
0.327411 0.625262 0.110045
0.371813 0.618427 0.111406
0.419007 0.612651 0.112930
0.477815 0.614527 0.115930
0.528962 0.607611 0.116844
0.585824 0.604517 0.118886
0.642426 0.609874 0.122884
0.701871 0.615935 0.127085
0.757499 0.618388 0.130038
0.808742 0.623416 0.134600
0.850341 0.629013 0.140844
0.881961 0.632431 0.146135
0.901876 0.635940 0.152715
0.918844 0.640564 0.160447
0.930148 0.641812 0.169582
0.935291 0.645341 0.182657
0.938280 0.651677 0.204097
0.939999 0.657390 0.271100
0.096147 0.741549 0.097528
0.096356 0.741139 0.097583
0.097129 0.739753 0.097789
0.098634 0.737569 0.098205
0.101110 0.735229 0.098916
0.105090 0.733995 0.100059
0.111331 0.730350 0.101063
0.119697 0.726962 0.102287
0.128539 0.721808 0.103699
0.140901 0.716153 0.105339
0.158186 0.709166 0.106830
0.180615 0.701483 0.108373
0.206669 0.693142 0.109751
0.240968 0.684756 0.111106
0.279272 0.676410 0.112395
0.318964 0.668711 0.113853
0.360587 0.661465 0.115225
0.405427 0.654787 0.116587
0.454536 0.649332 0.118549
0.503136 0.641888 0.119625
0.556684 0.637138 0.121394
0.611303 0.636073 0.124233
0.668677 0.641663 0.128299
0.724754 0.643844 0.131221
0.779829 0.648133 0.135853
0.826878 0.653704 0.142026
0.867519 0.656793 0.146949
0.889673 0.661157 0.153203
0.909174 0.664663 0.160242
0.923397 0.667813 0.168614
0.931477 0.671851 0.180273
0.935169 0.675243 0.198270
0.937185 0.685416 0.244302
0.096582 0.764305 0.098590
0.096774 0.763937 0.098641
0.097480 0.762681 0.098831
0.098848 0.760653 0.099212
0.101075 0.758333 0.099856
0.104487 0.756673 0.100877
0.110730 0.754360 0.102003
0.117856 0.750354 0.103220
0.126748 0.746729 0.104931
0.137567 0.742276 0.106605
0.152375 0.736543 0.108055
0.172566 0.730628 0.109580
0.196516 0.724293 0.111068
0.226650 0.716781 0.112483
0.264129 0.709000 0.113879
0.301854 0.701191 0.115208
0.341228 0.693933 0.116638
0.384156 0.687329 0.118412
0.429759 0.681188 0.120228
0.479971 0.676215 0.122296
0.531074 0.670595 0.123957
0.587919 0.668878 0.126713
0.638768 0.668307 0.129702
0.693107 0.669634 0.132646
0.749051 0.673465 0.137336
0.801782 0.678406 0.143270
0.846015 0.681415 0.147914
0.877339 0.685799 0.153875
0.898902 0.689460 0.160365
0.914936 0.693125 0.167995
0.927405 0.696531 0.178378
0.931981 0.701974 0.194112
0.934509 0.709670 0.228667
0.097019 0.787270 0.099725
0.097196 0.786946 0.099773
0.097847 0.785834 0.099950
0.099102 0.784005 0.100301
0.101127 0.781821 0.100891
0.104189 0.780004 0.101815
0.110487 0.778887 0.103238
0.116686 0.774676 0.104519
0.125735 0.772209 0.106415
0.134645 0.767096 0.107817
0.148606 0.762576 0.109474
0.167519 0.757471 0.111095
0.189141 0.751425 0.112597
0.215609 0.745113 0.114003
0.251203 0.738847 0.115469
0.288262 0.732594 0.116881
0.325229 0.726406 0.118642
0.365876 0.720194 0.120511
0.409628 0.714356 0.122448
0.456255 0.708711 0.124303
0.507229 0.704142 0.126359
0.562378 0.701225 0.129035
0.615414 0.700240 0.132242
0.664480 0.696906 0.134415
0.719508 0.698792 0.138814
0.775040 0.703357 0.144630
0.824350 0.706183 0.148991
0.862824 0.709965 0.154599
0.888248 0.714123 0.160724
0.906547 0.717117 0.167570
0.920606 0.721446 0.177027
0.928953 0.725292 0.190912
0.931919 0.732063 0.218509
0.097580 0.807509 0.101089
0.097745 0.807276 0.101134
0.098350 0.806474 0.101300
0.099512 0.805142 0.101629
0.101373 0.803510 0.102175
0.104155 0.802042 0.103174
0.110263 0.801532 0.104948
0.116237 0.798610 0.106256
0.124069 0.796110 0.107931
0.133151 0.793005 0.109564
0.146264 0.789559 0.111282
0.162268 0.784411 0.112809
0.183258 0.779172 0.114419
0.208340 0.773464 0.115963
0.240854 0.767423 0.117540
0.276823 0.761444 0.119551
0.312873 0.755444 0.121420
0.351468 0.749694 0.123306
0.393154 0.744286 0.125203
0.438548 0.739597 0.127196
0.486342 0.735255 0.129121
0.538132 0.731699 0.131252
0.593570 0.730047 0.134860
0.640962 0.727112 0.137113
0.692304 0.725432 0.140727
0.746880 0.727160 0.145923
0.801503 0.729561 0.150090
0.843884 0.732387 0.155463
0.877496 0.735715 0.161215
0.897822 0.738353 0.167435
0.913912 0.741824 0.175980
0.924282 0.745514 0.188364
0.929416 0.752191 0.211276
0.097864 0.827094 0.102254
0.098019 0.826893 0.102297
0.098586 0.826200 0.102454
0.099670 0.825035 0.102814
0.101397 0.823572 0.103523
0.103956 0.822167 0.104617
0.109312 0.821422 0.106254
0.115733 0.819660 0.107810
0.122636 0.816978 0.109311
0.131993 0.814915 0.111203
0.142644 0.811245 0.112690
0.158357 0.807786 0.114403
0.178936 0.803958 0.116166
0.201338 0.799251 0.117907
0.230605 0.794422 0.119865
0.265748 0.789348 0.121875
0.301229 0.783618 0.123922
0.338438 0.777982 0.125894
0.378725 0.772596 0.127832
0.421665 0.767548 0.129785
0.468095 0.763194 0.132035
0.517267 0.759283 0.134579
0.570282 0.756039 0.137455
0.618792 0.752867 0.139682
0.668684 0.750707 0.143198
0.721724 0.749858 0.147714
0.776670 0.750181 0.151045
0.824440 0.752663 0.156213
0.865549 0.755754 0.161744
0.888922 0.758469 0.167503
0.907189 0.761524 0.175070
0.919044 0.765417 0.186309
0.926296 0.770871 0.205995
0.097303 0.845560 0.102608
0.097450 0.845377 0.102654
0.097983 0.844738 0.102856
0.099000 0.843650 0.103253
0.100613 0.842241 0.103908
0.102988 0.840779 0.104917
0.107218 0.839727 0.106425
0.114117 0.838733 0.108228
0.120252 0.835908 0.109572
0.128878 0.833970 0.111481
0.138167 0.830717 0.113036
0.153284 0.827728 0.114866
0.170596 0.823697 0.116443
0.192283 0.819706 0.118548
0.219068 0.815366 0.120736
0.252515 0.810626 0.122691
0.287174 0.805924 0.124759
0.322632 0.801288 0.126773
0.361358 0.796830 0.128790
0.402378 0.792610 0.130745
0.446936 0.788397 0.133230
0.494165 0.784370 0.135777
0.545116 0.780964 0.138778
0.597703 0.778156 0.141846
0.645960 0.775407 0.145323
0.698372 0.773960 0.149767
0.752719 0.772968 0.152529
0.803521 0.772705 0.156802
0.848649 0.775516 0.161984
0.879946 0.778177 0.167679
0.900354 0.781106 0.174374
0.914001 0.784315 0.184196
0.922389 0.789756 0.201722
0.096827 0.861698 0.103286
0.096965 0.861543 0.103337
0.097467 0.861001 0.103526
0.098422 0.860073 0.103896
0.099932 0.858854 0.104505
0.102143 0.857554 0.105439
0.105545 0.856527 0.106831
0.112798 0.856347 0.108881
0.118333 0.853675 0.110101
0.125942 0.851571 0.111813
0.135553 0.849352 0.113676
0.147793 0.846146 0.115303
0.164696 0.842892 0.117130
0.185285 0.839252 0.119499
0.208429 0.835060 0.121601
0.239790 0.830781 0.123772
0.274740 0.826361 0.125931
0.309810 0.821859 0.128064
0.346565 0.817467 0.130086
0.386244 0.813288 0.132461
0.428430 0.809391 0.134961
0.473949 0.805868 0.137800
0.522477 0.802719 0.140692
0.575184 0.800183 0.143806
0.624256 0.798089 0.146979
0.675199 0.796292 0.151387
0.730225 0.795580 0.153981
0.783452 0.794309 0.157863
0.831371 0.794387 0.162080
0.870754 0.796385 0.167263
0.893483 0.798822 0.173703
0.909071 0.801283 0.182306
0.918659 0.805226 0.197905
0.096153 0.874188 0.103853
0.096283 0.874103 0.103901
0.096758 0.873807 0.104079
0.097660 0.873296 0.104427
0.099082 0.872620 0.104999
0.101156 0.871883 0.105875
0.104089 0.871270 0.107179
0.110254 0.871073 0.109097
0.116496 0.870031 0.110642
0.123313 0.868385 0.112198
0.133316 0.867064 0.114371
0.143321 0.863870 0.115838
0.159956 0.861230 0.118112
0.177747 0.857535 0.120237
0.200828 0.853923 0.122667
0.229132 0.849914 0.124904
0.262516 0.845695 0.127078
0.296670 0.841399 0.129266
0.332325 0.837098 0.131540
0.371090 0.832980 0.134188
0.411550 0.829084 0.137032
0.455419 0.825513 0.140019
0.502283 0.822272 0.142974
0.552382 0.819409 0.145940
0.603404 0.817168 0.149172
0.652682 0.815323 0.152448
0.707552 0.814823 0.154866
0.761509 0.813169 0.158721
0.814750 0.812814 0.162550
0.857350 0.812581 0.166793
0.886368 0.814550 0.172627
0.904202 0.816914 0.180388
0.915363 0.820432 0.194611
0.093827 0.886859 0.102876
0.093951 0.886776 0.102919
0.094405 0.886487 0.103078
0.095266 0.885979 0.103392
0.096626 0.885284 0.103913
0.098615 0.884475 0.104726
0.101441 0.883690 0.105960
0.105778 0.883164 0.107823
0.112911 0.882464 0.109799
0.119089 0.880975 0.111223
0.127643 0.879786 0.113230
0.137393 0.878173 0.115094
0.150970 0.876229 0.116899
0.169005 0.874112 0.119373
0.189931 0.871726 0.121817
0.214292 0.869145 0.124099
0.247894 0.865168 0.126486
0.282269 0.861010 0.128734
0.316110 0.856781 0.130892
0.352938 0.852695 0.133580
0.392469 0.848834 0.136376
0.434902 0.845248 0.139408
0.480762 0.842003 0.142422
0.529653 0.839140 0.145424
