ektachrome100d/Ektachrome100D_Classic_Punchy.cube
TITLE "Kodak Ektachrome 100D Classic Punchy"
# Adobe RGB in/out. REPLACES AgX. Kodak Ektachrome 100D Classic Punchy.
LUT_3D_SIZE 33
DOMAIN_MIN 0.0 0.0 0.0
DOMAIN_MAX 1.0 1.0 1.0
0.100571 0.090407 0.084157
0.100571 0.090407 0.084157
0.100571 0.090407 0.084157
0.100571 0.090407 0.084157
0.100695 0.090407 0.084157
0.102279 0.090407 0.084157
0.105748 0.090407 0.084157
0.113295 0.090411 0.084157
0.124243 0.090421 0.084157
0.147252 0.090438 0.084157
0.184885 0.090458 0.084157
0.226778 0.090586 0.084157
0.283327 0.090925 0.084157
0.346713 0.091463 0.084157
0.414524 0.092410 0.084157
0.464125 0.093937 0.084157
0.522265 0.096454 0.084157
0.572208 0.102788 0.084157
0.622275 0.111792 0.084157
0.672148 0.121752 0.084157
0.727659 0.139043 0.084157
0.767530 0.167847 0.084157
0.797405 0.203970 0.084157
0.823095 0.249190 0.084157
0.848466 0.296028 0.084157
0.872238 0.355591 0.084157
0.895811 0.402776 0.084157
0.912181 0.457223 0.084193
0.922766 0.495835 0.084266
0.931177 0.538610 0.084336
0.942490 0.583436 0.084405
0.949200 0.622298 0.084481
0.955743 0.655834 0.084569
0.100571 0.090407 0.084157
0.100571 0.090407 0.084157
0.100571 0.090407 0.084157
0.100571 0.090407 0.084157
0.100698 0.090407 0.084157
0.102284 0.090407 0.084157
0.105756 0.090407 0.084157
0.113312 0.090412 0.084157
0.124250 0.090423 0.084157
0.147282 0.090439 0.084157
0.184927 0.090460 0.084157
0.226816 0.090605 0.084157
0.283369 0.090952 0.084157
0.346754 0.091512 0.084157
0.414555 0.092459 0.084157
0.464154 0.094041 0.084157
0.522291 0.096568 0.084157
0.572233 0.103119 0.084157
0.622299 0.112129 0.084157
0.672172 0.122129 0.084157
0.727681 0.139773 0.084157
0.767536 0.168964 0.084157
0.797415 0.205262 0.084157
0.823104 0.250628 0.084157
0.848475 0.297214 0.084157
0.872245 0.357226 0.084157
0.895818 0.403809 0.084157
0.912184 0.458275 0.084193
0.922768 0.496801 0.084266
0.931180 0.539581 0.084337
0.942491 0.584412 0.084405
0.949202 0.622977 0.084481
0.955744 0.656501 0.084569
0.100571 0.090407 0.084157
0.100571 0.090407 0.084157
0.100571 0.090407 0.084157
0.100571 0.090407 0.084157
0.100711 0.090407 0.084157
0.102300 0.090407 0.084157
0.105785 0.090409 0.084157
0.113373 0.090416 0.084157
0.124312 0.090428 0.084157
0.147391 0.090446 0.084157
0.185079 0.090468 0.084157
0.226950 0.090669 0.084157
0.283517 0.091046 0.084157
0.346901 0.091713 0.084157
0.414668 0.092649 0.084157
0.464257 0.094454 0.084157
0.522385 0.097013 0.084157
0.572323 0.104301 0.084157
0.622383 0.113455 0.084157
0.672257 0.123548 0.084157
0.727764 0.142553 0.084157
0.767555 0.173008 0.084157
0.797448 0.209936 0.084157
0.823135 0.255828 0.084157
0.848504 0.301487 0.084157
0.872272 0.363130 0.084157
0.895843 0.407523 0.084157
0.912197 0.462058 0.084194
0.922777 0.500272 0.084267
0.931187 0.543072 0.084337
0.942497 0.587922 0.084405
0.949207 0.625416 0.084482
0.955750 0.658898 0.084570
0.100571 0.090407 0.084157
0.100571 0.090407 0.084157
0.100571 0.090407 0.084157
0.100571 0.090407 0.084157
0.100734 0.090407 0.084157
0.102330 0.090409 0.084157
0.105839 0.090415 0.084157
0.113485 0.090425 0.084157
0.124430 0.090439 0.084157
0.147590 0.090457 0.084157
0.185359 0.090546 0.084157
0.227196 0.090824 0.084157
0.283790 0.091221 0.084157
0.347171 0.092066 0.084157
0.414875 0.093049 0.084157
0.464448 0.095268 0.084157
0.522558 0.099012 0.084157
0.572489 0.106913 0.084157
0.622537 0.116005 0.084157
0.672414 0.127856 0.084157
0.727915 0.148138 0.084157
0.767590 0.180141 0.084157
0.797510 0.218678 0.084157
0.823193 0.265541 0.084157
0.848559 0.311379 0.084157
0.872321 0.371330 0.084157
0.895889 0.415727 0.084157
0.912222 0.469031 0.084195
0.922792 0.506663 0.084268
0.931202 0.549498 0.084338
0.942509 0.594382 0.084406
0.949218 0.629894 0.084483
0.955760 0.662939 0.084571
0.100571 0.090408 0.084157
0.100571 0.090408 0.084157
0.100571 0.090408 0.084157
0.100571 0.090410 0.084157
0.100769 0.090414 0.084157
0.102374 0.090419 0.084157
0.105919 0.090428 0.084157
0.113652 0.090441 0.084157
0.124606 0.090457 0.084157
0.147889 0.090508 0.084157
0.185778 0.090725 0.084157
0.227565 0.091087 0.084157
0.284199 0.091716 0.084157
0.347576 0.092559 0.084157
0.415185 0.094088 0.084157
0.464732 0.096433 0.084157
0.522817 0.102189 0.084157
0.572737 0.110600 0.084157
0.622768 0.119780 0.084157
0.672648 0.134411 0.084157
0.728142 0.158324 0.084157
0.767643 0.190778 0.084157
0.797603 0.232096 0.084157
0.823280 0.280047 0.084157
0.848640 0.328093 0.084157
0.872394 0.382942 0.084157
0.895958 0.432031 0.084157
0.912258 0.478559 0.084197
0.922815 0.516234 0.084270
0.931223 0.559121 0.084340
0.942525 0.603991 0.084408
0.949234 0.636574 0.084485
0.955775 0.668787 0.084573
0.100571 0.090420 0.084157
0.100571 0.090421 0.084157
0.100571 0.090423 0.084157
0.100571 0.090426 0.084157
0.100814 0.090431 0.084157
0.102432 0.090441 0.084157
0.106027 0.090452 0.084157
0.113876 0.090465 0.084157
0.124869 0.090566 0.084157
0.148291 0.090769 0.084157
0.186344 0.091088 0.084157
0.228062 0.091633 0.084157
0.284751 0.092410 0.084157
0.348122 0.093597 0.084157
0.415604 0.095700 0.084157
0.465117 0.099653 0.084157
0.523166 0.107049 0.084157
0.573072 0.115483 0.084157
0.623080 0.125846 0.084157
0.672965 0.143987 0.084157
0.728448 0.173135 0.084157
0.767714 0.207800 0.084157
0.797729 0.250903 0.084157
0.823398 0.295331 0.084157
0.848750 0.351426 0.084157
0.872493 0.398449 0.084157
0.896051 0.450896 0.084157
0.912307 0.489502 0.084200
0.922846 0.529185 0.084273
0.931252 0.572141 0.084343
0.942548 0.613136 0.084410
0.949255 0.645563 0.084488
0.955795 0.676650 0.084576
0.100571 0.090449 0.084157
0.100571 0.090450 0.084157
0.100571 0.090452 0.084157
0.100571 0.090456 0.084157
0.100871 0.090462 0.084157
0.102506 0.090472 0.084157
0.106163 0.090577 0.084157
0.114160 0.090712 0.084157
0.125287 0.090953 0.084157
0.148804 0.091231 0.084157
0.187064 0.091833 0.084157
0.228695 0.092513 0.084157
0.285453 0.093657 0.084157
0.348817 0.095577 0.084157
0.416137 0.098794 0.084157
0.465606 0.105222 0.084157
0.523610 0.113191 0.084157
0.573498 0.121954 0.084157
0.623477 0.137118 0.084157
0.673367 0.160871 0.084157
0.728837 0.191536 0.084157
0.767804 0.230527 0.084157
0.797888 0.276004 0.084157
0.823547 0.320114 0.084157
0.848891 0.375320 0.084157
0.872618 0.418340 0.084157
0.896169 0.468790 0.084157
0.912369 0.504665 0.084204
0.922885 0.545688 0.084276
0.931289 0.588730 0.084346
0.942577 0.624703 0.084413
0.949282 0.656937 0.084492
0.955820 0.686587 0.084580
0.100571 0.090617 0.084157
0.100571 0.090624 0.084157
0.100571 0.090647 0.084157
0.100571 0.090689 0.084157
0.100939 0.090770 0.084157
0.102629 0.090905 0.084157
0.106328 0.091066 0.084157
0.114506 0.091301 0.084157
0.125796 0.091756 0.084157
0.149429 0.092297 0.084157
0.187944 0.092950 0.084157
0.229467 0.094283 0.084157
0.286311 0.096087 0.084157
0.349667 0.099682 0.084157
0.416787 0.105702 0.084157
0.466203 0.112992 0.084157
0.524152 0.121136 0.084157
0.574018 0.134550 0.084157
0.623961 0.154871 0.084157
0.673858 0.183218 0.084157
0.729312 0.218360 0.084157
0.767914 0.260006 0.084157
0.798083 0.300669 0.084157
0.823729 0.356129 0.084157
0.849062 0.399396 0.084157
0.872771 0.449960 0.084157
0.896313 0.487279 0.084157
0.912445 0.524768 0.084208
0.922933 0.565896 0.084280
0.931334 0.607481 0.084350
0.942612 0.638740 0.084417
0.949315 0.669569 0.084496
0.955851 0.698631 0.084584
0.100571 0.091233 0.084157
0.100571 0.091250 0.084157
0.100571 0.091311 0.084157
0.100571 0.091421 0.084157
0.101017 0.091605 0.084157
0.102815 0.091869 0.084157
0.106520 0.092190 0.084157
0.114913 0.092561 0.084157
0.126398 0.093119 0.084157
0.150170 0.094219 0.084157
0.188990 0.095668 0.084157
0.230385 0.097508 0.084157
0.287330 0.102312 0.084157
0.350675 0.108513 0.084157
0.417558 0.114929 0.084157
0.466911 0.122408 0.084157
0.524796 0.135696 0.084157
0.574635 0.154914 0.084157
0.624536 0.181644 0.084157
0.674442 0.213885 0.084157
0.729844 0.252576 0.084157
0.768045 0.292549 0.084157
0.798313 0.341018 0.084157
0.823945 0.387533 0.084157
0.849265 0.432497 0.084157
0.872953 0.475808 0.084157
0.896485 0.509441 0.084157
0.912535 0.548701 0.084214
0.922990 0.589949 0.084285
0.931387 0.624284 0.084354
0.942654 0.655272 0.084421
0.949354 0.684030 0.084502
0.955888 0.712797 0.084589
0.100571 0.092714 0.084157
0.100571 0.092736 0.084157
0.100571 0.092815 0.084157
0.100574 0.092959 0.084157
0.101104 0.093256 0.084157
0.103026 0.093774 0.084157
0.106741 0.094453 0.084157
0.115325 0.095375 0.084157
0.127096 0.096423 0.084157
0.151030 0.098646 0.084157
0.190205 0.102449 0.084157
0.231451 0.107386 0.084157
0.288514 0.112675 0.084157
0.351847 0.118992 0.084157
0.418454 0.127551 0.084157
0.467734 0.140826 0.084157
0.525543 0.161097 0.084157
0.575352 0.185494 0.084157
0.625204 0.216982 0.084157
0.675119 0.253475 0.084157
0.730274 0.291240 0.084157
0.768197 0.336035 0.084157
0.798582 0.382073 0.084157
0.824196 0.421899 0.084157
0.849500 0.467272 0.084157
0.873164 0.499761 0.084157
0.896684 0.537201 0.084157
0.912640 0.576598 0.084220
0.923056 0.613718 0.084291
0.931449 0.643623 0.084359
0.942703 0.672739 0.084426
0.949400 0.700646 0.084508
0.955931 0.729086 0.084594
0.100571 0.096158 0.084157
0.100571 0.096200 0.084157
0.100571 0.096350 0.084157
0.100591 0.096624 0.084157
0.101200 0.097098 0.084157
0.103262 0.098586 0.084157
0.106990 0.100575 0.084157
0.115500 0.102990 0.084157
0.127890 0.106196 0.084157
0.152011 0.110185 0.084157
0.191482 0.114422 0.084157
0.232668 0.119529 0.084157
0.290424 0.126405 0.084157
0.353185 0.137315 0.084157
0.419477 0.152293 0.084157
0.468673 0.173854 0.084157
0.526396 0.197723 0.084157
0.576170 0.227922 0.084157
0.625966 0.262863 0.084157
0.675893 0.296803 0.084157
0.730765 0.341222 0.084157
0.768371 0.383519 0.084157
0.798888 0.421015 0.084157
0.824483 0.464826 0.084157
0.849769 0.495786 0.084157
0.873405 0.531450 0.084157
0.896911 0.569040 0.084157
0.912760 0.607163 0.084226
0.923132 0.635922 0.084297
0.931519 0.664888 0.084365
0.942758 0.691862 0.084431
0.949452 0.719398 0.084515
0.955980 0.747481 0.084601
0.100571 0.107000 0.084157
0.100571 0.107154 0.084157
0.100571 0.107706 0.084157
0.100609 0.108675 0.084157
0.101304 0.109898 0.084157
0.103521 0.111539 0.084157
0.107265 0.113766 0.084157
0.115695 0.116656 0.084157
0.128781 0.120052 0.084157
0.153115 0.124342 0.084157
0.192744 0.132146 0.084157
0.234041 0.141323 0.084157
0.294422 0.154860 0.084157
0.354695 0.172981 0.084157
0.420630 0.192657 0.084157
0.469731 0.218057 0.084157
0.527358 0.247399 0.084157
0.577093 0.280708 0.084157
0.626825 0.311451 0.084157
0.676764 0.356753 0.084157
0.731318 0.391978 0.084157
0.768566 0.429932 0.084157
0.799233 0.468661 0.084157
0.824806 0.497577 0.084157
0.850073 0.531506 0.084157
0.873677 0.567332 0.084157
0.897167 0.604711 0.084164
0.912895 0.632265 0.084234
0.923217 0.660580 0.084304
0.931784 0.686552 0.084372
0.942821 0.713117 0.084437
0.949511 0.740257 0.084523
0.956035 0.767958 0.084608
0.100571 0.122371 0.084157
0.100571 0.122507 0.084157
0.100571 0.122996 0.084157
0.100627 0.124234 0.084157
0.101424 0.126581 0.084157
0.103801 0.129768 0.084157
0.107836 0.133845 0.084157
0.115909 0.138861 0.084157
0.129770 0.145704 0.084157
0.154344 0.156052 0.084157
0.194151 0.169042 0.084157
0.237363 0.183181 0.084157
0.298922 0.201121 0.084157
0.356379 0.222729 0.084157
0.421914 0.247734 0.084157
0.470911 0.276667 0.084157
0.528429 0.301802 0.084157
0.578096 0.339679 0.084157
0.627783 0.376431 0.084157
0.677736 0.406094 0.084157
0.731935 0.447511 0.084157
0.768784 0.478077 0.084157
0.799617 0.505200 0.084157
0.825166 0.537433 0.084157
0.850411 0.571534 0.084157
0.873980 0.606425 0.084157
0.897453 0.632722 0.084172
0.913045 0.659878 0.084242
0.923312 0.684795 0.084312
0.932099 0.710324 0.084379
0.942891 0.736459 0.084444
0.949576 0.763184 0.084532
0.956096 0.790483 0.084617
0.100571 0.156174 0.084157
0.100571 0.156564 0.084157
0.100571 0.157967 0.084157
0.100646 0.160566 0.084157
0.101661 0.164491 0.084157
0.104102 0.169869 0.084157
0.108476 0.176829 0.084157
0.116589 0.184181 0.084157
0.130857 0.194879 0.084157
0.155699 0.208143 0.084157
0.195705 0.223846 0.084157
0.242289 0.242253 0.084157
0.301298 0.263753 0.084157
0.358240 0.286046 0.084157
0.423333 0.308411 0.084157
0.472213 0.341900 0.084157
0.529611 0.374011 0.084157
0.579198 0.400481 0.084157
0.628840 0.434183 0.084157
0.678809 0.465876 0.084157
0.732615 0.490955 0.084157
0.769024 0.518729 0.084157
0.800041 0.549302 0.084157
0.825563 0.581713 0.084157
0.850784 0.612334 0.084157
0.874314 0.637329 0.084157
0.897768 0.662857 0.084181
0.913211 0.686639 0.084252
0.923417 0.711076 0.084320
0.932448 0.736148 0.084387
0.942968 0.761840 0.084454
0.949648 0.788134 0.084541
0.956164 0.804759 0.084626
0.100571 0.214060 0.084157
0.100571 0.214538 0.084157
0.100575 0.216260 0.084157
0.100791 0.219447 0.084157
0.101909 0.224258 0.084157
0.104436 0.230844 0.084157
0.109163 0.239362 0.084157
0.117555 0.250005 0.084157
0.132042 0.262987 0.084157
0.157248 0.278495 0.084157
0.197407 0.292027 0.084157
0.244919 0.309296 0.084157
0.303319 0.334526 0.084157
0.360282 0.362852 0.084157
0.424886 0.384547 0.084157
0.473639 0.406333 0.084157
0.530907 0.438082 0.084157
0.580405 0.464780 0.084157
0.629998 0.487316 0.084157
0.679986 0.511086 0.084157
0.733361 0.538248 0.084157
0.769287 0.567191 0.084157
0.800506 0.597944 0.084157
0.825998 0.622436 0.084157
0.851159 0.646095 0.084157
0.874681 0.669494 0.084157
0.898113 0.692104 0.084192
0.913393 0.715398 0.084262
0.923532 0.739358 0.084330
0.932830 0.763966 0.084396
0.943052 0.789204 0.084466
0.949727 0.804783 0.084552
0.956238 0.819804 0.084635
0.100571 0.288718 0.084157
0.100571 0.289126 0.084157
0.100603 0.290617 0.084157
0.100970 0.293434 0.084157
0.102166 0.297666 0.084157
0.104819 0.303419 0.084157
0.109897 0.313300 0.084157
0.118595 0.325984 0.084157
0.133325 0.341393 0.084157
0.159203 0.359326 0.084157
0.199259 0.374734 0.084157
0.247146 0.390457 0.084157
0.305521 0.406570 0.084157
0.362506 0.430398 0.084157
0.426577 0.454765 0.084157
0.475191 0.475452 0.084157
0.532317 0.492874 0.084157
0.581719 0.514399 0.084157
0.631259 0.538261 0.084157
0.681266 0.563847 0.084157
0.734172 0.591186 0.084157
0.769573 0.615339 0.084157
0.801012 0.636697 0.084157
0.826472 0.658997 0.084157
0.851458 0.679775 0.084157
0.875080 0.701177 0.084157
0.898472 0.723290 0.084203
0.913591 0.746097 0.084272
0.923657 0.769578 0.084340
0.933246 0.793716 0.084405
0.943144 0.806747 0.084478
0.949814 0.821152 0.084563
0.956319 0.835715 0.084646
0.100571 0.376688 0.084157
0.100577 0.377113 0.084157
0.100629 0.378638 0.084157
0.101149 0.381450 0.084157
0.102430 0.385667 0.084157
0.105219 0.391386 0.084157
0.110675 0.398366 0.084157
0.119714 0.406112 0.084157
0.134705 0.417257 0.084157
0.161320 0.434360 0.084157
0.201264 0.450754 0.084157
0.249559 0.464788 0.084157
0.307906 0.479350 0.084157
0.364916 0.492805 0.084157
0.428326 0.509571 0.084157
0.476871 0.528598 0.084157
0.533842 0.549262 0.084157
0.583141 0.571592 0.084157
0.632624 0.595621 0.084157
0.682652 0.616084 0.084157
0.735049 0.635086 0.084157
0.769882 0.655059 0.084157
0.801559 0.674233 0.084157
0.826985 0.693648 0.084157
0.851842 0.713817 0.084157
0.875511 0.734721 0.084157
0.898764 0.756343 0.084216
0.913805 0.778664 0.084284
0.923792 0.798152 0.084350
0.933697 0.810644 0.084415
0.943244 0.824390 0.084491
0.949907 0.838323 0.084575
0.956407 0.852428 0.084657
0.100594 0.457321 0.084157
0.100608 0.457702 0.084157
0.100698 0.459068 0.084157
0.101329 0.461585 0.084157
0.102819 0.465353 0.084157
0.105635 0.470451 0.084157
0.111495 0.476590 0.084157
0.121024 0.482742 0.084157
0.136237 0.490034 0.084157
0.163933 0.498873 0.084157
0.203422 0.510311 0.084157
0.252162 0.523228 0.084157
0.310477 0.537659 0.084157
0.367513 0.553637 0.084157
0.430204 0.571197 0.084157
0.478679 0.590368 0.084157
0.535483 0.608979 0.084157
0.584671 0.624605 0.084157
0.634092 0.641230 0.084157
0.684145 0.658845 0.084157
0.735994 0.675521 0.084157
0.770215 0.692882 0.084157
0.802147 0.711033 0.084157
0.827536 0.729957 0.084157
0.852336 0.749636 0.084157
0.875976 0.770053 0.084162
0.899079 0.791191 0.084229
0.914035 0.803625 0.084296
0.923938 0.816445 0.084362
0.934182 0.829497 0.084426
0.943351 0.842763 0.084504
0.950007 0.856229 0.084588
0.956501 0.869882 0.084669
0.100625 0.520853 0.084157
0.100638 0.521203 0.084157
0.100929 0.522462 0.084157
0.101613 0.524778 0.084157
0.103313 0.528244 0.084157
0.106182 0.532930 0.084157
0.112353 0.538895 0.084157
0.122413 0.546187 0.084157
0.137989 0.554853 0.084157
0.166782 0.564933 0.084157
0.205962 0.576466 0.084157
0.254957 0.589488 0.084157
0.313237 0.603976 0.084157
0.370301 0.615220 0.084157
0.432217 0.627474 0.084157
0.480972 0.640735 0.084157
0.537242 0.654998 0.084157
0.586311 0.669134 0.084157
0.635667 0.683577 0.084157
0.685745 0.698850 0.084157
0.737005 0.714940 0.084157
0.770571 0.731832 0.084157
0.802778 0.749509 0.084157
0.828128 0.767957 0.084157
0.852866 0.787160 0.084157
0.876474 0.800546 0.084176
0.899416 0.812025 0.084243
0.914283 0.824099 0.084309
0.924094 0.836431 0.084374
0.934666 0.849003 0.084437
0.943466 0.861801 0.084519
0.950115 0.873858 0.084602
0.956602 0.882477 0.084682
0.100697 0.591678 0.084157
0.100804 0.592031 0.084157
0.101152 0.593301 0.084157
0.101974 0.595637 0.084157
0.103815 0.599133 0.084157
0.106749 0.603853 0.084157
0.113477 0.608063 0.084157
0.123462 0.613194 0.084157
0.140216 0.619267 0.084157
0.169833 0.626298 0.084157
0.208677 0.634301 0.084157
0.257946 0.643284 0.084157
0.316187 0.653254 0.084157
0.373286 0.663752 0.084157
0.434365 0.674389 0.084157
0.483529 0.685884 0.084157
0.539120 0.698230 0.084157
0.588062 0.711418 0.084157
0.637348 0.725438 0.084157
0.687453 0.740278 0.084157
0.738085 0.755925 0.084157
0.770924 0.772367 0.084157
0.803451 0.789590 0.084157
0.828758 0.800756 0.084157
0.853431 0.811204 0.084157
0.877005 0.822222 0.084190
0.899777 0.833537 0.084258
0.914546 0.845133 0.084323
0.924261 0.856992 0.084387
0.935023 0.869101 0.084451
0.943588 0.878426 0.084534
0.950230 0.885887 0.084616
0.956710 0.893125 0.084696
0.100958 0.647970 0.084157
0.101054 0.648213 0.084157
0.101369 0.649083 0.084157
0.102332 0.650683 0.084157
0.104321 0.653075 0.084157
0.107376 0.656302 0.084157
0.114771 0.660353 0.084157
0.124021 0.664802 0.084157
0.142583 0.670065 0.084157
0.173089 0.676155 0.084157
0.211570 0.683081 0.084157
0.261131 0.690849 0.084157
0.319330 0.699461 0.084157
0.377830 0.708919 0.084157
0.436648 0.719220 0.084157
0.486251 0.730361 0.084157
0.541116 0.742336 0.084157
0.589923 0.755137 0.084157
0.639136 0.768757 0.084157
0.689271 0.783185 0.084157
0.739233 0.796712 0.084157
0.771270 0.804420 0.084157
0.804167 0.813979 0.084157
0.829429 0.823886 0.084157
0.854031 0.834123 0.084157
0.877571 0.844676 0.084207
0.900160 0.855528 0.084273
0.914827 0.866664 0.084337
0.924438 0.876104 0.084400
0.935404 0.883454 0.084468
0.943719 0.890215 0.084551
0.950352 0.896940 0.084631
0.956825 0.903272 0.084722
0.101206 0.697670 0.084157
0.101293 0.697879 0.084157
0.101762 0.698629 0.084157
0.102793 0.700009 0.084157
0.104902 0.702070 0.084157
0.108540 0.704850 0.084157
0.115565 0.708379 0.084157
0.125277 0.712678 0.084157
0.145084 0.717765 0.084157
0.176554 0.723653 0.084157
0.214640 0.730353 0.084157
0.264517 0.737871 0.084157
0.322667 0.746211 0.084157
0.382674 0.755375 0.084157
0.439068 0.765363 0.084157
0.489139 0.776172 0.084157
0.543232 0.787797 0.084157
0.591897 0.797519 0.084157
0.641031 0.803878 0.084157
0.691199 0.811882 0.084157
0.740450 0.820272 0.084157
0.771636 0.829035 0.084157
0.804925 0.838157 0.084157
0.830141 0.847623 0.084157
0.854668 0.857419 0.084161
0.878170 0.867530 0.084224
0.900566 0.876015 0.084289
0.915124 0.882832 0.084352
0.924626 0.889069 0.084414
0.935807 0.895420 0.084486
0.943857 0.901332 0.084568
0.950482 0.907314 0.084647
0.956947 0.913372 0.084761
0.101484 0.747182 0.084157
0.101644 0.747384 0.084157
0.102179 0.748110 0.084157
0.103424 0.749443 0.084157
0.105486 0.751437 0.084157
0.109731 0.754126 0.084157
0.116119 0.757539 0.084157
0.127405 0.761699 0.084157
0.147720 0.766623 0.084157
0.180229 0.772325 0.084157
0.217890 0.778815 0.084157
0.268103 0.786101 0.084157
0.326201 0.794187 0.084157
0.387824 0.798774 0.084157
0.441625 0.803475 0.084157
0.492195 0.809467 0.084157
0.545469 0.815881 0.084157
0.593982 0.822705 0.084157
0.643035 0.829931 0.084157
0.693238 0.837547 0.084157
0.741736 0.845540 0.084157
0.772158 0.853899 0.084157
0.805727 0.862611 0.084157
0.830892 0.871663 0.084157
0.855342 0.878150 0.084178
0.878804 0.884026 0.084242
0.900995 0.889702 0.084306
0.915439 0.895514 0.084368
0.924825 0.900946 0.084429
0.936234 0.906475 0.084505
0.944003 0.912100 0.084585
0.950619 0.917814 0.084664
0.957076 0.923609 0.084802
0.101948 0.796430 0.084157
0.102094 0.796517 0.084157
0.102612 0.796827 0.084157
0.104047 0.797399 0.084157
0.106189 0.798251 0.084157
0.110945 0.799400 0.084157
0.117903 0.800855 0.084157
0.129625 0.802939 0.084157
0.150490 0.805669 0.084157
0.184119 0.808823 0.084157
0.221322 0.812403 0.084157
0.271894 0.816410 0.084157
0.329946 0.820843 0.084157
0.393286 0.825697 0.084157
0.444319 0.830971 0.084157
0.495420 0.836656 0.084157
0.547826 0.842747 0.084157
0.596181 0.849235 0.084157
0.645148 0.856112 0.084157
0.695389 0.863367 0.084157
0.743091 0.870991 0.084157
0.773508 0.876726 0.084157
0.806571 0.882069 0.084157
0.831684 0.887000 0.084157
0.856051 0.892092 0.084197
0.879472 0.897188 0.084261
0.901447 0.902113 0.084323
0.915770 0.907160 0.084384
0.925034 0.912321 0.084444
0.936683 0.917588 0.084525
0.944157 0.922955 0.084604
0.950764 0.927768 0.084681
0.957212 0.930940 0.084844
0.102394 0.824257 0.084157
0.102527 0.824364 0.084157
0.103323 0.824746 0.084157
0.104709 0.825450 0.084157
0.106940 0.826500 0.084157
0.112181 0.827916 0.084157
0.119752 0.829711 0.084157
0.131937 0.831896 0.084157
0.153394 0.834478 0.084157
0.188226 0.837463 0.084157
0.224936 0.840853 0.084157
0.275891 0.844649 0.084157
0.333908 0.848852 0.084157
0.399066 0.853458 0.084157
0.447152 0.858465 0.084157
0.498816 0.863869 0.084157
0.550304 0.869662 0.084157
0.598493 0.874568 0.084157
0.647370 0.879079 0.084157
0.697652 0.883217 0.084157
0.744516 0.887357 0.084157
0.774927 0.891681 0.084157
0.807459 0.896130 0.084157
0.832517 0.900394 0.084158
0.856798 0.904803 0.084218
0.880175 0.909348 0.084280
0.901923 0.914023 0.084341
0.916119 0.918820 0.084401
0.925255 0.923732 0.084466
0.937157 0.927963 0.084545
0.944319 0.930893 0.084623
0.950916 0.933871 0.084700
0.957355 0.935495 0.084888
0.103041 0.853479 0.084157
0.103263 0.853580 0.084157
0.104018 0.853942 0.084157
0.105400 0.854608 0.084157
0.108081 0.855602 0.084157
0.113734 0.856943 0.084157
0.121849 0.858644 0.084157
0.134337 0.860714 0.084157
0.156432 0.863162 0.084157
0.192253 0.865992 0.084157
0.228733 0.869208 0.084157
0.280096 0.872481 0.084157
0.338073 0.875232 0.084157
0.403615 0.878246 0.084157
0.450122 0.881296 0.084157
0.502383 0.884227 0.084157
0.552904 0.887365 0.084157
0.600919 0.890705 0.084157
0.649702 0.894240 0.084157
0.700027 0.897761 0.084157
0.746010 0.901333 0.084157
0.776416 0.905066 0.084157
0.808390 0.908953 0.084157
0.833391 0.912989 0.084178
0.857581 0.917166 0.084239
0.880912 0.921479 0.084300
0.902422 0.925920 0.084360
0.916485 0.928953 0.084418
0.925486 0.931628 0.084488
0.937654 0.934360 0.084566
0.944490 0.935599 0.084643
0.951075 0.938174 0.084744
0.957505 0.941489 0.084933
0.103790 0.879173 0.084157
0.103994 0.879239 0.084157
0.104748 0.879475 0.084157
0.106203 0.879909 0.084157
0.109555 0.880496 0.084157
0.115365 0.881222 0.084157
0.123508 0.882143 0.084157
0.136953 0.883264 0.084157
0.160187 0.884588 0.084157
0.195908 0.886117 0.084157
0.232712 0.887854 0.084157
0.284511 0.889797 0.084157
0.342445 0.891948 0.084157
0.406991 0.894303 0.084157
0.453231 0.896753 0.084157
0.506123 0.899273 0.084157
0.555625 0.901973 0.084157
0.603458 0.904847 0.084157
0.651775 0.907893 0.084157
0.702515 0.911104 0.084157
0.747573 0.914477 0.084157
0.777976 0.918006 0.084157
0.809364 0.921685 0.084157
0.834305 0.925509 0.084200
