ektachrome100d/Ektachrome100D_Classic_ExtraSoft.cube
TITLE "Kodak Ektachrome 100D Classic ExtraSoft"
# Adobe RGB in/out. REPLACES AgX. Kodak Ektachrome 100D Classic ExtraSoft.
LUT_3D_SIZE 9
DOMAIN_MIN 0.0 0.0 0.0
DOMAIN_MAX 1.0 1.0 1.0
0.068222 0.081187 0.086406
0.068269 0.081187 0.086406
0.080876 0.081192 0.086406
0.236610 0.081355 0.086406
0.529495 0.084489 0.086406
0.768910 0.113709 0.086406
0.900374 0.273081 0.086406
0.960670 0.504045 0.086431
0.982270 0.700270 0.086488
0.068222 0.081188 0.086406
0.068297 0.081189 0.086406
0.081145 0.081203 0.086406
0.237671 0.081639 0.086406
0.530274 0.087916 0.086406
0.769373 0.127698 0.086406
0.900528 0.309273 0.086406
0.960701 0.531370 0.086432
0.982282 0.716116 0.086489
0.068222 0.081454 0.086406
0.068393 0.081574 0.086406
0.082136 0.082528 0.086406
0.241497 0.087981 0.086406
0.533070 0.110909 0.086406
0.771004 0.224548 0.086406
0.900881 0.429691 0.086406
0.960814 0.622135 0.086435
0.982326 0.767616 0.086492
0.068222 0.102247 0.086406
0.068549 0.104513 0.086406
0.084028 0.118583 0.086406
0.255872 0.172607 0.086406
0.538214 0.279557 0.086406
0.773007 0.446627 0.086406
0.901529 0.601136 0.086406
0.961021 0.735760 0.086440
0.982407 0.837471 0.086497
0.068222 0.364759 0.086406
0.068934 0.373984 0.086406
0.087171 0.410550 0.086406
0.267205 0.482185 0.086406
0.545904 0.575813 0.086406
0.775989 0.674551 0.086406
0.902546 0.768585 0.086406
0.961330 0.844242 0.086447
0.982527 0.907939 0.086504
0.068370 0.690605 0.086406
0.069653 0.696900 0.086406
0.092398 0.717682 0.086406
0.282136 0.753815 0.086406
0.556286 0.795643 0.086406
0.779994 0.842408 0.086406
0.904386 0.890279 0.086406
0.961745 0.926223 0.086456
0.982690 0.952041 0.086516
0.068920 0.877611 0.086406
0.070879 0.880488 0.086406
0.100808 0.890735 0.086406
0.301176 0.905375 0.086406
0.569478 0.920247 0.086406
0.785047 0.937817 0.086406
0.906711 0.952920 0.086420
0.962270 0.963742 0.086469
0.982895 0.974059 0.086547
0.070042 0.956145 0.086406
0.073626 0.956675 0.086406
0.114635 0.958559 0.086406
0.323977 0.961951 0.086406
0.583724 0.966852 0.086406
0.791160 0.973129 0.086406
0.909526 0.978364 0.086439
0.962907 0.981873 0.086486
0.983145 0.985294 0.086582
0.072825 0.981287 0.086406
0.077929 0.981434 0.086406
0.137012 0.981956 0.086406
0.352000 0.982900 0.086406
0.599502 0.984272 0.086406
0.799384 0.986057 0.086414
0.912834 0.988220 0.086456
0.963655 0.989924 0.086505
0.983439 0.991277 0.086636
0.068222 0.081187 0.086406
0.068269 0.081187 0.086406
0.080876 0.081192 0.086406
0.236610 0.081359 0.086406
0.529495 0.084546 0.086406
0.768910 0.113993 0.086406
0.900374 0.273750 0.086446
0.960670 0.504695 0.086494
0.982270 0.700682 0.086599
0.068222 0.081188 0.086406
0.068297 0.081190 0.086406
0.081145 0.081204 0.086406
0.237671 0.081658 0.086406
0.530274 0.088001 0.086406
0.769373 0.128092 0.086406
0.900528 0.310254 0.086447
0.960701 0.532025 0.086495
0.982282 0.716481 0.086601
0.068222 0.081462 0.086406
0.068393 0.081583 0.086406
0.082136 0.082558 0.086406
0.241497 0.088068 0.086406
0.533070 0.111191 0.086406
0.771004 0.225313 0.086406
0.900881 0.430753 0.086450
0.960814 0.622698 0.086498
0.982326 0.767890 0.086607
0.068222 0.102381 0.086406
0.068549 0.104669 0.086406
0.084028 0.118899 0.086406
0.255872 0.173263 0.086406
0.538214 0.280235 0.086406
0.773007 0.447198 0.086411
0.901529 0.601697 0.086454
0.961021 0.736122 0.086503
0.982407 0.837655 0.086625
0.068222 0.365368 0.086406
0.068934 0.374598 0.086406
0.087171 0.411584 0.086406
0.267205 0.482731 0.086406
0.545904 0.576371 0.086406
0.775989 0.674975 0.086421
0.902546 0.768860 0.086461
0.961330 0.844395 0.086510
0.982527 0.908040 0.086659
0.068370 0.691027 0.086406
0.069653 0.697313 0.086406
0.092398 0.718047 0.086406
0.282136 0.754174 0.086406
0.556286 0.795911 0.086406
0.779994 0.842562 0.086434
0.904386 0.890467 0.086471
0.961745 0.926318 0.086531
0.982690 0.952077 0.086703
0.068920 0.877802 0.086406
0.070879 0.880678 0.086406
0.100808 0.890923 0.086406
0.301176 0.905477 0.086406
0.569478 0.920344 0.086411
0.785047 0.937893 0.086447
0.906711 0.952956 0.086485
0.962270 0.963775 0.086561
0.982895 0.974071 0.086756
0.070042 0.956180 0.086406
0.073626 0.956710 0.086406
0.114635 0.958594 0.086406
0.323977 0.961984 0.086406
0.583724 0.966884 0.086432
0.791160 0.973142 0.086461
0.909526 0.978377 0.086502
0.962907 0.981883 0.086596
0.983145 0.985302 0.086841
0.072825 0.981297 0.086406
0.077929 0.981443 0.086406
0.137012 0.981966 0.086407
0.352000 0.982909 0.086427
0.599502 0.984281 0.086450
0.799384 0.986065 0.086481
0.912834 0.988228 0.086531
0.963655 0.989928 0.086663
0.983439 0.991280 0.086994
0.068222 0.081187 0.086607
0.068269 0.081187 0.086613
0.080876 0.081193 0.086650
0.236610 0.081375 0.086715
0.529495 0.084752 0.086819
0.768910 0.115013 0.087093
0.900374 0.276165 0.087607
0.960670 0.507034 0.088785
0.982270 0.702162 0.091569
0.068222 0.081188 0.086608
0.068297 0.081190 0.086616
0.081145 0.081205 0.086653
0.237671 0.081727 0.086718
0.530274 0.088319 0.086824
0.769373 0.129513 0.087094
0.900528 0.313791 0.087618
0.960701 0.534382 0.088818
0.982282 0.717793 0.091637
0.068222 0.081489 0.086618
0.068393 0.081651 0.086629
0.082136 0.082663 0.086665
0.241497 0.088387 0.086730
0.533070 0.112206 0.086844
0.771004 0.228080 0.087099
0.900881 0.434580 0.087658
0.960814 0.624724 0.088934
0.982326 0.768877 0.091879
0.068222 0.102879 0.086641
0.068549 0.105225 0.086651
0.084028 0.120175 0.086687
0.255872 0.175553 0.086751
0.538214 0.282827 0.086880
0.773007 0.449254 0.087151
0.901529 0.603713 0.087729
0.961021 0.737423 0.089146
0.982407 0.838314 0.092335
0.068222 0.367558 0.086674
0.068934 0.376806 0.086684
0.087171 0.415312 0.086719
0.267205 0.484694 0.086781
0.545904 0.578375 0.086932
0.775989 0.676498 0.087267
0.902546 0.769845 0.087835
0.961330 0.844946 0.089461
0.982527 0.908404 0.093099
0.068370 0.692545 0.086717
0.069653 0.698794 0.086727
0.092398 0.719357 0.086761
0.282136 0.755466 0.086844
0.556286 0.796873 0.087052
0.779994 0.843115 0.087420
0.904386 0.891142 0.088008
0.961745 0.926661 0.089880
0.982690 0.952208 0.094142
0.068920 0.878488 0.086770
0.070879 0.881361 0.086780
0.100808 0.891597 0.086828
0.301176 0.905843 0.086935
0.569478 0.920694 0.087151
0.785047 0.938167 0.087609
0.906711 0.953086 0.088475
0.962270 0.963894 0.090403
0.982895 0.974115 0.095457
0.070042 0.956307 0.086866
0.073626 0.956836 0.086882
0.114635 0.958718 0.086939
0.323977 0.962105 0.087096
0.583724 0.967000 0.087391
0.791160 0.973187 0.087833
0.909526 0.978424 0.089094
0.962907 0.981917 0.091425
0.983145 0.985334 0.097046
0.072825 0.981332 0.087040
0.077929 0.981478 0.087070
0.137012 0.982000 0.087102
0.352000 0.982943 0.087332
0.599502 0.984314 0.087665
0.799384 0.986096 0.088315
0.912834 0.988258 0.089873
0.963655 0.989941 0.093210
0.983439 0.991293 0.098909
0.068222 0.081187 0.122931
0.068269 0.081187 0.123563
0.080876 0.081195 0.125845
0.236610 0.081403 0.131711
0.529495 0.085236 0.142127
0.768910 0.116897 0.161086
0.900374 0.280635 0.188512
0.960670 0.511346 0.218326
0.982270 0.704883 0.259528
0.068222 0.081189 0.123140
0.068297 0.081192 0.123773
0.081145 0.081207 0.126057
0.237671 0.081850 0.132048
0.530274 0.088901 0.142553
0.769373 0.132143 0.161691
0.900528 0.320365 0.188959
0.960701 0.538727 0.218841
0.982282 0.720204 0.260129
0.068222 0.081539 0.123894
0.068393 0.081776 0.124529
0.082136 0.082853 0.126817
0.241497 0.088968 0.133263
0.533070 0.114079 0.144090
0.771004 0.233479 0.163880
0.900881 0.440643 0.190573
0.960814 0.628453 0.220700
0.982326 0.770690 0.262294
0.068222 0.103909 0.125286
0.068549 0.106412 0.125923
0.084028 0.122535 0.128788
0.255872 0.179813 0.135515
0.538214 0.289066 0.146947
0.773007 0.453042 0.167964
0.901529 0.607425 0.193569
0.961021 0.739814 0.224147
0.982407 0.839524 0.266309
0.068222 0.371599 0.127474
0.068934 0.380879 0.128473
0.087171 0.422221 0.132098
0.267205 0.488310 0.138926
0.545904 0.582065 0.151291
0.775989 0.679299 0.173838
0.902546 0.771656 0.198105
0.961330 0.845957 0.229381
0.982527 0.909071 0.272387
0.068370 0.695296 0.131932
0.069653 0.701517 0.132951
0.092398 0.721767 0.136651
0.282136 0.757839 0.144103
0.556286 0.798642 0.157575
0.779994 0.844130 0.180356
0.904386 0.892381 0.204336
0.961745 0.927292 0.236652
0.982690 0.952448 0.280803
0.068920 0.879748 0.137734
0.070879 0.882617 0.138779
0.100808 0.892836 0.142841
0.301176 0.906516 0.151524
0.569478 0.921336 0.167924
0.785047 0.938670 0.188592
0.906711 0.953325 0.212609
0.962270 0.964112 0.246110
0.982895 0.974196 0.291757
0.070042 0.956539 0.145810
0.073626 0.957067 0.147120
0.114635 0.958945 0.151889
0.323977 0.962326 0.162341
0.583724 0.967212 0.179098
0.791160 0.973269 0.198036
0.909526 0.978510 0.223295
0.962907 0.981981 0.258242
0.983145 0.985392 0.305659
0.072825 0.981396 0.156849
0.077929 0.981542 0.158644
0.137012 0.982063 0.165221
0.352000 0.983004 0.176563
0.599502 0.984373 0.190883
0.799384 0.986154 0.209653
0.912834 0.988312 0.236526
0.963655 0.989966 0.273261
0.983439 0.991316 0.322965
0.068222 0.081187 0.604563
0.068269 0.081187 0.605919
0.080876 0.081197 0.610799
0.236610 0.081443 0.617908
0.529495 0.086121 0.626918
0.768910 0.119961 0.638949
0.900374 0.289326 0.650798
0.960670 0.517815 0.665424
0.982270 0.708558 0.687735
0.068222 0.081190 0.605012
0.068297 0.081194 0.606369
0.081145 0.081222 0.611249
0.237671 0.082029 0.618210
0.530274 0.090455 0.627220
0.769373 0.136769 0.639181
0.900528 0.330378 0.651028
0.960701 0.545245 0.665725
0.982282 0.723806 0.688034
0.068222 0.081678 0.606628
0.068393 0.081958 0.607986
0.082136 0.083133 0.612869
0.241497 0.090581 0.619296
0.533070 0.116894 0.628304
0.771004 0.241697 0.640015
0.900881 0.447529 0.651854
0.960814 0.632850 0.666805
0.982326 0.773396 0.689110
0.068222 0.105442 0.609604
0.068549 0.109183 0.610963
0.084028 0.126298 0.615265
0.255872 0.186294 0.621294
0.538214 0.298557 0.630297
0.773007 0.458720 0.641547
0.901529 0.612983 0.653373
0.961021 0.743387 0.668792
0.982407 0.841198 0.691088
0.068222 0.377670 0.614061
0.068934 0.386998 0.614977
0.087171 0.432680 0.618255
0.267205 0.493726 0.624281
0.545904 0.587590 0.633277
0.775989 0.683486 0.643837
0.902546 0.774360 0.655642
0.961330 0.847465 0.671763
0.982527 0.910066 0.694046
0.068370 0.699373 0.618106
0.069653 0.705561 0.619018
0.092398 0.725366 0.622294
0.282136 0.760764 0.628313
0.556286 0.801282 0.637301
0.779994 0.845644 0.646924
0.904386 0.894232 0.658702
0.961745 0.928233 0.675774
0.982690 0.952806 0.698041
0.068920 0.881628 0.623242
0.070879 0.884490 0.624153
0.100808 0.894686 0.627424
0.301176 0.907519 0.633436
0.569478 0.922295 0.641532
0.785047 0.939421 0.650839
0.906711 0.953680 0.662583
0.962270 0.964437 0.680871
0.982895 0.974317 0.703025
0.070042 0.956885 0.629507
0.073626 0.957412 0.630417
0.114635 0.959284 0.633683
0.323977 0.962656 0.639429
0.583724 0.967529 0.646334
0.791160 0.973393 0.655608
0.909526 0.978637 0.668303
0.962907 0.982075 0.687092
0.983145 0.985479 0.709053
0.072825 0.981492 0.636933
0.077929 0.981638 0.637841
0.137012 0.982157 0.640521
0.352000 0.983096 0.645137
0.599502 0.984462 0.652012
0.799384 0.986239 0.661246
0.912834 0.988393 0.675705
0.963655 0.990003 0.694468
0.983439 0.991351 0.716199
0.068222 0.081187 0.852717
0.068269 0.081188 0.853091
0.080876 0.081201 0.854430
0.236610 0.081544 0.856885
0.529495 0.087289 0.860541
0.768910 0.124836 0.865445
0.900374 0.302173 0.871626
0.960670 0.526589 0.879094
0.982270 0.713448 0.887844
0.068222 0.081194 0.852841
0.068297 0.081198 0.853214
0.081145 0.081263 0.854553
0.237671 0.082259 0.857008
0.530274 0.092591 0.860663
0.769373 0.144044 0.865566
0.900528 0.343919 0.871746
0.960701 0.554088 0.879212
0.982282 0.728665 0.887961
0.068222 0.081927 0.853286
0.068393 0.082192 0.853658
0.082136 0.083576 0.854996
0.241497 0.092692 0.857450
0.533070 0.121194 0.861101
0.771004 0.253117 0.866001
0.900881 0.455185 0.872177
0.960814 0.638561 0.879638
0.982326 0.777043 0.888380
0.068222 0.108697 0.854102
0.068549 0.112953 0.854475
0.084028 0.131582 0.855811
0.255872 0.195291 0.858261
0.538214 0.311543 0.861908
0.773007 0.466415 0.866801
0.901529 0.620505 0.872968
0.961021 0.748206 0.880420
0.982407 0.843256 0.889152
0.068222 0.385924 0.855322
0.068934 0.395316 0.855694
0.087171 0.444718 0.857027
0.267205 0.501060 0.859472
0.545904 0.595068 0.863112
0.775989 0.689138 0.867995
0.902546 0.778004 0.874151
0.961330 0.849760 0.881588
0.982527 0.911407 0.890304
0.068370 0.704876 0.856966
0.069653 0.710457 0.857337
0.092398 0.730222 0.858666
0.282136 0.764452 0.861105
0.556286 0.804841 0.864735
0.779994 0.847683 0.869606
0.904386 0.896725 0.875745
0.961745 0.929501 0.883164
0.982690 0.953289 0.891857
0.068920 0.884163 0.859051
0.070879 0.887015 0.859420
0.100808 0.897178 0.860745
0.301176 0.908870 0.863176
0.569478 0.923586 0.866793
0.785047 0.940432 0.871648
0.906711 0.954159 0.877767
0.962270 0.964875 0.885161
0.982895 0.974480 0.893827
0.070042 0.957351 0.861588
0.073626 0.957876 0.861956
0.114635 0.959742 0.863275
0.323977 0.963100 0.865696
0.583724 0.967956 0.869298
0.791160 0.973559 0.874133
0.909526 0.978810 0.880228
0.962907 0.982202 0.887593
0.983145 0.985596 0.896226
0.072825 0.981621 0.864586
0.077929 0.981766 0.864952
0.137012 0.982284 0.866265
0.352000 0.983221 0.868674
0.599502 0.984583 0.872259
0.799384 0.986354 0.877071
0.912834 0.988502 0.883137
0.963655 0.990053 0.890468
0.983439 0.991398 0.899061
0.068222 0.081188 0.955087
0.068269 0.081191 0.955157
0.080876 0.081206 0.955405
0.236610 0.081823 0.955860
0.529495 0.088768 0.956491
0.768910 0.131540 0.957121
0.900374 0.318855 0.957915
0.960670 0.537734 0.958873
0.982270 0.719653 0.959994
0.068222 0.081198 0.955110
0.068297 0.081203 0.955180
0.081145 0.081326 0.955428
0.237671 0.082564 0.955883
0.530274 0.094803 0.956507
0.769373 0.154126 0.957136
0.900528 0.357825 0.957930
0.960701 0.565393 0.958888
0.982282 0.734830 0.960009
0.068222 0.082224 0.955193
0.068393 0.082473 0.955262
0.082136 0.084153 0.955510
0.241497 0.094902 0.955965
0.533070 0.127617 0.956563
0.771004 0.264325 0.957192
0.900881 0.464963 0.957985
0.960814 0.645815 0.958942
0.982326 0.781664 0.960062
0.068222 0.113492 0.955344
0.068549 0.117790 0.955413
0.084028 0.139499 0.955661
0.255872 0.207122 0.956116
0.538214 0.328543 0.956666
0.773007 0.476242 0.957295
0.901529 0.629860 0.958087
0.961021 0.754323 0.959043
0.982407 0.845860 0.960161
0.068222 0.396526 0.955570
0.068934 0.407693 0.955639
0.087171 0.454448 0.955887
0.267205 0.511440 0.956340
0.545904 0.604598 0.956821
0.775989 0.696253 0.957448
0.902546 0.782621 0.958239
0.961330 0.853120 0.959192
0.982527 0.913103 0.960309
0.068370 0.711153 0.955875
0.069653 0.716670 0.955944
0.092398 0.736384 0.956191
0.282136 0.769125 0.956563
0.556286 0.809352 0.957030
0.779994 0.850763 0.957655
0.904386 0.899886 0.958443
0.961745 0.930993 0.959394
0.982690 0.953900 0.960508
0.068920 0.887374 0.956262
0.070879 0.890215 0.956331
0.100808 0.900337 0.956517
0.301176 0.910580 0.956829
0.569478 0.925220 0.957294
0.785047 0.941712 0.957917
0.906711 0.954766 0.958702
0.962270 0.965429 0.959650
0.982895 0.974958 0.960760
0.070042 0.957942 0.956625
0.073626 0.958464 0.956673
0.114635 0.960320 0.956842
0.323977 0.963663 0.957153
0.583724 0.968496 0.957616
0.791160 0.973769 0.958236
0.909526 0.979028 0.959018
0.962907 0.982364 0.959962
0.983145 0.985745 0.961066
0.072825 0.981785 0.957011
0.077929 0.981929 0.957058
0.137012 0.982445 0.957226
0.352000 0.983378 0.957536
0.599502 0.984735 0.957996
0.799384 0.986500 0.958613
0.912834 0.988641 0.959391
0.963655 0.990117 0.960330
0.983439 0.991457 0.961429
0.068222 0.081193 0.980691
0.068269 0.081196 0.980710
0.080876 0.081251 0.980781
0.236610 0.082192 0.980912
0.529495 0.091984 0.981106
0.768910 0.141267 0.981337
0.900374 0.340078 0.981630
0.960670 0.551438 0.981983
0.982270 0.727212 0.982399
0.068222 0.081204 0.980697
0.068297 0.081212 0.980717
0.081145 0.081415 0.980788
0.237671 0.083163 0.980918
0.530274 0.097451 0.981111
0.769373 0.170180 0.981343
0.900528 0.370742 0.981635
0.960701 0.578511 0.981989
0.982282 0.742341 0.982405
0.068222 0.082614 0.980721
0.068393 0.083044 0.980740
0.082136 0.085575 0.980811
0.241497 0.097548 0.980942
0.533070 0.136514 0.981132
0.771004 0.278119 0.981363
0.900881 0.476966 0.981656
0.960814 0.654661 0.982009
0.982326 0.787284 0.982425
0.068222 0.119573 0.980764
0.068549 0.125085 0.980784
0.084028 0.151805 0.980855
0.255872 0.222506 0.980985
0.538214 0.349356 0.981170
0.773007 0.487785 0.981401
0.901529 0.638736 0.981693
0.961021 0.761064 0.982046
0.982407 0.849142 0.982461
0.068222 0.413551 0.980829
0.068934 0.429385 0.980848
0.087171 0.466395 0.980919
0.267205 0.525050 0.981049
0.545904 0.616269 0.981227
0.775989 0.704807 0.981458
0.902546 0.788236 0.981749
0.961330 0.857203 0.982102
0.982527 0.915164 0.982516
0.068370 0.718739 0.980916
0.069653 0.724239 0.980936
0.092398 0.743890 0.981006
0.282136 0.774808 0.981132
0.556286 0.814840 0.981304
0.779994 0.854859 0.981534
0.904386 0.902302 0.981825
0.961745 0.932614 0.982177
0.982690 0.954642 0.982590
0.068920 0.891280 0.981027
0.070879 0.894106 0.981046
0.100808 0.902553 0.981115
0.301176 0.912657 0.981230
0.569478 0.927206 0.981401
0.785047 0.943268 0.981631
0.906711 0.955503 0.981921
0.962270 0.966104 0.982272
0.982895 0.975665 0.982684
0.070042 0.958659 0.981155
0.073626 0.959178 0.981172
0.114635 0.961024 0.981235
0.323977 0.964347 0.981349
0.583724 0.969154 0.981519
0.791160 0.974025 0.981748
0.909526 0.979294 0.982037
0.962907 0.982560 0.982387
0.983145 0.985926 0.982798
0.072825 0.981984 0.981297
0.077929 0.982128 0.981314
0.137012 0.982641 0.981376
0.352000 0.983570 0.981490
0.599502 0.984920 0.981660
0.799384 0.986677 0.981888
0.912834 0.988809 0.982175
0.963655 0.990194 0.982524
0.983439 0.991529 0.982934
0.068222 0.081199 0.989694
0.068269 0.081204 0.989700
0.080876 0.081342 0.989722
0.236610 0.082671 0.989762
0.529495 0.095273 0.989822
0.768910 0.156324 0.989903
0.900374 0.360321 0.990005
0.960670 0.567833 0.990129
0.982270 0.736154 0.990274
0.068222 0.081242 0.989696
0.068297 0.081286 0.989702
0.081145 0.081584 0.989724
0.237671 0.083965 0.989764
0.530274 0.100794 0.989824
0.769373 0.186732 0.989905
0.900528 0.385923 0.990007
0.960701 0.592286 0.990131
0.982282 0.751228 0.990276
0.068222 0.083349 0.989703
0.068393 0.083840 0.989709
0.082136 0.087734 0.989731
0.241497 0.100897 0.989772
0.533070 0.150412 0.989831
0.771004 0.299941 0.989912
0.900881 0.490595 0.990014
0.960814 0.665143 0.990138
0.982326 0.793920 0.990283
0.068222 0.128839 0.989717
0.068549 0.135293 0.989723
0.084028 0.170174 0.989745
0.255872 0.242431 0.989785
0.538214 0.366166 0.989845
0.773007 0.501300 0.989925
0.901529 0.649253 0.990027
0.961021 0.767856 0.990151
0.982407 0.854014 0.990296
0.068222 0.438872 0.989737
0.068934 0.449399 0.989743
0.087171 0.480600 0.989765
0.267205 0.541229 0.989805
0.545904 0.629916 0.989864
0.775989 0.713891 0.989945
0.902546 0.794867 0.990047
0.961330 0.862023 0.990170
0.982527 0.917594 0.990315
0.068370 0.727713 0.989764
0.069653 0.733192 0.989770
0.092398 0.752771 0.989791
0.282136 0.781517 0.989831
0.556286 0.821321 0.989891
0.779994 0.859694 0.989971
0.904386 0.904831 0.990073
0.961745 0.934525 0.990196
0.982690 0.955517 0.990341
0.068920 0.895891 0.989798
0.070879 0.898701 0.989804
0.100808 0.905079 0.989826
0.301176 0.915105 0.989866
0.569478 0.929547 0.989925
0.785047 0.945102 0.990005
0.906711 0.956371 0.990107
0.962270 0.966899 0.990230
0.982895 0.976498 0.990374
0.070042 0.959506 0.989839
0.073626 0.960021 0.989845
0.114635 0.961854 0.989867
0.323977 0.965155 0.989907
0.583724 0.969930 0.989966
0.791160 0.974327 0.990046
0.909526 0.979607 0.990147
0.962907 0.982792 0.990270
0.983145 0.986139 0.990415
0.072825 0.982219 0.989889
0.077929 0.982362 0.989895
0.137012 0.982873 0.989916
0.352000 0.983796 0.989956
0.599502 0.985139 0.990015
0.799384 0.986887 0.990095
0.912834 0.989009 0.990196
0.963655 0.990285 0.990318
0.983439 0.991614 0.990462
