ektachrome100d/Ektachrome100D_Classic_ExtraPunchy.cube
TITLE "Kodak Ektachrome 100D Classic ExtraPunchy"
# Adobe RGB in/out. REPLACES AgX. Kodak Ektachrome 100D Classic ExtraPunchy.
LUT_3D_SIZE 9
DOMAIN_MIN 0.0 0.0 0.0
DOMAIN_MAX 1.0 1.0 1.0
0.069243 0.072709 0.079439
0.069277 0.072709 0.079439
0.079089 0.072749 0.079439
0.209992 0.073858 0.079439
0.552385 0.081823 0.079439
0.801146 0.120596 0.079439
0.916511 0.273499 0.079266
0.955661 0.528488 0.078891
0.972706 0.734918 0.078513
0.069243 0.072709 0.079439
0.069293 0.072715 0.079439
0.079271 0.072973 0.079439
0.211088 0.074782 0.079439
0.553797 0.085071 0.079439
0.801442 0.138780 0.079439
0.916614 0.303133 0.079261
0.955687 0.557424 0.078880
0.972725 0.754384 0.078509
0.069243 0.074342 0.079439
0.069345 0.074654 0.079439
0.079916 0.077615 0.079439
0.215046 0.085141 0.079439
0.558879 0.116912 0.079439
0.802504 0.222791 0.079439
0.916984 0.425553 0.079243
0.955780 0.644545 0.078846
0.972796 0.819262 0.078486
0.069243 0.105037 0.079439
0.069465 0.108824 0.079439
0.081076 0.127062 0.079439
0.222414 0.173602 0.079439
0.566343 0.282688 0.079439
0.804453 0.441391 0.079415
0.917664 0.624311 0.079211
0.955951 0.777841 0.078817
0.972926 0.888907 0.078436
0.069244 0.348616 0.079439
0.069709 0.362113 0.079439
0.084328 0.410955 0.079439
0.233640 0.493421 0.079439
0.573152 0.597279 0.079439
0.809489 0.700168 0.079379
0.918676 0.820779 0.079167
0.956205 0.895712 0.078775
0.973119 0.942957 0.078337
0.069333 0.721828 0.079439
0.070526 0.730342 0.079439
0.087705 0.756250 0.079439
0.249197 0.799474 0.079439
0.582035 0.849918 0.079439
0.822606 0.893877 0.079333
0.920036 0.925479 0.079109
0.956547 0.958338 0.078710
0.973380 0.974280 0.078208
0.069696 0.920995 0.079439
0.071720 0.922094 0.079439
0.095617 0.925825 0.079439
0.269622 0.939838 0.079439
0.593278 0.953317 0.079416
0.829091 0.968272 0.079265
0.921752 0.974881 0.079011
0.956980 0.981212 0.078622
0.973709 0.986189 0.078052
0.071021 0.977084 0.079439
0.073556 0.977382 0.079439
0.107636 0.978405 0.079439
0.290313 0.980243 0.079439
0.606606 0.982893 0.079342
0.836948 0.985670 0.079167
0.923829 0.987429 0.078824
0.957504 0.990832 0.078523
0.974110 0.993458 0.078088
0.072929 0.990219 0.079439
0.076874 0.990380 0.079439
0.125018 0.990896 0.079433
0.315429 0.991621 0.079359
0.622224 0.992674 0.079240
0.843504 0.994044 0.079049
0.926267 0.995647 0.078711
0.958121 0.996706 0.078323
0.974582 0.996824 0.078214
0.069243 0.072709 0.079439
0.069277 0.072709 0.079439
0.079089 0.072754 0.079439
0.209992 0.073881 0.079410
0.552385 0.081891 0.079309
0.801146 0.120971 0.079123
0.916511 0.274612 0.078780
0.955661 0.529376 0.078460
0.972706 0.735478 0.078142
0.069243 0.072709 0.079439
0.069293 0.072716 0.079439
0.079271 0.072980 0.079439
0.211088 0.074814 0.079407
0.553797 0.085161 0.079306
0.801442 0.139286 0.079119
0.916614 0.303774 0.078776
0.955687 0.558013 0.078453
0.972725 0.754819 0.078147
0.069243 0.074362 0.079439
0.069345 0.074686 0.079439
0.079916 0.077675 0.079439
0.215046 0.085231 0.079393
0.558879 0.117282 0.079288
0.802504 0.223373 0.079101
0.916984 0.426358 0.078761
0.955780 0.645014 0.078420
0.972796 0.819692 0.078166
0.069243 0.105285 0.079439
0.069465 0.109085 0.079439
0.081076 0.127445 0.079439
0.222414 0.174166 0.079370
0.566343 0.283393 0.079255
0.804453 0.442210 0.079065
0.917664 0.624910 0.078727
0.955951 0.778274 0.078353
0.972926 0.889081 0.078199
0.069244 0.349502 0.079439
0.069709 0.363018 0.079439
0.084328 0.411748 0.079406
0.233640 0.494282 0.079336
0.573152 0.597874 0.079207
0.809489 0.700634 0.079000
0.918676 0.821209 0.078675
0.956205 0.895866 0.078257
0.973119 0.943042 0.078248
0.069333 0.722438 0.079408
0.070526 0.730901 0.079397
0.087705 0.756685 0.079358
0.249197 0.799905 0.079288
0.582035 0.850177 0.079148
0.822606 0.894031 0.078858
0.920036 0.925621 0.078608
0.956547 0.958418 0.078132
0.973380 0.974305 0.078312
0.069696 0.921122 0.079348
0.071720 0.922146 0.079338
0.095617 0.925967 0.079303
0.269622 0.939977 0.079205
0.593278 0.953399 0.079065
0.829091 0.968299 0.078779
0.921752 0.974906 0.078527
0.956980 0.981230 0.078066
0.973709 0.986196 0.078391
0.071021 0.977108 0.079268
0.073556 0.977401 0.079253
0.107636 0.978424 0.079201
0.290313 0.980261 0.079114
0.606606 0.982910 0.078884
0.836948 0.985677 0.078676
0.923829 0.987441 0.078370
0.957504 0.990840 0.078131
0.974110 0.993465 0.078495
0.072929 0.990229 0.079153
0.076874 0.990391 0.079140
0.125018 0.990903 0.079089
0.315429 0.991628 0.078939
0.622224 0.992681 0.078758
0.843504 0.994051 0.078554
0.926267 0.995653 0.078134
0.958121 0.996707 0.078255
0.974582 0.996824 0.078628
0.069243 0.072709 0.078165
0.069277 0.072709 0.078181
0.079089 0.072771 0.078235
0.209992 0.073961 0.078331
0.552385 0.082135 0.078472
0.801146 0.122320 0.078711
0.916511 0.278636 0.079232
0.955661 0.532573 0.080144
0.972706 0.737491 0.081460
0.069243 0.072709 0.078170
0.069293 0.072722 0.078186
0.079271 0.073013 0.078240
0.211088 0.074978 0.078336
0.553797 0.085484 0.078478
0.801442 0.141110 0.078718
0.916614 0.306082 0.079245
0.955687 0.560127 0.080160
0.972725 0.756382 0.081479
0.069243 0.074433 0.078189
0.069345 0.074802 0.078204
0.079916 0.077891 0.078257
0.215046 0.085552 0.078352
0.558879 0.118616 0.078498
0.802504 0.225472 0.078743
0.916984 0.429257 0.079294
0.955780 0.646698 0.080218
0.972796 0.821236 0.081544
0.069243 0.106176 0.078222
0.069465 0.110022 0.078237
0.081076 0.128838 0.078289
0.222414 0.176198 0.078383
0.566343 0.285695 0.078534
0.804453 0.445157 0.078800
0.917664 0.627063 0.079382
0.955951 0.779830 0.080323
0.972926 0.889708 0.081665
0.069244 0.352693 0.078270
0.069709 0.366277 0.078285
0.084328 0.414601 0.078336
0.233640 0.497381 0.078428
0.573152 0.600012 0.078588
0.809489 0.702308 0.078882
0.918676 0.822752 0.079513
0.956205 0.896417 0.080478
0.973119 0.943349 0.082031
0.069333 0.724467 0.078334
0.070526 0.732913 0.078348
0.087705 0.758248 0.078398
0.249197 0.801455 0.078498
0.582035 0.851106 0.078669
0.822606 0.894584 0.079000
0.920036 0.926133 0.079691
0.956547 0.958706 0.080707
0.973380 0.974394 0.082553
0.069696 0.921550 0.078412
0.071720 0.922331 0.078426
0.095617 0.926479 0.078482
0.269622 0.940474 0.078590
0.593278 0.953693 0.078799
0.829091 0.968395 0.079234
0.921752 0.974994 0.079963
0.956980 0.981294 0.081032
0.973709 0.986221 0.082915
0.071021 0.977182 0.078520
0.073556 0.977470 0.078536
0.107636 0.978491 0.078595
0.290313 0.980326 0.078726
0.606606 0.982973 0.078971
0.836948 0.985702 0.079511
0.923829 0.987482 0.080297
0.957504 0.990866 0.081421
0.974110 0.993490 0.083674
0.072929 0.990268 0.078660
0.076874 0.990429 0.078682
0.125018 0.990930 0.078762
0.315429 0.991654 0.078929
0.622224 0.992706 0.079303
0.843504 0.994075 0.079867
0.926267 0.995673 0.080702
0.958121 0.996708 0.082091
0.974582 0.996825 0.084904
0.069243 0.072709 0.101472
0.069277 0.072709 0.102138
0.079089 0.072801 0.104545
0.209992 0.074104 0.109049
0.552385 0.082619 0.116188
0.801146 0.124818 0.128057
0.916511 0.283808 0.147081
0.955661 0.538160 0.176879
0.972706 0.741066 0.225736
0.069243 0.072709 0.101693
0.069293 0.072743 0.102359
0.079271 0.073117 0.104769
0.211088 0.075307 0.109278
0.553797 0.086071 0.116474
0.801442 0.144497 0.128360
0.916614 0.310349 0.147512
0.955687 0.564021 0.177476
0.972725 0.759258 0.226472
0.069243 0.074561 0.102486
0.069345 0.075110 0.103154
0.079916 0.078334 0.105574
0.215046 0.086139 0.110100
0.558879 0.121085 0.117506
0.802504 0.229357 0.129453
0.916984 0.434614 0.149069
0.955780 0.649795 0.179633
0.972796 0.823743 0.229222
0.069243 0.107818 0.103954
0.069465 0.111750 0.104627
0.081076 0.132072 0.107064
0.222414 0.179969 0.111621
0.566343 0.289839 0.119419
0.804453 0.450603 0.131477
0.917664 0.631029 0.151963
0.955951 0.782692 0.183651
0.972926 0.890859 0.234353
0.069244 0.358607 0.106169
0.069709 0.372315 0.106849
0.084328 0.419874 0.109312
0.233640 0.503107 0.113916
0.573152 0.603949 0.122313
0.809489 0.705541 0.134540
0.918676 0.824867 0.156363
0.956205 0.897429 0.189786
0.973119 0.943911 0.242191
0.069333 0.728165 0.109199
0.070526 0.736615 0.109889
0.087705 0.761123 0.112387
0.249197 0.804305 0.117515
0.582035 0.852814 0.126290
0.822606 0.895600 0.139956
0.920036 0.927074 0.162446
0.956547 0.959236 0.198316
0.973380 0.974558 0.253095
0.069696 0.921893 0.113115
0.071720 0.922672 0.113818
0.095617 0.927419 0.116668
0.269622 0.941387 0.122468
0.593278 0.954233 0.131457
0.829091 0.968572 0.147158
0.921752 0.975157 0.170415
0.956980 0.981412 0.209571
0.973709 0.986266 0.267494
0.071021 0.977308 0.118658
0.073556 0.977595 0.119534
0.107636 0.978614 0.122711
0.290313 0.980446 0.128685
0.606606 0.983088 0.138895
0.836948 0.985748 0.156296
0.923829 0.987557 0.182656
0.957504 0.990915 0.224164
0.974110 0.993534 0.285918
0.072929 0.990338 0.125923
0.076874 0.990499 0.126830
0.125018 0.990978 0.130119
0.315429 0.991701 0.136759
0.622224 0.992752 0.149368
0.843504 0.994118 0.167638
0.926267 0.995710 0.198167
0.958121 0.996711 0.243325
0.974582 0.996827 0.307800
0.069243 0.072709 0.591458
0.069277 0.072709 0.592896
0.079089 0.072851 0.598069
0.209992 0.074310 0.607622
0.552385 0.083418 0.621992
0.801146 0.128590 0.641563
0.916511 0.290011 0.657861
0.955661 0.544493 0.681258
0.972706 0.745380 0.706371
0.069243 0.072724 0.591935
0.069293 0.072789 0.593373
0.079271 0.073262 0.598548
0.211088 0.075784 0.608102
0.553797 0.087187 0.622476
0.801442 0.149640 0.642051
0.916614 0.316777 0.658084
0.955687 0.569853 0.681691
0.972725 0.763556 0.706704
0.069243 0.074848 0.593647
0.069345 0.075594 0.595087
0.079916 0.079228 0.600266
0.215046 0.087304 0.609828
0.558879 0.124814 0.624213
0.802504 0.235296 0.643804
0.916984 0.442683 0.658884
0.955780 0.654426 0.683115
0.972796 0.826889 0.707901
0.069243 0.110389 0.596802
0.069465 0.114653 0.598244
0.081076 0.136987 0.603431
0.222414 0.185686 0.613008
0.566343 0.296086 0.627414
0.804453 0.458805 0.647033
0.917664 0.636922 0.660355
0.955951 0.786971 0.685320
0.972926 0.892575 0.710103
0.069244 0.367556 0.601531
0.069709 0.381450 0.602976
0.084328 0.427819 0.608174
0.233640 0.511728 0.617772
0.573152 0.609847 0.632211
0.809489 0.711560 0.651116
0.918676 0.828010 0.663331
0.956205 0.898939 0.688618
0.973119 0.944750 0.713396
0.069333 0.733700 0.607937
0.070526 0.741814 0.609386
0.087705 0.765419 0.614601
0.249197 0.808566 0.624228
0.582035 0.855363 0.638709
0.822606 0.897116 0.654107
0.920036 0.928478 0.669087
0.956547 0.960026 0.693073
0.973380 0.974803 0.717845
0.069696 0.922404 0.616113
0.071720 0.923180 0.617568
0.095617 0.928822 0.622802
0.269622 0.942603 0.632466
0.593278 0.955038 0.647002
0.829091 0.968837 0.657901
0.921752 0.975400 0.676421
0.956980 0.981588 0.698738
0.973709 0.986334 0.723501
0.071021 0.977496 0.626145
0.073556 0.977782 0.627606
0.107636 0.978798 0.632865
0.290313 0.980624 0.642573
0.606606 0.983259 0.653536
0.836948 0.985817 0.663258
0.923829 0.987669 0.684777
0.957504 0.990987 0.705656
0.974110 0.993601 0.730409
0.072929 0.990444 0.638114
0.076874 0.990604 0.639583
0.125018 0.991050 0.644870
0.315429 0.991772 0.652376
0.622224 0.992820 0.659037
0.843504 0.994184 0.673891
0.926267 0.995766 0.692996
0.958121 0.996714 0.713865
0.974582 0.996830 0.738607
0.069243 0.072709 0.883490
0.069277 0.072709 0.883807
0.079089 0.072933 0.884944
0.209992 0.074572 0.887028
0.552385 0.084472 0.889515
0.801146 0.135118 0.892696
0.916511 0.298468 0.897966
0.955661 0.553078 0.903917
0.972706 0.751204 0.909766
0.069243 0.072782 0.883595
0.069293 0.072857 0.883912
0.079271 0.073442 0.885048
0.211088 0.076635 0.887132
0.553797 0.089214 0.889588
0.801442 0.156260 0.892800
0.916614 0.325552 0.898068
0.955687 0.577750 0.903996
0.972725 0.769359 0.909844
0.069243 0.075511 0.883972
0.069345 0.076381 0.884289
0.079916 0.080221 0.885424
0.215046 0.089330 0.887506
0.558879 0.130233 0.889851
0.802504 0.243997 0.893171
0.916984 0.453694 0.898435
0.955780 0.660680 0.904281
0.972796 0.831130 0.910124
0.069243 0.114017 0.884666
0.069465 0.119600 0.884982
0.081076 0.143773 0.886116
0.222414 0.195615 0.888151
0.566343 0.304617 0.890333
0.804453 0.469995 0.893853
0.917664 0.643189 0.899110
0.955951 0.792746 0.904805
0.972926 0.894725 0.910639
0.069244 0.379842 0.885701
0.069709 0.393989 0.886016
0.084328 0.438662 0.887147
0.233640 0.523483 0.888876
0.573152 0.617830 0.891052
0.809489 0.719708 0.894871
0.918676 0.832248 0.900117
0.956205 0.900971 0.905587
0.973119 0.945879 0.911407
0.069333 0.741058 0.887096
0.070526 0.747642 0.887410
0.087705 0.771220 0.888394
0.249197 0.814318 0.889853
0.582035 0.858796 0.892090
0.822606 0.899157 0.896244
0.920036 0.930368 0.901474
0.956547 0.961089 0.906640
0.973380 0.975133 0.912442
0.069696 0.923091 0.888624
0.071720 0.923864 0.888845
0.095617 0.930711 0.889638
0.269622 0.943742 0.891090
0.593278 0.956123 0.893846
0.829091 0.969193 0.897984
0.921752 0.975728 0.903028
0.956980 0.981825 0.907975
0.973709 0.986425 0.913754
0.071021 0.977749 0.890142
0.073556 0.978034 0.890362
0.107636 0.979046 0.891150
0.290313 0.980865 0.892910
0.606606 0.983489 0.895982
0.836948 0.985910 0.900102
0.923829 0.987820 0.904676
0.957504 0.991085 0.909599
0.974110 0.993691 0.915351
0.072929 0.990586 0.891964
0.076874 0.990746 0.892276
0.125018 0.991148 0.893396
0.315429 0.991867 0.895450
0.622224 0.992913 0.898505
0.843504 0.994272 0.902561
0.926267 0.995840 0.906622
0.958121 0.996720 0.911516
0.974582 0.996834 0.917236
0.069243 0.072709 0.961408
0.069277 0.072735 0.961511
0.079089 0.073094 0.961883
0.209992 0.075233 0.962566
0.552385 0.085937 0.963582
0.801146 0.143719 0.964945
0.916511 0.309372 0.966656
0.955661 0.563130 0.967779
0.972706 0.758601 0.969094
0.069243 0.072869 0.961442
0.069293 0.072958 0.961546
0.079271 0.073707 0.961918
0.211088 0.077688 0.962600
0.553797 0.091760 0.963616
0.801442 0.162995 0.964979
0.916614 0.338993 0.966674
0.955687 0.587818 0.967797
0.972725 0.776729 0.969111
0.069243 0.076503 0.961565
0.069345 0.077446 0.961669
0.079916 0.081424 0.962041
0.215046 0.091874 0.962723
0.558879 0.138676 0.963738
0.802504 0.259018 0.965100
0.916984 0.467876 0.966739
0.955780 0.668629 0.967861
0.972796 0.836408 0.969174
0.069243 0.120310 0.961792
0.069465 0.126006 0.961896
0.081076 0.152648 0.962267
0.222414 0.208980 0.962948
0.566343 0.315613 0.963962
0.804453 0.484404 0.965322
0.917664 0.651153 0.966858
0.955951 0.800083 0.967978
0.972926 0.897332 0.969289
0.069244 0.395791 0.962131
0.069709 0.408763 0.962235
0.084328 0.452630 0.962605
0.233640 0.538252 0.963285
0.573152 0.628009 0.964297
0.809489 0.729463 0.965654
0.918676 0.837334 0.967036
0.956205 0.903543 0.968154
0.973119 0.947307 0.969439
0.069333 0.748471 0.962588
0.070526 0.755044 0.962691
0.087705 0.778587 0.963061
0.249197 0.821625 0.963739
0.582035 0.863146 0.964748
0.822606 0.901739 0.966102
0.920036 0.932761 0.967275
0.956547 0.962436 0.968391
0.973380 0.975550 0.969642
0.069696 0.923961 0.963168
0.071720 0.925430 0.963270
0.095617 0.933103 0.963639
0.269622 0.945182 0.964314
0.593278 0.957496 0.965320
0.829091 0.969643 0.966659
0.921752 0.976142 0.967579
0.956980 0.982124 0.968691
0.973709 0.986540 0.969899
0.071021 0.978070 0.963873
0.073556 0.978353 0.963975
0.107636 0.979359 0.964342
0.290313 0.981169 0.965015
0.606606 0.983781 0.966017
0.836948 0.986028 0.967033
0.923829 0.988011 0.967949
0.957504 0.991209 0.969056
0.974110 0.993805 0.970212
0.072929 0.990764 0.964707
0.076874 0.990875 0.964808
0.125018 0.991272 0.965173
0.315429 0.991988 0.965843
0.622224 0.993030 0.966751
0.843504 0.994384 0.967475
0.926267 0.995935 0.968387
0.958121 0.996726 0.969461
0.974582 0.996839 0.970581
0.069243 0.072763 0.987272
0.069277 0.072831 0.987302
0.079089 0.073390 0.987410
0.209992 0.076379 0.987608
0.552385 0.088610 0.987903
0.801146 0.154595 0.988299
0.916511 0.322916 0.988800
0.955661 0.575385 0.989406
0.972706 0.767623 0.989589
0.069243 0.072996 0.987282
0.069293 0.073218 0.987312
0.079271 0.074168 0.987420
0.211088 0.079304 0.987618
0.553797 0.096168 0.987913
0.801442 0.171977 0.988309
0.916614 0.357351 0.988810
0.955687 0.600158 0.989416
0.972725 0.785719 0.989590
0.069243 0.077789 0.987318
0.069345 0.078941 0.987348
0.079916 0.082926 0.987456
0.215046 0.096352 0.987654
0.558879 0.149359 0.987948
0.802504 0.281191 0.988344
0.916984 0.485470 0.988845
0.955780 0.678330 0.989450
0.972796 0.841842 0.989594
0.069243 0.128171 0.987384
0.069465 0.135436 0.987414
0.081076 0.161444 0.987521
0.222414 0.221231 0.987719
0.566343 0.329271 0.988013
0.804453 0.502274 0.988409
0.917664 0.660872 0.988909
0.955951 0.809033 0.989514
0.972926 0.900498 0.989600
0.069244 0.413254 0.987482
0.069709 0.425321 0.987512
0.084328 0.469964 0.987619
0.233640 0.551570 0.987817
0.573152 0.639662 0.988111
0.809489 0.740985 0.988506
0.918676 0.842763 0.989005
0.956205 0.906666 0.989535
0.973119 0.949042 0.989610
0.069333 0.757511 0.987615
0.070526 0.764073 0.987644
0.087705 0.787574 0.987752
0.249197 0.828531 0.987949
0.582035 0.868435 0.988242
0.822606 0.904874 0.988636
0.920036 0.935670 0.989134
0.956547 0.963839 0.989549
0.973380 0.976057 0.989624
0.069696 0.926238 0.987783
0.071720 0.928382 0.987812
0.095617 0.936009 0.987919
0.269622 0.946932 0.988116
0.593278 0.959163 0.988408
0.829091 0.970190 0.988802
0.921752 0.976645 0.989298
0.956980 0.982489 0.989566
0.973709 0.986680 0.989641
0.071021 0.978459 0.987988
0.073556 0.978740 0.988017
0.107636 0.979741 0.988124
0.290313 0.981539 0.988320
0.606606 0.984136 0.988611
0.836948 0.986171 0.989003
0.923829 0.988244 0.989498
0.957504 0.991360 0.989587
0.974110 0.993944 0.989661
0.072929 0.990917 0.988230
0.076874 0.991028 0.988259
0.125018 0.991422 0.988366
0.315429 0.992135 0.988561
0.622224 0.993172 0.988851
0.843504 0.994520 0.989242
0.926267 0.996050 0.989549
0.958121 0.996734 0.989612
0.974582 0.996845 0.989686
0.069243 0.072892 0.992995
0.069277 0.072979 0.992998
0.079089 0.073792 0.993007
0.209992 0.077907 0.993023
0.552385 0.092359 0.993048
0.801146 0.164456 0.993081
0.916511 0.342186 0.993123
0.955661 0.589987 0.993174
0.972706 0.778312 0.993235
0.069243 0.073351 0.992996
0.069293 0.073559 0.992999
0.079271 0.074689 0.993008
0.211088 0.081087 0.993024
0.553797 0.102071 0.993049
0.801442 0.186072 0.993082
0.916614 0.379840 0.993124
0.955687 0.614860 0.993175
0.972725 0.796370 0.993235
0.069243 0.079717 0.992999
0.069345 0.080806 0.993002
0.079916 0.084879 0.993011
0.215046 0.102255 0.993027
0.558879 0.160509 0.993052
0.802504 0.296995 0.993085
0.916984 0.506739 0.993127
0.955780 0.689833 0.993178
0.972796 0.848254 0.993238
0.069243 0.140244 0.993005
0.069465 0.148014 0.993007
0.081076 0.171973 0.993016
0.222414 0.235860 0.993033
0.566343 0.350664 0.993057
0.804453 0.523870 0.993091
0.917664 0.672398 0.993133
0.955951 0.819638 0.993184
0.972926 0.904227 0.993244
0.069244 0.433041 0.993013
0.069709 0.445365 0.993015
0.084328 0.490926 0.993024
0.233640 0.566260 0.993041
0.573152 0.651214 0.993065
0.809489 0.751732 0.993099
0.918676 0.849169 0.993141
0.956205 0.910346 0.993192
0.973119 0.951086 0.993251
0.069333 0.768222 0.993024
0.070526 0.774770 0.993026
0.087705 0.798222 0.993035
0.249197 0.836266 0.993052
0.582035 0.874678 0.993076
0.822606 0.908569 0.993110
0.920036 0.939100 0.993151
0.956547 0.965470 0.993202
0.973380 0.976655 0.993262
0.069696 0.929735 0.993038
0.071720 0.931864 0.993040
0.095617 0.939436 0.993049
0.269622 0.948992 0.993066
0.593278 0.961128 0.993090
0.829091 0.970834 0.993124
0.921752 0.977218 0.993165
0.956980 0.982919 0.993216
0.973709 0.986835 0.993276
0.071021 0.978918 0.993055
0.073556 0.979197 0.993058
0.107636 0.980190 0.993067
0.290313 0.981976 0.993083
0.606606 0.984554 0.993108
0.836948 0.986339 0.993140
0.923829 0.988519 0.993182
0.957504 0.991538 0.993233
0.974110 0.994108 0.993292
0.072929 0.991098 0.993075
0.076874 0.991208 0.993078
0.125018 0.991600 0.993087
0.315429 0.992309 0.993103
0.622224 0.993340 0.993128
0.843504 0.994681 0.993161
0.926267 0.996186 0.993202
0.958121 0.996743 0.993253
0.974582 0.996852 0.993312
