ektachrome100d/Ektachrome100D_Modern_Normal.cube
TITLE "Kodak Ektachrome 100D Modern Normal"
# Adobe RGB in/out. REPLACES AgX. Kodak Ektachrome 100D Modern Normal.
LUT_3D_SIZE 5
DOMAIN_MIN 0.0 0.0 0.0
DOMAIN_MAX 1.0 1.0 1.0
0.073574 0.072697 0.087608
0.347152 0.073825 0.087608
0.746125 0.313676 0.087608
0.870533 0.647406 0.088293
0.911689 0.772909 0.092794
0.073574 0.146235 0.087608
0.141385 0.095597 0.087608
0.678464 0.406165 0.087608
0.853985 0.669134 0.088078
0.907366 0.783470 0.091826
0.074728 0.719518 0.087608
0.220988 0.682744 0.087608
0.598716 0.657719 0.087608
0.814587 0.738548 0.087808
0.890898 0.814050 0.089842
0.079841 0.847625 0.087608
0.230815 0.839883 0.087608
0.612646 0.829141 0.087608
0.795948 0.834328 0.087857
0.875693 0.857295 0.089154
0.087123 0.891312 0.087608
0.221305 0.889914 0.087608
0.587046 0.887578 0.087608
0.784555 0.889198 0.088026
0.866999 0.896902 0.089498
0.073574 0.072697 0.243723
0.368250 0.074530 0.266487
0.736935 0.298443 0.194712
0.865203 0.635473 0.196014
0.910067 0.766239 0.231358
0.073574 0.094152 0.123192
0.090954 0.076461 0.089514
0.652637 0.348186 0.111450
0.847958 0.654310 0.144041
0.905479 0.777719 0.193275
0.074232 0.689954 0.128220
0.176100 0.647802 0.108453
0.567213 0.625145 0.097142
0.805428 0.723858 0.109575
0.888249 0.809822 0.139512
0.079094 0.840286 0.112538
0.215045 0.834842 0.108678
0.596854 0.822634 0.103694
0.789458 0.829166 0.106231
0.873909 0.855486 0.123879
0.086597 0.889804 0.100973
0.216149 0.888498 0.100957
0.583845 0.886409 0.102196
0.782852 0.888403 0.107307
0.866645 0.896652 0.121666
0.073574 0.072708 0.834346
0.368250 0.076865 0.835323
0.789858 0.445630 0.834015
0.869224 0.651976 0.785558
0.909340 0.765743 0.754450
0.073574 0.163146 0.825026
0.277120 0.221022 0.804697
0.697154 0.467053 0.766686
0.850023 0.664947 0.746306
0.904325 0.775808 0.731482
0.073811 0.632090 0.719741
0.139774 0.598944 0.679877
0.515745 0.545020 0.575579
0.795059 0.712641 0.654648
0.885138 0.805654 0.681209
0.078022 0.826450 0.698381
0.179375 0.820138 0.682517
0.575303 0.810145 0.645103
0.773298 0.818704 0.618373
0.870458 0.851726 0.642840
0.085349 0.885968 0.655411
0.196589 0.884980 0.648234
0.576041 0.883666 0.631441
0.777602 0.886609 0.621984
0.865796 0.896163 0.629921
0.073574 0.073051 0.917972
0.368250 0.087014 0.918174
0.797936 0.501964 0.918896
0.881389 0.696062 0.902651
0.911221 0.779276 0.875921
0.073574 0.271704 0.918039
0.383828 0.418955 0.918241
0.757141 0.614779 0.908608
0.863220 0.706382 0.886758
0.906342 0.786499 0.870187
0.073825 0.644892 0.871651
0.160869 0.644910 0.864731
0.601874 0.672879 0.851414
0.812059 0.742628 0.847333
0.886622 0.810393 0.845743
0.077187 0.811728 0.849924
0.157444 0.808175 0.843838
0.560525 0.802297 0.826111
0.752801 0.808704 0.812541
0.868713 0.850629 0.822409
0.084163 0.881468 0.832902
0.183402 0.880966 0.829666
0.567287 0.880837 0.822828
0.771135 0.884969 0.817914
0.864987 0.895985 0.817798
0.073574 0.078370 0.940456
0.368250 0.113605 0.940484
0.797936 0.553946 0.940583
0.889797 0.730748 0.937102
0.913722 0.794497 0.925251
0.073574 0.385881 0.940465
0.383828 0.485804 0.940493
0.794396 0.681466 0.940209
0.875168 0.745528 0.931822
0.909208 0.801183 0.921701
0.074115 0.706988 0.929060
0.228228 0.712137 0.927297
0.672386 0.738032 0.922464
0.827220 0.783092 0.915044
0.891218 0.821588 0.908467
0.076930 0.809952 0.907442
0.154810 0.809706 0.905592
0.571739 0.812987 0.900639
0.783397 0.829483 0.895747
0.871348 0.855860 0.894047
0.083717 0.877550 0.896780
0.172460 0.877592 0.895552
0.560488 0.879090 0.890860
0.767038 0.884500 0.886506
0.864638 0.896543 0.886046
