ektachrome100d/Ektachrome100D_Classic_IlfochromeP.cube
TITLE "Kodak Ektachrome 100D Classic IlfochromeP"
# Adobe RGB in/out. REPLACES AgX. Kodak Ektachrome 100D Classic IlfochromeP.
LUT_3D_SIZE 9
DOMAIN_MIN 0.0 0.0 0.0
DOMAIN_MAX 1.0 1.0 1.0
0.138981 0.101282 0.098429
0.156322 0.116053 0.101117
0.236823 0.146125 0.104386
0.367051 0.193694 0.108798
0.493043 0.257350 0.117171
0.624116 0.327012 0.129251
0.727762 0.400701 0.145016
0.805654 0.477146 0.163786
0.866463 0.547789 0.186352
0.139435 0.129985 0.099817
0.156929 0.138803 0.101489
0.237558 0.167176 0.104623
0.367539 0.211998 0.109107
0.493391 0.273057 0.117444
0.624350 0.339792 0.129570
0.727903 0.411670 0.145351
0.805744 0.485790 0.164056
0.866535 0.554952 0.186663
0.141105 0.203798 0.101663
0.159154 0.210173 0.102714
0.240507 0.233982 0.105365
0.369288 0.273337 0.110226
0.494640 0.323907 0.118398
0.625189 0.383117 0.130698
0.728409 0.448995 0.146543
0.806066 0.515532 0.165017
0.866794 0.579836 0.187777
0.144863 0.310280 0.103724
0.163503 0.315210 0.104474
0.245957 0.332306 0.106793
0.372481 0.361772 0.112096
0.496927 0.403252 0.120099
0.626728 0.453638 0.132703
0.729339 0.508312 0.148691
0.806659 0.564061 0.166762
0.867270 0.618700 0.189810
0.150757 0.427571 0.105826
0.169929 0.431334 0.106537
0.253895 0.444604 0.109155
0.377197 0.468680 0.114634
0.500326 0.499393 0.123028
0.629019 0.537090 0.135858
0.730725 0.580407 0.151804
0.807543 0.624061 0.169312
0.867883 0.670093 0.192808
0.158623 0.543750 0.108994
0.179118 0.546374 0.109949
0.264251 0.555682 0.112996
0.383589 0.572348 0.118406
0.504876 0.595278 0.127335
0.632095 0.622503 0.140009
0.732588 0.654843 0.155839
0.808734 0.689496 0.173448
0.868565 0.721747 0.196784
0.169632 0.646631 0.113800
0.191472 0.648497 0.114534
0.276875 0.655138 0.117627
0.391618 0.667112 0.123176
0.510593 0.683826 0.132684
0.635975 0.701961 0.145076
0.734942 0.723750 0.160715
0.810240 0.748704 0.179063
0.869428 0.776318 0.201722
0.184288 0.731127 0.119409
0.206721 0.732344 0.120222
0.291572 0.736683 0.123406
0.401185 0.744534 0.129909
0.517477 0.755979 0.139239
0.640666 0.770913 0.151758
0.737796 0.789108 0.166335
0.812068 0.807412 0.185682
0.870477 0.826942 0.207692
0.202180 0.804105 0.126924
0.226515 0.804931 0.127930
0.307660 0.807879 0.131370
0.412221 0.813230 0.137642
0.525593 0.821067 0.146768
0.646169 0.831354 0.159064
0.741151 0.843971 0.173371
0.814223 0.858743 0.193232
0.871714 0.872709 0.215103
0.138981 0.104137 0.122427
0.156322 0.116676 0.123283
0.236823 0.146669 0.126790
0.367051 0.194155 0.133077
0.493043 0.257738 0.142317
0.624116 0.327324 0.154916
0.727762 0.400967 0.169027
0.805654 0.477355 0.188905
0.866463 0.547962 0.210867
0.139435 0.130627 0.122713
0.156929 0.139432 0.123561
0.237558 0.167631 0.127128
0.367539 0.212462 0.133371
0.493391 0.273421 0.142604
0.624350 0.340092 0.155213
0.727903 0.411930 0.169282
0.805744 0.485995 0.189212
0.866535 0.555122 0.211167
0.141105 0.204229 0.123720
0.159154 0.210609 0.124711
0.240507 0.234396 0.128318
0.369288 0.273701 0.134545
0.494640 0.324222 0.143627
0.625189 0.383394 0.156274
0.728409 0.449234 0.170192
0.806066 0.515717 0.190311
0.866794 0.579998 0.212241
0.144863 0.310609 0.125906
0.163503 0.315534 0.126914
0.245957 0.332613 0.130430
0.372481 0.362065 0.136683
0.496927 0.403516 0.145762
0.626728 0.453875 0.158194
0.729339 0.508507 0.172344
0.806659 0.564228 0.192315
0.867270 0.618832 0.214204
0.150757 0.427821 0.129175
0.169929 0.431582 0.130132
0.253895 0.444845 0.133415
0.377197 0.468893 0.139741
0.500326 0.499592 0.148985
0.629019 0.537267 0.160989
0.730725 0.580568 0.175655
0.807543 0.624191 0.195273
0.867883 0.670211 0.217112
0.158623 0.543924 0.133270
0.179118 0.546547 0.134241
0.264251 0.555852 0.137724
0.383589 0.572512 0.143636
0.504876 0.595417 0.153152
0.632095 0.622633 0.164635
0.732588 0.654964 0.180028
0.808734 0.689587 0.199198
0.868565 0.721830 0.220987
0.169632 0.646755 0.138695
0.191472 0.648621 0.139613
0.276875 0.655260 0.142798
0.391618 0.667230 0.149153
0.510593 0.683919 0.158175
0.635975 0.702049 0.169073
0.734942 0.723833 0.185435
0.810240 0.748781 0.204075
0.869428 0.776389 0.225832
0.184288 0.731208 0.144886
0.206721 0.732425 0.145894
0.291572 0.736762 0.149414
0.401185 0.744612 0.155531
0.517477 0.756055 0.163949
0.640666 0.770986 0.175605
0.737796 0.789178 0.191824
0.812068 0.807466 0.210223
0.870477 0.826993 0.231631
0.202180 0.804160 0.152779
0.226515 0.804985 0.153696
0.307660 0.807933 0.156913
0.412221 0.813284 0.162542
0.525593 0.821119 0.170365
0.646169 0.831404 0.183590
0.741151 0.844020 0.199131
0.814223 0.858789 0.217524
0.871714 0.872738 0.238467
0.138981 0.108365 0.212230
0.156322 0.118706 0.213128
0.236823 0.148577 0.216327
0.367051 0.195797 0.222108
0.493043 0.259128 0.230517
0.624116 0.328442 0.241732
0.727762 0.401921 0.255721
0.805654 0.478105 0.272029
0.866463 0.548582 0.290376
0.139435 0.132836 0.212528
0.156929 0.141628 0.213425
0.237558 0.169261 0.216621
0.367539 0.214118 0.222394
0.493391 0.274726 0.230794
0.624350 0.341168 0.242011
0.727903 0.412860 0.255988
0.805744 0.486730 0.272283
0.866535 0.555733 0.290616
0.141105 0.205768 0.213596
0.159154 0.212282 0.214489
0.240507 0.235931 0.217671
0.369288 0.275004 0.223421
0.494640 0.325351 0.231788
0.625189 0.384390 0.243011
0.728409 0.450092 0.256944
0.806066 0.516383 0.273195
0.866794 0.580579 0.291478
0.144863 0.311789 0.215549
0.163503 0.316694 0.216434
0.245957 0.333714 0.219591
0.372481 0.363115 0.225298
0.496927 0.404465 0.233606
0.626728 0.454724 0.244843
0.729339 0.509207 0.258697
0.806659 0.564827 0.274865
0.867270 0.619305 0.293058
0.150757 0.428719 0.218440
0.169929 0.432473 0.219316
0.253895 0.445711 0.222437
0.377197 0.469658 0.228082
0.500326 0.500305 0.236320
0.629019 0.537902 0.247562
0.730725 0.581148 0.261302
0.807543 0.624659 0.277344
0.867883 0.670633 0.295408
0.158623 0.544550 0.222296
0.179118 0.547170 0.223158
0.264251 0.556462 0.226233
0.383589 0.573101 0.231796
0.504876 0.595918 0.240093
0.632095 0.623103 0.251201
0.732588 0.655401 0.264790
0.808734 0.689913 0.280659
0.868565 0.722127 0.298561
0.169632 0.647200 0.227117
0.191472 0.649064 0.227963
0.276875 0.655696 0.230981
0.391618 0.667656 0.236470
0.510593 0.684250 0.244825
0.635975 0.702363 0.255769
0.734942 0.724128 0.269174
0.810240 0.749058 0.284830
0.869428 0.776647 0.302534
0.184288 0.731498 0.232887
0.206721 0.732714 0.233715
0.291572 0.737048 0.236702
0.401185 0.744892 0.242309
0.517477 0.756326 0.250509
0.640666 0.771247 0.261263
0.737796 0.789427 0.274454
0.812068 0.807661 0.289860
0.870477 0.827176 0.307330
0.202180 0.804357 0.239750
0.226515 0.805182 0.240596
0.307660 0.808127 0.243617
0.412221 0.813475 0.249100
0.525593 0.821305 0.257127
0.646169 0.831584 0.267669
0.741151 0.844193 0.280602
0.814223 0.858955 0.295742
0.871714 0.872841 0.312948
0.138981 0.113199 0.346949
0.156322 0.122274 0.347576
0.236823 0.151915 0.349821
0.367051 0.198766 0.353921
0.493043 0.261664 0.359985
0.624116 0.330490 0.368051
0.727762 0.403671 0.378110
0.805654 0.479482 0.390114
0.866463 0.549722 0.404349
0.139435 0.136570 0.347157
0.156929 0.145431 0.347783
0.237558 0.172202 0.350027
0.367539 0.217126 0.354126
0.493391 0.277108 0.360187
0.624350 0.343139 0.368250
0.727903 0.414567 0.378304
0.805744 0.488080 0.390303
0.866535 0.556856 0.404546
0.141105 0.208557 0.347903
0.159154 0.215320 0.348528
0.240507 0.238735 0.350768
0.369288 0.277384 0.354860
0.494640 0.327419 0.360911
0.625189 0.386214 0.368961
0.728409 0.451666 0.379000
0.806066 0.517605 0.390983
0.866794 0.581645 0.405249
0.144863 0.313947 0.349272
0.163503 0.318819 0.349896
0.245957 0.335729 0.352129
0.372481 0.365039 0.356208
0.496927 0.406205 0.362241
0.626728 0.456284 0.370268
0.729339 0.510492 0.380279
0.806659 0.565928 0.392230
0.867270 0.620176 0.406542
0.150757 0.430367 0.351313
0.169929 0.434107 0.351934
0.253895 0.447300 0.354156
0.377197 0.471062 0.358217
0.500326 0.501616 0.364223
0.629019 0.539067 0.372216
0.730725 0.582214 0.382186
0.807543 0.625518 0.394090
0.867883 0.671410 0.408471
0.158623 0.545699 0.354055
0.179118 0.548312 0.354672
0.264251 0.557582 0.356881
0.383589 0.574184 0.360917
0.504876 0.596837 0.366888
0.632095 0.623966 0.374835
0.732588 0.656204 0.384750
0.808734 0.690512 0.396592
0.868565 0.722674 0.411067
0.169632 0.648017 0.357519
0.191472 0.649878 0.358131
0.276875 0.656499 0.360323
0.391618 0.668437 0.364329
0.510593 0.684859 0.370255
0.635975 0.702941 0.378145
0.734942 0.724672 0.387992
0.810240 0.749566 0.399840
0.869428 0.777119 0.414353
0.184288 0.732031 0.361715
0.206721 0.733245 0.362321
0.291572 0.737573 0.364493
0.401185 0.745406 0.368462
0.517477 0.756824 0.374335
0.640666 0.771726 0.382157
0.737796 0.789884 0.391923
0.812068 0.808018 0.403928
0.870477 0.827512 0.418343
0.202180 0.804718 0.366645
0.226515 0.805542 0.367245
0.307660 0.808485 0.369393
0.412221 0.813826 0.373320
0.525593 0.821647 0.379133
0.646169 0.831915 0.386877
0.741151 0.844511 0.396550
0.814223 0.859259 0.408745
0.871714 0.873030 0.423045
0.138981 0.119546 0.486898
0.156322 0.126886 0.487252
0.236823 0.157058 0.488521
0.367051 0.203109 0.490843
0.493043 0.265409 0.494289
0.624116 0.333530 0.498894
0.727762 0.406276 0.504667
0.805654 0.481533 0.511598
0.866463 0.551421 0.519661
0.139435 0.142461 0.487016
0.156929 0.150639 0.487369
0.237558 0.176402 0.488638
0.367539 0.221538 0.490959
0.493391 0.280632 0.494404
0.624350 0.346066 0.499007
0.727903 0.417108 0.504778
0.805744 0.490093 0.511707
0.866535 0.558530 0.519768
0.141105 0.212932 0.487437
0.159154 0.219774 0.487790
0.240507 0.242864 0.489057
0.369288 0.280903 0.491376
0.494640 0.330487 0.494817
0.625189 0.388929 0.499415
0.728409 0.454012 0.505179
0.806066 0.519428 0.512101
0.866794 0.583236 0.520154
0.144863 0.317147 0.488211
0.163503 0.321970 0.488563
0.245957 0.338721 0.489827
0.372481 0.367901 0.492141
0.496927 0.408794 0.495575
0.626728 0.458607 0.500163
0.729339 0.512408 0.505916
0.806659 0.567571 0.512824
0.867270 0.621474 0.520861
0.150757 0.432821 0.489365
0.169929 0.436541 0.489717
0.253895 0.449667 0.490977
0.377197 0.473153 0.493283
0.500326 0.503569 0.496706
0.629019 0.540806 0.501280
0.730725 0.583803 0.507015
0.807543 0.626801 0.513903
0.867883 0.672570 0.521917
0.158623 0.547413 0.490919
0.179118 0.550017 0.491269
0.264251 0.559254 0.492524
0.383589 0.575799 0.494820
0.504876 0.598209 0.498228
0.632095 0.625253 0.502783
0.732588 0.657402 0.508495
0.808734 0.691407 0.515356
0.868565 0.723491 0.523418
0.169632 0.649237 0.492886
0.191472 0.651092 0.493234
0.276875 0.657696 0.494482
0.391618 0.669604 0.496766
0.510593 0.685768 0.500156
0.635975 0.703804 0.504687
0.734942 0.725484 0.510369
0.810240 0.750325 0.517195
0.869428 0.777825 0.525412
0.184288 0.732827 0.495275
0.206721 0.734038 0.495620
0.291572 0.738357 0.496860
0.401185 0.746173 0.499129
0.517477 0.757569 0.502496
0.640666 0.772442 0.506998
0.737796 0.790568 0.512646
0.812068 0.808553 0.519431
0.870477 0.828013 0.527836
0.202180 0.805258 0.498089
0.226515 0.806081 0.498432
0.307660 0.809018 0.499662
0.412221 0.814350 0.501914
0.525593 0.822159 0.505256
0.646169 0.832410 0.509724
0.741151 0.844987 0.515331
0.814223 0.859714 0.522068
0.871714 0.873312 0.530697
0.138981 0.125859 0.609148
0.156322 0.134692 0.609467
0.236823 0.163764 0.610614
0.367051 0.208795 0.612719
0.493043 0.270381 0.615853
0.624116 0.337593 0.620063
0.727762 0.409772 0.625376
0.805654 0.484290 0.631805
0.866463 0.553707 0.639351
0.139435 0.149764 0.609254
0.156929 0.157530 0.609573
0.237558 0.182336 0.610720
0.367539 0.227341 0.612824
0.493391 0.285318 0.615958
0.624350 0.349981 0.620167
0.727903 0.420519 0.625479
0.805744 0.492797 0.631907
0.866535 0.560782 0.639452
0.141105 0.219002 0.609634
0.159154 0.225631 0.609953
0.240507 0.248325 0.611099
0.369288 0.285585 0.613202
0.494640 0.334587 0.616334
0.625189 0.392570 0.620541
0.728409 0.457163 0.625850
0.806066 0.521879 0.632273
0.866794 0.585378 0.639814
0.144863 0.321420 0.610334
0.163503 0.326179 0.610653
0.245957 0.342721 0.611797
0.372481 0.371734 0.613898
0.496927 0.412270 0.617026
0.626728 0.461979 0.621228
0.729339 0.514985 0.626531
0.806659 0.569782 0.632947
0.867270 0.623223 0.640480
0.150757 0.436116 0.611379
0.169929 0.439810 0.611697
0.253895 0.452847 0.612840
0.377197 0.475963 0.614937
0.500326 0.506195 0.618060
0.629019 0.543144 0.622254
0.730725 0.585942 0.627548
0.807543 0.628529 0.633954
0.867883 0.674132 0.641475
0.158623 0.549719 0.612788
0.179118 0.552310 0.613106
0.264251 0.561503 0.614246
0.383589 0.577973 0.616337
0.504876 0.600055 0.619453
0.632095 0.626986 0.623638
0.732588 0.659016 0.628920
0.808734 0.692611 0.635313
0.868565 0.724591 0.642817
0.169632 0.650880 0.614575
0.191472 0.652729 0.614892
0.276875 0.659309 0.616029
0.391618 0.671176 0.618115
0.510593 0.686993 0.621221
0.635975 0.704967 0.625394
0.734942 0.726579 0.630661
0.810240 0.751348 0.637036
0.869428 0.778778 0.644519
0.184288 0.733899 0.616752
0.206721 0.735107 0.617068
0.291572 0.739413 0.618200
0.401185 0.747208 0.620278
0.517477 0.758572 0.623374
0.640666 0.773408 0.627533
0.737796 0.791489 0.632782
0.812068 0.809273 0.639134
0.870477 0.828690 0.646593
0.202180 0.805987 0.619326
0.226515 0.806807 0.619640
0.307660 0.809738 0.620768
0.412221 0.815057 0.622837
0.525593 0.822849 0.625920
0.646169 0.833078 0.630062
0.741151 0.845629 0.635289
0.814223 0.860327 0.641617
0.871714 0.873694 0.649047
0.138981 0.135750 0.729277
0.156322 0.144587 0.729457
0.236823 0.171540 0.730100
0.367051 0.216443 0.731282
0.493043 0.276566 0.733043
0.624116 0.342690 0.735409
0.727762 0.414177 0.738399
0.805654 0.487772 0.742020
0.866463 0.556599 0.746277
0.139435 0.158518 0.729337
0.156929 0.165900 0.729516
0.237558 0.190632 0.730160
0.367539 0.234482 0.731341
0.493391 0.291168 0.733102
0.624350 0.354898 0.735468
0.727903 0.424819 0.738457
0.805744 0.496214 0.742078
0.866535 0.563632 0.746334
0.141105 0.226450 0.729550
0.159154 0.232833 0.729730
0.240507 0.255090 0.730373
0.369288 0.291438 0.731553
0.494640 0.339730 0.733313
0.625189 0.397154 0.735678
0.728409 0.461323 0.738665
0.806066 0.524977 0.742285
0.866794 0.587986 0.746538
0.144863 0.326774 0.729943
0.163503 0.331454 0.730122
0.245957 0.347742 0.730765
0.372481 0.376557 0.731944
0.496927 0.416651 0.733702
0.626728 0.466388 0.736065
0.729339 0.518141 0.739049
0.806659 0.572580 0.742665
0.867270 0.625437 0.746914
0.150757 0.440273 0.730530
0.169929 0.443935 0.730708
0.253895 0.456861 0.731350
0.377197 0.479512 0.732528
0.500326 0.509513 0.734283
0.629019 0.546102 0.736642
0.730725 0.588487 0.739622
0.807543 0.630716 0.743232
0.867883 0.676111 0.747476
0.158623 0.552635 0.731321
0.179118 0.555210 0.731499
0.264251 0.564348 0.732139
0.383589 0.580725 0.733315
0.504876 0.602392 0.735066
0.632095 0.629181 0.737421
0.732588 0.661060 0.740395
0.808734 0.694138 0.743998
0.868565 0.725986 0.748234
0.169632 0.652961 0.732325
0.191472 0.654801 0.732503
0.276875 0.661352 0.733141
0.391618 0.673168 0.734314
0.510593 0.688544 0.736061
0.635975 0.706440 0.738409
0.734942 0.727966 0.741376
0.810240 0.752645 0.744970
0.869428 0.779985 0.749195
0.184288 0.735259 0.733548
0.206721 0.736462 0.733725
0.291572 0.740753 0.734362
0.401185 0.748520 0.735530
0.517477 0.759845 0.737272
0.640666 0.774632 0.739613
0.737796 0.792658 0.742571
0.812068 0.810188 0.746155
0.870477 0.829549 0.750367
0.202180 0.806911 0.734995
0.226515 0.807729 0.735171
0.307660 0.810650 0.735806
0.412221 0.815955 0.736970
0.525593 0.823724 0.738705
0.646169 0.833925 0.741038
0.741151 0.846444 0.743985
0.814223 0.861106 0.747556
0.871714 0.874177 0.751754
0.138981 0.147686 0.813373
0.156322 0.155405 0.813475
0.236823 0.180301 0.813839
0.367051 0.225623 0.814509
0.493043 0.283924 0.815506
0.624116 0.348814 0.816849
0.727762 0.419501 0.818547
0.805654 0.491990 0.820432
0.866463 0.560109 0.822522
0.139435 0.168489 0.813407
0.156929 0.175109 0.813509
0.237558 0.200093 0.813873
0.367539 0.243228 0.814542
0.493391 0.298369 0.815540
0.624350 0.360923 0.816882
0.727903 0.430019 0.818580
0.805744 0.500354 0.820460
0.866535 0.567091 0.822550
0.141105 0.235207 0.813528
0.159154 0.241578 0.813629
0.240507 0.263099 0.813994
0.369288 0.298632 0.814662
0.494640 0.345908 0.815660
0.625189 0.402689 0.817001
0.728409 0.466699 0.818698
0.806066 0.528733 0.820561
0.866794 0.590922 0.822651
0.144863 0.333195 0.813750
0.163503 0.337786 0.813852
0.245957 0.353778 0.814216
0.372481 0.382372 0.814884
0.496927 0.421944 0.815880
0.626728 0.470858 0.817221
0.729339 0.521954 0.818916
0.806659 0.575976 0.820748
0.867270 0.628126 0.822836
0.150757 0.445303 0.814082
0.169929 0.448926 0.814184
0.253895 0.461970 0.814547
0.377197 0.483808 0.815214
0.500326 0.513536 0.816210
0.629019 0.549690 0.817549
0.730725 0.591420 0.819242
0.807543 0.633373 0.821027
0.867883 0.678519 0.823112
0.158623 0.556174 0.814531
0.179118 0.558730 0.814632
0.264251 0.567802 0.814994
0.383589 0.584066 0.815661
0.504876 0.605229 0.816654
0.632095 0.631848 0.817991
0.732588 0.663546 0.819634
0.808734 0.695993 0.821403
0.868565 0.727683 0.823484
0.169632 0.655491 0.815099
0.191472 0.657321 0.815200
0.276875 0.663836 0.815562
0.391618 0.675591 0.816227
0.510593 0.690430 0.817219
0.635975 0.708232 0.818553
0.734942 0.729653 0.820115
0.810240 0.754224 0.821880
0.869428 0.781456 0.823957
0.184288 0.736913 0.815793
0.206721 0.738111 0.815893
0.291572 0.742383 0.816254
0.401185 0.750116 0.816918
0.517477 0.761394 0.817907
0.640666 0.776123 0.819237
0.737796 0.794056 0.820702
0.812068 0.811301 0.822462
0.870477 0.830596 0.824534
0.202180 0.808036 0.816614
0.226515 0.808851 0.816714
0.307660 0.811762 0.817074
0.412221 0.817047 0.817735
0.525593 0.824789 0.818721
0.646169 0.834957 0.819950
0.741151 0.847436 0.821396
0.814223 0.862054 0.823151
0.871714 0.874766 0.825216
0.138981 0.160378 0.864605
0.156322 0.167579 0.864666
0.236823 0.192348 0.864887
0.367051 0.236047 0.865294
0.493043 0.292448 0.865900
0.624116 0.355946 0.866716
0.727762 0.425739 0.867749
0.805654 0.496946 0.869004
0.866463 0.564243 0.870484
0.139435 0.179028 0.864625
0.156929 0.186400 0.864687
0.237558 0.210646 0.864908
0.367539 0.253188 0.865314
0.493391 0.306694 0.865920
0.624350 0.368091 0.866736
0.727903 0.436115 0.867769
0.805744 0.505220 0.869024
0.866535 0.571165 0.870504
0.141105 0.245519 0.864698
0.159154 0.251608 0.864760
0.240507 0.272278 0.864981
0.369288 0.306950 0.865387
0.494640 0.353099 0.865993
0.625189 0.409168 0.866808
0.728409 0.471946 0.867841
0.806066 0.533152 0.869096
0.866794 0.594381 0.870575
0.144863 0.340659 0.864833
0.163503 0.345149 0.864895
0.245957 0.360921 0.865116
0.372481 0.389168 0.865521
0.496927 0.428149 0.866127
0.626728 0.476055 0.866942
0.729339 0.526439 0.867974
0.806659 0.579978 0.869228
0.867270 0.631298 0.870706
0.150757 0.451205 0.865035
0.169929 0.454784 0.865096
0.253895 0.468060 0.865317
0.377197 0.488854 0.865722
0.500326 0.518165 0.866327
0.629019 0.553914 0.867141
0.730725 0.594874 0.868172
0.807543 0.636508 0.869425
0.867883 0.681312 0.870902
0.158623 0.560341 0.865307
0.179118 0.562876 0.865368
0.264251 0.571871 0.865589
0.383589 0.587910 0.865993
0.504876 0.608572 0.866597
0.632095 0.634993 0.867411
0.732588 0.666480 0.868440
0.808734 0.698183 0.869691
0.868565 0.729687 0.871166
0.169632 0.658476 0.865652
0.191472 0.660294 0.865714
0.276875 0.666768 0.865934
0.391618 0.678450 0.866338
0.510593 0.692655 0.866941
0.635975 0.710347 0.867752
0.734942 0.731647 0.868780
0.810240 0.756090 0.870029
0.869428 0.783194 0.871502
0.184288 0.738868 0.866074
0.206721 0.740059 0.866135
0.291572 0.744308 0.866354
0.401185 0.752002 0.866757
0.517477 0.763225 0.867359
0.640666 0.777885 0.868169
0.737796 0.795449 0.869195
0.812068 0.812617 0.870441
0.870477 0.831833 0.871911
0.202180 0.809366 0.866573
0.226515 0.810178 0.866634
0.307660 0.813076 0.866853
0.412221 0.818339 0.867255
0.525593 0.826050 0.867855
0.646169 0.836178 0.868663
0.741151 0.848610 0.869686
0.814223 0.863089 0.870930
0.871714 0.875463 0.872396
