ektachrome100d/Ektachrome100D_Modern_ExtraPunchy.cube
TITLE "Kodak Ektachrome 100D Modern ExtraPunchy"
# Adobe RGB in/out. REPLACES AgX. Kodak Ektachrome 100D Modern ExtraPunchy.
LUT_3D_SIZE 9
DOMAIN_MIN 0.0 0.0 0.0
DOMAIN_MAX 1.0 1.0 1.0
0.069243 0.072709 0.079439
0.071947 0.072709 0.079439
0.278412 0.074479 0.079439
0.738258 0.100881 0.079439
0.917808 0.280276 0.079259
0.959616 0.578447 0.078799
0.977611 0.791524 0.078294
0.984325 0.905731 0.078302
0.987658 0.955698 0.078836
0.069243 0.072887 0.079439
0.069578 0.072815 0.079439
0.157782 0.075224 0.079439
0.644834 0.107301 0.079439
0.899139 0.296784 0.079313
0.956448 0.593397 0.078844
0.975502 0.802504 0.078387
0.983921 0.909546 0.078262
0.987368 0.957752 0.078775
0.069243 0.145710 0.079439
0.071843 0.110487 0.079439
0.119945 0.092334 0.079439
0.474056 0.153320 0.079439
0.844602 0.372647 0.079392
0.946085 0.646975 0.079073
0.969079 0.837243 0.078561
0.982635 0.921671 0.078138
0.986419 0.964702 0.078614
0.069270 0.637277 0.079439
0.073374 0.576845 0.079439
0.157224 0.444123 0.079439
0.424254 0.408147 0.079439
0.755889 0.556136 0.079439
0.919253 0.745951 0.079181
0.960754 0.882687 0.078704
0.979310 0.942313 0.078055
0.984995 0.971481 0.078448
0.069628 0.909356 0.079439
0.075051 0.896827 0.079439
0.173601 0.857208 0.079439
0.476395 0.816533 0.079439
0.736924 0.815623 0.079411
0.891268 0.868832 0.079226
0.953423 0.924413 0.078792
0.972934 0.965680 0.078284
0.983445 0.978147 0.078319
0.070861 0.974703 0.079439
0.076932 0.973127 0.079439
0.179517 0.968717 0.079439
0.491103 0.957398 0.079439
0.756672 0.951249 0.079340
0.887438 0.955184 0.079168
0.947919 0.968554 0.078816
0.967661 0.978008 0.078413
0.982069 0.985212 0.078228
0.072427 0.987287 0.079439
0.079211 0.987001 0.079439
0.179753 0.986140 0.079439
0.488312 0.984889 0.079372
0.757798 0.983185 0.079260
0.887975 0.983125 0.079080
0.946305 0.984902 0.078755
0.963986 0.986497 0.078430
0.979914 0.990118 0.078189
0.074331 0.994277 0.079435
0.082573 0.994081 0.079422
0.177308 0.993478 0.079379
0.474687 0.992700 0.079312
0.741434 0.992105 0.079175
0.883017 0.991991 0.078947
0.944238 0.992505 0.078668
0.962854 0.993635 0.078289
0.977608 0.995256 0.078203
0.076920 0.996776 0.079368
0.085580 0.996771 0.079358
0.173795 0.996756 0.079322
0.449355 0.996735 0.079235
0.712823 0.996717 0.079107
0.872794 0.996719 0.078825
0.939217 0.996746 0.078599
0.960953 0.996791 0.078172
0.975797 0.996857 0.078254
0.069243 0.072709 0.078734
0.072568 0.072709 0.078685
0.278369 0.074534 0.078587
0.714237 0.097198 0.078472
0.911542 0.250872 0.078048
0.957965 0.560307 0.078301
0.976461 0.779079 0.078668
0.984105 0.901898 0.079490
0.987505 0.953947 0.080751
0.069243 0.072813 0.079226
0.069293 0.072716 0.079439
0.145386 0.074663 0.079150
0.617767 0.101061 0.078717
0.888606 0.273618 0.078304
0.954756 0.574135 0.078202
0.974344 0.789722 0.078577
0.983701 0.905687 0.079331
0.987215 0.956004 0.080571
0.069243 0.120041 0.078794
0.071048 0.094931 0.079128
0.098750 0.084859 0.079335
0.416150 0.129042 0.079145
0.826391 0.333814 0.078696
0.942357 0.627282 0.078131
0.967914 0.827355 0.078359
0.982417 0.918454 0.078897
0.986270 0.963239 0.080097
0.069250 0.588746 0.078783
0.072748 0.528758 0.078887
0.144628 0.387936 0.079130
0.373923 0.351528 0.079164
0.728147 0.519970 0.078909
0.914392 0.723918 0.078531
0.959642 0.876148 0.078127
0.978676 0.938443 0.078573
0.984856 0.970905 0.079483
0.069593 0.898978 0.078795
0.074398 0.885872 0.078823
0.165847 0.841754 0.078939
0.458481 0.792199 0.078994
0.717465 0.793328 0.078847
0.885644 0.858542 0.078643
0.952489 0.922611 0.078091
0.972285 0.963850 0.078382
0.983323 0.977741 0.078970
0.070767 0.973350 0.078801
0.076600 0.971788 0.078807
0.175003 0.966176 0.078818
0.482726 0.953686 0.078806
0.745393 0.947663 0.078741
0.883483 0.952012 0.078588
0.946598 0.967033 0.078220
0.967168 0.977543 0.078279
0.981974 0.985012 0.078745
0.072345 0.987030 0.078799
0.078926 0.986760 0.078796
0.177066 0.985883 0.078780
0.483666 0.984303 0.078736
0.751537 0.982620 0.078640
0.885692 0.982605 0.078494
0.945404 0.984463 0.078098
0.963667 0.986368 0.078244
0.979718 0.989960 0.078648
0.074211 0.994091 0.078793
0.082012 0.993898 0.078785
0.175884 0.993301 0.078757
0.472152 0.992531 0.078684
0.738078 0.991946 0.078575
0.881787 0.991846 0.078364
0.943745 0.992382 0.078067
0.962659 0.993540 0.078304
0.977472 0.995200 0.078640
0.076859 0.996771 0.078787
0.085437 0.996766 0.078777
0.173035 0.996751 0.078738
0.446815 0.996729 0.078655
0.711171 0.996712 0.078538
0.872202 0.996714 0.078272
0.938929 0.996743 0.078080
0.960872 0.996789 0.078347
0.975753 0.996856 0.078696
0.069243 0.072709 0.173842
0.072568 0.072718 0.179230
0.297349 0.075292 0.199607
0.752042 0.106806 0.169332
0.910254 0.254642 0.131737
0.956519 0.547728 0.127705
0.974873 0.764067 0.132645
0.983715 0.895665 0.144723
0.987187 0.950533 0.161992
0.069243 0.073357 0.175615
0.072532 0.074048 0.159418
0.205502 0.078717 0.105381
0.636283 0.107763 0.100376
0.884436 0.267492 0.104434
0.953073 0.558625 0.111400
0.972664 0.773252 0.121384
0.983301 0.899211 0.134261
0.986894 0.952535 0.153671
0.069243 0.090750 0.086329
0.070072 0.084282 0.080889
0.079916 0.077891 0.078257
0.359136 0.114896 0.079812
0.796739 0.306291 0.082763
0.936140 0.599517 0.088273
0.965949 0.807618 0.097640
0.981989 0.912072 0.112166
0.985942 0.959734 0.130735
0.069247 0.467878 0.090682
0.071662 0.408556 0.084684
0.115682 0.293081 0.080175
0.296619 0.258527 0.078884
0.676970 0.445248 0.079707
0.901815 0.684077 0.081628
0.957367 0.859183 0.085805
0.977143 0.930249 0.094144
0.984525 0.969588 0.109069
0.069502 0.867812 0.088993
0.073381 0.850289 0.086098
0.150346 0.792442 0.081948
0.394204 0.735966 0.080235
0.671009 0.740768 0.079672
0.872270 0.834427 0.080342
0.950228 0.914019 0.082345
0.970675 0.958847 0.086462
0.983009 0.976616 0.095271
0.070504 0.969616 0.085542
0.075690 0.967941 0.084490
0.163898 0.956876 0.082635
0.458462 0.944002 0.081129
0.715868 0.935634 0.080503
0.872716 0.943442 0.080494
0.943000 0.961821 0.081234
0.965824 0.976078 0.083582
0.981708 0.984188 0.089205
0.072101 0.986278 0.082957
0.078092 0.985995 0.082783
0.169958 0.985019 0.082028
0.470593 0.982642 0.081323
0.733906 0.981021 0.080977
0.879122 0.981118 0.080997
0.942640 0.983193 0.081438
0.962745 0.986002 0.082781
0.979141 0.989504 0.086607
0.073984 0.993521 0.081448
0.080878 0.993336 0.081393
0.171596 0.992762 0.081231
0.462893 0.992023 0.081056
0.728056 0.991472 0.081003
0.878081 0.991414 0.081185
0.941970 0.992012 0.081655
0.962062 0.993254 0.082943
0.977054 0.995011 0.085706
0.076663 0.996755 0.080501
0.084983 0.996750 0.080498
0.170636 0.996734 0.080498
0.438874 0.996711 0.080541
0.706000 0.996696 0.080702
0.870343 0.996700 0.081058
0.938026 0.996732 0.081628
0.960617 0.996783 0.082950
0.975614 0.996853 0.085708
0.069243 0.072709 0.876103
0.072568 0.072794 0.877069
0.297349 0.076396 0.880522
0.793403 0.128505 0.886805
0.924073 0.318357 0.839675
0.958116 0.575235 0.773808
0.974966 0.770729 0.732984
0.983562 0.894655 0.707862
0.986974 0.948836 0.692884
0.069243 0.073640 0.876424
0.072805 0.074584 0.877389
0.300394 0.085676 0.880839
0.746260 0.157642 0.850469
0.904162 0.324082 0.777981
0.954458 0.582972 0.732460
0.972630 0.778239 0.705689
0.983130 0.897793 0.690435
0.986674 0.950708 0.680675
0.069243 0.096661 0.691638
0.070817 0.094958 0.632713
0.132455 0.102282 0.502272
0.476163 0.162158 0.499716
0.825094 0.346496 0.552626
0.937268 0.611812 0.594975
0.965436 0.806173 0.618426
0.981754 0.909223 0.633142
0.985694 0.957468 0.642597
0.069243 0.354031 0.587538
0.070963 0.317468 0.509649
0.101551 0.234980 0.267909
0.222414 0.179969 0.111621
0.655362 0.420359 0.217738
0.895103 0.671142 0.372293
0.956008 0.850804 0.470067
0.975924 0.925018 0.526137
0.984236 0.968564 0.565500
0.069393 0.815463 0.593047
0.072470 0.792941 0.548732
0.133313 0.731995 0.423372
0.335503 0.670360 0.239354
0.620133 0.672403 0.164467
0.858895 0.801938 0.213429
0.947352 0.903896 0.324993
0.969116 0.954115 0.423013
0.982687 0.975394 0.480929
0.070176 0.959104 0.556270
0.074458 0.955366 0.531881
0.151916 0.944529 0.460301
0.411909 0.926401 0.346547
0.680542 0.921802 0.250531
0.859093 0.926936 0.214408
0.937618 0.954887 0.247305
0.964245 0.974302 0.331852
0.981103 0.983205 0.412225
0.071755 0.985078 0.491205
0.077153 0.984561 0.478548
0.161163 0.982728 0.440625
0.446151 0.980462 0.366441
0.711177 0.978949 0.302376
0.870392 0.979167 0.260356
0.938090 0.981506 0.255487
0.961545 0.985539 0.288809
0.978387 0.988930 0.356611
0.073675 0.992689 0.410403
0.080116 0.992519 0.402017
0.165534 0.991992 0.371873
0.446712 0.991313 0.332484
0.714190 0.990819 0.297095
0.872910 0.990822 0.272377
0.939272 0.991501 0.270274
0.961213 0.992858 0.291657
0.976472 0.994755 0.329746
0.076362 0.996726 0.302119
0.084290 0.996721 0.297917
0.167042 0.996705 0.284948
0.427185 0.996685 0.267973
0.698385 0.996673 0.254106
0.867610 0.996681 0.249344
0.936696 0.996717 0.257865
0.960240 0.996775 0.282874
0.975410 0.996849 0.322159
0.069243 0.072725 0.978894
0.072568 0.072959 0.979016
0.297349 0.078255 0.979449
0.793403 0.143250 0.980240
0.942919 0.434849 0.978707
0.962175 0.638872 0.964196
0.976940 0.802161 0.946683
0.983755 0.900941 0.937964
0.986975 0.950189 0.924526
0.069243 0.074277 0.978935
0.072805 0.075892 0.979056
0.300394 0.089511 0.979489
0.794304 0.213594 0.980279
0.927679 0.446229 0.971641
0.958522 0.644987 0.954923
0.974540 0.808830 0.943720
0.983308 0.903725 0.932662
0.986665 0.951911 0.919880
0.069243 0.158318 0.974892
0.072814 0.163743 0.971807
0.215119 0.198968 0.960234
0.619077 0.297956 0.945352
0.864667 0.475637 0.936749
0.946130 0.665067 0.925691
0.967023 0.830141 0.917563
0.981871 0.913615 0.910907
0.985651 0.958131 0.904829
0.069243 0.349385 0.911600
0.071002 0.334115 0.899022
0.117397 0.314446 0.858869
0.354340 0.352513 0.812267
0.718255 0.528081 0.824271
0.905607 0.704607 0.850921
0.956743 0.860232 0.869010
0.975883 0.926787 0.876220
0.984129 0.968456 0.879183
0.069344 0.756366 0.892614
0.071816 0.740982 0.882601
0.118633 0.688578 0.838282
0.309038 0.641251 0.741188
0.573152 0.609847 0.632211
0.853969 0.792324 0.724767
0.945822 0.901609 0.785330
0.968394 0.952621 0.822494
0.982496 0.974850 0.842256
0.069901 0.944716 0.886681
0.073550 0.941262 0.879569
0.140703 0.926753 0.852239
0.369845 0.915582 0.796395
0.646413 0.906390 0.732323
0.844774 0.915361 0.694500
0.932762 0.949097 0.723784
0.962962 0.972986 0.768052
0.980320 0.982495 0.797317
0.071412 0.982291 0.870896
0.076248 0.981773 0.865685
0.152403 0.980187 0.846485
0.412333 0.978189 0.811627
0.687933 0.976753 0.771148
0.861078 0.977125 0.737756
0.933083 0.979708 0.723940
0.960332 0.984947 0.738782
0.977573 0.988403 0.767793
0.073307 0.991714 0.839550
0.079216 0.991566 0.836198
0.159443 0.991107 0.820907
0.423639 0.990414 0.796858
0.698944 0.989828 0.771911
0.867186 0.989936 0.750627
0.936252 0.990948 0.737763
0.960257 0.992430 0.738691
0.975916 0.994534 0.752299
0.075992 0.996688 0.786466
0.083442 0.996684 0.783963
0.163063 0.996670 0.775795
0.413526 0.996636 0.763656
0.689488 0.996531 0.748743
0.864435 0.996659 0.736138
0.935158 0.996700 0.730763
0.959805 0.996766 0.734125
0.975178 0.996846 0.745841
0.069243 0.072930 0.993429
0.072568 0.073482 0.993436
0.297349 0.081339 0.993461
0.793403 0.161966 0.993508
0.947383 0.500850 0.993576
0.967027 0.707002 0.992586
0.979748 0.842956 0.989870
0.984227 0.913319 0.984480
0.987181 0.954533 0.978593
0.069243 0.075627 0.993431
0.072805 0.078459 0.993438
0.300394 0.097195 0.993463
0.794304 0.237263 0.993510
0.945558 0.575964 0.993462
0.963559 0.717390 0.992119
0.977687 0.847194 0.989078
0.983776 0.915614 0.982842
0.986866 0.956143 0.977247
0.069243 0.201330 0.993439
0.073862 0.229941 0.993447
0.311411 0.353917 0.993472
0.729218 0.474186 0.992560
0.900793 0.612061 0.991015
0.952882 0.745704 0.986364
0.970169 0.861615 0.981217
0.982313 0.922439 0.976619
0.985826 0.961923 0.972823
0.069245 0.471359 0.985859
0.071815 0.473828 0.984335
0.156704 0.495082 0.979642
0.511138 0.560135 0.974289
0.799119 0.657438 0.970896
0.923011 0.783893 0.969278
0.959543 0.884820 0.968191
0.977170 0.936428 0.967075
0.984246 0.969460 0.964812
0.069327 0.742936 0.970426
0.071650 0.733769 0.968426
0.121054 0.707644 0.957657
0.344240 0.696325 0.944440
0.658166 0.741305 0.936526
0.870848 0.841452 0.939268
0.948998 0.913017 0.944463
0.969009 0.956104 0.946993
0.982513 0.975332 0.949366
0.069723 0.928065 0.965391
0.072922 0.924536 0.962416
0.130346 0.919325 0.952831
0.347019 0.907380 0.941786
0.630561 0.898661 0.919902
0.822606 0.899157 0.896244
0.930884 0.948021 0.917770
0.962565 0.972869 0.932404
0.979989 0.982375 0.939331
0.071148 0.979525 0.958809
0.075384 0.979112 0.956915
0.144393 0.977837 0.950719
0.383488 0.975966 0.943992
0.667967 0.974532 0.932954
0.852464 0.974843 0.918088
0.927299 0.977955 0.911244
0.959301 0.984156 0.917855
0.976895 0.988064 0.927189
0.072923 0.990674 0.949343
0.078270 0.990502 0.948206
0.153288 0.989969 0.945409
0.401224 0.989293 0.941671
0.684071 0.988860 0.934698
0.861573 0.989078 0.924771
0.933196 0.990268 0.918559
0.959283 0.992018 0.917175
0.975393 0.994354 0.920750
0.075583 0.996540 0.940259
0.082512 0.996493 0.939632
0.158976 0.996351 0.937545
0.399221 0.996194 0.933026
0.680167 0.996162 0.926585
0.861141 0.996405 0.920986
0.933576 0.996683 0.917495
0.959361 0.996758 0.916800
0.974953 0.996844 0.918797
0.069243 0.073569 0.995323
0.072568 0.074497 0.995325
0.297349 0.085271 0.995333
0.793403 0.188225 0.995347
0.947383 0.543463 0.995367
0.971397 0.783621 0.995136
0.981875 0.878243 0.994187
0.984832 0.923967 0.993486
0.987522 0.961039 0.992731
0.069243 0.078992 0.995324
0.072805 0.082270 0.995326
0.300394 0.110053 0.995333
0.794304 0.283239 0.995347
0.947559 0.618529 0.995368
0.968195 0.793695 0.994970
0.980655 0.881636 0.993934
0.984390 0.925953 0.993304
0.987206 0.962590 0.992602
0.069243 0.233322 0.995326
0.073862 0.271786 0.995328
0.311411 0.401032 0.995336
0.796847 0.618294 0.995343
0.924165 0.713625 0.994805
0.958200 0.823627 0.993892
0.973851 0.892794 0.993353
0.982941 0.935218 0.992707
0.986160 0.967280 0.992107
0.069249 0.616720 0.994292
0.073002 0.623574 0.994170
0.199260 0.647828 0.993792
0.603345 0.692813 0.993509
0.855440 0.772252 0.992974
0.939288 0.853882 0.992514
0.963343 0.909653 0.992055
0.979169 0.948276 0.991651
0.984549 0.971414 0.989898
0.069350 0.785701 0.992276
0.072061 0.784695 0.992137
0.140633 0.785742 0.991708
0.435229 0.802573 0.989645
0.741646 0.842729 0.987564
0.896732 0.890804 0.986080
0.952502 0.929010 0.985634
0.970852 0.963981 0.985385
0.982741 0.976858 0.984880
0.069664 0.923307 0.989620
0.072718 0.922606 0.989479
0.127502 0.919259 0.986456
0.355254 0.914553 0.981953
0.655569 0.915860 0.976742
0.855205 0.928126 0.974053
0.937329 0.958111 0.975053
0.963598 0.974632 0.976990
0.980290 0.983059 0.978305
0.070929 0.977365 0.986860
0.074618 0.977054 0.986192
0.138415 0.975917 0.983976
0.364819 0.974491 0.980182
0.657153 0.973577 0.975506
0.848103 0.973951 0.971145
0.921752 0.976142 0.967579
0.958958 0.984112 0.971146
0.976677 0.988105 0.973411
0.072652 0.989332 0.983363
0.077458 0.989203 0.982938
0.147684 0.988810 0.981346
0.381763 0.988331 0.978696
0.671361 0.988085 0.975625
0.856844 0.988419 0.972771
0.930063 0.989643 0.970739
0.958351 0.991653 0.970103
0.974965 0.994247 0.971223
0.075205 0.995982 0.978262
0.080887 0.995949 0.977969
0.154919 0.995856 0.976988
0.385376 0.995773 0.975440
0.671162 0.995824 0.973648
0.858007 0.996147 0.972002
0.931895 0.996670 0.970860
0.958948 0.996752 0.970455
0.974762 0.996844 0.970794
0.069243 0.075039 0.995948
0.072568 0.077666 0.995949
0.297349 0.094329 0.995951
0.793403 0.229909 0.995955
0.947383 0.581042 0.995961
0.974687 0.840869 0.995930
0.982677 0.902096 0.995627
0.985430 0.940638 0.995231
0.987905 0.967661 0.994744
0.069243 0.083617 0.995948
0.072805 0.088104 0.995949
0.300394 0.132849 0.995951
0.794304 0.323227 0.995955
0.947559 0.651706 0.995962
0.971774 0.848766 0.995867
0.982089 0.905573 0.995562
0.985003 0.943046 0.995153
0.987594 0.968562 0.994626
0.069243 0.286480 0.995949
0.073862 0.315404 0.995950
0.311411 0.451369 0.995952
0.797528 0.652786 0.995956
0.937974 0.801808 0.995862
0.962564 0.872158 0.995599
0.977267 0.916254 0.995247
0.983597 0.949036 0.994845
0.986560 0.970479 0.994212
0.069264 0.725444 0.995799
0.074364 0.733907 0.995769
0.249214 0.759266 0.995672
0.665552 0.803421 0.995525
0.882218 0.853423 0.995254
0.949588 0.896780 0.994976
0.967114 0.928494 0.994488
0.981284 0.959416 0.993998
0.984948 0.973923 0.993612
0.069392 0.849470 0.994840
0.072733 0.851059 0.994773
0.158965 0.858009 0.994539
0.511965 0.874620 0.994187
0.795613 0.896530 0.993822
0.917253 0.922248 0.993612
0.956354 0.949840 0.993484
0.973266 0.970187 0.993258
0.983104 0.978693 0.993044
0.069685 0.929420 0.993611
0.072839 0.928940 0.993610
0.136106 0.928196 0.993401
0.393774 0.930230 0.993057
0.701205 0.939577 0.992718
0.876410 0.953327 0.992486
0.945789 0.969518 0.992374
0.965644 0.977633 0.992340
0.981132 0.984441 0.992306
0.070797 0.976144 0.993048
0.074163 0.975939 0.992987
0.135255 0.975344 0.992784
0.361505 0.974757 0.992468
0.662333 0.974865 0.992022
0.854621 0.976510 0.991632
0.931215 0.980052 0.990910
0.960216 0.985431 0.991359
0.977141 0.988690 0.991641
0.072422 0.988280 0.992619
0.076940 0.988198 0.992577
0.143250 0.987957 0.992433
0.367591 0.987703 0.992153
0.663084 0.987693 0.991820
0.854315 0.988205 0.991189
0.928501 0.989468 0.989702
0.957504 0.991360 0.989587
0.974807 0.994304 0.989886
0.074763 0.995478 0.992084
0.080283 0.995461 0.992052
0.151187 0.995420 0.991946
0.373006 0.995416 0.991777
0.663220 0.995556 0.991576
0.855341 0.995962 0.990521
0.930483 0.996661 0.989709
0.958609 0.996749 0.989665
0.974630 0.996846 0.989691
0.069243 0.079861 0.996101
0.072568 0.083134 0.996101
0.297349 0.112920 0.996101
0.793403 0.290181 0.996101
0.947383 0.625094 0.996101
0.976518 0.873871 0.996101
0.983264 0.920799 0.996092
0.985920 0.951496 0.995878
0.988248 0.970662 0.995647
0.069243 0.092484 0.996101
0.072805 0.103210 0.996101
0.300394 0.167251 0.996101
0.794304 0.387315 0.996101
0.947559 0.686273 0.996101
0.974110 0.882775 0.996101
0.982718 0.922648 0.996049
0.985514 0.953379 0.995846
0.987946 0.971218 0.995614
0.069243 0.335693 0.996101
0.073862 0.376205 0.996101
0.311411 0.514371 0.996101
0.797528 0.687349 0.996101
0.945462 0.855330 0.996101
0.965704 0.901357 0.996097
0.979687 0.932276 0.995908
0.984167 0.959729 0.995707
0.986936 0.973154 0.995501
0.069304 0.812664 0.996101
0.075793 0.820048 0.996101
0.286125 0.839206 0.996101
0.713614 0.866675 0.996087
0.901969 0.896213 0.995959
0.953565 0.922385 0.995825
0.970299 0.948319 0.995644
0.982088 0.968657 0.995458
0.985348 0.976570 0.995209
0.069472 0.893750 0.995807
0.073536 0.895284 0.995790
0.178011 0.901041 0.995731
0.569033 0.912352 0.995640
0.839292 0.924159 0.995531
0.929957 0.946074 0.995360
0.959767 0.964380 0.995183
0.975637 0.973964 0.995019
0.983498 0.980672 0.994792
0.069760 0.945788 0.995249
0.073259 0.946087 0.995225
0.145030 0.947487 0.995148
0.444699 0.951167 0.995030
0.745904 0.958553 0.994857
0.894088 0.968704 0.994621
0.950570 0.974421 0.994413
0.967852 0.980367 0.994244
0.981748 0.985603 0.994088
0.070779 0.976672 0.994695
0.074147 0.976626 0.994650
0.136690 0.976567 0.994499
0.373732 0.976830 0.994264
0.680455 0.977789 0.993999
0.865618 0.979831 0.993768
0.938407 0.983299 0.993622
0.962042 0.986396 0.993612
0.978029 0.989631 0.993612
0.072264 0.987694 0.994155
0.076589 0.987660 0.994121
0.140533 0.987579 0.994006
0.360686 0.987576 0.993820
0.661315 0.987863 0.993613
0.855322 0.988684 0.993610
0.930550 0.990279 0.993454
0.958848 0.992243 0.993388
0.975180 0.994661 0.993414
0.074374 0.995066 0.993702
0.079759 0.995064 0.993680
0.148047 0.995075 0.993613
0.363005 0.995161 0.993611
0.657077 0.995398 0.993586
0.853479 0.995891 0.993445
0.929640 0.996661 0.993338
0.958430 0.996752 0.993288
0.974582 0.996852 0.993312
