ektachrome100d/Ektachrome100D_Classic_Soft.cube
TITLE "Kodak Ektachrome 100D Classic Soft"
# Adobe RGB in/out. REPLACES AgX. Kodak Ektachrome 100D Classic Soft.
LUT_3D_SIZE 33
DOMAIN_MIN 0.0 0.0 0.0
DOMAIN_MAX 1.0 1.0 1.0
0.086071 0.084324 0.090717
0.086071 0.084324 0.090717
0.086071 0.084324 0.090717
0.086071 0.084324 0.090717
0.086189 0.084324 0.090717
0.088004 0.084324 0.090717
0.092394 0.084324 0.090717
0.102670 0.084324 0.090717
0.117831 0.084441 0.090717
0.144740 0.084724 0.090717
0.188579 0.085138 0.090717
0.234590 0.086228 0.090717
0.280539 0.087487 0.090717
0.332938 0.088777 0.090717
0.391671 0.092519 0.090717
0.464425 0.097847 0.090717
0.532808 0.103234 0.090717
0.595191 0.110728 0.090717
0.664663 0.123491 0.090717
0.726203 0.144309 0.090717
0.767418 0.169976 0.090717
0.814415 0.200739 0.090726
0.843807 0.230475 0.090742
0.870829 0.271559 0.090757
0.890529 0.315801 0.090778
0.909822 0.353756 0.090803
0.920205 0.402228 0.090826
0.928028 0.456816 0.090855
0.935629 0.505574 0.090911
0.942383 0.554013 0.090974
0.947317 0.603173 0.091046
0.952113 0.642830 0.091126
0.956781 0.688629 0.091204
0.086071 0.084324 0.090717
0.086071 0.084324 0.090717
0.086071 0.084324 0.090717
0.086071 0.084324 0.090717
0.086192 0.084324 0.090717
0.088013 0.084324 0.090717
0.092402 0.084324 0.090717
0.102692 0.084325 0.090717
0.117850 0.084469 0.090717
0.144773 0.084762 0.090717
0.188622 0.085188 0.090717
0.234623 0.086305 0.090717
0.280579 0.087572 0.090717
0.332975 0.088849 0.090717
0.391722 0.092790 0.090717
0.464455 0.098161 0.090717
0.532854 0.103563 0.090717
0.595220 0.111091 0.090717
0.664691 0.124172 0.090717
0.726230 0.145182 0.090717
0.767432 0.170928 0.090717
0.814427 0.201837 0.090726
0.843818 0.231625 0.090742
0.870836 0.272542 0.090757
0.890535 0.317568 0.090778
0.909826 0.354735 0.090803
0.920207 0.403548 0.090827
0.928030 0.458196 0.090855
0.935631 0.506722 0.090911
0.942384 0.555075 0.090974
0.947318 0.604247 0.091047
0.952115 0.643643 0.091127
0.956782 0.689600 0.091204
0.086071 0.084324 0.090717
0.086071 0.084324 0.090717
0.086071 0.084324 0.090717
0.086071 0.084324 0.090717
0.086202 0.084324 0.090717
0.088044 0.084324 0.090717
0.092431 0.084324 0.090717
0.102768 0.084360 0.090717
0.117921 0.084563 0.090717
0.144894 0.084890 0.090717
0.188774 0.085508 0.090717
0.234740 0.086574 0.090717
0.280721 0.087869 0.090717
0.333106 0.089241 0.090717
0.391904 0.093753 0.090717
0.464564 0.099204 0.090717
0.533020 0.104739 0.090717
0.595324 0.112389 0.090717
0.664791 0.126929 0.090717
0.726327 0.148296 0.090717
0.767480 0.174361 0.090717
0.814467 0.205803 0.090726
0.843856 0.236040 0.090742
0.870861 0.276079 0.090758
0.890558 0.322431 0.090778
0.909839 0.358255 0.090803
0.920216 0.408301 0.090827
0.928038 0.462662 0.090856
0.935639 0.510850 0.090912
0.942389 0.558895 0.090975
0.947322 0.607471 0.091047
0.952119 0.646562 0.091127
0.956786 0.693088 0.091205
0.086071 0.084324 0.090717
0.086071 0.084324 0.090717
0.086071 0.084324 0.090717
0.086071 0.084324 0.090717
0.086219 0.084324 0.090717
0.088100 0.084324 0.090717
0.092485 0.084352 0.090717
0.102910 0.084504 0.090717
0.118051 0.084756 0.090717
0.145116 0.085106 0.090717
0.189055 0.086061 0.090717
0.234955 0.087168 0.090717
0.280984 0.088388 0.090717
0.333349 0.090628 0.090717
0.392239 0.095478 0.090717
0.464765 0.100834 0.090717
0.533326 0.106871 0.090717
0.595516 0.115263 0.090717
0.664976 0.132037 0.090717
0.726506 0.154229 0.090717
0.767570 0.180775 0.090717
0.814542 0.211935 0.090726
0.843926 0.244836 0.090743
0.870906 0.282614 0.090758
0.890600 0.328815 0.090779
0.909864 0.366607 0.090804
0.920231 0.417096 0.090827
0.928052 0.470128 0.090856
0.935652 0.518464 0.090913
0.942398 0.565931 0.090976
0.947330 0.612887 0.091049
0.952126 0.651928 0.091129
0.956793 0.699507 0.091206
0.086071 0.084324 0.090717
0.086071 0.084324 0.090717
0.086071 0.084324 0.090717
0.086071 0.084324 0.090717
0.086245 0.084341 0.090717
0.088183 0.084399 0.090717
0.092566 0.084565 0.090717
0.103121 0.084792 0.090717
0.118246 0.085089 0.090717
0.145447 0.085904 0.090717
0.189475 0.086856 0.090717
0.235278 0.088000 0.090717
0.281377 0.089249 0.090717
0.333712 0.093346 0.090717
0.392740 0.098302 0.090717
0.465065 0.103188 0.090717
0.533783 0.110059 0.090717
0.595803 0.121315 0.090717
0.665252 0.139762 0.090717
0.726774 0.163430 0.090717
0.767704 0.191322 0.090717
0.814655 0.220062 0.090727
0.844031 0.258267 0.090743
0.870974 0.293173 0.090758
0.890663 0.338402 0.090780
0.909901 0.379308 0.090804
0.920255 0.430374 0.090828
0.928074 0.481339 0.090857
0.935672 0.529569 0.090915
0.942411 0.576476 0.090977
0.947343 0.620975 0.091051
0.952137 0.659943 0.091130
0.956803 0.706234 0.091208
0.086071 0.084425 0.090717
0.086071 0.084436 0.090717
0.086071 0.084472 0.090717
0.086071 0.084535 0.090717
0.086279 0.084623 0.090717
0.088295 0.084782 0.090717
0.092684 0.084993 0.090717
0.103406 0.085399 0.090717
0.118508 0.086145 0.090717
0.145895 0.086996 0.090717
0.190043 0.088002 0.090717
0.235713 0.089065 0.090717
0.281909 0.092516 0.090717
0.334202 0.096830 0.090717
0.393418 0.101705 0.090717
0.465470 0.107501 0.090717
0.534400 0.115404 0.090717
0.596191 0.130985 0.090717
0.665625 0.151422 0.090717
0.727136 0.176132 0.090717
0.767885 0.205927 0.090717
0.814806 0.233885 0.090728
0.844173 0.272730 0.090744
0.871065 0.314762 0.090759
0.890748 0.351424 0.090781
0.909951 0.396709 0.090805
0.920286 0.448545 0.090829
0.928103 0.496572 0.090858
0.935699 0.543709 0.090917
0.942428 0.590763 0.090980
0.947359 0.631880 0.091053
0.952153 0.673359 0.091133
0.956818 0.715020 0.091210
0.086071 0.084940 0.090717
0.086071 0.084952 0.090717
0.086071 0.084995 0.090717
0.086071 0.085070 0.090717
0.086329 0.085265 0.090717
0.088435 0.085691 0.090717
0.092895 0.086191 0.090717
0.103767 0.086788 0.090717
0.118841 0.087577 0.090717
0.146465 0.088404 0.090717
0.190765 0.089591 0.090717
0.236266 0.093090 0.090717
0.282584 0.097008 0.090717
0.334825 0.101457 0.090717
0.394280 0.106657 0.090717
0.465985 0.113521 0.090717
0.535185 0.126404 0.090717
0.596684 0.144782 0.090717
0.666100 0.167251 0.090717
0.727597 0.193850 0.090717
0.768116 0.220563 0.090717
0.814999 0.256701 0.090729
0.844353 0.290034 0.090745
0.871182 0.333854 0.090760
0.890857 0.370966 0.090782
0.910015 0.419230 0.090807
0.920326 0.469870 0.090830
0.928140 0.516081 0.090860
0.935734 0.561759 0.090920
0.942450 0.608149 0.090982
0.947379 0.645709 0.091057
0.952172 0.690234 0.091136
0.956836 0.726131 0.091214
0.086071 0.086357 0.090717
0.086071 0.086384 0.090717
0.086071 0.086482 0.090717
0.086071 0.086667 0.090717
0.086400 0.086998 0.090717
0.088603 0.087424 0.090717
0.093149 0.087935 0.090717
0.104205 0.088517 0.090717
0.119246 0.089337 0.090717
0.147160 0.091892 0.090717
0.191648 0.095048 0.090717
0.236942 0.098857 0.090717
0.283410 0.102488 0.090717
0.335586 0.107530 0.090717
0.395335 0.114016 0.090717
0.466615 0.126010 0.090717
0.536145 0.142598 0.090717
0.597286 0.163626 0.090717
0.666679 0.187883 0.090717
0.728159 0.214594 0.090717
0.768397 0.244516 0.090717
0.815234 0.278900 0.090730
0.844573 0.321769 0.090746
0.871324 0.354079 0.090761
0.890989 0.397916 0.090784
0.910093 0.447325 0.090808
0.920375 0.493468 0.090831
0.928186 0.538884 0.090862
0.935776 0.583908 0.090924
0.942477 0.625133 0.090986
0.947405 0.662621 0.091061
0.952196 0.707106 0.091140
0.956858 0.739612 0.091219
0.086071 0.088408 0.090717
0.086071 0.088435 0.090717
0.086071 0.088533 0.090717
0.086072 0.088709 0.090717
0.086482 0.089003 0.090717
0.088800 0.089720 0.090717
0.093489 0.091305 0.090717
0.104723 0.093353 0.090717
0.119725 0.095683 0.090717
0.147985 0.098696 0.090717
0.192696 0.101640 0.090717
0.237743 0.105393 0.090717
0.284390 0.110200 0.090717
0.336490 0.117542 0.090717
0.396587 0.129870 0.090717
0.467361 0.145824 0.090717
0.537285 0.165242 0.090717
0.598001 0.187927 0.090717
0.667367 0.213236 0.090717
0.728826 0.240017 0.090717
0.768731 0.273870 0.090717
0.815513 0.310630 0.090732
0.844834 0.345665 0.090747
0.871492 0.384341 0.090762
0.891146 0.430752 0.090786
0.910186 0.477529 0.090810
0.920433 0.521777 0.090834
0.928240 0.565058 0.090865
0.935826 0.609171 0.090928
0.942509 0.645208 0.090990
0.947435 0.687812 0.091066
0.952224 0.723271 0.091145
0.956884 0.755485 0.091226
0.086071 0.094028 0.090717
0.086071 0.094123 0.090717
0.086071 0.094464 0.090717
0.086076 0.095085 0.090717
0.086574 0.096002 0.090717
0.089024 0.097357 0.090717
0.093953 0.099203 0.090717
0.105322 0.101050 0.090717
0.120280 0.103168 0.090717
0.150430 0.106512 0.090717
0.194064 0.110356 0.090717
0.238674 0.115892 0.090717
0.285529 0.125382 0.090717
0.337540 0.138133 0.090717
0.397989 0.153803 0.090717
0.468229 0.172228 0.090717
0.538610 0.194075 0.090717
0.598831 0.216546 0.090717
0.668165 0.243132 0.090717
0.729601 0.274482 0.090717
0.769118 0.308691 0.090718
0.815837 0.342880 0.090734
0.845137 0.378356 0.090749
0.871688 0.422134 0.090764
0.891328 0.468244 0.090788
0.910293 0.510242 0.090812
0.920500 0.552472 0.090836
0.928302 0.595658 0.090870
0.935885 0.632575 0.090933
0.942547 0.670300 0.090994
0.947469 0.710648 0.091072
0.952256 0.741869 0.091150
0.956915 0.773374 0.091234
0.086071 0.102631 0.090717
0.086071 0.102716 0.090717
0.086071 0.103021 0.090717
0.086081 0.103724 0.090717
0.086674 0.104893 0.090717
0.089274 0.106452 0.090717
0.094476 0.108405 0.090717
0.106001 0.110950 0.090717
0.120910 0.114524 0.090717
0.153216 0.120562 0.090717
0.196058 0.128856 0.090717
0.239737 0.139242 0.090717
0.286831 0.152202 0.090717
0.338740 0.167529 0.090717
0.399479 0.185275 0.090717
0.469219 0.206630 0.090717
0.540124 0.224888 0.090717
0.599779 0.254097 0.090717
0.669078 0.280821 0.090717
0.730486 0.316955 0.090717
0.769560 0.345779 0.090720
0.816207 0.379941 0.090736
0.845483 0.421412 0.090751
0.871911 0.465625 0.090766
0.891536 0.505516 0.090791
0.910416 0.546184 0.090815
0.920577 0.587358 0.090839
0.928374 0.624754 0.090876
0.935951 0.659160 0.090939
0.942589 0.701878 0.091000
0.947509 0.732034 0.091079
0.952293 0.762888 0.091157
0.956949 0.790507 0.091244
0.086071 0.115352 0.090717
0.086071 0.115555 0.090717
0.086071 0.116357 0.090717
0.086087 0.117832 0.090717
0.086836 0.120041 0.090717
0.089548 0.123028 0.090717
0.095057 0.127547 0.090717
0.106760 0.133356 0.090717
0.121617 0.140326 0.090717
0.154491 0.149398 0.090717
0.198317 0.160243 0.090717
0.240934 0.172842 0.090717
0.288299 0.187872 0.090717
0.340092 0.205776 0.090717
0.401161 0.221302 0.090717
0.470335 0.244212 0.090717
0.541833 0.270332 0.090717
0.600848 0.293812 0.090717
0.670106 0.328857 0.090717
0.731484 0.354452 0.090717
0.770058 0.389220 0.090722
0.816624 0.428670 0.090738
0.845873 0.469731 0.090753
0.872163 0.507644 0.090770
0.891771 0.546245 0.090794
0.910554 0.585483 0.090817
0.920664 0.621833 0.090843
0.928454 0.654772 0.090883
0.936026 0.695645 0.090945
0.942637 0.726093 0.091006
0.947554 0.755844 0.091086
0.952335 0.783785 0.091163
0.956989 0.809519 0.091254
0.086071 0.145739 0.090717
0.086071 0.146051 0.090717
0.086071 0.147177 0.090717
0.086092 0.149255 0.090717
0.087073 0.152448 0.090717
0.089852 0.156904 0.090717
0.095695 0.162632 0.090717
0.107502 0.169717 0.090717
0.122400 0.178253 0.090717
0.156146 0.189061 0.090717
0.200846 0.201913 0.090717
0.242267 0.214562 0.090717
0.289936 0.227932 0.090717
0.341600 0.248899 0.090717
0.403038 0.270562 0.090717
0.471579 0.290507 0.090717
0.543739 0.322686 0.090717
0.602039 0.344918 0.090717
0.671251 0.372181 0.090717
0.732379 0.406471 0.090717
0.770613 0.444135 0.090725
0.817088 0.480671 0.090740
0.846308 0.516719 0.090755
0.872443 0.552726 0.090773
0.892032 0.590096 0.090797
0.910708 0.623875 0.090820
0.920761 0.655320 0.090846
0.928544 0.694516 0.090890
0.936110 0.724127 0.090952
0.942691 0.752713 0.091015
0.947604 0.780248 0.091094
0.952382 0.805092 0.091171
0.957032 0.826394 0.091268
0.086071 0.189183 0.090717
0.086071 0.189571 0.090717
0.086071 0.190968 0.090717
0.086129 0.193548 0.090717
0.087323 0.197432 0.090717
0.090279 0.202726 0.090717
0.096389 0.209271 0.090717
0.108252 0.215424 0.090717
0.125555 0.222762 0.090717
0.158046 0.234230 0.090717
0.203668 0.250019 0.090717
0.243739 0.266777 0.090717
0.291745 0.281418 0.090717
0.343266 0.300806 0.090717
0.405114 0.327089 0.090717
0.472952 0.346156 0.090717
0.545336 0.369536 0.090717
0.603354 0.399299 0.090717
0.672517 0.432120 0.090717
0.733341 0.466748 0.090717
0.771226 0.498605 0.090728
0.817601 0.532291 0.090743
0.846788 0.565716 0.090757
0.872753 0.601279 0.090777
0.892320 0.630922 0.090801
0.910877 0.660850 0.090824
0.920867 0.699374 0.090850
0.928643 0.726190 0.090898
0.936202 0.753555 0.090960
0.942750 0.779958 0.091025
0.947659 0.803845 0.091103
0.952433 0.825112 0.091180
0.957081 0.838650 0.091286
0.086071 0.240194 0.090717
0.086071 0.240675 0.090717
0.086077 0.242407 0.090717
0.086262 0.245607 0.090717
0.087584 0.250431 0.090717
0.090742 0.257018 0.090717
0.097136 0.264764 0.090717
0.109140 0.272116 0.090717
0.127582 0.280904 0.090717
0.160133 0.291808 0.090717
0.206794 0.309857 0.090717
0.245351 0.327605 0.090717
0.293697 0.342033 0.090717
0.345092 0.358090 0.090717
0.407393 0.381067 0.090717
0.474457 0.406776 0.090717
0.546865 0.435278 0.090717
0.604795 0.465575 0.090717
0.673904 0.493519 0.090717
0.734396 0.523741 0.090717
0.771897 0.553617 0.090731
0.818162 0.585329 0.090746
0.847313 0.615868 0.090760
0.873092 0.642995 0.090781
0.892636 0.674198 0.090805
0.911064 0.707023 0.090827
0.920984 0.732305 0.090855
0.928751 0.758402 0.090907
0.936303 0.782948 0.090968
0.942814 0.805817 0.091035
0.947719 0.825696 0.091113
0.952490 0.838670 0.091189
0.957134 0.851222 0.091306
0.086071 0.304888 0.090717
0.086071 0.305514 0.090717
0.086085 0.307770 0.090717
0.086433 0.311943 0.090717
0.087854 0.318243 0.090717
0.091231 0.323992 0.090717
0.097935 0.329929 0.090717
0.110252 0.337204 0.090717
0.129252 0.345874 0.090717
0.162409 0.355990 0.090717
0.209909 0.370325 0.090717
0.247105 0.387550 0.090717
0.295702 0.407080 0.090717
0.347082 0.429049 0.090717
0.409877 0.453599 0.090717
0.476095 0.477037 0.090717
0.548530 0.501292 0.090717
0.606364 0.527567 0.090717
0.675414 0.553631 0.090717
0.735543 0.581659 0.090719
0.772669 0.610209 0.090734
0.818773 0.634511 0.090749
0.847885 0.660091 0.090763
0.873461 0.693232 0.090786
0.892980 0.718512 0.090809
0.911266 0.742463 0.090831
0.921111 0.767254 0.090860
0.928870 0.789219 0.090917
0.936413 0.811020 0.090977
0.942885 0.828156 0.091047
0.947785 0.840313 0.091124
0.952551 0.852346 0.091199
0.957191 0.860842 0.091328
0.086072 0.372462 0.090717
0.086077 0.372926 0.090717
0.086093 0.374596 0.090717
0.086621 0.377674 0.090717
0.088291 0.382295 0.090717
0.091743 0.388570 0.090717
0.098782 0.396603 0.090717
0.111486 0.406494 0.090717
0.131055 0.418345 0.090717
0.164878 0.432264 0.090717
0.211871 0.448360 0.090717
0.249003 0.465584 0.090717
0.297873 0.482435 0.090717
0.349236 0.501196 0.090717
0.412571 0.521933 0.090717
0.477867 0.543068 0.090717
0.550331 0.565672 0.090717
0.608063 0.590160 0.090717
0.677048 0.613924 0.090717
0.736784 0.635400 0.090723
0.775481 0.658157 0.090738
0.819434 0.687502 0.090752
0.848504 0.712317 0.090767
0.873860 0.734032 0.090790
0.893352 0.756628 0.090813
0.911485 0.778629 0.090836
0.921249 0.798743 0.090866
0.928997 0.819434 0.090927
0.936532 0.832232 0.090986
0.942961 0.843573 0.091059
0.947856 0.855045 0.091135
0.952618 0.863332 0.091209
0.957254 0.876791 0.091351
0.086082 0.456946 0.090717
0.086087 0.457444 0.090717
0.086192 0.459236 0.090717
0.086889 0.462156 0.090717
0.088804 0.466188 0.090717
0.092276 0.471649 0.090717
0.099914 0.478612 0.090717
0.112801 0.487146 0.090717
0.132991 0.497316 0.090717
0.167542 0.509186 0.090717
0.213982 0.522816 0.090717
0.251045 0.537202 0.090717
0.300212 0.552972 0.090717
0.351558 0.570465 0.090717
0.415478 0.589726 0.090717
0.479775 0.609523 0.090717
0.552271 0.626920 0.090717
0.609891 0.645591 0.090717
0.678809 0.666533 0.090717
0.738121 0.693010 0.090727
0.778515 0.713758 0.090742
0.820145 0.733176 0.090756
0.849169 0.753508 0.090773
0.874289 0.774187 0.090796
0.893752 0.792511 0.090818
0.911694 0.811461 0.090842
0.921397 0.826780 0.090878
0.929135 0.837700 0.090938
0.936660 0.848419 0.090997
0.943043 0.857031 0.091072
0.947933 0.867571 0.091147
0.952690 0.880416 0.091225
0.957321 0.893423 0.091375
0.086092 0.534609 0.090717
0.086107 0.534992 0.090717
0.086390 0.536365 0.090717
0.087272 0.538895 0.090717
0.089328 0.542681 0.090717
0.092923 0.547802 0.090717
0.101329 0.554324 0.090717
0.114195 0.562305 0.090717
0.135061 0.571797 0.090717
0.170406 0.582851 0.090717
0.216242 0.595513 0.090717
0.253232 0.608785 0.090717
0.302721 0.620957 0.090717
0.354048 0.634368 0.090717
0.418601 0.649028 0.090717
0.481820 0.665755 0.090717
0.554350 0.687414 0.090717
0.611852 0.706621 0.090717
0.680696 0.722764 0.090717
0.739553 0.739857 0.090732
0.781775 0.757888 0.090746
0.820906 0.775935 0.090759
0.849883 0.792393 0.090778
0.874749 0.809518 0.090801
0.894181 0.824579 0.090823
0.911913 0.834852 0.090848
0.921556 0.844727 0.090891
0.929282 0.854803 0.090950
0.936797 0.861525 0.091009
0.943131 0.873525 0.091086
0.948015 0.885726 0.091160
0.952767 0.898115 0.091244
0.957393 0.910261 0.091402
0.086191 0.610621 0.090717
0.086272 0.610917 0.090717
0.086624 0.611981 0.090717
0.087652 0.613937 0.090717
0.089868 0.616862 0.090717
0.093970 0.620811 0.090717
0.102900 0.625828 0.090717
0.115666 0.631949 0.090717
0.137265 0.639204 0.090717
0.173471 0.647619 0.090717
0.218654 0.657214 0.090717
0.256078 0.669766 0.090717
0.305402 0.684881 0.090717
0.356709 0.700611 0.090717
0.421943 0.712492 0.090717
0.484004 0.725345 0.090717
0.556571 0.739163 0.090717
0.613946 0.753939 0.090717
0.682711 0.769664 0.090722
0.741082 0.783804 0.090736
0.785264 0.798354 0.090750
0.821719 0.813604 0.090763
0.850644 0.825906 0.090785
0.875240 0.835081 0.090806
0.894639 0.844041 0.090828
0.912146 0.853239 0.090854
0.921725 0.858762 0.090904
0.929440 0.869832 0.090962
0.936944 0.881143 0.091025
0.943225 0.892679 0.091100
0.948103 0.904427 0.091174
0.952849 0.915075 0.091267
0.957470 0.925275 0.091429
0.086420 0.677161 0.090717
0.086521 0.677544 0.090717
0.086977 0.678834 0.090717
0.088104 0.681152 0.090717
0.090597 0.684621 0.090717
0.095197 0.689309 0.090717
0.104542 0.695273 0.090717
0.117213 0.701783 0.090717
0.139602 0.707661 0.090717
0.176741 0.714466 0.090717
0.221216 0.722210 0.090717
0.259152 0.730900 0.090717
0.308256 0.740541 0.090717
0.359543 0.751138 0.090717
0.425507 0.762688 0.090717
0.490935 0.774564 0.090717
0.558933 0.785720 0.090717
0.616173 0.797623 0.090717
0.684855 0.810259 0.090727
0.742708 0.822404 0.090741
0.788157 0.830658 0.090754
0.822583 0.838366 0.090769
0.851454 0.846360 0.090791
0.875762 0.854625 0.090812
0.895126 0.859322 0.090834
0.912394 0.869396 0.090861
0.921905 0.879747 0.090917
0.929607 0.890359 0.090975
0.937100 0.901218 0.091041
0.943325 0.911639 0.091115
0.948196 0.921195 0.091188
0.952936 0.927224 0.091298
0.957552 0.930642 0.091458
0.086681 0.738536 0.090717
0.086813 0.738770 0.090717
0.087428 0.739610 0.090717
0.088778 0.741155 0.090717
0.091338 0.743463 0.090717
0.096459 0.746578 0.090717
0.106255 0.750532 0.090717
0.118833 0.755351 0.090717
0.142334 0.761056 0.090717
0.180219 0.767662 0.090717
0.223930 0.774556 0.090717
0.262417 0.781563 0.090717
0.311286 0.789326 0.090717
0.362550 0.797844 0.090717
0.429297 0.807113 0.090717
0.499014 0.817128 0.090717
0.561438 0.824928 0.090717
0.618536 0.831540 0.090719
0.687129 0.837912 0.090733
0.744432 0.844607 0.090746
0.789601 0.851612 0.090758
0.823499 0.856874 0.090776
0.852312 0.863174 0.090797
0.876316 0.872208 0.090818
0.895642 0.881549 0.090841
0.912657 0.891183 0.090874
0.922096 0.901095 0.090932
0.929784 0.910762 0.090988
0.937265 0.919573 0.091058
0.943431 0.926410 0.091131
0.948295 0.929596 0.091203
0.953029 0.932817 0.091331
0.957639 0.935760 0.091489
0.087136 0.790229 0.090717
0.087304 0.790417 0.090717
0.087868 0.791092 0.090717
0.089445 0.792332 0.090717
0.092085 0.794184 0.090717
0.097753 0.796683 0.090717
0.107851 0.799853 0.090717
0.120525 0.803715 0.090717
0.145260 0.808282 0.090717
0.183908 0.813566 0.090717
0.226793 0.819574 0.090717
0.265875 0.824000 0.090717
0.314492 0.828412 0.090717
0.365733 0.832913 0.090717
0.433314 0.837575 0.090717
0.501779 0.842589 0.090717
0.564088 0.847948 0.090717
0.621034 0.853641 0.090725
0.689534 0.857179 0.090738
0.746253 0.862591 0.090750
0.791126 0.870221 0.090763
0.824466 0.878194 0.090783
0.853218 0.886498 0.090804
0.876900 0.895119 0.090825
0.896188 0.904045 0.090849
0.912935 0.912446 0.090890
0.922298 0.920469 0.090947
0.929972 0.926457 0.091002
0.937440 0.929388 0.091076
0.943543 0.932366 0.091148
0.948400 0.935218 0.091222
0.953126 0.937650 0.091365
0.957731 0.940108 0.091521
0.087624 0.830349 0.090717
0.087778 0.830444 0.090717
0.088585 0.830784 0.090717
0.090198 0.831409 0.090717
0.092935 0.832341 0.090717
0.099081 0.833598 0.090717
0.109485 0.835190 0.090717
0.122286 0.837126 0.090717
0.148854 0.839412 0.090717
0.187811 0.842050 0.090717
0.229809 0.845043 0.090717
0.269529 0.848390 0.090717
0.317876 0.852088 0.090717
0.369093 0.855736 0.090717
0.437563 0.857533 0.090717
0.503320 0.861741 0.090717
0.566882 0.867555 0.090718
0.623835 0.873746 0.090731
0.692071 0.880304 0.090743
0.748120 0.887218 0.090755
0.792735 0.894480 0.090770
0.825485 0.902077 0.090791
0.854174 0.909685 0.090811
0.877516 0.916646 0.090831
0.896762 0.923852 0.090857
0.913227 0.927359 0.090907
0.922510 0.930017 0.090962
0.930170 0.932734 0.091022
0.937624 0.935312 0.091094
0.943661 0.937555 0.091165
0.948510 0.939832 0.091248
0.953230 0.942140 0.091400
0.957827 0.944476 0.091555
0.088221 0.854934 0.090717
0.088475 0.855023 0.090717
0.089339 0.855342 0.090717
0.091091 0.855651 0.090717
0.094371 0.856010 0.090717
0.101027 0.856493 0.090717
0.111524 0.857104 0.090717
0.127445 0.857847 0.090717
0.154846 0.859661 0.090717
0.191930 0.862511 0.090717
0.232978 0.865747 0.090717
0.273379 0.869371 0.090717
0.321439 0.873380 0.090717
0.372631 0.877773 0.090717
0.442047 0.882547 0.090717
0.504937 0.887696 0.090717
0.569822 0.893214 0.090725
0.627775 0.899095 0.090737
0.694740 0.905330 0.090749
0.749486 0.911304 0.090761
0.794425 0.917152 0.090778
0.826556 0.923270 0.090798
0.855178 0.926787 0.090818
0.878163 0.929090 0.090840
0.897367 0.931466 0.090868
0.913535 0.933910 0.090924
0.922734 0.936038 0.090978
0.930377 0.938078 0.091042
0.937818 0.940161 0.091113
0.943785 0.942283 0.091183
0.948626 0.944441 0.091282
0.953338 0.946545 0.091437
0.957929 0.948064 0.091621
0.089040 0.877793 0.090717
0.089274 0.877890 0.090717
0.090156 0.878235 0.090717
0.091975 0.878870 0.090717
0.095961 0.879818 0.090717
0.103226 0.881096 0.090717
0.113628 0.882717 0.090717
0.130574 0.884690 0.090717
0.159077 0.887022 0.090717
0.197437 0.889719 0.090717
0.236300 0.892782 0.090717
0.277428 0.896213 0.090717
0.325183 0.900013 0.090717
0.376348 0.904179 0.090717
0.446768 0.908594 0.090717
0.506629 0.912731 0.090720
0.572887 0.917164 0.090731
0.631919 0.921887 0.090743
0.697542 0.925827 0.090754
0.750917 0.927668 0.090767
0.796199 0.929596 0.090787
0.827679 0.931608 0.090806
0.856232 0.933698 0.090826
0.878842 0.935597 0.090849
0.898000 0.937375 0.090887
0.913858 0.939206 0.090941
0.922968 0.941086 0.090995
0.930595 0.943013 0.091063
0.938021 0.944982 0.091133
0.943915 0.946791 0.091202
0.948747 0.948190 0.091322
0.953452 0.949582 0.091475
0.958036 0.951324 0.091690
0.089838 0.905461 0.090717
0.090123 0.905552 0.090717
0.091141 0.905879 0.090717
0.092956 0.906479 0.090717
0.097563 0.907377 0.090717
0.105477 0.908491 0.090717
0.115794 0.909789 0.090717
0.133836 0.911370 0.090717
0.163556 0.913239 0.090717
0.204040 0.915399 0.090717
0.239775 0.917854 0.090717
0.281678 0.920603 0.090717
0.329108 0.923648 0.090717
0.380191 0.925858 0.090717
0.451729 0.927123 0.090717
0.508396 0.928485 0.090727
0.576026 0.929941 0.090738
0.636269 0.931490 0.090749
0.700477 0.933128 0.090760
0.752415 0.934793 0.090776
0.798056 0.936231 0.090795
0.828855 0.937732 0.090814
0.857334 0.939294 0.090833
0.879553 0.940913 0.090858
