ektachrome100d/Ektachrome100D_Modern_ExtraSoft.cube
TITLE "Kodak Ektachrome 100D Modern ExtraSoft"
# Adobe RGB in/out. REPLACES AgX. Kodak Ektachrome 100D Modern ExtraSoft.
LUT_3D_SIZE 9
DOMAIN_MIN 0.0 0.0 0.0
DOMAIN_MAX 1.0 1.0 1.0
0.068633 0.069845 0.084864
0.076137 0.069845 0.084864
0.323552 0.073138 0.084864
0.651146 0.109746 0.084864
0.797411 0.314559 0.085044
0.854589 0.541976 0.085574
0.885197 0.682091 0.086774
0.905842 0.762477 0.089158
0.917334 0.812892 0.092577
0.068633 0.070236 0.084864
0.069965 0.070078 0.084864
0.200001 0.074216 0.084864
0.576015 0.117806 0.084864
0.780926 0.330094 0.084991
0.849253 0.552008 0.085467
0.881583 0.689384 0.086551
0.904455 0.766018 0.088860
0.916328 0.815488 0.092208
0.068633 0.161783 0.084864
0.075819 0.122230 0.084864
0.149665 0.097969 0.084864
0.468505 0.171149 0.084864
0.722082 0.399474 0.084911
0.829595 0.589287 0.085231
0.870622 0.709807 0.086137
0.897756 0.776852 0.087939
0.913047 0.824289 0.091241
0.068738 0.581148 0.084864
0.080600 0.540896 0.084864
0.199256 0.448227 0.084864
0.437700 0.422066 0.084864
0.663231 0.526867 0.084864
0.799049 0.651572 0.085123
0.856509 0.741113 0.085798
0.888112 0.794879 0.087352
0.908144 0.838740 0.090251
0.070169 0.765842 0.084864
0.084778 0.754215 0.084864
0.219824 0.722987 0.084864
0.470313 0.697133 0.084864
0.650055 0.696683 0.084892
0.772376 0.730630 0.085078
0.843338 0.779246 0.085590
0.877193 0.825530 0.086798
0.902067 0.856513 0.089287
0.073067 0.848219 0.084864
0.088269 0.843854 0.084864
0.226779 0.830199 0.084864
0.481637 0.815041 0.084864
0.663616 0.807280 0.084963
0.768222 0.812244 0.085135
0.831692 0.829700 0.085535
0.868209 0.856178 0.086489
0.894760 0.874104 0.088608
0.077621 0.881781 0.084864
0.092611 0.880845 0.084864
0.227056 0.877760 0.084864
0.479494 0.872903 0.084931
0.664170 0.868742 0.085043
0.768805 0.868595 0.085224
0.829846 0.872933 0.085677
0.861974 0.879169 0.086448
0.889151 0.891067 0.088320
0.083457 0.904836 0.084868
0.099783 0.904184 0.084881
0.224184 0.902180 0.084924
0.468993 0.899597 0.084992
0.653743 0.897625 0.085129
0.763434 0.897248 0.085359
0.827483 0.898949 0.085883
0.860059 0.902699 0.086786
0.885191 0.908101 0.088419
0.088248 0.916836 0.084935
0.105436 0.916673 0.084945
0.220052 0.916167 0.084981
0.453017 0.915465 0.085069
0.630319 0.914879 0.085197
0.752385 0.914925 0.085514
0.821750 0.915824 0.086046
0.856845 0.917321 0.087068
0.882087 0.919506 0.088803
0.068633 0.069845 0.085728
0.078059 0.069845 0.085842
0.323510 0.073217 0.086075
0.631479 0.104801 0.086349
0.790320 0.286439 0.087408
0.851806 0.529705 0.089154
0.883225 0.673798 0.091565
0.905085 0.758919 0.096036
0.916803 0.810682 0.102632
0.068633 0.070074 0.085078
0.068828 0.069861 0.084864
0.183486 0.073404 0.085154
0.558855 0.109989 0.085768
0.769489 0.308836 0.086750
0.846409 0.539068 0.088412
0.879603 0.680892 0.091017
0.903430 0.762436 0.095179
0.915801 0.813279 0.101638
0.068633 0.133188 0.085587
0.073467 0.101780 0.085176
0.124771 0.088939 0.084968
0.432678 0.144520 0.085159
0.708374 0.365441 0.085817
0.825335 0.574487 0.087168
0.868640 0.703253 0.089586
0.896600 0.774044 0.092945
0.912534 0.822435 0.099060
0.068660 0.548894 0.085611
0.078621 0.507489 0.085419
0.182478 0.408953 0.085174
0.405844 0.382160 0.085140
0.642873 0.501470 0.085397
0.793544 0.639148 0.086209
0.854633 0.735429 0.087856
0.887024 0.791498 0.090993
0.907665 0.836956 0.095999
0.070027 0.756210 0.085584
0.083579 0.744062 0.085517
0.210681 0.712791 0.085367
0.458501 0.682540 0.085311
0.634124 0.683291 0.085461
0.766279 0.723865 0.085943
0.841183 0.777672 0.087264
0.876085 0.823208 0.089758
0.901417 0.855532 0.093391
0.072866 0.844550 0.085570
0.087650 0.839693 0.085554
0.221473 0.826160 0.085528
0.475197 0.810353 0.085559
0.656979 0.802398 0.085712
0.763938 0.808241 0.086074
0.830182 0.827249 0.086953
0.867371 0.855054 0.088989
0.894254 0.873320 0.092027
0.077365 0.880939 0.085574
0.091986 0.880060 0.085581
0.223899 0.876748 0.085618
0.475921 0.871470 0.085722
0.661088 0.867364 0.085950
0.766331 0.867328 0.086297
0.828816 0.871861 0.087248
0.861434 0.878661 0.088725
0.888813 0.890545 0.091446
0.083236 0.904218 0.085588
0.098740 0.903573 0.085606
0.222510 0.901590 0.085673
0.467032 0.899036 0.085845
0.650999 0.897099 0.086104
0.762102 0.896769 0.086608
0.826920 0.898541 0.087508
0.859730 0.902385 0.089172
0.884958 0.907913 0.091394
0.088133 0.916663 0.085603
0.105166 0.916502 0.085626
0.219157 0.916003 0.085719
0.451483 0.915275 0.085914
0.628965 0.914708 0.086192
0.751745 0.914777 0.086828
0.821422 0.915731 0.087578
0.856708 0.917259 0.089498
0.882012 0.919476 0.091731
0.068633 0.069845 0.227705
0.078059 0.069866 0.232614
0.341846 0.074315 0.250795
0.661337 0.117121 0.223242
0.789135 0.290485 0.181923
0.849372 0.521129 0.176666
0.880506 0.663753 0.183105
0.903506 0.753138 0.195735
0.915702 0.806378 0.214985
0.068633 0.071272 0.229325
0.077945 0.072516 0.212076
0.257149 0.079758 0.149169
0.570618 0.118445 0.142842
0.764970 0.303542 0.147975
0.842531 0.528561 0.156736
0.876732 0.669904 0.168406
0.901302 0.756426 0.185208
0.914691 0.808901 0.205556
0.068633 0.096182 0.118867
0.071393 0.088064 0.103374
0.094167 0.078529 0.088826
0.396162 0.127872 0.097684
0.688196 0.339223 0.110312
0.818242 0.556094 0.123083
0.865303 0.692714 0.138533
0.894335 0.768365 0.157695
0.911404 0.817994 0.180617
0.068646 0.465165 0.127000
0.075255 0.422367 0.115084
0.145051 0.326528 0.099440
0.341144 0.294651 0.092868
0.600869 0.449034 0.097180
0.782959 0.617762 0.107392
0.850800 0.724288 0.117657
0.884394 0.784342 0.133423
0.906529 0.832884 0.153811
0.069661 0.729960 0.124173
0.080622 0.718427 0.118334
0.190085 0.682702 0.108388
0.418876 0.645522 0.099733
0.595962 0.648075 0.097013
0.751819 0.707942 0.100259
0.835978 0.770173 0.109322
0.873338 0.816873 0.119177
0.899747 0.852820 0.135070
0.072308 0.832971 0.117051
0.085959 0.828402 0.114642
0.208135 0.814380 0.110008
0.458489 0.797231 0.104663
0.632815 0.789045 0.101180
0.752300 0.796443 0.101119
0.826069 0.820636 0.105234
0.865090 0.851523 0.112262
0.892851 0.871189 0.124494
0.076611 0.878303 0.110772
0.090192 0.877187 0.110359
0.215532 0.873349 0.108575
0.465825 0.867418 0.105717
0.647586 0.863475 0.103846
0.759220 0.863711 0.103952
0.825658 0.868762 0.106344
0.859874 0.877215 0.110356
0.887823 0.889045 0.119511
0.082558 0.902323 0.106399
0.096311 0.901705 0.106098
0.217462 0.899803 0.105219
0.461136 0.897355 0.104271
0.642799 0.895531 0.103985
0.758095 0.895341 0.104967
0.824892 0.897317 0.107539
0.858720 0.901435 0.110739
0.884242 0.907281 0.117428
0.087768 0.916114 0.101167
0.104306 0.915961 0.101146
0.216331 0.915433 0.101151
0.446664 0.914679 0.101438
0.624724 0.914175 0.102371
0.749740 0.914321 0.104283
0.820392 0.915376 0.107389
0.856277 0.917064 0.110757
0.881775 0.919386 0.117435
0.068633 0.069845 0.754798
0.078059 0.070031 0.755759
0.341846 0.076161 0.759197
0.685916 0.143913 0.763868
0.804516 0.350754 0.718655
0.852061 0.539811 0.673402
0.880665 0.668217 0.646763
0.902690 0.752201 0.629096
0.914968 0.804056 0.618502
0.068633 0.071901 0.755116
0.078800 0.073290 0.756077
0.344769 0.090180 0.759513
0.657687 0.176491 0.729339
0.784678 0.356205 0.676172
0.845732 0.545020 0.646395
0.876673 0.673237 0.627562
0.900390 0.755111 0.616765
0.913930 0.806598 0.610156
0.068633 0.104084 0.617618
0.072973 0.101816 0.583468
0.166093 0.111639 0.485280
0.470133 0.182089 0.483914
0.707494 0.377423 0.521032
0.819528 0.564268 0.552588
0.864432 0.691815 0.573239
0.893093 0.765719 0.583710
0.910549 0.815128 0.589031
0.068633 0.384513 0.546030
0.073285 0.349907 0.489863
0.128195 0.269344 0.308804
0.274870 0.206591 0.157013
0.583066 0.431018 0.267006
0.776539 0.609527 0.395717
0.848514 0.718767 0.467143
0.882305 0.779774 0.501892
0.905537 0.829730 0.530255
0.069226 0.696604 0.550888
0.077753 0.683034 0.518232
0.167355 0.643426 0.431937
0.378139 0.608874 0.285486
0.560364 0.610582 0.217774
0.737413 0.689008 0.263182
0.831044 0.760773 0.357900
0.870684 0.810895 0.431662
0.898036 0.849879 0.473773
0.071613 0.817197 0.523647
0.083689 0.812474 0.506062
0.192177 0.797975 0.459855
0.430034 0.780982 0.378240
0.603809 0.776966 0.294708
0.737627 0.781449 0.264053
0.819927 0.811868 0.292059
0.862413 0.847255 0.364574
0.891194 0.868789 0.423391
0.075552 0.873579 0.479342
0.088683 0.872099 0.472476
0.204495 0.867628 0.445053
0.451082 0.862119 0.391785
0.628969 0.858452 0.335973
0.749792 0.858981 0.302713
0.820465 0.864655 0.298758
0.857846 0.875394 0.325397
0.886529 0.887158 0.385127
0.081561 0.899561 0.421989
0.094610 0.898995 0.415515
0.210311 0.897249 0.395435
0.451421 0.895005 0.365187
0.631440 0.893376 0.331873
0.752509 0.893387 0.312383
0.821813 0.895628 0.310701
0.857285 0.900121 0.327629
0.883244 0.906427 0.362526
0.087207 0.915174 0.335774
0.102997 0.915000 0.332513
0.212092 0.914467 0.322359
0.439507 0.913802 0.308855
0.618473 0.913403 0.297632
0.746794 0.913667 0.293735
0.818876 0.914861 0.300692
0.855641 0.916790 0.320723
0.881425 0.919266 0.355138
0.068633 0.069881 0.884885
0.078059 0.070395 0.885168
0.341846 0.079111 0.886185
0.685916 0.158766 0.888041
0.825976 0.441543 0.884445
0.858910 0.582487 0.853422
0.884045 0.689157 0.830772
0.903718 0.758031 0.815343
0.914970 0.805944 0.800555
0.068633 0.072846 0.884979
0.078800 0.075369 0.885262
0.344769 0.094845 0.886278
0.686532 0.246227 0.888134
0.808612 0.449739 0.867985
0.852745 0.587619 0.841930
0.879936 0.693316 0.825511
0.901337 0.760614 0.808573
0.913899 0.808115 0.795981
0.068633 0.177328 0.875535
0.078828 0.184058 0.868370
0.267336 0.230324 0.848506
0.559691 0.331222 0.828406
0.743624 0.470644 0.813204
0.829646 0.604445 0.801702
0.867126 0.705102 0.793701
0.893712 0.769821 0.787156
0.910399 0.815967 0.781185
0.068633 0.380143 0.787837
0.073368 0.365726 0.775485
0.146909 0.347023 0.737668
0.392988 0.383087 0.698807
0.634771 0.507026 0.706678
0.785735 0.628843 0.729787
0.849748 0.724978 0.747742
0.882236 0.781319 0.754913
0.905167 0.829396 0.757864
0.069034 0.658583 0.769201
0.075737 0.648219 0.760959
0.148247 0.620203 0.717277
0.353042 0.584484 0.652505
0.530076 0.562965 0.583185
0.732122 0.682624 0.640998
0.829294 0.758651 0.681044
0.869456 0.809010 0.705515
0.897019 0.848571 0.721208
0.071034 0.798238 0.763782
0.081162 0.793960 0.758249
0.177266 0.781289 0.731093
0.403190 0.771538 0.688358
0.577010 0.763088 0.646300
0.722266 0.771345 0.619647
0.814395 0.804426 0.640308
0.860241 0.843416 0.669574
0.889849 0.867060 0.688966
0.074419 0.866564 0.749616
0.086994 0.865303 0.744436
0.192826 0.861452 0.725393
0.430299 0.856615 0.698387
0.609886 0.853150 0.671634
0.739760 0.854046 0.650104
0.814759 0.860290 0.640417
0.855797 0.873063 0.650822
0.885131 0.885431 0.669402
0.080384 0.896330 0.718531
0.092623 0.895841 0.715217
0.202209 0.894327 0.704475
0.437320 0.892042 0.688663
0.618932 0.890111 0.672141
0.746337 0.890465 0.659096
0.818369 0.893801 0.650110
0.855670 0.898702 0.650758
0.882292 0.905693 0.659989
0.086518 0.913910 0.681796
0.101405 0.913763 0.680138
0.207023 0.913315 0.674722
0.431043 0.912716 0.666646
0.611164 0.912362 0.657782
0.743374 0.912936 0.648972
0.817123 0.914296 0.645206
0.854907 0.916496 0.647562
0.881028 0.919153 0.655756
0.068633 0.070332 0.930974
0.078059 0.071549 0.931050
0.341846 0.083304 0.931321
0.685916 0.181850 0.931818
0.831079 0.488272 0.932555
0.867133 0.630127 0.921991
0.888864 0.713586 0.908225
0.905503 0.769563 0.898034
0.915683 0.811421 0.884177
0.068633 0.074826 0.930999
0.078800 0.079432 0.931075
0.344769 0.104797 0.931346
0.686532 0.271803 0.931843
0.828992 0.540303 0.931325
0.861252 0.635677 0.917047
0.885327 0.716385 0.906869
0.903833 0.771565 0.894166
0.914591 0.813454 0.881029
0.068633 0.232910 0.931089
0.082161 0.263908 0.931165
0.355307 0.384406 0.931436
0.643750 0.469621 0.921712
0.782211 0.564433 0.910189
0.842089 0.651406 0.902229
0.872476 0.725888 0.890338
0.896053 0.777523 0.879561
0.911003 0.820766 0.870726
0.068641 0.467626 0.901299
0.075733 0.469369 0.897692
0.198563 0.484262 0.886637
0.496945 0.529588 0.874132
0.689821 0.598057 0.866261
0.803311 0.677009 0.862524
0.854466 0.743088 0.860018
0.884440 0.789738 0.857450
0.905569 0.832490 0.854187
0.068965 0.649538 0.865176
0.075216 0.644363 0.860559
0.150862 0.630471 0.845313
0.386246 0.624389 0.826789
0.585379 0.648438 0.812812
0.750284 0.712591 0.817641
0.833155 0.769299 0.826830
0.870502 0.813405 0.831323
0.897109 0.849731 0.835065
0.070551 0.782435 0.854906
0.079168 0.779354 0.851212
0.163001 0.774804 0.839344
0.388109 0.764008 0.822087
0.566993 0.755916 0.796003
0.705807 0.756376 0.772761
0.812257 0.802904 0.793905
0.859569 0.843052 0.808318
0.889279 0.866767 0.817752
0.073681 0.859847 0.846740
0.085392 0.858847 0.844395
0.182167 0.855766 0.836735
0.412025 0.851255 0.825995
0.593457 0.847807 0.808861
0.730507 0.848555 0.794218
0.808180 0.856050 0.787487
0.854057 0.871111 0.793988
0.883969 0.884321 0.803178
0.079171 0.892899 0.835037
0.090553 0.892330 0.833481
0.194006 0.890573 0.828508
0.423324 0.888351 0.821884
0.606711 0.886931 0.810580
0.740294 0.887646 0.800797
0.814889 0.891561 0.794681
0.854027 0.897337 0.793319
0.881396 0.905092 0.796838
0.085760 0.912395 0.819390
0.099669 0.912235 0.818282
0.201587 0.911760 0.814605
0.422058 0.911234 0.808931
0.603500 0.911126 0.802584
0.739828 0.911941 0.797070
0.815321 0.913756 0.793634
0.854159 0.916229 0.792950
0.880643 0.919078 0.794915
0.068633 0.071743 0.948466
0.078059 0.073164 0.948481
0.341846 0.089564 0.948534
0.685916 0.218045 0.948632
0.831079 0.518209 0.948778
0.874570 0.676828 0.947141
0.893732 0.737000 0.939120
0.907584 0.778857 0.931583
0.916863 0.819646 0.923534
0.068633 0.080105 0.948471
0.078800 0.084996 0.948486
0.344769 0.121626 0.948539
0.686532 0.317094 0.948637
0.831281 0.568714 0.948783
0.869117 0.683535 0.945976
0.890424 0.740140 0.936397
0.906063 0.780591 0.929636
0.915770 0.821612 0.922164
0.068633 0.267556 0.948488
0.082161 0.307256 0.948503
0.355307 0.416949 0.948557
0.688269 0.568559 0.948609
0.804621 0.633669 0.944809
0.852201 0.700778 0.935947
0.878760 0.750476 0.930160
0.899383 0.788682 0.923279
0.912156 0.827562 0.916919
0.068654 0.567518 0.940258
0.079420 0.572044 0.938944
0.249880 0.590003 0.934870
0.549621 0.622494 0.931832
0.733701 0.669236 0.926124
0.821832 0.720796 0.921228
0.860887 0.766118 0.916378
0.887871 0.803265 0.912117
0.906611 0.838533 0.908274
0.069055 0.678215 0.918715
0.076490 0.677544 0.917238
0.177172 0.678242 0.912725
0.444441 0.689430 0.907840
0.653917 0.713435 0.904279
0.778309 0.748631 0.901743
0.841214 0.783260 0.900764
0.873640 0.823375 0.900175
0.898321 0.853404 0.898980
0.070313 0.778281 0.907798
0.078529 0.777669 0.907556
0.158842 0.774747 0.902386
0.393595 0.770640 0.892069
0.583237 0.771780 0.879850
0.733449 0.782487 0.873583
0.819597 0.815941 0.875909
0.861318 0.848048 0.880428
0.889797 0.868434 0.883503
0.073211 0.854626 0.903075
0.083982 0.853875 0.901934
0.174231 0.851137 0.896842
0.399902 0.847709 0.887905
0.584544 0.845258 0.876965
0.725831 0.846414 0.866838
0.801883 0.851678 0.858611
0.853479 0.871004 0.866840
0.883596 0.884455 0.872090
0.078321 0.888479 0.895395
0.089256 0.888057 0.894392
0.186542 0.886767 0.890641
0.410915 0.885196 0.884421
0.596253 0.884389 0.877244
0.735209 0.885485 0.870606
0.811323 0.889503 0.865899
0.852456 0.896130 0.864429
0.880664 0.904736 0.867019
0.085061 0.910524 0.883404
0.096330 0.910415 0.882718
0.196181 0.910104 0.880423
0.413237 0.909827 0.876813
0.596089 0.909997 0.872641
0.736459 0.911076 0.868822
0.813407 0.913308 0.866178
0.853462 0.916027 0.865242
0.880316 0.919068 0.866026
0.068633 0.073948 0.952891
0.078059 0.078171 0.952895
0.341846 0.100980 0.952912
0.685916 0.263874 0.952942
0.831079 0.543722 0.952986
0.880188 0.712205 0.952766
0.897979 0.759102 0.950613
0.909640 0.793415 0.947814
0.918190 0.828046 0.944382
0.068633 0.087062 0.952892
0.078800 0.093329 0.952897
0.344769 0.148341 0.952913
0.686532 0.355392 0.952943
0.831281 0.593254 0.952987
0.875212 0.717422 0.952313
0.894861 0.762330 0.950155
0.908171 0.795884 0.947261
0.917113 0.829723 0.943553
0.068633 0.320155 0.952898
0.082161 0.347938 0.952902
0.355307 0.453421 0.952919
0.688735 0.594159 0.952948
0.820333 0.688922 0.952278
0.859568 0.732813 0.950414
0.884607 0.772124 0.947927
0.902877 0.804338 0.945094
0.913535 0.835635 0.939388
0.068716 0.639958 0.951833
0.083516 0.644436 0.951623
0.298798 0.660532 0.950938
0.591468 0.689992 0.949894
0.762569 0.720494 0.947981
0.834510 0.754171 0.946014
0.867280 0.782810 0.942374
0.891506 0.817593 0.937081
0.907983 0.846338 0.932941
0.069223 0.717887 0.945059
0.078575 0.718935 0.944582
0.201573 0.723515 0.942923
0.497574 0.734427 0.939122
0.687426 0.753940 0.935192
0.796782 0.777356 0.932933
0.849095 0.805477 0.931567
0.877760 0.834735 0.929148
0.900249 0.857834 0.926863
0.070397 0.783618 0.932928
0.078908 0.783199 0.932918
0.171171 0.782549 0.930675
0.418602 0.784325 0.927004
0.620788 0.792489 0.923390
0.756290 0.809900 0.920936
0.829257 0.832670 0.919743
0.864784 0.855273 0.919387
0.891244 0.871808 0.919028
0.072931 0.851684 0.926905
0.083136 0.851190 0.926258
0.170044 0.849759 0.924100
0.397724 0.848347 0.920739
0.588814 0.848607 0.916032
0.732822 0.852564 0.911919
0.812633 0.861124 0.910008
0.855601 0.874967 0.910779
0.884391 0.886373 0.912018
0.077606 0.885028 0.922340
0.088284 0.884761 0.921896
0.180647 0.883972 0.920371
0.401717 0.883140 0.917410
0.589433 0.883105 0.913895
0.732494 0.884783 0.910488
0.809547 0.888928 0.907938
0.851030 0.895161 0.907741
0.880394 0.904927 0.908254
0.084248 0.908842 0.916679
0.094982 0.908785 0.916347
0.191206 0.908646 0.915228
0.405248 0.908633 0.913443
0.589546 0.909102 0.911335
0.733596 0.910459 0.909341
0.811801 0.913029 0.907950
0.852892 0.915929 0.907875
0.880092 0.919147 0.907919
0.068633 0.081205 0.953980
0.078059 0.086334 0.953980
0.341846 0.125632 0.953980
0.685916 0.323730 0.953980
0.831079 0.573046 0.953980
0.883322 0.733936 0.953980
0.901102 0.776091 0.953910
0.911328 0.807592 0.952393
0.919379 0.836203 0.950754
0.068633 0.098226 0.953980
0.078800 0.112719 0.953980
0.344769 0.188422 0.953980
0.686532 0.408571 0.953980
0.831281 0.618954 0.953980
0.879202 0.741195 0.953980
0.898200 0.777705 0.953606
0.909928 0.809966 0.952168
0.918332 0.837924 0.950521
0.068633 0.367221 0.953980
0.082161 0.401694 0.953980
0.355307 0.497620 0.953980
0.688735 0.619537 0.953980
0.828882 0.721750 0.953980
0.864887 0.758417 0.953948
0.888760 0.786111 0.952608
0.905299 0.817988 0.951184
0.914837 0.843939 0.949723
0.068874 0.695218 0.953980
0.086150 0.698869 0.953980
0.331027 0.711106 0.953980
0.630968 0.729214 0.953881
0.783072 0.753645 0.952970
0.843667 0.777476 0.952015
0.872699 0.803325 0.950734
0.894858 0.830017 0.949423
0.909356 0.852708 0.947658
0.069542 0.751362 0.951892
0.081117 0.752785 0.951768
0.225010 0.758124 0.951355
0.527386 0.768625 0.950706
0.717106 0.779025 0.949935
0.811202 0.800153 0.948729
0.854844 0.823881 0.947476
0.881814 0.846444 0.946320
0.902347 0.862627 0.944716
0.070701 0.799750 0.947939
0.080235 0.800172 0.947773
0.183013 0.802150 0.947227
0.450202 0.807177 0.946398
0.657396 0.816501 0.945178
0.775437 0.830161 0.943511
0.836765 0.847542 0.941560
0.868534 0.861889 0.939733
0.893060 0.875642 0.938056
0.072892 0.852954 0.944038
0.083086 0.852845 0.943722
0.171944 0.852702 0.942500
0.405719 0.853335 0.939957
0.603737 0.855649 0.937095
0.744647 0.860589 0.934617
0.820826 0.869018 0.933043
0.858685 0.878772 0.932940
0.885913 0.889463 0.932936
0.077114 0.883109 0.938780
0.087629 0.882999 0.938411
0.177041 0.882734 0.937167
0.397184 0.882723 0.935171
0.587975 0.883662 0.932946
0.733575 0.886354 0.932916
0.811877 0.891595 0.931241
0.853294 0.898082 0.930542
0.881032 0.906115 0.930818
0.083536 0.907464 0.933899
0.093820 0.907458 0.933667
0.187025 0.907497 0.932947
0.398711 0.907784 0.932931
0.584481 0.908572 0.932659
0.731597 0.910222 0.931153
0.810841 0.913025 0.930006
0.852589 0.916013 0.929473
0.880008 0.919335 0.929726
