ektachrome100d/Ektachrome100D_Classic_Punchy.cube
TITLE "Kodak Ektachrome 100D Classic Punchy"
# Adobe RGB in/out. REPLACES AgX. Kodak Ektachrome 100D Classic Punchy.
LUT_3D_SIZE 5
DOMAIN_MIN 0.0 0.0 0.0
DOMAIN_MAX 1.0 1.0 1.0
0.100571 0.090407 0.084157
0.124243 0.090421 0.084157
0.522265 0.096454 0.084157
0.848466 0.296028 0.084157
0.955743 0.655834 0.084569
0.100571 0.091233 0.084157
0.126398 0.093119 0.084157
0.524796 0.135696 0.084157
0.849265 0.432497 0.084157
0.955888 0.712797 0.084589
0.100571 0.376688 0.084157
0.134705 0.417257 0.084157
0.533842 0.549262 0.084157
0.851842 0.713817 0.084157
0.956407 0.852428 0.084657
0.102394 0.824257 0.084157
0.153394 0.834478 0.084157
0.550304 0.869662 0.084157
0.856798 0.904803 0.084218
0.957355 0.935495 0.084888
0.110884 0.948349 0.084157
0.191405 0.950078 0.084157
0.574517 0.956081 0.084157
0.864093 0.965007 0.084399
0.958617 0.972865 0.085368
0.100571 0.090407 0.085211
0.124243 0.090425 0.085445
0.522265 0.096719 0.086366
0.848466 0.298781 0.089688
0.955743 0.657382 0.099628
0.100571 0.091341 0.085274
0.126398 0.093371 0.085528
0.524796 0.137247 0.086504
0.849265 0.436366 0.089885
0.955888 0.714124 0.100115
0.100571 0.379414 0.085575
0.134705 0.421062 0.085820
0.533842 0.551518 0.087022
0.851842 0.715142 0.090580
0.956407 0.853076 0.102046
0.102394 0.824941 0.086102
0.153394 0.835148 0.086417
0.550304 0.870290 0.087915
0.856798 0.905091 0.092062
0.957355 0.935552 0.106072
0.110884 0.948464 0.087489
0.191405 0.950191 0.087728
0.574517 0.956189 0.089914
0.864093 0.965063 0.095856
0.958617 0.972915 0.113901
0.100571 0.090407 0.572163
0.124243 0.090438 0.577221
0.522265 0.098833 0.590261
0.848466 0.310464 0.612432
0.955743 0.662613 0.651176
0.100571 0.091772 0.573839
0.126398 0.094255 0.578898
0.524796 0.143377 0.591380
0.849265 0.448347 0.613537
0.955888 0.718878 0.652623
0.100571 0.389252 0.579864
0.134705 0.434864 0.583259
0.533842 0.559629 0.595392
0.851842 0.719893 0.617500
0.956407 0.855398 0.657819
0.102394 0.827388 0.587291
0.153394 0.837549 0.590669
0.550304 0.872293 0.602751
0.856798 0.906126 0.624768
0.957355 0.935756 0.667379
0.110884 0.948878 0.598339
0.191405 0.950599 0.601695
0.574517 0.956575 0.613702
0.864093 0.965264 0.638531
0.958617 0.973092 0.679527
0.100571 0.090411 0.916195
0.124243 0.090466 0.916770
0.522265 0.103797 0.918741
0.848466 0.336543 0.921327
0.955743 0.671674 0.925111
0.100571 0.092555 0.916386
0.126398 0.096116 0.916961
0.524796 0.158211 0.918872
0.849265 0.464475 0.921456
0.955888 0.727585 0.925236
0.100571 0.405994 0.917071
0.134705 0.454754 0.917644
0.533842 0.574573 0.919341
0.851842 0.728594 0.921916
0.956407 0.859645 0.925685
0.102394 0.831863 0.918325
0.153394 0.841939 0.918789
0.550304 0.875131 0.920200
0.856798 0.908018 0.922760
0.957355 0.936404 0.926506
0.110884 0.949635 0.919685
0.191405 0.951344 0.920077
0.574517 0.957283 0.921475
0.864093 0.965633 0.924013
0.958617 0.973418 0.927727
0.100571 0.090444 0.966430
0.124243 0.090885 0.966559
0.522265 0.112260 0.967018
0.848466 0.372364 0.967856
0.955743 0.685116 0.969094
0.100571 0.094664 0.966473
0.126398 0.101846 0.966601
0.524796 0.182962 0.967060
0.849265 0.485713 0.967898
0.955888 0.740516 0.969135
0.100571 0.440321 0.966625
0.134705 0.478148 0.966753
0.533842 0.596977 0.967212
0.851842 0.741516 0.968048
0.956407 0.865937 0.969283
0.102394 0.838486 0.966906
0.153394 0.848439 0.967033
0.550304 0.879331 0.967490
0.856798 0.910820 0.968323
0.957355 0.937959 0.969554
0.110884 0.950758 0.967323
0.191405 0.952451 0.967450
0.574517 0.958334 0.967904
0.864093 0.966179 0.968733
0.958617 0.973901 0.969958
