ektachrome100d/Ektachrome100D_Modern_RadianceIII.cube
TITLE "Kodak Ektachrome 100D Modern RadianceIII"
# Adobe RGB in/out. REPLACES AgX. Kodak Ektachrome 100D Modern RadianceIII.
LUT_3D_SIZE 9
DOMAIN_MIN 0.0 0.0 0.0
DOMAIN_MAX 1.0 1.0 1.0
0.081523 0.088043 0.083657
0.169389 0.092062 0.084184
0.504356 0.110682 0.086876
0.806915 0.151986 0.090404
0.933339 0.210308 0.099606
0.963909 0.252220 0.116072
0.969865 0.263325 0.149765
0.972046 0.134309 0.544863
0.968034 0.404061 0.736164
0.082166 0.118995 0.083803
0.095378 0.111929 0.084615
0.344787 0.131566 0.086892
0.691648 0.186499 0.090264
0.897712 0.239618 0.098959
0.953922 0.276836 0.114764
0.967561 0.287127 0.144225
0.970824 0.133269 0.538586
0.967051 0.399878 0.730210
0.085162 0.331406 0.086784
0.092611 0.311139 0.087221
0.158830 0.259256 0.087708
0.421627 0.282601 0.090819
0.731635 0.327050 0.098949
0.904453 0.368966 0.113056
0.952288 0.386218 0.134317
0.966811 0.149316 0.522453
0.963806 0.386447 0.710906
0.089154 0.530309 0.089370
0.095771 0.516846 0.090290
0.137213 0.481516 0.091843
0.273292 0.438554 0.093359
0.517029 0.445112 0.101097
0.777792 0.476286 0.113912
0.914811 0.500288 0.131365
0.949106 0.504491 0.168719
0.954190 0.367203 0.517857
0.093083 0.674443 0.093093
0.099282 0.665410 0.094608
0.129765 0.644253 0.099100
0.219264 0.610413 0.103183
0.389658 0.580366 0.108664
0.617830 0.578231 0.117506
0.835791 0.598428 0.133472
0.928601 0.613978 0.160871
0.942839 0.632493 0.318943
0.097019 0.787270 0.099725
0.101127 0.781821 0.100891
0.125735 0.772209 0.106415
0.189141 0.751425 0.112597
0.325229 0.726406 0.118642
0.507229 0.704142 0.126359
0.719508 0.698792 0.138814
0.888248 0.714123 0.160724
0.931919 0.732063 0.218509
0.096827 0.861698 0.103286
0.099932 0.858854 0.104505
0.118333 0.853675 0.110101
0.164696 0.842892 0.117130
0.274740 0.826361 0.125931
0.428430 0.809391 0.134961
0.624256 0.798089 0.146979
0.831371 0.794387 0.162080
0.918659 0.805226 0.197905
0.089898 0.909808 0.100712
0.090991 0.907764 0.101090
0.103729 0.903104 0.106814
0.136196 0.897494 0.114593
0.216560 0.888634 0.124260
0.357858 0.878387 0.134448
0.534199 0.870153 0.146566
0.753431 0.864519 0.158922
0.907331 0.864091 0.181561
0.086119 0.899028 0.096294
0.086091 0.897728 0.096136
0.092033 0.929231 0.095618
0.091650 0.923828 0.100011
0.138025 0.925362 0.106044
0.270230 0.914346 0.114708
0.429621 0.905805 0.122552
0.633209 0.900880 0.127877
0.904625 0.899849 0.129628
0.081796 0.090520 0.129573
0.132278 0.095568 0.271935
0.464241 0.117746 0.180445
0.823371 0.158873 0.158988
0.934660 0.211764 0.142664
0.962190 0.251989 0.149862
0.968912 0.264362 0.185271
0.971391 0.133767 0.541511
0.967530 0.401895 0.733077
0.085081 0.112133 0.100712
0.110991 0.105846 0.098856
0.359177 0.132873 0.118083
0.712456 0.190245 0.133778
0.903938 0.239366 0.134402
0.952344 0.275545 0.144715
0.966505 0.287443 0.176679
0.970170 0.132753 0.535291
0.966540 0.397734 0.727164
0.091805 0.302585 0.108558
0.105865 0.273365 0.105879
0.191890 0.228553 0.101805
0.476002 0.268248 0.113435
0.755097 0.320747 0.124014
0.907761 0.363749 0.135567
0.950853 0.383056 0.161217
0.966083 0.155376 0.520799
0.963096 0.384433 0.707896
0.098116 0.506410 0.110757
0.107693 0.491854 0.111476
0.159391 0.452649 0.111891
0.309293 0.412871 0.113103
0.553127 0.430634 0.120282
0.793183 0.468894 0.131999
0.915789 0.495254 0.153610
0.947873 0.501918 0.191006
0.953247 0.365332 0.679154
0.100836 0.656676 0.110590
0.107525 0.647862 0.112306
0.142884 0.625597 0.116647
0.245752 0.592741 0.121146
0.416483 0.566799 0.126469
0.636605 0.569582 0.134112
0.843355 0.592521 0.152983
0.928235 0.610017 0.179481
0.942008 0.631416 0.356268
0.101689 0.777068 0.111467
0.106095 0.771866 0.113001
0.133196 0.761666 0.119340
0.202950 0.740867 0.126690
0.341875 0.716065 0.134007
0.526387 0.695491 0.144260
0.732190 0.693079 0.156477
0.890205 0.710098 0.177099
0.931319 0.730630 0.237798
0.099952 0.856613 0.111810
0.103015 0.853813 0.113096
0.123175 0.848371 0.119374
0.173337 0.837326 0.128548
0.286579 0.821088 0.139356
0.440983 0.804945 0.151097
0.636186 0.794610 0.163228
0.837460 0.792095 0.176752
0.918213 0.804077 0.212763
0.090752 0.907603 0.104084
0.092150 0.905689 0.104939
0.106215 0.901160 0.112519
0.140550 0.895408 0.122060
0.224987 0.886616 0.133309
0.366152 0.876636 0.146945
0.543660 0.868560 0.159506
0.762465 0.862944 0.172132
0.907497 0.863231 0.194483
0.086105 0.903271 0.121691
0.086077 0.901974 0.121326
0.091997 0.931251 0.120113
0.091618 0.926451 0.118205
0.141231 0.924547 0.109400
0.274731 0.913632 0.119573
0.434273 0.905263 0.128606
0.638622 0.900521 0.134887
0.905242 0.899664 0.137334
0.082995 0.098707 0.342998
0.151328 0.115219 0.623147
0.453991 0.137991 0.590739
0.829913 0.190784 0.536716
0.935170 0.231570 0.482984
0.960195 0.265531 0.478050
0.967459 0.276950 0.505959
0.970245 0.144071 0.559600
0.966463 0.397411 0.726753
0.089480 0.141576 0.339953
0.144554 0.161855 0.441681
0.399303 0.172392 0.439238
0.729479 0.211830 0.423347
0.907920 0.254006 0.414162
0.950837 0.286943 0.430571
0.964923 0.297461 0.468203
0.969000 0.147414 0.556182
0.965465 0.393258 0.720801
0.099227 0.258096 0.235775
0.116321 0.238363 0.223172
0.212147 0.208743 0.205652
0.501055 0.260666 0.254387
0.781492 0.319456 0.297177
0.912781 0.363443 0.332110
0.948688 0.383423 0.363073
0.964354 0.257906 0.543496
0.960863 0.380026 0.701303
0.114126 0.465291 0.235546
0.126907 0.449217 0.231063
0.190238 0.405079 0.216736
0.348543 0.371506 0.207026
0.603049 0.408062 0.233342
0.820516 0.457493 0.269701
0.917932 0.487745 0.296138
0.945309 0.497763 0.364326
0.951016 0.361078 0.672779
0.122231 0.624327 0.225671
0.131187 0.615512 0.225400
0.178865 0.590976 0.223719
0.298045 0.559272 0.219765
0.472628 0.539010 0.220168
0.687972 0.551876 0.238588
0.862009 0.580139 0.260711
0.927143 0.600535 0.302357
0.939858 0.630049 0.504783
0.123702 0.755645 0.214106
0.130005 0.750501 0.215227
0.166114 0.737786 0.220205
0.255826 0.715367 0.223824
0.396479 0.689685 0.227127
0.585652 0.674192 0.233188
0.772755 0.678757 0.242969
0.895490 0.699178 0.273207
0.929677 0.726978 0.347676
0.117471 0.843166 0.190864
0.122266 0.840457 0.192729
0.145973 0.833893 0.200851
0.209681 0.821902 0.210551
0.330514 0.806347 0.219534
0.489915 0.792387 0.228214
0.679609 0.783623 0.237922
0.856962 0.784168 0.255224
0.916929 0.800756 0.293805
0.102055 0.898125 0.159209
0.104504 0.896852 0.161713
0.124285 0.893790 0.175664
0.166957 0.888055 0.190526
0.265253 0.879691 0.204370
0.403734 0.870689 0.216436
0.586676 0.861493 0.227717
0.796629 0.857580 0.239147
0.907779 0.860504 0.259534
0.086058 0.901101 0.121084
0.092119 0.932553 0.120729
0.091885 0.930048 0.119547
0.091521 0.924510 0.117694
0.159972 0.921024 0.133868
0.296146 0.910843 0.158176
0.456220 0.903172 0.173278
0.663387 0.899106 0.181732
0.906040 0.898984 0.188088
0.084844 0.122192 0.576245
0.119196 0.154058 0.795073
0.445498 0.195685 0.831102
0.819993 0.244736 0.820889
0.939167 0.278279 0.775281
0.961350 0.299614 0.738853
0.967080 0.307016 0.737718
0.968867 0.250748 0.788551
0.965752 0.394446 0.778365
0.090944 0.179175 0.587155
0.130968 0.209908 0.715327
0.440751 0.247959 0.793730
0.759714 0.273409 0.760753
0.916070 0.296061 0.716614
0.951878 0.316803 0.696984
0.964453 0.324610 0.708952
0.967374 0.268203 0.773465
0.964727 0.390210 0.773311
0.107811 0.288791 0.468722
0.130711 0.287555 0.477210
0.284049 0.286065 0.502022
0.548884 0.305030 0.522592
0.801007 0.344472 0.549598
0.915286 0.380367 0.573647
0.947490 0.398543 0.610996
0.959396 0.389357 0.692290
0.959175 0.376724 0.757211
0.122786 0.428861 0.397645
0.135771 0.417735 0.391566
0.204358 0.382666 0.370844
0.362119 0.355320 0.354524
0.618293 0.404153 0.405990
0.828215 0.456935 0.456978
0.916746 0.488587 0.500014
0.942958 0.502232 0.577422
0.949067 0.357449 0.730408
0.136159 0.591463 0.382708
0.147798 0.583945 0.379745
0.202615 0.562074 0.371094
0.325167 0.531685 0.357261
0.497687 0.513430 0.351611
0.707273 0.538189 0.379545
0.867362 0.571318 0.419066
0.923801 0.595842 0.476686
0.937608 0.631952 0.651790
0.140555 0.731258 0.358118
0.149509 0.726646 0.357692
0.193411 0.712756 0.357956
0.291978 0.688392 0.354892
0.434360 0.664707 0.352196
0.617230 0.653083 0.355173
0.794880 0.665175 0.373282
0.895922 0.689480 0.409402
0.927271 0.724332 0.545360
0.134408 0.827076 0.325214
0.140253 0.824524 0.326223
0.172714 0.817731 0.331395
0.249695 0.805832 0.336706
0.371437 0.791188 0.340806
0.535221 0.776995 0.345502
0.716502 0.770926 0.353119
0.868464 0.775915 0.369747
0.914744 0.797441 0.455581
0.115964 0.889833 0.275767
0.119998 0.888736 0.278028
0.140990 0.885904 0.289541
0.193743 0.880180 0.301327
0.299957 0.872352 0.312490
0.441212 0.861849 0.321846
0.622149 0.853690 0.330593
0.821173 0.851661 0.341073
0.907179 0.857634 0.385606
0.088502 0.914909 0.196402
0.091937 0.931523 0.195644
0.091713 0.929126 0.193119
0.102812 0.928697 0.167152
0.192342 0.915187 0.241443
0.326297 0.906618 0.261945
0.488810 0.900129 0.275118
0.699525 0.896987 0.282307
0.906119 0.898270 0.305065
0.087078 0.168321 0.787125
0.102831 0.199097 0.877405
0.413851 0.260622 0.930066
0.788424 0.304340 0.930126
0.945257 0.345288 0.923679
0.964894 0.351290 0.887842
0.968240 0.351042 0.870123
0.968831 0.314029 0.870989
0.965754 0.394455 0.875024
0.092259 0.220348 0.795340
0.116618 0.248544 0.866133
0.407178 0.303531 0.920227
0.765336 0.343148 0.923186
0.928695 0.359267 0.896779
0.957007 0.365881 0.870532
0.965611 0.366607 0.853214
0.967288 0.331028 0.860427
0.964698 0.390090 0.869808
0.122812 0.371002 0.762886
0.148801 0.376728 0.783204
0.336110 0.386417 0.818681
0.611162 0.387863 0.808458
0.830890 0.398823 0.793609
0.925365 0.419728 0.788796
0.949637 0.430429 0.794902
0.959450 0.425355 0.816008
0.958880 0.376156 0.844784
0.131382 0.442206 0.586145
0.147005 0.438251 0.586843
0.236641 0.427940 0.592061
0.425024 0.422408 0.599812
0.654266 0.444056 0.622244
0.843038 0.478724 0.656227
0.919436 0.503266 0.693748
0.942571 0.516423 0.745698
0.948448 0.505901 0.818852
0.145361 0.569028 0.538229
0.158189 0.563938 0.535825
0.216326 0.547460 0.528420
0.339949 0.520561 0.513359
0.506133 0.502077 0.502584
0.718745 0.537688 0.544057
0.869989 0.573166 0.588922
0.921949 0.599437 0.648764
0.936191 0.638621 0.759208
0.154186 0.707775 0.512333
0.164842 0.703275 0.511011
0.212293 0.690614 0.508416
0.313541 0.668641 0.502033
0.456158 0.645942 0.495299
0.630727 0.635836 0.495744
0.802465 0.656660 0.521663
0.894683 0.685092 0.565787
0.924253 0.724718 0.688139
0.148842 0.811763 0.479303
0.156185 0.809564 0.479242
0.192802 0.803354 0.480630
0.277116 0.792364 0.481383
0.399465 0.776732 0.481411
0.565556 0.763970 0.482739
0.736579 0.760271 0.489016
0.871778 0.769780 0.510202
0.912214 0.795818 0.610994
0.126591 0.882286 0.427169
0.130930 0.881272 0.428197
0.156721 0.878475 0.435164
0.216003 0.873096 0.442385
0.326394 0.864159 0.449314
0.471687 0.853412 0.455607
0.650572 0.846832 0.461692
0.835705 0.846696 0.471262
0.906077 0.856292 0.535099
0.089171 0.915780 0.413260
0.089577 0.917619 0.411820
0.090470 0.920698 0.407010
0.126665 0.918437 0.362174
0.210712 0.910800 0.381605
0.346500 0.903220 0.394199
0.512586 0.897583 0.402618
0.725699 0.895347 0.407533
0.905778 0.898430 0.461309
0.090183 0.232081 0.918003
0.100985 0.248961 0.943836
0.383295 0.325869 0.965486
0.751124 0.364577 0.966004
0.943005 0.409919 0.966240
0.968035 0.414769 0.952439
0.970213 0.405137 0.934931
0.969825 0.373335 0.923300
0.966444 0.397335 0.905809
0.095129 0.269878 0.921218
0.109222 0.287995 0.942220
0.379108 0.358722 0.964314
0.735510 0.396868 0.965153
0.936630 0.436810 0.964603
0.963736 0.427411 0.944033
0.967912 0.419096 0.929280
0.968356 0.389003 0.916694
0.965369 0.392858 0.901982
0.128935 0.426241 0.921148
0.152513 0.438866 0.933621
0.370843 0.482310 0.954142
0.650977 0.476661 0.942925
0.862985 0.471868 0.928486
0.935142 0.471941 0.909082
0.954689 0.472491 0.897220
0.961834 0.466408 0.893253
0.960072 0.378484 0.889461
0.144389 0.492340 0.808785
0.162598 0.492638 0.813960
0.278614 0.498245 0.832822
0.484194 0.498728 0.836273
0.705326 0.503957 0.832659
0.869034 0.515572 0.832946
0.928260 0.530035 0.839049
0.944641 0.538670 0.852528
0.949066 0.539894 0.870485
0.154289 0.572316 0.706240
0.168143 0.569471 0.705963
0.237776 0.562924 0.709281
0.372637 0.550491 0.707156
0.562089 0.546993 0.709251
0.748448 0.563628 0.729557
0.877443 0.589628 0.757886
0.924136 0.612159 0.792148
0.936168 0.650661 0.833783
0.163039 0.691567 0.656217
0.174254 0.688427 0.655183
0.225195 0.679147 0.653604
0.327808 0.661333 0.648130
0.471359 0.640276 0.639084
0.635438 0.626871 0.631938
0.808946 0.658062 0.672054
0.894968 0.688550 0.721497
0.922946 0.729080 0.792446
0.158311 0.799617 0.617291
0.167089 0.797793 0.616716
0.205711 0.792628 0.616800
0.293183 0.781727 0.616175
0.417113 0.767276 0.614872
0.583394 0.754951 0.614377
0.745149 0.752298 0.620744
0.872526 0.767074 0.651998
0.910216 0.796251 0.745662
0.132514 0.876126 0.571263
0.137218 0.875238 0.571163
0.167129 0.872717 0.573503
0.232069 0.867102 0.575849
0.343074 0.857164 0.578765
0.491375 0.847542 0.582153
0.668502 0.842073 0.587259
0.842168 0.843449 0.598246
0.904737 0.856283 0.683338
0.089306 0.913062 0.494035
0.089647 0.914609 0.496744
0.090337 0.916885 0.507318
0.128744 0.915356 0.518359
0.217944 0.908001 0.525014
0.355710 0.901081 0.529918
0.524444 0.896214 0.533669
0.738834 0.894698 0.535949
0.905202 0.899064 0.614790
0.095019 0.298632 0.969508
0.103837 0.308127 0.974842
0.328729 0.381723 0.979801
0.729309 0.421461 0.980341
0.939313 0.464335 0.980588
0.970977 0.479454 0.976262
0.972658 0.460003 0.966543
0.971383 0.426947 0.955430
0.967588 0.402116 0.941880
0.099823 0.328171 0.969850
0.110926 0.338363 0.974439
0.332903 0.409864 0.979351
0.718255 0.449337 0.980018
0.935734 0.486525 0.980317
0.967498 0.487081 0.973022
0.970472 0.470947 0.964264
0.969943 0.441342 0.951910
0.966510 0.397574 0.939389
0.131203 0.465575 0.970167
0.150135 0.473330 0.972775
0.348546 0.512770 0.977229
0.683543 0.540679 0.978440
0.886781 0.528646 0.970120
0.945167 0.519138 0.961700
0.961432 0.510340 0.949011
0.964644 0.500227 0.939862
0.962347 0.382710 0.930895
0.160837 0.551622 0.943944
0.180281 0.552167 0.945618
0.306467 0.560480 0.948387
0.534767 0.560815 0.943999
0.755348 0.558846 0.936433
0.890537 0.559665 0.929507
0.935877 0.561491 0.921638
0.948738 0.563779 0.916907
0.950811 0.581574 0.916614
0.166605 0.600080 0.870778
0.180776 0.599286 0.872157
0.261137 0.600436 0.877036
0.413473 0.598366 0.877138
0.614936 0.598025 0.874095
0.792101 0.604755 0.873001
0.891342 0.616260 0.875419
0.929652 0.631085 0.881152
0.937634 0.666456 0.890885
0.170687 0.692031 0.805690
0.181630 0.690056 0.805973
0.237028 0.685355 0.808569
0.347087 0.675243 0.808662
0.504620 0.663780 0.804540
0.677246 0.662448 0.804075
0.828903 0.677721 0.815935
0.899808 0.700779 0.835797
0.924174 0.736969 0.864819
0.162719 0.792744 0.759969
0.171796 0.791406 0.759949
0.212114 0.787035 0.761614
0.302531 0.778034 0.763343
0.430329 0.765801 0.763189
0.595727 0.753937 0.760362
0.747558 0.746915 0.757313
0.874361 0.769491 0.790041
0.909786 0.799239 0.833152
0.132772 0.872453 0.710103
0.137632 0.871683 0.709788
0.169114 0.869446 0.711665
0.237076 0.862998 0.714410
0.350319 0.854055 0.718293
0.501603 0.845178 0.722319
0.677810 0.840095 0.727650
0.843905 0.842144 0.740040
0.903662 0.857601 0.803611
0.089109 0.908014 0.602313
0.089798 0.912103 0.600970
0.090721 0.915335 0.597029
0.119093 0.915288 0.652816
0.211938 0.907135 0.653834
0.352097 0.900570 0.656832
0.522337 0.896201 0.659797
0.737030 0.895281 0.661477
0.904712 0.900342 0.766745
0.103911 0.363241 0.984117
0.114352 0.368599 0.984402
0.353242 0.422831 0.984816
0.754723 0.461575 0.984882
0.945331 0.494426 0.984927
0.974933 0.518793 0.984471
0.975485 0.493528 0.980723
0.973358 0.457625 0.972778
0.968768 0.428638 0.965869
0.109153 0.388359 0.984075
0.120626 0.394234 0.984343
0.360242 0.448198 0.984764
0.745403 0.482314 0.984839
0.942616 0.513802 0.984890
0.971934 0.525092 0.983571
0.973485 0.502110 0.978645
0.971980 0.470192 0.971254
0.967819 0.430529 0.964841
0.144411 0.506117 0.983914
0.163954 0.510793 0.984103
0.388642 0.542655 0.984499
0.715771 0.567776 0.984631
0.918319 0.573435 0.983349
0.958043 0.557539 0.979194
0.966530 0.541206 0.971785
0.967202 0.521588 0.966078
0.964305 0.477985 0.959245
0.184810 0.607620 0.981523
0.205453 0.606923 0.981408
0.364365 0.613903 0.979893
0.602881 0.609884 0.975932
0.819223 0.602352 0.970959
0.919143 0.595620 0.966010
0.945856 0.588941 0.959734
0.954499 0.582397 0.952458
0.953547 0.602715 0.947538
0.184730 0.640622 0.955332
0.200414 0.640249 0.955265
0.302979 0.644423 0.954319
0.473030 0.643415 0.950193
0.678438 0.641075 0.944691
0.841836 0.641082 0.939557
0.911358 0.643347 0.935616
0.935744 0.647973 0.933221
0.940265 0.680545 0.932366
0.179677 0.708305 0.919022
0.191076 0.707297 0.919414
0.260817 0.707261 0.920086
0.381018 0.702645 0.916251
0.559319 0.697524 0.909995
0.732046 0.697497 0.905214
0.860908 0.704010 0.903973
0.910337 0.715895 0.906184
0.927969 0.745952 0.911145
0.164721 0.792765 0.880726
0.173676 0.791808 0.881363
0.219297 0.789713 0.884190
0.314603 0.783379 0.885044
0.454069 0.774480 0.882193
0.626913 0.767226 0.877640
0.786295 0.767873 0.876166
0.883422 0.779385 0.881688
0.911988 0.804238 0.891946
0.126143 0.872802 0.832749
0.131024 0.872054 0.833332
0.162347 0.869724 0.837839
0.232631 0.863803 0.843784
0.351574 0.855579 0.849695
0.509353 0.847485 0.852591
0.687847 0.842356 0.853125
0.843052 0.840309 0.852131
0.903717 0.860241 0.878411
0.088540 0.900797 0.743401
0.090548 0.913832 0.744128
0.090795 0.913051 0.753307
0.104819 0.915612 0.770283
0.187885 0.909037 0.776937
0.331926 0.902269 0.784764
0.502391 0.898027 0.790687
0.716243 0.897303 0.792395
0.904414 0.902197 0.862780
0.255111 0.383004 0.987207
0.299482 0.387547 0.987207
0.597174 0.405745 0.987208
0.929029 0.436194 0.987209
0.972177 0.469711 0.987212
0.981964 0.494319 0.987218
0.980305 0.457137 0.984303
0.976082 0.372153 0.981366
0.969775 0.426202 0.972686
0.267272 0.403500 0.987203
0.310268 0.408130 0.987204
0.597580 0.426560 0.987205
0.926316 0.457014 0.987207
0.971774 0.486692 0.987210
0.981113 0.501211 0.986947
0.978565 0.466382 0.983716
0.974813 0.382612 0.980066
0.968868 0.428439 0.972044
0.319723 0.496706 0.987186
0.359785 0.500175 0.987187
0.604182 0.513786 0.987189
0.911274 0.535914 0.987193
0.968697 0.554576 0.987065
0.973091 0.535090 0.984396
0.972757 0.506562 0.981787
0.970533 0.446571 0.975477
0.965540 0.413216 0.968679
0.374062 0.630894 0.986910
0.405217 0.628825 0.986642
0.582284 0.623259 0.985740
0.841975 0.614668 0.984294
0.935195 0.603062 0.982523
0.956176 0.588990 0.979192
0.962992 0.570096 0.973521
0.963056 0.542452 0.968376
0.956737 0.603842 0.963707
0.319646 0.667502 0.978683
0.343744 0.666137 0.978156
0.471018 0.662794 0.976399
0.697225 0.657772 0.973588
0.865412 0.651235 0.970210
0.922292 0.643890 0.966716
0.939716 0.634355 0.963266
0.945619 0.622241 0.957028
0.943898 0.670835 0.950997
0.260514 0.724148 0.964666
0.279955 0.722878 0.964264
0.375021 0.719717 0.962328
0.565445 0.715037 0.958069
0.748538 0.709500 0.952815
0.868888 0.705446 0.947949
0.909747 0.702137 0.943941
0.929297 0.699285 0.940709
0.931660 0.741089 0.938001
0.194683 0.795648 0.949077
0.207369 0.794567 0.948339
0.280209 0.791681 0.945835
0.425683 0.786082 0.941763
0.617444 0.778901 0.936995
0.781440 0.773681 0.932718
0.874704 0.771615 0.929894
0.907014 0.771939 0.928493
0.917538 0.801721 0.927740
0.122728 0.871475 0.937732
0.127474 0.870847 0.937632
0.158390 0.868916 0.936553
0.260450 0.863302 0.933781
0.425848 0.855292 0.930038
0.631246 0.847994 0.924610
0.805187 0.843998 0.919138
0.887550 0.842928 0.916673
0.907430 0.858894 0.917183
0.087645 0.892223 0.833151
0.090762 0.912105 0.872734
0.090631 0.909676 0.870362
0.093220 0.907619 0.865194
0.133656 0.915158 0.909132
0.293117 0.906441 0.919054
0.483212 0.901827 0.916577
0.716702 0.901209 0.914620
0.904401 0.904635 0.914187
