ektachrome100d/Ektachrome100D_Modern_Punchy.cube
TITLE "Kodak Ektachrome 100D Modern Punchy"
# Adobe RGB in/out. REPLACES AgX. Kodak Ektachrome 100D Modern Punchy.
LUT_3D_SIZE 9
DOMAIN_MIN 0.0 0.0 0.0
DOMAIN_MAX 1.0 1.0 1.0
0.091497 0.087999 0.082099
0.103892 0.087999 0.082099
0.323114 0.090794 0.082099
0.718760 0.126793 0.082099
0.902218 0.300573 0.082210
0.950428 0.555367 0.082540
0.970527 0.749268 0.083344
0.979530 0.860667 0.085280
0.984872 0.912557 0.087913
0.091497 0.088236 0.082099
0.093922 0.088125 0.082099
0.233850 0.091737 0.082099
0.625484 0.136431 0.082099
0.881959 0.315265 0.082177
0.945994 0.569447 0.082473
0.968444 0.761040 0.083144
0.978843 0.864760 0.085071
0.984617 0.915370 0.087571
0.091497 0.179324 0.082099
0.103510 0.141183 0.082099
0.194269 0.115417 0.082099
0.470704 0.186204 0.082099
0.818530 0.383127 0.082128
0.932774 0.616920 0.082327
0.962097 0.799865 0.082888
0.976658 0.876878 0.084426
0.983091 0.924903 0.086729
0.091688 0.608762 0.082099
0.110272 0.553857 0.082099
0.233302 0.445485 0.082099
0.433296 0.412729 0.082099
0.735411 0.534341 0.082099
0.903778 0.700640 0.082259
0.952021 0.835992 0.082678
0.972205 0.894322 0.083908
0.980669 0.934702 0.086041
0.094293 0.864555 0.082099
0.116749 0.851123 0.082099
0.248245 0.815071 0.082099
0.472916 0.776112 0.082099
0.717500 0.775134 0.082116
0.874331 0.823891 0.082232
0.941766 0.879198 0.082549
0.965906 0.926247 0.083368
0.978034 0.947490 0.085369
0.099629 0.940873 0.082099
0.122194 0.937851 0.082099
0.253182 0.929423 0.082099
0.486816 0.914885 0.082099
0.736150 0.906475 0.082160
0.870618 0.911854 0.082267
0.934702 0.929113 0.082515
0.960695 0.947224 0.083105
0.975699 0.961467 0.084895
0.105680 0.965904 0.082099
0.128556 0.965396 0.082099
0.253377 0.963866 0.082099
0.484180 0.960515 0.082140
0.737213 0.957215 0.082210
0.871139 0.957098 0.082322
0.933012 0.960539 0.082603
0.956552 0.964500 0.083080
0.972803 0.970942 0.084693
0.114696 0.978364 0.082101
0.137868 0.978014 0.082109
0.251346 0.976937 0.082136
0.471301 0.975547 0.082178
0.721761 0.974485 0.082263
0.866333 0.974281 0.082406
0.930775 0.975198 0.082730
0.954965 0.977216 0.083355
0.970524 0.980115 0.084763
0.122161 0.985592 0.082143
0.145178 0.985471 0.082149
0.248408 0.985096 0.082171
0.451827 0.984577 0.082226
0.694721 0.984143 0.082305
0.856424 0.984177 0.082502
0.925344 0.984843 0.082832
0.952300 0.985951 0.083630
0.968734 0.986875 0.085031
0.091497 0.087999 0.082635
0.106353 0.087999 0.082705
0.323081 0.090864 0.082849
0.696058 0.121442 0.083019
0.894300 0.276912 0.083963
0.948116 0.538273 0.085276
0.969391 0.735951 0.086974
0.979155 0.856557 0.090405
0.984737 0.910162 0.096210
0.091497 0.088122 0.082231
0.091851 0.088008 0.082099
0.221510 0.091028 0.082279
0.598947 0.127109 0.082659
0.871751 0.295160 0.083321
0.943629 0.551304 0.084758
0.967299 0.747337 0.086573
0.978469 0.860620 0.089879
0.984447 0.912976 0.095398
0.091497 0.153823 0.082547
0.100373 0.118790 0.082293
0.168709 0.104340 0.082163
0.427250 0.164265 0.082282
0.800299 0.348666 0.082690
0.928740 0.601335 0.083728
0.960945 0.789480 0.085578
0.976288 0.874156 0.088255
0.982838 0.922895 0.092830
0.091546 0.565067 0.082563
0.107218 0.510824 0.082443
0.220744 0.396513 0.082291
0.395210 0.364454 0.082270
0.709207 0.504857 0.082430
0.898533 0.681143 0.082932
0.950464 0.829430 0.084368
0.971579 0.891055 0.086557
0.980432 0.933601 0.090382
0.094034 0.853428 0.082546
0.114885 0.839398 0.082504
0.241668 0.803307 0.082411
0.458494 0.749991 0.082376
0.699110 0.751200 0.082470
0.868880 0.816084 0.082768
0.940463 0.877673 0.083822
0.965265 0.923732 0.085698
0.977827 0.946709 0.088669
0.099257 0.938279 0.082537
0.121227 0.935289 0.082527
0.249421 0.926918 0.082511
0.478902 0.909805 0.082530
0.725500 0.901582 0.082625
0.866785 0.907517 0.082849
0.933330 0.927593 0.083519
0.960208 0.946328 0.085161
0.975536 0.960845 0.087403
0.105367 0.965446 0.082539
0.127742 0.964968 0.082544
0.251145 0.963410 0.082567
0.479790 0.959379 0.082631
0.731302 0.956121 0.082772
0.868926 0.956092 0.082987
0.932038 0.959689 0.083806
0.956105 0.964271 0.084977
0.972608 0.970660 0.086871
0.114354 0.978032 0.082548
0.136517 0.977686 0.082559
0.250159 0.976619 0.082601
0.468902 0.975245 0.082707
0.718591 0.974201 0.082867
0.865141 0.974023 0.083182
0.930242 0.974978 0.084060
0.954692 0.977047 0.085289
0.970390 0.980015 0.086835
0.121982 0.985464 0.082557
0.144829 0.985345 0.082572
0.247769 0.984976 0.082629
0.449965 0.984436 0.082750
0.693159 0.984016 0.082922
0.855849 0.984068 0.083397
0.925033 0.984774 0.084128
0.952186 0.985905 0.085517
0.968691 0.986869 0.087128
0.091497 0.087999 0.232855
0.106353 0.088011 0.237372
0.337414 0.091823 0.254017
0.731779 0.135731 0.228741
0.892729 0.279934 0.188072
0.946093 0.526413 0.182419
0.967822 0.719924 0.189344
0.978493 0.849879 0.202954
0.984399 0.905497 0.221107
0.091497 0.089153 0.234347
0.106178 0.090249 0.218411
0.274116 0.095807 0.149262
0.617100 0.137084 0.141385
0.867708 0.290151 0.147768
0.941279 0.536687 0.158792
0.965639 0.729725 0.173552
0.977790 0.853677 0.191608
0.983901 0.908232 0.212357
0.091497 0.113008 0.113199
0.096538 0.103528 0.096814
0.130581 0.094904 0.085047
0.383761 0.147784 0.091410
0.773575 0.323895 0.103737
0.922017 0.575208 0.118757
0.959004 0.766530 0.135976
0.975562 0.867471 0.160009
0.982280 0.918085 0.186668
0.091521 0.466973 0.123699
0.102830 0.413103 0.109203
0.189608 0.311893 0.093249
0.336867 0.283037 0.088183
0.660790 0.446505 0.091103
0.884551 0.647995 0.100702
0.947280 0.816571 0.111919
0.970065 0.884132 0.130525
0.979870 0.931084 0.155094
0.093367 0.823118 0.120226
0.110306 0.809809 0.112635
0.226488 0.750251 0.101735
0.410715 0.691123 0.093572
0.655143 0.695133 0.091001
0.855916 0.797714 0.094153
0.937308 0.869799 0.102707
0.963674 0.916870 0.113529
0.977294 0.944546 0.132279
0.098224 0.931139 0.111279
0.118587 0.928309 0.108737
0.239818 0.914170 0.103420
0.458481 0.896594 0.097873
0.697599 0.888683 0.095024
0.856348 0.895833 0.094975
0.929436 0.920947 0.098464
0.958880 0.943511 0.106017
0.974928 0.959156 0.120661
0.104462 0.964110 0.104215
0.125372 0.963608 0.103786
0.245170 0.960868 0.101930
0.467427 0.956164 0.098964
0.714649 0.953032 0.097198
0.862558 0.953219 0.097285
0.929046 0.957231 0.099614
0.954811 0.963621 0.103782
0.972039 0.969848 0.113974
0.113302 0.977014 0.099672
0.133366 0.976681 0.099359
0.246556 0.975658 0.098449
0.461705 0.974339 0.097544
0.709122 0.973355 0.097311
0.861549 0.973252 0.098187
0.928321 0.974318 0.100854
0.953855 0.976536 0.104181
0.969977 0.979676 0.111678
0.121410 0.985058 0.095014
0.143719 0.984944 0.094996
0.245745 0.984554 0.095001
0.444124 0.983995 0.095236
0.688268 0.983622 0.095997
0.854048 0.983729 0.097554
0.924056 0.984511 0.100698
0.951829 0.985761 0.104200
0.968554 0.986849 0.111685
0.091497 0.087999 0.859567
0.106353 0.088099 0.860700
0.337414 0.093148 0.864754
0.770563 0.163710 0.872140
0.908980 0.334792 0.816995
0.948328 0.552341 0.746895
0.967913 0.727032 0.705989
0.978233 0.848797 0.683332
0.984037 0.903181 0.668025
0.091497 0.089708 0.859943
0.107494 0.090927 0.861075
0.339690 0.105646 0.865126
0.726319 0.191065 0.829572
0.886826 0.339942 0.751788
0.943213 0.559629 0.705516
0.965605 0.735053 0.681370
0.977500 0.852158 0.664928
0.983526 0.905736 0.653197
0.091497 0.120814 0.666448
0.099456 0.118822 0.606666
0.208059 0.129253 0.488042
0.472696 0.196134 0.486341
0.799131 0.359981 0.532967
0.923237 0.586781 0.570082
0.958497 0.764978 0.592813
0.975067 0.864414 0.607082
0.981858 0.914980 0.616253
0.091497 0.366675 0.562875
0.100034 0.333991 0.493759
0.172288 0.264030 0.307762
0.285910 0.216029 0.159144
0.636489 0.423878 0.268306
0.878047 0.637184 0.389609
0.945380 0.810201 0.466397
0.968860 0.879710 0.508822
0.979379 0.929132 0.544678
0.092574 0.774962 0.568214
0.105881 0.750786 0.529421
0.209052 0.687836 0.430043
0.365391 0.636530 0.285339
0.601266 0.638239 0.223689
0.838992 0.760433 0.264951
0.934146 0.858700 0.353748
0.962133 0.910392 0.429735
0.976747 0.942199 0.473748
0.096942 0.917221 0.536283
0.115057 0.912103 0.514063
0.228053 0.897313 0.459741
0.424074 0.880880 0.370265
0.664172 0.876989 0.294215
0.839278 0.881332 0.265715
0.923616 0.911447 0.291667
0.956916 0.940103 0.359038
0.973977 0.957253 0.420463
0.103188 0.961051 0.480655
0.122842 0.959878 0.472141
0.237158 0.956330 0.444794
0.449478 0.951953 0.385247
0.693163 0.949035 0.333805
0.854094 0.949456 0.301911
0.924126 0.953969 0.298109
0.953130 0.962488 0.323677
0.971294 0.968825 0.377874
0.111758 0.975527 0.418893
0.131157 0.975223 0.411654
0.241399 0.974282 0.389296
0.449890 0.973071 0.359523
0.696013 0.972191 0.329881
0.856536 0.972197 0.311198
0.925403 0.973407 0.309583
0.952665 0.975829 0.325816
0.969402 0.979218 0.357417
0.120534 0.984361 0.333615
0.142027 0.984233 0.330493
0.242690 0.983837 0.320766
0.435475 0.983345 0.307811
0.681063 0.983050 0.297027
0.851398 0.983245 0.293279
0.922618 0.984130 0.299968
0.951301 0.985558 0.319197
0.968352 0.986823 0.351554
0.091497 0.088019 0.969218
0.106353 0.088378 0.969399
0.337414 0.095333 0.970046
0.770563 0.177133 0.971226
0.929348 0.437066 0.968939
0.954012 0.610105 0.949034
0.969864 0.760672 0.934953
0.978560 0.855531 0.925610
0.984038 0.905027 0.910554
0.091497 0.090539 0.969278
0.107494 0.092560 0.969459
0.339690 0.111321 0.970105
0.771377 0.246313 0.971285
0.912874 0.447394 0.958415
0.948896 0.615248 0.941584
0.967492 0.767832 0.932566
0.977802 0.858516 0.918721
0.983511 0.907380 0.905891
0.091497 0.191824 0.963252
0.107537 0.197911 0.958662
0.280931 0.233974 0.945852
0.600231 0.316331 0.933881
0.847302 0.473969 0.923434
0.932822 0.632098 0.911723
0.960065 0.793540 0.903565
0.975363 0.869304 0.896886
0.981784 0.915889 0.890787
0.091497 0.362550 0.897581
0.100188 0.348936 0.884961
0.191489 0.331266 0.839381
0.380021 0.365328 0.792207
0.699857 0.510365 0.802905
0.888227 0.665104 0.830100
0.946406 0.817368 0.851250
0.968820 0.881206 0.859703
0.979196 0.928925 0.863182
0.092225 0.711719 0.878533
0.103410 0.695360 0.867196
0.192840 0.651751 0.815374
0.346109 0.612106 0.713376
0.555232 0.584932 0.606179
0.831922 0.750125 0.698583
0.932489 0.856248 0.760420
0.961420 0.908350 0.801537
0.976422 0.941154 0.820000
0.095878 0.897567 0.871993
0.111141 0.893435 0.863635
0.216757 0.881177 0.831637
0.392066 0.871717 0.773450
0.627033 0.861373 0.705393
0.818776 0.871445 0.670070
0.918367 0.903538 0.697697
0.955116 0.937582 0.740154
0.973204 0.955880 0.774537
0.101823 0.955486 0.853459
0.120202 0.954485 0.847355
0.228537 0.951423 0.824926
0.424391 0.947572 0.791449
0.671170 0.944810 0.743779
0.842132 0.945524 0.710286
0.918712 0.950498 0.697838
0.951430 0.960642 0.711210
0.970489 0.967888 0.739851
0.109938 0.973786 0.816849
0.128571 0.973522 0.812950
0.235479 0.972705 0.800314
0.432838 0.971470 0.773996
0.681592 0.970425 0.744672
0.850937 0.970617 0.721870
0.922138 0.972421 0.710293
0.951325 0.975065 0.711128
0.968852 0.978824 0.723374
0.119460 0.983425 0.761756
0.139968 0.983316 0.758813
0.239007 0.982984 0.749224
0.425286 0.982586 0.735013
0.672642 0.982397 0.720175
0.846968 0.982703 0.708829
0.920956 0.983711 0.703987
0.950692 0.985340 0.707017
0.968123 0.986798 0.717565
0.091497 0.088321 0.987350
0.106353 0.089398 0.987375
0.337414 0.099079 0.987463
0.770563 0.195918 0.987624
0.934179 0.491769 0.987863
0.960070 0.667095 0.984424
0.972638 0.804223 0.979902
0.979362 0.868941 0.976848
0.984389 0.910963 0.968768
0.091497 0.092248 0.987358
0.107494 0.095568 0.987383
0.339690 0.121439 0.987471
0.771377 0.265894 0.987632
0.932204 0.553027 0.987464
0.955954 0.675727 0.982805
0.970602 0.807453 0.979453
0.978597 0.871751 0.975115
0.983852 0.913166 0.966761
0.091497 0.235983 0.987387
0.112687 0.259896 0.987412
0.347860 0.366574 0.987500
0.710220 0.472662 0.984333
0.883562 0.587016 0.980550
0.941011 0.700377 0.977917
0.963173 0.818418 0.972686
0.976113 0.877528 0.965824
0.982082 0.921088 0.960173
0.091512 0.470113 0.977630
0.103406 0.472339 0.976766
0.232790 0.487792 0.970334
0.505719 0.538111 0.962354
0.775722 0.625704 0.957308
0.907834 0.741099 0.954905
0.950326 0.838273 0.953291
0.970091 0.889353 0.951635
0.979395 0.930841 0.949528
0.092099 0.697436 0.956610
0.102784 0.689305 0.953640
0.195473 0.667629 0.943782
0.372098 0.658209 0.933147
0.640111 0.695704 0.923036
0.854537 0.803076 0.927948
0.935592 0.868570 0.933165
0.962028 0.913113 0.935203
0.976451 0.942080 0.937114
0.094992 0.882286 0.949993
0.108062 0.879302 0.947605
0.205614 0.874893 0.939902
0.374284 0.862436 0.931007
0.611489 0.853088 0.905913
0.796891 0.853619 0.882175
0.916337 0.902071 0.903773
0.954559 0.937357 0.918461
0.972876 0.955647 0.928061
0.100771 0.950146 0.944708
0.117704 0.949350 0.943186
0.220507 0.946895 0.938203
0.402550 0.943298 0.932786
0.652261 0.940544 0.919014
0.829766 0.941141 0.904092
0.912464 0.947122 0.897224
0.949986 0.959094 0.903858
0.969820 0.967285 0.913227
0.108066 0.971933 0.937096
0.125876 0.971625 0.936180
0.229415 0.970675 0.933927
0.416031 0.969472 0.930915
0.667514 0.968702 0.920764
0.842845 0.969089 0.910800
0.918835 0.971209 0.904565
0.949961 0.974329 0.903175
0.968335 0.978502 0.906764
0.118278 0.982414 0.929727
0.137720 0.982329 0.928600
0.235021 0.982075 0.924860
0.414517 0.981793 0.919086
0.663818 0.981735 0.912621
0.842223 0.982172 0.907001
0.919245 0.983311 0.903497
0.950070 0.985143 0.902799
0.967900 0.986782 0.904803
0.091497 0.089569 0.991922
0.106353 0.090817 0.991925
0.337414 0.104919 0.991934
0.770563 0.224754 0.991952
0.934179 0.522391 0.991979
0.964388 0.740808 0.991679
0.975369 0.831244 0.989986
0.980392 0.878820 0.987548
0.984752 0.919874 0.984928
0.091497 0.096062 0.991923
0.107494 0.100666 0.991925
0.339690 0.140476 0.991935
0.771377 0.302972 0.991953
0.934370 0.593102 0.991980
0.961223 0.751594 0.991465
0.973534 0.834869 0.989107
0.979639 0.880500 0.986915
0.984432 0.922003 0.984480
0.091497 0.262672 0.991926
0.112687 0.293665 0.991929
0.347860 0.406385 0.991938
0.773672 0.592881 0.991948
0.909080 0.672601 0.991251
0.948445 0.784061 0.988961
0.966812 0.846805 0.987085
0.977178 0.888332 0.984845
0.982651 0.927787 0.982763
0.091535 0.591399 0.990353
0.108450 0.597848 0.989929
0.269192 0.617636 0.988613
0.584812 0.655283 0.987628
0.834031 0.728658 0.985772
0.925421 0.812542 0.984175
0.955651 0.864874 0.982586
0.972067 0.902419 0.981185
0.979911 0.934574 0.979918
0.092263 0.743034 0.983352
0.104315 0.741957 0.982868
0.216684 0.743077 0.981385
0.441434 0.761114 0.979774
0.721962 0.804050 0.978596
0.879626 0.844674 0.977756
0.940481 0.883085 0.977502
0.963848 0.923913 0.977361
0.976839 0.945012 0.977075
0.094558 0.878263 0.979760
0.107077 0.877669 0.979680
0.202400 0.874837 0.977969
0.380735 0.870454 0.973785
0.636756 0.871959 0.966009
0.833694 0.882337 0.962003
0.923302 0.915861 0.963491
0.956008 0.940736 0.966378
0.973174 0.956971 0.968338
0.099897 0.945987 0.978197
0.115512 0.945388 0.977819
0.214415 0.943203 0.976562
0.388177 0.940466 0.971140
0.638801 0.938714 0.964166
0.823527 0.939430 0.957678
0.906475 0.943635 0.952384
0.949506 0.959009 0.957680
0.969604 0.967358 0.961047
0.106756 0.969541 0.975893
0.123739 0.969312 0.975258
0.223823 0.968613 0.972878
0.401230 0.967760 0.968923
0.655477 0.967322 0.964344
0.836046 0.967917 0.960096
0.915450 0.970096 0.957075
0.948656 0.973678 0.956130
0.967912 0.978310 0.957794
0.117190 0.981413 0.968275
0.133391 0.981355 0.967838
0.231030 0.981189 0.966375
0.403994 0.981040 0.964069
0.655289 0.981131 0.961400
0.837717 0.981709 0.958952
0.917429 0.982979 0.957255
0.949492 0.984993 0.956653
0.967712 0.986780 0.957157
0.091497 0.091503 0.992731
0.106353 0.094640 0.992732
0.337414 0.118085 0.992735
0.770563 0.259870 0.992740
0.934179 0.557811 0.992748
0.967638 0.802631 0.992708
0.976729 0.856769 0.992315
0.981409 0.892908 0.991802
0.985089 0.928088 0.991172
0.091497 0.102595 0.992731
0.107494 0.109475 0.992732
0.339690 0.167750 0.992735
0.771377 0.339174 0.992741
0.934370 0.620894 0.992749
0.964760 0.808650 0.992626
0.975731 0.860497 0.992231
0.980683 0.895294 0.991701
0.984816 0.929128 0.991020
0.091497 0.305866 0.992732
0.112687 0.332131 0.992733
0.347860 0.452051 0.992736
0.774287 0.621800 0.992742
0.924000 0.760293 0.992619
0.954558 0.826411 0.992279
0.970188 0.872293 0.991823
0.978293 0.903454 0.991303
0.983331 0.932785 0.990073
0.091648 0.682408 0.992538
0.114789 0.689419 0.992500
0.303570 0.714808 0.992374
0.649675 0.762024 0.992183
0.865558 0.812193 0.991833
0.936416 0.851073 0.991472
0.960155 0.882649 0.990840
0.974156 0.917650 0.989328
0.980590 0.939377 0.987988
0.092569 0.809186 0.991297
0.107147 0.810395 0.991209
0.235010 0.815679 0.990906
0.506498 0.828274 0.989987
0.772558 0.850805 0.988717
0.901619 0.877367 0.987985
0.945863 0.904552 0.987542
0.966234 0.932229 0.986757
0.977455 0.948543 0.986013
0.094711 0.883432 0.987984
0.107661 0.883026 0.987981
0.212038 0.882397 0.987253
0.410388 0.884117 0.986059
0.683731 0.892013 0.984881
0.859929 0.909315 0.984079
0.932454 0.930952 0.983689
0.958702 0.946502 0.983572
0.974006 0.959647 0.983455
0.099378 0.943640 0.986027
0.114198 0.943245 0.985816
0.211158 0.942103 0.985113
0.385604 0.940975 0.984015
0.645502 0.941183 0.982472
0.832856 0.944342 0.981120
0.916694 0.951162 0.980490
0.951268 0.962151 0.980744
0.970063 0.968399 0.981152
0.105655 0.967669 0.984538
0.122218 0.967524 0.984393
0.219348 0.967096 0.983894
0.390323 0.966644 0.982924
0.646475 0.966625 0.981770
0.832419 0.967536 0.980648
0.913763 0.969784 0.979807
0.947472 0.973155 0.979742
0.967757 0.978413 0.979911
0.115925 0.980512 0.982685
0.131639 0.980482 0.982576
0.227328 0.980408 0.982208
0.394503 0.980401 0.981621
0.646652 0.980652 0.980927
0.833890 0.981378 0.980270
0.915903 0.982772 0.979811
0.949018 0.984920 0.979786
0.967582 0.986797 0.979801
0.091497 0.096864 0.992930
0.106353 0.101917 0.992930
0.337414 0.145163 0.992930
0.770563 0.309247 0.992930
0.934179 0.599277 0.992930
0.969447 0.827707 0.992930
0.977727 0.876140 0.992917
0.982243 0.906813 0.992640
0.985390 0.933136 0.992341
0.091497 0.115645 0.992930
0.107494 0.130659 0.992930
0.339690 0.201839 0.992930
0.771377 0.396007 0.992930
0.934370 0.649828 0.992930
0.967068 0.836087 0.992930
0.976800 0.877705 0.992862
0.981551 0.909386 0.992599
0.985125 0.934198 0.992298
0.091497 0.350347 0.992930
0.112687 0.386258 0.992930
0.347860 0.501039 0.992930
0.774287 0.650726 0.992930
0.932099 0.813643 0.992930
0.958762 0.855978 0.992924
0.972578 0.885845 0.992679
0.979261 0.918078 0.992419
0.983973 0.937903 0.992152
0.091935 0.771952 0.992930
0.118886 0.779893 0.992930
0.328956 0.801363 0.992930
0.695468 0.822256 0.992912
0.884701 0.850465 0.992745
0.941965 0.877483 0.992571
0.963303 0.902476 0.992337
0.975730 0.929310 0.992097
0.981268 0.944457 0.991774
0.093149 0.847828 0.992549
0.111071 0.849471 0.992526
0.251932 0.855639 0.992450
0.551198 0.867772 0.992332
0.811905 0.878983 0.992191
0.915335 0.899416 0.991970
0.950639 0.924461 0.991740
0.968577 0.939454 0.991528
0.978124 0.952358 0.991234
0.095267 0.899027 0.991825
0.109707 0.899434 0.991795
0.221150 0.901342 0.991695
0.448411 0.906363 0.991543
0.725983 0.916467 0.991319
0.877063 0.929399 0.991012
0.937785 0.940332 0.990743
0.960884 0.951770 0.990184
0.975048 0.962685 0.989643
0.099306 0.944653 0.991109
0.114120 0.944566 0.991051
0.212640 0.944452 0.990855
0.395063 0.944957 0.990256
0.664091 0.946802 0.989332
0.848673 0.950736 0.988531
0.924468 0.957434 0.988021
0.953826 0.964321 0.987988
0.970940 0.970074 0.987986
0.105065 0.966627 0.989876
0.121194 0.966567 0.989758
0.216583 0.966423 0.989356
0.384967 0.966417 0.988710
0.644184 0.966927 0.987990
0.833862 0.968389 0.987980
0.915976 0.971228 0.987437
0.949352 0.974731 0.987209
0.968125 0.979051 0.987299
0.114819 0.979774 0.988298
0.130129 0.979771 0.988223
0.224188 0.979791 0.987990
0.386770 0.979946 0.987985
0.638704 0.980368 0.987897
0.831220 0.981252 0.987408
0.914992 0.982769 0.987036
0.948767 0.984983 0.986862
0.967534 0.986838 0.986944
