ektachrome100d/Ektachrome100D_Classic_ExtraPunchy.cube
TITLE "Kodak Ektachrome 100D Classic ExtraPunchy"
# Adobe RGB in/out. REPLACES AgX. Kodak Ektachrome 100D Classic ExtraPunchy.
LUT_3D_SIZE 5
DOMAIN_MIN 0.0 0.0 0.0
DOMAIN_MAX 1.0 1.0 1.0
0.069243 0.072709 0.079439
0.079089 0.072749 0.079439
0.552385 0.081823 0.079439
0.916511 0.273499 0.079266
0.972706 0.734918 0.078513
0.069243 0.074342 0.079439
0.079916 0.077615 0.079439
0.558879 0.116912 0.079439
0.916984 0.425553 0.079243
0.972796 0.819262 0.078486
0.069244 0.348616 0.079439
0.084328 0.410955 0.079439
0.573152 0.597279 0.079439
0.918676 0.820779 0.079167
0.973119 0.942957 0.078337
0.069696 0.920995 0.079439
0.095617 0.925825 0.079439
0.593278 0.953317 0.079416
0.921752 0.974881 0.079011
0.973709 0.986189 0.078052
0.072929 0.990219 0.079439
0.125018 0.990896 0.079433
0.622224 0.992674 0.079240
0.926267 0.995647 0.078711
0.974582 0.996824 0.078214
0.069243 0.072709 0.078165
0.079089 0.072771 0.078235
0.552385 0.082135 0.078472
0.916511 0.278636 0.079232
0.972706 0.737491 0.081460
0.069243 0.074433 0.078189
0.079916 0.077891 0.078257
0.558879 0.118616 0.078498
0.916984 0.429257 0.079294
0.972796 0.821236 0.081544
0.069244 0.352693 0.078270
0.084328 0.414601 0.078336
0.573152 0.600012 0.078588
0.918676 0.822752 0.079513
0.973119 0.943349 0.082031
0.069696 0.921550 0.078412
0.095617 0.926479 0.078482
0.593278 0.953693 0.078799
0.921752 0.974994 0.079963
0.973709 0.986221 0.082915
0.072929 0.990268 0.078660
0.125018 0.990930 0.078762
0.622224 0.992706 0.079303
0.926267 0.995673 0.080702
0.974582 0.996825 0.084904
0.069243 0.072709 0.591458
0.079089 0.072851 0.598069
0.552385 0.083418 0.621992
0.916511 0.290011 0.657861
0.972706 0.745380 0.706371
0.069243 0.074848 0.593647
0.079916 0.079228 0.600266
0.558879 0.124814 0.624213
0.916984 0.442683 0.658884
0.972796 0.826889 0.707901
0.069244 0.367556 0.601531
0.084328 0.427819 0.608174
0.573152 0.609847 0.632211
0.918676 0.828010 0.663331
0.973119 0.944750 0.713396
0.069696 0.922404 0.616113
0.095617 0.928822 0.622802
0.593278 0.955038 0.647002
0.921752 0.975400 0.676421
0.973709 0.986334 0.723501
0.072929 0.990444 0.638114
0.125018 0.991050 0.644870
0.622224 0.992820 0.659037
0.926267 0.995766 0.692996
0.974582 0.996830 0.738607
0.069243 0.072709 0.961408
0.079089 0.073094 0.961883
0.552385 0.085937 0.963582
0.916511 0.309372 0.966656
0.972706 0.758601 0.969094
0.069243 0.076503 0.961565
0.079916 0.081424 0.962041
0.558879 0.138676 0.963738
0.916984 0.467876 0.966739
0.972796 0.836408 0.969174
0.069244 0.395791 0.962131
0.084328 0.452630 0.962605
0.573152 0.628009 0.964297
0.918676 0.837334 0.967036
0.973119 0.947307 0.969439
0.069696 0.923961 0.963168
0.095617 0.933103 0.963639
0.593278 0.957496 0.965320
0.921752 0.976142 0.967579
0.973709 0.986540 0.969899
0.072929 0.990764 0.964707
0.125018 0.991272 0.965173
0.622224 0.993030 0.966751
0.926267 0.995935 0.968387
0.974582 0.996839 0.970581
0.069243 0.072892 0.992995
0.079089 0.073792 0.993007
0.552385 0.092359 0.993048
0.916511 0.342186 0.993123
0.972706 0.778312 0.993235
0.069243 0.079717 0.992999
0.079916 0.084879 0.993011
0.558879 0.160509 0.993052
0.916984 0.506739 0.993127
0.972796 0.848254 0.993238
0.069244 0.433041 0.993013
0.084328 0.490926 0.993024
0.573152 0.651214 0.993065
0.918676 0.849169 0.993141
0.973119 0.951086 0.993251
0.069696 0.929735 0.993038
0.095617 0.939436 0.993049
0.593278 0.961128 0.993090
0.921752 0.977218 0.993165
0.973709 0.986835 0.993276
0.072929 0.991098 0.993075
0.125018 0.991600 0.993087
0.622224 0.993340 0.993128
0.926267 0.996186 0.993202
0.974582 0.996852 0.993312
