ektachrome100d/Ektachrome100D_Classic_IlfochromeM.cube
TITLE "Kodak Ektachrome 100D Classic IlfochromeM"
# Adobe RGB in/out. REPLACES AgX. Kodak Ektachrome 100D Classic IlfochromeM.
LUT_3D_SIZE 5
DOMAIN_MIN 0.0 0.0 0.0
DOMAIN_MAX 1.0 1.0 1.0
0.117813 0.082450 0.079661
0.245350 0.128780 0.088868
0.492706 0.250401 0.114456
0.730795 0.397513 0.146831
0.854279 0.540485 0.195399
0.122176 0.192539 0.082926
0.249108 0.225854 0.091575
0.494286 0.318808 0.116184
0.731541 0.448841 0.148197
0.854525 0.569927 0.196906
0.139347 0.426960 0.092869
0.261977 0.444380 0.101151
0.499915 0.496016 0.122750
0.734210 0.570450 0.153368
0.855410 0.662066 0.202224
0.165429 0.637848 0.109346
0.283620 0.646625 0.115098
0.510076 0.676925 0.133833
0.739075 0.724744 0.164204
0.857027 0.775059 0.211687
0.205585 0.801775 0.127348
0.314260 0.805782 0.132275
0.524836 0.819792 0.148398
0.746244 0.844159 0.181074
0.859422 0.867304 0.225261
0.117813 0.086418 0.222400
0.245350 0.131274 0.226479
0.492706 0.252281 0.241380
0.730795 0.398846 0.267047
0.854279 0.541215 0.300700
0.122176 0.194922 0.223760
0.249108 0.227907 0.227815
0.494286 0.320207 0.242775
0.731541 0.449955 0.268249
0.854525 0.570607 0.301751
0.139347 0.428223 0.228581
0.261977 0.445504 0.232555
0.499915 0.496841 0.247736
0.734210 0.571129 0.272526
0.855410 0.662624 0.305496
0.165429 0.638435 0.237649
0.283620 0.647201 0.241890
0.510076 0.677468 0.256257
0.739075 0.725106 0.280240
0.857027 0.775373 0.312274
0.205585 0.802042 0.251216
0.314260 0.806045 0.255058
0.524836 0.820045 0.268428
0.746244 0.844395 0.291287
0.859422 0.867449 0.322170
0.117813 0.098526 0.488745
0.245350 0.139750 0.490476
0.492706 0.258779 0.496596
0.730795 0.403607 0.507575
0.854279 0.543827 0.523460
0.122176 0.203240 0.489319
0.249108 0.235143 0.491049
0.494286 0.325182 0.497154
0.731541 0.453938 0.508118
0.854525 0.573043 0.523982
0.139347 0.432413 0.491378
0.261977 0.449523 0.493094
0.499915 0.499788 0.499151
0.734210 0.573563 0.510061
0.855410 0.664625 0.525852
0.165429 0.640536 0.495112
0.283620 0.649264 0.496799
0.510076 0.679410 0.502801
0.739075 0.726406 0.513613
0.857027 0.776499 0.529271
0.205585 0.802999 0.500615
0.314260 0.806991 0.502279
0.524836 0.820953 0.508199
0.746244 0.845209 0.518870
0.859422 0.867970 0.534334
0.117813 0.118469 0.722327
0.245350 0.154466 0.723345
0.492706 0.270302 0.726987
0.730795 0.412258 0.733591
0.854279 0.548590 0.740502
0.122176 0.217733 0.722665
0.249108 0.248012 0.723682
0.494286 0.334863 0.727321
0.731541 0.461185 0.733825
0.854525 0.577491 0.740731
0.139347 0.439981 0.723876
0.261977 0.456834 0.724891
0.499915 0.505153 0.728522
0.734210 0.578005 0.734665
0.855410 0.668285 0.741553
0.165429 0.644378 0.726098
0.283620 0.653039 0.727109
0.510076 0.682966 0.730725
0.739075 0.728784 0.736204
0.857027 0.778563 0.743060
0.205585 0.804754 0.729404
0.314260 0.808725 0.730409
0.524836 0.822616 0.733860
0.746244 0.846270 0.738492
0.859422 0.868925 0.745301
0.117813 0.142880 0.861195
0.245350 0.178745 0.861497
0.492706 0.287196 0.862579
0.730795 0.424946 0.864555
0.854279 0.555614 0.867478
0.122176 0.237919 0.861295
0.249108 0.265855 0.861597
0.494286 0.349408 0.862678
0.731541 0.471153 0.864654
0.854525 0.584060 0.867576
0.139347 0.451087 0.861655
0.261977 0.467575 0.861956
0.499915 0.513042 0.863036
0.734210 0.584566 0.865008
0.855410 0.673711 0.867901
0.165429 0.650069 0.862315
0.283620 0.658631 0.862615
0.510076 0.688240 0.863691
0.739075 0.732311 0.865658
0.857027 0.781551 0.868383
0.205585 0.807361 0.863298
0.314260 0.811301 0.863597
0.524836 0.825090 0.864668
0.746244 0.847848 0.866626
0.859422 0.870346 0.869103
