ektachrome100d/Ektachrome100D_Modern_Soft.cube
TITLE "Kodak Ektachrome 100D Modern Soft"
# Adobe RGB in/out. REPLACES AgX. Kodak Ektachrome 100D Modern Soft.
LUT_3D_SIZE 9
DOMAIN_MIN 0.0 0.0 0.0
DOMAIN_MAX 1.0 1.0 1.0
0.086071 0.084324 0.090717
0.095229 0.084324 0.090717
0.328298 0.088669 0.090717
0.711559 0.138882 0.090717
0.892219 0.321016 0.090780
0.941818 0.548626 0.090967
0.962397 0.734519 0.091386
0.973389 0.840822 0.092541
0.980939 0.897006 0.094383
0.086071 0.084839 0.090717
0.087633 0.084632 0.090717
0.232974 0.090132 0.090717
0.619775 0.149742 0.090717
0.873335 0.333524 0.090761
0.936935 0.562160 0.090929
0.959982 0.742834 0.091309
0.972322 0.844090 0.092402
0.980612 0.900283 0.094099
0.086071 0.198754 0.090717
0.094835 0.155413 0.090717
0.189579 0.124415 0.090717
0.469435 0.206826 0.090717
0.810169 0.389889 0.090733
0.922037 0.611317 0.090846
0.952632 0.772824 0.091164
0.968932 0.855596 0.091968
0.978927 0.911405 0.093511
0.086165 0.601926 0.090717
0.100796 0.547175 0.090717
0.232379 0.446436 0.090717
0.435830 0.415951 0.090717
0.727046 0.528400 0.090717
0.894105 0.699616 0.090808
0.943117 0.821055 0.091045
0.964134 0.875804 0.091618
0.975160 0.926807 0.093052
0.087885 0.843927 0.090717
0.106731 0.833189 0.090717
0.248622 0.793146 0.090717
0.471413 0.753429 0.090717
0.710386 0.752742 0.090726
0.866697 0.805000 0.090792
0.931919 0.858279 0.090972
0.957042 0.912975 0.091395
0.971067 0.935948 0.092602
0.091480 0.931222 0.090717
0.112216 0.929061 0.090717
0.254008 0.918885 0.090717
0.483823 0.899718 0.090717
0.727732 0.889925 0.090752
0.862199 0.896187 0.090812
0.923549 0.918252 0.090953
0.951010 0.935757 0.091287
0.967444 0.945899 0.092283
0.097067 0.950499 0.090717
0.118110 0.949864 0.090717
0.254221 0.947954 0.090717
0.481472 0.945222 0.090740
0.728720 0.942876 0.090780
0.862856 0.942792 0.090844
0.922218 0.945239 0.091003
0.946809 0.948746 0.091273
0.964652 0.956793 0.092147
0.104849 0.966082 0.090718
0.126502 0.965643 0.090723
0.252004 0.964294 0.090738
0.469969 0.962554 0.090762
0.714351 0.961224 0.090810
0.856799 0.960969 0.090891
0.920513 0.962117 0.091075
0.945516 0.964643 0.091391
0.962393 0.968277 0.092194
0.112178 0.975146 0.090742
0.134342 0.974994 0.090745
0.248800 0.974524 0.090758
0.452513 0.973872 0.090789
0.689161 0.973328 0.090834
0.844338 0.973370 0.090946
0.916370 0.974205 0.091132
0.943344 0.975597 0.091489
0.960319 0.977626 0.092375
0.086071 0.084324 0.091021
0.097609 0.084324 0.091061
0.328264 0.088773 0.091142
0.690408 0.132814 0.091238
0.884059 0.297413 0.091655
0.939454 0.532184 0.092539
0.961080 0.725068 0.093661
0.972807 0.837536 0.096678
0.980766 0.894217 0.102080
0.086071 0.084626 0.090792
0.086245 0.084346 0.090717
0.219627 0.089021 0.090819
0.593545 0.139181 0.091035
0.863628 0.315896 0.091378
0.934128 0.544719 0.092191
0.958656 0.733152 0.093408
0.971741 0.840784 0.096074
0.980440 0.897494 0.101330
0.086071 0.169264 0.090971
0.091976 0.129102 0.090827
0.160421 0.109625 0.090753
0.430371 0.180740 0.090821
0.791816 0.361540 0.091052
0.918962 0.592778 0.091524
0.951299 0.762777 0.092742
0.968358 0.852449 0.094665
0.978533 0.909060 0.098952
0.086095 0.557951 0.090980
0.098305 0.505751 0.090912
0.218801 0.400793 0.090826
0.401307 0.374593 0.090814
0.702663 0.500000 0.090905
0.887768 0.678993 0.091190
0.941848 0.812469 0.091928
0.963591 0.872013 0.093397
0.974792 0.926018 0.096652
0.087709 0.835033 0.090970
0.105023 0.823790 0.090947
0.241462 0.777411 0.090894
0.458498 0.735031 0.090874
0.693253 0.735886 0.090927
0.860007 0.794505 0.091096
0.930374 0.856515 0.091560
0.956299 0.910038 0.092822
0.970745 0.935390 0.095007
0.091231 0.929367 0.090965
0.111144 0.927227 0.090960
0.249904 0.913772 0.090951
0.476762 0.893801 0.090961
0.717831 0.884236 0.091015
0.857368 0.891138 0.091142
0.922460 0.915150 0.091449
0.950446 0.935118 0.092462
0.967192 0.945457 0.093960
0.096750 0.949927 0.090967
0.117459 0.949330 0.090969
0.251784 0.947386 0.090982
0.477555 0.944414 0.091019
0.723226 0.942097 0.091099
0.860066 0.942077 0.091220
0.921475 0.944635 0.091551
0.946445 0.948461 0.092338
0.964483 0.956440 0.093606
0.104536 0.965666 0.090972
0.125061 0.965232 0.090978
0.250708 0.963897 0.091002
0.467823 0.962176 0.091062
0.711401 0.960869 0.091153
0.855297 0.960646 0.091329
0.920107 0.961842 0.091721
0.945294 0.964432 0.092548
0.962238 0.968150 0.093582
0.111980 0.974985 0.090977
0.133967 0.974836 0.090985
0.248103 0.974372 0.091018
0.450840 0.973695 0.091086
0.687704 0.973168 0.091183
0.843617 0.973233 0.091405
0.916133 0.974119 0.091767
0.943252 0.975539 0.092701
0.960269 0.977599 0.093738
0.086071 0.084324 0.245251
0.097609 0.084352 0.249967
0.342895 0.090331 0.267346
0.723670 0.148864 0.240953
0.882695 0.300511 0.201205
0.937052 0.520767 0.195624
0.959261 0.713632 0.202459
0.971779 0.832192 0.215837
0.980407 0.888788 0.233449
0.086071 0.086205 0.246808
0.097468 0.087847 0.230862
0.276945 0.097922 0.161927
0.611488 0.150562 0.154627
0.858532 0.310966 0.160548
0.931341 0.530657 0.171849
0.956733 0.720634 0.186842
0.970688 0.835233 0.204689
0.980078 0.891969 0.225038
0.086071 0.121092 0.121138
0.089404 0.108448 0.102638
0.119725 0.096272 0.092385
0.390092 0.162647 0.097834
0.763160 0.340816 0.110253
0.913830 0.567695 0.126850
0.949053 0.746700 0.148630
0.967233 0.846254 0.173145
0.977665 0.903449 0.199820
0.086083 0.465251 0.132549
0.094135 0.416299 0.116069
0.184206 0.330664 0.099340
0.342338 0.303688 0.094606
0.657468 0.447382 0.097480
0.875589 0.644013 0.106409
0.938461 0.795159 0.119511
0.961861 0.863991 0.141381
0.973919 0.922284 0.167907
0.087256 0.803959 0.128336
0.100827 0.786098 0.120421
0.225004 0.735215 0.107715
0.415401 0.689546 0.099640
0.650689 0.693788 0.097364
0.843701 0.769962 0.100178
0.926634 0.848111 0.108946
0.954457 0.902032 0.121556
0.969918 0.933847 0.143666
0.090538 0.922395 0.118698
0.108415 0.916610 0.115480
0.239451 0.898884 0.109850
0.458486 0.878441 0.103605
0.691846 0.869263 0.100985
0.844243 0.877557 0.100939
0.919492 0.906787 0.104032
0.948910 0.933107 0.112837
0.966495 0.944256 0.128775
0.095816 0.948259 0.110860
0.115562 0.947633 0.110315
0.245273 0.945473 0.107962
0.466502 0.942128 0.104394
0.707731 0.939898 0.102992
0.852047 0.940031 0.103072
0.919195 0.942887 0.105036
0.945391 0.947648 0.110310
0.963990 0.955425 0.122006
0.103572 0.964390 0.105109
0.121942 0.963974 0.104715
0.246782 0.962692 0.104022
0.461376 0.961042 0.103311
0.702584 0.959810 0.103096
0.850778 0.959682 0.103832
0.918642 0.961016 0.106601
0.944612 0.963792 0.110818
0.961759 0.967725 0.119204
0.111347 0.974475 0.100975
0.132772 0.974333 0.100959
0.245899 0.973843 0.100963
0.445587 0.973142 0.101180
0.683141 0.972673 0.101883
0.841356 0.972809 0.103320
0.915387 0.973789 0.106404
0.942960 0.975358 0.110841
0.960110 0.977515 0.119213
0.086071 0.084324 0.834084
0.097609 0.084569 0.835121
0.342895 0.093098 0.838829
0.759936 0.180095 0.845212
0.900398 0.349971 0.795083
0.939706 0.545717 0.734718
0.959367 0.718713 0.696891
0.971375 0.831325 0.674954
0.980168 0.886095 0.657081
0.086071 0.087036 0.834428
0.098526 0.088870 0.835465
0.345212 0.111299 0.839170
0.718592 0.211372 0.806617
0.877567 0.354276 0.739234
0.933635 0.552724 0.696453
0.956694 0.724430 0.672355
0.970237 0.834017 0.654168
0.979604 0.889065 0.643127
0.086071 0.131933 0.655598
0.091364 0.129147 0.599245
0.205153 0.141204 0.490056
0.471217 0.216093 0.488235
0.790562 0.370907 0.531798
0.914761 0.578809 0.564640
0.948466 0.745608 0.586152
0.966615 0.843814 0.599637
0.977009 0.899829 0.608297
0.086071 0.376421 0.557812
0.091750 0.349300 0.496177
0.164458 0.284194 0.318465
0.289936 0.234523 0.172224
0.630651 0.426346 0.282256
0.869932 0.632628 0.394437
0.936205 0.786622 0.466921
0.960464 0.858871 0.511897
0.973155 0.918290 0.541393
0.086715 0.752622 0.562870
0.097229 0.735593 0.528886
0.206219 0.686069 0.432597
0.371383 0.631939 0.299080
0.595838 0.633738 0.235924
0.827456 0.742406 0.278756
0.923081 0.839249 0.358315
0.952674 0.894485 0.432329
0.969070 0.932170 0.474771
0.089676 0.902441 0.534519
0.105180 0.896477 0.516231
0.226696 0.879275 0.459821
0.427500 0.860225 0.374954
0.660632 0.855724 0.306793
0.827696 0.860748 0.279554
0.915050 0.895713 0.304587
0.947105 0.930671 0.363644
0.965670 0.942902 0.424255
0.094504 0.945603 0.482153
0.112934 0.944769 0.473054
0.236563 0.942246 0.445393
0.450402 0.939130 0.390044
0.687709 0.937050 0.340663
0.841415 0.937350 0.313435
0.915440 0.940565 0.310158
0.944021 0.946624 0.332067
0.963286 0.954147 0.382618
0.102157 0.962529 0.422886
0.120184 0.962148 0.416562
0.241170 0.960971 0.394122
0.450772 0.959455 0.364133
0.690367 0.958355 0.337337
0.844478 0.958362 0.321411
0.916416 0.959876 0.320027
0.943641 0.962907 0.333886
0.961092 0.967152 0.362011
0.110378 0.973601 0.340502
0.130955 0.973440 0.337857
0.242574 0.972944 0.329587
0.437795 0.972327 0.318507
0.676415 0.971956 0.309223
0.838033 0.972201 0.305983
0.914289 0.973311 0.311761
0.942530 0.975103 0.328250
0.959876 0.977404 0.356104
0.086071 0.084372 0.958966
0.097609 0.085049 0.959163
0.342895 0.097053 0.959868
0.759936 0.196125 0.961156
0.919425 0.438617 0.958661
0.944740 0.603770 0.936979
0.961628 0.742575 0.909301
0.971884 0.836716 0.894582
0.980169 0.888241 0.880442
0.086071 0.088283 0.959031
0.098526 0.092038 0.959228
0.345212 0.118512 0.959933
0.760807 0.265966 0.961220
0.905114 0.448208 0.947192
0.940380 0.609561 0.923307
0.958880 0.747615 0.904287
0.970706 0.839102 0.888113
0.979581 0.890978 0.876061
0.086071 0.212081 0.952462
0.098560 0.217744 0.947461
0.284445 0.253178 0.932383
0.594814 0.334427 0.907047
0.834458 0.470502 0.892539
0.922073 0.627275 0.881540
0.950281 0.765607 0.873876
0.966923 0.847716 0.867599
0.976894 0.900888 0.861868
0.086071 0.373025 0.868253
0.091853 0.361763 0.856391
0.186372 0.347015 0.815606
0.386283 0.375313 0.773645
0.693950 0.505308 0.782149
0.878784 0.662054 0.807101
0.937424 0.796228 0.826474
0.960418 0.860602 0.834209
0.972870 0.917868 0.837392
0.086477 0.707749 0.850347
0.094733 0.694029 0.841063
0.187930 0.647971 0.793596
0.351748 0.606262 0.703732
0.550331 0.577033 0.598784
0.821490 0.735126 0.690029
0.921820 0.837289 0.747197
0.951849 0.892107 0.780892
0.968566 0.931423 0.797839
0.088958 0.879571 0.845129
0.101592 0.874774 0.837806
0.214503 0.860569 0.808510
0.398442 0.849640 0.759206
0.621306 0.841386 0.696339
0.810377 0.849424 0.659004
0.911039 0.886509 0.689207
0.945639 0.928868 0.728493
0.965000 0.941926 0.760207
0.093100 0.941645 0.828496
0.110010 0.940932 0.822908
0.227219 0.938751 0.802357
0.427788 0.936006 0.773191
0.667174 0.934035 0.731841
0.830102 0.934545 0.700871
0.911304 0.938092 0.689337
0.942635 0.945312 0.701726
0.962353 0.952976 0.728214
0.100490 0.960350 0.794949
0.118122 0.960020 0.791371
0.234740 0.958997 0.779769
0.435417 0.957453 0.759709
0.676909 0.956147 0.732666
0.837518 0.956386 0.711593
0.913922 0.958642 0.700878
0.942549 0.961951 0.701650
0.960456 0.966658 0.712983
0.109215 0.972427 0.748429
0.128748 0.972290 0.745715
0.238571 0.971873 0.736868
0.428596 0.971374 0.723744
0.668550 0.971137 0.710025
0.834177 0.971521 0.699522
0.913019 0.972786 0.695037
0.942033 0.974830 0.697843
0.959611 0.977299 0.707609
0.086071 0.084965 0.981866
0.097609 0.086571 0.981890
0.342895 0.102400 0.981976
0.759936 0.215893 0.982135
0.923107 0.487380 0.982369
0.950286 0.664157 0.978992
0.964509 0.778634 0.974551
0.973129 0.847427 0.968071
0.980401 0.895149 0.958475
0.086071 0.091313 0.981874
0.098526 0.097484 0.981898
0.345212 0.132809 0.981984
0.760807 0.286110 0.982143
0.921602 0.546377 0.981978
0.946322 0.673271 0.977402
0.962484 0.782947 0.974111
0.971940 0.849671 0.965398
0.980045 0.897715 0.956286
0.086071 0.255262 0.981902
0.103009 0.279946 0.981927
0.353531 0.376338 0.982013
0.703607 0.469522 0.978903
0.874729 0.579034 0.975187
0.931023 0.699338 0.971151
0.953878 0.797639 0.962748
0.968086 0.856347 0.955266
0.977358 0.906951 0.949107
0.086078 0.467610 0.970325
0.094728 0.469280 0.967835
0.231825 0.483543 0.960182
0.500641 0.532028 0.951484
0.765459 0.620550 0.945986
0.899011 0.728727 0.943369
0.941735 0.822886 0.941613
0.961891 0.870040 0.939810
0.973180 0.921785 0.937517
0.086391 0.696225 0.945227
0.094087 0.687623 0.941992
0.190971 0.664720 0.927974
0.378214 0.654781 0.905505
0.634231 0.694392 0.892165
0.841970 0.777104 0.896777
0.924602 0.847131 0.905544
0.952552 0.897653 0.909827
0.968611 0.932085 0.913851
0.088359 0.861853 0.938023
0.098982 0.858400 0.935424
0.202531 0.853301 0.919742
0.380440 0.842235 0.901021
0.605942 0.834761 0.876082
0.788157 0.835186 0.853771
0.909311 0.884803 0.874072
0.945186 0.928708 0.887869
0.964716 0.941760 0.896883
0.092241 0.937841 0.929944
0.107606 0.937274 0.926707
0.218545 0.935523 0.916150
0.407986 0.932955 0.904748
0.646781 0.930987 0.888389
0.819669 0.931414 0.874371
0.904617 0.935685 0.867917
0.941457 0.944212 0.874151
0.961577 0.952223 0.882953
0.098986 0.958032 0.913813
0.115966 0.957647 0.911883
0.228170 0.956459 0.907144
0.420221 0.954955 0.900827
0.663757 0.953993 0.890032
0.830704 0.954477 0.880673
0.911398 0.957127 0.874815
0.941438 0.961030 0.873510
0.959857 0.966254 0.876882
0.108132 0.971158 0.898447
0.126344 0.971052 0.897389
0.234244 0.970733 0.893878
0.418848 0.970380 0.888456
0.660300 0.970308 0.882384
0.830179 0.970855 0.877104
0.911711 0.972284 0.873812
0.941526 0.974582 0.873156
0.959353 0.977229 0.875039
0.086071 0.086826 0.988345
0.097609 0.088704 0.988353
0.342895 0.110468 0.988379
0.759936 0.243601 0.988426
0.923107 0.516894 0.988497
0.955284 0.728521 0.987702
0.966933 0.814918 0.984455
0.974729 0.857842 0.982060
0.980786 0.905536 0.979487
0.086071 0.098389 0.988348
0.098526 0.104327 0.988355
0.345212 0.154638 0.988381
0.760807 0.323066 0.988429
0.923252 0.584876 0.988499
0.951620 0.736165 0.987137
0.965286 0.819821 0.983591
0.973560 0.859786 0.981439
0.980430 0.908020 0.979048
0.086071 0.282800 0.988356
0.103009 0.314425 0.988364
0.353531 0.410026 0.988390
0.763264 0.584664 0.988415
0.900519 0.669969 0.986570
0.939844 0.758993 0.983448
0.958092 0.829730 0.981606
0.969738 0.868856 0.979406
0.978243 0.915546 0.977361
0.086090 0.583242 0.984815
0.099294 0.589431 0.984399
0.271535 0.612071 0.983106
0.579573 0.651694 0.982139
0.823270 0.719873 0.980317
0.916429 0.789757 0.978747
0.946075 0.844182 0.977187
0.964013 0.885208 0.975811
0.973981 0.926715 0.974566
0.086503 0.730101 0.977939
0.095665 0.729337 0.977464
0.214425 0.730132 0.976008
0.443165 0.742887 0.974426
0.714538 0.778403 0.973114
0.871306 0.828022 0.970686
0.930395 0.862778 0.969956
0.954659 0.910249 0.969549
0.969212 0.934179 0.968724
0.088065 0.857197 0.974412
0.098191 0.856511 0.974334
0.199009 0.853236 0.971301
0.387010 0.848633 0.963947
0.630915 0.849911 0.955466
0.822986 0.861912 0.951101
0.914811 0.900855 0.952723
0.946366 0.931124 0.955869
0.964974 0.942702 0.958006
0.091659 0.934875 0.971961
0.105597 0.934447 0.970869
0.211982 0.932887 0.967248
0.394589 0.930931 0.961061
0.632937 0.929678 0.953458
0.814396 0.930191 0.946389
0.897367 0.933196 0.940625
0.941066 0.944152 0.946391
0.961327 0.952314 0.950059
0.097933 0.955041 0.966247
0.113930 0.954756 0.965554
0.222124 0.953882 0.962957
0.406786 0.952817 0.958643
0.651142 0.952270 0.953652
0.824970 0.953013 0.949023
0.908235 0.955735 0.945733
0.940095 0.960215 0.944703
0.959367 0.966014 0.946516
0.107135 0.969904 0.957937
0.121962 0.969831 0.957461
0.229918 0.969622 0.955865
0.409298 0.969436 0.953352
0.650886 0.969549 0.950444
0.826380 0.970274 0.947777
0.910322 0.971867 0.945928
0.941055 0.974394 0.945273
0.959134 0.977220 0.945822
0.086071 0.089741 0.990489
0.097609 0.095792 0.990491
0.342895 0.128119 0.990499
0.759936 0.279919 0.990514
0.923107 0.550976 0.990535
0.959049 0.776511 0.990429
0.969042 0.837706 0.989386
0.976310 0.874163 0.988029
0.981218 0.916159 0.986362
0.086071 0.107100 0.990490
0.098526 0.115611 0.990492
0.345212 0.184897 0.990500
0.760807 0.353634 0.990515
0.923252 0.615493 0.990536
0.955715 0.784547 0.990210
0.967494 0.840686 0.989164
0.975181 0.876931 0.987761
0.980867 0.918282 0.985959
0.086071 0.325536 0.990493
0.103009 0.347741 0.990495
0.353531 0.452527 0.990503
0.763922 0.616446 0.990517
0.915344 0.742308 0.990193
0.945185 0.808395 0.989290
0.962003 0.850296 0.988084
0.971468 0.886412 0.986708
0.979302 0.925434 0.984540
0.086145 0.680330 0.989977
0.104934 0.687744 0.989876
0.308268 0.709966 0.989544
0.643683 0.743528 0.989038
0.855823 0.789289 0.988110
0.925578 0.833148 0.987155
0.950385 0.862273 0.985485
0.965826 0.902941 0.983808
0.975036 0.930153 0.982492
0.086712 0.785264 0.986691
0.098247 0.786882 0.986459
0.234232 0.793962 0.985658
0.501333 0.810908 0.984455
0.762071 0.832934 0.983208
0.891495 0.856161 0.982490
0.936779 0.887689 0.982055
0.957422 0.924629 0.981283
0.970167 0.936698 0.980553
0.088168 0.863179 0.982488
0.098660 0.862710 0.982485
0.209426 0.861981 0.981770
0.415104 0.863972 0.980598
0.678906 0.873124 0.979441
0.848742 0.893230 0.978654
0.921793 0.922013 0.978270
0.948704 0.935243 0.978156
0.965695 0.944605 0.978040
0.091311 0.933199 0.980567
0.104393 0.932917 0.980359
0.208481 0.932101 0.979669
0.391969 0.931295 0.978590
0.639559 0.931443 0.977075
0.822278 0.933700 0.975747
0.909744 0.938565 0.975129
0.942503 0.946384 0.975378
0.961858 0.953614 0.975779
0.097047 0.952703 0.979104
0.112241 0.952522 0.978962
0.217295 0.951987 0.978472
0.396775 0.951422 0.977519
0.640520 0.951398 0.976386
0.821909 0.952537 0.975284
0.906191 0.955346 0.974458
0.938688 0.959560 0.974394
0.959186 0.966143 0.974560
0.105976 0.968774 0.977284
0.120569 0.968736 0.977177
0.225911 0.968643 0.976816
0.400663 0.968634 0.976240
0.640695 0.968949 0.975558
0.823151 0.969860 0.974912
0.908786 0.971608 0.974462
0.940525 0.974303 0.974437
0.958984 0.977292 0.974452
0.086071 0.099870 0.991016
0.097609 0.106122 0.991016
0.342895 0.159775 0.991016
0.759936 0.328415 0.991016
0.923107 0.590803 0.991016
0.961145 0.810144 0.991016
0.970590 0.854743 0.990982
0.977607 0.890319 0.990248
0.981605 0.925685 0.989455
0.086071 0.124731 0.991016
0.098526 0.142528 0.991016
0.345212 0.221384 0.991016
0.760807 0.400353 0.991016
0.923252 0.645945 0.991016
0.958388 0.821131 0.991016
0.969152 0.856552 0.990835
0.976531 0.893313 0.990139
0.981264 0.926446 0.989342
0.086071 0.362935 0.991016
0.103009 0.392439 0.991016
0.353531 0.496320 0.991016
0.763922 0.646891 0.991016
0.921522 0.791232 0.991016
0.948773 0.837073 0.991001
0.964457 0.865975 0.990352
0.972972 0.903441 0.989663
0.980125 0.929098 0.988955
0.086286 0.750510 0.991016
0.108689 0.756077 0.991016
0.334283 0.774820 0.991016
0.689858 0.802799 0.990968
0.875719 0.832662 0.990527
0.932155 0.856295 0.990065
0.954028 0.885275 0.989445
0.967493 0.918654 0.988810
0.976092 0.933783 0.987954
0.087107 0.830550 0.990006
0.101528 0.831866 0.989946
0.252643 0.836802 0.989746
0.546343 0.846494 0.989432
0.804287 0.858031 0.989058
0.908096 0.881718 0.988473
0.941990 0.910889 0.987865
0.960136 0.930208 0.987304
0.971206 0.939418 0.986525
0.088545 0.881266 0.988090
0.100303 0.881739 0.988009
0.219239 0.883957 0.987744
0.449443 0.889795 0.987342
0.718279 0.901562 0.986749
0.869076 0.918836 0.985939
0.927200 0.930835 0.985227
0.951228 0.938999 0.984649
0.966599 0.946764 0.984117
0.091263 0.933922 0.986195
0.104322 0.933860 0.986041
0.210073 0.933779 0.985524
0.401173 0.934140 0.984720
0.660555 0.935457 0.983813
0.835612 0.938262 0.983026
0.915702 0.943032 0.982525
0.944588 0.948523 0.982492
0.962875 0.955708 0.982491
0.096438 0.951401 0.984347
0.111108 0.951326 0.984230
0.214316 0.951146 0.983836
0.391320 0.951139 0.983202
0.638256 0.951776 0.982494
0.823127 0.953602 0.982484
0.908874 0.957151 0.981951
0.940922 0.961532 0.981728
0.959613 0.966942 0.981816
0.104962 0.967849 0.982797
0.119365 0.967845 0.982723
0.222518 0.967871 0.982494
0.393156 0.968064 0.982489
0.632840 0.968593 0.982403
0.820897 0.969701 0.981923
0.907681 0.971604 0.981557
0.940227 0.974382 0.981387
0.958928 0.977467 0.981468
