ektachrome100d/Ektachrome100D_Modern_ExtraPunchy.cube
TITLE "Kodak Ektachrome 100D Modern ExtraPunchy"
# Adobe RGB in/out. REPLACES AgX. Kodak Ektachrome 100D Modern ExtraPunchy.
LUT_3D_SIZE 5
DOMAIN_MIN 0.0 0.0 0.0
DOMAIN_MAX 1.0 1.0 1.0
0.069243 0.072709 0.079439
0.278412 0.074479 0.079439
0.917808 0.280276 0.079259
0.977611 0.791524 0.078294
0.987658 0.955698 0.078836
0.069243 0.145710 0.079439
0.119945 0.092334 0.079439
0.844602 0.372647 0.079392
0.969079 0.837243 0.078561
0.986419 0.964702 0.078614
0.069628 0.909356 0.079439
0.173601 0.857208 0.079439
0.736924 0.815623 0.079411
0.953423 0.924413 0.078792
0.983445 0.978147 0.078319
0.072427 0.987287 0.079439
0.179753 0.986140 0.079439
0.757798 0.983185 0.079260
0.946305 0.984902 0.078755
0.979914 0.990118 0.078189
0.076920 0.996776 0.079368
0.173795 0.996756 0.079322
0.712823 0.996717 0.079107
0.939217 0.996746 0.078599
0.975797 0.996857 0.078254
0.069243 0.072709 0.173842
0.297349 0.075292 0.199607
0.910254 0.254642 0.131737
0.974873 0.764067 0.132645
0.987187 0.950533 0.161992
0.069243 0.090750 0.086329
0.079916 0.077891 0.078257
0.796739 0.306291 0.082763
0.965949 0.807618 0.097640
0.985942 0.959734 0.130735
0.069502 0.867812 0.088993
0.150346 0.792442 0.081948
0.671009 0.740768 0.079672
0.950228 0.914019 0.082345
0.983009 0.976616 0.095271
0.072101 0.986278 0.082957
0.169958 0.985019 0.082028
0.733906 0.981021 0.080977
0.942640 0.983193 0.081438
0.979141 0.989504 0.086607
0.076663 0.996755 0.080501
0.170636 0.996734 0.080498
0.706000 0.996696 0.080702
0.938026 0.996732 0.081628
0.975614 0.996853 0.085708
0.069243 0.072725 0.978894
0.297349 0.078255 0.979449
0.942919 0.434849 0.978707
0.976940 0.802161 0.946683
0.986975 0.950189 0.924526
0.069243 0.158318 0.974892
0.215119 0.198968 0.960234
0.864667 0.475637 0.936749
0.967023 0.830141 0.917563
0.985651 0.958131 0.904829
0.069344 0.756366 0.892614
0.118633 0.688578 0.838282
0.573152 0.609847 0.632211
0.945822 0.901609 0.785330
0.982496 0.974850 0.842256
0.071412 0.982291 0.870896
0.152403 0.980187 0.846485
0.687933 0.976753 0.771148
0.933083 0.979708 0.723940
0.977573 0.988403 0.767793
0.075992 0.996688 0.786466
0.163063 0.996670 0.775795
0.689488 0.996531 0.748743
0.935158 0.996700 0.730763
0.975178 0.996846 0.745841
0.069243 0.073569 0.995323
0.297349 0.085271 0.995333
0.947383 0.543463 0.995367
0.981875 0.878243 0.994187
0.987522 0.961039 0.992731
0.069243 0.233322 0.995326
0.311411 0.401032 0.995336
0.924165 0.713625 0.994805
0.973851 0.892794 0.993353
0.986160 0.967280 0.992107
0.069350 0.785701 0.992276
0.140633 0.785742 0.991708
0.741646 0.842729 0.987564
0.952502 0.929010 0.985634
0.982741 0.976858 0.984880
0.070929 0.977365 0.986860
0.138415 0.975917 0.983976
0.657153 0.973577 0.975506
0.921752 0.976142 0.967579
0.976677 0.988105 0.973411
0.075205 0.995982 0.978262
0.154919 0.995856 0.976988
0.671162 0.995824 0.973648
0.931895 0.996670 0.970860
0.974762 0.996844 0.970794
0.069243 0.079861 0.996101
0.297349 0.112920 0.996101
0.947383 0.625094 0.996101
0.983264 0.920799 0.996092
0.988248 0.970662 0.995647
0.069243 0.335693 0.996101
0.311411 0.514371 0.996101
0.945462 0.855330 0.996101
0.979687 0.932276 0.995908
0.986936 0.973154 0.995501
0.069472 0.893750 0.995807
0.178011 0.901041 0.995731
0.839292 0.924159 0.995531
0.959767 0.964380 0.995183
0.983498 0.980672 0.994792
0.070779 0.976672 0.994695
0.136690 0.976567 0.994499
0.680455 0.977789 0.993999
0.938407 0.983299 0.993622
0.978029 0.989631 0.993612
0.074374 0.995066 0.993702
0.148047 0.995075 0.993613
0.657077 0.995398 0.993586
0.929640 0.996661 0.993338
0.974582 0.996852 0.993312
