ektachrome100d/Ektachrome100D_Classic_RadianceIII.cube
TITLE "Kodak Ektachrome 100D Classic RadianceIII"
# Adobe RGB in/out. REPLACES AgX. Kodak Ektachrome 100D Classic RadianceIII.
LUT_3D_SIZE 9
DOMAIN_MIN 0.0 0.0 0.0
DOMAIN_MAX 1.0 1.0 1.0
0.116088 0.122908 0.121239
0.117109 0.122908 0.121239
0.187897 0.124230 0.121239
0.340798 0.157056 0.121239
0.503673 0.227329 0.121239
0.663182 0.304506 0.121239
0.802075 0.387533 0.129800
0.890891 0.481705 0.147927
0.937717 0.568271 0.175446
0.116088 0.122908 0.121239
0.117387 0.123098 0.121239
0.188617 0.131772 0.121239
0.341422 0.177564 0.121239
0.504127 0.243407 0.121239
0.663532 0.318894 0.121239
0.802273 0.400866 0.130056
0.890972 0.492917 0.148249
0.937753 0.576404 0.175834
0.116088 0.168195 0.121239
0.118324 0.175395 0.121239
0.191303 0.203026 0.121239
0.343661 0.243690 0.121239
0.505757 0.301023 0.121239
0.664789 0.366904 0.121239
0.802982 0.446743 0.130966
0.891261 0.528884 0.149399
0.937883 0.604865 0.177225
0.116088 0.285985 0.121239
0.120471 0.291302 0.121239
0.196330 0.310462 0.121239
0.347758 0.343456 0.121239
0.508745 0.390619 0.121239
0.667098 0.452476 0.122359
0.804284 0.520113 0.132605
0.891792 0.586782 0.151491
0.938120 0.654202 0.179836
0.116106 0.420364 0.121239
0.124969 0.425005 0.121239
0.204389 0.441336 0.121239
0.353849 0.470413 0.121239
0.513193 0.509316 0.121239
0.670539 0.555423 0.124141
0.806225 0.605520 0.134973
0.892584 0.660954 0.154562
0.938475 0.715012 0.184229
0.118101 0.563664 0.121239
0.133880 0.566665 0.121239
0.215346 0.577233 0.121239
0.362023 0.596274 0.121239
0.519160 0.623754 0.121239
0.675167 0.659131 0.126372
0.808837 0.697066 0.138509
0.893649 0.739291 0.159555
0.938952 0.778893 0.190094
0.124711 0.687415 0.121239
0.145279 0.689607 0.121239
0.229309 0.697414 0.121239
0.372270 0.711510 0.121239
0.526679 0.731320 0.122347
0.681017 0.755206 0.129846
0.812140 0.781295 0.144270
0.894998 0.808060 0.166424
0.939557 0.836038 0.197158
0.138691 0.790149 0.121239
0.159472 0.791456 0.121239
0.247858 0.795862 0.121239
0.384573 0.803831 0.121239
0.535369 0.815437 0.125960
0.688111 0.830567 0.134938
0.816147 0.848350 0.150979
0.896634 0.867836 0.174612
0.940291 0.882606 0.204401
0.154837 0.864147 0.121239
0.177853 0.865068 0.121239
0.268152 0.868357 0.121520
0.398933 0.872572 0.125104
0.545427 0.878313 0.131138
0.695317 0.885823 0.142313
0.820864 0.894994 0.159461
0.898561 0.905677 0.184853
0.941158 0.921808 0.210459
0.116088 0.122908 0.121239
0.117109 0.122908 0.121239
0.187897 0.124391 0.121239
0.340798 0.157561 0.122594
0.503673 0.227734 0.127601
0.663182 0.304857 0.137631
0.802075 0.387854 0.154218
0.890891 0.481979 0.178634
0.937717 0.568467 0.206983
0.116088 0.122908 0.121239
0.117387 0.123155 0.121239
0.188617 0.132003 0.121239
0.341422 0.178107 0.122778
0.504127 0.243776 0.127754
0.663532 0.319229 0.137889
0.802273 0.401182 0.154526
0.890972 0.493164 0.179019
0.937753 0.576597 0.207229
0.116088 0.168672 0.121239
0.118324 0.175942 0.121239
0.191303 0.203500 0.121239
0.343661 0.244059 0.123429
0.505757 0.301376 0.128666
0.664789 0.367211 0.139021
0.802982 0.447038 0.155625
0.891261 0.529111 0.180568
0.937883 0.605050 0.208111
0.116088 0.286358 0.121239
0.120471 0.291663 0.121239
0.196330 0.310808 0.121239
0.347758 0.343775 0.124587
0.508745 0.390940 0.130370
0.667098 0.452768 0.141284
0.804284 0.520349 0.158212
0.891792 0.586973 0.183504
0.938120 0.654375 0.209722
0.116106 0.420672 0.121239
0.124969 0.425312 0.121239
0.204389 0.441633 0.122806
0.353849 0.470700 0.126229
0.513193 0.509556 0.132829
0.670539 0.555641 0.144595
0.806225 0.605705 0.162247
0.892584 0.661106 0.187869
0.938475 0.715145 0.212145
0.118101 0.563880 0.122715
0.133880 0.566862 0.123264
0.215346 0.577426 0.125148
0.362023 0.596463 0.128673
0.519160 0.623934 0.136096
0.675167 0.659284 0.148941
0.808837 0.697209 0.167613
0.893649 0.739418 0.193537
0.938952 0.778992 0.215421
0.124711 0.687561 0.125669
0.145279 0.689752 0.126161
0.229309 0.697557 0.127897
0.372270 0.711650 0.132957
0.526679 0.731449 0.141262
0.681017 0.755310 0.154274
0.812140 0.781394 0.174305
0.894998 0.808138 0.200552
0.939557 0.836110 0.219505
0.138691 0.790246 0.129700
0.159472 0.791538 0.130470
0.247858 0.795942 0.133156
0.384573 0.803910 0.138165
0.535369 0.815514 0.148122
0.688111 0.830640 0.162186
0.816147 0.848414 0.182783
0.896634 0.867896 0.206453
0.940291 0.882643 0.224378
0.154837 0.864208 0.135772
0.177853 0.865129 0.136570
0.268152 0.868417 0.139773
0.398933 0.872611 0.146442
0.545427 0.878351 0.155835
0.695317 0.885859 0.172014
0.820864 0.895029 0.193441
0.898561 0.905710 0.212493
0.941158 0.921854 0.230007
0.116088 0.122908 0.208103
0.117109 0.122908 0.208840
0.187897 0.124952 0.211481
0.340798 0.159364 0.216366
0.503673 0.229184 0.223443
0.663182 0.306114 0.233592
0.802075 0.389006 0.248504
0.890891 0.482963 0.265302
0.937717 0.569171 0.283261
0.116088 0.122908 0.208347
0.117387 0.123349 0.209083
0.188617 0.133098 0.211729
0.341422 0.180049 0.216608
0.504127 0.245098 0.223676
0.663532 0.320433 0.233889
0.802273 0.402318 0.248789
0.890972 0.494048 0.265550
0.937753 0.577291 0.283497
0.116088 0.170376 0.209223
0.118324 0.177897 0.209955
0.191303 0.205199 0.212618
0.343661 0.245380 0.217473
0.505757 0.302643 0.224510
0.664789 0.368312 0.234952
0.802982 0.448096 0.249812
0.891261 0.529928 0.266439
0.937883 0.605717 0.284341
0.116088 0.287612 0.210823
0.120471 0.292958 0.211571
0.196330 0.312048 0.214241
0.347758 0.344918 0.219055
0.508745 0.392093 0.226034
0.667098 0.453819 0.236901
0.804284 0.521198 0.251688
0.891792 0.587659 0.268069
0.938120 0.654995 0.285889
0.116106 0.421779 0.213269
0.124969 0.426412 0.214009
0.204389 0.442698 0.216644
0.353849 0.471727 0.221397
0.513193 0.510419 0.228293
0.670539 0.556426 0.239797
0.806225 0.606371 0.254477
0.892584 0.661654 0.270492
0.938475 0.715624 0.288073
0.118101 0.564596 0.216525
0.133880 0.567568 0.217252
0.215346 0.578119 0.219842
0.362023 0.597138 0.224517
0.519160 0.624581 0.231789
0.675167 0.659833 0.243677
0.808837 0.697723 0.258216
0.893649 0.739878 0.273739
0.938952 0.779349 0.290958
0.124711 0.688083 0.220586
0.145279 0.690273 0.221298
0.229309 0.698070 0.223833
0.372270 0.712151 0.228413
0.526679 0.731915 0.236882
0.681017 0.755686 0.248555
0.812140 0.781749 0.262517
0.894998 0.808419 0.277826
0.939557 0.836370 0.294590
0.138691 0.790594 0.225432
0.159472 0.791831 0.226126
0.247858 0.796232 0.228599
0.384573 0.804193 0.234206
0.535369 0.815789 0.242938
0.688111 0.830904 0.254435
0.816147 0.848644 0.267668
0.896634 0.868114 0.282755
0.940291 0.882776 0.298971
0.154837 0.864427 0.231410
0.177853 0.865348 0.232344
0.268152 0.868634 0.235597
0.398933 0.872751 0.241436
0.545427 0.878487 0.250008
0.695317 0.885991 0.261049
0.820864 0.895155 0.273684
0.898561 0.905829 0.288379
0.941158 0.922019 0.304098
0.116088 0.122908 0.339773
0.117109 0.122908 0.340438
0.187897 0.125923 0.342818
0.340798 0.162638 0.347170
0.503673 0.231834 0.353626
0.663182 0.308417 0.362271
0.802075 0.391129 0.373077
0.890891 0.484770 0.386006
0.937717 0.570464 0.401117
0.116088 0.122908 0.339994
0.117387 0.124024 0.340658
0.188617 0.135193 0.343037
0.341422 0.183593 0.347387
0.504127 0.247516 0.353842
0.663532 0.322639 0.362484
0.802273 0.404404 0.373285
0.890972 0.495673 0.386210
0.937753 0.578567 0.401323
0.116088 0.173475 0.340785
0.118324 0.181463 0.341448
0.191303 0.208143 0.343824
0.343661 0.247796 0.348167
0.505757 0.304963 0.354618
0.664789 0.370332 0.363248
0.802982 0.450039 0.374034
0.891261 0.531428 0.386943
0.937883 0.606941 0.402061
0.116088 0.289905 0.342237
0.120471 0.295329 0.342898
0.196330 0.314322 0.345268
0.347758 0.347016 0.349599
0.508745 0.394208 0.356042
0.667098 0.455748 0.364650
0.804284 0.522757 0.375410
0.891792 0.588920 0.388288
0.938120 0.656136 0.403418
0.116106 0.423811 0.344402
0.124969 0.428432 0.345060
0.204389 0.444654 0.347420
0.353849 0.473615 0.351733
0.513193 0.512004 0.358167
0.670539 0.557867 0.366742
0.806225 0.607594 0.377463
0.892584 0.662660 0.390300
0.938475 0.716505 0.405442
0.118101 0.565900 0.347313
0.133880 0.568865 0.347968
0.215346 0.579393 0.350314
0.362023 0.598380 0.354624
0.519160 0.625769 0.361024
0.675167 0.660843 0.369555
0.808837 0.698667 0.380224
0.893649 0.740721 0.393014
0.938952 0.780005 0.408168
0.124711 0.689043 0.350992
0.145279 0.691229 0.351642
0.229309 0.699014 0.353988
0.372270 0.713072 0.358279
0.526679 0.732770 0.364637
0.681017 0.756377 0.373114
0.812140 0.782402 0.383717
0.894998 0.808934 0.396447
0.939557 0.836849 0.411619
0.138691 0.791138 0.355478
0.159472 0.792371 0.356128
0.247858 0.796765 0.358455
0.384573 0.804715 0.362712
0.535369 0.816294 0.369019
0.688111 0.831390 0.377432
0.816147 0.849066 0.387957
0.896634 0.868513 0.400675
0.940291 0.883021 0.415812
0.154837 0.864831 0.360763
0.177853 0.865750 0.361406
0.268152 0.869033 0.363712
0.398933 0.873009 0.367928
0.545427 0.878737 0.374178
0.695317 0.886232 0.382516
0.820864 0.895386 0.392967
0.898561 0.906049 0.405730
0.941158 0.922323 0.420756
0.116088 0.122908 0.500153
0.117109 0.122908 0.500672
0.187897 0.127612 0.502533
0.340798 0.167434 0.505945
0.503673 0.235671 0.511021
0.663182 0.311841 0.517828
0.802075 0.394295 0.526399
0.890891 0.487465 0.535735
0.937717 0.572393 0.546089
0.116088 0.123423 0.500325
0.117387 0.125554 0.500844
0.188617 0.139624 0.502704
0.341422 0.188824 0.506116
0.504127 0.251723 0.511191
0.663532 0.325920 0.517996
0.802273 0.407513 0.526565
0.890972 0.498095 0.535875
0.937753 0.580469 0.546227
0.116088 0.178658 0.500943
0.118324 0.186728 0.501461
0.191303 0.212303 0.503320
0.343661 0.252064 0.506729
0.505757 0.308413 0.511800
0.664789 0.373376 0.518599
0.802982 0.452937 0.527162
0.891261 0.533665 0.536380
0.937883 0.608768 0.546723
0.116088 0.293463 0.502078
0.120471 0.298853 0.502595
0.196330 0.317696 0.504452
0.347758 0.350137 0.507856
0.508745 0.397360 0.512919
0.667098 0.458625 0.519709
0.804284 0.525083 0.528260
0.891792 0.590801 0.537307
0.938120 0.657839 0.547634
0.116106 0.426842 0.503773
0.124969 0.431439 0.504289
0.204389 0.447572 0.506142
0.353849 0.476431 0.509538
0.513193 0.514367 0.514590
0.670539 0.560018 0.521365
0.806225 0.609419 0.529866
0.892584 0.664162 0.538691
0.938475 0.717819 0.548993
0.118101 0.567844 0.506057
0.133880 0.570799 0.506572
0.215346 0.581292 0.508419
0.362023 0.600232 0.511805
0.519160 0.627543 0.516843
0.675167 0.662349 0.523598
0.808837 0.700077 0.531760
0.893649 0.741981 0.540556
0.938952 0.780984 0.550825
0.124711 0.690476 0.508953
0.145279 0.692657 0.509466
0.229309 0.700422 0.511306
0.372270 0.714447 0.514679
0.526679 0.734047 0.519698
0.681017 0.757409 0.526429
0.812140 0.783376 0.534160
0.894998 0.809704 0.542919
0.939557 0.837563 0.553147
0.138691 0.791946 0.512476
0.159472 0.793176 0.512986
0.247858 0.797561 0.514818
0.384573 0.805493 0.518176
0.535369 0.817048 0.523172
0.688111 0.832115 0.529842
0.816147 0.849697 0.537079
0.896634 0.869109 0.545793
0.940291 0.883387 0.555971
0.154837 0.865433 0.516637
0.177853 0.866351 0.517145
0.268152 0.869479 0.518966
0.398933 0.873393 0.522306
0.545427 0.879111 0.527276
0.695317 0.886593 0.533334
0.820864 0.895731 0.540524
0.898561 0.906377 0.549187
0.941158 0.922777 0.559306
0.116088 0.122908 0.649395
0.117109 0.122908 0.649753
0.187897 0.130383 0.651037
0.340798 0.173739 0.653393
0.503673 0.240697 0.656902
0.663182 0.316428 0.661617
0.802075 0.398551 0.667569
0.890891 0.491092 0.674312
0.937717 0.574990 0.680963
0.116088 0.125300 0.649514
0.117387 0.127809 0.649872
0.188617 0.145313 0.651155
0.341422 0.195441 0.653510
0.504127 0.257624 0.657019
0.663532 0.330318 0.661733
0.802273 0.411693 0.667685
0.890972 0.501355 0.674402
0.937753 0.583030 0.681052
0.116088 0.185812 0.649940
0.118324 0.193499 0.650297
0.191303 0.217950 0.651580
0.343661 0.257961 0.653934
0.505757 0.313034 0.657441
0.664789 0.377743 0.662152
0.802982 0.456837 0.668100
0.891261 0.536675 0.674726
0.937883 0.611229 0.681371
0.116088 0.298238 0.650723
0.120471 0.303571 0.651080
0.196330 0.322171 0.652361
0.347758 0.354343 0.654713
0.508745 0.401598 0.658215
0.667098 0.462498 0.662922
0.804284 0.528214 0.668863
0.891792 0.593334 0.675320
0.938120 0.659973 0.681957
0.116106 0.430918 0.651892
0.124969 0.435446 0.652249
0.204389 0.451497 0.653528
0.353849 0.480156 0.655876
0.513193 0.517547 0.659373
0.670539 0.562914 0.664071
0.806225 0.611877 0.670003
0.892584 0.666184 0.676208
0.938475 0.719591 0.682833
0.118101 0.570461 0.653470
0.133880 0.573402 0.653826
0.215346 0.583855 0.655102
0.362023 0.602727 0.657444
0.519160 0.629933 0.660934
0.675167 0.664378 0.665622
0.808837 0.701976 0.671542
0.893649 0.743679 0.677406
0.938952 0.782304 0.684013
0.124711 0.692407 0.655471
0.145279 0.694580 0.655826
0.229309 0.702320 0.657099
0.372270 0.716240 0.659434
0.526679 0.735769 0.662914
0.681017 0.758800 0.667590
0.812140 0.784689 0.673303
0.894998 0.810742 0.678924
0.939557 0.838527 0.685511
0.138691 0.793035 0.657908
0.159472 0.794262 0.658262
0.247858 0.798634 0.659530
0.384573 0.806543 0.661858
0.535369 0.818066 0.665326
0.688111 0.833092 0.669986
0.816147 0.850547 0.675174
0.896634 0.869666 0.680772
0.940291 0.883881 0.687334
0.154837 0.866246 0.660791
0.177853 0.867162 0.661143
0.268152 0.870007 0.662406
0.398933 0.873912 0.664725
0.545427 0.879616 0.668179
0.695317 0.887079 0.672774
0.820864 0.896196 0.677385
0.898561 0.906819 0.682957
0.941158 0.923390 0.689489
0.116088 0.122908 0.768702
0.117109 0.123773 0.768916
0.187897 0.134610 0.769687
0.340798 0.182786 0.771102
0.503673 0.246965 0.773211
0.663182 0.322136 0.776047
0.802075 0.403928 0.779631
0.890891 0.495302 0.783975
0.937717 0.578275 0.789084
0.116088 0.128220 0.768773
0.117387 0.131254 0.768988
0.188617 0.153711 0.769758
0.341422 0.203599 0.771173
0.504127 0.264435 0.773281
0.663532 0.335853 0.776117
0.802273 0.416976 0.779700
0.890972 0.505477 0.784044
0.937753 0.586291 0.789153
0.116088 0.194429 0.769029
0.118324 0.201708 0.769243
0.191303 0.224975 0.770013
0.343661 0.264737 0.771427
0.505757 0.318824 0.773535
0.664789 0.383256 0.776369
0.802982 0.461769 0.779950
0.891261 0.540485 0.784292
0.937883 0.614344 0.789398
0.116088 0.304239 0.769499
0.120471 0.309502 0.769713
0.196330 0.327802 0.770482
0.347758 0.359658 0.771895
0.508745 0.406953 0.774001
0.667098 0.467396 0.776832
0.804284 0.532084 0.780410
0.891792 0.596540 0.784748
0.938120 0.662564 0.789845
0.116106 0.436015 0.770201
0.124969 0.440513 0.770415
0.204389 0.456462 0.771183
0.353849 0.484809 0.772594
0.513193 0.521570 0.774697
0.670539 0.566356 0.777524
0.806225 0.614990 0.781098
0.892584 0.668746 0.785429
0.938475 0.721836 0.790432
0.118101 0.573772 0.771148
0.133880 0.576697 0.771362
0.215346 0.587111 0.772129
0.362023 0.605885 0.773537
0.519160 0.632959 0.775636
0.675167 0.666949 0.778458
0.808837 0.704382 0.782025
0.893649 0.745831 0.786349
0.938952 0.783977 0.791128
0.124711 0.694853 0.772351
0.145279 0.697017 0.772564
0.229309 0.704726 0.773329
0.372270 0.718498 0.774734
0.526679 0.737951 0.776827
0.681017 0.760562 0.779643
0.812140 0.786353 0.783202
0.894998 0.812057 0.787516
0.939557 0.839749 0.791977
0.138691 0.794416 0.773816
0.159472 0.795638 0.774029
0.247858 0.799993 0.774791
0.384573 0.807873 0.776192
0.535369 0.819356 0.778280
0.688111 0.834331 0.781087
0.816147 0.851626 0.784636
0.896634 0.870338 0.788938
0.940291 0.884508 0.793011
0.154837 0.867277 0.775550
0.177853 0.868190 0.775762
0.268152 0.870678 0.776522
0.398933 0.874569 0.777918
0.545427 0.880255 0.779998
0.695317 0.887695 0.782796
0.820864 0.896786 0.786333
0.898561 0.907380 0.790515
0.941158 0.924167 0.794235
0.116088 0.124691 0.854159
0.117109 0.126921 0.854284
0.187897 0.143644 0.854732
0.340798 0.193490 0.855556
0.503673 0.255865 0.856785
0.663182 0.329006 0.858439
0.802075 0.410444 0.860531
0.890891 0.500381 0.863070
0.937717 0.582265 0.866060
0.116088 0.132585 0.854200
0.117387 0.138257 0.854325
0.188617 0.164107 0.854774
0.341422 0.212679 0.855598
0.504127 0.272517 0.856826
0.663532 0.342532 0.858480
0.802273 0.423382 0.860571
0.890972 0.510478 0.863110
0.937753 0.590251 0.866100
0.116088 0.204399 0.854349
0.118324 0.210977 0.854474
0.191303 0.233336 0.854922
0.343661 0.272813 0.855746
0.505757 0.325743 0.856974
0.664789 0.389936 0.858627
0.802982 0.467755 0.860717
0.891261 0.545110 0.863255
0.937883 0.618130 0.866244
0.116088 0.311464 0.854623
0.120471 0.316646 0.854747
0.196330 0.334591 0.855195
0.347758 0.366080 0.856018
0.508745 0.413443 0.857245
0.667098 0.473341 0.858897
0.804284 0.536768 0.860986
0.891792 0.600435 0.863522
0.938120 0.665713 0.866508
0.116106 0.442196 0.855032
0.124969 0.446658 0.855156
0.204389 0.462487 0.855604
0.353849 0.490457 0.856426
0.513193 0.526453 0.857651
0.670539 0.570428 0.859301
0.806225 0.618771 0.861388
0.892584 0.671860 0.863920
0.938475 0.724567 0.866904
0.118101 0.577792 0.855583
0.133880 0.580697 0.855708
0.215346 0.591066 0.856155
0.362023 0.609721 0.856975
0.519160 0.636637 0.858199
0.675167 0.670073 0.859846
0.808837 0.707309 0.861930
0.893649 0.748076 0.864458
0.938952 0.786013 0.867437
0.124711 0.697828 0.856284
0.145279 0.699981 0.856408
0.229309 0.707651 0.856854
0.372270 0.721245 0.857673
0.526679 0.740605 0.858894
0.681017 0.762705 0.860538
0.812140 0.788379 0.862617
0.894998 0.813658 0.865141
0.939557 0.841236 0.868114
0.138691 0.796096 0.857138
0.159472 0.797312 0.857262
0.247858 0.801647 0.857707
0.384573 0.809492 0.858523
0.535369 0.820925 0.859742
0.688111 0.835840 0.861382
0.816147 0.852940 0.863456
0.896634 0.871155 0.865974
0.940291 0.885270 0.868940
0.154837 0.868532 0.858149
0.177853 0.869356 0.858272
0.268152 0.871494 0.858716
0.398933 0.875370 0.859530
0.545427 0.881034 0.860745
0.695317 0.888446 0.862380
0.820864 0.897505 0.864449
0.898561 0.908063 0.866960
0.941158 0.925115 0.869669
0.116088 0.128991 0.915880
0.117109 0.131967 0.915979
0.187897 0.155583 0.916334
0.340798 0.205326 0.916986
0.503673 0.265869 0.917960
0.663182 0.337036 0.919272
0.802075 0.418108 0.920933
0.890891 0.506360 0.922953
0.937717 0.586990 0.925337
0.116088 0.142413 0.915913
0.117387 0.149119 0.916012
0.188617 0.175985 0.916367
0.341422 0.222996 0.917019
0.504127 0.281917 0.917993
0.663532 0.350345 0.919304
0.802273 0.430917 0.920966
0.890972 0.516366 0.922986
0.937753 0.594919 0.925369
0.116088 0.215045 0.916031
0.118324 0.221355 0.916129
0.191303 0.242618 0.916484
0.343661 0.282207 0.917136
0.505757 0.333827 0.918110
0.664789 0.397815 0.919421
0.802982 0.474805 0.921082
0.891261 0.550559 0.923101
0.937883 0.622595 0.925484
0.116088 0.319863 0.916247
0.120471 0.324892 0.916346
0.196330 0.342530 0.916701
0.347758 0.373662 0.917352
0.508745 0.421076 0.918325
0.667098 0.480276 0.919636
0.804284 0.542285 0.921296
0.891792 0.605027 0.923313
0.938120 0.669428 0.925695
0.116106 0.449471 0.916571
0.124969 0.453893 0.916670
0.204389 0.469582 0.917024
0.353849 0.496605 0.917675
0.513193 0.532114 0.918647
0.670539 0.575225 0.919956
0.806225 0.623232 0.921615
0.892584 0.675534 0.923631
0.938475 0.727791 0.926010
0.118101 0.582529 0.917008
0.133880 0.585425 0.917106
0.215346 0.595728 0.917460
0.362023 0.614246 0.918111
0.519160 0.640977 0.919082
0.675167 0.673759 0.920389
0.808837 0.710765 0.922046
0.893649 0.750691 0.924060
0.938952 0.788419 0.926436
0.124711 0.701340 0.917563
0.145279 0.703480 0.917661
0.229309 0.711105 0.918015
0.372270 0.724489 0.918664
0.526679 0.743741 0.919633
0.681017 0.765237 0.920939
0.812140 0.790748 0.922593
0.894998 0.815550 0.924604
0.939557 0.842887 0.926977
0.138691 0.798080 0.918240
0.159472 0.799289 0.918338
0.247858 0.803601 0.918691
0.384573 0.811405 0.919339
0.535369 0.822780 0.920307
0.688111 0.837624 0.921610
0.816147 0.854492 0.923261
0.896634 0.872122 0.925268
0.940291 0.886172 0.927637
0.154837 0.869734 0.919042
0.177853 0.870331 0.919140
0.268152 0.872459 0.919492
0.398933 0.876316 0.920139
0.545427 0.881954 0.921104
0.695317 0.889334 0.922405
0.820864 0.898355 0.924052
0.898561 0.908913 0.926055
0.941158 0.926236 0.928310
