ektachrome100d/Ektachrome100D_Modern_Punchy.cube
TITLE "Kodak Ektachrome 100D Modern Punchy"
# Adobe RGB in/out. REPLACES AgX. Kodak Ektachrome 100D Modern Punchy.
LUT_3D_SIZE 33
DOMAIN_MIN 0.0 0.0 0.0
DOMAIN_MAX 1.0 1.0 1.0
0.091497 0.087999 0.082099
0.091497 0.087999 0.082099
0.091497 0.087999 0.082099
0.093680 0.087999 0.082099
0.103892 0.087999 0.082099
0.129988 0.088057 0.082099
0.186082 0.088378 0.082099
0.249178 0.089445 0.082099
0.323114 0.090794 0.082099
0.419973 0.094024 0.082099
0.528994 0.099404 0.082099
0.621569 0.108120 0.082099
0.718760 0.126793 0.082099
0.782091 0.158163 0.082099
0.840764 0.195287 0.082129
0.874646 0.245492 0.082165
0.902218 0.300573 0.082210
0.921618 0.357119 0.082264
0.935534 0.429558 0.082319
0.943206 0.497054 0.082411
0.950428 0.555367 0.082540
0.957251 0.610135 0.082681
0.962110 0.651133 0.082837
0.966427 0.699054 0.082989
0.970527 0.749268 0.083344
0.973894 0.797896 0.083828
0.976265 0.820011 0.084096
0.977937 0.841418 0.084701
0.979530 0.860667 0.085280
0.981048 0.876571 0.085834
0.982497 0.886119 0.086366
0.983880 0.899550 0.086914
0.984872 0.912557 0.087913
0.091497 0.087999 0.082099
0.091497 0.087999 0.082099
0.091497 0.087999 0.082099
0.092491 0.087999 0.082099
0.101451 0.087999 0.082099
0.125246 0.088061 0.082099
0.178211 0.088384 0.082099
0.242954 0.089465 0.082099
0.315932 0.090814 0.082099
0.410222 0.094093 0.082099
0.520361 0.099526 0.082099
0.616352 0.108340 0.082099
0.713668 0.127274 0.082099
0.779977 0.158682 0.082099
0.838635 0.195820 0.082127
0.873379 0.246068 0.082164
0.901409 0.301261 0.082209
0.920997 0.358064 0.082263
0.935257 0.430442 0.082317
0.942959 0.497771 0.082407
0.950206 0.556031 0.082536
0.957053 0.610607 0.082677
0.961984 0.651599 0.082833
0.966314 0.699611 0.082984
0.970425 0.749825 0.083333
0.973815 0.798186 0.083818
0.976225 0.820245 0.084085
0.977901 0.841644 0.084690
0.979496 0.860862 0.085269
0.981017 0.876701 0.085825
0.982469 0.886262 0.086357
0.983854 0.899689 0.086899
0.984859 0.912691 0.087897
0.091497 0.087999 0.082099
0.091497 0.087999 0.082099
0.091497 0.087999 0.082099
0.091529 0.087999 0.082099
0.096418 0.087999 0.082099
0.115127 0.088075 0.082099
0.153667 0.088403 0.082099
0.223853 0.089542 0.082099
0.293232 0.090888 0.082099
0.378956 0.094342 0.082099
0.505689 0.099966 0.082099
0.598693 0.109135 0.082099
0.696261 0.129012 0.082099
0.772641 0.160557 0.082099
0.831215 0.197740 0.082122
0.868937 0.248145 0.082159
0.898562 0.303738 0.082202
0.918775 0.361471 0.082257
0.934091 0.433625 0.082310
0.942082 0.500349 0.082394
0.949421 0.558419 0.082524
0.956348 0.612302 0.082663
0.961538 0.653275 0.082820
0.965911 0.701611 0.082968
0.970060 0.751826 0.083295
0.973534 0.799168 0.083784
0.976082 0.821083 0.084080
0.977770 0.842454 0.084650
0.979377 0.861559 0.085233
0.980908 0.876926 0.085791
0.982368 0.886776 0.086326
0.983761 0.900185 0.086859
0.984815 0.913170 0.087837
0.091497 0.087999 0.082099
0.091497 0.087999 0.082099
0.091497 0.087999 0.082099
0.091519 0.087999 0.082099
0.093449 0.087999 0.082099
0.104401 0.088103 0.082099
0.131948 0.088492 0.082099
0.191330 0.089716 0.082099
0.261367 0.091095 0.082099
0.344866 0.094826 0.082099
0.460857 0.100799 0.082099
0.569909 0.110625 0.082099
0.667504 0.132253 0.082099
0.760124 0.164056 0.082099
0.818427 0.201307 0.082113
0.861184 0.251991 0.082152
0.891648 0.308322 0.082190
0.914288 0.367786 0.082247
0.931368 0.439508 0.082299
0.940515 0.505100 0.082370
0.948013 0.562824 0.082503
0.955083 0.615422 0.082637
0.960735 0.656359 0.082797
0.965185 0.705296 0.082948
0.969401 0.755512 0.083226
0.973026 0.800764 0.083721
0.975823 0.822624 0.084071
0.977534 0.843944 0.084579
0.979160 0.862842 0.085167
0.980709 0.877276 0.085731
0.982185 0.887721 0.086270
0.983593 0.901097 0.086788
0.984735 0.914052 0.087729
0.091497 0.088236 0.082099
0.091497 0.088221 0.082099
0.091497 0.088172 0.082099
0.091645 0.088134 0.082099
0.093922 0.088125 0.082099
0.100665 0.088231 0.082099
0.120892 0.088879 0.082099
0.165192 0.090064 0.082099
0.233850 0.091737 0.082099
0.308970 0.095758 0.082099
0.407897 0.102126 0.082099
0.526257 0.113016 0.082099
0.625484 0.136431 0.082099
0.728560 0.169456 0.082099
0.799658 0.207583 0.082101
0.850240 0.257830 0.082141
0.881959 0.315265 0.082177
0.907976 0.377369 0.082232
0.926891 0.448389 0.082286
0.938275 0.512235 0.082348
0.945994 0.569447 0.082473
0.953260 0.620098 0.082601
0.959574 0.660981 0.082764
0.964132 0.710823 0.082918
0.968444 0.761040 0.083144
0.972287 0.803150 0.083631
0.975445 0.824927 0.084060
0.977188 0.846171 0.084474
0.978843 0.864760 0.085071
0.980417 0.877798 0.085642
0.981916 0.889133 0.086189
0.983345 0.902460 0.086712
0.984617 0.915370 0.087571
0.091497 0.090578 0.082099
0.091497 0.090516 0.082099
0.091499 0.090300 0.082099
0.092594 0.089919 0.082099
0.096511 0.089442 0.082099
0.102546 0.089291 0.082099
0.116008 0.089580 0.082099
0.148010 0.090655 0.082099
0.212792 0.093041 0.082099
0.277151 0.097134 0.082099
0.361293 0.104093 0.082099
0.478222 0.117400 0.082099
0.587861 0.143209 0.082099
0.688413 0.177150 0.082099
0.770832 0.218213 0.082099
0.831185 0.266133 0.082128
0.870115 0.324861 0.082166
0.900144 0.390636 0.082214
0.920694 0.460585 0.082270
0.935435 0.521960 0.082328
0.943423 0.578481 0.082435
0.950926 0.626446 0.082567
0.957993 0.667840 0.082722
0.962771 0.718327 0.082879
0.967201 0.768543 0.083063
0.971324 0.806373 0.083514
0.974686 0.828038 0.084002
0.976735 0.848991 0.084339
0.978427 0.867348 0.084946
0.980034 0.878502 0.085527
0.981562 0.891039 0.086082
0.983017 0.904300 0.086613
0.984404 0.917149 0.087369
0.091497 0.098396 0.082099
0.091497 0.098652 0.082099
0.091530 0.097196 0.082099
0.093795 0.095224 0.082099
0.099285 0.093169 0.082099
0.106834 0.092001 0.082099
0.120208 0.091736 0.082099
0.140692 0.092207 0.082099
0.190935 0.095320 0.082099
0.252630 0.100399 0.082099
0.329638 0.108324 0.082099
0.435574 0.124565 0.082099
0.550664 0.153388 0.082099
0.647004 0.188267 0.082099
0.746109 0.232732 0.082099
0.810392 0.279189 0.082115
0.856848 0.337501 0.082154
0.888392 0.406511 0.082194
0.912676 0.476236 0.082252
0.930735 0.534342 0.082306
0.940391 0.590151 0.082391
0.948155 0.634588 0.082526
0.955457 0.678357 0.082671
0.961136 0.727950 0.082834
0.965702 0.778153 0.082994
0.970014 0.810473 0.083373
0.973613 0.831996 0.083873
0.976182 0.852400 0.084175
0.977917 0.870639 0.084795
0.979563 0.879863 0.085386
0.981127 0.893460 0.085951
0.982614 0.906638 0.086491
0.984030 0.919409 0.087160
0.091497 0.119289 0.082099
0.091497 0.119889 0.082099
0.091603 0.118482 0.082099
0.094711 0.110207 0.082099
0.101492 0.104126 0.082099
0.112317 0.101124 0.082099
0.125937 0.099367 0.082099
0.148859 0.099032 0.082099
0.183038 0.099981 0.082099
0.238733 0.104877 0.082099
0.305487 0.116091 0.082099
0.391210 0.137563 0.082099
0.509722 0.167349 0.082099
0.605723 0.201633 0.082099
0.705605 0.249576 0.082099
0.778194 0.302560 0.082101
0.838971 0.356310 0.082141
0.875127 0.425800 0.082177
0.903674 0.491796 0.082232
0.923762 0.548782 0.082287
0.937015 0.604467 0.082350
0.945045 0.644669 0.082482
0.952588 0.690439 0.082616
0.959274 0.739847 0.082782
0.963985 0.790019 0.082939
0.968429 0.815493 0.083213
0.972373 0.836838 0.083725
0.975540 0.856566 0.084074
0.977324 0.873755 0.084620
0.979014 0.882928 0.085223
0.980617 0.896415 0.085800
0.982141 0.909491 0.086350
0.983590 0.922134 0.086917
0.091497 0.179324 0.082099
0.091497 0.180313 0.082099
0.091957 0.174661 0.082099
0.095779 0.158292 0.082099
0.103510 0.141183 0.082099
0.117084 0.127918 0.082099
0.132547 0.119530 0.082099
0.157713 0.115841 0.082099
0.194269 0.115417 0.082099
0.234032 0.117910 0.082099
0.288121 0.132210 0.082099
0.362650 0.156188 0.082099
0.470704 0.186204 0.082099
0.574164 0.224876 0.082099
0.668780 0.267600 0.082099
0.760133 0.322719 0.082099
0.818530 0.383127 0.082128
0.861668 0.450028 0.082165
0.892806 0.511104 0.082212
0.915716 0.566543 0.082268
0.932774 0.616920 0.082327
0.941703 0.656864 0.082434
0.949481 0.704880 0.082568
0.956802 0.754207 0.082727
0.962097 0.799865 0.082888
0.966677 0.821477 0.083088
0.970994 0.842605 0.083562
0.974458 0.861522 0.084053
0.976658 0.876878 0.084426
0.978395 0.886566 0.085043
0.980042 0.899922 0.085631
0.981605 0.912876 0.086192
0.983091 0.924903 0.086729
0.091497 0.270936 0.082099
0.091507 0.268609 0.082099
0.092302 0.256813 0.082099
0.096684 0.237697 0.082099
0.105217 0.210441 0.082099
0.120276 0.190763 0.082099
0.141106 0.175062 0.082099
0.170511 0.164772 0.082099
0.209467 0.159706 0.082099
0.243170 0.159593 0.082099
0.284783 0.163944 0.082099
0.344643 0.180970 0.082099
0.443515 0.211583 0.082099
0.546060 0.253049 0.082099
0.631713 0.301566 0.082099
0.728514 0.349020 0.082099
0.797402 0.414285 0.082117
0.847444 0.479227 0.082154
0.880066 0.534540 0.082194
0.906882 0.588096 0.082250
0.926338 0.631803 0.082304
0.938245 0.673241 0.082387
0.946232 0.722074 0.082524
0.953755 0.771250 0.082670
0.960090 0.807150 0.082834
0.964801 0.828472 0.082998
0.969249 0.849134 0.083391
0.973072 0.867299 0.083898
0.975934 0.878446 0.084220
0.977719 0.890797 0.084848
0.979411 0.903999 0.085448
0.981016 0.916810 0.086021
0.982539 0.927598 0.086568
0.091505 0.386027 0.082099
0.091531 0.380696 0.082099
0.092671 0.362994 0.082099
0.097603 0.337565 0.082099
0.106862 0.312366 0.082099
0.122852 0.280015 0.082099
0.146503 0.257876 0.082099
0.179544 0.242764 0.082099
0.219494 0.229042 0.082099
0.252097 0.222767 0.082099
0.295534 0.223414 0.082099
0.343808 0.230384 0.082099
0.416775 0.249891 0.082099
0.514461 0.287702 0.082099
0.605283 0.333410 0.082099
0.697449 0.390525 0.082099
0.771628 0.451154 0.082107
0.829465 0.508127 0.082144
0.867957 0.560694 0.082179
0.898258 0.610931 0.082234
0.919144 0.649379 0.082287
0.934776 0.694348 0.082349
0.942939 0.742302 0.082480
0.950637 0.791232 0.082613
0.957906 0.815558 0.082780
0.962849 0.836533 0.082938
0.967414 0.856036 0.083215
0.971610 0.873252 0.083732
0.975071 0.882235 0.084076
0.977000 0.895640 0.084645
0.978736 0.908662 0.085256
0.980382 0.921308 0.085840
0.981946 0.929701 0.086397
0.091532 0.507175 0.082099
0.091630 0.503479 0.082099
0.093324 0.490924 0.082099
0.098638 0.469019 0.082099
0.108433 0.436530 0.082099
0.124934 0.402793 0.082099
0.150788 0.368051 0.082099
0.187026 0.340112 0.082099
0.227050 0.323218 0.082099
0.262074 0.312508 0.082099
0.305995 0.307962 0.082099
0.354043 0.309262 0.082099
0.419316 0.315957 0.082099
0.497445 0.332274 0.082099
0.584567 0.381421 0.082099
0.671655 0.436614 0.082099
0.757548 0.491997 0.082100
0.813379 0.542103 0.082136
0.856809 0.591978 0.082171
0.887043 0.632251 0.082219
0.911204 0.671324 0.082272
0.929595 0.718365 0.082330
0.939689 0.765876 0.082438
0.947527 0.804234 0.082570
0.954940 0.825153 0.082728
0.960867 0.845714 0.082888
0.965535 0.863876 0.083089
0.969953 0.877446 0.083565
0.973649 0.887936 0.084054
0.976250 0.901116 0.084438
0.978029 0.913931 0.085060
0.979717 0.925704 0.085653
0.981319 0.932067 0.086220
0.091688 0.608762 0.082099
0.092101 0.606489 0.082099
0.093954 0.596455 0.082099
0.099631 0.577818 0.082099
0.110272 0.553857 0.082099
0.127232 0.526998 0.082099
0.154172 0.498506 0.082099
0.193050 0.472274 0.082099
0.233302 0.445485 0.082099
0.270889 0.426013 0.082099
0.315616 0.414183 0.082099
0.364013 0.409874 0.082099
0.433296 0.412729 0.082099
0.506889 0.422291 0.082099
0.568022 0.439055 0.082099
0.650763 0.488558 0.082099
0.735411 0.534341 0.082099
0.797571 0.580008 0.082130
0.844748 0.621362 0.082164
0.876797 0.656980 0.082206
0.903778 0.700640 0.082259
0.923224 0.746216 0.082312
0.936557 0.793115 0.082400
0.944497 0.815622 0.082532
0.952021 0.835992 0.082678
0.958896 0.855129 0.082840
0.963654 0.872399 0.083004
0.968160 0.881061 0.083402
0.972205 0.894322 0.083908
0.975483 0.907242 0.084233
0.977304 0.919822 0.084863
0.979030 0.928964 0.085465
0.980669 0.934702 0.086041
0.092183 0.687353 0.082099
0.092534 0.684860 0.082099
0.094716 0.675865 0.082099
0.100595 0.661126 0.082099
0.111964 0.644855 0.082099
0.129161 0.626161 0.082099
0.156861 0.606778 0.082099
0.197891 0.581790 0.082099
0.238379 0.558933 0.082099
0.278419 0.540638 0.082099
0.324265 0.527158 0.082099
0.373422 0.518916 0.082099
0.447276 0.516709 0.082099
0.511923 0.520300 0.082099
0.575185 0.529328 0.082099
0.631535 0.542380 0.082099
0.715174 0.579971 0.082099
0.776643 0.618172 0.082126
0.831809 0.651023 0.082159
0.867654 0.690578 0.082196
0.896456 0.733573 0.082249
0.917058 0.778229 0.082298
0.933054 0.808477 0.082366
0.941605 0.828388 0.082499
0.949205 0.848054 0.082632
0.956426 0.865429 0.082795
0.961804 0.877748 0.082949
0.966384 0.888475 0.083246
0.970732 0.901412 0.083756
0.974261 0.914038 0.084079
0.976570 0.925674 0.084670
0.978333 0.931998 0.085280
0.980007 0.937609 0.085863
0.092670 0.778171 0.082099
0.093287 0.775851 0.082099
0.095775 0.767773 0.082099
0.101547 0.753881 0.082099
0.113586 0.735198 0.082099
0.130867 0.713358 0.082099
0.162666 0.690214 0.082099
0.203427 0.666377 0.082099
0.242488 0.648770 0.082099
0.284704 0.633905 0.082099
0.331772 0.622223 0.082099
0.384310 0.614145 0.082099
0.458580 0.609866 0.082099
0.519338 0.609390 0.082099
0.582869 0.612578 0.082099
0.641475 0.619191 0.082099
0.704368 0.628936 0.082099
0.767829 0.653301 0.082124
0.820762 0.689663 0.082156
0.859654 0.729388 0.082189
0.888059 0.771139 0.082240
0.910860 0.804344 0.082289
0.928567 0.823456 0.082348
0.938896 0.842565 0.082470
0.946537 0.860047 0.082595
0.953815 0.875250 0.082754
0.960015 0.883812 0.082909
0.964653 0.896647 0.083127
0.969062 0.909221 0.083614
0.972902 0.921519 0.084059
0.975841 0.929675 0.084485
0.977636 0.935322 0.085100
0.979341 0.940793 0.085690
0.093513 0.828321 0.082099
0.094052 0.827428 0.082099
0.096801 0.824295 0.082099
0.102646 0.818822 0.082099
0.115176 0.811281 0.082099
0.132428 0.802182 0.082099
0.165208 0.786646 0.082099
0.208339 0.763463 0.082099
0.245736 0.741560 0.082099
0.289772 0.722100 0.082099
0.338030 0.705949 0.082099
0.394513 0.693689 0.082099
0.466328 0.685654 0.082099
0.530647 0.681973 0.082099
0.590177 0.682609 0.082099
0.651229 0.687405 0.082099
0.711020 0.696116 0.082105
0.764330 0.708454 0.082127
0.811459 0.734928 0.082154
0.852762 0.773165 0.082185
0.880700 0.803847 0.082235
0.905326 0.821786 0.082283
0.923651 0.839924 0.082338
0.936401 0.856991 0.082446
0.944051 0.872759 0.082570
0.951355 0.880617 0.082719
0.958314 0.893200 0.082873
0.962992 0.905588 0.083048
0.967447 0.917759 0.083484
0.971577 0.927818 0.083976
0.974999 0.933457 0.084312
0.976948 0.938935 0.084930
0.978681 0.944253 0.085524
0.094293 0.864555 0.082099
0.095089 0.863861 0.082099
0.098008 0.861415 0.082099
0.103910 0.857113 0.082099
0.116749 0.851123 0.082099
0.133892 0.843349 0.082099
0.167426 0.834148 0.082099
0.212232 0.824536 0.082099
0.248245 0.815071 0.082099
0.293718 0.806258 0.082099
0.343019 0.798454 0.082099
0.402962 0.786722 0.082099
0.472916 0.776112 0.082099
0.540667 0.769631 0.082099
0.596837 0.767358 0.082099
0.658073 0.769243 0.082099
0.717500 0.775134 0.082116
0.767007 0.784812 0.082137
0.808863 0.796784 0.082159
0.844846 0.807464 0.082183
0.874331 0.823891 0.082232
0.900452 0.840722 0.082278
0.919257 0.856709 0.082331
0.933877 0.871990 0.082427
0.941766 0.879198 0.082549
0.949071 0.891347 0.082690
0.956059 0.903393 0.082842
0.961420 0.915297 0.082998
0.965906 0.926247 0.083368
0.970186 0.932103 0.083859
0.973761 0.937542 0.084153
0.976278 0.942839 0.084773
0.978034 0.947490 0.085369
0.095539 0.886846 0.082099
0.096302 0.886368 0.082099
0.099315 0.884681 0.082099
0.105160 0.881696 0.082099
0.118087 0.878556 0.082099
0.137761 0.876624 0.082099
0.169375 0.871358 0.082099
0.213902 0.863418 0.082099
0.250134 0.855433 0.082099
0.296665 0.847803 0.082099
0.346811 0.840085 0.082099
0.409612 0.833455 0.082099
0.478245 0.828205 0.082099
0.549096 0.824511 0.082099
0.602600 0.822475 0.082099
0.664199 0.822133 0.082107
0.723488 0.823461 0.082127
0.769546 0.826391 0.082148
0.811552 0.830818 0.082168
0.843746 0.836615 0.082193
0.868868 0.845326 0.082231
0.895336 0.859563 0.082276
0.914810 0.873206 0.082326
0.930721 0.879849 0.082414
0.939694 0.891371 0.082534
0.946976 0.902896 0.082666
0.953959 0.914373 0.082817
0.959949 0.925174 0.082962
0.964453 0.931360 0.083267
0.968758 0.936701 0.083757
0.972577 0.941926 0.084076
0.975632 0.946725 0.084630
0.977408 0.950677 0.085227
0.096760 0.911383 0.082099
0.097531 0.910967 0.082099
0.100575 0.909496 0.082099
0.106603 0.906884 0.082099
0.119450 0.903189 0.082099
0.139410 0.898572 0.082099
0.171122 0.893262 0.082099
0.215235 0.887528 0.082099
0.251509 0.881655 0.082099
0.298744 0.877992 0.082099
0.349517 0.875118 0.082099
0.414520 0.870664 0.082099
0.482302 0.865698 0.082099
0.553536 0.861911 0.082099
0.607310 0.859418 0.082101
0.669378 0.858282 0.082120
0.728714 0.858520 0.082139
0.771821 0.860105 0.082158
0.813848 0.862981 0.082177
0.845718 0.867064 0.082207
0.868846 0.872096 0.082241
0.890233 0.876574 0.082275
0.910881 0.882795 0.082324
0.927424 0.893511 0.082406
0.937832 0.904339 0.082523
0.945075 0.915222 0.082648
0.952034 0.925470 0.082797
0.958588 0.931327 0.082940
0.963097 0.936505 0.083183
0.967415 0.941600 0.083669
0.971456 0.946384 0.084063
0.974804 0.950275 0.084504
0.976807 0.954074 0.085100
0.098160 0.930237 0.082099
0.099003 0.930062 0.082099
0.101788 0.929441 0.082099
0.108162 0.928333 0.082099
0.120828 0.926647 0.082099
0.141025 0.923179 0.082099
0.172721 0.918641 0.082099
0.216302 0.913442 0.082099
0.252463 0.908044 0.082099
0.300083 0.902687 0.082099
0.351257 0.897596 0.082099
0.417802 0.892972 0.082099
0.485132 0.888987 0.082099
0.556755 0.885777 0.082099
0.610888 0.883446 0.082114
0.673464 0.882060 0.082131
0.732978 0.881653 0.082150
0.773729 0.882231 0.082168
0.815829 0.883769 0.082189
0.847462 0.886225 0.082222
0.869817 0.889540 0.082254
0.890770 0.893643 0.082287
0.907821 0.898461 0.082325
0.924272 0.907892 0.082402
0.936173 0.918031 0.082517
0.943364 0.927128 0.082637
0.950285 0.932099 0.082783
0.956944 0.937045 0.082924
0.961844 0.941945 0.083137
0.966164 0.946531 0.083597
0.970306 0.950319 0.084053
0.973766 0.954035 0.084396
0.976237 0.957674 0.084989
0.099629 0.940873 0.082099
0.100397 0.940721 0.082099
0.103271 0.940185 0.082099
0.110291 0.939224 0.082099
0.122194 0.937851 0.082099
0.142614 0.936107 0.082099
0.174207 0.934063 0.082099
0.217162 0.931803 0.082099
0.253182 0.929423 0.082099
0.300798 0.927022 0.082099
0.352157 0.923059 0.082099
0.419609 0.918817 0.082099
0.486816 0.914885 0.082099
0.558813 0.911594 0.082109
0.613316 0.909049 0.082126
0.676378 0.907327 0.082143
0.736150 0.906475 0.082160
0.775194 0.906514 0.082178
0.817397 0.907442 0.082205
0.848876 0.909236 0.082236
0.870618 0.911854 0.082267
0.891401 0.915246 0.082298
0.908142 0.919352 0.082339
0.922178 0.923775 0.082410
0.934702 0.929113 0.082515
0.941834 0.933744 0.082631
0.948708 0.938392 0.082774
0.955333 0.943035 0.082913
0.960695 0.947224 0.083105
0.965009 0.950863 0.083540
0.969151 0.954456 0.084000
0.972794 0.957994 0.084306
0.975699 0.961467 0.084895
0.101015 0.949776 0.082099
0.101716 0.949672 0.082099
0.104786 0.949302 0.082099
0.112388 0.948640 0.082099
0.123547 0.947688 0.082099
0.144183 0.946474 0.082099
0.175609 0.944910 0.082099
0.217858 0.942902 0.082099
0.253596 0.940768 0.082099
0.300992 0.938590 0.082099
0.352335 0.936452 0.082099
0.420107 0.934433 0.082099
0.487751 0.932603 0.082106
0.559777 0.931024 0.082121
0.614622 0.929746 0.082137
0.678103 0.928811 0.082154
0.738159 0.928246 0.082170
0.776169 0.928067 0.082191
0.818480 0.928281 0.082220
0.849877 0.928884 0.082250
0.871191 0.929864 0.082280
0.891848 0.931202 0.082313
0.908359 0.932874 0.082354
0.922270 0.934853 0.082438
0.933476 0.937111 0.082526
0.940471 0.940588 0.082630
0.947293 0.944921 0.082770
0.953876 0.948505 0.082906
0.959648 0.951955 0.083084
0.963949 0.955384 0.083500
0.968085 0.958781 0.083953
0.971890 0.962128 0.084236
0.975124 0.963881 0.084818
0.102419 0.957234 0.082099
0.103289 0.957144 0.082099
0.106407 0.956825 0.082099
0.114445 0.956250 0.082099
0.124925 0.955423 0.082099
0.145735 0.954363 0.082099
0.176945 0.953104 0.082099
0.218425 0.951691 0.082099
0.253733 0.950176 0.082099
0.300752 0.948616 0.082099
0.351897 0.947067 0.082099
0.419459 0.945582 0.082103
0.487158 0.943871 0.082118
0.559733 0.942353 0.082133
0.614863 0.941086 0.082148
0.678660 0.940109 0.082164
0.738988 0.939452 0.082180
0.776629 0.939134 0.082207
0.819030 0.939168 0.082235
0.850403 0.939554 0.082264
0.871490 0.940288 0.082293
0.892063 0.941359 0.082329
0.908437 0.942748 0.082382
0.922264 0.944436 0.082467
0.933409 0.946224 0.082552
0.939829 0.947984 0.082649
0.946027 0.950398 0.082771
0.952563 0.953621 0.082904
0.958699 0.956850 0.083074
0.962981 0.960071 0.083475
0.967105 0.962906 0.083921
0.971055 0.964272 0.084184
0.974288 0.965439 0.084760
0.104090 0.963413 0.082099
0.104894 0.963383 0.082099
0.108215 0.963275 0.082099
0.116457 0.962983 0.082099
0.126754 0.962491 0.082099
0.147267 0.961742 0.082099
0.178228 0.960638 0.082099
0.218890 0.959392 0.082099
0.253646 0.958047 0.082099
0.300155 0.956651 0.082099
0.350940 0.955252 0.082102
0.417822 0.953896 0.082116
0.486032 0.952629 0.082130
0.558777 0.951491 0.082144
0.614114 0.950518 0.082159
0.678103 0.949739 0.082174
0.738657 0.949179 0.082195
0.776566 0.948855 0.082222
0.819023 0.948779 0.082249
0.850415 0.948955 0.082277
0.871480 0.949384 0.082306
0.892008 0.950061 0.082344
0.908348 0.950976 0.082412
0.922133 0.952117 0.082495
0.933260 0.953470 0.082578
0.939702 0.955017 0.082681
0.945524 0.956742 0.082792
0.951384 0.958868 0.082906
0.957654 0.961884 0.083072
0.962101 0.963672 0.083464
0.966208 0.964843 0.083903
0.970166 0.965963 0.084150
0.973515 0.967962 0.084718
0.105680 0.965904 0.082099
0.106636 0.965859 0.082099
0.110615 0.965770 0.082099
0.118172 0.965617 0.082099
0.128556 0.965396 0.082099
0.148778 0.965110 0.082099
0.179464 0.964754 0.082099
0.219272 0.964328 0.082099
0.253377 0.963866 0.082099
0.299264 0.963382 0.082102
0.349546 0.962653 0.082114
0.415342 0.961675 0.082127
0.484180 0.960515 0.082140
0.557003 0.959459 0.082154
0.612461 0.958539 0.082169
0.676504 0.957783 0.082184
0.737213 0.957215 0.082210
0.775989 0.956852 0.082236
0.818452 0.956707 0.082263
0.849891 0.956788 0.082290
0.871139 0.957098 0.082322
0.891652 0.957635 0.082362
0.908066 0.958394 0.082442
0.921856 0.959365 0.082523
0.933012 0.960539 0.082603
0.939519 0.961901 0.082712
0.945317 0.963019 0.082820
0.950979 0.963762 0.082928
0.956552 0.964500 0.083080
0.961302 0.965537 0.083467
0.965391 0.967161 0.083898
0.969335 0.969058 0.084133
0.972803 0.970942 0.084693
0.107608 0.970073 0.082099
0.108630 0.970034 0.082099
0.112931 0.969895 0.082099
0.119856 0.969643 0.082099
0.130325 0.969279 0.082099
0.150265 0.968807 0.082099
0.180659 0.968239 0.082099
0.219585 0.967593 0.082099
0.252960 0.966887 0.082103
0.298130 0.966145 0.082114
0.347787 0.965608 0.082125
0.412147 0.965218 0.082138
0.481698 0.964839 0.082151
0.554507 0.964463 0.082164
0.609989 0.964131 0.082178
0.673943 0.963853 0.082199
0.734721 0.963637 0.082225
0.774916 0.963490 0.082250
0.817324 0.963418 0.082276
0.848825 0.963425 0.082302
0.870454 0.963511 0.082338
0.890976 0.963678 0.082393
0.907575 0.963925 0.082471
0.921416 0.964248 0.082550
0.932649 0.964646 0.082637
0.939272 0.965096 0.082743
0.945053 0.965582 0.082849
0.950697 0.966372 0.082954
0.956211 0.967500 0.083132
0.960617 0.968714 0.083488
0.964646 0.970444 0.083905
0.968574 0.972182 0.084133
0.972148 0.973418 0.084684
0.109938 0.973410 0.082099
0.111103 0.973386 0.082099
0.115161 0.973303 0.082099
0.121498 0.973152 0.082099
0.132055 0.972932 0.082099
0.151722 0.972647 0.082099
0.181811 0.972304 0.082099
0.219840 0.971836 0.082106
0.252459 0.971219 0.082115
0.296795 0.970568 0.082125
0.345725 0.969902 0.082136
0.408354 0.969241 0.082148
0.478674 0.968607 0.082160
0.551375 0.968017 0.082173
0.606788 0.967491 0.082190
0.670510 0.967044 0.082214
0.731260 0.966690 0.082238
0.773373 0.966441 0.082263
0.815658 0.966305 0.082288
0.847223 0.966290 0.082318
0.869421 0.966399 0.082352
0.889971 0.966634 0.082423
0.906863 0.966996 0.082499
0.920799 0.967482 0.082575
