ektachrome100d/Ektachrome100D_Modern_ExtraSoft.cube
TITLE "Kodak Ektachrome 100D Modern ExtraSoft"
# Adobe RGB in/out. REPLACES AgX. Kodak Ektachrome 100D Modern ExtraSoft.
LUT_3D_SIZE 5
DOMAIN_MIN 0.0 0.0 0.0
DOMAIN_MAX 1.0 1.0 1.0
0.068633 0.069845 0.084864
0.323552 0.073138 0.084864
0.797411 0.314559 0.085044
0.885197 0.682091 0.086774
0.917334 0.812892 0.092577
0.068633 0.161783 0.084864
0.149665 0.097969 0.084864
0.722082 0.399474 0.084911
0.870622 0.709807 0.086137
0.913047 0.824289 0.091241
0.070169 0.765842 0.084864
0.219824 0.722987 0.084864
0.650055 0.696683 0.084892
0.843338 0.779246 0.085590
0.902067 0.856513 0.089287
0.077621 0.881781 0.084864
0.227056 0.877760 0.084864
0.664170 0.868742 0.085043
0.829846 0.872933 0.085677
0.889151 0.891067 0.088320
0.088248 0.916836 0.084935
0.220052 0.916167 0.084981
0.630319 0.914879 0.085197
0.821750 0.915824 0.086046
0.882087 0.919506 0.088803
0.068633 0.069845 0.227705
0.341846 0.074315 0.250795
0.789135 0.290485 0.181923
0.880506 0.663753 0.183105
0.915702 0.806378 0.214985
0.068633 0.096182 0.118867
0.094167 0.078529 0.088826
0.688196 0.339223 0.110312
0.865303 0.692714 0.138533
0.911404 0.817994 0.180617
0.069661 0.729960 0.124173
0.190085 0.682702 0.108388
0.595962 0.648075 0.097013
0.835978 0.770173 0.109322
0.899747 0.852820 0.135070
0.076611 0.878303 0.110772
0.215532 0.873349 0.108575
0.647586 0.863475 0.103846
0.825658 0.868762 0.106344
0.887823 0.889045 0.119511
0.087768 0.916114 0.101167
0.216331 0.915433 0.101151
0.624724 0.914175 0.102371
0.820392 0.915376 0.107389
0.881775 0.919386 0.117435
0.068633 0.069881 0.884885
0.341846 0.079111 0.886185
0.825976 0.441543 0.884445
0.884045 0.689157 0.830772
0.914970 0.805944 0.800555
0.068633 0.177328 0.875535
0.267336 0.230324 0.848506
0.743624 0.470644 0.813204
0.867126 0.705102 0.793701
0.910399 0.815967 0.781185
0.069034 0.658583 0.769201
0.148247 0.620203 0.717277
0.530076 0.562965 0.583185
0.829294 0.758651 0.681044
0.897019 0.848571 0.721208
0.074419 0.866564 0.749616
0.192826 0.861452 0.725393
0.609886 0.853150 0.671634
0.814759 0.860290 0.640417
0.885131 0.885431 0.669402
0.086518 0.913910 0.681796
0.207023 0.913315 0.674722
0.611164 0.912362 0.657782
0.817123 0.914296 0.645206
0.881028 0.919153 0.655756
0.068633 0.071743 0.948466
0.341846 0.089564 0.948534
0.831079 0.518209 0.948778
0.893732 0.737000 0.939120
0.916863 0.819646 0.923534
0.068633 0.267556 0.948488
0.355307 0.416949 0.948557
0.804621 0.633669 0.944809
0.878760 0.750476 0.930160
0.912156 0.827562 0.916919
0.069055 0.678215 0.918715
0.177172 0.678242 0.912725
0.653917 0.713435 0.904279
0.841214 0.783260 0.900764
0.898321 0.853404 0.898980
0.073211 0.854626 0.903075
0.174231 0.851137 0.896842
0.584544 0.845258 0.876965
0.801883 0.851678 0.858611
0.883596 0.884455 0.872090
0.085061 0.910524 0.883404
0.196181 0.910104 0.880423
0.596089 0.909997 0.872641
0.813407 0.913308 0.866178
0.880316 0.919068 0.866026
0.068633 0.081205 0.953980
0.341846 0.125632 0.953980
0.831079 0.573046 0.953980
0.901102 0.776091 0.953910
0.919379 0.836203 0.950754
0.068633 0.367221 0.953980
0.355307 0.497620 0.953980
0.828882 0.721750 0.953980
0.888760 0.786111 0.952608
0.914837 0.843939 0.949723
0.069542 0.751362 0.951892
0.225010 0.758124 0.951355
0.717106 0.779025 0.949935
0.854844 0.823881 0.947476
0.902347 0.862627 0.944716
0.072892 0.852954 0.944038
0.171944 0.852702 0.942500
0.603737 0.855649 0.937095
0.820826 0.869018 0.933043
0.885913 0.889463 0.932936
0.083536 0.907464 0.933899
0.187025 0.907497 0.932947
0.584481 0.908572 0.932659
0.810841 0.913025 0.930006
0.880008 0.919335 0.929726
