ektachrome100d/Ektachrome100D_Classic_ExtraSoft.cube
TITLE "Kodak Ektachrome 100D Classic ExtraSoft"
# Adobe RGB in/out. REPLACES AgX. Kodak Ektachrome 100D Classic ExtraSoft.
LUT_3D_SIZE 33
DOMAIN_MIN 0.0 0.0 0.0
DOMAIN_MAX 1.0 1.0 1.0
0.068222 0.081187 0.086406
0.068222 0.081187 0.086406
0.068222 0.081187 0.086406
0.068222 0.081187 0.086406
0.068269 0.081187 0.086406
0.068876 0.081187 0.086406
0.070287 0.081187 0.086406
0.074007 0.081189 0.086406
0.080876 0.081192 0.086406
0.095974 0.081197 0.086406
0.130203 0.081204 0.086406
0.174449 0.081245 0.086406
0.236610 0.081355 0.086406
0.317435 0.081528 0.086406
0.404563 0.082123 0.086406
0.464821 0.082964 0.086406
0.529495 0.084489 0.086406
0.596713 0.088234 0.086406
0.650582 0.094920 0.086406
0.703248 0.101812 0.086406
0.768910 0.113709 0.086406
0.814120 0.134893 0.086406
0.848590 0.175424 0.086406
0.874662 0.221013 0.086406
0.900374 0.273081 0.086406
0.919658 0.340767 0.086406
0.939333 0.392655 0.086406
0.953844 0.457116 0.086415
0.960670 0.504045 0.086431
0.966072 0.561546 0.086445
0.976117 0.614702 0.086457
0.979724 0.658674 0.086471
0.982270 0.700270 0.086488
0.068222 0.081187 0.086406
0.068222 0.081187 0.086406
0.068222 0.081187 0.086406
0.068222 0.081187 0.086406
0.068270 0.081187 0.086406
0.068878 0.081187 0.086406
0.070291 0.081187 0.086406
0.074015 0.081189 0.086406
0.080881 0.081192 0.086406
0.095997 0.081198 0.086406
0.130247 0.081205 0.086406
0.174489 0.081251 0.086406
0.236660 0.081364 0.086406
0.317487 0.081544 0.086406
0.404604 0.082158 0.086406
0.464854 0.083019 0.086406
0.529532 0.084603 0.086406
0.596744 0.088410 0.086406
0.650603 0.095175 0.086406
0.703278 0.102077 0.086406
0.768932 0.114271 0.086406
0.814128 0.135831 0.086406
0.848599 0.176693 0.086406
0.874671 0.222514 0.086406
0.900382 0.274407 0.086406
0.919664 0.342668 0.086406
0.939339 0.393889 0.086406
0.953847 0.458254 0.086415
0.960671 0.505333 0.086432
0.966074 0.562865 0.086445
0.976119 0.615816 0.086457
0.979725 0.659516 0.086471
0.982270 0.701086 0.086488
0.068222 0.081187 0.086406
0.068222 0.081187 0.086406
0.068222 0.081187 0.086406
0.068222 0.081187 0.086406
0.068275 0.081187 0.086406
0.068884 0.081187 0.086406
0.070305 0.081188 0.086406
0.074045 0.081190 0.086406
0.080928 0.081194 0.086406
0.096081 0.081200 0.086406
0.130405 0.081207 0.086406
0.174634 0.081272 0.086406
0.236841 0.081394 0.086406
0.317675 0.081636 0.086406
0.404752 0.082278 0.086406
0.464970 0.083238 0.086406
0.529665 0.085045 0.086406
0.596852 0.089080 0.086406
0.650680 0.096086 0.086406
0.703382 0.103074 0.086406
0.769011 0.116295 0.086406
0.814155 0.139229 0.086406
0.848634 0.181295 0.086406
0.874703 0.227956 0.086406
0.900412 0.279204 0.086406
0.919686 0.349548 0.086406
0.939360 0.398423 0.086406
0.953855 0.462347 0.086415
0.960677 0.509968 0.086432
0.966079 0.567610 0.086445
0.976125 0.619820 0.086457
0.979727 0.662540 0.086472
0.982272 0.704015 0.086488
0.068222 0.081187 0.086406
0.068222 0.081187 0.086406
0.068222 0.081187 0.086406
0.068222 0.081187 0.086406
0.068284 0.081187 0.086406
0.068896 0.081188 0.086406
0.070332 0.081190 0.086406
0.074100 0.081193 0.086406
0.081015 0.081198 0.086406
0.096234 0.081204 0.086406
0.130695 0.081232 0.086406
0.174902 0.081322 0.086406
0.237174 0.081451 0.086406
0.318021 0.081883 0.086406
0.405024 0.082492 0.086406
0.465184 0.083669 0.086406
0.529909 0.086217 0.086406
0.597052 0.091228 0.086406
0.650822 0.097754 0.086406
0.703575 0.105107 0.086406
0.769156 0.120348 0.086406
0.814205 0.146960 0.086406
0.848697 0.189941 0.086406
0.874761 0.238714 0.086406
0.900467 0.290361 0.086406
0.919727 0.359144 0.086406
0.939398 0.408640 0.086406
0.953871 0.469896 0.086415
0.960687 0.518528 0.086432
0.966088 0.576082 0.086445
0.976136 0.627198 0.086458
0.979731 0.668099 0.086472
0.982276 0.708956 0.086488
0.068222 0.081188 0.086406
0.068222 0.081188 0.086406
0.068222 0.081188 0.086406
0.068222 0.081188 0.086406
0.068297 0.081189 0.086406
0.068912 0.081191 0.086406
0.070372 0.081194 0.086406
0.074181 0.081198 0.086406
0.081145 0.081203 0.086406
0.096463 0.081220 0.086406
0.131129 0.081290 0.086406
0.175301 0.081407 0.086406
0.237671 0.081639 0.086406
0.318539 0.082227 0.086406
0.405431 0.083044 0.086406
0.465504 0.084468 0.086406
0.530274 0.087916 0.086406
0.597352 0.094020 0.086406
0.651034 0.100423 0.086406
0.703863 0.109835 0.086406
0.769373 0.127698 0.086406
0.814279 0.159314 0.086406
0.848791 0.203388 0.086406
0.874850 0.255013 0.086406
0.900528 0.309273 0.086406
0.919788 0.371183 0.086406
0.939455 0.429103 0.086406
0.953894 0.481142 0.086416
0.960701 0.531370 0.086432
0.966102 0.587012 0.086445
0.976153 0.636041 0.086458
0.979737 0.676403 0.086472
0.982282 0.716116 0.086489
0.068222 0.081192 0.086406
0.068222 0.081192 0.086406
0.068222 0.081192 0.086406
0.068222 0.081194 0.086406
0.068315 0.081195 0.086406
0.068935 0.081198 0.086406
0.070426 0.081202 0.086406
0.074291 0.081206 0.086406
0.081321 0.081239 0.086406
0.096773 0.081305 0.086406
0.131717 0.081407 0.086406
0.175842 0.081583 0.086406
0.238344 0.082123 0.086406
0.319239 0.082783 0.086406
0.405981 0.083897 0.086406
0.465937 0.086561 0.086406
0.530767 0.091332 0.086406
0.597756 0.097406 0.086406
0.651320 0.104170 0.086406
0.704252 0.117337 0.086406
0.769666 0.139336 0.086406
0.814380 0.179190 0.086406
0.848918 0.222801 0.086406
0.874969 0.272306 0.086406
0.900590 0.335933 0.086406
0.919871 0.387489 0.086406
0.939533 0.450280 0.086406
0.953926 0.495619 0.086416
0.960721 0.548789 0.086433
0.966120 0.601827 0.086446
0.976175 0.647333 0.086458
0.979746 0.687602 0.086473
0.982290 0.725757 0.086489
0.068222 0.081201 0.086406
0.068222 0.081201 0.086406
0.068222 0.081202 0.086406
0.068222 0.081203 0.086406
0.068337 0.081205 0.086406
0.068963 0.081208 0.086406
0.070493 0.081242 0.086406
0.074429 0.081286 0.086406
0.081544 0.081364 0.086406
0.097167 0.081454 0.086406
0.132467 0.081720 0.086406
0.176529 0.082195 0.086406
0.239201 0.082815 0.086406
0.320130 0.083832 0.086406
0.406681 0.086100 0.086406
0.466488 0.089944 0.086406
0.531394 0.095913 0.086406
0.598271 0.101954 0.086406
0.651684 0.112099 0.086406
0.704746 0.129528 0.086406
0.770039 0.160276 0.086406
0.814508 0.201809 0.086406
0.849080 0.250418 0.086406
0.875120 0.300270 0.086406
0.900670 0.363354 0.086406
0.919976 0.411904 0.086406
0.939631 0.469635 0.086406
0.953966 0.515847 0.086417
0.960747 0.571172 0.086433
0.966144 0.620743 0.086446
0.976204 0.661657 0.086459
0.979756 0.701618 0.086474
0.982300 0.737962 0.086490
0.068222 0.081255 0.086406
0.068222 0.081258 0.086406
0.068222 0.081265 0.086406
0.068222 0.081279 0.086406
0.068363 0.081305 0.086406
0.069010 0.081348 0.086406
0.070575 0.081401 0.086406
0.074598 0.081476 0.086406
0.081815 0.081667 0.086406
0.097648 0.082044 0.086406
0.133384 0.082439 0.086406
0.177370 0.083147 0.086406
0.240250 0.084124 0.086406
0.321220 0.086577 0.086406
0.407536 0.090309 0.086406
0.467160 0.095784 0.086406
0.532161 0.101378 0.086406
0.598899 0.109951 0.086406
0.652129 0.125213 0.086406
0.705351 0.150727 0.086406
0.770494 0.189625 0.086406
0.814664 0.232571 0.086406
0.849278 0.278284 0.086406
0.875305 0.341393 0.086406
0.900766 0.388618 0.086406
0.920104 0.449270 0.086406
0.939751 0.492671 0.086406
0.954015 0.542834 0.086418
0.960778 0.594718 0.086434
0.966172 0.640347 0.086447
0.976239 0.679099 0.086460
0.979769 0.717073 0.086474
0.982312 0.752791 0.086491
0.068222 0.081454 0.086406
0.068222 0.081460 0.086406
0.068222 0.081480 0.086406
0.068222 0.081515 0.086406
0.068393 0.081574 0.086406
0.069081 0.081745 0.086406
0.070671 0.081969 0.086406
0.074796 0.082228 0.086406
0.082136 0.082528 0.086406
0.098219 0.083113 0.086406
0.134477 0.083880 0.086406
0.178370 0.085405 0.086406
0.241497 0.087981 0.086406
0.322515 0.092441 0.086406
0.408551 0.097045 0.086406
0.467957 0.102273 0.086406
0.533070 0.110909 0.086406
0.599645 0.125244 0.086406
0.652656 0.148797 0.086406
0.706068 0.185194 0.086406
0.771004 0.224548 0.086406
0.814850 0.269220 0.086406
0.849512 0.323950 0.086406
0.875524 0.375902 0.086406
0.900881 0.429691 0.086406
0.920256 0.477383 0.086406
0.939894 0.522258 0.086406
0.954074 0.575177 0.086419
0.960814 0.622135 0.086435
0.966207 0.661137 0.086448
0.976281 0.699583 0.086460
0.979784 0.734819 0.086475
0.982326 0.767616 0.086492
0.068222 0.082312 0.086406
0.068222 0.082324 0.086406
0.068222 0.082366 0.086406
0.068222 0.082443 0.086406
0.068426 0.082601 0.086406
0.069161 0.082877 0.086406
0.070780 0.083238 0.086406
0.074997 0.083725 0.086406
0.082508 0.084458 0.086406
0.098882 0.086020 0.086406
0.135751 0.088054 0.086406
0.179534 0.091587 0.086406
0.242948 0.095576 0.086406
0.324021 0.099867 0.086406
0.409730 0.104966 0.086406
0.468884 0.115038 0.086406
0.534127 0.129691 0.086406
0.600511 0.153522 0.086406
0.653269 0.188259 0.086406
0.706901 0.225489 0.086406
0.771416 0.267771 0.086406
0.815065 0.318278 0.086406
0.849785 0.370289 0.086406
0.875779 0.416361 0.086406
0.901014 0.467991 0.086406
0.920433 0.509285 0.086406
0.940059 0.559635 0.086406
0.954141 0.606905 0.086421
0.960857 0.648053 0.086436
0.966246 0.685182 0.086449
0.976329 0.720959 0.086461
0.979802 0.755276 0.086477
0.982343 0.783087 0.086493
0.068222 0.084195 0.086406
0.068222 0.084237 0.086406
0.068222 0.084386 0.086406
0.068229 0.084658 0.086406
0.068463 0.085130 0.086406
0.069251 0.085987 0.086406
0.070903 0.087055 0.086406
0.075082 0.088342 0.086406
0.082930 0.090684 0.086406
0.099639 0.093707 0.086406
0.137093 0.096716 0.086406
0.180866 0.100246 0.086406
0.245297 0.104431 0.086406
0.325755 0.112263 0.086406
0.411078 0.123353 0.086406
0.469942 0.139940 0.086406
0.535335 0.168200 0.086406
0.601500 0.199191 0.086406
0.653968 0.235738 0.086406
0.707853 0.273946 0.086406
0.771887 0.324183 0.086406
0.815311 0.371776 0.086406
0.850096 0.415252 0.086406
0.876069 0.465342 0.086406
0.901166 0.503980 0.086406
0.920635 0.551848 0.086406
0.940249 0.598296 0.086406
0.954219 0.639954 0.086422
0.960905 0.675591 0.086437
0.966292 0.711341 0.086450
0.976385 0.744453 0.086462
0.979822 0.773890 0.086478
0.982362 0.800511 0.086494
0.068222 0.091294 0.086406
0.068222 0.091411 0.086406
0.068222 0.091830 0.086406
0.068236 0.092563 0.086406
0.068503 0.093489 0.086406
0.069349 0.094729 0.086406
0.071040 0.096288 0.086406
0.075176 0.098215 0.086406
0.083404 0.100615 0.086406
0.100555 0.103464 0.086406
0.138424 0.107941 0.086406
0.182371 0.115400 0.086406
0.250255 0.125204 0.086406
0.327724 0.139206 0.086406
0.412598 0.161702 0.086406
0.471134 0.189325 0.086406
0.536696 0.219148 0.086406
0.602615 0.255765 0.086406
0.654756 0.290443 0.086406
0.708926 0.342119 0.086406
0.772416 0.380475 0.086406
0.815588 0.426457 0.086406
0.850446 0.469495 0.086406
0.876397 0.506368 0.086406
0.901338 0.551924 0.086406
0.920862 0.596352 0.086406
0.940462 0.636929 0.086408
0.954306 0.671045 0.086424
0.960960 0.706070 0.086439
0.966461 0.737920 0.086451
0.976447 0.767920 0.086463
0.979845 0.793675 0.086479
0.982383 0.819849 0.086495
0.068222 0.102247 0.086406
0.068222 0.102343 0.086406
0.068222 0.102686 0.086406
0.068243 0.103413 0.086406
0.068549 0.104513 0.086406
0.069456 0.105993 0.086406
0.071323 0.109361 0.086406
0.075280 0.113556 0.086406
0.084028 0.118583 0.086406
0.101669 0.126064 0.086406
0.139913 0.135896 0.086406
0.185995 0.150681 0.086406
0.255872 0.172607 0.086406
0.329925 0.193985 0.086406
0.414293 0.219497 0.086406
0.472463 0.251171 0.086406
0.538214 0.279557 0.086406
0.603828 0.322424 0.086406
0.655634 0.364494 0.086406
0.710122 0.396650 0.086406
0.773007 0.446627 0.086406
0.815897 0.480507 0.086406
0.850836 0.516564 0.086406
0.876762 0.559950 0.086406
0.901529 0.601136 0.086406
0.921115 0.639044 0.086406
0.940699 0.671612 0.086410
0.954403 0.705213 0.086426
0.961021 0.735760 0.086440
0.966663 0.765263 0.086453
0.976516 0.790077 0.086465
0.979871 0.815346 0.086481
0.982407 0.837471 0.086497
0.068222 0.126151 0.086406
0.068222 0.126432 0.086406
0.068222 0.127442 0.086406
0.068250 0.129309 0.086406
0.068640 0.132124 0.086406
0.069570 0.136591 0.086406
0.071639 0.142942 0.086406
0.075611 0.151912 0.086406
0.084720 0.164541 0.086406
0.102901 0.179527 0.086406
0.141474 0.195104 0.086406
0.191360 0.213782 0.086406
0.258855 0.236726 0.086406
0.332363 0.261862 0.086406
0.416167 0.287005 0.086406
0.473931 0.324955 0.086406
0.539891 0.362011 0.086406
0.605161 0.389914 0.086406
0.656603 0.431820 0.086406
0.711443 0.466479 0.086406
0.773659 0.497550 0.086406
0.816237 0.534716 0.086406
0.851267 0.575860 0.086406
0.877165 0.612737 0.086406
0.901740 0.646341 0.086406
0.921395 0.677342 0.086406
0.940961 0.708856 0.086412
0.954510 0.738027 0.086428
0.961089 0.765978 0.086442
0.966887 0.789783 0.086454
0.976593 0.814077 0.086467
0.979899 0.835900 0.086483
0.982433 0.852667 0.086498
0.068222 0.185367 0.086406
0.068222 0.185840 0.086406
0.068223 0.187544 0.086406
0.068306 0.190704 0.086406
0.068735 0.195516 0.086406
0.069696 0.202128 0.086406
0.071978 0.210771 0.086406
0.076079 0.221864 0.086406
0.085475 0.235876 0.086406
0.104254 0.253247 0.086406
0.143044 0.268643 0.086406
0.194242 0.288006 0.086406
0.261400 0.316564 0.086406
0.335042 0.349224 0.086406
0.418222 0.372832 0.086406
0.475540 0.396946 0.086406
0.541731 0.436459 0.086406
0.606622 0.465292 0.086406
0.657665 0.492720 0.086406
0.712892 0.524470 0.086406
0.774372 0.561056 0.086406
0.816610 0.596192 0.086406
0.851739 0.630754 0.086406
0.877606 0.658845 0.086406
0.901971 0.688264 0.086406
0.921702 0.716981 0.086406
0.941249 0.744751 0.086414
0.954628 0.770089 0.086431
0.961163 0.792824 0.086443
0.967132 0.816083 0.086456
0.976677 0.836616 0.086469
0.979930 0.852697 0.086485
0.982462 0.871904 0.086500
0.068222 0.264924 0.086406
0.068222 0.265393 0.086406
0.068234 0.267081 0.086406
0.068375 0.270202 0.086406
0.068833 0.274914 0.086406
0.069841 0.281377 0.086406
0.072340 0.292537 0.086406
0.076705 0.306889 0.086406
0.086292 0.324377 0.086406
0.105729 0.345113 0.086406
0.144757 0.362752 0.086406
0.196690 0.378910 0.086406
0.264181 0.397240 0.086406
0.337969 0.427044 0.086406
0.420462 0.454460 0.086406
0.477292 0.476885 0.086406
0.543734 0.500101 0.086406
0.608212 0.528913 0.086406
0.658820 0.561073 0.086406
0.714469 0.592387 0.086406
0.775149 0.623548 0.086406
0.817015 0.650058 0.086406
0.852252 0.676556 0.086406
0.878086 0.704136 0.086406
0.902222 0.729592 0.086406
0.922035 0.755931 0.086406
0.941562 0.777587 0.086417
0.954755 0.799202 0.086433
0.961243 0.821375 0.086445
0.967398 0.839631 0.086457
0.976769 0.855204 0.086471
0.979963 0.873631 0.086487
0.982493 0.892326 0.086502
0.068222 0.364759 0.086406
0.068224 0.365194 0.086406
0.068244 0.366761 0.086406
0.068444 0.369650 0.086406
0.068934 0.373984 0.086406
0.069993 0.379866 0.086406
0.072723 0.387390 0.086406
0.077529 0.396672 0.086406
0.087171 0.410550 0.086406
0.107330 0.432044 0.086406
0.146615 0.450127 0.086406
0.199354 0.465301 0.086406
0.267205 0.482185 0.086406
0.341148 0.500010 0.086406
0.422782 0.522433 0.086406
0.479187 0.547997 0.086406
0.545904 0.575813 0.086406
0.609933 0.601203 0.086406
0.660070 0.628614 0.086406
0.716177 0.650978 0.086406
0.775989 0.674551 0.086406
0.817454 0.699323 0.086406
0.852808 0.722791 0.086406
0.878606 0.746651 0.086406
0.902546 0.768585 0.086406
0.922396 0.788430 0.086406
0.941900 0.808887 0.086420
0.954894 0.829548 0.086435
0.961330 0.844242 0.086447
0.967687 0.860183 0.086459
0.976867 0.877782 0.086473
0.980000 0.895681 0.086489
0.982527 0.907939 0.086504
0.068230 0.457223 0.086406
0.068236 0.457634 0.086406
0.068270 0.459112 0.086406
0.068512 0.461834 0.086406
0.069082 0.465912 0.086406
0.070228 0.471435 0.086406
0.073125 0.478478 0.086406
0.078496 0.486664 0.086406
0.088146 0.496326 0.086406
0.109309 0.508098 0.086406
0.148621 0.523428 0.086406
0.202238 0.540760 0.086406
0.270521 0.560256 0.086406
0.344585 0.580782 0.086406
0.425277 0.600752 0.086406
0.481135 0.622614 0.086406
0.548242 0.642197 0.086406
0.611787 0.661534 0.086406
0.661415 0.682200 0.086406
0.718017 0.703950 0.086406
0.776893 0.724371 0.086406
0.817926 0.745709 0.086406
0.853405 0.765938 0.086406
0.879165 0.783913 0.086406
0.902961 0.802549 0.086406
0.922785 0.821823 0.086407
0.942264 0.837944 0.086423
0.955043 0.851220 0.086437
0.961424 0.867603 0.086449
0.967998 0.884335 0.086461
0.976974 0.901001 0.086476
0.980039 0.910661 0.086491
0.982564 0.920403 0.086506
0.068242 0.537567 0.086406
0.068247 0.538038 0.086406
0.068359 0.539730 0.086406
0.068621 0.542847 0.086406
0.069270 0.547519 0.086406
0.070502 0.553850 0.086406
0.073546 0.561933 0.086406
0.079522 0.571852 0.086406
0.089262 0.582162 0.086406
0.111894 0.593622 0.086406
0.150777 0.606755 0.086406
0.205177 0.621609 0.086406
0.274124 0.636023 0.086406
0.348285 0.649910 0.086406
0.427955 0.665094 0.086406
0.483571 0.681583 0.086406
0.550751 0.699249 0.086406
0.613774 0.716541 0.086406
0.662857 0.734262 0.086406
0.719990 0.753062 0.086406
0.777862 0.769653 0.086406
0.818431 0.785691 0.086406
0.854046 0.802429 0.086406
0.879765 0.819848 0.086406
0.903406 0.835248 0.086406
0.923201 0.847293 0.086411
0.942655 0.861948 0.086426
0.955202 0.877409 0.086440
0.961524 0.893246 0.086452
0.968331 0.905484 0.086463
0.977088 0.914643 0.086479
0.980081 0.923908 0.086494
0.982603 0.932789 0.086509
0.068270 0.624109 0.086406
0.068311 0.624513 0.086406
0.068445 0.625963 0.086406
0.068760 0.628632 0.086406
0.069461 0.631783 0.086406
0.070784 0.635871 0.086406
0.074096 0.641066 0.086406
0.080298 0.647405 0.086406
0.090680 0.654919 0.086406
0.114917 0.663635 0.086406
0.153267 0.673575 0.086406
0.208279 0.684759 0.086406
0.277994 0.697119 0.086406
0.352259 0.709952 0.086406
0.430818 0.722982 0.086406
0.486287 0.737098 0.086406
0.553432 0.752297 0.086406
0.615896 0.766304 0.086406
0.664395 0.779626 0.086406
0.722098 0.793694 0.086406
0.778896 0.808492 0.086406
0.818932 0.824004 0.086406
0.854729 0.836874 0.086406
0.880404 0.847561 0.086406
0.903881 0.860899 0.086406
0.923645 0.875002 0.086414
0.943072 0.889526 0.086430
0.955373 0.902705 0.086442
0.961631 0.911207 0.086454
0.968687 0.919847 0.086466
0.977210 0.928615 0.086481
0.980126 0.936303 0.086497
0.982645 0.943758 0.086511
0.068370 0.690605 0.086406
0.068407 0.690907 0.086406
0.068528 0.691994 0.086406
0.068896 0.693982 0.086406
0.069653 0.696900 0.086406
0.071095 0.700841 0.086406
0.074727 0.705793 0.086406
0.080712 0.711236 0.086406
0.092398 0.717682 0.086406
0.118172 0.725149 0.086406
0.156736 0.733653 0.086406
0.211596 0.743205 0.086406
0.282136 0.753815 0.086406
0.358334 0.763926 0.086406
0.433866 0.773721 0.086406
0.489179 0.784296 0.086406
0.556286 0.795643 0.086406
0.618154 0.807748 0.086406
0.666031 0.820601 0.086406
0.724342 0.832584 0.086406
0.779994 0.842408 0.086406
0.819422 0.852235 0.086406
0.855456 0.864448 0.086406
0.881085 0.877135 0.086406
0.904386 0.890279 0.086406
0.924118 0.902377 0.086418
0.943515 0.910159 0.086433
0.955554 0.918112 0.086445
0.961745 0.926223 0.086456
0.969065 0.933796 0.086469
0.977340 0.940761 0.086484
0.980173 0.947687 0.086499
0.982690 0.952041 0.086516
0.068465 0.751607 0.086406
0.068499 0.751864 0.086406
0.068678 0.752789 0.086406
0.069073 0.754490 0.086406
0.069873 0.757032 0.086406
0.071671 0.760052 0.086406
0.075113 0.763411 0.086406
0.081539 0.767502 0.086406
0.094311 0.772338 0.086406
0.121667 0.777932 0.086406
0.160452 0.784289 0.086406
0.215134 0.791415 0.086406
0.286556 0.799310 0.086406
0.364327 0.807973 0.086406
0.436722 0.817401 0.086406
0.492249 0.827588 0.086406
0.559317 0.835674 0.086406
0.620548 0.843435 0.086406
0.667765 0.851543 0.086406
0.726724 0.861765 0.086406
0.781159 0.872503 0.086406
0.819941 0.883742 0.086406
0.856226 0.895468 0.086406
0.881805 0.904493 0.086406
0.904922 0.911512 0.086407
0.924619 0.918728 0.086422
0.943985 0.926131 0.086436
0.955746 0.933155 0.086448
0.961866 0.939580 0.086459
0.969467 0.946122 0.086472
0.977478 0.950925 0.086488
0.980224 0.954362 0.086502
0.982737 0.957832 0.086524
0.068572 0.800228 0.086406
0.068633 0.800419 0.086406
0.068838 0.801106 0.086406
0.069312 0.802367 0.086406
0.070133 0.804251 0.086406
0.072258 0.806793 0.086406
0.075382 0.810017 0.086406
0.082672 0.813944 0.086406
0.096334 0.818590 0.086406
0.125410 0.823964 0.086406
0.164422 0.829649 0.086406
0.218897 0.834538 0.086406
0.291263 0.839945 0.086406
0.370717 0.845034 0.086406
0.439580 0.851028 0.086406
0.495499 0.858679 0.086406
0.562525 0.866880 0.086406
0.623081 0.875622 0.086406
0.669597 0.884893 0.086406
0.729243 0.894682 0.086406
0.782389 0.902998 0.086406
0.820683 0.908993 0.086406
0.857039 0.915221 0.086406
0.882567 0.921671 0.086406
0.905488 0.928330 0.086411
0.925149 0.934385 0.086426
0.944482 0.940232 0.086439
0.955949 0.946219 0.086450
0.961994 0.950703 0.086462
0.969891 0.953880 0.086476
0.977623 0.957104 0.086491
0.980277 0.960369 0.086506
0.982787 0.963672 0.086531
0.068750 0.842049 0.086406
0.068805 0.842159 0.086406
0.069003 0.842555 0.086406
0.069549 0.843282 0.086406
0.070506 0.844369 0.086406
0.072855 0.845832 0.086406
0.076247 0.847687 0.086406
0.083935 0.850345 0.086406
0.098466 0.853829 0.086406
0.129411 0.857856 0.086406
0.168564 0.862432 0.086406
0.222890 0.867558 0.086406
0.296195 0.873234 0.086406
0.377522 0.879459 0.086406
0.442594 0.886228 0.086406
0.498930 0.893536 0.086406
0.565911 0.900990 0.086406
0.625752 0.905650 0.086406
0.671528 0.910577 0.086406
0.731901 0.915761 0.086406
0.783685 0.921193 0.086406
0.822600 0.926863 0.086406
0.857896 0.932369 0.086406
0.883370 0.937448 0.086406
0.906084 0.942694 0.086416
0.925707 0.947943 0.086430
0.945006 0.951374 0.086442
0.956163 0.954273 0.086453
0.962129 0.957230 0.086465
0.970339 0.960241 0.086480
0.977755 0.963300 0.086494
0.980334 0.966403 0.086509
0.982840 0.969546 0.086539
0.068920 0.877611 0.086406
0.068971 0.877748 0.086406
0.069274 0.878238 0.086406
0.069800 0.879141 0.086406
0.070879 0.880488 0.086406
0.073461 0.882305 0.086406
0.077557 0.884610 0.086406
0.085408 0.887417 0.086406
0.100808 0.890735 0.086406
0.133679 0.894574 0.086406
0.172455 0.898937 0.086406
0.227614 0.902357 0.086406
0.301176 0.905375 0.086406
0.384754 0.908677 0.086406
0.445766 0.912260 0.086406
0.502543 0.916119 0.086406
0.569478 0.920247 0.086406
0.628562 0.924639 0.086406
0.673559 0.929287 0.086406
0.734700 0.933551 0.086406
0.785047 0.937817 0.086406
0.824617 0.942271 0.086406
0.858797 0.946853 0.086406
0.884215 0.950385 0.086406
0.906711 0.952920 0.086420
0.926294 0.955528 0.086434
0.945557 0.958204 0.086445
0.956387 0.960944 0.086457
0.962270 0.963742 0.086469
0.970810 0.966596 0.086483
0.977818 0.969499 0.086498
0.980393 0.972449 0.086512
0.982895 0.974059 0.086547
0.069167 0.908692 0.086406
0.069251 0.908764 0.086406
0.069538 0.909024 0.086406
0.070078 0.909500 0.086406
0.071444 0.910212 0.086406
0.074221 0.911171 0.086406
0.079105 0.912387 0.086406
0.086937 0.913867 0.086406
0.103569 0.915614 0.086406
0.137906 0.917633 0.086406
0.176571 0.919924 0.086406
0.232688 0.922488 0.086406
0.306438 0.925324 0.086406
0.390469 0.928430 0.086406
0.449094 0.931572 0.086406
0.506341 0.934592 0.086406
0.573227 0.937825 0.086406
0.630938 0.941265 0.086406
0.675688 0.944907 0.086406
0.737639 0.948533 0.086406
0.786476 0.950926 0.086406
0.826734 0.953071 0.086406
0.859742 0.955302 0.086406
0.885100 0.957613 0.086411
0.907369 0.960000 0.086425
0.926910 0.962459 0.086438
0.946135 0.964987 0.086449
0.956623 0.967577 0.086460
0.962419 0.970228 0.086473
0.971304 0.972934 0.086487
0.977885 0.974161 0.086502
0.980455 0.976712 0.086520
0.982953 0.978626 0.086555
0.069452 0.929385 0.086406
0.069529 0.929452 0.086406
0.069814 0.929696 0.086406
0.070513 0.930143 0.086406
0.072172 0.930748 0.086406
0.075016 0.931496 0.086406
0.080332 0.932445 0.086406
0.088602 0.933600 0.086406
0.106473 0.934963 0.086406
0.141662 0.936539 0.086406
0.180914 0.938328 0.086406
0.238053 0.940330 0.086406
0.311988 0.942546 0.086406
0.394722 0.944972 0.086406
0.452581 0.947495 0.086406
0.510324 0.949740 0.086406
0.576738 0.951294 0.086406
0.633278 0.952946 0.086406
0.677917 0.954694 0.086406
0.740721 0.956534 0.086406
0.787971 0.958464 0.086406
0.828846 0.960479 0.086406
0.860731 0.962577 0.086406
0.886027 0.964753 0.086416
