ektachrome100d/Ektachrome100D_Classic_ExtraPunchy.cube
TITLE "Kodak Ektachrome 100D Classic ExtraPunchy"
# Adobe RGB in/out. REPLACES AgX. Kodak Ektachrome 100D Classic ExtraPunchy.
LUT_3D_SIZE 33
DOMAIN_MIN 0.0 0.0 0.0
DOMAIN_MAX 1.0 1.0 1.0
0.069243 0.072709 0.079439
0.069243 0.072709 0.079439
0.069243 0.072709 0.079439
0.069243 0.072709 0.079439
0.069277 0.072709 0.079439
0.069652 0.072709 0.079439
0.071206 0.072709 0.079439
0.073787 0.072709 0.079439
0.079089 0.072749 0.079439
0.090401 0.072847 0.079439
0.119149 0.072990 0.079439
0.159302 0.073364 0.079439
0.209992 0.073858 0.079439
0.284386 0.074535 0.079439
0.361129 0.076121 0.079439
0.467581 0.078673 0.079439
0.552385 0.081823 0.079439
0.619465 0.085399 0.079439
0.685095 0.091895 0.079439
0.754929 0.104225 0.079439
0.801146 0.120596 0.079439
0.848119 0.147573 0.079413
0.872358 0.176083 0.079368
0.896167 0.220089 0.079324
0.916511 0.273499 0.079266
0.931289 0.323390 0.079196
0.943864 0.389962 0.079129
0.951071 0.456484 0.079047
0.955661 0.528488 0.078891
0.960111 0.584395 0.078790
0.964430 0.638356 0.078703
0.968626 0.682732 0.078607
0.972706 0.734918 0.078513
0.069243 0.072709 0.079439
0.069243 0.072709 0.079439
0.069243 0.072709 0.079439
0.069243 0.072709 0.079439
0.069278 0.072709 0.079439
0.069654 0.072709 0.079439
0.071209 0.072709 0.079439
0.073792 0.072709 0.079439
0.079097 0.072759 0.079439
0.090418 0.072860 0.079439
0.119183 0.073007 0.079439
0.159333 0.073391 0.079439
0.210044 0.073903 0.079439
0.284433 0.074573 0.079439
0.361193 0.076250 0.079439
0.467628 0.078857 0.079439
0.552452 0.081958 0.079439
0.619495 0.085575 0.079439
0.685127 0.092218 0.079439
0.754960 0.104721 0.079439
0.801160 0.121338 0.079439
0.848128 0.148607 0.079413
0.872367 0.177208 0.079367
0.896175 0.221237 0.079324
0.916516 0.275705 0.079265
0.931294 0.324695 0.079196
0.943867 0.391829 0.079129
0.951072 0.458131 0.079047
0.955662 0.530247 0.078890
0.960112 0.585569 0.078790
0.964431 0.639284 0.078703
0.968627 0.683656 0.078606
0.972707 0.736027 0.078513
0.069243 0.072709 0.079439
0.069243 0.072709 0.079439
0.069243 0.072709 0.079439
0.069243 0.072709 0.079439
0.069280 0.072709 0.079439
0.069660 0.072709 0.079439
0.071220 0.072709 0.079439
0.073809 0.072721 0.079439
0.079128 0.072791 0.079439
0.090481 0.072904 0.079439
0.119304 0.073118 0.079439
0.159443 0.073483 0.079439
0.210231 0.074059 0.079439
0.284603 0.074778 0.079439
0.361423 0.076706 0.079439
0.467796 0.079471 0.079439
0.552693 0.082447 0.079439
0.619603 0.086206 0.079439
0.685240 0.093599 0.079439
0.755071 0.106485 0.079439
0.801211 0.124018 0.079439
0.848162 0.152350 0.079412
0.872398 0.181279 0.079367
0.896204 0.225382 0.079323
0.916533 0.282320 0.079265
0.931310 0.329402 0.079195
0.943877 0.398574 0.079128
0.951077 0.464068 0.079046
0.955667 0.536590 0.078888
0.960116 0.589789 0.078790
0.964435 0.642620 0.078702
0.968630 0.686975 0.078606
0.972710 0.740012 0.078512
0.069243 0.072709 0.079439
0.069243 0.072709 0.079439
0.069243 0.072709 0.079439
0.069243 0.072709 0.079439
0.069285 0.072709 0.079439
0.069671 0.072709 0.079439
0.071240 0.072718 0.079439
0.073840 0.072771 0.079439
0.079185 0.072858 0.079439
0.090596 0.072979 0.079439
0.119528 0.073307 0.079439
0.159646 0.073690 0.079439
0.210574 0.074332 0.079439
0.284917 0.075394 0.079439
0.361846 0.077518 0.079439
0.468105 0.080426 0.079439
0.553135 0.083504 0.079439
0.619801 0.087907 0.079439
0.685449 0.096724 0.079439
0.755275 0.109824 0.079439
0.801303 0.129074 0.079439
0.848224 0.158178 0.079411
0.872456 0.189600 0.079366
0.896258 0.233101 0.079322
0.916566 0.290696 0.079263
0.931340 0.340656 0.079193
0.943896 0.409490 0.079127
0.951086 0.475083 0.079045
0.955675 0.545191 0.078885
0.960124 0.597566 0.078788
0.964442 0.648753 0.078700
0.968637 0.693079 0.078604
0.972716 0.745855 0.078511
0.069243 0.072709 0.079439
0.069243 0.072709 0.079439
0.069243 0.072709 0.079439
0.069243 0.072709 0.079439
0.069293 0.072715 0.079439
0.069688 0.072735 0.079439
0.071270 0.072792 0.079439
0.073886 0.072871 0.079439
0.079271 0.072973 0.079439
0.090768 0.073253 0.079439
0.119862 0.073579 0.079439
0.159950 0.074128 0.079439
0.211088 0.074782 0.079439
0.285386 0.076513 0.079439
0.362480 0.078941 0.079439
0.468567 0.081798 0.079439
0.553797 0.085071 0.079439
0.620097 0.090857 0.079439
0.685761 0.101412 0.079439
0.755580 0.115504 0.079439
0.801442 0.138780 0.079439
0.848317 0.165976 0.079409
0.872542 0.204751 0.079364
0.896338 0.245741 0.079321
0.916614 0.303133 0.079261
0.931385 0.357996 0.079191
0.943924 0.425107 0.079125
0.951099 0.491778 0.079042
0.955687 0.557424 0.078880
0.960135 0.609230 0.078786
0.964453 0.657920 0.078698
0.968647 0.702203 0.078602
0.972725 0.754384 0.078509
0.069243 0.072744 0.079439
0.069243 0.072747 0.079439
0.069243 0.072760 0.079439
0.069243 0.072782 0.079439
0.069302 0.072812 0.079439
0.069710 0.072867 0.079439
0.071311 0.072940 0.079439
0.073948 0.073080 0.079439
0.079385 0.073336 0.079439
0.091000 0.073627 0.079439
0.120314 0.074129 0.079439
0.160360 0.074686 0.079439
0.211784 0.076120 0.079439
0.286020 0.078151 0.079439
0.363337 0.080934 0.079439
0.469192 0.083815 0.079439
0.554692 0.088003 0.079439
0.620498 0.096082 0.079439
0.686182 0.108248 0.079439
0.755992 0.125402 0.079439
0.801630 0.152468 0.079439
0.848442 0.179419 0.079407
0.872658 0.221457 0.079362
0.896447 0.272205 0.079319
0.916679 0.320286 0.079258
0.931446 0.382187 0.079188
0.943962 0.446630 0.079122
0.951117 0.514754 0.079039
0.955703 0.573019 0.078874
0.960151 0.625049 0.078784
0.964467 0.670293 0.078694
0.968660 0.717491 0.078599
0.972738 0.765885 0.078506
0.069243 0.072922 0.079439
0.069243 0.072926 0.079439
0.069243 0.072941 0.079439
0.069243 0.072967 0.079439
0.069314 0.073034 0.079439
0.069738 0.073180 0.079439
0.071362 0.073352 0.079439
0.074027 0.073556 0.079439
0.079530 0.073905 0.079439
0.091295 0.074340 0.079439
0.120890 0.074961 0.079439
0.160882 0.076392 0.079439
0.212670 0.078234 0.079439
0.286827 0.080790 0.079439
0.364429 0.083399 0.079439
0.469982 0.086755 0.079439
0.555831 0.093276 0.079439
0.621006 0.104494 0.079439
0.686718 0.118474 0.079439
0.756517 0.141129 0.079439
0.801868 0.166459 0.079439
0.848602 0.202966 0.079404
0.872807 0.241962 0.079359
0.896585 0.297212 0.079316
0.916762 0.346576 0.079254
0.931523 0.411993 0.079185
0.944011 0.474701 0.079119
0.951139 0.542568 0.079035
0.955724 0.592954 0.078865
0.960170 0.643388 0.078780
0.964485 0.686006 0.078690
0.968677 0.736752 0.078595
0.972754 0.780476 0.078502
0.069243 0.073409 0.079439
0.069243 0.073418 0.079439
0.069243 0.073451 0.079439
0.069243 0.073514 0.079439
0.069329 0.073627 0.079439
0.069772 0.073825 0.079439
0.071423 0.074094 0.079439
0.074122 0.074399 0.079439
0.079707 0.074828 0.079439
0.091655 0.075824 0.079439
0.121595 0.077317 0.079439
0.161521 0.079267 0.079439
0.213755 0.081390 0.079439
0.287815 0.083829 0.079439
0.365764 0.087052 0.079439
0.470725 0.093088 0.079439
0.557223 0.103252 0.079439
0.621628 0.115657 0.079439
0.687373 0.135599 0.079439
0.757158 0.160721 0.079439
0.802159 0.189244 0.079439
0.848796 0.228705 0.079400
0.872987 0.281363 0.079356
0.896753 0.323820 0.079313
0.916864 0.383882 0.079249
0.931617 0.445179 0.079180
0.944070 0.510045 0.079115
0.951167 0.567696 0.079030
0.955750 0.617457 0.078855
0.960194 0.662637 0.078776
0.964507 0.705253 0.078685
0.968698 0.755525 0.078590
0.972773 0.798245 0.078495
0.069243 0.074342 0.079439
0.069243 0.074356 0.079439
0.069243 0.074407 0.079439
0.069244 0.074500 0.079439
0.069345 0.074654 0.079439
0.069840 0.075028 0.079439
0.071506 0.075625 0.079439
0.074283 0.076517 0.079439
0.079916 0.077615 0.079439
0.092082 0.079172 0.079439
0.122433 0.080896 0.079439
0.162279 0.082772 0.079439
0.215046 0.085141 0.079439
0.288988 0.089042 0.079439
0.367353 0.095401 0.079439
0.471607 0.105085 0.079439
0.558879 0.116912 0.079439
0.622366 0.135639 0.079439
0.688150 0.159421 0.079439
0.757918 0.184718 0.079439
0.802504 0.222791 0.079439
0.849027 0.267076 0.079396
0.873202 0.312664 0.079352
0.896953 0.364942 0.079310
0.916984 0.425553 0.079243
0.931729 0.486085 0.079175
0.944141 0.548840 0.079109
0.951199 0.596601 0.079022
0.955780 0.644545 0.078846
0.960222 0.685435 0.078771
0.964533 0.733985 0.078679
0.968722 0.776716 0.078584
0.972796 0.819262 0.078486
0.069243 0.076836 0.079439
0.069243 0.076881 0.079439
0.069243 0.077042 0.079439
0.069245 0.077334 0.079439
0.069364 0.077764 0.079439
0.069926 0.078396 0.079439
0.071618 0.079470 0.079439
0.074512 0.080552 0.079439
0.080157 0.081786 0.079439
0.093345 0.083327 0.079439
0.123527 0.085217 0.079439
0.163161 0.088241 0.079439
0.216551 0.092792 0.079439
0.290353 0.100428 0.079439
0.369202 0.109585 0.079439
0.472631 0.122353 0.079439
0.560804 0.141339 0.079439
0.623222 0.162593 0.079439
0.689053 0.187704 0.079439
0.758802 0.223507 0.079439
0.802905 0.264680 0.079436
0.849295 0.308998 0.079391
0.873451 0.356687 0.079347
0.897185 0.415404 0.079306
0.917124 0.472296 0.079236
0.931859 0.535654 0.079169
0.944222 0.582693 0.079101
0.951237 0.630473 0.079007
0.955815 0.671082 0.078840
0.960254 0.714003 0.078766
0.964564 0.760159 0.078672
0.968751 0.801228 0.078578
0.972823 0.837784 0.078477
0.069243 0.081474 0.079439
0.069243 0.081523 0.079439
0.069243 0.081701 0.079439
0.069246 0.082024 0.079439
0.069384 0.082523 0.079439
0.070022 0.083297 0.079439
0.071748 0.084261 0.079439
0.074772 0.085507 0.079439
0.080431 0.087400 0.079439
0.094780 0.090496 0.079439
0.125127 0.094780 0.079439
0.164169 0.101098 0.079439
0.218276 0.108686 0.079439
0.291915 0.118690 0.079439
0.371320 0.133197 0.079439
0.473801 0.153134 0.079439
0.562610 0.170644 0.079439
0.624201 0.200010 0.079439
0.690085 0.230975 0.079439
0.759811 0.274939 0.079439
0.803363 0.312813 0.079430
0.849601 0.358867 0.079385
0.873735 0.414556 0.079342
0.897450 0.468429 0.079298
0.917284 0.528399 0.079229
0.932008 0.575751 0.079162
0.944316 0.621278 0.079093
0.951280 0.662207 0.078990
0.955855 0.701311 0.078833
0.960292 0.748694 0.078760
0.964598 0.788248 0.078664
0.968783 0.827464 0.078570
0.972853 0.854618 0.078466
0.069243 0.087968 0.079439
0.069243 0.088077 0.079439
0.069243 0.088467 0.079439
0.069248 0.089182 0.079439
0.069417 0.090246 0.079439
0.070127 0.091675 0.079439
0.071902 0.093978 0.079439
0.075062 0.097527 0.079439
0.080738 0.101753 0.079439
0.095435 0.107107 0.079439
0.126944 0.113180 0.079439
0.165307 0.122832 0.079439
0.220228 0.135588 0.079439
0.293680 0.152325 0.079439
0.373715 0.167173 0.079439
0.475120 0.188905 0.079439
0.564375 0.218660 0.079439
0.625303 0.246512 0.079439
0.691247 0.290750 0.079439
0.760948 0.324318 0.079439
0.803879 0.371715 0.079423
0.849946 0.423097 0.079379
0.874056 0.474496 0.079337
0.897749 0.531662 0.079289
0.917464 0.575819 0.079221
0.932175 0.619201 0.079155
0.944421 0.658893 0.079083
0.951329 0.696315 0.078971
0.955900 0.742420 0.078825
0.960334 0.780426 0.078751
0.964638 0.819738 0.078655
0.968820 0.848018 0.078562
0.972887 0.873260 0.078453
0.069243 0.105037 0.079439
0.069243 0.105214 0.079439
0.069243 0.105852 0.079439
0.069249 0.107026 0.079439
0.069465 0.108824 0.079439
0.070243 0.111321 0.079439
0.072069 0.114885 0.079439
0.075344 0.120395 0.079439
0.081076 0.127062 0.079439
0.096236 0.136687 0.079439
0.128985 0.148679 0.079439
0.166712 0.160690 0.079439
0.222414 0.173602 0.079439
0.295651 0.194146 0.079439
0.376394 0.218927 0.079439
0.476590 0.242530 0.079439
0.566343 0.282688 0.079439
0.626532 0.311679 0.079439
0.692543 0.348232 0.079439
0.762217 0.395973 0.079439
0.804453 0.441391 0.079415
0.850330 0.490779 0.079372
0.874412 0.543270 0.079330
0.898081 0.582974 0.079279
0.917664 0.624311 0.079211
0.932361 0.661209 0.079146
0.944538 0.696939 0.079073
0.951383 0.741415 0.078950
0.955951 0.777841 0.078817
0.960381 0.815584 0.078741
0.964681 0.844542 0.078645
0.968861 0.868922 0.078553
0.972926 0.888907 0.078436
0.069243 0.136799 0.079439
0.069243 0.137158 0.079439
0.069243 0.138452 0.079439
0.069260 0.140848 0.079439
0.069515 0.144472 0.079439
0.070406 0.149444 0.079439
0.072251 0.155641 0.079439
0.075628 0.161516 0.079439
0.082205 0.168584 0.079439
0.097119 0.179716 0.079439
0.131260 0.195405 0.079439
0.168299 0.214532 0.079439
0.224841 0.231682 0.079439
0.297835 0.255003 0.079439
0.379365 0.288474 0.079439
0.478215 0.313311 0.079439
0.567994 0.344630 0.079439
0.627890 0.385830 0.079439
0.693974 0.427167 0.079439
0.763617 0.470087 0.079439
0.805087 0.517845 0.079407
0.850754 0.560426 0.079365
0.874806 0.597329 0.079323
0.898448 0.636705 0.079268
0.917885 0.669206 0.079201
0.932566 0.703236 0.079137
0.944667 0.745736 0.079061
0.951443 0.780554 0.078926
0.956006 0.816701 0.078808
0.960432 0.844258 0.078729
0.964730 0.867700 0.078634
0.968906 0.887412 0.078543
0.972968 0.903197 0.078414
0.069243 0.184870 0.079439
0.069243 0.185287 0.079439
0.069245 0.186898 0.079439
0.069297 0.190461 0.079439
0.069568 0.195869 0.079439
0.070582 0.203327 0.079439
0.072446 0.212206 0.079439
0.075964 0.220740 0.079439
0.082992 0.231074 0.079439
0.098551 0.244095 0.079439
0.133777 0.266120 0.079439
0.170043 0.289137 0.079439
0.227516 0.307886 0.079439
0.300236 0.329180 0.079439
0.382635 0.360418 0.079439
0.479996 0.396407 0.079439
0.569573 0.430899 0.079439
0.629377 0.468357 0.079439
0.695543 0.510123 0.079439
0.765153 0.551003 0.079439
0.805781 0.583958 0.079398
0.851218 0.619031 0.079356
0.875238 0.652131 0.079316
0.898851 0.682919 0.079256
0.918127 0.718448 0.079191
0.932792 0.755415 0.079127
0.944809 0.788605 0.079049
0.951509 0.823045 0.078901
0.956067 0.847196 0.078798
0.960489 0.869633 0.078716
0.964782 0.888093 0.078623
0.968955 0.903220 0.078532
0.973014 0.917200 0.078391
0.069243 0.259998 0.079439
0.069243 0.260768 0.079439
0.069247 0.263543 0.079439
0.069335 0.268703 0.079439
0.069622 0.276549 0.079439
0.070767 0.284501 0.079439
0.072652 0.292132 0.079439
0.076323 0.301570 0.079439
0.083636 0.312939 0.079439
0.100128 0.326370 0.079439
0.136541 0.345704 0.079439
0.171948 0.369393 0.079439
0.230447 0.396839 0.079439
0.302858 0.423544 0.079439
0.386212 0.452647 0.079439
0.481935 0.485350 0.079439
0.571292 0.521941 0.079439
0.630996 0.555219 0.079439
0.697252 0.583974 0.079439
0.766825 0.614967 0.079431
0.806579 0.645720 0.079389
0.851724 0.673280 0.079348
0.875707 0.702371 0.079308
0.899288 0.740177 0.079244
0.918391 0.770466 0.079179
0.933037 0.802013 0.079116
0.944963 0.831763 0.079036
0.951580 0.853354 0.078874
0.956134 0.874729 0.078787
0.960551 0.890960 0.078703
0.964840 0.905138 0.078610
0.969009 0.918349 0.078520
0.973065 0.927032 0.078365
0.069244 0.348616 0.079439
0.069245 0.349250 0.079439
0.069250 0.351531 0.079439
0.069374 0.355750 0.079439
0.069709 0.362113 0.079439
0.070961 0.370811 0.079439
0.072871 0.382038 0.079439
0.076706 0.396006 0.079439
0.084328 0.410955 0.079439
0.101843 0.427337 0.079439
0.138315 0.446411 0.079439
0.174016 0.468369 0.079439
0.233640 0.493421 0.079439
0.305706 0.521794 0.079439
0.390103 0.549011 0.079439
0.484036 0.572312 0.079439
0.573152 0.597279 0.079439
0.632749 0.624382 0.079439
0.699101 0.649929 0.079439
0.768636 0.674290 0.079420
0.809489 0.700168 0.079379
0.852270 0.733632 0.079339
0.876215 0.762344 0.079296
0.899762 0.790882 0.079230
0.918676 0.820779 0.079167
0.933302 0.842951 0.079102
0.945130 0.862698 0.079016
0.951657 0.881369 0.078847
0.956205 0.895712 0.078775
0.960617 0.908942 0.078688
0.964902 0.921108 0.078596
0.969067 0.929576 0.078507
0.973119 0.942957 0.078337
0.069247 0.456639 0.079439
0.069248 0.457234 0.079439
0.069278 0.459374 0.079439
0.069428 0.463323 0.079439
0.069842 0.469260 0.079439
0.071161 0.477337 0.079439
0.073161 0.487700 0.079439
0.077112 0.500498 0.079439
0.085067 0.515886 0.079439
0.103697 0.534030 0.079439
0.140229 0.549984 0.079439
0.176253 0.565841 0.079439
0.237103 0.583246 0.079439
0.308785 0.602580 0.079439
0.394316 0.623900 0.079439
0.486298 0.644943 0.079439
0.575155 0.664663 0.079439
0.634636 0.685871 0.079439
0.701094 0.709710 0.079439
0.770587 0.739924 0.079408
0.812629 0.764231 0.079368
0.852858 0.789753 0.079329
0.876761 0.816638 0.079280
0.900272 0.838584 0.079216
0.918983 0.856585 0.079154
0.933555 0.875161 0.079086
0.945309 0.889356 0.078983
0.951740 0.902089 0.078834
0.956282 0.914334 0.078763
0.960689 0.923138 0.078672
0.964969 0.933906 0.078582
0.969130 0.945250 0.078488
0.973178 0.953449 0.078308
0.069249 0.562981 0.079439
0.069253 0.563403 0.079439
0.069327 0.564918 0.079439
0.069505 0.567708 0.079439
0.070043 0.571885 0.079439
0.071369 0.577537 0.079439
0.073493 0.584739 0.079439
0.077539 0.593557 0.079439
0.085852 0.604054 0.079439
0.105693 0.616286 0.079439
0.142288 0.630313 0.079439
0.178660 0.644108 0.079439
0.240845 0.657900 0.079439
0.312100 0.673119 0.079439
0.398861 0.689780 0.079439
0.488725 0.708823 0.079439
0.577303 0.733531 0.079439
0.636659 0.754890 0.079439
0.703231 0.776050 0.079437
0.772305 0.798570 0.079396
0.816002 0.822451 0.079357
0.853487 0.840303 0.079319
0.877347 0.856469 0.079264
0.900818 0.873259 0.079201
0.919312 0.886792 0.079140
0.933819 0.898767 0.079068
0.945502 0.910290 0.078948
0.951830 0.920860 0.078820
0.956365 0.927730 0.078748
0.960766 0.939986 0.078656
0.965041 0.948603 0.078566
0.969197 0.956394 0.078465
0.973241 0.963988 0.078276
0.069277 0.646187 0.079439
0.069300 0.646522 0.079439
0.069374 0.647727 0.079439
0.069582 0.649943 0.079439
0.070249 0.653258 0.079439
0.071622 0.657734 0.079439
0.073838 0.663425 0.079439
0.078138 0.670372 0.079439
0.086682 0.678612 0.079439
0.107835 0.688177 0.079439
0.144493 0.699096 0.079439
0.181811 0.713394 0.079439
0.244873 0.730638 0.079439
0.315655 0.747040 0.079439
0.403744 0.762573 0.079439
0.491318 0.779442 0.079439
0.579596 0.797653 0.079439
0.638819 0.817211 0.079439
0.705513 0.834135 0.079423
0.773888 0.848036 0.079384
0.819612 0.862317 0.079345
0.854159 0.877260 0.079308
0.877972 0.888338 0.079247
0.901400 0.899034 0.079185
0.919663 0.909488 0.079125
0.934102 0.919261 0.079050
0.945707 0.924907 0.078912
0.951925 0.936215 0.078805
0.956453 0.945710 0.078729
0.960849 0.952981 0.078638
0.965118 0.960346 0.078550
0.969269 0.966987 0.078438
0.973308 0.970362 0.078243
0.069333 0.721828 0.079439
0.069353 0.722265 0.079439
0.069446 0.723737 0.079439
0.069672 0.726382 0.079439
0.070526 0.730342 0.079439
0.071938 0.735695 0.079439
0.074213 0.742090 0.079439
0.078818 0.748569 0.079439
0.087705 0.756250 0.079439
0.110125 0.765160 0.079439
0.146847 0.775321 0.079439
0.185235 0.786753 0.079439
0.249197 0.799474 0.079439
0.319455 0.813496 0.079439
0.408974 0.827267 0.079439
0.499561 0.838954 0.079439
0.582035 0.849918 0.079439
0.641118 0.861600 0.079439
0.707942 0.873984 0.079409
0.775571 0.884258 0.079371
0.822606 0.893877 0.079333
0.854872 0.902866 0.079291
0.878636 0.912196 0.079229
0.902020 0.920678 0.079169
0.920036 0.925479 0.079109
0.934402 0.935770 0.079031
0.945926 0.944828 0.078873
0.952026 0.951522 0.078789
0.956547 0.958338 0.078710
0.960936 0.964848 0.078620
0.965199 0.969309 0.078533
0.969345 0.971786 0.078400
0.973380 0.974280 0.078208
0.069386 0.796825 0.079439
0.069412 0.797134 0.079439
0.069537 0.798243 0.079439
0.069832 0.800284 0.079439
0.070807 0.803336 0.079439
0.072269 0.807457 0.079439
0.074869 0.812693 0.079439
0.079527 0.819084 0.079439
0.089150 0.825659 0.079439
0.112567 0.832164 0.079439
0.149351 0.838947 0.079439
0.188897 0.845835 0.079439
0.253824 0.853459 0.079439
0.323506 0.861817 0.079439
0.414561 0.870902 0.079439
0.509194 0.879773 0.079439
0.584622 0.887198 0.079439
0.643555 0.894905 0.079431
0.710520 0.902336 0.079394
0.777355 0.910150 0.079357
0.824099 0.917599 0.079321
0.855629 0.922978 0.079271
0.879339 0.929415 0.079211
0.902677 0.938642 0.079152
0.920432 0.945967 0.079087
0.934720 0.952040 0.078995
0.946157 0.958261 0.078841
0.952133 0.964300 0.078773
0.956647 0.968893 0.078689
0.961029 0.971192 0.078601
0.965286 0.973517 0.078515
0.969426 0.975866 0.078361
0.973455 0.978010 0.078172
0.069478 0.854345 0.079439
0.069512 0.854530 0.079439
0.069625 0.855192 0.079439
0.070088 0.856409 0.079439
0.071089 0.858227 0.079439
0.072606 0.860678 0.079439
0.075476 0.863787 0.079439
0.080264 0.867572 0.079439
0.090670 0.872047 0.079439
0.115447 0.877222 0.079439
0.152006 0.881466 0.079439
0.192804 0.886118 0.079439
0.258764 0.891259 0.079439
0.327812 0.896505 0.079439
0.420512 0.901942 0.079439
0.512498 0.907794 0.079439
0.587358 0.913852 0.079439
0.646133 0.919673 0.079415
0.713246 0.923289 0.079379
0.779241 0.928819 0.079343
0.825678 0.936612 0.079308
0.856427 0.943845 0.079251
0.880083 0.949090 0.079192
0.903371 0.954514 0.079134
0.920849 0.960107 0.079065
0.935056 0.965350 0.078950
0.946402 0.969123 0.078823
0.952246 0.971226 0.078756
0.956752 0.973365 0.078668
0.961127 0.975537 0.078581
0.965377 0.977615 0.078492
0.969512 0.979386 0.078321
0.973536 0.981174 0.078134
0.069576 0.893517 0.079439
0.069607 0.893627 0.079439
0.069768 0.894023 0.079439
0.070375 0.894752 0.079439
0.071371 0.895839 0.079439
0.072947 0.897304 0.079439
0.076084 0.899161 0.079439
0.081027 0.901419 0.079439
0.092531 0.904086 0.079439
0.118539 0.907165 0.079439
0.154817 0.910658 0.079439
0.196962 0.914304 0.079439
0.264027 0.918085 0.079439
0.332378 0.921814 0.079439
0.426839 0.923651 0.079439
0.514340 0.927950 0.079439
0.590243 0.933890 0.079434
0.649022 0.940212 0.079399
0.716123 0.945180 0.079364
0.781173 0.949544 0.079329
0.827342 0.954112 0.079288
0.857269 0.958875 0.079230
0.880866 0.963629 0.079172
0.904102 0.967964 0.079116
0.921290 0.969989 0.079042
0.935411 0.971884 0.078903
0.946660 0.973824 0.078805
0.952366 0.975806 0.078733
0.956863 0.977684 0.078645
0.961230 0.979316 0.078560
0.965474 0.980973 0.078461
0.969602 0.982651 0.078278
0.973620 0.984347 0.078094
0.069696 0.920995 0.079439
0.069746 0.921085 0.079439
0.070047 0.921411 0.079439
0.070714 0.921728 0.079439
0.071720 0.922094 0.079439
0.073426 0.922588 0.079439
0.076718 0.923213 0.079439
0.082939 0.923972 0.079439
0.095617 0.925825 0.079439
0.121820 0.928737 0.079439
0.157785 0.932043 0.079439
0.201380 0.935744 0.079439
0.269622 0.939838 0.079439
0.337209 0.943579 0.079439
0.433549 0.946597 0.079439
0.516274 0.949845 0.079439
0.593278 0.953317 0.079416
0.653087 0.957008 0.079382
0.719151 0.960910 0.079348
0.782587 0.964638 0.079315
0.829091 0.968272 0.079265
0.858153 0.969840 0.079208
0.881689 0.971466 0.079152
0.904871 0.973148 0.079092
0.921752 0.974881 0.079011
0.935783 0.976662 0.078855
0.946931 0.978212 0.078785
0.952491 0.979697 0.078708
0.956980 0.981212 0.078622
0.961339 0.982755 0.078538
0.965575 0.984322 0.078420
0.969697 0.985503 0.078234
0.973709 0.986189 0.078052
0.069932 0.943592 0.079439
0.070022 0.943653 0.079439
0.070359 0.943871 0.079439
0.071048 0.944273 0.079439
0.072139 0.944872 0.079439
0.073909 0.945680 0.079439
0.077366 0.946704 0.079439
0.084144 0.947950 0.079439
0.097820 0.949421 0.079439
0.126236 0.951119 0.079439
0.160914 0.953046 0.079439
0.206064 0.955201 0.079439
0.274426 0.957583 0.079439
0.341916 0.960191 0.079439
0.440654 0.962949 0.079439
0.518299 0.965527 0.079430
0.596443 0.968275 0.079397
0.656356 0.969486 0.079365
0.722331 0.970766 0.079332
0.784068 0.972110 0.079297
0.830926 0.973517 0.079241
0.859079 0.974984 0.079186
0.882552 0.976508 0.079132
0.905677 0.977891 0.079066
0.922238 0.979186 0.078958
0.936174 0.980518 0.078830
0.947215 0.981885 0.078765
0.952623 0.983285 0.078683
0.957102 0.984715 0.078599
0.961453 0.985615 0.078516
0.965682 0.986246 0.078372
0.969796 0.986874 0.078189
0.973803 0.987659 0.078058
0.070238 0.960992 0.079439
0.070346 0.961049 0.079439
0.070733 0.961253 0.079439
0.071377 0.961628 0.079439
0.072556 0.962189 0.079439
0.074572 0.962884 0.079439
0.078195 0.963694 0.079439
0.085388 0.964680 0.079439
0.100925 0.965844 0.079439
0.131559 0.967189 0.079439
0.164206 0.968452 0.079439
0.211482 0.969157 0.079439
0.279452 0.969936 0.079439
0.346707 0.970788 0.079439
0.448164 0.971712 0.079439
0.520415 0.972706 0.079410
0.599684 0.973769 0.079379
0.659762 0.974899 0.079348
0.725664 0.976093 0.079316
0.785618 0.977306 0.079271
0.832847 0.978353 0.079217
0.860049 0.979446 0.079163
0.883456 0.980582 0.079110
