ektachrome100d/Ektachrome100D_Classic_ExtraSoft.cube
TITLE "Kodak Ektachrome 100D Classic ExtraSoft"
# Adobe RGB in/out. REPLACES AgX. Kodak Ektachrome 100D Classic ExtraSoft.
LUT_3D_SIZE 5
DOMAIN_MIN 0.0 0.0 0.0
DOMAIN_MAX 1.0 1.0 1.0
0.068222 0.081187 0.086406
0.080876 0.081192 0.086406
0.529495 0.084489 0.086406
0.900374 0.273081 0.086406
0.982270 0.700270 0.086488
0.068222 0.081454 0.086406
0.082136 0.082528 0.086406
0.533070 0.110909 0.086406
0.900881 0.429691 0.086406
0.982326 0.767616 0.086492
0.068222 0.364759 0.086406
0.087171 0.410550 0.086406
0.545904 0.575813 0.086406
0.902546 0.768585 0.086406
0.982527 0.907939 0.086504
0.068920 0.877611 0.086406
0.100808 0.890735 0.086406
0.569478 0.920247 0.086406
0.906711 0.952920 0.086420
0.982895 0.974059 0.086547
0.072825 0.981287 0.086406
0.137012 0.981956 0.086406
0.599502 0.984272 0.086406
0.912834 0.988220 0.086456
0.983439 0.991277 0.086636
0.068222 0.081187 0.086607
0.080876 0.081193 0.086650
0.529495 0.084752 0.086819
0.900374 0.276165 0.087607
0.982270 0.702162 0.091569
0.068222 0.081489 0.086618
0.082136 0.082663 0.086665
0.533070 0.112206 0.086844
0.900881 0.434580 0.087658
0.982326 0.768877 0.091879
0.068222 0.367558 0.086674
0.087171 0.415312 0.086719
0.545904 0.578375 0.086932
0.902546 0.769845 0.087835
0.982527 0.908404 0.093099
0.068920 0.878488 0.086770
0.100808 0.891597 0.086828
0.569478 0.920694 0.087151
0.906711 0.953086 0.088475
0.982895 0.974115 0.095457
0.072825 0.981332 0.087040
0.137012 0.982000 0.087102
0.599502 0.984314 0.087665
0.912834 0.988258 0.089873
0.983439 0.991293 0.098909
0.068222 0.081187 0.604563
0.080876 0.081197 0.610799
0.529495 0.086121 0.626918
0.900374 0.289326 0.650798
0.982270 0.708558 0.687735
0.068222 0.081678 0.606628
0.082136 0.083133 0.612869
0.533070 0.116894 0.628304
0.900881 0.447529 0.651854
0.982326 0.773396 0.689110
0.068222 0.377670 0.614061
0.087171 0.432680 0.618255
0.545904 0.587590 0.633277
0.902546 0.774360 0.655642
0.982527 0.910066 0.694046
0.068920 0.881628 0.623242
0.100808 0.894686 0.627424
0.569478 0.922295 0.641532
0.906711 0.953680 0.662583
0.982895 0.974317 0.703025
0.072825 0.981492 0.636933
0.137012 0.982157 0.640521
0.599502 0.984462 0.652012
0.912834 0.988393 0.675705
0.983439 0.991351 0.716199
0.068222 0.081188 0.955087
0.080876 0.081206 0.955405
0.529495 0.088768 0.956491
0.900374 0.318855 0.957915
0.982270 0.719653 0.959994
0.068222 0.082224 0.955193
0.082136 0.084153 0.955510
0.533070 0.127617 0.956563
0.900881 0.464963 0.957985
0.982326 0.781664 0.960062
0.068222 0.396526 0.955570
0.087171 0.454448 0.955887
0.545904 0.604598 0.956821
0.902546 0.782621 0.958239
0.982527 0.913103 0.960309
0.068920 0.887374 0.956262
0.100808 0.900337 0.956517
0.569478 0.925220 0.957294
0.906711 0.954766 0.958702
0.982895 0.974958 0.960760
0.072825 0.981785 0.957011
0.137012 0.982445 0.957226
0.599502 0.984735 0.957996
0.912834 0.988641 0.959391
0.983439 0.991457 0.961429
0.068222 0.081199 0.989694
0.080876 0.081342 0.989722
0.529495 0.095273 0.989822
0.900374 0.360321 0.990005
0.982270 0.736154 0.990274
0.068222 0.083349 0.989703
0.082136 0.087734 0.989731
0.533070 0.150412 0.989831
0.900881 0.490595 0.990014
0.982326 0.793920 0.990283
0.068222 0.438872 0.989737
0.087171 0.480600 0.989765
0.545904 0.629916 0.989864
0.902546 0.794867 0.990047
0.982527 0.917594 0.990315
0.068920 0.895891 0.989798
0.100808 0.905079 0.989826
0.569478 0.929547 0.989925
0.906711 0.956371 0.990107
0.982895 0.976498 0.990374
0.072825 0.982219 0.989889
0.137012 0.982873 0.989916
0.599502 0.985139 0.990015
0.912834 0.989009 0.990196
0.983439 0.991614 0.990462
