ektachrome100d/Ektachrome100D_Modern_Normal.cube
TITLE "Kodak Ektachrome 100D Modern Normal"
# Adobe RGB in/out. REPLACES AgX. Kodak Ektachrome 100D Modern Normal.
LUT_3D_SIZE 9
DOMAIN_MIN 0.0 0.0 0.0
DOMAIN_MAX 1.0 1.0 1.0
0.073574 0.072697 0.087608
0.078742 0.072697 0.087608
0.347152 0.073825 0.087608
0.599608 0.102422 0.087608
0.746125 0.313676 0.087608
0.826918 0.526393 0.087799
0.870533 0.647406 0.088293
0.896266 0.716300 0.089751
0.911689 0.772909 0.092794
0.073574 0.072738 0.087608
0.074529 0.072724 0.087608
0.188013 0.074488 0.087608
0.554934 0.108055 0.087608
0.727918 0.334616 0.087608
0.820597 0.535304 0.087740
0.866427 0.652123 0.088239
0.893797 0.719687 0.089539
0.910690 0.775357 0.092440
0.073574 0.146235 0.087608
0.078583 0.111216 0.087608
0.141385 0.095597 0.087608
0.467012 0.155304 0.087608
0.678464 0.406165 0.087608
0.795544 0.568298 0.087623
0.853985 0.669134 0.088078
0.885978 0.731840 0.088994
0.907366 0.783470 0.091826
0.073623 0.561109 0.087608
0.081748 0.525433 0.087608
0.187111 0.451229 0.087608
0.445918 0.423352 0.087608
0.611375 0.511866 0.087608
0.748320 0.627489 0.087608
0.831545 0.699250 0.087907
0.874297 0.754448 0.088594
0.900372 0.796789 0.090533
0.074728 0.719518 0.087608
0.084095 0.709080 0.087608
0.220988 0.682744 0.087608
0.468546 0.658106 0.087608
0.598716 0.657719 0.087608
0.721533 0.690647 0.087608
0.814587 0.738548 0.087808
0.861441 0.784619 0.088299
0.890898 0.814050 0.089842
0.077071 0.805267 0.087608
0.087147 0.801111 0.087608
0.230500 0.788941 0.087608
0.478792 0.774934 0.087608
0.611896 0.767273 0.087608
0.718426 0.772298 0.087608
0.798924 0.788478 0.087777
0.851251 0.813638 0.088224
0.882562 0.835778 0.089359
0.079841 0.847625 0.087608
0.089732 0.845532 0.087608
0.230815 0.839883 0.087608
0.476552 0.834291 0.087608
0.612646 0.829141 0.087608
0.718862 0.828959 0.087618
0.795948 0.834328 0.087857
0.843360 0.841147 0.088214
0.875693 0.857295 0.089154
0.083660 0.874164 0.087608
0.094652 0.873325 0.087608
0.227070 0.870745 0.087608
0.467426 0.867424 0.087608
0.601732 0.864891 0.087608
0.714840 0.864406 0.087696
0.792146 0.866591 0.087942
0.840376 0.871413 0.088296
0.870526 0.878408 0.089225
0.087123 0.891312 0.087608
0.099407 0.890971 0.087608
0.221305 0.889914 0.087608
0.454577 0.888551 0.087608
0.587046 0.887578 0.087608
0.706548 0.887653 0.087765
0.784555 0.889198 0.088026
0.832964 0.892327 0.088416
0.866999 0.896902 0.089498
0.073574 0.072697 0.087878
0.080164 0.072699 0.087925
0.347103 0.073899 0.088042
0.587707 0.099064 0.088183
0.738250 0.295701 0.088630
0.823620 0.515366 0.089748
0.868292 0.642022 0.092164
0.894918 0.712897 0.096204
0.911162 0.770825 0.102461
0.073574 0.072724 0.087608
0.073680 0.072705 0.087608
0.168276 0.074074 0.087608
0.540392 0.102586 0.087894
0.719374 0.309822 0.088288
0.817232 0.523808 0.089220
0.864177 0.646629 0.091532
0.892454 0.716261 0.095381
0.910166 0.773274 0.101451
0.073574 0.119872 0.087806
0.077394 0.097273 0.087608
0.114918 0.086221 0.087608
0.443050 0.128147 0.087608
0.666823 0.384526 0.087915
0.789053 0.555221 0.088479
0.851738 0.663361 0.090055
0.884660 0.728364 0.093148
0.906777 0.781753 0.098905
0.073608 0.532540 0.087820
0.080578 0.492521 0.087721
0.167089 0.413121 0.087608
0.427247 0.396279 0.087608
0.594187 0.488455 0.087712
0.741828 0.618541 0.088119
0.826970 0.694844 0.088967
0.872835 0.751008 0.091502
0.899517 0.795194 0.096169
0.074589 0.710541 0.087805
0.083748 0.701535 0.087767
0.201152 0.672213 0.087700
0.458505 0.647697 0.087677
0.589216 0.648183 0.087738
0.716971 0.683652 0.087968
0.812021 0.734174 0.088539
0.860183 0.782469 0.090177
0.890156 0.812843 0.093576
0.076908 0.801699 0.087797
0.086480 0.797595 0.087788
0.223284 0.785202 0.087773
0.472687 0.770515 0.087790
0.604376 0.762104 0.087871
0.715218 0.768374 0.088042
0.796489 0.786210 0.088345
0.850301 0.812255 0.089630
0.881984 0.834807 0.092367
0.079652 0.845792 0.087799
0.089493 0.843351 0.087803
0.226672 0.839131 0.087824
0.473300 0.832516 0.087875
0.608475 0.827438 0.087971
0.717010 0.827393 0.088164
0.794291 0.833001 0.088529
0.842518 0.840553 0.089443
0.875238 0.856829 0.092051
0.083502 0.873368 0.087807
0.094270 0.872538 0.087817
0.224730 0.869986 0.087855
0.465761 0.866703 0.087926
0.599488 0.864214 0.088059
0.713842 0.863791 0.088253
0.791242 0.866067 0.088726
0.839863 0.871009 0.089760
0.870262 0.878136 0.092002
0.086997 0.890951 0.087815
0.099162 0.890614 0.087828
0.220061 0.889573 0.087874
0.453715 0.888235 0.087955
0.586272 0.887293 0.088109
0.706067 0.887408 0.088307
0.784144 0.889003 0.088855
0.832387 0.892195 0.089993
0.866914 0.896840 0.092322
0.073574 0.072697 0.243723
0.080164 0.072705 0.248477
0.368250 0.074530 0.266487
0.608812 0.107545 0.239392
0.736935 0.298443 0.194712
0.820738 0.505240 0.188927
0.865203 0.635473 0.196014
0.892541 0.708290 0.212045
0.910067 0.766239 0.231358
0.073574 0.072894 0.245293
0.080080 0.073417 0.228520
0.265325 0.077255 0.156477
0.550404 0.108530 0.149654
0.715991 0.306316 0.155189
0.813730 0.513954 0.164647
0.860918 0.639487 0.179847
0.890024 0.710700 0.198369
0.909063 0.769130 0.222147
0.073574 0.094152 0.123192
0.075715 0.084945 0.103214
0.090954 0.076461 0.089514
0.421246 0.115288 0.097754
0.652637 0.348186 0.111450
0.779679 0.538929 0.127458
0.847958 0.654310 0.144041
0.882077 0.721932 0.165749
0.905479 0.777719 0.193275
0.073587 0.463206 0.130945
0.078368 0.423695 0.118833
0.136154 0.329360 0.099271
0.367439 0.301113 0.093074
0.570072 0.451803 0.097302
0.730088 0.595643 0.107311
0.822428 0.684088 0.121903
0.869621 0.743729 0.137762
0.897492 0.791425 0.161488
0.074232 0.689954 0.128220
0.081760 0.678033 0.122624
0.176100 0.647802 0.108453
0.435092 0.623259 0.099569
0.567213 0.625145 0.097142
0.706123 0.667383 0.100104
0.805428 0.723858 0.109575
0.857067 0.776662 0.123522
0.888249 0.809822 0.139512
0.076461 0.791506 0.121257
0.084789 0.787277 0.118287
0.197954 0.774312 0.110733
0.458495 0.756842 0.104524
0.588470 0.748512 0.100986
0.706485 0.756040 0.100925
0.789974 0.780210 0.105103
0.847717 0.808552 0.115098
0.880385 0.832169 0.128445
0.079094 0.840286 0.112538
0.089055 0.839458 0.111562
0.215045 0.834842 0.108678
0.464735 0.827504 0.105594
0.596854 0.822634 0.103694
0.711681 0.822926 0.103801
0.789458 0.829166 0.106231
0.840088 0.839478 0.111553
0.873909 0.855486 0.123879
0.083012 0.870929 0.106288
0.093100 0.870134 0.105981
0.217712 0.867688 0.105089
0.460748 0.864544 0.104126
0.594145 0.862202 0.103835
0.710836 0.861959 0.104832
0.788497 0.864494 0.107464
0.838292 0.869787 0.112461
0.869448 0.877314 0.121660
0.086597 0.889804 0.100973
0.098381 0.889484 0.100952
0.216149 0.888498 0.100957
0.451002 0.887245 0.101249
0.583845 0.886409 0.102196
0.704092 0.886650 0.104138
0.782852 0.888403 0.107307
0.830565 0.891789 0.112502
0.866645 0.896652 0.121666
0.073574 0.072697 0.703147
0.080164 0.072720 0.704031
0.368250 0.075290 0.707193
0.647952 0.127625 0.712954
0.756975 0.365567 0.680344
0.823922 0.524468 0.646896
0.865383 0.638387 0.623157
0.891609 0.707603 0.609810
0.909338 0.763793 0.601768
0.073574 0.073123 0.703440
0.080709 0.073977 0.704324
0.371630 0.087827 0.707484
0.604955 0.162015 0.684889
0.731993 0.373692 0.649706
0.816642 0.529098 0.622880
0.860850 0.641657 0.608648
0.888984 0.709736 0.600446
0.908306 0.766492 0.595411
0.073574 0.098574 0.601095
0.076995 0.097289 0.575807
0.151901 0.103696 0.492792
0.468394 0.169631 0.491159
0.666274 0.393615 0.528877
0.781770 0.546174 0.556928
0.846971 0.653692 0.569289
0.880660 0.719401 0.576001
0.904497 0.775017 0.579911
0.073574 0.397469 0.551747
0.077247 0.364281 0.497419
0.117430 0.274391 0.320582
0.292974 0.196755 0.164947
0.559656 0.433574 0.282044
0.724644 0.586137 0.397260
0.819722 0.678383 0.469843
0.867247 0.739085 0.509561
0.895724 0.788506 0.538184
0.073934 0.657651 0.555586
0.079938 0.648017 0.526052
0.152479 0.621709 0.429111
0.407374 0.585561 0.299165
0.541699 0.587064 0.234075
0.690122 0.651881 0.278406
0.797879 0.714671 0.365062
0.854056 0.771026 0.428870
0.886297 0.806943 0.477694
0.075929 0.776967 0.531517
0.083827 0.772514 0.513769
0.178598 0.757600 0.460271
0.441534 0.740313 0.381769
0.571780 0.732164 0.307659
0.690363 0.740788 0.279240
0.782270 0.771943 0.305222
0.844045 0.804207 0.371051
0.878440 0.829200 0.421626
0.078481 0.835128 0.485077
0.087606 0.833296 0.475977
0.193493 0.827764 0.440922
0.453490 0.820961 0.393782
0.586274 0.816439 0.345294
0.704151 0.817091 0.315007
0.782944 0.824090 0.311379
0.836932 0.837649 0.335704
0.872170 0.853667 0.387883
0.082292 0.867377 0.420396
0.091397 0.866650 0.414711
0.200627 0.864408 0.397011
0.453681 0.861527 0.371600
0.587685 0.859438 0.341581
0.706642 0.859451 0.323852
0.784634 0.862327 0.322316
0.834829 0.868098 0.337731
0.868313 0.876214 0.369215
0.086037 0.888067 0.345114
0.097284 0.887778 0.342160
0.206170 0.886892 0.332943
0.446946 0.885789 0.320629
0.580256 0.885127 0.310345
0.700748 0.885564 0.306764
0.780857 0.887548 0.313153
0.828165 0.891215 0.331454
0.866247 0.896400 0.362581
0.073574 0.072708 0.834346
0.080164 0.072750 0.834559
0.368250 0.076865 0.835323
0.647952 0.143321 0.836718
0.789858 0.445630 0.834015
0.838587 0.562293 0.809099
0.869224 0.651976 0.785558
0.892783 0.712048 0.768455
0.909340 0.765743 0.754450
0.073574 0.073574 0.834416
0.080709 0.074957 0.834630
0.371630 0.092981 0.835393
0.649216 0.239472 0.836788
0.763485 0.452303 0.819288
0.824732 0.566825 0.797671
0.864556 0.654827 0.776970
0.890065 0.714519 0.762855
0.908276 0.768229 0.749013
0.073574 0.163146 0.825026
0.080730 0.172337 0.819581
0.277120 0.221022 0.804697
0.541116 0.336282 0.782100
0.697154 0.467053 0.766686
0.795626 0.581662 0.755814
0.850023 0.664947 0.746306
0.881367 0.723449 0.738546
0.904325 0.775808 0.731482
0.073574 0.395257 0.739353
0.077314 0.384744 0.725584
0.138257 0.359914 0.690232
0.419266 0.396748 0.669164
0.589585 0.492146 0.675049
0.733165 0.610674 0.685177
0.821183 0.684801 0.696669
0.867168 0.740655 0.703253
0.895065 0.788198 0.705968
0.073811 0.632090 0.719741
0.078552 0.625252 0.709099
0.139774 0.598944 0.679877
0.381204 0.564057 0.627478
0.515745 0.545020 0.575579
0.686119 0.647751 0.618811
0.795059 0.712641 0.654648
0.852664 0.769249 0.674180
0.885138 0.805654 0.681209
0.075366 0.757868 0.712840
0.082043 0.753514 0.706321
0.160979 0.740625 0.686015
0.425608 0.725446 0.661329
0.555768 0.716884 0.622808
0.678899 0.725221 0.602638
0.772715 0.764170 0.618290
0.840659 0.800741 0.643015
0.876631 0.827062 0.661786
0.078022 0.826450 0.698381
0.085824 0.824892 0.694560
0.179375 0.820138 0.682517
0.441686 0.814176 0.668849
0.575303 0.810145 0.645103
0.692778 0.811021 0.625673
0.773298 0.818704 0.618373
0.828535 0.834489 0.626213
0.870458 0.851726 0.642840
0.081635 0.863228 0.680302
0.089739 0.862599 0.679177
0.190702 0.860657 0.673403
0.445702 0.858168 0.661559
0.580520 0.856440 0.645617
0.700230 0.856757 0.632427
0.779916 0.859982 0.625677
0.828199 0.866274 0.626165
0.867232 0.875268 0.633301
0.085349 0.885968 0.655411
0.095982 0.885724 0.653729
0.196589 0.884980 0.648234
0.442113 0.884089 0.640046
0.576041 0.883666 0.631441
0.696871 0.884352 0.624820
0.777602 0.886609 0.621984
0.827295 0.890601 0.623759
0.865796 0.896163 0.629921
0.073574 0.072745 0.888094
0.080164 0.072995 0.888218
0.368250 0.080081 0.888663
0.647952 0.169304 0.889479
0.797936 0.479340 0.890689
0.850031 0.612060 0.873856
0.875308 0.673034 0.858889
0.895663 0.723148 0.844900
0.910048 0.771522 0.833742
0.073574 0.074737 0.888135
0.080709 0.077059 0.888259
0.371630 0.099061 0.888704
0.649216 0.277922 0.889519
0.794574 0.524905 0.888670
0.842234 0.616144 0.870354
0.870681 0.675924 0.854340
0.892914 0.725478 0.841453
0.908964 0.773439 0.830323
0.073574 0.223793 0.888283
0.082726 0.266094 0.888407
0.383828 0.397414 0.888851
0.594684 0.466336 0.873645
0.729260 0.546321 0.861438
0.813169 0.627379 0.848877
0.856088 0.685742 0.838444
0.884035 0.733747 0.828730
0.905019 0.780322 0.821373
0.073579 0.464936 0.847810
0.078550 0.466159 0.844595
0.186273 0.476557 0.835663
0.484078 0.515221 0.823960
0.655986 0.576034 0.817977
0.755064 0.644110 0.815133
0.826772 0.700780 0.813474
0.869673 0.749217 0.811771
0.895780 0.791061 0.809606
0.073767 0.626151 0.817151
0.078353 0.622402 0.813832
0.142748 0.612418 0.801638
0.414277 0.604619 0.779232
0.561016 0.625413 0.766362
0.704710 0.672007 0.770354
0.801286 0.722841 0.779304
0.853850 0.773393 0.786013
0.885241 0.806798 0.789493
0.074952 0.741790 0.810084
0.080980 0.738658 0.807290
0.150474 0.729249 0.794588
0.415944 0.717764 0.774028
0.547360 0.710326 0.749039
0.665221 0.710663 0.723051
0.769298 0.762620 0.746548
0.839614 0.800433 0.762644
0.875864 0.826701 0.770446
0.077566 0.818159 0.803005
0.084259 0.816926 0.800612
0.166722 0.813131 0.791481
0.431047 0.808290 0.777825
0.565750 0.804814 0.763093
0.685483 0.805636 0.746919
0.762798 0.813481 0.738938
0.826287 0.832072 0.746647
0.869138 0.850478 0.757572
0.080982 0.858935 0.789460
0.089149 0.858425 0.787791
0.180789 0.856854 0.782282
0.437669 0.854865 0.773861
0.573464 0.853412 0.764516
0.693382 0.854215 0.754737
0.773505 0.857737 0.747469
0.826252 0.864521 0.745853
0.866214 0.874494 0.750030
0.084590 0.883705 0.771800
0.094558 0.883514 0.770884
0.189944 0.882946 0.767845
0.436937 0.882317 0.763151
0.571602 0.882188 0.756863
0.692855 0.883163 0.750306
0.774262 0.885713 0.746227
0.826407 0.890044 0.745415
0.865358 0.896006 0.747747
0.073574 0.073051 0.917972
0.080164 0.073850 0.918016
0.368250 0.087014 0.918174
0.647952 0.208444 0.918464
0.797936 0.501964 0.918896
0.858464 0.643992 0.914052
0.881389 0.696062 0.902651
0.899372 0.737552 0.889093
0.911221 0.779276 0.875921
0.073574 0.077465 0.917986
0.080709 0.081162 0.918030
0.371630 0.110789 0.918189
0.649216 0.316356 0.918479
0.798261 0.550112 0.918911
0.852279 0.648341 0.910618
0.877404 0.698497 0.899795
0.896660 0.739915 0.885899
0.910135 0.780991 0.873986
0.073574 0.271704 0.918039
0.082726 0.308777 0.918083
0.383828 0.418955 0.918241
0.652788 0.549975 0.918395
0.757141 0.614779 0.908608
0.824088 0.661236 0.899252
0.863220 0.706382 0.886758
0.887835 0.748142 0.875505
0.906342 0.786499 0.870187
0.073599 0.549053 0.903642
0.081127 0.553060 0.902498
0.256942 0.568929 0.897952
0.532383 0.602048 0.889502
0.686659 0.639052 0.880150
0.784658 0.680480 0.873279
0.841665 0.719782 0.869483
0.873973 0.762987 0.863942
0.897638 0.796613 0.858952
0.073825 0.644892 0.871651
0.079004 0.644457 0.870602
0.160869 0.644910 0.864731
0.449745 0.652153 0.857292
0.601874 0.672879 0.851414
0.725965 0.705070 0.848276
0.812059 0.742628 0.847333
0.857409 0.782624 0.846808
0.886622 0.810393 0.845743
0.074824 0.735908 0.856849
0.080510 0.734163 0.855094
0.148535 0.729182 0.849071
0.419644 0.724401 0.839744
0.559756 0.725728 0.829043
0.686572 0.741843 0.823544
0.781856 0.775784 0.825310
0.842337 0.805079 0.829671
0.876562 0.828761 0.833009
0.077187 0.811728 0.849924
0.083908 0.810854 0.848513
0.157444 0.808175 0.843838
0.423571 0.804706 0.836616
0.560525 0.802297 0.826111
0.683611 0.803282 0.818415
0.752801 0.808704 0.812541
0.825602 0.831939 0.818417
0.868713 0.850629 0.822409
0.080357 0.854979 0.842548
0.088240 0.854601 0.841654
0.171887 0.853227 0.838671
0.430366 0.851461 0.833997
0.567383 0.850555 0.826323
0.687629 0.851786 0.821281
0.767806 0.855896 0.817701
0.824390 0.862971 0.816582
0.865382 0.874035 0.818553
0.084163 0.881468 0.832902
0.093119 0.881338 0.832157
0.183402 0.880966 0.829666
0.431790 0.880635 0.825996
0.567287 0.880837 0.822828
0.689043 0.882128 0.819925
0.771135 0.884969 0.817914
0.825583 0.889622 0.817201
0.864987 0.895985 0.817798
0.073574 0.074374 0.932967
0.080164 0.076185 0.932985
0.368250 0.096924 0.933051
0.647952 0.266041 0.933172
0.797936 0.527945 0.933352
0.864842 0.671609 0.932462
0.886232 0.713073 0.924768
0.903045 0.752959 0.916043
0.912540 0.786948 0.907962
0.073574 0.083480 0.932973
0.080709 0.091453 0.932991
0.371630 0.131425 0.933057
0.649216 0.372558 0.933178
0.798261 0.571798 0.933359
0.859193 0.676995 0.930631
0.882677 0.716159 0.923210
0.900421 0.755472 0.914409
0.911470 0.788500 0.906788
0.073574 0.320034 0.932995
0.082726 0.361298 0.933013
0.383828 0.454915 0.933079
0.653747 0.572596 0.933200
0.782779 0.651825 0.930488
0.839611 0.692813 0.924092
0.869863 0.726128 0.916377
0.891823 0.764081 0.909038
0.907914 0.793972 0.902885
0.073616 0.619141 0.928890
0.083703 0.622456 0.928214
0.318742 0.633366 0.925875
0.564586 0.652516 0.922322
0.714192 0.680167 0.916536
0.803476 0.709047 0.910730
0.850198 0.742171 0.905482
0.878853 0.777340 0.900622
0.900084 0.803209 0.894780
0.073932 0.677475 0.908985
0.080544 0.678557 0.908264
0.189926 0.683289 0.905960
0.485248 0.694066 0.902654
0.651053 0.708878 0.898340
0.745426 0.733274 0.893726
0.820409 0.765241 0.889067
0.862084 0.793139 0.885100
0.888823 0.815677 0.881360
0.074869 0.742993 0.893057
0.080789 0.742567 0.891767
0.154214 0.741906 0.887602
0.434933 0.743712 0.881589
0.581587 0.752016 0.875687
0.709481 0.770088 0.873059
0.795000 0.791228 0.872275
0.847370 0.812524 0.872059
0.878508 0.832935 0.871842
0.076961 0.808709 0.881428
0.083429 0.808226 0.880369
0.153703 0.806826 0.876844
0.422218 0.805408 0.872909
0.563032 0.805693 0.869032
0.686358 0.809571 0.863684
0.769898 0.819733 0.861203
0.828118 0.836877 0.862204
0.869617 0.852784 0.863813
0.079829 0.851273 0.874119
0.087164 0.850972 0.873784
0.164936 0.850087 0.872656
0.424696 0.849152 0.870825
0.563395 0.849113 0.866253
0.686246 0.850998 0.861825
0.764974 0.855381 0.858311
0.822701 0.861726 0.856260
0.865076 0.874281 0.858926
0.083970 0.879457 0.869875
0.091769 0.879389 0.869442
0.177438 0.879197 0.867986
0.426879 0.879178 0.865665
0.563461 0.879768 0.862926
0.686622 0.881390 0.860337
0.768569 0.884507 0.858440
0.824906 0.889417 0.857654
0.864732 0.896149 0.858119
0.073574 0.078370 0.940456
0.080164 0.082462 0.940462
0.368250 0.113605 0.940484
0.647952 0.325256 0.940523
0.797936 0.553946 0.940583
0.868403 0.693685 0.940663
0.889797 0.730748 0.937102
0.905392 0.767630 0.930953
0.913722 0.794497 0.925251
0.073574 0.095711 0.940458
0.080709 0.104421 0.940464
0.371630 0.178381 0.940486
0.649216 0.412842 0.940525
0.798261 0.597254 0.940585
0.863722 0.699314 0.939993
0.886485 0.734267 0.935866
0.903560 0.770150 0.930043
0.912682 0.796090 0.924456
0.073574 0.385881 0.940465
0.082726 0.407798 0.940471
0.383828 0.485804 0.940493
0.653747 0.598043 0.940533
0.794396 0.681466 0.940209
0.847487 0.712418 0.937257
0.875168 0.745528 0.931822
0.895300 0.777713 0.926716
0.909208 0.801183 0.921701
0.073710 0.656461 0.939943
0.084980 0.659597 0.939694
0.355763 0.670474 0.938858
0.587416 0.689182 0.936983
0.730214 0.708662 0.933286
0.814869 0.733614 0.929426
0.856341 0.763048 0.925182
0.882673 0.788772 0.920809
0.902537 0.809712 0.915581
0.074115 0.706988 0.929060
0.082019 0.708031 0.928703
0.228228 0.712137 0.927297
0.513467 0.722180 0.925086
0.672386 0.738032 0.922464
0.767613 0.759818 0.918753
0.827220 0.783092 0.915044
0.866689 0.803315 0.911632
0.891218 0.821588 0.908467
0.075042 0.759408 0.916413
0.081556 0.759837 0.915922
0.167718 0.761851 0.914307
0.452995 0.767155 0.911862
0.604717 0.776311 0.909165
0.723821 0.788905 0.906733
0.806424 0.804523 0.904775
0.851619 0.820677 0.903185
0.880623 0.838100 0.901726
0.076930 0.809952 0.907442
0.083393 0.809846 0.907015
0.154810 0.809706 0.905592
0.427170 0.810325 0.903380
0.571739 0.812987 0.900639
0.698314 0.819074 0.897647
0.783397 0.829483 0.895747
0.838238 0.840635 0.894655
0.871348 0.855860 0.894047
0.079466 0.849117 0.902356
0.086459 0.848994 0.902035
0.160716 0.848696 0.900726
0.421882 0.848684 0.898315
0.562540 0.849738 0.895396
0.686615 0.852762 0.891484
0.768691 0.857769 0.888532
0.825383 0.865477 0.887384
0.865801 0.875812 0.887838
0.083717 0.877550 0.896780
0.090606 0.877543 0.896500
0.172460 0.877592 0.895552
0.422832 0.877962 0.893422
0.560488 0.879090 0.890860
0.685918 0.881107 0.888387
0.767038 0.884500 0.886506
0.824548 0.889593 0.885632
0.864638 0.896543 0.886046
