ektachrome100d/Ektachrome100D_Modern_IlfochromeP.cube
TITLE "Kodak Ektachrome 100D Modern IlfochromeP"
# Adobe RGB in/out. REPLACES AgX. Kodak Ektachrome 100D Modern IlfochromeP.
LUT_3D_SIZE 9
DOMAIN_MIN 0.0 0.0 0.0
DOMAIN_MAX 1.0 1.0 1.0
0.138981 0.101282 0.098429
0.220481 0.149193 0.105971
0.406709 0.237100 0.121040
0.556914 0.328389 0.144012
0.679162 0.412202 0.169091
0.759154 0.486705 0.197683
0.815722 0.547624 0.225189
0.857600 0.599590 0.251514
0.885982 0.641902 0.275876
0.142317 0.183803 0.102727
0.185710 0.176804 0.104995
0.354566 0.246907 0.116460
0.521519 0.335593 0.139294
0.659784 0.417818 0.165399
0.748802 0.490768 0.194072
0.809836 0.550902 0.222267
0.853333 0.602098 0.249172
0.883766 0.644088 0.274049
0.154436 0.362201 0.108612
0.219365 0.339078 0.110947
0.328247 0.317262 0.116392
0.463748 0.366011 0.132090
0.611427 0.438603 0.156980
0.719958 0.505526 0.184511
0.790726 0.562689 0.213814
0.839881 0.611082 0.242022
0.876441 0.651918 0.268269
0.169990 0.502348 0.116866
0.234885 0.486265 0.118631
0.354140 0.455184 0.124018
0.450678 0.446448 0.133919
0.563436 0.480506 0.151518
0.681105 0.533735 0.175494
0.762899 0.584969 0.204270
0.821131 0.627749 0.232934
0.864719 0.666349 0.260216
0.187972 0.601973 0.125636
0.246640 0.593737 0.127608
0.365151 0.572081 0.133358
0.464687 0.555054 0.142360
0.556417 0.554786 0.155020
0.653008 0.577519 0.171551
0.739016 0.616033 0.198204
0.802708 0.653155 0.225513
0.848334 0.686770 0.252525
0.206360 0.676407 0.135346
0.258285 0.671471 0.137045
0.368601 0.657813 0.142313
0.470537 0.643711 0.151243
0.563724 0.637178 0.162405
0.649714 0.641356 0.176653
0.722854 0.657314 0.196342
0.785931 0.686323 0.221454
0.834033 0.710463 0.247200
0.225702 0.726573 0.144077
0.269444 0.724213 0.145687
0.368714 0.717214 0.150934
0.469435 0.708835 0.159056
0.564137 0.703207 0.169048
0.650176 0.703008 0.184020
0.720304 0.708876 0.201187
0.773611 0.720024 0.220923
0.823140 0.739600 0.244959
0.242775 0.766354 0.152599
0.279638 0.765013 0.153921
0.367370 0.760897 0.158350
0.464002 0.755614 0.165496
0.558094 0.751593 0.176079
0.645916 0.750825 0.190474
0.717045 0.754290 0.206459
0.769848 0.761961 0.225348
0.815712 0.773153 0.245733
0.258214 0.797406 0.159432
0.288444 0.796848 0.160547
0.365268 0.795121 0.164353
0.456085 0.792683 0.170762
0.547365 0.790766 0.182134
0.637145 0.790915 0.195635
0.709446 0.793953 0.211178
0.763554 0.799066 0.229101
0.810655 0.806567 0.248723
0.138981 0.111378 0.202491
0.227246 0.154017 0.205404
0.406692 0.238424 0.212006
0.547900 0.323824 0.219285
0.670770 0.406133 0.233702
0.753746 0.481678 0.251479
0.812508 0.543877 0.270396
0.855270 0.597070 0.289268
0.884828 0.640042 0.307493
0.141818 0.176536 0.171517
0.171459 0.161056 0.142557
0.344855 0.241004 0.178337
0.510592 0.328610 0.203492
0.650719 0.410854 0.224882
0.743316 0.485519 0.245677
0.806616 0.547083 0.266432
0.851015 0.599561 0.286423
0.882586 0.642228 0.305368
0.153040 0.347139 0.198102
0.208944 0.320959 0.180386
0.309181 0.298754 0.162977
0.448832 0.353444 0.178783
0.599066 0.429624 0.204772
0.714393 0.499730 0.230447
0.786785 0.558694 0.254899
0.837622 0.608514 0.277698
0.875299 0.650072 0.298625
0.167997 0.489512 0.198944
0.229231 0.473937 0.192465
0.344244 0.441930 0.180176
0.438725 0.433820 0.177029
0.553138 0.472252 0.191731
0.674581 0.527999 0.215943
0.759240 0.580931 0.241383
0.819029 0.625217 0.266241
0.863233 0.664565 0.289146
0.186391 0.595151 0.198010
0.243132 0.587063 0.195731
0.360397 0.564817 0.190748
0.458514 0.547826 0.188908
0.549120 0.548164 0.193875
0.648173 0.572706 0.208201
0.736016 0.612805 0.231739
0.800913 0.650842 0.256268
0.847056 0.685460 0.279909
0.205070 0.672169 0.197522
0.256245 0.667303 0.197000
0.365994 0.653784 0.196121
0.467218 0.639764 0.197148
0.559563 0.633381 0.202061
0.646316 0.637987 0.211976
0.720767 0.654869 0.227577
0.784269 0.684821 0.250179
0.833046 0.709399 0.273154
0.224800 0.724461 0.197649
0.268218 0.722128 0.197915
0.367226 0.715201 0.199167
0.467592 0.706894 0.202319
0.561833 0.701347 0.208407
0.648214 0.701298 0.218305
0.718884 0.707424 0.231527
0.772549 0.719010 0.248112
0.822486 0.738866 0.269683
0.242130 0.765082 0.198134
0.278903 0.763756 0.198760
0.366522 0.759688 0.201069
0.462980 0.754468 0.205481
0.556847 0.750522 0.212850
0.644859 0.749852 0.223008
0.716270 0.753459 0.235801
0.769201 0.761317 0.251617
0.815333 0.772717 0.269373
0.257837 0.796816 0.198665
0.288027 0.796265 0.199447
0.364809 0.794564 0.202238
0.455552 0.792059 0.207351
0.546739 0.790206 0.215435
0.636637 0.790432 0.225909
0.708991 0.793574 0.238768
0.763288 0.798850 0.254202
0.810534 0.806465 0.271386
0.138981 0.124148 0.400753
0.227246 0.161881 0.402283
0.413904 0.247512 0.407729
0.562019 0.335025 0.399338
0.669370 0.406941 0.384850
0.749032 0.478274 0.382636
0.808085 0.539312 0.385341
0.851166 0.592973 0.390433
0.882365 0.636419 0.396768
0.143132 0.207603 0.401261
0.226845 0.227227 0.395861
0.380394 0.269930 0.367967
0.518093 0.336121 0.363958
0.647135 0.409617 0.367220
0.737892 0.481206 0.372597
0.801961 0.542111 0.379047
0.846830 0.595304 0.386208
0.880107 0.638542 0.393792
0.150305 0.314058 0.339962
0.196288 0.296244 0.309072
0.272485 0.265675 0.248900
0.434972 0.343350 0.294635
0.585918 0.421030 0.324876
0.704579 0.492412 0.345288
0.780176 0.552420 0.360555
0.833204 0.603758 0.373172
0.872786 0.646198 0.384305
0.164319 0.460782 0.349816
0.217386 0.446550 0.334691
0.324883 0.416546 0.299726
0.413633 0.407762 0.277315
0.533606 0.455448 0.293067
0.662089 0.517358 0.317576
0.751795 0.573007 0.338414
0.814413 0.619854 0.355872
0.859722 0.660493 0.370828
0.182371 0.577043 0.346648
0.234941 0.568834 0.339281
0.348802 0.547899 0.319668
0.443685 0.530948 0.300576
0.531283 0.532125 0.292514
0.636696 0.561478 0.302103
0.728787 0.605183 0.321625
0.796146 0.645254 0.340357
0.843778 0.682181 0.357394
0.201943 0.660581 0.337635
0.250680 0.656019 0.334022
0.359047 0.643155 0.323635
0.458508 0.629511 0.311811
0.548517 0.623378 0.304389
0.637078 0.628921 0.304259
0.715183 0.648424 0.313019
0.779755 0.680733 0.330087
0.830317 0.706515 0.347048
0.222147 0.718296 0.326751
0.264632 0.716074 0.325068
0.362937 0.709438 0.320062
0.462351 0.701419 0.314041
0.555292 0.696109 0.310076
0.642572 0.696427 0.310301
0.714741 0.703234 0.315365
0.769485 0.716130 0.325053
0.820573 0.736755 0.340782
0.240146 0.761190 0.315483
0.276648 0.759924 0.314847
0.363936 0.756033 0.312989
0.459898 0.751043 0.310979
0.553104 0.747337 0.310370
0.641679 0.746953 0.312454
0.713816 0.750965 0.317884
0.767223 0.759371 0.326619
0.814165 0.771397 0.338121
0.256632 0.794942 0.304361
0.286700 0.794420 0.304316
0.363351 0.792579 0.304327
0.453868 0.790112 0.304942
0.544774 0.788467 0.306936
0.635045 0.788942 0.311004
0.707560 0.792391 0.317569
0.762447 0.798185 0.326690
0.810148 0.806156 0.338129
0.138981 0.142608 0.569439
0.227246 0.174008 0.570141
0.413904 0.255957 0.572653
0.583395 0.353116 0.577335
0.687600 0.424999 0.549466
0.754240 0.485822 0.525997
0.808342 0.541344 0.514498
0.849558 0.592309 0.508138
0.880725 0.634622 0.504276
0.143132 0.217883 0.569672
0.229864 0.239642 0.570374
0.415029 0.301807 0.572884
0.559884 0.368579 0.554935
0.664114 0.426842 0.527449
0.742355 0.487942 0.514367
0.801865 0.543623 0.507581
0.845041 0.594372 0.503640
0.878408 0.636604 0.501209
0.150594 0.323149 0.503952
0.205758 0.320994 0.489499
0.335552 0.330100 0.466384
0.464594 0.371504 0.465984
0.598322 0.432646 0.474981
0.706362 0.495680 0.482212
0.778454 0.551992 0.486780
0.830787 0.601886 0.489580
0.870887 0.643785 0.491353
0.160811 0.434399 0.480735
0.207765 0.424710 0.467512
0.311946 0.400856 0.422386
0.386968 0.380783 0.372764
0.525135 0.449477 0.412174
0.656308 0.513325 0.441849
0.747374 0.569075 0.460671
0.811010 0.616430 0.470435
0.856662 0.657344 0.477127
0.178098 0.554738 0.481831
0.226165 0.548048 0.474324
0.335985 0.529980 0.451082
0.427437 0.513075 0.416842
0.511557 0.513727 0.397627
0.625249 0.550734 0.411153
0.721958 0.598384 0.433003
0.790851 0.640220 0.451014
0.840428 0.678579 0.462648
0.197897 0.645527 0.475593
0.243454 0.641550 0.471436
0.350034 0.630068 0.458861
0.447854 0.617335 0.437161
0.534993 0.611321 0.419078
0.625418 0.617685 0.411388
0.706915 0.641040 0.418442
0.774475 0.675147 0.434351
0.827099 0.703271 0.448958
0.218428 0.709751 0.464486
0.259650 0.707746 0.462218
0.357098 0.701702 0.454378
0.455412 0.694286 0.440808
0.546741 0.689367 0.428422
0.635086 0.690075 0.420973
0.707662 0.697696 0.420042
0.765512 0.712511 0.426122
0.818074 0.734105 0.439028
0.237330 0.755538 0.448607
0.273348 0.754384 0.446972
0.360201 0.750828 0.441775
0.455530 0.746271 0.434474
0.547882 0.742974 0.427538
0.637244 0.742995 0.423206
0.709533 0.747535 0.422822
0.764414 0.756684 0.426613
0.812539 0.769634 0.433940
0.254786 0.791729 0.428379
0.284671 0.791161 0.427676
0.361140 0.789418 0.425450
0.451339 0.787251 0.422398
0.541867 0.785952 0.419775
0.632704 0.786809 0.418845
0.705457 0.790707 0.420498
0.761205 0.797247 0.425086
0.809578 0.805743 0.432439
0.138981 0.164663 0.722382
0.227246 0.191343 0.722805
0.413904 0.267836 0.724321
0.583395 0.360936 0.727094
0.715084 0.452985 0.721728
0.767594 0.502873 0.677891
0.813844 0.550800 0.648561
0.851583 0.596442 0.627451
0.880729 0.636054 0.612487
0.143132 0.232375 0.722522
0.229864 0.252719 0.722945
0.415029 0.311450 0.724461
0.584076 0.392325 0.727233
0.692477 0.455678 0.697390
0.755567 0.504876 0.663461
0.807159 0.552779 0.637931
0.846900 0.598271 0.620590
0.878340 0.637881 0.607877
0.153668 0.369021 0.708506
0.229962 0.372517 0.697955
0.384213 0.387510 0.671704
0.511127 0.418218 0.644274
0.630185 0.462728 0.625281
0.720028 0.511380 0.613645
0.783783 0.559792 0.605582
0.831992 0.604880 0.599005
0.870555 0.644491 0.593020
0.160281 0.433321 0.599689
0.208300 0.429697 0.588025
0.326247 0.423725 0.559181
0.433730 0.434048 0.539234
0.549418 0.473808 0.543304
0.665360 0.523564 0.555164
0.749760 0.573498 0.564295
0.810897 0.617588 0.569524
0.855522 0.657011 0.571679
0.174870 0.536950 0.583078
0.219076 0.532192 0.574166
0.327221 0.518728 0.548759
0.418179 0.503654 0.516545
0.492308 0.495161 0.489404
0.621041 0.547864 0.512434
0.719542 0.596881 0.529996
0.788408 0.638634 0.542703
0.838441 0.676868 0.550775
0.193673 0.630266 0.577239
0.236316 0.627061 0.571960
0.341048 0.617565 0.555831
0.437702 0.606357 0.533809
0.522150 0.600023 0.514333
0.611607 0.606191 0.504695
0.699380 0.634898 0.512185
0.770205 0.671032 0.523989
0.824492 0.700937 0.534126
0.214236 0.700269 0.565654
0.254084 0.698570 0.562619
0.350415 0.693390 0.552918
0.447952 0.686907 0.539017
0.537851 0.682531 0.525070
0.627115 0.683482 0.515691
0.699816 0.691830 0.512225
0.761509 0.709051 0.515946
0.815615 0.731683 0.523898
0.234335 0.748960 0.549402
0.269467 0.747966 0.547701
0.355829 0.744897 0.542166
0.450539 0.740973 0.533968
0.542081 0.738255 0.525336
0.632341 0.738753 0.518882
0.704755 0.743833 0.515692
0.761261 0.753787 0.515924
0.810989 0.768120 0.519294
0.252520 0.787602 0.530389
0.282187 0.787123 0.529523
0.358455 0.785663 0.526689
0.448228 0.783916 0.522465
0.538450 0.783089 0.518417
0.629987 0.784432 0.515287
0.703029 0.788861 0.513942
0.759774 0.796245 0.514784
0.808933 0.805353 0.517699
0.138981 0.188288 0.820776
0.227246 0.212493 0.820927
0.413904 0.282693 0.821468
0.583395 0.371381 0.822458
0.722007 0.468508 0.823930
0.783798 0.524132 0.800407
0.822586 0.565383 0.766158
0.856557 0.604658 0.741070
0.882322 0.640664 0.721328
0.143132 0.250506 0.820826
0.229864 0.268875 0.820977
0.415029 0.323820 0.821518
0.584076 0.401667 0.822508
0.719126 0.486023 0.821476
0.772191 0.526499 0.788349
0.815935 0.567379 0.757446
0.851808 0.606381 0.735305
0.879884 0.642375 0.716645
0.154436 0.388237 0.821006
0.238987 0.398916 0.821156
0.419032 0.434372 0.821696
0.553539 0.462366 0.799773
0.661209 0.495746 0.771061
0.737276 0.533658 0.747748
0.794424 0.574145 0.730290
0.836553 0.612490 0.714467
0.871896 0.648533 0.701417
0.163002 0.461658 0.745953
0.219063 0.462276 0.740559
0.353742 0.467357 0.724997
0.473127 0.481629 0.706434
0.587718 0.508923 0.694863
0.686167 0.545330 0.689401
0.758916 0.586371 0.686225
0.814488 0.623898 0.682976
0.856760 0.660100 0.678855
0.173717 0.532799 0.693274
0.217250 0.530413 0.686910
0.329109 0.524279 0.667697
0.430588 0.521074 0.640726
0.526242 0.532292 0.624884
0.635477 0.564674 0.629784
0.724877 0.604431 0.640814
0.790488 0.642334 0.649125
0.838617 0.678385 0.653451
0.190555 0.618424 0.679762
0.231167 0.616114 0.675107
0.334481 0.609168 0.659801
0.431639 0.600674 0.634304
0.515787 0.594942 0.607899
0.596896 0.595269 0.585880
0.696826 0.633759 0.605787
0.768887 0.670667 0.620332
0.823387 0.700542 0.629897
0.210332 0.691237 0.669487
0.248687 0.689896 0.666547
0.344055 0.685772 0.655926
0.441090 0.680382 0.638987
0.530093 0.675869 0.620881
0.619668 0.676847 0.606102
0.691963 0.686152 0.599337
0.758118 0.706409 0.605870
0.813720 0.730126 0.615136
0.231177 0.742181 0.653410
0.265396 0.741379 0.651334
0.351105 0.738905 0.644499
0.445356 0.735780 0.634098
0.536360 0.733786 0.622622
0.627539 0.734790 0.612731
0.699971 0.740295 0.606568
0.758062 0.751007 0.605197
0.809531 0.766882 0.608740
0.250026 0.783165 0.631561
0.279458 0.782792 0.630435
0.355475 0.781680 0.626702
0.444882 0.780451 0.620953
0.534847 0.780198 0.614535
0.627169 0.782104 0.608973
0.700536 0.787101 0.605515
0.758317 0.795335 0.604826
0.808306 0.805096 0.606803
0.138981 0.215524 0.876262
0.227246 0.237544 0.876358
0.413904 0.300294 0.876701
0.583395 0.384106 0.877331
0.722007 0.477164 0.878269
0.798463 0.545248 0.867783
0.832030 0.582047 0.842777
0.862982 0.615298 0.821990
0.884963 0.647589 0.803923
0.143132 0.271055 0.876294
0.229864 0.287465 0.876389
0.415029 0.338612 0.876733
0.584076 0.413132 0.877363
0.722286 0.497447 0.878300
0.787733 0.548274 0.860391
0.825606 0.584278 0.837125
0.858283 0.617042 0.817916
0.882517 0.649252 0.800800
0.154436 0.400234 0.876408
0.238987 0.410486 0.876503
0.419032 0.444696 0.876846
0.585999 0.497385 0.877181
0.687725 0.525644 0.856082
0.754512 0.557223 0.836193
0.805248 0.591129 0.819125
0.843066 0.623106 0.803341
0.874457 0.655181 0.788024
0.166508 0.496972 0.845147
0.231877 0.498765 0.842411
0.377644 0.505804 0.833965
0.504671 0.520012 0.822487
0.622297 0.541807 0.809843
0.709560 0.570521 0.798673
0.771473 0.602168 0.786652
0.820665 0.634029 0.775897
0.859975 0.666142 0.766279
0.175222 0.545875 0.792591
0.221718 0.545572 0.788833
0.340989 0.545887 0.777424
0.453086 0.550923 0.763093
0.558173 0.565276 0.752024
0.657710 0.589962 0.746737
0.736058 0.619043 0.745152
0.796749 0.651008 0.744270
0.840985 0.682800 0.742483
0.189073 0.614085 0.762245
0.228906 0.612797 0.758887
0.333013 0.609118 0.748075
0.433967 0.605584 0.732454
0.525216 0.606565 0.714895
0.622096 0.618464 0.705625
0.706457 0.644469 0.709059
0.772320 0.676184 0.715754
0.824392 0.702791 0.720324
0.207289 0.684249 0.749511
0.244312 0.683301 0.747135
0.339157 0.680228 0.739291
0.436429 0.675741 0.726891
0.525842 0.672879 0.710620
0.615092 0.674049 0.695708
0.684469 0.680936 0.684444
0.756994 0.706263 0.695711
0.813112 0.730314 0.703425
0.228170 0.735959 0.737134
0.261541 0.735367 0.735641
0.346693 0.733556 0.730668
0.440667 0.731352 0.721691
0.531420 0.730223 0.711033
0.623496 0.731758 0.701240
0.695711 0.737400 0.694333
0.755006 0.748553 0.692181
0.808340 0.766148 0.695973
0.247488 0.778794 0.720176
0.276685 0.778539 0.719156
0.352368 0.777814 0.715746
0.441551 0.777168 0.710395
0.531343 0.777563 0.704236
0.624490 0.780081 0.698619
0.698200 0.785643 0.694742
0.756963 0.794644 0.693371
0.807776 0.805061 0.694519
0.138981 0.245274 0.913851
0.227246 0.264201 0.913901
0.413904 0.320192 0.914079
0.583395 0.398903 0.914406
0.722007 0.487415 0.914893
0.807568 0.564399 0.912488
0.840316 0.597200 0.893510
0.868870 0.626653 0.872084
0.887762 0.655665 0.854699
0.143132 0.293343 0.913868
0.229864 0.308474 0.913917
0.415029 0.355483 0.914095
0.584076 0.426569 0.914422
0.722286 0.507066 0.914910
0.799501 0.568118 0.907552
0.834230 0.599486 0.888893
0.864803 0.628503 0.868553
0.885523 0.657337 0.852190
0.154436 0.414248 0.913927
0.238987 0.424038 0.913976
0.419032 0.456877 0.914154
0.586515 0.507416 0.914481
0.707478 0.550695 0.907167
0.768884 0.579071 0.891725
0.814761 0.606861 0.872807
0.849928 0.634833 0.857003
0.877528 0.663243 0.843336
0.169626 0.528375 0.902876
0.242950 0.530446 0.901263
0.396518 0.537841 0.895997
0.529147 0.551175 0.886050
0.645229 0.570305 0.873150
0.726753 0.593706 0.860632
0.784089 0.618705 0.849403
0.827706 0.645860 0.838544
0.864219 0.673962 0.828907
0.178057 0.568449 0.856889
0.229068 0.569195 0.855345
0.355466 0.572456 0.850422
0.473698 0.580219 0.842783
0.585066 0.593542 0.834630
0.678417 0.612140 0.827624
0.748496 0.635686 0.821958
0.803627 0.662343 0.816793
0.844764 0.688538 0.811539
0.189593 0.619311 0.826809
0.230247 0.618997 0.825240
0.337276 0.618510 0.820179
0.443582 0.619841 0.811862
0.542945 0.625959 0.803595
0.640246 0.639383 0.798009
0.719491 0.660280 0.795213
0.779151 0.685113 0.794306
0.827197 0.707352 0.793390
0.205488 0.680944 0.811636
0.241837 0.680297 0.810150
0.336897 0.678423 0.805214
0.435582 0.676575 0.797561
0.527883 0.676914 0.785774
0.621597 0.681908 0.775398
0.697275 0.692949 0.770609
0.761127 0.711665 0.772539
0.814407 0.733002 0.775647
0.225646 0.731117 0.801200
0.258334 0.730743 0.800191
0.343128 0.729638 0.796802
0.437132 0.728474 0.789270
0.528178 0.728425 0.780372
0.621336 0.730775 0.771809
0.693592 0.736591 0.765048
0.752241 0.746586 0.761117
0.807902 0.766541 0.766229
0.245090 0.774874 0.787415
0.274071 0.774742 0.786573
0.349463 0.774420 0.783739
0.438495 0.774390 0.779232
0.528231 0.775479 0.773933
0.622213 0.778641 0.768941
0.696281 0.784736 0.765296
0.755853 0.794310 0.763787
0.807411 0.805331 0.764678
0.138981 0.275169 0.938305
0.227246 0.291235 0.938328
0.413904 0.341671 0.938408
0.583395 0.415541 0.938555
0.722007 0.499161 0.938774
0.812666 0.579870 0.939070
0.846438 0.610275 0.925069
0.872617 0.637441 0.908420
0.890239 0.663811 0.894594
0.143132 0.317514 0.938313
0.229864 0.331067 0.938335
0.415029 0.374733 0.938415
0.584076 0.441797 0.938562
0.722286 0.518027 0.938782
0.805967 0.585027 0.936596
0.840749 0.612874 0.921705
0.869509 0.639438 0.905971
0.888058 0.665533 0.892809
0.154436 0.430078 0.938339
0.238987 0.439387 0.938362
0.419032 0.471167 0.938442
0.586515 0.518355 0.938589
0.718974 0.571200 0.937394
0.779354 0.596715 0.925492
0.822385 0.621180 0.910760
0.855929 0.646193 0.897888
0.880432 0.671557 0.884373
0.172215 0.553913 0.936413
0.251309 0.556087 0.935493
0.409681 0.563615 0.932413
0.547664 0.576512 0.924745
0.662222 0.593333 0.914713
0.739474 0.612392 0.904313
0.794868 0.634074 0.894439
0.834223 0.657631 0.882430
0.868241 0.682061 0.871085
0.181066 0.591714 0.903332
0.236201 0.592723 0.902375
0.367788 0.596507 0.899196
0.490608 0.603942 0.894224
0.606566 0.615653 0.886505
0.695566 0.631700 0.877958
0.759651 0.651512 0.869924
0.810212 0.674088 0.862569
0.848884 0.694969 0.855780
0.191494 0.631398 0.872884
0.233954 0.631714 0.871822
0.344568 0.633194 0.868333
0.455105 0.637091 0.863064
0.559752 0.644941 0.857274
0.655434 0.657774 0.852072
0.729878 0.675523 0.847863
0.786575 0.693977 0.844055
0.830724 0.713004 0.840567
0.205239 0.682322 0.853587
0.241690 0.682207 0.852674
0.337717 0.682055 0.849637
0.438677 0.682727 0.844520
0.534959 0.685616 0.838573
0.630998 0.692232 0.833442
0.708163 0.703580 0.830192
0.767155 0.719232 0.828754
0.816892 0.737343 0.828013
0.223915 0.728430 0.842070
0.256176 0.728277 0.841305
0.340908 0.727906 0.838722
0.435371 0.727890 0.834587
0.527482 0.729204 0.829656
0.622196 0.732976 0.824896
0.696372 0.740344 0.821308
0.756635 0.752523 0.819914
0.808939 0.768991 0.820465
0.243006 0.771777 0.831958
0.271808 0.771765 0.831479
0.346982 0.771844 0.829858
0.435966 0.772438 0.827253
0.525812 0.774248 0.824138
0.620623 0.778089 0.821132
0.695136 0.784722 0.818771
0.755266 0.794598 0.817541
0.807275 0.805978 0.818123
