ektachrome100d/Ektachrome100D_Classic_Soft.cube
TITLE "Kodak Ektachrome 100D Classic Soft"
# Adobe RGB in/out. REPLACES AgX. Kodak Ektachrome 100D Classic Soft.
LUT_3D_SIZE 5
DOMAIN_MIN 0.0 0.0 0.0
DOMAIN_MAX 1.0 1.0 1.0
0.086071 0.084324 0.090717
0.117831 0.084441 0.090717
0.532808 0.103234 0.090717
0.890529 0.315801 0.090778
0.956781 0.688629 0.091204
0.086071 0.088408 0.090717
0.119725 0.095683 0.090717
0.537285 0.165242 0.090717
0.891146 0.430752 0.090786
0.956884 0.755485 0.091226
0.086072 0.372462 0.090717
0.131055 0.418345 0.090717
0.550331 0.565672 0.090717
0.893352 0.756628 0.090813
0.957254 0.876791 0.091351
0.088221 0.854934 0.090717
0.154846 0.859661 0.090717
0.569822 0.893214 0.090725
0.897367 0.931466 0.090868
0.957929 0.948064 0.091621
0.099010 0.957016 0.090717
0.195922 0.958526 0.090719
0.597864 0.962496 0.090787
0.903267 0.969154 0.091040
0.958928 0.976617 0.092234
0.086071 0.084324 0.092063
0.117831 0.084505 0.092306
0.532808 0.103997 0.093119
0.890529 0.319877 0.095735
0.956781 0.690881 0.105197
0.086071 0.088582 0.092145
0.119725 0.096272 0.092385
0.537285 0.167433 0.093189
0.891146 0.433889 0.095932
0.956884 0.756972 0.105803
0.086072 0.375445 0.092430
0.131055 0.421451 0.092662
0.550331 0.568143 0.093438
0.893352 0.758114 0.096766
0.957254 0.877409 0.107971
0.088221 0.855477 0.092928
0.154846 0.860301 0.093144
0.569822 0.893812 0.094210
0.897367 0.931621 0.098342
0.957929 0.948134 0.110728
0.099010 0.957126 0.093640
0.195922 0.958601 0.094039
0.597864 0.962567 0.095967
0.903267 0.969211 0.101886
0.958928 0.976657 0.116741
0.086071 0.084324 0.561411
0.117831 0.084736 0.567480
0.532808 0.106696 0.589421
0.890529 0.328284 0.622267
0.956781 0.698974 0.673171
0.086071 0.089374 0.563421
0.119725 0.098790 0.569495
0.537285 0.175379 0.591457
0.891146 0.445224 0.623203
0.956884 0.762304 0.675001
0.086072 0.386228 0.570656
0.131055 0.432672 0.576751
0.550331 0.577033 0.598784
0.893352 0.763443 0.627271
0.957254 0.879623 0.680517
0.088221 0.856313 0.584032
0.154846 0.862594 0.590163
0.569822 0.895955 0.612329
0.897367 0.932178 0.639239
0.957929 0.948384 0.688971
0.099010 0.957518 0.604191
0.195922 0.958870 0.610378
0.597864 0.962822 0.623343
0.903267 0.969419 0.657215
0.958928 0.976803 0.701580
0.086071 0.084324 0.934395
0.117831 0.085439 0.934959
0.532808 0.111835 0.936443
0.890529 0.343164 0.939134
0.956781 0.709458 0.943072
0.086071 0.093323 0.934665
0.119725 0.102545 0.935097
0.537285 0.191210 0.936579
0.891146 0.465249 0.939268
0.956884 0.771975 0.943202
0.086072 0.406343 0.935176
0.131055 0.453585 0.935590
0.550331 0.593434 0.937067
0.893352 0.772916 0.939747
0.957254 0.883672 0.943630
0.088221 0.857836 0.936081
0.154846 0.866784 0.936492
0.569822 0.899873 0.937961
0.897367 0.933196 0.940625
0.957929 0.948841 0.944373
0.099010 0.958232 0.937425
0.195922 0.959364 0.937833
0.597864 0.963290 0.939288
0.903267 0.969799 0.941929
0.958928 0.977070 0.945477
0.086071 0.084854 0.980387
0.117831 0.087361 0.980426
0.532808 0.124468 0.980567
0.890529 0.367735 0.980824
0.956781 0.724486 0.981203
0.086071 0.099624 0.980400
0.119725 0.109665 0.980440
0.537285 0.214373 0.980580
0.891146 0.491283 0.980837
0.956884 0.784026 0.981216
0.086072 0.437090 0.980447
0.131055 0.480769 0.980486
0.550331 0.615059 0.980627
0.893352 0.784957 0.980883
0.957254 0.889666 0.981261
0.088221 0.863488 0.980533
0.154846 0.872986 0.980572
0.569822 0.905679 0.980712
0.897367 0.934672 0.980967
0.957929 0.949496 0.981344
0.099010 0.958976 0.980661
0.195922 0.960096 0.980700
0.597864 0.963984 0.980839
0.903267 0.970363 0.981093
0.958928 0.977467 0.981468
