ektachrome100d/Ektachrome100D_Classic_IlfochromeP.cube
TITLE "Kodak Ektachrome 100D Classic IlfochromeP"
# Adobe RGB in/out. REPLACES AgX. Kodak Ektachrome 100D Classic IlfochromeP.
LUT_3D_SIZE 5
DOMAIN_MIN 0.0 0.0 0.0
DOMAIN_MAX 1.0 1.0 1.0
0.138981 0.101282 0.098429
0.236823 0.146125 0.104386
0.493043 0.257350 0.117171
0.727762 0.400701 0.145016
0.866463 0.547789 0.186352
0.141105 0.203798 0.101663
0.240507 0.233982 0.105365
0.494640 0.323907 0.118398
0.728409 0.448995 0.146543
0.866794 0.579836 0.187777
0.150757 0.427571 0.105826
0.253895 0.444604 0.109155
0.500326 0.499393 0.123028
0.730725 0.580407 0.151804
0.867883 0.670093 0.192808
0.169632 0.646631 0.113800
0.276875 0.655138 0.117627
0.510593 0.683826 0.132684
0.734942 0.723750 0.160715
0.869428 0.776318 0.201722
0.202180 0.804105 0.126924
0.307660 0.807879 0.131370
0.525593 0.821067 0.146768
0.741151 0.843971 0.173371
0.871714 0.872709 0.215103
0.138981 0.108365 0.212230
0.236823 0.148577 0.216327
0.493043 0.259128 0.230517
0.727762 0.401921 0.255721
0.866463 0.548582 0.290376
0.141105 0.205768 0.213596
0.240507 0.235931 0.217671
0.494640 0.325351 0.231788
0.728409 0.450092 0.256944
0.866794 0.580579 0.291478
0.150757 0.428719 0.218440
0.253895 0.445711 0.222437
0.500326 0.500305 0.236320
0.730725 0.581148 0.261302
0.867883 0.670633 0.295408
0.169632 0.647200 0.227117
0.276875 0.655696 0.230981
0.510593 0.684250 0.244825
0.734942 0.724128 0.269174
0.869428 0.776647 0.302534
0.202180 0.804357 0.239750
0.307660 0.808127 0.243617
0.525593 0.821305 0.257127
0.741151 0.844193 0.280602
0.871714 0.872841 0.312948
0.138981 0.119546 0.486898
0.236823 0.157058 0.488521
0.493043 0.265409 0.494289
0.727762 0.406276 0.504667
0.866463 0.551421 0.519661
0.141105 0.212932 0.487437
0.240507 0.242864 0.489057
0.494640 0.330487 0.494817
0.728409 0.454012 0.505179
0.866794 0.583236 0.520154
0.150757 0.432821 0.489365
0.253895 0.449667 0.490977
0.500326 0.503569 0.496706
0.730725 0.583803 0.507015
0.867883 0.672570 0.521917
0.169632 0.649237 0.492886
0.276875 0.657696 0.494482
0.510593 0.685768 0.500156
0.734942 0.725484 0.510369
0.869428 0.777825 0.525412
0.202180 0.805258 0.498089
0.307660 0.809018 0.499662
0.525593 0.822159 0.505256
0.741151 0.844987 0.515331
0.871714 0.873312 0.530697
0.138981 0.135750 0.729277
0.236823 0.171540 0.730100
0.493043 0.276566 0.733043
0.727762 0.414177 0.738399
0.866463 0.556599 0.746277
0.141105 0.226450 0.729550
0.240507 0.255090 0.730373
0.494640 0.339730 0.733313
0.728409 0.461323 0.738665
0.866794 0.587986 0.746538
0.150757 0.440273 0.730530
0.253895 0.456861 0.731350
0.500326 0.509513 0.734283
0.730725 0.588487 0.739622
0.867883 0.676111 0.747476
0.169632 0.652961 0.732325
0.276875 0.661352 0.733141
0.510593 0.688544 0.736061
0.734942 0.727966 0.741376
0.869428 0.779985 0.749195
0.202180 0.806911 0.734995
0.307660 0.810650 0.735806
0.525593 0.823724 0.738705
0.741151 0.846444 0.743985
0.871714 0.874177 0.751754
0.138981 0.160378 0.864605
0.236823 0.192348 0.864887
0.493043 0.292448 0.865900
0.727762 0.425739 0.867749
0.866463 0.564243 0.870484
0.141105 0.245519 0.864698
0.240507 0.272278 0.864981
0.494640 0.353099 0.865993
0.728409 0.471946 0.867841
0.866794 0.594381 0.870575
0.150757 0.451205 0.865035
0.253895 0.468060 0.865317
0.500326 0.518165 0.866327
0.730725 0.594874 0.868172
0.867883 0.681312 0.870902
0.169632 0.658476 0.865652
0.276875 0.666768 0.865934
0.510593 0.692655 0.866941
0.734942 0.731647 0.868780
0.869428 0.783194 0.871502
0.202180 0.809366 0.866573
0.307660 0.813076 0.866853
0.525593 0.826050 0.867855
0.741151 0.848610 0.869686
0.871714 0.875463 0.872396
