ektachrome100d/Ektachrome100D_Classic_Soft.cube
TITLE "Kodak Ektachrome 100D Classic Soft"
# Adobe RGB in/out. REPLACES AgX. Kodak Ektachrome 100D Classic Soft.
LUT_3D_SIZE 9
DOMAIN_MIN 0.0 0.0 0.0
DOMAIN_MAX 1.0 1.0 1.0
0.086071 0.084324 0.090717
0.086189 0.084324 0.090717
0.117831 0.084441 0.090717
0.280539 0.087487 0.090717
0.532808 0.103234 0.090717
0.767418 0.169976 0.090717
0.890529 0.315801 0.090778
0.935629 0.505574 0.090911
0.956781 0.688629 0.091204
0.086071 0.084324 0.090717
0.086245 0.084341 0.090717
0.118246 0.085089 0.090717
0.281377 0.089249 0.090717
0.533783 0.110059 0.090717
0.767704 0.191322 0.090717
0.890663 0.338402 0.090780
0.935672 0.529569 0.090915
0.956803 0.706234 0.091208
0.086071 0.088408 0.090717
0.086482 0.089003 0.090717
0.119725 0.095683 0.090717
0.284390 0.110200 0.090717
0.537285 0.165242 0.090717
0.768731 0.273870 0.090717
0.891146 0.430752 0.090786
0.935826 0.609171 0.090928
0.956884 0.755485 0.091226
0.086071 0.145739 0.090717
0.087073 0.152448 0.090717
0.122400 0.178253 0.090717
0.289936 0.227932 0.090717
0.543739 0.322686 0.090717
0.770613 0.444135 0.090725
0.892032 0.590096 0.090797
0.936110 0.724127 0.090952
0.957032 0.826394 0.091268
0.086072 0.372462 0.090717
0.088291 0.382295 0.090717
0.131055 0.418345 0.090717
0.297873 0.482435 0.090717
0.550331 0.565672 0.090717
0.775481 0.658157 0.090738
0.893352 0.756628 0.090813
0.936532 0.832232 0.090986
0.957254 0.876791 0.091351
0.086420 0.677161 0.090717
0.090597 0.684621 0.090717
0.139602 0.707661 0.090717
0.308256 0.740541 0.090717
0.558933 0.785720 0.090717
0.788157 0.830658 0.090754
0.895126 0.859322 0.090834
0.937100 0.901218 0.091041
0.957552 0.930642 0.091458
0.088221 0.854934 0.090717
0.094371 0.856010 0.090717
0.154846 0.859661 0.090717
0.321439 0.873380 0.090717
0.569822 0.893214 0.090725
0.794425 0.917152 0.090778
0.897367 0.931466 0.090868
0.937818 0.940161 0.091113
0.957929 0.948064 0.091621
0.091903 0.934488 0.090717
0.101616 0.934898 0.090717
0.173186 0.936302 0.090717
0.337509 0.938828 0.090717
0.582732 0.942474 0.090751
0.802021 0.946913 0.090813
0.900080 0.950814 0.090946
0.938688 0.958384 0.091196
0.958388 0.964249 0.091792
0.099010 0.957016 0.090717
0.112030 0.957376 0.090717
0.195922 0.958526 0.090719
0.356540 0.960142 0.090745
0.597864 0.962496 0.090787
0.808844 0.965560 0.090855
0.903267 0.969154 0.091040
0.939713 0.972987 0.091362
0.958928 0.976617 0.092234
0.086071 0.084324 0.090717
0.086189 0.084324 0.090717
0.117831 0.084455 0.090717
0.280539 0.087530 0.090727
0.532808 0.103400 0.090763
0.767418 0.170456 0.090829
0.890529 0.316693 0.090983
0.935629 0.506154 0.091248
0.956781 0.689119 0.091982
0.086071 0.084324 0.090717
0.086245 0.084346 0.090717
0.118246 0.085108 0.090717
0.281377 0.089310 0.090728
0.533783 0.110243 0.090764
0.767704 0.191867 0.090830
0.890663 0.338893 0.090986
0.935672 0.530102 0.091254
0.956803 0.706567 0.092000
0.086071 0.088446 0.090717
0.086482 0.089065 0.090717
0.119725 0.095812 0.090717
0.284390 0.110384 0.090733
0.537285 0.165718 0.090770
0.768731 0.274367 0.090837
0.891146 0.431435 0.090998
0.935826 0.609585 0.091282
0.956884 0.755809 0.092064
0.086071 0.146176 0.090717
0.087073 0.152912 0.090717
0.122400 0.178741 0.090717
0.289936 0.228510 0.090741
0.543739 0.323173 0.090782
0.770613 0.444825 0.090849
0.892032 0.590637 0.091026
0.936110 0.724456 0.091337
0.957032 0.826544 0.092181
0.086072 0.373111 0.090717
0.088291 0.382950 0.090717
0.131055 0.419021 0.090728
0.297873 0.483009 0.090753
0.550331 0.566210 0.090799
0.775481 0.658566 0.090872
0.893352 0.756952 0.091070
0.936532 0.832364 0.091418
0.957254 0.876926 0.092353
0.086420 0.677696 0.090728
0.090597 0.685111 0.090732
0.139602 0.707994 0.090745
0.308256 0.740868 0.090770
0.558933 0.785984 0.090820
0.788157 0.830790 0.090923
0.895126 0.859461 0.091125
0.937100 0.901346 0.091523
0.957552 0.930676 0.092578
0.088221 0.855058 0.090749
0.094371 0.856061 0.090752
0.154846 0.859800 0.090765
0.321439 0.873516 0.090800
0.569822 0.893344 0.090849
0.794425 0.917257 0.090983
0.897367 0.931500 0.091193
0.937818 0.940185 0.091718
0.957929 0.948079 0.092855
0.091903 0.934521 0.090777
0.101616 0.934924 0.090783
0.173186 0.936328 0.090801
0.337509 0.938853 0.090832
0.582732 0.942497 0.090913
0.802021 0.946928 0.091069
0.900080 0.950839 0.091324
0.938688 0.958401 0.091943
0.958388 0.964264 0.093181
0.099010 0.957040 0.090818
0.112030 0.957399 0.090823
0.195922 0.958542 0.090841
0.356540 0.960159 0.090894
0.597864 0.962511 0.091000
0.808844 0.965575 0.091170
0.903267 0.969166 0.091521
0.939713 0.972999 0.092377
0.958928 0.976626 0.093549
0.086071 0.084324 0.092063
0.086189 0.084324 0.092117
0.117831 0.084505 0.092306
0.280539 0.087682 0.092643
0.532808 0.103997 0.093119
0.767418 0.172186 0.093802
0.890529 0.319877 0.095735
0.935629 0.508238 0.099189
0.956781 0.690881 0.105197
0.086071 0.084324 0.092081
0.086245 0.084363 0.092135
0.118246 0.085206 0.092324
0.281377 0.089624 0.092659
0.533783 0.110903 0.093134
0.767704 0.193829 0.093835
0.890663 0.340657 0.095772
0.935672 0.532020 0.099268
0.956803 0.707762 0.105329
0.086071 0.088582 0.092145
0.086482 0.089286 0.092198
0.119725 0.096272 0.092385
0.284390 0.111044 0.092718
0.537285 0.167433 0.093189
0.768731 0.276155 0.093953
0.891146 0.433889 0.095932
0.935826 0.611072 0.099555
0.956884 0.756972 0.105803
0.086071 0.147750 0.092261
0.087073 0.154583 0.092313
0.122400 0.180516 0.092497
0.289936 0.230593 0.092825
0.543739 0.324924 0.093290
0.770613 0.447306 0.094213
0.892032 0.592581 0.096268
0.936110 0.725640 0.100080
0.957032 0.827081 0.106672
0.086072 0.375445 0.092430
0.088291 0.385305 0.092481
0.131055 0.421451 0.092662
0.297873 0.485074 0.092982
0.550331 0.568143 0.093438
0.775481 0.660036 0.094597
0.893352 0.758114 0.096766
0.936532 0.832837 0.100860
0.957254 0.877409 0.107971
0.086420 0.679474 0.092654
0.090597 0.686873 0.092703
0.139602 0.709189 0.092878
0.308256 0.742041 0.093190
0.558933 0.786930 0.093664
0.788157 0.831265 0.095107
0.895126 0.859962 0.097428
0.937100 0.901806 0.101904
0.957552 0.930798 0.109596
0.088221 0.855477 0.092928
0.094371 0.856242 0.092976
0.154846 0.860301 0.093144
0.321439 0.874002 0.093445
0.569822 0.893812 0.094210
0.794425 0.917633 0.095741
0.897367 0.931621 0.098342
0.937818 0.940274 0.103215
0.957929 0.948134 0.110728
0.091903 0.934624 0.093250
0.101616 0.935018 0.093296
0.173186 0.936420 0.093457
0.337509 0.938942 0.093870
0.582732 0.942583 0.095011
0.802021 0.946984 0.096758
0.900080 0.950930 0.099951
0.938688 0.958459 0.104914
0.958388 0.964319 0.113129
0.099010 0.957126 0.093640
0.112030 0.957485 0.093700
0.195922 0.958601 0.094039
0.356540 0.960216 0.094813
0.597864 0.962567 0.095967
0.808844 0.965628 0.098017
0.903267 0.969211 0.101886
0.939713 0.973042 0.108156
0.958928 0.976657 0.116741
0.086071 0.084324 0.156228
0.086189 0.084324 0.157198
0.117831 0.084590 0.160710
0.280539 0.087955 0.167874
0.532808 0.105086 0.179591
0.767418 0.175384 0.196112
0.890529 0.323459 0.218278
0.935629 0.512077 0.247916
0.956781 0.694123 0.288683
0.086071 0.084324 0.156549
0.086245 0.084423 0.157521
0.118246 0.085506 0.161035
0.281377 0.090376 0.168260
0.533783 0.112110 0.179991
0.767704 0.197458 0.196532
0.890663 0.343907 0.218723
0.935672 0.535551 0.248438
0.956803 0.709960 0.289270
0.086071 0.088826 0.157707
0.086482 0.089877 0.158682
0.119725 0.097223 0.162208
0.284390 0.112250 0.169650
0.537285 0.170602 0.181433
0.768731 0.279452 0.198045
0.891146 0.438418 0.220327
0.935826 0.613806 0.250318
0.956884 0.759110 0.291384
0.086071 0.150659 0.159847
0.087073 0.157674 0.160828
0.122400 0.184051 0.164523
0.289936 0.234523 0.172224
0.543739 0.328150 0.184103
0.770613 0.451883 0.200845
0.892032 0.596159 0.223294
0.936110 0.727815 0.253799
0.957032 0.828069 0.295298
0.086072 0.379752 0.163074
0.088291 0.389651 0.164161
0.131055 0.425934 0.168317
0.297873 0.488878 0.176114
0.550331 0.571703 0.188136
0.775481 0.662874 0.205074
0.893352 0.760251 0.227774
0.936532 0.833705 0.259058
0.957254 0.878298 0.301064
0.086420 0.682714 0.168127
0.090597 0.690114 0.169293
0.139602 0.711384 0.173520
0.308256 0.744196 0.181445
0.558933 0.788669 0.193663
0.788157 0.832136 0.210865
0.895126 0.860883 0.233904
0.937100 0.902652 0.266266
0.957552 0.931023 0.308537
0.088221 0.855813 0.174755
0.094371 0.856576 0.175946
0.154846 0.861221 0.180262
0.321439 0.874897 0.188352
0.569822 0.894672 0.200818
0.794425 0.918323 0.218358
0.897367 0.931845 0.242122
0.937818 0.940436 0.275600
0.957929 0.948234 0.318191
0.091903 0.934797 0.183042
0.101616 0.935190 0.184264
0.173186 0.936590 0.188689
0.337509 0.939107 0.196982
0.582732 0.942741 0.209752
0.802021 0.947086 0.227706
0.900080 0.951097 0.252939
0.938688 0.958568 0.287426
0.958388 0.964419 0.330212
0.099010 0.957283 0.193153
0.112030 0.957642 0.194411
0.195922 0.958709 0.198968
0.356540 0.960322 0.207502
0.597864 0.962670 0.220634
0.808844 0.965726 0.239120
0.903267 0.969295 0.266141
0.939713 0.973120 0.301848
0.958928 0.976716 0.344809
0.086071 0.084324 0.561411
0.086189 0.084324 0.562731
0.117831 0.084736 0.567480
0.280539 0.088346 0.576244
0.532808 0.106696 0.589421
0.767418 0.180203 0.607350
0.890529 0.328284 0.622267
0.935629 0.517830 0.643660
0.956781 0.698974 0.673171
0.086071 0.084370 0.561849
0.086245 0.084557 0.563169
0.118246 0.085929 0.567919
0.281377 0.091774 0.576685
0.533783 0.114214 0.589864
0.767704 0.202934 0.607797
0.890663 0.348778 0.622470
0.935672 0.540839 0.644055
0.956803 0.713243 0.673569
0.086071 0.089374 0.563421
0.086482 0.091216 0.564742
0.119725 0.098790 0.569495
0.284390 0.114384 0.578268
0.537285 0.175379 0.591457
0.768731 0.284459 0.609402
0.891146 0.445224 0.623203
0.935826 0.617893 0.645476
0.956884 0.762304 0.675001
0.086071 0.155239 0.566317
0.087073 0.162333 0.567640
0.122400 0.189386 0.572399
0.289936 0.241136 0.581184
0.543739 0.332986 0.594390
0.770613 0.458760 0.612358
0.892032 0.601516 0.624549
0.936110 0.731065 0.648092
0.957032 0.829542 0.677636
0.086072 0.386228 0.570656
0.088291 0.396184 0.571982
0.131055 0.432672 0.576751
0.297873 0.494578 0.585553
0.550331 0.577033 0.598784
0.775481 0.668157 0.616094
0.893352 0.763443 0.627271
0.936532 0.834999 0.652008
0.957254 0.879623 0.680517
0.086420 0.687562 0.576534
0.090597 0.694963 0.577863
0.139602 0.714664 0.582645
0.308256 0.747416 0.591470
0.558933 0.791265 0.604736
0.788157 0.833437 0.618832
0.895126 0.862257 0.632534
0.937100 0.903915 0.657306
0.957552 0.931359 0.684240
0.088221 0.856313 0.584032
0.094371 0.857073 0.585365
0.154846 0.862594 0.590163
0.321439 0.876232 0.599018
0.569822 0.895955 0.612329
0.794425 0.919354 0.622303
0.897367 0.932178 0.639239
0.937818 0.940678 0.664055
0.957929 0.948384 0.688971
0.091903 0.935055 0.593226
0.101616 0.935447 0.594566
0.173186 0.936842 0.599383
0.337509 0.939352 0.608274
0.582732 0.942977 0.618309
0.802021 0.947239 0.627204
0.900080 0.951346 0.647448
0.938688 0.958730 0.672316
0.958388 0.964568 0.694741
0.099010 0.957518 0.604191
0.112030 0.957876 0.605537
0.195922 0.958870 0.610378
0.356540 0.960480 0.617248
0.597864 0.962822 0.623343
0.808844 0.965873 0.636927
0.903267 0.969419 0.657215
0.939713 0.973237 0.680910
0.958928 0.976803 0.701580
0.086071 0.084324 0.842018
0.086189 0.084324 0.842359
0.117831 0.084972 0.843581
0.280539 0.088847 0.845360
0.532808 0.108835 0.847424
0.767418 0.187362 0.850424
0.890529 0.334821 0.855395
0.935629 0.525625 0.861007
0.956781 0.703800 0.866524
0.086071 0.084535 0.842131
0.086245 0.084753 0.842472
0.118246 0.086454 0.843693
0.281377 0.093603 0.845430
0.533783 0.117899 0.847493
0.767704 0.209922 0.850522
0.890663 0.355378 0.855491
0.935672 0.547994 0.861082
0.956803 0.717668 0.866597
0.086071 0.090971 0.842537
0.086482 0.093065 0.842877
0.119725 0.100484 0.844097
0.284390 0.118139 0.845679
0.537285 0.182043 0.847740
0.768731 0.291727 0.850872
0.891146 0.454477 0.855837
0.935826 0.623409 0.861351
0.956884 0.766611 0.866861
0.086071 0.161514 0.843282
0.087073 0.168697 0.843622
0.122400 0.196685 0.844753
0.289936 0.250206 0.846137
0.543739 0.339537 0.848195
0.770613 0.466686 0.851515
0.892032 0.607974 0.856474
0.936110 0.735446 0.861845
0.957032 0.831386 0.867347
0.086072 0.395038 0.844395
0.088291 0.405073 0.844686
0.131055 0.441835 0.845440
0.297873 0.502302 0.846821
0.550331 0.584245 0.848874
0.775481 0.675303 0.852476
0.893352 0.767747 0.857423
0.936532 0.836742 0.862582
0.957254 0.881409 0.868071
0.086420 0.694114 0.845406
0.090597 0.701072 0.845615
0.139602 0.719086 0.846366
0.308256 0.751758 0.847742
0.558933 0.794765 0.849853
0.788157 0.835186 0.853771
0.895126 0.864107 0.858704
0.937100 0.905617 0.863575
0.957552 0.931812 0.869047
0.088221 0.856986 0.846583
0.094371 0.857741 0.846792
0.154846 0.864443 0.847540
0.321439 0.878030 0.848910
0.569822 0.897683 0.851509
0.794425 0.920742 0.855412
0.897367 0.932627 0.860169
0.937818 0.941003 0.864835
0.957929 0.948585 0.870285
0.091903 0.935402 0.848015
0.101616 0.935793 0.848222
0.173186 0.937183 0.848966
0.337509 0.939683 0.850626
0.582732 0.943294 0.853524
0.802021 0.947445 0.857409
0.900080 0.951681 0.861723
0.938688 0.958948 0.866366
0.958388 0.964769 0.871790
0.099010 0.957835 0.849734
0.112030 0.958191 0.850028
0.195922 0.959088 0.851085
0.356540 0.960693 0.853022
0.597864 0.963029 0.855904
0.808844 0.966071 0.859729
0.903267 0.969586 0.863558
0.939713 0.973395 0.868174
0.958928 0.976921 0.873567
0.086071 0.084324 0.934395
0.086189 0.084401 0.934572
0.117831 0.085439 0.934959
0.280539 0.090159 0.935555
0.532808 0.111835 0.936443
0.767418 0.196627 0.937633
0.890529 0.343164 0.939134
0.935629 0.534744 0.940947
0.956781 0.709458 0.943072
0.086071 0.084788 0.934454
0.086245 0.085045 0.934631
0.118246 0.087200 0.934989
0.281377 0.095839 0.935585
0.533783 0.123206 0.936472
0.767704 0.216965 0.937663
0.890663 0.365378 0.939163
0.935672 0.557111 0.940976
0.956803 0.723281 0.943100
0.086071 0.093323 0.934665
0.086482 0.095324 0.934772
0.119725 0.102545 0.935097
0.284390 0.123447 0.935692
0.537285 0.191210 0.936579
0.768731 0.304089 0.937769
0.891146 0.465249 0.939268
0.935826 0.630414 0.941080
0.956884 0.771975 0.943202
0.086071 0.169609 0.934880
0.087073 0.176903 0.934970
0.122400 0.206117 0.935294
0.289936 0.261961 0.935889
0.543739 0.347899 0.936775
0.770613 0.476402 0.937963
0.892032 0.615005 0.939460
0.936110 0.741003 0.941269
0.957032 0.833622 0.943387
0.086072 0.406343 0.935176
0.088291 0.416476 0.935266
0.131055 0.453585 0.935590
0.297873 0.512160 0.936183
0.550331 0.593434 0.937067
0.775481 0.683852 0.938253
0.893352 0.772916 0.939747
0.936532 0.838947 0.941553
0.957254 0.883672 0.943630
0.086420 0.701707 0.935575
0.090597 0.706739 0.935665
0.139602 0.724695 0.935988
0.308256 0.757265 0.936580
0.558933 0.799200 0.937461
0.788157 0.837400 0.938644
0.895126 0.866450 0.940134
0.937100 0.907773 0.941935
0.957552 0.932384 0.943958
0.088221 0.857836 0.936081
0.094371 0.859274 0.936171
0.154846 0.866784 0.936492
0.321439 0.880308 0.937082
0.569822 0.899873 0.937961
0.794425 0.922502 0.939139
0.897367 0.933196 0.940625
0.937818 0.941416 0.942420
0.957929 0.948841 0.944373
0.091903 0.935842 0.936697
0.101616 0.936231 0.936786
0.173186 0.937614 0.937107
0.337509 0.940102 0.937694
0.582732 0.943696 0.938569
0.802021 0.947705 0.939743
0.900080 0.952106 0.941223
0.938688 0.959224 0.943011
0.958388 0.965025 0.944879
0.099010 0.958232 0.937425
0.112030 0.958480 0.937514
0.195922 0.959364 0.937833
0.356540 0.960962 0.938417
0.597864 0.963290 0.939288
0.808844 0.966321 0.940456
0.903267 0.969799 0.941929
0.939713 0.973595 0.943665
0.958928 0.977070 0.945477
0.086071 0.084482 0.972636
0.086189 0.084676 0.972685
0.117831 0.086302 0.972861
0.280539 0.093063 0.973185
0.532808 0.116651 0.973457
0.767418 0.208171 0.973678
0.890529 0.353401 0.973956
0.935629 0.545852 0.974293
0.956781 0.716345 0.974395
0.086071 0.085157 0.972652
0.086245 0.085799 0.972701
0.118246 0.088076 0.972877
0.281377 0.098921 0.973201
0.533783 0.131126 0.973463
0.767704 0.226261 0.973683
0.890663 0.378839 0.973962
0.935672 0.568275 0.974298
0.956803 0.730114 0.974395
0.086071 0.096056 0.972710
0.086482 0.098302 0.972760
0.119725 0.105703 0.972936
0.284390 0.131426 0.973260
0.537285 0.202636 0.973483
0.768731 0.321650 0.973703
0.891146 0.477117 0.973981
0.935826 0.638956 0.974318
0.956884 0.777501 0.974397
0.086071 0.179669 0.972818
0.087073 0.187707 0.972867
0.122400 0.215349 0.973043
0.289936 0.272537 0.973355
0.543739 0.358157 0.973519
0.770613 0.488325 0.973739
0.892032 0.623578 0.974017
0.936110 0.747769 0.974353
0.957032 0.836336 0.974401
0.086072 0.420304 0.972979
0.088291 0.430556 0.973028
0.131055 0.466665 0.973204
0.297873 0.524256 0.973409
0.550331 0.604683 0.973573
0.775481 0.694032 0.973793
0.893352 0.778438 0.974070
0.936532 0.841623 0.974365
0.957254 0.886422 0.974407
0.086420 0.708625 0.973196
0.090597 0.713637 0.973245
0.139602 0.731522 0.973373
0.308256 0.763971 0.973483
0.558933 0.804595 0.973646
0.788157 0.840087 0.973865
0.895126 0.869298 0.974142
0.937100 0.910021 0.974373
0.957552 0.933080 0.974414
0.088221 0.860065 0.973390
0.094371 0.862164 0.973407
0.154846 0.869630 0.973467
0.321439 0.883076 0.973576
0.569822 0.902536 0.973738
0.794425 0.924640 0.973957
0.897367 0.933886 0.974233
0.937818 0.941917 0.974382
0.957929 0.949152 0.974424
0.091903 0.936377 0.973504
0.101616 0.936763 0.973521
0.173186 0.938138 0.973580
0.337509 0.940611 0.973689
0.582732 0.944184 0.973851
0.802021 0.948022 0.974069
0.900080 0.952624 0.974344
0.938688 0.959560 0.974394
0.958388 0.965335 0.974435
0.099010 0.958573 0.973639
0.112030 0.958820 0.973656
0.195922 0.959700 0.973715
0.356540 0.961291 0.973823
0.597864 0.963608 0.973985
0.808844 0.966627 0.974202
0.903267 0.970057 0.974372
0.939713 0.973839 0.974407
0.958928 0.977252 0.974449
0.086071 0.084854 0.980387
0.086189 0.085105 0.980396
0.117831 0.087361 0.980426
0.280539 0.096307 0.980483
0.532808 0.124468 0.980567
0.767418 0.218484 0.980681
0.890529 0.367735 0.980824
0.935629 0.559074 0.980998
0.956781 0.724486 0.981203
0.086071 0.086189 0.980390
0.086245 0.086797 0.980399
0.118246 0.089070 0.980429
0.281377 0.101967 0.980486
0.533783 0.140853 0.980570
0.767704 0.241582 0.980684
0.890663 0.395037 0.980827
0.935672 0.581562 0.981001
0.956803 0.738192 0.981206
0.086071 0.099624 0.980400
0.086482 0.101486 0.980409
0.119725 0.109665 0.980440
0.284390 0.141159 0.980496
0.537285 0.214373 0.980580
0.768731 0.333686 0.980694
0.891146 0.491283 0.980837
0.935826 0.649075 0.981011
0.956884 0.784026 0.981216
0.086071 0.192899 0.980419
0.087073 0.201207 0.980428
0.122400 0.226256 0.980458
0.289936 0.284933 0.980515
0.543739 0.373962 0.980599
0.770613 0.502556 0.980712
0.892032 0.633733 0.980855
0.936110 0.755768 0.981029
0.957032 0.839533 0.981234
0.086072 0.437090 0.980447
0.088291 0.447481 0.980456
0.131055 0.480769 0.980486
0.297873 0.537582 0.980543
0.550331 0.615059 0.980627
0.775481 0.704205 0.980740
0.893352 0.784957 0.980883
0.936532 0.844776 0.981057
0.957254 0.889666 0.981261
0.086420 0.716802 0.980485
0.090597 0.721790 0.980493
0.139602 0.739594 0.980524
0.308256 0.771831 0.980580
0.558933 0.810967 0.980664
0.788157 0.843253 0.980777
0.895126 0.872657 0.980920
0.937100 0.912639 0.981093
0.957552 0.933900 0.981298
0.088221 0.863488 0.980533
0.094371 0.865572 0.980541
0.154846 0.872986 0.980572
0.321439 0.886343 0.980628
0.569822 0.905679 0.980712
0.794425 0.925921 0.980825
0.897367 0.934672 0.980967
0.937818 0.942509 0.981140
0.957929 0.949496 0.981344
0.091903 0.937007 0.980591
0.101616 0.937391 0.980600
0.173186 0.938755 0.980631
0.337509 0.941211 0.980687
0.582732 0.944761 0.980770
0.802021 0.948396 0.980883
0.900080 0.953234 0.981025
0.938688 0.959957 0.981197
0.958388 0.965702 0.981401
0.099010 0.958976 0.980661
0.112030 0.959221 0.980669
0.195922 0.960096 0.980700
0.356540 0.961679 0.980756
0.597864 0.963984 0.980839
0.808844 0.966987 0.980951
0.903267 0.970363 0.981093
0.939713 0.974121 0.981265
0.958928 0.977467 0.981468
