provia100f/Provia100F_Classic_RadianceIII.cube
TITLE "Fuji Provia 100F Classic RadianceIII"
# Adobe RGB in/out. REPLACES AgX. Fuji Provia 100F Classic RadianceIII.
LUT_3D_SIZE 5
DOMAIN_MIN 0.0 0.0 0.0
DOMAIN_MAX 1.0 1.0 1.0
0.079466 0.087905 0.084059
0.171941 0.112756 0.086393
0.504354 0.251396 0.091075
0.816384 0.419288 0.109471
0.961533 0.577133 0.148173
0.080848 0.164720 0.085492
0.175584 0.206422 0.087033
0.506300 0.320183 0.092083
0.817340 0.468256 0.111354
0.961734 0.603859 0.150237
0.086747 0.415011 0.087877
0.188419 0.436222 0.089069
0.513245 0.505339 0.097154
0.820760 0.589776 0.117958
0.962455 0.688968 0.157477
0.103454 0.638809 0.093630
0.212982 0.648744 0.096745
0.525855 0.682942 0.106747
0.827005 0.739399 0.131887
0.963640 0.806491 0.171703
0.133563 0.820420 0.108775
0.248894 0.825644 0.112370
0.543917 0.843863 0.126240
0.836232 0.873269 0.152593
0.964596 0.901393 0.193114
0.079466 0.089144 0.197363
0.171941 0.114690 0.201177
0.504354 0.253359 0.214693
0.816384 0.420493 0.238862
0.961533 0.577775 0.270573
0.080848 0.166899 0.199360
0.175584 0.208608 0.203153
0.506300 0.321641 0.216668
0.817340 0.469353 0.240664
0.961734 0.604466 0.272091
0.086747 0.416225 0.206444
0.188419 0.437380 0.210166
0.513245 0.506341 0.223690
0.820760 0.590403 0.247075
0.962455 0.689478 0.277496
0.103454 0.639371 0.219433
0.212982 0.649297 0.223167
0.525855 0.683457 0.236226
0.827005 0.739842 0.258623
0.963640 0.806797 0.287662
0.133563 0.820715 0.238207
0.248894 0.825935 0.241655
0.543917 0.844141 0.253826
0.836232 0.873438 0.273837
0.964596 0.901543 0.302173
0.079466 0.092854 0.493848
0.171941 0.121413 0.495390
0.504354 0.260171 0.500888
0.816384 0.424802 0.510834
0.961533 0.580074 0.525328
0.080848 0.175418 0.494654
0.175584 0.216548 0.496194
0.506300 0.326838 0.501682
0.817340 0.473277 0.511611
0.961734 0.606641 0.526082
0.086747 0.420567 0.497538
0.188419 0.441518 0.499068
0.513245 0.509926 0.504521
0.820760 0.592648 0.514391
0.962455 0.691304 0.528775
0.103454 0.641384 0.502796
0.212982 0.651279 0.504309
0.525855 0.685305 0.509701
0.827005 0.741433 0.519463
0.963640 0.807893 0.533570
0.133563 0.821773 0.510552
0.248894 0.826979 0.512039
0.543917 0.845138 0.517343
0.836232 0.874045 0.526950
0.964596 0.902084 0.540651
0.079466 0.101883 0.745901
0.171941 0.133197 0.746750
0.504354 0.271580 0.749788
0.816384 0.432628 0.755336
0.961533 0.584279 0.763531
0.080848 0.191603 0.746345
0.175584 0.230925 0.747193
0.506300 0.336239 0.750229
0.817340 0.480361 0.755771
0.961734 0.610613 0.763961
0.086747 0.428469 0.747935
0.188419 0.449056 0.748780
0.513245 0.516468 0.751807
0.820760 0.596749 0.757334
0.962455 0.694647 0.765501
0.103454 0.645066 0.750848
0.212982 0.654903 0.751689
0.525855 0.688688 0.754700
0.827005 0.744346 0.760199
0.963640 0.809901 0.768324
0.133563 0.823711 0.755177
0.248894 0.828892 0.756012
0.543917 0.846967 0.759000
0.836232 0.875158 0.764456
0.964596 0.903075 0.772521
0.079466 0.118847 0.917845
0.171941 0.156231 0.918154
0.504354 0.287923 0.919262
0.816384 0.444040 0.921290
0.961533 0.590519 0.924296
0.080848 0.213599 0.918007
0.175584 0.250936 0.918316
0.506300 0.349941 0.919423
0.817340 0.490600 0.921449
0.961734 0.616490 0.924454
0.086747 0.439990 0.918586
0.188419 0.460156 0.918894
0.513245 0.524335 0.920000
0.820760 0.602812 0.922022
0.962455 0.699607 0.925020
0.103454 0.650546 0.919649
0.212982 0.660274 0.919956
0.525855 0.693706 0.921057
0.827005 0.748673 0.923072
0.963640 0.812886 0.926059
0.133563 0.826593 0.921232
0.248894 0.831736 0.921537
0.543917 0.849686 0.922632
0.836232 0.876813 0.924636
0.964596 0.904549 0.927607
