provia100f/Provia100F_Classic_Normal.cube
TITLE "Fuji Provia 100F Classic Normal"
# Adobe RGB in/out. REPLACES AgX. Fuji Provia 100F Classic Normal.
LUT_3D_SIZE 5
DOMAIN_MIN 0.0 0.0 0.0
DOMAIN_MAX 1.0 1.0 1.0
0.082825 0.083895 0.090792
0.105121 0.084217 0.090792
0.540397 0.110042 0.090798
0.911280 0.363771 0.090910
0.969610 0.708038 0.091514
0.082825 0.087814 0.090792
0.106873 0.095541 0.090792
0.544700 0.182883 0.090801
0.911653 0.477582 0.090931
0.969688 0.760234 0.091573
0.082989 0.355248 0.090791
0.112430 0.402839 0.090791
0.555356 0.545736 0.090825
0.912872 0.732597 0.090999
0.969970 0.858024 0.091761
0.084889 0.814975 0.090806
0.131296 0.826182 0.090822
0.574858 0.855862 0.090878
0.915089 0.909075 0.091184
0.970484 0.940846 0.092481
0.089936 0.944607 0.090902
0.170245 0.946005 0.090942
0.603785 0.949415 0.091111
0.918344 0.958851 0.091680
0.971244 0.968619 0.093451
0.082825 0.083895 0.093638
0.105121 0.084305 0.093842
0.540397 0.110961 0.095255
0.911280 0.366462 0.099868
0.969610 0.709282 0.111764
0.082825 0.088016 0.093725
0.106873 0.096176 0.093990
0.544700 0.185228 0.095504
0.911653 0.479499 0.100390
0.969688 0.761433 0.112642
0.082989 0.357316 0.094273
0.112430 0.405619 0.094673
0.555356 0.547646 0.096596
0.912872 0.733820 0.102240
0.969970 0.858206 0.116069
0.084889 0.815826 0.095859
0.131296 0.826675 0.096506
0.574858 0.856047 0.099101
0.915089 0.909534 0.106319
0.970484 0.940929 0.123990
0.089936 0.944686 0.099677
0.170245 0.946083 0.100677
0.603785 0.949465 0.104172
0.918344 0.958911 0.113655
0.971244 0.968665 0.137790
0.082825 0.083895 0.534368
0.105121 0.084588 0.537849
0.540397 0.114231 0.550354
0.911280 0.376181 0.573356
0.969610 0.713742 0.607755
0.082825 0.088708 0.536186
0.106873 0.098409 0.539667
0.544700 0.193742 0.552171
0.911653 0.486383 0.575173
0.969688 0.765539 0.609571
0.082989 0.366627 0.542716
0.112430 0.415659 0.546197
0.555356 0.554505 0.558700
0.912872 0.738204 0.581700
0.969970 0.860040 0.615778
0.084889 0.818873 0.554729
0.131296 0.828441 0.558210
0.574858 0.856712 0.570711
0.915089 0.911177 0.593708
0.970484 0.941226 0.621245
0.089936 0.944970 0.572697
0.170245 0.946360 0.576177
0.603785 0.949644 0.588675
0.918344 0.959125 0.611668
0.971244 0.968831 0.633360
0.082825 0.083907 0.885364
0.105121 0.085235 0.885922
0.540397 0.122332 0.887917
0.911280 0.394277 0.891551
0.969610 0.721912 0.896898
0.082825 0.091165 0.885655
0.106873 0.102228 0.886213
0.544700 0.209448 0.888206
0.911653 0.499044 0.891836
0.969688 0.772495 0.897178
0.082989 0.384575 0.886700
0.112430 0.434337 0.887255
0.555356 0.567120 0.889241
0.912872 0.746235 0.892858
0.969970 0.863399 0.898180
0.084889 0.822898 0.888612
0.131296 0.831666 0.889164
0.574858 0.857924 0.891136
0.915089 0.914184 0.894727
0.970484 0.941771 0.900014
0.089936 0.945489 0.891448
0.170245 0.946709 0.891993
0.603785 0.949971 0.893945
0.918344 0.959518 0.897500
0.971244 0.969136 0.902734
0.082825 0.084489 0.971860
0.105121 0.087006 0.971972
0.540397 0.139154 0.972374
0.911280 0.421852 0.973110
0.969610 0.734046 0.973638
0.082825 0.097591 0.971918
0.106873 0.109827 0.972031
0.544700 0.228733 0.972433
0.911653 0.517966 0.973168
0.969688 0.781320 0.973657
0.082989 0.411935 0.972129
0.112430 0.462339 0.972241
0.555356 0.585977 0.972642
0.912872 0.758167 0.973358
0.969970 0.868378 0.973727
0.084889 0.827788 0.972515
0.131296 0.836436 0.972626
0.574858 0.862454 0.973026
0.915089 0.918649 0.973487
0.970484 0.942579 0.973854
0.089936 0.946259 0.973089
0.170245 0.947226 0.973200
0.603785 0.950480 0.973433
0.918344 0.960101 0.973680
0.971244 0.969590 0.974044
