provia100f/Provia100F_Classic_RadianceIII.cube
TITLE "Fuji Provia 100F Classic RadianceIII"
# Adobe RGB in/out. REPLACES AgX. Fuji Provia 100F Classic RadianceIII.
LUT_3D_SIZE 33
DOMAIN_MIN 0.0 0.0 0.0
DOMAIN_MAX 1.0 1.0 1.0
0.079466 0.087905 0.084059
0.079896 0.088115 0.084085
0.081560 0.088950 0.084214
0.085459 0.090537 0.084436
0.091714 0.092284 0.084746
0.104889 0.094091 0.085057
0.122624 0.099376 0.085511
0.144148 0.105126 0.085897
0.171941 0.112756 0.086393
0.207628 0.122718 0.086799
0.248281 0.133348 0.087136
0.290577 0.149260 0.087481
0.332537 0.166397 0.087916
0.376279 0.186696 0.088318
0.422188 0.207496 0.089117
0.463715 0.229400 0.090096
0.504354 0.251396 0.091075
0.544872 0.272384 0.092325
0.585393 0.292633 0.093962
0.626733 0.312588 0.096308
0.666982 0.333340 0.098587
0.706203 0.354316 0.100805
0.744527 0.375680 0.103096
0.782744 0.397331 0.106034
0.816384 0.419288 0.109471
0.848752 0.441368 0.113211
0.876991 0.463541 0.116925
0.897539 0.485692 0.121806
0.916079 0.507594 0.126710
0.931675 0.527077 0.131629
0.941852 0.543833 0.136746
0.951800 0.560504 0.142437
0.961533 0.577133 0.148173
0.079469 0.088345 0.084071
0.079909 0.088603 0.084105
0.081570 0.089575 0.084229
0.085478 0.090940 0.084450
0.091737 0.092648 0.084761
0.104915 0.094743 0.085074
0.122656 0.100049 0.085523
0.144178 0.105948 0.085906
0.171979 0.113611 0.086403
0.207666 0.123553 0.086805
0.248317 0.134068 0.087141
0.290609 0.150298 0.087487
0.332567 0.167354 0.087921
0.376308 0.187773 0.088322
0.422215 0.208459 0.089127
0.463737 0.230346 0.090105
0.504374 0.252263 0.091086
0.544890 0.273131 0.092335
0.585411 0.293294 0.093980
0.626749 0.313251 0.096324
0.666997 0.333964 0.098602
0.706217 0.354916 0.100819
0.744540 0.376255 0.103113
0.782756 0.397885 0.106050
0.816394 0.419820 0.109491
0.848761 0.441874 0.113230
0.876996 0.464028 0.116942
0.897544 0.486148 0.121828
0.916084 0.508035 0.126732
0.931678 0.527406 0.131650
0.941854 0.544140 0.136769
0.951803 0.560799 0.142459
0.961535 0.577416 0.148195
0.079496 0.090501 0.084131
0.079951 0.090679 0.084173
0.081608 0.091269 0.084294
0.085545 0.092458 0.084495
0.091820 0.093714 0.084812
0.105012 0.097569 0.085133
0.122770 0.102273 0.085563
0.144285 0.108745 0.085935
0.172114 0.116614 0.086440
0.207802 0.126472 0.086826
0.248446 0.137665 0.087158
0.290724 0.153985 0.087509
0.332674 0.170862 0.087939
0.376410 0.191516 0.088338
0.422313 0.211932 0.089163
0.463816 0.233720 0.090136
0.504446 0.255363 0.091125
0.544957 0.275804 0.092369
0.585474 0.295661 0.094043
0.626810 0.315626 0.096381
0.667050 0.336200 0.098655
0.706268 0.357067 0.100867
0.744586 0.378314 0.103175
0.782801 0.399868 0.106108
0.816430 0.421726 0.109562
0.848795 0.443689 0.113297
0.877018 0.465777 0.117024
0.897561 0.487785 0.121909
0.916101 0.509614 0.126809
0.931686 0.528589 0.131724
0.941862 0.545244 0.136851
0.951810 0.561858 0.142539
0.961543 0.578433 0.148272
0.079577 0.093103 0.084247
0.080057 0.093227 0.084288
0.081674 0.093643 0.084415
0.085666 0.095054 0.084616
0.091973 0.098340 0.084895
0.105189 0.101990 0.085234
0.122980 0.107174 0.085634
0.144482 0.113540 0.085986
0.172364 0.122086 0.086507
0.208053 0.131549 0.086865
0.248683 0.144842 0.087189
0.290935 0.160598 0.087548
0.332871 0.178220 0.087972
0.376598 0.198115 0.088365
0.422494 0.218399 0.089230
0.463961 0.239651 0.090194
0.504579 0.260781 0.091197
0.545079 0.280674 0.092433
0.585591 0.299974 0.094159
0.626921 0.319926 0.096487
0.667148 0.340283 0.098751
0.706361 0.360998 0.100956
0.744671 0.382081 0.103289
0.782882 0.403499 0.106214
0.816495 0.425218 0.109692
0.848857 0.447013 0.113420
0.877056 0.468982 0.117178
0.897594 0.490785 0.122056
0.916132 0.512509 0.126950
0.931703 0.530702 0.131860
0.941878 0.547267 0.137001
0.951825 0.563798 0.142685
0.961557 0.580297 0.148413
0.079709 0.099113 0.084431
0.080228 0.099402 0.084457
0.081890 0.100399 0.084562
0.085844 0.102099 0.084778
0.092200 0.104923 0.085003
0.105453 0.109294 0.085371
0.123294 0.114583 0.085732
0.144777 0.121747 0.086099
0.172737 0.130002 0.086579
0.208429 0.140785 0.086921
0.249038 0.155101 0.087234
0.291251 0.170122 0.087606
0.333166 0.188968 0.088020
0.376880 0.207764 0.088406
0.422763 0.227897 0.089327
0.464178 0.248374 0.090279
0.504778 0.268335 0.091303
0.545263 0.287752 0.092528
0.585766 0.306384 0.094332
0.627087 0.326251 0.096644
0.667295 0.346324 0.098895
0.706500 0.366820 0.101088
0.744799 0.387664 0.103459
0.783003 0.408886 0.106372
0.816592 0.430402 0.109886
0.848950 0.451951 0.113603
0.877114 0.473744 0.117408
0.897643 0.495245 0.122276
0.916178 0.516816 0.127162
0.931728 0.533838 0.132063
0.941901 0.550273 0.137226
0.951847 0.566683 0.142902
0.961577 0.583069 0.148624
0.079914 0.108538 0.084649
0.080415 0.108851 0.084682
0.082208 0.109950 0.084788
0.086078 0.111885 0.084945
0.092502 0.115165 0.085200
0.105807 0.119675 0.085533
0.123716 0.125637 0.085853
0.145174 0.132296 0.086255
0.173241 0.142313 0.086670
0.208935 0.154802 0.086993
0.249517 0.168194 0.087293
0.291677 0.184861 0.087681
0.333564 0.202315 0.088083
0.377260 0.220759 0.088471
0.423127 0.240164 0.089457
0.464471 0.259767 0.090392
0.505047 0.278306 0.091445
0.545510 0.296611 0.092654
0.586001 0.315291 0.094563
0.627311 0.334653 0.096855
0.667492 0.354380 0.099088
0.706688 0.374580 0.101266
0.744971 0.395140 0.103687
0.783167 0.416083 0.106585
0.816724 0.437263 0.110147
0.849075 0.458559 0.113850
0.877192 0.480061 0.117717
0.897709 0.501220 0.122573
0.916240 0.521582 0.127447
0.931761 0.538036 0.132338
0.941932 0.554299 0.137530
0.951876 0.570550 0.143197
0.961605 0.586809 0.148910
0.080185 0.121935 0.084894
0.080631 0.122289 0.084916
0.082582 0.123545 0.084990
0.086366 0.125798 0.085170
0.092879 0.129039 0.085432
0.106254 0.133200 0.085711
0.124250 0.140189 0.085990
0.145677 0.149421 0.086437
0.173880 0.159847 0.086778
0.209579 0.171567 0.087081
0.250126 0.186587 0.087365
0.292218 0.202141 0.087774
0.334070 0.218839 0.088162
0.377744 0.236751 0.088657
0.423590 0.255033 0.089618
0.464844 0.272690 0.090534
0.505388 0.290349 0.091623
0.545824 0.307693 0.092813
0.586301 0.326243 0.094854
0.627596 0.345114 0.097121
0.667744 0.364479 0.099332
0.706927 0.384278 0.101491
0.745190 0.404507 0.103975
0.783376 0.425105 0.106854
0.816892 0.445865 0.110478
0.849235 0.466861 0.114163
0.877292 0.487842 0.118109
0.897793 0.508737 0.122949
0.916319 0.527228 0.127809
0.931804 0.543311 0.132686
0.941972 0.559362 0.137915
0.951914 0.575416 0.143570
0.961640 0.591520 0.149272
0.080473 0.139413 0.085159
0.080979 0.139870 0.085189
0.083002 0.141503 0.085289
0.086704 0.144471 0.085454
0.093532 0.148825 0.085663
0.106843 0.154560 0.085897
0.124899 0.161629 0.086232
0.146289 0.169958 0.086606
0.174660 0.181324 0.086900
0.210365 0.193938 0.087181
0.250869 0.207350 0.087490
0.292880 0.222307 0.087883
0.334687 0.238349 0.088254
0.378334 0.254989 0.088878
0.424156 0.271258 0.089811
0.465299 0.287806 0.090703
0.505805 0.303922 0.091836
0.546208 0.321359 0.093003
0.586667 0.339231 0.095205
0.627944 0.357617 0.097442
0.668051 0.376541 0.099627
0.707220 0.395913 0.101762
0.745457 0.415737 0.104325
0.783631 0.435883 0.107196
0.817097 0.456206 0.110880
0.849429 0.476854 0.114544
0.877413 0.497214 0.118587
0.897895 0.517800 0.123408
0.916416 0.533879 0.128249
0.931855 0.549659 0.133110
0.942021 0.565463 0.138384
0.951960 0.581285 0.144025
0.961683 0.597205 0.149714
0.080848 0.164720 0.085492
0.081313 0.165122 0.085514
0.083454 0.166563 0.085591
0.087115 0.169190 0.085720
0.094399 0.173624 0.085889
0.107572 0.179795 0.086140
0.125664 0.187503 0.086494
0.147012 0.196341 0.086767
0.175584 0.206422 0.087033
0.211312 0.218045 0.087292
0.251751 0.231121 0.087635
0.293664 0.244979 0.088005
0.335420 0.259719 0.088359
0.379035 0.274124 0.089131
0.424826 0.289128 0.090033
0.465839 0.303976 0.090900
0.506300 0.320183 0.092083
0.546664 0.336905 0.093363
0.587102 0.354193 0.095615
0.628357 0.372102 0.097818
0.668415 0.390500 0.099973
0.707566 0.409427 0.102081
0.745774 0.428784 0.104736
0.783934 0.448347 0.107697
0.817340 0.468256 0.111354
0.849660 0.488200 0.114993
0.877558 0.508157 0.119151
0.898017 0.526091 0.123950
0.916530 0.541587 0.128770
0.931917 0.557067 0.133611
0.942079 0.572589 0.138939
0.952014 0.588177 0.144564
0.961734 0.603859 0.150237
0.081259 0.194849 0.085787
0.081631 0.195265 0.085804
0.083929 0.196757 0.085864
0.087761 0.199485 0.085967
0.095383 0.203528 0.086176
0.108406 0.208922 0.086454
0.126546 0.215839 0.086697
0.147848 0.224221 0.086934
0.176656 0.233952 0.087174
0.212430 0.244612 0.087433
0.252774 0.256482 0.087792
0.294574 0.268488 0.088140
0.336270 0.281251 0.088515
0.379848 0.294323 0.089414
0.425605 0.307918 0.090282
0.466466 0.322800 0.091214
0.506874 0.338244 0.092364
0.547193 0.354329 0.093876
0.587606 0.371099 0.096084
0.628837 0.388419 0.098248
0.668839 0.406326 0.100368
0.707969 0.424726 0.102447
0.746143 0.443441 0.105209
0.784285 0.462507 0.108275
0.817622 0.481850 0.111900
0.849928 0.501083 0.115511
0.877725 0.520061 0.119804
0.898159 0.535277 0.124576
0.916664 0.550356 0.129372
0.931988 0.565505 0.134191
0.942146 0.580716 0.139583
0.952077 0.596059 0.145188
0.961794 0.611467 0.150843
0.081628 0.226694 0.086085
0.082325 0.227091 0.086108
0.084418 0.228516 0.086189
0.088460 0.231127 0.086331
0.096478 0.234948 0.086522
0.109344 0.239943 0.086698
0.127543 0.246213 0.086895
0.148798 0.253753 0.087104
0.177876 0.262174 0.087320
0.213706 0.271251 0.087627
0.253941 0.281363 0.087960
0.295612 0.292057 0.088285
0.337241 0.303267 0.088866
0.380776 0.315837 0.089724
0.426494 0.329184 0.090556
0.467181 0.343257 0.091561
0.507529 0.358068 0.092675
0.547797 0.373595 0.094449
0.588182 0.389740 0.096609
0.629384 0.406531 0.098730
0.669322 0.423869 0.100814
0.708428 0.441601 0.102947
0.746564 0.459725 0.105743
0.784686 0.478285 0.108928
0.817944 0.496701 0.112519
0.850235 0.515480 0.116098
0.877916 0.530844 0.120544
0.898320 0.545442 0.125288
0.916816 0.560143 0.130057
0.932070 0.574938 0.134851
0.942222 0.589855 0.140315
0.952149 0.604895 0.145898
0.961862 0.620003 0.151533
0.082411 0.259453 0.086491
0.083084 0.259776 0.086510
0.085013 0.260935 0.086560
0.089203 0.263057 0.086647
0.097677 0.266208 0.086769
0.110384 0.270425 0.086919
0.128656 0.275721 0.087090
0.149861 0.282094 0.087275
0.179248 0.289320 0.087523
0.215143 0.297220 0.087829
0.255255 0.306073 0.088135
0.296782 0.316328 0.088439
0.338333 0.327354 0.089243
0.381822 0.339211 0.090057
0.427496 0.351864 0.090853
0.467987 0.365362 0.091939
0.508268 0.379576 0.093016
0.548478 0.394485 0.095079
0.588831 0.410074 0.097188
0.630001 0.426265 0.099264
0.669866 0.442890 0.101307
0.708946 0.459986 0.103581
0.747038 0.477575 0.106337
0.785138 0.495102 0.109658
0.818307 0.513024 0.113210
0.850580 0.528369 0.116754
0.878132 0.542415 0.121374
0.898502 0.556595 0.126086
0.916987 0.570902 0.130825
0.932162 0.585335 0.135633
0.942309 0.599945 0.141137
0.952230 0.614649 0.146696
0.961938 0.629438 0.152308
0.083236 0.289805 0.086774
0.083804 0.290084 0.086785
0.085790 0.291082 0.086827
0.089984 0.292912 0.086900
0.098974 0.295632 0.087003
0.111654 0.299274 0.087132
0.130024 0.303854 0.087281
0.151037 0.309600 0.087486
0.180773 0.316421 0.087756
0.216741 0.324125 0.088035
0.256718 0.332753 0.088317
0.298083 0.342281 0.088859
0.339550 0.352682 0.089639
0.382986 0.363986 0.090411
0.428608 0.376089 0.091286
0.468885 0.388952 0.092345
0.509091 0.402592 0.093685
0.549236 0.416922 0.095764
0.589554 0.431894 0.097819
0.630689 0.447317 0.099846
0.670473 0.463314 0.101846
0.709524 0.479797 0.104277
0.747566 0.496334 0.106990
0.785642 0.513325 0.110462
0.818712 0.527914 0.113973
0.850965 0.541340 0.117649
0.878372 0.554928 0.122293
0.898705 0.568679 0.126969
0.917178 0.582577 0.131676
0.932265 0.596691 0.136573
0.942405 0.610931 0.142050
0.952321 0.625283 0.147582
0.962023 0.639736 0.153169
0.084002 0.319700 0.087030
0.084488 0.319969 0.087040
0.086564 0.320934 0.087075
0.090795 0.322704 0.087137
0.100361 0.325338 0.087225
0.113272 0.328872 0.087337
0.131525 0.333325 0.087521
0.152326 0.338705 0.087747
0.182452 0.345009 0.087989
0.218505 0.352229 0.088243
0.258331 0.360398 0.088589
0.299519 0.369445 0.089320
0.340893 0.379344 0.090053
0.384272 0.390067 0.090783
0.429671 0.401624 0.091762
0.469876 0.413941 0.092776
0.509999 0.426984 0.094484
0.550073 0.440611 0.096500
0.590353 0.454841 0.098498
0.631449 0.469687 0.100475
0.671143 0.484907 0.102430
0.710161 0.500407 0.105034
0.748150 0.516404 0.107872
0.786199 0.529539 0.111339
0.819159 0.542251 0.114806
0.851390 0.555183 0.118696
0.878637 0.568316 0.123300
0.898929 0.581632 0.127939
0.917389 0.595186 0.132610
0.932378 0.608905 0.137607
0.942511 0.622764 0.143053
0.952421 0.636752 0.148557
0.962118 0.650885 0.154116
0.084717 0.350724 0.087267
0.085361 0.350974 0.087276
0.087492 0.351875 0.087306
0.091834 0.353538 0.087359
0.101831 0.356014 0.087471
0.115013 0.359340 0.087622
0.133151 0.363538 0.087801
0.153728 0.368617 0.088002
0.184286 0.374579 0.088221
0.220434 0.381419 0.088452
0.260007 0.389125 0.089113
0.301090 0.397713 0.089793
0.342363 0.407133 0.090480
0.385679 0.417359 0.091284
0.430835 0.428365 0.092260
0.470961 0.440019 0.093373
0.510993 0.452354 0.095331
0.550990 0.465370 0.097283
0.591227 0.479005 0.099223
0.632281 0.492865 0.101148
0.671877 0.507287 0.103219
0.710860 0.521313 0.105848
0.748789 0.533185 0.108872
0.786809 0.545150 0.112288
0.819649 0.557373 0.115708
0.851856 0.569833 0.119834
0.878928 0.582512 0.124395
0.899174 0.595465 0.128993
0.917621 0.608608 0.133627
0.932502 0.621923 0.138734
0.942628 0.635395 0.144147
0.952530 0.649031 0.149620
0.962221 0.662850 0.155150
0.085755 0.382532 0.087554
0.086328 0.382769 0.087566
0.088656 0.383618 0.087606
0.093078 0.385177 0.087677
0.103376 0.387501 0.087781
0.116872 0.390630 0.087913
0.134900 0.394592 0.088072
0.155439 0.399393 0.088252
0.186275 0.405038 0.088450
0.222530 0.411524 0.089028
0.261932 0.418844 0.089641
0.302798 0.426986 0.090274
0.343961 0.435876 0.090927
0.387210 0.445497 0.091851
0.432087 0.455870 0.092778
0.472141 0.466970 0.094336
0.512075 0.478750 0.096223
0.551987 0.490855 0.098109
0.592179 0.503581 0.099991
0.633186 0.516901 0.101862
0.672676 0.527949 0.104144
0.711620 0.538829 0.106718
0.749486 0.550008 0.109944
0.787473 0.561480 0.113307
0.820183 0.573224 0.116677
0.852363 0.585234 0.121062
0.879244 0.597537 0.125576
0.899441 0.610059 0.130132
0.917872 0.622783 0.134726
0.932637 0.635693 0.139954
0.942754 0.648793 0.145332
0.952649 0.662101 0.150772
0.962333 0.675559 0.156270
0.086747 0.415011 0.087877
0.087370 0.415234 0.087887
0.089805 0.416037 0.087922
0.095141 0.417512 0.087985
0.104989 0.419711 0.088075
0.118845 0.422668 0.088193
0.136768 0.426407 0.088334
0.157753 0.430943 0.088571
0.188419 0.436222 0.089069
0.224795 0.442296 0.089606
0.264012 0.449160 0.090172
0.304644 0.456804 0.090760
0.345689 0.465216 0.091560
0.388866 0.474381 0.092432
0.433439 0.484093 0.093538
0.473417 0.494384 0.095339
0.513245 0.505339 0.097154
0.553066 0.516935 0.098976
0.593209 0.526676 0.100797
0.634166 0.536377 0.102615
0.673541 0.546398 0.105124
0.712443 0.556766 0.107795
0.750239 0.567459 0.111086
0.788192 0.578456 0.114393
0.820760 0.589776 0.117958
0.852912 0.601390 0.122377
0.879587 0.613252 0.126843
0.899730 0.625345 0.131354
0.918145 0.637653 0.135992
0.932783 0.650185 0.141267
0.942892 0.662942 0.146607
0.952778 0.675874 0.152012
0.962455 0.688968 0.157477
0.088041 0.447863 0.088181
0.088731 0.448072 0.088190
0.090937 0.448822 0.088221
0.097249 0.450200 0.088276
0.106693 0.452255 0.088356
0.120927 0.455020 0.088473
0.138754 0.458519 0.088825
0.160230 0.462766 0.089232
0.190799 0.467770 0.089686
0.227229 0.473533 0.090179
0.266248 0.479994 0.090702
0.306628 0.487049 0.091399
0.347547 0.494821 0.092202
0.390653 0.503297 0.093024
0.434894 0.512460 0.094652
0.474790 0.521352 0.096377
0.514505 0.529469 0.098121
0.554228 0.537837 0.099878
0.594317 0.546619 0.101640
0.635221 0.555795 0.103702
0.674472 0.565343 0.106155
0.713330 0.575242 0.109066
0.751050 0.585486 0.112295
0.788966 0.596089 0.115545
0.821381 0.606987 0.119413
0.853503 0.618161 0.123778
0.879956 0.629592 0.128195
0.900041 0.641266 0.132658
0.918438 0.653204 0.137438
0.932941 0.665376 0.142671
0.943039 0.677747 0.147972
0.952917 0.690304 0.153339
0.962586 0.703034 0.158769
0.089424 0.480936 0.088497
0.090044 0.481128 0.088518
0.092440 0.481818 0.088593
0.099395 0.483084 0.088730
0.108687 0.484973 0.088929
0.123111 0.487517 0.089190
0.140852 0.490736 0.089508
0.162872 0.494647 0.089878
0.193450 0.499256 0.090293
0.229833 0.504569 0.090746
0.268641 0.510584 0.091371
0.308752 0.517298 0.092096
0.349536 0.523226 0.092850
0.392568 0.529478 0.094176
0.436452 0.536070 0.095794
0.476261 0.543127 0.097445
0.515853 0.550631 0.099120
0.555472 0.558563 0.100813
0.595505 0.566904 0.102516
0.636352 0.575636 0.104844
0.675469 0.584748 0.107265
0.714279 0.594260 0.110403
0.751920 0.604108 0.113569
0.789796 0.614274 0.116761
0.822048 0.624740 0.120954
0.854137 0.635488 0.125264
0.880351 0.646509 0.129629
0.900375 0.657829 0.134043
0.918753 0.669388 0.138976
0.933109 0.681168 0.144166
0.943198 0.693158 0.149426
0.953066 0.705344 0.154754
0.962726 0.717598 0.160147
0.090752 0.513531 0.089258
0.091381 0.513713 0.089277
0.094662 0.514366 0.089344
0.101571 0.515567 0.089467
0.110742 0.517360 0.089646
0.125393 0.519390 0.089882
0.143060 0.521769 0.090170
0.165675 0.524657 0.090508
0.196271 0.528057 0.090888
0.232608 0.531886 0.091478
0.271192 0.536198 0.092117
0.311015 0.541002 0.092794
0.351657 0.546291 0.093924
0.394611 0.552055 0.095418
0.438113 0.558282 0.096960
0.477829 0.564958 0.098539
0.517292 0.572068 0.100147
0.556799 0.579596 0.101777
0.596773 0.587554 0.103727
0.637559 0.595921 0.106033
0.676534 0.604658 0.108733
0.715271 0.613750 0.111802
0.752849 0.623179 0.114905
0.790671 0.632928 0.118387
0.822759 0.642980 0.122579
0.854813 0.653359 0.126833
0.880773 0.664024 0.131144
0.900731 0.674948 0.135537
0.919089 0.686117 0.140606
0.933289 0.697515 0.145751
0.943367 0.709131 0.150969
0.953226 0.720711 0.156256
0.962876 0.732255 0.161610
0.092410 0.539785 0.089986
0.093216 0.539915 0.090003
0.097254 0.540381 0.090064
0.103771 0.541237 0.090174
0.113405 0.542514 0.090337
0.127767 0.544232 0.090550
0.145374 0.546407 0.090813
0.168639 0.549049 0.091217
0.199262 0.552162 0.091714
0.235476 0.555748 0.092263
0.273900 0.559807 0.092857
0.313418 0.564335 0.093901
0.353926 0.569327 0.095258
0.396783 0.574773 0.096676
0.439878 0.580665 0.098145
0.479452 0.587014 0.099655
0.518822 0.593802 0.101198
0.558211 0.601001 0.102818
0.598121 0.608597 0.105025
0.638842 0.616575 0.107303
0.677667 0.624920 0.110260
0.716308 0.633616 0.113261
0.753836 0.642647 0.116300
0.791469 0.652033 0.120155
0.823516 0.661739 0.124286
0.855534 0.671738 0.128482
0.881222 0.682014 0.132739
0.901111 0.692555 0.137306
0.919446 0.703345 0.142326
0.933481 0.714372 0.147425
0.943547 0.725201 0.152598
0.953395 0.736213 0.157844
0.963036 0.747411 0.163291
0.094945 0.564590 0.090683
0.096061 0.564712 0.090699
0.099834 0.565150 0.090754
0.105990 0.565954 0.090855
0.116256 0.567154 0.091047
0.130410 0.568771 0.091324
0.147791 0.570817 0.091666
0.171762 0.573304 0.092068
0.202422 0.576237 0.092527
0.238476 0.579618 0.093037
0.276766 0.583451 0.094107
0.315962 0.587755 0.095317
0.356329 0.592503 0.096600
0.399083 0.597691 0.097947
0.441746 0.603311 0.099347
0.481166 0.609352 0.100791
0.520443 0.615805 0.102271
0.559706 0.622658 0.104225
0.599550 0.629898 0.106361
0.640203 0.637513 0.108959
0.678868 0.645490 0.111844
0.717408 0.653855 0.114777
0.754884 0.662555 0.118009
0.792314 0.671577 0.122004
0.824319 0.680907 0.126073
0.856297 0.690530 0.130210
0.881698 0.700434 0.134410
0.901512 0.710605 0.139165
0.919826 0.720786 0.144135
0.933684 0.731036 0.149186
0.943738 0.741501 0.154314
0.953575 0.752169 0.159516
0.963205 0.763028 0.165241
0.097827 0.589339 0.091547
0.098867 0.589455 0.091567
0.102400 0.589870 0.091639
0.108494 0.590632 0.091769
0.119181 0.591771 0.091961
0.133262 0.593304 0.092215
0.150306 0.595247 0.092529
0.175042 0.597608 0.092901
0.205751 0.600395 0.093568
0.241639 0.603611 0.094532
0.279790 0.607257 0.095591
0.318627 0.611332 0.096732
0.358866 0.615833 0.097948
0.401513 0.620756 0.099227
0.443719 0.626093 0.100562
0.482976 0.631838 0.101942
0.522155 0.637981 0.103643
0.561287 0.644513 0.105664
0.601060 0.651452 0.107913
0.641642 0.658765 0.110668
0.680137 0.666434 0.113481
0.718570 0.674448 0.116346
0.755992 0.682794 0.120002
0.793208 0.691459 0.123931
0.825168 0.700430 0.127937
0.857105 0.709696 0.132014
0.882201 0.719068 0.136281
0.901938 0.728502 0.141113
0.920226 0.738178 0.146032
0.933899 0.748084 0.151034
0.943940 0.758209 0.156115
0.953765 0.768329 0.161272
0.963385 0.778228 0.167293
0.100663 0.614114 0.092467
0.101634 0.614223 0.092485
0.104952 0.614615 0.092551
0.111089 0.615336 0.092670
0.122175 0.616412 0.092847
0.136208 0.617862 0.093080
0.152916 0.619700 0.093658
0.178479 0.621935 0.094359
0.209247 0.624574 0.095166
0.244964 0.627621 0.096071
0.282973 0.631078 0.097068
0.321416 0.634945 0.098146
0.361536 0.639219 0.099298
0.404072 0.643898 0.100514
0.445796 0.648994 0.101786
0.484881 0.654493 0.103289
0.523959 0.660379 0.105183
0.562952 0.666644 0.107134
0.602652 0.673279 0.109745
0.643158 0.680275 0.112426
0.681476 0.687620 0.115168
0.719796 0.695303 0.118292
0.757160 0.703315 0.122070
0.794151 0.711642 0.125933
0.826063 0.720059 0.129876
0.857957 0.728636 0.133892
0.882732 0.737479 0.138371
0.902386 0.746577 0.143148
0.920649 0.755919 0.148015
0.934126 0.765461 0.152967
0.944153 0.774674 0.158000
0.953965 0.784078 0.163235
0.963543 0.793193 0.169447
0.103454 0.638809 0.093630
0.104365 0.638912 0.093664
0.107643 0.639284 0.093787
0.114523 0.639967 0.094011
0.125232 0.640987 0.094342
0.139242 0.642361 0.094783
0.155978 0.644103 0.095333
0.182069 0.646228 0.095988
0.212982 0.648744 0.096745
0.248452 0.651652 0.097597
0.286313 0.654953 0.098536
0.324344 0.658647 0.099556
0.364341 0.662735 0.100648
0.406761 0.667212 0.101805
0.447978 0.672076 0.103167
0.486883 0.677322 0.104923
0.525855 0.682942 0.106747
0.564703 0.688930 0.109086
0.604326 0.695277 0.111621
0.644753 0.701976 0.114229
0.682883 0.709017 0.116902
0.721086 0.716326 0.120501
0.758388 0.723724 0.124210
0.795142 0.731418 0.128008
0.827005 0.739399 0.131887
0.858853 0.747655 0.135920
0.883290 0.756177 0.140546
0.902857 0.764954 0.145268
0.921094 0.773438 0.150082
0.934365 0.782136 0.154983
0.944377 0.790973 0.159967
0.954176 0.798661 0.165531
0.963640 0.806491 0.171703
0.106205 0.663519 0.095390
0.107152 0.663618 0.095421
0.110553 0.663973 0.095536
0.117999 0.664624 0.095745
0.128347 0.665598 0.096054
0.142361 0.666910 0.096466
0.159969 0.668574 0.096980
0.185812 0.670599 0.097595
0.216946 0.672993 0.098306
0.252102 0.675759 0.099108
0.289585 0.678901 0.099995
0.327409 0.682421 0.100960
0.367279 0.686317 0.101997
0.409580 0.690588 0.103277
0.450263 0.695231 0.104888
0.488982 0.700241 0.106575
0.527842 0.705614 0.108696
0.566538 0.711344 0.111076
0.606081 0.717319 0.113538
0.646390 0.723492 0.116075
0.684360 0.729984 0.119237
0.722439 0.736787 0.122780
0.759678 0.743890 0.126421
0.796183 0.751286 0.130152
0.827993 0.758965 0.133967
0.859794 0.766801 0.138237
0.883876 0.774527 0.142805
0.903352 0.782487 0.147472
0.921561 0.790662 0.152231
0.934615 0.797760 0.157080
0.944612 0.805020 0.162015
0.954397 0.812434 0.167928
0.963743 0.819994 0.174058
0.109296 0.688194 0.097111
0.110227 0.688288 0.097141
0.114197 0.688625 0.097248
0.121512 0.689245 0.097443
0.131853 0.690172 0.097732
0.145559 0.691421 0.098118
0.164112 0.693005 0.098600
0.189704 0.694934 0.099178
0.221085 0.697214 0.099847
0.255912 0.699851 0.100603
0.292996 0.702848 0.101442
0.330612 0.706206 0.102357
0.370352 0.709925 0.103617
0.412529 0.714005 0.105076
0.452653 0.718300 0.106621
0.491177 0.722907 0.108581
0.529889 0.727850 0.110795
0.568459 0.733124 0.113102
0.607919 0.738722 0.115493
0.648016 0.744639 0.118286
0.685906 0.750867 0.121652
0.723855 0.757398 0.125125
0.761029 0.764225 0.128698
0.797272 0.770960 0.132363
