provia100f/Provia100F_Modern_RadianceIII.cube
TITLE "Fuji Provia 100F Modern RadianceIII"
# Adobe RGB in/out. REPLACES AgX. Fuji Provia 100F Modern RadianceIII.
LUT_3D_SIZE 33
DOMAIN_MIN 0.0 0.0 0.0
DOMAIN_MAX 1.0 1.0 1.0
0.079466 0.087905 0.084059
0.083114 0.090021 0.084489
0.094410 0.093490 0.085387
0.120526 0.102136 0.086353
0.153747 0.114913 0.087132
0.209706 0.133604 0.087989
0.273371 0.161799 0.089369
0.330747 0.191744 0.091177
0.387807 0.222201 0.093546
0.443524 0.252721 0.097468
0.492481 0.280420 0.101071
0.539349 0.305733 0.105086
0.584350 0.331282 0.110114
0.628616 0.356155 0.115483
0.669975 0.380597 0.121796
0.708990 0.404532 0.128355
0.745655 0.427935 0.134707
0.781017 0.450550 0.141686
0.811471 0.472571 0.148576
0.839420 0.493560 0.155292
0.866390 0.513840 0.161837
0.884459 0.530104 0.169365
0.900121 0.544619 0.176902
0.914242 0.558683 0.184323
0.927799 0.572315 0.191542
0.935358 0.585547 0.198399
0.942433 0.598442 0.205129
0.949201 0.610951 0.211761
0.955681 0.623086 0.218464
0.961890 0.634860 0.225040
0.965634 0.646290 0.231490
0.968422 0.657431 0.237650
0.971091 0.668241 0.243609
0.079573 0.091092 0.084271
0.081390 0.090949 0.084428
0.089552 0.093588 0.085131
0.113042 0.102296 0.086140
0.147715 0.115111 0.087041
0.201466 0.133661 0.087894
0.265592 0.161663 0.089174
0.324576 0.191662 0.090978
0.382550 0.222242 0.093250
0.439647 0.252829 0.097239
0.489236 0.280551 0.100888
0.536588 0.305878 0.104877
0.581907 0.331432 0.109882
0.626431 0.356307 0.115282
0.668158 0.380748 0.121562
0.707352 0.404679 0.128146
0.744229 0.428078 0.134518
0.779719 0.450687 0.141489
0.810471 0.472703 0.148395
0.838507 0.493683 0.155125
0.865553 0.513959 0.161684
0.883959 0.530191 0.169195
0.899713 0.544704 0.176744
0.913870 0.558766 0.184176
0.927458 0.572397 0.191410
0.935181 0.585627 0.198276
0.942271 0.598520 0.205014
0.949053 0.611027 0.211650
0.955545 0.623161 0.218359
0.961764 0.634934 0.224942
0.965577 0.646362 0.231397
0.968370 0.657501 0.237567
0.971043 0.668311 0.243531
0.079952 0.099070 0.084781
0.082284 0.098631 0.084893
0.087199 0.098085 0.085155
0.101554 0.103279 0.085839
0.131976 0.115914 0.086802
0.178909 0.133937 0.087615
0.242322 0.161420 0.088568
0.305236 0.191732 0.090512
0.365613 0.222621 0.092697
0.426476 0.253358 0.096480
0.478306 0.281106 0.100271
0.527136 0.306456 0.104165
0.573526 0.332011 0.109088
0.618863 0.356883 0.114590
0.661823 0.381311 0.120751
0.701618 0.405227 0.127416
0.739218 0.428606 0.133858
0.775144 0.451188 0.140797
0.806938 0.473184 0.147759
0.835276 0.494131 0.154539
0.862587 0.514389 0.161141
0.882180 0.530509 0.168593
0.898261 0.545014 0.176183
0.912546 0.559068 0.183652
0.926246 0.572691 0.190942
0.934550 0.585915 0.197839
0.941693 0.598802 0.204605
0.948523 0.611302 0.211253
0.955057 0.623430 0.217987
0.961315 0.635197 0.224592
0.965374 0.646622 0.231068
0.968183 0.657756 0.237269
0.970870 0.668560 0.243250
0.080533 0.115060 0.085379
0.083065 0.114590 0.085477
0.089370 0.113271 0.085713
0.100001 0.112728 0.085973
0.119121 0.119357 0.086625
0.154948 0.136029 0.087329
0.213127 0.162847 0.088225
0.278432 0.193279 0.089910
0.341012 0.224218 0.092008
0.403371 0.254887 0.095319
0.460305 0.282464 0.099292
0.511269 0.307745 0.103007
0.559489 0.333232 0.107773
0.605995 0.358058 0.113423
0.650915 0.382430 0.119369
0.691652 0.406297 0.126160
0.730439 0.429625 0.132711
0.767081 0.452149 0.139588
0.800673 0.474100 0.146641
0.829522 0.494979 0.153502
0.857290 0.515203 0.160178
0.878991 0.531108 0.167523
0.895652 0.545594 0.175183
0.910159 0.559632 0.182716
0.924057 0.573239 0.190104
0.933408 0.586453 0.197054
0.940647 0.599326 0.203869
0.947562 0.611815 0.210550
0.954173 0.623931 0.217315
0.960499 0.635687 0.223960
0.965005 0.647103 0.230473
0.967842 0.658228 0.236729
0.970554 0.669023 0.242742
0.081382 0.143016 0.086027
0.084054 0.142320 0.086117
0.091240 0.140128 0.086370
0.105488 0.137453 0.086640
0.121861 0.136966 0.086891
0.145262 0.146426 0.087272
0.191279 0.169310 0.088050
0.252501 0.198543 0.089389
0.315383 0.228532 0.091312
0.377337 0.258394 0.094042
0.438655 0.285238 0.098143
0.491401 0.310182 0.101877
0.541363 0.335416 0.106346
0.588994 0.360078 0.111908
0.635469 0.384301 0.117542
0.678027 0.408049 0.124470
0.718290 0.431263 0.131147
0.755816 0.453675 0.137923
0.791834 0.475541 0.145086
0.821351 0.496303 0.152048
0.849737 0.516472 0.158821
0.874412 0.532037 0.166008
0.891702 0.546491 0.173760
0.906708 0.560499 0.181379
0.920883 0.574080 0.188864
0.931747 0.587275 0.195924
0.939122 0.600125 0.202807
0.946158 0.612593 0.209551
0.952879 0.624690 0.216342
0.959303 0.636429 0.223042
0.964463 0.647832 0.229608
0.967341 0.658940 0.235943
0.970090 0.669721 0.242000
0.083241 0.201001 0.086956
0.086029 0.199853 0.086993
0.096617 0.195805 0.087102
0.113968 0.188768 0.087238
0.132179 0.179848 0.087362
0.150545 0.177104 0.087625
0.180486 0.185290 0.088045
0.234185 0.209644 0.089140
0.293714 0.237102 0.090842
0.353212 0.264454 0.093027
0.414819 0.289952 0.097056
0.470037 0.314328 0.100835
0.521094 0.338981 0.104981
0.569664 0.363265 0.110230
0.616945 0.387175 0.115822
0.661749 0.410682 0.122502
0.703091 0.433661 0.129290
0.741956 0.455899 0.135916
0.779044 0.477618 0.143187
0.811079 0.498194 0.150253
0.840188 0.518229 0.157135
0.868247 0.533352 0.164114
0.886316 0.547752 0.171968
0.902260 0.561713 0.179685
0.916777 0.575252 0.187263
0.929587 0.588416 0.194480
0.937134 0.601232 0.201444
0.944324 0.613669 0.208264
0.951183 0.625737 0.215083
0.957733 0.637449 0.221853
0.963750 0.648832 0.228483
0.966681 0.659918 0.234918
0.969478 0.670676 0.241032
0.085044 0.258541 0.087603
0.088326 0.259534 0.087671
0.101337 0.254717 0.087775
0.120813 0.243791 0.087879
0.140921 0.231112 0.087988
0.161866 0.223236 0.088161
0.189530 0.222192 0.088411
0.223338 0.227620 0.089206
0.277907 0.250697 0.090718
0.333976 0.274228 0.092699
0.392383 0.297314 0.096230
0.449477 0.320720 0.099939
0.500645 0.344381 0.103716
0.549770 0.367983 0.108592
0.597279 0.391350 0.114217
0.643866 0.414431 0.120441
0.686050 0.437023 0.127293
0.726302 0.458978 0.133919
0.764151 0.480388 0.141070
0.799183 0.500776 0.148229
0.829033 0.520142 0.155212
0.857791 0.535120 0.162023
0.879912 0.549437 0.169891
0.896936 0.563326 0.177705
0.911839 0.576801 0.185379
0.926076 0.589917 0.192769
0.934718 0.602683 0.199821
0.942088 0.615074 0.206725
0.949111 0.627101 0.213573
0.955810 0.638774 0.220419
0.962207 0.650129 0.227123
0.965867 0.661183 0.233676
0.968723 0.671911 0.239855
0.086970 0.302509 0.088233
0.090308 0.303283 0.088282
0.104600 0.302069 0.088392
0.125253 0.291365 0.088443
0.147439 0.279847 0.088655
0.173115 0.270595 0.089006
0.202297 0.265705 0.089500
0.235228 0.265702 0.090137
0.270108 0.270107 0.090886
0.320147 0.287883 0.092619
0.374615 0.307931 0.095780
0.431757 0.329783 0.099311
0.481990 0.352019 0.102704
0.530804 0.374581 0.107170
0.577913 0.397127 0.112740
0.624472 0.419544 0.118466
0.668341 0.441553 0.125315
0.709515 0.463081 0.131965
0.748137 0.484038 0.138875
0.785423 0.504189 0.146100
0.816747 0.522647 0.153160
0.846165 0.537416 0.160052
0.872704 0.551611 0.167626
0.890597 0.565394 0.175527
0.906207 0.578778 0.183289
0.920818 0.591825 0.190856
0.931930 0.604519 0.197994
0.939498 0.616846 0.204983
0.946701 0.628815 0.211855
0.953566 0.640436 0.218782
0.960116 0.651751 0.225563
0.964913 0.662761 0.232199
0.967834 0.673449 0.238495
0.089556 0.346583 0.089368
0.092724 0.347274 0.089471
0.107195 0.344144 0.089641
0.128736 0.334235 0.089760
0.152323 0.323205 0.089950
0.182110 0.313278 0.090228
0.213730 0.306139 0.090605
0.246912 0.302926 0.091173
0.280962 0.303502 0.092008
0.315350 0.307571 0.092957
0.361478 0.322224 0.095728
0.415615 0.341723 0.099006
0.465703 0.362215 0.102206
0.513425 0.383324 0.106334
0.559975 0.404751 0.111516
0.605872 0.426247 0.116784
0.650888 0.447448 0.123497
0.692163 0.468389 0.130109
0.731798 0.488769 0.136750
0.769550 0.508580 0.143994
0.803829 0.525838 0.151092
0.833810 0.540323 0.158036
0.862743 0.554344 0.165284
0.883280 0.567980 0.173248
0.900043 0.581237 0.181080
0.915029 0.594187 0.188774
0.928837 0.606783 0.196031
0.936610 0.619023 0.203097
0.944004 0.630914 0.210014
0.951046 0.642466 0.216989
0.957758 0.653727 0.223847
0.963832 0.664679 0.230558
0.966825 0.675314 0.236986
0.092266 0.391046 0.090736
0.096824 0.390049 0.090770
0.109959 0.384529 0.090825
0.132057 0.375809 0.090942
0.156649 0.365505 0.091173
0.189124 0.355430 0.091499
0.223449 0.347138 0.091932
0.257400 0.341631 0.092482
0.291240 0.339382 0.093210
0.324396 0.340418 0.094790
0.358851 0.344423 0.096558
0.402932 0.356431 0.099022
0.452389 0.374952 0.102002
0.498565 0.394361 0.105823
0.544057 0.414386 0.110627
0.588821 0.434673 0.115735
0.633555 0.454892 0.121958
0.675516 0.475125 0.128477
0.715815 0.494747 0.134882
0.753768 0.514094 0.142028
0.790764 0.529784 0.149117
0.821163 0.543921 0.156073
0.850549 0.557711 0.162971
0.875607 0.571150 0.170966
0.893522 0.584242 0.178841
0.908862 0.597055 0.186588
0.923517 0.609522 0.194001
0.933491 0.621647 0.201132
0.941076 0.633437 0.208116
0.948297 0.644897 0.215096
0.955178 0.656088 0.222024
0.961740 0.666966 0.228805
0.965712 0.677533 0.235367
0.096266 0.429538 0.092197
0.100482 0.428150 0.092216
0.113177 0.423440 0.092286
0.135061 0.415780 0.092416
0.160981 0.406323 0.092617
0.194967 0.396494 0.092896
0.231219 0.387619 0.093433
0.266171 0.380721 0.094359
0.300179 0.376411 0.095484
0.333111 0.374962 0.096806
0.366918 0.376341 0.098307
0.402259 0.380289 0.099957
0.441942 0.390053 0.102061
0.486355 0.407667 0.105639
0.530451 0.426086 0.110112
0.573871 0.444933 0.115011
0.617604 0.464097 0.120796
0.660143 0.483292 0.127159
0.700181 0.502113 0.133454
0.738609 0.520239 0.140299
0.775701 0.534508 0.147328
0.808623 0.548292 0.154252
0.838318 0.561782 0.161058
0.867073 0.574965 0.168775
0.886045 0.587860 0.176660
0.902474 0.600482 0.184431
0.917439 0.612782 0.191975
0.930209 0.624760 0.199152
0.937980 0.636420 0.206188
0.945377 0.647777 0.213158
0.952424 0.658866 0.220146
0.959143 0.669650 0.226989
0.964514 0.680132 0.233679
0.100341 0.465605 0.094012
0.103960 0.464440 0.094047
0.116721 0.460446 0.094175
0.137891 0.453806 0.094413
0.164640 0.445334 0.094776
0.199606 0.436121 0.095274
0.237171 0.427221 0.095918
0.273356 0.419554 0.096716
0.307786 0.413853 0.097678
0.340974 0.410524 0.098804
0.374639 0.409718 0.100091
0.409366 0.411377 0.101521
0.442874 0.415290 0.103242
0.476563 0.423073 0.105768
0.519030 0.439795 0.109989
0.561266 0.457195 0.114649
0.603726 0.475152 0.120060
0.646402 0.493013 0.126213
0.685854 0.510974 0.132345
0.724479 0.526559 0.138883
0.761399 0.540152 0.145802
0.796532 0.553501 0.152649
0.826375 0.566621 0.159405
0.855348 0.579486 0.166757
0.878558 0.592133 0.174616
0.896017 0.604517 0.182380
0.911249 0.616609 0.190022
0.925832 0.628404 0.197221
0.934778 0.639903 0.204289
0.942341 0.651132 0.211233
0.949547 0.662093 0.218265
0.956419 0.672760 0.225158
0.962976 0.683137 0.231909
0.104120 0.499628 0.096510
0.107380 0.498659 0.096543
0.120236 0.495312 0.096660
0.140626 0.489652 0.096877
0.167863 0.482243 0.097205
0.203332 0.473777 0.097651
0.241732 0.465129 0.098223
0.279017 0.457244 0.098927
0.313996 0.450774 0.099767
0.347707 0.446173 0.100746
0.381625 0.443717 0.101865
0.416196 0.443495 0.103306
0.448249 0.445449 0.105219
0.479042 0.449411 0.107332
0.509894 0.455428 0.110240
0.550897 0.471390 0.114642
0.591981 0.487751 0.119760
0.633570 0.504404 0.125665
0.673111 0.520647 0.131593
0.711526 0.533829 0.137830
0.748184 0.546767 0.144594
0.784167 0.559600 0.151321
0.814988 0.572277 0.157987
0.844036 0.584771 0.164982
0.871225 0.597108 0.172777
0.889180 0.609204 0.180499
0.905077 0.621043 0.188132
0.919884 0.632617 0.195397
0.931531 0.643919 0.202474
0.939245 0.654994 0.209425
0.946599 0.665798 0.216434
0.953614 0.676325 0.223360
0.960309 0.686575 0.230150
0.107816 0.528836 0.098811
0.110993 0.528192 0.098841
0.123711 0.525936 0.098949
0.143311 0.522068 0.099148
0.170810 0.516565 0.099447
0.206409 0.508880 0.099852
0.245287 0.500876 0.100369
0.283417 0.493245 0.101000
0.318942 0.486576 0.101749
0.353366 0.481327 0.102620
0.387807 0.477803 0.103993
0.422572 0.476136 0.105544
0.453506 0.476473 0.107298
0.483734 0.478727 0.109736
0.513712 0.482676 0.112359
0.543800 0.488180 0.115139
0.582255 0.501953 0.119878
0.622641 0.517426 0.125515
0.662030 0.529901 0.131210
0.699686 0.542107 0.137165
0.736241 0.554371 0.143738
0.771817 0.566618 0.150307
0.804358 0.578786 0.156848
0.833342 0.590873 0.163503
0.861604 0.602823 0.171198
0.882271 0.614579 0.178844
0.899035 0.626121 0.186423
0.914016 0.637432 0.193732
0.928298 0.648517 0.200793
0.936142 0.659392 0.207741
0.943627 0.670010 0.214698
0.950771 0.680371 0.221639
0.957594 0.690471 0.228452
0.111788 0.552143 0.100945
0.115500 0.551602 0.100972
0.127148 0.549712 0.101072
0.145990 0.546438 0.101256
0.173631 0.541990 0.101532
0.209094 0.536726 0.101905
0.248158 0.531079 0.102377
0.286848 0.525408 0.103076
0.322847 0.520151 0.104021
0.358026 0.515062 0.105117
0.393086 0.510776 0.106365
0.428233 0.508111 0.107960
0.458370 0.507177 0.109989
0.488263 0.507988 0.112215
0.517872 0.510482 0.114623
0.547381 0.514537 0.117271
0.577012 0.519566 0.120859
0.613515 0.528863 0.125741
0.652568 0.540021 0.131190
0.689376 0.551415 0.136893
0.725650 0.562954 0.143247
0.760688 0.574558 0.149631
0.794615 0.586178 0.156016
0.823414 0.597791 0.162375
0.851578 0.609300 0.169919
0.875688 0.620668 0.177459
0.893188 0.631867 0.184954
0.908323 0.642876 0.192268
0.922846 0.653718 0.199288
0.933081 0.664351 0.206210
0.940677 0.674754 0.213099
0.947935 0.684920 0.220037
0.954871 0.694845 0.226856
0.116528 0.574318 0.103048
0.119871 0.573852 0.103084
0.130764 0.572218 0.103214
0.148677 0.569368 0.103452
0.176397 0.565447 0.103808
0.211545 0.560731 0.104288
0.250521 0.555566 0.104897
0.289372 0.550320 0.105637
0.325872 0.545344 0.106511
0.361711 0.540946 0.107637
0.397402 0.537374 0.109133
0.432404 0.534814 0.110814
0.462652 0.533384 0.112679
0.492410 0.533140 0.114727
0.521831 0.534080 0.116947
0.550916 0.536156 0.120097
0.580133 0.539287 0.123457
0.609860 0.543366 0.127004
0.644493 0.551113 0.131508
0.680531 0.561685 0.136998
0.716401 0.572473 0.143120
0.750817 0.583399 0.149299
0.784961 0.594458 0.155504
0.814344 0.605525 0.161711
0.842308 0.616548 0.168967
0.869514 0.627484 0.176372
0.887041 0.638300 0.183756
0.902881 0.648984 0.191038
0.917495 0.659532 0.197993
0.930104 0.669891 0.204867
0.937790 0.680048 0.211674
0.945142 0.689992 0.218588
0.952176 0.699717 0.225394
0.121051 0.595507 0.105634
0.124079 0.595101 0.105668
0.134511 0.593676 0.105790
0.151367 0.591172 0.106015
0.179140 0.587694 0.106350
0.213879 0.583455 0.106801
0.252501 0.578759 0.107444
0.291323 0.573891 0.108348
0.328147 0.569149 0.109413
0.364511 0.564808 0.110643
0.400776 0.561103 0.112039
0.435712 0.558216 0.113603
0.466244 0.556283 0.115335
0.496020 0.555383 0.117326
0.525408 0.555550 0.120053
0.554224 0.556774 0.123000
0.583155 0.559011 0.126153
0.612536 0.562188 0.129496
0.642231 0.566217 0.133008
0.673022 0.572822 0.137455
0.708171 0.582857 0.143339
0.742171 0.593147 0.149301
0.775739 0.603568 0.155313
0.806169 0.614056 0.161349
0.833854 0.624558 0.168355
0.861023 0.635026 0.175603
0.881299 0.645422 0.182854
0.897747 0.655762 0.190068
0.912408 0.665970 0.196936
0.926551 0.676023 0.203740
0.934999 0.685905 0.210466
0.942426 0.695601 0.217322
0.949541 0.705101 0.224098
0.125368 0.615747 0.108355
0.128124 0.615395 0.108397
0.138194 0.614154 0.108549
0.154052 0.611963 0.108826
0.181875 0.608896 0.109241
0.216092 0.605115 0.109799
0.254193 0.600845 0.110505
0.292819 0.596339 0.111361
0.329796 0.591856 0.112369
0.366536 0.587639 0.113529
0.403277 0.583904 0.114843
0.438248 0.580843 0.116312
0.469102 0.578579 0.118251
0.499002 0.577204 0.120604
0.528471 0.576774 0.123169
0.557158 0.577306 0.125941
0.585941 0.578785 0.128911
0.615067 0.581170 0.132068
0.644443 0.584406 0.135409
0.672023 0.588425 0.139405
0.701073 0.594083 0.143879
0.734672 0.603681 0.149621
0.767634 0.613456 0.155431
0.798884 0.623349 0.161285
0.826234 0.633306 0.168084
0.853135 0.643278 0.175159
0.875999 0.653263 0.182257
0.892899 0.663195 0.189356
0.907627 0.673034 0.196133
0.921800 0.682754 0.202848
0.932332 0.692333 0.209501
0.939815 0.701755 0.216263
0.946993 0.711005 0.222991
0.129582 0.635042 0.111366
0.132407 0.634735 0.111406
0.141799 0.633652 0.111551
0.157553 0.631732 0.111817
0.184609 0.629026 0.112213
0.218224 0.625660 0.112746
0.255672 0.621814 0.113419
0.293956 0.617696 0.114234
0.330930 0.613528 0.115193
0.367895 0.609521 0.116295
0.404994 0.605870 0.117731
0.440059 0.602741 0.119569
0.471232 0.600271 0.121603
0.501316 0.598562 0.123834
0.530882 0.597683 0.126262
0.559609 0.597672 0.128885
0.588349 0.598535 0.131695
0.617323 0.600256 0.134687
0.646432 0.602794 0.138220
0.673639 0.606095 0.142035
0.700984 0.610095 0.146025
0.728207 0.614916 0.150234
0.760566 0.624053 0.155841
0.792448 0.633349 0.161508
0.819428 0.642750 0.168147
0.846017 0.652245 0.175037
0.871155 0.661768 0.181969
0.887975 0.671269 0.188920
0.903181 0.680715 0.195595
0.917348 0.690076 0.202204
0.929810 0.699329 0.208768
0.937330 0.708454 0.215426
0.944553 0.717328 0.222090
0.133995 0.653478 0.114227
0.136597 0.653210 0.114266
0.145319 0.652258 0.114405
0.161347 0.650566 0.114659
0.187341 0.648167 0.115039
0.220303 0.645161 0.115550
0.256993 0.641708 0.116194
0.294813 0.637967 0.116983
0.331643 0.634125 0.118193
0.368688 0.630366 0.119586
0.406022 0.626863 0.121162
0.441207 0.623769 0.122922
0.472666 0.621215 0.124867
0.502961 0.619303 0.126996
0.532673 0.618110 0.129309
0.561511 0.617685 0.131804
0.590287 0.618051 0.134477
0.619199 0.619211 0.137618
0.648042 0.621143 0.141079
0.675057 0.623812 0.144728
0.702169 0.627170 0.148552
0.728823 0.631161 0.152537
0.755071 0.635726 0.156666
0.786104 0.643991 0.161999
0.813393 0.652876 0.168526
0.839645 0.661864 0.175226
0.865516 0.670904 0.181984
0.883476 0.679960 0.188777
0.899082 0.688995 0.195323
0.913213 0.697979 0.201814
0.926907 0.706886 0.208275
0.934987 0.715655 0.214824
0.942239 0.724007 0.221409
0.138223 0.671108 0.116947
0.140628 0.670873 0.116996
0.148744 0.670041 0.117172
0.165119 0.668555 0.117496
0.190096 0.666440 0.117978
0.222344 0.663771 0.118626
0.258197 0.660666 0.119446
0.295452 0.657267 0.120439
0.332015 0.653734 0.121607
0.369009 0.650227 0.122951
0.406453 0.646898 0.124471
0.441763 0.643897 0.126165
0.473456 0.641341 0.128033
0.503960 0.639325 0.130075
0.533846 0.637927 0.132290
0.562831 0.637204 0.134676
0.591695 0.637189 0.137513
0.620616 0.637898 0.140638
0.649297 0.639326 0.143955
0.676190 0.641453 0.147454
0.703132 0.644245 0.151127
0.729552 0.647673 0.154961
0.755582 0.651684 0.158942
0.781664 0.656222 0.163172
0.808065 0.663600 0.169203
0.833972 0.672072 0.175711
0.859537 0.680629 0.182290
0.879394 0.689231 0.188919
0.895333 0.697845 0.195316
0.909403 0.706439 0.201678
0.923060 0.714975 0.208024
0.932795 0.723122 0.214461
0.940062 0.731175 0.220955
0.142272 0.687919 0.120369
0.144501 0.687713 0.120417
0.152071 0.686985 0.120588
0.168853 0.685681 0.120901
0.193028 0.683818 0.121369
0.224358 0.681453 0.121998
0.259238 0.678683 0.122792
0.295920 0.675625 0.123754
0.332112 0.672413 0.124885
0.368935 0.669186 0.126186
0.406372 0.666077 0.127655
0.441796 0.663214 0.129291
0.473660 0.660707 0.131094
0.504353 0.658654 0.133061
0.534418 0.657133 0.135192
0.563562 0.656204 0.137805
0.592546 0.655907 0.140625
0.621523 0.656268 0.143632
0.650135 0.657292 0.146821
0.676966 0.658974 0.150188
0.703798 0.661292 0.153724
0.730048 0.664217 0.157419
0.755906 0.667710 0.161263
0.781799 0.671729 0.165785
0.805065 0.676230 0.170710
0.828938 0.682812 0.176471
0.854192 0.690891 0.182871
0.875710 0.699042 0.189333
0.891739 0.707232 0.195563
0.905914 0.715401 0.201790
0.919513 0.723261 0.208014
0.930759 0.731073 0.214337
0.938027 0.738817 0.220731
0.146147 0.703944 0.123645
0.148219 0.703765 0.123691
0.155516 0.703127 0.123857
0.172537 0.701985 0.124162
0.195942 0.700345 0.124616
0.226346 0.698255 0.125226
0.260273 0.695792 0.125997
0.296254 0.693053 0.126931
0.331987 0.690152 0.128029
0.368534 0.687206 0.129291
0.405856 0.684333 0.130715
0.441374 0.681647 0.132300
0.473341 0.679249 0.134045
0.504191 0.677230 0.136040
0.534421 0.675664 0.138403
0.563719 0.674612 0.140948
0.592831 0.674120 0.143674
0.621895 0.674218 0.146578
0.650516 0.674921 0.149657
0.677334 0.676231 0.152906
0.704107 0.678139 0.156319
0.730250 0.680626 0.159889
0.755981 0.683663 0.163826
0.781725 0.687218 0.168442
0.804863 0.691251 0.173231
0.826548 0.695725 0.178180
0.849426 0.701636 0.183709
0.872396 0.709343 0.189991
0.888295 0.717019 0.196054
0.902734 0.724516 0.202142
0.916262 0.732013 0.208238
0.928878 0.739486 0.214448
0.936137 0.746912 0.220734
0.149854 0.719043 0.126778
0.151785 0.718892 0.126823
0.159972 0.718357 0.126984
0.176159 0.717395 0.127281
0.198829 0.716011 0.127722
0.228310 0.714221 0.128316
0.261270 0.712038 0.129066
0.296484 0.709597 0.129974
0.331683 0.706992 0.131041
0.367864 0.704324 0.132267
0.404973 0.701696 0.133651
0.440559 0.699208 0.135190
0.472559 0.696952 0.137115
0.503525 0.695011 0.139234
0.533895 0.693458 0.141531
0.563327 0.692350 0.144002
0.592561 0.691736 0.146646
0.621726 0.691647 0.149461
0.650419 0.692107 0.152443
0.677259 0.693124 0.155589
0.704014 0.694696 0.158893
0.730108 0.696814 0.162349
0.755755 0.699458 0.166633
0.781387 0.702603 0.171121
0.804470 0.706218 0.175782
0.826037 0.710272 0.180604
0.847508 0.714727 0.185577
0.869419 0.719877 0.190860
0.885184 0.726947 0.196773
0.899846 0.734062 0.202720
0.913291 0.741198 0.208686
0.926381 0.748329 0.214787
0.934390 0.755434 0.220959
0.153397 0.733023 0.129773
0.155384 0.732891 0.129816
0.164306 0.732425 0.129974
0.179709 0.731585 0.130262
0.201678 0.730375 0.130692
0.230246 0.728820 0.131270
0.262223 0.726969 0.132000
0.296629 0.724889 0.132884
0.331235 0.722654 0.133923
0.366972 0.720350 0.135117
0.403781 0.718060 0.136633
0.439404 0.715871 0.138353
0.471370 0.713827 0.140248
0.502408 0.712000 0.142315
0.532886 0.710503 0.144553
0.562422 0.709392 0.146959
0.591760 0.708715 0.149531
0.621023 0.708506 0.152268
0.649839 0.708791 0.155165
0.676724 0.709584 0.158220
0.703491 0.710890 0.161427
0.729586 0.712704 0.165234
0.755184 0.715005 0.169428
0.780742 0.717689 0.173800
0.803845 0.720812 0.178343
0.825321 0.724346 0.183047
0.846693 0.728263 0.187902
0.867962 0.732535 0.192757
0.882377 0.737253 0.197704
0.897226 0.743997 0.203511
0.910584 0.750777 0.209345
0.923602 0.757570 0.215343
0.932780 0.764354 0.221399
0.157638 0.746321 0.132633
0.160060 0.746207 0.132675
0.168511 0.745802 0.132829
0.183176 0.745071 0.133110
0.204482 0.744016 0.133529
0.232151 0.742656 0.134092
0.263135 0.741033 0.134804
0.296706 0.739200 0.135718
0.330670 0.737221 0.136879
0.365897 0.735168 0.138215
0.402329 0.733114 0.139725
0.437960 0.731135 0.141407
0.469827 0.729301 0.143259
0.500889 0.727679 0.145278
0.531440 0.726327 0.147464
0.561043 0.725297 0.149812
0.590458 0.724633 0.152322
0.619808 0.724370 0.154989
0.648782 0.724532 0.157811
0.675723 0.725138 0.160786
0.702523 0.726196 0.164188
0.728661 0.727707 0.168099
0.754240 0.729667 0.172191
0.779754 0.732063 0.176458
0.802956 0.734878 0.180893
0.824367 0.738093 0.185488
0.845662 0.741683 0.190211
0.866849 0.745623 0.194881
0.881490 0.749887 0.199671
0.894981 0.754449 0.204574
0.908120 0.760710 0.210203
0.921061 0.767040 0.216104
0.931300 0.773122 0.222042
0.162276 0.758963 0.135369
0.164567 0.758865 0.135417
0.172581 0.758514 0.135588
0.186551 0.757881 0.135903
0.207229 0.756965 0.136372
0.233998 0.755783 0.137002
0.264009 0.754366 0.137799
0.296726 0.752761 0.138765
0.330010 0.751022 0.139902
0.364671 0.749209 0.141210
0.400660 0.747386 0.142688
0.436269 0.745618 0.144334
0.467976 0.743969 0.146147
0.499017 0.742497 0.148123
0.529600 0.741258 0.150261
0.559232 0.740298 0.152558
0.588689 0.739660 0.155011
0.618105 0.739377 0.157617
0.647264 0.739476 0.160373
0.674262 0.739976 0.163433
0.701104 0.740890 0.167078
0.727320 0.742221 0.170904
0.752900 0.743969 0.174905
0.778395 0.746128 0.179078
