provia100f/Provia100F_Modern_ExtraPunchy.cube
TITLE "Fuji Provia 100F Modern ExtraPunchy"
# Adobe RGB in/out. REPLACES AgX. Fuji Provia 100F Modern ExtraPunchy.
LUT_3D_SIZE 33
DOMAIN_MIN 0.0 0.0 0.0
DOMAIN_MAX 1.0 1.0 1.0
0.071567 0.071941 0.066283
0.071567 0.071941 0.066283
0.071714 0.071941 0.066283
0.074211 0.071941 0.066283
0.080920 0.071941 0.066283
0.100572 0.072159 0.066283
0.154327 0.072671 0.066283
0.225314 0.073777 0.066282
0.304524 0.075277 0.066282
0.415679 0.079827 0.066282
0.534386 0.088312 0.066292
0.639303 0.103687 0.066301
0.743231 0.136304 0.066322
0.812935 0.178283 0.066348
0.865115 0.231980 0.066372
0.899996 0.291712 0.066395
0.924532 0.355856 0.066472
0.939207 0.432844 0.066551
0.951431 0.494298 0.066638
0.960540 0.548523 0.066808
0.966670 0.596612 0.066989
0.972376 0.635998 0.067202
0.975769 0.677427 0.067515
0.978630 0.729622 0.067893
0.981344 0.781434 0.068153
0.983582 0.806512 0.068468
0.984842 0.826896 0.068918
0.986040 0.846731 0.069354
0.987012 0.864660 0.069772
0.987843 0.877556 0.070253
0.988635 0.886877 0.070766
0.989391 0.900750 0.071259
0.990113 0.914191 0.071819
0.071567 0.071941 0.066283
0.071567 0.071941 0.066283
0.071569 0.071941 0.066283
0.073061 0.071941 0.066283
0.079118 0.071941 0.066283
0.096734 0.072160 0.066283
0.144124 0.072668 0.066283
0.218565 0.073773 0.066282
0.296362 0.075282 0.066282
0.404577 0.079856 0.066281
0.524349 0.088365 0.066292
0.632929 0.103859 0.066301
0.739142 0.136510 0.066321
0.809671 0.178530 0.066347
0.863152 0.232390 0.066371
0.898915 0.292280 0.066393
0.923705 0.356366 0.066469
0.938737 0.433336 0.066549
0.951014 0.494621 0.066634
0.960278 0.548854 0.066803
0.966485 0.596845 0.066984
0.972210 0.636232 0.067197
0.975685 0.677736 0.067507
0.978555 0.729938 0.067886
0.981276 0.781604 0.068152
0.983550 0.806638 0.068460
0.984813 0.827020 0.068911
0.986014 0.846852 0.069347
0.986994 0.864742 0.069765
0.987826 0.877636 0.070245
0.988620 0.886967 0.070759
0.989377 0.900838 0.071253
0.990100 0.914277 0.071811
0.071567 0.071941 0.066283
0.071567 0.071941 0.066283
0.071506 0.071941 0.066283
0.072332 0.071941 0.066283
0.076439 0.071945 0.066283
0.086827 0.072167 0.066283
0.121128 0.072662 0.066283
0.197057 0.073776 0.066283
0.270950 0.075327 0.066282
0.367807 0.080000 0.066281
0.505966 0.088587 0.066290
0.613451 0.104548 0.066300
0.720949 0.137306 0.066317
0.794231 0.179464 0.066344
0.856304 0.233926 0.066369
0.895120 0.294387 0.066391
0.920385 0.358244 0.066461
0.937078 0.435137 0.066541
0.949538 0.495801 0.066623
0.959350 0.550057 0.066786
0.965827 0.597691 0.066970
0.971621 0.637083 0.067176
0.975389 0.678858 0.067478
0.978288 0.731085 0.067860
0.981035 0.782216 0.068149
0.983438 0.807093 0.068434
0.984711 0.827466 0.068883
0.985921 0.847290 0.069322
0.986928 0.865038 0.069742
0.987766 0.877924 0.070217
0.988565 0.887291 0.070733
0.989327 0.901155 0.071229
0.990054 0.914588 0.071784
0.071567 0.071941 0.066283
0.071567 0.071941 0.066283
0.071561 0.071941 0.066283
0.072192 0.071941 0.066283
0.073984 0.071983 0.066283
0.081252 0.072207 0.066283
0.101939 0.072694 0.066283
0.159740 0.073855 0.066283
0.236711 0.075513 0.066282
0.329288 0.080384 0.066282
0.462131 0.089204 0.066287
0.578870 0.106096 0.066297
0.687019 0.139000 0.066310
0.773346 0.181378 0.066338
0.844486 0.236252 0.066364
0.887788 0.297371 0.066387
0.914460 0.361898 0.066446
0.934136 0.438606 0.066528
0.946910 0.498052 0.066604
0.957691 0.552337 0.066757
0.964647 0.599292 0.066943
0.970561 0.638688 0.067139
0.974856 0.680966 0.067426
0.977807 0.733235 0.067812
0.980598 0.783359 0.068143
0.983233 0.807942 0.068386
0.984525 0.828297 0.068834
0.985751 0.848103 0.069277
0.986810 0.865587 0.069701
0.987657 0.878459 0.070166
0.988465 0.887891 0.070686
0.989234 0.901742 0.071185
0.989968 0.915162 0.071736
0.071567 0.072313 0.066283
0.071567 0.072303 0.066283
0.071639 0.072270 0.066283
0.072539 0.072229 0.066283
0.074424 0.072222 0.066283
0.078579 0.072363 0.066283
0.091983 0.072933 0.066283
0.130233 0.074120 0.066283
0.208679 0.076136 0.066282
0.288421 0.081237 0.066282
0.401769 0.090510 0.066284
0.531030 0.109066 0.066294
0.644134 0.142064 0.066304
0.750996 0.184702 0.066331
0.823186 0.239899 0.066357
0.873801 0.301627 0.066381
0.906207 0.367623 0.066425
0.929989 0.444158 0.066509
0.943180 0.501606 0.066588
0.955321 0.555910 0.066715
0.962955 0.601793 0.066906
0.969036 0.641181 0.067086
0.974084 0.684228 0.067352
0.977108 0.736547 0.067745
0.979964 0.785112 0.068118
0.982666 0.809239 0.068317
0.984254 0.829562 0.068762
0.985503 0.849340 0.069212
0.986636 0.866420 0.069641
0.987497 0.879270 0.070091
0.988317 0.888799 0.070617
0.989098 0.902629 0.071122
0.989843 0.916029 0.071664
0.071567 0.074241 0.066283
0.071529 0.074185 0.066283
0.071880 0.073983 0.066283
0.073171 0.073626 0.066283
0.076457 0.073282 0.066283
0.079968 0.073195 0.066283
0.087189 0.073454 0.066283
0.113531 0.074658 0.066283
0.177202 0.077431 0.066282
0.253058 0.083075 0.066282
0.348108 0.092863 0.066281
0.482121 0.114256 0.066291
0.600172 0.147258 0.066301
0.711533 0.190033 0.066323
0.786483 0.245575 0.066350
0.856224 0.308106 0.066375
0.896096 0.375312 0.066401
0.922226 0.450957 0.066487
0.938493 0.506753 0.066567
0.951267 0.561036 0.066669
0.960759 0.605369 0.066859
0.967081 0.644719 0.067043
0.972990 0.688836 0.067292
0.976205 0.741202 0.067658
0.979140 0.787559 0.068039
0.981913 0.811041 0.068228
0.983899 0.831316 0.068670
0.985178 0.851049 0.069127
0.986390 0.867568 0.069563
0.987287 0.880008 0.069995
0.988124 0.890045 0.070528
0.988919 0.903844 0.071039
0.989677 0.917216 0.071571
0.071549 0.081280 0.066283
0.071516 0.081581 0.066283
0.072312 0.080347 0.066283
0.074257 0.078445 0.066283
0.077690 0.076522 0.066283
0.082806 0.075398 0.066283
0.091159 0.075276 0.066283
0.106039 0.075999 0.066283
0.159174 0.079478 0.066283
0.228875 0.086041 0.066282
0.311712 0.097180 0.066281
0.433122 0.122331 0.066289
0.556248 0.155502 0.066299
0.663995 0.199668 0.066315
0.763456 0.253967 0.066342
0.835770 0.317498 0.066368
0.882438 0.386290 0.066391
0.911657 0.459829 0.066462
0.933061 0.513847 0.066544
0.946283 0.568081 0.066631
0.957550 0.610233 0.066805
0.964759 0.649492 0.066994
0.970867 0.695022 0.067221
0.975118 0.747413 0.067557
0.978146 0.790796 0.067946
0.981001 0.813413 0.068161
0.983468 0.833615 0.068559
0.984781 0.853283 0.069025
0.986024 0.869063 0.069468
0.987029 0.880601 0.069892
0.987885 0.891661 0.070420
0.988699 0.905417 0.070938
0.989473 0.918750 0.071457
0.071510 0.100935 0.066283
0.071601 0.101579 0.066283
0.072514 0.100571 0.066283
0.074959 0.093600 0.066283
0.079035 0.088083 0.066283
0.085484 0.084939 0.066283
0.097121 0.083455 0.066283
0.114295 0.083454 0.066283
0.150883 0.084791 0.066282
0.213770 0.091811 0.066282
0.284316 0.106321 0.066282
0.381801 0.134255 0.066287
0.509335 0.169772 0.066297
0.621708 0.216068 0.066307
0.731713 0.266062 0.066335
0.806746 0.330626 0.066361
0.863350 0.401451 0.066384
0.900342 0.471354 0.066436
0.925970 0.523324 0.066520
0.940797 0.577474 0.066598
0.953625 0.616631 0.066747
0.962151 0.655721 0.066940
0.968465 0.703057 0.067142
0.973880 0.755430 0.067444
0.977006 0.794849 0.067841
0.979951 0.816428 0.068148
0.982729 0.836525 0.068443
0.984320 0.856099 0.068908
0.985599 0.870941 0.069360
0.986728 0.881343 0.069791
0.987606 0.893681 0.070295
0.988440 0.907380 0.070822
0.989232 0.920659 0.071327
0.071569 0.158956 0.066283
0.071681 0.160051 0.066283
0.072591 0.155134 0.066283
0.075875 0.140401 0.066283
0.080498 0.125524 0.066283
0.087645 0.112926 0.066283
0.102157 0.104170 0.066283
0.125587 0.101282 0.066282
0.162478 0.101762 0.066282
0.208644 0.105886 0.066282
0.264916 0.124256 0.066282
0.349437 0.151404 0.066286
0.473166 0.188266 0.066295
0.583514 0.237990 0.066304
0.688181 0.292554 0.066329
0.773207 0.349902 0.066354
0.844456 0.421825 0.066378
0.888262 0.484109 0.066411
0.915379 0.535758 0.066496
0.935039 0.586312 0.066576
0.948235 0.624839 0.066688
0.958929 0.663652 0.066884
0.965862 0.713248 0.067069
0.971985 0.765533 0.067335
0.975753 0.799536 0.067730
0.978789 0.820163 0.068114
0.981651 0.840116 0.068323
0.983806 0.859563 0.068782
0.985121 0.873240 0.069242
0.986366 0.882248 0.069681
0.987291 0.896141 0.070156
0.988146 0.909765 0.070693
0.988959 0.922103 0.071206
0.071668 0.253352 0.066283
0.071899 0.251338 0.066282
0.072707 0.240346 0.066282
0.076446 0.219239 0.066282
0.081612 0.193843 0.066282
0.090955 0.177114 0.066282
0.106095 0.159835 0.066282
0.134438 0.151264 0.066282
0.174214 0.147859 0.066282
0.218370 0.149420 0.066282
0.261119 0.155568 0.066281
0.328577 0.178731 0.066286
0.441835 0.217021 0.066295
0.551869 0.260127 0.066303
0.650625 0.317386 0.066325
0.750706 0.378591 0.066350
0.820321 0.448077 0.066373
0.871093 0.500578 0.066395
0.904518 0.551712 0.066474
0.929223 0.597111 0.066555
0.942727 0.635144 0.066648
0.955266 0.674905 0.066830
0.963138 0.725933 0.067017
0.969434 0.778035 0.067257
0.974419 0.804453 0.067615
0.977544 0.824701 0.068006
0.980490 0.844463 0.068198
0.983248 0.863081 0.068649
0.984601 0.875999 0.069117
0.985881 0.885139 0.069563
0.986945 0.899080 0.070009
0.987823 0.912606 0.070554
0.988657 0.923679 0.071075
0.071847 0.361582 0.066282
0.072235 0.356620 0.066282
0.073077 0.340881 0.066282
0.076702 0.320925 0.066282
0.082591 0.297432 0.066282
0.093704 0.264687 0.066282
0.111429 0.246460 0.066282
0.145736 0.232318 0.066282
0.186944 0.220808 0.066282
0.227920 0.217046 0.066281
0.272867 0.220626 0.066284
0.327487 0.231144 0.066289
0.411124 0.251346 0.066295
0.515544 0.300695 0.066303
0.620902 0.349338 0.066322
0.721792 0.413043 0.066346
0.789138 0.473780 0.066369
0.854486 0.521377 0.066390
0.894166 0.571751 0.066455
0.919975 0.610480 0.066536
0.937280 0.647837 0.066615
0.950242 0.690813 0.066778
0.960224 0.741467 0.066967
0.966822 0.786960 0.067182
0.972901 0.810164 0.067503
0.976248 0.830128 0.067899
0.979273 0.849640 0.068156
0.982130 0.866497 0.068513
0.984050 0.879261 0.068989
0.985364 0.888730 0.069442
0.986574 0.902537 0.069875
0.987476 0.915941 0.070409
0.988331 0.925521 0.070939
0.072223 0.477397 0.066282
0.072496 0.474603 0.066282
0.073593 0.464100 0.066282
0.077059 0.444638 0.066282
0.083475 0.414432 0.066282
0.095867 0.383322 0.066282
0.115723 0.353330 0.066282
0.154312 0.330651 0.066281
0.200548 0.316037 0.066282
0.236669 0.307715 0.066285
0.284353 0.305725 0.066289
0.339079 0.309832 0.066293
0.413802 0.319679 0.066298
0.503995 0.339906 0.066303
0.595666 0.395514 0.066322
0.691270 0.454678 0.066344
0.770774 0.500644 0.066366
0.839587 0.547055 0.066387
0.882228 0.590991 0.066441
0.910419 0.626701 0.066520
0.932049 0.663187 0.066595
0.945166 0.710093 0.066732
0.956781 0.760211 0.066922
0.964214 0.796199 0.067112
0.970417 0.816915 0.067396
0.974930 0.836522 0.067795
0.978027 0.855723 0.068142
0.980952 0.870492 0.068396
0.983478 0.881105 0.068862
0.984826 0.892910 0.069321
0.986101 0.906549 0.069760
0.987111 0.919804 0.070262
0.987988 0.927648 0.070799
0.072500 0.564944 0.066281
0.072599 0.562303 0.066281
0.074164 0.553233 0.066281
0.077629 0.538097 0.066281
0.084245 0.518651 0.066281
0.097604 0.497257 0.066282
0.119853 0.476252 0.066284
0.160371 0.454819 0.066286
0.207218 0.433648 0.066288
0.245270 0.417356 0.066291
0.294946 0.408842 0.066294
0.350408 0.408081 0.066298
0.429486 0.414833 0.066302
0.506639 0.428773 0.066308
0.575920 0.449608 0.066323
0.666645 0.491409 0.066344
0.756001 0.533066 0.066365
0.820343 0.578069 0.066385
0.868500 0.611518 0.066431
0.901668 0.646004 0.066508
0.925997 0.685235 0.066582
0.940345 0.733112 0.066694
0.952895 0.781355 0.066883
0.961670 0.805288 0.067062
0.967971 0.824785 0.067319
0.973619 0.843958 0.067700
0.976777 0.862418 0.068082
0.979764 0.875103 0.068284
0.982590 0.883914 0.068740
0.984275 0.897718 0.069203
0.985580 0.911155 0.069646
0.986734 0.922821 0.070117
0.987632 0.930075 0.070660
0.072617 0.632612 0.066285
0.072813 0.630929 0.066286
0.074717 0.625092 0.066286
0.078182 0.615149 0.066286
0.084943 0.601977 0.066287
0.099037 0.586896 0.066289
0.124248 0.568356 0.066290
0.165157 0.547676 0.066292
0.212472 0.529973 0.066294
0.253276 0.516277 0.066296
0.304524 0.507213 0.066299
0.361150 0.503079 0.066302
0.445206 0.503913 0.066308
0.510928 0.509569 0.066320
0.584134 0.519775 0.066333
0.650003 0.534199 0.066347
0.739725 0.571311 0.066366
0.804013 0.603676 0.066385
0.856527 0.635456 0.066425
0.893838 0.668548 0.066501
0.918380 0.713349 0.066573
0.935866 0.760200 0.066670
0.948457 0.794865 0.066851
0.958794 0.814924 0.067029
0.965609 0.833836 0.067265
0.971651 0.852496 0.067615
0.975547 0.867989 0.067998
0.978585 0.880000 0.068182
0.981463 0.889653 0.068626
0.983722 0.903190 0.069092
0.985054 0.916389 0.069539
0.986317 0.925690 0.069977
0.987269 0.932819 0.070526
0.072912 0.705033 0.066292
0.073391 0.703024 0.066292
0.075449 0.696034 0.066292
0.078726 0.684036 0.066293
0.085604 0.668226 0.066293
0.100287 0.653845 0.066294
0.126617 0.638609 0.066296
0.168970 0.623729 0.066297
0.216688 0.610255 0.066299
0.259932 0.599014 0.066301
0.312822 0.590603 0.066304
0.371625 0.585396 0.066311
0.458207 0.583575 0.066322
0.521364 0.585156 0.066333
0.593147 0.590027 0.066344
0.658392 0.597982 0.066356
0.729496 0.608765 0.066369
0.781866 0.632684 0.066385
0.846279 0.662827 0.066425
0.885674 0.702331 0.066498
0.911214 0.745978 0.066568
0.931788 0.786110 0.066657
0.944357 0.807508 0.066828
0.955921 0.825866 0.067003
0.963369 0.844110 0.067222
0.969462 0.862006 0.067544
0.974357 0.874283 0.067925
0.977435 0.882606 0.068158
0.980356 0.896129 0.068523
0.983130 0.909356 0.068990
0.984530 0.921704 0.069439
0.985817 0.928907 0.069868
0.986903 0.935890 0.070398
0.073561 0.785608 0.066297
0.074105 0.784636 0.066297
0.076334 0.781233 0.066298
0.079408 0.770990 0.066298
0.086248 0.755636 0.066299
0.101366 0.737434 0.066300
0.128580 0.717833 0.066301
0.171974 0.698278 0.066303
0.219976 0.680057 0.066304
0.265254 0.665360 0.066310
0.319680 0.655607 0.066317
0.383734 0.648665 0.066326
0.466913 0.644805 0.066335
0.534163 0.644146 0.066345
0.601785 0.646681 0.066355
0.666689 0.652299 0.066366
0.736167 0.660819 0.066378
0.777727 0.672902 0.066390
0.836711 0.701212 0.066429
0.876499 0.741093 0.066499
0.904918 0.781762 0.066566
0.927519 0.803123 0.066651
0.940631 0.820592 0.066814
0.952627 0.838120 0.066985
0.961279 0.855626 0.067189
0.967398 0.869483 0.067488
0.973224 0.880388 0.067865
0.976331 0.890234 0.068149
0.979285 0.903364 0.068443
0.982093 0.916240 0.068901
0.984016 0.925462 0.069349
0.985323 0.932482 0.069779
0.986541 0.939301 0.070281
0.074295 0.822251 0.066303
0.074775 0.821609 0.066303
0.076655 0.819354 0.066303
0.080213 0.815395 0.066303
0.086880 0.809902 0.066304
0.102210 0.803211 0.066305
0.130233 0.794814 0.066309
0.174314 0.784717 0.066313
0.222461 0.770128 0.066319
0.269336 0.753154 0.066325
0.325093 0.738859 0.066332
0.393515 0.727849 0.066339
0.474279 0.720532 0.066348
0.545471 0.717144 0.066357
0.609639 0.717773 0.066366
0.674499 0.722389 0.066376
0.741236 0.730869 0.066387
0.780758 0.743027 0.066403
0.833318 0.758637 0.066450
0.868403 0.782490 0.066504
0.899456 0.802266 0.066569
0.922371 0.818518 0.066651
0.937294 0.835017 0.066808
0.949216 0.851665 0.066975
0.958941 0.866275 0.067168
0.965479 0.877737 0.067448
0.971328 0.885795 0.067819
0.975284 0.898674 0.068142
0.978261 0.911369 0.068379
0.981096 0.922607 0.068825
0.983518 0.929603 0.069272
0.984841 0.936420 0.069701
0.986100 0.943056 0.070177
0.074976 0.854353 0.066313
0.075712 0.853794 0.066314
0.077123 0.851821 0.066314
0.081011 0.848340 0.066316
0.087576 0.843469 0.066318
0.103009 0.837471 0.066321
0.131652 0.830702 0.066324
0.176119 0.823567 0.066328
0.224269 0.816477 0.066333
0.272306 0.809815 0.066339
0.329135 0.803920 0.066345
0.400621 0.798785 0.066352
0.480183 0.794471 0.066360
0.552788 0.791638 0.066368
0.616405 0.790738 0.066377
0.681462 0.791851 0.066386
0.745889 0.794864 0.066398
0.783623 0.799409 0.066437
0.836635 0.804711 0.066481
0.867325 0.811056 0.066526
0.894758 0.819999 0.066575
0.917321 0.835196 0.066657
0.934338 0.850711 0.066811
0.946157 0.864949 0.066974
0.956740 0.875856 0.067158
0.963718 0.883111 0.067424
0.969565 0.895563 0.067789
0.974304 0.907920 0.068138
0.977294 0.920144 0.068330
0.980147 0.927377 0.068765
0.982869 0.934127 0.069208
0.984377 0.940723 0.069636
0.985650 0.946596 0.070087
0.076077 0.877754 0.066328
0.076476 0.877419 0.066329
0.077871 0.876235 0.066329
0.081797 0.874135 0.066331
0.088682 0.871173 0.066333
0.103777 0.867484 0.066335
0.132898 0.863264 0.066338
0.177497 0.857453 0.066342
0.225515 0.850825 0.066347
0.274308 0.844461 0.066352
0.331925 0.838668 0.066358
0.405746 0.833707 0.066364
0.484606 0.829793 0.066372
0.557665 0.827087 0.066379
0.621886 0.825695 0.066387
0.687307 0.825677 0.066398
0.749916 0.827044 0.066432
0.788007 0.829769 0.066472
0.839619 0.833790 0.066513
0.869070 0.839025 0.066555
0.894699 0.845373 0.066598
0.912949 0.853032 0.066669
0.931742 0.865722 0.066823
0.943440 0.875903 0.066980
0.954737 0.882449 0.067160
0.962117 0.894295 0.067418
0.967948 0.906146 0.067775
0.973397 0.917953 0.068121
0.976392 0.925934 0.068297
0.979255 0.932541 0.068721
0.981991 0.939030 0.069160
0.983934 0.945191 0.069584
0.985218 0.949885 0.070014
0.076612 0.895831 0.066342
0.076831 0.895497 0.066342
0.078590 0.894312 0.066343
0.082680 0.892205 0.066344
0.090057 0.889216 0.066346
0.104526 0.885469 0.066349
0.134021 0.881910 0.066352
0.178625 0.880240 0.066355
0.226300 0.876752 0.066360
0.275481 0.872639 0.066365
0.333600 0.868802 0.066370
0.409019 0.865410 0.066376
0.487596 0.862606 0.066383
0.561142 0.860008 0.066390
0.625982 0.858110 0.066401
0.691859 0.857434 0.066433
0.753160 0.858018 0.066469
0.795595 0.859862 0.066506
0.841368 0.862527 0.066544
0.870599 0.865457 0.066584
0.895485 0.869139 0.066637
0.913366 0.873510 0.066729
0.929713 0.878502 0.066846
0.941042 0.884003 0.066993
0.952231 0.895081 0.067174
0.960604 0.906264 0.067428
0.966477 0.917499 0.067775
0.972050 0.925399 0.068114
0.975557 0.931780 0.068280
0.978423 0.938085 0.068695
0.981167 0.944298 0.069127
0.983516 0.949127 0.069546
0.984808 0.952899 0.069959
0.077129 0.917752 0.066355
0.077629 0.917461 0.066355
0.079428 0.916427 0.066356
0.083590 0.914582 0.066357
0.091430 0.911953 0.066359
0.105543 0.908636 0.066361
0.135259 0.904774 0.066364
0.179480 0.900547 0.066367
0.226710 0.896150 0.066372
0.275954 0.891782 0.066376
0.334303 0.887636 0.066381
0.410610 0.883885 0.066387
0.489034 0.881747 0.066393
0.563260 0.880847 0.066410
0.628332 0.880222 0.066440
0.695025 0.879898 0.066472
0.755521 0.879891 0.066505
0.800990 0.880209 0.066539
0.842731 0.880847 0.066575
0.871821 0.881797 0.066617
0.896123 0.884322 0.066689
0.913860 0.888601 0.066798
0.929902 0.893598 0.066909
0.939441 0.899246 0.067021
0.950009 0.908423 0.067197
0.958975 0.918950 0.067453
0.965149 0.925873 0.067791
0.970695 0.931947 0.068121
0.974790 0.937992 0.068279
0.977654 0.943987 0.068686
0.980399 0.948783 0.069111
0.983030 0.952501 0.069524
0.984421 0.956114 0.069924
0.077968 0.931022 0.066367
0.078424 0.930877 0.066367
0.080423 0.930364 0.066368
0.084480 0.929445 0.066369
0.092799 0.928129 0.066371
0.106655 0.926457 0.066373
0.136411 0.924494 0.066376
0.180108 0.922324 0.066379
0.226817 0.919373 0.066383
0.275845 0.915365 0.066387
0.334171 0.911502 0.066392
0.410706 0.907943 0.066401
0.489356 0.904826 0.066424
0.564096 0.902273 0.066450
0.629289 0.900380 0.066478
0.696783 0.899223 0.066508
0.756947 0.898854 0.066539
0.802344 0.899303 0.066572
0.843640 0.900578 0.066606
0.872658 0.902670 0.066668
0.896564 0.905553 0.066763
0.914196 0.909190 0.066867
0.930022 0.913531 0.066973
0.939490 0.918524 0.067080
0.948753 0.922753 0.067249
0.957523 0.927418 0.067493
0.963955 0.933114 0.067820
0.969469 0.938829 0.068137
0.974091 0.944516 0.068295
0.976947 0.949012 0.068693
0.979689 0.952563 0.069110
0.982321 0.956068 0.069516
0.984058 0.959519 0.069911
0.078758 0.942250 0.066378
0.079270 0.942125 0.066379
0.081377 0.941681 0.066379
0.085348 0.940884 0.066380
0.094158 0.939739 0.066382
0.108031 0.938279 0.066384
0.137498 0.936554 0.066386
0.180558 0.934633 0.066389
0.226679 0.932594 0.066393
0.275252 0.930520 0.066401
0.333330 0.928493 0.066419
0.409498 0.926594 0.066440
0.488853 0.924896 0.066463
0.563752 0.923463 0.066488
0.629294 0.922351 0.066515
0.697160 0.921604 0.066543
0.757425 0.921254 0.066572
0.802900 0.921323 0.066603
0.844053 0.921823 0.066658
0.873054 0.922754 0.066740
0.896769 0.924109 0.066836
0.914332 0.925871 0.066935
0.930050 0.928020 0.067036
0.939463 0.930528 0.067171
0.948669 0.933367 0.067334
0.956831 0.936507 0.067581
0.962885 0.940641 0.067862
0.968362 0.945681 0.068142
0.973456 0.949745 0.068325
0.976301 0.953128 0.068717
0.979037 0.956489 0.069125
0.981666 0.959815 0.069523
0.983721 0.961824 0.069911
0.079761 0.950660 0.066389
0.080338 0.950592 0.066389
0.082345 0.950350 0.066390
0.086192 0.949915 0.066391
0.095505 0.949288 0.066392
0.109396 0.948363 0.066394
0.138534 0.947164 0.066400
0.180867 0.945821 0.066409
0.226344 0.944371 0.066423
0.274262 0.942515 0.066440
0.331891 0.940682 0.066458
0.407169 0.938945 0.066478
0.487373 0.937366 0.066500
0.562339 0.936007 0.066524
0.628414 0.934917 0.066549
0.696217 0.934140 0.066576
0.756973 0.933708 0.066604
0.802647 0.933646 0.066654
0.843948 0.933969 0.066727
0.872973 0.934683 0.066816
0.896707 0.935786 0.066908
0.914236 0.937270 0.067002
0.929966 0.939120 0.067108
0.939341 0.941315 0.067263
0.948504 0.943834 0.067457
0.956683 0.946192 0.067705
0.962453 0.948641 0.067956
0.967366 0.951037 0.068148
0.972616 0.954220 0.068369
0.975713 0.957403 0.068756
0.978439 0.960387 0.069155
0.981062 0.962179 0.069544
0.983409 0.963950 0.069925
0.080817 0.956939 0.066406
0.081350 0.956881 0.066407
0.083395 0.956672 0.066409
0.087011 0.956297 0.066413
0.096833 0.955756 0.066418
0.110748 0.955060 0.066426
0.139526 0.954230 0.066436
0.181063 0.953296 0.066448
0.225851 0.952290 0.066462
0.272947 0.951251 0.066477
0.329953 0.950216 0.066495
0.403889 0.949225 0.066514
0.484894 0.948147 0.066535
0.559972 0.947143 0.066558
0.626470 0.946319 0.066582
0.694043 0.945708 0.066608
0.755630 0.945335 0.066656
0.801599 0.945220 0.066722
0.843318 0.945377 0.066804
0.872396 0.945813 0.066889
0.896361 0.946532 0.066977
0.913883 0.947530 0.067068
0.929755 0.948800 0.067205
0.939108 0.950048 0.067353
0.948242 0.951459 0.067590
0.956475 0.953052 0.067829
0.962270 0.954811 0.068071
0.967018 0.956721 0.068161
0.971686 0.958823 0.068425
0.975178 0.961092 0.068810
0.977893 0.962791 0.069198
0.980507 0.964342 0.069579
0.983025 0.965488 0.069958
0.081815 0.961676 0.066445
0.082367 0.961647 0.066445
0.084399 0.961546 0.066447
0.087961 0.961362 0.066451
0.098139 0.961097 0.066456
0.112082 0.960755 0.066464
0.140480 0.960346 0.066473
0.181167 0.959688 0.066484
0.225230 0.958809 0.066498
0.271366 0.957896 0.066513
0.327600 0.956980 0.066529
0.399810 0.956096 0.066548
0.481686 0.955276 0.066568
0.556763 0.954548 0.066590
0.623160 0.953942 0.066617
0.690737 0.953479 0.066661
0.753447 0.953181 0.066723
0.798068 0.953062 0.066799
0.842171 0.953135 0.066878
0.871317 0.953408 0.066960
0.895719 0.953883 0.067044
0.913256 0.954561 0.067159
0.929405 0.955439 0.067299
0.938750 0.956511 0.067492
0.947869 0.957767 0.067720
0.956198 0.959197 0.067951
0.962037 0.960510 0.068143
0.966772 0.961501 0.068253
0.971392 0.962569 0.068549
0.974718 0.963705 0.068881
0.977394 0.964874 0.069254
0.979999 0.965961 0.069626
0.982510 0.967042 0.070010
0.082905 0.964578 0.066481
0.083457 0.964562 0.066481
0.085359 0.964502 0.066483
0.089660 0.964395 0.066487
0.099419 0.964240 0.066492
0.113395 0.964037 0.066499
0.141397 0.963685 0.066508
0.181193 0.963285 0.066519
0.224503 0.962852 0.066531
0.269569 0.962399 0.066546
0.324906 0.961943 0.066562
0.395067 0.961499 0.066580
0.477853 0.961085 0.066599
0.552818 0.960715 0.066629
0.618962 0.960402 0.066669
0.686405 0.960160 0.066730
0.750486 0.959893 0.066800
0.791163 0.959767 0.066873
0.840523 0.959811 0.066949
0.869742 0.960033 0.067027
0.894779 0.960310 0.067123
0.912347 0.960645 0.067255
0.928722 0.961085 0.067411
0.938258 0.961627 0.067627
