provia100f/Provia100F_Classic_ExtraSoft.cube
TITLE "Fuji Provia 100F Classic ExtraSoft"
# Adobe RGB in/out. REPLACES AgX. Fuji Provia 100F Classic ExtraSoft.
LUT_3D_SIZE 33
DOMAIN_MIN 0.0 0.0 0.0
DOMAIN_MAX 1.0 1.0 1.0
0.065446 0.069518 0.085077
0.065446 0.069518 0.085077
0.065446 0.069518 0.085077
0.065429 0.069518 0.085077
0.066058 0.069518 0.085077
0.067238 0.069518 0.085077
0.071660 0.069518 0.085077
0.088316 0.069518 0.085077
0.113389 0.069518 0.085077
0.189989 0.069518 0.085077
0.340369 0.069518 0.085077
0.459973 0.069581 0.085077
0.539879 0.069644 0.085076
0.626995 0.069739 0.085076
0.708799 0.069997 0.085075
0.757511 0.070144 0.085074
0.793075 0.070368 0.085074
0.817320 0.070728 0.085079
0.836716 0.071275 0.085095
0.851784 0.071646 0.085105
0.862094 0.072120 0.085116
0.869560 0.072649 0.085156
0.875828 0.073098 0.085198
0.881781 0.073274 0.085233
0.886077 0.073489 0.085275
0.889803 0.073652 0.085444
0.894391 0.073243 0.085624
0.896710 0.073187 0.086563
0.900920 0.072514 0.153033
0.900919 0.072509 0.152985
0.900919 0.072508 0.152982
0.900919 0.072508 0.152980
0.902425 0.386310 0.527450
0.065446 0.069518 0.085077
0.065446 0.069518 0.085077
0.065446 0.069518 0.085077
0.065414 0.069518 0.085077
0.066317 0.069518 0.085077
0.067655 0.069518 0.085077
0.072124 0.069518 0.085077
0.088760 0.069518 0.085077
0.113425 0.069518 0.085077
0.188577 0.069518 0.085077
0.336324 0.069518 0.085077
0.456705 0.069593 0.085077
0.537038 0.069653 0.085076
0.622933 0.069764 0.085076
0.706730 0.070019 0.085075
0.755656 0.070176 0.085074
0.792155 0.070397 0.085074
0.816678 0.070776 0.085080
0.836219 0.071319 0.085096
0.851503 0.071712 0.085105
0.861881 0.072182 0.085116
0.869434 0.072708 0.085156
0.875735 0.073154 0.085198
0.881714 0.073329 0.085233
0.886029 0.073542 0.085274
0.889769 0.073782 0.085443
0.894367 0.073295 0.085619
0.896696 0.073235 0.086524
0.900920 0.072515 0.153035
0.900919 0.072509 0.152985
0.900919 0.072508 0.152982
0.900919 0.072509 0.152980
0.902425 0.386319 0.527449
0.065446 0.069518 0.085077
0.065446 0.069518 0.085077
0.065446 0.069518 0.085077
0.065424 0.069518 0.085077
0.066083 0.069518 0.085077
0.068367 0.069518 0.085077
0.073294 0.069518 0.085077
0.092425 0.069518 0.085077
0.115662 0.069518 0.085077
0.185236 0.069518 0.085077
0.323251 0.069567 0.085077
0.440101 0.069636 0.085077
0.526867 0.069690 0.085076
0.608214 0.069852 0.085076
0.692987 0.070096 0.085075
0.748786 0.070292 0.085074
0.788728 0.070500 0.085074
0.814162 0.070951 0.085081
0.834365 0.071515 0.085096
0.850453 0.071954 0.085106
0.861086 0.072408 0.085117
0.868967 0.072921 0.085158
0.875393 0.073358 0.085199
0.881468 0.073526 0.085233
0.885854 0.073895 0.085274
0.889644 0.074291 0.085438
0.894280 0.073485 0.085605
0.896643 0.073413 0.086390
0.900920 0.072515 0.153038
0.900919 0.072509 0.152985
0.900919 0.072508 0.152982
0.900919 0.072509 0.152980
0.902425 0.386335 0.527447
0.065446 0.069518 0.085077
0.065446 0.069518 0.085077
0.065446 0.069518 0.085077
0.065446 0.069518 0.085077
0.065522 0.069518 0.085077
0.066220 0.069518 0.085077
0.070600 0.069518 0.085077
0.086566 0.069518 0.085077
0.109965 0.069518 0.085077
0.176336 0.069555 0.085077
0.304888 0.069670 0.085077
0.412681 0.069751 0.085077
0.502422 0.069861 0.085076
0.580534 0.070024 0.085075
0.681708 0.070316 0.085075
0.735292 0.070524 0.085074
0.781912 0.070866 0.085074
0.808637 0.071284 0.085082
0.830659 0.072010 0.085098
0.848352 0.072411 0.085107
0.859498 0.072835 0.085120
0.868035 0.073322 0.085160
0.874712 0.073914 0.085201
0.880980 0.074337 0.085234
0.885508 0.074930 0.085274
0.889397 0.075506 0.085430
0.894108 0.074187 0.085582
0.896537 0.073934 0.086209
0.900920 0.072516 0.153047
0.900919 0.072509 0.152986
0.900919 0.072508 0.152983
0.900919 0.072510 0.152981
0.902425 0.386345 0.527446
0.065446 0.069518 0.085077
0.065446 0.069518 0.085077
0.065446 0.069518 0.085077
0.065446 0.069518 0.085077
0.065412 0.069523 0.085077
0.065755 0.069518 0.085077
0.067873 0.069560 0.085077
0.075036 0.069654 0.085077
0.089186 0.069650 0.085077
0.138915 0.069690 0.085077
0.266681 0.069938 0.085077
0.371972 0.070042 0.085076
0.467197 0.070130 0.085076
0.552013 0.070378 0.085075
0.655709 0.070921 0.085074
0.713146 0.071189 0.085074
0.763405 0.071470 0.085074
0.799213 0.072051 0.085085
0.824313 0.072790 0.085100
0.844117 0.073129 0.085109
0.856773 0.073502 0.085126
0.866445 0.074471 0.085165
0.873555 0.075926 0.085204
0.880152 0.076502 0.085236
0.884924 0.077252 0.085275
0.888982 0.077796 0.085423
0.893817 0.076189 0.085557
0.896357 0.075675 0.086042
0.900920 0.072518 0.153063
0.900919 0.072509 0.152988
0.900919 0.072508 0.152984
0.900920 0.072517 0.152981
0.902425 0.386349 0.527445
0.065446 0.069572 0.085077
0.065446 0.069575 0.085077
0.065446 0.069601 0.085077
0.065446 0.069629 0.085077
0.065437 0.069654 0.085077
0.065492 0.069673 0.085077
0.066198 0.069830 0.085077
0.070299 0.070066 0.085077
0.077280 0.070003 0.085077
0.102168 0.070076 0.085077
0.200997 0.070403 0.085076
0.310872 0.070562 0.085076
0.418296 0.070753 0.085075
0.519944 0.071116 0.085075
0.611989 0.071817 0.085074
0.684370 0.072241 0.085074
0.737210 0.072677 0.085077
0.784281 0.073286 0.085089
0.813740 0.074414 0.085104
0.835881 0.075227 0.085112
0.852263 0.076444 0.085134
0.863378 0.078047 0.085171
0.871663 0.079509 0.085209
0.878801 0.079985 0.085240
0.883978 0.080613 0.085276
0.888313 0.081027 0.085419
0.893348 0.079568 0.085539
0.896064 0.078885 0.085887
0.900920 0.072523 0.153095
0.900919 0.072509 0.152992
0.900919 0.072509 0.152986
0.902424 0.386019 0.152982
0.902425 0.386351 0.527444
0.065446 0.069997 0.085077
0.065446 0.070002 0.085077
0.065446 0.070052 0.085077
0.065446 0.070118 0.085077
0.065440 0.070215 0.085077
0.065460 0.070315 0.085077
0.065985 0.070389 0.085077
0.068428 0.071025 0.085077
0.071690 0.070776 0.085077
0.083913 0.070911 0.085077
0.138263 0.071580 0.085076
0.232207 0.071842 0.085075
0.344137 0.071948 0.085075
0.467562 0.072411 0.085075
0.566277 0.073244 0.085074
0.653562 0.073639 0.085074
0.710773 0.074273 0.085083
0.764011 0.075923 0.085094
0.801193 0.078748 0.085108
0.825529 0.080053 0.085116
0.845053 0.081564 0.085145
0.857866 0.083639 0.085180
0.868519 0.085420 0.085216
0.876563 0.085879 0.085245
0.882428 0.086634 0.085280
0.887223 0.087251 0.085424
0.892574 0.085130 0.085538
0.895575 0.083877 0.085786
0.900921 0.072534 0.153173
0.900919 0.072511 0.153001
0.900919 0.072509 0.152990
0.902425 0.386330 0.152984
0.902425 0.386352 0.527444
0.065446 0.071338 0.085077
0.065446 0.071348 0.085077
0.065446 0.071517 0.085077
0.065446 0.071770 0.085077
0.065438 0.072072 0.085077
0.065453 0.072381 0.085077
0.065878 0.072631 0.085077
0.067015 0.072822 0.085077
0.069241 0.072391 0.085077
0.074767 0.072555 0.085076
0.101917 0.073472 0.085075
0.171624 0.073603 0.085075
0.262693 0.073615 0.085075
0.394656 0.074572 0.085074
0.526085 0.077476 0.085074
0.598980 0.078490 0.085081
0.679114 0.079472 0.085089
0.734461 0.081388 0.085100
0.785763 0.084753 0.085113
0.814508 0.085864 0.085129
0.836590 0.087613 0.085157
0.852853 0.090466 0.085191
0.864790 0.093689 0.085226
0.873401 0.095585 0.085254
0.879737 0.098912 0.085294
0.885349 0.100144 0.085444
0.891204 0.096734 0.085564
0.894707 0.094874 0.085771
0.900924 0.072580 0.153441
0.900920 0.072514 0.153031
0.900919 0.072511 0.153003
0.902425 0.386347 0.152989
0.902425 0.386352 0.527444
0.065446 0.072647 0.085077
0.065446 0.072657 0.085077
0.065446 0.072778 0.085077
0.065446 0.073016 0.085077
0.065446 0.073288 0.085077
0.065405 0.073560 0.085077
0.065539 0.074151 0.085077
0.066089 0.074714 0.085077
0.068164 0.075382 0.085076
0.071486 0.076047 0.085076
0.085765 0.079824 0.085075
0.120805 0.080131 0.085075
0.195261 0.079923 0.085074
0.312653 0.080986 0.085074
0.463887 0.084383 0.085081
0.549935 0.085423 0.085089
0.634021 0.086581 0.085096
0.704374 0.089150 0.085106
0.762706 0.093500 0.085122
0.798942 0.095236 0.085146
0.823998 0.098492 0.085173
0.845884 0.103547 0.085204
0.859845 0.109486 0.085237
0.870632 0.112562 0.085263
0.877808 0.117378 0.085322
0.883554 0.123797 0.085469
0.889445 0.126963 0.085602
0.893155 0.132293 0.085855
0.901002 0.074159 0.156573
0.900922 0.072562 0.153341
0.900920 0.072521 0.153087
0.902425 0.386351 0.153014
0.902425 0.386352 0.527444
0.065446 0.076317 0.085077
0.065446 0.076346 0.085077
0.065446 0.076655 0.085077
0.065446 0.077532 0.085077
0.065446 0.078497 0.085077
0.065411 0.079608 0.085077
0.065507 0.080625 0.085077
0.066003 0.081527 0.085076
0.067118 0.082369 0.085076
0.069575 0.083290 0.085075
0.077858 0.089167 0.085074
0.095082 0.089634 0.085074
0.141582 0.088886 0.085074
0.235930 0.090560 0.085076
0.387161 0.095391 0.085090
0.500617 0.096300 0.085097
0.574127 0.097291 0.085104
0.671290 0.102575 0.085113
0.733399 0.113184 0.085143
0.782728 0.116591 0.085165
0.812014 0.120638 0.085189
0.835149 0.128724 0.085219
0.852906 0.140007 0.085250
0.866319 0.145040 0.085274
0.874858 0.150121 0.085361
0.881557 0.157687 0.085498
0.888147 0.161003 0.085621
0.892317 0.168290 0.085857
0.896382 0.176766 0.086152
0.899020 0.191119 0.087229
0.901565 0.232221 0.123464
0.902425 0.386356 0.157566
0.902425 0.386353 0.527443
0.065446 0.088332 0.085077
0.065446 0.088372 0.085077
0.065446 0.088721 0.085077
0.065446 0.090373 0.085077
0.065439 0.092009 0.085077
0.065406 0.093708 0.085076
0.065512 0.095704 0.085076
0.065997 0.097815 0.085075
0.066960 0.101559 0.085075
0.069199 0.104781 0.085074
0.073528 0.107665 0.085074
0.085393 0.108557 0.085074
0.110396 0.106417 0.085076
0.184769 0.110023 0.085085
0.311163 0.122130 0.085099
0.431649 0.123241 0.085105
0.529631 0.124430 0.085111
0.616636 0.130717 0.085126
0.698361 0.147016 0.085165
0.755513 0.150250 0.085184
0.795937 0.157753 0.085207
0.822833 0.173855 0.085236
0.846044 0.184182 0.085264
0.860993 0.190381 0.085295
0.871062 0.206835 0.085408
0.878363 0.230660 0.085537
0.886083 0.231031 0.085650
0.891010 0.236129 0.085882
0.895552 0.243255 0.086142
0.898554 0.254546 0.086778
0.901418 0.254332 0.099238
0.902425 0.386359 0.173642
0.902425 0.386368 0.180457
0.065446 0.103508 0.085077
0.065446 0.103601 0.085077
0.065446 0.104314 0.085077
0.065446 0.107437 0.085077
0.065439 0.110742 0.085076
0.065409 0.114980 0.085076
0.065496 0.120362 0.085075
0.065871 0.125204 0.085075
0.066385 0.130109 0.085074
0.068470 0.135260 0.085074
0.071423 0.140273 0.085074
0.079156 0.145056 0.085081
0.092626 0.140360 0.085085
0.140240 0.147029 0.085094
0.244409 0.169422 0.085107
0.358163 0.169726 0.085113
0.471120 0.171207 0.085123
0.562225 0.180481 0.085151
0.668086 0.203323 0.085186
0.724570 0.207304 0.085204
0.778037 0.221808 0.085226
0.809757 0.240333 0.085253
0.834722 0.258370 0.085281
0.853817 0.268992 0.085356
0.867069 0.278154 0.085460
0.875636 0.298502 0.085581
0.883757 0.312998 0.085699
0.889088 0.327310 0.085932
0.894131 0.336931 0.086184
0.897745 0.340648 0.086651
0.901058 0.314307 0.089786
0.902425 0.386370 0.173736
0.902425 0.386385 0.187046
0.065446 0.129355 0.085077
0.065446 0.129447 0.085077
0.065446 0.130103 0.085076
0.065446 0.132929 0.085076
0.065437 0.138372 0.085076
0.065411 0.145203 0.085075
0.065476 0.152284 0.085075
0.065727 0.160402 0.085074
0.066104 0.170597 0.085074
0.067533 0.178232 0.085074
0.069758 0.184687 0.085079
0.073933 0.190231 0.085087
0.085679 0.198090 0.085095
0.112741 0.209976 0.085103
0.197506 0.247800 0.085116
0.295092 0.247567 0.085131
0.407377 0.247815 0.085148
0.518182 0.259315 0.085175
0.614144 0.283413 0.085209
0.688277 0.285748 0.085225
0.748309 0.300818 0.085245
0.793952 0.319956 0.085270
0.822608 0.338593 0.085337
0.846772 0.344318 0.085417
0.861270 0.358113 0.085518
0.871552 0.382595 0.085634
0.881104 0.388253 0.085774
0.887395 0.399279 0.085985
0.892865 0.413082 0.086223
0.896661 0.432382 0.086720
0.899631 0.470635 0.087641
0.902425 0.386542 0.173859
0.902425 0.386505 0.196817
0.065446 0.182870 0.085076
0.065446 0.183005 0.085076
0.065446 0.183851 0.085076
0.065446 0.187074 0.085076
0.065432 0.196664 0.085075
0.065409 0.207273 0.085075
0.065473 0.220151 0.085074
0.065674 0.235404 0.085074
0.066053 0.248366 0.085074
0.067140 0.258486 0.085081
0.069005 0.268297 0.085089
0.072441 0.277431 0.085097
0.080841 0.285646 0.085104
0.097768 0.297803 0.085111
0.156390 0.333908 0.085139
0.237399 0.334104 0.085157
0.343786 0.332812 0.085173
0.465008 0.343165 0.085197
0.562957 0.368787 0.085231
0.656592 0.370919 0.085247
0.717960 0.380741 0.085265
0.775392 0.399106 0.085302
0.809553 0.415072 0.085407
0.835503 0.423250 0.085484
0.854365 0.437200 0.085579
0.867668 0.451530 0.085697
0.877871 0.462061 0.085858
0.884787 0.476739 0.086054
0.891285 0.483991 0.086268
0.895756 0.494670 0.086728
0.899143 0.517511 0.087512
0.901244 0.546642 0.091843
0.902376 0.591806 0.210244
0.065446 0.287429 0.085075
0.065446 0.287806 0.085075
0.065446 0.289804 0.085075
0.065443 0.296588 0.085075
0.065423 0.313227 0.085075
0.065405 0.320787 0.085074
0.065485 0.331895 0.085074
0.065699 0.343304 0.085077
0.066049 0.355341 0.085086
0.067051 0.369098 0.085095
0.068786 0.384308 0.085103
0.071825 0.396734 0.085110
0.078767 0.404849 0.085120
0.091657 0.412100 0.085142
0.130822 0.418748 0.085165
0.197883 0.418068 0.085182
0.290204 0.417428 0.085198
0.407493 0.427603 0.085221
0.524792 0.450889 0.085253
0.600033 0.451310 0.085267
0.684071 0.458158 0.085291
0.746551 0.472142 0.085381
0.794306 0.485162 0.085480
0.823341 0.493150 0.085552
0.847193 0.502738 0.085640
0.862028 0.517696 0.085799
0.874209 0.523767 0.085948
0.882437 0.530452 0.086128
0.889413 0.540469 0.086359
0.894336 0.553450 0.086819
0.898354 0.565027 0.087507
0.900856 0.583211 0.089796
0.902329 0.601041 0.192166
0.065446 0.367545 0.085075
0.065446 0.367814 0.085075
0.065446 0.369175 0.085075
0.065438 0.373431 0.085075
0.065421 0.384855 0.085074
0.065409 0.396396 0.085074
0.065485 0.408514 0.085076
0.065644 0.417784 0.085084
0.066021 0.429381 0.085093
0.066707 0.441999 0.085101
0.068453 0.453340 0.085109
0.070596 0.463957 0.085116
0.074964 0.473101 0.085140
0.086023 0.480036 0.085162
0.109383 0.486463 0.085184
0.166833 0.492349 0.085205
0.238865 0.491458 0.085220
0.351031 0.500466 0.085243
0.475389 0.519830 0.085274
0.556596 0.519907 0.085297
0.649075 0.523116 0.085366
0.717348 0.531790 0.085459
0.777069 0.541326 0.085553
0.810353 0.546164 0.085620
0.836520 0.553914 0.085728
0.855503 0.565275 0.085903
0.870208 0.570805 0.086040
0.879215 0.580647 0.086212
0.887306 0.589149 0.086466
0.893122 0.597760 0.086916
0.897449 0.613800 0.087514
0.900150 0.630449 0.089355
0.902115 0.627393 0.128371
0.065446 0.443904 0.085074
0.065446 0.444086 0.085074
0.065442 0.444971 0.085074
0.065433 0.447605 0.085074
0.065419 0.454360 0.085074
0.065414 0.464964 0.085074
0.065478 0.473111 0.085082
0.065592 0.482476 0.085090
0.065997 0.492892 0.085099
0.066377 0.503361 0.085107
0.067909 0.513691 0.085115
0.069675 0.521279 0.085135
0.073151 0.527942 0.085158
0.081432 0.533780 0.085180
0.095606 0.538944 0.085201
0.135224 0.543737 0.085222
0.204304 0.548247 0.085242
0.302143 0.555075 0.085264
0.428193 0.570287 0.085325
0.520566 0.570068 0.085379
0.597747 0.573349 0.085446
0.684946 0.581577 0.085535
0.749204 0.591309 0.085626
0.795353 0.595593 0.085701
0.824971 0.603818 0.085843
0.848659 0.613678 0.086007
0.865496 0.618382 0.086138
0.875851 0.623670 0.086308
0.884920 0.630068 0.086580
0.891359 0.640023 0.087056
0.896476 0.650217 0.087521
0.899681 0.665013 0.088972
0.901611 0.690731 0.097361
0.065440 0.517098 0.085074
0.065439 0.517218 0.085074
0.065435 0.517760 0.085074
0.065427 0.519243 0.085074
0.065415 0.522795 0.085074
0.065427 0.530356 0.085083
0.065481 0.534544 0.085090
0.065602 0.542623 0.085099
0.065988 0.549948 0.085107
0.066251 0.557382 0.085114
0.067524 0.565367 0.085135
0.069224 0.573042 0.085160
0.072200 0.580453 0.085183
0.078289 0.586627 0.085204
0.089135 0.592598 0.085226
0.119111 0.597754 0.085245
0.179695 0.602486 0.085264
0.258290 0.607214 0.085288
0.378398 0.619349 0.085407
0.476256 0.619239 0.085458
0.557897 0.620984 0.085522
0.655655 0.626362 0.085609
0.721523 0.633614 0.085718
0.779158 0.636882 0.085822
0.812720 0.643970 0.085959
0.839330 0.652243 0.086114
0.859310 0.658284 0.086235
0.872038 0.665084 0.086446
0.881979 0.674670 0.086771
0.889686 0.681215 0.087204
0.895354 0.692930 0.087543
0.898934 0.705580 0.088945
0.901320 0.715816 0.092529
0.065431 0.576306 0.085075
0.065430 0.576454 0.085075
0.065427 0.577074 0.085077
0.065420 0.578603 0.085080
0.065409 0.581944 0.085086
0.065440 0.588860 0.085093
0.065493 0.594459 0.085100
0.065635 0.602318 0.085108
0.065989 0.609717 0.085116
0.066247 0.616622 0.085142
0.067469 0.622138 0.085167
0.069057 0.627534 0.085192
0.071691 0.633412 0.085215
0.076605 0.639328 0.085236
0.087027 0.644544 0.085257
0.110390 0.649582 0.085277
0.159405 0.653887 0.085332
0.231337 0.657632 0.085406
0.331854 0.661714 0.085484
0.434718 0.661663 0.085533
0.526810 0.664217 0.085596
0.607710 0.670648 0.085686
0.689540 0.678530 0.085840
0.752778 0.681659 0.085940
0.798314 0.687942 0.086069
0.828587 0.695380 0.086220
0.852780 0.699489 0.086366
0.867774 0.705143 0.086589
0.879105 0.710099 0.086959
0.887577 0.714752 0.087368
0.894091 0.721102 0.087695
0.898334 0.727812 0.088957
0.900952 0.739507 0.091690
0.065427 0.621763 0.085081
0.065427 0.621847 0.085082
0.065423 0.622196 0.085083
0.065417 0.623038 0.085086
0.065408 0.624838 0.085091
0.065439 0.628481 0.085098
0.065493 0.633941 0.085105
0.065587 0.638970 0.085113
0.065946 0.645962 0.085130
0.066131 0.653200 0.085156
0.067152 0.659707 0.085180
0.068600 0.666735 0.085204
0.070713 0.673536 0.085227
0.074300 0.679867 0.085249
0.083498 0.685746 0.085269
0.099852 0.690875 0.085301
0.135888 0.694863 0.085382
0.200128 0.698195 0.085459
0.286854 0.701048 0.085530
0.388913 0.704171 0.085603
0.491171 0.705592 0.085664
0.567577 0.709912 0.085806
0.666217 0.714094 0.085958
0.726559 0.715806 0.086052
0.783794 0.719104 0.086178
0.817278 0.723395 0.086350
0.845452 0.726378 0.086517
0.862648 0.730643 0.086810
0.875712 0.734808 0.087154
0.885176 0.739445 0.087505
0.892747 0.744738 0.087885
0.897515 0.752154 0.089091
0.900611 0.761370 0.091246
0.065424 0.664427 0.085088
0.065423 0.664534 0.085088
0.065420 0.664965 0.085090
0.065415 0.665965 0.085093
0.065406 0.668018 0.085097
0.065440 0.672032 0.085103
0.065495 0.678512 0.085111
0.065564 0.682512 0.085119
0.065928 0.690280 0.085147
0.066091 0.694925 0.085170
0.066939 0.700497 0.085195
0.068456 0.705911 0.085219
0.070007 0.710148 0.085242
0.073162 0.713714 0.085263
0.080308 0.717190 0.085289
0.090795 0.720342 0.085363
0.120285 0.723029 0.085440
0.176484 0.725535 0.085516
0.246835 0.728024 0.085590
0.343362 0.730153 0.085658
0.451741 0.732515 0.085772
0.538560 0.735608 0.085916
0.624944 0.739732 0.086065
0.694605 0.741483 0.086160
0.761093 0.744403 0.086284
0.804300 0.748452 0.086507
0.835228 0.751273 0.086706
0.856701 0.754997 0.087021
0.871940 0.759359 0.087350
0.882654 0.763274 0.087526
0.891110 0.768922 0.088131
0.896718 0.773879 0.089234
0.900230 0.778565 0.091083
0.065420 0.706687 0.085095
0.065419 0.706768 0.085096
0.065416 0.707086 0.085097
0.065411 0.707784 0.085100
0.065406 0.709093 0.085104
0.065444 0.711147 0.085109
0.065498 0.714864 0.085118
0.065568 0.717285 0.085140
0.065889 0.720845 0.085165
0.066075 0.724582 0.085189
0.066826 0.728827 0.085214
0.068198 0.732522 0.085237
0.069605 0.736529 0.085260
0.072422 0.740306 0.085283
0.077935 0.743740 0.085355
0.087561 0.746999 0.085439
0.109418 0.749833 0.085517
0.151573 0.752388 0.085592
0.218865 0.754685 0.085663
0.310624 0.757061 0.085783
0.411366 0.759136 0.085902
0.504963 0.761402 0.086020
0.583329 0.764970 0.086165
0.675219 0.766817 0.086255
0.736268 0.769407 0.086434
0.790501 0.772445 0.086691
0.824614 0.774815 0.086927
0.850369 0.777085 0.087230
0.867961 0.778467 0.087505
0.879788 0.780713 0.087673
0.889375 0.785469 0.088387
0.895799 0.790828 0.089407
0.899802 0.798796 0.091046
0.065417 0.734553 0.085102
0.065417 0.734622 0.085102
0.065414 0.734887 0.085103
0.065409 0.735446 0.085106
0.065411 0.736475 0.085109
0.065446 0.738287 0.085115
0.065495 0.741438 0.085135
0.065571 0.744482 0.085158
0.065858 0.747422 0.085181
0.066066 0.751682 0.085208
0.066631 0.755024 0.085230
0.067918 0.759161 0.085254
0.069339 0.763381 0.085277
0.071720 0.766878 0.085341
0.075751 0.770121 0.085425
0.085367 0.772800 0.085507
0.102660 0.775261 0.085588
0.138349 0.777019 0.085663
0.199572 0.777813 0.085784
0.281177 0.778527 0.085908
0.377620 0.779423 0.086028
0.473900 0.781378 0.086144
0.554105 0.783455 0.086257
0.642217 0.785143 0.086385
0.712087 0.787343 0.086570
0.773782 0.790382 0.086900
0.813278 0.793110 0.087128
0.842533 0.796017 0.087422
0.863421 0.799650 0.087530
0.876692 0.803143 0.087927
0.887479 0.807145 0.088631
0.894745 0.811806 0.089596
0.899431 0.817747 0.091046
0.065418 0.761531 0.085104
0.065418 0.761590 0.085104
0.065415 0.761814 0.085106
0.065411 0.762281 0.085108
0.065404 0.763127 0.085112
0.065438 0.764595 0.085117
0.065484 0.767110 0.085140
0.065538 0.770214 0.085166
0.065791 0.772152 0.085188
0.066035 0.775352 0.085214
0.066372 0.777260 0.085237
0.067525 0.778651 0.085261
0.068759 0.780965 0.085287
0.070920 0.784617 0.085371
0.074306 0.788060 0.085460
0.082338 0.790993 0.085540
0.093413 0.793774 0.085620
0.123471 0.796300 0.085714
0.178372 0.798596 0.085844
0.244230 0.800672 0.085967
0.337061 0.802625 0.086087
0.438125 0.804566 0.086201
0.526711 0.806509 0.086336
0.602285 0.808419 0.086510
0.685102 0.810006 0.086752
0.749965 0.812327 0.087088
0.800071 0.814763 0.087307
0.832612 0.817020 0.087513
0.857731 0.820026 0.087698
0.873442 0.823037 0.088227
0.885392 0.826515 0.088873
0.893664 0.830455 0.089741
0.899013 0.836224 0.091090
0.065419 0.780069 0.085107
0.065419 0.780128 0.085108
0.065416 0.780349 0.085109
0.065412 0.780796 0.085111
0.065405 0.781575 0.085114
0.065430 0.782864 0.085125
0.065473 0.784978 0.085147
0.065532 0.788474 0.085176
0.065739 0.790465 0.085196
0.066008 0.793570 0.085221
0.066246 0.797204 0.085246
0.067220 0.800430 0.085268
0.068566 0.804100 0.085315
0.070287 0.807515 0.085410
0.073157 0.810360 0.085496
0.079553 0.813172 0.085580
0.088806 0.815736 0.085661
0.111734 0.817973 0.085792
0.153784 0.819973 0.085921
0.218390 0.821797 0.086047
0.304509 0.823481 0.086165
0.400465 0.825109 0.086281
0.498824 0.826696 0.086454
0.567605 0.828500 0.086652
0.663424 0.830381 0.086919
0.726524 0.832219 0.087252
0.786769 0.834839 0.087462
0.822120 0.836652 0.087532
0.851626 0.839456 0.087922
0.869973 0.842211 0.088456
0.883182 0.845573 0.089098
0.892524 0.848512 0.089880
0.898568 0.851668 0.091128
0.065422 0.803013 0.085110
0.065421 0.803076 0.085110
0.065419 0.803312 0.085111
0.065415 0.803777 0.085113
0.065408 0.804557 0.085116
0.065420 0.805792 0.085132
0.065461 0.807529 0.085153
0.065517 0.810292 0.085181
0.065687 0.812628 0.085204
0.065973 0.815086 0.085227
0.066145 0.818773 0.085256
0.066976 0.821283 0.085277
0.068448 0.824803 0.085357
0.069702 0.827593 0.085445
0.072433 0.830734 0.085538
0.077343 0.833532 0.085624
0.086330 0.836028 0.085730
0.104369 0.838277 0.085869
0.139667 0.840237 0.086002
0.199009 0.842024 0.086128
0.275578 0.843645 0.086249
0.367287 0.845190 0.086417
0.464202 0.846605 0.086592
0.543104 0.847748 0.086855
0.626140 0.849048 0.087124
0.700631 0.850162 0.087386
0.768372 0.851901 0.087512
0.810836 0.852798 0.087677
0.844567 0.854283 0.088118
0.866238 0.855474 0.088656
0.880759 0.856944 0.089261
0.891310 0.858590 0.089992
0.898257 0.860808 0.091164
0.065433 0.827513 0.085105
0.065433 0.827558 0.085105
0.065430 0.827722 0.085106
0.065426 0.828042 0.085108
0.065420 0.828573 0.085112
0.065410 0.829408 0.085117
0.065425 0.830716 0.085139
0.065482 0.832815 0.085168
0.065553 0.835273 0.085197
0.065827 0.837271 0.085220
0.066050 0.840206 0.085248
0.066595 0.843091 0.085273
0.067757 0.845969 0.085337
0.069108 0.848380 0.085437
0.071375 0.850224 0.085532
0.074778 0.851836 0.085619
0.083376 0.853404 0.085732
0.095110 0.854609 0.085875
0.124754 0.855508 0.086008
0.177923 0.856326 0.086137
0.240443 0.857080 0.086259
0.329521 0.857787 0.086436
0.427866 0.858478 0.086627
0.515318 0.859179 0.086894
