provia100f/Provia100F_Classic_IlfochromeP.cube
TITLE "Fuji Provia 100F Classic IlfochromeP"
# Adobe RGB in/out. REPLACES AgX. Fuji Provia 100F Classic IlfochromeP.
LUT_3D_SIZE 9
DOMAIN_MIN 0.0 0.0 0.0
DOMAIN_MAX 1.0 1.0 1.0
0.167450 0.163886 0.144994
0.169904 0.163886 0.144994
0.210544 0.166058 0.144994
0.349597 0.184761 0.144954
0.498886 0.238319 0.145383
0.651629 0.317724 0.147552
0.778285 0.412176 0.150942
0.862322 0.513937 0.157244
0.906597 0.609085 0.166354
0.167450 0.163886 0.144994
0.170090 0.164584 0.144994
0.211038 0.171679 0.144994
0.350141 0.194956 0.144950
0.499262 0.252483 0.145432
0.651938 0.331401 0.147656
0.778450 0.425121 0.151080
0.862406 0.524033 0.157429
0.906644 0.617015 0.166581
0.167450 0.183964 0.144994
0.171009 0.187884 0.144994
0.212873 0.206155 0.144993
0.352088 0.245007 0.144938
0.500612 0.303921 0.145598
0.653047 0.378941 0.148018
0.779043 0.470103 0.151568
0.862705 0.559103 0.158081
0.906811 0.644785 0.167391
0.167329 0.273073 0.144994
0.172501 0.279008 0.144994
0.216396 0.299993 0.144960
0.355651 0.338112 0.144960
0.503087 0.392848 0.145872
0.655083 0.464743 0.148640
0.780132 0.539239 0.152426
0.863256 0.616357 0.159247
0.907119 0.687444 0.168852
0.167823 0.407212 0.144955
0.174380 0.412668 0.144948
0.221648 0.431995 0.144927
0.360933 0.466806 0.145487
0.506769 0.511395 0.147065
0.658120 0.566152 0.149482
0.781756 0.625946 0.153626
0.864078 0.685375 0.160913
0.907578 0.735991 0.171154
0.170207 0.556469 0.145066
0.177963 0.560458 0.145174
0.230890 0.574631 0.145519
0.367980 0.598690 0.146411
0.511706 0.631320 0.148426
0.662204 0.670751 0.151205
0.783941 0.709192 0.156248
0.865183 0.750107 0.163369
0.908197 0.794432 0.175013
0.173909 0.686523 0.145866
0.182540 0.688687 0.146092
0.242865 0.696372 0.146925
0.376802 0.710174 0.148244
0.517924 0.730067 0.149981
0.667368 0.755670 0.153368
0.786705 0.786386 0.159331
0.866583 0.816501 0.167314
0.908981 0.841677 0.180200
0.179097 0.783401 0.148177
0.189919 0.785161 0.148359
0.258241 0.791433 0.148977
0.387620 0.801240 0.150250
0.525506 0.814848 0.152785
0.673631 0.829029 0.157227
0.790059 0.845889 0.162885
0.868100 0.865244 0.172270
0.909934 0.882395 0.186238
0.187103 0.853134 0.150708
0.199233 0.854073 0.150976
0.275827 0.857420 0.151903
0.400275 0.863482 0.153473
0.534993 0.871615 0.157052
0.681001 0.880281 0.161476
0.794007 0.890810 0.168566
0.869527 0.903003 0.179664
0.911058 0.916635 0.193034
0.167450 0.163886 0.147297
0.169904 0.163886 0.147502
0.210544 0.166191 0.148194
0.349597 0.184985 0.149318
0.498886 0.238659 0.151683
0.651629 0.318048 0.155590
0.778285 0.412482 0.161360
0.862322 0.514182 0.169973
0.906597 0.609272 0.183769
0.167450 0.163886 0.147405
0.170090 0.164646 0.147607
0.211038 0.171836 0.148290
0.350141 0.195282 0.149399
0.499262 0.252806 0.151815
0.651938 0.331717 0.155785
0.778450 0.425422 0.161521
0.862406 0.524267 0.170187
0.906644 0.617200 0.184058
0.167450 0.184191 0.147780
0.171009 0.188097 0.147971
0.212873 0.206459 0.148622
0.352088 0.245339 0.149686
0.500612 0.304254 0.152280
0.653047 0.379259 0.156473
0.779043 0.470362 0.162094
0.862705 0.559327 0.171123
0.906811 0.644963 0.185091
0.167329 0.273408 0.148422
0.172501 0.279339 0.148598
0.216396 0.300329 0.149197
0.355651 0.338424 0.150622
0.503087 0.393160 0.153100
0.655083 0.465004 0.157701
0.780132 0.539468 0.163509
0.863256 0.616542 0.172999
0.907119 0.687566 0.186969
0.167823 0.407519 0.149288
0.174380 0.412973 0.149444
0.221648 0.432293 0.150222
0.360933 0.467066 0.151966
0.506769 0.511641 0.154700
0.658120 0.566374 0.159450
0.781756 0.626128 0.165832
0.864078 0.685497 0.175955
0.907578 0.736100 0.189724
0.170207 0.556694 0.150875
0.177963 0.560682 0.151140
0.230890 0.574851 0.152057
0.367980 0.598880 0.153612
0.511706 0.631501 0.157272
0.662204 0.670906 0.161667
0.783941 0.709308 0.168826
0.865183 0.750213 0.180019
0.908197 0.794512 0.193352
0.173909 0.686645 0.153082
0.182540 0.688808 0.153312
0.242865 0.696490 0.154450
0.376802 0.710289 0.156912
0.517924 0.730178 0.160259
0.667368 0.755774 0.165326
0.786705 0.786484 0.173135
0.866583 0.816561 0.184992
0.908981 0.841732 0.197820
0.179097 0.783500 0.156782
0.189919 0.785260 0.157139
0.258241 0.791531 0.158389
0.387620 0.801318 0.160563
0.525506 0.814924 0.164194
0.673631 0.829086 0.169953
0.790059 0.845943 0.179419
0.868100 0.865295 0.190799
0.909934 0.882431 0.203574
0.187103 0.853187 0.161089
0.199233 0.854126 0.161400
0.275827 0.857472 0.162523
0.400275 0.863533 0.165531
0.534993 0.871652 0.169751
0.681001 0.880317 0.177021
0.794007 0.890844 0.186600
0.869527 0.903035 0.197356
0.911058 0.916665 0.212928
0.167450 0.163886 0.195607
0.169904 0.163886 0.196109
0.210544 0.166658 0.197898
0.349597 0.185783 0.201125
0.498886 0.239877 0.207923
0.651629 0.319211 0.217311
0.778285 0.413577 0.228833
0.862322 0.515062 0.242698
0.906597 0.609942 0.259700
0.167450 0.163886 0.195870
0.170090 0.164862 0.196371
0.211038 0.172394 0.198156
0.350141 0.196446 0.201376
0.499262 0.254076 0.208311
0.651938 0.332851 0.217671
0.778450 0.426502 0.229181
0.862406 0.525106 0.243048
0.906644 0.617863 0.260054
0.167450 0.184999 0.196808
0.171009 0.188854 0.197306
0.212873 0.207543 0.199078
0.352088 0.246528 0.202311
0.500612 0.305448 0.209651
0.653047 0.380398 0.218962
0.779043 0.471293 0.230427
0.862705 0.560129 0.244357
0.906811 0.645600 0.261324
0.167329 0.274611 0.198518
0.172501 0.280523 0.199009
0.216396 0.301532 0.200757
0.355651 0.339545 0.204909
0.503087 0.394281 0.212083
0.655083 0.465942 0.221324
0.780132 0.540291 0.232708
0.863256 0.617205 0.246770
0.907119 0.688001 0.263653
0.167823 0.408621 0.201033
0.174380 0.414068 0.201515
0.221648 0.433365 0.203822
0.360933 0.468001 0.208749
0.506769 0.512524 0.215686
0.658120 0.567170 0.224824
0.781756 0.626782 0.236099
0.864078 0.685935 0.250357
0.907578 0.736492 0.267117
0.170207 0.557499 0.205611
0.177963 0.561483 0.206359
0.230890 0.575638 0.209010
0.367980 0.599561 0.213660
0.511706 0.632150 0.220490
0.662204 0.671461 0.229496
0.783941 0.709723 0.240833
0.865183 0.750593 0.255161
0.908197 0.794799 0.271759
0.173909 0.687082 0.212030
0.182540 0.689242 0.212731
0.242865 0.696918 0.215237
0.376802 0.710703 0.219796
0.517924 0.730574 0.226499
0.667368 0.756150 0.235346
0.786705 0.786837 0.246947
0.866583 0.816776 0.261202
0.908981 0.841929 0.277598
0.179097 0.783855 0.219549
0.189919 0.785613 0.220234
0.258241 0.791880 0.222681
0.387620 0.801601 0.227138
0.525506 0.815196 0.233695
0.673631 0.829292 0.242664
0.790059 0.846138 0.254444
0.868100 0.865477 0.268482
0.909934 0.882557 0.284619
0.187103 0.853376 0.228253
0.199233 0.854314 0.228919
0.275827 0.857659 0.231304
0.400275 0.863716 0.235648
0.534993 0.871785 0.242334
0.681001 0.880445 0.251606
0.794007 0.890966 0.263194
0.869527 0.903150 0.276987
0.911058 0.916773 0.292835
0.167450 0.163886 0.336352
0.169904 0.163886 0.336921
0.210544 0.167470 0.338961
0.349597 0.187222 0.342695
0.498886 0.242103 0.348237
0.651629 0.321344 0.355645
0.778285 0.415590 0.364937
0.862322 0.516631 0.376105
0.906597 0.611174 0.389114
0.167450 0.164145 0.336649
0.170090 0.165230 0.337218
0.211038 0.173386 0.339257
0.350141 0.198562 0.342989
0.499262 0.256401 0.348528
0.651938 0.334932 0.355933
0.778450 0.428485 0.365221
0.862406 0.526647 0.376383
0.906644 0.619080 0.389387
0.167450 0.186457 0.337715
0.171009 0.190223 0.338283
0.212873 0.209517 0.340318
0.352088 0.248702 0.344044
0.500612 0.307637 0.349574
0.653047 0.382491 0.356965
0.779043 0.473002 0.366238
0.862705 0.561604 0.377382
0.906811 0.646771 0.390366
0.167329 0.276813 0.339673
0.172501 0.282693 0.340239
0.216396 0.303738 0.342267
0.355651 0.341601 0.345980
0.503087 0.396339 0.351492
0.655083 0.467664 0.358860
0.780132 0.541803 0.368104
0.863256 0.618424 0.379216
0.907119 0.688802 0.392164
0.167823 0.410644 0.342588
0.174380 0.416079 0.343151
0.221648 0.435334 0.345169
0.360933 0.469718 0.348865
0.506769 0.514146 0.354350
0.658120 0.568632 0.361683
0.781756 0.627985 0.370886
0.864078 0.686739 0.381950
0.907578 0.737212 0.394845
0.170207 0.558978 0.346505
0.177963 0.562955 0.347064
0.230890 0.577086 0.349069
0.367980 0.600811 0.352740
0.511706 0.633344 0.358190
0.662204 0.672482 0.365478
0.783941 0.710485 0.374625
0.865183 0.751291 0.385626
0.908197 0.795327 0.398450
0.173909 0.687884 0.351449
0.182540 0.690041 0.352004
0.242865 0.697702 0.353992
0.376802 0.711464 0.357633
0.517924 0.731303 0.363040
0.667368 0.756841 0.370271
0.786705 0.787486 0.379350
0.866583 0.817171 0.390272
0.908981 0.842291 0.403302
0.179097 0.784508 0.357435
0.189919 0.786264 0.357984
0.258241 0.792522 0.359953
0.387620 0.802119 0.363559
0.525506 0.815697 0.368914
0.673631 0.829670 0.376078
0.790059 0.846494 0.385076
0.868100 0.865811 0.395904
0.909934 0.882790 0.409194
0.187103 0.853724 0.364465
0.199233 0.854661 0.365008
0.275827 0.858002 0.366954
0.400275 0.864052 0.370520
0.534993 0.872031 0.375816
0.681001 0.880680 0.382904
0.794007 0.891190 0.391809
0.869527 0.903362 0.402792
0.911058 0.916971 0.416134
0.167450 0.163886 0.494868
0.169904 0.163886 0.495238
0.210544 0.168593 0.496565
0.349597 0.189313 0.498999
0.498886 0.245400 0.502620
0.651629 0.324520 0.507475
0.778285 0.418591 0.513590
0.862322 0.518961 0.520973
0.906597 0.613012 0.530367
0.167450 0.164783 0.495061
0.170090 0.166027 0.495431
0.211038 0.174792 0.496758
0.350141 0.201674 0.499191
0.499262 0.259852 0.502810
0.651938 0.338031 0.507664
0.778450 0.431444 0.513777
0.862406 0.528947 0.521157
0.906644 0.620898 0.530568
0.167450 0.188575 0.495755
0.171009 0.192542 0.496124
0.212873 0.212420 0.497449
0.352088 0.251925 0.499879
0.500612 0.310896 0.503494
0.653047 0.385612 0.508342
0.779043 0.475552 0.514448
0.862705 0.563805 0.521819
0.906811 0.648386 0.531291
0.167329 0.280085 0.497029
0.172501 0.285917 0.497397
0.216396 0.307021 0.498720
0.355651 0.344664 0.501144
0.503087 0.399408 0.504751
0.655083 0.470232 0.509588
0.780132 0.544058 0.515680
0.863256 0.620243 0.523081
0.907119 0.689997 0.532620
0.167823 0.413663 0.498929
0.174380 0.419079 0.499297
0.221648 0.438270 0.500614
0.360933 0.472279 0.503030
0.506769 0.516522 0.506625
0.658120 0.570814 0.511446
0.781756 0.629779 0.517518
0.864078 0.687940 0.525090
0.907578 0.738286 0.534602
0.170207 0.561187 0.501487
0.177963 0.565153 0.501853
0.230890 0.579246 0.503164
0.367980 0.602677 0.505569
0.511706 0.635125 0.509147
0.662204 0.674006 0.513947
0.783941 0.711624 0.519993
0.865183 0.752334 0.527795
0.908197 0.796115 0.537272
0.173909 0.689082 0.504723
0.182540 0.691232 0.505087
0.242865 0.698873 0.506390
0.376802 0.712600 0.508782
0.517924 0.732391 0.512339
0.667368 0.757872 0.517112
0.786705 0.788455 0.523180
0.866583 0.817762 0.531222
0.908981 0.842831 0.540655
0.179097 0.785483 0.508651
0.189919 0.787235 0.509012
0.258241 0.793482 0.510307
0.387620 0.802894 0.512681
0.525506 0.816302 0.516215
0.673631 0.830235 0.520955
0.790059 0.847027 0.527390
0.868100 0.866310 0.535386
0.909934 0.883138 0.544767
0.187103 0.854244 0.513279
0.199233 0.855180 0.513637
0.275827 0.858515 0.514921
0.400275 0.864554 0.517276
0.534993 0.872397 0.520781
0.681001 0.881031 0.525792
0.794007 0.891524 0.532357
0.869527 0.903678 0.540299
0.911058 0.917268 0.549619
0.167450 0.163886 0.653205
0.169904 0.164028 0.653537
0.210544 0.170330 0.654729
0.349597 0.192231 0.656918
0.498886 0.249796 0.660182
0.651629 0.328781 0.664233
0.778285 0.422631 0.668888
0.862322 0.522099 0.674530
0.906597 0.615488 0.681163
0.167450 0.165507 0.653379
0.170090 0.167696 0.653711
0.211038 0.176564 0.654902
0.350141 0.205800 0.657090
0.499262 0.264464 0.660354
0.651938 0.342191 0.664377
0.778450 0.435427 0.669031
0.862406 0.532044 0.674671
0.906644 0.623346 0.681303
0.167450 0.191323 0.654001
0.171009 0.196909 0.654333
0.212873 0.216521 0.655524
0.352088 0.256555 0.657710
0.500612 0.315266 0.660971
0.653047 0.389811 0.664892
0.779043 0.478984 0.669543
0.862705 0.566770 0.675178
0.906811 0.650527 0.681805
0.167329 0.284464 0.655146
0.172501 0.290235 0.655477
0.216396 0.311424 0.656666
0.355651 0.348777 0.658850
0.503087 0.403538 0.662107
0.655083 0.473688 0.665840
0.780132 0.547096 0.670483
0.863256 0.622694 0.676110
0.907119 0.691607 0.682727
0.167823 0.417725 0.656855
0.174380 0.423117 0.657186
0.221648 0.442224 0.658372
0.360933 0.475726 0.660552
0.506769 0.519669 0.663588
0.658120 0.573755 0.667254
0.781756 0.632197 0.671887
0.864078 0.689557 0.677502
0.907578 0.739734 0.684105
0.170207 0.564161 0.659159
0.177963 0.568113 0.659489
0.230890 0.582157 0.660673
0.367980 0.605191 0.662786
0.511706 0.637524 0.665505
0.662204 0.676060 0.669160
0.783941 0.713157 0.673780
0.865183 0.753740 0.679378
0.908197 0.797178 0.685962
0.173909 0.690695 0.662082
0.182540 0.692838 0.662411
0.242865 0.700451 0.663409
0.376802 0.714131 0.665227
0.517924 0.733858 0.667935
0.667368 0.759262 0.671577
0.786705 0.789762 0.676179
0.866583 0.818558 0.681756
0.908981 0.843561 0.688317
0.179097 0.786797 0.665127
0.189919 0.788545 0.665402
0.258241 0.794629 0.666387
0.387620 0.803938 0.668195
0.525506 0.817102 0.670891
0.673631 0.830997 0.674516
0.790059 0.847746 0.679097
0.868100 0.866983 0.684650
0.909934 0.883608 0.691181
0.187103 0.854946 0.668651
0.199233 0.855879 0.668924
0.275827 0.859206 0.669904
0.400275 0.865231 0.671702
0.534993 0.872891 0.674383
0.681001 0.881505 0.677989
0.794007 0.891975 0.682545
0.869527 0.904104 0.688069
0.911058 0.917668 0.694566
0.167450 0.163967 0.780921
0.169904 0.165096 0.781086
0.210544 0.173020 0.781678
0.349597 0.197774 0.782765
0.498886 0.255533 0.784387
0.651629 0.334155 0.786568
0.778285 0.427744 0.789328
0.862322 0.526071 0.792676
0.906597 0.618625 0.796618
0.167450 0.167599 0.781007
0.170090 0.169589 0.781172
0.211038 0.179334 0.781764
0.350141 0.210882 0.782851
0.499262 0.270250 0.784472
0.651938 0.347440 0.786653
0.778450 0.440469 0.789412
0.862406 0.535966 0.792760
0.906644 0.626447 0.796701
0.167450 0.196641 0.781316
0.171009 0.202279 0.781481
0.212873 0.222510 0.782073
0.352088 0.262463 0.783159
0.500612 0.320774 0.784779
0.653047 0.395120 0.786959
0.779043 0.483327 0.789716
0.862705 0.570526 0.793061
0.906811 0.653239 0.796931
0.167329 0.289967 0.781885
0.172501 0.295816 0.782049
0.216396 0.316971 0.782640
0.355651 0.353967 0.783725
0.503087 0.408762 0.785343
0.655083 0.478061 0.787520
0.780132 0.550944 0.790273
0.863256 0.625798 0.793614
0.907119 0.693646 0.797322
0.167823 0.422866 0.782734
0.174380 0.428226 0.782898
0.221648 0.447229 0.783488
0.360933 0.480088 0.784571
0.506769 0.523654 0.786186
0.658120 0.577479 0.788358
0.781756 0.635260 0.791107
0.864078 0.691606 0.794442
0.907578 0.741569 0.797906
0.170207 0.567929 0.783879
0.177963 0.571863 0.784043
0.230890 0.585845 0.784631
0.367980 0.608375 0.785711
0.511706 0.640565 0.787321
0.662204 0.678661 0.789489
0.783941 0.715101 0.792230
0.865183 0.755523 0.795557
0.908197 0.798526 0.798693
0.173909 0.692738 0.785331
0.182540 0.694871 0.785494
0.242865 0.702450 0.786080
0.376802 0.716070 0.787157
0.517924 0.735716 0.788762
0.667368 0.761024 0.790922
0.786705 0.791419 0.793655
0.866583 0.819567 0.796911
0.908981 0.844485 0.799690
0.179097 0.788463 0.787098
0.189919 0.790206 0.787260
0.258241 0.795986 0.787844
0.387620 0.805262 0.788917
0.525506 0.818116 0.790516
0.673631 0.831963 0.792668
0.790059 0.848657 0.795390
0.868100 0.867837 0.798137
0.909934 0.884203 0.800904
0.187103 0.855835 0.789187
0.199233 0.856765 0.789349
0.275827 0.860082 0.789930
0.400275 0.866090 0.790997
0.534993 0.873517 0.792589
0.681001 0.882107 0.794731
0.794007 0.892548 0.797245
0.869527 0.904645 0.799585
0.911058 0.918176 0.802338
0.167450 0.165254 0.855959
0.169904 0.167104 0.856040
0.210544 0.175922 0.856332
0.349597 0.204282 0.856869
0.498886 0.262758 0.857670
0.651629 0.340650 0.858749
0.778285 0.433950 0.860114
0.862322 0.530896 0.861772
0.906597 0.622438 0.863726
0.167450 0.170093 0.856001
0.170090 0.172936 0.856083
0.211038 0.184105 0.856375
0.350141 0.217282 0.856912
0.499262 0.277203 0.857713
0.651938 0.353788 0.858791
0.778450 0.446591 0.860156
0.862406 0.540730 0.861813
0.906644 0.630218 0.863767
0.167450 0.203192 0.856154
0.171009 0.208613 0.856235
0.212873 0.229627 0.856527
0.352088 0.269556 0.857064
0.500612 0.327427 0.857864
0.653047 0.401561 0.858942
0.779043 0.488600 0.860306
0.862705 0.575092 0.861962
0.906811 0.656535 0.863915
0.167329 0.296777 0.856435
0.172501 0.302726 0.856516
0.216396 0.323671 0.856808
0.355651 0.360335 0.857344
0.503087 0.415102 0.858143
0.655083 0.483370 0.859220
0.780132 0.555619 0.860582
0.863256 0.629572 0.862237
0.907119 0.696124 0.864187
0.167823 0.429106 0.856854
0.174380 0.434430 0.856935
0.221648 0.453308 0.857226
0.360933 0.485383 0.857761
0.506769 0.528494 0.858560
0.658120 0.582007 0.859634
0.781756 0.638984 0.860995
0.864078 0.694095 0.862647
0.907578 0.743802 0.864594
0.170207 0.572509 0.857419
0.177963 0.576421 0.857500
0.230890 0.589984 0.857791
0.367980 0.612244 0.858325
0.511706 0.644262 0.859121
0.662204 0.681688 0.860194
0.783941 0.717464 0.861551
0.865183 0.757691 0.863200
0.908197 0.800166 0.865143
0.173909 0.695221 0.858137
0.182540 0.697342 0.858218
0.242865 0.704880 0.858507
0.376802 0.718428 0.859040
0.517924 0.737976 0.859834
0.667368 0.763168 0.860903
0.786705 0.793435 0.862257
0.866583 0.820795 0.863901
0.908981 0.845611 0.865839
0.179097 0.790492 0.859011
0.189919 0.792227 0.859091
0.258241 0.797637 0.859380
0.387620 0.806873 0.859910
0.525506 0.819351 0.860702
0.673631 0.833138 0.861768
0.790059 0.849767 0.863117
0.868100 0.868877 0.864755
0.909934 0.884928 0.866687
0.187103 0.856918 0.860044
0.199233 0.857845 0.860124
0.275827 0.861150 0.860412
0.400275 0.867136 0.860940
0.534993 0.874280 0.861729
0.681001 0.882839 0.862790
0.794007 0.893245 0.864134
0.869527 0.905303 0.865766
0.911058 0.918795 0.867690
0.167450 0.167911 0.902081
0.169904 0.170052 0.902116
0.210544 0.179856 0.902245
0.349597 0.211670 0.902480
0.498886 0.271158 0.902831
0.651629 0.348267 0.903305
0.778285 0.441264 0.903904
0.862322 0.536585 0.904633
0.906597 0.626937 0.905493
0.167450 0.173934 0.902099
0.170090 0.176354 0.902135
0.211038 0.189448 0.902263
0.350141 0.225892 0.902499
0.499262 0.285301 0.902850
0.651938 0.361366 0.903323
0.778450 0.453808 0.903923
0.862406 0.546348 0.904651
0.906644 0.634669 0.905511
0.167450 0.210635 0.902166
0.171009 0.215935 0.902202
0.212873 0.237954 0.902330
0.352088 0.277811 0.902565
0.500612 0.335221 0.902916
0.653047 0.409145 0.903389
0.779043 0.494814 0.903989
0.862705 0.580480 0.904717
0.906811 0.660426 0.905576
0.167329 0.304997 0.902289
0.172501 0.310886 0.902325
0.216396 0.331518 0.902453
0.355651 0.367997 0.902688
0.503087 0.422569 0.903039
0.655083 0.489625 0.903511
0.780132 0.561135 0.904110
0.863256 0.634027 0.904838
0.907119 0.699048 0.905696
0.167823 0.436458 0.902473
0.174380 0.441740 0.902509
0.221648 0.460577 0.902637
0.360933 0.491622 0.902871
0.506769 0.534201 0.903222
0.658120 0.587328 0.903694
0.781756 0.643381 0.904291
0.864078 0.697032 0.905018
0.907578 0.746439 0.905875
0.170207 0.577913 0.902721
0.177963 0.581801 0.902757
0.230890 0.594701 0.902884
0.367980 0.616810 0.903119
0.511706 0.648484 0.903468
0.662204 0.684709 0.903939
0.783941 0.720253 0.904536
0.865183 0.760253 0.905261
0.908197 0.802103 0.906117
0.173909 0.698151 0.903036
0.182540 0.700258 0.903072
0.242865 0.707747 0.903199
0.376802 0.721211 0.903432
0.517924 0.740646 0.903781
0.667368 0.765701 0.904251
0.786705 0.795493 0.904846
0.866583 0.822246 0.905570
0.908981 0.846942 0.906424
0.179097 0.792890 0.903420
0.189919 0.794498 0.903455
0.258241 0.799587 0.903582
0.387620 0.808777 0.903815
0.525506 0.820809 0.904163
0.673631 0.834528 0.904631
0.790059 0.851079 0.905225
0.868100 0.869947 0.905946
0.909934 0.885785 0.906798
0.187103 0.858198 0.903874
0.199233 0.859121 0.903909
0.275827 0.862412 0.904035
0.400275 0.868373 0.904267
0.534993 0.875182 0.904614
0.681001 0.883705 0.905081
0.794007 0.894069 0.905673
0.869527 0.906083 0.906392
0.911058 0.919528 0.907240
