provia100f/Provia100F_Classic_Soft.cube
TITLE "Fuji Provia 100F Classic Soft"
# Adobe RGB in/out. REPLACES AgX. Fuji Provia 100F Classic Soft.
LUT_3D_SIZE 5
DOMAIN_MIN 0.0 0.0 0.0
DOMAIN_MAX 1.0 1.0 1.0
0.087707 0.088067 0.091802
0.104623 0.088077 0.091802
0.520374 0.112800 0.091823
0.842236 0.385355 0.091952
0.947815 0.672025 0.092317
0.087707 0.089256 0.091802
0.105714 0.095427 0.091802
0.522997 0.190448 0.091831
0.843188 0.471832 0.091965
0.947905 0.715422 0.092349
0.087744 0.378896 0.091801
0.113016 0.411443 0.091808
0.531562 0.531484 0.091857
0.846596 0.695859 0.092011
0.948230 0.823141 0.092456
0.088243 0.760770 0.091842
0.127470 0.771808 0.091855
0.547166 0.816735 0.091932
0.852612 0.863014 0.092111
0.948824 0.911231 0.092911
0.091198 0.922639 0.091947
0.166574 0.925830 0.091972
0.570156 0.929209 0.092072
0.859887 0.937472 0.092384
0.949703 0.948424 0.094167
0.087707 0.088067 0.094353
0.104623 0.088084 0.094801
0.520374 0.113922 0.096585
0.842236 0.387183 0.101530
0.947815 0.673232 0.115946
0.087707 0.089451 0.094584
0.105714 0.095972 0.095038
0.522997 0.193557 0.096890
0.843188 0.473297 0.102016
0.947905 0.716207 0.117157
0.087744 0.380726 0.095428
0.113016 0.413265 0.095877
0.531562 0.533174 0.097958
0.846596 0.697046 0.103734
0.948230 0.823548 0.121515
0.088243 0.761501 0.097313
0.127470 0.772376 0.097879
0.547166 0.817430 0.100816
0.852612 0.863313 0.108688
0.948824 0.911482 0.129652
0.091198 0.922880 0.101353
0.166574 0.925912 0.102283
0.570156 0.929283 0.106203
0.859887 0.937539 0.118556
0.949703 0.948482 0.141925
0.087707 0.088067 0.548084
0.104623 0.088107 0.551880
0.520374 0.118030 0.565529
0.842236 0.393746 0.585112
0.947815 0.677559 0.609936
0.087707 0.090359 0.550066
0.105714 0.097880 0.553863
0.522997 0.203562 0.567515
0.843188 0.478548 0.586434
0.947905 0.719022 0.611235
0.087744 0.387295 0.557190
0.113016 0.422411 0.560990
0.531562 0.539242 0.574406
0.846596 0.700925 0.591172
0.948230 0.825006 0.615894
0.088243 0.764121 0.570310
0.127470 0.774410 0.574047
0.547166 0.819921 0.583186
0.852612 0.864386 0.599849
0.948824 0.912381 0.626516
0.091198 0.923744 0.584632
0.166574 0.926209 0.587163
0.570156 0.929548 0.596219
0.859887 0.937778 0.612734
0.949703 0.948690 0.643364
0.087707 0.088067 0.881249
0.104623 0.088159 0.881810
0.520374 0.126400 0.883815
0.842236 0.405806 0.887466
0.947815 0.685488 0.890953
0.087707 0.092386 0.881542
0.105714 0.101993 0.882102
0.522997 0.221167 0.884105
0.843188 0.488160 0.887752
0.947905 0.724167 0.891109
0.087744 0.399366 0.882592
0.113016 0.441549 0.883150
0.531562 0.550383 0.885145
0.846596 0.706225 0.888524
0.948230 0.827672 0.891665
0.088243 0.768029 0.884513
0.127470 0.779046 0.885067
0.547166 0.822917 0.887048
0.852612 0.866348 0.889747
0.948824 0.914029 0.892683
0.091198 0.925279 0.887362
0.166574 0.926710 0.887910
0.570156 0.930033 0.889281
0.859887 0.938215 0.891288
0.949703 0.949072 0.894191
0.087707 0.088099 0.955261
0.104623 0.088883 0.955376
0.520374 0.139496 0.955786
0.842236 0.428755 0.956537
0.947815 0.697266 0.957647
0.087707 0.097182 0.955321
0.105714 0.112537 0.955436
0.522997 0.250662 0.955846
0.843188 0.505800 0.956596
0.947905 0.731784 0.957705
0.087744 0.418595 0.955536
0.113016 0.461046 0.955650
0.531562 0.566995 0.956059
0.846596 0.714067 0.956807
0.948230 0.831619 0.957914
0.088243 0.773658 0.955930
0.127470 0.786249 0.956043
0.547166 0.826922 0.956451
0.852612 0.869256 0.957195
0.948824 0.916475 0.958297
0.091198 0.926099 0.956515
0.166574 0.927041 0.956628
0.570156 0.930753 0.957033
0.859887 0.938865 0.957772
0.949703 0.949639 0.958867
