provia100f/Provia100F_Modern_IlfochromeP.cube
TITLE "Fuji Provia 100F Modern IlfochromeP"
# Adobe RGB in/out. REPLACES AgX. Fuji Provia 100F Modern IlfochromeP.
LUT_3D_SIZE 9
DOMAIN_MIN 0.0 0.0 0.0
DOMAIN_MAX 1.0 1.0 1.0
0.138891 0.101212 0.099253
0.171665 0.114785 0.101763
0.477367 0.146160 0.105767
0.825974 0.195851 0.112817
0.958880 0.246391 0.125866
0.988191 0.285153 0.141067
0.995108 0.301487 0.165324
0.996520 0.268844 0.469522
0.993297 0.572100 0.629757
0.138935 0.154243 0.101460
0.141932 0.145606 0.102458
0.334275 0.174825 0.105911
0.723483 0.225411 0.112807
0.926701 0.271925 0.125534
0.982892 0.307233 0.140364
0.992482 0.322429 0.163050
0.996175 0.265711 0.463612
0.992293 0.567692 0.624138
0.139131 0.341950 0.105854
0.140777 0.318969 0.107266
0.171664 0.280868 0.108326
0.425890 0.307474 0.114283
0.776745 0.350194 0.126315
0.940166 0.391458 0.140084
0.982634 0.413358 0.159913
0.991738 0.280976 0.446836
0.989010 0.551197 0.606087
0.139933 0.541467 0.111985
0.141779 0.519802 0.114022
0.159418 0.474317 0.117675
0.263351 0.440805 0.120958
0.524396 0.453941 0.129701
0.823727 0.492158 0.142092
0.949140 0.527433 0.160081
0.981296 0.549710 0.186353
0.984081 0.524804 0.441432
0.140776 0.674275 0.120141
0.142797 0.664121 0.122709
0.155295 0.642335 0.128675
0.216490 0.617258 0.133276
0.390207 0.597968 0.138185
0.649688 0.600850 0.147934
0.877692 0.621921 0.163617
0.958948 0.640970 0.185109
0.975677 0.673718 0.276843
0.141903 0.758375 0.127404
0.143224 0.752823 0.129432
0.152588 0.742276 0.136494
0.191546 0.726952 0.143504
0.317990 0.711660 0.151156
0.515562 0.700174 0.158857
0.773423 0.699237 0.169272
0.925118 0.711958 0.188560
0.963092 0.729804 0.227819
0.141462 0.819195 0.129535
0.142503 0.816408 0.131339
0.148874 0.810784 0.138947
0.173377 0.803224 0.149596
0.262706 0.794087 0.159825
0.433712 0.782355 0.168466
0.661860 0.774312 0.179065
0.876524 0.772406 0.192756
0.952544 0.784110 0.220366
0.139379 0.867300 0.118919
0.139610 0.864804 0.120252
0.142964 0.858997 0.131238
0.157442 0.854373 0.143128
0.212859 0.848721 0.157260
0.351805 0.840549 0.168600
0.545161 0.832879 0.180506
0.811649 0.829129 0.192443
0.945157 0.829414 0.211765
0.138891 0.853063 0.110149
0.138891 0.851566 0.110082
0.138891 0.880300 0.109873
0.138891 0.874889 0.117493
0.161454 0.886581 0.129258
0.254710 0.880174 0.142727
0.431690 0.873387 0.154919
0.676300 0.869239 0.162119
0.943532 0.868099 0.164375
0.138919 0.110403 0.153988
0.154329 0.122991 0.217651
0.425576 0.153871 0.179279
0.833772 0.199580 0.170100
0.960191 0.245952 0.162341
0.987166 0.283864 0.167219
0.994012 0.301744 0.190943
0.996471 0.267193 0.466364
0.992777 0.569818 0.626843
0.139139 0.144993 0.129880
0.147031 0.138791 0.123633
0.333940 0.174367 0.140976
0.731723 0.225714 0.156652
0.932582 0.269605 0.158198
0.982138 0.304838 0.165013
0.991416 0.321969 0.186293
0.995422 0.264119 0.460512
0.991776 0.565428 0.621264
0.140410 0.315374 0.139935
0.145366 0.289308 0.135932
0.194574 0.254540 0.129916
0.473738 0.292435 0.140238
0.795567 0.341764 0.151256
0.942968 0.384873 0.161725
0.981930 0.409412 0.179520
0.991007 0.286269 0.445037
0.988508 0.548445 0.603363
0.142629 0.511044 0.142090
0.145814 0.490460 0.142781
0.171649 0.447181 0.142029
0.301419 0.418119 0.142030
0.562216 0.439320 0.149585
0.835106 0.481347 0.161033
0.949688 0.520177 0.177214
0.980681 0.545935 0.204447
0.983611 0.522298 0.577394
0.143369 0.658661 0.141035
0.145580 0.649483 0.143427
0.161824 0.628252 0.149629
0.236025 0.603383 0.153624
0.421583 0.586022 0.158163
0.674821 0.592759 0.164652
0.882762 0.616331 0.179785
0.958527 0.637424 0.201359
0.974726 0.672493 0.306503
0.143472 0.750106 0.140841
0.144867 0.744977 0.143196
0.156820 0.734707 0.152641
0.202806 0.719489 0.160741
0.336163 0.704604 0.167209
0.536125 0.694337 0.175161
0.786002 0.695260 0.185805
0.927155 0.709245 0.203520
0.962407 0.728682 0.242468
0.142591 0.815253 0.139170
0.143589 0.812578 0.141121
0.150850 0.807070 0.151311
0.178925 0.799459 0.162882
0.275047 0.789557 0.173113
0.446911 0.778300 0.184155
0.678865 0.771069 0.195016
0.880702 0.770282 0.206672
0.952255 0.783100 0.232825
0.139606 0.864852 0.124315
0.139828 0.862501 0.126138
0.143798 0.856981 0.138419
0.159521 0.852295 0.153531
0.219182 0.846521 0.167544
0.360951 0.838506 0.181494
0.556396 0.831243 0.193898
0.819028 0.827902 0.205687
0.945256 0.828769 0.223372
0.138891 0.857512 0.149784
0.138891 0.856018 0.149397
0.138891 0.883158 0.148107
0.138891 0.876997 0.146072
0.162762 0.885846 0.133975
0.259477 0.879466 0.150603
0.436651 0.872857 0.163130
0.684857 0.868774 0.170250
0.943868 0.867871 0.172954
0.138975 0.126621 0.348557
0.164561 0.149875 0.529756
0.421315 0.179229 0.507000
0.839791 0.225188 0.473741
0.960564 0.261040 0.428193
0.986200 0.294069 0.424120
0.992408 0.310991 0.445067
0.995519 0.278731 0.481014
0.991698 0.565087 0.620873
0.140038 0.180282 0.346985
0.162483 0.198789 0.399720
0.374933 0.209074 0.386003
0.745749 0.242931 0.378684
0.936564 0.280628 0.375182
0.981427 0.312411 0.387277
0.989817 0.329176 0.410489
0.994090 0.280789 0.478318
0.990689 0.560474 0.615265
0.143090 0.276890 0.262499
0.149274 0.260283 0.241807
0.209087 0.238084 0.216656
0.491164 0.284192 0.254697
0.813909 0.337931 0.291749
0.946126 0.381455 0.321478
0.980880 0.407037 0.341476
0.989331 0.362589 0.468935
0.987400 0.542424 0.597400
0.148386 0.459853 0.269566
0.154209 0.444953 0.261565
0.193336 0.407264 0.239538
0.340833 0.380752 0.225732
0.616033 0.416984 0.246171
0.858955 0.465335 0.277102
0.951035 0.507890 0.297370
0.978250 0.538901 0.342894
0.982497 0.516493 0.571883
0.151283 0.630445 0.262381
0.156329 0.622329 0.260681
0.184383 0.600999 0.254517
0.288751 0.574575 0.245376
0.476887 0.557702 0.241755
0.733850 0.574636 0.256965
0.895550 0.604220 0.274754
0.957798 0.628773 0.305774
0.972262 0.670315 0.441920
0.151832 0.732786 0.251850
0.155441 0.728286 0.252472
0.175192 0.717602 0.255340
0.244478 0.702031 0.255510
0.397412 0.687611 0.255177
0.602796 0.679464 0.258102
0.820296 0.685139 0.265533
0.932844 0.701823 0.289418
0.960536 0.725857 0.331766
0.148927 0.804901 0.228341
0.150756 0.802573 0.230125
0.162727 0.797146 0.237525
0.207895 0.788095 0.246069
0.323342 0.776825 0.252833
0.497010 0.766832 0.259051
0.732085 0.761782 0.266537
0.894082 0.763824 0.280500
0.951423 0.780219 0.303412
0.142751 0.854599 0.197186
0.143625 0.853044 0.200154
0.150888 0.849748 0.215182
0.174608 0.845171 0.229176
0.252584 0.839061 0.241794
0.405208 0.831588 0.252838
0.607686 0.825698 0.262636
0.847086 0.823698 0.272589
0.945426 0.826729 0.284591
0.138891 0.855013 0.149143
0.138891 0.885136 0.148765
0.138891 0.881332 0.147506
0.138893 0.875324 0.145531
0.172333 0.882778 0.171413
0.282816 0.876719 0.200224
0.459935 0.870823 0.215561
0.720400 0.866963 0.223863
0.944328 0.867046 0.228228
0.139071 0.157761 0.575231
0.150202 0.191792 0.714923
0.423182 0.227892 0.745828
0.832747 0.270367 0.738923
0.964601 0.301266 0.695380
0.986682 0.323317 0.661176
0.992000 0.337012 0.655601
0.994048 0.333177 0.688975
0.990979 0.561949 0.670344
0.140237 0.211491 0.581047
0.156261 0.237493 0.659012
0.426701 0.271683 0.715092
0.779170 0.295083 0.684330
0.944095 0.316755 0.643965
0.981870 0.338617 0.624878
0.989320 0.352737 0.630768
0.992418 0.345029 0.676575
0.989942 0.556330 0.665640
0.145988 0.302739 0.484000
0.156254 0.302128 0.478937
0.269043 0.303086 0.479263
0.538955 0.322128 0.489680
0.831134 0.359542 0.510463
0.947710 0.395823 0.528248
0.980235 0.419355 0.553742
0.986473 0.437421 0.611299
0.986561 0.537908 0.648417
0.151828 0.427148 0.431134
0.158813 0.417452 0.417743
0.204372 0.387720 0.381055
0.353056 0.365668 0.354197
0.633223 0.412432 0.397436
0.865839 0.463335 0.443130
0.950286 0.507366 0.478599
0.975558 0.542235 0.525588
0.981524 0.511365 0.620264
0.158905 0.602078 0.425896
0.164480 0.595436 0.419116
0.203210 0.575530 0.399677
0.317223 0.544275 0.375632
0.499839 0.525555 0.362799
0.750676 0.559877 0.385322
0.899203 0.595660 0.418539
0.955641 0.624176 0.462268
0.969682 0.670359 0.573120
0.160665 0.713517 0.406228
0.165200 0.709674 0.403800
0.195443 0.699785 0.397671
0.281795 0.684712 0.386845
0.439024 0.668448 0.377086
0.644405 0.661312 0.374604
0.837732 0.674133 0.387976
0.933244 0.695177 0.415562
0.958228 0.723678 0.502396
0.157458 0.792684 0.377254
0.160175 0.790196 0.377190
0.178970 0.783948 0.378660
0.238270 0.774345 0.378516
0.367978 0.763323 0.376847
0.545231 0.754515 0.376491
0.767926 0.751608 0.379861
0.901996 0.757288 0.391279
0.950002 0.777300 0.447468
0.147739 0.845787 0.334598
0.149382 0.844528 0.335930
0.159887 0.841785 0.344060
0.194452 0.837103 0.351818
0.289639 0.831002 0.358502
0.446841 0.824239 0.363716
0.658231 0.819589 0.369029
0.868898 0.819060 0.376269
0.945033 0.824572 0.404244
0.138891 0.869241 0.290280
0.138891 0.883901 0.289237
0.138891 0.880262 0.285760
0.143382 0.884251 0.241310
0.193917 0.877943 0.305879
0.316320 0.872771 0.320178
0.494301 0.867477 0.329944
0.759555 0.864347 0.335606
0.944372 0.866210 0.349360
0.139648 0.202468 0.774321
0.144185 0.227932 0.815500
0.398324 0.282360 0.853417
0.806421 0.321875 0.854012
0.971033 0.360732 0.847958
0.989016 0.369658 0.813022
0.993176 0.376633 0.792504
0.994026 0.375922 0.782851
0.990981 0.561959 0.779559
0.140692 0.244882 0.778243
0.149344 0.268907 0.810002
0.395374 0.319223 0.846783
0.788972 0.356477 0.849229
0.952257 0.373397 0.823822
0.984304 0.382840 0.797796
0.990454 0.390688 0.778358
0.992344 0.389627 0.773622
0.989913 0.556166 0.771214
0.151842 0.375630 0.755490
0.165081 0.381281 0.758965
0.324975 0.392537 0.768383
0.616330 0.396402 0.751526
0.861117 0.408502 0.735176
0.954144 0.430608 0.729083
0.981321 0.446956 0.730274
0.986493 0.466231 0.740342
0.986415 0.537126 0.744635
0.156604 0.438980 0.604584
0.164153 0.435683 0.597468
0.228434 0.427992 0.582854
0.423409 0.425738 0.575617
0.682369 0.447561 0.591271
0.877575 0.487529 0.620259
0.952027 0.524500 0.649615
0.975102 0.557537 0.683332
0.981161 0.600124 0.718783
0.163311 0.582072 0.567784
0.170719 0.577092 0.561398
0.214101 0.561598 0.542506
0.332291 0.530722 0.516176
0.506609 0.511121 0.498991
0.761084 0.558479 0.530714
0.901414 0.596718 0.566934
0.954436 0.626628 0.610646
0.968052 0.674259 0.682496
0.167983 0.696780 0.552599
0.174668 0.693688 0.548956
0.210708 0.685358 0.538676
0.305138 0.669425 0.522674
0.460272 0.652576 0.508749
0.660996 0.646250 0.503096
0.844319 0.666516 0.520466
0.931782 0.692041 0.551868
0.956260 0.723720 0.633343
0.164497 0.778937 0.529261
0.168700 0.776859 0.527667
0.194522 0.771346 0.523684
0.265738 0.762495 0.517417
0.400494 0.752139 0.510455
0.579085 0.744173 0.505636
0.787337 0.742985 0.506182
0.905186 0.752385 0.518195
0.948348 0.775809 0.580481
0.152568 0.837722 0.497473
0.155063 0.836616 0.497138
0.168274 0.834042 0.498112
0.212620 0.829612 0.497856
0.318514 0.823805 0.496958
0.477938 0.817776 0.496165
0.698395 0.814216 0.496844
0.878474 0.815159 0.500791
0.944313 0.823544 0.534298
0.138891 0.869542 0.511014
0.138891 0.870841 0.509733
0.138891 0.872837 0.505444
0.153135 0.876790 0.455688
0.208410 0.874267 0.464445
0.338624 0.869697 0.469287
0.519927 0.864379 0.472020
0.787170 0.862352 0.473805
0.944150 0.866380 0.493377
0.140149 0.254059 0.880399
0.143627 0.268829 0.897065
0.370067 0.338585 0.913362
0.774469 0.375475 0.914282
0.968341 0.418836 0.915042
0.992067 0.426711 0.895554
0.995407 0.425155 0.868395
0.995168 0.424729 0.849933
0.991679 0.565005 0.824280
0.141788 0.286336 0.881915
0.146528 0.301873 0.896109
0.367425 0.367806 0.911864
0.761382 0.404581 0.913227
0.961233 0.442800 0.911903
0.987640 0.437788 0.884698
0.992743 0.437377 0.860476
0.993474 0.437259 0.844320
0.990591 0.559930 0.820542
0.155351 0.424571 0.881902
0.167200 0.436158 0.890124
0.362486 0.483481 0.904651
0.673638 0.479766 0.888844
0.887762 0.476707 0.865306
0.963771 0.480560 0.846843
0.983812 0.488602 0.833066
0.987669 0.504637 0.824678
0.987007 0.540309 0.808321
0.162865 0.492612 0.800045
0.173473 0.493233 0.799513
0.266300 0.501954 0.801053
0.482408 0.505626 0.796460
0.742597 0.515135 0.789111
0.897385 0.532741 0.786672
0.957795 0.556621 0.788871
0.977457 0.578572 0.794482
0.981446 0.618859 0.790920
0.168227 0.585376 0.725248
0.176914 0.582647 0.720852
0.229650 0.576965 0.710595
0.366831 0.566652 0.695567
0.566645 0.565532 0.688832
0.791963 0.584396 0.701389
0.910047 0.610693 0.723620
0.955861 0.637023 0.745608
0.968016 0.682529 0.769176
0.173587 0.685999 0.694435
0.180618 0.683852 0.690816
0.220608 0.677064 0.680429
0.320106 0.663452 0.664361
0.474538 0.647657 0.643438
0.665838 0.638213 0.627565
0.850326 0.667382 0.661943
0.932119 0.694199 0.694354
0.955406 0.726902 0.738535
0.170177 0.768011 0.672240
0.175724 0.766315 0.669933
0.205110 0.761832 0.663647
0.282793 0.754224 0.652418
0.421042 0.744772 0.640063
0.598452 0.736913 0.630265
0.795000 0.736448 0.629325
0.905902 0.750146 0.651476
0.947040 0.776171 0.706729
0.156004 0.830989 0.641748
0.158467 0.830058 0.640130
0.175018 0.827863 0.636585
0.224675 0.823892 0.630565
0.336704 0.818609 0.624227
0.498135 0.813238 0.619176
0.720058 0.810447 0.617369
0.882697 0.812571 0.621723
0.943436 0.823503 0.671164
0.138891 0.866184 0.579590
0.138891 0.867627 0.582212
0.138891 0.869494 0.592621
0.154502 0.874386 0.596752
0.214111 0.871900 0.594807
0.348827 0.867227 0.592781
0.533359 0.862709 0.591462
0.800287 0.861538 0.590990
0.943773 0.867076 0.628982
0.141751 0.310672 0.938182
0.144503 0.319415 0.942918
0.315508 0.387740 0.946376
0.754458 0.425857 0.946808
0.964145 0.467657 0.947189
0.995376 0.490202 0.940796
0.996559 0.475173 0.922745
0.996479 0.470777 0.904643
0.992835 0.570053 0.884191
0.143268 0.336804 0.938427
0.147190 0.346163 0.942485
0.320578 0.412760 0.946073
0.745298 0.450648 0.946605
0.960235 0.494753 0.947027
0.991384 0.499506 0.936234
0.995660 0.487331 0.917384
0.995295 0.483559 0.900968
0.991746 0.565262 0.880155
0.156491 0.459534 0.938588
0.165835 0.469157 0.940856
0.339143 0.520528 0.944483
0.717891 0.558611 0.945416
0.912728 0.546204 0.932961
0.975157 0.538216 0.915050
0.987153 0.534446 0.900026
0.989640 0.543500 0.886976
0.988136 0.546117 0.866300
0.172346 0.565049 0.907764
0.185376 0.565772 0.907760
0.295973 0.575242 0.906216
0.534093 0.577991 0.898861
0.794550 0.578306 0.888212
0.922244 0.581769 0.876382
0.966496 0.588075 0.867227
0.981107 0.600679 0.860852
0.982294 0.644728 0.855625
0.175930 0.609746 0.843293
0.185797 0.609123 0.842556
0.249167 0.610758 0.840926
0.413324 0.610650 0.835399
0.633291 0.612382 0.829315
0.830241 0.620325 0.826473
0.926268 0.633432 0.827097
0.960193 0.652944 0.830023
0.969687 0.692467 0.833976
0.178339 0.686453 0.806883
0.186364 0.685114 0.805512
0.229118 0.682218 0.801950
0.340492 0.675323 0.795229
0.507564 0.667622 0.784548
0.720907 0.668502 0.779639
0.869500 0.683314 0.787846
0.937813 0.702366 0.800351
0.956208 0.733054 0.812646
0.173035 0.761855 0.784455
0.178696 0.760620 0.782661
0.210255 0.757388 0.777765
0.293068 0.751469 0.770469
0.434532 0.743602 0.761822
0.614181 0.735960 0.752696
0.796430 0.731925 0.745009
0.907961 0.751947 0.766944
0.946762 0.778931 0.795141
0.156177 0.826808 0.761035
0.158714 0.826028 0.759520
0.176321 0.824209 0.755498
0.228425 0.820866 0.749907
0.344593 0.816234 0.744481
0.508548 0.811333 0.740055
0.728848 0.808791 0.738036
0.883586 0.811450 0.741588
0.942680 0.824462 0.775346
0.138892 0.860413 0.691068
0.138892 0.864467 0.689684
0.138898 0.867384 0.685520
0.149805 0.873963 0.730836
0.209381 0.871162 0.722636
0.344901 0.866626 0.717694
0.530949 0.862658 0.714598
0.798622 0.862175 0.713171
0.943452 0.868506 0.754637
0.144537 0.367721 0.966553
0.148492 0.372881 0.966841
0.339934 0.423941 0.967137
0.778797 0.460839 0.967210
0.971086 0.503379 0.967290
0.996677 0.537686 0.966574
0.996770 0.514390 0.952191
0.996626 0.502158 0.940433
0.994136 0.585634 0.927416
0.146495 0.390254 0.966498
0.150822 0.395826 0.966770
0.347885 0.446404 0.967091
0.771044 0.485464 0.967172
0.968060 0.527331 0.967256
0.996452 0.545211 0.963030
0.996621 0.524582 0.949170
0.996524 0.514451 0.938223
0.993062 0.583934 0.924851
0.162830 0.509009 0.966025
0.174191 0.515225 0.966479
0.381228 0.557242 0.966824
0.747440 0.585193 0.966965
0.945888 0.592295 0.962348
0.984574 0.580103 0.950266
0.991279 0.569473 0.939256
0.992236 0.568226 0.930259
0.989489 0.599049 0.916343
0.188798 0.616096 0.956548
0.205067 0.615669 0.955697
0.356594 0.623010 0.952348
0.612496 0.621431 0.946105
0.852003 0.616750 0.938615
0.949813 0.613230 0.931067
0.978043 0.611577 0.920028
0.983998 0.617280 0.911411
0.983656 0.661325 0.904822
0.188775 0.644672 0.920223
0.201140 0.644426 0.919577
0.292521 0.648721 0.916877
0.473213 0.649417 0.911216
0.717948 0.649234 0.904558
0.876866 0.651264 0.898534
0.946556 0.656420 0.893834
0.967214 0.667754 0.889883
0.972703 0.702366 0.886934
0.184813 0.697630 0.885407
0.193585 0.696957 0.884806
0.248927 0.697257 0.882415
0.376884 0.695175 0.876455
0.565785 0.693196 0.869283
0.776022 0.694695 0.864127
0.894004 0.701042 0.862315
0.946776 0.712785 0.863349
0.958692 0.740544 0.865890
0.174313 0.762048 0.858377
0.179865 0.761167 0.857969
0.215983 0.759670 0.856943
0.305909 0.755781 0.853690
0.458195 0.750448 0.848063
0.656382 0.746363 0.841381
0.828913 0.748419 0.838566
0.918526 0.759789 0.842642
0.948218 0.783739 0.849676
0.152392 0.826828 0.837470
0.155210 0.826091 0.836779
0.171990 0.824282 0.835270
0.225102 0.821328 0.833516
0.345886 0.817267 0.831782
0.516240 0.812940 0.829310
0.738205 0.810339 0.826705
0.882494 0.809869 0.823646
0.942728 0.826448 0.838082
0.138891 0.852474 0.799101
0.138891 0.865676 0.799313
0.138891 0.864528 0.803491
0.144534 0.873625 0.811073
0.190685 0.872835 0.807550
0.322680 0.868711 0.805661
0.509086 0.864813 0.804882
0.776664 0.864517 0.804344
0.943257 0.870319 0.829251
0.231572 0.384385 0.973177
0.268768 0.388523 0.973178
0.560395 0.405091 0.973181
0.945569 0.432739 0.973193
0.996282 0.465380 0.973214
0.997343 0.498347 0.973254
0.997137 0.460024 0.967900
0.996825 0.429008 0.958047
0.995301 0.589463 0.944245
0.242307 0.402383 0.973157
0.281467 0.406575 0.973158
0.563558 0.423318 0.973163
0.943600 0.451136 0.973176
0.995747 0.486087 0.973199
0.997177 0.507060 0.972091
0.997008 0.470064 0.966960
0.996732 0.436770 0.956129
0.994257 0.589161 0.944073
0.299540 0.494967 0.973049
0.338034 0.499465 0.973053
0.583358 0.517225 0.973066
0.929433 0.545687 0.973092
0.991915 0.568930 0.972472
0.996579 0.549474 0.967999
0.996578 0.520697 0.959582
0.995974 0.490548 0.949237
0.990764 0.573736 0.939086
0.361215 0.635146 0.971960
0.394505 0.633517 0.971532
0.569672 0.629368 0.970093
0.863675 0.622967 0.967791
0.961594 0.614203 0.962530
0.984251 0.604003 0.954418
0.988152 0.591766 0.946067
0.988301 0.586591 0.938596
0.985269 0.670175 0.932021
0.307436 0.667771 0.953539
0.332237 0.666715 0.952757
0.464142 0.664372 0.950150
0.726070 0.660965 0.945991
0.890563 0.656487 0.941012
0.952935 0.651942 0.935879
0.971514 0.647351 0.930724
0.978711 0.649608 0.923341
0.976915 0.700780 0.917206
0.247554 0.709436 0.932825
0.267001 0.708574 0.932228
0.366716 0.706693 0.929403
0.563500 0.704093 0.924170
0.785294 0.701158 0.918264
0.897961 0.699593 0.912848
0.946005 0.699603 0.908426
0.960002 0.704158 0.904951
0.962862 0.738478 0.902395
0.196130 0.765651 0.914328
0.206328 0.764702 0.913475
0.267922 0.762412 0.910597
0.426022 0.758802 0.905983
0.634116 0.754185 0.900642
0.819905 0.751153 0.895880
0.907083 0.751224 0.892777
0.944791 0.755615 0.890737
0.951898 0.781715 0.890291
0.150678 0.825229 0.902773
0.153231 0.824633 0.902437
0.169421 0.823344 0.900756
0.247768 0.821035 0.897364
0.428632 0.816914 0.893080
0.659368 0.812706 0.887018
0.845343 0.810737 0.882059
0.923472 0.811861 0.879888
0.945253 0.825206 0.880612
0.138891 0.843254 0.843086
0.138891 0.863426 0.858562
0.138891 0.860638 0.856338
0.139491 0.860171 0.852750
0.159600 0.878576 0.879055
0.279651 0.872821 0.882763
0.488459 0.869223 0.880084
0.774085 0.868928 0.878283
0.943249 0.872404 0.877931
