provia100f/Provia100F_Classic_IlfochromeM.cube
TITLE "Fuji Provia 100F Classic IlfochromeM"
# Adobe RGB in/out. REPLACES AgX. Fuji Provia 100F Classic IlfochromeM.
LUT_3D_SIZE 9
DOMAIN_MIN 0.0 0.0 0.0
DOMAIN_MAX 1.0 1.0 1.0
0.117435 0.082397 0.079689
0.141027 0.102682 0.083315
0.227186 0.148231 0.092662
0.363912 0.212772 0.104529
0.493402 0.282974 0.118854
0.617290 0.353044 0.134853
0.740045 0.426609 0.151891
0.825313 0.498382 0.171839
0.878950 0.569645 0.195091
0.118648 0.122746 0.082040
0.141796 0.135089 0.084638
0.228090 0.173842 0.093697
0.364417 0.232070 0.105324
0.493725 0.297111 0.119546
0.617538 0.363365 0.135428
0.740234 0.435743 0.152402
0.825387 0.505884 0.172355
0.879009 0.575992 0.195555
0.119825 0.211160 0.087096
0.144416 0.219346 0.089827
0.231319 0.247003 0.097606
0.366226 0.289701 0.108465
0.494885 0.341603 0.121932
0.618427 0.401217 0.137444
0.740916 0.466347 0.154210
0.825654 0.531757 0.174189
0.879220 0.593671 0.197210
0.124379 0.315167 0.095111
0.149285 0.320124 0.097317
0.237185 0.338234 0.103467
0.369533 0.368380 0.113502
0.497010 0.411912 0.126195
0.620058 0.462379 0.141000
0.742168 0.517172 0.157431
0.826143 0.575465 0.177495
0.879609 0.623118 0.200209
0.131474 0.422852 0.104270
0.156169 0.426980 0.105796
0.244922 0.440478 0.111500
0.374555 0.463907 0.120330
0.500169 0.496544 0.132187
0.622490 0.536873 0.146128
0.744036 0.582035 0.162467
0.826873 0.621416 0.182339
0.880190 0.662920 0.204594
0.142129 0.529842 0.114728
0.165375 0.532742 0.115980
0.254736 0.543008 0.120799
0.381275 0.561307 0.128895
0.504401 0.585366 0.139747
0.625757 0.610990 0.152863
0.746550 0.640980 0.169079
0.827856 0.674447 0.188870
0.880972 0.710598 0.210364
0.154182 0.622361 0.126101
0.176898 0.624140 0.127322
0.266526 0.630456 0.131458
0.389672 0.641784 0.138712
0.509723 0.658077 0.148454
0.629884 0.678984 0.161341
0.749732 0.703981 0.177734
0.829100 0.727728 0.197051
0.881963 0.750704 0.217428
0.168694 0.701556 0.138339
0.191407 0.702986 0.139367
0.280188 0.708080 0.143034
0.399718 0.716517 0.149356
0.516136 0.726390 0.158811
0.634882 0.739159 0.171789
0.753596 0.754550 0.187842
0.830611 0.772227 0.206306
0.883169 0.790932 0.225859
0.185122 0.761166 0.151031
0.210812 0.762023 0.152018
0.296048 0.765081 0.155461
0.411046 0.770617 0.161798
0.523628 0.778696 0.171302
0.640755 0.788560 0.184022
0.757287 0.800386 0.199621
0.832391 0.814125 0.216697
0.884592 0.829539 0.235686
0.117435 0.084381 0.133455
0.141027 0.103579 0.134579
0.227186 0.148812 0.138435
0.363912 0.213226 0.145112
0.493402 0.283318 0.154639
0.617290 0.353290 0.167434
0.740045 0.426839 0.183674
0.825313 0.498559 0.202524
0.878950 0.569795 0.222396
0.118648 0.123480 0.134045
0.141796 0.135748 0.135157
0.228090 0.174439 0.138973
0.364417 0.232503 0.145616
0.493725 0.297431 0.155133
0.617538 0.363602 0.167920
0.740234 0.435951 0.184158
0.825387 0.506058 0.202966
0.879009 0.576139 0.222802
0.119825 0.211618 0.136113
0.144416 0.219807 0.137183
0.231319 0.247407 0.140890
0.366226 0.290030 0.147392
0.494885 0.341888 0.156879
0.618427 0.401462 0.169691
0.740916 0.466538 0.185882
0.825654 0.531920 0.204546
0.879220 0.593780 0.224250
0.124379 0.315448 0.139722
0.149285 0.320399 0.140744
0.237185 0.338522 0.144372
0.369533 0.368613 0.150715
0.497010 0.412151 0.160174
0.620058 0.462572 0.173118
0.742168 0.517341 0.189168
0.826143 0.575613 0.207427
0.879609 0.623218 0.226885
0.131474 0.423085 0.144929
0.156169 0.427210 0.145892
0.244922 0.440683 0.149257
0.374555 0.464100 0.155698
0.500169 0.496721 0.165221
0.622490 0.537034 0.178074
0.744036 0.582148 0.194029
0.826873 0.621516 0.211644
0.880190 0.663009 0.230760
0.142129 0.530005 0.151644
0.165375 0.532904 0.152623
0.254736 0.543166 0.156040
0.381275 0.561460 0.162408
0.504401 0.585478 0.171917
0.625757 0.611094 0.184595
0.746550 0.641074 0.200155
0.827856 0.674533 0.217182
0.880972 0.710677 0.236182
0.154182 0.622461 0.160098
0.176898 0.624239 0.161097
0.266526 0.630554 0.164603
0.389672 0.641879 0.170910
0.509723 0.658167 0.180395
0.629884 0.679069 0.193002
0.749732 0.704061 0.207636
0.829100 0.727783 0.224110
0.881963 0.750754 0.243170
0.168694 0.701636 0.170549
0.191407 0.703066 0.171545
0.280188 0.708159 0.175057
0.399718 0.716574 0.181298
0.516136 0.726445 0.190629
0.634882 0.739211 0.202482
0.753596 0.754600 0.216363
0.830611 0.772273 0.232274
0.883169 0.790972 0.251319
0.185122 0.761214 0.182863
0.210812 0.762071 0.183794
0.296048 0.765128 0.187086
0.411046 0.770664 0.193418
0.523628 0.778741 0.202064
0.640755 0.788600 0.213096
0.757287 0.800424 0.226367
0.832391 0.814161 0.242443
0.884592 0.829574 0.260286
0.117435 0.089100 0.239704
0.141027 0.106502 0.240490
0.227186 0.150862 0.243293
0.363912 0.214845 0.248368
0.493402 0.284549 0.255413
0.617290 0.354173 0.264557
0.740045 0.427667 0.275617
0.825313 0.499195 0.288381
0.878950 0.570331 0.302590
0.118648 0.126016 0.240114
0.141796 0.138056 0.240899
0.228090 0.176559 0.243698
0.364417 0.234052 0.248765
0.493725 0.298576 0.255777
0.617538 0.364452 0.264907
0.740234 0.436696 0.275949
0.825387 0.506683 0.288691
0.879009 0.576669 0.302880
0.119825 0.213254 0.241584
0.144416 0.221455 0.242364
0.231319 0.248855 0.245146
0.366226 0.291211 0.250125
0.494885 0.342910 0.257081
0.618427 0.402343 0.266155
0.740916 0.467226 0.277137
0.825654 0.532503 0.289801
0.879220 0.594171 0.303921
0.124379 0.316454 0.244266
0.149285 0.321385 0.245038
0.237185 0.339555 0.247790
0.369533 0.369447 0.252577
0.497010 0.413008 0.259460
0.620058 0.463267 0.268427
0.742168 0.517950 0.279309
0.826143 0.576144 0.291830
0.879609 0.623576 0.305825
0.131474 0.423919 0.248224
0.156169 0.428037 0.248983
0.244922 0.441418 0.251553
0.374555 0.464792 0.256197
0.500169 0.497360 0.262975
0.622490 0.537611 0.271785
0.744036 0.582554 0.282522
0.826873 0.621877 0.294836
0.880190 0.663329 0.308648
0.142129 0.530591 0.253239
0.165375 0.533486 0.253943
0.254736 0.543735 0.256452
0.381275 0.562006 0.261000
0.504401 0.585880 0.267626
0.625757 0.611465 0.276250
0.746550 0.641415 0.286730
0.827856 0.674843 0.298841
0.880972 0.710959 0.312414
0.154182 0.622820 0.259408
0.176898 0.624597 0.260093
0.266526 0.630905 0.262538
0.389672 0.642219 0.266958
0.509723 0.658491 0.273388
0.629884 0.679375 0.281814
0.749732 0.704348 0.291978
0.829100 0.727979 0.303821
0.881963 0.750934 0.317128
0.168694 0.701925 0.266720
0.191407 0.703353 0.267379
0.280188 0.708442 0.269731
0.399718 0.716779 0.273999
0.516136 0.726643 0.280246
0.634882 0.739399 0.288351
0.753596 0.754777 0.298245
0.830611 0.772440 0.309757
0.883169 0.791114 0.322791
0.185122 0.761387 0.275063
0.210812 0.762244 0.275700
0.296048 0.765299 0.277972
0.411046 0.770831 0.282100
0.523628 0.778904 0.288060
0.640755 0.788744 0.295879
0.757287 0.800561 0.305450
0.832391 0.814291 0.316635
0.884592 0.829696 0.329400
0.117435 0.096737 0.364169
0.141027 0.111891 0.364628
0.227186 0.154871 0.366270
0.363912 0.217912 0.369269
0.493402 0.286797 0.373718
0.617290 0.355789 0.379680
0.740045 0.429136 0.387117
0.825313 0.500362 0.395992
0.878950 0.571318 0.406248
0.118648 0.130713 0.364409
0.141796 0.142079 0.364867
0.228090 0.180373 0.366508
0.364417 0.236869 0.369505
0.493725 0.300669 0.373953
0.617538 0.366008 0.379911
0.740234 0.438063 0.387343
0.825387 0.507830 0.396212
0.879009 0.577642 0.406462
0.119825 0.216260 0.365268
0.144416 0.224451 0.365725
0.231319 0.251493 0.367361
0.366226 0.293368 0.370351
0.494885 0.344781 0.374796
0.618427 0.403957 0.380740
0.740916 0.468489 0.388153
0.825654 0.533574 0.397003
0.879220 0.594891 0.407231
0.124379 0.318294 0.366842
0.149285 0.323188 0.367297
0.237185 0.341446 0.368926
0.369533 0.370976 0.371901
0.497010 0.414581 0.376341
0.620058 0.464542 0.382258
0.742168 0.519067 0.389640
0.826143 0.577118 0.398453
0.879609 0.624235 0.408641
0.131474 0.425451 0.369184
0.156169 0.429476 0.369635
0.244922 0.442768 0.371252
0.374555 0.466062 0.374224
0.500169 0.498533 0.378640
0.622490 0.538670 0.384518
0.744036 0.583299 0.391852
0.826873 0.622538 0.400611
0.880190 0.663918 0.410739
0.142129 0.531667 0.372321
0.165375 0.534555 0.372771
0.254736 0.544779 0.374389
0.381275 0.563010 0.377346
0.504401 0.586618 0.381722
0.625757 0.612148 0.387548
0.746550 0.642040 0.394820
0.827856 0.675413 0.403507
0.880972 0.711477 0.413557
0.154182 0.623480 0.376307
0.176898 0.625253 0.376754
0.266526 0.631549 0.378353
0.389672 0.642843 0.381276
0.509723 0.659088 0.385602
0.629884 0.679938 0.391364
0.749732 0.704875 0.398559
0.829100 0.728340 0.407157
0.881963 0.751265 0.417109
0.168694 0.702455 0.381116
0.191407 0.703882 0.381557
0.280188 0.708964 0.383134
0.399718 0.717156 0.386016
0.516136 0.727005 0.390284
0.634882 0.739745 0.395970
0.753596 0.755103 0.403074
0.830611 0.772745 0.411568
0.883169 0.791375 0.421404
0.185122 0.761705 0.386740
0.210812 0.762561 0.387173
0.296048 0.765612 0.388724
0.411046 0.771138 0.391561
0.523628 0.779202 0.395763
0.640755 0.789008 0.401363
0.757287 0.800813 0.408362
0.832391 0.814529 0.416736
0.884592 0.829921 0.426441
0.117435 0.105469 0.488965
0.141027 0.119838 0.489240
0.227186 0.160653 0.490227
0.363912 0.222457 0.492035
0.493402 0.290091 0.494699
0.617290 0.358189 0.498257
0.740045 0.431222 0.502724
0.825313 0.502102 0.508100
0.878950 0.572789 0.514368
0.118648 0.137213 0.489109
0.141796 0.148095 0.489384
0.228090 0.185890 0.490370
0.364417 0.241029 0.492177
0.493725 0.303768 0.494839
0.617538 0.368320 0.498395
0.740234 0.440099 0.502860
0.825387 0.509540 0.508234
0.879009 0.578897 0.514499
0.119825 0.220847 0.489625
0.144416 0.228864 0.489899
0.231319 0.255327 0.490884
0.366226 0.296560 0.492688
0.494885 0.347559 0.495341
0.618427 0.406361 0.498891
0.740916 0.470369 0.503350
0.825654 0.535172 0.508715
0.879220 0.595964 0.514971
0.124379 0.321021 0.490572
0.149285 0.325860 0.490845
0.237185 0.344254 0.491827
0.369533 0.373246 0.493616
0.497010 0.416922 0.496262
0.620058 0.466442 0.499801
0.742168 0.520734 0.504248
0.826143 0.578489 0.509598
0.879609 0.625217 0.515838
0.131474 0.427731 0.491983
0.156169 0.431560 0.492256
0.244922 0.444779 0.493228
0.374555 0.467955 0.495001
0.500169 0.500280 0.497634
0.622490 0.540249 0.501159
0.744036 0.584412 0.505587
0.826873 0.623526 0.510915
0.880190 0.664796 0.517130
0.142129 0.533271 0.493868
0.165375 0.536149 0.494137
0.254736 0.546337 0.495099
0.381275 0.564508 0.496861
0.504401 0.587718 0.499480
0.625757 0.613166 0.502984
0.746550 0.642973 0.507387
0.827856 0.676264 0.512687
0.880972 0.712250 0.518869
0.154182 0.624465 0.496241
0.176898 0.626233 0.496508
0.266526 0.632511 0.497463
0.389672 0.643774 0.499212
0.509723 0.659977 0.501811
0.629884 0.680779 0.505291
0.749732 0.705662 0.509663
0.829100 0.728878 0.514926
0.881963 0.751758 0.521067
0.168694 0.703247 0.499117
0.191407 0.704671 0.499381
0.280188 0.709743 0.500327
0.399718 0.717718 0.502061
0.516136 0.727547 0.504637
0.634882 0.740260 0.508087
0.753596 0.755589 0.512422
0.830611 0.773201 0.517641
0.883169 0.791766 0.523732
0.185122 0.762180 0.502497
0.210812 0.763034 0.502758
0.296048 0.766080 0.503694
0.411046 0.771597 0.505410
0.523628 0.779647 0.507960
0.640755 0.789402 0.511375
0.757287 0.801189 0.515667
0.832391 0.814886 0.520836
0.884592 0.830257 0.526870
0.117435 0.116387 0.592259
0.141027 0.129586 0.592461
0.227186 0.168906 0.593186
0.363912 0.228451 0.594517
0.493402 0.294452 0.596498
0.617290 0.361399 0.599160
0.740045 0.434022 0.602518
0.825313 0.504443 0.606582
0.878950 0.574770 0.611352
0.118648 0.145433 0.592365
0.141796 0.156027 0.592567
0.228090 0.193028 0.593292
0.364417 0.246529 0.594622
0.493725 0.307894 0.596603
0.617538 0.371414 0.599263
0.740234 0.442833 0.602621
0.825387 0.511840 0.606684
0.879009 0.580420 0.611452
0.119825 0.226883 0.592744
0.144416 0.234668 0.592946
0.231319 0.260320 0.593670
0.366226 0.300807 0.594998
0.494885 0.351174 0.596977
0.618427 0.409585 0.599636
0.740916 0.472897 0.602990
0.825654 0.537321 0.607049
0.879220 0.597408 0.611811
0.124379 0.324656 0.593440
0.149285 0.329586 0.593641
0.237185 0.348009 0.594364
0.369533 0.376470 0.595690
0.497010 0.420064 0.597666
0.620058 0.468995 0.600319
0.742168 0.522976 0.603668
0.826143 0.580014 0.607720
0.879609 0.626541 0.612460
0.131474 0.430621 0.594479
0.156169 0.434358 0.594680
0.244922 0.447479 0.595401
0.374555 0.470498 0.596723
0.500169 0.502631 0.598693
0.622490 0.542374 0.601340
0.744036 0.585908 0.604679
0.826873 0.624856 0.608721
0.880190 0.665979 0.613428
0.142129 0.535430 0.595878
0.165375 0.538294 0.596078
0.254736 0.548434 0.596797
0.381275 0.566524 0.598114
0.504401 0.589200 0.600078
0.625757 0.614537 0.602714
0.746550 0.644231 0.606042
0.827856 0.677411 0.610070
0.880972 0.713294 0.614732
0.154182 0.625791 0.597651
0.176898 0.627552 0.597850
0.266526 0.633807 0.598565
0.389672 0.645028 0.599877
0.509723 0.661176 0.601831
0.629884 0.681912 0.604456
0.749732 0.706723 0.607769
0.829100 0.729605 0.611777
0.881963 0.752424 0.616384
0.168694 0.704315 0.599805
0.191407 0.705734 0.600003
0.280188 0.710792 0.600714
0.399718 0.718477 0.602019
0.516136 0.728277 0.603962
0.634882 0.740955 0.606572
0.753596 0.756246 0.609868
0.830611 0.773816 0.613811
0.883169 0.792292 0.618393
0.185122 0.762820 0.602347
0.210812 0.763672 0.602544
0.296048 0.766711 0.603250
0.411046 0.772215 0.604546
0.523628 0.780248 0.606477
0.640755 0.789933 0.609071
0.757287 0.801697 0.612332
0.832391 0.815367 0.616210
0.884592 0.830711 0.620764
0.117435 0.129003 0.690787
0.141027 0.140605 0.690942
0.227186 0.178959 0.691496
0.363912 0.235820 0.692515
0.493402 0.299888 0.694034
0.617290 0.365427 0.696078
0.740045 0.437552 0.698663
0.825313 0.507401 0.701802
0.878950 0.577278 0.705498
0.118648 0.155528 0.690868
0.141796 0.166252 0.691022
0.228090 0.201607 0.691577
0.364417 0.253319 0.692595
0.493725 0.312798 0.694114
0.617538 0.375328 0.696157
0.740234 0.446281 0.698743
0.825387 0.514748 0.701880
0.879009 0.582346 0.705576
0.119825 0.234311 0.691158
0.144416 0.241834 0.691312
0.231319 0.266501 0.691866
0.366226 0.306106 0.692883
0.494885 0.355357 0.694401
0.618427 0.413650 0.696443
0.740916 0.476089 0.699027
0.825654 0.540040 0.702163
0.879220 0.599235 0.705856
0.124379 0.329338 0.691690
0.149285 0.334583 0.691844
0.237185 0.352471 0.692398
0.369533 0.380894 0.693414
0.497010 0.424027 0.694930
0.620058 0.472218 0.696969
0.742168 0.525811 0.699550
0.826143 0.581943 0.702682
0.879609 0.628216 0.706371
0.131474 0.434184 0.692485
0.156169 0.437885 0.692639
0.244922 0.450885 0.693192
0.374555 0.473709 0.694206
0.500169 0.505602 0.695719
0.622490 0.545063 0.697755
0.744036 0.587802 0.700331
0.826873 0.626540 0.703457
0.880190 0.667478 0.707139
0.142129 0.538160 0.693558
0.165375 0.541007 0.693711
0.254736 0.551087 0.694262
0.381275 0.569076 0.695274
0.504401 0.591074 0.696783
0.625757 0.616273 0.698814
0.746550 0.645824 0.701384
0.827856 0.678864 0.704503
0.880972 0.714544 0.708176
0.154182 0.627470 0.694918
0.176898 0.629223 0.695071
0.266526 0.635448 0.695620
0.389672 0.646618 0.696629
0.509723 0.662695 0.698133
0.629884 0.683348 0.700158
0.749732 0.708068 0.702720
0.829100 0.730525 0.705829
0.881963 0.753268 0.709491
0.168694 0.705668 0.696574
0.191407 0.707083 0.696726
0.280188 0.712124 0.697273
0.399718 0.719438 0.698278
0.516136 0.729202 0.699777
0.634882 0.741837 0.701794
0.753596 0.757078 0.704346
0.830611 0.774596 0.707444
0.883169 0.792961 0.711093
0.185122 0.763633 0.698531
0.210812 0.764482 0.698683
0.296048 0.767512 0.699228
0.411046 0.773000 0.700228
0.523628 0.780982 0.701720
0.640755 0.790608 0.703728
0.757287 0.802341 0.706269
0.832391 0.815978 0.709353
0.884592 0.831286 0.712986
0.117435 0.142351 0.770495
0.141027 0.153018 0.770582
0.227186 0.190419 0.770894
0.363912 0.244504 0.771467
0.493402 0.306370 0.772322
0.617290 0.370269 0.773473
0.740045 0.441820 0.774930
0.825313 0.510987 0.776701
0.878950 0.579855 0.778789
0.118648 0.168057 0.770540
0.141796 0.178635 0.770627
0.228090 0.211446 0.770939
0.364417 0.261107 0.771512
0.493725 0.318619 0.772367
0.617538 0.380742 0.773518
0.740234 0.450451 0.774975
0.825387 0.518274 0.776745
0.879009 0.584683 0.778833
0.119825 0.243050 0.770703
0.144416 0.250286 0.770790
0.231319 0.273955 0.771102
0.366226 0.312215 0.771674
0.494885 0.360380 0.772528
0.618427 0.418561 0.773679
0.740916 0.479954 0.775135
0.825654 0.543340 0.776905
0.879220 0.601455 0.778991
0.124379 0.335437 0.771003
0.149285 0.340579 0.771089
0.237185 0.357548 0.771401
0.369533 0.386229 0.771973
0.497010 0.428797 0.772826
0.620058 0.476120 0.773975
0.742168 0.529223 0.775430
0.826143 0.584283 0.777198
0.879609 0.630253 0.779282
0.131474 0.438491 0.771450
0.156169 0.442149 0.771537
0.244922 0.455005 0.771848
0.374555 0.477597 0.772419
0.500169 0.509203 0.773271
0.622490 0.548326 0.774418
0.744036 0.590100 0.775871
0.826873 0.628586 0.777636
0.880190 0.669301 0.779717
0.142129 0.541474 0.772054
0.165375 0.544300 0.772140
0.254736 0.554308 0.772450
0.381275 0.572175 0.773020
0.504401 0.593349 0.773870
0.625757 0.618382 0.775015
0.746550 0.647760 0.776465
0.827856 0.680632 0.778226
0.880972 0.715736 0.780303
0.154182 0.629511 0.772820
0.176898 0.631253 0.772906
0.266526 0.637442 0.773215
0.389672 0.648549 0.773783
0.509723 0.664543 0.774631
0.629884 0.685094 0.775773
0.749732 0.709705 0.777219
0.829100 0.731646 0.778976
0.881963 0.754296 0.781048
0.168694 0.707315 0.773752
0.191407 0.708724 0.773838
0.280188 0.713744 0.774147
0.399718 0.720608 0.774713
0.516136 0.730328 0.775558
0.634882 0.742910 0.776697
0.753596 0.758091 0.778138
0.830611 0.775546 0.779889
0.883169 0.793775 0.781954
0.185122 0.764622 0.774856
0.210812 0.765468 0.774941
0.296048 0.768487 0.775249
0.411046 0.773956 0.775813
0.523628 0.781836 0.776655
0.640755 0.791430 0.777789
0.757287 0.803125 0.779225
0.832391 0.816722 0.780969
0.884592 0.831988 0.783027
0.117435 0.157127 0.830829
0.141027 0.167909 0.830875
0.227186 0.202919 0.831041
0.363912 0.254351 0.831346
0.493402 0.313561 0.831802
0.617290 0.376034 0.832415
0.740045 0.446824 0.833192
0.825313 0.515207 0.834137
0.878950 0.582650 0.835253
0.118648 0.182509 0.830853
0.141796 0.192171 0.830900
0.228090 0.222751 0.831065
0.364417 0.269998 0.831370
0.493725 0.325350 0.831826
0.617538 0.387070 0.832439
0.740234 0.455343 0.833216
0.825387 0.522424 0.834161
0.879009 0.587437 0.835277
0.119825 0.252989 0.830940
0.144416 0.259714 0.830986
0.231319 0.282604 0.831152
0.366226 0.319127 0.831457
0.494885 0.366224 0.831912
0.618427 0.424316 0.832525
0.740916 0.484495 0.833302
0.825654 0.547226 0.834246
0.879220 0.604070 0.835361
0.124379 0.342524 0.831099
0.149285 0.347551 0.831146
0.237185 0.363453 0.831311
0.369533 0.392467 0.831616
0.497010 0.433979 0.832071
0.620058 0.480704 0.832683
0.742168 0.533234 0.833459
0.826143 0.587040 0.834403
0.879609 0.632654 0.835517
0.131474 0.443539 0.831338
0.156169 0.447148 0.831384
0.244922 0.459839 0.831549
0.374555 0.482164 0.831853
0.500169 0.513440 0.832307
0.622490 0.552170 0.832919
0.744036 0.592807 0.833694
0.826873 0.630999 0.834637
0.880190 0.671454 0.835749
0.142129 0.545376 0.831659
0.165375 0.548178 0.831705
0.254736 0.558102 0.831870
0.381275 0.575827 0.832174
0.504401 0.596030 0.832627
0.625757 0.620868 0.833238
0.746550 0.650045 0.834012
0.827856 0.682720 0.834952
0.880972 0.717144 0.836063
0.154182 0.631918 0.832067
0.176898 0.633648 0.832113
0.266526 0.639794 0.832278
0.389672 0.650829 0.832581
0.509723 0.666723 0.833033
0.629884 0.687157 0.833642
0.749732 0.711640 0.834414
0.829100 0.732969 0.835353
0.881963 0.755511 0.836461
0.168694 0.709262 0.832564
0.191407 0.710664 0.832610
0.280188 0.715316 0.832774
0.399718 0.721989 0.833077
0.516136 0.731659 0.833528
0.634882 0.744178 0.834135
0.753596 0.759289 0.834905
0.830611 0.776670 0.835841
0.883169 0.794738 0.836947
0.185122 0.765791 0.833153
0.210812 0.766634 0.833198
0.296048 0.769640 0.833362
0.411046 0.775086 0.833663
0.523628 0.782846 0.834113
0.640755 0.792402 0.834719
0.757287 0.804053 0.835486
0.832391 0.817602 0.836419
0.884592 0.832819 0.837521
