provia100f/Provia100F_Modern_ExtraSoft.cube
TITLE "Fuji Provia 100F Modern ExtraSoft"
# Adobe RGB in/out. REPLACES AgX. Fuji Provia 100F Modern ExtraSoft.
LUT_3D_SIZE 5
DOMAIN_MIN 0.0 0.0 0.0
DOMAIN_MAX 1.0 1.0 1.0
0.065446 0.069518 0.085077
0.312673 0.073754 0.085074
0.816153 0.373767 0.085423
0.906886 0.693728 0.087518
0.935565 0.809007 0.092601
0.065447 0.154246 0.085077
0.133007 0.100428 0.085075
0.737137 0.429124 0.085251
0.892278 0.708179 0.087026
0.931308 0.816426 0.091858
0.067135 0.726268 0.085112
0.202298 0.687112 0.085142
0.663998 0.664879 0.085267
0.862389 0.762848 0.086372
0.920836 0.847285 0.090610
0.071074 0.863278 0.085302
0.206809 0.857916 0.085404
0.674088 0.849906 0.085761
0.848623 0.856958 0.086863
0.910013 0.877866 0.090344
0.076984 0.901756 0.085820
0.197329 0.900756 0.085954
0.642065 0.899503 0.086444
0.839299 0.902273 0.087785
0.904529 0.910438 0.091359
0.065446 0.069518 0.274770
0.332302 0.076008 0.293771
0.807323 0.353859 0.213491
0.903215 0.676328 0.202627
0.933947 0.802353 0.219930
0.065417 0.094780 0.139997
0.084878 0.078458 0.092066
0.703281 0.372259 0.122915
0.886410 0.692269 0.156726
0.929679 0.809941 0.190873
0.066600 0.692127 0.151604
0.171852 0.639472 0.122466
0.608582 0.622311 0.105886
0.854971 0.748603 0.118980
0.918903 0.841265 0.148215
0.070592 0.858001 0.131729
0.195393 0.852627 0.124777
0.661472 0.841839 0.115618
0.843866 0.853091 0.116446
0.908904 0.876621 0.132742
0.076424 0.900400 0.116544
0.193621 0.899483 0.115900
0.636070 0.898449 0.115760
0.837825 0.901553 0.120301
0.904308 0.910233 0.133341
0.065446 0.069616 0.842721
0.332302 0.080961 0.843757
0.844602 0.492365 0.841317
0.906071 0.697418 0.780505
0.933221 0.801433 0.748415
0.065433 0.168536 0.833746
0.249337 0.236767 0.803824
0.764251 0.493655 0.763503
0.888421 0.703159 0.743330
0.928682 0.807699 0.722926
0.066084 0.617423 0.718606
0.130326 0.584181 0.669742
0.533457 0.546341 0.546883
0.848233 0.737536 0.632593
0.916629 0.834953 0.665439
0.069661 0.842358 0.695798
0.172391 0.834437 0.677147
0.622115 0.823693 0.628298
0.832077 0.841181 0.598981
0.906757 0.874126 0.618763
0.075345 0.896948 0.643451
0.184375 0.896314 0.635864
0.621554 0.895971 0.617439
0.834278 0.899923 0.604374
0.903551 0.909824 0.608176
0.065446 0.071118 0.931622
0.332302 0.092773 0.931791
0.850152 0.541496 0.932396
0.913922 0.735732 0.915705
0.935098 0.814122 0.897723
0.065447 0.254116 0.931710
0.345818 0.413724 0.931879
0.822850 0.625145 0.921987
0.901263 0.740826 0.906901
0.930424 0.819031 0.887409
0.066092 0.630690 0.891815
0.150624 0.634958 0.882619
0.666505 0.684820 0.864519
0.860248 0.766058 0.858670
0.917714 0.841573 0.855791
0.068958 0.821071 0.863356
0.145871 0.817130 0.855411
0.594951 0.812819 0.835226
0.819981 0.826486 0.815494
0.905669 0.873168 0.828607
0.074307 0.892764 0.842342
0.173450 0.892477 0.839370
0.605436 0.893404 0.830444
0.830488 0.898419 0.825644
0.902765 0.909652 0.824565
0.065446 0.079264 0.948344
0.332302 0.130763 0.948354
0.850152 0.583054 0.948390
0.920068 0.770374 0.946472
0.937593 0.831202 0.937207
0.065447 0.345049 0.948350
0.345818 0.483014 0.948360
0.847873 0.707487 0.948228
0.909757 0.777006 0.943465
0.933083 0.836376 0.932941
0.066474 0.712641 0.940952
0.207588 0.721377 0.939297
0.730380 0.753152 0.933696
0.874801 0.800109 0.928493
0.921070 0.853727 0.921648
0.068741 0.818414 0.921065
0.143708 0.819200 0.919170
0.615519 0.827494 0.914336
0.838619 0.853084 0.910481
0.907310 0.876703 0.909211
0.073572 0.888093 0.911700
0.157946 0.888491 0.910650
0.593040 0.891260 0.907936
0.828080 0.897955 0.907226
0.902425 0.910057 0.906664
