provia100f/Provia100F_Modern_ExtraSoft.cube
TITLE "Fuji Provia 100F Modern ExtraSoft"
# Adobe RGB in/out. REPLACES AgX. Fuji Provia 100F Modern ExtraSoft.
LUT_3D_SIZE 33
DOMAIN_MIN 0.0 0.0 0.0
DOMAIN_MAX 1.0 1.0 1.0
0.065446 0.069518 0.085077
0.065446 0.069518 0.085077
0.065534 0.069518 0.085077
0.067083 0.069518 0.085077
0.071136 0.069518 0.085077
0.084639 0.069793 0.085077
0.125116 0.070439 0.085077
0.206092 0.071841 0.085075
0.312673 0.073754 0.085074
0.425715 0.080131 0.085074
0.517217 0.088559 0.085093
0.582992 0.102668 0.085110
0.665399 0.129961 0.085148
0.713857 0.174443 0.085196
0.758240 0.239464 0.085240
0.792471 0.310636 0.085281
0.816153 0.373767 0.085423
0.835743 0.437231 0.085568
0.852149 0.491922 0.085728
0.864912 0.534737 0.085953
0.874617 0.571008 0.086164
0.883690 0.607262 0.086413
0.892324 0.633886 0.086777
0.900549 0.664165 0.087216
0.906886 0.693728 0.087518
0.911682 0.713740 0.087939
0.916254 0.729961 0.088668
0.920617 0.745707 0.089375
0.924167 0.760993 0.090052
0.927211 0.774656 0.090702
0.930120 0.783489 0.091325
0.932902 0.796649 0.091923
0.935565 0.809007 0.092601
0.065446 0.069518 0.085077
0.065446 0.069518 0.085077
0.065447 0.069518 0.085077
0.066340 0.069518 0.085077
0.070058 0.069518 0.085077
0.081993 0.069795 0.085077
0.115720 0.070436 0.085077
0.197139 0.071836 0.085076
0.302893 0.073760 0.085074
0.417082 0.080155 0.085074
0.510951 0.088606 0.085092
0.577870 0.102808 0.085110
0.662527 0.130140 0.085146
0.711608 0.174708 0.085195
0.756232 0.239968 0.085239
0.791429 0.311198 0.085279
0.815353 0.374265 0.085419
0.835031 0.437591 0.085564
0.851688 0.492223 0.085722
0.864499 0.534955 0.085948
0.874323 0.571222 0.086159
0.883426 0.607477 0.086406
0.892085 0.634068 0.086767
0.900333 0.664346 0.087208
0.906760 0.693863 0.087517
0.911568 0.713841 0.087927
0.916150 0.730060 0.088655
0.920522 0.745803 0.089363
0.924100 0.761087 0.090042
0.927149 0.774731 0.090692
0.930063 0.783574 0.091316
0.932850 0.796733 0.091915
0.935517 0.809080 0.092592
0.065446 0.069518 0.085077
0.065446 0.069518 0.085077
0.065409 0.069518 0.085077
0.065904 0.069518 0.085077
0.068442 0.069523 0.085077
0.074988 0.069803 0.085077
0.098776 0.070429 0.085077
0.169375 0.071841 0.085076
0.269690 0.073816 0.085075
0.388063 0.080274 0.085074
0.498346 0.088803 0.085089
0.565197 0.103367 0.085107
0.648077 0.130831 0.085139
0.700945 0.175712 0.085189
0.749229 0.241858 0.085234
0.787772 0.313286 0.085275
0.812146 0.376101 0.085403
0.832520 0.438911 0.085551
0.850056 0.493322 0.085700
0.863035 0.535746 0.085928
0.873279 0.572002 0.086142
0.882487 0.608260 0.086382
0.891237 0.634727 0.086733
0.899564 0.665002 0.087177
0.906312 0.694352 0.087513
0.911159 0.714203 0.087884
0.915777 0.730414 0.088611
0.920181 0.746150 0.089323
0.923861 0.761427 0.090005
0.926929 0.775005 0.090658
0.929861 0.783881 0.091285
0.932663 0.797033 0.091886
0.935344 0.809342 0.092560
0.065446 0.069518 0.085077
0.065446 0.069518 0.085077
0.065442 0.069518 0.085077
0.065820 0.069518 0.085077
0.066945 0.069572 0.085077
0.071333 0.069854 0.085077
0.085576 0.070469 0.085077
0.130347 0.071941 0.085076
0.221469 0.074055 0.085075
0.342549 0.080590 0.085074
0.461253 0.089353 0.085084
0.544502 0.104621 0.085103
0.621142 0.132299 0.085127
0.686450 0.177773 0.085178
0.737167 0.244724 0.085225
0.781385 0.316241 0.085267
0.806424 0.379670 0.085375
0.828075 0.441447 0.085526
0.847152 0.495418 0.085666
0.860419 0.537245 0.085894
0.871409 0.573477 0.086111
0.880800 0.609736 0.086339
0.889709 0.635966 0.086672
0.898176 0.666231 0.087122
0.905501 0.695266 0.087506
0.910420 0.714880 0.087807
0.915102 0.731074 0.088531
0.919562 0.746795 0.089250
0.923427 0.762057 0.089937
0.926530 0.775511 0.090596
0.929492 0.784450 0.091228
0.932323 0.797590 0.091833
0.935029 0.809827 0.092500
0.065446 0.069988 0.085077
0.065446 0.069975 0.085077
0.065489 0.069933 0.085077
0.066028 0.069882 0.085077
0.067214 0.069873 0.085077
0.069734 0.070050 0.085077
0.078692 0.070772 0.085077
0.106071 0.072277 0.085077
0.184211 0.074695 0.085075
0.293372 0.081292 0.085074
0.414889 0.090513 0.085078
0.515127 0.107017 0.085097
0.586869 0.135614 0.085115
0.670845 0.181356 0.085165
0.720906 0.249229 0.085213
0.767139 0.320452 0.085257
0.798460 0.385466 0.085336
0.821827 0.445496 0.085492
0.841769 0.498725 0.085636
0.856688 0.539588 0.085846
0.868730 0.575782 0.086068
0.878374 0.612027 0.086277
0.887505 0.637879 0.086587
0.896167 0.668122 0.087044
0.904323 0.696667 0.087478
0.909344 0.715913 0.087709
0.914116 0.732080 0.088415
0.918657 0.747776 0.089143
0.922790 0.763014 0.089839
0.925944 0.776279 0.090506
0.928952 0.785311 0.091144
0.931823 0.798432 0.091756
0.934567 0.810560 0.092414
0.065446 0.072432 0.085077
0.065423 0.072360 0.085077
0.065634 0.072103 0.085077
0.066424 0.071650 0.085077
0.068452 0.071214 0.085077
0.070567 0.071103 0.085077
0.075315 0.071431 0.085077
0.092684 0.072963 0.085077
0.147447 0.076592 0.085076
0.244119 0.082902 0.085075
0.365509 0.092599 0.085074
0.476275 0.111178 0.085092
0.557301 0.141310 0.085110
0.640618 0.187115 0.085149
0.695578 0.256267 0.085199
0.749147 0.326854 0.085245
0.788712 0.394152 0.085293
0.813925 0.451439 0.085451
0.834662 0.503513 0.085598
0.851968 0.542943 0.085785
0.865259 0.579076 0.086013
0.875269 0.614469 0.086227
0.884670 0.640577 0.086517
0.893573 0.670773 0.086943
0.902020 0.698621 0.087386
0.907944 0.717348 0.087606
0.912831 0.733473 0.088266
0.917474 0.749130 0.089006
0.921893 0.764333 0.089713
0.925174 0.776978 0.090389
0.928240 0.786493 0.091036
0.931164 0.799586 0.091656
0.933956 0.811562 0.092301
0.065435 0.081327 0.085077
0.065415 0.081575 0.085077
0.065893 0.080559 0.085077
0.067112 0.078116 0.085077
0.069199 0.075237 0.085077
0.072254 0.073908 0.085077
0.078116 0.073752 0.085077
0.088084 0.074560 0.085077
0.129799 0.079676 0.085076
0.210859 0.086361 0.085075
0.321304 0.095969 0.085074
0.439168 0.117776 0.085087
0.530724 0.150411 0.085105
0.602775 0.198799 0.085134
0.679557 0.266728 0.085185
0.729534 0.336120 0.085232
0.776002 0.402572 0.085274
0.803718 0.459745 0.085404
0.826455 0.510107 0.085556
0.846460 0.547536 0.085716
0.860197 0.583555 0.085951
0.871587 0.617325 0.086170
0.881288 0.644187 0.086434
0.890461 0.674301 0.086825
0.899153 0.701206 0.087278
0.906249 0.719237 0.087528
0.911268 0.735299 0.088087
0.916032 0.750900 0.088840
0.920559 0.766052 0.089559
0.924231 0.777540 0.090247
0.927366 0.788025 0.090904
0.930353 0.801080 0.091534
0.933202 0.812858 0.092162
0.065411 0.099433 0.085077
0.065466 0.100208 0.085077
0.066013 0.098995 0.085077
0.067541 0.093237 0.085077
0.070008 0.088355 0.085077
0.073829 0.085073 0.085077
0.082261 0.083344 0.085077
0.093297 0.083343 0.085076
0.121806 0.084901 0.085076
0.190834 0.091667 0.085075
0.288469 0.104802 0.085074
0.399187 0.128182 0.085084
0.501496 0.165315 0.085102
0.570077 0.219511 0.085121
0.656590 0.281684 0.085172
0.709592 0.349037 0.085219
0.756435 0.413979 0.085262
0.792805 0.470521 0.085357
0.817543 0.518026 0.085512
0.838153 0.553632 0.085655
0.854577 0.589446 0.085883
0.867458 0.621040 0.086107
0.877467 0.648859 0.086343
0.886924 0.678839 0.086693
0.895875 0.704441 0.087156
0.904299 0.721636 0.087513
0.909463 0.737610 0.087899
0.914359 0.753131 0.088652
0.919007 0.768212 0.089384
0.923129 0.778244 0.090084
0.926342 0.789941 0.090753
0.929401 0.802943 0.091392
0.932315 0.814471 0.092005
0.065447 0.154246 0.085077
0.065514 0.155464 0.085077
0.066059 0.150003 0.085076
0.068099 0.133796 0.085076
0.070884 0.120571 0.085076
0.075650 0.110115 0.085076
0.085725 0.103060 0.085076
0.102349 0.099851 0.085075
0.133007 0.100428 0.085075
0.184166 0.104450 0.085075
0.260977 0.119462 0.085074
0.367138 0.145878 0.085082
0.469565 0.185204 0.085099
0.547306 0.246870 0.085115
0.622067 0.311470 0.085161
0.686353 0.367942 0.085208
0.737137 0.429124 0.085251
0.781714 0.482426 0.085311
0.807312 0.526304 0.085468
0.829439 0.561512 0.085614
0.848616 0.596999 0.085814
0.862370 0.625752 0.086042
0.873334 0.654756 0.086257
0.883068 0.684532 0.086567
0.892278 0.708179 0.087026
0.901006 0.724607 0.087473
0.907458 0.740460 0.087716
0.912492 0.755874 0.088447
0.917268 0.770567 0.089193
0.921805 0.779101 0.089905
0.925186 0.792275 0.090585
0.928323 0.805208 0.091236
0.931308 0.816426 0.091858
0.065507 0.265959 0.085076
0.065645 0.263444 0.085076
0.066129 0.249782 0.085076
0.068446 0.223556 0.085076
0.071547 0.191545 0.085075
0.077973 0.173186 0.085075
0.088111 0.155223 0.085075
0.109373 0.145724 0.085075
0.144497 0.141971 0.085074
0.196881 0.143690 0.085074
0.255540 0.150484 0.085074
0.341686 0.174924 0.085082
0.445838 0.220728 0.085098
0.528034 0.274449 0.085113
0.592074 0.336008 0.085153
0.670641 0.396733 0.085199
0.718938 0.448741 0.085241
0.764364 0.497768 0.085283
0.796831 0.536834 0.085428
0.820687 0.571467 0.085575
0.841081 0.606477 0.085747
0.856602 0.632402 0.085979
0.869019 0.662052 0.086197
0.879008 0.691539 0.086477
0.888462 0.712100 0.086893
0.897421 0.728217 0.087347
0.905300 0.743908 0.087571
0.910474 0.759180 0.088232
0.915379 0.773181 0.088990
0.920035 0.781841 0.089714
0.923920 0.795064 0.090406
0.927137 0.807668 0.091067
0.930198 0.818751 0.091700
0.065614 0.379361 0.085075
0.065847 0.374514 0.085075
0.066350 0.359104 0.085075
0.068601 0.339495 0.085075
0.072127 0.316302 0.085075
0.079891 0.280016 0.085075
0.090996 0.257367 0.085074
0.116885 0.239880 0.085074
0.156791 0.225558 0.085074
0.209577 0.220759 0.085074
0.272478 0.225325 0.085078
0.340363 0.238436 0.085087
0.422180 0.263453 0.085098
0.505418 0.319530 0.085112
0.569601 0.367390 0.085148
0.648744 0.422621 0.085192
0.697418 0.472787 0.085234
0.747372 0.516724 0.085273
0.786853 0.549921 0.085393
0.811750 0.583782 0.085540
0.832826 0.616335 0.085685
0.850834 0.641731 0.085919
0.864413 0.670924 0.086139
0.874857 0.698143 0.086389
0.884527 0.716649 0.086762
0.893698 0.732529 0.087223
0.902404 0.748013 0.087522
0.908347 0.763103 0.088013
0.913378 0.776271 0.088782
0.918154 0.785246 0.089517
0.922567 0.798345 0.090220
0.925866 0.810485 0.090891
0.929003 0.821473 0.091534
0.065839 0.476163 0.085074
0.066002 0.473555 0.085074
0.066704 0.463741 0.085074
0.068818 0.445845 0.085074
0.072650 0.423652 0.085074
0.081393 0.400325 0.085074
0.094442 0.371296 0.085074
0.125101 0.349062 0.085074
0.173790 0.334680 0.085075
0.221411 0.326468 0.085081
0.288513 0.324502 0.085088
0.354468 0.328558 0.085096
0.424260 0.338268 0.085104
0.496395 0.358148 0.085113
0.554607 0.409527 0.085147
0.624525 0.454924 0.085189
0.684659 0.497830 0.085229
0.732175 0.533771 0.085267
0.775787 0.565826 0.085366
0.802524 0.598712 0.085512
0.824929 0.625476 0.085650
0.844789 0.652933 0.085866
0.858985 0.681536 0.086086
0.870722 0.705518 0.086308
0.880571 0.722024 0.086638
0.889923 0.737607 0.087103
0.898810 0.752833 0.087506
0.906159 0.767695 0.087823
0.911307 0.778018 0.088577
0.916195 0.789210 0.089321
0.920840 0.802154 0.090032
0.924530 0.813748 0.090713
0.927742 0.824620 0.091365
0.066005 0.545493 0.085074
0.066064 0.543770 0.085074
0.067055 0.537833 0.085074
0.069162 0.527854 0.085074
0.073103 0.514568 0.085074
0.082594 0.494677 0.085075
0.097754 0.475095 0.085078
0.130959 0.455056 0.085082
0.182324 0.437820 0.085086
0.233241 0.425819 0.085091
0.301192 0.419498 0.085097
0.368329 0.418930 0.085104
0.436374 0.423950 0.085111
0.499012 0.434242 0.085123
0.542716 0.450175 0.085150
0.604893 0.489231 0.085189
0.674348 0.524517 0.085227
0.718953 0.554017 0.085264
0.761706 0.584739 0.085347
0.794083 0.615239 0.085490
0.817569 0.638469 0.085626
0.837467 0.666161 0.085821
0.853768 0.693664 0.086041
0.866698 0.712765 0.086249
0.876681 0.728283 0.086548
0.886179 0.743508 0.086992
0.895216 0.758419 0.087436
0.903821 0.772332 0.087671
0.909204 0.780680 0.088379
0.914196 0.793771 0.089130
0.918941 0.806442 0.089849
0.923152 0.817485 0.090537
0.926437 0.828217 0.091196
0.066075 0.604149 0.085081
0.066192 0.602601 0.085081
0.067393 0.597232 0.085082
0.069495 0.588082 0.085083
0.073513 0.575951 0.085085
0.083583 0.562051 0.085087
0.101277 0.547715 0.085089
0.135616 0.534180 0.085093
0.189139 0.522460 0.085097
0.244425 0.512363 0.085101
0.312672 0.503940 0.085106
0.381542 0.500095 0.085112
0.448410 0.500871 0.085122
0.502504 0.506130 0.085145
0.547680 0.515612 0.085169
0.591576 0.525269 0.085193
0.662937 0.549636 0.085228
0.707706 0.577516 0.085263
0.749458 0.606764 0.085338
0.786536 0.628650 0.085476
0.810209 0.654814 0.085609
0.830689 0.681530 0.085787
0.848861 0.704454 0.086004
0.862157 0.720439 0.086211
0.872933 0.735474 0.086486
0.882535 0.750276 0.086893
0.891689 0.764817 0.087338
0.900418 0.776971 0.087552
0.907108 0.786121 0.088194
0.912190 0.798965 0.088950
0.917025 0.810864 0.089674
0.921628 0.821723 0.090368
0.925106 0.832290 0.091033
0.066251 0.650004 0.085092
0.066580 0.648840 0.085093
0.067840 0.644776 0.085093
0.069823 0.637767 0.085094
0.073900 0.628460 0.085096
0.084443 0.619922 0.085098
0.103175 0.609663 0.085100
0.139344 0.595978 0.085103
0.194664 0.583575 0.085106
0.253848 0.573221 0.085110
0.322639 0.565469 0.085115
0.391108 0.560668 0.085128
0.458285 0.558988 0.085147
0.509079 0.560446 0.085167
0.553098 0.564937 0.085189
0.598294 0.572270 0.085211
0.654838 0.582204 0.085234
0.692374 0.604215 0.085265
0.738995 0.625263 0.085338
0.779327 0.648437 0.085471
0.803291 0.673487 0.085600
0.824535 0.697464 0.085764
0.843558 0.714534 0.085977
0.857632 0.729142 0.086181
0.869385 0.743628 0.086435
0.879051 0.757947 0.086810
0.888286 0.771555 0.087253
0.897108 0.779441 0.087524
0.905051 0.792264 0.088028
0.910208 0.804820 0.088785
0.915121 0.815839 0.089511
0.919802 0.826485 0.090209
0.923770 0.836860 0.090878
0.066685 0.697063 0.085103
0.067019 0.696287 0.085103
0.068378 0.693567 0.085103
0.070232 0.687596 0.085104
0.074464 0.678955 0.085106
0.085183 0.668627 0.085107
0.104747 0.657398 0.085110
0.142292 0.646082 0.085112
0.199007 0.635432 0.085116
0.261463 0.626764 0.085125
0.330911 0.620972 0.085139
0.400715 0.616830 0.085155
0.464860 0.614520 0.085172
0.517079 0.614126 0.085190
0.558263 0.615644 0.085209
0.604928 0.619001 0.085229
0.660435 0.624072 0.085251
0.689497 0.631221 0.085272
0.730177 0.647788 0.085345
0.769906 0.670711 0.085473
0.797217 0.693990 0.085597
0.819040 0.711040 0.085753
0.837901 0.724949 0.085960
0.853472 0.738876 0.086160
0.866080 0.752756 0.086397
0.875772 0.766535 0.086745
0.885052 0.777339 0.087183
0.893935 0.786672 0.087514
0.902437 0.799130 0.087899
0.908279 0.810738 0.088639
0.913255 0.821385 0.089366
0.918002 0.831790 0.090065
0.922445 0.841945 0.090736
0.067135 0.726268 0.085112
0.067428 0.725758 0.085112
0.068573 0.723964 0.085113
0.070714 0.720814 0.085114
0.075036 0.716440 0.085115
0.085762 0.711110 0.085117
0.106070 0.704413 0.085124
0.144596 0.696351 0.085132
0.202298 0.687112 0.085142
0.267350 0.677553 0.085153
0.337461 0.669439 0.085166
0.408422 0.663150 0.085180
0.470400 0.658952 0.085195
0.524090 0.657002 0.085212
0.562937 0.657364 0.085229
0.611164 0.660018 0.085248
0.663998 0.664879 0.085267
0.691604 0.671810 0.085296
0.727855 0.680649 0.085382
0.761607 0.694572 0.085482
0.791950 0.710356 0.085601
0.814064 0.723299 0.085753
0.832847 0.736413 0.085954
0.849700 0.749618 0.086148
0.862389 0.762848 0.086372
0.872728 0.774827 0.086698
0.882021 0.782464 0.087131
0.890936 0.794679 0.087506
0.899484 0.806622 0.087795
0.906425 0.817169 0.088517
0.911450 0.827516 0.089241
0.916250 0.837649 0.089938
0.920836 0.847285 0.090610
0.067552 0.751748 0.085132
0.068000 0.751305 0.085133
0.068856 0.749742 0.085134
0.071189 0.746982 0.085137
0.075601 0.743120 0.085140
0.086308 0.738360 0.085146
0.107207 0.732985 0.085152
0.146376 0.727315 0.085160
0.204700 0.721675 0.085169
0.271661 0.716371 0.085179
0.342363 0.711675 0.085191
0.413991 0.707580 0.085204
0.474826 0.704139 0.085218
0.528599 0.701879 0.085233
0.566945 0.701160 0.085249
0.616716 0.702049 0.085266
0.667265 0.704453 0.085288
0.693593 0.708078 0.085359
0.730125 0.712305 0.085440
0.760503 0.717360 0.085522
0.787424 0.724477 0.085612
0.809187 0.736555 0.085764
0.828381 0.748862 0.085958
0.846298 0.761324 0.086146
0.858920 0.773046 0.086361
0.869937 0.779919 0.086671
0.879215 0.791727 0.087096
0.888134 0.803456 0.087501
0.896702 0.814035 0.087724
0.904663 0.824218 0.088420
0.909723 0.834235 0.089138
0.914564 0.844070 0.089832
0.919195 0.851357 0.090501
0.068222 0.774844 0.085160
0.068464 0.774526 0.085160
0.069308 0.773405 0.085161
0.071657 0.771415 0.085164
0.076380 0.768479 0.085167
0.086833 0.764237 0.085172
0.108204 0.759390 0.085178
0.147738 0.754203 0.085185
0.206360 0.748953 0.085194
0.274577 0.743907 0.085203
0.345753 0.739310 0.085214
0.417994 0.735372 0.085226
0.478132 0.732264 0.085239
0.531592 0.730113 0.085253
0.570181 0.729007 0.085268
0.621371 0.728992 0.085288
0.670088 0.730079 0.085350
0.696634 0.732244 0.085423
0.732208 0.735438 0.085498
0.762290 0.739594 0.085575
0.787366 0.744630 0.085654
0.804965 0.750701 0.085785
0.824467 0.762212 0.085971
0.842165 0.773090 0.086153
0.855807 0.779292 0.086364
0.867405 0.790524 0.086664
0.876645 0.801771 0.087079
0.885544 0.812185 0.087481
0.894110 0.822084 0.087685
0.902351 0.831877 0.088349
0.908089 0.841540 0.089060
0.912958 0.849740 0.089747
0.917622 0.855144 0.090412
0.068546 0.791981 0.085185
0.068679 0.791664 0.085186
0.069741 0.790540 0.085187
0.072180 0.788541 0.085189
0.077345 0.785707 0.085193
0.087343 0.782154 0.085197
0.109097 0.778781 0.085203
0.148770 0.777198 0.085209
0.207409 0.773894 0.085217
0.276291 0.769999 0.085226
0.347790 0.765752 0.085236
0.420543 0.761853 0.085247
0.480363 0.758635 0.085259
0.533721 0.756227 0.085272
0.572593 0.754724 0.085294
0.624994 0.754188 0.085353
0.672360 0.754650 0.085418
0.701889 0.756111 0.085486
0.733990 0.758545 0.085556
0.763857 0.761908 0.085629
0.788124 0.766139 0.085727
0.805368 0.770824 0.085862
0.821412 0.775552 0.085998
0.838525 0.780765 0.086169
0.853034 0.791270 0.086379
0.865014 0.801884 0.086675
0.874310 0.811802 0.087079
0.883171 0.821293 0.087473
0.891717 0.830747 0.087666
0.899952 0.840131 0.088306
0.906557 0.848713 0.089007
0.911442 0.854271 0.089686
0.916129 0.858618 0.090345
0.068860 0.812015 0.085209
0.069162 0.811769 0.085209
0.070244 0.810896 0.085211
0.072717 0.809337 0.085213
0.078306 0.807116 0.085216
0.087841 0.804136 0.085220
0.109914 0.800469 0.085225
0.149541 0.796456 0.085232
0.207957 0.792283 0.085239
0.276984 0.788140 0.085247
0.348647 0.784208 0.085257
0.421780 0.780653 0.085267
0.481593 0.778626 0.085278
0.535015 0.777774 0.085310
0.574173 0.777181 0.085365
0.627512 0.776874 0.085423
0.674012 0.776868 0.085484
0.705619 0.777169 0.085547
0.735378 0.777774 0.085613
0.765109 0.778674 0.085690
0.788738 0.781067 0.085815
0.805845 0.785124 0.085942
0.821697 0.789862 0.086072
0.836098 0.795222 0.086202
0.850577 0.803934 0.086406
0.862443 0.813027 0.086705
0.872203 0.821994 0.087097
0.881014 0.830994 0.087481
0.889523 0.839991 0.087665
0.897736 0.848356 0.088292
0.905131 0.853874 0.088980
0.910023 0.858158 0.089650
0.914723 0.862326 0.090300
0.069367 0.829622 0.085231
0.069641 0.829407 0.085231
0.070839 0.828645 0.085233
0.073241 0.827282 0.085235
0.079261 0.825332 0.085237
0.088384 0.822857 0.085241
0.110673 0.819956 0.085246
0.150107 0.816752 0.085252
0.208100 0.813384 0.085259
0.276824 0.809998 0.085267
0.348486 0.806735 0.085276
0.421855 0.803478 0.085293
0.481911 0.800518 0.085335
0.535526 0.798094 0.085383
0.574943 0.796298 0.085435
0.628909 0.795200 0.085490
0.675009 0.794850 0.085547
0.706554 0.795276 0.085607
0.736305 0.796486 0.085669
0.765967 0.798471 0.085783
0.789163 0.801209 0.085901
0.806169 0.804662 0.086023
0.821878 0.808449 0.086146
0.836171 0.812667 0.086270
0.849189 0.817386 0.086467
0.860154 0.824280 0.086751
0.870313 0.832729 0.087132
0.879062 0.841240 0.087500
0.887525 0.848965 0.087683
0.895705 0.854138 0.088304
0.903606 0.858230 0.088979
0.908704 0.862274 0.089637
0.913408 0.866257 0.090278
0.069842 0.846353 0.085252
0.070149 0.846166 0.085252
0.071407 0.845501 0.085253
0.073750 0.844310 0.085255
0.080207 0.842600 0.085258
0.089052 0.840419 0.085261
0.111387 0.837848 0.085266
0.150513 0.834988 0.085272
0.207915 0.831956 0.085278
0.275957 0.828876 0.085293
0.347462 0.825872 0.085326
0.420915 0.823060 0.085365
0.481414 0.820549 0.085407
0.535316 0.818433 0.085453
0.574947 0.816792 0.085502
0.629208 0.815690 0.085554
0.675344 0.815175 0.085608
0.706937 0.815277 0.085665
0.736726 0.816014 0.085765
0.766373 0.817387 0.085874
0.789361 0.819387 0.085987
0.806301 0.821991 0.086102
0.821919 0.825170 0.086219
0.836130 0.828889 0.086376
0.849095 0.833105 0.086566
0.859064 0.837778 0.086854
0.868620 0.843946 0.087181
0.877303 0.850304 0.087506
0.885712 0.854983 0.087718
0.893850 0.858882 0.088342
0.901721 0.862758 0.089003
0.907484 0.866600 0.089648
0.912186 0.870396 0.090278
0.070443 0.856037 0.085271
0.070788 0.855959 0.085271
0.071982 0.855680 0.085272
0.074415 0.855179 0.085274
0.081142 0.854457 0.085277
0.089712 0.853391 0.085281
0.112067 0.852011 0.085290
0.150792 0.850465 0.085307
0.207468 0.848798 0.085334
0.274511 0.846663 0.085364
0.345711 0.844008 0.085398
0.419103 0.841413 0.085435
0.480196 0.839059 0.085475
0.534453 0.837033 0.085519
0.574239 0.835410 0.085565
0.628460 0.834254 0.085614
0.675028 0.833611 0.085666
0.706763 0.833519 0.085758
0.736619 0.833999 0.085859
0.766290 0.835061 0.085963
0.789302 0.836704 0.086070
0.806208 0.838915 0.086180
0.821793 0.841674 0.086302
0.835946 0.844954 0.086483
0.848913 0.848179 0.086709
0.858831 0.850893 0.086998
0.867937 0.853711 0.087289
0.875721 0.856471 0.087513
0.884073 0.860141 0.087779
0.892163 0.863814 0.088406
0.899997 0.867477 0.089051
0.906362 0.871118 0.089683
0.911056 0.874727 0.090300
0.071074 0.863278 0.085302
0.071391 0.863211 0.085303
0.072602 0.862970 0.085307
0.075154 0.862538 0.085315
0.082062 0.861913 0.085325
0.090449 0.861110 0.085340
0.112717 0.860153 0.085357
0.150969 0.859075 0.085379
0.206809 0.857916 0.085404
0.272593 0.856718 0.085433
0.343356 0.855525 0.085465
0.416545 0.854383 0.085501
0.478347 0.853142 0.085539
0.533005 0.851987 0.085581
0.572880 0.851039 0.085625
0.626731 0.850335 0.085673
0.674088 0.849906 0.085761
0.706039 0.849773 0.085853
0.735977 0.849954 0.085949
0.765699 0.850457 0.086048
0.788968 0.851284 0.086151
0.805867 0.852433 0.086256
0.821476 0.853894 0.086415
0.835593 0.855332 0.086589
0.848623 0.856958 0.086863
0.858504 0.858793 0.087142
0.867646 0.860822 0.087423
0.875169 0.863027 0.087528
0.882591 0.865454 0.087871
0.890631 0.868909 0.088492
0.898424 0.872364 0.089121
0.905332 0.875526 0.089739
0.910013 0.877866 0.090344
0.071667 0.870095 0.085373
0.071995 0.870037 0.085374
0.073193 0.869830 0.085378
0.075873 0.869457 0.085385
0.082964 0.868918 0.085395
0.091520 0.868224 0.085409
0.113342 0.867393 0.085426
0.151063 0.866453 0.085446
0.205979 0.865438 0.085471
0.270294 0.864383 0.085498
0.340501 0.863326 0.085529
0.413357 0.862306 0.085563
0.475950 0.861359 0.085600
0.531040 0.860520 0.085639
0.570932 0.859820 0.085690
0.624102 0.859287 0.085770
0.672561 0.858943 0.085855
0.703599 0.858806 0.085943
0.734808 0.858890 0.086035
0.764592 0.859204 0.086131
0.788350 0.859752 0.086229
0.805262 0.860535 0.086362
0.820949 0.861548 0.086525
0.835051 0.862784 0.086750
0.848211 0.864234 0.087015
0.858068 0.865886 0.087284
0.867279 0.867725 0.087507
0.874778 0.869739 0.087634
0.882122 0.871911 0.088071
0.889317 0.874228 0.088608
0.896990 0.876611 0.089213
0.904389 0.878834 0.089816
0.909055 0.880750 0.090407
0.072313 0.876008 0.085439
0.072639 0.875974 0.085440
0.073756 0.875853 0.085444
0.077066 0.875634 0.085450
0.083845 0.875317 0.085460
0.092574 0.874903 0.085473
0.113941 0.874186 0.085490
0.151087 0.873372 0.085509
0.205012 0.872488 0.085532
0.267688 0.871566 0.085559
0.337234 0.870638 0.085588
0.409640 0.869736 0.085621
0.473080 0.868894 0.085656
0.528617 0.868142 0.085713
0.568456 0.867508 0.085785
0.620653 0.867016 0.085863
0.670487 0.866689 0.085944
0.698821 0.866544 0.086029
0.733129 0.866595 0.086117
0.762979 0.866852 0.086209
0.787444 0.867319 0.086321
0.804385 0.868001 0.086474
0.820203 0.868894 0.086656
0.834306 0.869996 0.086907
