provia100f/Provia100F_Modern_Punchy.cube
TITLE "Fuji Provia 100F Modern Punchy"
# Adobe RGB in/out. REPLACES AgX. Fuji Provia 100F Modern Punchy.
LUT_3D_SIZE 5
DOMAIN_MIN 0.0 0.0 0.0
DOMAIN_MAX 1.0 1.0 1.0
0.086435 0.087824 0.082231
0.314565 0.091333 0.082229
0.920035 0.356529 0.082446
0.980047 0.768724 0.084070
0.989457 0.908347 0.087936
0.086437 0.173101 0.082231
0.177282 0.117597 0.082230
0.838623 0.421514 0.082339
0.974599 0.797988 0.083590
0.988392 0.916386 0.087246
0.089124 0.818857 0.082253
0.235544 0.757367 0.082271
0.736883 0.721714 0.082349
0.956896 0.861096 0.083033
0.985758 0.940127 0.086290
0.095951 0.952875 0.082371
0.238851 0.948608 0.082434
0.754972 0.942220 0.082655
0.945471 0.947845 0.083431
0.981593 0.963914 0.086106
0.104909 0.976709 0.082692
0.231879 0.976171 0.082775
0.708274 0.975496 0.083077
0.939322 0.976987 0.084318
0.978879 0.981367 0.086811
0.086435 0.087824 0.275099
0.329956 0.093034 0.293313
0.911649 0.337726 0.219723
0.978400 0.740005 0.209669
0.989053 0.901538 0.225683
0.086382 0.111242 0.137540
0.116905 0.094851 0.087439
0.793540 0.355105 0.118531
0.971226 0.765714 0.158780
0.987984 0.909358 0.197710
0.088444 0.765483 0.152316
0.212568 0.681648 0.117927
0.669669 0.655002 0.099139
0.950745 0.844641 0.113319
0.985269 0.936258 0.148069
0.095067 0.948676 0.128722
0.230446 0.944392 0.121045
0.732037 0.936611 0.109766
0.942086 0.944763 0.110641
0.981045 0.963353 0.129800
0.104236 0.975979 0.110744
0.229129 0.975485 0.110064
0.701355 0.974928 0.109917
0.938428 0.976600 0.115027
0.978770 0.981257 0.130437
0.086435 0.087876 0.942099
0.329956 0.096687 0.942772
0.942530 0.495829 0.941186
0.979643 0.776732 0.890092
0.988871 0.900651 0.852043
0.086411 0.184178 0.936299
0.268822 0.238987 0.913884
0.867065 0.497108 0.871518
0.972383 0.789272 0.846052
0.987734 0.906929 0.822022
0.087620 0.647473 0.816938
0.174505 0.611803 0.740449
0.560315 0.561482 0.563812
0.945146 0.831862 0.687808
0.984693 0.932364 0.732897
0.093366 0.936931 0.786788
0.212987 0.932045 0.753512
0.685261 0.924258 0.682311
0.934937 0.936206 0.633548
0.979983 0.961484 0.668492
0.102938 0.974119 0.701733
0.222184 0.973777 0.691998
0.684614 0.973592 0.666130
0.936275 0.975723 0.643000
0.978507 0.981039 0.649699
0.086435 0.089017 0.987560
0.329956 0.108799 0.987615
0.946742 0.554695 0.987811
0.983522 0.829780 0.982365
0.989340 0.913890 0.976774
0.086437 0.252400 0.987589
0.340506 0.402398 0.987644
0.926386 0.659378 0.984423
0.977778 0.835661 0.979464
0.988171 0.919208 0.970824
0.087635 0.667969 0.973624
0.195233 0.674606 0.967775
0.741704 0.753666 0.956188
0.955122 0.864806 0.952422
0.984968 0.936447 0.950565
0.092087 0.921417 0.955440
0.190438 0.917149 0.950320
0.653979 0.912477 0.937219
0.923666 0.927120 0.925764
0.979444 0.960725 0.933972
0.101688 0.971860 0.941852
0.213809 0.971705 0.939919
0.666046 0.972206 0.934805
0.933620 0.974912 0.932626
0.978257 0.980947 0.932136
0.086435 0.095445 0.991900
0.329956 0.151167 0.991901
0.946742 0.610673 0.991908
0.985564 0.870080 0.991556
0.989963 0.930044 0.989368
0.086437 0.329400 0.991901
0.340506 0.486554 0.991902
0.944846 0.797188 0.991878
0.981467 0.877027 0.991003
0.988837 0.933243 0.987988
0.088283 0.803134 0.990577
0.239420 0.813213 0.990043
0.829596 0.849895 0.988233
0.964521 0.899374 0.986544
0.985817 0.945269 0.984312
0.091693 0.918540 0.984121
0.188245 0.919391 0.983501
0.677659 0.927746 0.981915
0.938910 0.944757 0.980646
0.980257 0.963390 0.980227
0.100566 0.969332 0.981048
0.201745 0.969548 0.980701
0.651782 0.971047 0.979806
0.931340 0.974662 0.979572
0.978148 0.981163 0.979386
