provia100f/Provia100F_Classic_Normal.cube
TITLE "Fuji Provia 100F Classic Normal"
# Adobe RGB in/out. REPLACES AgX. Fuji Provia 100F Classic Normal.
LUT_3D_SIZE 9
DOMAIN_MIN 0.0 0.0 0.0
DOMAIN_MAX 1.0 1.0 1.0
0.082825 0.083895 0.090792
0.083610 0.083895 0.090792
0.105121 0.084217 0.090792
0.267669 0.087969 0.090791
0.540397 0.110042 0.090798
0.792756 0.204743 0.090832
0.911280 0.363771 0.090910
0.950384 0.550040 0.091117
0.969610 0.708038 0.091514
0.082825 0.083895 0.090792
0.083630 0.083999 0.090792
0.105505 0.085026 0.090792
0.268494 0.090386 0.090791
0.541373 0.119722 0.090799
0.793133 0.222590 0.090834
0.911366 0.389045 0.090915
0.950414 0.567794 0.091123
0.969627 0.719568 0.091525
0.082825 0.087814 0.090792
0.083730 0.088575 0.090792
0.106873 0.095541 0.090792
0.271460 0.113998 0.090791
0.544700 0.182883 0.090801
0.794485 0.309895 0.090839
0.911653 0.477582 0.090931
0.950522 0.625199 0.091144
0.969688 0.760234 0.091573
0.082771 0.141345 0.090792
0.084310 0.149103 0.090792
0.108914 0.177203 0.090791
0.276929 0.233832 0.090791
0.548974 0.334436 0.090806
0.796967 0.468983 0.090849
0.912143 0.595070 0.090960
0.950720 0.718610 0.091181
0.969801 0.816378 0.091706
0.082989 0.355248 0.090791
0.085083 0.364714 0.090791
0.112430 0.402839 0.090791
0.285134 0.472285 0.090800
0.555356 0.545736 0.090825
0.800669 0.635089 0.090862
0.912872 0.732597 0.090999
0.951016 0.813227 0.091247
0.969970 0.858024 0.091761
0.083643 0.621512 0.090793
0.086098 0.627098 0.090795
0.118842 0.647026 0.090800
0.296048 0.689662 0.090814
0.563957 0.740460 0.090846
0.805631 0.794005 0.090919
0.913852 0.837735 0.091085
0.951414 0.872125 0.091368
0.970196 0.917347 0.092072
0.084889 0.814975 0.090806
0.088077 0.818271 0.090809
0.131296 0.826182 0.090822
0.309214 0.838618 0.090843
0.574858 0.855862 0.090878
0.810586 0.877805 0.090991
0.915089 0.909075 0.091184
0.951916 0.931910 0.091566
0.970484 0.940846 0.092481
0.086549 0.906043 0.090842
0.091302 0.907831 0.090845
0.146442 0.914199 0.090854
0.325339 0.925409 0.090887
0.588119 0.931209 0.090972
0.816584 0.936651 0.091117
0.916586 0.942233 0.091345
0.952526 0.947853 0.091852
0.970833 0.954479 0.092944
0.089936 0.944607 0.090902
0.096976 0.944914 0.090911
0.170245 0.946005 0.090942
0.344537 0.947463 0.090994
0.603785 0.949415 0.091111
0.823629 0.953308 0.091275
0.918344 0.958851 0.091680
0.953244 0.963514 0.092439
0.971244 0.968619 0.093451
0.082825 0.083895 0.090828
0.083610 0.083895 0.090831
0.105121 0.084236 0.090842
0.267669 0.088013 0.090860
0.540397 0.110243 0.090935
0.792756 0.205275 0.091064
0.911280 0.364356 0.091269
0.950384 0.550456 0.091728
0.969610 0.708309 0.092756
0.082825 0.083895 0.090830
0.083630 0.084008 0.090833
0.105505 0.085049 0.090844
0.268494 0.090537 0.090861
0.541373 0.119998 0.090939
0.793133 0.222987 0.091070
0.911366 0.389643 0.091277
0.950414 0.568210 0.091730
0.969627 0.719837 0.092778
0.082825 0.087858 0.090836
0.083730 0.088616 0.090839
0.106873 0.095680 0.090849
0.271460 0.114195 0.090868
0.544700 0.183393 0.090955
0.794485 0.310702 0.091092
0.911653 0.477999 0.091305
0.950522 0.625512 0.091759
0.969688 0.760495 0.092857
0.082771 0.141731 0.090846
0.084310 0.149529 0.090849
0.108914 0.177666 0.090858
0.276929 0.234460 0.090899
0.548974 0.334883 0.090982
0.796967 0.469401 0.091132
0.912143 0.595485 0.091375
0.950720 0.718879 0.091911
0.969801 0.816563 0.092999
0.082989 0.355698 0.090859
0.085083 0.365300 0.090862
0.112430 0.403444 0.090886
0.285134 0.472703 0.090944
0.555356 0.546152 0.091035
0.800669 0.635401 0.091188
0.912872 0.732863 0.091489
0.951016 0.813413 0.092147
0.969970 0.858064 0.093206
0.083643 0.621826 0.090908
0.086098 0.627411 0.090917
0.118842 0.647336 0.090947
0.296048 0.690062 0.090999
0.563957 0.740725 0.091118
0.805631 0.794195 0.091284
0.913852 0.837839 0.091704
0.951414 0.872234 0.092467
0.970196 0.917445 0.093474
0.084889 0.815161 0.090981
0.088077 0.818456 0.090989
0.131296 0.826289 0.091026
0.309214 0.838721 0.091106
0.574858 0.855902 0.091214
0.810586 0.877912 0.091464
0.915089 0.909175 0.091922
0.951916 0.931935 0.092850
0.970484 0.940864 0.093833
0.086549 0.906144 0.091102
0.091302 0.907931 0.091114
0.146442 0.914298 0.091154
0.325339 0.925442 0.091229
0.588119 0.931242 0.091409
0.816584 0.936670 0.091727
0.916586 0.942251 0.092420
0.952526 0.947865 0.093286
0.970833 0.954498 0.094638
0.089936 0.944625 0.091256
0.096976 0.944931 0.091271
0.170245 0.946022 0.091327
0.344537 0.947474 0.091474
0.603785 0.949426 0.091725
0.823629 0.953328 0.092232
0.918344 0.958864 0.092971
0.953244 0.963526 0.093777
0.971244 0.968629 0.096041
0.082825 0.083895 0.093638
0.083610 0.083895 0.093675
0.105121 0.084305 0.093842
0.267669 0.088168 0.094286
0.540397 0.110961 0.095255
0.792756 0.207188 0.096921
0.911280 0.366462 0.099868
0.950384 0.551950 0.104284
0.969610 0.709282 0.111764
0.082825 0.083895 0.093657
0.083630 0.084040 0.093694
0.105505 0.085127 0.093873
0.268494 0.091075 0.094322
0.541373 0.121082 0.095309
0.793133 0.224602 0.096993
0.911366 0.391795 0.099982
0.950414 0.569702 0.104393
0.969627 0.720802 0.111955
0.082825 0.088016 0.093725
0.083730 0.088761 0.093771
0.106873 0.096176 0.093990
0.271460 0.114901 0.094457
0.544700 0.185228 0.095504
0.794485 0.313610 0.097251
0.911653 0.479499 0.100390
0.950522 0.626637 0.104921
0.969688 0.761433 0.112642
0.082771 0.143307 0.093917
0.084310 0.151064 0.093980
0.108914 0.179334 0.094233
0.276929 0.236735 0.094828
0.548974 0.336489 0.095870
0.796967 0.470901 0.097729
0.912143 0.596975 0.101136
0.950720 0.719844 0.106223
0.969801 0.817227 0.113904
0.082989 0.357316 0.094273
0.085083 0.367407 0.094342
0.112430 0.405619 0.094673
0.285134 0.474203 0.095372
0.555356 0.547646 0.096596
0.800669 0.636519 0.098550
0.912872 0.733820 0.102240
0.951016 0.814079 0.108165
0.969970 0.858206 0.116069
0.083643 0.622953 0.094928
0.086098 0.628535 0.095034
0.118842 0.648447 0.095410
0.296048 0.691501 0.096189
0.563957 0.741676 0.097554
0.805631 0.794878 0.100085
0.913852 0.838212 0.103708
0.951414 0.872622 0.110136
0.970196 0.917798 0.119549
0.084889 0.815826 0.095859
0.088077 0.819118 0.096001
0.131296 0.826675 0.096506
0.309214 0.839094 0.097417
0.574858 0.856047 0.099101
0.810586 0.878295 0.101997
0.915089 0.909534 0.106319
0.951916 0.932026 0.112576
0.970484 0.940929 0.123990
0.086549 0.906504 0.097367
0.091302 0.908291 0.097503
0.146442 0.914653 0.098036
0.325339 0.925563 0.099311
0.588119 0.931357 0.101459
0.816584 0.936739 0.104274
0.916586 0.942315 0.109937
0.952526 0.947905 0.117088
0.970833 0.954568 0.129490
0.089936 0.944686 0.099677
0.096976 0.944993 0.099896
0.170245 0.946083 0.100677
0.344537 0.947515 0.102095
0.603785 0.949465 0.104172
0.823629 0.953399 0.108843
0.918344 0.958911 0.113655
0.953244 0.963570 0.123521
0.971244 0.968665 0.137790
0.082825 0.083895 0.196750
0.083610 0.083895 0.197696
0.105121 0.084424 0.201109
0.267669 0.088447 0.207457
0.540397 0.112276 0.217115
0.792756 0.210144 0.230472
0.911280 0.370346 0.248835
0.950384 0.554698 0.273175
0.969610 0.711071 0.303181
0.082825 0.083933 0.197243
0.083630 0.084094 0.198190
0.105505 0.085331 0.201608
0.268494 0.092053 0.207963
0.541373 0.123079 0.217631
0.793133 0.228226 0.231001
0.911366 0.395763 0.249434
0.950414 0.572448 0.273802
0.969627 0.722576 0.303790
0.082825 0.088299 0.199021
0.083730 0.089024 0.199971
0.106873 0.097080 0.203402
0.271460 0.116522 0.209782
0.544700 0.188622 0.219487
0.794485 0.318999 0.232906
0.911653 0.482257 0.251590
0.950522 0.628704 0.276058
0.969688 0.763159 0.305980
0.082771 0.146288 0.202310
0.084310 0.153899 0.203267
0.108914 0.182604 0.206723
0.276929 0.240946 0.213148
0.548974 0.339447 0.222920
0.796967 0.473661 0.236430
0.912143 0.599717 0.255581
0.950720 0.721620 0.280233
0.969801 0.818447 0.310029
0.082989 0.360840 0.207274
0.085083 0.371294 0.208242
0.112430 0.409632 0.211734
0.285134 0.476963 0.218226
0.555356 0.550394 0.228099
0.800669 0.638575 0.242028
0.912872 0.735578 0.261609
0.951016 0.815304 0.286535
0.969970 0.858940 0.316129
0.083643 0.625025 0.214066
0.086098 0.630600 0.215048
0.118842 0.650490 0.218589
0.296048 0.694147 0.225173
0.563957 0.743425 0.235181
0.805631 0.796133 0.249978
0.913852 0.838898 0.269862
0.951414 0.873335 0.295160
0.970196 0.918445 0.324455
0.084889 0.817048 0.222844
0.088077 0.820336 0.223842
0.131296 0.827383 0.227447
0.309214 0.839777 0.234145
0.574858 0.856314 0.244851
0.810586 0.879000 0.260269
0.915089 0.910193 0.280540
0.951916 0.932194 0.305769
0.970484 0.941048 0.335185
0.086549 0.907167 0.233777
0.091302 0.908951 0.234797
0.146442 0.915304 0.238478
0.325339 0.925786 0.245935
0.588119 0.931569 0.257325
0.816584 0.936865 0.273115
0.916586 0.942432 0.293859
0.952526 0.947979 0.318560
0.970833 0.954697 0.348503
0.089936 0.944800 0.247839
0.096976 0.945106 0.248983
0.170245 0.946195 0.253117
0.344537 0.947589 0.260810
0.603785 0.949536 0.272527
0.823629 0.953529 0.288757
0.918344 0.958997 0.309226
0.953244 0.963650 0.334047
0.971244 0.968732 0.364613
0.082825 0.083895 0.534368
0.083610 0.083895 0.535126
0.105121 0.084588 0.537849
0.267669 0.088850 0.542859
0.540397 0.114231 0.550354
0.792756 0.214038 0.560479
0.911280 0.376181 0.573356
0.950384 0.558808 0.589085
0.969610 0.713742 0.607755
0.082825 0.084028 0.534764
0.083630 0.084212 0.535522
0.105505 0.085698 0.538245
0.268494 0.093489 0.543255
0.541373 0.126601 0.550749
0.793133 0.233689 0.560875
0.911366 0.401724 0.573752
0.950414 0.576554 0.589481
0.969627 0.725226 0.608150
0.082825 0.088708 0.536186
0.083730 0.089526 0.536944
0.106873 0.098409 0.539667
0.271460 0.119248 0.544677
0.544700 0.193742 0.552171
0.794485 0.324145 0.562297
0.911653 0.486383 0.575173
0.950522 0.631793 0.590902
0.969688 0.765539 0.609571
0.082771 0.150496 0.538802
0.084310 0.158169 0.539560
0.108914 0.187662 0.542283
0.276929 0.247309 0.547293
0.548974 0.343878 0.554787
0.796967 0.477789 0.564912
0.912143 0.603818 0.577789
0.950720 0.724271 0.593517
0.969801 0.820269 0.612185
0.082989 0.366627 0.542716
0.085083 0.377134 0.543474
0.112430 0.415659 0.546197
0.285134 0.481090 0.551206
0.555356 0.554505 0.558700
0.800669 0.641647 0.568825
0.912872 0.738204 0.581700
0.951016 0.817133 0.597428
0.969970 0.860040 0.615778
0.083643 0.628119 0.548004
0.086098 0.633685 0.548762
0.118842 0.653543 0.551485
0.296048 0.698106 0.556494
0.563957 0.746036 0.563987
0.805631 0.798006 0.574111
0.913852 0.839921 0.586986
0.951414 0.874400 0.602713
0.970196 0.919412 0.618191
0.084889 0.818873 0.554729
0.088077 0.821537 0.555487
0.131296 0.828441 0.558210
0.309214 0.840798 0.563219
0.574858 0.856712 0.570711
0.810586 0.880052 0.580834
0.915089 0.911177 0.593708
0.951916 0.932443 0.609434
0.970484 0.941226 0.621245
0.086549 0.908158 0.562945
0.091302 0.909938 0.563703
0.146442 0.916278 0.566425
0.325339 0.926117 0.571433
0.588119 0.931826 0.578925
0.816584 0.937053 0.589048
0.916586 0.942607 0.601920
0.952526 0.948089 0.616486
0.970833 0.954889 0.624951
0.089936 0.944970 0.572697
0.096976 0.945275 0.573455
0.170245 0.946360 0.576177
0.344537 0.947701 0.581184
0.603785 0.949644 0.588675
0.823629 0.953724 0.598797
0.918344 0.959125 0.611668
0.953244 0.963771 0.620924
0.971244 0.968831 0.633360
0.082825 0.083895 0.781723
0.083610 0.083916 0.782017
0.105121 0.084835 0.783074
0.267669 0.089431 0.785013
0.540397 0.117444 0.787901
0.792756 0.219316 0.791783
0.911280 0.384113 0.796683
0.950384 0.564360 0.802617
0.969610 0.717344 0.809586
0.082825 0.084135 0.781877
0.083630 0.084458 0.782171
0.105505 0.086159 0.783227
0.268494 0.095378 0.785166
0.541373 0.131643 0.788053
0.793133 0.242163 0.791934
0.911366 0.409824 0.796833
0.950414 0.582102 0.802765
0.969627 0.728799 0.809733
0.082825 0.089234 0.782429
0.083730 0.091289 0.782723
0.106873 0.100019 0.783778
0.271460 0.123212 0.785715
0.544700 0.200741 0.788600
0.794485 0.330100 0.792477
0.911653 0.491957 0.797372
0.950522 0.635957 0.803298
0.969688 0.768697 0.810260
0.082771 0.156236 0.783443
0.084310 0.163994 0.783737
0.108914 0.194580 0.784790
0.276929 0.256026 0.786723
0.548974 0.349877 0.789604
0.796967 0.483366 0.793474
0.912143 0.608427 0.798361
0.950720 0.727847 0.804278
0.969801 0.821875 0.811229
0.082989 0.374493 0.784957
0.085083 0.385072 0.785250
0.112430 0.423848 0.786301
0.285134 0.486665 0.788229
0.555356 0.560059 0.791102
0.800669 0.645790 0.794963
0.912872 0.741744 0.799838
0.951016 0.819598 0.805741
0.969970 0.861522 0.812675
0.083643 0.632292 0.786997
0.086098 0.637846 0.787289
0.118842 0.657659 0.788336
0.296048 0.702389 0.790258
0.563957 0.749558 0.793121
0.805631 0.800530 0.796969
0.913852 0.841299 0.801828
0.951414 0.875836 0.807712
0.970196 0.920716 0.814624
0.084889 0.821050 0.789582
0.088077 0.822988 0.789872
0.131296 0.829864 0.790915
0.309214 0.842172 0.792828
0.574858 0.857247 0.795680
0.810586 0.881470 0.799511
0.915089 0.912503 0.804350
0.951916 0.932780 0.810210
0.970484 0.941467 0.817094
0.086549 0.909492 0.792724
0.091302 0.911268 0.793013
0.146442 0.917590 0.794050
0.325339 0.926564 0.795954
0.588119 0.932164 0.798791
0.816584 0.937307 0.802603
0.916586 0.942843 0.807417
0.952526 0.948238 0.813247
0.970833 0.955149 0.820098
0.089936 0.945199 0.796433
0.096976 0.945503 0.796721
0.170245 0.946514 0.797751
0.344537 0.947850 0.799643
0.603785 0.949788 0.802463
0.823629 0.953986 0.806252
0.918344 0.959298 0.811038
0.953244 0.963933 0.816834
0.971244 0.968966 0.823645
0.082825 0.083907 0.885364
0.083610 0.084074 0.885485
0.105121 0.085235 0.885922
0.267669 0.091689 0.886723
0.540397 0.122332 0.887917
0.792756 0.226868 0.889523
0.911280 0.394277 0.891551
0.950384 0.571420 0.894009
0.969610 0.721912 0.896898
0.082825 0.084443 0.885427
0.083630 0.084730 0.885549
0.105505 0.086875 0.885985
0.268494 0.097704 0.886786
0.541373 0.138122 0.887980
0.793133 0.253170 0.889585
0.911366 0.420201 0.891613
0.950414 0.589156 0.894070
0.969627 0.733330 0.896959
0.082825 0.091165 0.885655
0.083730 0.093766 0.885777
0.106873 0.102228 0.886213
0.271460 0.129442 0.887013
0.544700 0.209448 0.888206
0.794485 0.337694 0.889810
0.911653 0.499044 0.891836
0.950522 0.641241 0.894291
0.969688 0.772495 0.897178
0.082771 0.163629 0.886074
0.084310 0.171491 0.886196
0.108914 0.203512 0.886631
0.276929 0.266028 0.887430
0.548974 0.357525 0.888621
0.796967 0.490456 0.890223
0.912143 0.613791 0.892246
0.950720 0.732381 0.894697
0.969801 0.823719 0.897580
0.082989 0.384575 0.886700
0.085083 0.395244 0.886821
0.112430 0.434337 0.887255
0.285134 0.493754 0.888053
0.555356 0.567120 0.889241
0.800669 0.651046 0.890839
0.912872 0.746235 0.892858
0.951016 0.821874 0.895304
0.969970 0.863399 0.898180
0.083643 0.637586 0.887543
0.086098 0.643124 0.887664
0.118842 0.663061 0.888097
0.296048 0.707006 0.888892
0.563957 0.754025 0.890077
0.805631 0.803728 0.891670
0.913852 0.843043 0.893682
0.951414 0.877655 0.896121
0.970196 0.922369 0.898988
0.084889 0.822898 0.888612
0.088077 0.824826 0.888732
0.131296 0.831666 0.889164
0.309214 0.843913 0.889955
0.574858 0.857924 0.891136
0.810586 0.883267 0.892722
0.915089 0.914184 0.894727
0.951916 0.933207 0.897157
0.970484 0.941771 0.900014
0.086549 0.911185 0.889912
0.091302 0.912953 0.890032
0.146442 0.919254 0.890461
0.325339 0.927130 0.891249
0.588119 0.932593 0.892424
0.816584 0.937628 0.894003
0.916586 0.943142 0.895999
0.952526 0.948426 0.898417
0.970833 0.955478 0.901261
0.089936 0.945489 0.891448
0.096976 0.945792 0.891566
0.170245 0.946709 0.891993
0.344537 0.948040 0.892777
0.603785 0.949971 0.893945
0.823629 0.954319 0.895516
0.918344 0.959518 0.897500
0.953244 0.964139 0.899906
0.971244 0.969136 0.902734
0.082825 0.084098 0.944335
0.083610 0.084371 0.944383
0.105121 0.085992 0.944553
0.267669 0.094683 0.944865
0.540397 0.129765 0.945331
0.792756 0.238992 0.945959
0.911280 0.406810 0.946752
0.950384 0.580042 0.947715
0.969610 0.727473 0.948848
0.082825 0.084802 0.944360
0.083630 0.085213 0.944407
0.105505 0.087841 0.944578
0.268494 0.100301 0.944890
0.541373 0.146785 0.945356
0.793133 0.265752 0.945983
0.911366 0.432991 0.946776
0.950414 0.597770 0.947739
0.969627 0.738846 0.948872
0.082825 0.094184 0.944449
0.083730 0.096666 0.944496
0.106873 0.105516 0.944666
0.271460 0.137336 0.944979
0.544700 0.217632 0.945444
0.794485 0.347000 0.946071
0.911653 0.507698 0.946864
0.950522 0.647676 0.947825
0.969688 0.776543 0.948958
0.082771 0.172795 0.944612
0.084310 0.181060 0.944660
0.108914 0.212994 0.944829
0.276929 0.275815 0.945141
0.548974 0.369403 0.945606
0.796967 0.499114 0.946232
0.912143 0.620323 0.947024
0.950720 0.737901 0.947985
0.969801 0.825958 0.949116
0.082989 0.397009 0.944856
0.085083 0.407787 0.944904
0.112430 0.447263 0.945073
0.285134 0.502410 0.945384
0.555356 0.575744 0.945849
0.800669 0.657447 0.946473
0.912872 0.751702 0.947264
0.951016 0.824125 0.948222
0.969970 0.865682 0.949352
0.083643 0.644034 0.945186
0.086098 0.649552 0.945233
0.118842 0.671384 0.945402
0.296048 0.712626 0.945712
0.563957 0.759463 0.946175
0.805631 0.807619 0.946798
0.913852 0.845163 0.947587
0.951414 0.879868 0.948543
0.970196 0.924380 0.949670
0.084889 0.825143 0.945603
0.088077 0.827058 0.945650
0.131296 0.833855 0.945818
0.309214 0.846027 0.946128
0.574858 0.859723 0.946589
0.810586 0.885452 0.947211
0.915089 0.916231 0.947996
0.951916 0.933725 0.948950
0.970484 0.942141 0.950073
0.086549 0.913244 0.946111
0.091302 0.915005 0.946158
0.146442 0.921278 0.946326
0.325339 0.927817 0.946634
0.588119 0.933115 0.947094
0.816584 0.938019 0.947712
0.916586 0.943506 0.948495
0.952526 0.948656 0.949445
0.970833 0.955879 0.950564
0.089936 0.945842 0.946712
0.096976 0.946144 0.946758
0.170245 0.946946 0.946925
0.344537 0.948272 0.947232
0.603785 0.950194 0.947690
0.823629 0.954724 0.948306
0.918344 0.959785 0.949085
0.953244 0.964389 0.950030
0.971244 0.969344 0.951144
0.082825 0.084489 0.971860
0.083610 0.084796 0.971884
0.105121 0.087006 0.971972
0.267669 0.098065 0.972133
0.540397 0.139154 0.972374
0.792756 0.254934 0.972699
0.911280 0.421852 0.973110
0.950384 0.590273 0.973438
0.969610 0.734046 0.973638
0.082825 0.085474 0.971872
0.083630 0.086105 0.971897
0.105505 0.088876 0.971985
0.268494 0.103573 0.972146
0.541373 0.157348 0.972387
0.793133 0.277377 0.972712
0.911366 0.448334 0.973123
0.950414 0.607384 0.973442
0.969627 0.745368 0.973642
0.082825 0.097591 0.971918
0.083730 0.099803 0.971943
0.106873 0.109827 0.972031
0.271460 0.147564 0.972192
0.544700 0.228733 0.972433
0.794485 0.358087 0.972757
0.911653 0.517966 0.973168
0.950522 0.655286 0.973457
0.969688 0.781320 0.973657
0.082771 0.184533 0.972003
0.084310 0.193727 0.972027
0.108914 0.222738 0.972115
0.276929 0.287535 0.972276
0.548974 0.383990 0.972517
0.796967 0.509387 0.972841
0.912143 0.628047 0.973251
0.950720 0.744427 0.973485
0.969801 0.828598 0.973685
0.082989 0.411935 0.972129
0.085083 0.422841 0.972153
0.112430 0.462339 0.972241
0.285134 0.512682 0.972402
0.555356 0.585977 0.972642
0.800669 0.665853 0.972966
0.912872 0.758167 0.973358
0.951016 0.826779 0.973527
0.969970 0.868378 0.973727
0.083643 0.651659 0.972299
0.086098 0.657155 0.972323
0.118842 0.681259 0.972411
0.296048 0.719269 0.972571
0.563957 0.765684 0.972811
0.805631 0.812213 0.973134
0.913852 0.847663 0.973415
0.951414 0.882481 0.973584
0.970196 0.925779 0.973783
0.084889 0.827788 0.972515
0.088077 0.829690 0.972539
0.131296 0.836436 0.972626
0.309214 0.848521 0.972787
0.574858 0.862454 0.973026
0.810586 0.888034 0.973348
0.915089 0.918649 0.973487
0.951916 0.934337 0.973656
0.970484 0.942579 0.973854
0.086549 0.915677 0.972778
0.091302 0.917429 0.972802
0.146442 0.923671 0.972889
0.325339 0.928629 0.973049
0.588119 0.933731 0.973287
0.816584 0.938480 0.973437
0.916586 0.943935 0.973575
0.952526 0.948927 0.973743
0.970833 0.956352 0.973941
0.089936 0.946259 0.973089
0.096976 0.946495 0.973113
0.170245 0.947226 0.973200
0.344537 0.948545 0.973352
0.603785 0.950480 0.973433
0.823629 0.955203 0.973542
0.918344 0.960101 0.973680
0.953244 0.964685 0.973847
0.971244 0.969590 0.974044
