provia100f/Provia100F_Modern_Punchy.cube
TITLE "Fuji Provia 100F Modern Punchy"
# Adobe RGB in/out. REPLACES AgX. Fuji Provia 100F Modern Punchy.
LUT_3D_SIZE 33
DOMAIN_MIN 0.0 0.0 0.0
DOMAIN_MAX 1.0 1.0 1.0
0.086435 0.087824 0.082231
0.086435 0.087824 0.082231
0.086598 0.087824 0.082231
0.089058 0.087824 0.082231
0.096065 0.087824 0.082231
0.116532 0.087971 0.082231
0.169070 0.088417 0.082231
0.238327 0.089655 0.082230
0.314565 0.091333 0.082229
0.418894 0.096080 0.082229
0.536027 0.103988 0.082241
0.636372 0.119571 0.082252
0.739576 0.150229 0.082275
0.807584 0.189204 0.082305
0.861679 0.241081 0.082332
0.897152 0.296862 0.082358
0.920035 0.356529 0.082446
0.937165 0.431653 0.082536
0.948401 0.495389 0.082635
0.958776 0.545266 0.082774
0.964414 0.596369 0.082904
0.969659 0.634917 0.083058
0.974625 0.672937 0.083347
0.977550 0.720579 0.083775
0.980047 0.768724 0.084070
0.982417 0.804402 0.084426
0.984598 0.823119 0.084937
0.985703 0.841297 0.085431
0.986598 0.858953 0.085903
0.987364 0.874749 0.086355
0.988095 0.883307 0.086787
0.988791 0.896032 0.087306
0.989457 0.908347 0.087936
0.086435 0.087824 0.082231
0.086435 0.087824 0.082231
0.086437 0.087824 0.082231
0.088097 0.087824 0.082231
0.094091 0.087824 0.082231
0.112427 0.087972 0.082231
0.158745 0.088413 0.082231
0.231739 0.089651 0.082230
0.306827 0.091339 0.082229
0.408574 0.096098 0.082229
0.526742 0.104031 0.082240
0.628373 0.119694 0.082251
0.734059 0.150438 0.082274
0.804595 0.189445 0.082304
0.859877 0.241472 0.082331
0.895770 0.297394 0.082356
0.919276 0.356999 0.082443
0.936733 0.432104 0.082533
0.948018 0.495688 0.082631
0.958536 0.545569 0.082771
0.964244 0.596675 0.082901
0.969507 0.635133 0.083054
0.974488 0.673220 0.083338
0.977481 0.720867 0.083767
0.979985 0.769017 0.084069
0.982361 0.804518 0.084418
0.984572 0.823233 0.084928
0.985678 0.841408 0.085423
0.986582 0.859062 0.085895
0.987349 0.874822 0.086348
0.988080 0.883390 0.086781
0.988778 0.896113 0.087299
0.989445 0.908426 0.087927
0.086435 0.087824 0.082231
0.086435 0.087824 0.082231
0.086367 0.087824 0.082231
0.087286 0.087824 0.082231
0.091151 0.087826 0.082231
0.102509 0.087977 0.082231
0.136563 0.088407 0.082231
0.210635 0.089655 0.082230
0.282492 0.091388 0.082230
0.374230 0.096185 0.082229
0.507455 0.104214 0.082238
0.608714 0.120185 0.082250
0.715216 0.151248 0.082269
0.790445 0.190358 0.082300
0.853588 0.242935 0.082328
0.890924 0.299370 0.082354
0.916231 0.358733 0.082433
0.935206 0.433760 0.082525
0.946662 0.496778 0.082617
0.957430 0.546671 0.082759
0.963639 0.597787 0.082891
0.968965 0.635916 0.083039
0.974001 0.674247 0.083304
0.977236 0.721911 0.083737
0.979763 0.770077 0.084065
0.982159 0.804936 0.084388
0.984436 0.823642 0.084897
0.985592 0.841809 0.085394
0.986521 0.859454 0.085870
0.987294 0.875087 0.086324
0.988030 0.883687 0.086759
0.988732 0.896403 0.087272
0.989402 0.908710 0.087897
0.086435 0.087824 0.082231
0.086435 0.087824 0.082231
0.086428 0.087824 0.082231
0.087130 0.087824 0.082231
0.088881 0.087852 0.082231
0.096427 0.088004 0.082231
0.117990 0.088443 0.082231
0.174527 0.089743 0.082231
0.249418 0.091597 0.082230
0.337962 0.096416 0.082229
0.461847 0.104724 0.082235
0.577019 0.121284 0.082247
0.684139 0.152966 0.082262
0.771269 0.192228 0.082294
0.838663 0.245150 0.082323
0.882469 0.302164 0.082349
0.910795 0.362103 0.082416
0.931336 0.436946 0.082510
0.944247 0.498856 0.082596
0.955264 0.548759 0.082738
0.962554 0.599893 0.082872
0.967991 0.637392 0.083012
0.973124 0.676177 0.083245
0.976792 0.723867 0.083684
0.979361 0.772058 0.084058
0.981794 0.805716 0.084334
0.984103 0.824404 0.084841
0.985436 0.842554 0.085343
0.986412 0.860183 0.085823
0.987193 0.875578 0.086281
0.987937 0.884237 0.086720
0.988647 0.896941 0.087223
0.989323 0.909236 0.087842
0.086435 0.088076 0.082231
0.086435 0.088069 0.082231
0.086514 0.088047 0.082231
0.087517 0.088019 0.082231
0.089224 0.088014 0.082231
0.093500 0.088109 0.082231
0.107327 0.088711 0.082231
0.145997 0.090039 0.082231
0.222060 0.092154 0.082230
0.299240 0.096928 0.082229
0.405961 0.106050 0.082231
0.532924 0.123376 0.082244
0.642447 0.156072 0.082255
0.750083 0.195472 0.082285
0.816963 0.248634 0.082315
0.869649 0.306147 0.082343
0.903217 0.367575 0.082392
0.925417 0.442042 0.082489
0.940818 0.502136 0.082578
0.952170 0.552029 0.082708
0.960998 0.603186 0.082845
0.966589 0.639684 0.082974
0.971856 0.679161 0.083166
0.976150 0.726880 0.083607
0.978777 0.775100 0.084030
0.981263 0.806908 0.084256
0.983618 0.825565 0.084760
0.985207 0.843686 0.085269
0.986251 0.861289 0.085755
0.987046 0.876323 0.086218
0.987802 0.885071 0.086662
0.988521 0.897754 0.087152
0.989208 0.910029 0.087762
0.086435 0.090175 0.082231
0.086392 0.090112 0.082231
0.086783 0.089886 0.082231
0.088219 0.089486 0.082231
0.091170 0.089101 0.082231
0.095022 0.089003 0.082231
0.102902 0.089294 0.082231
0.128651 0.090641 0.082231
0.192032 0.093469 0.082230
0.265252 0.098701 0.082229
0.355722 0.108587 0.082229
0.480226 0.128654 0.082240
0.596560 0.161323 0.082251
0.706603 0.200664 0.082276
0.783336 0.254051 0.082307
0.853515 0.312201 0.082335
0.892170 0.375773 0.082365
0.917920 0.449543 0.082463
0.936508 0.506882 0.082554
0.948251 0.556719 0.082670
0.958979 0.606685 0.082811
0.964792 0.642936 0.082943
0.970224 0.683375 0.083122
0.975318 0.731113 0.083509
0.978020 0.779353 0.083941
0.980571 0.808564 0.084155
0.982984 0.827172 0.084655
0.984907 0.845250 0.085173
0.986025 0.862812 0.085666
0.986852 0.877000 0.086137
0.987623 0.886214 0.086587
0.988356 0.898868 0.087059
0.989055 0.911116 0.087657
0.086415 0.096953 0.082231
0.086378 0.097133 0.082231
0.087264 0.096394 0.082231
0.089094 0.094599 0.082231
0.092525 0.092485 0.082231
0.098125 0.091469 0.082231
0.106441 0.091332 0.082231
0.121904 0.092037 0.082231
0.173958 0.095747 0.082230
0.241797 0.101942 0.082230
0.321353 0.112708 0.082229
0.435065 0.136401 0.082237
0.556205 0.169630 0.082249
0.662983 0.210019 0.082267
0.762175 0.262043 0.082298
0.828466 0.320961 0.082327
0.877568 0.387499 0.082353
0.908221 0.460074 0.082434
0.929801 0.513418 0.082528
0.943671 0.563159 0.082627
0.955079 0.611176 0.082773
0.962657 0.647322 0.082908
0.968273 0.689029 0.083071
0.973556 0.736757 0.083394
0.977105 0.784996 0.083835
0.979732 0.810743 0.084079
0.982213 0.829281 0.084530
0.984542 0.847294 0.085057
0.985688 0.864798 0.085559
0.986614 0.877545 0.086038
0.987403 0.887697 0.086495
0.988153 0.900310 0.086945
0.988866 0.912520 0.087529
0.086371 0.116716 0.082231
0.086472 0.117402 0.082231
0.087489 0.116328 0.082231
0.089640 0.109364 0.082231
0.094000 0.103798 0.082231
0.101046 0.100738 0.082231
0.112842 0.099116 0.082231
0.129449 0.099115 0.082230
0.165592 0.100577 0.082230
0.227049 0.107453 0.082230
0.295313 0.121443 0.082229
0.387332 0.148147 0.082235
0.511591 0.181872 0.082246
0.616261 0.225862 0.082258
0.725051 0.273346 0.082290
0.801916 0.333170 0.082319
0.860059 0.402712 0.082346
0.897594 0.473812 0.082405
0.921354 0.522138 0.082501
0.938627 0.571735 0.082590
0.950417 0.617079 0.082731
0.960258 0.653042 0.082869
0.966065 0.696366 0.083015
0.971522 0.744036 0.083266
0.976056 0.792087 0.083717
0.978765 0.813511 0.084064
0.981321 0.831948 0.084399
0.983737 0.849871 0.084926
0.985296 0.867294 0.085437
0.986337 0.878227 0.085925
0.987146 0.889550 0.086390
0.987914 0.902108 0.086834
0.988645 0.914267 0.087383
0.086437 0.173101 0.082231
0.086562 0.174199 0.082231
0.087574 0.169260 0.082231
0.090530 0.154387 0.082231
0.095602 0.139253 0.082231
0.103306 0.127273 0.082230
0.118223 0.119916 0.082230
0.141190 0.117086 0.082230
0.177282 0.117597 0.082230
0.222026 0.121135 0.082229
0.276688 0.138123 0.082229
0.356973 0.165505 0.082234
0.472000 0.198944 0.082245
0.581284 0.246810 0.082255
0.685205 0.297651 0.082283
0.771141 0.351029 0.082312
0.838623 0.421514 0.082339
0.882904 0.485971 0.082376
0.911638 0.533561 0.082474
0.932627 0.582872 0.082564
0.945465 0.624644 0.082688
0.956879 0.660317 0.082829
0.963671 0.705664 0.082962
0.969300 0.753202 0.083153
0.974599 0.797988 0.083590
0.977696 0.816940 0.084025
0.980330 0.835239 0.084263
0.982817 0.853039 0.084782
0.984855 0.870352 0.085303
0.986003 0.879058 0.085800
0.986855 0.891807 0.086273
0.987644 0.904293 0.086725
0.988392 0.916386 0.087246
0.086548 0.261458 0.082230
0.086805 0.259542 0.082230
0.087704 0.249061 0.082230
0.091158 0.228908 0.082230
0.096820 0.204368 0.082230
0.106221 0.188060 0.082230
0.121946 0.173982 0.082230
0.150254 0.165365 0.082230
0.189046 0.161930 0.082229
0.231548 0.163506 0.082229
0.273030 0.169696 0.082229
0.337290 0.189642 0.082234
0.443124 0.226780 0.082244
0.552168 0.267896 0.082253
0.650630 0.320856 0.082278
0.749690 0.379273 0.082306
0.814343 0.446134 0.082333
0.867166 0.501187 0.082359
0.901665 0.548187 0.082449
0.924336 0.597024 0.082540
0.940401 0.634132 0.082646
0.952098 0.670629 0.082790
0.961166 0.717221 0.082925
0.966956 0.764530 0.083098
0.972407 0.802509 0.083460
0.976551 0.821105 0.083903
0.979262 0.839220 0.084122
0.981821 0.856858 0.084631
0.984240 0.873318 0.085162
0.985556 0.881712 0.085667
0.986536 0.894501 0.086149
0.987346 0.906895 0.086608
0.988114 0.918905 0.087099
0.086747 0.361812 0.082230
0.087179 0.357234 0.082230
0.088115 0.342680 0.082230
0.091440 0.324152 0.082230
0.097891 0.302222 0.082230
0.109177 0.272093 0.082229
0.126453 0.254895 0.082229
0.160380 0.241403 0.082229
0.200898 0.230411 0.082229
0.240867 0.226804 0.082229
0.284334 0.230237 0.082232
0.336258 0.240284 0.082237
0.414663 0.259549 0.082244
0.518585 0.305276 0.082253
0.615524 0.350507 0.082275
0.715987 0.413418 0.082303
0.785772 0.476407 0.082328
0.851918 0.520348 0.082353
0.889707 0.566511 0.082427
0.915855 0.611403 0.082519
0.935392 0.645802 0.082608
0.947309 0.685182 0.082753
0.958486 0.731353 0.082889
0.964554 0.778310 0.083044
0.970141 0.807758 0.083333
0.975358 0.826083 0.083782
0.978142 0.843961 0.084073
0.980770 0.861391 0.084478
0.983254 0.876314 0.085017
0.985079 0.885008 0.085530
0.986195 0.897670 0.086019
0.987026 0.909949 0.086486
0.987814 0.921854 0.086945
0.087164 0.479758 0.082229
0.087468 0.477169 0.082229
0.088576 0.465158 0.082229
0.091832 0.442482 0.082229
0.098856 0.414700 0.082229
0.111498 0.384327 0.082229
0.130938 0.354196 0.082229
0.169055 0.333193 0.082229
0.214073 0.319600 0.082230
0.249377 0.311837 0.082234
0.295348 0.309978 0.082238
0.347212 0.313813 0.082242
0.417151 0.322992 0.082247
0.505038 0.341777 0.082253
0.592431 0.397220 0.082275
0.688039 0.453955 0.082301
0.768905 0.501248 0.082325
0.831993 0.543921 0.082349
0.877376 0.588994 0.082410
0.907085 0.626359 0.082501
0.928357 0.659890 0.082586
0.942643 0.702786 0.082720
0.954075 0.748374 0.082857
0.962155 0.794455 0.082993
0.967859 0.813959 0.083212
0.973247 0.831945 0.083665
0.976995 0.849527 0.084058
0.979687 0.866697 0.084345
0.982232 0.878008 0.084873
0.984583 0.888843 0.085393
0.985759 0.901347 0.085889
0.986690 0.913484 0.086363
0.987498 0.925261 0.086815
0.087473 0.560292 0.082229
0.087583 0.557878 0.082229
0.089022 0.549580 0.082229
0.092458 0.535707 0.082229
0.099696 0.517840 0.082229
0.113358 0.498122 0.082230
0.135239 0.478697 0.082232
0.175162 0.454123 0.082234
0.220627 0.432391 0.082237
0.257718 0.417396 0.082240
0.305475 0.409542 0.082244
0.357887 0.408839 0.082248
0.431699 0.415070 0.082252
0.508280 0.427909 0.082259
0.574308 0.447946 0.082276
0.665421 0.492720 0.082301
0.755313 0.531090 0.082324
0.814363 0.572278 0.082347
0.864786 0.612362 0.082399
0.899047 0.644118 0.082487
0.921379 0.680082 0.082572
0.938211 0.723755 0.082692
0.949746 0.768587 0.082828
0.959816 0.803277 0.082957
0.965610 0.821182 0.083142
0.971093 0.838757 0.083557
0.975845 0.855980 0.083990
0.978593 0.872495 0.084219
0.981194 0.880587 0.084735
0.983657 0.893252 0.085260
0.985279 0.905567 0.085761
0.986342 0.917533 0.086240
0.987170 0.928194 0.086698
0.087604 0.631802 0.082234
0.087821 0.630253 0.082234
0.089452 0.624877 0.082234
0.093064 0.615712 0.082235
0.100457 0.603428 0.082236
0.114892 0.583636 0.082237
0.139802 0.563410 0.082239
0.179972 0.544490 0.082241
0.225778 0.528249 0.082243
0.265462 0.515655 0.082246
0.314565 0.507306 0.082249
0.367984 0.503494 0.082253
0.446238 0.504263 0.082259
0.513549 0.509477 0.082273
0.581853 0.518874 0.082288
0.649846 0.532130 0.082303
0.734846 0.566109 0.082325
0.799411 0.605121 0.082347
0.853794 0.634419 0.082393
0.889288 0.664805 0.082479
0.914392 0.705755 0.082561
0.933810 0.748365 0.082671
0.945669 0.792115 0.082806
0.956703 0.812131 0.082934
0.963438 0.829483 0.083104
0.968993 0.846574 0.083461
0.974261 0.863371 0.083894
0.977509 0.876993 0.084103
0.980157 0.885855 0.084605
0.982668 0.898269 0.085134
0.984793 0.910359 0.085639
0.985958 0.922124 0.086122
0.986835 0.930717 0.086585
0.087931 0.698169 0.082241
0.088418 0.696336 0.082241
0.090063 0.689953 0.082241
0.093661 0.678986 0.082242
0.101177 0.664510 0.082243
0.116228 0.651319 0.082244
0.142257 0.637320 0.082245
0.183797 0.623622 0.082247
0.229905 0.611196 0.082249
0.271886 0.599527 0.082252
0.322399 0.588486 0.082255
0.377808 0.581676 0.082263
0.458232 0.579299 0.082275
0.523978 0.581363 0.082287
0.590121 0.587732 0.082300
0.657826 0.598170 0.082314
0.723026 0.609820 0.082329
0.779097 0.631869 0.082347
0.841108 0.659560 0.082393
0.880533 0.695703 0.082475
0.907815 0.735453 0.082555
0.927983 0.776833 0.082657
0.941900 0.805318 0.082789
0.952953 0.822174 0.082915
0.961379 0.838897 0.083072
0.966981 0.855434 0.083380
0.972306 0.871741 0.083811
0.976451 0.879387 0.084075
0.979138 0.891795 0.084489
0.981690 0.903919 0.085018
0.984113 0.915749 0.085526
0.985497 0.927120 0.086012
0.986498 0.933541 0.086477
0.088551 0.775961 0.082247
0.088976 0.774274 0.082247
0.091036 0.768375 0.082247
0.094409 0.758148 0.082248
0.101878 0.744223 0.082249
0.117379 0.727687 0.082250
0.144288 0.709843 0.082251
0.186806 0.692003 0.082253
0.233118 0.675344 0.082255
0.277014 0.661883 0.082261
0.328865 0.652937 0.082270
0.389138 0.646562 0.082279
0.466249 0.643016 0.082290
0.535821 0.642410 0.082301
0.598037 0.644740 0.082313
0.665461 0.649900 0.082326
0.730053 0.657719 0.082339
0.775295 0.668794 0.082352
0.829325 0.694682 0.082398
0.872123 0.731013 0.082477
0.902033 0.769291 0.082554
0.922774 0.801287 0.082650
0.938474 0.817334 0.082778
0.949500 0.833410 0.082902
0.959457 0.849438 0.083048
0.965083 0.865357 0.083316
0.970444 0.877350 0.083743
0.975434 0.886388 0.084066
0.978152 0.898428 0.084399
0.980736 0.910223 0.084917
0.983193 0.921758 0.085424
0.985041 0.930407 0.085911
0.986164 0.936676 0.086379
0.089124 0.818857 0.082253
0.089497 0.818268 0.082253
0.091389 0.816198 0.082253
0.095291 0.812563 0.082254
0.102567 0.807517 0.082255
0.118280 0.801367 0.082256
0.145997 0.792026 0.082260
0.189146 0.774414 0.082265
0.235544 0.757367 0.082271
0.280940 0.741970 0.082278
0.333993 0.728982 0.082286
0.398269 0.718965 0.082295
0.473023 0.712302 0.082304
0.546266 0.709215 0.082315
0.605227 0.709788 0.082325
0.672641 0.713994 0.082337
0.736883 0.721714 0.082349
0.778079 0.732771 0.082367
0.826226 0.746947 0.082420
0.864697 0.770552 0.082483
0.896461 0.800498 0.082556
0.918053 0.815431 0.082650
0.935405 0.830566 0.082775
0.946366 0.845814 0.082895
0.956896 0.861096 0.083033
0.963319 0.874915 0.083270
0.968696 0.882314 0.083692
0.973829 0.894129 0.084058
0.977210 0.905762 0.084326
0.979819 0.917191 0.084831
0.982303 0.927759 0.085337
0.984597 0.934028 0.085823
0.985758 0.940127 0.086290
0.089654 0.848274 0.082265
0.090351 0.847762 0.082265
0.091902 0.845957 0.082266
0.096163 0.842770 0.082268
0.103247 0.838310 0.082270
0.119132 0.832815 0.082274
0.147463 0.826610 0.082278
0.190950 0.820065 0.082282
0.237308 0.813556 0.082288
0.283795 0.807437 0.082294
0.337817 0.802019 0.082302
0.404891 0.797297 0.082310
0.478447 0.791425 0.082318
0.553016 0.786468 0.082328
0.611414 0.784896 0.082338
0.679038 0.786840 0.082348
0.743169 0.792114 0.082362
0.780710 0.797871 0.082406
0.829256 0.802746 0.082456
0.863708 0.808578 0.082507
0.890462 0.816790 0.082563
0.913420 0.830730 0.082657
0.931625 0.844941 0.082777
0.943555 0.859336 0.082894
0.954021 0.873187 0.083027
0.961700 0.879850 0.083244
0.967076 0.891276 0.083658
0.972218 0.902603 0.084053
0.976321 0.913796 0.084270
0.978946 0.924827 0.084763
0.981450 0.931920 0.085265
0.983839 0.937983 0.085749
0.985343 0.943379 0.086215
0.090753 0.874931 0.082282
0.091191 0.874623 0.082283
0.092723 0.873535 0.082283
0.097024 0.871545 0.082285
0.104183 0.867603 0.082287
0.119951 0.862701 0.082290
0.148748 0.857101 0.082294
0.192327 0.851109 0.082298
0.238523 0.845045 0.082304
0.285717 0.839219 0.082310
0.340455 0.833911 0.082316
0.409662 0.829365 0.082324
0.482506 0.825776 0.082332
0.557510 0.823294 0.082340
0.616423 0.822017 0.082349
0.684403 0.822001 0.082362
0.748620 0.823255 0.082400
0.784734 0.825754 0.082446
0.832037 0.829441 0.082492
0.865309 0.834239 0.082540
0.890387 0.840054 0.082589
0.909407 0.847065 0.082670
0.927919 0.860361 0.082785
0.941057 0.873230 0.082898
0.951439 0.879243 0.083028
0.960228 0.890114 0.083237
0.965589 0.900977 0.083641
0.970727 0.911790 0.084033
0.975490 0.922515 0.084233
0.978125 0.930462 0.084714
0.980642 0.936427 0.085211
0.983047 0.942088 0.085690
0.984945 0.946399 0.086153
0.091340 0.891522 0.082298
0.091581 0.891215 0.082298
0.093512 0.890129 0.082299
0.097988 0.888196 0.082301
0.105342 0.885454 0.082303
0.120746 0.882015 0.082305
0.149899 0.878748 0.082309
0.193367 0.877213 0.082313
0.239289 0.874010 0.082318
0.286843 0.869554 0.082324
0.342038 0.864452 0.082330
0.412706 0.859947 0.082337
0.485248 0.856229 0.082344
0.560714 0.853447 0.082352
0.620164 0.851711 0.082365
0.688579 0.851092 0.082402
0.752698 0.851626 0.082442
0.791695 0.853313 0.082485
0.834417 0.856125 0.082528
0.866712 0.860010 0.082573
0.891390 0.864899 0.082634
0.909791 0.870713 0.082718
0.925024 0.875618 0.082802
0.938852 0.880669 0.082908
0.949137 0.890834 0.083038
0.958836 0.901086 0.083248
0.964237 0.911375 0.083642
0.969360 0.921658 0.084026
0.974277 0.929762 0.084214
0.977360 0.935559 0.084684
0.979884 0.941268 0.085174
0.982299 0.945703 0.085648
0.984566 0.949167 0.086106
0.091909 0.911607 0.082313
0.092458 0.911340 0.082313
0.094431 0.910393 0.082314
0.098981 0.908704 0.082315
0.106733 0.906297 0.082317
0.121525 0.903259 0.082320
0.150951 0.899721 0.082323
0.194144 0.895846 0.082327
0.239688 0.891814 0.082332
0.287298 0.887808 0.082337
0.342702 0.884003 0.082343
0.414185 0.880561 0.082349
0.486761 0.878597 0.082356
0.562663 0.877771 0.082376
0.622618 0.877197 0.082409
0.691483 0.876900 0.082445
0.754872 0.876894 0.082483
0.796642 0.877185 0.082523
0.836272 0.877771 0.082564
0.867833 0.878643 0.082611
0.892204 0.880962 0.082688
0.910244 0.884889 0.082767
0.925294 0.889473 0.082847
0.937380 0.894654 0.082928
0.947095 0.903063 0.083054
0.956940 0.912703 0.083277
0.963015 0.922418 0.083660
0.968115 0.929915 0.084033
0.973017 0.935473 0.084213
0.976652 0.940982 0.084673
0.979178 0.945387 0.085155
0.981598 0.948801 0.085622
0.983917 0.952118 0.086075
0.092830 0.929065 0.082327
0.093330 0.928932 0.082327
0.095520 0.928460 0.082328
0.099953 0.927614 0.082329
0.108205 0.926033 0.082331
0.122373 0.923352 0.082333
0.151928 0.920210 0.082336
0.194714 0.916739 0.082340
0.239792 0.913090 0.082344
0.287193 0.909421 0.082349
0.342578 0.905884 0.082355
0.414274 0.902624 0.082365
0.487154 0.899768 0.082391
0.563433 0.897428 0.082421
0.623816 0.895693 0.082453
0.693094 0.894633 0.082487
0.756184 0.894294 0.082523
0.797883 0.894706 0.082560
0.837510 0.895875 0.082598
0.868600 0.897792 0.082669
0.892767 0.900435 0.082742
0.910552 0.903766 0.082817
0.925465 0.907742 0.082893
0.937425 0.912313 0.082970
0.945941 0.917426 0.083092
0.955043 0.924893 0.083321
0.961918 0.930989 0.083693
0.966987 0.936242 0.084052
0.971868 0.941469 0.084230
0.976001 0.945597 0.084682
0.978525 0.948859 0.085154
0.980946 0.952076 0.085613
0.983269 0.955242 0.086060
0.093696 0.939387 0.082339
0.094258 0.939272 0.082340
0.096564 0.938863 0.082340
0.100899 0.938131 0.082341
0.109665 0.937079 0.082343
0.123419 0.935737 0.082345
0.152847 0.934151 0.082348
0.195122 0.932385 0.082352
0.239658 0.930511 0.082356
0.286624 0.928603 0.082365
0.341783 0.926617 0.082385
0.413151 0.923572 0.082410
0.486542 0.920853 0.082436
0.563116 0.918561 0.082464
0.623822 0.916783 0.082495
0.693439 0.915589 0.082527
0.756624 0.915030 0.082560
0.798392 0.915141 0.082596
0.838074 0.915939 0.082658
0.868964 0.917427 0.082725
0.893029 0.919593 0.082795
0.910677 0.922414 0.082866
0.925504 0.925858 0.082939
0.937400 0.928610 0.083035
0.945863 0.931222 0.083153
0.954140 0.934108 0.083422
0.960934 0.937907 0.083741
0.965970 0.942539 0.084057
0.970824 0.946271 0.084265
0.975407 0.949377 0.084709
0.977924 0.952462 0.085171
0.980343 0.955514 0.085621
0.982666 0.958527 0.086060
0.094795 0.947112 0.082351
0.095427 0.947049 0.082351
0.097622 0.946827 0.082352
0.101818 0.946427 0.082353
0.111109 0.945851 0.082355
0.124452 0.945002 0.082357
0.153722 0.943901 0.082363
0.195402 0.942667 0.082374
0.239332 0.941335 0.082390
0.285674 0.939629 0.082409
0.340423 0.937946 0.082430
0.410986 0.936349 0.082453
0.485043 0.934898 0.082478
0.561815 0.933648 0.082505
0.622721 0.932646 0.082534
0.692576 0.931932 0.082564
0.756208 0.931535 0.082596
0.798160 0.931477 0.082654
0.837930 0.931774 0.082716
0.868890 0.932431 0.082780
0.892950 0.933445 0.082846
0.910589 0.934809 0.082914
0.925385 0.936510 0.082990
0.937288 0.938527 0.083102
0.945712 0.940841 0.083281
0.953947 0.943008 0.083563
0.960537 0.945257 0.083846
0.965054 0.947457 0.084064
0.969879 0.950380 0.084314
0.974533 0.953301 0.084753
0.977374 0.956211 0.085204
0.979787 0.959100 0.085645
0.982108 0.961960 0.086075
0.095951 0.952875 0.082371
0.096535 0.952821 0.082372
0.098768 0.952630 0.082374
0.102709 0.952286 0.082378
0.112533 0.951789 0.082385
0.125741 0.951150 0.082394
0.154558 0.950389 0.082405
0.195580 0.949531 0.082419
0.238851 0.948608 0.082434
0.284411 0.947653 0.082452
0.338590 0.946704 0.082472
0.407934 0.945793 0.082494
0.482770 0.944803 0.082518
0.559636 0.943881 0.082544
0.620609 0.943125 0.082571
0.690583 0.942563 0.082600
0.754972 0.942220 0.082655
0.797199 0.942115 0.082712
0.837072 0.942259 0.082772
0.868360 0.942660 0.082833
0.892508 0.943321 0.082896
0.910265 0.944237 0.082961
0.925084 0.945403 0.083060
0.937073 0.946549 0.083167
0.945471 0.947845 0.083431
0.953676 0.949307 0.083703
0.960368 0.950922 0.083977
0.964734 0.952675 0.084079
0.969025 0.954604 0.084379
0.973654 0.957347 0.084814
0.976871 0.960088 0.085254
0.979277 0.962593 0.085684
0.981593 0.963914 0.086106
0.097043 0.958289 0.082415
0.097646 0.958242 0.082415
0.099864 0.958078 0.082418
0.103574 0.957783 0.082422
0.113931 0.957355 0.082428
0.127136 0.956803 0.082437
0.155361 0.956144 0.082447
0.195674 0.955398 0.082460
0.238245 0.954591 0.082475
0.282892 0.953753 0.082492
0.336366 0.952913 0.082511
0.404136 0.952102 0.082532
0.479826 0.951348 0.082555
0.556679 0.950681 0.082580
0.617586 0.950124 0.082611
0.687550 0.949700 0.082661
0.752962 0.949426 0.082713
0.793963 0.949317 0.082768
0.835509 0.949384 0.082825
0.867370 0.949634 0.082884
0.891689 0.950070 0.082945
0.909690 0.950693 0.083027
0.924585 0.951499 0.083128
0.936744 0.952482 0.083321
0.945128 0.953635 0.083579
0.953314 0.954947 0.083841
0.960154 0.956408 0.084059
0.964508 0.958006 0.084183
0.968754 0.959729 0.084519
0.972898 0.961565 0.084895
0.976413 0.963348 0.085317
0.978810 0.964349 0.085738
0.981120 0.965343 0.086150
0.098234 0.962975 0.082456
0.098837 0.962948 0.082456
0.100910 0.962852 0.082459
0.105008 0.962679 0.082463
0.115300 0.962428 0.082469
0.128508 0.962100 0.082477
0.156131 0.961532 0.082487
0.195698 0.960886 0.082499
0.237537 0.960186 0.082514
0.281164 0.959455 0.082530
0.333816 0.958719 0.082548
0.399716 0.958004 0.082568
0.476306 0.957336 0.082590
0.553043 0.956739 0.082625
0.613752 0.956235 0.082670
0.683575 0.955845 0.082718
0.749391 0.955585 0.082768
0.787630 0.955470 0.082821
0.833266 0.955511 0.082876
0.865925 0.955714 0.082932
0.890489 0.956086 0.083001
0.908855 0.956627 0.083096
0.923877 0.957336 0.083229
0.936292 0.958210 0.083474
