provia100f/Provia100F_Modern_IlfochromeP.cube
TITLE "Fuji Provia 100F Modern IlfochromeP"
# Adobe RGB in/out. REPLACES AgX. Fuji Provia 100F Modern IlfochromeP.
LUT_3D_SIZE 5
DOMAIN_MIN 0.0 0.0 0.0
DOMAIN_MAX 1.0 1.0 1.0
0.138891 0.101212 0.099253
0.477367 0.146160 0.105767
0.958880 0.246391 0.125866
0.995108 0.301487 0.165324
0.993297 0.572100 0.629757
0.139131 0.341950 0.105854
0.171664 0.280868 0.108326
0.776745 0.350194 0.126315
0.982634 0.413358 0.159913
0.989010 0.551197 0.606087
0.140776 0.674275 0.120141
0.155295 0.642335 0.128675
0.390207 0.597968 0.138185
0.877692 0.621921 0.163617
0.975677 0.673718 0.276843
0.141462 0.819195 0.129535
0.148874 0.810784 0.138947
0.262706 0.794087 0.159825
0.661860 0.774312 0.179065
0.952544 0.784110 0.220366
0.138891 0.853063 0.110149
0.138891 0.880300 0.109873
0.161454 0.886581 0.129258
0.431690 0.873387 0.154919
0.943532 0.868099 0.164375
0.138975 0.126621 0.348557
0.421315 0.179229 0.507000
0.960564 0.261040 0.428193
0.992408 0.310991 0.445067
0.991698 0.565087 0.620873
0.143090 0.276890 0.262499
0.209087 0.238084 0.216656
0.813909 0.337931 0.291749
0.980880 0.407037 0.341476
0.987400 0.542424 0.597400
0.151283 0.630445 0.262381
0.184383 0.600999 0.254517
0.476887 0.557702 0.241755
0.895550 0.604220 0.274754
0.972262 0.670315 0.441920
0.148927 0.804901 0.228341
0.162727 0.797146 0.237525
0.323342 0.776825 0.252833
0.732085 0.761782 0.266537
0.951423 0.780219 0.303412
0.138891 0.855013 0.149143
0.138891 0.881332 0.147506
0.172333 0.882778 0.171413
0.459935 0.870823 0.215561
0.944328 0.867046 0.228228
0.139648 0.202468 0.774321
0.398324 0.282360 0.853417
0.971033 0.360732 0.847958
0.993176 0.376633 0.792504
0.990981 0.561959 0.779559
0.151842 0.375630 0.755490
0.324975 0.392537 0.768383
0.861117 0.408502 0.735176
0.981321 0.446956 0.730274
0.986415 0.537126 0.744635
0.163311 0.582072 0.567784
0.214101 0.561598 0.542506
0.506609 0.511121 0.498991
0.901414 0.596718 0.566934
0.968052 0.674259 0.682496
0.164497 0.778937 0.529261
0.194522 0.771346 0.523684
0.400494 0.752139 0.510455
0.787337 0.742985 0.506182
0.948348 0.775809 0.580481
0.138891 0.869542 0.511014
0.138891 0.872837 0.505444
0.208410 0.874267 0.464445
0.519927 0.864379 0.472020
0.944150 0.866380 0.493377
0.141751 0.310672 0.938182
0.315508 0.387740 0.946376
0.964145 0.467657 0.947189
0.996559 0.475173 0.922745
0.992835 0.570053 0.884191
0.156491 0.459534 0.938588
0.339143 0.520528 0.944483
0.912728 0.546204 0.932961
0.987153 0.534446 0.900026
0.988136 0.546117 0.866300
0.175930 0.609746 0.843293
0.249167 0.610758 0.840926
0.633291 0.612382 0.829315
0.926268 0.633432 0.827097
0.969687 0.692467 0.833976
0.173035 0.761855 0.784455
0.210255 0.757388 0.777765
0.434532 0.743602 0.761822
0.796430 0.731925 0.745009
0.946762 0.778931 0.795141
0.138892 0.860413 0.691068
0.138898 0.867384 0.685520
0.209381 0.871162 0.722636
0.530949 0.862658 0.714598
0.943452 0.868506 0.754637
0.231572 0.384385 0.973177
0.560395 0.405091 0.973181
0.996282 0.465380 0.973214
0.997137 0.460024 0.967900
0.995301 0.589463 0.944245
0.299540 0.494967 0.973049
0.583358 0.517225 0.973066
0.991915 0.568930 0.972472
0.996578 0.520697 0.959582
0.990764 0.573736 0.939086
0.307436 0.667771 0.953539
0.464142 0.664372 0.950150
0.890563 0.656487 0.941012
0.971514 0.647351 0.930724
0.976915 0.700780 0.917206
0.196130 0.765651 0.914328
0.267922 0.762412 0.910597
0.634116 0.754185 0.900642
0.907083 0.751224 0.892777
0.951898 0.781715 0.890291
0.138891 0.843254 0.843086
0.138891 0.860638 0.856338
0.159600 0.878576 0.879055
0.488459 0.869223 0.880084
0.943249 0.872404 0.877931
