provia100f/Provia100F_Modern_Soft.cube
TITLE "Fuji Provia 100F Modern Soft"
# Adobe RGB in/out. REPLACES AgX. Fuji Provia 100F Modern Soft.
LUT_3D_SIZE 33
DOMAIN_MIN 0.0 0.0 0.0
DOMAIN_MAX 1.0 1.0 1.0
0.082825 0.083895 0.090792
0.082825 0.083895 0.090792
0.082941 0.083895 0.090792
0.084684 0.083895 0.090792
0.089084 0.083895 0.090792
0.106532 0.084256 0.090792
0.160828 0.085107 0.090792
0.237832 0.086956 0.090791
0.319535 0.089483 0.090791
0.422814 0.098424 0.090791
0.531343 0.109114 0.090798
0.630536 0.130193 0.090804
0.730917 0.165326 0.090817
0.799642 0.209634 0.090834
0.850942 0.260549 0.090849
0.886534 0.317570 0.090864
0.912315 0.368055 0.090914
0.926465 0.433584 0.090965
0.939792 0.490871 0.091021
0.948790 0.538912 0.091100
0.955315 0.588012 0.091174
0.961391 0.630242 0.091261
0.966232 0.670324 0.091388
0.970316 0.714101 0.091540
0.974193 0.748243 0.091727
0.977879 0.778873 0.091968
0.980587 0.803960 0.092311
0.982007 0.825314 0.092643
0.983158 0.839452 0.092959
0.984143 0.853134 0.093261
0.985082 0.863035 0.093550
0.985979 0.877789 0.093880
0.986835 0.892103 0.094401
0.082825 0.083895 0.090792
0.082825 0.083895 0.090792
0.082826 0.083895 0.090792
0.084004 0.083895 0.090792
0.087748 0.083895 0.090792
0.102770 0.084258 0.090792
0.149793 0.085102 0.090792
0.230687 0.086949 0.090791
0.311604 0.089491 0.090791
0.413458 0.098456 0.090791
0.522162 0.109177 0.090797
0.622630 0.130365 0.090803
0.725789 0.165556 0.090816
0.796430 0.209859 0.090833
0.848676 0.260954 0.090849
0.885335 0.318093 0.090863
0.911735 0.368444 0.090912
0.925953 0.434004 0.090963
0.939337 0.491159 0.091019
0.948511 0.539203 0.091098
0.955118 0.588305 0.091172
0.961214 0.630469 0.091258
0.966114 0.670623 0.091384
0.970209 0.714307 0.091537
0.974096 0.748448 0.091726
0.977791 0.779027 0.091962
0.980553 0.804113 0.092305
0.981976 0.825403 0.092637
0.983137 0.839539 0.092954
0.984123 0.853219 0.093257
0.985064 0.863131 0.093546
0.985962 0.877882 0.093874
0.986819 0.892195 0.094394
0.082825 0.083895 0.090792
0.082825 0.083895 0.090792
0.082776 0.083895 0.090792
0.083429 0.083895 0.090792
0.085900 0.083900 0.090792
0.093805 0.084269 0.090792
0.125110 0.085093 0.090792
0.207919 0.086955 0.090791
0.286166 0.089567 0.090791
0.380385 0.098616 0.090791
0.502182 0.109443 0.090796
0.603199 0.131052 0.090802
0.708259 0.166442 0.090814
0.781240 0.210712 0.090831
0.840780 0.262471 0.090847
0.881127 0.319986 0.090862
0.909183 0.369877 0.090907
0.924145 0.435544 0.090959
0.937727 0.492210 0.091011
0.947524 0.540263 0.091091
0.954417 0.589373 0.091166
0.960586 0.631293 0.091250
0.965691 0.671708 0.091372
0.969828 0.715054 0.091527
0.973751 0.749193 0.091724
0.977477 0.779586 0.091942
0.980432 0.804664 0.092284
0.981865 0.825724 0.092618
0.983059 0.839853 0.092937
0.984052 0.853525 0.093241
0.984999 0.863475 0.093532
0.985902 0.878220 0.093851
0.986764 0.892526 0.094369
0.082825 0.083895 0.090792
0.082825 0.083895 0.090792
0.082820 0.083895 0.090792
0.083319 0.083895 0.090792
0.084559 0.083965 0.090792
0.089329 0.084337 0.090792
0.107868 0.085146 0.090792
0.166991 0.087088 0.090792
0.249901 0.089882 0.090791
0.343453 0.099042 0.090791
0.461504 0.110183 0.090794
0.571870 0.132592 0.090801
0.679287 0.168325 0.090809
0.760692 0.212457 0.090828
0.827178 0.264765 0.090844
0.873779 0.322377 0.090859
0.902595 0.372657 0.090897
0.920941 0.438505 0.090950
0.934861 0.494214 0.090999
0.945759 0.542272 0.091079
0.953161 0.591393 0.091155
0.959458 0.632847 0.091235
0.964930 0.673746 0.091351
0.969140 0.716452 0.091508
0.973127 0.750585 0.091719
0.976910 0.780627 0.091905
0.980212 0.805690 0.092247
0.981664 0.826321 0.092584
0.982918 0.840435 0.092906
0.983923 0.854093 0.093212
0.984880 0.864112 0.093505
0.985792 0.878844 0.093811
0.986663 0.893138 0.094324
0.082825 0.084512 0.090792
0.082825 0.084495 0.090792
0.082881 0.084441 0.090792
0.083593 0.084373 0.090792
0.084801 0.084361 0.090792
0.087346 0.084595 0.090792
0.098392 0.085545 0.090792
0.135225 0.087532 0.090792
0.220221 0.091096 0.090791
0.303831 0.099987 0.090791
0.411085 0.111747 0.090792
0.528275 0.135535 0.090799
0.636540 0.171728 0.090805
0.738703 0.215478 0.090823
0.808843 0.268357 0.090840
0.860978 0.325776 0.090855
0.893427 0.377161 0.090883
0.916426 0.443239 0.090938
0.930794 0.497377 0.090989
0.943238 0.545417 0.091062
0.951360 0.594553 0.091140
0.957834 0.635260 0.091213
0.963831 0.676899 0.091322
0.968143 0.718604 0.091481
0.972221 0.752718 0.091701
0.976083 0.782219 0.091852
0.979748 0.807254 0.092192
0.981370 0.827230 0.092534
0.982712 0.841318 0.092860
0.983734 0.854954 0.093170
0.984705 0.865077 0.093467
0.985631 0.879788 0.093752
0.986514 0.894062 0.094257
0.082825 0.087736 0.090792
0.082794 0.087641 0.090792
0.083072 0.087302 0.090792
0.084090 0.086704 0.090792
0.085910 0.086128 0.090792
0.088379 0.085982 0.090792
0.094210 0.086415 0.090792
0.118185 0.088438 0.090792
0.186998 0.093675 0.090791
0.267213 0.102019 0.090791
0.361537 0.114564 0.090791
0.477944 0.140639 0.090797
0.591186 0.177481 0.090803
0.700238 0.220296 0.090817
0.773617 0.273935 0.090835
0.840688 0.330925 0.090851
0.882209 0.383884 0.090868
0.910698 0.450201 0.090923
0.925687 0.501952 0.090975
0.939614 0.549927 0.091041
0.949024 0.599077 0.091121
0.955752 0.638684 0.091196
0.962045 0.681353 0.091297
0.966854 0.721623 0.091446
0.971044 0.755699 0.091640
0.975007 0.784432 0.091785
0.978761 0.809422 0.092122
0.980985 0.828484 0.092470
0.982421 0.842535 0.092801
0.983484 0.855737 0.093116
0.984476 0.866402 0.093416
0.985419 0.881082 0.093703
0.986317 0.895327 0.094170
0.082810 0.100033 0.090792
0.082784 0.100367 0.090792
0.083414 0.099000 0.090792
0.084709 0.095717 0.090792
0.086682 0.091863 0.090792
0.090472 0.089688 0.090792
0.097679 0.089481 0.090792
0.111893 0.090824 0.090792
0.166346 0.097812 0.090791
0.241603 0.106158 0.090791
0.326493 0.120680 0.090791
0.437426 0.149704 0.090795
0.551293 0.187143 0.090802
0.659519 0.228929 0.090812
0.750962 0.282153 0.090830
0.818571 0.338342 0.090846
0.869515 0.393449 0.090861
0.899480 0.459960 0.090907
0.919771 0.508251 0.090961
0.934178 0.556117 0.091017
0.945609 0.605242 0.091099
0.953281 0.643304 0.091176
0.959784 0.687330 0.091268
0.965305 0.725642 0.091404
0.969624 0.759646 0.091569
0.973703 0.787347 0.091733
0.977561 0.812267 0.092038
0.980515 0.830122 0.092392
0.981988 0.844121 0.092729
0.983179 0.856367 0.093050
0.984193 0.868120 0.093355
0.985158 0.882757 0.093647
0.986075 0.896962 0.094064
0.082779 0.126216 0.090792
0.082851 0.127169 0.090792
0.083573 0.125677 0.090792
0.085094 0.115437 0.090792
0.087686 0.108840 0.090792
0.092425 0.104430 0.090792
0.103150 0.102438 0.090792
0.118822 0.102437 0.090791
0.156918 0.104199 0.090791
0.225610 0.113305 0.090791
0.299808 0.132815 0.090791
0.393728 0.163045 0.090794
0.505853 0.201814 0.090800
0.610659 0.244753 0.090807
0.717413 0.293757 0.090825
0.793552 0.348611 0.090842
0.848905 0.406593 0.090857
0.886918 0.470384 0.090890
0.913323 0.516651 0.090945
0.928198 0.564358 0.090995
0.941809 0.611485 0.091075
0.950504 0.649332 0.091154
0.957226 0.695093 0.091236
0.963541 0.730812 0.091359
0.967998 0.764595 0.091519
0.972202 0.791055 0.091723
0.976174 0.815870 0.091949
0.979934 0.832186 0.092304
0.981484 0.846113 0.092647
0.982822 0.857156 0.092974
0.983862 0.870268 0.093285
0.984850 0.884847 0.093581
0.985790 0.898998 0.093943
0.082826 0.191293 0.090792
0.082915 0.192608 0.090792
0.083634 0.186700 0.090792
0.085594 0.169882 0.090792
0.088772 0.153286 0.090792
0.094625 0.139335 0.090791
0.108082 0.130675 0.090791
0.130057 0.126730 0.090791
0.170116 0.127440 0.090791
0.220184 0.132383 0.090791
0.279774 0.151865 0.090791
0.362811 0.182219 0.090794
0.470594 0.218702 0.090800
0.576086 0.266478 0.090805
0.680283 0.318346 0.090821
0.760555 0.363500 0.090838
0.827144 0.424143 0.090853
0.874157 0.481785 0.090874
0.903617 0.527648 0.090930
0.921924 0.575055 0.090981
0.936307 0.619435 0.091051
0.947076 0.657004 0.091131
0.954454 0.703396 0.091206
0.960975 0.737302 0.091315
0.966210 0.770325 0.091474
0.970542 0.795654 0.091697
0.974633 0.820321 0.091857
0.978501 0.834722 0.092207
0.980918 0.848552 0.092557
0.982392 0.858117 0.092890
0.983488 0.872885 0.093207
0.984502 0.887387 0.093509
0.985465 0.901468 0.093830
0.082905 0.281552 0.090791
0.083088 0.279582 0.090791
0.083726 0.268797 0.090791
0.085904 0.247918 0.090791
0.089594 0.223721 0.090791
0.097502 0.208565 0.090791
0.111940 0.192349 0.090791
0.139825 0.182051 0.090791
0.183561 0.178146 0.090791
0.230480 0.179872 0.090791
0.275751 0.187222 0.090791
0.342768 0.210043 0.090794
0.444687 0.245706 0.090799
0.547302 0.288164 0.090805
0.644627 0.338253 0.090819
0.738417 0.386745 0.090835
0.806624 0.447038 0.090850
0.857847 0.496462 0.090864
0.891551 0.541721 0.090915
0.915601 0.588641 0.090967
0.930300 0.629416 0.091027
0.943180 0.667887 0.091109
0.951555 0.711697 0.091185
0.958258 0.745293 0.091283
0.964308 0.776348 0.091428
0.968766 0.801251 0.091615
0.972973 0.823647 0.091762
0.976951 0.837777 0.092106
0.980302 0.851481 0.092462
0.981818 0.861188 0.092801
0.983078 0.876012 0.093124
0.984119 0.890414 0.093431
0.985108 0.904405 0.093723
0.083046 0.372417 0.090791
0.083353 0.368638 0.090791
0.084017 0.356560 0.090791
0.086043 0.341033 0.090791
0.090314 0.322426 0.090791
0.099877 0.292472 0.090791
0.116428 0.274803 0.090791
0.151453 0.260883 0.090791
0.197263 0.249479 0.090791
0.240591 0.245731 0.090791
0.288197 0.249297 0.090792
0.341718 0.259722 0.090795
0.418981 0.279589 0.090799
0.512622 0.325033 0.090804
0.609931 0.363068 0.090817
0.708977 0.416594 0.090832
0.776228 0.472555 0.090847
0.838685 0.514927 0.090861
0.880070 0.559338 0.090903
0.908727 0.605524 0.090955
0.924365 0.641702 0.091006
0.938495 0.683263 0.091088
0.948454 0.721795 0.091165
0.955476 0.754969 0.091252
0.961949 0.783355 0.091383
0.966916 0.807953 0.091543
0.971234 0.827450 0.091729
0.975316 0.841400 0.092003
0.979181 0.854944 0.092365
0.981206 0.865005 0.092709
0.982640 0.879690 0.093037
0.983708 0.893968 0.093349
0.984722 0.907845 0.093647
0.083343 0.475789 0.090791
0.083559 0.473291 0.090791
0.084343 0.463885 0.090791
0.086236 0.443648 0.090791
0.090962 0.417789 0.090791
0.101919 0.390867 0.090791
0.120010 0.366125 0.090791
0.160811 0.348631 0.090791
0.211614 0.337192 0.090791
0.249856 0.330616 0.090793
0.299844 0.329036 0.090796
0.352871 0.332293 0.090798
0.421235 0.340055 0.090801
0.500036 0.355807 0.090804
0.587105 0.401455 0.090817
0.682928 0.454292 0.090831
0.758161 0.496521 0.090845
0.821549 0.537618 0.090859
0.869348 0.580933 0.090894
0.898105 0.621239 0.090945
0.918669 0.656554 0.090993
0.932959 0.701324 0.091069
0.944791 0.733886 0.091147
0.952700 0.766244 0.091224
0.959305 0.791655 0.091339
0.965037 0.815866 0.091501
0.969454 0.831910 0.091719
0.973633 0.845636 0.091913
0.977591 0.856903 0.092268
0.980568 0.869448 0.092618
0.982079 0.883962 0.092950
0.983276 0.898086 0.093267
0.984315 0.911824 0.093569
0.083562 0.553361 0.090791
0.083640 0.551040 0.090791
0.084658 0.543061 0.090791
0.086636 0.529714 0.090791
0.091524 0.512510 0.090791
0.103624 0.493507 0.090791
0.123699 0.474766 0.090792
0.167711 0.454447 0.090793
0.218674 0.434270 0.090795
0.258964 0.420304 0.090797
0.310219 0.412975 0.090799
0.363741 0.412318 0.090801
0.434388 0.418135 0.090804
0.502915 0.430100 0.090808
0.569190 0.448719 0.090817
0.661799 0.488297 0.090831
0.743627 0.525270 0.090845
0.806641 0.564879 0.090858
0.854850 0.606530 0.090887
0.888389 0.639928 0.090937
0.913342 0.677872 0.090985
0.927704 0.716372 0.091054
0.941262 0.748146 0.091131
0.949993 0.777371 0.091204
0.956700 0.801354 0.091308
0.963052 0.823275 0.091462
0.967671 0.837075 0.091673
0.971934 0.850530 0.091828
0.975975 0.859886 0.092175
0.979809 0.874562 0.092528
0.981462 0.888869 0.092864
0.982829 0.902806 0.093185
0.983893 0.916375 0.093491
0.083655 0.626964 0.090793
0.083809 0.625334 0.090793
0.084962 0.619681 0.090794
0.087049 0.610049 0.090794
0.092032 0.594785 0.090794
0.105029 0.575789 0.090795
0.128570 0.556358 0.090796
0.173177 0.538165 0.090797
0.224236 0.522535 0.090799
0.267444 0.510405 0.090800
0.319535 0.502361 0.090802
0.374024 0.498686 0.090804
0.447489 0.499428 0.090808
0.507589 0.504453 0.090816
0.576648 0.513507 0.090824
0.643852 0.526271 0.090833
0.726521 0.558952 0.090845
0.790863 0.596934 0.090857
0.841037 0.629717 0.090884
0.879705 0.661739 0.090933
0.906953 0.703462 0.090979
0.922826 0.733879 0.091042
0.936548 0.764614 0.091118
0.946932 0.789205 0.091190
0.954185 0.812540 0.091286
0.960618 0.829545 0.091428
0.965917 0.842982 0.091608
0.970251 0.855729 0.091749
0.974364 0.865985 0.092088
0.978269 0.880386 0.092443
0.980838 0.894446 0.092783
0.982335 0.908161 0.093106
0.983462 0.921531 0.093415
0.083887 0.697001 0.090797
0.084232 0.695061 0.090797
0.085362 0.688308 0.090798
0.087456 0.676714 0.090798
0.092513 0.661428 0.090798
0.106253 0.647516 0.090799
0.131202 0.632770 0.090800
0.177543 0.618361 0.090801
0.228700 0.605269 0.090802
0.274494 0.591043 0.090804
0.327565 0.580446 0.090805
0.384029 0.573907 0.090810
0.458263 0.571624 0.090817
0.518975 0.573606 0.090824
0.584822 0.579721 0.090831
0.654331 0.589741 0.090839
0.715529 0.603380 0.090847
0.769074 0.627034 0.090858
0.829239 0.656205 0.090884
0.872095 0.694392 0.090931
0.898988 0.724714 0.090976
0.918384 0.753934 0.091034
0.932077 0.780095 0.091108
0.943877 0.802688 0.091180
0.951801 0.823387 0.091268
0.958287 0.836638 0.091399
0.964221 0.849659 0.091553
0.968610 0.858497 0.091731
0.972781 0.872872 0.092010
0.976747 0.886952 0.092366
0.980218 0.900726 0.092707
0.981742 0.914184 0.093032
0.983030 0.925976 0.093343
0.084326 0.753322 0.090801
0.084626 0.752139 0.090801
0.085844 0.747997 0.090801
0.087963 0.740795 0.090801
0.093156 0.730944 0.090802
0.107308 0.719180 0.090803
0.133384 0.706402 0.090803
0.180988 0.690476 0.090804
0.232180 0.672867 0.090805
0.280132 0.658656 0.090809
0.334190 0.649221 0.090814
0.395568 0.642504 0.090819
0.465448 0.638767 0.090825
0.531139 0.638130 0.090832
0.592646 0.640583 0.090838
0.661836 0.646021 0.090846
0.722064 0.654264 0.090853
0.765002 0.665950 0.090861
0.819297 0.693311 0.090886
0.864098 0.721553 0.090931
0.891996 0.748641 0.090975
0.914408 0.774718 0.091030
0.928016 0.796183 0.091102
0.941061 0.817846 0.091172
0.949577 0.831839 0.091255
0.956089 0.844567 0.091376
0.962300 0.856142 0.091529
0.967034 0.866603 0.091724
0.971250 0.880571 0.091949
0.975264 0.894287 0.092298
0.979087 0.907734 0.092639
0.981157 0.920898 0.092965
0.982600 0.928220 0.093277
0.084730 0.798228 0.090804
0.084994 0.797437 0.090804
0.086017 0.794658 0.090804
0.088561 0.789785 0.090805
0.093864 0.783032 0.090805
0.108134 0.774826 0.090806
0.135224 0.764552 0.090808
0.183676 0.752238 0.090811
0.234811 0.740243 0.090815
0.284456 0.729346 0.090819
0.339411 0.720104 0.090823
0.404092 0.712946 0.090828
0.471509 0.708169 0.090833
0.541467 0.705951 0.090839
0.599753 0.706363 0.090845
0.668549 0.709382 0.090852
0.728414 0.714913 0.090859
0.767984 0.722805 0.090869
0.816678 0.732875 0.090899
0.854739 0.749527 0.090935
0.885935 0.773668 0.090976
0.910800 0.793629 0.091030
0.924380 0.814002 0.091100
0.937376 0.828936 0.091168
0.947089 0.841165 0.091247
0.954047 0.853326 0.091360
0.960275 0.861885 0.091511
0.965542 0.875579 0.091719
0.969788 0.889096 0.091900
0.973838 0.902407 0.092240
0.977701 0.915488 0.092580
0.980586 0.926325 0.092906
0.982078 0.930689 0.093219
0.085104 0.830907 0.090811
0.085505 0.830497 0.090811
0.086270 0.829050 0.090812
0.089151 0.826495 0.090813
0.094565 0.822916 0.090814
0.108915 0.817041 0.090816
0.136806 0.808663 0.090818
0.185751 0.799852 0.090821
0.236726 0.791116 0.090824
0.287603 0.782926 0.090828
0.343305 0.775694 0.090832
0.410113 0.769406 0.090836
0.476355 0.764133 0.090841
0.548140 0.760674 0.090847
0.605868 0.759576 0.090852
0.674524 0.760934 0.090858
0.733679 0.764613 0.090866
0.770803 0.770170 0.090891
0.819238 0.776664 0.090920
0.853494 0.784451 0.090949
0.880726 0.795452 0.090980
0.905776 0.814224 0.091033
0.921161 0.828235 0.091102
0.934040 0.839758 0.091168
0.944747 0.851330 0.091243
0.952172 0.859033 0.091351
0.958397 0.872270 0.091498
0.964145 0.885422 0.091716
0.968409 0.898449 0.091862
0.972483 0.911316 0.092194
0.976374 0.923996 0.092532
0.980036 0.929156 0.092856
0.981545 0.933013 0.093168
0.085704 0.853345 0.090821
0.085920 0.852989 0.090821
0.086817 0.851732 0.090822
0.089731 0.849503 0.090822
0.095529 0.846359 0.090824
0.109733 0.842446 0.090825
0.138195 0.837971 0.090828
0.187338 0.833177 0.090830
0.238045 0.828319 0.090833
0.289723 0.823646 0.090836
0.345991 0.818525 0.090840
0.414445 0.812380 0.090844
0.479979 0.807540 0.090849
0.552583 0.804196 0.090854
0.610819 0.802478 0.090859
0.679534 0.802455 0.090866
0.737640 0.804143 0.090888
0.775116 0.807509 0.090914
0.821587 0.812483 0.090940
0.855509 0.818968 0.090967
0.880660 0.824316 0.090995
0.900915 0.829938 0.091041
0.918335 0.840578 0.091106
0.931078 0.851379 0.091170
0.942642 0.858331 0.091244
0.950469 0.870922 0.091348
0.956675 0.883533 0.091493
0.962629 0.896113 0.091703
0.967121 0.908618 0.091837
0.971208 0.921009 0.092161
0.975118 0.928042 0.092495
0.978859 0.932090 0.092817
0.981033 0.935169 0.093127
0.085994 0.872555 0.090830
0.086112 0.872199 0.090830
0.087355 0.870939 0.090831
0.090380 0.868698 0.090831
0.096724 0.865521 0.090833
0.110612 0.861539 0.090834
0.139440 0.857758 0.090836
0.188538 0.855984 0.090838
0.238876 0.852280 0.090841
0.290966 0.847915 0.090844
0.347603 0.843844 0.090848
0.417207 0.840247 0.090852
0.482425 0.837274 0.090856
0.555750 0.835048 0.090861
0.614516 0.833659 0.090868
0.683431 0.833164 0.090889
0.740832 0.833591 0.090912
0.782581 0.834941 0.090936
0.823595 0.837191 0.090961
0.857276 0.840297 0.090986
0.881531 0.844202 0.091021
0.901379 0.848839 0.091068
0.916126 0.854139 0.091116
0.928465 0.859981 0.091175
0.940666 0.871757 0.091249
0.948858 0.883659 0.091352
0.955109 0.895629 0.091493
0.961044 0.907618 0.091697
0.965930 0.919578 0.091824
0.970020 0.927420 0.092141
0.973939 0.931504 0.092470
0.977695 0.934672 0.092788
0.980547 0.937143 0.093096
0.086273 0.895899 0.090838
0.086636 0.895588 0.090839
0.087978 0.894486 0.090839
0.091046 0.892519 0.090840
0.097914 0.889718 0.090841
0.111474 0.886184 0.090842
0.140659 0.882072 0.090844
0.189435 0.877573 0.090846
0.239311 0.872894 0.090849
0.291468 0.868249 0.090852
0.348279 0.863841 0.090855
0.418547 0.859856 0.090859
0.483774 0.857584 0.090863
0.557678 0.856629 0.090874
0.616942 0.855965 0.090893
0.686141 0.855621 0.090914
0.743155 0.855614 0.090935
0.787890 0.855951 0.090957
0.825161 0.856629 0.090981
0.858688 0.857637 0.091007
0.882239 0.860320 0.091051
0.901928 0.864867 0.091096
0.916332 0.870179 0.091141
0.926720 0.876188 0.091187
0.938241 0.885958 0.091258
0.947125 0.897176 0.091362
0.953695 0.908503 0.091499
0.959601 0.919891 0.091703
0.964837 0.927359 0.091824
0.968922 0.931300 0.092134
0.972842 0.934447 0.092458
0.976605 0.936883 0.092771
0.980088 0.939247 0.093075
0.086890 0.918153 0.090846
0.087231 0.917881 0.090846
0.088716 0.916917 0.090847
0.091696 0.915192 0.090847
0.099097 0.912725 0.090848
0.112414 0.909595 0.090850
0.141847 0.905927 0.090852
0.190094 0.901879 0.090854
0.239424 0.897627 0.090856
0.291352 0.893354 0.090859
0.348153 0.889238 0.090862
0.418628 0.885446 0.090868
0.484124 0.882128 0.090883
0.558439 0.879409 0.090900
0.618126 0.877395 0.090918
0.687644 0.876164 0.090937
0.744558 0.875771 0.090957
0.789222 0.876249 0.090978
0.826206 0.877606 0.091000
0.859655 0.879832 0.091040
0.882728 0.882902 0.091082
0.902301 0.886775 0.091124
0.916462 0.891400 0.091167
0.926773 0.896722 0.091211
0.936872 0.902680 0.091280
0.945580 0.911394 0.091379
0.952424 0.922088 0.091511
0.958295 0.927910 0.091715
0.963841 0.931648 0.091836
0.967913 0.934597 0.092140
0.971828 0.936924 0.092457
0.975591 0.939217 0.092765
0.979204 0.941472 0.093064
0.087480 0.930159 0.090853
0.087861 0.930077 0.090854
0.089422 0.929785 0.090854
0.092327 0.929261 0.090855
0.100269 0.928509 0.090856
0.113575 0.927548 0.090857
0.142967 0.926412 0.090858
0.190565 0.924950 0.090860
0.239278 0.921109 0.090863
0.290724 0.917210 0.090868
0.347343 0.913408 0.090879
0.417610 0.909852 0.090893
0.483579 0.906677 0.090908
0.558125 0.904003 0.090924
0.618132 0.901930 0.090941
0.687966 0.900538 0.090960
0.745028 0.899887 0.090979
0.789768 0.900016 0.090999
0.826681 0.900947 0.091034
0.860114 0.902682 0.091072
0.882955 0.905208 0.091112
0.902453 0.908500 0.091152
0.916493 0.912520 0.091193
0.926744 0.917225 0.091248
0.936779 0.922565 0.091314
0.944844 0.926382 0.091414
0.951286 0.929101 0.091528
0.957116 0.932412 0.091719
0.962741 0.935078 0.091859
0.966992 0.937293 0.092158
0.970896 0.939492 0.092468
0.974653 0.941666 0.092771
0.978266 0.943809 0.093064
0.088226 0.935677 0.090860
0.088653 0.935633 0.090860
0.090134 0.935474 0.090861
0.093094 0.935189 0.090861
0.101563 0.934778 0.090862
0.114724 0.934172 0.090864
0.144034 0.933386 0.090867
0.190889 0.932504 0.090873
0.238923 0.931553 0.090882
0.289675 0.930333 0.090893
0.345958 0.929129 0.090905
0.415647 0.927986 0.090918
0.482243 0.926947 0.090932
0.556839 0.926052 0.090947
0.617044 0.925334 0.090964
0.687160 0.924019 0.090981
0.744583 0.923206 0.090999
0.789519 0.923089 0.091032
0.826560 0.923697 0.091067
0.860021 0.925043 0.091103
0.882887 0.925907 0.091141
0.902346 0.926884 0.091179
0.916401 0.928101 0.091222
0.926611 0.929545 0.091285
0.936599 0.931199 0.091364
0.944686 0.932748 0.091465
0.950826 0.934354 0.091576
0.956056 0.935924 0.091723
0.961646 0.938008 0.091892
0.966153 0.940090 0.092188
0.970042 0.942161 0.092491
0.973790 0.944216 0.092787
0.977398 0.946249 0.093075
0.089008 0.939786 0.090871
0.089402 0.939748 0.090872
0.090903 0.939612 0.090873
0.094010 0.939367 0.090876
0.102867 0.939013 0.090879
0.115858 0.938557 0.090884
0.145056 0.938015 0.090891
0.191095 0.937403 0.090898
0.238401 0.936745 0.090907
0.288282 0.936064 0.090917
0.344093 0.935386 0.090929
0.412877 0.934736 0.090941
0.480215 0.934030 0.090955
0.554684 0.933372 0.090969
0.614957 0.932831 0.090985
0.685301 0.932430 0.091001
0.743262 0.932185 0.091032
0.788488 0.932109 0.091065
0.825836 0.932212 0.091098
0.859353 0.932499 0.091133
0.882503 0.932971 0.091169
0.901954 0.933626 0.091206
0.916172 0.934458 0.091262
0.926357 0.935276 0.091322
0.936314 0.936201 0.091418
0.944466 0.937243 0.091515
0.950631 0.938394 0.091664
0.955685 0.939644 0.091733
0.960656 0.941018 0.091935
0.965390 0.942970 0.092228
0.969263 0.944918 0.092524
0.972997 0.946699 0.092813
0.976597 0.948014 0.093095
0.089744 0.943639 0.090896
0.090150 0.943606 0.090896
0.091637 0.943490 0.090898
0.094901 0.943279 0.090900
0.104149 0.942975 0.090904
0.116975 0.942583 0.090909
0.146039 0.942114 0.090915
0.191204 0.941583 0.090922
0.237743 0.941008 0.090930
0.286607 0.940411 0.090940
0.341827 0.939813 0.090951
0.409427 0.939235 0.090963
0.477587 0.938699 0.090976
0.551762 0.938223 0.090990
0.611969 0.937826 0.091008
0.682472 0.937523 0.091036
0.741114 0.937328 0.091065
0.785015 0.937250 0.091096
0.824517 0.937298 0.091129
0.858105 0.937476 0.091162
0.881791 0.937787 0.091196
0.901257 0.938231 0.091243
0.915791 0.938806 0.091300
0.925967 0.939506 0.091378
0.935907 0.940327 0.091471
0.944171 0.941262 0.091573
0.950384 0.942302 0.091720
0.955423 0.943438 0.091804
0.960342 0.944664 0.092030
0.964735 0.945968 0.092283
0.968551 0.947309 0.092567
0.972271 0.948558 0.092849
0.975860 0.949799 0.093125
0.090545 0.946970 0.090919
0.090949 0.946951 0.090920
0.092334 0.946883 0.090921
0.096379 0.946760 0.090923
0.105403 0.946581 0.090927
0.118071 0.946348 0.090931
0.146983 0.945945 0.090937
0.191232 0.945486 0.090944
0.236974 0.944989 0.090952
0.284703 0.944469 0.090962
0.339231 0.943945 0.090972
0.405409 0.943437 0.090983
0.474443 0.942962 0.090996
0.548167 0.942537 0.091016
0.608179 0.942179 0.091041
0.678761 0.941901 0.091068
0.738201 0.941716 0.091097
0.778221 0.941634 0.091126
0.822624 0.941663 0.091157
0.856286 0.941808 0.091190
0.880749 0.942072 0.091229
0.900247 0.942457 0.091282
0.915250 0.942962 0.091345
0.925431 0.943584 0.091433
