provia100f/Provia100F_Modern_IlfochromeM.cube
TITLE "Fuji Provia 100F Modern IlfochromeM"
# Adobe RGB in/out. REPLACES AgX. Fuji Provia 100F Modern IlfochromeM.
LUT_3D_SIZE 9
DOMAIN_MIN 0.0 0.0 0.0
DOMAIN_MAX 1.0 1.0 1.0
0.117435 0.082397 0.079689
0.159957 0.108034 0.082745
0.381602 0.196671 0.094427
0.610567 0.308612 0.110797
0.808146 0.421162 0.129441
0.898344 0.527851 0.148905
0.945370 0.615688 0.170395
0.964333 0.685580 0.194262
0.971240 0.739697 0.216958
0.118526 0.132810 0.081586
0.137601 0.128608 0.082318
0.303332 0.202096 0.091366
0.556858 0.312971 0.107530
0.778823 0.425428 0.126682
0.886376 0.531201 0.146710
0.939773 0.618102 0.168217
0.962432 0.687810 0.192382
0.970797 0.741222 0.215468
0.120701 0.324781 0.087668
0.158807 0.299653 0.088709
0.266996 0.277883 0.092425
0.466713 0.342930 0.103536
0.695271 0.445122 0.121018
0.850417 0.546007 0.141045
0.922854 0.627912 0.162369
0.956402 0.696480 0.186499
0.969352 0.746987 0.210827
0.127382 0.509680 0.097456
0.168690 0.487610 0.098196
0.301793 0.449139 0.100930
0.446833 0.442711 0.106332
0.620133 0.494580 0.118353
0.810856 0.580970 0.136418
0.901201 0.649668 0.156383
0.947896 0.714581 0.179828
0.967185 0.758582 0.204619
0.137118 0.647467 0.106773
0.175885 0.636754 0.107534
0.317727 0.611362 0.110227
0.467330 0.593851 0.115023
0.609072 0.597555 0.122898
0.768245 0.630138 0.135526
0.873993 0.687627 0.153401
0.932902 0.737355 0.175051
0.960167 0.777630 0.199256
0.148386 0.742652 0.116332
0.183398 0.737840 0.117074
0.322116 0.724729 0.119673
0.475576 0.711054 0.124257
0.619774 0.705243 0.131388
0.763047 0.714920 0.141071
0.853757 0.734910 0.153974
0.919019 0.770174 0.173653
0.953718 0.803083 0.196470
0.159674 0.804891 0.125613
0.191972 0.802299 0.126329
0.321231 0.794737 0.128835
0.473190 0.786114 0.133318
0.619855 0.781287 0.139913
0.763418 0.783341 0.148607
0.850429 0.792931 0.160303
0.909389 0.809029 0.175714
0.948749 0.835480 0.196863
0.170666 0.850515 0.134001
0.200802 0.849538 0.134688
0.318083 0.846590 0.137100
0.464212 0.842025 0.141386
0.610008 0.838751 0.147621
0.756669 0.839758 0.156264
0.846194 0.845830 0.167801
0.906370 0.853796 0.182653
0.945107 0.864703 0.200337
0.180835 0.876668 0.141189
0.209586 0.876217 0.141845
0.313831 0.874864 0.144154
0.451564 0.873293 0.148233
0.593070 0.872606 0.154604
0.739871 0.873831 0.163354
0.837896 0.877601 0.174960
0.901357 0.884066 0.189399
0.940223 0.892972 0.206126
0.117435 0.084231 0.165973
0.164275 0.111800 0.168266
0.381575 0.197917 0.172883
0.596863 0.302616 0.177439
0.795434 0.412090 0.188987
0.892552 0.519926 0.203939
0.942319 0.610778 0.220230
0.963297 0.681815 0.237821
0.971006 0.737618 0.256240
0.118422 0.126555 0.140479
0.129021 0.114542 0.114914
0.289370 0.195545 0.144219
0.539439 0.304245 0.163178
0.765201 0.415098 0.180516
0.879541 0.522988 0.198595
0.936713 0.613114 0.216558
0.961399 0.684027 0.234885
0.970565 0.739148 0.254164
0.120218 0.307508 0.162977
0.152330 0.277804 0.147406
0.242127 0.256031 0.131825
0.444484 0.326529 0.143696
0.675614 0.432930 0.163012
0.843499 0.537026 0.184404
0.919809 0.622735 0.206145
0.955386 0.692665 0.226648
0.969126 0.744939 0.247575
0.126539 0.490972 0.165261
0.164619 0.469850 0.158571
0.287635 0.431722 0.147206
0.429681 0.425817 0.143341
0.604421 0.482335 0.152902
0.800964 0.572495 0.171973
0.898340 0.644472 0.194435
0.946936 0.710918 0.216490
0.966810 0.756620 0.238200
0.136207 0.637988 0.166191
0.173527 0.627516 0.163495
0.310382 0.602405 0.157361
0.458044 0.584927 0.153928
0.597988 0.589321 0.156015
0.760998 0.624067 0.166643
0.870258 0.682954 0.186445
0.931193 0.734840 0.208410
0.959595 0.775861 0.229919
0.147636 0.738190 0.167666
0.181976 0.733447 0.166681
0.318062 0.720470 0.164304
0.470551 0.705414 0.163041
0.613419 0.699804 0.165201
0.757961 0.710261 0.171886
0.851162 0.732283 0.184337
0.917733 0.768170 0.204430
0.953272 0.801766 0.225003
0.159118 0.802341 0.169737
0.190913 0.799782 0.169532
0.318922 0.792304 0.169263
0.470406 0.783766 0.170154
0.616336 0.778891 0.173530
0.760482 0.781262 0.180169
0.848665 0.791158 0.190739
0.908563 0.807784 0.204619
0.948451 0.834572 0.223678
0.170271 0.849461 0.172186
0.200031 0.848496 0.172417
0.316773 0.845586 0.173417
0.462680 0.840633 0.175796
0.608112 0.837446 0.180208
0.755091 0.838569 0.187307
0.845231 0.845129 0.197720
0.905866 0.853255 0.210531
0.944747 0.864337 0.225771
0.180575 0.876082 0.174464
0.209145 0.875639 0.174916
0.313127 0.874312 0.176594
0.450772 0.872780 0.179860
0.592127 0.872144 0.185170
0.738896 0.873432 0.193148
0.837459 0.877284 0.203270
0.901149 0.883850 0.215700
0.940107 0.892869 0.230427
0.117435 0.089823 0.389633
0.164275 0.117450 0.391116
0.393064 0.207286 0.396410
0.618369 0.316037 0.384728
0.793317 0.412849 0.364666
0.886677 0.514328 0.359314
0.938116 0.604682 0.359682
0.961469 0.675623 0.362840
0.970522 0.733529 0.367533
0.118628 0.152763 0.390408
0.163863 0.175167 0.383566
0.341800 0.227875 0.348432
0.551376 0.313153 0.341988
0.759830 0.412943 0.343687
0.872786 0.516027 0.347504
0.932284 0.606520 0.352360
0.959529 0.677615 0.357983
0.970077 0.734999 0.364155
0.119437 0.267857 0.317053
0.144228 0.248985 0.281201
0.198902 0.216890 0.212726
0.424640 0.314362 0.262537
0.655074 0.420605 0.295283
0.834021 0.525630 0.316282
0.914691 0.614545 0.331255
0.953392 0.685561 0.343131
0.968628 0.740614 0.353464
0.124673 0.451284 0.329525
0.157089 0.434067 0.311569
0.262100 0.396450 0.270418
0.392079 0.389196 0.243247
0.574936 0.459827 0.259775
0.782097 0.555390 0.285606
0.890008 0.634254 0.306803
0.944074 0.702959 0.324047
0.965255 0.752122 0.338577
0.133884 0.614457 0.327096
0.168137 0.605062 0.318164
0.293352 0.581604 0.294558
0.436333 0.560230 0.271177
0.571138 0.566968 0.260178
0.740759 0.609922 0.269056
0.861262 0.671935 0.288898
0.926964 0.728753 0.307568
0.958127 0.771428 0.324296
0.145560 0.725980 0.318095
0.178093 0.721547 0.313612
0.307368 0.707452 0.300676
0.457448 0.690804 0.285575
0.596638 0.685517 0.275147
0.741168 0.697202 0.272842
0.844222 0.725350 0.280499
0.914236 0.762810 0.297325
0.952037 0.798189 0.313917
0.157480 0.794898 0.307185
0.187823 0.792473 0.304973
0.312304 0.785344 0.298281
0.462514 0.776840 0.289849
0.606376 0.771994 0.283388
0.751359 0.774876 0.281404
0.843517 0.786037 0.284751
0.906178 0.804241 0.293195
0.947579 0.831956 0.308410
0.169055 0.846234 0.295948
0.197677 0.845316 0.294962
0.312796 0.841353 0.291961
0.458064 0.836468 0.288204
0.602433 0.833566 0.285591
0.749149 0.835028 0.285715
0.842308 0.842071 0.289422
0.904324 0.851620 0.296765
0.943639 0.863226 0.307170
0.179747 0.874222 0.284911
0.207737 0.873807 0.284631
0.310898 0.872570 0.283852
0.448273 0.871176 0.283194
0.589169 0.870708 0.283622
0.735842 0.872199 0.286044
0.836084 0.876302 0.291050
0.900492 0.883180 0.298829
0.939740 0.892553 0.309132
0.117435 0.100434 0.619095
0.164275 0.127409 0.619874
0.393064 0.215439 0.622667
0.651329 0.338456 0.627769
0.817694 0.438032 0.588694
0.893169 0.525527 0.555325
0.938361 0.606975 0.536903
0.960751 0.674376 0.525495
0.970200 0.731383 0.517674
0.118628 0.161984 0.619502
0.166044 0.187920 0.620281
0.394746 0.265569 0.623072
0.615033 0.354133 0.597682
0.785346 0.436963 0.559093
0.878344 0.525996 0.538761
0.932193 0.608163 0.526902
0.958727 0.675990 0.519069
0.969742 0.732708 0.513342
0.119491 0.278508 0.528347
0.150451 0.277603 0.507115
0.276609 0.293115 0.472370
0.467992 0.349584 0.470692
0.674447 0.436485 0.483586
0.835738 0.530306 0.492468
0.913356 0.613762 0.497183
0.952298 0.682607 0.499152
0.968251 0.737832 0.499515
0.123369 0.416217 0.495082
0.151260 0.404000 0.475447
0.245248 0.374923 0.415411
0.350940 0.355335 0.354786
0.562278 0.451618 0.401253
0.773398 0.548903 0.434740
0.884499 0.629081 0.456979
0.940842 0.697792 0.471201
0.963896 0.748584 0.479697
0.131358 0.587095 0.497394
0.162108 0.579580 0.486383
0.276001 0.554517 0.450535
0.413260 0.532568 0.408697
0.540375 0.538172 0.384824
0.718862 0.596384 0.399222
0.852769 0.662088 0.423077
0.922882 0.723228 0.442204
0.956622 0.767177 0.456360
0.143182 0.708622 0.489314
0.173191 0.703468 0.483143
0.294213 0.688855 0.461959
0.441748 0.673530 0.433888
0.576273 0.668366 0.411054
0.718868 0.681078 0.400413
0.836014 0.717384 0.406870
0.910137 0.756759 0.423482
0.950578 0.794148 0.438375
0.155179 0.784588 0.473697
0.183832 0.782423 0.469618
0.303400 0.775599 0.456888
0.452135 0.767473 0.439519
0.593424 0.763122 0.423350
0.736938 0.766485 0.412868
0.836578 0.779145 0.409886
0.903081 0.799781 0.414941
0.946438 0.828661 0.427829
0.167265 0.839881 0.452095
0.194822 0.838674 0.449954
0.307091 0.835033 0.443111
0.451551 0.830665 0.433351
0.594535 0.828250 0.423704
0.740606 0.830190 0.416890
0.838194 0.837860 0.414515
0.902133 0.849356 0.416854
0.942095 0.861737 0.423175
0.178476 0.871408 0.429215
0.205591 0.871043 0.428220
0.307530 0.869968 0.425018
0.444537 0.868815 0.420431
0.584800 0.868628 0.415993
0.731362 0.870431 0.413250
0.834061 0.874903 0.413293
0.899521 0.882232 0.416571
0.939199 0.892128 0.422920
0.117435 0.115441 0.802529
0.164275 0.141355 0.802909
0.393064 0.227828 0.804271
0.651329 0.347667 0.806766
0.844423 0.475855 0.800168
0.904937 0.551262 0.751556
0.943588 0.618719 0.715882
0.961655 0.680067 0.687182
0.970201 0.732725 0.666349
0.118628 0.176677 0.802727
0.166044 0.201131 0.803107
0.394746 0.276124 0.804469
0.652315 0.382921 0.806962
0.822387 0.475924 0.773746
0.894809 0.551556 0.735908
0.937229 0.619534 0.702318
0.959560 0.681355 0.678509
0.969729 0.733886 0.660573
0.120435 0.332508 0.787616
0.165711 0.338961 0.776035
0.346856 0.362539 0.747137
0.540074 0.409981 0.714356
0.728607 0.476544 0.689014
0.850504 0.553988 0.672956
0.917486 0.623431 0.661282
0.952844 0.686696 0.651339
0.968185 0.738412 0.642022
0.123147 0.414611 0.658606
0.151574 0.410758 0.643650
0.263882 0.406082 0.605326
0.422576 0.425658 0.577593
0.598774 0.484088 0.582314
0.787028 0.564789 0.597374
0.887472 0.634493 0.608505
0.940735 0.699265 0.614050
0.963390 0.748069 0.615239
0.129615 0.561788 0.637948
0.157670 0.555221 0.626423
0.264503 0.537077 0.591557
0.398912 0.518442 0.546591
0.510148 0.510287 0.506113
0.710703 0.592666 0.538799
0.849764 0.659790 0.562530
0.920995 0.721397 0.578187
0.955728 0.765213 0.587434
0.140700 0.686989 0.631182
0.168601 0.682945 0.624091
0.281869 0.671175 0.601855
0.427242 0.658016 0.571305
0.556848 0.652360 0.543140
0.694905 0.664646 0.527994
0.828755 0.709467 0.537817
0.906815 0.752262 0.553645
0.949393 0.791205 0.565631
0.152824 0.772505 0.616466
0.179960 0.770551 0.612286
0.293787 0.764704 0.598657
0.441222 0.757791 0.579128
0.580044 0.754132 0.559459
0.721702 0.757778 0.544878
0.829023 0.771345 0.538573
0.899954 0.795502 0.542674
0.945086 0.825630 0.552662
0.165148 0.831902 0.595181
0.191473 0.830887 0.592762
0.300529 0.827830 0.584886
0.444189 0.824222 0.573173
0.585796 0.822495 0.560695
0.731206 0.824999 0.550462
0.833598 0.833308 0.544526
0.899671 0.846906 0.543474
0.940623 0.860447 0.546885
0.176918 0.868011 0.570276
0.202974 0.867717 0.569014
0.303465 0.866871 0.564866
0.440082 0.866059 0.558586
0.579676 0.866256 0.551767
0.726174 0.868455 0.546112
0.831725 0.873363 0.542910
0.898403 0.881214 0.542757
0.938587 0.891719 0.545493
0.117435 0.135210 0.893184
0.164275 0.159714 0.893305
0.393064 0.243862 0.893739
0.651329 0.358855 0.894535
0.853032 0.495394 0.895718
0.917527 0.582892 0.874065
0.948585 0.636973 0.845064
0.963869 0.691667 0.822069
0.970514 0.737490 0.797015
0.118628 0.195274 0.893247
0.166044 0.217888 0.893368
0.394746 0.290027 0.893802
0.652315 0.394621 0.894597
0.849425 0.518591 0.893347
0.908508 0.583689 0.864617
0.945545 0.637823 0.837598
0.961753 0.692815 0.814587
0.970034 0.738533 0.791967
0.120701 0.355998 0.893474
0.172137 0.370216 0.893595
0.400755 0.424776 0.894028
0.605121 0.469303 0.874164
0.780847 0.524547 0.850341
0.871966 0.586728 0.829842
0.925705 0.641435 0.809083
0.954904 0.697476 0.790731
0.968451 0.742587 0.775558
0.124186 0.451973 0.829547
0.158145 0.453857 0.824843
0.301218 0.463699 0.805463
0.480610 0.489706 0.784920
0.657623 0.536241 0.771855
0.816152 0.594719 0.765306
0.898086 0.650638 0.761111
0.944145 0.708217 0.756712
0.963940 0.751235 0.751256
0.129038 0.555271 0.771371
0.156524 0.552367 0.764380
0.266977 0.545473 0.743247
0.417705 0.544490 0.710682
0.563613 0.566766 0.689721
0.738415 0.613511 0.695241
0.856399 0.670401 0.708442
0.922602 0.725248 0.717970
0.955807 0.766707 0.722201
0.138648 0.670286 0.756972
0.164918 0.667505 0.751842
0.273239 0.659325 0.735430
0.418653 0.649966 0.702861
0.546695 0.645125 0.668408
0.671578 0.649087 0.639642
0.826292 0.707690 0.664058
0.905789 0.751765 0.681519
0.948890 0.790621 0.692467
0.150690 0.760690 0.746178
0.176205 0.759203 0.742918
0.284969 0.754728 0.731793
0.431414 0.749411 0.709469
0.568438 0.746673 0.685580
0.707428 0.750077 0.665907
0.821445 0.763789 0.656372
0.897303 0.792206 0.663616
0.943288 0.823646 0.674174
0.163046 0.823679 0.729534
0.187971 0.822895 0.726776
0.293790 0.820554 0.717694
0.436767 0.817902 0.703846
0.577212 0.817039 0.688482
0.722044 0.820139 0.675032
0.828990 0.828948 0.666226
0.897168 0.844267 0.663393
0.939238 0.859377 0.666667
0.175201 0.864350 0.702055
0.200111 0.864143 0.700539
0.299060 0.863579 0.695500
0.435306 0.863188 0.687694
0.574287 0.863853 0.678866
0.720809 0.866513 0.670979
0.829324 0.871888 0.665629
0.897262 0.880282 0.663662
0.937991 0.891436 0.664941
0.117435 0.158575 0.942896
0.164275 0.184477 0.942948
0.393064 0.262927 0.943132
0.651329 0.372325 0.943471
0.853032 0.506813 0.943976
0.928960 0.608924 0.936991
0.952872 0.657815 0.913677
0.966719 0.706763 0.893175
0.971033 0.744722 0.876475
0.118628 0.216829 0.942923
0.166044 0.238737 0.942975
0.394746 0.306784 0.943159
0.652315 0.409186 0.943498
0.853355 0.534589 0.944002
0.920562 0.610616 0.932154
0.949955 0.658995 0.908207
0.964634 0.707964 0.889415
0.970552 0.745720 0.873684
0.120701 0.369562 0.943020
0.172137 0.384629 0.943071
0.400755 0.437898 0.943255
0.655046 0.519300 0.943402
0.817711 0.569973 0.928102
0.893439 0.616024 0.907621
0.935388 0.663396 0.890794
0.957834 0.712623 0.876399
0.968959 0.749547 0.863403
0.125766 0.501194 0.916966
0.166524 0.505062 0.914295
0.336964 0.519425 0.906033
0.529495 0.546644 0.894764
0.713265 0.585393 0.883171
0.838722 0.626112 0.872910
0.907887 0.672865 0.863297
0.947683 0.720554 0.853652
0.965367 0.757564 0.844896
0.129791 0.575436 0.869221
0.159326 0.575759 0.866446
0.282605 0.578749 0.856598
0.449930 0.588202 0.844137
0.611748 0.609945 0.834374
0.775308 0.645510 0.829514
0.870310 0.691172 0.827779
0.927428 0.734434 0.826582
0.956873 0.771732 0.824536
0.137751 0.664138 0.843835
0.163379 0.662785 0.840919
0.271324 0.659166 0.831502
0.421945 0.656736 0.814506
0.561676 0.661338 0.794320
0.712469 0.681828 0.783801
0.835573 0.720763 0.787016
0.908461 0.757556 0.793669
0.949347 0.793262 0.797904
0.148926 0.751553 0.833063
0.173290 0.750575 0.830984
0.278508 0.747679 0.823990
0.424792 0.744456 0.808024
0.562106 0.743442 0.789968
0.700086 0.747030 0.773296
0.814199 0.756879 0.760509
0.896236 0.791944 0.772167
0.942711 0.823787 0.779843
0.161195 0.816132 0.821707
0.184766 0.815599 0.819718
0.287570 0.814052 0.813088
0.430087 0.812504 0.802731
0.569831 0.812674 0.790788
0.714357 0.816404 0.779689
0.824882 0.825360 0.771641
0.893616 0.841202 0.768682
0.938107 0.858719 0.772098
0.173550 0.860735 0.801891
0.197299 0.860624 0.800744
0.294639 0.860376 0.796902
0.430570 0.860460 0.790845
0.569058 0.861655 0.783804
0.715725 0.864816 0.777256
0.827072 0.870655 0.772508
0.895886 0.879563 0.770396
0.937487 0.891368 0.770933
0.117435 0.188554 0.973183
0.164275 0.211733 0.973221
0.393064 0.284945 0.973357
0.651329 0.390303 0.973607
0.853032 0.520496 0.973979
0.937625 0.632301 0.971651
0.956609 0.678173 0.953952
0.967852 0.720632 0.939627
0.971615 0.753128 0.925737
0.118628 0.242219 0.973203
0.166044 0.262322 0.973241
0.394746 0.325321 0.973377
0.652315 0.426540 0.973626
0.853355 0.547599 0.973998
0.929939 0.634969 0.967090
0.953863 0.679832 0.950717
0.967203 0.721657 0.937324
0.971142 0.754148 0.923007
0.120701 0.387211 0.973274
0.172137 0.402663 0.973312
0.400755 0.453188 0.973448
0.655848 0.533291 0.973697
0.836771 0.602401 0.966854
0.905899 0.643128 0.952695
0.944427 0.685574 0.940271
0.960905 0.725448 0.928575
0.969567 0.757982 0.913963
0.127240 0.547796 0.963078
0.174026 0.552296 0.961576
0.364575 0.567993 0.956668
0.567946 0.591467 0.949225
0.756648 0.620566 0.940753
0.858774 0.656066 0.932458
0.917680 0.696357 0.920577
0.950886 0.733086 0.909651
0.967114 0.765770 0.900018
0.131334 0.603494 0.929463
0.163923 0.605048 0.927763
0.302926 0.611198 0.922339
0.480996 0.624214 0.914570
0.653133 0.645976 0.906536
0.806569 0.676757 0.899569
0.885799 0.714809 0.893861
0.933776 0.746443 0.888906
0.958569 0.779186 0.883905
0.138050 0.671369 0.899289
0.164260 0.671377 0.897751
0.276900 0.672229 0.892784
0.435626 0.676663 0.885351
0.588224 0.688646 0.877806
0.747273 0.711610 0.872619
0.849576 0.737541 0.870295
0.913768 0.767993 0.869462
0.950622 0.798719 0.868584
0.147879 0.747248 0.885416
0.171758 0.746819 0.884070
0.275546 0.745721 0.879592
0.423591 0.745268 0.872629
0.565143 0.747632 0.863707
0.711073 0.755482 0.854603
0.826573 0.772566 0.850223
0.899656 0.798440 0.851552
0.943940 0.826981 0.853834
0.159640 0.810250 0.876192
0.182516 0.809978 0.875272
0.282854 0.809278 0.872176
0.425073 0.808976 0.867052
0.564999 0.810443 0.859275
0.710077 0.815148 0.851714
0.822838 0.824307 0.845634
0.890170 0.838720 0.841928
0.937690 0.858993 0.845945
0.172084 0.857485 0.865884
0.195040 0.857474 0.865146
0.290529 0.857555 0.862659
0.426237 0.858143 0.858688
0.564428 0.859906 0.853978
0.711264 0.863595 0.849473
0.825223 0.869872 0.846068
0.894504 0.879192 0.844444
0.937140 0.891596 0.844832
0.117435 0.220235 0.986113
0.164275 0.241932 0.986123
0.393064 0.309320 0.986159
0.651329 0.411462 0.986226
0.853032 0.536290 0.986326
0.942469 0.650785 0.986460
0.959356 0.696219 0.980151
0.968597 0.731802 0.967739
0.972137 0.761520 0.954801
0.118628 0.269572 0.986118
0.166044 0.288369 0.986128
0.394746 0.348265 0.986165
0.652315 0.445158 0.986232
0.853355 0.562730 0.986331
0.936092 0.655430 0.985099
0.956800 0.698406 0.979054
0.967978 0.733013 0.965477
0.971677 0.762608 0.953150
0.120701 0.408474 0.986137
0.172137 0.423420 0.986147
0.400755 0.470833 0.986184
0.655848 0.548737 0.986251
0.849152 0.627286 0.985571
0.914039 0.666306 0.980330
0.948478 0.705696 0.970038
0.963579 0.737330 0.958006
0.970139 0.766613 0.947641
0.128284 0.585174 0.985084
0.179868 0.588880 0.984574
0.385055 0.601497 0.982866
0.595783 0.622446 0.980143
0.782153 0.649935 0.973892
0.874605 0.682281 0.964194
0.926005 0.717208 0.954949
0.953837 0.745476 0.946537
0.967720 0.774464 0.939011
0.133127 0.632621 0.963521
0.169041 0.634672 0.962628
0.321832 0.642131 0.959662
0.506995 0.656063 0.955015
0.686857 0.676938 0.949505
0.825103 0.704486 0.943872
0.898598 0.731569 0.938535
0.940037 0.758839 0.933604
0.960413 0.786986 0.927320
0.139283 0.688258 0.940805
0.166912 0.689157 0.940105
0.286537 0.692809 0.937804
0.452361 0.700952 0.934314
0.613708 0.715253 0.929716
0.771625 0.731766 0.923909
0.862492 0.753663 0.919192
0.919517 0.779579 0.915314
0.952221 0.805494 0.911714
0.147734 0.748941 0.925978
0.171668 0.749041 0.924971
0.276620 0.749713 0.921618
0.427981 0.752083 0.916412
0.575710 0.757871 0.910549
0.729109 0.768932 0.905445
0.837060 0.786026 0.902136
0.904362 0.807568 0.900555
0.945898 0.832188 0.899620
0.158572 0.806965 0.914249
0.181019 0.806958 0.913496
0.279933 0.807138 0.910955
0.422582 0.808217 0.906878
0.563965 0.811325 0.901997
0.711779 0.817752 0.897248
0.825521 0.828803 0.893607
0.895646 0.845659 0.892068
0.938676 0.860974 0.892390
0.170808 0.854906 0.904554
0.193089 0.854993 0.904079
0.287083 0.855402 0.902470
0.422662 0.856502 0.899876
0.560835 0.858857 0.896756
0.708118 0.863104 0.893712
0.824119 0.869820 0.891338
0.893772 0.879435 0.890123
0.937011 0.892194 0.890398
