provia100f/Provia100F_Modern_ExtraPunchy.cube
TITLE "Fuji Provia 100F Modern ExtraPunchy"
# Adobe RGB in/out. REPLACES AgX. Fuji Provia 100F Modern ExtraPunchy.
LUT_3D_SIZE 9
DOMAIN_MIN 0.0 0.0 0.0
DOMAIN_MAX 1.0 1.0 1.0
0.071567 0.071941 0.066283
0.080920 0.071941 0.066283
0.304524 0.075277 0.066282
0.743231 0.136304 0.066322
0.924532 0.355856 0.066472
0.966670 0.596612 0.066989
0.981344 0.781434 0.068153
0.987012 0.864660 0.069772
0.990113 0.914191 0.071819
0.071567 0.072313 0.066283
0.074424 0.072222 0.066283
0.208679 0.076136 0.066282
0.644134 0.142064 0.066304
0.906207 0.367623 0.066425
0.962955 0.601793 0.066906
0.979964 0.785112 0.068118
0.986636 0.866420 0.069641
0.989843 0.916029 0.071664
0.071569 0.158956 0.066283
0.080498 0.125524 0.066283
0.162478 0.101762 0.066282
0.473166 0.188266 0.066295
0.844456 0.421825 0.066378
0.948235 0.624839 0.066688
0.975753 0.799536 0.067730
0.985121 0.873240 0.069242
0.988959 0.922103 0.071206
0.072500 0.564944 0.066281
0.084245 0.518651 0.066281
0.207218 0.433648 0.066288
0.429486 0.414833 0.066302
0.756001 0.533066 0.066365
0.925997 0.685235 0.066582
0.967971 0.824785 0.067319
0.982590 0.883914 0.068740
0.987632 0.930075 0.070660
0.074295 0.822251 0.066303
0.086880 0.809902 0.066304
0.222461 0.770128 0.066319
0.474279 0.720532 0.066348
0.741236 0.730869 0.066387
0.899456 0.802266 0.066569
0.958941 0.866275 0.067168
0.978261 0.911369 0.068379
0.986100 0.943056 0.070177
0.077129 0.917752 0.066355
0.091430 0.911953 0.066359
0.226710 0.896150 0.066372
0.489034 0.881747 0.066393
0.755521 0.879891 0.066505
0.896123 0.884322 0.066689
0.950009 0.908423 0.067197
0.974790 0.937992 0.068279
0.984421 0.956114 0.069924
0.080817 0.956939 0.066406
0.096833 0.955756 0.066418
0.225851 0.952290 0.066462
0.484894 0.948147 0.066535
0.755630 0.945335 0.066656
0.896361 0.946532 0.066977
0.948242 0.951459 0.067590
0.971686 0.958823 0.068425
0.983025 0.965488 0.069958
0.084990 0.969300 0.066546
0.101739 0.968836 0.066556
0.222805 0.967511 0.066593
0.468673 0.966615 0.066701
0.742484 0.966052 0.066940
0.892019 0.966225 0.067313
0.945987 0.967321 0.068091
0.970318 0.970854 0.068955
0.981279 0.975504 0.070275
0.089542 0.979403 0.066693
0.105601 0.979257 0.066719
0.218708 0.978818 0.066808
0.441901 0.978307 0.066963
0.713358 0.978084 0.067229
0.880096 0.978482 0.067796
0.941553 0.979706 0.068372
0.968042 0.981795 0.069442
0.980075 0.984473 0.070794
0.071567 0.071941 0.067970
0.082574 0.071980 0.068121
0.304486 0.075447 0.068225
0.720737 0.129022 0.068551
0.916726 0.333969 0.069414
0.964736 0.584495 0.070600
0.980592 0.768444 0.072319
0.986807 0.861685 0.075852
0.989971 0.911686 0.081767
0.071567 0.072176 0.066670
0.072587 0.072009 0.066347
0.192081 0.075164 0.066811
0.613679 0.130970 0.067784
0.897505 0.340204 0.068793
0.960974 0.589160 0.070116
0.979206 0.775191 0.071777
0.986420 0.863434 0.075051
0.989701 0.913530 0.080959
0.071527 0.134932 0.067771
0.078310 0.101704 0.066932
0.133027 0.089905 0.066512
0.423402 0.161836 0.066791
0.823787 0.387271 0.067773
0.944549 0.610832 0.069086
0.974989 0.792180 0.070796
0.984856 0.870243 0.073331
0.988820 0.920508 0.078675
0.072410 0.525580 0.067923
0.082704 0.482785 0.067470
0.188932 0.383954 0.066925
0.385860 0.368580 0.066777
0.735036 0.507870 0.067142
0.920206 0.666640 0.068165
0.966668 0.818800 0.069784
0.982102 0.881704 0.071770
0.987502 0.928730 0.075961
0.074050 0.811325 0.067985
0.086064 0.798985 0.067805
0.215401 0.744527 0.067376
0.457667 0.695972 0.067194
0.722930 0.708006 0.067300
0.894806 0.794197 0.068015
0.957564 0.862586 0.069238
0.977836 0.908339 0.070995
0.985952 0.941857 0.073840
0.076903 0.912375 0.068082
0.090381 0.906660 0.068017
0.222784 0.891016 0.067859
0.480101 0.879946 0.067775
0.747036 0.875846 0.067919
0.892852 0.881494 0.068165
0.948632 0.905257 0.069081
0.974467 0.936627 0.070644
0.984304 0.955512 0.073073
0.080612 0.955775 0.068147
0.096192 0.954604 0.068146
0.223616 0.951171 0.068144
0.479837 0.946780 0.068151
0.750929 0.943911 0.068271
0.894474 0.945320 0.068766
0.947303 0.950643 0.069531
0.971312 0.958257 0.070660
0.982873 0.965331 0.072865
0.084841 0.968800 0.068175
0.101425 0.968342 0.068191
0.221541 0.967260 0.068263
0.465927 0.966376 0.068431
0.739956 0.965827 0.068769
0.891001 0.966021 0.069301
0.945474 0.967147 0.070036
0.970090 0.970598 0.071180
0.981191 0.975384 0.073193
0.089352 0.979213 0.068337
0.105353 0.979069 0.068369
0.218033 0.978638 0.068487
0.439805 0.978140 0.068742
0.711528 0.977933 0.069143
0.879309 0.978352 0.069694
0.941318 0.979603 0.070540
0.967947 0.981726 0.071688
0.980046 0.984444 0.073919
0.071567 0.071941 0.271672
0.082574 0.072039 0.275904
0.320831 0.077040 0.291417
0.753644 0.146271 0.258022
0.915391 0.335535 0.210707
0.963042 0.574938 0.199426
0.979554 0.750990 0.200185
0.986438 0.854616 0.206805
0.989675 0.906758 0.216938
0.071567 0.072943 0.273877
0.082415 0.074076 0.254865
0.249769 0.080848 0.177963
0.633543 0.142308 0.166172
0.894055 0.335730 0.169236
0.958497 0.578567 0.176232
0.978107 0.756226 0.185434
0.985935 0.856901 0.196690
0.989403 0.908530 0.209609
0.071519 0.095618 0.125497
0.076441 0.087047 0.092878
0.100921 0.078672 0.071378
0.372619 0.143935 0.084277
0.797607 0.354314 0.103518
0.939474 0.593194 0.124398
0.973700 0.779342 0.147433
0.984336 0.864645 0.168234
0.988515 0.915296 0.187606
0.072069 0.440052 0.144508
0.079865 0.390408 0.117837
0.157078 0.302677 0.087717
0.319415 0.284808 0.077423
0.678485 0.461633 0.083147
0.908289 0.639563 0.096002
0.964004 0.807018 0.112924
0.981025 0.878316 0.135743
0.987195 0.925640 0.160091
0.073423 0.779087 0.140475
0.084036 0.752070 0.127091
0.199019 0.686947 0.102944
0.402720 0.647194 0.087940
0.671265 0.657857 0.083308
0.880812 0.765978 0.087315
0.953982 0.850384 0.098524
0.976781 0.901001 0.113567
0.985570 0.938845 0.136117
0.076627 0.897658 0.126992
0.087709 0.892314 0.120650
0.212522 0.880598 0.107844
0.456610 0.868779 0.095979
0.720298 0.864611 0.089367
0.881142 0.873806 0.088430
0.944935 0.896898 0.092468
0.973585 0.932969 0.105145
0.983982 0.953875 0.121073
0.080009 0.952364 0.113245
0.094325 0.951248 0.111393
0.217242 0.947699 0.105911
0.465630 0.942521 0.099259
0.737641 0.939230 0.094324
0.888551 0.941188 0.092996
0.944559 0.948103 0.095353
0.970231 0.956643 0.101870
0.982429 0.964878 0.114278
0.084383 0.967422 0.104046
0.100299 0.967192 0.103264
0.217715 0.966499 0.100902
0.457704 0.965659 0.097989
0.731623 0.965157 0.095991
0.887017 0.965410 0.096085
0.943913 0.966623 0.098928
0.969390 0.969824 0.104697
0.980918 0.975020 0.113233
0.088745 0.978609 0.095475
0.104562 0.978474 0.095263
0.215895 0.978072 0.094674
0.433240 0.977618 0.094178
0.705799 0.977466 0.094500
0.876842 0.977951 0.096335
0.940581 0.979285 0.100191
0.967648 0.981509 0.106351
0.979956 0.984354 0.114889
0.071567 0.071941 0.799041
0.082574 0.072195 0.800109
0.320831 0.078439 0.803936
0.785638 0.182020 0.810929
0.930659 0.401487 0.746431
0.964913 0.593036 0.680053
0.979614 0.757526 0.643574
0.986252 0.853185 0.621501
0.989477 0.904171 0.599883
0.071567 0.073354 0.799599
0.083245 0.074769 0.800667
0.323254 0.094397 0.804491
0.749190 0.209455 0.764701
0.910350 0.398480 0.687432
0.960541 0.593754 0.645983
0.978084 0.760927 0.625436
0.985726 0.855038 0.603707
0.989198 0.905768 0.588100
0.071515 0.102212 0.629492
0.077749 0.101560 0.571397
0.173400 0.118021 0.482502
0.475472 0.199219 0.479569
0.822415 0.397140 0.509132
0.940395 0.600409 0.533203
0.973363 0.777068 0.545328
0.984050 0.862312 0.550441
0.988284 0.911944 0.551386
0.071739 0.342541 0.539904
0.077991 0.317551 0.487902
0.136047 0.253816 0.346485
0.262230 0.212269 0.190231
0.654538 0.441057 0.306177
0.902750 0.629373 0.403008
0.962412 0.801046 0.455875
0.980228 0.874269 0.480458
0.986926 0.923204 0.498085
0.072831 0.701894 0.545874
0.081709 0.681485 0.517173
0.172696 0.638189 0.444915
0.351454 0.603911 0.327853
0.615400 0.612615 0.258282
0.863063 0.727592 0.299920
0.949485 0.839074 0.368655
0.975760 0.894341 0.424496
0.985178 0.935951 0.454818
0.076242 0.880972 0.525254
0.085939 0.878713 0.507867
0.199862 0.867244 0.464423
0.416388 0.852215 0.400528
0.681033 0.846287 0.334311
0.863069 0.860872 0.303576
0.940544 0.887294 0.322907
0.972024 0.928826 0.369855
0.983600 0.952019 0.413721
0.079159 0.947259 0.484828
0.091751 0.945997 0.477695
0.208743 0.941679 0.455720
0.443415 0.936152 0.417131
0.714046 0.933182 0.369462
0.877727 0.935478 0.339341
0.940846 0.944083 0.331099
0.968825 0.954604 0.345156
0.981848 0.964306 0.382890
0.083707 0.966246 0.447559
0.098562 0.966039 0.443760
0.212258 0.965411 0.426724
0.441866 0.964654 0.398966
0.716205 0.964234 0.370511
0.880689 0.964572 0.350686
0.941712 0.965899 0.343956
0.968395 0.968750 0.350584
0.980537 0.974532 0.368945
0.087872 0.977694 0.387097
0.103683 0.977575 0.384079
0.212676 0.977224 0.374425
0.423541 0.976848 0.360894
0.697371 0.976787 0.348134
0.873216 0.977375 0.340408
0.939495 0.978830 0.340529
0.967206 0.981204 0.349778
0.979822 0.984232 0.368190
0.071567 0.072019 0.944151
0.082574 0.072514 0.944311
0.320831 0.080835 0.944886
0.785638 0.195385 0.945935
0.945043 0.494774 0.943155
0.969668 0.633074 0.924864
0.980905 0.786052 0.895714
0.986481 0.859713 0.875639
0.989478 0.905789 0.863566
0.071567 0.074161 0.944235
0.083245 0.075967 0.944395
0.323254 0.100499 0.944969
0.788779 0.267328 0.946018
0.933202 0.494912 0.934069
0.965384 0.633535 0.910815
0.979334 0.787295 0.884939
0.985943 0.861190 0.870730
0.989189 0.907189 0.855981
0.071546 0.172780 0.937825
0.083118 0.182718 0.934527
0.256755 0.229783 0.921816
0.614846 0.329642 0.894506
0.870983 0.496159 0.876672
0.948281 0.637357 0.867569
0.974405 0.793242 0.856956
0.984193 0.865542 0.843285
0.988244 0.912643 0.830486
0.071716 0.339189 0.853275
0.078085 0.331233 0.832722
0.159035 0.321728 0.780371
0.367828 0.368190 0.724093
0.724465 0.511440 0.733561
0.911415 0.654404 0.764073
0.963272 0.807293 0.784635
0.980201 0.875424 0.792132
0.986825 0.922850 0.793760
0.072632 0.649656 0.824894
0.080079 0.639297 0.809084
0.159718 0.610912 0.752233
0.329291 0.582236 0.662271
0.560710 0.566246 0.568735
0.856549 0.717243 0.646031
0.947888 0.836432 0.694190
0.975287 0.892133 0.725281
0.984945 0.934610 0.743883
0.075275 0.865773 0.815611
0.084212 0.862579 0.805887
0.179727 0.849512 0.773241
0.379416 0.834392 0.711553
0.644115 0.827885 0.655200
0.844169 0.842014 0.628501
0.936641 0.881241 0.644759
0.970520 0.925737 0.676772
0.983290 0.950664 0.700306
0.078457 0.939578 0.795441
0.088901 0.938249 0.789716
0.199445 0.934263 0.766695
0.415047 0.929533 0.727166
0.688241 0.927022 0.688151
0.865375 0.929524 0.658758
0.936785 0.938789 0.645738
0.967404 0.952642 0.654247
0.981274 0.963656 0.674788
0.082905 0.964869 0.759601
0.096531 0.964693 0.754679
0.206020 0.964161 0.738739
0.422642 0.963296 0.715270
0.699289 0.962855 0.690579
0.873090 0.963495 0.670242
0.939246 0.965112 0.658036
0.967274 0.967589 0.655882
0.980174 0.973993 0.662875
0.087222 0.976586 0.709508
0.102621 0.976490 0.707005
0.208805 0.976213 0.698796
0.412153 0.975948 0.686438
0.687537 0.976012 0.672937
0.869010 0.976731 0.661289
0.938239 0.978330 0.654730
0.966697 0.980875 0.654415
0.979670 0.984115 0.660018
0.071567 0.072363 0.980727
0.082574 0.073257 0.980730
0.320831 0.085488 0.980740
0.785638 0.220683 0.980758
0.949625 0.534762 0.980785
0.974415 0.690437 0.977010
0.982941 0.810155 0.966173
0.986920 0.869458 0.952328
0.989670 0.911532 0.941821
0.071567 0.075150 0.980728
0.083245 0.078832 0.980731
0.323254 0.114426 0.980741
0.788779 0.299138 0.980759
0.947708 0.582463 0.980731
0.971287 0.692603 0.975020
0.981392 0.811136 0.961541
0.986501 0.870361 0.949212
0.989376 0.912789 0.939678
0.071569 0.213833 0.980734
0.085543 0.245046 0.980736
0.331978 0.365990 0.980746
0.735968 0.481701 0.977030
0.907495 0.591540 0.969122
0.958194 0.700891 0.956710
0.976467 0.815300 0.946908
0.984730 0.874021 0.939152
0.988407 0.917674 0.934432
0.071946 0.442124 0.956526
0.080254 0.447457 0.953585
0.206672 0.470653 0.945387
0.505554 0.522967 0.936673
0.802618 0.609612 0.933682
0.929822 0.722948 0.930854
0.966552 0.825902 0.929034
0.981042 0.880842 0.927118
0.986934 0.925030 0.924732
0.072588 0.639376 0.933474
0.079656 0.634810 0.930453
0.162457 0.624004 0.918009
0.359219 0.622467 0.891593
0.657049 0.657538 0.877070
0.878920 0.776343 0.880169
0.951410 0.848623 0.889814
0.975690 0.896776 0.897366
0.984966 0.935630 0.900577
0.074691 0.848491 0.927231
0.082818 0.845298 0.924989
0.169516 0.835898 0.910346
0.360886 0.825129 0.885372
0.627080 0.819553 0.864969
0.819040 0.824117 0.827218
0.935312 0.880674 0.860775
0.970055 0.925395 0.872438
0.983097 0.950395 0.878614
0.077821 0.931519 0.920877
0.086986 0.930501 0.917687
0.183903 0.927432 0.907268
0.390483 0.923774 0.890629
0.666151 0.921886 0.874735
0.853990 0.924233 0.863145
0.932692 0.933638 0.850203
0.966195 0.951126 0.860166
0.980831 0.963150 0.868264
0.082057 0.963158 0.905695
0.094415 0.962958 0.903773
0.199448 0.962359 0.897148
0.403805 0.961678 0.886157
0.682826 0.961457 0.876372
0.865653 0.962252 0.868752
0.936767 0.964356 0.863449
0.966134 0.966999 0.859860
0.979831 0.973489 0.863870
0.086654 0.975388 0.884730
0.101457 0.975320 0.883520
0.204630 0.975136 0.880315
0.400161 0.975007 0.875928
0.677250 0.975226 0.870933
0.864649 0.976096 0.866440
0.936947 0.977850 0.862879
0.966177 0.980574 0.860230
0.979523 0.984035 0.861989
0.071567 0.073206 0.989263
0.082574 0.074587 0.989276
0.320831 0.093059 0.989323
0.785638 0.248951 0.989409
0.949625 0.558823 0.989537
0.977279 0.763112 0.987761
0.984200 0.834160 0.983597
0.987484 0.880378 0.980727
0.989987 0.920247 0.977504
0.071567 0.078663 0.989270
0.083245 0.084013 0.989283
0.323254 0.134047 0.989330
0.788779 0.328018 0.989415
0.949796 0.607047 0.989543
0.975178 0.767977 0.986525
0.983437 0.835517 0.982739
0.987072 0.880762 0.980138
0.989693 0.921229 0.976931
0.071569 0.243843 0.989294
0.085543 0.271519 0.989307
0.331978 0.401110 0.989354
0.797517 0.583542 0.989391
0.930668 0.662628 0.985841
0.964991 0.781946 0.982646
0.978878 0.840577 0.980435
0.985494 0.882246 0.977488
0.988718 0.923868 0.974796
0.072273 0.546920 0.984112
0.083426 0.555100 0.983694
0.243124 0.583732 0.982396
0.595491 0.625836 0.980763
0.858547 0.697241 0.978871
0.941995 0.797036 0.976772
0.971006 0.851452 0.974776
0.982482 0.891116 0.970753
0.987217 0.929377 0.966069
0.072646 0.672002 0.975955
0.080689 0.672674 0.975359
0.180680 0.679250 0.972202
0.437588 0.704929 0.965599
0.744806 0.766045 0.959536
0.903968 0.819996 0.956505
0.957583 0.869069 0.955422
0.976897 0.907848 0.954673
0.985244 0.939052 0.953393
0.074464 0.841430 0.965412
0.082203 0.839875 0.963604
0.167327 0.835714 0.957746
0.366707 0.832919 0.949178
0.653407 0.838212 0.940678
0.857926 0.861696 0.936194
0.940307 0.891368 0.937569
0.971266 0.929372 0.940402
0.983278 0.951611 0.942198
0.077292 0.925249 0.958719
0.085975 0.924576 0.957423
0.175607 0.922580 0.953125
0.373013 0.919926 0.946463
0.654216 0.918703 0.938828
0.848239 0.922133 0.933978
0.928492 0.928908 0.928772
0.965794 0.951005 0.933752
0.980689 0.963186 0.935287
0.081375 0.961224 0.952178
0.092424 0.961087 0.951351
0.188808 0.960688 0.948586
0.386940 0.960289 0.944237
0.668787 0.960333 0.939177
0.859399 0.961294 0.935257
0.934551 0.963587 0.933590
0.965042 0.966473 0.932314
0.979552 0.973179 0.933738
0.086073 0.974128 0.943882
0.100068 0.974076 0.943398
0.200280 0.973959 0.941773
0.388227 0.973999 0.939201
0.667325 0.974505 0.936195
0.860507 0.975541 0.934771
0.935733 0.977448 0.933820
0.965693 0.980341 0.933053
0.979398 0.984015 0.933285
0.071567 0.074803 0.991426
0.082574 0.077806 0.991428
0.320831 0.108626 0.991436
0.785638 0.288138 0.991450
0.949625 0.585363 0.991470
0.979432 0.804763 0.991341
0.985175 0.857541 0.990344
0.988040 0.891210 0.988432
0.990343 0.926332 0.985475
0.071567 0.085016 0.991427
0.083245 0.092782 0.991430
0.323254 0.159763 0.991437
0.788779 0.370361 0.991451
0.949796 0.627330 0.991472
0.977523 0.807843 0.991088
0.984459 0.859444 0.990049
0.987643 0.892446 0.987846
0.990054 0.927033 0.985052
0.071569 0.278909 0.991431
0.085543 0.314885 0.991434
0.331978 0.445793 0.991441
0.800094 0.605033 0.991455
0.940950 0.744516 0.991075
0.970105 0.817252 0.990230
0.981112 0.864656 0.988596
0.986292 0.897017 0.985914
0.989090 0.929664 0.983642
0.072492 0.627640 0.990864
0.086251 0.634697 0.990780
0.280880 0.659484 0.990504
0.665221 0.713926 0.989913
0.892005 0.788870 0.988718
0.952667 0.832149 0.986603
0.974453 0.873144 0.984674
0.983681 0.906224 0.982966
0.987588 0.934991 0.981339
0.072825 0.747612 0.986051
0.082440 0.752030 0.985789
0.208293 0.769653 0.984948
0.505852 0.794400 0.983737
0.791392 0.820533 0.982475
0.923679 0.855917 0.981258
0.962788 0.884189 0.980742
0.978478 0.921728 0.980035
0.985685 0.944111 0.979020
0.074544 0.849734 0.981207
0.082568 0.849744 0.980927
0.173737 0.850721 0.980718
0.400956 0.855810 0.979314
0.703974 0.867079 0.977776
0.885712 0.881924 0.976712
0.947788 0.911594 0.976218
0.973467 0.936506 0.976014
0.983612 0.954117 0.975799
0.076976 0.922283 0.979327
0.085401 0.921987 0.979054
0.172171 0.921229 0.978141
0.369903 0.920904 0.976715
0.659930 0.922548 0.974852
0.856837 0.927949 0.971221
0.935464 0.939619 0.969063
0.967268 0.953990 0.969719
0.980992 0.964000 0.970843
0.080804 0.959378 0.977446
0.090779 0.959255 0.977257
0.181003 0.958936 0.976621
0.373745 0.958799 0.975471
0.659659 0.959466 0.973516
0.856060 0.960971 0.969799
0.933446 0.963318 0.966525
0.964050 0.966047 0.964229
0.979449 0.973308 0.966718
0.085523 0.972596 0.975255
0.098695 0.972591 0.975118
0.194190 0.972629 0.974658
0.376781 0.972907 0.973228
0.658584 0.973738 0.970914
0.856987 0.975141 0.968694
0.934735 0.977193 0.966794
0.965297 0.980221 0.965789
0.979312 0.984080 0.966029
0.071567 0.079206 0.992228
0.082574 0.084933 0.992229
0.320831 0.137227 0.992230
0.785638 0.332678 0.992233
0.949625 0.609688 0.992237
0.980629 0.826072 0.992243
0.985890 0.873035 0.991854
0.988496 0.904677 0.991124
0.990662 0.932087 0.990399
0.071567 0.096534 0.992228
0.083245 0.112497 0.992229
0.323254 0.196575 0.992230
0.788779 0.421929 0.992233
0.949796 0.651145 0.992237
0.979053 0.831417 0.992185
0.985225 0.874750 0.991767
0.988118 0.906136 0.990998
0.990381 0.932831 0.990271
0.071569 0.326568 0.992229
0.085543 0.362163 0.992230
0.331978 0.484739 0.992231
0.800094 0.629113 0.992234
0.947562 0.798667 0.992205
0.973536 0.843921 0.991868
0.982887 0.880036 0.991252
0.986863 0.911339 0.990580
0.989440 0.935566 0.989729
0.072550 0.696646 0.992184
0.088833 0.706792 0.992162
0.309398 0.741958 0.992070
0.718633 0.791738 0.991853
0.908324 0.825093 0.991466
0.959167 0.862054 0.990926
0.976541 0.887082 0.990408
0.984452 0.921060 0.989726
0.987960 0.940908 0.988275
0.073229 0.805133 0.990889
0.084377 0.807500 0.990839
0.226435 0.816103 0.990673
0.555116 0.832145 0.990411
0.837007 0.856125 0.989939
0.934670 0.879510 0.989510
0.966786 0.904396 0.988154
0.980029 0.930251 0.986896
0.986164 0.948654 0.985720
0.074834 0.866773 0.988732
0.083573 0.867481 0.988554
0.186851 0.870356 0.987968
0.444015 0.876745 0.987078
0.747421 0.884724 0.986090
0.901618 0.904633 0.985192
0.954631 0.926700 0.984459
0.974916 0.944377 0.983853
0.984030 0.957214 0.983290
0.076933 0.923450 0.985513
0.085367 0.923519 0.985357
0.173412 0.923982 0.984836
0.381362 0.925614 0.984025
0.679960 0.929588 0.983107
0.871391 0.937147 0.982303
0.941105 0.948096 0.981724
0.969407 0.958159 0.981437
0.981572 0.964918 0.981267
0.080411 0.957884 0.983687
0.089677 0.957881 0.983569
0.177270 0.957963 0.983171
0.367839 0.958454 0.982529
0.657710 0.959866 0.981698
0.857389 0.961640 0.980836
0.934896 0.964331 0.980737
0.965624 0.967278 0.980702
0.979692 0.974241 0.980709
0.085043 0.971378 0.982161
0.097510 0.971420 0.982075
0.187883 0.971613 0.981784
0.367981 0.972133 0.981314
0.651830 0.973243 0.980808
0.854530 0.974980 0.980739
0.934138 0.977176 0.980553
0.965087 0.980300 0.980291
0.979280 0.984251 0.980350
