provia100f/Provia100F_Classic_Normal.cube
TITLE "Fuji Provia 100F Classic Normal"
# Adobe RGB in/out. REPLACES AgX. Fuji Provia 100F Classic Normal.
LUT_3D_SIZE 33
DOMAIN_MIN 0.0 0.0 0.0
DOMAIN_MAX 1.0 1.0 1.0
0.082825 0.083895 0.090792
0.082825 0.083895 0.090792
0.082812 0.083895 0.090792
0.082899 0.083895 0.090792
0.083610 0.083895 0.090792
0.085070 0.083895 0.090792
0.087510 0.083895 0.090792
0.092499 0.084003 0.090792
0.105121 0.084217 0.090792
0.126714 0.084637 0.090792
0.169543 0.085251 0.090792
0.222011 0.086351 0.090791
0.267669 0.087969 0.090791
0.324539 0.089835 0.090791
0.387320 0.095853 0.090791
0.465613 0.101809 0.090793
0.540397 0.110042 0.090798
0.605332 0.122989 0.090802
0.680329 0.145193 0.090807
0.743447 0.171867 0.090820
0.792756 0.204743 0.090832
0.832646 0.237310 0.090844
0.868653 0.279106 0.090855
0.890727 0.325809 0.090868
0.911280 0.363771 0.090910
0.922722 0.415292 0.090951
0.933818 0.469376 0.090991
0.943480 0.508857 0.091051
0.950384 0.550040 0.091117
0.955932 0.592935 0.091181
0.961323 0.629807 0.091260
0.965797 0.665145 0.091371
0.969610 0.708038 0.091514
0.082825 0.083895 0.090792
0.082825 0.083895 0.090792
0.082811 0.083895 0.090792
0.082900 0.083895 0.090792
0.083611 0.083895 0.090792
0.085074 0.083895 0.090792
0.087516 0.083895 0.090792
0.092506 0.084021 0.090792
0.105139 0.084256 0.090792
0.126747 0.084667 0.090792
0.169584 0.085330 0.090792
0.222043 0.086420 0.090791
0.267708 0.088057 0.090791
0.324575 0.090046 0.090791
0.387374 0.096133 0.090791
0.465643 0.102069 0.090793
0.540443 0.110448 0.090798
0.605362 0.123602 0.090802
0.680357 0.146050 0.090807
0.743469 0.172768 0.090820
0.792774 0.205820 0.090832
0.832659 0.238598 0.090844
0.868662 0.280067 0.090855
0.890734 0.326711 0.090868
0.911284 0.364957 0.090910
0.922725 0.416530 0.090952
0.933821 0.470222 0.090991
0.943482 0.509701 0.091052
0.950386 0.550882 0.091117
0.955934 0.593775 0.091181
0.961324 0.630440 0.091260
0.965798 0.665957 0.091372
0.969611 0.708586 0.091515
0.082825 0.083895 0.090792
0.082825 0.083895 0.090792
0.082809 0.083895 0.090792
0.082903 0.083895 0.090792
0.083614 0.083895 0.090792
0.085086 0.083895 0.090792
0.087534 0.083921 0.090792
0.092532 0.084083 0.090792
0.105205 0.084391 0.090792
0.126865 0.084813 0.090792
0.169732 0.085602 0.090792
0.222158 0.086787 0.090791
0.267848 0.088367 0.090791
0.324708 0.091139 0.090791
0.387569 0.097128 0.090791
0.465751 0.102997 0.090794
0.540609 0.111899 0.090798
0.605470 0.126268 0.090802
0.680458 0.149141 0.090808
0.743545 0.176071 0.090820
0.792838 0.209397 0.090833
0.832707 0.243252 0.090844
0.868693 0.283528 0.090855
0.890759 0.329956 0.090869
0.911298 0.369228 0.090911
0.922737 0.420986 0.090952
0.933832 0.473260 0.090992
0.943488 0.512732 0.091053
0.950391 0.553907 0.091118
0.955939 0.596794 0.091182
0.961329 0.632711 0.091261
0.965801 0.668874 0.091374
0.969614 0.710556 0.091516
0.082825 0.083895 0.090792
0.082825 0.083895 0.090792
0.082805 0.083895 0.090792
0.082908 0.083895 0.090792
0.083619 0.083895 0.090792
0.085108 0.083911 0.090792
0.087569 0.084049 0.090792
0.092578 0.084253 0.090792
0.105325 0.084613 0.090792
0.127082 0.085118 0.090792
0.170004 0.086072 0.090792
0.222368 0.087426 0.090791
0.268107 0.088913 0.090791
0.324952 0.093103 0.090791
0.387927 0.098914 0.090791
0.465950 0.105280 0.090794
0.540915 0.114546 0.090798
0.605669 0.131318 0.090803
0.680643 0.154878 0.090808
0.743686 0.182471 0.090821
0.792956 0.214669 0.090833
0.832795 0.251923 0.090845
0.868750 0.289920 0.090856
0.890804 0.335936 0.090870
0.911325 0.377128 0.090913
0.922758 0.429225 0.090954
0.933852 0.478850 0.090993
0.943501 0.518309 0.091055
0.950400 0.559472 0.091120
0.955947 0.602348 0.091184
0.961337 0.636882 0.091264
0.965806 0.674239 0.091378
0.969619 0.714174 0.091520
0.082825 0.083895 0.090792
0.082825 0.083895 0.090792
0.082800 0.083895 0.090792
0.082916 0.083915 0.090792
0.083630 0.083999 0.090792
0.085164 0.084095 0.090792
0.087620 0.084300 0.090792
0.092648 0.084601 0.090792
0.105505 0.085026 0.090792
0.127406 0.085809 0.090792
0.170410 0.086896 0.090792
0.222682 0.088310 0.090791
0.268494 0.090386 0.090791
0.325316 0.095931 0.090791
0.388463 0.101395 0.090791
0.466247 0.108768 0.090794
0.541373 0.119722 0.090799
0.605966 0.138956 0.090803
0.680920 0.163578 0.090809
0.743897 0.192768 0.090822
0.793133 0.222590 0.090834
0.832926 0.264512 0.090845
0.868835 0.301707 0.090856
0.890873 0.344906 0.090872
0.911366 0.389045 0.090915
0.922790 0.441644 0.090956
0.933882 0.487207 0.090995
0.943520 0.526648 0.091058
0.950414 0.567794 0.091123
0.955960 0.609413 0.091186
0.961349 0.643104 0.091268
0.965815 0.682263 0.091383
0.969627 0.719568 0.091525
0.082825 0.084079 0.090792
0.082825 0.084085 0.090792
0.082793 0.084109 0.090792
0.082926 0.084164 0.090792
0.083649 0.084326 0.090792
0.085241 0.084523 0.090792
0.087709 0.084762 0.090792
0.092789 0.085162 0.090792
0.105747 0.085909 0.090792
0.127844 0.086867 0.090792
0.170960 0.088134 0.090791
0.223107 0.089487 0.090791
0.269017 0.094340 0.090791
0.325809 0.099440 0.090791
0.389188 0.105485 0.090791
0.466649 0.114023 0.090795
0.541992 0.128848 0.090799
0.606367 0.150394 0.090803
0.681294 0.175596 0.090810
0.744181 0.207013 0.090823
0.793371 0.237447 0.090835
0.833103 0.277269 0.090846
0.868950 0.322247 0.090857
0.890966 0.357074 0.090876
0.911420 0.405338 0.090918
0.922834 0.458607 0.090958
0.933922 0.498494 0.090997
0.943546 0.537911 0.091062
0.950433 0.579034 0.091127
0.955978 0.617943 0.091190
0.961366 0.651478 0.091273
0.965827 0.693101 0.091390
0.969638 0.726824 0.091532
0.082825 0.084608 0.090792
0.082825 0.084621 0.090792
0.082785 0.084667 0.090792
0.082939 0.084771 0.090792
0.083671 0.084969 0.090792
0.085338 0.085235 0.090792
0.087839 0.085770 0.090792
0.092972 0.086361 0.090792
0.106055 0.087355 0.090792
0.128401 0.088421 0.090792
0.171660 0.089814 0.090791
0.223648 0.094289 0.090791
0.269682 0.099012 0.090791
0.326436 0.104118 0.090791
0.390110 0.111745 0.090791
0.467159 0.123240 0.090796
0.542779 0.141982 0.090800
0.606878 0.165307 0.090804
0.681770 0.192755 0.090812
0.744543 0.220992 0.090824
0.793675 0.259775 0.090836
0.833329 0.293685 0.090847
0.869097 0.337604 0.090858
0.891083 0.376871 0.090880
0.911489 0.426368 0.090921
0.922889 0.475148 0.090962
0.933974 0.512839 0.091001
0.943579 0.552227 0.091067
0.950458 0.593320 0.091132
0.956001 0.628735 0.091194
0.961387 0.662077 0.091279
0.965841 0.704716 0.091400
0.969652 0.735999 0.091541
0.082825 0.085719 0.090792
0.082825 0.085749 0.090792
0.082776 0.085856 0.090792
0.082978 0.086048 0.090792
0.083698 0.086323 0.090792
0.085454 0.086843 0.090792
0.087996 0.087524 0.090792
0.093194 0.088295 0.090792
0.106430 0.089138 0.090792
0.129082 0.091863 0.090792
0.172515 0.095811 0.090791
0.224307 0.099845 0.090791
0.270495 0.104758 0.090791
0.327202 0.111724 0.090791
0.391237 0.122069 0.090792
0.467783 0.139019 0.090796
0.543741 0.160247 0.090801
0.607501 0.184772 0.090804
0.682352 0.213304 0.090814
0.744985 0.244455 0.090826
0.794045 0.280546 0.090838
0.833604 0.323501 0.090849
0.869275 0.356484 0.090859
0.891227 0.402026 0.090884
0.911567 0.452521 0.090926
0.922957 0.492695 0.090966
0.934036 0.530349 0.091007
0.943619 0.569702 0.091073
0.950487 0.609496 0.091137
0.956028 0.641832 0.091199
0.961413 0.678863 0.091287
0.965859 0.716094 0.091411
0.969668 0.747130 0.091551
0.082825 0.087814 0.090792
0.082825 0.087851 0.090792
0.082778 0.087985 0.090792
0.083071 0.088225 0.090792
0.083730 0.088575 0.090792
0.085590 0.089028 0.090792
0.088182 0.089987 0.090792
0.093456 0.092577 0.090792
0.106873 0.095541 0.090792
0.129891 0.098822 0.090791
0.173532 0.102282 0.090791
0.225091 0.107412 0.090791
0.271460 0.113998 0.090791
0.328111 0.124552 0.090791
0.392578 0.140555 0.090793
0.468523 0.160322 0.090797
0.544700 0.182883 0.090801
0.608241 0.210303 0.090805
0.683041 0.237046 0.090816
0.745509 0.273159 0.090828
0.794485 0.309895 0.090839
0.833931 0.345813 0.090850
0.869488 0.385302 0.090861
0.891398 0.432559 0.090890
0.911653 0.477582 0.090931
0.923037 0.513504 0.090971
0.934111 0.551116 0.091015
0.943667 0.590428 0.091080
0.950522 0.625199 0.091144
0.956061 0.657262 0.091206
0.961443 0.698854 0.091296
0.965881 0.729483 0.091425
0.969688 0.760234 0.091573
0.082825 0.092134 0.090792
0.082808 0.092258 0.090792
0.082811 0.092701 0.090792
0.083172 0.093508 0.090792
0.083829 0.094696 0.090792
0.085745 0.096267 0.090792
0.088394 0.098213 0.090792
0.093758 0.100377 0.090792
0.107331 0.103063 0.090792
0.130831 0.107265 0.090791
0.174715 0.112423 0.090791
0.226001 0.119835 0.090791
0.272583 0.131923 0.090791
0.329168 0.147388 0.090791
0.394137 0.165605 0.090794
0.469382 0.187105 0.090798
0.545578 0.212027 0.090802
0.609100 0.237338 0.090807
0.683843 0.271505 0.090819
0.746118 0.303867 0.090830
0.794995 0.340629 0.090842
0.834310 0.376008 0.090852
0.869734 0.420376 0.090863
0.891596 0.467351 0.090897
0.911754 0.501777 0.090937
0.923131 0.537651 0.090976
0.934198 0.575218 0.091024
0.943722 0.612331 0.091089
0.950563 0.643275 0.091152
0.956099 0.678980 0.091213
0.961479 0.714989 0.091307
0.965905 0.744882 0.091440
0.969712 0.773776 0.091601
0.082808 0.101062 0.090792
0.082791 0.101172 0.090792
0.082845 0.101566 0.090792
0.083281 0.102284 0.090792
0.083977 0.103395 0.090792
0.085866 0.105397 0.090792
0.088633 0.107905 0.090792
0.094100 0.111145 0.090792
0.107801 0.115265 0.090791
0.131906 0.122064 0.090791
0.176069 0.132040 0.090791
0.227040 0.144449 0.090791
0.273866 0.159349 0.090791
0.330375 0.176372 0.090792
0.395921 0.197667 0.090796
0.470364 0.218550 0.090800
0.546582 0.245440 0.090803
0.610082 0.275632 0.090810
0.684758 0.307687 0.090822
0.746814 0.340970 0.090833
0.795578 0.374065 0.090844
0.834743 0.415862 0.090854
0.870015 0.461423 0.090866
0.891822 0.495245 0.090904
0.911869 0.529384 0.090944
0.923237 0.565208 0.090982
0.934296 0.602724 0.091034
0.943785 0.633118 0.091098
0.950610 0.664154 0.091161
0.956142 0.703791 0.091226
0.961519 0.732751 0.091319
0.965934 0.762281 0.091458
0.969738 0.786602 0.091632
0.082789 0.113861 0.090792
0.082774 0.114027 0.090792
0.082880 0.114625 0.090792
0.083397 0.115852 0.090792
0.084138 0.118157 0.090792
0.085936 0.121391 0.090792
0.088899 0.126183 0.090792
0.094481 0.132810 0.090791
0.108329 0.140779 0.090791
0.133119 0.151199 0.090791
0.177598 0.163169 0.090791
0.228211 0.177070 0.090791
0.275313 0.194601 0.090791
0.331737 0.213279 0.090793
0.397892 0.232309 0.090797
0.471471 0.261793 0.090801
0.547713 0.285660 0.090804
0.611189 0.321187 0.090813
0.685790 0.346899 0.090825
0.747598 0.379518 0.090836
0.796235 0.419020 0.090846
0.835231 0.461976 0.090857
0.870332 0.493972 0.090872
0.892077 0.526381 0.090912
0.911999 0.560464 0.090951
0.923357 0.596232 0.090989
0.934408 0.626897 0.091045
0.943856 0.656275 0.091109
0.950662 0.694092 0.091171
0.956191 0.723961 0.091241
0.961565 0.752516 0.091338
0.965966 0.778554 0.091478
0.969768 0.800817 0.091668
0.082771 0.141345 0.090792
0.082803 0.141671 0.090792
0.082914 0.142943 0.090792
0.083517 0.145554 0.090792
0.084310 0.149103 0.090792
0.086011 0.153938 0.090792
0.089190 0.160154 0.090791
0.094912 0.167844 0.090791
0.108914 0.177203 0.090791
0.134472 0.189267 0.090791
0.179307 0.203735 0.090791
0.229517 0.217273 0.090791
0.276929 0.233832 0.090791
0.333256 0.258653 0.090795
0.399907 0.279790 0.090799
0.472704 0.305405 0.090802
0.548974 0.334436 0.090806
0.612422 0.358524 0.090817
0.686940 0.392541 0.090828
0.748321 0.429984 0.090839
0.796967 0.468983 0.090849
0.835775 0.498011 0.090859
0.870641 0.528695 0.090882
0.892361 0.561044 0.090921
0.912143 0.595070 0.090960
0.923491 0.624694 0.090997
0.934532 0.652791 0.091058
0.943936 0.687845 0.091121
0.950720 0.718610 0.091181
0.956245 0.746120 0.091257
0.961615 0.772972 0.091361
0.966001 0.794552 0.091500
0.969801 0.816378 0.091706
0.082817 0.182111 0.090792
0.082850 0.182541 0.090792
0.082948 0.184089 0.090792
0.083573 0.186950 0.090792
0.084492 0.191260 0.090792
0.086092 0.197142 0.090791
0.089505 0.204718 0.090791
0.095707 0.212624 0.090791
0.109601 0.220854 0.090791
0.135969 0.232987 0.090791
0.181199 0.250585 0.090791
0.230959 0.268790 0.090791
0.278716 0.285267 0.090793
0.334936 0.308635 0.090797
0.402137 0.332840 0.090800
0.474066 0.353430 0.090804
0.550367 0.381163 0.090810
0.613785 0.413445 0.090821
0.688210 0.449014 0.090832
0.748973 0.480084 0.090842
0.797776 0.507406 0.090852
0.836376 0.536373 0.090862
0.870978 0.566996 0.090892
0.892675 0.599284 0.090931
0.912302 0.626560 0.090969
0.923638 0.653324 0.091008
0.934669 0.686828 0.091072
0.944023 0.716769 0.091133
0.950785 0.743171 0.091193
0.956306 0.769618 0.091274
0.961672 0.790758 0.091387
0.966040 0.811865 0.091523
0.969838 0.828090 0.091720
0.082866 0.230184 0.090792
0.082895 0.230651 0.090791
0.083130 0.232330 0.090791
0.083614 0.235647 0.090791
0.084682 0.240967 0.090791
0.086254 0.248241 0.090791
0.089844 0.257634 0.090791
0.096570 0.267436 0.090791
0.110443 0.277269 0.090791
0.137612 0.288792 0.090791
0.183279 0.305906 0.090791
0.232540 0.326432 0.090792
0.280677 0.341974 0.090795
0.336778 0.359491 0.090799
0.404383 0.384336 0.090802
0.475559 0.412005 0.090805
0.551894 0.442667 0.090815
0.615279 0.472552 0.090825
0.689602 0.496562 0.090836
0.749688 0.522191 0.090846
0.798662 0.549452 0.090855
0.837034 0.578357 0.090867
0.871348 0.608090 0.090903
0.893018 0.632517 0.090941
0.912477 0.657903 0.090978
0.923800 0.691085 0.091024
0.934819 0.718482 0.091086
0.944119 0.743717 0.091147
0.950856 0.769084 0.091206
0.956371 0.789492 0.091293
0.961733 0.809814 0.091414
0.966083 0.826437 0.091549
0.969878 0.838720 0.091726
0.082912 0.290690 0.090791
0.082937 0.291095 0.090791
0.083312 0.292551 0.090791
0.083682 0.295233 0.090791
0.084880 0.301258 0.090791
0.086552 0.310273 0.090791
0.090267 0.321361 0.090791
0.097502 0.329177 0.090791
0.111355 0.338486 0.090791
0.139403 0.349342 0.090791
0.185551 0.362784 0.090791
0.234261 0.381166 0.090794
0.282815 0.402009 0.090797
0.338786 0.425455 0.090801
0.406825 0.451656 0.090804
0.477184 0.475338 0.090809
0.553556 0.496095 0.090819
0.616905 0.518441 0.090830
0.691118 0.542391 0.090840
0.750465 0.567959 0.090849
0.799626 0.595158 0.090859
0.837750 0.619560 0.090878
0.871749 0.642554 0.090915
0.893392 0.667832 0.090952
0.912667 0.700483 0.090988
0.923976 0.723763 0.091041
0.934983 0.747782 0.091102
0.944224 0.771664 0.091162
0.950933 0.790786 0.091224
0.956443 0.810264 0.091313
0.961800 0.826225 0.091444
0.966130 0.838056 0.091598
0.969922 0.849948 0.091733
0.082989 0.355248 0.090791
0.083111 0.355628 0.090791
0.083489 0.356996 0.090791
0.083796 0.359829 0.090791
0.085083 0.364714 0.090791
0.086885 0.371348 0.090791
0.090725 0.379842 0.090791
0.098500 0.390302 0.090791
0.112430 0.402839 0.090791
0.141517 0.417564 0.090791
0.188018 0.434597 0.090794
0.236124 0.454063 0.090797
0.285134 0.472285 0.090800
0.340961 0.488328 0.090803
0.409474 0.505905 0.090805
0.478943 0.525035 0.090815
0.555356 0.545736 0.090825
0.618666 0.568024 0.090834
0.692759 0.591915 0.090844
0.751306 0.614566 0.090853
0.800669 0.635089 0.090862
0.838524 0.656633 0.090891
0.872184 0.684431 0.090928
0.893796 0.710601 0.090964
0.912872 0.732597 0.090999
0.924166 0.755360 0.091059
0.935160 0.776455 0.091119
0.944336 0.794646 0.091177
0.951016 0.813227 0.091247
0.956521 0.827466 0.091341
0.961872 0.838802 0.091476
0.966181 0.850225 0.091654
0.969970 0.858024 0.091761
0.083216 0.431348 0.090791
0.083323 0.431870 0.090791
0.083580 0.433750 0.090791
0.084081 0.437215 0.090791
0.085426 0.442415 0.090791
0.087231 0.449473 0.090791
0.091208 0.458502 0.090791
0.099564 0.467905 0.090791
0.113884 0.476733 0.090791
0.143868 0.486835 0.090794
0.190685 0.498371 0.090796
0.238131 0.511369 0.090799
0.287636 0.525855 0.090802
0.343307 0.541850 0.090804
0.412333 0.559377 0.090811
0.480838 0.578455 0.090820
0.557295 0.599102 0.090830
0.620563 0.617536 0.090839
0.694527 0.635545 0.090848
0.752210 0.654602 0.090857
0.801792 0.678529 0.090869
0.839358 0.704379 0.090906
0.872652 0.724253 0.090941
0.894231 0.744940 0.090977
0.913094 0.766163 0.091018
0.924371 0.783831 0.091078
0.935350 0.801050 0.091137
0.944458 0.818694 0.091194
0.951106 0.830155 0.091271
0.956604 0.840956 0.091377
0.961951 0.851874 0.091509
0.966236 0.859034 0.091714
0.970021 0.871814 0.091831
0.083431 0.500099 0.090791
0.083526 0.500451 0.090791
0.083645 0.501717 0.090791
0.084365 0.504046 0.090791
0.085797 0.507530 0.090791
0.087590 0.512236 0.090791
0.091714 0.518219 0.090791
0.100725 0.525527 0.090792
0.115437 0.534198 0.090794
0.146398 0.544269 0.090797
0.193556 0.555770 0.090799
0.240283 0.568729 0.090801
0.290323 0.583173 0.090804
0.345825 0.599123 0.090808
0.415406 0.613942 0.090817
0.482869 0.628358 0.090826
0.559373 0.643846 0.090835
0.622598 0.660397 0.090844
0.696423 0.682879 0.090853
0.753179 0.705140 0.090861
0.802996 0.722822 0.090885
0.840252 0.741357 0.090921
0.873153 0.760726 0.090955
0.894698 0.777991 0.090989
0.913331 0.793734 0.091040
0.924591 0.809954 0.091098
0.935554 0.824187 0.091155
0.944588 0.834267 0.091211
0.951202 0.844504 0.091297
0.956694 0.854883 0.091415
0.962034 0.861904 0.091545
0.966294 0.874128 0.091723
0.970076 0.886495 0.091905
0.083571 0.561441 0.090791
0.083599 0.561792 0.090791
0.083739 0.563054 0.090791
0.084649 0.565376 0.090791
0.085959 0.568848 0.090791
0.088116 0.573539 0.090792
0.092241 0.579504 0.090794
0.102089 0.586790 0.090795
0.117090 0.595435 0.090797
0.150872 0.605463 0.090799
0.197963 0.614201 0.090801
0.242582 0.624002 0.090804
0.293200 0.634869 0.090807
0.348518 0.646806 0.090815
0.418695 0.659809 0.090823
0.486747 0.677458 0.090832
0.561594 0.697381 0.090840
0.625400 0.712814 0.090849
0.698448 0.728271 0.090857
0.754213 0.744610 0.090868
0.804281 0.761813 0.090902
0.841205 0.777204 0.090936
0.873687 0.791383 0.090970
0.895196 0.806086 0.091004
0.913583 0.821024 0.091062
0.924825 0.830293 0.091119
0.935772 0.839760 0.091175
0.944728 0.849410 0.091239
0.951304 0.857003 0.091325
0.956790 0.866279 0.091454
0.962123 0.877919 0.091607
0.966357 0.889726 0.091733
0.970134 0.901688 0.091982
0.083643 0.621512 0.090793
0.083687 0.621777 0.090793
0.084082 0.622730 0.090793
0.084930 0.624482 0.090794
0.086098 0.627098 0.090795
0.088687 0.630629 0.090796
0.092862 0.635109 0.090797
0.103526 0.640567 0.090798
0.118842 0.647026 0.090800
0.155149 0.654503 0.090802
0.202716 0.663230 0.090804
0.245028 0.675730 0.090807
0.296048 0.689662 0.090814
0.351387 0.703473 0.090822
0.422205 0.714889 0.090830
0.494273 0.727221 0.090838
0.563957 0.740460 0.090846
0.628689 0.754595 0.090854
0.700602 0.769064 0.090862
0.755312 0.781448 0.090886
0.805631 0.794005 0.090919
0.842220 0.807125 0.090952
0.874256 0.820726 0.090985
0.895725 0.829112 0.091029
0.913852 0.837735 0.091085
0.925074 0.846579 0.091140
0.936003 0.855528 0.091195
0.944876 0.861297 0.091269
0.951414 0.872125 0.091368
0.956891 0.883158 0.091496
0.962219 0.894382 0.091681
0.966423 0.905782 0.091781
0.970196 0.917347 0.092072
0.083770 0.676437 0.090796
0.083921 0.676775 0.090796
0.084423 0.677992 0.090797
0.085281 0.680231 0.090797
0.086447 0.683579 0.090798
0.089271 0.688102 0.090799
0.093737 0.693854 0.090800
0.105035 0.700637 0.090801
0.120692 0.706303 0.090803
0.158475 0.712856 0.090805
0.207861 0.720307 0.090808
0.247624 0.728661 0.090815
0.299068 0.737921 0.090822
0.354436 0.748085 0.090829
0.425938 0.759151 0.090836
0.500881 0.770426 0.090844
0.566464 0.780291 0.090851
0.632185 0.790598 0.090859
0.702888 0.801512 0.090872
0.756477 0.813015 0.090904
0.806772 0.823278 0.090937
0.843295 0.830734 0.090968
0.874858 0.838458 0.091000
0.896286 0.846437 0.091054
0.914137 0.854653 0.091109
0.925338 0.859262 0.091163
0.936249 0.869207 0.091218
0.945032 0.879393 0.091300
0.951529 0.889804 0.091414
0.956999 0.900427 0.091539
0.962319 0.911247 0.091721
0.966494 0.922252 0.091871
0.970263 0.928102 0.092169
0.084158 0.731746 0.090800
0.084296 0.731972 0.090800
0.084755 0.732780 0.090800
0.085761 0.734268 0.090800
0.086941 0.736489 0.090801
0.089867 0.739486 0.090802
0.094641 0.743289 0.090803
0.106613 0.747921 0.090804
0.123055 0.753401 0.090805
0.162012 0.759743 0.090810
0.211567 0.766649 0.090816
0.250369 0.773574 0.090822
0.302268 0.780333 0.090829
0.357665 0.787735 0.090836
0.429898 0.795774 0.090843
0.502337 0.804440 0.090850
0.569115 0.813723 0.090857
0.635889 0.822401 0.090865
0.705307 0.828595 0.090893
0.757707 0.835097 0.090924
0.807979 0.841893 0.090954
0.844431 0.848969 0.090985
0.875494 0.855809 0.091027
0.896879 0.860195 0.091080
0.914438 0.869204 0.091133
0.925618 0.878484 0.091186
0.936509 0.888022 0.091252
0.945198 0.897803 0.091338
0.951652 0.907814 0.091461
0.957113 0.918041 0.091610
0.962426 0.926377 0.091732
0.966568 0.930066 0.091964
0.970332 0.933337 0.092269
0.084531 0.777749 0.090803
0.084657 0.777914 0.090803
0.085078 0.778503 0.090803
0.085982 0.779586 0.090803
0.087437 0.781203 0.090804
0.090588 0.783383 0.090805
0.096070 0.786146 0.090806
0.108033 0.789510 0.090809
0.128114 0.793484 0.090814
0.165766 0.798076 0.090819
0.214634 0.803292 0.090824
0.253266 0.809132 0.090830
0.305649 0.815596 0.090836
0.361076 0.821849 0.090842
0.434087 0.826405 0.090849
0.503869 0.831301 0.090856
0.571913 0.836529 0.090862
0.639805 0.842078 0.090884
0.707858 0.847938 0.090913
0.759004 0.854098 0.090943
0.809250 0.857541 0.090972
0.845629 0.864059 0.091003
0.876165 0.872095 0.091055
0.897504 0.880430 0.091107
0.914756 0.889050 0.091158
0.925912 0.897941 0.091209
0.936782 0.907091 0.091287
0.945373 0.916487 0.091389
0.951781 0.925554 0.091510
0.957233 0.928981 0.091697
0.962538 0.932278 0.091790
0.966647 0.934966 0.092069
0.970406 0.937208 0.092373
0.084889 0.814975 0.090806
0.085005 0.815132 0.090806
0.085603 0.815694 0.090806
0.086193 0.816728 0.090807
0.088077 0.818271 0.090809
0.091327 0.820352 0.090812
0.097735 0.822034 0.090815
0.109425 0.823937 0.090818
0.131296 0.826182 0.090822
0.169739 0.828773 0.090827
0.217778 0.831710 0.090832
0.257005 0.834993 0.090837
0.309214 0.838618 0.090843
0.364672 0.842581 0.090849
0.438510 0.846877 0.090855
0.505477 0.851500 0.090862
0.574858 0.855862 0.090878
0.643934 0.858010 0.090906
0.710543 0.864032 0.090934
0.760366 0.870754 0.090962
0.810586 0.877805 0.090991
0.846889 0.885175 0.091033
0.876870 0.892851 0.091084
0.898160 0.900822 0.091134
0.915089 0.909075 0.091184
0.926221 0.917599 0.091246
0.937070 0.925647 0.091323
0.945557 0.928789 0.091442
0.951916 0.931910 0.091566
0.957360 0.934496 0.091725
0.962656 0.936596 0.091895
0.966730 0.938709 0.092183
0.970484 0.940846 0.092481
0.085327 0.839313 0.090815
0.085512 0.839400 0.090815
0.085947 0.839714 0.090816
0.086742 0.840291 0.090817
0.088825 0.841153 0.090819
0.092075 0.842314 0.090821
0.099453 0.843785 0.090824
0.111143 0.845574 0.090827
0.134646 0.847686 0.090831
0.173938 0.850124 0.090835
0.221024 0.852890 0.090840
0.260975 0.855674 0.090845
0.312963 0.857074 0.090850
0.368455 0.859320 0.090856
0.443169 0.863985 0.090861
0.507160 0.869014 0.090875
0.577950 0.874399 0.090901
0.648160 0.880132 0.090928
0.713362 0.886206 0.090955
0.761794 0.892611 0.090982
0.811987 0.899337 0.091016
0.848210 0.906375 0.091065
0.877609 0.913714 0.091113
0.898850 0.921343 0.091162
0.915439 0.926648 0.091210
0.926546 0.929489 0.091285
0.937372 0.932235 0.091381
0.945750 0.934592 0.091497
0.952059 0.936510 0.091664
0.957493 0.938463 0.091740
0.962780 0.940446 0.092004
0.966816 0.942457 0.092300
0.970565 0.944493 0.092592
0.085863 0.857747 0.090824
0.085925 0.857781 0.090824
0.086152 0.857901 0.090825
0.087328 0.858123 0.090826
0.089574 0.858901 0.090828
0.092929 0.860157 0.090830
0.101329 0.861750 0.090832
0.113242 0.863688 0.090835
0.138167 0.865977 0.090839
0.178365 0.868623 0.090843
0.224424 0.871627 0.090847
0.265148 0.874991 0.090852
0.316899 0.878713 0.090857
0.372425 0.882792 0.090862
0.448067 0.887224 0.090876
0.508920 0.892004 0.090900
0.581190 0.897127 0.090925
0.652554 0.902587 0.090950
0.716317 0.908376 0.090976
0.763289 0.914487 0.091003
0.813454 0.920910 0.091049
0.849593 0.926086 0.091096
0.878383 0.928529 0.091143
0.899571 0.931059 0.091190
