provia100f/Provia100F_Modern_RadianceIII.cube
TITLE "Fuji Provia 100F Modern RadianceIII"
# Adobe RGB in/out. REPLACES AgX. Fuji Provia 100F Modern RadianceIII.
LUT_3D_SIZE 5
DOMAIN_MIN 0.0 0.0 0.0
DOMAIN_MAX 1.0 1.0 1.0
0.079466 0.087905 0.084059
0.387807 0.222201 0.093546
0.745655 0.427935 0.134707
0.927799 0.572315 0.191542
0.971091 0.668241 0.243609
0.089556 0.346583 0.089368
0.280962 0.303502 0.092008
0.650888 0.447448 0.123497
0.900043 0.581237 0.181080
0.966825 0.675314 0.236986
0.121051 0.595507 0.105634
0.328147 0.569149 0.109413
0.583155 0.559011 0.126153
0.833854 0.624558 0.168355
0.949541 0.705101 0.224098
0.153397 0.733023 0.129773
0.331235 0.722654 0.133923
0.591760 0.708715 0.149531
0.803845 0.720812 0.178343
0.932780 0.764354 0.221399
0.186318 0.814302 0.151288
0.324708 0.812116 0.155323
0.570414 0.809382 0.170135
0.787522 0.815432 0.196831
0.921438 0.834117 0.231843
0.079466 0.094653 0.400394
0.398121 0.234553 0.406215
0.731815 0.421420 0.378779
0.918837 0.564250 0.374415
0.969469 0.662261 0.381285
0.086503 0.294769 0.336448
0.210455 0.245300 0.239039
0.619694 0.427499 0.316643
0.889619 0.571479 0.349213
0.965191 0.669131 0.368957
0.115695 0.571415 0.345491
0.306376 0.547236 0.315976
0.552856 0.538201 0.284313
0.817606 0.613250 0.310762
0.946539 0.699066 0.342981
0.150683 0.722819 0.327479
0.323358 0.713011 0.319370
0.581012 0.699616 0.305672
0.795094 0.713746 0.306932
0.931068 0.760737 0.328594
0.184733 0.811339 0.307081
0.322115 0.809339 0.306101
0.567299 0.807086 0.305889
0.784822 0.813858 0.312746
0.920843 0.833607 0.329251
0.079466 0.123048 0.738513
0.398121 0.256937 0.740181
0.796240 0.472765 0.736254
0.925595 0.574530 0.655871
0.968742 0.661482 0.618710
0.089015 0.353429 0.724243
0.355810 0.379787 0.683386
0.675414 0.473330 0.635753
0.893444 0.577971 0.614886
0.964193 0.666995 0.600297
0.108166 0.535181 0.597201
0.278412 0.520409 0.562123
0.502756 0.500105 0.496106
0.803002 0.604460 0.540209
0.943014 0.693020 0.559024
0.144662 0.700114 0.580826
0.306769 0.692525 0.567449
0.560000 0.682252 0.537877
0.774340 0.698985 0.521766
0.927448 0.754249 0.532705
0.180630 0.803825 0.546079
0.315502 0.802449 0.541981
0.559705 0.801705 0.532024
0.778345 0.810299 0.525173
0.919419 0.832590 0.527199
0.079466 0.177469 0.931044
0.398121 0.290338 0.931318
0.807146 0.497379 0.932202
0.938821 0.603027 0.888620
0.970623 0.673117 0.832616
0.089556 0.386303 0.931187
0.405027 0.441453 0.931456
0.757654 0.539948 0.906054
0.915472 0.607074 0.856936
0.965939 0.677800 0.812630
0.108486 0.543116 0.820490
0.296345 0.545122 0.804127
0.585293 0.568111 0.773977
0.829146 0.627106 0.764387
0.944696 0.699361 0.759686
0.139001 0.679747 0.772066
0.292396 0.675986 0.759067
0.545593 0.671874 0.726493
0.752502 0.684920 0.697517
0.924511 0.752361 0.716810
0.175645 0.795046 0.737902
0.307539 0.794613 0.733127
0.551186 0.796155 0.720598
0.771453 0.807022 0.709603
0.918061 0.832163 0.708038
0.079466 0.248869 0.976624
0.398121 0.331953 0.976691
0.807146 0.519928 0.976930
0.948347 0.630727 0.968083
0.973124 0.689431 0.943403
0.089556 0.417979 0.976659
0.405027 0.468649 0.976726
0.802226 0.580781 0.975847
0.932384 0.637513 0.959179
0.968603 0.694382 0.935994
0.114459 0.584673 0.952430
0.331765 0.591619 0.948434
0.644691 0.616862 0.937922
0.866913 0.660361 0.924343
0.949904 0.714750 0.905107
0.137287 0.677211 0.903483
0.290573 0.677961 0.898210
0.556526 0.685885 0.884848
0.786277 0.713734 0.874718
0.928610 0.760975 0.871694
0.171238 0.787557 0.877628
0.300656 0.788263 0.875120
0.544569 0.792783 0.867768
0.767089 0.806013 0.857923
0.917475 0.833169 0.856220
