provia100f/Provia100F_Modern_ExtraPunchy.cube
TITLE "Fuji Provia 100F Modern ExtraPunchy"
# Adobe RGB in/out. REPLACES AgX. Fuji Provia 100F Modern ExtraPunchy.
LUT_3D_SIZE 5
DOMAIN_MIN 0.0 0.0 0.0
DOMAIN_MAX 1.0 1.0 1.0
0.071567 0.071941 0.066283
0.304524 0.075277 0.066282
0.924532 0.355856 0.066472
0.981344 0.781434 0.068153
0.990113 0.914191 0.071819
0.071569 0.158956 0.066283
0.162478 0.101762 0.066282
0.844456 0.421825 0.066378
0.975753 0.799536 0.067730
0.988959 0.922103 0.071206
0.074295 0.822251 0.066303
0.222461 0.770128 0.066319
0.741236 0.730869 0.066387
0.958941 0.866275 0.067168
0.986100 0.943056 0.070177
0.080817 0.956939 0.066406
0.225851 0.952290 0.066462
0.755630 0.945335 0.066656
0.948242 0.951459 0.067590
0.983025 0.965488 0.069958
0.089542 0.979403 0.066693
0.218708 0.978818 0.066808
0.713358 0.978084 0.067229
0.941553 0.979706 0.068372
0.980075 0.984473 0.070794
0.071567 0.071941 0.271672
0.320831 0.077040 0.291417
0.915391 0.335535 0.210707
0.979554 0.750990 0.200185
0.989675 0.906758 0.216938
0.071519 0.095618 0.125497
0.100921 0.078672 0.071378
0.797607 0.354314 0.103518
0.973700 0.779342 0.147433
0.988515 0.915296 0.187606
0.073423 0.779087 0.140475
0.199019 0.686947 0.102944
0.671265 0.657857 0.083308
0.953982 0.850384 0.098524
0.985570 0.938845 0.136117
0.080009 0.952364 0.113245
0.217242 0.947699 0.105911
0.737641 0.939230 0.094324
0.944559 0.948103 0.095353
0.982429 0.964878 0.114278
0.088745 0.978609 0.095475
0.215895 0.978072 0.094674
0.705799 0.977466 0.094500
0.940581 0.979285 0.100191
0.979956 0.984354 0.114889
0.071567 0.072019 0.944151
0.320831 0.080835 0.944886
0.945043 0.494774 0.943155
0.980905 0.786052 0.895714
0.989478 0.905789 0.863566
0.071546 0.172780 0.937825
0.256755 0.229783 0.921816
0.870983 0.496159 0.876672
0.974405 0.793242 0.856956
0.988244 0.912643 0.830486
0.072632 0.649656 0.824894
0.159718 0.610912 0.752233
0.560710 0.566246 0.568735
0.947888 0.836432 0.694190
0.984945 0.934610 0.743883
0.078457 0.939578 0.795441
0.199445 0.934263 0.766695
0.688241 0.927022 0.688151
0.936785 0.938789 0.645738
0.981274 0.963656 0.674788
0.087222 0.976586 0.709508
0.208805 0.976213 0.698796
0.687537 0.976012 0.672937
0.938239 0.978330 0.654730
0.979670 0.984115 0.660018
0.071567 0.073206 0.989263
0.320831 0.093059 0.989323
0.949625 0.558823 0.989537
0.984200 0.834160 0.983597
0.989987 0.920247 0.977504
0.071569 0.243843 0.989294
0.331978 0.401110 0.989354
0.930668 0.662628 0.985841
0.978878 0.840577 0.980435
0.988718 0.923868 0.974796
0.072646 0.672002 0.975955
0.180680 0.679250 0.972202
0.744806 0.766045 0.959536
0.957583 0.869069 0.955422
0.985244 0.939052 0.953393
0.077292 0.925249 0.958719
0.175607 0.922580 0.953125
0.654216 0.918703 0.938828
0.928492 0.928908 0.928772
0.980689 0.963186 0.935287
0.086073 0.974128 0.943882
0.200280 0.973959 0.941773
0.667325 0.974505 0.936195
0.935733 0.977448 0.933820
0.979398 0.984015 0.933285
0.071567 0.079206 0.992228
0.320831 0.137227 0.992230
0.949625 0.609688 0.992237
0.985890 0.873035 0.991854
0.990662 0.932087 0.990399
0.071569 0.326568 0.992229
0.331978 0.484739 0.992231
0.947562 0.798667 0.992205
0.982887 0.880036 0.991252
0.989440 0.935566 0.989729
0.073229 0.805133 0.990889
0.226435 0.816103 0.990673
0.837007 0.856125 0.989939
0.966786 0.904396 0.988154
0.986164 0.948654 0.985720
0.076933 0.923450 0.985513
0.173412 0.923982 0.984836
0.679960 0.929588 0.983107
0.941105 0.948096 0.981724
0.981572 0.964918 0.981267
0.085043 0.971378 0.982161
0.187883 0.971613 0.981784
0.651830 0.973243 0.980808
0.934138 0.977176 0.980553
0.979280 0.984251 0.980350
