provia100f/Provia100F_Modern_Soft.cube
TITLE "Fuji Provia 100F Modern Soft"
# Adobe RGB in/out. REPLACES AgX. Fuji Provia 100F Modern Soft.
LUT_3D_SIZE 5
DOMAIN_MIN 0.0 0.0 0.0
DOMAIN_MAX 1.0 1.0 1.0
0.082825 0.083895 0.090792
0.319535 0.089483 0.090791
0.912315 0.368055 0.090914
0.974193 0.748243 0.091727
0.986835 0.892103 0.094401
0.082826 0.191293 0.090792
0.170116 0.127440 0.090791
0.827144 0.424143 0.090853
0.966210 0.770325 0.091474
0.985465 0.901468 0.093830
0.084730 0.798228 0.090804
0.234811 0.740243 0.090815
0.728414 0.714913 0.090859
0.947089 0.841165 0.091247
0.982078 0.930689 0.093219
0.089008 0.939786 0.090871
0.238401 0.936745 0.090907
0.743262 0.932185 0.091032
0.936314 0.936201 0.091418
0.976597 0.948014 0.093095
0.096277 0.964009 0.091053
0.230838 0.963335 0.091100
0.701794 0.962490 0.091271
0.929021 0.964357 0.091895
0.972379 0.969846 0.093566
0.082825 0.083895 0.289342
0.335301 0.092894 0.306013
0.903630 0.352425 0.232121
0.971635 0.727951 0.222411
0.986315 0.884185 0.237834
0.082787 0.118387 0.150935
0.106873 0.096176 0.093990
0.784561 0.366877 0.126621
0.963207 0.746125 0.171836
0.984940 0.893281 0.210691
0.084250 0.745963 0.164945
0.209996 0.679527 0.126010
0.665771 0.651398 0.104520
0.942077 0.827995 0.121290
0.981450 0.927921 0.160825
0.088410 0.936793 0.139039
0.229286 0.933736 0.129162
0.723910 0.928174 0.116781
0.932298 0.934001 0.117889
0.975745 0.947314 0.140438
0.095583 0.963095 0.118020
0.227860 0.962477 0.117158
0.695346 0.961779 0.116971
0.927962 0.963872 0.123074
0.972209 0.969708 0.141267
0.082825 0.084023 0.924398
0.335301 0.099541 0.925827
0.932825 0.491295 0.922461
0.973566 0.753863 0.861214
0.986081 0.883153 0.827200
0.082808 0.204587 0.912134
0.271129 0.258377 0.883570
0.857720 0.492529 0.844860
0.964288 0.762632 0.821715
0.984618 0.890454 0.799694
0.083666 0.643463 0.795030
0.166966 0.605943 0.728766
0.555356 0.554505 0.558700
0.935928 0.815754 0.680035
0.980710 0.924906 0.721788
0.087255 0.928402 0.770393
0.210447 0.924251 0.740825
0.680334 0.910652 0.673601
0.923826 0.927883 0.624613
0.974093 0.945911 0.657520
0.094247 0.960767 0.692948
0.220355 0.960339 0.683922
0.679731 0.960107 0.655299
0.925411 0.962774 0.633522
0.971801 0.969434 0.639832
0.082825 0.086001 0.982072
0.335301 0.114799 0.982126
0.937822 0.547981 0.982319
0.979598 0.812941 0.976970
0.986685 0.898558 0.967856
0.082826 0.272235 0.982100
0.346043 0.406299 0.982154
0.917166 0.656014 0.978991
0.970669 0.820789 0.974121
0.985180 0.904758 0.960717
0.083677 0.665079 0.963771
0.190694 0.672087 0.957392
0.732613 0.737630 0.944767
0.945644 0.844127 0.940667
0.981063 0.928056 0.938645
0.086383 0.907336 0.943952
0.185162 0.902357 0.938378
0.649110 0.896913 0.914073
0.915089 0.914184 0.894727
0.973257 0.945372 0.907238
0.092961 0.957941 0.923875
0.211331 0.957747 0.919778
0.662384 0.958374 0.908989
0.922681 0.961760 0.904413
0.971412 0.969318 0.903385
0.082825 0.097259 0.988287
0.335301 0.166354 0.988291
0.937822 0.604551 0.988309
0.981828 0.848335 0.987378
0.987486 0.920155 0.983848
0.082826 0.345449 0.988289
0.346043 0.482348 0.988294
0.935573 0.769262 0.988230
0.976400 0.855768 0.985916
0.986037 0.925762 0.982492
0.084136 0.777181 0.985035
0.239019 0.790655 0.984511
0.819525 0.832205 0.982733
0.955438 0.881669 0.981074
0.982154 0.934363 0.978882
0.086167 0.903979 0.978695
0.182640 0.904972 0.978086
0.673236 0.915461 0.976528
0.928533 0.933997 0.975282
0.974519 0.947360 0.974870
0.092105 0.954780 0.975676
0.198247 0.955050 0.975336
0.646131 0.956924 0.974457
0.920944 0.961446 0.974227
0.971244 0.969590 0.974044
