provia100f/Provia100F_Modern_Soft.cube
TITLE "Fuji Provia 100F Modern Soft"
# Adobe RGB in/out. REPLACES AgX. Fuji Provia 100F Modern Soft.
LUT_3D_SIZE 9
DOMAIN_MIN 0.0 0.0 0.0
DOMAIN_MAX 1.0 1.0 1.0
0.082825 0.083895 0.090792
0.089084 0.083895 0.090792
0.319535 0.089483 0.090791
0.730917 0.165326 0.090817
0.912315 0.368055 0.090914
0.955315 0.588012 0.091174
0.974193 0.748243 0.091727
0.983158 0.839452 0.092959
0.986835 0.892103 0.094401
0.082825 0.084512 0.090792
0.084801 0.084361 0.090792
0.220221 0.091096 0.090791
0.636540 0.171728 0.090805
0.893427 0.377161 0.090883
0.951360 0.594553 0.091140
0.972221 0.752718 0.091701
0.982712 0.841318 0.092860
0.986514 0.894062 0.094257
0.082826 0.191293 0.090792
0.088772 0.153286 0.090792
0.170116 0.127440 0.090791
0.470594 0.218702 0.090800
0.827144 0.424143 0.090853
0.936307 0.619435 0.091051
0.966210 0.770325 0.091474
0.980918 0.848552 0.092557
0.985465 0.901468 0.093830
0.083562 0.553361 0.090791
0.091524 0.512510 0.090791
0.218674 0.434270 0.090795
0.434388 0.418135 0.090804
0.743627 0.525270 0.090845
0.913342 0.677872 0.090985
0.956700 0.801354 0.091308
0.975975 0.859886 0.092175
0.983893 0.916375 0.093491
0.084730 0.798228 0.090804
0.093864 0.783032 0.090805
0.234811 0.740243 0.090815
0.471509 0.708169 0.090833
0.728414 0.714913 0.090859
0.885935 0.773668 0.090976
0.947089 0.841165 0.091247
0.969788 0.889096 0.091900
0.982078 0.930689 0.093219
0.086273 0.895899 0.090838
0.097914 0.889718 0.090841
0.239311 0.872894 0.090849
0.483774 0.857584 0.090863
0.743155 0.855614 0.090935
0.882239 0.860320 0.091051
0.938241 0.885958 0.091258
0.964837 0.927359 0.091824
0.980088 0.939247 0.093075
0.089008 0.939786 0.090871
0.102867 0.939013 0.090879
0.238401 0.936745 0.090907
0.480215 0.934030 0.090955
0.743262 0.932185 0.091032
0.882503 0.932971 0.091169
0.936314 0.936201 0.091418
0.960656 0.941018 0.091935
0.976597 0.948014 0.093095
0.092067 0.952392 0.090961
0.107673 0.951860 0.090968
0.235176 0.950337 0.090992
0.466897 0.949308 0.091056
0.729981 0.948662 0.091154
0.877690 0.948861 0.091306
0.933855 0.950119 0.091680
0.959199 0.954177 0.092339
0.974100 0.959523 0.093274
0.096277 0.964009 0.091053
0.111523 0.963840 0.091064
0.230838 0.963335 0.091100
0.444742 0.962747 0.091163
0.701794 0.962490 0.091271
0.867647 0.962949 0.091501
0.929021 0.964357 0.091895
0.956775 0.966762 0.092709
0.972379 0.969846 0.093566
0.082825 0.083895 0.091588
0.090302 0.083959 0.091703
0.319499 0.089771 0.091782
0.708079 0.157202 0.092032
0.905114 0.351210 0.092688
0.953256 0.572776 0.093457
0.973119 0.739166 0.094866
0.982915 0.836298 0.097967
0.986666 0.889434 0.103301
0.082825 0.084285 0.091042
0.083630 0.084008 0.090833
0.202653 0.089292 0.091101
0.603405 0.159380 0.091496
0.883772 0.356037 0.092216
0.949252 0.578632 0.093185
0.971139 0.743478 0.094363
0.982457 0.838152 0.097402
0.986346 0.891398 0.102659
0.082793 0.163799 0.091491
0.087145 0.127355 0.091151
0.138339 0.111023 0.090940
0.429296 0.194442 0.091093
0.809308 0.394302 0.091492
0.932287 0.605866 0.092439
0.965120 0.761335 0.093567
0.980604 0.845373 0.095803
0.985301 0.898837 0.100637
0.083491 0.518648 0.091553
0.090397 0.480604 0.091369
0.199348 0.391417 0.091148
0.397583 0.377998 0.091087
0.720649 0.502944 0.091236
0.908984 0.659894 0.091737
0.955313 0.793976 0.092968
0.975276 0.857538 0.094356
0.983739 0.913851 0.098045
0.084596 0.784781 0.091599
0.092951 0.769652 0.091505
0.227337 0.723776 0.091331
0.457817 0.688248 0.091257
0.709945 0.699873 0.091301
0.880779 0.763798 0.091621
0.945623 0.837253 0.092554
0.969181 0.885868 0.093678
0.981902 0.929901 0.096450
0.086151 0.890168 0.091673
0.097005 0.884080 0.091623
0.235154 0.867434 0.091527
0.476287 0.855672 0.091493
0.734807 0.851319 0.091551
0.878613 0.857316 0.091736
0.936739 0.882586 0.092435
0.964376 0.926461 0.093481
0.979889 0.938853 0.095565
0.088856 0.939025 0.091723
0.102238 0.938259 0.091722
0.236034 0.936012 0.091720
0.476071 0.933134 0.091726
0.738637 0.931250 0.091817
0.880411 0.932175 0.092196
0.935290 0.935666 0.092777
0.960257 0.940648 0.093491
0.976380 0.947834 0.095372
0.091959 0.951818 0.091744
0.107366 0.951292 0.091757
0.233838 0.950049 0.091811
0.464636 0.949033 0.091940
0.726809 0.948404 0.092198
0.876562 0.948626 0.092602
0.933295 0.949919 0.093139
0.958956 0.953883 0.093806
0.973974 0.959385 0.095676
0.096112 0.963790 0.091868
0.111313 0.963624 0.091892
0.230123 0.963128 0.091983
0.442998 0.962555 0.092177
0.700233 0.962317 0.092483
0.867019 0.962800 0.092901
0.928765 0.964238 0.093423
0.956674 0.966682 0.094280
0.972338 0.969812 0.096552
0.082825 0.083895 0.289342
0.090302 0.084058 0.293053
0.335301 0.092894 0.306013
0.741308 0.176389 0.277303
0.903630 0.352425 0.232121
0.951453 0.562134 0.221708
0.971635 0.727951 0.222411
0.982479 0.831099 0.228530
0.986315 0.884185 0.237834
0.082825 0.085562 0.291277
0.090185 0.087459 0.274502
0.263730 0.099556 0.201518
0.623391 0.171998 0.190155
0.879946 0.352576 0.193119
0.946616 0.565355 0.199857
0.969569 0.731325 0.208655
0.981882 0.832773 0.219167
0.985992 0.886071 0.231112
0.082787 0.118387 0.150935
0.085901 0.107598 0.115035
0.106873 0.096176 0.093990
0.384977 0.173802 0.105771
0.784561 0.366877 0.126621
0.926755 0.583706 0.149901
0.963207 0.746125 0.171836
0.979977 0.839436 0.192151
0.984940 0.893281 0.210691
0.083222 0.439739 0.168945
0.088303 0.397027 0.144087
0.163958 0.326612 0.109884
0.333934 0.311193 0.099356
0.671970 0.461673 0.104392
0.895738 0.633693 0.118586
0.952476 0.779493 0.138604
0.973737 0.853941 0.160480
0.983375 0.908068 0.184247
0.084250 0.745963 0.164945
0.091372 0.728647 0.152431
0.209996 0.679527 0.126010
0.411889 0.641080 0.110108
0.665771 0.651398 0.104520
0.868218 0.737587 0.109481
0.942077 0.827995 0.121290
0.967677 0.878056 0.139475
0.981450 0.927921 0.160825
0.086002 0.874499 0.152338
0.094681 0.868814 0.146476
0.224289 0.856364 0.131743
0.456942 0.843819 0.118561
0.707706 0.839399 0.111536
0.868482 0.849154 0.110599
0.932708 0.873690 0.114623
0.962988 0.921815 0.128349
0.978991 0.937782 0.146835
0.088410 0.936793 0.139039
0.100412 0.936062 0.136532
0.229286 0.933736 0.129162
0.464391 0.930337 0.122077
0.723910 0.928174 0.116781
0.874387 0.929461 0.115196
0.932298 0.934001 0.117889
0.959106 0.939593 0.124865
0.975745 0.947314 0.140438
0.091625 0.950235 0.127182
0.106264 0.949971 0.126350
0.229787 0.949175 0.123833
0.457847 0.948210 0.120717
0.717336 0.947634 0.118574
0.873165 0.947925 0.118675
0.931594 0.949317 0.121723
0.958211 0.952994 0.127874
0.973584 0.958966 0.139022
0.095583 0.963095 0.118020
0.110643 0.962940 0.117792
0.227860 0.962477 0.117158
0.437525 0.961955 0.116624
0.695346 0.961779 0.116971
0.864495 0.962338 0.118944
0.927962 0.963872 0.123074
0.956356 0.966433 0.129733
0.972209 0.969708 0.141267
0.082825 0.083895 0.773411
0.090302 0.084317 0.774307
0.335301 0.095704 0.777512
0.772785 0.213041 0.783364
0.917156 0.406624 0.723919
0.953445 0.583507 0.663847
0.971721 0.732161 0.622774
0.982258 0.830050 0.603975
0.986081 0.881430 0.585485
0.082825 0.086248 0.773879
0.090794 0.088626 0.774774
0.337638 0.116602 0.777976
0.736926 0.238121 0.739164
0.898028 0.404023 0.672734
0.948792 0.584411 0.624821
0.969536 0.734347 0.607333
0.981635 0.831408 0.588762
0.985749 0.883131 0.575373
0.082783 0.128107 0.610791
0.086726 0.127141 0.560997
0.182626 0.144857 0.481985
0.472489 0.228529 0.479116
0.808246 0.402863 0.508012
0.927760 0.592804 0.527925
0.962565 0.744676 0.538455
0.979181 0.836962 0.542886
0.984666 0.889709 0.543704
0.082960 0.357840 0.533748
0.086907 0.338383 0.487265
0.141471 0.282006 0.353798
0.276929 0.240946 0.213148
0.649513 0.440597 0.317748
0.889589 0.623827 0.406179
0.950782 0.772173 0.455931
0.972598 0.849645 0.479986
0.983056 0.903521 0.497218
0.083823 0.693969 0.538928
0.089666 0.674247 0.514621
0.181817 0.632364 0.445197
0.364744 0.597232 0.336375
0.604961 0.607593 0.277533
0.848574 0.712778 0.312790
0.937669 0.819029 0.374425
0.966220 0.870970 0.425185
0.980986 0.926015 0.454896
0.085794 0.856761 0.521007
0.092810 0.854363 0.506776
0.210889 0.842191 0.464298
0.423409 0.829339 0.403894
0.674156 0.824987 0.342424
0.848580 0.835680 0.315690
0.927921 0.863478 0.331735
0.961016 0.914031 0.375539
0.977929 0.936567 0.416032
0.087778 0.933447 0.484259
0.098192 0.932620 0.477284
0.220289 0.929784 0.455779
0.446001 0.926148 0.418759
0.702380 0.922216 0.375174
0.865519 0.925704 0.347127
0.928251 0.931363 0.339416
0.957610 0.938259 0.352558
0.974913 0.946658 0.387613
0.091132 0.948885 0.447787
0.104563 0.948647 0.444066
0.224009 0.947926 0.427370
0.444712 0.947057 0.402455
0.704220 0.946575 0.376147
0.868120 0.946962 0.357715
0.929194 0.948486 0.351437
0.957151 0.951760 0.357620
0.973040 0.958405 0.374694
0.094823 0.962042 0.391502
0.109622 0.961905 0.388712
0.224452 0.961502 0.379776
0.429412 0.961069 0.367217
0.688147 0.960999 0.355337
0.860301 0.961675 0.348124
0.926779 0.963350 0.348237
0.955886 0.966081 0.356869
0.972018 0.969568 0.373994
0.082825 0.084023 0.924398
0.090302 0.084846 0.924710
0.335301 0.099541 0.925827
0.772785 0.225103 0.927871
0.932825 0.491295 0.922461
0.958507 0.627411 0.887263
0.973566 0.753863 0.861214
0.982529 0.834832 0.843582
0.986081 0.883153 0.827200
0.082825 0.087601 0.924561
0.090794 0.090760 0.924872
0.337638 0.125571 0.925989
0.775875 0.294940 0.928032
0.919924 0.491419 0.904891
0.953946 0.627858 0.874156
0.971321 0.755377 0.851965
0.981891 0.835913 0.836784
0.985739 0.884644 0.820905
0.082808 0.204587 0.912134
0.090701 0.213676 0.905774
0.271129 0.258377 0.883570
0.604460 0.347845 0.860178
0.857720 0.492529 0.844860
0.936357 0.631558 0.832415
0.964288 0.762632 0.821715
0.979578 0.840387 0.810354
0.984618 0.890454 0.799694
0.082942 0.355253 0.818658
0.086977 0.349084 0.801558
0.166187 0.341662 0.752200
0.380406 0.377657 0.705208
0.711251 0.506114 0.713148
0.899211 0.648057 0.738641
0.951697 0.779831 0.757640
0.972560 0.850870 0.767239
0.982937 0.902859 0.768984
0.083666 0.643463 0.795030
0.088462 0.633436 0.781821
0.166966 0.605943 0.728766
0.343456 0.569947 0.642524
0.555356 0.554505 0.558700
0.841062 0.706016 0.624862
0.935928 0.815754 0.680035
0.965545 0.868622 0.706205
0.980710 0.924906 0.721788
0.085267 0.840631 0.787278
0.091500 0.837246 0.779145
0.189694 0.827356 0.746273
0.391457 0.813229 0.694670
0.636517 0.805182 0.634082
0.826814 0.821846 0.609945
0.923669 0.857047 0.623781
0.959414 0.908248 0.659904
0.977066 0.935680 0.685196
0.087255 0.928402 0.770393
0.095719 0.927528 0.764143
0.210447 0.924251 0.740825
0.422282 0.915358 0.707786
0.680334 0.910652 0.673601
0.851243 0.915340 0.638328
0.923826 0.927883 0.624613
0.956096 0.936975 0.632946
0.974093 0.945911 0.657520
0.090545 0.947303 0.734913
0.102570 0.947101 0.730808
0.217406 0.946492 0.717484
0.428659 0.945499 0.697796
0.689786 0.944993 0.676531
0.860155 0.945726 0.652066
0.926508 0.947583 0.637466
0.955958 0.950427 0.634896
0.972520 0.957785 0.643247
0.094247 0.960767 0.692948
0.108536 0.960657 0.690841
0.220355 0.960339 0.683922
0.419847 0.960033 0.671536
0.679731 0.960107 0.655299
0.855440 0.960934 0.641350
0.925411 0.962774 0.633522
0.955343 0.965703 0.633147
0.971801 0.969434 0.639832
0.082825 0.084595 0.974384
0.090302 0.086086 0.974386
0.335301 0.105290 0.974395
0.772785 0.249354 0.974412
0.937822 0.526768 0.974436
0.964303 0.682900 0.966552
0.976477 0.783344 0.951382
0.983050 0.844540 0.937584
0.986309 0.889270 0.919871
0.082825 0.089268 0.974385
0.090794 0.096500 0.974388
0.337638 0.140805 0.974397
0.775875 0.323789 0.974413
0.935731 0.570230 0.974387
0.960231 0.684993 0.961309
0.974262 0.784548 0.946766
0.982552 0.845498 0.934267
0.985960 0.890609 0.915719
0.082826 0.242514 0.974390
0.092468 0.273415 0.974392
0.346043 0.375762 0.974401
0.721816 0.479636 0.966605
0.894856 0.581624 0.954322
0.946294 0.693000 0.941950
0.967228 0.789668 0.929768
0.980455 0.849381 0.914701
0.984812 0.895815 0.905590
0.083124 0.441506 0.941767
0.088591 0.446357 0.938837
0.218097 0.469756 0.926803
0.501733 0.516334 0.909910
0.789491 0.604454 0.904148
0.916245 0.709748 0.898715
0.955189 0.802733 0.895228
0.973762 0.856624 0.891565
0.983066 0.906928 0.887013
0.083631 0.633513 0.903747
0.088148 0.629092 0.897946
0.170092 0.618627 0.880313
0.372178 0.617138 0.857678
0.652650 0.651089 0.845202
0.866709 0.744214 0.847867
0.939769 0.826703 0.856151
0.966120 0.873560 0.862631
0.980734 0.925804 0.865384
0.084948 0.826606 0.891781
0.090481 0.824261 0.887502
0.178169 0.815092 0.873754
0.373772 0.801779 0.852337
0.615507 0.794903 0.828827
0.805631 0.800530 0.796969
0.922222 0.856445 0.824885
0.958918 0.907609 0.839147
0.976700 0.935504 0.846530
0.086779 0.919087 0.882767
0.093983 0.917174 0.880038
0.194074 0.911419 0.871118
0.401517 0.904583 0.856851
0.661374 0.901064 0.842329
0.838114 0.905439 0.826850
0.919369 0.923074 0.816106
0.954809 0.935982 0.824379
0.973460 0.945330 0.833375
0.089922 0.945340 0.869771
0.100491 0.945110 0.868124
0.210450 0.944423 0.862444
0.412806 0.943642 0.853011
0.675694 0.943388 0.844598
0.851564 0.944301 0.834050
0.923807 0.946715 0.827103
0.954744 0.949749 0.824126
0.972031 0.957206 0.827452
0.093611 0.959390 0.851785
0.107398 0.959312 0.850746
0.215935 0.959100 0.847992
0.409725 0.958952 0.843983
0.670910 0.959203 0.837064
0.850404 0.960204 0.830857
0.924003 0.962221 0.826630
0.954790 0.965356 0.824432
0.971591 0.969341 0.825892
0.082825 0.086001 0.982072
0.090302 0.088318 0.982084
0.335301 0.114799 0.982126
0.772785 0.277245 0.982204
0.937822 0.547981 0.982319
0.968387 0.735749 0.980720
0.979598 0.812941 0.976970
0.983718 0.856130 0.974384
0.986685 0.898558 0.967856
0.082825 0.096156 0.982078
0.090794 0.103054 0.982090
0.337638 0.162812 0.982132
0.775875 0.346580 0.982210
0.938009 0.601202 0.982325
0.965390 0.738867 0.979607
0.977476 0.814622 0.976196
0.983229 0.856538 0.973853
0.986336 0.899840 0.966345
0.082826 0.272235 0.982100
0.092468 0.298852 0.982112
0.346043 0.406299 0.982154
0.784472 0.571582 0.982188
0.917166 0.656014 0.978991
0.953527 0.748865 0.976113
0.970669 0.820789 0.974121
0.981359 0.858115 0.967815
0.985180 0.904758 0.960717
0.083383 0.537499 0.977433
0.090926 0.544705 0.977057
0.256692 0.571821 0.975888
0.586946 0.620402 0.974416
0.843366 0.689475 0.971473
0.929503 0.767268 0.965925
0.959931 0.828779 0.960665
0.975821 0.867541 0.955948
0.983401 0.915065 0.951278
0.083677 0.665079 0.963771
0.088913 0.665729 0.962199
0.190694 0.672087 0.957392
0.441151 0.696901 0.950810
0.732613 0.737630 0.944767
0.890941 0.795449 0.941747
0.945644 0.844127 0.940667
0.967842 0.885346 0.939920
0.981063 0.928056 0.938645
0.084823 0.821416 0.950624
0.090030 0.820022 0.948822
0.175661 0.814865 0.942983
0.379335 0.811406 0.934200
0.648099 0.817960 0.917656
0.842650 0.836309 0.908986
0.927663 0.867809 0.911639
0.960208 0.915055 0.917120
0.977033 0.936300 0.920602
0.086383 0.907336 0.943952
0.092852 0.906079 0.942661
0.185162 0.902357 0.938378
0.385353 0.898216 0.928901
0.649110 0.896913 0.914073
0.831495 0.901524 0.904718
0.915089 0.914184 0.894727
0.954382 0.935903 0.904282
0.973257 0.945372 0.907238
0.089420 0.943120 0.937434
0.098774 0.942963 0.936610
0.199217 0.942506 0.933042
0.398503 0.942048 0.924564
0.663641 0.942099 0.914748
0.844347 0.943201 0.907179
0.921393 0.945832 0.903971
0.953581 0.949146 0.901518
0.971632 0.956849 0.904255
0.092961 0.957941 0.923875
0.106039 0.957881 0.922934
0.211331 0.957747 0.919778
0.399598 0.957792 0.914795
0.662384 0.958374 0.908989
0.845625 0.959565 0.906244
0.922681 0.961760 0.904413
0.954275 0.965088 0.902939
0.971412 0.969318 0.903385
0.082825 0.088682 0.986340
0.090302 0.094428 0.986345
0.335301 0.135101 0.986363
0.772785 0.314271 0.986396
0.937822 0.573865 0.986446
0.971461 0.776728 0.986133
0.980982 0.833243 0.983715
0.984377 0.867641 0.981324
0.987107 0.909362 0.978662
0.082825 0.104550 0.986342
0.090794 0.114468 0.986347
0.337638 0.192263 0.986366
0.775875 0.379557 0.986399
0.938009 0.621849 0.986449
0.968735 0.780505 0.985518
0.980133 0.834635 0.983001
0.983906 0.868955 0.980796
0.986764 0.910673 0.978280
0.082826 0.305725 0.986352
0.092468 0.336284 0.986357
0.346043 0.444632 0.986375
0.787008 0.598651 0.986409
0.928364 0.723769 0.985486
0.958972 0.792069 0.983438
0.973861 0.839448 0.981472
0.982305 0.873817 0.979057
0.985621 0.915603 0.977010
0.083556 0.622148 0.984975
0.093160 0.628983 0.984771
0.296436 0.652972 0.984103
0.660574 0.703841 0.982671
0.877675 0.757298 0.981582
0.941091 0.810452 0.979677
0.964357 0.848450 0.977940
0.978153 0.883616 0.976401
0.983841 0.925383 0.974936
0.083818 0.725770 0.979180
0.090203 0.728621 0.978944
0.219813 0.739940 0.978187
0.502059 0.764046 0.977096
0.778446 0.796111 0.975959
0.911717 0.832053 0.974862
0.951183 0.860178 0.974398
0.970098 0.900770 0.973760
0.981586 0.931381 0.971869
0.084867 0.827519 0.974816
0.090298 0.827526 0.974564
0.183013 0.828243 0.974376
0.410397 0.831974 0.972647
0.693789 0.842017 0.968576
0.872126 0.857772 0.965767
0.935818 0.889335 0.964464
0.962763 0.926381 0.963927
0.977961 0.937941 0.963360
0.086191 0.901803 0.972683
0.092365 0.901252 0.971958
0.181214 0.899841 0.969542
0.382387 0.899259 0.965773
0.656019 0.902297 0.960865
0.841394 0.912388 0.956414
0.922387 0.928430 0.954263
0.955951 0.937857 0.954917
0.973690 0.946306 0.956037
0.088998 0.941380 0.967704
0.097350 0.941299 0.967205
0.191033 0.941092 0.965527
0.386052 0.941002 0.962494
0.655786 0.941437 0.958702
0.840499 0.942830 0.954996
0.920190 0.945524 0.951733
0.952526 0.948656 0.949445
0.971484 0.956997 0.951926
0.092454 0.956180 0.961926
0.104693 0.956174 0.961566
0.204885 0.956218 0.960355
0.388946 0.956537 0.958415
0.654571 0.957492 0.956108
0.841567 0.959105 0.953895
0.921593 0.961466 0.952001
0.953853 0.964950 0.950999
0.971290 0.969393 0.951239
0.082825 0.097259 0.988287
0.090302 0.104421 0.988288
0.335301 0.166354 0.988291
0.772785 0.350207 0.988298
0.937822 0.604551 0.988309
0.973172 0.802943 0.988323
0.981828 0.848335 0.987378
0.984918 0.881968 0.985606
0.987486 0.920155 0.983848
0.082825 0.119731 0.988287
0.090794 0.138915 0.988288
0.337638 0.226168 0.988292
0.775875 0.424233 0.988299
0.938009 0.644903 0.988309
0.970919 0.809547 0.988181
0.981041 0.850156 0.987166
0.984469 0.883522 0.985300
0.987152 0.921555 0.983538
0.082826 0.345449 0.988289
0.092468 0.372858 0.988290
0.346043 0.482348 0.988294
0.787008 0.623575 0.988301
0.935573 0.769262 0.988230
0.962893 0.823248 0.987412
0.976400 0.855768 0.985916
0.982982 0.889064 0.984285
0.986037 0.925762 0.982492
0.083601 0.688900 0.988179
0.095660 0.698701 0.988126
0.324254 0.722113 0.987903
0.706288 0.760796 0.987376
0.895778 0.801734 0.986435
0.947329 0.836690 0.985126
0.967335 0.863252 0.983868
0.980125 0.899527 0.982489
0.984281 0.929277 0.981183
0.084136 0.777181 0.985035
0.091621 0.780085 0.984914
0.239019 0.790655 0.984511
0.550261 0.810448 0.983877
0.819525 0.832205 0.982733
0.921523 0.855208 0.982295
0.955438 0.881669 0.981074
0.972314 0.916706 0.979941
0.982154 0.934363 0.978882
0.085026 0.841692 0.981594
0.091034 0.842444 0.981434
0.197165 0.845492 0.980906
0.446500 0.852273 0.980105
0.735185 0.860747 0.979215
0.888333 0.881922 0.978406
0.942563 0.910049 0.977746
0.965016 0.931556 0.977201
0.979125 0.939966 0.976693
0.086167 0.903979 0.978695
0.092340 0.904107 0.978555
0.182640 0.904972 0.978086
0.393310 0.908018 0.977355
0.673236 0.915461 0.976528
0.858191 0.926803 0.975804
0.928533 0.933997 0.975282
0.958229 0.940584 0.975023
0.974519 0.947360 0.974870
0.088708 0.940404 0.977050
0.096394 0.940402 0.976944
0.187076 0.940456 0.976585
0.380416 0.940776 0.976008
0.653478 0.941699 0.975259
0.842030 0.943598 0.974482
0.921769 0.946686 0.974393
0.954202 0.950070 0.974361
0.971833 0.958070 0.974368
0.092105 0.954780 0.975676
0.103532 0.954828 0.975599
0.198247 0.955050 0.975336
0.380551 0.955647 0.974912
0.646131 0.956924 0.974457
0.838736 0.958920 0.974395
0.920944 0.961446 0.974227
0.953629 0.965040 0.973991
0.971244 0.969590 0.974044
