provia100f/Provia100F_Classic_Punchy.cube
TITLE "Fuji Provia 100F Classic Punchy"
# Adobe RGB in/out. REPLACES AgX. Fuji Provia 100F Classic Punchy.
LUT_3D_SIZE 9
DOMAIN_MIN 0.0 0.0 0.0
DOMAIN_MAX 1.0 1.0 1.0
0.094030 0.090395 0.084181
0.094176 0.090395 0.084181
0.114449 0.090401 0.084181
0.278959 0.091277 0.084179
0.525164 0.106999 0.084211
0.734534 0.195641 0.084277
0.854749 0.377572 0.084403
0.922679 0.541504 0.084586
0.957787 0.674547 0.084946
0.094030 0.090395 0.084181
0.094183 0.090395 0.084181
0.114863 0.090446 0.084181
0.279843 0.092567 0.084180
0.525692 0.115115 0.084214
0.734805 0.223357 0.084281
0.854914 0.398166 0.084407
0.922728 0.557813 0.084590
0.957811 0.685134 0.084956
0.094030 0.091183 0.084181
0.094207 0.091735 0.084181
0.115639 0.094439 0.084180
0.283025 0.110807 0.084185
0.527586 0.172395 0.084224
0.735779 0.311114 0.084293
0.855508 0.475658 0.084422
0.922903 0.612350 0.084607
0.957898 0.722425 0.084993
0.094033 0.129385 0.084180
0.094263 0.135506 0.084180
0.118007 0.165832 0.084180
0.288892 0.237885 0.084193
0.531064 0.340147 0.084241
0.737565 0.466963 0.084314
0.856597 0.582802 0.084448
0.923227 0.684255 0.084637
0.958058 0.788333 0.085058
0.094085 0.369688 0.084179
0.095024 0.378357 0.084181
0.122916 0.407902 0.084190
0.303963 0.470336 0.084218
0.536248 0.537545 0.084262
0.740227 0.620647 0.084352
0.858222 0.697090 0.084491
0.923708 0.784454 0.084684
0.958293 0.838590 0.085152
0.094186 0.609253 0.084195
0.096136 0.613945 0.084199
0.128308 0.630637 0.084220
0.315046 0.660712 0.084250
0.543219 0.704302 0.084307
0.743802 0.760879 0.084411
0.860407 0.811392 0.084560
0.924357 0.852871 0.084810
0.958519 0.887946 0.085335
0.094820 0.786605 0.084240
0.097531 0.790666 0.084245
0.138773 0.799102 0.084259
0.328662 0.812390 0.084301
0.552031 0.832588 0.084374
0.748315 0.858491 0.084479
0.863007 0.883289 0.084639
0.925177 0.903204 0.084989
0.958806 0.924754 0.085830
0.096556 0.881578 0.084298
0.100982 0.882587 0.084304
0.153778 0.886176 0.084325
0.345434 0.892629 0.084382
0.562715 0.901944 0.084459
0.753213 0.913946 0.084585
0.865662 0.927729 0.084787
0.926172 0.935569 0.085188
0.959155 0.944570 0.086482
0.099209 0.931258 0.084396
0.105788 0.931714 0.084404
0.174158 0.933337 0.084432
0.365380 0.935240 0.084484
0.575286 0.938058 0.084581
0.760997 0.943296 0.084700
0.868784 0.949628 0.085045
0.927344 0.956921 0.085780
0.959566 0.964242 0.087652
0.094030 0.090395 0.084269
0.094176 0.090395 0.084276
0.114449 0.090402 0.084299
0.278959 0.091310 0.084342
0.525164 0.107219 0.084426
0.734534 0.196269 0.084543
0.854749 0.378060 0.084697
0.922679 0.541887 0.085108
0.957787 0.674796 0.086165
0.094030 0.090395 0.084272
0.094183 0.090395 0.084279
0.114863 0.090447 0.084302
0.279843 0.092600 0.084347
0.525692 0.115314 0.084430
0.734805 0.224027 0.084548
0.854914 0.398591 0.084701
0.922728 0.558194 0.085117
0.957811 0.685381 0.086192
0.094030 0.091197 0.084285
0.094207 0.091766 0.084291
0.115639 0.094505 0.084313
0.283025 0.110983 0.084364
0.527586 0.172958 0.084444
0.735779 0.311760 0.084566
0.855508 0.475989 0.084742
0.922903 0.612613 0.085151
0.957898 0.722665 0.086315
0.094033 0.129727 0.084307
0.094263 0.135851 0.084312
0.118007 0.166386 0.084335
0.288892 0.238576 0.084393
0.531064 0.340816 0.084468
0.737565 0.467390 0.084597
0.856597 0.583182 0.084816
0.923227 0.684502 0.085212
0.958058 0.788561 0.086588
0.094085 0.370173 0.084340
0.095024 0.378844 0.084349
0.122916 0.408327 0.084381
0.303963 0.470762 0.084434
0.536248 0.537928 0.084520
0.740227 0.620908 0.084642
0.858222 0.697335 0.084922
0.923708 0.784682 0.085426
0.958293 0.838701 0.087018
0.094186 0.609516 0.084401
0.096136 0.614208 0.084409
0.128308 0.630896 0.084437
0.315046 0.660964 0.084490
0.543219 0.704545 0.084586
0.743802 0.761111 0.084711
0.860407 0.811510 0.085057
0.924357 0.852978 0.085813
0.958519 0.888001 0.087688
0.094820 0.786833 0.084468
0.097531 0.790893 0.084476
0.138773 0.799195 0.084513
0.328662 0.812508 0.084577
0.552031 0.832700 0.084666
0.748315 0.858597 0.084899
0.863007 0.883346 0.085216
0.925177 0.903255 0.086300
0.958806 0.924801 0.088401
0.096556 0.881634 0.084574
0.100982 0.882644 0.084583
0.153778 0.886231 0.084615
0.345434 0.892683 0.084674
0.562715 0.901996 0.084847
0.753213 0.913995 0.085107
0.865662 0.927756 0.085756
0.926172 0.935577 0.087225
0.959155 0.944591 0.089670
0.099209 0.931283 0.084689
0.105788 0.931739 0.084698
0.174158 0.933363 0.084770
0.365380 0.935250 0.084908
0.575286 0.938081 0.085098
0.760997 0.943317 0.085528
0.868784 0.949649 0.086535
0.927344 0.956940 0.088288
0.959566 0.964252 0.091095
0.094030 0.090395 0.087877
0.094176 0.090395 0.087994
0.114449 0.090406 0.088420
0.278959 0.091427 0.089201
0.525164 0.108009 0.090324
0.734534 0.198534 0.091959
0.854749 0.379810 0.095614
0.922679 0.543260 0.100684
0.957787 0.675690 0.109106
0.094030 0.090395 0.087938
0.094183 0.090395 0.088055
0.114863 0.090451 0.088483
0.279843 0.092729 0.089262
0.525692 0.116028 0.090382
0.734805 0.226444 0.092058
0.854914 0.400116 0.095729
0.922728 0.559563 0.100824
0.957811 0.686267 0.109314
0.094030 0.091312 0.088157
0.094207 0.091876 0.088276
0.115639 0.094739 0.088706
0.283025 0.111612 0.089478
0.527586 0.174991 0.090589
0.735779 0.314084 0.092413
0.855508 0.477176 0.096140
0.922903 0.613558 0.101375
0.957898 0.723524 0.110063
0.094033 0.130956 0.088570
0.094263 0.137093 0.088689
0.118007 0.168382 0.089112
0.288892 0.241069 0.089872
0.531064 0.343226 0.090965
0.737565 0.468922 0.093125
0.856597 0.584545 0.096892
0.923227 0.685388 0.102427
0.958058 0.789379 0.111440
0.094085 0.371918 0.089179
0.095024 0.380595 0.089295
0.122916 0.409852 0.089708
0.303963 0.472294 0.090449
0.536248 0.539302 0.091517
0.740227 0.621846 0.094287
0.858222 0.698212 0.098052
0.923708 0.785502 0.103991
0.958293 0.839097 0.113495
0.094186 0.610463 0.089978
0.096136 0.615151 0.090090
0.128308 0.631825 0.090489
0.315046 0.661868 0.091208
0.543219 0.705417 0.092848
0.743802 0.761946 0.095833
0.860407 0.811932 0.099940
0.924357 0.853363 0.106445
0.958519 0.888199 0.116982
0.094820 0.787653 0.090957
0.097531 0.791710 0.091065
0.138773 0.799528 0.091449
0.328662 0.812929 0.092641
0.552031 0.833102 0.094842
0.748315 0.858977 0.097759
0.863007 0.883548 0.102504
0.925177 0.903440 0.109991
0.958806 0.924969 0.121444
0.096556 0.881838 0.092574
0.100982 0.882847 0.092762
0.153778 0.886431 0.093576
0.345434 0.892877 0.095054
0.562715 0.902182 0.097216
0.753213 0.914171 0.100671
0.865662 0.927850 0.106026
0.926172 0.935606 0.114512
0.959155 0.944667 0.125160
0.099209 0.931375 0.095422
0.105788 0.931831 0.095643
0.174158 0.933453 0.096429
0.365380 0.935287 0.097866
0.575286 0.938162 0.100539
0.760997 0.943394 0.104536
0.868784 0.949722 0.111167
0.927344 0.957008 0.120973
0.959566 0.964289 0.130943
0.094030 0.090395 0.189681
0.094176 0.090395 0.190599
0.114449 0.090413 0.193915
0.278959 0.091638 0.200082
0.525164 0.109272 0.209468
0.734534 0.202735 0.222601
0.854749 0.383034 0.239886
0.922679 0.545786 0.261793
0.957787 0.677333 0.290309
0.094030 0.090395 0.190160
0.094183 0.090395 0.191080
0.114863 0.090458 0.194399
0.279843 0.092960 0.200573
0.525692 0.117338 0.209969
0.734805 0.230924 0.223124
0.854914 0.402921 0.240426
0.922728 0.562082 0.262355
0.957811 0.687895 0.290962
0.094030 0.091527 0.191887
0.094207 0.092075 0.192810
0.115639 0.095164 0.196143
0.283025 0.112794 0.202341
0.527586 0.178658 0.211773
0.735779 0.318380 0.225005
0.855508 0.479357 0.242372
0.922903 0.615293 0.264379
0.957898 0.725105 0.293311
0.094033 0.133225 0.195081
0.094263 0.139392 0.196011
0.118007 0.172085 0.199369
0.288892 0.245689 0.205612
0.531064 0.347678 0.215148
0.737565 0.471740 0.228485
0.856597 0.587052 0.245971
0.923227 0.687018 0.268121
0.958058 0.790882 0.297659
0.094085 0.375132 0.199904
0.095024 0.383820 0.200844
0.122916 0.413036 0.204238
0.303963 0.475112 0.210548
0.536248 0.541830 0.220259
0.740227 0.623568 0.233736
0.858222 0.699824 0.251399
0.923708 0.787011 0.273764
0.958293 0.839826 0.304223
0.094186 0.612204 0.206504
0.096136 0.616884 0.207458
0.128308 0.633531 0.210901
0.315046 0.663530 0.217371
0.543219 0.707020 0.227251
0.743802 0.763480 0.240917
0.860407 0.812707 0.258819
0.924357 0.854069 0.282058
0.958519 0.888562 0.313208
0.094820 0.789158 0.215073
0.097531 0.792990 0.216058
0.138773 0.800141 0.219615
0.328662 0.813702 0.226229
0.552031 0.833841 0.236287
0.748315 0.859674 0.250193
0.863007 0.883919 0.268397
0.925177 0.903780 0.293084
0.958806 0.925278 0.324827
0.096556 0.882213 0.225865
0.100982 0.883219 0.226873
0.153778 0.886797 0.230509
0.345434 0.893233 0.237268
0.562715 0.902523 0.247543
0.753213 0.914495 0.261739
0.865662 0.928025 0.280772
0.926172 0.935661 0.306844
0.959155 0.944808 0.339310
0.099209 0.931545 0.238987
0.105788 0.931999 0.240020
0.174158 0.933619 0.243750
0.365380 0.935353 0.250680
0.575286 0.938310 0.261211
0.760997 0.943536 0.275751
0.868784 0.949856 0.296797
0.927344 0.957135 0.323592
0.959566 0.964355 0.355536
0.094030 0.090395 0.552615
0.094176 0.090395 0.553486
0.114449 0.090421 0.556618
0.278959 0.091943 0.562385
0.525164 0.111015 0.571021
0.734534 0.209099 0.581775
0.854749 0.387865 0.591714
0.922679 0.549562 0.603777
0.957787 0.679786 0.617989
0.094030 0.090395 0.553070
0.094183 0.090401 0.553941
0.114863 0.090468 0.557073
0.279843 0.093494 0.562840
0.525692 0.119287 0.571478
0.734805 0.237706 0.582081
0.854914 0.407119 0.592018
0.922728 0.565847 0.604079
0.957811 0.690327 0.618289
0.094030 0.091836 0.554705
0.094207 0.092361 0.555577
0.115639 0.095784 0.558710
0.283025 0.114772 0.564478
0.527586 0.183326 0.573118
0.735779 0.324849 0.583181
0.855508 0.482616 0.593111
0.922903 0.617884 0.605165
0.957898 0.727465 0.619366
0.094033 0.136633 0.557714
0.094263 0.143440 0.558587
0.118007 0.177694 0.561721
0.288892 0.252614 0.567493
0.531064 0.354381 0.576137
0.737565 0.475822 0.585203
0.856597 0.590801 0.595121
0.923227 0.689451 0.607161
0.958058 0.792925 0.621346
0.094085 0.379947 0.562219
0.095024 0.388653 0.563092
0.122916 0.419655 0.566229
0.303963 0.478434 0.572005
0.536248 0.545609 0.580397
0.740227 0.626139 0.588223
0.858222 0.702233 0.598123
0.923708 0.789263 0.610142
0.958293 0.840914 0.624303
0.094186 0.614802 0.568312
0.096136 0.619471 0.569186
0.128308 0.636079 0.572326
0.315046 0.666012 0.578108
0.543219 0.709414 0.584488
0.743802 0.765772 0.592294
0.860407 0.813865 0.602172
0.924357 0.855123 0.614162
0.958519 0.889105 0.628871
0.094820 0.791408 0.576070
0.097531 0.794770 0.576945
0.138773 0.801055 0.580017
0.328662 0.814857 0.583894
0.552031 0.834943 0.589677
0.748315 0.860715 0.597459
0.863007 0.884474 0.607307
0.925177 0.904287 0.619262
0.958806 0.925739 0.635567
0.096556 0.882771 0.583682
0.100982 0.883775 0.584268
0.153778 0.887345 0.586371
0.345434 0.893764 0.590233
0.562715 0.903033 0.595994
0.753213 0.914978 0.603748
0.865662 0.928285 0.613560
0.926172 0.935742 0.625473
0.959155 0.945017 0.643744
0.099209 0.931797 0.591206
0.105788 0.932251 0.591789
0.174158 0.933867 0.593883
0.365380 0.935452 0.597728
0.575286 0.938532 0.603463
0.760997 0.943748 0.611184
0.868784 0.950056 0.620954
0.927344 0.957323 0.634861
0.959566 0.964455 0.653450
0.094030 0.090395 0.796152
0.094176 0.090395 0.796501
0.114449 0.090437 0.797513
0.278959 0.092335 0.799370
0.525164 0.113464 0.802137
0.734534 0.217853 0.805853
0.854749 0.394408 0.810543
0.922679 0.554661 0.816220
0.957787 0.683093 0.822884
0.094030 0.090396 0.796366
0.094183 0.090414 0.796648
0.114863 0.090628 0.797660
0.279843 0.094362 0.799517
0.525692 0.121902 0.802282
0.734805 0.247032 0.805998
0.854914 0.413246 0.810687
0.922728 0.570931 0.816362
0.957811 0.693606 0.823025
0.094030 0.092233 0.796895
0.094207 0.092780 0.797177
0.115639 0.096598 0.798188
0.283025 0.117425 0.800043
0.527586 0.190923 0.802806
0.735779 0.333674 0.806517
0.855508 0.487008 0.811202
0.922903 0.621375 0.816872
0.957898 0.730647 0.823529
0.094033 0.141571 0.797867
0.094263 0.149835 0.798148
0.118007 0.184090 0.799157
0.288892 0.260392 0.801009
0.531064 0.363520 0.803767
0.737565 0.480233 0.807472
0.856597 0.595863 0.812148
0.923227 0.692732 0.817809
0.958058 0.795329 0.824455
0.094085 0.386469 0.799317
0.095024 0.395197 0.799598
0.122916 0.428662 0.800604
0.303963 0.482838 0.802451
0.536248 0.550712 0.805202
0.740227 0.629604 0.808897
0.858222 0.705479 0.813562
0.923708 0.792268 0.819208
0.958293 0.842380 0.825837
0.094186 0.618303 0.801271
0.096136 0.622957 0.801550
0.128308 0.639514 0.802553
0.315046 0.669358 0.804393
0.543219 0.712643 0.807134
0.743802 0.768863 0.810817
0.860407 0.815424 0.815465
0.924357 0.856543 0.821092
0.958519 0.889837 0.827699
0.094820 0.793966 0.803746
0.097531 0.796339 0.804024
0.138773 0.802496 0.805022
0.328662 0.816413 0.806854
0.552031 0.836429 0.809583
0.748315 0.862118 0.813249
0.863007 0.885221 0.817877
0.925177 0.904970 0.823480
0.958806 0.926360 0.830060
0.096556 0.883524 0.806754
0.100982 0.884525 0.807030
0.153778 0.888082 0.808023
0.345434 0.894481 0.809845
0.562715 0.903720 0.812559
0.753213 0.915630 0.816206
0.865662 0.928635 0.820810
0.926172 0.935851 0.826384
0.959155 0.945300 0.832929
0.099209 0.932137 0.810304
0.105788 0.932590 0.810579
0.174158 0.934202 0.811565
0.365380 0.935567 0.813375
0.575286 0.938831 0.816072
0.760997 0.944034 0.819696
0.868784 0.950327 0.824272
0.927344 0.957577 0.829811
0.959566 0.964590 0.836318
0.094030 0.090395 0.911414
0.094176 0.090395 0.911544
0.114449 0.090456 0.912010
0.278959 0.092874 0.912867
0.525164 0.116849 0.914145
0.734534 0.229242 0.915862
0.854749 0.401871 0.918032
0.922679 0.561139 0.920012
0.957787 0.687286 0.921746
0.094030 0.090414 0.911481
0.094183 0.090431 0.911612
0.114863 0.090896 0.912078
0.279843 0.095456 0.912935
0.525692 0.126526 0.914212
0.734805 0.257847 0.915929
0.854914 0.424649 0.918098
0.922728 0.577390 0.920057
0.957811 0.697762 0.921782
0.094030 0.092750 0.911725
0.094207 0.093615 0.911855
0.115639 0.098675 0.912322
0.283025 0.120766 0.913178
0.527586 0.201605 0.914454
0.735779 0.345037 0.916169
0.855508 0.492578 0.918337
0.922903 0.625799 0.920202
0.957898 0.734683 0.921911
0.094033 0.149395 0.912174
0.094263 0.158930 0.912303
0.118007 0.194187 0.912769
0.288892 0.270413 0.913624
0.531064 0.372142 0.914898
0.737565 0.485826 0.916611
0.856597 0.602295 0.918705
0.923227 0.696892 0.920443
0.958058 0.796971 0.922149
0.094085 0.394789 0.912843
0.095024 0.402555 0.912972
0.122916 0.440222 0.913437
0.303963 0.488422 0.914290
0.536248 0.557194 0.915561
0.740227 0.633995 0.917270
0.858222 0.709596 0.919158
0.923708 0.795327 0.920802
0.958293 0.844238 0.922504
0.094186 0.622740 0.913745
0.096136 0.627374 0.913874
0.128308 0.643866 0.914337
0.315046 0.673600 0.915187
0.543219 0.716736 0.916455
0.743802 0.772784 0.918158
0.860407 0.817398 0.919769
0.924357 0.858343 0.921286
0.958519 0.890764 0.922982
0.094820 0.796261 0.914888
0.097531 0.797929 0.915017
0.138773 0.804532 0.915478
0.328662 0.818383 0.916325
0.552031 0.838312 0.917587
0.748315 0.863896 0.919058
0.863007 0.886167 0.920461
0.925177 0.905836 0.921899
0.958806 0.927043 0.923587
0.096556 0.884478 0.916279
0.100982 0.885475 0.916407
0.153778 0.889016 0.916866
0.345434 0.895388 0.917709
0.562715 0.904591 0.918837
0.753213 0.916456 0.920007
0.865662 0.929079 0.921213
0.926172 0.936013 0.922644
0.959155 0.945658 0.924324
0.099209 0.932569 0.917921
0.105788 0.933020 0.918048
0.174158 0.934567 0.918505
0.365380 0.935706 0.919099
0.575286 0.939210 0.919964
0.760997 0.944396 0.920927
0.868784 0.950670 0.922102
0.927344 0.957899 0.923524
0.959566 0.964761 0.925194
0.094030 0.090395 0.946267
0.094176 0.090410 0.946301
0.114449 0.090545 0.946424
0.278959 0.094033 0.946650
0.525164 0.120934 0.946986
0.734534 0.243544 0.947439
0.854749 0.410686 0.948012
0.922679 0.569043 0.948706
0.957787 0.692389 0.949524
0.094030 0.090435 0.946285
0.094183 0.090455 0.946319
0.114863 0.091192 0.946442
0.279843 0.096725 0.946668
0.525692 0.133628 0.947004
0.734805 0.270065 0.947457
0.854914 0.438737 0.948029
0.922728 0.585272 0.948723
0.957811 0.702822 0.949541
0.094030 0.093796 0.946349
0.094207 0.094970 0.946383
0.115639 0.102180 0.946506
0.283025 0.125829 0.946732
0.527586 0.215044 0.947068
0.735779 0.359127 0.947520
0.855508 0.500472 0.948092
0.922903 0.631180 0.948786
0.957898 0.739597 0.949603
0.094033 0.160526 0.946467
0.094263 0.170380 0.946501
0.118007 0.207384 0.946624
0.288892 0.281827 0.946849
0.531064 0.382252 0.947185
0.737565 0.492633 0.947637
0.856597 0.608253 0.948208
0.923227 0.701955 0.948901
0.958058 0.798908 0.949717
0.094085 0.403800 0.946643
0.095024 0.411370 0.946678
0.122916 0.450879 0.946800
0.303963 0.495219 0.947025
0.536248 0.565104 0.947360
0.740227 0.639337 0.947810
0.858222 0.714608 0.948381
0.923708 0.797323 0.949072
0.958293 0.846497 0.949887
0.094186 0.628135 0.946881
0.096136 0.632748 0.946915
0.128308 0.649161 0.947037
0.315046 0.678761 0.947261
0.543219 0.721719 0.947595
0.743802 0.777559 0.948045
0.860407 0.819799 0.948614
0.924357 0.860533 0.949304
0.958519 0.891891 0.950116
0.094820 0.798203 0.947182
0.097531 0.799860 0.947216
0.138773 0.807005 0.947338
0.328662 0.820778 0.947561
0.552031 0.840601 0.947894
0.748315 0.866059 0.948342
0.863007 0.887318 0.948909
0.925177 0.906890 0.949597
0.958806 0.927593 0.950406
0.096556 0.885638 0.947549
0.100982 0.886629 0.947583
0.153778 0.890153 0.947704
0.345434 0.896492 0.947926
0.562715 0.905651 0.948258
0.753213 0.917461 0.948704
0.865662 0.929620 0.949269
0.926172 0.936487 0.949954
0.959155 0.946094 0.950760
0.099209 0.933094 0.947982
0.105788 0.933543 0.948016
0.174158 0.934779 0.948136
0.365380 0.935876 0.948358
0.575286 0.939672 0.948688
0.760997 0.944837 0.949132
0.868784 0.951088 0.949694
0.927344 0.958292 0.950376
0.959566 0.964970 0.951178
0.094030 0.090416 0.965821
0.094176 0.090435 0.965843
0.114449 0.090936 0.965926
0.278959 0.095624 0.966077
0.525164 0.127442 0.966302
0.734534 0.259419 0.966606
0.854749 0.426465 0.966990
0.922679 0.578413 0.967458
0.957787 0.698419 0.968009
0.094030 0.090462 0.965833
0.094183 0.090601 0.965855
0.114863 0.091962 0.965938
0.279843 0.100339 0.966089
0.525692 0.142645 0.966314
0.734805 0.283285 0.966618
0.854914 0.451610 0.967002
0.922728 0.594615 0.967469
0.957811 0.708801 0.968020
0.094030 0.095403 0.965875
0.094207 0.096499 0.965898
0.115639 0.106762 0.965981
0.283025 0.134260 0.966131
0.527586 0.231551 0.966357
0.735779 0.372749 0.966660
0.855508 0.510875 0.967044
0.922903 0.637534 0.967511
0.957898 0.745406 0.968062
0.094033 0.174221 0.965954
0.094263 0.183312 0.965977
0.118007 0.223605 0.966059
0.288892 0.292857 0.966210
0.531064 0.394307 0.966435
0.737565 0.502183 0.966738
0.856597 0.614741 0.967122
0.923227 0.707939 0.967589
0.958058 0.801191 0.968139
0.094085 0.415564 0.966072
0.095024 0.427553 0.966095
0.122916 0.461390 0.966177
0.303963 0.505521 0.966328
0.536248 0.574480 0.966553
0.740227 0.645645 0.966855
0.858222 0.720531 0.967238
0.923708 0.799618 0.967704
0.958293 0.849164 0.968254
0.094186 0.634507 0.966232
0.096136 0.639093 0.966254
0.128308 0.655415 0.966336
0.315046 0.684860 0.966486
0.543219 0.727610 0.966711
0.743802 0.783206 0.967013
0.860407 0.822632 0.967395
0.924357 0.863118 0.967860
0.958519 0.893222 0.968409
0.094820 0.800491 0.966434
0.097531 0.802300 0.966456
0.138773 0.809922 0.966538
0.328662 0.823604 0.966688
0.552031 0.843303 0.966911
0.748315 0.868614 0.967213
0.863007 0.888677 0.967594
0.925177 0.908134 0.968058
0.958806 0.928243 0.968605
0.096556 0.887007 0.966680
0.100982 0.887992 0.966702
0.153778 0.891494 0.966784
0.345434 0.897796 0.966933
0.562715 0.906902 0.967156
0.753213 0.918649 0.967456
0.865662 0.930259 0.967837
0.926172 0.937048 0.968299
0.959155 0.946610 0.968845
0.099209 0.933714 0.966971
0.105788 0.934161 0.966993
0.174158 0.935029 0.967074
0.365380 0.936258 0.967223
0.575286 0.940217 0.967445
0.760997 0.945358 0.967745
0.868784 0.951582 0.968124
0.927344 0.958756 0.968584
0.959566 0.965216 0.969128
