provia100f/Provia100F_Classic_ExtraSoft.cube
TITLE "Fuji Provia 100F Classic ExtraSoft"
# Adobe RGB in/out. REPLACES AgX. Fuji Provia 100F Classic ExtraSoft.
LUT_3D_SIZE 9
DOMAIN_MIN 0.0 0.0 0.0
DOMAIN_MAX 1.0 1.0 1.0
0.065446 0.069518 0.085077
0.066058 0.069518 0.085077
0.113389 0.069518 0.085077
0.539879 0.069644 0.085076
0.793075 0.070368 0.085074
0.862094 0.072120 0.085116
0.886077 0.073489 0.085275
0.900920 0.072514 0.153033
0.902425 0.386310 0.527450
0.065446 0.069518 0.085077
0.065412 0.069523 0.085077
0.089186 0.069650 0.085077
0.467197 0.070130 0.085076
0.763405 0.071470 0.085074
0.856773 0.073502 0.085126
0.884924 0.077252 0.085275
0.900920 0.072518 0.153063
0.902425 0.386349 0.527445
0.065446 0.072647 0.085077
0.065446 0.073288 0.085077
0.068164 0.075382 0.085076
0.195261 0.079923 0.085074
0.634021 0.086581 0.085096
0.823998 0.098492 0.085173
0.877808 0.117378 0.085322
0.901002 0.074159 0.156573
0.902425 0.386352 0.527444
0.065446 0.129355 0.085077
0.065437 0.138372 0.085076
0.066104 0.170597 0.085074
0.085679 0.198090 0.085095
0.407377 0.247815 0.085148
0.748309 0.300818 0.085245
0.861270 0.358113 0.085518
0.892865 0.413082 0.086223
0.902425 0.386505 0.196817
0.065446 0.443904 0.085074
0.065419 0.454360 0.085074
0.065997 0.492892 0.085099
0.073151 0.527942 0.085158
0.204304 0.548247 0.085242
0.597747 0.573349 0.085446
0.824971 0.603818 0.085843
0.884920 0.630068 0.086580
0.901611 0.690731 0.097361
0.065424 0.664427 0.085088
0.065406 0.668018 0.085097
0.065928 0.690280 0.085147
0.070007 0.710148 0.085242
0.120285 0.723029 0.085440
0.451741 0.732515 0.085772
0.761093 0.744403 0.086284
0.871940 0.759359 0.087350
0.900230 0.778565 0.091083
0.065419 0.780069 0.085107
0.065405 0.781575 0.085114
0.065739 0.790465 0.085196
0.068566 0.804100 0.085315
0.088806 0.815736 0.085661
0.304509 0.823481 0.086165
0.663424 0.830381 0.086919
0.851626 0.839456 0.087922
0.898568 0.851668 0.091128
0.065446 0.861215 0.085084
0.065446 0.861244 0.085091
0.065457 0.862671 0.085161
0.066720 0.867253 0.085281
0.076533 0.872256 0.085685
0.193472 0.875254 0.086261
0.533450 0.876769 0.087191
0.813727 0.878910 0.088206
0.897584 0.881465 0.090786
0.065446 0.871211 0.085075
0.065446 0.871213 0.085075
0.065446 0.889351 0.085075
0.065446 0.889983 0.085097
0.068386 0.901925 0.085203
0.101280 0.902613 0.085505
0.364466 0.902661 0.085984
0.711664 0.903654 0.086387
0.900393 0.905945 0.086651
0.065446 0.069518 0.085112
0.065506 0.069518 0.085468
0.090550 0.069518 0.085226
0.562249 0.069680 0.085228
0.802745 0.070441 0.085215
0.863447 0.072246 0.085264
0.886066 0.073637 0.085658
0.900920 0.072518 0.153067
0.902425 0.386348 0.527452
0.065446 0.069518 0.085099
0.066057 0.069604 0.085194
0.094253 0.069677 0.085173
0.502561 0.070247 0.085218
0.783898 0.071632 0.085224
0.858864 0.073592 0.085271
0.884987 0.077734 0.085644
0.900920 0.072524 0.153113
0.902425 0.386351 0.527445
0.065446 0.072284 0.085097
0.065457 0.072903 0.085111
0.071926 0.074169 0.085166
0.299932 0.079490 0.085232
0.678836 0.086660 0.085262
0.832225 0.098213 0.085369
0.878587 0.117584 0.085718
0.901025 0.075302 0.158129
0.902425 0.386352 0.527444
0.065430 0.123046 0.085107
0.065446 0.130697 0.085125
0.067584 0.157407 0.085203
0.107693 0.184933 0.085269
0.480826 0.239066 0.085421
0.771618 0.293181 0.085594
0.864443 0.355108 0.086004
0.893033 0.413195 0.087089
0.902425 0.386397 0.527435
0.065414 0.429716 0.085115
0.065453 0.441299 0.085146
0.066304 0.481674 0.085231
0.078088 0.518979 0.085384
0.258539 0.540576 0.085655
0.642645 0.568197 0.085981
0.832296 0.600626 0.086436
0.885753 0.628805 0.087513
0.901597 0.691908 0.107525
0.065404 0.657886 0.085150
0.065460 0.662015 0.085176
0.066061 0.684274 0.085259
0.071611 0.706097 0.085520
0.139946 0.719538 0.085921
0.488504 0.729738 0.086423
0.777933 0.742615 0.087262
0.873875 0.758335 0.088404
0.900266 0.778650 0.092815
0.065405 0.778793 0.085177
0.065444 0.779683 0.085199
0.065943 0.788595 0.085277
0.069163 0.802011 0.085620
0.094704 0.813694 0.086144
0.332085 0.821667 0.086932
0.679635 0.828988 0.087780
0.855094 0.838613 0.089546
0.898741 0.851635 0.092624
0.065446 0.860647 0.085104
0.065446 0.860747 0.085111
0.065491 0.862301 0.085228
0.067128 0.866804 0.085519
0.078961 0.871682 0.086088
0.206176 0.874850 0.086970
0.546162 0.876480 0.087944
0.819397 0.878700 0.089750
0.897928 0.881413 0.092130
0.065446 0.874223 0.085480
0.065446 0.874225 0.085480
0.065446 0.892151 0.085480
0.065446 0.892151 0.085480
0.068510 0.901784 0.085252
0.104466 0.902446 0.085721
0.375918 0.902548 0.086327
0.718913 0.903587 0.087034
0.900781 0.905917 0.087382
0.065446 0.069518 0.089247
0.065869 0.069518 0.122560
0.087594 0.069518 0.112606
0.549036 0.069894 0.109038
0.804627 0.070927 0.107020
0.864470 0.072895 0.111598
0.885876 0.075468 0.128408
0.900964 0.073264 0.178574
0.902425 0.386352 0.527516
0.065446 0.069518 0.089153
0.065832 0.069625 0.092746
0.089269 0.069847 0.096858
0.504390 0.070527 0.098467
0.790830 0.072293 0.099910
0.861049 0.075048 0.106406
0.884976 0.079878 0.117850
0.900981 0.073538 0.182748
0.902425 0.386352 0.527457
0.065411 0.072275 0.087809
0.065752 0.072861 0.088642
0.084878 0.078458 0.092066
0.366726 0.080136 0.091896
0.717374 0.088165 0.093582
0.844548 0.101645 0.098059
0.880171 0.121345 0.103728
0.900585 0.095594 0.195510
0.902425 0.386352 0.527445
0.065501 0.118444 0.087815
0.065909 0.125517 0.088398
0.070853 0.147577 0.089758
0.183918 0.176012 0.090967
0.573475 0.231658 0.092393
0.803525 0.292040 0.095621
0.870048 0.353589 0.098869
0.893559 0.415539 0.113149
0.902425 0.386358 0.527454
0.065661 0.417296 0.087791
0.066000 0.428591 0.088267
0.068864 0.466421 0.089628
0.100545 0.502246 0.091041
0.397067 0.528967 0.092303
0.719909 0.560107 0.095525
0.849485 0.595284 0.098474
0.888107 0.626390 0.108159
0.901540 0.695561 0.259402
0.065811 0.649388 0.087985
0.066012 0.653964 0.088393
0.068339 0.673864 0.089748
0.081765 0.696915 0.091286
0.229509 0.712175 0.092931
0.576587 0.723644 0.096190
0.809342 0.738400 0.099494
0.879232 0.755451 0.107628
0.900386 0.778999 0.128634
0.065699 0.777255 0.087518
0.065898 0.777917 0.087647
0.067044 0.784181 0.088977
0.073262 0.796494 0.090750
0.136072 0.808059 0.092501
0.441300 0.816587 0.096019
0.735030 0.825063 0.100347
0.865892 0.835811 0.107978
0.899263 0.851585 0.118241
0.065443 0.857356 0.086658
0.065480 0.857858 0.086892
0.066028 0.860547 0.087800
0.069276 0.864951 0.089915
0.089618 0.869448 0.091935
0.282196 0.872702 0.095294
0.612620 0.875360 0.099967
0.839765 0.877872 0.106022
0.898865 0.881234 0.111989
0.065446 0.874225 0.085480
0.065446 0.892150 0.085480
0.065446 0.892151 0.085480
0.065446 0.892157 0.085480
0.069935 0.900899 0.086517
0.124764 0.901617 0.088850
0.424907 0.901976 0.091028
0.751037 0.903222 0.092402
0.901462 0.905785 0.093790
0.065446 0.069518 0.149785
0.065456 0.069573 0.385598
0.087839 0.069813 0.452455
0.505453 0.070369 0.438700
0.794674 0.072013 0.444346
0.861926 0.074603 0.460163
0.884908 0.080110 0.499718
0.899086 0.082100 0.596490
0.902425 0.386350 0.599918
0.065446 0.069670 0.154394
0.065526 0.069929 0.251723
0.088430 0.070391 0.385950
0.470274 0.071394 0.385669
0.783302 0.073407 0.403750
0.858906 0.079015 0.435104
0.884066 0.084742 0.482582
0.898822 0.086306 0.593624
0.902425 0.386352 0.600585
0.065462 0.073248 0.139553
0.065997 0.074102 0.152794
0.082138 0.078243 0.199778
0.366725 0.082529 0.235021
0.721350 0.092187 0.276572
0.845489 0.110858 0.327074
0.879935 0.133601 0.412757
0.896483 0.168706 0.532206
0.902425 0.386353 0.603013
0.065833 0.120044 0.128528
0.066158 0.126965 0.133100
0.073668 0.149590 0.147660
0.257128 0.214677 0.193193
0.614261 0.242396 0.199330
0.813892 0.307241 0.235422
0.871916 0.365851 0.296388
0.893479 0.432510 0.444449
0.902425 0.386404 0.603742
0.066088 0.413353 0.126254
0.066771 0.423950 0.129354
0.071812 0.459574 0.139292
0.136913 0.495676 0.155107
0.480441 0.525613 0.172687
0.755218 0.558915 0.199044
0.856810 0.595506 0.237601
0.889103 0.628666 0.324215
0.901430 0.702069 0.588156
0.066299 0.644364 0.123356
0.066987 0.648971 0.125333
0.070592 0.667480 0.134277
0.096239 0.690551 0.147588
0.325570 0.707556 0.164256
0.662022 0.720219 0.185154
0.828037 0.736137 0.215002
0.882374 0.754531 0.264483
0.900441 0.781173 0.484450
0.066156 0.775460 0.119025
0.066626 0.776883 0.120756
0.069083 0.780743 0.127823
0.082637 0.792186 0.139741
0.202327 0.803501 0.157053
0.527554 0.812719 0.177353
0.782269 0.822137 0.201279
0.872202 0.834075 0.237808
0.899645 0.852057 0.388095
0.065783 0.856031 0.110395
0.065956 0.856628 0.111141
0.067149 0.859421 0.118005
0.072501 0.863477 0.128271
0.114063 0.867685 0.142697
0.365129 0.871047 0.161715
0.680453 0.874260 0.184074
0.854116 0.877237 0.211184
0.899601 0.881215 0.294030
0.065446 0.881182 0.102566
0.065446 0.893437 0.102566
0.065446 0.893439 0.102565
0.065517 0.899047 0.092512
0.074155 0.899417 0.114964
0.171016 0.900446 0.127893
0.495207 0.901212 0.140919
0.789807 0.902707 0.153951
0.901889 0.905758 0.179851
0.065446 0.069627 0.498059
0.065424 0.069814 0.590399
0.084433 0.070612 0.658686
0.465902 0.071840 0.659807
0.780881 0.073622 0.661019
0.858183 0.080219 0.668679
0.883553 0.087277 0.681968
0.897742 0.093254 0.705644
0.902425 0.386353 0.732613
0.065446 0.070013 0.505163
0.065442 0.070345 0.579686
0.083943 0.071731 0.644321
0.439400 0.073208 0.649376
0.765032 0.077720 0.652869
0.855394 0.084888 0.663595
0.882747 0.093388 0.678282
0.897474 0.101243 0.703671
0.902425 0.386353 0.728829
0.065495 0.075767 0.492820
0.066000 0.077903 0.522127
0.080126 0.083290 0.595139
0.358138 0.089930 0.611432
0.712412 0.100410 0.622033
0.842991 0.126834 0.638818
0.879043 0.159645 0.662744
0.895733 0.214061 0.692309
0.902425 0.386364 0.716779
0.066039 0.134785 0.466171
0.066830 0.143753 0.476365
0.076054 0.175464 0.514983
0.255974 0.215091 0.557836
0.624927 0.263360 0.583659
0.816441 0.331459 0.599418
0.872077 0.397413 0.628424
0.893156 0.461134 0.671418
0.902425 0.552268 0.716887
0.066821 0.419712 0.441104
0.067949 0.430550 0.449276
0.074402 0.465606 0.472433
0.173386 0.501369 0.499074
0.533457 0.546341 0.546883
0.773168 0.565649 0.563206
0.860017 0.603422 0.594607
0.889381 0.637494 0.634382
0.901277 0.710066 0.710241
0.067508 0.645072 0.424567
0.068471 0.649590 0.431786
0.073427 0.667156 0.454124
0.120992 0.689497 0.476517
0.395063 0.707141 0.500001
0.690532 0.720480 0.525197
0.838264 0.737061 0.559211
0.884031 0.756556 0.596528
0.900399 0.785339 0.687286
0.067386 0.774971 0.406032
0.068190 0.776618 0.411773
0.071454 0.779744 0.434290
0.092054 0.790586 0.460035
0.264516 0.801669 0.481125
0.574269 0.811418 0.504112
0.801253 0.821483 0.528736
0.876106 0.834094 0.563943
0.899793 0.853415 0.650733
0.066090 0.855809 0.370503
0.066292 0.856394 0.377275
0.068596 0.858981 0.400077
0.076947 0.862773 0.430962
0.148678 0.866754 0.459797
0.437985 0.870196 0.480524
0.720439 0.873665 0.501971
0.862671 0.877059 0.526409
0.899991 0.881548 0.598398
0.065446 0.883922 0.469054
0.065446 0.885811 0.469054
0.065446 0.890231 0.469049
0.066548 0.896519 0.346777
0.079460 0.898830 0.399804
0.203063 0.899963 0.436676
0.531670 0.900892 0.460033
0.808978 0.902564 0.474706
0.902123 0.906223 0.527509
0.065446 0.070113 0.704253
0.065431 0.070344 0.736511
0.079667 0.072515 0.766220
0.416546 0.074311 0.767361
0.761799 0.080169 0.768305
0.854380 0.087857 0.771174
0.882151 0.097939 0.776426
0.896819 0.117643 0.784496
0.902425 0.386353 0.779869
0.065446 0.070729 0.706852
0.065407 0.071159 0.734103
0.079209 0.073618 0.764362
0.395670 0.078189 0.766052
0.749040 0.084525 0.767268
0.851857 0.093976 0.769896
0.881401 0.111487 0.775575
0.896556 0.132584 0.784140
0.902425 0.386354 0.779869
0.065517 0.080869 0.706830
0.065959 0.082463 0.721022
0.078351 0.091695 0.753333
0.337804 0.102001 0.760276
0.703765 0.122293 0.762700
0.840025 0.153070 0.765736
0.878098 0.197261 0.771632
0.895090 0.270407 0.781731
0.902425 0.386365 0.779868
0.066121 0.158291 0.690057
0.067100 0.168896 0.697376
0.077979 0.209840 0.723727
0.262722 0.259902 0.742921
0.631973 0.314758 0.751425
0.816810 0.362667 0.757784
0.871916 0.427985 0.764915
0.892816 0.491893 0.776588
0.902205 0.582552 0.783227
0.067547 0.446047 0.673406
0.068603 0.455918 0.677497
0.077982 0.489497 0.693605
0.195140 0.523162 0.712719
0.541334 0.549752 0.728289
0.781648 0.578898 0.740496
0.861619 0.615694 0.753934
0.889500 0.650483 0.767370
0.901130 0.718154 0.789149
0.068527 0.651343 0.661222
0.069317 0.655942 0.663802
0.076393 0.673015 0.673619
0.141782 0.694443 0.687810
0.439694 0.710742 0.703187
0.718057 0.727752 0.720402
0.844254 0.740907 0.733739
0.884947 0.761088 0.755390
0.900363 0.790838 0.784550
0.068488 0.776798 0.651339
0.069004 0.777442 0.653595
0.073569 0.781509 0.661983
0.106890 0.791923 0.672782
0.313374 0.802856 0.685647
0.618225 0.812621 0.698541
0.813050 0.823072 0.711539
0.878401 0.836157 0.731628
0.899878 0.855164 0.773345
0.066551 0.856618 0.641061
0.067044 0.857185 0.642532
0.069599 0.859619 0.649727
0.082395 0.863169 0.660285
0.184296 0.866972 0.670566
0.479618 0.870440 0.681542
0.746406 0.874048 0.692462
0.867281 0.877450 0.704778
0.900175 0.882629 0.755576
0.065446 0.885156 0.599124
0.065446 0.886806 0.603845
0.065446 0.890525 0.624564
0.066889 0.897035 0.640994
0.082400 0.899089 0.652234
0.220883 0.900203 0.662463
0.549727 0.901233 0.670208
0.818661 0.902958 0.676519
0.902203 0.906911 0.719835
0.065446 0.071392 0.814571
0.065420 0.071739 0.826500
0.072967 0.075825 0.832211
0.385870 0.081025 0.833431
0.750957 0.088483 0.834346
0.852325 0.099462 0.835466
0.881432 0.120555 0.837608
0.896266 0.151707 0.840817
0.902425 0.386278 0.839320
0.065435 0.072444 0.815251
0.065405 0.072812 0.825935
0.073319 0.079327 0.831355
0.370870 0.085287 0.832857
0.740950 0.094040 0.834028
0.850236 0.112078 0.835192
0.880746 0.136344 0.837375
0.896022 0.176369 0.840690
0.902425 0.386250 0.838906
0.065528 0.087044 0.815696
0.065912 0.088748 0.822006
0.074932 0.101943 0.828544
0.328051 0.121545 0.829993
0.703238 0.148523 0.831813
0.839854 0.188115 0.833856
0.877828 0.249297 0.836290
0.894774 0.326635 0.839853
0.902423 0.385624 0.837017
0.066290 0.190611 0.808153
0.067257 0.201557 0.812384
0.077666 0.254257 0.823144
0.271087 0.308775 0.827239
0.644533 0.353008 0.828751
0.819517 0.408965 0.830309
0.872430 0.460333 0.834232
0.892798 0.519335 0.838482
0.901854 0.618436 0.843396
0.068304 0.478196 0.797116
0.069026 0.485474 0.800083
0.079993 0.516326 0.810021
0.211418 0.543518 0.819278
0.557857 0.570448 0.825305
0.788604 0.599492 0.827374
0.863731 0.625775 0.829712
0.889900 0.663913 0.836036
0.901070 0.726479 0.843200
0.069115 0.665567 0.786730
0.070128 0.669759 0.788645
0.079696 0.686579 0.795964
0.166002 0.704889 0.805791
0.472807 0.718538 0.814492
0.732021 0.731691 0.821042
0.848709 0.746431 0.826287
0.885897 0.766448 0.831018
0.900419 0.796463 0.841868
0.068869 0.778592 0.777936
0.069697 0.779281 0.779202
0.075298 0.786172 0.784342
0.118745 0.796149 0.791920
0.347302 0.806769 0.800787
0.651054 0.816142 0.808861
0.819981 0.826486 0.815494
0.880111 0.839578 0.825848
0.900034 0.857044 0.839124
0.066738 0.858727 0.772424
0.067242 0.859252 0.772928
0.070014 0.861493 0.775579
0.084868 0.864823 0.780557
0.200113 0.868441 0.787261
0.504659 0.871813 0.794293
0.762171 0.875270 0.801374
0.869471 0.878390 0.809379
0.900338 0.884259 0.832535
0.065446 0.884988 0.731623
0.065446 0.888195 0.731647
0.065446 0.892315 0.732295
0.066117 0.898700 0.775397
0.081160 0.900260 0.776411
0.219293 0.901237 0.780268
0.550468 0.902225 0.784379
0.818780 0.903945 0.787528
0.902270 0.907866 0.822972
0.065420 0.073615 0.875583
0.065427 0.074066 0.877139
0.075014 0.080798 0.878572
0.423283 0.087276 0.878924
0.768951 0.095860 0.879312
0.855898 0.114870 0.879963
0.882450 0.137903 0.881147
0.896725 0.176960 0.884271
0.902425 0.408577 0.884147
0.065407 0.076180 0.875252
0.065467 0.076964 0.876799
0.075827 0.084448 0.878349
0.411263 0.092107 0.878742
0.761069 0.105222 0.879150
0.854332 0.127802 0.879815
0.881942 0.157318 0.881015
0.896519 0.202671 0.884093
0.902425 0.415037 0.884147
0.065799 0.097149 0.873978
0.066039 0.099430 0.875136
0.081585 0.120417 0.877059
0.374454 0.142875 0.877740
0.729251 0.177259 0.878293
0.847266 0.227895 0.879058
0.879573 0.278745 0.880342
0.895494 0.349289 0.883162
0.902425 0.484335 0.884147
0.066859 0.242198 0.871324
0.067882 0.248868 0.872409
0.084769 0.292901 0.874838
0.320337 0.338528 0.876255
0.681472 0.385791 0.877093
0.831113 0.432605 0.878016
0.875394 0.479663 0.879438
0.893910 0.530361 0.882084
0.901890 0.631516 0.885818
0.068651 0.507852 0.867144
0.069712 0.513674 0.868341
0.085732 0.536020 0.871423
0.257311 0.560133 0.873756
0.603164 0.585403 0.875399
0.805757 0.613121 0.876759
0.868662 0.634942 0.878279
0.891594 0.671060 0.880877
0.901291 0.732543 0.884576
0.069728 0.682631 0.861396
0.070985 0.686199 0.862717
0.084230 0.700345 0.866640
0.195958 0.713369 0.870219
0.520836 0.725251 0.872833
0.762396 0.737751 0.874876
0.856373 0.751541 0.876877
0.888336 0.769660 0.879514
0.900793 0.800727 0.883517
0.069230 0.784843 0.853613
0.070050 0.786399 0.854786
0.077593 0.793264 0.859035
0.131542 0.802455 0.864270
0.389140 0.811578 0.868676
0.681771 0.820393 0.871886
0.831589 0.830052 0.874488
0.883213 0.842497 0.877787
0.900486 0.858527 0.882335
0.066225 0.862619 0.846438
0.066718 0.863032 0.846950
0.069611 0.864834 0.849361
0.084527 0.867729 0.853833
0.205930 0.870980 0.859643
0.522454 0.874146 0.864966
0.775674 0.876738 0.869191
0.870464 0.879009 0.871210
0.900674 0.885924 0.880537
0.065446 0.883274 0.826671
0.065446 0.892155 0.827236
0.065446 0.893381 0.832378
0.065758 0.900273 0.842969
0.074623 0.902667 0.844604
0.192173 0.903267 0.847687
0.528456 0.904017 0.851030
0.806383 0.905564 0.853294
0.902340 0.908891 0.875867
0.068517 0.075351 0.904606
0.069973 0.075936 0.904608
0.171267 0.078260 0.904618
0.702123 0.081987 0.904652
0.841704 0.088080 0.904717
0.874212 0.094789 0.904836
0.889603 0.099572 0.905148
0.899534 0.105152 0.905761
0.902425 0.406212 0.903959
0.068820 0.077882 0.904545
0.070752 0.078467 0.904549
0.173719 0.080729 0.904562
0.693224 0.085383 0.904602
0.839983 0.092237 0.904672
0.873790 0.101322 0.904799
0.889431 0.109679 0.905115
0.899458 0.114009 0.905737
0.902425 0.415164 0.905324
0.071830 0.094085 0.904220
0.074817 0.095022 0.904231
0.188881 0.100373 0.904271
0.677466 0.114282 0.904350
0.831981 0.132590 0.904457
0.871788 0.157712 0.904625
0.888578 0.177873 0.904955
0.899038 0.188534 0.905589
0.902425 0.415221 0.905324
0.079417 0.241209 0.903704
0.085689 0.245535 0.903731
0.205038 0.261673 0.903824
0.623910 0.293643 0.903967
0.816192 0.333385 0.904129
0.867527 0.369391 0.904347
0.886809 0.404424 0.904713
0.898192 0.446323 0.905317
0.902425 0.635570 0.906127
0.083624 0.511987 0.903321
0.088733 0.515180 0.903365
0.195836 0.524877 0.903510
0.553592 0.540759 0.903687
0.790482 0.559855 0.903901
0.859716 0.580657 0.904161
0.884110 0.601256 0.904534
0.897266 0.626445 0.905145
0.902349 0.724449 0.906298
0.080253 0.688002 0.903150
0.085323 0.689885 0.903209
0.150518 0.696668 0.903401
0.467169 0.706325 0.903628
0.734738 0.715318 0.903862
0.846287 0.724832 0.904140
0.879884 0.734714 0.904505
0.896018 0.749018 0.905075
0.902203 0.792676 0.906163
0.072450 0.789855 0.903233
0.074124 0.790741 0.903302
0.094493 0.794705 0.903514
0.294380 0.800954 0.903782
0.621994 0.807443 0.904055
0.811716 0.814081 0.904341
0.872026 0.821194 0.904726
0.894161 0.830170 0.905230
0.902156 0.855616 0.906194
0.066108 0.864372 0.902996
0.066432 0.864724 0.903245
0.069380 0.866354 0.903747
0.093354 0.868876 0.904137
0.345530 0.871181 0.904512
0.687048 0.873462 0.904841
0.845490 0.875828 0.905185
0.889329 0.877810 0.905633
0.902235 0.884237 0.906379
0.065446 0.880957 0.866231
0.065446 0.893439 0.879908
0.065446 0.893440 0.879909
0.065446 0.895240 0.879936
0.068470 0.907135 0.901511
0.134293 0.906345 0.905339
0.501275 0.906471 0.905962
0.805341 0.907827 0.906383
0.902425 0.910057 0.906664
