provia100f/Provia100F_Classic_IlfochromeP.cube
TITLE "Fuji Provia 100F Classic IlfochromeP"
# Adobe RGB in/out. REPLACES AgX. Fuji Provia 100F Classic IlfochromeP.
LUT_3D_SIZE 33
DOMAIN_MIN 0.0 0.0 0.0
DOMAIN_MAX 1.0 1.0 1.0
0.167450 0.163886 0.144994
0.167450 0.163886 0.144994
0.167421 0.163886 0.144994
0.167620 0.163886 0.144994
0.169904 0.163886 0.144994
0.174349 0.163886 0.144994
0.181148 0.163886 0.144994
0.192385 0.164615 0.144994
0.210544 0.166058 0.144994
0.237860 0.168933 0.144994
0.275260 0.173082 0.144987
0.313151 0.177302 0.144970
0.349597 0.184761 0.144954
0.387086 0.193552 0.144940
0.426300 0.206838 0.144926
0.463041 0.221370 0.145100
0.498886 0.238319 0.145383
0.535926 0.256297 0.145649
0.574757 0.275952 0.145959
0.613158 0.296094 0.146774
0.651629 0.317724 0.147552
0.690460 0.339827 0.148296
0.726118 0.362502 0.149008
0.752455 0.386788 0.149693
0.778285 0.412176 0.150942
0.802727 0.438092 0.152178
0.823149 0.464989 0.153376
0.843291 0.489304 0.155214
0.862322 0.513937 0.157244
0.874884 0.538059 0.159229
0.885678 0.562390 0.161169
0.896246 0.586970 0.163427
0.906597 0.609085 0.166354
0.167450 0.163886 0.144994
0.167450 0.163886 0.144994
0.167420 0.163886 0.144994
0.167621 0.163886 0.144994
0.169912 0.163886 0.144994
0.174357 0.163886 0.144994
0.181161 0.163886 0.144994
0.192399 0.164739 0.144994
0.210567 0.166326 0.144994
0.237891 0.169148 0.144994
0.275293 0.173382 0.144987
0.313179 0.177571 0.144970
0.349623 0.185214 0.144954
0.387110 0.194218 0.144940
0.426323 0.207449 0.144926
0.463060 0.222077 0.145103
0.498904 0.239007 0.145385
0.535944 0.257006 0.145651
0.574774 0.276626 0.145965
0.613173 0.296757 0.146780
0.651643 0.318381 0.147557
0.690474 0.340458 0.148300
0.726128 0.363133 0.149012
0.752463 0.387425 0.149696
0.778292 0.412795 0.150948
0.802733 0.438693 0.152184
0.823155 0.465518 0.153381
0.843296 0.489816 0.155224
0.862326 0.514433 0.157253
0.874886 0.538524 0.159237
0.885681 0.562841 0.161177
0.896248 0.587378 0.163438
0.906600 0.609463 0.166364
0.167450 0.163886 0.144994
0.167450 0.163886 0.144994
0.167415 0.163886 0.144994
0.167628 0.163886 0.144994
0.169939 0.163886 0.144994
0.174387 0.163886 0.144994
0.181207 0.164064 0.144994
0.192451 0.165154 0.144994
0.210652 0.167242 0.144994
0.238007 0.170170 0.144994
0.275413 0.174425 0.144986
0.313279 0.178989 0.144969
0.349715 0.186812 0.144953
0.387199 0.196584 0.144939
0.426406 0.209621 0.144926
0.463129 0.224600 0.145113
0.498968 0.241464 0.145394
0.536009 0.259544 0.145658
0.574833 0.279038 0.145987
0.613228 0.299172 0.146800
0.651696 0.320732 0.147575
0.690524 0.342717 0.148316
0.726165 0.365395 0.149027
0.752493 0.389709 0.149710
0.778321 0.415011 0.150972
0.802754 0.440847 0.152206
0.823175 0.467414 0.153401
0.843315 0.491653 0.155257
0.862340 0.516182 0.157285
0.874896 0.540191 0.159266
0.885690 0.564459 0.161205
0.896256 0.588780 0.163479
0.906607 0.610820 0.166403
0.167450 0.163886 0.144994
0.167450 0.163886 0.144994
0.167407 0.163886 0.144994
0.167640 0.163886 0.144994
0.169988 0.163886 0.144994
0.174441 0.163994 0.144994
0.181291 0.164922 0.144994
0.192547 0.166304 0.144994
0.210807 0.168769 0.144994
0.238246 0.172331 0.144994
0.275632 0.176228 0.144984
0.313464 0.181985 0.144967
0.349886 0.189645 0.144952
0.387362 0.200832 0.144938
0.426558 0.213537 0.144925
0.463255 0.229174 0.145130
0.499086 0.245930 0.145409
0.536129 0.264170 0.145672
0.574942 0.283437 0.146028
0.613331 0.303651 0.146836
0.651793 0.325032 0.147608
0.690616 0.346852 0.148346
0.726232 0.369537 0.149054
0.752548 0.393895 0.149744
0.778372 0.419076 0.151016
0.802793 0.444798 0.152246
0.823212 0.470890 0.153438
0.843350 0.495021 0.155319
0.862367 0.519337 0.157342
0.874913 0.543250 0.159320
0.885706 0.567428 0.161255
0.896272 0.591351 0.163554
0.906622 0.613309 0.166475
0.167450 0.163886 0.144994
0.167450 0.163886 0.144994
0.167394 0.163886 0.144994
0.167658 0.164021 0.144994
0.170090 0.164584 0.144994
0.174577 0.165234 0.144994
0.181417 0.166625 0.144994
0.192690 0.168681 0.144994
0.211038 0.171679 0.144994
0.238604 0.175218 0.144994
0.275960 0.179414 0.144981
0.313740 0.186515 0.144965
0.350141 0.194956 0.144950
0.387605 0.207008 0.144937
0.426786 0.220246 0.144924
0.463444 0.235918 0.145156
0.499262 0.252483 0.145432
0.536308 0.270984 0.145692
0.575105 0.289930 0.146088
0.613483 0.310280 0.146890
0.651938 0.331401 0.147656
0.690754 0.352984 0.148390
0.726333 0.375687 0.149094
0.752630 0.400118 0.149814
0.778450 0.425121 0.151080
0.802852 0.450678 0.152306
0.823267 0.476060 0.153494
0.843402 0.500033 0.155411
0.862406 0.524033 0.157429
0.874940 0.547804 0.159401
0.885731 0.571848 0.161331
0.896295 0.595179 0.163666
0.906644 0.617015 0.166581
0.167450 0.165124 0.144994
0.167450 0.165170 0.144994
0.167379 0.165330 0.144994
0.167681 0.165702 0.144994
0.170258 0.166802 0.144994
0.174764 0.168143 0.144994
0.181635 0.169809 0.144994
0.192883 0.172644 0.144994
0.211351 0.175601 0.144994
0.239086 0.179301 0.144994
0.276404 0.185610 0.144978
0.314113 0.192413 0.144963
0.350485 0.203533 0.144948
0.387934 0.214954 0.144935
0.427094 0.229568 0.144922
0.463698 0.245049 0.145191
0.499501 0.261920 0.145462
0.536550 0.280006 0.145718
0.575325 0.298826 0.146169
0.613689 0.319105 0.146962
0.652133 0.339894 0.147721
0.690940 0.361294 0.148449
0.726470 0.384268 0.149147
0.752741 0.408455 0.149909
0.778554 0.433226 0.151168
0.802932 0.458565 0.152386
0.823342 0.482991 0.153568
0.843473 0.506755 0.155535
0.862459 0.530333 0.157545
0.874975 0.553917 0.159510
0.885764 0.577785 0.161434
0.896326 0.600317 0.163818
0.906673 0.621993 0.166725
0.167450 0.168729 0.144994
0.167450 0.168821 0.144994
0.167361 0.169146 0.144994
0.167709 0.169879 0.144994
0.170469 0.171270 0.144994
0.174999 0.173021 0.144994
0.181955 0.175067 0.144994
0.193142 0.177341 0.144994
0.211746 0.181621 0.144994
0.239699 0.187087 0.144990
0.276967 0.193484 0.144974
0.314587 0.203422 0.144959
0.350922 0.213801 0.144945
0.388352 0.226941 0.144932
0.427485 0.241203 0.144954
0.464022 0.256587 0.145234
0.499804 0.273626 0.145500
0.536857 0.291203 0.145752
0.575605 0.310272 0.146271
0.613951 0.330124 0.147053
0.652382 0.350517 0.147803
0.691177 0.371956 0.148523
0.726644 0.395058 0.149215
0.752882 0.418944 0.150029
0.778688 0.443433 0.151278
0.803033 0.468590 0.152488
0.823438 0.491717 0.153662
0.843563 0.515225 0.155692
0.862526 0.538272 0.157692
0.875020 0.561626 0.159648
0.885806 0.585277 0.161564
0.896366 0.606796 0.164010
0.906711 0.628273 0.166907
0.167450 0.174871 0.144994
0.167450 0.174987 0.144994
0.167340 0.175398 0.144994
0.167799 0.176136 0.144994
0.170719 0.177198 0.144994
0.175283 0.179209 0.144994
0.182342 0.182483 0.144994
0.193482 0.186438 0.144994
0.212240 0.190818 0.144994
0.240447 0.198149 0.144984
0.277654 0.206745 0.144969
0.315166 0.216049 0.144955
0.351456 0.228172 0.144942
0.388862 0.241169 0.144929
0.427963 0.255227 0.145013
0.464418 0.271039 0.145286
0.500173 0.287468 0.145545
0.537232 0.305152 0.145792
0.575947 0.323923 0.146393
0.614271 0.343297 0.147163
0.652686 0.363447 0.147902
0.691467 0.385156 0.148613
0.726856 0.408054 0.149296
0.753055 0.431593 0.150174
0.778850 0.455754 0.151411
0.803157 0.479438 0.152611
0.823554 0.502247 0.153852
0.843673 0.525106 0.155883
0.862608 0.547864 0.157871
0.875075 0.570946 0.159816
0.885858 0.593559 0.161721
0.896415 0.614629 0.164243
0.906757 0.635870 0.167129
0.167450 0.183964 0.144994
0.167450 0.184156 0.144994
0.167345 0.184840 0.144994
0.168008 0.186078 0.144994
0.171009 0.187884 0.144994
0.175613 0.190242 0.144994
0.182797 0.194051 0.144994
0.193882 0.199695 0.144994
0.212873 0.206155 0.144993
0.241332 0.213324 0.144978
0.278468 0.222656 0.144964
0.315851 0.233263 0.144951
0.352088 0.245007 0.144938
0.389467 0.257949 0.144926
0.428529 0.272384 0.145081
0.464887 0.287524 0.145345
0.500612 0.303921 0.145598
0.537677 0.321475 0.145838
0.576353 0.339698 0.146535
0.614651 0.358576 0.147291
0.653047 0.378941 0.148018
0.691810 0.400744 0.148718
0.727108 0.423233 0.149392
0.753260 0.446386 0.150344
0.779043 0.470103 0.151568
0.803304 0.492119 0.152756
0.823692 0.514571 0.154092
0.843803 0.536671 0.156108
0.862705 0.559103 0.158081
0.875140 0.581876 0.160014
0.885919 0.603029 0.161908
0.896472 0.623814 0.164519
0.906811 0.644785 0.167391
0.167450 0.198737 0.144994
0.167412 0.199004 0.144994
0.167420 0.199962 0.144994
0.168239 0.201716 0.144994
0.171335 0.204310 0.144994
0.175990 0.207742 0.144994
0.183319 0.211992 0.144994
0.194343 0.217488 0.144994
0.213604 0.224780 0.144985
0.242359 0.232982 0.144971
0.279412 0.242350 0.144959
0.316647 0.252615 0.144946
0.352822 0.264717 0.144934
0.390170 0.277674 0.144923
0.429187 0.291428 0.145157
0.465432 0.306662 0.145413
0.501122 0.322883 0.145657
0.538194 0.339841 0.145928
0.576824 0.357495 0.146697
0.615092 0.376551 0.147437
0.653466 0.397159 0.148150
0.692209 0.418502 0.148838
0.727401 0.440553 0.149502
0.753497 0.463722 0.150539
0.779267 0.484996 0.151748
0.803475 0.506601 0.152923
0.823853 0.528199 0.154369
0.843954 0.549898 0.156368
0.862819 0.571970 0.158325
0.875216 0.593615 0.160242
0.885990 0.613870 0.162123
0.896539 0.634338 0.164838
0.906875 0.654282 0.167694
0.167413 0.219344 0.144994
0.167373 0.219642 0.144994
0.167497 0.220710 0.144994
0.168486 0.222661 0.144994
0.171694 0.225549 0.144994
0.176411 0.229399 0.144994
0.183908 0.234208 0.144994
0.194865 0.240189 0.144989
0.214435 0.247139 0.144977
0.243529 0.255221 0.144964
0.280489 0.264823 0.144952
0.317554 0.275366 0.144941
0.353660 0.286799 0.144930
0.390971 0.299390 0.144986
0.429937 0.313358 0.145241
0.466053 0.328166 0.145487
0.501703 0.343770 0.145723
0.538785 0.360214 0.146129
0.577362 0.378069 0.146878
0.615596 0.397396 0.147601
0.653944 0.417505 0.148299
0.692664 0.438369 0.148973
0.727735 0.460001 0.149625
0.753769 0.481002 0.150760
0.779523 0.501670 0.151952
0.803669 0.522576 0.153112
0.824036 0.543457 0.154683
0.844127 0.564749 0.156661
0.862948 0.586435 0.158600
0.875303 0.606158 0.160501
0.886072 0.626051 0.162367
0.896616 0.646175 0.165200
0.906947 0.664726 0.168039
0.167369 0.244776 0.144994
0.167336 0.245057 0.144994
0.167575 0.246063 0.144994
0.168820 0.247905 0.144994
0.172084 0.250639 0.144994
0.176875 0.254437 0.144994
0.184562 0.259465 0.144989
0.195446 0.265518 0.144979
0.215365 0.272579 0.144968
0.244845 0.280627 0.144957
0.281700 0.289629 0.144946
0.318574 0.299897 0.144935
0.354602 0.311438 0.144925
0.391873 0.323903 0.145088
0.430783 0.337252 0.145332
0.466753 0.351447 0.145567
0.502358 0.366782 0.145794
0.539450 0.383515 0.146349
0.577967 0.401492 0.147076
0.616163 0.420296 0.147780
0.654483 0.439898 0.148462
0.693177 0.460349 0.149122
0.728111 0.480222 0.149799
0.754075 0.499872 0.151004
0.779811 0.519898 0.152178
0.803889 0.539881 0.153321
0.824242 0.560315 0.155033
0.844322 0.581179 0.156989
0.863094 0.600785 0.158908
0.875400 0.620030 0.160791
0.886163 0.639538 0.162754
0.896702 0.658173 0.165606
0.907028 0.676293 0.168425
0.167329 0.273073 0.144994
0.167401 0.273357 0.144994
0.167652 0.274373 0.144994
0.169184 0.276237 0.144994
0.172501 0.279008 0.144994
0.177378 0.282723 0.144987
0.185279 0.287399 0.144979
0.196102 0.293108 0.144970
0.216396 0.299993 0.144960
0.246307 0.308051 0.144950
0.283048 0.317107 0.144940
0.319709 0.327137 0.144930
0.355651 0.338112 0.144960
0.392878 0.349998 0.145197
0.431724 0.362951 0.145428
0.467532 0.377164 0.145653
0.503087 0.392848 0.145872
0.540190 0.409429 0.146587
0.578642 0.426876 0.147291
0.616796 0.445160 0.147976
0.655083 0.464743 0.148640
0.693749 0.482696 0.149285
0.728478 0.501258 0.150089
0.754416 0.520227 0.151272
0.780132 0.539239 0.152426
0.804133 0.558742 0.153552
0.824473 0.578714 0.155418
0.844539 0.597830 0.157350
0.863256 0.616357 0.159247
0.875509 0.635182 0.161110
0.886266 0.653627 0.163227
0.896798 0.671196 0.166055
0.907119 0.687444 0.168852
0.167432 0.303415 0.144993
0.167508 0.303697 0.144992
0.167729 0.304707 0.144990
0.169560 0.306562 0.144987
0.172943 0.309323 0.144982
0.177919 0.313030 0.144976
0.186056 0.317709 0.144968
0.197310 0.323370 0.144960
0.217527 0.330014 0.144951
0.247916 0.337635 0.144942
0.284532 0.346220 0.144933
0.320960 0.355751 0.144924
0.356808 0.366527 0.145087
0.393986 0.378444 0.145310
0.432762 0.391732 0.145529
0.468392 0.405971 0.145744
0.503892 0.421134 0.146142
0.541008 0.437194 0.146840
0.579388 0.454124 0.147522
0.617494 0.471656 0.148186
0.655747 0.488423 0.148832
0.694381 0.505840 0.149461
0.728879 0.523584 0.150403
0.754792 0.541564 0.151563
0.780487 0.560075 0.152696
0.804404 0.579091 0.153898
0.824727 0.597347 0.155838
0.844779 0.615093 0.157745
0.863435 0.633170 0.159618
0.875629 0.651151 0.161460
0.886378 0.668108 0.163744
0.896905 0.684480 0.166547
0.907219 0.698485 0.169321
0.167544 0.336048 0.144979
0.167610 0.336313 0.144979
0.168143 0.337264 0.144977
0.169943 0.339010 0.144974
0.173405 0.341611 0.144970
0.178494 0.345108 0.144965
0.186893 0.349525 0.144958
0.198619 0.354877 0.144951
0.218757 0.361294 0.144943
0.249675 0.368809 0.144935
0.286155 0.377363 0.144926
0.322328 0.387228 0.145007
0.358073 0.398092 0.145218
0.395199 0.409937 0.145428
0.433805 0.422744 0.145635
0.469334 0.436492 0.145839
0.504774 0.451158 0.146437
0.541904 0.466972 0.147109
0.580204 0.481809 0.147767
0.618259 0.497357 0.148410
0.656473 0.513590 0.149037
0.695073 0.529955 0.149650
0.729317 0.546855 0.150741
0.755204 0.564321 0.151876
0.780875 0.582330 0.152986
0.804700 0.599364 0.154383
0.825005 0.616270 0.156293
0.845042 0.633543 0.158172
0.863632 0.650789 0.160020
0.875760 0.667078 0.161839
0.886502 0.683132 0.164306
0.897021 0.696654 0.167082
0.907329 0.710287 0.169831
0.167649 0.370034 0.144967
0.167706 0.370294 0.144967
0.168564 0.371229 0.144965
0.170567 0.372946 0.144963
0.173885 0.375507 0.144959
0.179101 0.379090 0.144954
0.187785 0.383639 0.144948
0.200028 0.389162 0.144942
0.220085 0.395671 0.144935
0.251583 0.403171 0.144927
0.287917 0.411661 0.144961
0.323813 0.421136 0.145155
0.359448 0.431585 0.145351
0.396517 0.442996 0.145548
0.434935 0.455352 0.145744
0.470358 0.468708 0.146090
0.505732 0.481523 0.146745
0.542879 0.495100 0.147390
0.581093 0.509414 0.148024
0.619091 0.524126 0.148646
0.657264 0.539288 0.149254
0.695826 0.555073 0.149968
0.729795 0.571458 0.151100
0.755653 0.588279 0.152209
0.781298 0.603876 0.153297
0.805022 0.619895 0.154901
0.825309 0.636314 0.156780
0.845328 0.652561 0.158630
0.863846 0.668132 0.160452
0.875903 0.683427 0.162247
0.886637 0.696419 0.164912
0.897148 0.709549 0.167659
0.907449 0.722805 0.170381
0.167823 0.407212 0.144955
0.168099 0.407471 0.144955
0.169101 0.408403 0.144954
0.171255 0.410114 0.144952
0.174380 0.412668 0.144948
0.179737 0.416107 0.144944
0.188730 0.420462 0.144939
0.201535 0.425753 0.144933
0.221648 0.431995 0.144927
0.253639 0.439194 0.144950
0.289818 0.447353 0.145124
0.325416 0.456468 0.145303
0.360933 0.466806 0.145487
0.397942 0.476751 0.145671
0.436157 0.487511 0.145856
0.471464 0.499065 0.146439
0.506769 0.511395 0.147065
0.543933 0.524163 0.147683
0.582054 0.537494 0.148293
0.619992 0.551499 0.148893
0.658120 0.566152 0.149482
0.696641 0.581432 0.150377
0.730311 0.596209 0.151480
0.756139 0.610851 0.152562
0.781756 0.625946 0.153626
0.805370 0.641473 0.155453
0.825637 0.656464 0.157299
0.845637 0.671273 0.159119
0.864078 0.685375 0.160913
0.876058 0.697794 0.162821
0.886782 0.710378 0.165561
0.897285 0.723115 0.168277
0.907578 0.735991 0.171154
0.168338 0.445810 0.144945
0.168599 0.446058 0.144944
0.169625 0.446951 0.144943
0.171945 0.448591 0.144941
0.175214 0.451039 0.144938
0.180462 0.454338 0.144935
0.189725 0.458517 0.144930
0.203136 0.464069 0.144925
0.223756 0.469576 0.144974
0.255846 0.475831 0.145126
0.291860 0.482916 0.145286
0.327138 0.490827 0.145452
0.362528 0.499557 0.145623
0.399474 0.509094 0.145796
0.437471 0.519284 0.146200
0.472655 0.530010 0.146798
0.507884 0.541464 0.147394
0.545067 0.553626 0.147986
0.583088 0.566477 0.148572
0.620961 0.579996 0.149151
0.659041 0.593400 0.149720
0.697519 0.606564 0.150806
0.730868 0.620230 0.151878
0.756662 0.634377 0.152934
0.782249 0.648809 0.154203
0.805746 0.662470 0.156037
0.825990 0.676483 0.157849
0.845970 0.688964 0.159637
0.864327 0.700774 0.161403
0.876225 0.712776 0.163547
0.886939 0.724957 0.166252
0.897433 0.737303 0.168937
0.907718 0.749802 0.172012
0.168924 0.483972 0.144934
0.169212 0.484187 0.144934
0.170224 0.484960 0.144933
0.172636 0.486380 0.144931
0.176117 0.488498 0.144929
0.181343 0.491352 0.144925
0.190767 0.494967 0.144921
0.204829 0.499360 0.145033
0.226000 0.504545 0.145161
0.258201 0.510527 0.145299
0.294041 0.517239 0.145446
0.328978 0.524559 0.145600
0.364235 0.532641 0.145760
0.401113 0.541475 0.146034
0.438876 0.551052 0.146597
0.473929 0.561357 0.147164
0.509079 0.572376 0.147732
0.546283 0.584091 0.148298
0.584196 0.595472 0.148861
0.622000 0.607089 0.149418
0.660029 0.619249 0.150197
0.698460 0.631932 0.151253
0.731463 0.645119 0.152295
0.757222 0.657715 0.153323
0.782777 0.670531 0.154856
0.806148 0.683224 0.156651
0.826369 0.694164 0.158428
0.846328 0.705337 0.160184
0.864594 0.716729 0.161920
0.876404 0.728323 0.164315
0.887107 0.740108 0.166985
0.897591 0.752068 0.169636
0.907867 0.764191 0.172925
0.169540 0.520451 0.144925
0.169798 0.520649 0.144924
0.171096 0.521362 0.144923
0.173323 0.522671 0.144922
0.177034 0.524626 0.144962
0.182636 0.527259 0.145035
0.191853 0.530596 0.145123
0.206612 0.534652 0.145226
0.228378 0.539441 0.145342
0.260704 0.544968 0.145469
0.296362 0.551237 0.145605
0.330936 0.558248 0.145748
0.366052 0.565996 0.145946
0.402860 0.574475 0.146467
0.440375 0.583676 0.146998
0.475288 0.592889 0.147536
0.510353 0.602336 0.148076
0.547580 0.612374 0.148617
0.585379 0.622985 0.149157
0.623109 0.634152 0.149692
0.661083 0.645857 0.150694
0.699464 0.657074 0.151716
0.732099 0.668617 0.152728
0.757820 0.680579 0.153766
0.783341 0.690666 0.155538
0.806577 0.700927 0.157295
0.826773 0.711445 0.159035
0.846709 0.722204 0.160758
0.864880 0.733189 0.162478
0.876595 0.744386 0.165125
0.887287 0.755781 0.167757
0.897761 0.767362 0.170374
0.908027 0.779116 0.173890
0.170207 0.556469 0.145066
0.170613 0.556659 0.145072
0.171947 0.557340 0.145090
0.174007 0.558591 0.145124
0.177963 0.560458 0.145174
0.184040 0.562976 0.145239
0.192980 0.566166 0.145319
0.208481 0.570047 0.145413
0.230890 0.574631 0.145519
0.263356 0.579926 0.145636
0.298797 0.585936 0.145761
0.333013 0.592063 0.145937
0.367980 0.598690 0.146411
0.404715 0.605939 0.146901
0.441966 0.613801 0.147402
0.476731 0.622265 0.147912
0.511706 0.631320 0.148426
0.548959 0.640953 0.148943
0.586637 0.650776 0.149459
0.624288 0.660530 0.150210
0.662204 0.670751 0.151205
0.700533 0.681363 0.152194
0.732776 0.690336 0.153176
0.758457 0.699618 0.154519
0.783941 0.709192 0.156248
0.807034 0.719043 0.157965
0.827203 0.729155 0.159669
0.847115 0.739515 0.161358
0.865183 0.750107 0.163369
0.876798 0.760918 0.165975
0.887478 0.771934 0.168569
0.897941 0.783144 0.171398
0.908197 0.794432 0.175013
0.171190 0.592401 0.145280
0.171558 0.592563 0.145285
0.172775 0.593144 0.145301
0.174860 0.594211 0.145332
0.178901 0.595805 0.145377
0.185479 0.597952 0.145436
0.194311 0.600673 0.145509
0.210432 0.603982 0.145595
0.233532 0.607890 0.145692
0.266154 0.612403 0.145799
0.301274 0.617523 0.146009
0.335208 0.623252 0.146432
0.370020 0.629586 0.146875
0.406679 0.636521 0.147335
0.443651 0.644049 0.147808
0.478259 0.651698 0.148291
0.513140 0.659587 0.148780
0.550420 0.667979 0.149273
0.587970 0.676859 0.149810
0.625538 0.685236 0.150770
0.663393 0.693157 0.151730
0.701666 0.701416 0.152687
0.733493 0.709996 0.153638
0.759131 0.718885 0.155297
0.784578 0.728066 0.156984
0.807519 0.737526 0.158661
0.827660 0.747251 0.160328
0.847546 0.757226 0.161983
0.865506 0.767439 0.164300
0.877014 0.777876 0.166864
0.887681 0.788525 0.169419
0.898132 0.798431 0.172507
0.908377 0.807540 0.176225
0.172132 0.625364 0.145484
0.172467 0.625518 0.145488
0.173582 0.626071 0.145503
0.176030 0.627089 0.145531
0.179844 0.628608 0.145572
0.186949 0.630655 0.145626
0.195690 0.633251 0.145692
0.212502 0.636409 0.145770
0.236303 0.640140 0.145859
0.269098 0.644452 0.146158
0.303883 0.649139 0.146527
0.337520 0.654117 0.146920
0.372170 0.659622 0.147335
0.408751 0.665648 0.147768
0.445428 0.672190 0.148215
0.479873 0.679240 0.148672
0.514654 0.685701 0.149137
0.551964 0.692188 0.149607
0.589378 0.699045 0.150417
0.626859 0.706259 0.151341
0.664650 0.713819 0.152266
0.702864 0.721711 0.153191
0.734251 0.729922 0.154453
0.759844 0.738438 0.156101
0.785250 0.747247 0.157744
0.808031 0.756335 0.159382
0.828142 0.765689 0.161011
0.848001 0.775296 0.162742
0.865846 0.785144 0.165268
0.877242 0.794997 0.167790
0.887895 0.803501 0.170305
0.898334 0.812154 0.173667
0.908568 0.819875 0.177494
0.173038 0.657518 0.145679
0.173343 0.657652 0.145683
0.174368 0.658131 0.145697
0.177188 0.659013 0.145722
0.180967 0.660330 0.145759
0.188447 0.662105 0.145808
0.197862 0.664355 0.145869
0.214844 0.667092 0.146098
0.239383 0.670327 0.146379
0.272186 0.674064 0.146693
0.306622 0.678307 0.147035
0.339949 0.682684 0.147403
0.374431 0.686931 0.147792
0.410931 0.691578 0.148199
0.447299 0.696618 0.148621
0.481571 0.702045 0.149054
0.516249 0.707851 0.149496
0.553591 0.714026 0.150153
0.590863 0.720561 0.151033
0.628252 0.727444 0.151921
0.665975 0.734666 0.152813
0.704127 0.742214 0.153726
0.735049 0.750077 0.155325
0.760596 0.758242 0.156926
0.785959 0.766698 0.158527
0.808571 0.775432 0.160125
0.828651 0.784433 0.161717
0.848481 0.793688 0.163793
0.866205 0.801579 0.166274
0.877482 0.809604 0.168752
0.888121 0.817372 0.171502
0.898547 0.823985 0.174978
0.908769 0.830700 0.178820
0.173909 0.686523 0.145866
0.174189 0.686626 0.145869
0.175646 0.686995 0.145897
0.178333 0.687674 0.145976
0.182540 0.688687 0.146092
0.189969 0.690052 0.146246
0.200380 0.691782 0.146437
0.217270 0.693886 0.146664
0.242865 0.696372 0.146925
0.275418 0.699242 0.147216
0.309415 0.702499 0.147535
0.342494 0.706144 0.147878
0.376802 0.710174 0.148244
0.413219 0.714586 0.148627
0.449262 0.719377 0.149025
0.483355 0.724539 0.149436
0.517924 0.730067 0.149981
0.555301 0.735953 0.150812
0.592423 0.742189 0.151656
0.629716 0.748764 0.152509
0.667368 0.755670 0.153368
0.705456 0.762895 0.154665
0.735889 0.770431 0.156216
0.761387 0.778264 0.157773
0.786705 0.786386 0.159331
0.809139 0.794637 0.160889
0.829186 0.801797 0.162447
0.848987 0.809153 0.164879
0.866583 0.816501 0.167314
0.877735 0.822622 0.169748
0.888359 0.828864 0.172805
0.898771 0.835218 0.176405
0.908981 0.841677 0.180200
0.174974 0.710947 0.146457
0.175423 0.711044 0.146468
0.176950 0.711394 0.146508
0.179465 0.712036 0.146580
0.184381 0.712995 0.146687
0.191510 0.714288 0.146829
0.202968 0.715927 0.147005
0.219776 0.717922 0.147215
0.246494 0.720278 0.147457
0.278792 0.723001 0.147728
0.312281 0.726093 0.148025
0.345155 0.729555 0.148347
0.379287 0.733385 0.148690
0.415615 0.737583 0.149051
0.451319 0.742143 0.149428
0.485223 0.747061 0.149905
0.519680 0.752333 0.150682
0.557045 0.757950 0.151476
0.594060 0.763907 0.152285
0.631253 0.770195 0.153104
0.668830 0.776805 0.154129
0.706850 0.783728 0.155622
0.736770 0.790955 0.157126
0.762216 0.797690 0.158638
0.787488 0.804135 0.160154
0.809735 0.810796 0.161672
0.829747 0.817269 0.163616
0.849517 0.822868 0.165999
0.866980 0.828606 0.168387
0.878001 0.834474 0.170890
0.888609 0.840465 0.174162
0.899006 0.846571 0.177886
0.909203 0.852784 0.181633
0.176390 0.735230 0.147050
0.176805 0.735323 0.147060
0.178226 0.735654 0.147097
0.180700 0.736264 0.147163
0.186225 0.737174 0.147262
0.193076 0.738401 0.147393
0.205620 0.739957 0.147557
0.222826 0.741851 0.147751
0.250268 0.744090 0.147976
0.282306 0.746679 0.148229
0.315268 0.749619 0.148507
0.347931 0.752913 0.148809
0.381953 0.756560 0.149131
0.418119 0.760558 0.149471
0.453409 0.764906 0.149925
0.487177 0.769599 0.150643
0.521517 0.774632 0.151383
0.558852 0.780001 0.152143
0.595773 0.785698 0.152917
0.632861 0.791717 0.153723
0.670361 0.797337 0.155150
0.708311 0.802821 0.156594
0.737692 0.808543 0.158052
0.763085 0.814494 0.159520
