provia100f/Provia100F_Classic_IlfochromeM.cube
TITLE "Fuji Provia 100F Classic IlfochromeM"
# Adobe RGB in/out. REPLACES AgX. Fuji Provia 100F Classic IlfochromeM.
LUT_3D_SIZE 5
DOMAIN_MIN 0.0 0.0 0.0
DOMAIN_MAX 1.0 1.0 1.0
0.117435 0.082397 0.079689
0.227186 0.148231 0.092662
0.493402 0.282974 0.118854
0.740045 0.426609 0.151891
0.878950 0.569645 0.195091
0.119825 0.211160 0.087096
0.231319 0.247003 0.097606
0.494885 0.341603 0.121932
0.740916 0.466347 0.154210
0.879220 0.593671 0.197210
0.131474 0.422852 0.104270
0.244922 0.440478 0.111500
0.500169 0.496544 0.132187
0.744036 0.582035 0.162467
0.880190 0.662920 0.204594
0.154182 0.622361 0.126101
0.266526 0.630456 0.131458
0.509723 0.658077 0.148454
0.749732 0.703981 0.177734
0.881963 0.750704 0.217428
0.185122 0.761166 0.151031
0.296048 0.765081 0.155461
0.523628 0.778696 0.171302
0.757287 0.800386 0.199621
0.884592 0.829539 0.235686
0.117435 0.089100 0.239704
0.227186 0.150862 0.243293
0.493402 0.284549 0.255413
0.740045 0.427667 0.275617
0.878950 0.570331 0.302590
0.119825 0.213254 0.241584
0.231319 0.248855 0.245146
0.494885 0.342910 0.257081
0.740916 0.467226 0.277137
0.879220 0.594171 0.303921
0.131474 0.423919 0.248224
0.244922 0.441418 0.251553
0.500169 0.497360 0.262975
0.744036 0.582554 0.282522
0.880190 0.663329 0.308648
0.154182 0.622820 0.259408
0.266526 0.630905 0.262538
0.509723 0.658491 0.273388
0.749732 0.704348 0.291978
0.881963 0.750934 0.317128
0.185122 0.761387 0.275063
0.296048 0.765299 0.277972
0.523628 0.778904 0.288060
0.757287 0.800561 0.305450
0.884592 0.829696 0.329400
0.117435 0.105469 0.488965
0.227186 0.160653 0.490227
0.493402 0.290091 0.494699
0.740045 0.431222 0.502724
0.878950 0.572789 0.514368
0.119825 0.220847 0.489625
0.231319 0.255327 0.490884
0.494885 0.347559 0.495341
0.740916 0.470369 0.503350
0.879220 0.595964 0.514971
0.131474 0.427731 0.491983
0.244922 0.444779 0.493228
0.500169 0.500280 0.497634
0.744036 0.584412 0.505587
0.880190 0.664796 0.517130
0.154182 0.624465 0.496241
0.266526 0.632511 0.497463
0.509723 0.659977 0.501811
0.749732 0.705662 0.509663
0.881963 0.751758 0.521067
0.185122 0.762180 0.502497
0.296048 0.766080 0.503694
0.523628 0.779647 0.507960
0.757287 0.801189 0.515667
0.884592 0.830257 0.526870
0.117435 0.129003 0.690787
0.227186 0.178959 0.691496
0.493402 0.299888 0.694034
0.740045 0.437552 0.698663
0.878950 0.577278 0.705498
0.119825 0.234311 0.691158
0.231319 0.266501 0.691866
0.494885 0.355357 0.694401
0.740916 0.476089 0.699027
0.879220 0.599235 0.705856
0.131474 0.434184 0.692485
0.244922 0.450885 0.693192
0.500169 0.505602 0.695719
0.744036 0.587802 0.700331
0.880190 0.667478 0.707139
0.154182 0.627470 0.694918
0.266526 0.635448 0.695620
0.509723 0.662695 0.698133
0.749732 0.708068 0.702720
0.881963 0.753268 0.709491
0.185122 0.763633 0.698531
0.296048 0.767512 0.699228
0.523628 0.780982 0.701720
0.757287 0.802341 0.706269
0.884592 0.831286 0.712986
0.117435 0.157127 0.830829
0.227186 0.202919 0.831041
0.493402 0.313561 0.831802
0.740045 0.446824 0.833192
0.878950 0.582650 0.835253
0.119825 0.252989 0.830940
0.231319 0.282604 0.831152
0.494885 0.366224 0.831912
0.740916 0.484495 0.833302
0.879220 0.604070 0.835361
0.131474 0.443539 0.831338
0.244922 0.459839 0.831549
0.500169 0.513440 0.832307
0.744036 0.592807 0.833694
0.880190 0.671454 0.835749
0.154182 0.631918 0.832067
0.266526 0.639794 0.832278
0.509723 0.666723 0.833033
0.749732 0.711640 0.834414
0.881963 0.755511 0.836461
0.185122 0.765791 0.833153
0.296048 0.769640 0.833362
0.523628 0.782846 0.834113
0.757287 0.804053 0.835486
0.884592 0.832819 0.837521
