provia100f/Provia100F_Modern_ExtraSoft.cube
TITLE "Fuji Provia 100F Modern ExtraSoft"
# Adobe RGB in/out. REPLACES AgX. Fuji Provia 100F Modern ExtraSoft.
LUT_3D_SIZE 9
DOMAIN_MIN 0.0 0.0 0.0
DOMAIN_MAX 1.0 1.0 1.0
0.065446 0.069518 0.085077
0.071136 0.069518 0.085077
0.312673 0.073754 0.085074
0.665399 0.129961 0.085148
0.816153 0.373767 0.085423
0.874617 0.571008 0.086164
0.906886 0.693728 0.087518
0.924167 0.760993 0.090052
0.935565 0.809007 0.092601
0.065446 0.069988 0.085077
0.067214 0.069873 0.085077
0.184211 0.074695 0.085075
0.586869 0.135614 0.085115
0.798460 0.385466 0.085336
0.868730 0.575782 0.086068
0.904323 0.696667 0.087478
0.922790 0.763014 0.089839
0.934567 0.810560 0.092414
0.065447 0.154246 0.085077
0.070884 0.120571 0.085076
0.133007 0.100428 0.085075
0.469565 0.185204 0.085099
0.737137 0.429124 0.085251
0.848616 0.596999 0.085814
0.892278 0.708179 0.087026
0.917268 0.770567 0.089193
0.931308 0.816426 0.091858
0.066005 0.545493 0.085074
0.073103 0.514568 0.085074
0.182324 0.437820 0.085086
0.436374 0.423950 0.085111
0.674348 0.524517 0.085227
0.817569 0.638469 0.085626
0.876681 0.728283 0.086548
0.909204 0.780680 0.088379
0.926437 0.828217 0.091196
0.067135 0.726268 0.085112
0.075036 0.716440 0.085115
0.202298 0.687112 0.085142
0.470400 0.658952 0.085195
0.663998 0.664879 0.085267
0.791950 0.710356 0.085601
0.862389 0.762848 0.086372
0.899484 0.806622 0.087795
0.920836 0.847285 0.090610
0.068860 0.812015 0.085209
0.078306 0.807116 0.085216
0.207957 0.792283 0.085239
0.481593 0.778626 0.085278
0.674012 0.776868 0.085484
0.788738 0.781067 0.085815
0.850577 0.803934 0.086406
0.889523 0.839991 0.087665
0.914723 0.862326 0.090300
0.071074 0.863278 0.085302
0.082062 0.861913 0.085325
0.206809 0.857916 0.085404
0.478347 0.853142 0.085539
0.674088 0.849906 0.085761
0.788968 0.851284 0.086151
0.848623 0.856958 0.086863
0.882591 0.865454 0.087871
0.910013 0.877866 0.090344
0.073540 0.884570 0.085559
0.085439 0.883785 0.085578
0.202755 0.881542 0.085645
0.466186 0.880028 0.085829
0.664875 0.879019 0.086108
0.784785 0.879370 0.086541
0.846039 0.881221 0.087446
0.880413 0.887203 0.088727
0.906766 0.895105 0.090729
0.076984 0.901756 0.085820
0.087869 0.901506 0.085850
0.197329 0.900756 0.085954
0.445888 0.899884 0.086135
0.642065 0.899503 0.086444
0.773597 0.900183 0.087103
0.839299 0.902273 0.087785
0.876794 0.905848 0.089516
0.904529 0.910438 0.091359
0.065446 0.069518 0.087306
0.072117 0.069568 0.087482
0.312627 0.073971 0.087602
0.647909 0.123625 0.088074
0.808612 0.352322 0.089472
0.871550 0.559836 0.091123
0.905490 0.686167 0.093208
0.923417 0.757579 0.097875
0.935039 0.806890 0.104258
0.065446 0.069815 0.085788
0.066057 0.069604 0.085194
0.163145 0.073609 0.085957
0.565332 0.125324 0.087089
0.790070 0.358440 0.088466
0.865598 0.564138 0.090536
0.902212 0.689949 0.092551
0.922004 0.759585 0.097068
0.934044 0.808448 0.103402
0.065422 0.128770 0.087074
0.069572 0.100359 0.086098
0.108307 0.089976 0.085497
0.431688 0.157164 0.085934
0.721319 0.403314 0.087076
0.843851 0.584107 0.088940
0.890091 0.702311 0.091361
0.916304 0.767409 0.094780
0.930800 0.814343 0.100719
0.065951 0.519533 0.087251
0.072194 0.481192 0.086725
0.159241 0.400804 0.086090
0.402394 0.386546 0.085918
0.659601 0.504551 0.086342
0.811973 0.627522 0.087533
0.874613 0.723524 0.090072
0.908295 0.778585 0.092543
0.925961 0.826222 0.097986
0.066985 0.717574 0.087323
0.074299 0.707740 0.087114
0.192971 0.672663 0.086615
0.457877 0.644740 0.086404
0.649645 0.651726 0.086527
0.787469 0.703920 0.087358
0.860218 0.758612 0.089186
0.898260 0.803854 0.091602
0.920295 0.845764 0.095713
0.068723 0.807473 0.087436
0.077572 0.802259 0.087360
0.202727 0.787414 0.087177
0.474764 0.776920 0.087079
0.668069 0.773036 0.087247
0.785587 0.778387 0.087532
0.849054 0.800927 0.088932
0.888598 0.837957 0.091176
0.914300 0.861632 0.094310
0.070952 0.861935 0.087512
0.081618 0.860584 0.087510
0.203831 0.856625 0.087508
0.474566 0.851569 0.087516
0.670798 0.848268 0.087655
0.787150 0.849889 0.088422
0.847586 0.856017 0.089661
0.881995 0.864800 0.091196
0.909731 0.877546 0.093930
0.073453 0.883723 0.087544
0.085224 0.882948 0.087563
0.201079 0.881118 0.087646
0.464117 0.879624 0.087880
0.663099 0.878560 0.088427
0.783804 0.878956 0.089289
0.845257 0.880926 0.090439
0.880050 0.886769 0.091827
0.906601 0.894901 0.094530
0.076850 0.901431 0.087732
0.087748 0.901186 0.087780
0.196436 0.900450 0.087971
0.444287 0.899599 0.088383
0.640613 0.899246 0.089033
0.772789 0.899962 0.089926
0.838943 0.902097 0.091050
0.876644 0.905728 0.092443
0.904476 0.910387 0.095857
0.065446 0.069518 0.274770
0.072117 0.069642 0.278847
0.332302 0.076008 0.293771
0.672699 0.140225 0.261597
0.807323 0.353859 0.213491
0.868868 0.551989 0.201843
0.903215 0.676328 0.202627
0.922070 0.751956 0.209461
0.933947 0.802353 0.219930
0.065446 0.070784 0.276895
0.072023 0.072222 0.258546
0.239506 0.080972 0.182218
0.578364 0.135880 0.171520
0.786746 0.354051 0.174308
0.861688 0.554368 0.180652
0.899041 0.679289 0.188950
0.920232 0.753766 0.199020
0.932944 0.804035 0.212357
0.065417 0.094780 0.139997
0.068443 0.087432 0.114307
0.084878 0.078458 0.092066
0.391899 0.137662 0.106905
0.703281 0.372259 0.122915
0.836147 0.567857 0.139341
0.886410 0.692269 0.156726
0.914415 0.760976 0.173397
0.929679 0.809941 0.190873
0.065747 0.442503 0.154582
0.070505 0.405683 0.135372
0.127771 0.321490 0.110033
0.330590 0.303786 0.099455
0.614343 0.461434 0.105715
0.800468 0.610539 0.116967
0.870390 0.714143 0.131414
0.906293 0.775375 0.147916
0.924835 0.821650 0.165968
0.066600 0.692127 0.151604
0.072980 0.676939 0.140943
0.171852 0.639472 0.122466
0.415632 0.615951 0.110203
0.608582 0.622311 0.105886
0.774333 0.684782 0.109729
0.854971 0.748603 0.118980
0.895228 0.796887 0.132045
0.918903 0.841265 0.148215
0.068556 0.793715 0.140884
0.075695 0.788645 0.137086
0.189204 0.777538 0.126409
0.457076 0.765725 0.116948
0.647562 0.760936 0.111282
0.774671 0.771104 0.110574
0.844438 0.792994 0.113890
0.886082 0.832513 0.124182
0.913130 0.859742 0.137343
0.070592 0.858001 0.131729
0.080323 0.856715 0.129909
0.195393 0.852627 0.124777
0.463894 0.846670 0.119564
0.661472 0.841839 0.115618
0.781913 0.844764 0.114428
0.843866 0.853091 0.116446
0.880275 0.862936 0.121624
0.908904 0.876621 0.132742
0.073184 0.881391 0.123327
0.084451 0.881004 0.122716
0.196017 0.879833 0.120862
0.457904 0.878215 0.118554
0.656519 0.877190 0.116958
0.780707 0.877707 0.117034
0.842884 0.880041 0.119301
0.878937 0.885457 0.123834
0.906094 0.894281 0.131717
0.076424 0.900400 0.116544
0.087361 0.900170 0.116374
0.193621 0.899483 0.115900
0.439258 0.898708 0.115500
0.636070 0.898449 0.115760
0.770258 0.899277 0.117234
0.837825 0.901553 0.120301
0.876169 0.905358 0.125119
0.904308 0.910233 0.133341
0.065446 0.069518 0.698591
0.072117 0.069839 0.699419
0.332302 0.078106 0.702386
0.694991 0.178464 0.707804
0.822836 0.414006 0.666754
0.871831 0.567712 0.622525
0.903390 0.680023 0.597864
0.921390 0.750823 0.586379
0.933219 0.799897 0.572599
0.065446 0.071305 0.699023
0.072514 0.073105 0.699852
0.335234 0.093848 0.702816
0.669579 0.211110 0.676130
0.802457 0.411753 0.627786
0.864915 0.568373 0.599107
0.898976 0.681940 0.588440
0.919472 0.752290 0.575743
0.932188 0.801413 0.562893
0.065414 0.100971 0.590558
0.069234 0.100185 0.549089
0.143696 0.114153 0.479215
0.471296 0.198238 0.477054
0.720376 0.410748 0.498686
0.837544 0.574506 0.517308
0.885448 0.690999 0.527431
0.913378 0.758298 0.531689
0.928831 0.807108 0.532476
0.065549 0.360731 0.522906
0.069380 0.336171 0.483185
0.110433 0.266540 0.352262
0.257128 0.214677 0.193193
0.595209 0.443237 0.307934
0.795126 0.601170 0.406204
0.867871 0.709383 0.455863
0.904813 0.771542 0.477709
0.923851 0.818051 0.490641
0.066202 0.648184 0.527885
0.071604 0.636270 0.504513
0.143002 0.609277 0.444853
0.369613 0.577733 0.330689
0.566351 0.585748 0.261848
0.756141 0.663003 0.301934
0.849997 0.739633 0.377764
0.892298 0.790567 0.424344
0.917477 0.836949 0.454801
0.068322 0.777892 0.510656
0.074185 0.775752 0.497767
0.172920 0.763960 0.464451
0.426264 0.750054 0.404166
0.616374 0.745355 0.338147
0.756146 0.756910 0.305441
0.837768 0.783885 0.324990
0.883130 0.826364 0.378766
0.911747 0.857603 0.414979
0.070082 0.852120 0.480926
0.078530 0.850668 0.475671
0.184295 0.845498 0.455707
0.447044 0.837249 0.417764
0.642610 0.832830 0.378438
0.771166 0.836246 0.343970
0.838227 0.848466 0.334434
0.878039 0.860584 0.350718
0.907823 0.875453 0.389606
0.072786 0.879406 0.447509
0.083255 0.878992 0.443693
0.188859 0.877709 0.426581
0.445861 0.876164 0.402882
0.644320 0.875307 0.379313
0.774206 0.875995 0.357150
0.839541 0.878706 0.349324
0.877355 0.883639 0.357032
0.905387 0.893450 0.378007
0.075810 0.898837 0.393090
0.086768 0.898634 0.390592
0.189404 0.898037 0.382575
0.431795 0.897396 0.369062
0.629377 0.897292 0.354180
0.766539 0.898294 0.345207
0.836179 0.900778 0.345347
0.875468 0.904835 0.356093
0.903989 0.910024 0.377377
0.065446 0.069616 0.842721
0.072117 0.070241 0.842947
0.332302 0.080961 0.843757
0.694991 0.193459 0.845238
0.844602 0.492365 0.841317
0.879380 0.604573 0.807684
0.906071 0.697418 0.780505
0.922227 0.755993 0.762581
0.933221 0.801433 0.748415
0.065446 0.072329 0.842839
0.072514 0.074528 0.843065
0.335234 0.098909 0.843874
0.697169 0.283220 0.845355
0.826667 0.492494 0.826145
0.872577 0.604998 0.793993
0.902580 0.698410 0.770883
0.920261 0.757162 0.757301
0.932158 0.802762 0.742580
0.065433 0.168536 0.833746
0.072439 0.179216 0.827071
0.249337 0.236767 0.803824
0.566023 0.348070 0.779426
0.764251 0.493655 0.763503
0.848667 0.608512 0.753250
0.888421 0.703159 0.743330
0.913895 0.762005 0.732801
0.928682 0.807699 0.722926
0.065535 0.357444 0.740497
0.069437 0.349634 0.724652
0.129664 0.340285 0.684096
0.388080 0.386106 0.653743
0.650859 0.507869 0.660091
0.803485 0.620255 0.675809
0.869231 0.714363 0.687406
0.904764 0.772636 0.693229
0.923484 0.817528 0.694493
0.066084 0.617423 0.718606
0.070633 0.610295 0.706375
0.130326 0.584181 0.669742
0.342553 0.557753 0.609794
0.533457 0.546341 0.546883
0.749480 0.657059 0.599132
0.848233 0.737536 0.632593
0.890943 0.788473 0.654579
0.916629 0.834953 0.665439
0.067734 0.762270 0.711427
0.073083 0.758604 0.703898
0.149764 0.747912 0.680479
0.397298 0.735917 0.644898
0.586854 0.730747 0.604712
0.736844 0.741966 0.590041
0.831860 0.778147 0.598476
0.880735 0.821792 0.620182
0.910624 0.856042 0.636935
0.069661 0.842358 0.695798
0.076534 0.840375 0.691354
0.172391 0.834437 0.677147
0.425225 0.827413 0.655905
0.622115 0.823693 0.628298
0.758507 0.827399 0.607271
0.832077 0.841181 0.598981
0.875781 0.858321 0.604026
0.906757 0.874126 0.618763
0.072313 0.876602 0.673522
0.081852 0.876242 0.670999
0.180782 0.875158 0.662778
0.431101 0.873394 0.647523
0.630901 0.872495 0.630026
0.766410 0.873798 0.615510
0.835802 0.877099 0.606752
0.875576 0.881675 0.605203
0.904712 0.892533 0.610228
0.075345 0.896948 0.643451
0.086043 0.896784 0.641681
0.184375 0.896314 0.635864
0.422979 0.895861 0.627078
0.621554 0.895971 0.617439
0.762228 0.897195 0.609089
0.834278 0.899923 0.604374
0.874659 0.904272 0.604147
0.903551 0.909824 0.608176
0.065446 0.070050 0.907711
0.072117 0.071182 0.907718
0.332302 0.085714 0.907746
0.694991 0.225398 0.907796
0.850152 0.525643 0.907870
0.888450 0.641512 0.895835
0.909858 0.716642 0.873986
0.923832 0.766506 0.854281
0.933928 0.806760 0.839437
0.065446 0.073591 0.907715
0.072514 0.078699 0.907722
0.335234 0.111314 0.907750
0.697169 0.317990 0.907800
0.848034 0.557962 0.907721
0.881956 0.642776 0.888262
0.906976 0.717423 0.867376
0.922298 0.767545 0.849869
0.932845 0.807822 0.836422
0.065447 0.216664 0.907729
0.073864 0.255609 0.907737
0.345818 0.383665 0.907764
0.660295 0.480180 0.895912
0.799702 0.566332 0.878205
0.861212 0.647601 0.860500
0.894325 0.720738 0.846613
0.915848 0.771307 0.835682
0.929281 0.811949 0.826878
0.065673 0.444015 0.860239
0.070738 0.448159 0.856064
0.181622 0.469866 0.844465
0.497938 0.517787 0.831411
0.706743 0.582984 0.825366
0.821577 0.660340 0.819671
0.874430 0.729171 0.816019
0.906326 0.777769 0.812184
0.923883 0.820747 0.807423
0.066057 0.610368 0.824945
0.070380 0.606170 0.818865
0.132986 0.596231 0.800421
0.379162 0.594817 0.776824
0.597218 0.622121 0.763858
0.772391 0.690593 0.766625
0.852126 0.747207 0.775235
0.892097 0.792878 0.781980
0.916704 0.836471 0.784848
0.067377 0.747102 0.812410
0.072261 0.744571 0.807934
0.139879 0.737112 0.793574
0.381217 0.728557 0.771270
0.573238 0.724122 0.749923
0.718057 0.727752 0.720402
0.829852 0.777610 0.746269
0.879994 0.821287 0.759492
0.910147 0.855732 0.765236
0.069277 0.830359 0.802985
0.075132 0.828848 0.800133
0.153534 0.824299 0.790824
0.406038 0.818892 0.775963
0.604498 0.816106 0.761774
0.746865 0.819569 0.748091
0.825899 0.833507 0.738132
0.873863 0.856573 0.745800
0.905934 0.873095 0.754140
0.071811 0.873112 0.789419
0.080385 0.872704 0.787702
0.172395 0.871484 0.781785
0.416479 0.870100 0.771970
0.617802 0.869650 0.763235
0.758792 0.871268 0.754766
0.832050 0.875555 0.748324
0.873766 0.880677 0.745565
0.904017 0.891677 0.748648
0.074831 0.894908 0.770696
0.085246 0.894793 0.769616
0.178997 0.894478 0.766755
0.413632 0.894260 0.762839
0.613358 0.894631 0.757561
0.757764 0.896114 0.751805
0.832322 0.899104 0.747887
0.873834 0.903757 0.745849
0.903126 0.909685 0.747202
0.065446 0.071118 0.931622
0.072117 0.072872 0.931659
0.332302 0.092773 0.931791
0.694991 0.260467 0.932034
0.850152 0.541496 0.932396
0.896659 0.683170 0.927385
0.913922 0.735732 0.915705
0.925895 0.777329 0.907710
0.935098 0.814122 0.897723
0.065446 0.078443 0.931641
0.072514 0.083994 0.931678
0.335234 0.128001 0.931810
0.697169 0.346474 0.932053
0.850341 0.580621 0.932415
0.890632 0.685905 0.923908
0.911157 0.736810 0.913308
0.924385 0.777693 0.906076
0.934013 0.815138 0.895536
0.065447 0.254116 0.931710
0.073864 0.288317 0.931747
0.345818 0.413724 0.931879
0.703218 0.558957 0.931984
0.822850 0.625145 0.921987
0.871954 0.694137 0.913051
0.901263 0.740826 0.906901
0.918625 0.779100 0.897664
0.930424 0.819031 0.887409
0.065869 0.533681 0.917142
0.072621 0.539058 0.915975
0.230271 0.559133 0.912353
0.554502 0.597917 0.907810
0.751522 0.645479 0.902565
0.839970 0.706186 0.894929
0.881508 0.749449 0.887334
0.909003 0.787509 0.880542
0.924917 0.827182 0.873837
0.066092 0.630690 0.891815
0.070997 0.631086 0.889546
0.150624 0.634958 0.882619
0.442591 0.649944 0.873166
0.666505 0.684820 0.864519
0.796301 0.724475 0.860209
0.860248 0.766058 0.858670
0.895561 0.803388 0.857607
0.917714 0.841573 0.855791
0.067238 0.741502 0.872899
0.071898 0.740269 0.870318
0.137736 0.736966 0.861973
0.387184 0.734747 0.849821
0.594303 0.738949 0.837829
0.750887 0.757591 0.830441
0.837410 0.787748 0.833226
0.881922 0.827174 0.837439
0.910581 0.857133 0.839968
0.068958 0.821071 0.863356
0.074218 0.820076 0.861513
0.145871 0.817130 0.855411
0.392213 0.813851 0.845984
0.594951 0.812819 0.835226
0.740995 0.816470 0.825963
0.819981 0.826486 0.815494
0.873226 0.856434 0.825506
0.905669 0.873168 0.828607
0.071406 0.869176 0.854068
0.079000 0.868897 0.852896
0.159087 0.868088 0.848983
0.403247 0.867277 0.842842
0.606604 0.867366 0.835717
0.752393 0.869318 0.828545
0.828703 0.873986 0.825180
0.872034 0.879789 0.822608
0.903208 0.891149 0.825477
0.074307 0.892764 0.842342
0.084292 0.892676 0.841659
0.173450 0.892477 0.839370
0.404261 0.892544 0.835751
0.605436 0.893404 0.830444
0.753526 0.895168 0.827564
0.830488 0.898419 0.825644
0.873067 0.903359 0.824098
0.902765 0.909652 0.824565
0.065446 0.073148 0.944335
0.072117 0.077154 0.944346
0.332302 0.106663 0.944383
0.694991 0.307091 0.944452
0.850152 0.560636 0.944555
0.902864 0.712347 0.943911
0.917464 0.754273 0.936788
0.927935 0.787598 0.929277
0.936414 0.822673 0.920961
0.065446 0.085163 0.944341
0.072514 0.092528 0.944351
0.335234 0.155144 0.944389
0.697169 0.388558 0.944458
0.850341 0.599291 0.944560
0.897361 0.714800 0.942480
0.914861 0.755780 0.934539
0.926476 0.788770 0.927624
0.935345 0.823710 0.919775
0.065447 0.297329 0.944360
0.073864 0.333543 0.944371
0.345818 0.446686 0.944408
0.705000 0.578766 0.944477
0.838384 0.672656 0.942379
0.880074 0.722291 0.935915
0.906455 0.760988 0.929739
0.921536 0.793106 0.922192
0.931792 0.827607 0.915830
0.066000 0.599576 0.940763
0.074468 0.606066 0.940118
0.284223 0.623278 0.938010
0.603755 0.655147 0.933501
0.784772 0.699668 0.930085
0.853516 0.734135 0.924127
0.888560 0.770476 0.918717
0.912039 0.801846 0.913942
0.926277 0.835520 0.909412
0.066199 0.674414 0.922577
0.072038 0.676916 0.921840
0.183713 0.686846 0.919484
0.498234 0.704082 0.916096
0.698980 0.724902 0.912574
0.815328 0.752987 0.909185
0.868466 0.780941 0.907753
0.900110 0.815873 0.905790
0.919322 0.848498 0.902979
0.067287 0.748088 0.909044
0.072114 0.748096 0.908267
0.144027 0.748870 0.907686
0.414254 0.752902 0.903792
0.634621 0.763771 0.898766
0.779366 0.778794 0.894701
0.848122 0.806812 0.892816
0.885745 0.837777 0.892040
0.911789 0.860023 0.891221
0.068767 0.816692 0.903829
0.073781 0.816255 0.903072
0.142486 0.815138 0.900164
0.389736 0.814677 0.894708
0.599524 0.817083 0.887622
0.749774 0.825066 0.881213
0.830081 0.842420 0.878121
0.875565 0.859875 0.879060
0.906232 0.874828 0.880670
0.071066 0.866095 0.897502
0.077850 0.865952 0.896781
0.150915 0.865585 0.894353
0.392796 0.865426 0.889972
0.599308 0.866196 0.884505
0.748980 0.868661 0.879174
0.827035 0.873438 0.874490
0.870464 0.879009 0.871210
0.902911 0.891369 0.874766
0.073852 0.890161 0.889152
0.083347 0.890152 0.888633
0.165776 0.890217 0.886886
0.395208 0.890688 0.884091
0.598447 0.892100 0.880772
0.749927 0.894487 0.877592
0.828980 0.897983 0.874874
0.872438 0.903154 0.873438
0.902517 0.909764 0.873781
0.065446 0.079264 0.948344
0.072117 0.085066 0.948347
0.332302 0.130763 0.948354
0.694991 0.351053 0.948369
0.850152 0.583054 0.948390
0.905559 0.729306 0.948419
0.920068 0.770374 0.946472
0.929609 0.800376 0.942758
0.937593 0.831202 0.937207
0.065446 0.095478 0.948346
0.072514 0.109772 0.948348
0.335234 0.194940 0.948356
0.697169 0.429201 0.948370
0.850341 0.618312 0.948391
0.901767 0.733553 0.948126
0.917645 0.771998 0.946035
0.928219 0.801762 0.941790
0.936554 0.832308 0.936231
0.065447 0.345049 0.948350
0.073864 0.379929 0.948352
0.345818 0.483014 0.948360
0.705000 0.600931 0.948374
0.847873 0.707487 0.948228
0.885940 0.743478 0.946543
0.909757 0.777006 0.943465
0.923622 0.806597 0.938585
0.933083 0.836376 0.932941
0.066035 0.645133 0.948123
0.076486 0.651024 0.948014
0.318522 0.671203 0.947553
0.646244 0.701958 0.946469
0.800502 0.728528 0.944531
0.862745 0.758002 0.941241
0.894540 0.783683 0.937270
0.914836 0.814889 0.932931
0.927639 0.844346 0.928835
0.066474 0.712641 0.940952
0.073181 0.714528 0.940570
0.207588 0.721377 0.939297
0.530029 0.734132 0.937299
0.730380 0.753152 0.933696
0.828883 0.776506 0.932321
0.874801 0.800109 0.928493
0.904444 0.828478 0.924951
0.921070 0.853727 0.921648
0.067465 0.763419 0.930122
0.072707 0.764234 0.929620
0.156676 0.767539 0.927968
0.447502 0.773888 0.925461
0.668339 0.781448 0.922687
0.794034 0.800335 0.920167
0.855690 0.823217 0.918113
0.889881 0.848804 0.916421
0.913305 0.863596 0.914846
0.068741 0.818414 0.921065
0.073761 0.818516 0.920628
0.143708 0.819200 0.919170
0.398839 0.821610 0.916900
0.615519 0.827494 0.914336
0.764668 0.838731 0.912095
0.838619 0.853084 0.910481
0.878965 0.864687 0.909683
0.907310 0.876703 0.909211
0.070832 0.864370 0.915955
0.077078 0.864366 0.915626
0.147514 0.864461 0.914514
0.388088 0.865028 0.912725
0.597748 0.866659 0.910411
0.750338 0.870022 0.908013
0.829223 0.875503 0.907737
0.872958 0.881149 0.907640
0.903615 0.892955 0.907661
0.073572 0.888093 0.911700
0.082530 0.888163 0.911461
0.157946 0.888491 0.910650
0.388202 0.889373 0.909341
0.593040 0.891260 0.907936
0.747417 0.894213 0.907744
0.828080 0.897955 0.907226
0.872105 0.903288 0.906499
0.902425 0.910057 0.906664
