provia100f/Provia100F_Modern_IlfochromeP.cube
TITLE "Fuji Provia 100F Modern IlfochromeP"
# Adobe RGB in/out. REPLACES AgX. Fuji Provia 100F Modern IlfochromeP.
LUT_3D_SIZE 33
DOMAIN_MIN 0.0 0.0 0.0
DOMAIN_MAX 1.0 1.0 1.0
0.138891 0.101212 0.099253
0.139028 0.104075 0.100199
0.139275 0.104955 0.100398
0.143303 0.108694 0.101122
0.171665 0.114785 0.101763
0.202550 0.119033 0.102421
0.293600 0.127747 0.103597
0.418649 0.139818 0.104981
0.477367 0.146160 0.105767
0.564819 0.156634 0.107040
0.700859 0.173883 0.109171
0.772759 0.185430 0.111035
0.825974 0.195851 0.112817
0.876780 0.209385 0.115521
0.918031 0.227267 0.119771
0.944952 0.237182 0.122910
0.958880 0.246391 0.125866
0.971448 0.257647 0.129635
0.981210 0.272154 0.134429
0.985176 0.278515 0.137573
0.988191 0.285153 0.141067
0.990422 0.293086 0.146560
0.992389 0.299607 0.153041
0.994180 0.300109 0.158357
0.995108 0.301487 0.165324
0.995740 0.301447 0.175081
0.996470 0.289511 0.185798
0.996464 0.285241 0.221904
0.996520 0.268844 0.469522
0.996316 0.265845 0.464125
0.995054 0.262988 0.458845
0.993795 0.260178 0.452822
0.993297 0.572100 0.629757
0.138898 0.108400 0.099745
0.138961 0.107464 0.099882
0.139610 0.105900 0.100059
0.144744 0.109794 0.101059
0.175493 0.116246 0.101780
0.204559 0.120108 0.102433
0.291680 0.128951 0.103598
0.412333 0.141037 0.104983
0.471460 0.147339 0.105767
0.557327 0.157817 0.107036
0.691917 0.174991 0.109153
0.766423 0.186722 0.111017
0.821156 0.197020 0.112796
0.873626 0.210486 0.115496
0.915246 0.228330 0.119746
0.943596 0.238219 0.122879
0.957729 0.247369 0.125837
0.970485 0.258640 0.129603
0.980862 0.273130 0.134390
0.984885 0.279454 0.137534
0.987948 0.286065 0.141024
0.990219 0.294012 0.146491
0.992218 0.300528 0.152961
0.994035 0.301025 0.158262
0.994984 0.302398 0.165197
0.995633 0.302359 0.174832
0.996464 0.290393 0.185336
0.996459 0.286057 0.220616
0.996515 0.268690 0.469232
0.996253 0.265703 0.463862
0.994996 0.262859 0.458606
0.993743 0.260061 0.452564
0.993248 0.571889 0.629484
0.138900 0.110696 0.099906
0.138919 0.110527 0.100237
0.138984 0.109394 0.100148
0.140330 0.112644 0.100923
0.159130 0.120821 0.101735
0.194777 0.123945 0.102366
0.280017 0.133795 0.103603
0.399118 0.147217 0.105063
0.455463 0.152462 0.105808
0.534389 0.162740 0.107052
0.662533 0.179455 0.109120
0.744730 0.191830 0.110973
0.804283 0.201565 0.112739
0.860288 0.214706 0.115423
0.905250 0.232363 0.119670
0.935840 0.242121 0.122784
0.953558 0.251025 0.125742
0.966995 0.262339 0.129501
0.978692 0.276749 0.134262
0.983832 0.282926 0.137400
0.987071 0.289426 0.140880
0.989487 0.297417 0.146254
0.991603 0.303905 0.152685
0.993514 0.304384 0.157932
0.994538 0.305735 0.164759
0.995246 0.305697 0.173973
0.996376 0.293709 0.183771
0.996340 0.289052 0.216220
0.996499 0.268140 0.468200
0.996030 0.265198 0.462924
0.994791 0.262400 0.457714
0.993554 0.259647 0.451645
0.993075 0.571128 0.628509
0.138913 0.122640 0.100533
0.138928 0.122470 0.100815
0.138986 0.121665 0.101045
0.139451 0.119721 0.101103
0.144437 0.128024 0.101767
0.159322 0.130765 0.102371
0.218029 0.141302 0.103566
0.337331 0.156820 0.105059
0.414541 0.162270 0.105850
0.497414 0.172202 0.107121
0.618523 0.192294 0.109174
0.708276 0.203392 0.110976
0.769953 0.211544 0.112717
0.832178 0.223646 0.115368
0.886903 0.240982 0.119591
0.919585 0.250080 0.122667
0.945727 0.258488 0.125614
0.960434 0.269704 0.129351
0.973271 0.283891 0.134066
0.981854 0.289727 0.137187
0.985431 0.296138 0.140644
0.988125 0.304018 0.145861
0.990462 0.310426 0.152221
0.992551 0.310851 0.157374
0.993717 0.312145 0.164016
0.994536 0.312099 0.172526
0.995756 0.300127 0.181238
0.995801 0.294962 0.209085
0.996471 0.267148 0.466332
0.995623 0.264281 0.461223
0.994418 0.261565 0.455878
0.993211 0.258901 0.449976
0.992758 0.569737 0.626737
0.138935 0.154243 0.101460
0.138952 0.153736 0.101637
0.139010 0.152783 0.101875
0.139634 0.149712 0.102147
0.141932 0.145606 0.102458
0.147417 0.141090 0.102598
0.171313 0.153595 0.103594
0.249831 0.170807 0.105076
0.334275 0.174825 0.105911
0.435196 0.184981 0.107202
0.555607 0.207317 0.109361
0.644185 0.217249 0.111089
0.723483 0.225411 0.112807
0.792915 0.238377 0.115434
0.856599 0.256757 0.119611
0.894870 0.264547 0.122631
0.926701 0.271925 0.125534
0.950191 0.282215 0.129223
0.964826 0.296007 0.133865
0.976800 0.301314 0.136949
0.982892 0.307233 0.140364
0.986034 0.314762 0.145373
0.988723 0.320972 0.151628
0.991093 0.321266 0.156656
0.992482 0.322429 0.163050
0.993473 0.322351 0.170663
0.994833 0.310464 0.178188
0.995001 0.304646 0.200235
0.996175 0.265711 0.463612
0.995027 0.262943 0.458740
0.993871 0.260345 0.453195
0.992707 0.257932 0.447534
0.992293 0.567692 0.624138
0.138959 0.185515 0.102171
0.138971 0.184293 0.102365
0.139017 0.182756 0.102640
0.139507 0.177417 0.103061
0.140291 0.169971 0.103086
0.144259 0.164260 0.103315
0.155832 0.171176 0.103846
0.196203 0.190344 0.105399
0.254556 0.192748 0.106034
0.349399 0.203393 0.107297
0.474422 0.224469 0.109465
0.566630 0.234220 0.111226
0.654426 0.242037 0.113047
0.741240 0.254004 0.115670
0.815923 0.272162 0.119699
0.865506 0.281052 0.122685
0.898850 0.289798 0.125555
0.930129 0.302316 0.129217
0.952542 0.315583 0.133765
0.966548 0.319459 0.136777
0.977834 0.324326 0.140122
0.983053 0.331125 0.144899
0.986276 0.336892 0.151016
0.989064 0.336899 0.155898
0.990783 0.337792 0.162007
0.992024 0.337624 0.169142
0.993581 0.326019 0.175250
0.993924 0.319365 0.191861
0.995322 0.263868 0.460076
0.994244 0.261197 0.455031
0.993150 0.258747 0.449684
0.992798 0.569803 0.444331
0.991678 0.565000 0.620721
0.138994 0.243498 0.103525
0.139007 0.243919 0.103678
0.139106 0.241238 0.104032
0.139679 0.232627 0.104283
0.140674 0.221059 0.104444
0.144218 0.211199 0.104567
0.151134 0.204352 0.104887
0.170604 0.215093 0.105886
0.206294 0.215246 0.106443
0.276818 0.224293 0.107606
0.392556 0.245578 0.109803
0.486011 0.254869 0.111503
0.571349 0.260724 0.113239
0.671531 0.272664 0.115877
0.764455 0.291761 0.119942
0.821528 0.301659 0.122985
0.869674 0.307707 0.125690
0.904342 0.318247 0.129226
0.936702 0.333545 0.133701
0.954097 0.339852 0.136688
0.966524 0.347529 0.139999
0.976989 0.355499 0.144597
0.982896 0.360429 0.150543
0.986310 0.359834 0.155273
0.988524 0.360207 0.161088
0.990126 0.359838 0.167839
0.991954 0.348928 0.173135
0.992544 0.341364 0.185636
0.994278 0.261739 0.455415
0.993282 0.259078 0.450347
0.992263 0.256798 0.445403
0.991979 0.566308 0.440414
0.990919 0.561692 0.616526
0.139037 0.308618 0.105023
0.139070 0.308993 0.105208
0.139400 0.309588 0.105804
0.139906 0.297742 0.106136
0.141332 0.284547 0.106351
0.144738 0.272541 0.106668
0.151295 0.262422 0.106851
0.163299 0.255142 0.107200
0.180746 0.241006 0.107104
0.226306 0.247504 0.108055
0.321450 0.269786 0.110337
0.411657 0.277774 0.112008
0.492263 0.282694 0.113672
0.588770 0.294208 0.116329
0.703771 0.313343 0.120328
0.771063 0.321186 0.123221
0.826049 0.328112 0.125928
0.873823 0.340136 0.129461
0.909060 0.355228 0.133847
0.939499 0.359226 0.136702
0.955385 0.365386 0.139907
0.967346 0.374555 0.144354
0.977470 0.383724 0.150211
0.982859 0.388018 0.154879
0.985467 0.393902 0.160549
0.987624 0.393172 0.167026
0.989834 0.383901 0.172623
0.990789 0.375332 0.182777
0.993063 0.259897 0.449794
0.992159 0.256669 0.444950
0.991223 0.254651 0.440441
0.991015 0.562108 0.435856
0.990026 0.556791 0.611619
0.139131 0.341950 0.105854
0.139184 0.342202 0.105990
0.139439 0.339416 0.106405
0.139876 0.330399 0.106901
0.140777 0.318969 0.107266
0.143646 0.306968 0.107509
0.148699 0.296450 0.107790
0.157223 0.287475 0.108007
0.171664 0.280868 0.108326
0.199945 0.276806 0.108715
0.268064 0.296572 0.111036
0.344578 0.303513 0.112737
0.425890 0.307474 0.114283
0.511648 0.318003 0.116919
0.622015 0.336631 0.120971
0.712818 0.343567 0.123726
0.776745 0.350194 0.126315
0.833707 0.361387 0.129763
0.881069 0.376779 0.134094
0.912272 0.382920 0.136909
0.940166 0.391458 0.140084
0.955679 0.398337 0.144391
0.967943 0.405768 0.150040
0.978330 0.408559 0.154492
0.982634 0.413358 0.159913
0.985000 0.419231 0.166285
0.987356 0.420612 0.172707
0.988536 0.424202 0.183670
0.991738 0.280976 0.446836
0.990895 0.254867 0.439261
0.990049 0.252408 0.434975
0.989924 0.556226 0.430764
0.989010 0.551197 0.606087
0.139338 0.391230 0.107213
0.139392 0.389679 0.107303
0.139590 0.383456 0.107585
0.139957 0.375722 0.108052
0.140832 0.364856 0.108445
0.143452 0.353526 0.108741
0.147604 0.342428 0.109120
0.154776 0.332547 0.109508
0.165761 0.324300 0.109920
0.187418 0.317911 0.110422
0.233963 0.330369 0.112363
0.294674 0.331154 0.113669
0.363045 0.333691 0.115077
0.449276 0.343133 0.117713
0.546890 0.361770 0.121811
0.634888 0.368118 0.124388
0.720745 0.373978 0.126904
0.788417 0.384565 0.130230
0.845603 0.401035 0.134572
0.884656 0.406914 0.137290
0.915936 0.412574 0.140266
0.942962 0.422451 0.144591
0.956382 0.433205 0.150176
0.968478 0.436547 0.154443
0.977690 0.439393 0.159562
0.982151 0.443715 0.165589
0.984990 0.443852 0.171213
0.986521 0.445941 0.181043
0.987928 0.449036 0.192064
0.988556 0.456869 0.216308
0.989084 0.473035 0.385193
0.988722 0.549618 0.430248
0.987890 0.545080 0.600030
0.139665 0.458658 0.109219
0.139704 0.456624 0.109305
0.139857 0.450668 0.109649
0.140178 0.444695 0.110371
0.141727 0.434458 0.111008
0.143974 0.422203 0.111567
0.148356 0.410453 0.112246
0.155420 0.399127 0.112818
0.165973 0.389105 0.113325
0.186377 0.380540 0.113927
0.217948 0.373824 0.114633
0.261234 0.366645 0.115371
0.315683 0.361125 0.116243
0.392440 0.370063 0.118651
0.485040 0.389180 0.122848
0.564144 0.394388 0.125282
0.649364 0.399216 0.127634
0.735031 0.409375 0.130818
0.804941 0.426097 0.135200
0.852587 0.430500 0.137773
0.889332 0.437620 0.140696
0.919071 0.448306 0.145080
0.944962 0.456487 0.150385
0.958481 0.460792 0.154511
0.968637 0.468578 0.159506
0.976449 0.478466 0.165303
0.982154 0.476740 0.170381
0.984182 0.476857 0.179200
0.985937 0.477639 0.188828
0.986849 0.481822 0.205371
0.987631 0.478452 0.312724
0.987431 0.542595 0.439654
0.986681 0.538559 0.441546
0.139825 0.504470 0.110779
0.139857 0.502489 0.110850
0.139980 0.496435 0.111129
0.140249 0.489849 0.111809
0.141746 0.479145 0.112652
0.143831 0.467501 0.113513
0.147695 0.456021 0.114327
0.153537 0.444531 0.114976
0.162460 0.434067 0.115695
0.178267 0.424784 0.116389
0.204560 0.416684 0.117156
0.240100 0.410267 0.118077
0.285111 0.398266 0.118259
0.345423 0.398761 0.119758
0.434579 0.417454 0.124072
0.504258 0.421494 0.126291
0.582753 0.425910 0.128618
0.673726 0.435734 0.131681
0.756594 0.451702 0.135889
0.813266 0.455697 0.138390
0.860600 0.463989 0.141351
0.895161 0.473781 0.145700
0.924511 0.485459 0.150914
0.947018 0.492058 0.154941
0.959363 0.497075 0.159665
0.968867 0.504741 0.165183
0.977645 0.509086 0.170039
0.981481 0.515948 0.178261
0.983591 0.519474 0.187701
0.984908 0.519074 0.200174
0.986006 0.499986 0.242945
0.986072 0.535296 0.433288
0.985405 0.531748 0.440536
0.139933 0.541467 0.111985
0.139960 0.539801 0.112073
0.140062 0.534547 0.112414
0.140294 0.527984 0.113133
0.141779 0.519802 0.114022
0.143669 0.509669 0.114973
0.146689 0.497675 0.115988
0.151457 0.485652 0.116910
0.159418 0.474317 0.117675
0.171559 0.463495 0.118375
0.192178 0.454482 0.119090
0.221614 0.446798 0.119812
0.263351 0.440805 0.120958
0.316541 0.437749 0.122367
0.387813 0.446866 0.125485
0.456911 0.450332 0.127594
0.524396 0.453941 0.129701
0.610404 0.463733 0.132688
0.708035 0.480804 0.137003
0.769545 0.484678 0.139235
0.823727 0.492158 0.142092
0.870439 0.502835 0.146575
0.901658 0.515496 0.151724
0.930775 0.519456 0.155440
0.949140 0.527433 0.160081
0.959774 0.537890 0.165502
0.970384 0.539307 0.169931
0.977043 0.543366 0.177389
0.981296 0.549710 0.186353
0.982793 0.558593 0.198437
0.983806 0.573808 0.217474
0.984668 0.527911 0.426817
0.984081 0.524804 0.441432
0.140068 0.582571 0.113930
0.140091 0.581434 0.114010
0.140178 0.577760 0.114314
0.140628 0.572745 0.115016
0.142137 0.568053 0.116279
0.143766 0.559900 0.117391
0.146503 0.548948 0.118425
0.150949 0.538085 0.119423
0.158155 0.527185 0.120424
0.167923 0.516337 0.121358
0.185740 0.506141 0.122233
0.211718 0.497062 0.123216
0.246383 0.488914 0.124152
0.294600 0.482402 0.125298
0.358830 0.491305 0.128270
0.416570 0.483800 0.129193
0.479177 0.485252 0.130978
0.554445 0.494700 0.133756
0.647341 0.511491 0.138082
0.724746 0.515397 0.140309
0.785551 0.521908 0.143207
0.837210 0.532204 0.147662
0.879327 0.543036 0.152587
0.909450 0.548759 0.156236
0.935436 0.557165 0.160712
0.951057 0.564315 0.165802
0.962550 0.568399 0.170099
0.970087 0.574549 0.177200
0.976964 0.577103 0.185322
0.980759 0.580994 0.195660
0.982060 0.590348 0.210237
0.982653 0.605624 0.258552
0.982704 0.629114 0.443090
0.140247 0.624201 0.116996
0.140275 0.623327 0.117095
0.140525 0.620452 0.117466
0.141336 0.616296 0.118216
0.142738 0.613069 0.119512
0.144134 0.606227 0.120763
0.147127 0.599823 0.122282
0.151233 0.592549 0.123580
0.158177 0.584885 0.124822
0.167568 0.576648 0.125887
0.184530 0.568800 0.126956
0.208790 0.561203 0.127883
0.240549 0.552382 0.128926
0.285456 0.544670 0.129941
0.335397 0.538200 0.131135
0.386834 0.529123 0.131840
0.442810 0.521472 0.132663
0.508102 0.527249 0.135214
0.593605 0.542768 0.139339
0.671306 0.545840 0.141449
0.743120 0.552027 0.144521
0.803907 0.561894 0.149037
0.852450 0.569802 0.153719
0.887989 0.574788 0.157235
0.916544 0.580149 0.161448
0.940629 0.587937 0.166438
0.954387 0.591440 0.170511
0.963545 0.594951 0.177212
0.971098 0.600057 0.184888
0.976143 0.606499 0.194338
0.979993 0.611747 0.206656
0.981030 0.620326 0.232092
0.981318 0.628251 0.425253
0.140431 0.649862 0.118640
0.140526 0.649098 0.118730
0.140878 0.646549 0.119064
0.141577 0.642696 0.119730
0.142759 0.639111 0.121153
0.144121 0.633882 0.122643
0.146986 0.628868 0.124341
0.150584 0.621435 0.125560
0.156669 0.614502 0.126846
0.164687 0.607862 0.128172
0.178497 0.600922 0.129197
0.199500 0.594258 0.130218
0.227428 0.588220 0.131242
0.266097 0.581948 0.132266
0.311951 0.576404 0.133300
0.362540 0.571682 0.134623
0.415750 0.564677 0.135382
0.473596 0.563390 0.137215
0.546345 0.572057 0.140753
0.619738 0.574167 0.143017
0.699662 0.578156 0.146109
0.765465 0.585475 0.150524
0.821407 0.592425 0.155061
0.866874 0.596211 0.158368
0.897085 0.601353 0.162433
0.923349 0.608201 0.167238
0.946053 0.611406 0.171236
0.956176 0.616686 0.177749
0.965097 0.620865 0.184851
0.971271 0.624760 0.193199
0.975598 0.632588 0.204672
0.977929 0.644594 0.224942
0.979286 0.640649 0.357674
0.140776 0.674275 0.120141
0.140860 0.673603 0.120247
0.141172 0.671340 0.120640
0.141782 0.667801 0.121416
0.142797 0.664121 0.122709
0.144143 0.660327 0.124320
0.146377 0.654427 0.125761
0.149913 0.648458 0.127252
0.155295 0.642335 0.128675
0.162217 0.635937 0.129984
0.173797 0.629528 0.131202
0.191510 0.623198 0.132276
0.216490 0.617258 0.133276
0.248305 0.611582 0.134444
0.291357 0.606364 0.135622
0.337978 0.601818 0.136830
0.390207 0.597968 0.138185
0.447839 0.596219 0.139897
0.511244 0.599780 0.143136
0.573745 0.597506 0.144679
0.649688 0.600850 0.147934
0.727819 0.606776 0.152152
0.789607 0.613328 0.156578
0.837785 0.616685 0.159686
0.877692 0.621921 0.163617
0.906214 0.627947 0.168169
0.933154 0.632037 0.172312
0.948858 0.636306 0.178383
0.958948 0.640970 0.185109
0.965912 0.646514 0.192877
0.971232 0.651868 0.202898
0.974244 0.659698 0.218586
0.975677 0.673718 0.276843
0.141199 0.698022 0.122449
0.141274 0.697551 0.122547
0.141552 0.695950 0.122909
0.142093 0.693381 0.123618
0.142980 0.690511 0.124782
0.144327 0.688526 0.126535
0.146311 0.683543 0.127860
0.149834 0.679492 0.129589
0.154669 0.673620 0.131047
0.160777 0.667428 0.132353
0.170882 0.661502 0.133686
0.186970 0.655577 0.135036
0.209651 0.649911 0.136358
0.236983 0.644117 0.137461
0.277018 0.638925 0.138720
0.320864 0.634053 0.139907
0.369296 0.629741 0.141130
0.424772 0.626191 0.142768
0.484845 0.629109 0.146609
0.539044 0.624259 0.147710
0.604909 0.622605 0.149760
0.685293 0.628194 0.153891
0.753900 0.634300 0.158208
0.809268 0.637288 0.161152
0.854949 0.642420 0.164958
0.888882 0.648035 0.169309
0.917509 0.652020 0.173578
0.940441 0.656187 0.179314
0.952375 0.661745 0.185774
0.960825 0.665163 0.192802
0.966837 0.671447 0.202019
0.970358 0.680527 0.215709
0.972401 0.687698 0.250253
0.141711 0.722792 0.125295
0.141780 0.722392 0.125387
0.142031 0.721023 0.125726
0.142516 0.718788 0.126386
0.143304 0.716174 0.127511
0.144521 0.714178 0.129214
0.146710 0.710419 0.130689
0.149964 0.706936 0.132402
0.154449 0.702583 0.133969
0.160486 0.698541 0.135730
0.169981 0.694133 0.137269
0.185135 0.689680 0.138804
0.205989 0.685051 0.140126
0.232074 0.680436 0.141452
0.268431 0.675018 0.142855
0.311507 0.670157 0.144517
0.356775 0.665546 0.146305
0.408650 0.661304 0.148068
0.461313 0.657962 0.150134
0.511226 0.652749 0.151097
0.571231 0.649715 0.152816
0.641221 0.649729 0.155689
0.720351 0.655409 0.159869
0.778042 0.658140 0.162703
0.828470 0.662583 0.166337
0.871569 0.668070 0.170614
0.901935 0.671621 0.174992
0.926494 0.676258 0.180530
0.946100 0.680580 0.186459
0.955436 0.684249 0.193137
0.962446 0.689023 0.201677
0.966776 0.693873 0.213336
0.969155 0.702654 0.238671
0.141811 0.740600 0.126297
0.141873 0.740243 0.126388
0.142103 0.739011 0.126727
0.142544 0.736962 0.127380
0.143254 0.734455 0.128431
0.144320 0.732230 0.130002
0.146395 0.729500 0.131678
0.149198 0.725608 0.133207
0.153299 0.722188 0.135120
0.159040 0.718458 0.136963
0.166436 0.714086 0.138503
0.178972 0.709938 0.140059
0.197587 0.705773 0.141613
0.221395 0.701604 0.143230
0.252645 0.697557 0.144944
0.292825 0.693568 0.146708
0.335550 0.689885 0.148606
0.383293 0.686559 0.150475
0.435702 0.683434 0.152267
0.487105 0.680979 0.154323
0.541738 0.677281 0.155925
0.608451 0.676772 0.158712
0.680955 0.677133 0.161733
0.745823 0.679097 0.164282
0.802926 0.682724 0.167807
0.848883 0.686675 0.172390
0.886115 0.689392 0.176540
0.912584 0.693012 0.181872
0.937235 0.696370 0.187421
0.949924 0.699929 0.193658
0.958143 0.703831 0.201447
0.963103 0.709282 0.212197
0.966073 0.716000 0.231717
0.141903 0.758375 0.127404
0.141960 0.758061 0.127493
0.142172 0.756973 0.127817
0.142578 0.755139 0.128439
0.143224 0.752823 0.129432
0.144185 0.750582 0.130901
0.146210 0.748776 0.132793
0.148670 0.744818 0.134284
0.152588 0.742276 0.136494
0.157464 0.738024 0.138094
0.164157 0.734544 0.139895
0.175690 0.730973 0.141688
0.191546 0.726952 0.143504
0.212884 0.722950 0.145381
0.239844 0.719139 0.147420
0.277533 0.715395 0.149344
0.317990 0.711660 0.151156
0.362253 0.708219 0.153041
0.413429 0.705225 0.154979
0.462967 0.702383 0.156816
0.515562 0.700174 0.158857
0.578189 0.698979 0.161559
0.647824 0.698998 0.164512
0.716787 0.697369 0.166152
0.773423 0.699237 0.169272
0.825254 0.702870 0.174279
0.870327 0.705372 0.178191
0.898830 0.708480 0.183230
0.925118 0.711958 0.188560
0.944487 0.714897 0.194224
0.953697 0.719079 0.201589
0.959619 0.723328 0.211270
0.963092 0.729804 0.227819
0.142024 0.776218 0.128772
0.142078 0.775950 0.128857
0.142275 0.775018 0.129170
0.142651 0.773433 0.129767
0.143246 0.771392 0.130715
0.144123 0.769317 0.132106
0.146019 0.767963 0.134154
0.148404 0.764647 0.135821
0.151466 0.761798 0.137838
0.156589 0.758650 0.139735
0.162885 0.755655 0.141756
0.172217 0.751988 0.143718
0.186799 0.748566 0.146067
0.206927 0.745022 0.148325
0.231566 0.741361 0.150368
0.265379 0.737820 0.152499
0.304486 0.734247 0.154433
0.346403 0.730815 0.156357
0.393662 0.727572 0.158268
0.444686 0.724809 0.160264
0.493698 0.722200 0.162174
0.550069 0.720137 0.164202
0.616928 0.719507 0.167095
0.685039 0.717779 0.168610
0.745865 0.716985 0.171265
0.801870 0.718872 0.176107
0.849411 0.721329 0.179861
0.884985 0.724079 0.184716
0.913067 0.727288 0.189779
0.936166 0.730062 0.195012
0.949332 0.733722 0.201820
0.956170 0.737729 0.210744
0.960212 0.743801 0.225277
0.142039 0.793823 0.129799
0.142090 0.793591 0.129883
0.142275 0.792783 0.130188
0.142628 0.791396 0.130768
0.143184 0.789577 0.131686
0.143997 0.787649 0.133023
0.145609 0.786187 0.135107
0.148097 0.783928 0.137107
0.150775 0.780991 0.138982
0.155865 0.778802 0.141242
0.160941 0.775443 0.143293
0.169543 0.772593 0.145868
0.183232 0.769723 0.148597
0.201083 0.766232 0.150870
0.223823 0.762810 0.153041
0.253769 0.759433 0.155213
0.291581 0.756097 0.157379
0.331995 0.752779 0.159425
0.376447 0.749571 0.161403
0.426985 0.746534 0.163374
0.474825 0.743937 0.165384
0.526178 0.741590 0.167390
0.587689 0.739691 0.169420
0.653335 0.737774 0.171013
0.721917 0.736591 0.174246
0.776760 0.736389 0.178432
0.827475 0.737124 0.181394
0.870925 0.739541 0.186090
0.901232 0.742468 0.191007
0.926094 0.745144 0.195939
0.944973 0.748263 0.202071
0.952740 0.752138 0.210494
0.957551 0.757080 0.223252
0.141749 0.807495 0.129584
0.141797 0.807321 0.129666
0.141974 0.806713 0.129966
0.142310 0.805658 0.130536
0.142838 0.804243 0.131433
0.143606 0.802669 0.132736
0.144826 0.801299 0.134710
0.147320 0.799999 0.137088
0.149754 0.797517 0.138855
0.154079 0.795813 0.141213
0.158967 0.793226 0.143436
0.166503 0.790806 0.146326
0.177250 0.787669 0.148862
0.193506 0.784854 0.151530
0.215253 0.781906 0.154028
0.240536 0.778630 0.156197
0.275782 0.775422 0.158440
0.314642 0.772241 0.160575
0.356806 0.769151 0.162678
0.404289 0.766184 0.164684
0.453191 0.763438 0.166705
0.501782 0.761013 0.168683
0.558306 0.758993 0.170843
0.623262 0.757369 0.173678
0.693160 0.755714 0.176888
0.753039 0.755026 0.181022
0.807784 0.754676 0.183451
0.852243 0.754856 0.187310
0.889006 0.757489 0.191953
0.916103 0.760012 0.196927
0.939203 0.762858 0.202451
0.949445 0.766008 0.209983
0.954990 0.770761 0.221768
0.141462 0.819195 0.129535
0.141509 0.819047 0.129615
0.141679 0.818530 0.129909
0.142000 0.817629 0.130465
0.142503 0.816408 0.131339
0.143232 0.815022 0.132605
0.144248 0.813751 0.134492
0.146629 0.813077 0.137264
0.148874 0.810784 0.138947
0.152156 0.809007 0.141153
0.157497 0.807357 0.143876
0.163322 0.805185 0.146642
0.173377 0.803224 0.149596
0.187998 0.801179 0.152470
0.206615 0.798813 0.154946
0.230373 0.796492 0.157425
0.262706 0.794087 0.159825
0.300689 0.791087 0.162140
0.340502 0.788060 0.164290
0.384918 0.785132 0.166427
0.433712 0.782355 0.168466
0.480590 0.779819 0.170500
0.532040 0.777539 0.173219
0.593676 0.775755 0.176129
0.661860 0.774312 0.179065
0.729468 0.773076 0.183191
0.786986 0.772819 0.185486
0.834180 0.771987 0.188995
0.876524 0.772406 0.192756
0.906042 0.774619 0.197328
0.931433 0.777299 0.202791
0.946240 0.780066 0.209550
0.952544 0.784110 0.220366
0.141063 0.829936 0.129272
0.141109 0.829812 0.129351
0.141274 0.829380 0.129640
0.141585 0.828623 0.130189
0.142073 0.827592 0.131049
0.142775 0.826406 0.132294
0.143751 0.825284 0.134099
0.145512 0.824606 0.136819
0.147983 0.823151 0.138972
0.150706 0.821460 0.141063
0.156184 0.820552 0.144364
0.160925 0.818418 0.147010
0.170182 0.817005 0.150407
0.181912 0.814891 0.153083
0.200313 0.813056 0.156024
0.222386 0.810969 0.158651
0.249956 0.808716 0.161135
0.285971 0.806387 0.163571
0.324795 0.803982 0.165891
0.367119 0.801624 0.168131
0.414863 0.799336 0.170307
0.461561 0.797202 0.173138
0.510149 0.795236 0.175955
0.566858 0.793398 0.178746
0.631831 0.791796 0.181773
0.703850 0.790503 0.184807
0.763615 0.790419 0.186968
0.816329 0.789203 0.190489
0.864345 0.789179 0.193925
0.895936 0.789251 0.197662
0.923544 0.791408 0.202703
0.943092 0.793968 0.208997
0.950385 0.796933 0.219071
0.140218 0.843625 0.126686
0.140228 0.843509 0.126767
0.140273 0.843099 0.127063
0.140431 0.842374 0.127627
0.140931 0.841362 0.128516
0.141652 0.840148 0.129812
0.142654 0.838897 0.131631
0.144032 0.837917 0.134237
0.146241 0.836871 0.137136
0.148842 0.835104 0.139208
0.152834 0.833874 0.142066
0.158225 0.832388 0.145131
0.164787 0.830744 0.148391
0.175944 0.829121 0.151661
0.191463 0.827327 0.154756
0.211084 0.825367 0.157551
0.236160 0.823404 0.160381
0.270124 0.821233 0.162973
0.307019 0.818904 0.165391
0.347026 0.816599 0.167737
0.391852 0.814360 0.170007
0.440101 0.812231 0.172850
0.487341 0.810270 0.175792
0.540107 0.808522 0.178683
