provia100f/Provia100F_Classic_IlfochromeP.cube
TITLE "Fuji Provia 100F Classic IlfochromeP"
# Adobe RGB in/out. REPLACES AgX. Fuji Provia 100F Classic IlfochromeP.
LUT_3D_SIZE 5
DOMAIN_MIN 0.0 0.0 0.0
DOMAIN_MAX 1.0 1.0 1.0
0.167450 0.163886 0.144994
0.210544 0.166058 0.144994
0.498886 0.238319 0.145383
0.778285 0.412176 0.150942
0.906597 0.609085 0.166354
0.167450 0.183964 0.144994
0.212873 0.206155 0.144993
0.500612 0.303921 0.145598
0.779043 0.470103 0.151568
0.906811 0.644785 0.167391
0.167823 0.407212 0.144955
0.221648 0.431995 0.144927
0.506769 0.511395 0.147065
0.781756 0.625946 0.153626
0.907578 0.735991 0.171154
0.173909 0.686523 0.145866
0.242865 0.696372 0.146925
0.517924 0.730067 0.149981
0.786705 0.786386 0.159331
0.908981 0.841677 0.180200
0.187103 0.853134 0.150708
0.275827 0.857420 0.151903
0.534993 0.871615 0.157052
0.794007 0.890810 0.168566
0.911058 0.916635 0.193034
0.167450 0.163886 0.195607
0.210544 0.166658 0.197898
0.498886 0.239877 0.207923
0.778285 0.413577 0.228833
0.906597 0.609942 0.259700
0.167450 0.184999 0.196808
0.212873 0.207543 0.199078
0.500612 0.305448 0.209651
0.779043 0.471293 0.230427
0.906811 0.645600 0.261324
0.167823 0.408621 0.201033
0.221648 0.433365 0.203822
0.506769 0.512524 0.215686
0.781756 0.626782 0.236099
0.907578 0.736492 0.267117
0.173909 0.687082 0.212030
0.242865 0.696918 0.215237
0.517924 0.730574 0.226499
0.786705 0.786837 0.246947
0.908981 0.841929 0.277598
0.187103 0.853376 0.228253
0.275827 0.857659 0.231304
0.534993 0.871785 0.242334
0.794007 0.890966 0.263194
0.911058 0.916773 0.292835
0.167450 0.163886 0.494868
0.210544 0.168593 0.496565
0.498886 0.245400 0.502620
0.778285 0.418591 0.513590
0.906597 0.613012 0.530367
0.167450 0.188575 0.495755
0.212873 0.212420 0.497449
0.500612 0.310896 0.503494
0.779043 0.475552 0.514448
0.906811 0.648386 0.531291
0.167823 0.413663 0.498929
0.221648 0.438270 0.500614
0.506769 0.516522 0.506625
0.781756 0.629779 0.517518
0.907578 0.738286 0.534602
0.173909 0.689082 0.504723
0.242865 0.698873 0.506390
0.517924 0.732391 0.512339
0.786705 0.788455 0.523180
0.908981 0.842831 0.540655
0.187103 0.854244 0.513279
0.275827 0.858515 0.514921
0.534993 0.872397 0.520781
0.794007 0.891524 0.532357
0.911058 0.917268 0.549619
0.167450 0.163967 0.780921
0.210544 0.173020 0.781678
0.498886 0.255533 0.784387
0.778285 0.427744 0.789328
0.906597 0.618625 0.796618
0.167450 0.196641 0.781316
0.212873 0.222510 0.782073
0.500612 0.320774 0.784779
0.779043 0.483327 0.789716
0.906811 0.653239 0.796931
0.167823 0.422866 0.782734
0.221648 0.447229 0.783488
0.506769 0.523654 0.786186
0.781756 0.635260 0.791107
0.907578 0.741569 0.797906
0.173909 0.692738 0.785331
0.242865 0.702450 0.786080
0.517924 0.735716 0.788762
0.786705 0.791419 0.793655
0.908981 0.844485 0.799690
0.187103 0.855835 0.789187
0.275827 0.860082 0.789930
0.534993 0.873517 0.792589
0.794007 0.892548 0.797245
0.911058 0.918176 0.802338
0.167450 0.167911 0.902081
0.210544 0.179856 0.902245
0.498886 0.271158 0.902831
0.778285 0.441264 0.903904
0.906597 0.626937 0.905493
0.167450 0.210635 0.902166
0.212873 0.237954 0.902330
0.500612 0.335221 0.902916
0.779043 0.494814 0.903989
0.906811 0.660426 0.905576
0.167823 0.436458 0.902473
0.221648 0.460577 0.902637
0.506769 0.534201 0.903222
0.781756 0.643381 0.904291
0.907578 0.746439 0.905875
0.173909 0.698151 0.903036
0.242865 0.707747 0.903199
0.517924 0.740646 0.903781
0.786705 0.795493 0.904846
0.908981 0.846942 0.906424
0.187103 0.858198 0.903874
0.275827 0.862412 0.904035
0.534993 0.875182 0.904614
0.794007 0.894069 0.905673
0.911058 0.919528 0.907240
