provia100f/Provia100F_Classic_Soft.cube
TITLE "Fuji Provia 100F Classic Soft"
# Adobe RGB in/out. REPLACES AgX. Fuji Provia 100F Classic Soft.
LUT_3D_SIZE 33
DOMAIN_MIN 0.0 0.0 0.0
DOMAIN_MAX 1.0 1.0 1.0
0.087707 0.088067 0.091802
0.087707 0.088067 0.091802
0.087705 0.088067 0.091802
0.087726 0.088067 0.091802
0.087805 0.088067 0.091802
0.088372 0.088067 0.091802
0.089872 0.088067 0.091802
0.093835 0.088067 0.091802
0.104623 0.088077 0.091802
0.123052 0.088111 0.091802
0.165783 0.088159 0.091802
0.216986 0.088563 0.091801
0.282273 0.089398 0.091801
0.350214 0.091777 0.091805
0.417710 0.095695 0.091809
0.464556 0.101428 0.091812
0.520374 0.112800 0.091823
0.571381 0.126998 0.091834
0.623785 0.144616 0.091844
0.678612 0.175363 0.091853
0.726231 0.215635 0.091867
0.757898 0.261190 0.091884
0.792123 0.305594 0.091900
0.818194 0.343689 0.091926
0.842236 0.385355 0.091952
0.868656 0.422035 0.091977
0.885961 0.465545 0.092003
0.902939 0.496905 0.092040
0.914335 0.535293 0.092075
0.921662 0.573113 0.092109
0.933972 0.610581 0.092146
0.942068 0.641062 0.092227
0.947815 0.672025 0.092317
0.087707 0.088067 0.091802
0.087707 0.088067 0.091802
0.087705 0.088067 0.091802
0.087727 0.088067 0.091802
0.087806 0.088067 0.091802
0.088374 0.088067 0.091802
0.089875 0.088067 0.091802
0.093845 0.088067 0.091802
0.104641 0.088080 0.091802
0.123083 0.088114 0.091802
0.165830 0.088163 0.091802
0.217026 0.088611 0.091801
0.282319 0.089499 0.091801
0.350253 0.091909 0.091805
0.417737 0.095935 0.091809
0.464581 0.101778 0.091812
0.520404 0.113295 0.091823
0.571405 0.127555 0.091834
0.623808 0.145485 0.091844
0.678634 0.176571 0.091853
0.726243 0.216819 0.091867
0.757903 0.262654 0.091884
0.792133 0.306513 0.091900
0.818202 0.344812 0.091926
0.842246 0.386161 0.091952
0.868661 0.423303 0.091977
0.885966 0.466194 0.092003
0.902943 0.497729 0.092040
0.914337 0.536038 0.092075
0.921668 0.573851 0.092109
0.933974 0.611138 0.092146
0.942069 0.641607 0.092228
0.947816 0.672557 0.092318
0.087707 0.088067 0.091802
0.087707 0.088067 0.091802
0.087704 0.088067 0.091802
0.087728 0.088067 0.091802
0.087806 0.088067 0.091802
0.088383 0.088067 0.091802
0.089884 0.088067 0.091802
0.093879 0.088067 0.091802
0.104706 0.088091 0.091802
0.123193 0.088128 0.091802
0.165996 0.088174 0.091802
0.217169 0.088782 0.091801
0.282485 0.089855 0.091801
0.350393 0.092375 0.091805
0.417833 0.096786 0.091809
0.464673 0.103031 0.091812
0.520510 0.114951 0.091823
0.571490 0.129554 0.091834
0.623890 0.148621 0.091844
0.678714 0.180997 0.091854
0.726286 0.221091 0.091868
0.757921 0.267945 0.091884
0.792169 0.309813 0.091901
0.818228 0.348854 0.091926
0.842281 0.389057 0.091953
0.868679 0.427868 0.091978
0.885983 0.468524 0.092004
0.902959 0.500689 0.092040
0.914343 0.538714 0.092076
0.921689 0.576503 0.092110
0.933982 0.613139 0.092147
0.942074 0.643562 0.092229
0.947819 0.674468 0.092319
0.087707 0.088067 0.091802
0.087707 0.088067 0.091802
0.087704 0.088067 0.091802
0.087729 0.088067 0.091802
0.087808 0.088067 0.091802
0.088399 0.088067 0.091802
0.089900 0.088067 0.091802
0.093941 0.088080 0.091802
0.104825 0.088109 0.091802
0.123396 0.088151 0.091802
0.166302 0.088353 0.091802
0.217434 0.089078 0.091801
0.282790 0.090718 0.091801
0.350651 0.093417 0.091805
0.418010 0.098316 0.091809
0.464842 0.106180 0.091812
0.520705 0.118472 0.091824
0.571648 0.133225 0.091834
0.624041 0.154443 0.091845
0.678859 0.189902 0.091854
0.726365 0.229038 0.091868
0.757953 0.276695 0.091885
0.792235 0.315897 0.091901
0.818277 0.356322 0.091927
0.842346 0.394382 0.091953
0.868713 0.436310 0.091979
0.886014 0.472801 0.092005
0.902988 0.506135 0.092041
0.914355 0.543632 0.092077
0.921728 0.581378 0.092111
0.933995 0.616813 0.092148
0.942082 0.647151 0.092231
0.947825 0.677978 0.092321
0.087707 0.088067 0.091802
0.087707 0.088067 0.091802
0.087704 0.088067 0.091802
0.087732 0.088067 0.091802
0.087810 0.088067 0.091802
0.088422 0.088067 0.091802
0.089924 0.088084 0.091802
0.094034 0.088108 0.091802
0.105002 0.088144 0.091802
0.123699 0.088182 0.091802
0.166760 0.088832 0.091801
0.217829 0.089789 0.091801
0.283247 0.092054 0.091802
0.351037 0.095762 0.091806
0.418274 0.100870 0.091809
0.465094 0.111077 0.091814
0.520997 0.123998 0.091825
0.571883 0.139330 0.091835
0.624268 0.164346 0.091845
0.679077 0.202495 0.091855
0.726483 0.242148 0.091870
0.758000 0.288782 0.091886
0.792334 0.324400 0.091902
0.818350 0.367570 0.091929
0.842443 0.402341 0.091955
0.868763 0.447880 0.091980
0.886061 0.479175 0.092007
0.903032 0.514279 0.092043
0.914372 0.550978 0.092078
0.921786 0.588661 0.092112
0.934015 0.622289 0.092149
0.942095 0.652503 0.092235
0.947834 0.683212 0.092324
0.087707 0.088067 0.091802
0.087707 0.088067 0.091802
0.087704 0.088067 0.091802
0.087735 0.088073 0.091802
0.087813 0.088086 0.091802
0.088454 0.088102 0.091802
0.089957 0.088124 0.091802
0.094160 0.088155 0.091802
0.105242 0.088230 0.091802
0.124109 0.088819 0.091802
0.167380 0.089588 0.091801
0.218364 0.091551 0.091801
0.283865 0.094397 0.091802
0.351559 0.098869 0.091806
0.418631 0.106460 0.091810
0.465435 0.117737 0.091815
0.521391 0.131435 0.091826
0.572200 0.149892 0.091836
0.624573 0.180322 0.091846
0.679371 0.218130 0.091856
0.726643 0.261345 0.091871
0.758065 0.303839 0.091887
0.792468 0.339263 0.091904
0.818449 0.380511 0.091931
0.842575 0.413081 0.091957
0.868831 0.458578 0.091981
0.886125 0.487743 0.092009
0.903092 0.524551 0.092045
0.914396 0.560884 0.092080
0.921865 0.598483 0.092114
0.934042 0.629651 0.092151
0.942113 0.659701 0.092239
0.947847 0.690255 0.092328
0.087707 0.088108 0.091802
0.087707 0.088109 0.091802
0.087706 0.088114 0.091802
0.087739 0.088125 0.091802
0.087817 0.088140 0.091802
0.088494 0.088159 0.091802
0.089998 0.088181 0.091802
0.094318 0.088570 0.091802
0.105448 0.089044 0.091802
0.124630 0.089916 0.091802
0.168170 0.091763 0.091801
0.219044 0.094354 0.091801
0.284651 0.098419 0.091803
0.352222 0.104598 0.091807
0.419085 0.114798 0.091810
0.465869 0.127226 0.091817
0.521875 0.141860 0.091827
0.572604 0.166629 0.091838
0.624962 0.202481 0.091847
0.679746 0.239346 0.091857
0.726846 0.283883 0.091873
0.758147 0.319473 0.091889
0.792638 0.358410 0.091906
0.818575 0.394210 0.091933
0.842742 0.433383 0.091959
0.868917 0.469970 0.091983
0.886205 0.500793 0.092012
0.903167 0.537227 0.092048
0.914426 0.573451 0.092083
0.921965 0.609636 0.092117
0.934077 0.638957 0.092154
0.942135 0.668802 0.092245
0.947863 0.699162 0.092334
0.087707 0.088178 0.091802
0.087706 0.088180 0.091802
0.087707 0.088190 0.091802
0.087743 0.088335 0.091802
0.087822 0.088542 0.091802
0.088541 0.088808 0.091802
0.090047 0.089123 0.091802
0.094511 0.089772 0.091802
0.105570 0.091110 0.091802
0.125266 0.092682 0.091802
0.169136 0.095659 0.091801
0.219875 0.099230 0.091801
0.285612 0.105469 0.091804
0.353033 0.114778 0.091808
0.419639 0.126161 0.091811
0.466399 0.139382 0.091819
0.522388 0.160089 0.091829
0.573097 0.192952 0.091839
0.625437 0.226973 0.091849
0.680203 0.269313 0.091858
0.727094 0.306970 0.091875
0.758247 0.340820 0.091891
0.792846 0.379990 0.091910
0.818728 0.410910 0.091936
0.842946 0.454757 0.091962
0.869022 0.483347 0.091986
0.886304 0.517843 0.092016
0.903260 0.552661 0.092051
0.914463 0.588756 0.092086
0.922087 0.621170 0.092120
0.934119 0.650237 0.092162
0.942162 0.679841 0.092253
0.947882 0.706814 0.092341
0.087707 0.089256 0.091802
0.087705 0.089274 0.091802
0.087709 0.089416 0.091802
0.087748 0.089692 0.091802
0.087827 0.090128 0.091802
0.088597 0.090917 0.091802
0.090105 0.091876 0.091802
0.094738 0.093004 0.091802
0.105714 0.095427 0.091802
0.126022 0.098233 0.091801
0.170285 0.102065 0.091801
0.220863 0.109148 0.091801
0.286753 0.117702 0.091805
0.353995 0.128296 0.091809
0.420296 0.140667 0.091812
0.467027 0.160169 0.091821
0.522997 0.190448 0.091831
0.573682 0.222451 0.091841
0.626000 0.260890 0.091851
0.680745 0.299907 0.091861
0.727388 0.330002 0.091878
0.758366 0.368710 0.091894
0.793092 0.399850 0.091914
0.818910 0.439727 0.091940
0.843188 0.471832 0.091965
0.869147 0.501442 0.091989
0.886420 0.536245 0.092020
0.903369 0.570909 0.092055
0.914507 0.606518 0.092089
0.922232 0.634731 0.092124
0.934169 0.663508 0.092171
0.942194 0.692836 0.092261
0.947905 0.715422 0.092349
0.087706 0.092797 0.091802
0.087704 0.092849 0.091802
0.087711 0.093101 0.091802
0.087754 0.093735 0.091802
0.087833 0.094703 0.091802
0.088660 0.096050 0.091802
0.090172 0.097713 0.091802
0.095000 0.099675 0.091802
0.105880 0.103120 0.091802
0.126950 0.108940 0.091801
0.171623 0.115499 0.091801
0.222011 0.124111 0.091803
0.288081 0.133663 0.091806
0.355113 0.146843 0.091810
0.421059 0.167024 0.091814
0.467757 0.196054 0.091824
0.523705 0.225046 0.091834
0.574361 0.261222 0.091843
0.626654 0.297870 0.091852
0.681375 0.325889 0.091865
0.727729 0.362200 0.091881
0.758504 0.393630 0.091896
0.793378 0.427244 0.091918
0.819121 0.464170 0.091944
0.843469 0.490228 0.091968
0.869292 0.524321 0.091992
0.886556 0.557523 0.092025
0.903496 0.592018 0.092060
0.914557 0.622440 0.092093
0.922401 0.650315 0.092128
0.934227 0.678769 0.092181
0.942231 0.705333 0.092271
0.947932 0.725272 0.092358
0.087704 0.100423 0.091802
0.087705 0.100571 0.091802
0.087713 0.101100 0.091802
0.087760 0.102068 0.091802
0.087839 0.103617 0.091802
0.088744 0.106339 0.091802
0.090247 0.109848 0.091802
0.095296 0.114148 0.091802
0.106178 0.119484 0.091801
0.128154 0.126156 0.091801
0.173156 0.133747 0.091801
0.223324 0.143863 0.091804
0.289599 0.159137 0.091808
0.356392 0.181425 0.091811
0.421931 0.207866 0.091817
0.468590 0.235090 0.091827
0.524512 0.270434 0.091837
0.575137 0.302274 0.091846
0.627402 0.328499 0.091855
0.682095 0.362628 0.091868
0.728119 0.392322 0.091884
0.758662 0.422618 0.091899
0.793705 0.460474 0.091923
0.819362 0.485282 0.091948
0.843791 0.516950 0.091973
0.869457 0.548696 0.091996
0.886711 0.581708 0.092030
0.903642 0.613498 0.092065
0.914615 0.640397 0.092098
0.922593 0.667906 0.092133
0.934293 0.696008 0.092193
0.942274 0.716762 0.092282
0.947963 0.736339 0.092368
0.087705 0.117510 0.091802
0.087708 0.117744 0.091802
0.087720 0.118583 0.091802
0.087771 0.120127 0.091802
0.087851 0.122432 0.091802
0.088860 0.125543 0.091802
0.090330 0.129491 0.091802
0.095627 0.134303 0.091801
0.106986 0.140855 0.091801
0.129514 0.150709 0.091801
0.174890 0.163806 0.091803
0.224806 0.182419 0.091806
0.291314 0.204505 0.091809
0.357833 0.226934 0.091812
0.422912 0.255269 0.091821
0.469528 0.285724 0.091830
0.525422 0.311844 0.091839
0.576012 0.337947 0.091848
0.628244 0.370076 0.091857
0.682906 0.395985 0.091872
0.728559 0.425854 0.091888
0.758840 0.460820 0.091903
0.794073 0.484316 0.091928
0.819634 0.514017 0.091953
0.844152 0.544508 0.091977
0.869644 0.576010 0.092001
0.886885 0.608015 0.092036
0.903805 0.633865 0.092070
0.914681 0.660357 0.092103
0.922810 0.687476 0.092139
0.934367 0.710358 0.092207
0.942322 0.729397 0.092294
0.947997 0.748588 0.092380
0.087708 0.141328 0.091802
0.087711 0.141600 0.091802
0.087731 0.142592 0.091802
0.087782 0.144983 0.091802
0.087864 0.148583 0.091802
0.088986 0.153489 0.091802
0.090471 0.159990 0.091801
0.095991 0.169995 0.091801
0.107883 0.182608 0.091801
0.131034 0.198660 0.091802
0.176830 0.214527 0.091805
0.226461 0.232994 0.091808
0.293228 0.257235 0.091810
0.359440 0.282859 0.091815
0.424006 0.306247 0.091825
0.470574 0.326941 0.091834
0.526436 0.354447 0.091843
0.576986 0.381777 0.091851
0.629182 0.404659 0.091861
0.683810 0.437088 0.091877
0.729048 0.465243 0.091892
0.759037 0.487378 0.091909
0.794484 0.516277 0.091934
0.819937 0.545020 0.091959
0.844556 0.574988 0.091982
0.869851 0.606073 0.092009
0.887080 0.630804 0.092043
0.903988 0.656214 0.092077
0.914753 0.682282 0.092109
0.923052 0.706150 0.092145
0.934450 0.724578 0.092221
0.942376 0.743191 0.092308
0.948036 0.761976 0.092393
0.087711 0.189426 0.091802
0.087713 0.189995 0.091802
0.087741 0.192045 0.091802
0.087794 0.195847 0.091802
0.087958 0.200842 0.091801
0.089122 0.207290 0.091801
0.090757 0.215608 0.091801
0.096389 0.225946 0.091801
0.108871 0.239105 0.091801
0.132717 0.256144 0.091804
0.178982 0.275467 0.091807
0.228292 0.294336 0.091809
0.297326 0.311471 0.091812
0.361217 0.329145 0.091820
0.425213 0.352453 0.091829
0.471729 0.377287 0.091837
0.527556 0.397087 0.091846
0.578062 0.420143 0.091854
0.630219 0.452547 0.091866
0.684808 0.473743 0.091882
0.729589 0.495489 0.091896
0.759255 0.523188 0.091916
0.794937 0.550274 0.091941
0.820271 0.578689 0.091965
0.845001 0.607719 0.091988
0.870081 0.631273 0.092017
0.887294 0.655539 0.092051
0.904189 0.680496 0.092083
0.914834 0.704205 0.092116
0.923319 0.721953 0.092152
0.934542 0.739922 0.092237
0.942435 0.758095 0.092323
0.948078 0.774006 0.092407
0.087716 0.252530 0.091801
0.087725 0.253131 0.091801
0.087752 0.255296 0.091801
0.087807 0.259301 0.091801
0.088094 0.265347 0.091801
0.089266 0.273313 0.091801
0.091109 0.281927 0.091801
0.096875 0.292576 0.091801
0.110077 0.303839 0.091804
0.134568 0.314825 0.091806
0.181351 0.327284 0.091808
0.230303 0.344464 0.091811
0.303014 0.363888 0.091816
0.363166 0.382438 0.091825
0.426535 0.399206 0.091833
0.472994 0.418667 0.091841
0.528782 0.448530 0.091849
0.579242 0.467981 0.091857
0.631355 0.486280 0.091872
0.685902 0.509926 0.091887
0.730180 0.534773 0.091901
0.759494 0.560288 0.091924
0.795433 0.587139 0.091948
0.820637 0.612968 0.091971
0.845490 0.635294 0.091994
0.870332 0.658365 0.092025
0.887530 0.682159 0.092058
0.904410 0.704565 0.092091
0.914922 0.721570 0.092124
0.923612 0.738831 0.092167
0.934643 0.756331 0.092255
0.942500 0.772103 0.092339
0.948125 0.789708 0.092422
0.087730 0.316630 0.091801
0.087738 0.317014 0.091801
0.087763 0.318396 0.091801
0.087819 0.320776 0.091801
0.088235 0.324093 0.091801
0.089417 0.330259 0.091801
0.091485 0.338162 0.091802
0.097515 0.347883 0.091804
0.111490 0.359514 0.091806
0.136591 0.373151 0.091808
0.183944 0.384683 0.091810
0.232496 0.397089 0.091813
0.306174 0.410899 0.091821
0.365290 0.432448 0.091829
0.427974 0.454212 0.091837
0.474370 0.470115 0.091845
0.530117 0.485926 0.091853
0.580525 0.506264 0.091863
0.632592 0.528521 0.091878
0.687094 0.551123 0.091892
0.730824 0.575066 0.091908
0.759754 0.600347 0.091932
0.795974 0.621805 0.091955
0.821036 0.642864 0.091978
0.846021 0.664697 0.092001
0.870606 0.687284 0.092034
0.887786 0.707244 0.092067
0.904650 0.723449 0.092099
0.915018 0.739946 0.092132
0.923930 0.756718 0.092187
0.934752 0.771858 0.092273
0.942570 0.788702 0.092357
0.948175 0.806792 0.092438
0.087744 0.378896 0.091801
0.087751 0.379233 0.091801
0.087780 0.380443 0.091801
0.087831 0.382668 0.091801
0.088381 0.385996 0.091802
0.089575 0.390491 0.091803
0.091882 0.396203 0.091805
0.098200 0.403175 0.091806
0.113016 0.411443 0.091808
0.138788 0.424362 0.091810
0.186581 0.441816 0.091812
0.236886 0.455727 0.091819
0.308670 0.467777 0.091827
0.367591 0.480028 0.091834
0.429530 0.494022 0.091842
0.475859 0.512703 0.091849
0.531562 0.531484 0.091857
0.581914 0.551181 0.091870
0.633930 0.572216 0.091884
0.688383 0.594591 0.091897
0.731521 0.615234 0.091917
0.760036 0.634179 0.091940
0.796558 0.653945 0.091963
0.821467 0.674512 0.091985
0.846596 0.695859 0.092011
0.870902 0.712226 0.092044
0.888063 0.727585 0.092076
0.904910 0.743272 0.092107
0.915121 0.759267 0.092141
0.924275 0.773287 0.092209
0.934871 0.789832 0.092293
0.942647 0.807216 0.092375
0.948230 0.823141 0.092456
0.087756 0.438486 0.091803
0.087764 0.439021 0.091803
0.087797 0.440948 0.091804
0.087847 0.444499 0.091804
0.088530 0.448369 0.091805
0.089740 0.452836 0.091806
0.092301 0.458512 0.091807
0.099185 0.464515 0.091809
0.113831 0.471183 0.091811
0.141309 0.478892 0.091812
0.189039 0.487651 0.091819
0.243625 0.499358 0.091826
0.311364 0.513504 0.091832
0.370071 0.528042 0.091839
0.431204 0.543548 0.091847
0.477584 0.560375 0.091854
0.533117 0.578529 0.091864
0.583409 0.598014 0.091877
0.635371 0.615636 0.091890
0.689772 0.632395 0.091904
0.732124 0.650015 0.091927
0.760338 0.668476 0.091949
0.797187 0.687759 0.091971
0.821932 0.705372 0.091993
0.847216 0.719470 0.092022
0.871220 0.733950 0.092054
0.888361 0.748789 0.092085
0.905191 0.763967 0.092117
0.915233 0.776769 0.092151
0.924647 0.793100 0.092231
0.934999 0.809737 0.092314
0.942729 0.824208 0.092395
0.948289 0.834341 0.092475
0.087774 0.488959 0.091806
0.087783 0.489225 0.091806
0.087813 0.490183 0.091807
0.087869 0.492207 0.091807
0.088681 0.495609 0.091808
0.089910 0.500204 0.091809
0.092785 0.506047 0.091810
0.100301 0.513183 0.091811
0.114466 0.521259 0.091814
0.144056 0.530185 0.091819
0.191681 0.540360 0.091825
0.246674 0.551803 0.091832
0.314182 0.564528 0.091838
0.372734 0.578548 0.091845
0.432998 0.593872 0.091851
0.479697 0.609304 0.091858
0.534783 0.622942 0.091871
0.585012 0.637483 0.091884
0.636916 0.652913 0.091897
0.691260 0.669214 0.091915
0.732754 0.686370 0.091937
0.760662 0.703008 0.091958
0.797862 0.715744 0.091980
0.822429 0.728911 0.092001
0.847880 0.742487 0.092033
0.871562 0.756452 0.092065
0.888681 0.769513 0.092095
0.905491 0.782970 0.092127
0.915353 0.798491 0.092171
0.925045 0.814345 0.092255
0.935136 0.826485 0.092336
0.942817 0.836174 0.092416
0.948353 0.845951 0.092494
0.087794 0.545370 0.091809
0.087802 0.545681 0.091809
0.087829 0.546795 0.091809
0.088070 0.548844 0.091810
0.088900 0.551908 0.091810
0.090085 0.556044 0.091811
0.093490 0.561299 0.091812
0.101626 0.567710 0.091816
0.116112 0.575309 0.091821
0.147006 0.584122 0.091826
0.194511 0.594170 0.091832
0.249942 0.605462 0.091838
0.317012 0.615041 0.091844
0.375581 0.625544 0.091850
0.434911 0.636967 0.091856
0.481880 0.649300 0.091867
0.536562 0.662535 0.091879
0.586724 0.676659 0.091891
0.638566 0.691660 0.091904
0.692850 0.705154 0.091926
0.733425 0.716456 0.091947
0.761007 0.728232 0.091968
0.798581 0.740461 0.091988
0.822960 0.753123 0.092014
0.848589 0.765875 0.092045
0.871926 0.776977 0.092076
0.889023 0.791285 0.092106
0.905811 0.805970 0.092138
0.915480 0.820861 0.092198
0.925471 0.829956 0.092280
0.935282 0.839173 0.092360
0.942911 0.848502 0.092438
0.948420 0.857931 0.092523
0.087812 0.602600 0.091812
0.087820 0.602906 0.091812
0.087847 0.604006 0.091812
0.088271 0.605885 0.091812
0.089133 0.608193 0.091814
0.090263 0.611305 0.091817
0.094223 0.615252 0.091820
0.103046 0.620057 0.091824
0.117911 0.625738 0.091828
0.150164 0.632309 0.091833
0.197533 0.639776 0.091838
0.253434 0.648146 0.091843
0.320028 0.657420 0.091849
0.378615 0.667597 0.091855
0.436946 0.678672 0.091864
0.484203 0.690641 0.091875
0.538454 0.702416 0.091887
0.588544 0.711724 0.091899
0.640321 0.721555 0.091916
0.694541 0.731894 0.091937
0.734139 0.742720 0.091957
0.761374 0.754017 0.091977
0.799347 0.765531 0.091997
0.823525 0.775199 0.092027
0.849343 0.788216 0.092058
0.872314 0.801651 0.092087
0.889386 0.815485 0.092117
0.906152 0.826004 0.092150
0.915616 0.834588 0.092226
0.925924 0.843315 0.092306
0.935437 0.852174 0.092384
0.943012 0.860862 0.092461
0.948492 0.868408 0.092579
0.087830 0.648619 0.091819
0.087837 0.648845 0.091819
0.087909 0.649657 0.091819
0.088470 0.651149 0.091821
0.089367 0.653378 0.091822
0.090520 0.656385 0.091825
0.094982 0.660200 0.091828
0.104538 0.664846 0.091831
0.119813 0.670342 0.091835
0.153535 0.676700 0.091840
0.200748 0.683930 0.091844
0.257152 0.692038 0.091849
0.323230 0.700738 0.091855
0.382880 0.707443 0.091862
0.439102 0.714712 0.091873
0.486668 0.722533 0.091884
0.540460 0.730895 0.091895
0.590475 0.739784 0.091909
0.642182 0.749186 0.091929
0.696093 0.759085 0.091948
0.734895 0.768466 0.091968
0.762525 0.777641 0.091987
0.800158 0.789312 0.092011
0.824123 0.801434 0.092041
0.850143 0.813992 0.092070
0.872725 0.824389 0.092099
0.889771 0.832277 0.092130
0.906514 0.840339 0.092175
0.915761 0.848563 0.092254
0.926404 0.856937 0.092333
0.935602 0.864432 0.092410
0.943118 0.871600 0.092485
0.948569 0.878853 0.092657
0.087853 0.695033 0.091827
0.087863 0.695252 0.091827
0.088146 0.696037 0.091828
0.088667 0.697481 0.091829
0.089602 0.699638 0.091830
0.091133 0.701773 0.091833
0.095765 0.704283 0.091835
0.105630 0.707336 0.091838
0.121817 0.710939 0.091842
0.157328 0.715100 0.091846
0.204180 0.719820 0.091850
0.261102 0.725098 0.091855
0.326623 0.730932 0.091862
0.387777 0.737316 0.091872
0.441379 0.744244 0.091882
0.489274 0.751707 0.091893
0.542580 0.759694 0.091903
0.592515 0.767458 0.091922
0.644151 0.774588 0.091941
0.697733 0.784225 0.091960
0.735694 0.794521 0.091979
0.763889 0.805296 0.091998
0.801016 0.816535 0.092026
0.824756 0.825130 0.092055
0.850988 0.832274 0.092083
0.873160 0.839620 0.092112
0.890178 0.847156 0.092143
0.906896 0.854870 0.092206
0.915913 0.862190 0.092284
0.926912 0.868860 0.092361
0.935776 0.875640 0.092436
0.943230 0.882519 0.092512
0.948649 0.889489 0.092739
0.087986 0.728702 0.091835
0.088076 0.728844 0.091835
0.088378 0.729353 0.091835
0.088939 0.730287 0.091836
0.089838 0.731682 0.091838
0.091764 0.733563 0.091840
0.096571 0.735946 0.091842
0.106533 0.738846 0.091845
0.124361 0.742271 0.091849
0.161534 0.746228 0.091852
0.207828 0.750719 0.091856
0.265288 0.755745 0.091864
0.330206 0.761304 0.091873
0.392970 0.766823 0.091882
0.443779 0.772065 0.091891
0.492023 0.778496 0.091901
0.544816 0.786391 0.091918
0.594667 0.794804 0.091936
0.646226 0.803724 0.091954
0.699462 0.813141 0.091972
0.736535 0.822063 0.091990
0.765327 0.828195 0.092014
0.801920 0.834564 0.092042
0.825423 0.841159 0.092069
0.851869 0.847968 0.092097
0.873618 0.854980 0.092126
0.890607 0.861718 0.092162
0.907299 0.867848 0.092239
0.916074 0.874110 0.092315
0.927293 0.880493 0.092390
0.935960 0.886990 0.092463
0.943349 0.893592 0.092576
0.948735 0.900290 0.092823
0.088243 0.760770 0.091842
0.088325 0.760905 0.091842
0.088602 0.761388 0.091843
0.089225 0.762277 0.091844
0.090073 0.763604 0.091845
0.092403 0.765236 0.091847
0.097675 0.767035 0.091849
0.108646 0.769224 0.091852
0.127470 0.771808 0.091855
0.166004 0.774793 0.091860
0.211682 0.779113 0.091867
0.269713 0.784067 0.091875
0.333983 0.789553 0.091883
0.398365 0.795567 0.091891
0.446301 0.802106 0.091900
0.494916 0.809164 0.091915
0.547166 0.816735 0.091932
0.596931 0.823110 0.091949
0.648410 0.828174 0.091967
0.701281 0.833502 0.091984
0.737419 0.839083 0.092003
0.766840 0.844908 0.092030
0.802870 0.850967 0.092057
0.826124 0.857249 0.092084
0.852612 0.863014 0.092111
0.874100 0.868573 0.092141
0.891059 0.874283 0.092197
0.907724 0.880135 0.092272
0.916242 0.886121 0.092346
0.927500 0.892232 0.092420
0.936154 0.898459 0.092492
0.943474 0.904795 0.092669
0.948824 0.911231 0.092911
0.088489 0.790606 0.091850
0.088565 0.790739 0.091850
0.088879 0.791215 0.091850
0.089508 0.792090 0.091851
0.090307 0.793398 0.091852
0.093267 0.795161 0.091854
0.099074 0.797397 0.091856
0.111161 0.800120 0.091859
0.131229 0.803338 0.091865
0.170744 0.807061 0.091871
0.215746 0.811291 0.091878
0.274381 0.816033 0.091885
0.337955 0.821021 0.091893
0.403555 0.824435 0.091901
0.448946 0.828137 0.091915
0.497954 0.832123 0.091931
0.549632 0.836388 0.091947
0.599306 0.840923 0.091963
0.650702 0.845723 0.091979
0.703189 0.850778 0.091996
0.738346 0.856080 0.092021
0.768428 0.861250 0.092047
0.803868 0.866041 0.092073
0.826859 0.871009 0.092099
0.853392 0.876145 0.092127
0.874605 0.881440 0.092159
0.891532 0.886887 0.092233
0.908169 0.892477 0.092306
0.916420 0.898202 0.092379
0.927716 0.904053 0.092450
0.936357 0.910024 0.092535
0.943605 0.916105 0.092764
0.948918 0.922290 0.093001
0.088738 0.822522 0.091857
0.088843 0.822597 0.091857
0.089198 0.822867 0.091857
0.089786 0.823363 0.091858
0.090829 0.824102 0.091861
0.094281 0.825099 0.091864
0.100874 0.826363 0.091867
0.113567 0.827901 0.091872
0.135195 0.829716 0.091877
0.175761 0.831814 0.091882
0.220022 0.834194 0.091889
0.279298 0.836857 0.091896
0.342125 0.839801 0.091903
0.408243 0.843026 0.091917
0.451714 0.846526 0.091931
0.501137 0.850299 0.091946
0.552215 0.854338 0.091961
0.601794 0.858638 0.091976
0.653314 0.862558 0.091992
0.705188 0.866545 0.092013
0.739316 0.870728 0.092039
0.770091 0.875098 0.092064
0.804912 0.879650 0.092089
0.827629 0.884375 0.092114
