provia100f/Provia100F_Classic_ExtraPunchy.cube
TITLE "Fuji Provia 100F Classic ExtraPunchy"
# Adobe RGB in/out. REPLACES AgX. Fuji Provia 100F Classic ExtraPunchy.
LUT_3D_SIZE 9
DOMAIN_MIN 0.0 0.0 0.0
DOMAIN_MAX 1.0 1.0 1.0
0.071567 0.071941 0.066283
0.072561 0.071941 0.066283
0.099131 0.072135 0.066283
0.253488 0.074380 0.066282
0.544299 0.089087 0.066293
0.805937 0.172950 0.066346
0.923055 0.350255 0.066466
0.962038 0.561165 0.066850
0.978136 0.720332 0.067828
0.071567 0.071941 0.066283
0.072587 0.072004 0.066283
0.099523 0.072622 0.066283
0.254267 0.075778 0.066282
0.545369 0.096528 0.066294
0.806320 0.192584 0.066348
0.923178 0.381230 0.066473
0.962066 0.580517 0.066864
0.978148 0.738032 0.067855
0.071567 0.074287 0.066283
0.072713 0.074739 0.066283
0.100921 0.078358 0.066283
0.257068 0.092390 0.066282
0.549015 0.151957 0.066298
0.807694 0.283405 0.066357
0.923588 0.479402 0.066499
0.962168 0.630790 0.066916
0.978191 0.791277 0.067952
0.071500 0.114978 0.066283
0.073533 0.121796 0.066283
0.103008 0.147006 0.066282
0.262230 0.205187 0.066282
0.553704 0.312542 0.066305
0.810217 0.469790 0.066372
0.924287 0.602202 0.066543
0.962354 0.736555 0.067007
0.978270 0.836935 0.068126
0.071775 0.339182 0.066282
0.074938 0.351486 0.066282
0.106673 0.397112 0.066281
0.269976 0.473479 0.066295
0.560710 0.556272 0.066334
0.813979 0.641005 0.066392
0.925327 0.758205 0.066604
0.962632 0.834391 0.067168
0.978388 0.882161 0.068198
0.072603 0.626983 0.066285
0.076805 0.632751 0.066288
0.114319 0.653339 0.066296
0.280484 0.697435 0.066318
0.570162 0.770467 0.066367
0.819040 0.818824 0.066480
0.926726 0.863041 0.066771
0.963005 0.895427 0.067468
0.978547 0.930593 0.068605
0.074585 0.835803 0.066305
0.079561 0.838463 0.066310
0.126702 0.847914 0.066330
0.293918 0.863873 0.066362
0.582161 0.880125 0.066416
0.825438 0.900765 0.066591
0.928492 0.926179 0.067014
0.963477 0.944915 0.067943
0.978748 0.958560 0.069141
0.077513 0.924556 0.066361
0.083941 0.925514 0.066365
0.140872 0.928916 0.066380
0.310519 0.935030 0.066430
0.596786 0.943849 0.066561
0.833197 0.952147 0.066849
0.930136 0.960450 0.067409
0.964050 0.965348 0.068316
0.978992 0.971116 0.069752
0.082076 0.962520 0.066454
0.090347 0.962787 0.066468
0.162591 0.963738 0.066516
0.330414 0.965008 0.066597
0.614099 0.966708 0.066835
0.841398 0.970098 0.067237
0.931751 0.974919 0.068092
0.964725 0.978973 0.069086
0.979280 0.983408 0.070589
0.071567 0.071941 0.066339
0.072561 0.071941 0.066344
0.099131 0.072147 0.066361
0.253488 0.074406 0.066388
0.544299 0.089254 0.066505
0.805937 0.173527 0.066719
0.923055 0.351019 0.067223
0.962038 0.561638 0.068153
0.978136 0.720746 0.069504
0.071567 0.071941 0.066342
0.072587 0.072009 0.066347
0.099523 0.072635 0.066363
0.254267 0.075854 0.066390
0.545369 0.096716 0.066511
0.806320 0.193025 0.066734
0.923178 0.381917 0.067243
0.962066 0.580849 0.068157
0.978148 0.738446 0.069533
0.071567 0.074314 0.066351
0.072713 0.074763 0.066356
0.100921 0.078427 0.066371
0.257068 0.092554 0.066401
0.549015 0.152381 0.066535
0.807694 0.284277 0.066789
0.923588 0.479869 0.067313
0.962168 0.631113 0.068194
0.978191 0.791492 0.069637
0.071500 0.115373 0.066367
0.073533 0.122175 0.066371
0.103008 0.147425 0.066385
0.262230 0.205814 0.066450
0.553704 0.313108 0.066577
0.810217 0.470256 0.066886
0.924287 0.602530 0.067485
0.962354 0.736970 0.068393
0.978270 0.837085 0.069825
0.071775 0.339765 0.066387
0.074938 0.352251 0.066391
0.106673 0.397811 0.066429
0.269976 0.473946 0.066519
0.560710 0.556745 0.066659
0.813979 0.641326 0.067023
0.925327 0.758619 0.067765
0.962632 0.834541 0.068703
0.978388 0.882198 0.070154
0.072603 0.627307 0.066463
0.076805 0.633074 0.066477
0.114319 0.653658 0.066524
0.280484 0.697849 0.066604
0.570162 0.770881 0.066852
0.819040 0.818978 0.067260
0.926726 0.863139 0.068123
0.963005 0.895529 0.069123
0.978547 0.930645 0.070630
0.074585 0.835953 0.066577
0.079561 0.838612 0.066588
0.126702 0.848060 0.066646
0.293918 0.863971 0.066824
0.582161 0.880163 0.067088
0.825438 0.900866 0.067704
0.928492 0.926233 0.068407
0.963477 0.944954 0.069627
0.978748 0.958588 0.071209
0.077513 0.924610 0.066813
0.083941 0.925567 0.066842
0.140872 0.928968 0.066940
0.310519 0.935081 0.067125
0.596786 0.943898 0.067568
0.833197 0.952176 0.068153
0.930136 0.960465 0.069061
0.964050 0.965358 0.070296
0.978992 0.971133 0.072073
0.082076 0.962535 0.067190
0.090347 0.962802 0.067228
0.162591 0.963753 0.067365
0.330414 0.965018 0.067729
0.614099 0.966717 0.068150
0.841398 0.970115 0.068814
0.931751 0.974931 0.069788
0.964725 0.978984 0.071149
0.979280 0.983416 0.073523
0.071567 0.071941 0.070924
0.072561 0.071941 0.070989
0.099131 0.072188 0.071219
0.253488 0.074498 0.071695
0.544299 0.089853 0.072738
0.805937 0.175611 0.074373
0.923055 0.353770 0.077923
0.962038 0.563338 0.083010
0.978136 0.722235 0.089595
0.071567 0.071941 0.070958
0.072587 0.072029 0.071022
0.099523 0.072682 0.071252
0.254267 0.076126 0.071734
0.545369 0.097454 0.072797
0.806320 0.194826 0.074474
0.923178 0.384388 0.078034
0.962066 0.582041 0.083147
0.978148 0.739935 0.089787
0.071567 0.074407 0.071079
0.072713 0.074850 0.071143
0.100921 0.078672 0.071378
0.257068 0.093145 0.071879
0.549015 0.153908 0.073007
0.807694 0.287422 0.074837
0.923588 0.481548 0.078434
0.962168 0.632274 0.083659
0.978191 0.792260 0.090476
0.071500 0.116795 0.071299
0.073533 0.123542 0.071367
0.103008 0.148934 0.071638
0.262230 0.208075 0.072278
0.553704 0.315145 0.073390
0.810217 0.471932 0.075514
0.924287 0.603708 0.079164
0.962354 0.738458 0.084605
0.978270 0.837621 0.091744
0.071775 0.341861 0.071681
0.074938 0.355007 0.071756
0.106673 0.400325 0.072111
0.269976 0.475623 0.072865
0.560710 0.558443 0.073953
0.813979 0.642482 0.076637
0.925327 0.760107 0.080433
0.962632 0.835080 0.086013
0.978388 0.882332 0.093663
0.072603 0.628470 0.072386
0.076805 0.634234 0.072500
0.114319 0.654807 0.072906
0.280484 0.699338 0.073637
0.570162 0.772369 0.075266
0.819040 0.819533 0.078135
0.926726 0.863491 0.082281
0.963005 0.895894 0.087968
0.978547 0.930833 0.096898
0.074585 0.836490 0.073382
0.079561 0.839146 0.073492
0.126702 0.848585 0.073883
0.293918 0.864322 0.075071
0.582161 0.880300 0.077175
0.825438 0.901226 0.080129
0.928492 0.926424 0.084674
0.963477 0.945093 0.090409
0.978748 0.958687 0.101049
0.077513 0.924803 0.075002
0.083941 0.925759 0.075194
0.140872 0.929157 0.075950
0.310519 0.935265 0.077379
0.596786 0.944074 0.079480
0.833197 0.952281 0.082997
0.930136 0.960521 0.087769
0.964050 0.965393 0.094609
0.978992 0.971194 0.106171
0.082076 0.962589 0.077737
0.090347 0.962855 0.077951
0.162591 0.963806 0.078715
0.330414 0.965053 0.080252
0.614099 0.966751 0.082868
0.841398 0.970176 0.086679
0.931751 0.974971 0.091493
0.964725 0.979022 0.100609
0.979280 0.983448 0.112323
0.071567 0.071941 0.173000
0.072561 0.071941 0.173983
0.099131 0.072260 0.177537
0.253488 0.074663 0.184175
0.544299 0.090952 0.194484
0.805937 0.178842 0.208913
0.923055 0.358860 0.228062
0.962038 0.566465 0.253372
0.978136 0.724974 0.287883
0.071567 0.071964 0.173513
0.072587 0.072061 0.174497
0.099523 0.072805 0.178057
0.254267 0.076618 0.184705
0.545369 0.098811 0.195037
0.806320 0.198880 0.209488
0.923178 0.388954 0.228665
0.962066 0.584232 0.254077
0.978148 0.742673 0.288642
0.071567 0.074576 0.175361
0.072713 0.075006 0.176351
0.100921 0.079118 0.179930
0.257068 0.094342 0.186636
0.549015 0.156733 0.197033
0.807694 0.293263 0.211561
0.923588 0.484638 0.230836
0.962168 0.634410 0.256619
0.978191 0.793673 0.291377
0.071500 0.119293 0.178789
0.073533 0.126071 0.179789
0.103008 0.151724 0.183405
0.262230 0.212269 0.190231
0.553704 0.318905 0.200733
0.810217 0.475017 0.215404
0.924287 0.605875 0.234861
0.962354 0.741197 0.261333
0.978270 0.838605 0.296449
0.071775 0.346437 0.183983
0.074938 0.360106 0.184997
0.106673 0.404969 0.188720
0.269976 0.478709 0.195678
0.560710 0.561568 0.206337
0.813979 0.644606 0.221221
0.925327 0.762845 0.240951
0.962632 0.836069 0.268479
0.978388 0.883023 0.304130
0.072603 0.630609 0.191214
0.076805 0.636368 0.192266
0.114319 0.656919 0.196068
0.280484 0.702078 0.203168
0.570162 0.775107 0.214040
0.819040 0.820551 0.229212
0.926726 0.864138 0.249650
0.963005 0.896565 0.278311
0.978547 0.931178 0.314690
0.074585 0.837476 0.200651
0.079561 0.840128 0.201730
0.126702 0.849550 0.205630
0.293918 0.864967 0.212911
0.582161 0.880551 0.224055
0.825438 0.901888 0.239595
0.928492 0.926777 0.261681
0.963477 0.945348 0.291112
0.978748 0.958870 0.326584
0.077513 0.925158 0.212510
0.083941 0.926113 0.213622
0.140872 0.929505 0.217643
0.310519 0.935602 0.225145
0.596786 0.944397 0.236622
0.833197 0.952474 0.253305
0.930136 0.960623 0.276824
0.964050 0.965457 0.307204
0.978992 0.971306 0.340814
0.082076 0.962688 0.227059
0.090347 0.962954 0.228211
0.162591 0.963903 0.232376
0.330414 0.965118 0.240143
0.614099 0.966814 0.252643
0.841398 0.970290 0.271006
0.931751 0.975046 0.295442
0.964725 0.979092 0.325370
0.979280 0.983506 0.358094
0.071567 0.071941 0.540618
0.072561 0.071941 0.541491
0.099131 0.072359 0.544630
0.253488 0.074902 0.550411
0.544299 0.092585 0.559071
0.805937 0.183116 0.570798
0.923055 0.366505 0.585753
0.962038 0.571146 0.604085
0.978136 0.729071 0.625931
0.071567 0.072022 0.541074
0.072587 0.072132 0.541947
0.099523 0.073025 0.545086
0.254267 0.077338 0.550868
0.545369 0.101195 0.559528
0.806320 0.205025 0.571257
0.923178 0.395825 0.586214
0.962066 0.587506 0.604547
0.978148 0.746770 0.626395
0.071567 0.074818 0.542713
0.072713 0.075303 0.543586
0.100921 0.079813 0.546726
0.257068 0.096204 0.552509
0.549015 0.161086 0.561173
0.807694 0.299584 0.572906
0.923588 0.489262 0.587868
0.962168 0.637599 0.606206
0.978191 0.795622 0.628061
0.071500 0.123036 0.545729
0.073533 0.129887 0.546603
0.103008 0.155935 0.549745
0.262230 0.218627 0.555532
0.553704 0.324558 0.564201
0.810217 0.479634 0.575941
0.924287 0.609111 0.590912
0.962354 0.745293 0.609262
0.978270 0.840075 0.631129
0.071775 0.353986 0.550245
0.074938 0.367593 0.551120
0.106673 0.411957 0.554265
0.269976 0.483330 0.560057
0.560710 0.566246 0.568735
0.813979 0.647780 0.580485
0.925327 0.766941 0.595469
0.962632 0.837545 0.613835
0.978388 0.884058 0.635348
0.072603 0.633805 0.556354
0.076805 0.639554 0.557230
0.114319 0.660074 0.560379
0.280484 0.706176 0.566179
0.570162 0.779202 0.574867
0.819040 0.822070 0.586632
0.926726 0.865102 0.601634
0.963005 0.897566 0.620022
0.978547 0.931692 0.638184
0.074585 0.838949 0.564135
0.079561 0.841594 0.565012
0.126702 0.850990 0.568166
0.293918 0.865930 0.573975
0.582161 0.880925 0.582677
0.825438 0.902876 0.594460
0.928492 0.927302 0.609486
0.963477 0.945728 0.627900
0.978748 0.959143 0.641775
0.077513 0.925688 0.573657
0.083941 0.926640 0.574537
0.140872 0.930023 0.577697
0.310519 0.936105 0.583517
0.596786 0.944787 0.592236
0.833197 0.952761 0.604041
0.930136 0.960776 0.619094
0.964050 0.965553 0.636181
0.978992 0.971474 0.646136
0.082076 0.962836 0.584986
0.090347 0.963102 0.585868
0.162591 0.964047 0.589035
0.330414 0.965215 0.594868
0.614099 0.966907 0.603606
0.841398 0.970459 0.615437
0.931751 0.975158 0.630522
0.964725 0.979196 0.641397
0.979280 0.983592 0.654594
0.071567 0.071941 0.808967
0.072561 0.071954 0.809319
0.099131 0.072507 0.810582
0.253488 0.075247 0.812901
0.544299 0.094973 0.816357
0.805937 0.188947 0.821003
0.923055 0.375574 0.826875
0.962038 0.577477 0.833993
0.978136 0.734607 0.842363
0.071567 0.072086 0.809151
0.072587 0.072280 0.809503
0.099523 0.073301 0.810765
0.254267 0.078277 0.813084
0.545369 0.105141 0.816539
0.806320 0.213483 0.821184
0.923178 0.405190 0.827055
0.962066 0.591920 0.834171
0.978148 0.752305 0.842539
0.071567 0.075130 0.809811
0.072713 0.076234 0.810162
0.100921 0.081267 0.811424
0.257068 0.098901 0.813740
0.549015 0.168612 0.817193
0.807694 0.307065 0.821835
0.923588 0.495517 0.827701
0.962168 0.641902 0.834811
0.978191 0.798205 0.843173
0.071500 0.128158 0.811024
0.073533 0.135107 0.811375
0.103008 0.161983 0.812634
0.262230 0.227408 0.814947
0.553704 0.332253 0.818394
0.810217 0.485879 0.823029
0.924287 0.613475 0.828887
0.962354 0.750829 0.835987
0.978270 0.842054 0.844337
0.071775 0.364316 0.812834
0.074938 0.376673 0.813184
0.106673 0.421481 0.814441
0.269976 0.489578 0.816749
0.560710 0.572572 0.820189
0.813979 0.652061 0.824814
0.925327 0.772475 0.830658
0.962632 0.839534 0.837743
0.978388 0.885453 0.846076
0.072603 0.638116 0.815275
0.076805 0.643852 0.815624
0.114319 0.664330 0.816877
0.280484 0.711713 0.819178
0.570162 0.782516 0.822607
0.819040 0.824117 0.827218
0.926726 0.866402 0.833046
0.963005 0.898915 0.840111
0.978547 0.932385 0.848420
0.074585 0.840932 0.818368
0.079561 0.843567 0.818716
0.126702 0.852931 0.819964
0.293918 0.867226 0.822256
0.582161 0.881429 0.825673
0.825438 0.904208 0.830267
0.928492 0.928010 0.836073
0.963477 0.946241 0.843112
0.978748 0.959511 0.851392
0.077513 0.926402 0.822131
0.083941 0.927351 0.822477
0.140872 0.930722 0.823720
0.310519 0.936784 0.826001
0.596786 0.945303 0.829402
0.833197 0.953149 0.833976
0.930136 0.960982 0.839756
0.964050 0.965683 0.846764
0.978992 0.971699 0.855008
0.082076 0.963035 0.826576
0.090347 0.963300 0.826920
0.162591 0.964181 0.828156
0.330414 0.965345 0.830425
0.614099 0.967033 0.833808
0.841398 0.970688 0.838357
0.931751 0.975308 0.844107
0.964725 0.979337 0.851079
0.979280 0.983709 0.859281
0.071567 0.071948 0.923866
0.072561 0.072050 0.923930
0.099131 0.072747 0.924159
0.253488 0.076435 0.924580
0.544299 0.098303 0.925207
0.805937 0.197358 0.926048
0.923055 0.387243 0.927111
0.962038 0.583413 0.928397
0.978136 0.741648 0.929906
0.071567 0.072272 0.923900
0.072587 0.072444 0.923963
0.099523 0.073729 0.924193
0.254267 0.079425 0.924613
0.545369 0.111690 0.925240
0.806320 0.224526 0.926081
0.923178 0.417235 0.927143
0.962066 0.597519 0.928429
0.978148 0.759345 0.929938
0.071567 0.076171 0.924019
0.072713 0.077476 0.924083
0.100921 0.083265 0.924312
0.257068 0.103111 0.924732
0.549015 0.178079 0.925358
0.807694 0.316675 0.926199
0.923588 0.503481 0.927260
0.962168 0.647360 0.928544
0.978191 0.801308 0.930052
0.071500 0.134779 0.924239
0.073533 0.141851 0.924303
0.103008 0.171613 0.924532
0.262230 0.237534 0.924951
0.553704 0.342131 0.925576
0.810217 0.493831 0.926415
0.924287 0.619012 0.927474
0.962354 0.757868 0.928756
0.978270 0.844561 0.930261
0.071775 0.376104 0.924568
0.074938 0.388356 0.924632
0.106673 0.433725 0.924859
0.269976 0.497535 0.925278
0.560710 0.579978 0.925901
0.813979 0.657493 0.926738
0.925327 0.779514 0.927795
0.962632 0.842052 0.929073
0.978388 0.887220 0.930574
0.072603 0.643584 0.925011
0.076805 0.649306 0.925074
0.114319 0.669916 0.925301
0.280484 0.718756 0.925718
0.570162 0.786185 0.926339
0.819040 0.826708 0.927173
0.926726 0.868047 0.928226
0.963005 0.900624 0.929500
0.978547 0.933263 0.930996
0.074585 0.843445 0.925571
0.079561 0.846068 0.925634
0.126702 0.855389 0.925860
0.293918 0.868866 0.926275
0.582161 0.882066 0.926893
0.825438 0.905896 0.927724
0.928492 0.928908 0.928772
0.963477 0.946891 0.930041
0.978748 0.959977 0.931530
0.077513 0.927307 0.926253
0.083941 0.928251 0.926315
0.140872 0.931608 0.926540
0.310519 0.937643 0.926953
0.596786 0.945957 0.927568
0.833197 0.953640 0.928394
0.930136 0.961242 0.929436
0.964050 0.965847 0.930698
0.978992 0.971986 0.932180
0.082076 0.963288 0.927057
0.090347 0.963552 0.927119
0.162591 0.964351 0.927342
0.330414 0.965511 0.927752
0.614099 0.967192 0.928363
0.841398 0.970977 0.929184
0.931751 0.975499 0.930220
0.964725 0.979516 0.931474
0.979280 0.983857 0.932947
0.071567 0.072064 0.959103
0.072561 0.072228 0.959150
0.099131 0.073201 0.959321
0.253488 0.077933 0.959635
0.544299 0.103329 0.960102
0.805937 0.210322 0.960732
0.923055 0.401702 0.961528
0.962038 0.590282 0.962493
0.978136 0.750249 0.963631
0.071567 0.072487 0.959127
0.072587 0.072734 0.959175
0.099523 0.074304 0.959346
0.254267 0.081521 0.959659
0.545369 0.119735 0.960127
0.806320 0.237254 0.960756
0.923178 0.432151 0.961552
0.962066 0.604337 0.962518
0.978148 0.767944 0.963655
0.071567 0.077684 0.959217
0.072713 0.078914 0.959264
0.100921 0.085632 0.959435
0.257068 0.110892 0.959748
0.549015 0.187081 0.960215
0.807694 0.328556 0.960844
0.923588 0.513224 0.961639
0.962168 0.654010 0.962605
0.978191 0.804612 0.963741
0.071500 0.143027 0.959381
0.073533 0.150440 0.959428
0.103008 0.181968 0.959599
0.262230 0.247492 0.959911
0.553704 0.357622 0.960378
0.810217 0.503560 0.961006
0.924287 0.625755 0.961800
0.962354 0.766468 0.962764
0.978270 0.847609 0.963899
0.071775 0.390388 0.959626
0.074938 0.402833 0.959673
0.106673 0.448282 0.959843
0.269976 0.507269 0.960155
0.560710 0.586860 0.960621
0.813979 0.664110 0.961248
0.925327 0.784278 0.962041
0.962632 0.845114 0.963003
0.978388 0.889368 0.964136
0.072603 0.650246 0.959956
0.076805 0.655949 0.960003
0.114319 0.678523 0.960173
0.280484 0.727359 0.960484
0.570162 0.790646 0.960949
0.819040 0.829857 0.961574
0.926726 0.870045 0.962365
0.963005 0.902703 0.963325
0.978547 0.934331 0.964455
0.074585 0.846498 0.960375
0.079561 0.849107 0.960422
0.126702 0.858378 0.960591
0.293918 0.870860 0.960901
0.582161 0.883760 0.961364
0.825438 0.907948 0.961988
0.928492 0.929998 0.962776
0.963477 0.947682 0.963733
0.978748 0.960370 0.964859
0.077513 0.928406 0.960884
0.083941 0.929345 0.960931
0.140872 0.932684 0.961100
0.310519 0.938689 0.961409
0.596786 0.946752 0.961870
0.833197 0.954237 0.962491
0.930136 0.961559 0.963276
0.964050 0.966047 0.964229
0.978992 0.972334 0.965352
0.082076 0.963595 0.961487
0.090347 0.963858 0.961534
0.162591 0.964557 0.961701
0.330414 0.965712 0.962009
0.614099 0.967386 0.962468
0.841398 0.971330 0.963086
0.931751 0.975732 0.963868
0.964725 0.979734 0.964817
0.979280 0.984038 0.965934
0.071567 0.072299 0.979017
0.072561 0.072484 0.979026
0.099131 0.073807 0.979059
0.253488 0.079602 0.979120
0.544299 0.112741 0.979211
0.805937 0.226305 0.979333
0.923055 0.419156 0.979489
0.962038 0.598404 0.979677
0.978136 0.760459 0.979899
0.071567 0.072891 0.979021
0.072587 0.073268 0.979031
0.099523 0.074918 0.979064
0.254267 0.084391 0.979125
0.545369 0.129152 0.979216
0.806320 0.249086 0.979338
0.923178 0.449258 0.979493
0.962066 0.612400 0.979682
0.978148 0.778153 0.979904
0.071567 0.079369 0.979039
0.072713 0.081071 0.979048
0.100921 0.088907 0.979081
0.257068 0.120427 0.979142
0.549015 0.199448 0.979233
0.807694 0.342861 0.979355
0.923588 0.524809 0.979510
0.962168 0.661876 0.979699
0.978191 0.808507 0.979921
0.071500 0.153330 0.979071
0.073533 0.161070 0.979080
0.103008 0.192747 0.979113
0.262230 0.259481 0.979174
0.553704 0.375433 0.979265
0.810217 0.515128 0.979387
0.924287 0.633731 0.979542
0.962354 0.776677 0.979730
0.978270 0.851205 0.979952
0.071775 0.407636 0.979118
0.074938 0.420308 0.979127
0.106673 0.462376 0.979161
0.269976 0.518844 0.979221
0.560710 0.594997 0.979312
0.813979 0.672802 0.979434
0.925327 0.789583 0.979589
0.962632 0.848726 0.979776
0.978388 0.891903 0.979998
0.072603 0.658127 0.979182
0.076805 0.663808 0.979192
0.114319 0.688740 0.979225
0.280484 0.737571 0.979285
0.570162 0.795740 0.979376
0.819040 0.833572 0.979498
0.926726 0.872402 0.979652
0.963005 0.905158 0.979839
0.978547 0.935592 0.980060
0.074585 0.850102 0.979264
0.079561 0.852693 0.979273
0.126702 0.861815 0.979306
0.293918 0.873210 0.979366
0.582161 0.886331 0.979457
0.825438 0.910372 0.979578
0.928492 0.931286 0.979732
0.963477 0.948615 0.979919
0.978748 0.960751 0.980139
0.077513 0.929703 0.979363
0.083941 0.930637 0.979372
0.140872 0.933955 0.979405
0.310519 0.939923 0.979465
0.596786 0.947691 0.979555
0.833197 0.954942 0.979676
0.930136 0.961934 0.979830
0.964050 0.966283 0.980016
0.978992 0.972746 0.980236
0.082076 0.963959 0.979481
0.090347 0.964164 0.979490
0.162591 0.964801 0.979522
0.330414 0.965950 0.979582
0.614099 0.967636 0.979672
0.841398 0.971746 0.979793
0.931751 0.976007 0.979945
0.964725 0.979991 0.980131
0.979280 0.984251 0.980350
