provia100f/Provia100F_Classic_ExtraSoft.cube
TITLE "Fuji Provia 100F Classic ExtraSoft"
# Adobe RGB in/out. REPLACES AgX. Fuji Provia 100F Classic ExtraSoft.
LUT_3D_SIZE 5
DOMAIN_MIN 0.0 0.0 0.0
DOMAIN_MAX 1.0 1.0 1.0
0.065446 0.069518 0.085077
0.113389 0.069518 0.085077
0.793075 0.070368 0.085074
0.886077 0.073489 0.085275
0.902425 0.386310 0.527450
0.065446 0.072647 0.085077
0.068164 0.075382 0.085076
0.634021 0.086581 0.085096
0.877808 0.117378 0.085322
0.902425 0.386352 0.527444
0.065446 0.443904 0.085074
0.065997 0.492892 0.085099
0.204304 0.548247 0.085242
0.824971 0.603818 0.085843
0.901611 0.690731 0.097361
0.065419 0.780069 0.085107
0.065739 0.790465 0.085196
0.088806 0.815736 0.085661
0.663424 0.830381 0.086919
0.898568 0.851668 0.091128
0.065446 0.871211 0.085075
0.065446 0.889351 0.085075
0.068386 0.901925 0.085203
0.364466 0.902661 0.085984
0.900393 0.905945 0.086651
0.065446 0.069518 0.089247
0.087594 0.069518 0.112606
0.804627 0.070927 0.107020
0.885876 0.075468 0.128408
0.902425 0.386352 0.527516
0.065411 0.072275 0.087809
0.084878 0.078458 0.092066
0.717374 0.088165 0.093582
0.880171 0.121345 0.103728
0.902425 0.386352 0.527445
0.065661 0.417296 0.087791
0.068864 0.466421 0.089628
0.397067 0.528967 0.092303
0.849485 0.595284 0.098474
0.901540 0.695561 0.259402
0.065699 0.777255 0.087518
0.067044 0.784181 0.088977
0.136072 0.808059 0.092501
0.735030 0.825063 0.100347
0.899263 0.851585 0.118241
0.065446 0.874225 0.085480
0.065446 0.892151 0.085480
0.069935 0.900899 0.086517
0.424907 0.901976 0.091028
0.901462 0.905785 0.093790
0.065446 0.069627 0.498059
0.084433 0.070612 0.658686
0.780881 0.073622 0.661019
0.883553 0.087277 0.681968
0.902425 0.386353 0.732613
0.065495 0.075767 0.492820
0.080126 0.083290 0.595139
0.712412 0.100410 0.622033
0.879043 0.159645 0.662744
0.902425 0.386364 0.716779
0.066821 0.419712 0.441104
0.074402 0.465606 0.472433
0.533457 0.546341 0.546883
0.860017 0.603422 0.594607
0.901277 0.710066 0.710241
0.067386 0.774971 0.406032
0.071454 0.779744 0.434290
0.264516 0.801669 0.481125
0.801253 0.821483 0.528736
0.899793 0.853415 0.650733
0.065446 0.883922 0.469054
0.065446 0.890231 0.469049
0.079460 0.898830 0.399804
0.531670 0.900892 0.460033
0.902123 0.906223 0.527509
0.065446 0.071392 0.814571
0.072967 0.075825 0.832211
0.750957 0.088483 0.834346
0.881432 0.120555 0.837608
0.902425 0.386278 0.839320
0.065528 0.087044 0.815696
0.074932 0.101943 0.828544
0.703238 0.148523 0.831813
0.877828 0.249297 0.836290
0.902423 0.385624 0.837017
0.068304 0.478196 0.797116
0.079993 0.516326 0.810021
0.557857 0.570448 0.825305
0.863731 0.625775 0.829712
0.901070 0.726479 0.843200
0.068869 0.778592 0.777936
0.075298 0.786172 0.784342
0.347302 0.806769 0.800787
0.819981 0.826486 0.815494
0.900034 0.857044 0.839124
0.065446 0.884988 0.731623
0.065446 0.892315 0.732295
0.081160 0.900260 0.776411
0.550468 0.902225 0.784379
0.902270 0.907866 0.822972
0.068517 0.075351 0.904606
0.171267 0.078260 0.904618
0.841704 0.088080 0.904717
0.889603 0.099572 0.905148
0.902425 0.406212 0.903959
0.071830 0.094085 0.904220
0.188881 0.100373 0.904271
0.831981 0.132590 0.904457
0.888578 0.177873 0.904955
0.902425 0.415221 0.905324
0.083624 0.511987 0.903321
0.195836 0.524877 0.903510
0.790482 0.559855 0.903901
0.884110 0.601256 0.904534
0.902349 0.724449 0.906298
0.072450 0.789855 0.903233
0.094493 0.794705 0.903514
0.621994 0.807443 0.904055
0.872026 0.821194 0.904726
0.902156 0.855616 0.906194
0.065446 0.880957 0.866231
0.065446 0.893440 0.879909
0.068470 0.907135 0.901511
0.501275 0.906471 0.905962
0.902425 0.910057 0.906664
