provia100f/Provia100F_Classic_ExtraPunchy.cube
TITLE "Fuji Provia 100F Classic ExtraPunchy"
# Adobe RGB in/out. REPLACES AgX. Fuji Provia 100F Classic ExtraPunchy.
LUT_3D_SIZE 5
DOMAIN_MIN 0.0 0.0 0.0
DOMAIN_MAX 1.0 1.0 1.0
0.071567 0.071941 0.066283
0.099131 0.072135 0.066283
0.544299 0.089087 0.066293
0.923055 0.350255 0.066466
0.978136 0.720332 0.067828
0.071567 0.074287 0.066283
0.100921 0.078358 0.066283
0.549015 0.151957 0.066298
0.923588 0.479402 0.066499
0.978191 0.791277 0.067952
0.071775 0.339182 0.066282
0.106673 0.397112 0.066281
0.560710 0.556272 0.066334
0.925327 0.758205 0.066604
0.978388 0.882161 0.068198
0.074585 0.835803 0.066305
0.126702 0.847914 0.066330
0.582161 0.880125 0.066416
0.928492 0.926179 0.067014
0.978748 0.958560 0.069141
0.082076 0.962520 0.066454
0.162591 0.963738 0.066516
0.614099 0.966708 0.066835
0.931751 0.974919 0.068092
0.979280 0.983408 0.070589
0.071567 0.071941 0.070924
0.099131 0.072188 0.071219
0.544299 0.089853 0.072738
0.923055 0.353770 0.077923
0.978136 0.722235 0.089595
0.071567 0.074407 0.071079
0.100921 0.078672 0.071378
0.549015 0.153908 0.073007
0.923588 0.481548 0.078434
0.978191 0.792260 0.090476
0.071775 0.341861 0.071681
0.106673 0.400325 0.072111
0.560710 0.558443 0.073953
0.925327 0.760107 0.080433
0.978388 0.882332 0.093663
0.074585 0.836490 0.073382
0.126702 0.848585 0.073883
0.582161 0.880300 0.077175
0.928492 0.926424 0.084674
0.978748 0.958687 0.101049
0.082076 0.962589 0.077737
0.162591 0.963806 0.078715
0.614099 0.966751 0.082868
0.931751 0.974971 0.091493
0.979280 0.983448 0.112323
0.071567 0.071941 0.540618
0.099131 0.072359 0.544630
0.544299 0.092585 0.559071
0.923055 0.366505 0.585753
0.978136 0.729071 0.625931
0.071567 0.074818 0.542713
0.100921 0.079813 0.546726
0.549015 0.161086 0.561173
0.923588 0.489262 0.587868
0.978191 0.795622 0.628061
0.071775 0.353986 0.550245
0.106673 0.411957 0.554265
0.560710 0.566246 0.568735
0.925327 0.766941 0.595469
0.978388 0.884058 0.635348
0.074585 0.838949 0.564135
0.126702 0.850990 0.568166
0.582161 0.880925 0.582677
0.928492 0.927302 0.609486
0.978748 0.959143 0.641775
0.082076 0.962836 0.584986
0.162591 0.964047 0.589035
0.614099 0.966907 0.603606
0.931751 0.975158 0.630522
0.979280 0.983592 0.654594
0.071567 0.071948 0.923866
0.099131 0.072747 0.924159
0.544299 0.098303 0.925207
0.923055 0.387243 0.927111
0.978136 0.741648 0.929906
0.071567 0.076171 0.924019
0.100921 0.083265 0.924312
0.549015 0.178079 0.925358
0.923588 0.503481 0.927260
0.978191 0.801308 0.930052
0.071775 0.376104 0.924568
0.106673 0.433725 0.924859
0.560710 0.579978 0.925901
0.925327 0.779514 0.927795
0.978388 0.887220 0.930574
0.074585 0.843445 0.925571
0.126702 0.855389 0.925860
0.582161 0.882066 0.926893
0.928492 0.928908 0.928772
0.978748 0.959977 0.931530
0.082076 0.963288 0.927057
0.162591 0.964351 0.927342
0.614099 0.967192 0.928363
0.931751 0.975499 0.930220
0.979280 0.983857 0.932947
0.071567 0.072299 0.979017
0.099131 0.073807 0.979059
0.544299 0.112741 0.979211
0.923055 0.419156 0.979489
0.978136 0.760459 0.979899
0.071567 0.079369 0.979039
0.100921 0.088907 0.979081
0.549015 0.199448 0.979233
0.923588 0.524809 0.979510
0.978191 0.808507 0.979921
0.071775 0.407636 0.979118
0.106673 0.462376 0.979161
0.560710 0.594997 0.979312
0.925327 0.789583 0.979589
0.978388 0.891903 0.979998
0.074585 0.850102 0.979264
0.126702 0.861815 0.979306
0.582161 0.886331 0.979457
0.928492 0.931286 0.979732
0.978748 0.960751 0.980139
0.082076 0.963959 0.979481
0.162591 0.964801 0.979522
0.614099 0.967636 0.979672
0.931751 0.976007 0.979945
0.979280 0.984251 0.980350
