provia100f/Provia100F_Classic_Soft.cube
TITLE "Fuji Provia 100F Classic Soft"
# Adobe RGB in/out. REPLACES AgX. Fuji Provia 100F Classic Soft.
LUT_3D_SIZE 9
DOMAIN_MIN 0.0 0.0 0.0
DOMAIN_MAX 1.0 1.0 1.0
0.087707 0.088067 0.091802
0.087805 0.088067 0.091802
0.104623 0.088077 0.091802
0.282273 0.089398 0.091801
0.520374 0.112800 0.091823
0.726231 0.215635 0.091867
0.842236 0.385355 0.091952
0.914335 0.535293 0.092075
0.947815 0.672025 0.092317
0.087707 0.088067 0.091802
0.087810 0.088067 0.091802
0.105002 0.088144 0.091802
0.283247 0.092054 0.091802
0.520997 0.123998 0.091825
0.726483 0.242148 0.091870
0.842443 0.402341 0.091955
0.914372 0.550978 0.092078
0.947834 0.683212 0.092324
0.087707 0.089256 0.091802
0.087827 0.090128 0.091802
0.105714 0.095427 0.091802
0.286753 0.117702 0.091805
0.522997 0.190448 0.091831
0.727388 0.330002 0.091878
0.843188 0.471832 0.091965
0.914507 0.606518 0.092089
0.947905 0.715422 0.092349
0.087708 0.141328 0.091802
0.087864 0.148583 0.091802
0.107883 0.182608 0.091801
0.293228 0.257235 0.091810
0.526436 0.354447 0.091843
0.729048 0.465243 0.091892
0.844556 0.574988 0.091982
0.914753 0.682282 0.092109
0.948036 0.761976 0.092393
0.087744 0.378896 0.091801
0.088381 0.385996 0.091802
0.113016 0.411443 0.091808
0.308670 0.467777 0.091827
0.531562 0.531484 0.091857
0.731521 0.615234 0.091917
0.846596 0.695859 0.092011
0.915121 0.759267 0.092141
0.948230 0.823141 0.092456
0.087812 0.602600 0.091812
0.089133 0.608193 0.091814
0.117911 0.625738 0.091828
0.320028 0.657420 0.091849
0.538454 0.702416 0.091887
0.734139 0.742720 0.091957
0.849343 0.788216 0.092058
0.915616 0.834588 0.092226
0.948492 0.868408 0.092579
0.088243 0.760770 0.091842
0.090073 0.763604 0.091845
0.127470 0.771808 0.091855
0.333983 0.789553 0.091883
0.547166 0.816735 0.091932
0.737419 0.839083 0.092003
0.852612 0.863014 0.092111
0.916242 0.886121 0.092346
0.948824 0.911231 0.092911
0.089416 0.861033 0.091881
0.092382 0.862201 0.091885
0.144103 0.866357 0.091899
0.351061 0.873839 0.091938
0.557729 0.884656 0.091989
0.741383 0.898624 0.092075
0.855954 0.915427 0.092211
0.917002 0.927427 0.092480
0.949227 0.933863 0.093347
0.091198 0.922639 0.091947
0.097154 0.923573 0.091953
0.166574 0.925830 0.091972
0.371372 0.927192 0.092006
0.570156 0.929209 0.092072
0.749703 0.932953 0.092152
0.859887 0.937472 0.092384
0.917896 0.942666 0.092877
0.949703 0.948424 0.094167
0.087707 0.088067 0.091861
0.087805 0.088067 0.091866
0.104623 0.088078 0.091882
0.282273 0.089448 0.091911
0.520374 0.113044 0.091967
0.726231 0.216219 0.092046
0.842236 0.385753 0.092150
0.914335 0.535661 0.092426
0.947815 0.672288 0.093134
0.087707 0.088067 0.091864
0.087810 0.088067 0.091868
0.105002 0.088146 0.091884
0.283247 0.092119 0.091914
0.520997 0.124273 0.091970
0.726483 0.242845 0.092050
0.842443 0.402738 0.092153
0.914372 0.551344 0.092433
0.947834 0.683473 0.093152
0.087707 0.089277 0.091872
0.087827 0.090199 0.091877
0.105714 0.095546 0.091891
0.286753 0.117979 0.091925
0.522997 0.191123 0.091979
0.727388 0.330551 0.092062
0.843188 0.472151 0.092180
0.914507 0.606794 0.092455
0.947905 0.715593 0.093235
0.087708 0.141650 0.091887
0.087864 0.149015 0.091891
0.107883 0.183269 0.091906
0.293228 0.257952 0.091945
0.526436 0.355005 0.091996
0.729048 0.465564 0.092083
0.844556 0.575353 0.092230
0.914753 0.682543 0.092496
0.948036 0.762135 0.093418
0.087744 0.379295 0.091909
0.088381 0.386394 0.091916
0.113016 0.411840 0.091937
0.308670 0.468097 0.091973
0.531562 0.531852 0.092031
0.731521 0.615509 0.092113
0.846596 0.696118 0.092301
0.915121 0.759427 0.092640
0.948230 0.823230 0.093683
0.087812 0.602962 0.091951
0.089133 0.608469 0.091956
0.117911 0.626010 0.091975
0.320028 0.657686 0.092011
0.538454 0.702591 0.092075
0.734139 0.742884 0.092159
0.849343 0.788374 0.092392
0.915616 0.834674 0.092899
0.948492 0.868472 0.094196
0.088243 0.760930 0.091995
0.090073 0.763762 0.092001
0.127470 0.771932 0.092026
0.333983 0.789710 0.092069
0.547166 0.816886 0.092129
0.737419 0.839168 0.092286
0.852612 0.863079 0.092499
0.916242 0.886181 0.093225
0.948824 0.911286 0.094786
0.089416 0.861099 0.092067
0.092382 0.862267 0.092073
0.144103 0.866422 0.092095
0.351061 0.873902 0.092135
0.557729 0.884717 0.092251
0.741383 0.898681 0.092426
0.855954 0.915481 0.092861
0.917002 0.927433 0.093812
0.949227 0.933878 0.095834
0.091198 0.922691 0.092145
0.097154 0.923625 0.092151
0.166574 0.925848 0.092199
0.371372 0.927200 0.092292
0.570156 0.929225 0.092420
0.749703 0.932969 0.092708
0.859887 0.937487 0.093382
0.917896 0.942680 0.094693
0.949703 0.948437 0.097472
0.087707 0.088067 0.094353
0.087805 0.088067 0.094449
0.104623 0.088084 0.094801
0.282273 0.089626 0.095446
0.520374 0.113922 0.096585
0.726231 0.218322 0.098242
0.842236 0.387183 0.101530
0.914335 0.536982 0.106386
0.947815 0.673232 0.115946
0.087707 0.088067 0.094403
0.087810 0.088067 0.094500
0.105002 0.088152 0.094853
0.283247 0.092348 0.095496
0.520997 0.125262 0.096652
0.726483 0.245357 0.098305
0.842443 0.404164 0.101636
0.914372 0.552661 0.106562
0.947834 0.684410 0.116210
0.087707 0.089451 0.094584
0.087827 0.090453 0.094682
0.105714 0.095972 0.095038
0.286753 0.118972 0.095675
0.522997 0.193557 0.096890
0.727388 0.332523 0.098565
0.843188 0.473297 0.102016
0.914507 0.607786 0.107259
0.947905 0.716207 0.117157
0.087708 0.142895 0.094926
0.087864 0.150572 0.095024
0.107883 0.185652 0.095373
0.293228 0.260536 0.096065
0.526436 0.357014 0.097322
0.729048 0.466715 0.099226
0.844556 0.576662 0.102709
0.914753 0.683481 0.108591
0.948036 0.762706 0.118902
0.087744 0.380726 0.095428
0.088381 0.387824 0.095524
0.113016 0.413265 0.095877
0.308670 0.469246 0.096729
0.531562 0.533174 0.097958
0.731521 0.616494 0.100303
0.846596 0.697046 0.103734
0.915121 0.760000 0.110576
0.948230 0.823548 0.121515
0.087812 0.604263 0.096187
0.089133 0.609459 0.096316
0.117911 0.626987 0.096775
0.320028 0.658640 0.097601
0.538454 0.703219 0.098969
0.734139 0.743472 0.101732
0.849343 0.788939 0.105448
0.915616 0.834981 0.113234
0.948492 0.868702 0.125054
0.088243 0.761501 0.097313
0.090073 0.764332 0.097437
0.127470 0.772376 0.097879
0.333983 0.790274 0.098777
0.547166 0.817430 0.100816
0.737419 0.839471 0.103509
0.852612 0.863313 0.108688
0.916242 0.886396 0.117065
0.948824 0.911482 0.129652
0.089416 0.861334 0.098714
0.092382 0.862502 0.098890
0.144103 0.866653 0.099644
0.351061 0.874126 0.101012
0.557729 0.884933 0.103009
0.741383 0.898886 0.106369
0.855954 0.915674 0.112846
0.917002 0.927455 0.122552
0.949227 0.933933 0.134432
0.091198 0.922880 0.101353
0.097154 0.923813 0.101556
0.166574 0.925912 0.102283
0.371372 0.927226 0.103600
0.570156 0.929283 0.106203
0.749703 0.933024 0.111268
0.859887 0.937539 0.118556
0.917896 0.942729 0.129090
0.949703 0.948482 0.141925
0.087707 0.088067 0.202791
0.087805 0.088067 0.203696
0.104623 0.088094 0.206960
0.282273 0.089946 0.213020
0.520374 0.115325 0.222214
0.726231 0.222212 0.234882
0.842236 0.389814 0.252593
0.914335 0.539412 0.275461
0.947815 0.674967 0.303411
0.087707 0.088067 0.203263
0.087810 0.088067 0.204169
0.105002 0.088163 0.207437
0.283247 0.092763 0.213502
0.520997 0.127080 0.222704
0.726483 0.250011 0.235382
0.842443 0.406788 0.253158
0.914372 0.555082 0.276047
0.947834 0.686132 0.303976
0.087707 0.089776 0.204964
0.087827 0.090911 0.205873
0.105714 0.096745 0.209151
0.286753 0.120797 0.215236
0.522997 0.197954 0.224467
0.727388 0.336160 0.237185
0.843188 0.475403 0.255189
0.914507 0.609609 0.278159
0.947905 0.717336 0.306011
0.087708 0.145727 0.208108
0.087864 0.153449 0.209022
0.107883 0.190078 0.212320
0.293228 0.265323 0.218441
0.526436 0.360719 0.227726
0.729048 0.468831 0.240686
0.844556 0.579069 0.258947
0.914753 0.685204 0.282064
0.948036 0.763755 0.309769
0.087744 0.383359 0.212845
0.088381 0.390454 0.213768
0.113016 0.416237 0.217095
0.308670 0.471358 0.223270
0.531562 0.535607 0.232635
0.731521 0.618304 0.246171
0.846596 0.698753 0.264613
0.915121 0.761053 0.287950
0.948230 0.824133 0.315425
0.087812 0.606364 0.219315
0.089133 0.611280 0.220248
0.117911 0.628783 0.223615
0.320028 0.660394 0.229862
0.538454 0.704373 0.239397
0.734139 0.744553 0.253670
0.849343 0.789978 0.272357
0.915616 0.835546 0.295990
0.948492 0.869123 0.323133
0.088243 0.762552 0.227654
0.090073 0.765224 0.228601
0.127470 0.773192 0.232018
0.333983 0.791311 0.238356
0.547166 0.818429 0.248835
0.737419 0.840028 0.263354
0.852612 0.863744 0.282351
0.916242 0.886790 0.305814
0.948824 0.911843 0.333045
0.089416 0.861768 0.238008
0.092382 0.862933 0.239001
0.144103 0.867078 0.242800
0.351061 0.874540 0.249859
0.557729 0.885330 0.260587
0.741383 0.899263 0.275405
0.855954 0.916029 0.294778
0.917002 0.927493 0.317677
0.949227 0.934033 0.345317
0.091198 0.923226 0.251654
0.097154 0.924158 0.252733
0.166574 0.926031 0.256628
0.371372 0.927273 0.263863
0.570156 0.929389 0.274853
0.749703 0.933125 0.290023
0.859887 0.937635 0.309024
0.917896 0.942818 0.331994
0.949703 0.948565 0.360116
0.087707 0.088067 0.548084
0.087805 0.088067 0.548910
0.104623 0.088107 0.551880
0.282273 0.090607 0.557347
0.520374 0.118030 0.565529
0.726231 0.228083 0.575710
0.842236 0.393746 0.585112
0.914335 0.543044 0.596515
0.947815 0.677559 0.609936
0.087707 0.088067 0.548515
0.087810 0.088076 0.549342
0.105002 0.088178 0.552312
0.283247 0.093720 0.557779
0.520997 0.129797 0.565962
0.726483 0.257050 0.576000
0.842443 0.410712 0.585400
0.914372 0.558700 0.596800
0.947834 0.688704 0.610219
0.087707 0.090359 0.550066
0.087827 0.091576 0.550893
0.105714 0.097880 0.553863
0.286753 0.123524 0.559331
0.522997 0.203562 0.567515
0.727388 0.341620 0.577041
0.843188 0.478548 0.586434
0.914507 0.612330 0.597826
0.947905 0.719022 0.611235
0.087708 0.149995 0.552920
0.087864 0.157886 0.553747
0.107883 0.196797 0.556718
0.293228 0.272455 0.562187
0.526436 0.366278 0.570373
0.729048 0.471990 0.578954
0.844556 0.582668 0.588334
0.914753 0.687777 0.599711
0.948036 0.765179 0.613103
0.087744 0.387295 0.557190
0.088381 0.394387 0.558017
0.113016 0.422411 0.560990
0.308670 0.474512 0.566461
0.531562 0.539242 0.574406
0.731521 0.621007 0.581810
0.846596 0.700925 0.591172
0.915121 0.762626 0.602527
0.948230 0.825006 0.615894
0.087812 0.609093 0.562963
0.089133 0.613998 0.563791
0.117911 0.631465 0.566765
0.320028 0.663013 0.572239
0.538454 0.706094 0.578277
0.734139 0.746167 0.585661
0.849343 0.791529 0.594998
0.915616 0.836389 0.606323
0.948492 0.869753 0.620203
0.088243 0.764121 0.570310
0.090073 0.766464 0.571139
0.127470 0.774410 0.574047
0.333983 0.792859 0.577715
0.547166 0.819921 0.583186
0.737419 0.840860 0.590544
0.852612 0.864386 0.599849
0.916242 0.887380 0.611137
0.948824 0.912381 0.626516
0.089416 0.862415 0.577515
0.092382 0.863577 0.578069
0.144103 0.867712 0.580059
0.351061 0.875156 0.583712
0.557729 0.885922 0.589159
0.741383 0.899827 0.596487
0.855954 0.916560 0.605755
0.917002 0.927552 0.616998
0.949227 0.934183 0.634223
0.091198 0.923744 0.584632
0.097154 0.924674 0.585184
0.166574 0.926209 0.587163
0.371372 0.927344 0.590798
0.570156 0.929548 0.596219
0.749703 0.933276 0.603511
0.859887 0.937778 0.612734
0.917896 0.942952 0.625851
0.949703 0.948690 0.643364
0.087707 0.088067 0.776007
0.087805 0.088067 0.776266
0.104623 0.088130 0.777196
0.282273 0.091514 0.778902
0.520374 0.121720 0.781443
0.726231 0.236422 0.784856
0.842236 0.399057 0.789162
0.914335 0.547948 0.794371
0.947815 0.681055 0.800485
0.087707 0.088069 0.776142
0.087810 0.088096 0.776401
0.105002 0.088418 0.777331
0.283247 0.095288 0.779037
0.520997 0.133460 0.781577
0.726483 0.266707 0.784989
0.842443 0.416433 0.789293
0.914372 0.563585 0.794502
0.947834 0.692172 0.800614
0.087707 0.091279 0.776628
0.087827 0.092439 0.776887
0.105714 0.099376 0.777816
0.286753 0.127201 0.779520
0.522997 0.211240 0.782057
0.727388 0.349034 0.785466
0.843188 0.482786 0.789766
0.914507 0.615999 0.794969
0.947905 0.721292 0.801076
0.087708 0.155838 0.777521
0.087864 0.164894 0.777779
0.107883 0.204481 0.778706
0.293228 0.280457 0.780407
0.526436 0.373825 0.782940
0.729048 0.476248 0.786342
0.844556 0.587527 0.790635
0.914753 0.691248 0.795829
0.948036 0.766853 0.801925
0.087744 0.392611 0.778853
0.088381 0.399697 0.779111
0.113016 0.430801 0.780035
0.308670 0.478762 0.781731
0.531562 0.544150 0.784258
0.731521 0.624651 0.787651
0.846596 0.703264 0.791932
0.915121 0.764721 0.797112
0.948230 0.826182 0.803192
0.087812 0.612771 0.780648
0.089133 0.617662 0.780905
0.117911 0.635080 0.781825
0.320028 0.666545 0.783515
0.538454 0.708413 0.786032
0.734139 0.748340 0.789413
0.849343 0.793619 0.793679
0.915616 0.837525 0.798841
0.948492 0.870601 0.804900
0.088243 0.765904 0.782921
0.090073 0.768133 0.783176
0.127470 0.776331 0.784093
0.333983 0.794946 0.785775
0.547166 0.821406 0.788280
0.737419 0.841981 0.791645
0.852612 0.865251 0.795892
0.916242 0.888175 0.801031
0.948824 0.913108 0.807064
0.089416 0.863286 0.785683
0.092382 0.864445 0.785937
0.144103 0.868567 0.786849
0.351061 0.875988 0.788521
0.557729 0.886721 0.791012
0.741383 0.900586 0.794359
0.855954 0.917275 0.798582
0.917002 0.927630 0.803694
0.949227 0.934384 0.809694
0.091198 0.924441 0.788942
0.097154 0.925294 0.789194
0.166574 0.926449 0.790100
0.371372 0.927426 0.791761
0.570156 0.929762 0.794236
0.749703 0.933480 0.797561
0.859887 0.937970 0.801757
0.917896 0.943133 0.806836
0.949703 0.948858 0.812799
0.087707 0.088067 0.881249
0.087805 0.088067 0.881372
0.104623 0.088159 0.881810
0.282273 0.092608 0.882615
0.520374 0.126400 0.883815
0.726231 0.248265 0.885428
0.842236 0.405806 0.887466
0.914335 0.554176 0.889325
0.947815 0.685488 0.890953
0.087707 0.088095 0.881313
0.087810 0.088122 0.881435
0.105002 0.088823 0.881874
0.283247 0.097279 0.882679
0.520997 0.138630 0.883878
0.726483 0.277840 0.885491
0.842443 0.427064 0.887528
0.914372 0.569791 0.889368
0.947834 0.696571 0.890987
0.087707 0.092386 0.881542
0.087827 0.093937 0.881664
0.105714 0.101993 0.882102
0.286753 0.131866 0.882907
0.522997 0.221167 0.884105
0.727388 0.358522 0.885716
0.843188 0.488160 0.887752
0.914507 0.620650 0.889504
0.947905 0.724167 0.891109
0.087708 0.164413 0.881963
0.087864 0.174859 0.882085
0.107883 0.214283 0.882523
0.293228 0.290748 0.883326
0.526436 0.380910 0.884522
0.729048 0.481646 0.886131
0.844556 0.593699 0.888098
0.914753 0.695649 0.889730
0.948036 0.768974 0.891332
0.087744 0.399366 0.882592
0.088381 0.406446 0.882714
0.113016 0.441549 0.883150
0.308670 0.484150 0.883951
0.531562 0.550383 0.885145
0.731521 0.629271 0.886750
0.846596 0.706225 0.888524
0.915121 0.766852 0.890067
0.948230 0.827672 0.891665
0.087812 0.617433 0.883439
0.089133 0.622306 0.883560
0.117911 0.639663 0.883996
0.320028 0.671024 0.884794
0.538454 0.711349 0.885984
0.734139 0.751094 0.887585
0.849343 0.796269 0.889098
0.915616 0.838964 0.890522
0.948492 0.871676 0.892114
0.088243 0.768029 0.884513
0.090073 0.770248 0.884634
0.127470 0.779046 0.885067
0.333983 0.797592 0.885863
0.547166 0.822917 0.887048
0.737419 0.843401 0.888430
0.852612 0.866348 0.889747
0.916242 0.889182 0.891097
0.948824 0.914029 0.892683
0.089416 0.864391 0.885819
0.092382 0.865545 0.885939
0.144103 0.869650 0.886371
0.351061 0.877041 0.887162
0.557729 0.887734 0.888222
0.741383 0.901550 0.889321
0.855954 0.918183 0.890453
0.917002 0.927745 0.891797
0.949227 0.934640 0.893375
0.091198 0.925279 0.887362
0.097154 0.925602 0.887481
0.166574 0.926710 0.887910
0.371372 0.927526 0.888468
0.570156 0.930033 0.889281
0.749703 0.933739 0.890185
0.859887 0.938215 0.891288
0.917896 0.943362 0.892623
0.949703 0.949072 0.894191
0.087707 0.088067 0.933268
0.087805 0.088089 0.933341
0.104623 0.088293 0.933603
0.282273 0.094692 0.934084
0.520374 0.132101 0.934751
0.726231 0.263101 0.935244
0.842236 0.414043 0.935867
0.914335 0.561772 0.936622
0.947815 0.690885 0.937512
0.087707 0.088127 0.933306
0.087810 0.088158 0.933379
0.105002 0.089269 0.933641
0.283247 0.099612 0.934122
0.520997 0.146232 0.934771
0.726483 0.290390 0.935263
0.842443 0.440170 0.935886
0.914372 0.577360 0.936641
0.947834 0.701350 0.937531
0.087707 0.094265 0.933443
0.087827 0.096391 0.933516
0.105714 0.106502 0.933777
0.286753 0.137971 0.934259
0.522997 0.233541 0.934840
0.727388 0.370202 0.935332
0.843188 0.495773 0.935954
0.914507 0.626309 0.936709
0.947905 0.727661 0.937598
0.087708 0.176607 0.933694
0.087864 0.188038 0.933767
0.107883 0.226504 0.934029
0.293228 0.302449 0.934509
0.526436 0.389176 0.934967
0.729048 0.488213 0.935459
0.844556 0.601228 0.936080
0.914753 0.700725 0.936834
0.948036 0.771551 0.937722
0.087744 0.407610 0.934070
0.088381 0.414682 0.934143
0.113016 0.451440 0.934404
0.308670 0.490707 0.934793
0.531562 0.557987 0.935157
0.731521 0.634894 0.935648
0.846596 0.709823 0.936268
0.915121 0.769441 0.937021
0.948230 0.829483 0.937907
0.087812 0.623107 0.934577
0.089133 0.627959 0.934650
0.117911 0.645242 0.934806
0.320028 0.676477 0.935050
0.538454 0.714917 0.935414
0.734139 0.754443 0.935903
0.849343 0.799494 0.936522
0.915616 0.840714 0.937272
0.948492 0.872983 0.938156
0.088243 0.770612 0.934964
0.090073 0.772817 0.935001
0.127470 0.782348 0.935134
0.333983 0.800810 0.935377
0.547166 0.824755 0.935739
0.737419 0.845128 0.936227
0.852612 0.867681 0.936843
0.916242 0.890408 0.937592
0.948824 0.915150 0.938473
0.089416 0.865735 0.935363
0.092382 0.866883 0.935400
0.144103 0.870967 0.935532
0.351061 0.878323 0.935774
0.557729 0.888966 0.936135
0.741383 0.902722 0.936620
0.855954 0.919288 0.937235
0.917002 0.928085 0.937980
0.949227 0.934952 0.938858
0.091198 0.925655 0.935835
0.097154 0.925977 0.935871
0.166574 0.926862 0.936002
0.371372 0.927648 0.936243
0.570156 0.930363 0.936603
0.749703 0.934054 0.937086
0.859887 0.938513 0.937697
0.917896 0.943641 0.938439
0.949703 0.949332 0.939313
0.087707 0.088099 0.955261
0.087805 0.088127 0.955286
0.104623 0.088883 0.955376
0.282273 0.097587 0.955541
0.520374 0.139496 0.955786
0.726231 0.279456 0.956117
0.842236 0.428755 0.956537
0.914335 0.570773 0.957046
0.947815 0.697266 0.957647
0.087707 0.088169 0.955274
0.087810 0.088377 0.955299
0.105002 0.090652 0.955389
0.283247 0.103858 0.955554
0.520997 0.157015 0.955799
0.726483 0.303943 0.956130
0.842443 0.452117 0.956549
0.914372 0.586329 0.957059
0.947834 0.705654 0.957660
0.087707 0.097182 0.955321
0.087827 0.099195 0.955346
0.105714 0.112537 0.955436
0.286753 0.147022 0.955600
0.522997 0.250662 0.955846
0.727388 0.381407 0.956177
0.843188 0.505800 0.956596
0.914507 0.632996 0.957105
0.947905 0.731784 0.957705
0.087708 0.192635 0.955407
0.087864 0.203545 0.955432
0.107883 0.242406 0.955522
0.293228 0.313630 0.955686
0.526436 0.398976 0.955931
0.729048 0.497422 0.956262
0.844556 0.609029 0.956680
0.914753 0.705033 0.957189
0.948036 0.774591 0.957789
0.087744 0.418595 0.955536
0.088381 0.429769 0.955561
0.113016 0.461046 0.955650
0.308670 0.500640 0.955814
0.531562 0.566995 0.956059
0.731521 0.641537 0.956389
0.846596 0.714067 0.956807
0.915121 0.772496 0.957315
0.948230 0.831619 0.957914
0.087812 0.629810 0.955709
0.089133 0.634637 0.955734
0.117911 0.651834 0.955823
0.320028 0.682922 0.955987
0.538454 0.719125 0.956232
0.734139 0.758395 0.956561
0.849343 0.803304 0.956978
0.915616 0.842780 0.957485
0.948492 0.874527 0.958083
0.088243 0.773658 0.955930
0.090073 0.776068 0.955954
0.127470 0.786249 0.956043
0.333983 0.804614 0.956207
0.547166 0.826922 0.956451
0.737419 0.847166 0.956779
0.852612 0.869256 0.957195
0.916242 0.891856 0.957701
0.948824 0.916475 0.958297
0.089416 0.867321 0.956198
0.092382 0.868462 0.956222
0.144103 0.872522 0.956311
0.351061 0.879836 0.956474
0.557729 0.890422 0.956717
0.741383 0.904107 0.957045
0.855954 0.920593 0.957460
0.917002 0.928487 0.957964
0.949227 0.935320 0.958558
0.091198 0.926099 0.956515
0.097154 0.926419 0.956540
0.166574 0.927041 0.956628
0.371372 0.927921 0.956790
0.570156 0.930753 0.957033
0.749703 0.934426 0.957359
0.859887 0.938865 0.957772
0.917896 0.943972 0.958275
0.949703 0.949639 0.958867
