provia100f/Provia100F_Classic_ExtraPunchy.cube
TITLE "Fuji Provia 100F Classic ExtraPunchy"
# Adobe RGB in/out. REPLACES AgX. Fuji Provia 100F Classic ExtraPunchy.
LUT_3D_SIZE 33
DOMAIN_MIN 0.0 0.0 0.0
DOMAIN_MAX 1.0 1.0 1.0
0.071567 0.071941 0.066283
0.071567 0.071941 0.066283
0.071551 0.071941 0.066283
0.071661 0.071941 0.066283
0.072561 0.071941 0.066283
0.074915 0.071941 0.066283
0.078799 0.071941 0.066283
0.085586 0.072007 0.066283
0.099131 0.072135 0.066283
0.122575 0.072388 0.066283
0.161977 0.072757 0.066283
0.210370 0.073415 0.066283
0.253488 0.074380 0.066282
0.309692 0.075485 0.066282
0.375076 0.078513 0.066281
0.467114 0.082885 0.066286
0.544299 0.089087 0.066293
0.615811 0.098750 0.066299
0.688235 0.118319 0.066307
0.755818 0.142190 0.066327
0.805937 0.172950 0.066346
0.849240 0.208647 0.066364
0.881357 0.250851 0.066381
0.903775 0.301669 0.066401
0.923055 0.350255 0.066466
0.935771 0.411531 0.066530
0.945953 0.470229 0.066592
0.955548 0.514530 0.066689
0.962038 0.561165 0.066850
0.967250 0.600513 0.067006
0.972313 0.635548 0.067199
0.975463 0.672070 0.067475
0.978136 0.720332 0.067828
0.071567 0.071941 0.066283
0.071567 0.071941 0.066283
0.071550 0.071941 0.066283
0.071662 0.071941 0.066283
0.072562 0.071941 0.066283
0.074921 0.071941 0.066283
0.078806 0.071941 0.066283
0.085596 0.072018 0.066283
0.099150 0.072159 0.066283
0.122604 0.072406 0.066283
0.162013 0.072804 0.066283
0.210400 0.073457 0.066283
0.253525 0.074432 0.066282
0.309730 0.075605 0.066282
0.375132 0.078651 0.066281
0.467150 0.083121 0.066286
0.544349 0.089425 0.066293
0.615845 0.099165 0.066299
0.688268 0.119081 0.066307
0.755840 0.143002 0.066327
0.805955 0.174121 0.066346
0.849252 0.209930 0.066364
0.881368 0.251834 0.066381
0.903781 0.302801 0.066402
0.923061 0.351803 0.066467
0.935774 0.412969 0.066530
0.945956 0.471173 0.066592
0.955550 0.515482 0.066689
0.962039 0.562123 0.066851
0.967252 0.601178 0.067006
0.972314 0.636202 0.067200
0.975464 0.672910 0.067476
0.978136 0.721171 0.067829
0.071567 0.071941 0.066283
0.071567 0.071941 0.066283
0.071548 0.071941 0.066283
0.071666 0.071941 0.066283
0.072566 0.071941 0.066283
0.074943 0.071941 0.066283
0.078831 0.071957 0.066283
0.085631 0.072055 0.066283
0.099217 0.072240 0.066283
0.122711 0.072494 0.066283
0.162142 0.072967 0.066283
0.210508 0.073675 0.066282
0.253658 0.074616 0.066282
0.309867 0.076158 0.066282
0.375336 0.079141 0.066281
0.467281 0.083961 0.066286
0.544532 0.090636 0.066293
0.615964 0.100971 0.066299
0.688386 0.121830 0.066308
0.755918 0.145983 0.066327
0.806020 0.178024 0.066346
0.849293 0.214570 0.066364
0.881407 0.255374 0.066381
0.903803 0.306883 0.066402
0.923082 0.357393 0.066468
0.935785 0.418149 0.066532
0.945966 0.474569 0.066593
0.955557 0.518901 0.066692
0.962044 0.565566 0.066853
0.967256 0.603565 0.067009
0.972318 0.638548 0.067204
0.975466 0.675926 0.067481
0.978138 0.724186 0.067834
0.071567 0.071941 0.066283
0.071567 0.071941 0.066283
0.071543 0.071941 0.066283
0.071673 0.071941 0.066283
0.072573 0.071941 0.066283
0.074984 0.071951 0.066283
0.078877 0.072034 0.066283
0.085695 0.072157 0.066283
0.099340 0.072374 0.066283
0.122906 0.072677 0.066283
0.162380 0.073248 0.066283
0.210707 0.074057 0.066282
0.253902 0.074940 0.066282
0.310119 0.077145 0.066282
0.375712 0.080269 0.066281
0.467522 0.085481 0.066286
0.544867 0.092848 0.066293
0.616184 0.104815 0.066300
0.688602 0.126945 0.066309
0.756061 0.151614 0.066328
0.806140 0.183811 0.066347
0.849369 0.223269 0.066365
0.881478 0.261962 0.066382
0.903845 0.314443 0.066404
0.923120 0.367586 0.066470
0.935804 0.427751 0.066534
0.945984 0.480821 0.066595
0.955569 0.525197 0.066697
0.962053 0.571904 0.066858
0.967264 0.607951 0.067013
0.972326 0.642856 0.067210
0.975470 0.681476 0.067490
0.978142 0.729734 0.067842
0.071567 0.071941 0.066283
0.071567 0.071941 0.066283
0.071536 0.071941 0.066283
0.071683 0.071953 0.066283
0.072587 0.072004 0.066283
0.075086 0.072062 0.066283
0.078946 0.072185 0.066283
0.085791 0.072366 0.066283
0.099523 0.072622 0.066283
0.123198 0.073091 0.066283
0.162736 0.073741 0.066283
0.211004 0.074582 0.066282
0.254267 0.075778 0.066282
0.310496 0.078551 0.066282
0.376274 0.082510 0.066281
0.467883 0.088023 0.066287
0.545369 0.096528 0.066294
0.616513 0.112539 0.066300
0.688925 0.134734 0.066310
0.756275 0.160184 0.066330
0.806320 0.192584 0.066348
0.849484 0.235995 0.066366
0.881585 0.274585 0.066383
0.903907 0.325873 0.066408
0.923178 0.381230 0.066473
0.935834 0.442286 0.066537
0.946012 0.490186 0.066598
0.955587 0.534626 0.066704
0.962066 0.580517 0.066864
0.967277 0.614493 0.067019
0.972337 0.649285 0.067219
0.975476 0.689778 0.067504
0.978148 0.738032 0.067855
0.071567 0.072052 0.066283
0.071567 0.072056 0.066283
0.071527 0.072070 0.066283
0.071696 0.072104 0.066283
0.072610 0.072201 0.066283
0.075227 0.072319 0.066283
0.079065 0.072463 0.066283
0.085920 0.072703 0.066283
0.099770 0.073151 0.066283
0.123593 0.073723 0.066283
0.163217 0.074478 0.066283
0.211405 0.075280 0.066282
0.254761 0.077762 0.066282
0.311006 0.080743 0.066282
0.377034 0.085612 0.066281
0.468371 0.092410 0.066288
0.546047 0.102712 0.066295
0.616957 0.122945 0.066301
0.689362 0.145554 0.066312
0.756564 0.175421 0.066331
0.806562 0.208784 0.066350
0.849638 0.248976 0.066367
0.881730 0.297210 0.066384
0.903990 0.341546 0.066413
0.923256 0.399999 0.066478
0.935874 0.458600 0.066541
0.946049 0.502862 0.066601
0.955611 0.547388 0.066714
0.962084 0.589480 0.066874
0.967293 0.623298 0.067028
0.972353 0.657940 0.067232
0.975484 0.700995 0.067522
0.978155 0.749244 0.067872
0.071567 0.072370 0.066283
0.071567 0.072378 0.066283
0.071517 0.072406 0.066283
0.071711 0.072469 0.066283
0.072639 0.072587 0.066283
0.075404 0.072747 0.066283
0.079240 0.073068 0.066283
0.086083 0.073421 0.066283
0.100085 0.074014 0.066283
0.124095 0.074648 0.066283
0.163830 0.075473 0.066283
0.211916 0.077737 0.066282
0.255389 0.080358 0.066282
0.311654 0.084739 0.066282
0.378002 0.090508 0.066282
0.468991 0.098920 0.066289
0.546910 0.115630 0.066296
0.617522 0.136286 0.066302
0.689918 0.160173 0.066314
0.756932 0.190806 0.066334
0.806871 0.231196 0.066352
0.849834 0.265985 0.066369
0.881913 0.316561 0.066386
0.904096 0.367293 0.066419
0.923354 0.424418 0.066484
0.935925 0.476680 0.066546
0.946096 0.519021 0.066606
0.955642 0.563653 0.066727
0.962107 0.600818 0.066885
0.967314 0.634441 0.067039
0.972373 0.668897 0.067248
0.975494 0.715260 0.067545
0.978165 0.763502 0.067894
0.071567 0.073037 0.066283
0.071567 0.073055 0.066283
0.071506 0.073119 0.066283
0.071761 0.073234 0.066283
0.072673 0.073399 0.066283
0.075618 0.073709 0.066283
0.079452 0.074115 0.066283
0.086281 0.074573 0.066283
0.100468 0.075073 0.066283
0.124709 0.076523 0.066283
0.164578 0.078492 0.066283
0.212539 0.081109 0.066282
0.256156 0.085149 0.066282
0.312446 0.090490 0.066282
0.379186 0.098125 0.066284
0.469748 0.112603 0.066290
0.547964 0.131747 0.066297
0.618212 0.153529 0.066303
0.690597 0.182309 0.066317
0.757381 0.215770 0.066336
0.807247 0.252323 0.066354
0.850073 0.298778 0.066371
0.882137 0.340782 0.066388
0.904226 0.396173 0.066426
0.923465 0.453068 0.066491
0.935987 0.496346 0.066552
0.946154 0.538816 0.066616
0.955679 0.582041 0.066742
0.962135 0.614578 0.066899
0.967340 0.647971 0.067052
0.972397 0.686260 0.067267
0.975507 0.732684 0.067574
0.978177 0.780519 0.067921
0.071567 0.074287 0.066283
0.071567 0.074310 0.066283
0.071509 0.074389 0.066283
0.071878 0.074532 0.066283
0.072713 0.074739 0.066283
0.075867 0.075008 0.066283
0.079702 0.075575 0.066283
0.086515 0.076881 0.066283
0.100921 0.078358 0.066283
0.125437 0.080186 0.066283
0.165467 0.083314 0.066282
0.213279 0.086892 0.066282
0.257068 0.092390 0.066282
0.313386 0.099809 0.066281
0.380593 0.114170 0.066285
0.470648 0.131814 0.066292
0.549015 0.151957 0.066298
0.619031 0.179016 0.066304
0.691403 0.208385 0.066321
0.757914 0.244785 0.066339
0.807694 0.283405 0.066357
0.850357 0.327035 0.066374
0.882403 0.376936 0.066390
0.904379 0.431647 0.066435
0.923588 0.479402 0.066499
0.936061 0.519771 0.066560
0.946222 0.562389 0.066628
0.955724 0.598527 0.066760
0.962168 0.630790 0.066916
0.967371 0.663919 0.067067
0.972425 0.706951 0.067290
0.975522 0.753366 0.067607
0.978191 0.791277 0.067952
0.071567 0.076659 0.066283
0.071546 0.076721 0.066283
0.071551 0.076943 0.066283
0.072006 0.077347 0.066283
0.072839 0.077939 0.066283
0.076152 0.078717 0.066283
0.079988 0.079674 0.066283
0.086785 0.081590 0.066283
0.101389 0.084021 0.066283
0.126284 0.086770 0.066283
0.166501 0.091074 0.066282
0.214139 0.096605 0.066282
0.258127 0.105423 0.066282
0.314480 0.120270 0.066281
0.382230 0.136554 0.066287
0.471692 0.155471 0.066293
0.549979 0.180906 0.066299
0.619982 0.208676 0.066306
0.692339 0.243100 0.066325
0.758533 0.276907 0.066343
0.808213 0.320410 0.066360
0.850686 0.366307 0.066377
0.882712 0.417439 0.066393
0.904558 0.467967 0.066445
0.923732 0.506556 0.066508
0.936146 0.547093 0.066568
0.946301 0.586441 0.066642
0.955776 0.617505 0.066781
0.962206 0.649462 0.066935
0.967407 0.686381 0.067086
0.972459 0.730986 0.067316
0.975539 0.777391 0.067646
0.978207 0.802354 0.067988
0.071546 0.082210 0.066283
0.071524 0.082309 0.066283
0.071593 0.082665 0.066283
0.072144 0.083315 0.066283
0.073027 0.084277 0.066283
0.076376 0.085556 0.066283
0.080311 0.087303 0.066283
0.087091 0.090007 0.066283
0.101870 0.093449 0.066283
0.127251 0.098121 0.066282
0.167684 0.105541 0.066282
0.215120 0.117678 0.066282
0.259339 0.130943 0.066282
0.315729 0.146255 0.066283
0.384105 0.165297 0.066289
0.472886 0.188098 0.066295
0.551079 0.216755 0.066301
0.621070 0.247305 0.066311
0.693409 0.281023 0.066329
0.759240 0.320845 0.066347
0.808805 0.363751 0.066364
0.851063 0.412192 0.066380
0.883065 0.461355 0.066398
0.904762 0.499210 0.066457
0.923896 0.537723 0.066518
0.936244 0.578443 0.066578
0.946392 0.608248 0.066658
0.955836 0.638968 0.066804
0.962250 0.671045 0.066957
0.967447 0.713850 0.067118
0.972497 0.758444 0.067346
0.975559 0.792955 0.067689
0.978226 0.812807 0.068029
0.071522 0.092275 0.066283
0.071504 0.092414 0.066283
0.071637 0.092914 0.066283
0.072290 0.093884 0.066283
0.073231 0.095460 0.066283
0.076504 0.097664 0.066283
0.080669 0.100913 0.066283
0.087480 0.106315 0.066283
0.102410 0.114399 0.066282
0.128341 0.123663 0.066282
0.169018 0.134367 0.066282
0.216227 0.146886 0.066282
0.260705 0.162006 0.066281
0.317139 0.182281 0.066285
0.386223 0.203469 0.066291
0.474232 0.233239 0.066297
0.552320 0.257558 0.066303
0.622295 0.295886 0.066316
0.694615 0.328428 0.066334
0.760037 0.370316 0.066351
0.809473 0.415862 0.066368
0.851487 0.461972 0.066383
0.883462 0.497780 0.066407
0.904991 0.534323 0.066470
0.924081 0.573034 0.066530
0.936354 0.603121 0.066589
0.946494 0.632543 0.066676
0.955902 0.662899 0.066830
0.962299 0.702021 0.066981
0.967493 0.744813 0.067153
0.972539 0.784946 0.067393
0.975582 0.806252 0.067738
0.978247 0.824350 0.068075
0.071500 0.114978 0.066283
0.071540 0.115312 0.066283
0.071680 0.116513 0.066283
0.072443 0.118641 0.066283
0.073533 0.121796 0.066283
0.076643 0.126106 0.066283
0.081063 0.131663 0.066283
0.087974 0.138567 0.066283
0.103008 0.147006 0.066282
0.129557 0.157270 0.066282
0.170508 0.171854 0.066282
0.217460 0.186685 0.066282
0.262230 0.205187 0.066282
0.318713 0.230062 0.066288
0.388590 0.251550 0.066294
0.475734 0.278564 0.066299
0.553704 0.312542 0.066305
0.623662 0.343427 0.066322
0.695959 0.385247 0.066339
0.760772 0.428638 0.066356
0.810217 0.469790 0.066372
0.851959 0.502320 0.066387
0.883850 0.536943 0.066422
0.905247 0.573696 0.066483
0.924287 0.602202 0.066543
0.936477 0.630268 0.066601
0.946608 0.659297 0.066705
0.955977 0.695554 0.066858
0.962354 0.736555 0.067007
0.967544 0.779334 0.067192
0.972587 0.801697 0.067451
0.975607 0.819268 0.067792
0.978270 0.836935 0.068126
0.071557 0.151314 0.066283
0.071599 0.151672 0.066283
0.071722 0.152960 0.066283
0.072514 0.155341 0.066283
0.073862 0.158928 0.066283
0.076793 0.164732 0.066283
0.081491 0.172923 0.066282
0.088887 0.181561 0.066282
0.103665 0.190653 0.066282
0.130901 0.204233 0.066282
0.172157 0.221921 0.066282
0.218822 0.240339 0.066281
0.263917 0.257156 0.066285
0.320453 0.282045 0.066291
0.391213 0.310524 0.066296
0.477393 0.336833 0.066302
0.555232 0.372198 0.066311
0.625171 0.409388 0.066328
0.697445 0.449876 0.066345
0.761435 0.482203 0.066361
0.811039 0.512896 0.066377
0.852481 0.545643 0.066392
0.884273 0.579879 0.066438
0.905530 0.605533 0.066498
0.924514 0.632195 0.066557
0.936612 0.659848 0.066618
0.946734 0.694502 0.066738
0.956059 0.733722 0.066889
0.962415 0.774709 0.067036
0.967601 0.798958 0.067235
0.972640 0.816186 0.067513
0.975634 0.833290 0.067851
0.978296 0.850513 0.068143
0.071620 0.201077 0.066283
0.071656 0.201602 0.066283
0.071953 0.203492 0.066283
0.072566 0.206994 0.066283
0.074207 0.212290 0.066283
0.077093 0.219564 0.066282
0.081951 0.229032 0.066282
0.089880 0.238963 0.066282
0.104381 0.248975 0.066282
0.132375 0.260771 0.066282
0.173968 0.279104 0.066281
0.220315 0.302451 0.066283
0.265768 0.322126 0.066289
0.322362 0.344684 0.066294
0.393858 0.375830 0.066299
0.479212 0.407717 0.066304
0.556908 0.443487 0.066318
0.626827 0.473777 0.066335
0.699074 0.500690 0.066351
0.762161 0.529584 0.066366
0.811939 0.560496 0.066381
0.853052 0.588941 0.066399
0.884736 0.613128 0.066456
0.905839 0.638347 0.066515
0.924763 0.664582 0.066572
0.936761 0.698908 0.066643
0.946872 0.736359 0.066775
0.956149 0.775564 0.066923
0.962481 0.798521 0.067068
0.967663 0.815157 0.067281
0.972698 0.831633 0.067581
0.975664 0.848261 0.067915
0.978324 0.863970 0.068151
0.071678 0.262785 0.066282
0.071709 0.263217 0.066282
0.072183 0.264772 0.066282
0.072652 0.267641 0.066282
0.074567 0.274102 0.066282
0.077516 0.283814 0.066282
0.082526 0.296102 0.066282
0.090954 0.305902 0.066282
0.105402 0.317681 0.066282
0.133981 0.331564 0.066281
0.175944 0.348968 0.066282
0.221941 0.372201 0.066287
0.267787 0.396154 0.066292
0.324444 0.423354 0.066297
0.396738 0.452280 0.066302
0.481194 0.476892 0.066310
0.558733 0.500165 0.066326
0.628302 0.525346 0.066342
0.700848 0.552472 0.066357
0.762951 0.580649 0.066372
0.812919 0.602272 0.066387
0.853674 0.624967 0.066416
0.885240 0.648717 0.066474
0.906176 0.674849 0.066532
0.925034 0.708814 0.066587
0.936922 0.744508 0.066669
0.947021 0.781055 0.066813
0.956248 0.800629 0.066959
0.962553 0.816209 0.067111
0.967730 0.831996 0.067331
0.972760 0.847972 0.067654
0.975697 0.863344 0.067984
0.978355 0.874554 0.068160
0.071775 0.339182 0.066282
0.071929 0.339675 0.066282
0.072408 0.341446 0.066282
0.072797 0.345122 0.066282
0.074938 0.351486 0.066282
0.077961 0.360177 0.066282
0.083152 0.370687 0.066282
0.092108 0.382674 0.066282
0.106673 0.397112 0.066281
0.136091 0.414170 0.066282
0.178129 0.434030 0.066286
0.223701 0.454470 0.066291
0.269976 0.473479 0.066295
0.326701 0.491444 0.066300
0.399865 0.511204 0.066304
0.483342 0.532800 0.066319
0.560710 0.556272 0.066334
0.629726 0.580701 0.066349
0.702769 0.599705 0.066364
0.763806 0.619811 0.066378
0.813979 0.641005 0.066392
0.854346 0.663269 0.066437
0.885785 0.692021 0.066494
0.906540 0.724255 0.066550
0.925327 0.758205 0.066604
0.937097 0.787281 0.066708
0.947184 0.804541 0.066854
0.956354 0.819344 0.066997
0.962632 0.834391 0.067168
0.967803 0.849663 0.067401
0.972828 0.864047 0.067733
0.975733 0.874816 0.068057
0.978388 0.882161 0.068198
0.072062 0.430231 0.066282
0.072198 0.430841 0.066282
0.072523 0.433039 0.066282
0.073159 0.437094 0.066282
0.075566 0.443190 0.066282
0.078425 0.450294 0.066282
0.083812 0.458504 0.066282
0.093341 0.468586 0.066281
0.108398 0.478453 0.066283
0.138373 0.489769 0.066286
0.180672 0.502725 0.066290
0.225596 0.517364 0.066294
0.272337 0.533728 0.066299
0.329137 0.551858 0.066303
0.403246 0.571796 0.066313
0.485656 0.589019 0.066327
0.562839 0.605389 0.066342
0.631259 0.622878 0.066356
0.704840 0.641476 0.066370
0.764725 0.661169 0.066384
0.815121 0.685915 0.066403
0.855070 0.714747 0.066459
0.886372 0.745264 0.066515
0.906932 0.777483 0.066569
0.925643 0.796132 0.066634
0.937285 0.810552 0.066754
0.947358 0.824539 0.066898
0.956468 0.838804 0.067038
0.962716 0.853328 0.067228
0.967881 0.866079 0.067489
0.972902 0.876369 0.067816
0.975771 0.883112 0.068136
0.978424 0.895134 0.068289
0.072333 0.504668 0.066282
0.072454 0.505064 0.066282
0.072605 0.506489 0.066282
0.073633 0.509111 0.066282
0.076248 0.513035 0.066282
0.078906 0.518341 0.066281
0.084506 0.525095 0.066281
0.094652 0.533357 0.066284
0.110246 0.543177 0.066287
0.140829 0.554605 0.066291
0.183409 0.567686 0.066294
0.227629 0.581264 0.066298
0.274874 0.592771 0.066302
0.331752 0.605406 0.066309
0.406884 0.619168 0.066322
0.488139 0.634052 0.066336
0.565123 0.650052 0.066350
0.632902 0.667161 0.066364
0.707060 0.690415 0.066377
0.765710 0.715907 0.066391
0.816344 0.743053 0.066428
0.855846 0.771869 0.066482
0.887001 0.791681 0.066536
0.907352 0.805793 0.066589
0.925981 0.818604 0.066667
0.937487 0.831746 0.066803
0.947545 0.845198 0.066943
0.956591 0.858940 0.067080
0.962806 0.869424 0.067291
0.967966 0.879204 0.067582
0.972980 0.885812 0.067903
0.975812 0.897310 0.068148
0.978462 0.908928 0.068385
0.072511 0.574148 0.066281
0.072546 0.574548 0.066281
0.072725 0.575987 0.066281
0.074146 0.578583 0.066281
0.076548 0.581359 0.066282
0.079613 0.585103 0.066284
0.085230 0.589854 0.066286
0.096040 0.595642 0.066289
0.112220 0.602491 0.066292
0.145173 0.610417 0.066295
0.187612 0.619435 0.066298
0.229800 0.629553 0.066302
0.277589 0.640777 0.066306
0.334551 0.653111 0.066319
0.410786 0.666552 0.066332
0.491772 0.684806 0.066345
0.567564 0.705426 0.066358
0.635164 0.727647 0.066371
0.709434 0.751487 0.066384
0.766761 0.776964 0.066401
0.817651 0.792571 0.066453
0.856673 0.805151 0.066506
0.887672 0.816694 0.066558
0.907800 0.828617 0.066611
0.926342 0.840897 0.066715
0.937702 0.853516 0.066854
0.947745 0.864951 0.066991
0.956721 0.874047 0.067149
0.962903 0.881199 0.067359
0.968055 0.889929 0.067680
0.973064 0.900873 0.067995
0.975856 0.911961 0.068160
0.978503 0.922221 0.068487
0.072603 0.626983 0.066285
0.072658 0.627257 0.066285
0.073160 0.628240 0.066285
0.074658 0.630049 0.066286
0.076805 0.632751 0.066288
0.080383 0.636397 0.066289
0.085985 0.641025 0.066291
0.097504 0.646664 0.066293
0.114319 0.653339 0.066296
0.149323 0.661067 0.066299
0.192140 0.670090 0.066302
0.232110 0.683018 0.066306
0.280484 0.697435 0.066318
0.337536 0.713365 0.066330
0.414955 0.730832 0.066342
0.498697 0.749859 0.066354
0.570162 0.770467 0.066367
0.637816 0.786653 0.066379
0.711960 0.798505 0.066392
0.767878 0.808611 0.066428
0.819040 0.818824 0.066480
0.857553 0.829457 0.066531
0.888386 0.840491 0.066581
0.908277 0.851906 0.066650
0.926726 0.863041 0.066771
0.937931 0.871379 0.066907
0.947957 0.879811 0.067040
0.956861 0.885242 0.067223
0.963005 0.895427 0.067468
0.968151 0.905794 0.067782
0.973153 0.916329 0.068092
0.975902 0.924417 0.068224
0.978547 0.930593 0.068605
0.072763 0.683750 0.066290
0.072956 0.684100 0.066290
0.073737 0.685359 0.066291
0.075300 0.687675 0.066291
0.077376 0.691139 0.066293
0.081173 0.695821 0.066294
0.086767 0.701774 0.066296
0.099043 0.709048 0.066298
0.116544 0.717681 0.066300
0.152255 0.727712 0.066303
0.197002 0.739172 0.066308
0.234561 0.752092 0.066318
0.283562 0.766499 0.066329
0.340708 0.781305 0.066340
0.419398 0.790390 0.066352
0.504771 0.799618 0.066363
0.572920 0.807668 0.066375
0.640631 0.816057 0.066387
0.714642 0.824913 0.066407
0.769062 0.834220 0.066457
0.820513 0.843961 0.066507
0.858486 0.854117 0.066556
0.889142 0.863723 0.066605
0.908782 0.871246 0.066695
0.927133 0.878987 0.066829
0.938173 0.883326 0.066961
0.948183 0.892683 0.067096
0.957008 0.902257 0.067299
0.963114 0.912034 0.067581
0.968252 0.921544 0.067889
0.973234 0.927340 0.068145
0.975952 0.933201 0.068341
0.978593 0.939121 0.068731
0.073258 0.756882 0.066295
0.073507 0.757232 0.066295
0.074340 0.758490 0.066296
0.076182 0.760804 0.066296
0.078036 0.764266 0.066297
0.081982 0.768944 0.066299
0.087663 0.774894 0.066300
0.100655 0.781170 0.066302
0.119271 0.785673 0.066304
0.155368 0.790875 0.066312
0.200503 0.796530 0.066321
0.237154 0.802189 0.066330
0.286826 0.807702 0.066340
0.344072 0.813729 0.066351
0.424120 0.820260 0.066362
0.506108 0.827285 0.066373
0.575838 0.834792 0.066384
0.643611 0.842769 0.066397
0.717481 0.851201 0.066439
0.770313 0.860075 0.066487
0.822070 0.866962 0.066535
0.859472 0.873632 0.066582
0.889941 0.880075 0.066646
0.909316 0.884205 0.066759
0.927563 0.892680 0.066889
0.938429 0.901403 0.067018
0.948421 0.910360 0.067180
0.957164 0.919538 0.067392
0.963229 0.925504 0.067697
0.968359 0.930963 0.067999
0.973290 0.936500 0.068159
0.976004 0.942108 0.068463
0.978642 0.947090 0.068863
0.073933 0.805596 0.066300
0.074161 0.805730 0.066300
0.074930 0.806211 0.066300
0.076591 0.807093 0.066301
0.078701 0.808411 0.066302
0.082964 0.810187 0.066303
0.089304 0.812436 0.066305
0.102107 0.815172 0.066310
0.123836 0.818401 0.066317
0.158665 0.822128 0.066325
0.203401 0.826355 0.066333
0.239889 0.831082 0.066342
0.290277 0.836304 0.066351
0.347628 0.842019 0.066361
0.429125 0.848217 0.066371
0.507514 0.854892 0.066382
0.578918 0.861903 0.066392
0.646756 0.867137 0.066425
0.720477 0.872661 0.066471
0.771630 0.878464 0.066517
0.823711 0.881706 0.066563
0.860510 0.887840 0.066609
0.890643 0.895399 0.066698
0.909878 0.903231 0.066825
0.928016 0.911326 0.066951
0.938700 0.919668 0.067076
0.948672 0.925118 0.067267
0.957328 0.930135 0.067519
0.963350 0.935251 0.067818
0.968472 0.940458 0.068114
0.973349 0.945477 0.068235
0.976059 0.949575 0.068601
0.978694 0.952997 0.069000
0.074585 0.835803 0.066305
0.074795 0.835930 0.066305
0.075892 0.836383 0.066305
0.076980 0.837218 0.066307
0.079561 0.838463 0.066310
0.083974 0.840142 0.066314
0.091223 0.842269 0.066319
0.103516 0.844857 0.066324
0.126702 0.847914 0.066330
0.162148 0.851444 0.066337
0.206372 0.855450 0.066345
0.243419 0.859932 0.066354
0.293918 0.863873 0.066362
0.351379 0.867611 0.066372
0.434421 0.871661 0.066381
0.508990 0.876017 0.066391
0.582161 0.880125 0.066416
0.650069 0.882148 0.066460
0.723632 0.887816 0.066503
0.773015 0.894138 0.066547
0.825438 0.900765 0.066591
0.861602 0.907688 0.066657
0.891279 0.914893 0.066769
0.910470 0.921756 0.066892
0.928492 0.926179 0.067014
0.938984 0.930727 0.067165
0.948935 0.935392 0.067356
0.957501 0.940166 0.067650
0.963477 0.944915 0.067943
0.968591 0.948857 0.068150
0.973411 0.952063 0.068373
0.976117 0.955292 0.068750
0.978748 0.958560 0.069141
0.075385 0.864529 0.066319
0.075723 0.864611 0.066319
0.076525 0.864908 0.066320
0.077771 0.865452 0.066322
0.080570 0.866264 0.066325
0.085001 0.867359 0.066328
0.093211 0.868746 0.066332
0.105152 0.870432 0.066337
0.129713 0.872423 0.066343
0.165822 0.874720 0.066350
0.209437 0.877326 0.066357
0.247168 0.879948 0.066365
0.297752 0.881267 0.066373
0.355328 0.883381 0.066382
0.440011 0.887771 0.066391
0.510535 0.892502 0.066412
0.585569 0.897564 0.066453
0.653456 0.902952 0.066494
0.726947 0.908656 0.066536
0.774467 0.914668 0.066578
0.827249 0.920958 0.066630
0.862748 0.924734 0.066721
0.891946 0.928657 0.066841
0.911090 0.932718 0.066960
0.928992 0.936912 0.067078
0.939281 0.941230 0.067261
0.949212 0.945410 0.067498
0.957682 0.949004 0.067785
0.963611 0.951932 0.068070
0.968716 0.954915 0.068170
0.973476 0.957948 0.068515
0.976178 0.960645 0.068903
0.978805 0.962420 0.069287
0.076370 0.881900 0.066333
0.076485 0.881932 0.066334
0.076905 0.882045 0.066335
0.078554 0.882254 0.066336
0.081584 0.882987 0.066339
0.086045 0.884169 0.066342
0.095267 0.885668 0.066346
0.107636 0.887491 0.066350
0.132873 0.889645 0.066356
0.169688 0.892134 0.066362
0.212649 0.894959 0.066369
0.251108 0.898121 0.066376
0.301804 0.901619 0.066384
0.359478 0.905450 0.066392
0.445902 0.909611 0.066413
0.512149 0.914098 0.066451
0.589141 0.918904 0.066489
0.656971 0.922704 0.066528
0.730424 0.925805 0.066568
0.775986 0.929069 0.066609
0.829146 0.932489 0.066684
0.863946 0.936058 0.066798
0.892644 0.939771 0.066914
0.911739 0.943620 0.067029
