provia100f/Provia100F_Classic_Punchy.cube
TITLE "Fuji Provia 100F Classic Punchy"
# Adobe RGB in/out. REPLACES AgX. Fuji Provia 100F Classic Punchy.
LUT_3D_SIZE 5
DOMAIN_MIN 0.0 0.0 0.0
DOMAIN_MAX 1.0 1.0 1.0
0.094030 0.090395 0.084181
0.114449 0.090401 0.084181
0.525164 0.106999 0.084211
0.854749 0.377572 0.084403
0.957787 0.674547 0.084946
0.094030 0.091183 0.084181
0.115639 0.094439 0.084180
0.527586 0.172395 0.084224
0.855508 0.475658 0.084422
0.957898 0.722425 0.084993
0.094085 0.369688 0.084179
0.122916 0.407902 0.084190
0.536248 0.537545 0.084262
0.858222 0.697090 0.084491
0.958293 0.838590 0.085152
0.094820 0.786605 0.084240
0.138773 0.799102 0.084259
0.552031 0.832588 0.084374
0.863007 0.883289 0.084639
0.958806 0.924754 0.085830
0.099209 0.931258 0.084396
0.174158 0.933337 0.084432
0.575286 0.938058 0.084581
0.868784 0.949628 0.085045
0.959566 0.964242 0.087652
0.094030 0.090395 0.087877
0.114449 0.090406 0.088420
0.525164 0.108009 0.090324
0.854749 0.379810 0.095614
0.957787 0.675690 0.109106
0.094030 0.091312 0.088157
0.115639 0.094739 0.088706
0.527586 0.174991 0.090589
0.855508 0.477176 0.096140
0.957898 0.723524 0.110063
0.094085 0.371918 0.089179
0.122916 0.409852 0.089708
0.536248 0.539302 0.091517
0.858222 0.698212 0.098052
0.958293 0.839097 0.113495
0.094820 0.787653 0.090957
0.138773 0.799528 0.091449
0.552031 0.833102 0.094842
0.863007 0.883548 0.102504
0.958806 0.924969 0.121444
0.099209 0.931375 0.095422
0.174158 0.933453 0.096429
0.575286 0.938162 0.100539
0.868784 0.949722 0.111167
0.959566 0.964289 0.130943
0.094030 0.090395 0.552615
0.114449 0.090421 0.556618
0.525164 0.111015 0.571021
0.854749 0.387865 0.591714
0.957787 0.679786 0.617989
0.094030 0.091836 0.554705
0.115639 0.095784 0.558710
0.527586 0.183326 0.573118
0.855508 0.482616 0.593111
0.957898 0.727465 0.619366
0.094085 0.379947 0.562219
0.122916 0.419655 0.566229
0.536248 0.545609 0.580397
0.858222 0.702233 0.598123
0.958293 0.840914 0.624303
0.094820 0.791408 0.576070
0.138773 0.801055 0.580017
0.552031 0.834943 0.589677
0.863007 0.884474 0.607307
0.958806 0.925739 0.635567
0.099209 0.931797 0.591206
0.174158 0.933867 0.593883
0.575286 0.938532 0.603463
0.868784 0.950056 0.620954
0.959566 0.964455 0.653450
0.094030 0.090395 0.911414
0.114449 0.090456 0.912010
0.525164 0.116849 0.914145
0.854749 0.401871 0.918032
0.957787 0.687286 0.921746
0.094030 0.092750 0.911725
0.115639 0.098675 0.912322
0.527586 0.201605 0.914454
0.855508 0.492578 0.918337
0.957898 0.734683 0.921911
0.094085 0.394789 0.912843
0.122916 0.440222 0.913437
0.536248 0.557194 0.915561
0.858222 0.709596 0.919158
0.958293 0.844238 0.922504
0.094820 0.796261 0.914888
0.138773 0.804532 0.915478
0.552031 0.838312 0.917587
0.863007 0.886167 0.920461
0.958806 0.927043 0.923587
0.099209 0.932569 0.917921
0.174158 0.934567 0.918505
0.575286 0.939210 0.919964
0.868784 0.950670 0.922102
0.959566 0.964761 0.925194
0.094030 0.090416 0.965821
0.114449 0.090936 0.965926
0.525164 0.127442 0.966302
0.854749 0.426465 0.966990
0.957787 0.698419 0.968009
0.094030 0.095403 0.965875
0.115639 0.106762 0.965981
0.527586 0.231551 0.966357
0.855508 0.510875 0.967044
0.957898 0.745406 0.968062
0.094085 0.415564 0.966072
0.122916 0.461390 0.966177
0.536248 0.574480 0.966553
0.858222 0.720531 0.967238
0.958293 0.849164 0.968254
0.094820 0.800491 0.966434
0.138773 0.809922 0.966538
0.552031 0.843303 0.966911
0.863007 0.888677 0.967594
0.958806 0.928243 0.968605
0.099209 0.933714 0.966971
0.174158 0.935029 0.967074
0.575286 0.940217 0.967445
0.868784 0.951582 0.968124
0.959566 0.965216 0.969128
