provia100f/Provia100F_Modern_RadianceIII.cube
TITLE "Fuji Provia 100F Modern RadianceIII"
# Adobe RGB in/out. REPLACES AgX. Fuji Provia 100F Modern RadianceIII.
LUT_3D_SIZE 9
DOMAIN_MIN 0.0 0.0 0.0
DOMAIN_MAX 1.0 1.0 1.0
0.079466 0.087905 0.084059
0.153747 0.114913 0.087132
0.387807 0.222201 0.093546
0.584350 0.331282 0.110114
0.745655 0.427935 0.134707
0.866390 0.513840 0.161837
0.927799 0.572315 0.191542
0.955681 0.623086 0.218464
0.971091 0.668241 0.243609
0.081382 0.143016 0.086027
0.121861 0.136966 0.086891
0.315383 0.228532 0.091312
0.541363 0.335416 0.106346
0.718290 0.431263 0.131147
0.849737 0.516472 0.158821
0.920883 0.574080 0.188864
0.952879 0.624690 0.216342
0.970090 0.669721 0.242000
0.089556 0.346583 0.089368
0.152323 0.323205 0.089950
0.280962 0.303502 0.092008
0.465703 0.362215 0.102206
0.650888 0.447448 0.123497
0.803829 0.525838 0.151092
0.900043 0.581237 0.181080
0.944004 0.630914 0.210014
0.966825 0.675314 0.236986
0.104120 0.499628 0.096510
0.167863 0.482243 0.097205
0.313996 0.450774 0.099767
0.448249 0.445449 0.105219
0.591981 0.487751 0.119760
0.748184 0.546767 0.144594
0.871225 0.597108 0.172777
0.931531 0.643919 0.202474
0.960309 0.686575 0.230150
0.121051 0.595507 0.105634
0.179140 0.587694 0.106350
0.328147 0.569149 0.109413
0.466244 0.556283 0.115335
0.583155 0.559011 0.126153
0.708171 0.582857 0.143339
0.833854 0.624558 0.168355
0.912408 0.665970 0.196936
0.949541 0.705101 0.224098
0.138223 0.671108 0.116947
0.190096 0.666440 0.117978
0.332015 0.653734 0.121607
0.473456 0.641341 0.128033
0.591695 0.637189 0.137513
0.703132 0.644245 0.151127
0.808065 0.663600 0.169203
0.895333 0.697845 0.195316
0.940062 0.731175 0.220955
0.153397 0.733023 0.129773
0.201678 0.730375 0.130692
0.331235 0.722654 0.133923
0.471370 0.713827 0.140248
0.591760 0.708715 0.149531
0.703491 0.710890 0.161427
0.803845 0.720812 0.178343
0.882377 0.737253 0.197704
0.932780 0.764354 0.221399
0.171011 0.781326 0.141203
0.212575 0.779942 0.142164
0.328462 0.775771 0.145554
0.463513 0.770712 0.151555
0.583903 0.767549 0.160071
0.696949 0.768522 0.172600
0.798480 0.774697 0.188309
0.878260 0.785980 0.205679
0.927473 0.799831 0.225318
0.186318 0.814302 0.151288
0.222459 0.813755 0.152178
0.324708 0.812116 0.155323
0.452411 0.810214 0.160912
0.570414 0.809382 0.170135
0.683873 0.810865 0.182387
0.787522 0.815432 0.196831
0.871437 0.823279 0.213149
0.921438 0.834117 0.231843
0.079466 0.090413 0.185872
0.160910 0.119069 0.188930
0.387783 0.223655 0.194424
0.573440 0.325878 0.199703
0.733790 0.420823 0.212710
0.857687 0.507649 0.229383
0.924027 0.568721 0.247096
0.954153 0.620376 0.264504
0.970563 0.666225 0.280587
0.081171 0.134316 0.150324
0.107091 0.122057 0.115200
0.302771 0.220891 0.155413
0.527239 0.327344 0.182154
0.705220 0.423185 0.203269
0.840962 0.510038 0.223353
0.917107 0.570431 0.243177
0.951356 0.621969 0.261971
0.969566 0.667709 0.278726
0.088574 0.330280 0.181887
0.143941 0.303434 0.159777
0.255825 0.283956 0.138164
0.446180 0.348231 0.154699
0.635870 0.437320 0.181933
0.795072 0.520378 0.207653
0.896303 0.577463 0.231864
0.942510 0.628178 0.253857
0.966315 0.673327 0.272871
0.102431 0.484902 0.184924
0.161447 0.467842 0.176042
0.301188 0.436314 0.159502
0.433113 0.431563 0.154215
0.579458 0.478065 0.167617
0.738952 0.541412 0.193370
0.866380 0.593325 0.218658
0.930128 0.641244 0.243105
0.959339 0.684669 0.264831
0.119531 0.588596 0.186162
0.175607 0.580948 0.182575
0.321658 0.562578 0.174234
0.458103 0.549695 0.169133
0.574336 0.552941 0.172230
0.701145 0.578435 0.186765
0.829079 0.621197 0.209954
0.910303 0.663532 0.234373
0.948700 0.703380 0.257298
0.137146 0.666780 0.188129
0.187984 0.662182 0.186815
0.328443 0.649611 0.183650
0.469062 0.637312 0.181972
0.586627 0.633296 0.184843
0.698202 0.640775 0.193269
0.804774 0.661053 0.207577
0.893755 0.695896 0.229937
0.939407 0.729830 0.252125
0.152707 0.730417 0.190780
0.200302 0.727804 0.190542
0.329201 0.720172 0.190231
0.468935 0.711340 0.191263
0.588955 0.706329 0.195173
0.700644 0.708689 0.202870
0.801608 0.719003 0.214576
0.881250 0.735980 0.230150
0.932344 0.763421 0.250730
0.170381 0.779833 0.193617
0.211709 0.778467 0.193884
0.327306 0.774352 0.195043
0.462169 0.769367 0.197799
0.582392 0.766288 0.202915
0.695420 0.767374 0.210919
0.797262 0.773712 0.222366
0.877574 0.785213 0.236666
0.927029 0.799389 0.252934
0.185940 0.813592 0.196256
0.221962 0.813054 0.196779
0.324086 0.811447 0.198724
0.451714 0.809593 0.202512
0.569661 0.808823 0.208517
0.683141 0.810382 0.217206
0.786870 0.815048 0.228629
0.871154 0.823016 0.242251
0.921295 0.833991 0.257832
0.079466 0.094653 0.400394
0.160910 0.125264 0.401669
0.398121 0.234553 0.406215
0.590575 0.338320 0.396171
0.731815 0.421420 0.378779
0.850124 0.503271 0.374093
0.918837 0.564250 0.374415
0.951458 0.615913 0.377181
0.969469 0.662261 0.381285
0.081783 0.169555 0.401061
0.160258 0.197671 0.395169
0.350892 0.256986 0.364530
0.536937 0.335588 0.358836
0.700013 0.421494 0.360345
0.832311 0.504600 0.363712
0.911646 0.565599 0.367987
0.948602 0.617349 0.372926
0.968464 0.663686 0.378332
0.086503 0.294769 0.336448
0.131993 0.277249 0.303671
0.210455 0.245300 0.239039
0.428625 0.336733 0.286604
0.619694 0.427499 0.316643
0.781754 0.512099 0.335748
0.889619 0.571479 0.349213
0.939584 0.623072 0.359854
0.965191 0.669131 0.368957
0.098659 0.452548 0.347665
0.150200 0.438266 0.331468
0.275953 0.408478 0.293820
0.397235 0.402714 0.269168
0.555905 0.459599 0.283919
0.721345 0.531434 0.307723
0.854410 0.585868 0.327131
0.926196 0.635556 0.342758
0.957042 0.680300 0.355777
0.115695 0.571415 0.345491
0.166986 0.564529 0.337455
0.306376 0.547236 0.315976
0.438992 0.534270 0.294516
0.552856 0.538201 0.284313
0.684538 0.568094 0.292572
0.817606 0.613250 0.310762
0.905096 0.657632 0.327827
0.946539 0.699066 0.342981
0.134178 0.654946 0.337392
0.182332 0.650654 0.333324
0.318988 0.638768 0.321541
0.457580 0.626841 0.307694
0.573260 0.623041 0.298148
0.684845 0.631432 0.296040
0.795986 0.654336 0.303031
0.888997 0.690685 0.318502
0.937596 0.726177 0.333601
0.150683 0.722819 0.327479
0.196300 0.720344 0.325462
0.323358 0.713011 0.319370
0.462024 0.704332 0.311639
0.581012 0.699616 0.305672
0.692474 0.702421 0.303856
0.795094 0.713746 0.306932
0.877998 0.732359 0.314721
0.931068 0.760737 0.328594
0.168443 0.775268 0.317252
0.209119 0.773971 0.316348
0.323793 0.770062 0.313585
0.458121 0.765344 0.310121
0.577876 0.762390 0.307708
0.690822 0.763890 0.307823
0.793566 0.770756 0.311245
0.875474 0.782893 0.317994
0.925658 0.798049 0.327465
0.184733 0.811339 0.307081
0.220376 0.810836 0.306822
0.322115 0.809339 0.306101
0.449516 0.807652 0.305493
0.567299 0.807086 0.305889
0.680850 0.808889 0.308127
0.784822 0.813858 0.312746
0.870261 0.822202 0.319866
0.920843 0.833607 0.329251
0.079466 0.106252 0.582825
0.160910 0.135252 0.583420
0.398121 0.243747 0.585554
0.616735 0.358450 0.589448
0.757629 0.441564 0.559972
0.858482 0.512019 0.534733
0.919140 0.565933 0.520454
0.950401 0.615013 0.511464
0.968740 0.660181 0.505280
0.081783 0.182141 0.583135
0.163683 0.212038 0.583731
0.399633 0.292715 0.585863
0.587915 0.371969 0.566718
0.724377 0.440676 0.537599
0.839427 0.512385 0.521915
0.911534 0.566804 0.512575
0.947423 0.616178 0.506384
0.967707 0.661465 0.501847
0.086717 0.304042 0.513715
0.141206 0.303260 0.496903
0.290563 0.317293 0.469727
0.466823 0.367797 0.468573
0.634954 0.440278 0.478187
0.784308 0.515770 0.485229
0.887793 0.570906 0.488993
0.937980 0.620947 0.490563
0.964341 0.666433 0.490853
0.095115 0.424063 0.487316
0.142381 0.414452 0.471834
0.258917 0.391275 0.422449
0.359622 0.373088 0.370119
0.545731 0.452824 0.410364
0.713169 0.527592 0.438750
0.847325 0.582088 0.457246
0.922203 0.631855 0.468926
0.955037 0.676865 0.475008
0.111112 0.551297 0.489161
0.157121 0.545737 0.480407
0.289976 0.530922 0.451903
0.416821 0.517545 0.416727
0.528017 0.521076 0.396253
0.668075 0.558149 0.408625
0.806811 0.606126 0.428963
0.900077 0.652281 0.444976
0.944327 0.694931 0.456733
0.130277 0.639605 0.482731
0.175065 0.635919 0.477830
0.307154 0.625441 0.461366
0.443769 0.614402 0.438039
0.556977 0.610671 0.418737
0.668080 0.619845 0.409645
0.784719 0.646624 0.415166
0.883397 0.684804 0.429308
0.935458 0.722053 0.441785
0.147849 0.712210 0.470636
0.190783 0.709918 0.467688
0.315444 0.703124 0.457170
0.452913 0.695218 0.442738
0.570697 0.690988 0.429195
0.681672 0.694258 0.420283
0.785559 0.706577 0.417741
0.873782 0.727803 0.422049
0.929400 0.757357 0.432969
0.165607 0.768640 0.453198
0.205388 0.767475 0.451421
0.318742 0.763895 0.445731
0.452399 0.759412 0.437589
0.571583 0.756935 0.429495
0.684423 0.758925 0.423707
0.787965 0.766689 0.421686
0.872493 0.779684 0.423677
0.923750 0.796254 0.429047
0.182888 0.807932 0.434131
0.217960 0.807491 0.433297
0.319131 0.806191 0.430611
0.446227 0.804798 0.426718
0.563807 0.804572 0.422944
0.677485 0.806751 0.420609
0.781814 0.812163 0.420645
0.868814 0.821052 0.423436
0.920174 0.833088 0.428830
0.079466 0.123048 0.738513
0.160910 0.154904 0.738876
0.398121 0.256937 0.740181
0.616735 0.366191 0.742569
0.796240 0.472765 0.736254
0.876309 0.529009 0.688051
0.925595 0.574530 0.655871
0.951733 0.619117 0.634379
0.968742 0.661482 0.618710
0.081783 0.199368 0.738703
0.163683 0.227405 0.739066
0.399633 0.301982 0.740370
0.617515 0.397708 0.742757
0.764535 0.472822 0.710833
0.860596 0.529182 0.671550
0.917743 0.575126 0.645708
0.948648 0.620045 0.627867
0.967677 0.662607 0.614350
0.089015 0.353429 0.724243
0.163159 0.358875 0.713108
0.355810 0.379787 0.683386
0.527766 0.419165 0.654730
0.675414 0.473330 0.635753
0.803939 0.530612 0.623689
0.893444 0.577971 0.614886
0.938780 0.623889 0.607365
0.964193 0.666995 0.600297
0.094520 0.422803 0.612864
0.142838 0.419777 0.601534
0.277777 0.416094 0.572439
0.426488 0.431441 0.551610
0.574963 0.479454 0.555170
0.725946 0.536931 0.566487
0.851146 0.586042 0.574814
0.922071 0.632910 0.578987
0.954290 0.676365 0.579892
0.108166 0.535181 0.597201
0.150917 0.531336 0.588422
0.278412 0.520409 0.562123
0.403373 0.506489 0.528059
0.502756 0.500105 0.496106
0.662050 0.555409 0.521944
0.803002 0.604460 0.540209
0.897760 0.650509 0.552058
0.943014 0.693020 0.559024
0.126502 0.624100 0.592051
0.167722 0.621190 0.586641
0.295636 0.612701 0.569843
0.430955 0.603174 0.546858
0.541355 0.599066 0.525353
0.650623 0.607979 0.513436
0.773944 0.640208 0.521173
0.878867 0.680436 0.533454
0.933722 0.719051 0.542561
0.144662 0.700114 0.580826
0.185044 0.698213 0.577643
0.306769 0.692525 0.567449
0.443305 0.685807 0.552768
0.560000 0.682252 0.537877
0.670216 0.685794 0.526717
0.774340 0.698985 0.521766
0.869531 0.723435 0.524988
0.927448 0.754249 0.532705
0.162277 0.760681 0.564843
0.201029 0.759640 0.563027
0.312857 0.756505 0.557107
0.445920 0.752806 0.548271
0.564603 0.751036 0.538816
0.677367 0.753602 0.531029
0.781126 0.762124 0.526441
0.869122 0.776218 0.525615
0.921932 0.794698 0.528290
0.180630 0.803825 0.546079
0.215016 0.803470 0.545124
0.315502 0.802449 0.541981
0.442300 0.801468 0.537213
0.559705 0.801705 0.532024
0.673583 0.804362 0.527684
0.778345 0.810299 0.525173
0.866510 0.819816 0.525052
0.919419 0.832590 0.527199
0.079466 0.146408 0.861271
0.160910 0.179054 0.861491
0.398121 0.272404 0.862279
0.616735 0.376363 0.863725
0.807146 0.488393 0.865877
0.893501 0.548189 0.828579
0.932539 0.587855 0.789616
0.954998 0.627461 0.757226
0.969450 0.666101 0.733236
0.081783 0.220577 0.861386
0.163683 0.246366 0.861605
0.399633 0.314461 0.862393
0.617515 0.407027 0.863839
0.802572 0.506605 0.861567
0.881175 0.548779 0.814148
0.928040 0.588476 0.778681
0.951877 0.628285 0.750059
0.968365 0.667113 0.728406
0.089556 0.373705 0.861798
0.173368 0.386908 0.862017
0.405027 0.430758 0.862804
0.580015 0.467393 0.828745
0.720179 0.511255 0.796331
0.831262 0.551026 0.767381
0.903548 0.591111 0.744788
0.941803 0.631628 0.727223
0.964793 0.671045 0.712634
0.097323 0.453118 0.766953
0.151504 0.454674 0.760131
0.313478 0.462787 0.741321
0.477851 0.483901 0.721665
0.621706 0.519899 0.708954
0.755366 0.556922 0.702448
0.865857 0.597814 0.698154
0.926284 0.639315 0.693500
0.955102 0.679439 0.687735
0.107121 0.531365 0.708473
0.149503 0.529659 0.701529
0.280943 0.525515 0.679282
0.421433 0.524918 0.651979
0.546806 0.538084 0.636282
0.682780 0.570723 0.640416
0.811421 0.612142 0.650301
0.899733 0.654237 0.657432
0.943130 0.694473 0.660594
0.123547 0.612059 0.693775
0.161916 0.610048 0.688353
0.287309 0.604123 0.671047
0.422416 0.597326 0.646116
0.533153 0.593801 0.620263
0.632698 0.596686 0.598489
0.770299 0.638938 0.616982
0.877468 0.679953 0.630129
0.932987 0.718456 0.638340
0.141553 0.688624 0.682374
0.179602 0.687178 0.678936
0.298622 0.682831 0.667748
0.434646 0.677667 0.651070
0.550687 0.675009 0.633177
0.659685 0.678314 0.618377
0.763148 0.691636 0.611174
0.864247 0.720072 0.616648
0.925225 0.752216 0.624606
0.158793 0.752250 0.666064
0.196491 0.751446 0.664008
0.306772 0.749047 0.657226
0.439375 0.746332 0.646855
0.557731 0.745448 0.635353
0.670474 0.748623 0.625252
0.774291 0.757651 0.618617
0.863970 0.772879 0.616480
0.920223 0.793410 0.618950
0.178155 0.799405 0.645511
0.211798 0.799155 0.644377
0.311532 0.798475 0.640610
0.438085 0.798003 0.634763
0.555385 0.798806 0.628135
0.669544 0.802016 0.622200
0.774785 0.808513 0.618167
0.864164 0.818685 0.616683
0.918684 0.832245 0.617648
0.079466 0.177469 0.931044
0.160910 0.208139 0.931104
0.398121 0.290338 0.931318
0.616735 0.388862 0.931679
0.807146 0.497379 0.932202
0.907552 0.567363 0.921211
0.938821 0.603027 0.888620
0.959204 0.638276 0.861255
0.970623 0.673117 0.832616
0.081783 0.245235 0.931075
0.163683 0.267543 0.931135
0.399633 0.329629 0.931349
0.617515 0.418539 0.931707
0.807555 0.518890 0.932229
0.897228 0.568603 0.911430
0.934546 0.603883 0.882026
0.956125 0.639134 0.854442
0.969536 0.674085 0.827942
0.089556 0.386303 0.931187
0.173368 0.399073 0.931247
0.405027 0.441453 0.931456
0.619672 0.507159 0.931608
0.757654 0.539948 0.906054
0.858829 0.572561 0.881319
0.915472 0.607074 0.856936
0.946108 0.642461 0.832489
0.965939 0.677800 0.812630
0.100897 0.492962 0.892589
0.164438 0.496003 0.889365
0.346178 0.507257 0.879407
0.518949 0.526225 0.864143
0.663897 0.550039 0.843879
0.788753 0.579926 0.826647
0.880328 0.613922 0.812496
0.931220 0.649692 0.800454
0.957208 0.685586 0.789369
0.108486 0.543116 0.820490
0.152965 0.543303 0.816438
0.296345 0.545122 0.804127
0.450975 0.552115 0.788255
0.585293 0.568111 0.773977
0.715011 0.594081 0.766905
0.829146 0.627106 0.764387
0.905667 0.663138 0.762649
0.944696 0.699361 0.759686
0.122112 0.607611 0.787813
0.159390 0.606631 0.783539
0.285393 0.604008 0.769795
0.425833 0.602244 0.749981
0.545246 0.605583 0.730657
0.663323 0.620386 0.720595
0.784062 0.649894 0.723669
0.881111 0.685578 0.730034
0.933656 0.721149 0.734087
0.139001 0.679747 0.772066
0.175224 0.678798 0.769042
0.292396 0.675986 0.759067
0.428761 0.672858 0.743773
0.545593 0.671874 0.726493
0.654376 0.675356 0.710385
0.752502 0.684920 0.697517
0.862437 0.719805 0.709264
0.924511 0.752361 0.716810
0.155502 0.744520 0.756879
0.192225 0.743974 0.754973
0.301125 0.742391 0.748623
0.433472 0.740807 0.738706
0.551806 0.740981 0.727277
0.664684 0.744798 0.716663
0.768217 0.753973 0.708741
0.859058 0.769917 0.705801
0.918826 0.792617 0.709195
0.175645 0.795046 0.737902
0.208623 0.794912 0.736805
0.307539 0.794613 0.733127
0.433899 0.794714 0.727332
0.551186 0.796155 0.720598
0.665710 0.799968 0.714322
0.771453 0.807022 0.709603
0.861986 0.817812 0.707504
0.918061 0.832163 0.708038
0.079466 0.212775 0.962438
0.160910 0.239564 0.962477
0.398121 0.309824 0.962617
0.616735 0.403595 0.962876
0.807146 0.508094 0.963261
0.918231 0.584439 0.960850
0.944308 0.617752 0.942524
0.963370 0.649768 0.926562
0.971942 0.681277 0.903192
0.081783 0.270848 0.962458
0.163683 0.289794 0.962497
0.399633 0.347093 0.962638
0.617515 0.432121 0.962896
0.807555 0.526803 0.963282
0.908758 0.586390 0.956125
0.940275 0.618948 0.939176
0.960390 0.650760 0.921887
0.970871 0.682268 0.899889
0.089556 0.401132 0.962532
0.173368 0.413395 0.962571
0.405027 0.454122 0.962711
0.620305 0.518096 0.962970
0.785846 0.562575 0.955881
0.877618 0.592346 0.941223
0.926632 0.623082 0.927873
0.950628 0.654431 0.906627
0.967310 0.685992 0.888965
0.103836 0.526922 0.951971
0.176413 0.529617 0.950416
0.372321 0.538797 0.945335
0.550292 0.554525 0.937633
0.696929 0.575880 0.928557
0.814440 0.601758 0.912043
0.893690 0.630826 0.896951
0.935910 0.661831 0.883766
0.959982 0.693563 0.872172
0.111070 0.563377 0.907702
0.160359 0.564519 0.905643
0.315017 0.569028 0.899081
0.478182 0.578542 0.889697
0.618162 0.594421 0.880013
0.744183 0.616731 0.871632
0.848995 0.644139 0.862500
0.913485 0.674787 0.853578
0.947189 0.706617 0.845119
0.122616 0.612841 0.871296
0.160887 0.612847 0.869448
0.290844 0.613462 0.860546
0.438367 0.616663 0.847560
0.566545 0.625291 0.834850
0.689417 0.641738 0.826160
0.802763 0.666151 0.822280
0.888357 0.695724 0.820892
0.935523 0.726718 0.819428
0.137495 0.675568 0.847670
0.172760 0.675151 0.845397
0.289537 0.674085 0.837851
0.427543 0.673646 0.826177
0.548037 0.675941 0.813009
0.662316 0.683564 0.801640
0.770715 0.700173 0.796183
0.869093 0.726433 0.797838
0.926031 0.755635 0.800681
0.153354 0.738501 0.832143
0.188775 0.738223 0.830600
0.296585 0.737507 0.825421
0.429013 0.737198 0.817198
0.547922 0.738698 0.807469
0.661598 0.743513 0.798040
0.765200 0.752893 0.790452
0.854619 0.767519 0.785016
0.918312 0.792946 0.790864
0.173283 0.791131 0.815734
0.205674 0.791118 0.814810
0.303821 0.791215 0.811699
0.430055 0.791923 0.806736
0.547462 0.794047 0.800861
0.662454 0.798494 0.795251
0.768719 0.806075 0.791016
0.860203 0.817362 0.788706
0.917633 0.832440 0.789276
0.079466 0.248869 0.976624
0.160910 0.270576 0.976639
0.398121 0.331953 0.976691
0.616735 0.420330 0.976787
0.807146 0.519928 0.976930
0.924213 0.597921 0.977123
0.948347 0.630727 0.968083
0.965122 0.660587 0.956798
0.973124 0.689431 0.943403
0.081783 0.296303 0.976632
0.163683 0.312938 0.976646
0.399633 0.366692 0.976699
0.617515 0.447478 0.976795
0.807555 0.535730 0.976938
0.916341 0.601296 0.975170
0.944589 0.632295 0.966514
0.963728 0.661760 0.954456
0.972082 0.690488 0.941694
0.089556 0.417979 0.976659
0.173368 0.429699 0.976674
0.405027 0.468649 0.976726
0.620305 0.527492 0.976822
0.802226 0.580781 0.975847
0.888727 0.609180 0.968339
0.932384 0.637513 0.959179
0.954570 0.665946 0.946720
0.968603 0.694382 0.935994
0.105857 0.549878 0.975148
0.184909 0.552616 0.974418
0.390914 0.561910 0.971970
0.572579 0.577252 0.968072
0.721398 0.597303 0.963172
0.834639 0.620712 0.953126
0.903916 0.646454 0.943556
0.940237 0.673848 0.934851
0.962764 0.702020 0.925311
0.114459 0.584673 0.952430
0.168420 0.586173 0.951506
0.331765 0.591619 0.948434
0.500108 0.601756 0.943624
0.644691 0.616862 0.937922
0.768543 0.636648 0.932094
0.866913 0.660361 0.924343
0.921209 0.686825 0.914358
0.949904 0.714750 0.905107
0.124458 0.625012 0.928618
0.165049 0.625658 0.927535
0.300131 0.628281 0.922859
0.453112 0.634119 0.915791
0.586857 0.644566 0.908009
0.711450 0.660552 0.900980
0.819172 0.681797 0.895278
0.895945 0.706999 0.890595
0.937866 0.733639 0.886253
0.137287 0.677211 0.903483
0.172615 0.677308 0.902265
0.290573 0.677961 0.898210
0.431609 0.680262 0.891920
0.556526 0.685885 0.884848
0.675791 0.696638 0.878700
0.786277 0.713734 0.874718
0.875526 0.735759 0.872818
0.928610 0.760975 0.871694
0.152032 0.735143 0.889309
0.186586 0.735136 0.888402
0.293769 0.735320 0.885338
0.426494 0.736422 0.880425
0.547089 0.739601 0.874551
0.662826 0.746178 0.868664
0.769159 0.757502 0.862039
0.861676 0.774456 0.859246
0.919529 0.795333 0.859830
0.171238 0.787557 0.877628
0.203131 0.787681 0.877056
0.300656 0.788263 0.875120
0.426577 0.789827 0.872002
0.544569 0.792783 0.867768
0.660184 0.797901 0.862229
0.767089 0.806013 0.857923
0.859259 0.817657 0.855721
0.917475 0.833169 0.856220
