provia100f/Provia100F_Classic_Punchy.cube
TITLE "Fuji Provia 100F Classic Punchy"
# Adobe RGB in/out. REPLACES AgX. Fuji Provia 100F Classic Punchy.
LUT_3D_SIZE 33
DOMAIN_MIN 0.0 0.0 0.0
DOMAIN_MAX 1.0 1.0 1.0
0.094030 0.090395 0.084181
0.094030 0.090395 0.084181
0.094027 0.090395 0.084181
0.094059 0.090395 0.084181
0.094176 0.090395 0.084181
0.095011 0.090395 0.084181
0.097233 0.090395 0.084181
0.102539 0.090395 0.084181
0.114449 0.090401 0.084181
0.134631 0.090424 0.084180
0.173460 0.090456 0.084180
0.219061 0.090724 0.084180
0.278959 0.091277 0.084179
0.344602 0.092448 0.084185
0.413261 0.094587 0.084190
0.465253 0.098115 0.084196
0.525164 0.106999 0.084211
0.576525 0.117279 0.084227
0.629541 0.132335 0.084243
0.683416 0.159390 0.084257
0.734534 0.195641 0.084277
0.768659 0.241699 0.084302
0.800584 0.284898 0.084326
0.828021 0.327306 0.084364
0.854749 0.377572 0.084403
0.876581 0.419252 0.084441
0.896492 0.467365 0.084479
0.911078 0.501646 0.084533
0.922679 0.541504 0.084586
0.932283 0.580849 0.084636
0.943498 0.616218 0.084691
0.950734 0.645194 0.084812
0.957787 0.674547 0.084946
0.094030 0.090395 0.084181
0.094030 0.090395 0.084181
0.094027 0.090395 0.084181
0.094060 0.090395 0.084181
0.094176 0.090395 0.084181
0.095015 0.090395 0.084181
0.097237 0.090395 0.084181
0.102548 0.090395 0.084181
0.114469 0.090404 0.084181
0.134660 0.090426 0.084180
0.173501 0.090458 0.084180
0.219098 0.090756 0.084180
0.279001 0.091344 0.084179
0.344640 0.092504 0.084185
0.413291 0.094719 0.084190
0.465281 0.098463 0.084196
0.525189 0.107445 0.084212
0.576549 0.117680 0.084228
0.629565 0.133031 0.084243
0.683439 0.160492 0.084257
0.734547 0.196915 0.084277
0.768664 0.243112 0.084302
0.800594 0.285795 0.084326
0.828030 0.328642 0.084364
0.854757 0.378559 0.084403
0.876587 0.420612 0.084441
0.896497 0.468228 0.084479
0.911082 0.502501 0.084533
0.922681 0.542279 0.084586
0.932290 0.581618 0.084636
0.943499 0.616749 0.084692
0.950735 0.645711 0.084813
0.957788 0.675051 0.084946
0.094030 0.090395 0.084181
0.094030 0.090395 0.084181
0.094027 0.090395 0.084181
0.094061 0.090395 0.084181
0.094177 0.090395 0.084181
0.095027 0.090395 0.084181
0.097250 0.090395 0.084181
0.102581 0.090395 0.084181
0.114539 0.090411 0.084181
0.134763 0.090435 0.084180
0.173648 0.090466 0.084180
0.219231 0.090869 0.084180
0.279151 0.091578 0.084179
0.344778 0.092744 0.084185
0.413397 0.095186 0.084191
0.465384 0.099704 0.084196
0.525279 0.108935 0.084212
0.576636 0.119114 0.084228
0.629648 0.135537 0.084243
0.683524 0.164481 0.084257
0.734593 0.201522 0.084278
0.768680 0.248234 0.084303
0.800627 0.289021 0.084327
0.828061 0.333459 0.084365
0.854785 0.382107 0.084404
0.876608 0.425513 0.084441
0.896517 0.471331 0.084480
0.911095 0.505572 0.084534
0.922689 0.545060 0.084587
0.932318 0.584380 0.084637
0.943505 0.618654 0.084692
0.950741 0.647567 0.084815
0.957792 0.676861 0.084948
0.094030 0.090395 0.084181
0.094030 0.090395 0.084181
0.094027 0.090395 0.084181
0.094063 0.090395 0.084181
0.094180 0.090395 0.084181
0.095051 0.090395 0.084181
0.097274 0.090395 0.084181
0.102641 0.090403 0.084181
0.114669 0.090423 0.084181
0.134954 0.090451 0.084180
0.173919 0.090585 0.084180
0.219476 0.091065 0.084180
0.279428 0.091991 0.084179
0.345032 0.093325 0.084185
0.413592 0.096022 0.084191
0.465572 0.101957 0.084196
0.525445 0.111295 0.084213
0.576794 0.121735 0.084229
0.629801 0.140299 0.084244
0.683680 0.171938 0.084258
0.734678 0.210138 0.084279
0.768710 0.256735 0.084304
0.800689 0.295161 0.084328
0.828119 0.342396 0.084366
0.854837 0.388647 0.084405
0.876646 0.434585 0.084443
0.896553 0.476662 0.084482
0.911120 0.511223 0.084536
0.922705 0.550173 0.084588
0.932369 0.589457 0.084639
0.943517 0.622149 0.084694
0.950752 0.650973 0.084818
0.957800 0.680182 0.084951
0.094030 0.090395 0.084181
0.094030 0.090395 0.084181
0.094026 0.090395 0.084181
0.094067 0.090395 0.084181
0.094183 0.090395 0.084181
0.095086 0.090395 0.084181
0.097310 0.090406 0.084181
0.102732 0.090422 0.084181
0.114863 0.090446 0.084181
0.135239 0.090471 0.084180
0.174323 0.090903 0.084180
0.219843 0.091535 0.084180
0.279843 0.092567 0.084180
0.345411 0.094624 0.084186
0.413883 0.097563 0.084192
0.465854 0.105446 0.084198
0.525692 0.115115 0.084214
0.577032 0.127267 0.084230
0.630030 0.149335 0.084245
0.683914 0.182438 0.084259
0.734805 0.223357 0.084281
0.768755 0.268497 0.084305
0.800781 0.304535 0.084329
0.828205 0.355942 0.084369
0.854914 0.398166 0.084407
0.876704 0.447041 0.084444
0.896607 0.483265 0.084485
0.911156 0.519675 0.084538
0.922728 0.557813 0.084590
0.932446 0.597045 0.084641
0.943534 0.627357 0.084696
0.950768 0.656049 0.084823
0.957811 0.685134 0.084956
0.094030 0.090395 0.084181
0.094030 0.090395 0.084181
0.094027 0.090395 0.084181
0.094072 0.090399 0.084181
0.094187 0.090407 0.084181
0.095132 0.090418 0.084181
0.097359 0.090433 0.084181
0.102854 0.090453 0.084181
0.115125 0.090503 0.084181
0.135623 0.090894 0.084180
0.174870 0.091402 0.084180
0.220339 0.092350 0.084180
0.280404 0.093870 0.084181
0.345923 0.096322 0.084187
0.414277 0.102151 0.084192
0.466235 0.110829 0.084200
0.526026 0.120459 0.084216
0.577353 0.136551 0.084232
0.630339 0.163914 0.084246
0.684229 0.198327 0.084260
0.734977 0.241850 0.084283
0.768815 0.283184 0.084307
0.800906 0.322052 0.084332
0.828322 0.371656 0.084372
0.855019 0.409655 0.084410
0.876781 0.458582 0.084447
0.896680 0.492146 0.084488
0.911205 0.530343 0.084542
0.922759 0.568120 0.084593
0.932549 0.606251 0.084644
0.943556 0.634356 0.084699
0.950789 0.662874 0.084830
0.957827 0.691793 0.084962
0.094030 0.090422 0.084181
0.094030 0.090423 0.084181
0.094029 0.090426 0.084181
0.094077 0.090433 0.084181
0.094193 0.090443 0.084181
0.095191 0.090456 0.084181
0.097420 0.090470 0.084181
0.103008 0.090729 0.084181
0.115349 0.091043 0.084180
0.136112 0.091619 0.084180
0.175567 0.092442 0.084180
0.220969 0.093846 0.084180
0.281117 0.096078 0.084182
0.346574 0.100856 0.084188
0.414778 0.108798 0.084193
0.466719 0.117443 0.084202
0.526451 0.129949 0.084218
0.577762 0.151418 0.084234
0.630732 0.182427 0.084248
0.684630 0.220663 0.084262
0.735196 0.263727 0.084286
0.768892 0.298798 0.084310
0.801064 0.344902 0.084336
0.828471 0.388435 0.084375
0.855152 0.431437 0.084413
0.876880 0.473259 0.084450
0.896773 0.505680 0.084492
0.911267 0.543515 0.084546
0.922798 0.581202 0.084597
0.932680 0.615319 0.084648
0.943585 0.643195 0.084703
0.950816 0.671496 0.084839
0.957846 0.700211 0.084971
0.094030 0.090469 0.084181
0.094030 0.090470 0.084181
0.094031 0.090476 0.084181
0.094084 0.090573 0.084181
0.094200 0.090710 0.084181
0.095261 0.090886 0.084181
0.097493 0.091095 0.084181
0.103195 0.091524 0.084181
0.115482 0.092160 0.084180
0.136710 0.092915 0.084180
0.176419 0.094567 0.084180
0.221740 0.096518 0.084179
0.281989 0.101463 0.084184
0.347370 0.108779 0.084189
0.415389 0.116677 0.084194
0.467311 0.127322 0.084206
0.526970 0.145450 0.084221
0.578261 0.174486 0.084236
0.631213 0.207893 0.084250
0.685120 0.249562 0.084264
0.735462 0.286242 0.084289
0.768985 0.323899 0.084313
0.801258 0.371020 0.084340
0.828652 0.407331 0.084380
0.855315 0.454458 0.084417
0.877001 0.487589 0.084454
0.896886 0.523376 0.084498
0.911344 0.559563 0.084551
0.922846 0.597144 0.084602
0.932841 0.626294 0.084653
0.943621 0.653900 0.084715
0.950850 0.681945 0.084850
0.957870 0.710417 0.084981
0.094030 0.091183 0.084181
0.094028 0.091195 0.084181
0.094034 0.091289 0.084181
0.094092 0.091471 0.084181
0.094207 0.091735 0.084181
0.095343 0.092077 0.084181
0.097580 0.092490 0.084181
0.103416 0.093095 0.084180
0.115639 0.094439 0.084180
0.137418 0.095977 0.084180
0.177430 0.098747 0.084180
0.222655 0.104011 0.084180
0.283025 0.110807 0.084185
0.348316 0.118212 0.084190
0.416114 0.128684 0.084195
0.468013 0.145523 0.084209
0.527586 0.172395 0.084224
0.578852 0.202993 0.084239
0.631783 0.241410 0.084253
0.685701 0.279345 0.084269
0.735779 0.311114 0.084293
0.769097 0.357320 0.084316
0.801487 0.395386 0.084346
0.828867 0.438261 0.084385
0.855508 0.475658 0.084422
0.877145 0.506353 0.084458
0.897021 0.542494 0.084504
0.911434 0.578555 0.084556
0.922903 0.612350 0.084607
0.933031 0.639182 0.084659
0.943663 0.666481 0.084728
0.950889 0.694233 0.084862
0.957898 0.722425 0.084993
0.094029 0.092979 0.084181
0.094027 0.093009 0.084181
0.094037 0.093149 0.084181
0.094100 0.093502 0.084181
0.094216 0.094039 0.084181
0.095437 0.094782 0.084181
0.097679 0.095693 0.084180
0.103670 0.096759 0.084180
0.115820 0.099792 0.084180
0.138287 0.103868 0.084180
0.178608 0.109403 0.084180
0.223718 0.115197 0.084182
0.284228 0.122046 0.084187
0.349414 0.134117 0.084192
0.416957 0.151778 0.084198
0.468828 0.177074 0.084213
0.528302 0.205803 0.084228
0.579540 0.241731 0.084242
0.632445 0.277358 0.084255
0.686376 0.306280 0.084273
0.736146 0.349462 0.084297
0.769226 0.387722 0.084320
0.801754 0.424842 0.084353
0.829118 0.465536 0.084391
0.855732 0.494722 0.084428
0.877311 0.530104 0.084463
0.897177 0.564622 0.084511
0.911539 0.600544 0.084563
0.922970 0.627501 0.084613
0.933252 0.653974 0.084665
0.943712 0.680931 0.084744
0.950935 0.708356 0.084877
0.957931 0.736237 0.085006
0.094027 0.097163 0.084181
0.094028 0.097267 0.084181
0.094040 0.097791 0.084181
0.094109 0.098749 0.084181
0.094226 0.100171 0.084181
0.095561 0.102068 0.084180
0.097790 0.104493 0.084180
0.103957 0.108213 0.084180
0.116146 0.111936 0.084180
0.139413 0.116673 0.084180
0.179954 0.122107 0.084179
0.224934 0.131732 0.084184
0.285605 0.144581 0.084189
0.350669 0.164839 0.084194
0.417919 0.187314 0.084203
0.469759 0.216574 0.084218
0.529118 0.250650 0.084232
0.580325 0.281656 0.084246
0.633201 0.309346 0.084259
0.687147 0.349978 0.084279
0.736566 0.386115 0.084302
0.769373 0.419878 0.084325
0.802058 0.460631 0.084360
0.829403 0.489594 0.084398
0.855988 0.522449 0.084434
0.877501 0.555439 0.084469
0.897355 0.589801 0.084519
0.911659 0.618995 0.084571
0.923046 0.644562 0.084620
0.933505 0.670647 0.084672
0.943768 0.697231 0.084761
0.950987 0.724301 0.084893
0.957969 0.751840 0.085022
0.094028 0.110685 0.084181
0.094032 0.110833 0.084181
0.094050 0.111366 0.084181
0.094125 0.112342 0.084181
0.094243 0.113982 0.084180
0.095733 0.116231 0.084180
0.097914 0.119069 0.084180
0.104278 0.122501 0.084180
0.117027 0.128883 0.084180
0.140683 0.137202 0.084180
0.181475 0.148842 0.084182
0.226305 0.165673 0.084187
0.287158 0.184109 0.084191
0.352084 0.207852 0.084195
0.419003 0.235989 0.084208
0.470808 0.265519 0.084223
0.530039 0.291043 0.084236
0.581209 0.320494 0.084249
0.634053 0.358975 0.084262
0.688016 0.390621 0.084285
0.737039 0.423350 0.084308
0.769539 0.461089 0.084330
0.802401 0.488593 0.084368
0.829725 0.519404 0.084405
0.856276 0.551084 0.084441
0.877715 0.583866 0.084476
0.897556 0.613776 0.084529
0.911794 0.638359 0.084579
0.923131 0.663496 0.084628
0.933789 0.689166 0.084681
0.943830 0.715354 0.084781
0.951046 0.742042 0.084912
0.958011 0.769215 0.085039
0.094033 0.129385 0.084180
0.094036 0.129674 0.084180
0.094066 0.130713 0.084180
0.094142 0.132629 0.084180
0.094263 0.135506 0.084180
0.095920 0.139428 0.084180
0.098124 0.145360 0.084180
0.104632 0.154490 0.084180
0.118007 0.165832 0.084180
0.142100 0.179246 0.084180
0.183174 0.194450 0.084185
0.227836 0.214447 0.084189
0.288892 0.237885 0.084193
0.353663 0.262730 0.084200
0.420211 0.285536 0.084214
0.471978 0.307515 0.084228
0.531064 0.340147 0.084241
0.582195 0.373200 0.084254
0.635003 0.400644 0.084269
0.688985 0.435422 0.084292
0.737565 0.466963 0.084314
0.769723 0.491768 0.084340
0.802783 0.521750 0.084377
0.830083 0.551617 0.084413
0.856597 0.582802 0.084448
0.877954 0.611926 0.084487
0.897780 0.635452 0.084539
0.911945 0.659568 0.084588
0.923227 0.684255 0.084637
0.934107 0.709492 0.084690
0.943901 0.735261 0.084803
0.951112 0.761547 0.084932
0.958058 0.788333 0.085058
0.094037 0.171540 0.084180
0.094040 0.172016 0.084180
0.094081 0.173729 0.084180
0.094160 0.176902 0.084180
0.094401 0.181063 0.084180
0.096120 0.186699 0.084180
0.098551 0.195612 0.084180
0.105017 0.206778 0.084180
0.119085 0.220431 0.084180
0.143668 0.236833 0.084184
0.185055 0.255540 0.084187
0.229528 0.273911 0.084191
0.292890 0.290664 0.084195
0.355408 0.310105 0.084207
0.421545 0.337760 0.084220
0.473269 0.367729 0.084233
0.532196 0.391978 0.084246
0.583284 0.417223 0.084258
0.636052 0.452073 0.084276
0.690055 0.477638 0.084299
0.738147 0.500177 0.084320
0.769927 0.528927 0.084350
0.803205 0.557080 0.084387
0.830479 0.586657 0.084422
0.856952 0.613493 0.084456
0.878218 0.635897 0.084499
0.898028 0.658928 0.084549
0.912111 0.682565 0.084598
0.923332 0.706787 0.084647
0.934458 0.731575 0.084700
0.943978 0.756911 0.084827
0.951184 0.782778 0.084954
0.958111 0.800752 0.085079
0.094044 0.233351 0.084180
0.094057 0.233930 0.084180
0.094096 0.236015 0.084180
0.094178 0.239877 0.084180
0.094601 0.245712 0.084180
0.096333 0.253447 0.084180
0.099076 0.261823 0.084180
0.105488 0.272195 0.084180
0.120262 0.283184 0.084183
0.145388 0.294071 0.084187
0.187122 0.307918 0.084190
0.231385 0.328228 0.084194
0.298443 0.351496 0.084201
0.357322 0.374007 0.084214
0.423007 0.394592 0.084227
0.474684 0.415640 0.084239
0.533437 0.447741 0.084251
0.584477 0.470608 0.084263
0.637201 0.490629 0.084285
0.691227 0.515157 0.084306
0.738784 0.540964 0.084327
0.770151 0.567499 0.084361
0.803667 0.595460 0.084397
0.830913 0.618491 0.084431
0.857341 0.639717 0.084465
0.878507 0.661607 0.084512
0.898299 0.684138 0.084561
0.912293 0.707288 0.084609
0.923447 0.731037 0.084659
0.934756 0.755366 0.084723
0.944063 0.780256 0.084853
0.951264 0.799323 0.084979
0.958168 0.812506 0.085102
0.094065 0.295906 0.084180
0.094077 0.296297 0.084180
0.094113 0.297703 0.084180
0.094196 0.300293 0.084180
0.094810 0.304175 0.084180
0.096558 0.311416 0.084179
0.099637 0.320749 0.084181
0.106237 0.332301 0.084184
0.121539 0.346229 0.084187
0.147263 0.362702 0.084190
0.189379 0.376751 0.084193
0.233409 0.391980 0.084198
0.301527 0.407319 0.084210
0.359407 0.430432 0.084221
0.424597 0.453869 0.084233
0.476224 0.473453 0.084245
0.534787 0.490262 0.084256
0.585775 0.511356 0.084272
0.638452 0.534468 0.084293
0.692504 0.557964 0.084314
0.739477 0.582883 0.084338
0.770393 0.607611 0.084373
0.804170 0.626897 0.084408
0.831385 0.646904 0.084441
0.857764 0.667608 0.084475
0.878821 0.688985 0.084525
0.898548 0.711014 0.084574
0.912492 0.733675 0.084621
0.923573 0.756946 0.084671
0.935025 0.780809 0.084753
0.944155 0.799139 0.084880
0.951350 0.811755 0.085005
0.958230 0.825221 0.085126
0.094085 0.369688 0.084179
0.094095 0.370098 0.084179
0.094138 0.371573 0.084179
0.094214 0.374289 0.084180
0.095024 0.378357 0.084181
0.096793 0.383865 0.084183
0.100232 0.390888 0.084185
0.107088 0.399058 0.084187
0.122916 0.407902 0.084190
0.149296 0.421749 0.084193
0.191671 0.440509 0.084196
0.237455 0.455504 0.084207
0.303963 0.470336 0.084218
0.361667 0.484149 0.084229
0.426319 0.498657 0.084240
0.477891 0.518039 0.084251
0.536248 0.537545 0.084262
0.587180 0.558024 0.084282
0.639807 0.579916 0.084302
0.693887 0.603225 0.084322
0.740227 0.620647 0.084352
0.770656 0.638658 0.084386
0.804714 0.657417 0.084419
0.831896 0.676902 0.084452
0.858222 0.697090 0.084491
0.879161 0.717960 0.084539
0.898777 0.739491 0.084587
0.912706 0.761662 0.084633
0.923708 0.784454 0.084684
0.935316 0.800213 0.084784
0.944255 0.812598 0.084910
0.951444 0.825536 0.085032
0.958293 0.838590 0.085152
0.094103 0.436925 0.084183
0.094114 0.437501 0.084183
0.094163 0.439574 0.084183
0.094237 0.443398 0.084184
0.095244 0.447569 0.084185
0.097037 0.452385 0.084187
0.100860 0.458511 0.084189
0.108314 0.465994 0.084191
0.123649 0.474878 0.084193
0.151486 0.482972 0.084196
0.193801 0.492050 0.084206
0.243656 0.504191 0.084216
0.306592 0.518871 0.084226
0.364103 0.533970 0.084236
0.428172 0.550086 0.084247
0.479823 0.567589 0.084257
0.537821 0.586490 0.084272
0.588693 0.605909 0.084292
0.641265 0.621029 0.084312
0.695375 0.636963 0.084332
0.741034 0.653690 0.084366
0.770939 0.671187 0.084399
0.805300 0.689434 0.084431
0.832446 0.708410 0.084463
0.858715 0.728093 0.084507
0.879528 0.748464 0.084555
0.899024 0.769501 0.084601
0.912937 0.791187 0.084648
0.923855 0.802825 0.084698
0.935630 0.815036 0.084818
0.944363 0.827406 0.084941
0.951545 0.839919 0.085062
0.958344 0.852563 0.085180
0.094130 0.493406 0.084187
0.094143 0.493683 0.084187
0.094187 0.494675 0.084188
0.094269 0.496775 0.084188
0.095468 0.500302 0.084189
0.097289 0.505069 0.084191
0.101517 0.511132 0.084193
0.109706 0.518538 0.084195
0.124220 0.526923 0.084198
0.153740 0.536196 0.084206
0.196086 0.546771 0.084215
0.246457 0.558671 0.084225
0.309342 0.571912 0.084234
0.366717 0.586509 0.084244
0.430158 0.602476 0.084254
0.482190 0.615002 0.084264
0.539506 0.627979 0.084283
0.590314 0.641796 0.084302
0.642828 0.656438 0.084321
0.696972 0.671886 0.084348
0.741898 0.688121 0.084380
0.771241 0.705124 0.084412
0.805927 0.722876 0.084444
0.833035 0.741357 0.084477
0.859243 0.760548 0.084524
0.879920 0.780429 0.084570
0.899289 0.797377 0.084616
0.913185 0.807470 0.084663
0.924011 0.819052 0.084729
0.935966 0.830820 0.084853
0.944478 0.842758 0.084974
0.951653 0.854853 0.085093
0.958399 0.867092 0.085209
0.094159 0.551981 0.084191
0.094171 0.552303 0.084191
0.094210 0.553462 0.084192
0.094566 0.555593 0.084192
0.095792 0.558780 0.084193
0.097549 0.563083 0.084195
0.102203 0.568551 0.084196
0.111178 0.575224 0.084202
0.126058 0.583136 0.084209
0.156149 0.592316 0.084217
0.198529 0.602787 0.084225
0.249456 0.611344 0.084233
0.312104 0.620463 0.084242
0.369513 0.630453 0.084251
0.432278 0.641306 0.084261
0.484637 0.653011 0.084277
0.541306 0.665559 0.084295
0.592046 0.678934 0.084313
0.644497 0.693122 0.084332
0.698677 0.708107 0.084364
0.742821 0.723872 0.084396
0.771564 0.740400 0.084427
0.806597 0.757675 0.084457
0.833664 0.775676 0.084496
0.859807 0.793924 0.084542
0.880339 0.802981 0.084587
0.899572 0.813683 0.084631
0.913450 0.824611 0.084680
0.924179 0.835751 0.084768
0.936326 0.847087 0.084890
0.944601 0.858604 0.085009
0.951769 0.870289 0.085126
0.958457 0.878897 0.085251
0.094186 0.609253 0.084195
0.094197 0.609476 0.084195
0.094237 0.610276 0.084196
0.094863 0.611748 0.084196
0.096136 0.613945 0.084199
0.097815 0.616908 0.084203
0.102915 0.620664 0.084208
0.112729 0.625235 0.084213
0.128308 0.630637 0.084220
0.159111 0.636881 0.084227
0.201131 0.643974 0.084234
0.252656 0.651917 0.084242
0.315046 0.660712 0.084250
0.372492 0.670354 0.084259
0.434533 0.680839 0.084272
0.487243 0.692158 0.084289
0.543219 0.704302 0.084307
0.593887 0.717259 0.084324
0.646273 0.731017 0.084350
0.700491 0.745562 0.084381
0.743802 0.760879 0.084411
0.771907 0.776952 0.084441
0.807309 0.793431 0.084471
0.834333 0.801648 0.084515
0.860407 0.811392 0.084560
0.880785 0.821403 0.084604
0.899872 0.831663 0.084649
0.913731 0.842158 0.084697
0.924357 0.852871 0.084810
0.936708 0.863789 0.084929
0.944732 0.873918 0.085045
0.951892 0.881431 0.085160
0.958519 0.887946 0.085335
0.094212 0.652365 0.084205
0.094222 0.652580 0.084206
0.094328 0.653350 0.084207
0.095156 0.654765 0.084208
0.096484 0.656880 0.084211
0.098197 0.659730 0.084215
0.103652 0.663346 0.084219
0.114356 0.667749 0.084224
0.130691 0.672954 0.084230
0.162429 0.678973 0.084236
0.203937 0.685813 0.084243
0.256061 0.693480 0.084251
0.318170 0.701973 0.084259
0.376680 0.711292 0.084270
0.436924 0.721433 0.084286
0.490008 0.732389 0.084302
0.545248 0.744154 0.084319
0.595840 0.756716 0.084339
0.648157 0.770067 0.084368
0.702155 0.784193 0.084398
0.744842 0.796590 0.084427
0.772981 0.803479 0.084456
0.808064 0.812210 0.084491
0.835042 0.821242 0.084535
0.861044 0.830559 0.084579
0.881258 0.840145 0.084622
0.900191 0.849984 0.084667
0.914030 0.860063 0.084734
0.924545 0.870366 0.084852
0.937114 0.878038 0.084969
0.944871 0.884513 0.085083
0.952022 0.890699 0.085196
0.958585 0.896949 0.085452
0.094246 0.696310 0.084218
0.094261 0.696516 0.084218
0.094678 0.697258 0.084219
0.095447 0.698623 0.084220
0.096832 0.700660 0.084223
0.099112 0.703409 0.084226
0.104412 0.706896 0.084230
0.115547 0.711142 0.084235
0.133208 0.716165 0.084240
0.165957 0.721976 0.084246
0.207151 0.728583 0.084252
0.259673 0.735992 0.084259
0.321480 0.744205 0.084270
0.381488 0.753222 0.084285
0.439451 0.763041 0.084300
0.492934 0.773657 0.084315
0.547393 0.785064 0.084331
0.597905 0.795831 0.084359
0.650148 0.801189 0.084387
0.703915 0.808409 0.084415
0.745940 0.816096 0.084443
0.774255 0.824111 0.084471
0.808862 0.832440 0.084513
0.835792 0.841068 0.084556
0.861716 0.849981 0.084598
0.881757 0.859163 0.084640
0.900528 0.868602 0.084687
0.914345 0.876251 0.084781
0.924745 0.882577 0.084896
0.937542 0.888336 0.085010
0.945018 0.894181 0.085123
0.952160 0.900105 0.085236
0.958655 0.906100 0.085573
0.094442 0.741064 0.084229
0.094575 0.741263 0.084229
0.095019 0.741979 0.084230
0.095849 0.743296 0.084232
0.097182 0.745263 0.084234
0.100054 0.747917 0.084237
0.105193 0.751285 0.084241
0.116533 0.755387 0.084245
0.135860 0.760241 0.084250
0.169698 0.765859 0.084255
0.210550 0.772249 0.084261
0.263495 0.779418 0.084272
0.324975 0.787370 0.084285
0.386587 0.795286 0.084299
0.442116 0.799295 0.084313
0.496023 0.804120 0.084328
0.549653 0.810028 0.084352
0.600082 0.816306 0.084379
0.651852 0.822944 0.084406
0.705771 0.829928 0.084433
0.747098 0.837248 0.084460
0.775598 0.844890 0.084494
0.809703 0.852841 0.084536
0.836582 0.861089 0.084577
0.862416 0.869620 0.084618
0.882284 0.876345 0.084662
0.900884 0.882170 0.084714
0.914678 0.887462 0.084829
0.924955 0.892862 0.084942
0.937864 0.898361 0.085054
0.945173 0.903952 0.085163
0.952306 0.909626 0.085331
0.958729 0.915376 0.085700
0.094820 0.786605 0.084240
0.094942 0.786798 0.084241
0.095351 0.787491 0.084241
0.096274 0.788764 0.084243
0.097531 0.790666 0.084245
0.101013 0.793006 0.084248
0.106436 0.795513 0.084251
0.118839 0.797160 0.084255
0.138773 0.799102 0.084259
0.173655 0.801342 0.084266
0.214135 0.804582 0.084277
0.267531 0.808291 0.084288
0.328662 0.812390 0.084301
0.391982 0.816875 0.084313
0.444918 0.821741 0.084327
0.499276 0.826981 0.084349
0.552031 0.832588 0.084374
0.602372 0.838552 0.084399
0.653463 0.844864 0.084425
0.707723 0.851514 0.084451
0.748315 0.858491 0.084479
0.777011 0.865785 0.084519
0.810588 0.872873 0.084559
0.837413 0.878307 0.084599
0.863007 0.883289 0.084639
0.882838 0.888087 0.084683
0.901257 0.893011 0.084767
0.915027 0.898053 0.084879
0.925177 0.903204 0.084989
0.938038 0.908457 0.085098
0.945336 0.913805 0.085205
0.952459 0.919239 0.085469
0.958806 0.924754 0.085830
0.095184 0.813176 0.084251
0.095296 0.813275 0.084251
0.095761 0.813631 0.084252
0.096692 0.814284 0.084253
0.097879 0.815259 0.084255
0.101986 0.816573 0.084258
0.108176 0.818238 0.084261
0.121242 0.820264 0.084266
0.142282 0.822657 0.084274
0.177834 0.825421 0.084283
0.217910 0.828558 0.084293
0.271784 0.832068 0.084304
0.332563 0.835951 0.084316
0.397680 0.840202 0.084328
0.447858 0.844818 0.084348
0.502694 0.849793 0.084371
0.554525 0.855121 0.084395
0.604775 0.860794 0.084419
0.655153 0.866805 0.084444
0.709771 0.872709 0.084468
0.749592 0.877296 0.084505
0.778493 0.881765 0.084544
0.811515 0.885903 0.084583
0.838285 0.890189 0.084621
0.863627 0.894616 0.084663
0.883419 0.899177 0.084711
0.901649 0.903863 0.084821
0.915395 0.908668 0.084930
0.925409 0.913584 0.085037
0.938221 0.918603 0.085144
0.945507 0.923720 0.085270
0.952619 0.928062 0.085611
0.958887 0.931088 0.085965
0.095552 0.837819 0.084262
0.095707 0.837913 0.084262
0.096234 0.838249 0.084262
0.097105 0.838866 0.084264
0.098657 0.839788 0.084268
0.102972 0.841030 0.084272
0.110358 0.842606 0.084277
0.123412 0.844523 0.084284
0.145969 0.846788 0.084292
0.182238 0.849406 0.084300
0.221876 0.852379 0.084309
0.276256 0.855707 0.084319
0.336658 0.859390 0.084331
0.402832 0.863427 0.084351
0.450938 0.867812 0.084372
0.506277 0.872295 0.084394
0.557137 0.875790 0.084416
0.607292 0.879509 0.084439
0.657077 0.882895 0.084463
0.711917 0.886338 0.084494
0.750928 0.889946 0.084532
0.780045 0.893714 0.084569
0.812486 0.897635 0.084606
0.839198 0.901702 0.084644
