provia100f/Provia100F_Modern_Punchy.cube
TITLE "Fuji Provia 100F Modern Punchy"
# Adobe RGB in/out. REPLACES AgX. Fuji Provia 100F Modern Punchy.
LUT_3D_SIZE 9
DOMAIN_MIN 0.0 0.0 0.0
DOMAIN_MAX 1.0 1.0 1.0
0.086435 0.087824 0.082231
0.096065 0.087824 0.082231
0.314565 0.091333 0.082229
0.739576 0.150229 0.082275
0.920035 0.356529 0.082446
0.964414 0.596369 0.082904
0.980047 0.768724 0.084070
0.986598 0.858953 0.085903
0.989457 0.908347 0.087936
0.086435 0.088076 0.082231
0.089224 0.088014 0.082231
0.222060 0.092154 0.082230
0.642447 0.156072 0.082255
0.903217 0.367575 0.082392
0.960998 0.603186 0.082845
0.978777 0.775100 0.084030
0.986251 0.861289 0.085755
0.989208 0.910029 0.087762
0.086437 0.173101 0.082231
0.095602 0.139253 0.082231
0.177282 0.117597 0.082230
0.472000 0.198944 0.082245
0.838623 0.421514 0.082339
0.945465 0.624644 0.082688
0.974599 0.797988 0.083590
0.984855 0.870352 0.085303
0.988392 0.916386 0.087246
0.087473 0.560292 0.082229
0.099696 0.517840 0.082229
0.220627 0.432391 0.082237
0.431699 0.415070 0.082252
0.755313 0.531090 0.082324
0.921379 0.680082 0.082572
0.965610 0.821182 0.083142
0.981194 0.880587 0.084735
0.987170 0.928194 0.086698
0.089124 0.818857 0.082253
0.102567 0.807517 0.082255
0.235544 0.757367 0.082271
0.473023 0.712302 0.082304
0.736883 0.721714 0.082349
0.896461 0.800498 0.082556
0.956896 0.861096 0.083033
0.977210 0.905762 0.084326
0.985758 0.940127 0.086290
0.091909 0.911607 0.082313
0.106733 0.906297 0.082317
0.239688 0.891814 0.082332
0.486761 0.878597 0.082356
0.754872 0.876894 0.082483
0.892204 0.880962 0.082688
0.947095 0.903063 0.083054
0.973017 0.935473 0.084213
0.983917 0.952118 0.086075
0.095951 0.952875 0.082371
0.112533 0.951789 0.082385
0.238851 0.948608 0.082434
0.482770 0.944803 0.082518
0.754972 0.942220 0.082655
0.892508 0.943321 0.082896
0.945471 0.947845 0.083431
0.969025 0.954604 0.084379
0.981593 0.963914 0.086106
0.100508 0.967420 0.082530
0.117777 0.966994 0.082542
0.235880 0.965774 0.082583
0.467868 0.964950 0.082697
0.738569 0.964433 0.082870
0.886968 0.964592 0.083138
0.943398 0.965600 0.084000
0.967768 0.968849 0.084978
0.979988 0.973125 0.086373
0.104909 0.976709 0.082692
0.121569 0.976575 0.082710
0.231879 0.976171 0.082775
0.443185 0.975702 0.082886
0.708274 0.975496 0.083077
0.875421 0.975862 0.083665
0.939322 0.976987 0.084318
0.965675 0.978907 0.085529
0.978879 0.981367 0.086811
0.086435 0.087824 0.083863
0.097872 0.087850 0.084034
0.314530 0.091523 0.084151
0.715022 0.142815 0.084521
0.912874 0.336273 0.085498
0.962636 0.580499 0.086647
0.979356 0.755841 0.088499
0.986409 0.855009 0.091526
0.989325 0.906052 0.097533
0.086435 0.087983 0.082672
0.087569 0.087870 0.082304
0.205728 0.091207 0.082777
0.608922 0.144802 0.083652
0.893969 0.342053 0.084795
0.959176 0.586596 0.086240
0.978080 0.761954 0.087889
0.986053 0.857327 0.091034
0.989077 0.907741 0.096837
0.086390 0.148835 0.083636
0.093205 0.117536 0.082864
0.148881 0.105398 0.082492
0.426061 0.175730 0.082762
0.817513 0.388548 0.083639
0.942077 0.611729 0.085127
0.973343 0.787414 0.086812
0.984611 0.866367 0.089635
0.988265 0.914129 0.094648
0.087373 0.524213 0.083810
0.098014 0.484746 0.083296
0.202691 0.385002 0.082859
0.391124 0.368594 0.082752
0.728531 0.507911 0.083015
0.916067 0.663056 0.084084
0.964413 0.815690 0.085916
0.980744 0.878558 0.087881
0.987050 0.926956 0.091648
0.088933 0.808825 0.083879
0.101679 0.797481 0.083676
0.228645 0.734135 0.083189
0.457735 0.689896 0.083053
0.717027 0.700882 0.083129
0.890523 0.790944 0.083913
0.955097 0.856203 0.085299
0.976819 0.902987 0.087009
0.985621 0.939025 0.090207
0.091661 0.906684 0.083990
0.105614 0.901448 0.083916
0.235860 0.887105 0.083737
0.478370 0.876944 0.083641
0.744720 0.873178 0.083805
0.888030 0.878366 0.084083
0.945829 0.900163 0.085121
0.972485 0.934219 0.086684
0.983709 0.951566 0.089345
0.095727 0.951807 0.084064
0.111846 0.950732 0.084062
0.236671 0.947580 0.084059
0.478128 0.943548 0.084067
0.749993 0.940912 0.084203
0.890099 0.942207 0.084765
0.944608 0.947095 0.085630
0.968681 0.954085 0.086698
0.981454 0.963769 0.089111
0.100346 0.966961 0.084095
0.117443 0.966539 0.084113
0.234646 0.965544 0.084194
0.465342 0.964730 0.084385
0.735157 0.964226 0.084768
0.885671 0.964404 0.085370
0.942926 0.965440 0.086172
0.967558 0.968614 0.087217
0.979906 0.973015 0.089480
0.104748 0.976534 0.084279
0.121379 0.976402 0.084315
0.231219 0.976006 0.084449
0.441248 0.975548 0.084737
0.706599 0.975358 0.085192
0.874700 0.975743 0.085815
0.939106 0.976892 0.086597
0.965588 0.978843 0.087789
0.978853 0.981340 0.090295
0.086435 0.087824 0.275099
0.097872 0.087890 0.278943
0.329956 0.093034 0.293313
0.753143 0.160326 0.263558
0.911649 0.337726 0.219723
0.961078 0.569420 0.208950
0.978400 0.740005 0.209669
0.986070 0.848514 0.215984
0.989053 0.901538 0.225683
0.086435 0.088722 0.277061
0.097698 0.089990 0.260874
0.262073 0.096695 0.188389
0.629143 0.156318 0.176893
0.889565 0.337907 0.179886
0.956315 0.572773 0.186705
0.977069 0.744759 0.195638
0.985605 0.850605 0.206354
0.988802 0.903161 0.218672
0.086382 0.111242 0.137540
0.091152 0.102940 0.108384
0.116905 0.094851 0.087439
0.378739 0.157965 0.100197
0.793540 0.355105 0.118531
0.937410 0.591882 0.136840
0.971226 0.765714 0.158780
0.983765 0.858933 0.178908
0.987984 0.909358 0.197710
0.086994 0.438274 0.156068
0.094909 0.391904 0.132601
0.171846 0.307129 0.103447
0.328613 0.290381 0.093265
0.676303 0.462221 0.098963
0.905129 0.638197 0.111191
0.961962 0.804867 0.128387
0.979753 0.875446 0.147695
0.986767 0.922045 0.170939
0.088444 0.765483 0.152316
0.099468 0.740986 0.139027
0.212568 0.681648 0.117927
0.406845 0.645211 0.103623
0.669669 0.655002 0.099139
0.876078 0.753605 0.103129
0.950745 0.844641 0.113319
0.975849 0.896262 0.129058
0.985269 0.936258 0.148069
0.091357 0.893198 0.138927
0.103361 0.888296 0.134430
0.225827 0.877543 0.123072
0.456760 0.864420 0.111171
0.714621 0.858887 0.104746
0.876380 0.871107 0.104009
0.942432 0.892501 0.107945
0.971037 0.930855 0.120240
0.983132 0.950062 0.134704
0.095067 0.948676 0.128722
0.109844 0.947651 0.126787
0.230446 0.944392 0.121045
0.465069 0.939635 0.114044
0.732037 0.936611 0.109766
0.883168 0.938411 0.108512
0.942086 0.944763 0.110641
0.967688 0.952603 0.116796
0.981045 0.963353 0.129800
0.099846 0.965693 0.119086
0.116240 0.965482 0.118263
0.230908 0.964844 0.115777
0.457768 0.964071 0.112869
0.724969 0.963609 0.111181
0.881763 0.963842 0.111261
0.941492 0.964958 0.113694
0.966915 0.967902 0.119770
0.979655 0.972680 0.128709
0.104236 0.975979 0.110744
0.120774 0.975855 0.110564
0.229129 0.975485 0.110064
0.435175 0.975068 0.109642
0.701355 0.974928 0.109917
0.872438 0.975374 0.111473
0.938428 0.976600 0.115027
0.965313 0.978644 0.121507
0.978770 0.981257 0.130437
0.086435 0.087824 0.791816
0.097872 0.087996 0.793311
0.329956 0.094592 0.797857
0.782560 0.192855 0.804229
0.926373 0.402746 0.735202
0.962799 0.591675 0.674933
0.978456 0.745939 0.631598
0.985898 0.847205 0.611675
0.988871 0.899168 0.592108
0.086435 0.089182 0.792597
0.098605 0.090766 0.794091
0.332252 0.110107 0.798363
0.747637 0.219486 0.751712
0.907022 0.399965 0.681656
0.958778 0.592616 0.633768
0.977048 0.749024 0.615231
0.985413 0.848900 0.595574
0.988613 0.900631 0.581419
0.086377 0.118076 0.618895
0.092589 0.117382 0.566236
0.188233 0.132528 0.480498
0.474119 0.209584 0.477815
0.816258 0.398725 0.504798
0.938257 0.601362 0.528253
0.970672 0.763655 0.541087
0.983254 0.855839 0.546504
0.987771 0.906289 0.547506
0.086626 0.344218 0.535343
0.092855 0.321010 0.485434
0.151619 0.261899 0.349266
0.274102 0.222201 0.200212
0.654277 0.439197 0.306927
0.900041 0.628821 0.401270
0.960499 0.799376 0.456091
0.979020 0.871723 0.478628
0.986519 0.918147 0.494730
0.087841 0.695304 0.541665
0.096927 0.676651 0.512115
0.187528 0.636934 0.444568
0.358871 0.605338 0.328746
0.610496 0.613373 0.263779
0.859796 0.718732 0.301162
0.946613 0.834284 0.369740
0.974611 0.890155 0.421530
0.984908 0.933597 0.455120
0.090934 0.877886 0.519850
0.101542 0.875812 0.503646
0.213398 0.862382 0.463939
0.419552 0.846317 0.399001
0.678644 0.840890 0.335886
0.859801 0.854236 0.304532
0.938394 0.883690 0.323287
0.969336 0.927045 0.370845
0.982449 0.948359 0.411057
0.094135 0.943988 0.482625
0.107078 0.942829 0.476100
0.222123 0.938861 0.455949
0.444584 0.933782 0.414167
0.708903 0.931051 0.370483
0.873249 0.933162 0.341456
0.938672 0.941070 0.332332
0.966396 0.950732 0.347906
0.980510 0.962535 0.382833
0.099109 0.964611 0.447562
0.114383 0.964420 0.443261
0.225568 0.963843 0.424036
0.443152 0.963098 0.397572
0.710878 0.962419 0.371450
0.875964 0.962964 0.353153
0.939468 0.964292 0.346574
0.966000 0.966915 0.353059
0.979305 0.972231 0.370007
0.103498 0.975138 0.386694
0.119850 0.975028 0.383925
0.225978 0.974706 0.375052
0.426189 0.974361 0.362585
0.693633 0.974305 0.350792
0.869113 0.974845 0.342639
0.937430 0.976183 0.342773
0.964907 0.978363 0.352313
0.978647 0.981146 0.369312
0.086435 0.087876 0.942099
0.097872 0.088241 0.942245
0.329956 0.096687 0.942772
0.782560 0.205864 0.943733
0.942530 0.495829 0.941186
0.967171 0.632227 0.917816
0.979643 0.776732 0.890092
0.986109 0.853177 0.869952
0.988871 0.900651 0.852043
0.086435 0.090085 0.942175
0.098605 0.092009 0.942322
0.332252 0.116251 0.942848
0.785442 0.274500 0.943809
0.930003 0.495957 0.932854
0.963232 0.632652 0.903863
0.978198 0.778894 0.880254
0.985613 0.854528 0.862518
0.988605 0.901933 0.845167
0.086411 0.184178 0.936299
0.098467 0.193536 0.933275
0.268822 0.238987 0.913884
0.609989 0.332256 0.888989
0.867065 0.497108 0.871518
0.945507 0.636168 0.857742
0.972383 0.789272 0.846052
0.983509 0.860123 0.833649
0.987734 0.906929 0.822022
0.086600 0.341113 0.842714
0.092958 0.333733 0.824054
0.173817 0.324899 0.765847
0.374250 0.368179 0.714970
0.718430 0.511201 0.723552
0.908000 0.651832 0.751145
0.961289 0.805120 0.771750
0.978996 0.872790 0.782174
0.986426 0.917579 0.784443
0.087620 0.647473 0.816938
0.095143 0.637953 0.802548
0.174505 0.611803 0.740449
0.337965 0.577552 0.652557
0.560315 0.561482 0.563812
0.853813 0.709305 0.633812
0.945146 0.831862 0.687808
0.973833 0.888130 0.716048
0.984693 0.932364 0.732897
0.089885 0.860429 0.808491
0.099660 0.856194 0.799635
0.194368 0.843843 0.759418
0.385101 0.829993 0.703591
0.642424 0.824026 0.643595
0.838231 0.836977 0.617999
0.934804 0.878133 0.632666
0.967953 0.922198 0.671026
0.981895 0.947115 0.693371
0.093366 0.936931 0.786788
0.104368 0.935709 0.778810
0.212987 0.932045 0.753512
0.418307 0.927695 0.717757
0.685261 0.924258 0.682311
0.861918 0.927687 0.648101
0.934937 0.936206 0.633548
0.965089 0.948930 0.642389
0.979983 0.961484 0.668492
0.098234 0.963344 0.747106
0.112209 0.963160 0.742660
0.219451 0.962301 0.728241
0.425355 0.960904 0.706966
0.695391 0.960192 0.684521
0.868997 0.961225 0.662694
0.937201 0.963568 0.647187
0.964970 0.965847 0.644458
0.978970 0.971736 0.653325
0.102938 0.974119 0.701733
0.118719 0.974031 0.699460
0.222184 0.973777 0.691998
0.415618 0.973533 0.680751
0.684614 0.973592 0.666130
0.865254 0.974253 0.651311
0.936275 0.975723 0.643000
0.964439 0.978061 0.642602
0.978507 0.981039 0.649699
0.086435 0.088109 0.979732
0.097872 0.089073 0.979734
0.329956 0.101338 0.979743
0.782560 0.230291 0.979760
0.946742 0.532646 0.979784
0.972400 0.684839 0.976172
0.981516 0.807750 0.962261
0.986514 0.865323 0.949589
0.989048 0.905912 0.939963
0.086435 0.091191 0.979733
0.098605 0.095029 0.979735
0.332252 0.128830 0.979745
0.785442 0.303819 0.979761
0.944980 0.577848 0.979735
0.968658 0.686818 0.971367
0.980091 0.808651 0.958024
0.986127 0.866523 0.946735
0.988777 0.907063 0.937999
0.086437 0.223709 0.979738
0.101111 0.253546 0.979740
0.340506 0.365874 0.979749
0.729785 0.483743 0.976221
0.904399 0.589713 0.964958
0.955920 0.694389 0.953602
0.975559 0.812476 0.944625
0.984471 0.871392 0.937516
0.987884 0.911535 0.933187
0.086856 0.440176 0.953433
0.095335 0.445399 0.950741
0.220091 0.472974 0.943231
0.506949 0.521810 0.935243
0.798133 0.610602 0.932500
0.925180 0.714503 0.929905
0.964306 0.822207 0.926298
0.979770 0.877767 0.922397
0.986527 0.921067 0.917550
0.087571 0.638025 0.932309
0.094680 0.633825 0.929193
0.177260 0.623875 0.910417
0.366171 0.622459 0.886330
0.656588 0.654709 0.872123
0.874344 0.762998 0.875896
0.948382 0.843029 0.884706
0.974495 0.892388 0.891600
0.984712 0.933302 0.894529
0.089432 0.842909 0.922627
0.098139 0.839985 0.918071
0.184345 0.831373 0.903436
0.367737 0.821498 0.880650
0.621166 0.816380 0.853821
0.813171 0.820569 0.819052
0.933018 0.877612 0.849514
0.967526 0.921651 0.865102
0.981660 0.946868 0.874467
0.092668 0.929522 0.913029
0.102682 0.928585 0.910124
0.198152 0.924914 0.900630
0.395441 0.919057 0.885450
0.664966 0.916040 0.868581
0.851463 0.919791 0.851661
0.929275 0.931470 0.839927
0.963978 0.947539 0.848962
0.979575 0.960667 0.858791
0.097308 0.960681 0.899196
0.109940 0.960357 0.897444
0.212990 0.959390 0.891400
0.407855 0.958293 0.881366
0.680290 0.957935 0.871063
0.862173 0.959219 0.859529
0.934920 0.962616 0.851937
0.963921 0.965304 0.848685
0.978656 0.971272 0.852318
0.102320 0.973019 0.880063
0.117477 0.972956 0.878958
0.218085 0.972786 0.876029
0.404463 0.972669 0.870390
0.675169 0.972869 0.862824
0.861252 0.973669 0.856039
0.935086 0.975281 0.851421
0.963961 0.977785 0.849020
0.978372 0.980964 0.850614
0.086435 0.089017 0.987560
0.097872 0.090561 0.987572
0.329956 0.108799 0.987615
0.782560 0.257268 0.987694
0.946742 0.554695 0.987811
0.976307 0.751006 0.986183
0.983522 0.829780 0.982365
0.987034 0.877340 0.979731
0.989340 0.913890 0.976774
0.086435 0.094841 0.987566
0.098605 0.099727 0.987578
0.332252 0.147935 0.987621
0.785442 0.330747 0.987700
0.946899 0.608234 0.987817
0.973654 0.755418 0.985050
0.982158 0.831024 0.981577
0.986653 0.877693 0.979191
0.989069 0.914990 0.975983
0.086437 0.252400 0.987589
0.101111 0.278316 0.987601
0.340506 0.402398 0.987644
0.793458 0.579255 0.987678
0.926386 0.659378 0.984423
0.962870 0.769610 0.981492
0.977778 0.835661 0.979464
0.985199 0.879056 0.976760
0.988171 0.919208 0.970824
0.087220 0.543797 0.982836
0.098803 0.551289 0.982453
0.255639 0.579504 0.981263
0.592271 0.625563 0.979765
0.855649 0.691056 0.978028
0.939728 0.795688 0.975598
0.968400 0.845619 0.970777
0.981094 0.887197 0.966450
0.986787 0.927552 0.962166
0.087635 0.667969 0.973624
0.095811 0.668585 0.972183
0.195233 0.674606 0.967775
0.439198 0.698075 0.961736
0.741704 0.753666 0.956188
0.901160 0.816787 0.953414
0.955122 0.864806 0.952422
0.975955 0.902537 0.951737
0.984968 0.936447 0.950565
0.089255 0.836442 0.961565
0.097467 0.835018 0.959911
0.182150 0.831205 0.954550
0.373199 0.828643 0.946704
0.653234 0.833494 0.938915
0.855079 0.855023 0.934804
0.938176 0.887428 0.936064
0.968639 0.927547 0.938662
0.981874 0.947985 0.940308
0.092087 0.921417 0.955440
0.101582 0.920340 0.954254
0.190438 0.917149 0.950320
0.379109 0.913596 0.944217
0.653979 0.912477 0.937219
0.843784 0.916434 0.932771
0.923666 0.927120 0.925764
0.963608 0.947428 0.932564
0.979444 0.960725 0.933972
0.096561 0.957559 0.949452
0.107802 0.957338 0.948694
0.202579 0.956696 0.946162
0.392133 0.956052 0.942177
0.667391 0.956123 0.937539
0.856431 0.957672 0.933944
0.931930 0.961373 0.932415
0.962917 0.964820 0.931245
0.978398 0.970987 0.932551
0.101688 0.971860 0.941852
0.115994 0.971812 0.941408
0.213809 0.971705 0.939919
0.393334 0.971741 0.937561
0.666046 0.972206 0.934805
0.857449 0.973159 0.933499
0.933620 0.974912 0.932626
0.963516 0.977571 0.931923
0.978257 0.980947 0.932136
0.086435 0.090803 0.991164
0.097872 0.093887 0.991166
0.329956 0.123068 0.991172
0.782560 0.293508 0.991185
0.946742 0.581632 0.991204
0.978288 0.802795 0.991086
0.984905 0.851191 0.989233
0.987546 0.887284 0.986799
0.989669 0.923153 0.984087
0.086435 0.100822 0.991165
0.098605 0.108500 0.991167
0.332252 0.173910 0.991173
0.785442 0.370493 0.991186
0.946899 0.626939 0.991205
0.976532 0.805625 0.990853
0.983985 0.852931 0.988506
0.987180 0.888418 0.986261
0.989402 0.924276 0.983699
0.086437 0.285027 0.991168
0.101111 0.318526 0.991170
0.340506 0.443542 0.991177
0.795820 0.606374 0.991190
0.938767 0.734124 0.990841
0.967572 0.814268 0.988951
0.979833 0.858948 0.986949
0.985935 0.892610 0.984490
0.988514 0.927816 0.982406
0.087464 0.627224 0.990516
0.101882 0.633721 0.990308
0.292021 0.656494 0.989628
0.664110 0.706281 0.988170
0.886951 0.781637 0.987061
0.949537 0.827936 0.985121
0.972463 0.870225 0.983353
0.982594 0.901049 0.981785
0.987129 0.932714 0.980293
0.087834 0.736937 0.984615
0.097726 0.740949 0.984375
0.221682 0.756936 0.983604
0.507316 0.791300 0.982493
0.787840 0.817280 0.981335
0.919252 0.849705 0.980219
0.960845 0.880839 0.979746
0.977410 0.915787 0.979097
0.985375 0.941096 0.978166
0.089317 0.844047 0.980172
0.097866 0.844055 0.979915
0.188570 0.844950 0.979723
0.405203 0.849606 0.978435
0.699683 0.862163 0.977024
0.880568 0.878760 0.975454
0.945054 0.905968 0.974259
0.970843 0.934107 0.973766
0.982470 0.950285 0.973247
0.091741 0.916674 0.978447
0.100956 0.916201 0.978196
0.187003 0.914990 0.977359
0.376195 0.914491 0.975459
0.659241 0.917097 0.970960
0.854078 0.925745 0.966878
0.933235 0.936969 0.964905
0.964964 0.950168 0.965504
0.979723 0.962041 0.966532
0.095937 0.955113 0.976721
0.106032 0.955000 0.976548
0.195526 0.954708 0.975234
0.379794 0.954582 0.972453
0.658992 0.955194 0.968976
0.853364 0.957151 0.965577
0.930351 0.960939 0.962584
0.962005 0.964428 0.960483
0.978303 0.971106 0.962760
0.101089 0.970452 0.971932
0.114525 0.970447 0.971603
0.207809 0.970482 0.970492
0.382636 0.970737 0.968713
0.658002 0.971501 0.966597
0.854216 0.972791 0.964567
0.932193 0.974678 0.962829
0.963152 0.977460 0.961910
0.978178 0.981006 0.962130
0.086435 0.095445 0.991900
0.097872 0.100732 0.991900
0.329956 0.151167 0.991901
0.782560 0.335074 0.991904
0.946742 0.610673 0.991908
0.979390 0.822363 0.991913
0.985564 0.870080 0.991556
0.987967 0.899631 0.990886
0.989963 0.930044 0.989368
0.086435 0.112092 0.991900
0.098605 0.126827 0.991900
0.332252 0.207020 0.991902
0.785442 0.421610 0.991904
0.946899 0.648840 0.991908
0.977939 0.827265 0.991860
0.984951 0.872171 0.991476
0.987618 0.900968 0.990770
0.989704 0.930728 0.989053
0.086437 0.329400 0.991901
0.101111 0.362347 0.991901
0.340506 0.486554 0.991902
0.795820 0.628581 0.991905
0.944846 0.797188 0.991878
0.970955 0.838724 0.991569
0.981467 0.877027 0.991003
0.986461 0.905735 0.989814
0.988837 0.933243 0.987988
0.087529 0.690512 0.991859
0.104311 0.699775 0.991839
0.319169 0.731800 0.991755
0.713099 0.786643 0.991556
0.905161 0.821465 0.991200
0.957191 0.855498 0.990670
0.975628 0.883495 0.989389
0.983973 0.914721 0.987985
0.987472 0.938153 0.986655
0.088283 0.803134 0.990577
0.099841 0.805310 0.990454
0.239420 0.813213 0.990043
0.555161 0.827933 0.989398
0.829596 0.849895 0.988233
0.932100 0.876543 0.987787
0.964521 0.899374 0.986544
0.978837 0.928356 0.985390
0.985817 0.945269 0.984312
0.089543 0.861756 0.987073
0.098963 0.862697 0.986910
0.200814 0.866516 0.986373
0.445138 0.874004 0.985557
0.745241 0.881331 0.984651
0.899001 0.899592 0.983827
0.951341 0.923742 0.983155
0.973223 0.941340 0.982600
0.983218 0.953128 0.982083
0.091693 0.918540 0.984121
0.100919 0.918650 0.983978
0.188245 0.919391 0.983501
0.386921 0.922002 0.982757
0.677659 0.927746 0.981915
0.867438 0.934696 0.981178
0.938910 0.944757 0.980646
0.966931 0.953995 0.980383
0.980257 0.963390 0.980227
0.095507 0.953743 0.982447
0.105022 0.953740 0.982339
0.192100 0.953815 0.981973
0.374260 0.954265 0.981385
0.657198 0.955561 0.980623
0.854585 0.958231 0.979831
0.932422 0.962575 0.979740
0.963453 0.965561 0.979708
0.978528 0.971964 0.979715
0.100566 0.969332 0.981048
0.113258 0.969370 0.980969
0.201745 0.969548 0.980701
0.374393 0.970025 0.980270
0.651782 0.971047 0.979806
0.851959 0.972643 0.979743
0.931340 0.974662 0.979572
0.962958 0.977533 0.979331
0.978148 0.981163 0.979386
