provia100f/Provia100F_Classic_IlfochromeM.cube
TITLE "Fuji Provia 100F Classic IlfochromeM"
# Adobe RGB in/out. REPLACES AgX. Fuji Provia 100F Classic IlfochromeM.
LUT_3D_SIZE 33
DOMAIN_MIN 0.0 0.0 0.0
DOMAIN_MAX 1.0 1.0 1.0
0.117435 0.082397 0.079689
0.118930 0.084275 0.080820
0.121652 0.088061 0.081427
0.128850 0.094799 0.082065
0.141027 0.102682 0.083315
0.156039 0.111972 0.084948
0.174160 0.123311 0.087203
0.197061 0.135413 0.089897
0.227186 0.148231 0.092662
0.261991 0.162529 0.095347
0.295524 0.179200 0.098612
0.330601 0.196062 0.101662
0.363912 0.212772 0.104529
0.399226 0.230205 0.108075
0.431501 0.247914 0.111668
0.462447 0.265327 0.115121
0.493402 0.282974 0.118854
0.524363 0.300575 0.122676
0.555332 0.317575 0.126670
0.586308 0.334830 0.130703
0.617290 0.353044 0.134853
0.648278 0.369657 0.139008
0.679272 0.387997 0.143222
0.710272 0.407265 0.147432
0.740045 0.426609 0.151891
0.766069 0.444657 0.156495
0.788599 0.462561 0.161373
0.810904 0.480469 0.166497
0.825313 0.498382 0.171839
0.839083 0.516298 0.177442
0.852604 0.534145 0.183104
0.865889 0.551896 0.188993
0.878950 0.569645 0.195091
0.117872 0.085588 0.080589
0.118958 0.086660 0.080984
0.121685 0.090817 0.081484
0.128886 0.097037 0.082132
0.141064 0.104458 0.083381
0.156074 0.113717 0.085026
0.174190 0.124765 0.087266
0.197095 0.136734 0.089964
0.227229 0.149403 0.092713
0.262024 0.163817 0.095405
0.295555 0.180357 0.098660
0.330626 0.197089 0.101702
0.363936 0.213690 0.104563
0.399248 0.231090 0.108115
0.431519 0.248730 0.111704
0.462464 0.266056 0.115153
0.493417 0.283670 0.118887
0.524378 0.301213 0.122706
0.555346 0.318138 0.126700
0.586321 0.335419 0.130730
0.617302 0.353542 0.134881
0.648289 0.370126 0.139033
0.679283 0.388511 0.143247
0.710282 0.407754 0.147455
0.740054 0.427076 0.151915
0.766076 0.445068 0.156518
0.788605 0.462953 0.161397
0.810910 0.480844 0.166521
0.825316 0.498740 0.171863
0.839086 0.516642 0.177465
0.852607 0.534472 0.183127
0.865892 0.552210 0.189017
0.878952 0.569948 0.195113
0.118215 0.094595 0.081174
0.119053 0.095591 0.081312
0.121800 0.098653 0.081657
0.129013 0.103529 0.082351
0.141196 0.110246 0.083607
0.156199 0.119444 0.085297
0.174298 0.129938 0.087488
0.197215 0.141243 0.090200
0.227383 0.153716 0.092896
0.262142 0.168333 0.095610
0.295665 0.184436 0.098828
0.330716 0.200718 0.101843
0.364022 0.217025 0.104698
0.399330 0.234236 0.108259
0.431584 0.251633 0.111830
0.462523 0.268654 0.115265
0.493472 0.286153 0.119006
0.524429 0.303492 0.122813
0.555394 0.320149 0.126808
0.586365 0.337528 0.130830
0.617344 0.355325 0.134979
0.648329 0.371804 0.139124
0.679320 0.390352 0.143336
0.710317 0.409507 0.147538
0.740086 0.428734 0.152002
0.766099 0.446539 0.156600
0.788627 0.464357 0.161485
0.810931 0.482187 0.166604
0.825329 0.500027 0.171951
0.839098 0.517876 0.177549
0.852618 0.535646 0.183210
0.865903 0.553339 0.189104
0.878962 0.571034 0.195192
0.118421 0.106705 0.081557
0.119110 0.107329 0.081645
0.122005 0.109811 0.081962
0.129246 0.114557 0.082741
0.141438 0.121087 0.083981
0.156429 0.129259 0.085762
0.174519 0.138707 0.087879
0.197437 0.149306 0.090622
0.227666 0.161555 0.093224
0.262358 0.176317 0.095980
0.295868 0.191660 0.099134
0.330882 0.207175 0.102100
0.364180 0.223182 0.104951
0.399480 0.239908 0.108521
0.431703 0.256779 0.112061
0.462633 0.273476 0.115470
0.493573 0.290618 0.119223
0.524523 0.307631 0.123010
0.555482 0.323805 0.127007
0.586448 0.341372 0.131012
0.617422 0.358576 0.135159
0.648403 0.374865 0.139291
0.679390 0.393717 0.143499
0.710383 0.412713 0.147690
0.740145 0.431558 0.152163
0.766143 0.449232 0.156751
0.788668 0.466929 0.161647
0.810970 0.484646 0.166758
0.825352 0.502383 0.172113
0.839120 0.520137 0.177704
0.852639 0.537797 0.183362
0.865922 0.555408 0.189264
0.878981 0.573027 0.195338
0.118648 0.122746 0.082040
0.119133 0.123367 0.082168
0.122298 0.125526 0.082554
0.129587 0.129521 0.083456
0.141796 0.135089 0.084638
0.156770 0.142132 0.086434
0.174851 0.150717 0.088562
0.197781 0.161101 0.091223
0.228090 0.173842 0.093697
0.262681 0.187587 0.096520
0.296171 0.201812 0.099581
0.331130 0.216385 0.102477
0.364417 0.232070 0.105324
0.399704 0.248141 0.108910
0.431880 0.264168 0.112403
0.462797 0.280542 0.115773
0.493725 0.297111 0.119546
0.524664 0.313415 0.123302
0.555613 0.329304 0.127303
0.586572 0.347034 0.131284
0.617538 0.363365 0.135428
0.648512 0.380057 0.139541
0.679493 0.398696 0.143742
0.710481 0.417463 0.147917
0.740234 0.435743 0.152402
0.766208 0.453224 0.156977
0.788730 0.470744 0.161889
0.811028 0.488298 0.166987
0.825387 0.505884 0.172355
0.839153 0.523498 0.177935
0.852670 0.540997 0.183589
0.865951 0.558486 0.189503
0.879009 0.575992 0.195555
0.118970 0.140909 0.082885
0.119267 0.141415 0.083031
0.122733 0.143268 0.083500
0.130036 0.146685 0.084263
0.142274 0.151507 0.085602
0.157228 0.158325 0.087323
0.175297 0.167040 0.089535
0.198319 0.177513 0.091984
0.228662 0.189124 0.094305
0.263117 0.201520 0.097222
0.296580 0.214495 0.100168
0.331465 0.228693 0.102974
0.364737 0.243505 0.105871
0.400007 0.258625 0.109426
0.432121 0.273893 0.112859
0.463018 0.289742 0.116179
0.493930 0.305620 0.119978
0.524855 0.320955 0.123693
0.555791 0.337231 0.127700
0.586738 0.354092 0.131648
0.617695 0.369707 0.135789
0.648660 0.387012 0.139875
0.679633 0.405326 0.144069
0.710614 0.423794 0.148222
0.740355 0.441323 0.152724
0.766295 0.458554 0.157280
0.788813 0.475842 0.162214
0.811106 0.493182 0.167297
0.825434 0.510569 0.172680
0.839197 0.527984 0.178246
0.852712 0.545284 0.183896
0.865991 0.562613 0.189826
0.879046 0.579578 0.195848
0.119127 0.161352 0.083973
0.119532 0.161868 0.084080
0.123333 0.163805 0.084558
0.130592 0.167288 0.085465
0.142872 0.172317 0.086765
0.157804 0.178962 0.088393
0.175862 0.186986 0.090653
0.199002 0.196222 0.092879
0.229387 0.206444 0.095150
0.263671 0.217618 0.098073
0.297100 0.230115 0.100886
0.331890 0.243357 0.103586
0.365143 0.257124 0.106603
0.400393 0.271111 0.110068
0.432426 0.285889 0.113428
0.463299 0.300837 0.116767
0.494190 0.315630 0.120520
0.525097 0.330471 0.124217
0.556017 0.347028 0.128200
0.586950 0.362408 0.132126
0.617894 0.377955 0.136245
0.648848 0.395678 0.140298
0.679811 0.413602 0.144482
0.710783 0.431467 0.148609
0.740508 0.448302 0.153131
0.766407 0.465228 0.157665
0.788918 0.482234 0.162627
0.811206 0.499312 0.167689
0.825494 0.516456 0.173093
0.839253 0.533590 0.178641
0.852765 0.550679 0.184286
0.866041 0.567811 0.190236
0.879093 0.583478 0.196220
0.119347 0.186204 0.085416
0.120122 0.186665 0.085552
0.124004 0.188310 0.086015
0.131372 0.191288 0.086887
0.143587 0.195631 0.088042
0.158500 0.201283 0.089891
0.176547 0.208175 0.091873
0.199832 0.216219 0.093879
0.230272 0.225764 0.096319
0.264345 0.236320 0.099058
0.297734 0.247790 0.101724
0.332409 0.259832 0.104306
0.365639 0.272415 0.107470
0.400863 0.285854 0.110834
0.432798 0.299613 0.114108
0.463642 0.313461 0.117488
0.494508 0.327141 0.121172
0.525392 0.342656 0.124875
0.556294 0.357739 0.128803
0.587209 0.372233 0.132722
0.618138 0.388766 0.136796
0.649078 0.406010 0.140834
0.680029 0.423490 0.144982
0.710989 0.440202 0.149080
0.740694 0.456657 0.153627
0.766543 0.473231 0.158132
0.789047 0.489909 0.163128
0.811328 0.506683 0.168166
0.825567 0.523542 0.173595
0.839322 0.540344 0.179122
0.852830 0.557184 0.184760
0.866102 0.574083 0.190735
0.879151 0.588178 0.196673
0.119825 0.211160 0.087096
0.120889 0.211548 0.087219
0.124729 0.212931 0.087641
0.132257 0.215447 0.088462
0.144416 0.219346 0.089827
0.159316 0.224492 0.091425
0.177353 0.230868 0.093160
0.200813 0.238381 0.095045
0.231319 0.247003 0.097606
0.265145 0.256502 0.100156
0.298486 0.266652 0.102669
0.333024 0.277800 0.105210
0.366226 0.289701 0.108465
0.401420 0.302060 0.111716
0.433240 0.314589 0.114896
0.464049 0.327187 0.118325
0.494885 0.341603 0.121932
0.525743 0.355888 0.125644
0.556621 0.369561 0.129510
0.587517 0.384793 0.133420
0.618427 0.401217 0.137444
0.649351 0.417939 0.141465
0.680287 0.434438 0.145572
0.711234 0.450311 0.149700
0.740916 0.466347 0.154210
0.766705 0.482528 0.158689
0.789199 0.498840 0.163721
0.811472 0.515270 0.168729
0.825654 0.531757 0.174189
0.839403 0.548232 0.179690
0.852906 0.564790 0.185321
0.866175 0.580711 0.191325
0.879220 0.593671 0.197210
0.120756 0.237102 0.089002
0.121872 0.237459 0.089141
0.125780 0.238740 0.089626
0.133404 0.241084 0.090462
0.145353 0.244541 0.091601
0.160247 0.249121 0.092966
0.178281 0.254770 0.094484
0.201947 0.261321 0.096646
0.232532 0.268839 0.098986
0.266070 0.277504 0.101350
0.299357 0.287047 0.103706
0.333737 0.297242 0.106400
0.366908 0.308120 0.109577
0.402067 0.319012 0.112707
0.433752 0.330672 0.115784
0.464521 0.343947 0.119275
0.495322 0.356953 0.122796
0.526150 0.369667 0.126522
0.557002 0.383894 0.130317
0.587873 0.399369 0.134221
0.618762 0.415207 0.138187
0.649667 0.431160 0.142190
0.680586 0.446339 0.146250
0.711518 0.461730 0.150413
0.741173 0.477313 0.154883
0.766893 0.493070 0.159409
0.789377 0.508984 0.164404
0.811640 0.525040 0.169398
0.825754 0.541085 0.174875
0.839498 0.557229 0.180347
0.852996 0.573475 0.185970
0.866259 0.587232 0.192008
0.879300 0.599938 0.197831
0.121863 0.263237 0.091155
0.122920 0.263545 0.091268
0.126892 0.264646 0.091665
0.134731 0.266657 0.092358
0.146540 0.269635 0.093318
0.161293 0.273714 0.094492
0.179328 0.278798 0.096267
0.203234 0.284865 0.098302
0.233913 0.291818 0.100436
0.267124 0.299607 0.102620
0.300349 0.308215 0.104858
0.334549 0.317085 0.107765
0.367685 0.326589 0.110795
0.402805 0.337716 0.113799
0.434337 0.349654 0.116862
0.465060 0.360936 0.120332
0.495822 0.372584 0.123760
0.526615 0.386130 0.127505
0.557436 0.400543 0.131223
0.588281 0.415388 0.135121
0.619146 0.430468 0.139023
0.650029 0.444846 0.143008
0.680929 0.459492 0.147015
0.711842 0.474381 0.151220
0.741467 0.489490 0.155644
0.767107 0.504799 0.160224
0.789579 0.520290 0.165179
0.811780 0.535856 0.170213
0.825869 0.551511 0.175655
0.839606 0.567299 0.181113
0.853098 0.582100 0.186707
0.866356 0.594525 0.192748
0.879391 0.606955 0.198537
0.123058 0.289471 0.093147
0.124136 0.289750 0.093241
0.128021 0.290750 0.093572
0.136145 0.292578 0.094155
0.147861 0.295287 0.095067
0.162449 0.298901 0.096502
0.180495 0.303421 0.098164
0.204676 0.308812 0.099992
0.235464 0.314753 0.101935
0.268308 0.321471 0.103949
0.301465 0.329026 0.106356
0.335463 0.338152 0.109225
0.368560 0.348020 0.112107
0.403635 0.357723 0.114982
0.434995 0.367740 0.118130
0.465667 0.378748 0.121488
0.496384 0.391479 0.124920
0.527138 0.404747 0.128587
0.557925 0.418508 0.132250
0.588739 0.432405 0.136117
0.619577 0.445891 0.139952
0.650436 0.459702 0.143917
0.681314 0.473807 0.147867
0.712208 0.488182 0.152120
0.741799 0.502802 0.156494
0.767349 0.517647 0.161136
0.789808 0.532638 0.166046
0.811930 0.547730 0.171125
0.825999 0.562989 0.176529
0.839728 0.578357 0.181974
0.853213 0.590441 0.187563
0.866465 0.602556 0.193571
0.879494 0.614693 0.199330
0.124379 0.315167 0.095111
0.125497 0.315404 0.095223
0.129483 0.316255 0.095617
0.137633 0.317813 0.096320
0.149285 0.320124 0.097317
0.163710 0.323213 0.098577
0.181778 0.327084 0.100053
0.206271 0.332170 0.101698
0.237185 0.338234 0.103467
0.269622 0.345134 0.105438
0.302706 0.352575 0.108063
0.336479 0.360162 0.110767
0.369533 0.368380 0.113502
0.404560 0.377512 0.116247
0.435728 0.388362 0.119495
0.466343 0.399843 0.122738
0.497010 0.411912 0.126195
0.527721 0.424531 0.129766
0.558470 0.436954 0.133422
0.589251 0.449478 0.137208
0.620058 0.462379 0.141000
0.650891 0.475625 0.144915
0.681744 0.489190 0.148803
0.712616 0.503047 0.153111
0.742168 0.517172 0.157431
0.767618 0.531495 0.162143
0.790062 0.545954 0.167005
0.812096 0.560616 0.172135
0.826143 0.575465 0.177495
0.839864 0.587754 0.182928
0.853341 0.599497 0.188567
0.866586 0.611288 0.194483
0.879609 0.623118 0.200209
0.125945 0.341170 0.097575
0.127049 0.341411 0.097671
0.131050 0.342276 0.098012
0.139332 0.343862 0.098622
0.150801 0.346218 0.099494
0.165247 0.349376 0.100605
0.183175 0.353032 0.101922
0.208020 0.357321 0.103405
0.239076 0.362325 0.105086
0.271065 0.368025 0.107363
0.304071 0.374398 0.109834
0.337598 0.382412 0.112377
0.370617 0.391272 0.114968
0.405579 0.400833 0.117829
0.436536 0.411058 0.120946
0.467088 0.421911 0.124091
0.497701 0.432985 0.127565
0.528365 0.444043 0.131034
0.559072 0.455557 0.134687
0.589815 0.467494 0.138388
0.620590 0.479825 0.142156
0.651392 0.492519 0.145999
0.682218 0.505549 0.149916
0.713066 0.518891 0.154192
0.742576 0.532463 0.158453
0.767916 0.546226 0.163243
0.790343 0.560229 0.168053
0.812280 0.574454 0.173241
0.826302 0.586510 0.178555
0.840014 0.597829 0.183975
0.853483 0.609222 0.189669
0.866719 0.620679 0.195486
0.879736 0.632193 0.201176
0.127573 0.366841 0.099914
0.128662 0.367039 0.099998
0.132895 0.367749 0.100295
0.141218 0.369049 0.100828
0.152402 0.370983 0.101597
0.166925 0.373575 0.102584
0.184702 0.377109 0.103763
0.209920 0.381669 0.105187
0.240877 0.387011 0.107157
0.272624 0.393126 0.109347
0.305563 0.399997 0.111653
0.338821 0.407603 0.114044
0.371825 0.415918 0.116539
0.406695 0.424916 0.119489
0.437420 0.434100 0.122477
0.467904 0.443562 0.125661
0.498457 0.453549 0.129021
0.529069 0.464030 0.132426
0.559730 0.474974 0.136041
0.590433 0.486350 0.139653
0.621172 0.498131 0.143398
0.651941 0.510289 0.147166
0.682738 0.522798 0.151151
0.713559 0.535546 0.155360
0.743023 0.548559 0.159682
0.768242 0.561848 0.164436
0.790651 0.575396 0.169191
0.812481 0.586741 0.174443
0.826477 0.597585 0.179708
0.840179 0.608532 0.185114
0.853638 0.619570 0.190869
0.866866 0.630689 0.196577
0.879875 0.641878 0.202229
0.129417 0.394120 0.102142
0.130514 0.394331 0.102215
0.135103 0.395089 0.102477
0.143152 0.396479 0.102948
0.154080 0.398551 0.103630
0.168707 0.401332 0.104511
0.186588 0.404841 0.105764
0.211916 0.409088 0.107452
0.242826 0.414071 0.109327
0.274312 0.419785 0.111357
0.307184 0.426219 0.113509
0.340148 0.432986 0.115755
0.373137 0.440196 0.118407
0.407907 0.448004 0.121218
0.438380 0.456386 0.124096
0.468790 0.465315 0.127312
0.499280 0.474764 0.130556
0.529836 0.484704 0.133963
0.560447 0.495110 0.137478
0.591106 0.505953 0.141032
0.621805 0.517208 0.144724
0.652539 0.528826 0.148413
0.683304 0.540714 0.152474
0.714096 0.552936 0.156612
0.743509 0.565469 0.161029
0.768597 0.578272 0.165720
0.790986 0.588453 0.170542
0.812700 0.598779 0.175740
0.826667 0.609237 0.180966
0.840358 0.619813 0.186344
0.853807 0.630495 0.192164
0.867026 0.641272 0.197758
0.880026 0.652134 0.203368
0.131474 0.422852 0.104270
0.132664 0.423049 0.104335
0.137291 0.423754 0.104567
0.145123 0.425050 0.105050
0.156169 0.426980 0.105796
0.170588 0.429496 0.106893
0.188714 0.432519 0.108226
0.214007 0.436179 0.109771
0.244922 0.440478 0.111500
0.276130 0.445410 0.113383
0.308932 0.450968 0.115392
0.341580 0.457139 0.117732
0.374555 0.463907 0.120330
0.409198 0.471253 0.123005
0.439418 0.479156 0.125943
0.469749 0.487594 0.129034
0.500169 0.496544 0.132187
0.530664 0.505980 0.135578
0.561222 0.515880 0.138993
0.591833 0.526219 0.142523
0.622490 0.536873 0.146128
0.653186 0.547912 0.149821
0.683916 0.559314 0.153881
0.714672 0.571059 0.157947
0.744036 0.582035 0.162467
0.768981 0.591633 0.167092
0.791349 0.601407 0.171991
0.812938 0.611339 0.177129
0.826873 0.621416 0.182339
0.840552 0.631625 0.187706
0.853990 0.641952 0.193479
0.867199 0.652388 0.199027
0.880190 0.662920 0.204594
0.133937 0.449920 0.106786
0.135247 0.450089 0.106867
0.139654 0.450696 0.107154
0.147390 0.451809 0.107676
0.158332 0.453469 0.108438
0.172560 0.455701 0.109434
0.190967 0.458521 0.110652
0.216235 0.461938 0.112071
0.247162 0.465957 0.113667
0.278077 0.470575 0.115416
0.310807 0.475787 0.117485
0.343116 0.481583 0.119837
0.376077 0.487952 0.122297
0.410411 0.494878 0.124947
0.440534 0.502343 0.127853
0.470779 0.510329 0.130822
0.501126 0.518817 0.133985
0.531556 0.527772 0.137267
0.562056 0.537109 0.140593
0.592616 0.546877 0.144090
0.623227 0.557056 0.147606
0.653882 0.567625 0.151390
0.684576 0.578481 0.155369
0.715269 0.587257 0.159457
0.744603 0.596249 0.163994
0.769394 0.605442 0.168551
0.791740 0.614820 0.173533
0.813177 0.624368 0.178610
0.827095 0.634072 0.183804
0.840760 0.643918 0.189249
0.854187 0.653896 0.194885
0.867385 0.663993 0.200383
0.880366 0.674198 0.205910
0.136566 0.476562 0.109514
0.137747 0.476720 0.109587
0.142176 0.477287 0.109848
0.149745 0.478327 0.110321
0.160561 0.479879 0.111013
0.174657 0.481967 0.111923
0.193342 0.484607 0.113039
0.218596 0.487809 0.114345
0.249547 0.491578 0.115823
0.280152 0.495915 0.117671
0.312809 0.500817 0.119754
0.344756 0.506276 0.121972
0.377704 0.512283 0.124345
0.411709 0.518826 0.127037
0.441727 0.525891 0.129817
0.471882 0.533395 0.132727
0.502150 0.541378 0.135849
0.532510 0.549826 0.139022
0.562950 0.558722 0.142327
0.593455 0.568045 0.145727
0.624017 0.577777 0.149166
0.654628 0.585745 0.153039
0.685282 0.593876 0.156935
0.715909 0.602248 0.161145
0.745211 0.610843 0.165607
0.769837 0.619646 0.170186
0.792159 0.628642 0.175167
0.813430 0.637817 0.180179
0.827332 0.647157 0.185358
0.840984 0.656650 0.190889
0.854398 0.666284 0.196379
0.867585 0.676046 0.201826
0.880555 0.685928 0.207312
0.139235 0.503214 0.112159
0.140501 0.503362 0.112226
0.144667 0.503893 0.112463
0.152120 0.504869 0.112894
0.162847 0.506325 0.113527
0.177067 0.508285 0.114360
0.195835 0.510765 0.115386
0.221089 0.513775 0.116655
0.252073 0.517321 0.118279
0.282354 0.521406 0.120079
0.314936 0.526027 0.122036
0.346521 0.531136 0.124152
0.379437 0.536760 0.126605
0.413091 0.542894 0.129170
0.442998 0.549527 0.131828
0.473057 0.556645 0.134763
0.503241 0.564234 0.137772
0.533529 0.572278 0.140863
0.563903 0.580195 0.144126
0.594350 0.587117 0.147431
0.624860 0.594330 0.150979
0.655425 0.601817 0.154762
0.686037 0.609562 0.158575
0.716593 0.617551 0.162918
0.745860 0.625768 0.167303
0.770311 0.634198 0.171979
0.792606 0.642827 0.176891
0.813700 0.651642 0.181877
0.827586 0.660629 0.187000
0.841223 0.669778 0.192596
0.854623 0.679075 0.197960
0.867798 0.688510 0.203354
0.880757 0.698073 0.208797
0.142129 0.529842 0.114728
0.143285 0.529980 0.114788
0.147395 0.530475 0.115005
0.154593 0.531385 0.115400
0.165375 0.532742 0.115980
0.179563 0.534570 0.116838
0.198591 0.536884 0.117959
0.223710 0.539694 0.119285
0.254736 0.543008 0.120799
0.284681 0.546827 0.122485
0.317190 0.551153 0.124371
0.348462 0.555981 0.126566
0.381275 0.561307 0.128895
0.414557 0.567123 0.131339
0.444347 0.573420 0.134030
0.474305 0.579748 0.136850
0.504401 0.585366 0.139747
0.534611 0.591313 0.142824
0.564916 0.597576 0.145986
0.595302 0.604139 0.149212
0.625757 0.610990 0.152863
0.656272 0.618114 0.156556
0.686839 0.625496 0.160505
0.717320 0.633123 0.164772
0.746550 0.640980 0.169079
0.770814 0.649053 0.173861
0.793082 0.657331 0.178701
0.813987 0.665799 0.183670
0.827856 0.674447 0.188870
0.841477 0.683261 0.194321
0.854863 0.692232 0.199627
0.868025 0.701347 0.204968
0.880972 0.710598 0.210364
0.144936 0.556253 0.117404
0.146080 0.556383 0.117470
0.150225 0.556850 0.117706
0.157464 0.557708 0.118136
0.168117 0.558989 0.118770
0.182138 0.560714 0.119610
0.201869 0.562899 0.120652
0.226982 0.565554 0.121887
0.257488 0.568687 0.123302
0.287132 0.572301 0.124992
0.319567 0.576398 0.126918
0.350511 0.580361 0.128996
0.383218 0.584292 0.131208
0.416107 0.588580 0.133661
0.445775 0.593219 0.136273
0.475626 0.598197 0.138981
0.505629 0.603506 0.141841
0.535756 0.609135 0.144839
0.565989 0.615071 0.147901
0.596310 0.621302 0.151258
0.626708 0.627815 0.154814
0.657170 0.634599 0.158418
0.687690 0.641639 0.162521
0.718091 0.648924 0.166704
0.747282 0.656440 0.171111
0.771348 0.664174 0.175829
0.793587 0.672116 0.180599
0.814292 0.680253 0.185549
0.828142 0.688572 0.190856
0.841747 0.697064 0.196132
0.855118 0.705718 0.201378
0.868265 0.714475 0.206670
0.881200 0.721092 0.212012
0.148026 0.581673 0.120291
0.149167 0.581769 0.120352
0.153021 0.582113 0.120570
0.160345 0.582744 0.120968
0.170907 0.583686 0.121556
0.184815 0.584954 0.122337
0.205280 0.586560 0.123307
0.230705 0.588512 0.124521
0.260372 0.590813 0.125995
0.289821 0.593466 0.127648
0.322069 0.596471 0.129467
0.352668 0.599827 0.131436
0.385265 0.603530 0.133662
0.417740 0.607574 0.136049
0.447280 0.611953 0.138550
0.477020 0.616659 0.141190
0.506925 0.621684 0.144006
0.536967 0.627019 0.146903
0.567123 0.632652 0.149967
0.597376 0.638574 0.153365
0.627712 0.644773 0.156827
0.658120 0.651238 0.160569
0.688589 0.657958 0.164612
0.718906 0.664920 0.168710
0.748057 0.672113 0.173240
0.771912 0.679526 0.177879
0.794120 0.687148 0.182632
0.814614 0.694966 0.187537
0.828445 0.702972 0.192886
0.842032 0.711153 0.198027
0.855387 0.718159 0.203211
0.868520 0.724438 0.208454
0.881441 0.730806 0.213740
0.151130 0.602116 0.123115
0.152188 0.602205 0.123172
0.156121 0.602528 0.123374
0.163231 0.603121 0.123745
0.173738 0.604005 0.124334
0.188076 0.605197 0.125142
0.208820 0.606706 0.126150
0.234595 0.608541 0.127350
0.263385 0.610706 0.128736
0.292682 0.613205 0.130295
0.324693 0.616037 0.132027
0.354933 0.619201 0.134031
0.387417 0.622696 0.136181
0.419457 0.626517 0.138460
0.448863 0.630659 0.140881
0.478487 0.635116 0.143499
0.508290 0.639880 0.146213
0.538241 0.644943 0.149009
0.568317 0.650296 0.152228
0.598499 0.655931 0.155529
0.628771 0.661837 0.158933
0.659120 0.668004 0.162819
0.689538 0.674422 0.166772
0.719766 0.681081 0.170951
0.748873 0.687969 0.175449
0.772507 0.695077 0.180008
0.794683 0.702394 0.184747
0.814953 0.709910 0.189773
0.828764 0.716763 0.194928
0.842333 0.722589 0.200003
0.855671 0.728522 0.205127
0.868788 0.734557 0.210317
0.881695 0.740684 0.215546
0.154182 0.622361 0.126101
0.155361 0.622445 0.126160
0.159395 0.622749 0.126370
0.166454 0.623307 0.126754
0.176898 0.624140 0.127322
0.191520 0.625262 0.128079
0.212404 0.626685 0.129024
0.238647 0.628414 0.130152
0.266526 0.630456 0.131458
0.295670 0.632814 0.133009
0.327244 0.635488 0.134758
0.357305 0.638479 0.136664
0.389672 0.641784 0.138712
0.421257 0.645402 0.140918
0.450524 0.649326 0.143324
0.480026 0.653554 0.145840
0.509723 0.658077 0.148454
0.539580 0.662889 0.151414
0.569572 0.667983 0.154540
0.599679 0.673351 0.157746
0.629884 0.678984 0.161341
0.660173 0.684872 0.165135
0.690535 0.691008 0.169000
0.720670 0.697381 0.173320
0.749732 0.703981 0.177734
0.773133 0.710800 0.182266
0.795275 0.716921 0.186940
0.815311 0.722262 0.192097
0.829100 0.727728 0.197051
0.842650 0.733313 0.202058
0.855970 0.739009 0.207129
0.869071 0.744808 0.212257
0.881963 0.750704 0.217428
0.157742 0.642418 0.129121
0.158846 0.642498 0.129176
0.162637 0.642785 0.129372
0.169783 0.643311 0.129732
0.180171 0.644098 0.130265
0.195046 0.645157 0.130975
0.216001 0.646501 0.131864
0.242373 0.648135 0.133005
0.269791 0.650065 0.134328
0.298785 0.652295 0.135825
0.329820 0.654826 0.137486
0.359782 0.657658 0.139299
0.392031 0.660790 0.141298
0.423139 0.664221 0.143482
0.452262 0.667946 0.145789
0.481639 0.671962 0.148209
0.511224 0.676263 0.150934
0.540983 0.680843 0.153868
0.570888 0.685697 0.156897
0.600917 0.690816 0.160193
0.631051 0.696194 0.163811
0.661277 0.701822 0.167513
0.691582 0.707692 0.171508
0.721619 0.713795 0.175762
0.750634 0.718620 0.180093
0.773791 0.723453 0.184612
0.795897 0.728428 0.189397
0.815685 0.733537 0.194369
0.829453 0.738773 0.199252
0.842982 0.744129 0.204191
0.856283 0.749598 0.209207
0.869368 0.755172 0.214273
0.882244 0.760846 0.219407
0.161239 0.662298 0.132107
0.162275 0.662374 0.132163
0.166140 0.662645 0.132361
0.173113 0.663143 0.132723
0.183480 0.663887 0.133261
0.198842 0.664889 0.133979
0.219702 0.666161 0.134878
0.246174 0.667708 0.135956
0.273149 0.669536 0.137209
0.302023 0.671649 0.138628
0.332500 0.674049 0.140207
0.362363 0.676736 0.142012
0.394492 0.679709 0.143968
0.425103 0.682968 0.146060
0.454077 0.686510 0.148274
0.483323 0.690331 0.150791
0.512793 0.694426 0.153522
0.542451 0.698792 0.156361
0.572265 0.703422 0.159384
0.602212 0.708310 0.162812
0.632274 0.713449 0.166337
0.662433 0.717665 0.170027
0.692678 0.721819 0.174107
0.722613 0.726133 0.178275
