provia100f/Provia100F_Modern_IlfochromeM.cube
TITLE "Fuji Provia 100F Modern IlfochromeM"
# Adobe RGB in/out. REPLACES AgX. Fuji Provia 100F Modern IlfochromeM.
LUT_3D_SIZE 33
DOMAIN_MIN 0.0 0.0 0.0
DOMAIN_MAX 1.0 1.0 1.0
0.117435 0.082397 0.079689
0.118851 0.084065 0.080529
0.123106 0.087985 0.081219
0.136804 0.096877 0.081728
0.159957 0.108034 0.082745
0.198212 0.125794 0.084734
0.259576 0.146631 0.087669
0.320676 0.169971 0.091161
0.381602 0.196671 0.094427
0.441470 0.223848 0.098477
0.497928 0.252347 0.102323
0.554362 0.280448 0.106191
0.610567 0.308612 0.110797
0.666390 0.335735 0.115142
0.721382 0.363412 0.119807
0.769089 0.391480 0.124508
0.808146 0.421162 0.129441
0.833525 0.448868 0.134346
0.856438 0.475618 0.139239
0.878339 0.501955 0.144131
0.898344 0.527851 0.148905
0.910915 0.553123 0.154084
0.922917 0.578034 0.159214
0.934391 0.597110 0.164810
0.945370 0.615688 0.170395
0.950510 0.633816 0.176313
0.955333 0.651501 0.182165
0.959936 0.668753 0.188097
0.964333 0.685580 0.194262
0.967530 0.701988 0.200090
0.968824 0.717038 0.205812
0.970059 0.728545 0.211442
0.971240 0.739697 0.216958
0.117695 0.084723 0.080266
0.118530 0.084562 0.080449
0.120699 0.088192 0.081078
0.132316 0.097063 0.081635
0.155070 0.108204 0.082549
0.191809 0.125852 0.084488
0.251931 0.146525 0.087382
0.313682 0.169899 0.090858
0.375754 0.196707 0.094204
0.437075 0.223950 0.098232
0.494078 0.252486 0.102127
0.550944 0.280607 0.105968
0.607501 0.308770 0.110608
0.663616 0.335915 0.114980
0.718970 0.363574 0.119640
0.767400 0.391666 0.124345
0.806618 0.421345 0.129295
0.832650 0.449034 0.134206
0.855651 0.475779 0.139111
0.877627 0.502111 0.144009
0.897938 0.528002 0.148793
0.910548 0.553272 0.153969
0.922585 0.578182 0.159094
0.934089 0.597223 0.164699
0.945095 0.615800 0.170281
0.950389 0.633925 0.176207
0.955222 0.651609 0.182063
0.959835 0.668859 0.187992
0.964240 0.685683 0.194170
0.967502 0.702090 0.200003
0.968799 0.717113 0.205730
0.970036 0.728618 0.211364
0.971218 0.739768 0.216885
0.117967 0.093523 0.080779
0.118663 0.093162 0.080884
0.119606 0.092712 0.081091
0.126097 0.098205 0.081458
0.144217 0.108895 0.082183
0.175725 0.126134 0.083851
0.227234 0.146338 0.086494
0.292093 0.169960 0.089908
0.357367 0.197032 0.093480
0.422564 0.224449 0.097423
0.481142 0.253076 0.101468
0.539316 0.281242 0.105266
0.596972 0.309380 0.109962
0.654021 0.336598 0.114422
0.710390 0.364180 0.119061
0.761486 0.392354 0.123788
0.801249 0.422020 0.128785
0.829566 0.449640 0.133711
0.852868 0.476366 0.138662
0.875103 0.502681 0.143579
0.896351 0.528549 0.148399
0.909245 0.553814 0.153562
0.921404 0.578603 0.158670
0.933014 0.597632 0.164306
0.944114 0.616201 0.169877
0.949958 0.634320 0.175830
0.954829 0.651996 0.181700
0.959475 0.669240 0.187620
0.963910 0.686058 0.193840
0.967405 0.702459 0.199693
0.968709 0.717381 0.205437
0.969953 0.728880 0.211089
0.971142 0.740026 0.216625
0.118240 0.108160 0.081215
0.118835 0.107756 0.081267
0.120610 0.106759 0.081384
0.125311 0.106351 0.081553
0.135961 0.112093 0.081912
0.160861 0.127953 0.083292
0.201293 0.147442 0.085515
0.264523 0.171301 0.088623
0.331667 0.198400 0.092425
0.398910 0.225893 0.096187
0.460554 0.254490 0.100423
0.520305 0.282658 0.104281
0.579406 0.310667 0.108890
0.637762 0.337991 0.113480
0.695308 0.365387 0.118073
0.750259 0.393702 0.122902
0.791843 0.423325 0.127896
0.824113 0.450801 0.132845
0.847926 0.477485 0.137871
0.870604 0.503759 0.142818
0.892244 0.529585 0.147698
0.906906 0.554834 0.152838
0.919279 0.579387 0.157996
0.931077 0.598399 0.163601
0.942343 0.616952 0.169158
0.949178 0.635055 0.175153
0.954117 0.652718 0.181048
0.958822 0.669948 0.186974
0.963310 0.686754 0.193244
0.967227 0.703143 0.199133
0.968545 0.717879 0.204907
0.969802 0.729367 0.210589
0.971002 0.740502 0.216155
0.118526 0.132810 0.081586
0.119104 0.132329 0.081625
0.121743 0.130810 0.081736
0.128059 0.128948 0.081935
0.137601 0.128608 0.082318
0.153234 0.135223 0.083135
0.184145 0.152551 0.084917
0.238784 0.175943 0.087699
0.303332 0.202096 0.091366
0.369973 0.229205 0.094827
0.435952 0.257357 0.099196
0.496646 0.285339 0.103185
0.556858 0.312971 0.107530
0.616386 0.340389 0.112253
0.675103 0.367403 0.116761
0.732084 0.395909 0.121707
0.778823 0.425428 0.126682
0.816459 0.452648 0.131663
0.840936 0.479246 0.136768
0.864202 0.505443 0.141749
0.886376 0.531201 0.146710
0.903544 0.556417 0.151811
0.916213 0.580597 0.157043
0.928274 0.599578 0.162594
0.939773 0.618102 0.168217
0.948043 0.636179 0.174178
0.953077 0.653818 0.180115
0.957868 0.671026 0.186088
0.962432 0.687810 0.192382
0.966786 0.704180 0.198320
0.968304 0.718632 0.204138
0.969580 0.730103 0.209862
0.970797 0.741222 0.215468
0.118893 0.178129 0.082418
0.119317 0.177108 0.082474
0.123926 0.173508 0.082662
0.132826 0.167434 0.083039
0.144341 0.160285 0.083385
0.157368 0.158313 0.083869
0.176818 0.164575 0.084903
0.219553 0.185820 0.087334
0.279875 0.209552 0.090618
0.344171 0.235507 0.093984
0.411330 0.262498 0.098037
0.471665 0.289882 0.102070
0.532065 0.316736 0.106078
0.592129 0.344179 0.110891
0.651594 0.370503 0.115415
0.710287 0.399231 0.120310
0.763006 0.428539 0.125237
0.804183 0.455341 0.130316
0.832196 0.481786 0.135417
0.856130 0.507851 0.140426
0.878938 0.533508 0.145479
0.899246 0.558662 0.150523
0.912275 0.582301 0.155839
0.924658 0.601229 0.161317
0.936446 0.619707 0.167017
0.946567 0.637742 0.172931
0.951721 0.655342 0.178939
0.956620 0.672514 0.184946
0.961282 0.689267 0.191215
0.965723 0.705606 0.197266
0.967988 0.719665 0.203141
0.969288 0.731111 0.208914
0.970526 0.742207 0.214572
0.119139 0.229350 0.083830
0.120096 0.230383 0.083952
0.125988 0.225733 0.084177
0.136976 0.215478 0.084449
0.150254 0.204305 0.084732
0.164886 0.197559 0.085298
0.183031 0.196663 0.086153
0.210366 0.201315 0.087429
0.264009 0.221949 0.090352
0.324344 0.245789 0.093483
0.386687 0.270735 0.097157
0.448228 0.296902 0.101114
0.507634 0.322448 0.104866
0.567297 0.349806 0.109558
0.626788 0.375003 0.114121
0.685805 0.403974 0.118840
0.742776 0.432574 0.123701
0.787409 0.459073 0.128832
0.822127 0.485266 0.133906
0.846749 0.511143 0.138994
0.870222 0.536640 0.144072
0.892633 0.561684 0.149039
0.907582 0.584578 0.154439
0.920325 0.603424 0.159822
0.932440 0.621828 0.165604
0.943977 0.639798 0.171454
0.950073 0.657341 0.177540
0.955098 0.674461 0.183581
0.959875 0.691165 0.189797
0.964420 0.707460 0.195995
0.967599 0.721005 0.201936
0.968927 0.732417 0.207766
0.970192 0.743480 0.213482
0.119555 0.276733 0.085543
0.121145 0.277629 0.085710
0.127620 0.276224 0.086090
0.139835 0.264067 0.086283
0.154845 0.251739 0.086621
0.171979 0.241952 0.087136
0.192448 0.236813 0.087862
0.220464 0.236809 0.089106
0.256389 0.241438 0.090713
0.308676 0.260203 0.093360
0.367043 0.282863 0.096678
0.428148 0.306955 0.100443
0.485497 0.330843 0.104048
0.543794 0.356939 0.108398
0.602479 0.382195 0.112927
0.661130 0.410462 0.117425
0.719214 0.438019 0.122305
0.769630 0.464056 0.127318
0.810805 0.489880 0.132333
0.836487 0.515502 0.137487
0.860587 0.540751 0.142566
0.883596 0.565620 0.147607
0.902289 0.587519 0.152908
0.915406 0.606241 0.158227
0.927866 0.624537 0.164033
0.939721 0.642413 0.169803
0.948169 0.659871 0.175964
0.953333 0.676916 0.182036
0.958237 0.693553 0.188185
0.962899 0.709786 0.194544
0.967143 0.722681 0.200553
0.968504 0.734045 0.206443
0.969799 0.745065 0.212223
0.120701 0.324781 0.087668
0.122424 0.325513 0.087819
0.129078 0.322197 0.088071
0.142238 0.311725 0.088304
0.158807 0.299653 0.088709
0.177940 0.288739 0.089300
0.201830 0.280894 0.090109
0.232430 0.277216 0.091154
0.266996 0.277883 0.092425
0.303296 0.282467 0.093877
0.352930 0.298567 0.096622
0.412098 0.319635 0.100118
0.466713 0.342930 0.103536
0.522883 0.366350 0.107517
0.580013 0.391756 0.111935
0.637607 0.419004 0.116189
0.695271 0.445122 0.121018
0.750943 0.470516 0.125875
0.793299 0.495872 0.130876
0.825785 0.521119 0.135992
0.850417 0.546007 0.141045
0.873958 0.570617 0.146138
0.896473 0.591222 0.151319
0.910051 0.609767 0.156699
0.922854 0.627912 0.162369
0.935028 0.645654 0.168149
0.946053 0.662995 0.174270
0.951364 0.679936 0.180365
0.956402 0.696480 0.186499
0.961188 0.712629 0.192955
0.965740 0.724721 0.199033
0.968025 0.736024 0.204982
0.969352 0.746987 0.210827
0.122214 0.374677 0.090390
0.124003 0.373604 0.090463
0.130606 0.367649 0.090580
0.144266 0.358259 0.090804
0.161842 0.346849 0.091154
0.182754 0.334876 0.091649
0.210465 0.325369 0.092309
0.243694 0.319538 0.093149
0.277311 0.317159 0.094173
0.313478 0.318254 0.095623
0.350114 0.322493 0.097507
0.398421 0.336062 0.100135
0.451539 0.357338 0.103318
0.505159 0.378739 0.106974
0.560199 0.403918 0.111214
0.616168 0.429753 0.115345
0.672667 0.454121 0.119923
0.728742 0.478737 0.124603
0.776170 0.503463 0.129576
0.815063 0.528174 0.134590
0.840089 0.552580 0.139621
0.864054 0.576828 0.144703
0.887008 0.595790 0.149744
0.904422 0.614095 0.155164
0.917543 0.632032 0.160680
0.930023 0.649595 0.166511
0.941906 0.666778 0.172518
0.949234 0.683580 0.178670
0.954409 0.700000 0.184815
0.959322 0.715597 0.191227
0.963992 0.727159 0.197417
0.967497 0.738382 0.203427
0.968859 0.749272 0.209329
0.123797 0.423213 0.092714
0.125556 0.421437 0.092743
0.132383 0.415423 0.092849
0.146179 0.405683 0.093049
0.164321 0.393734 0.093357
0.186791 0.381403 0.093784
0.217035 0.370982 0.094342
0.252507 0.363546 0.095165
0.286586 0.358906 0.096362
0.323361 0.357349 0.097771
0.358768 0.358831 0.099372
0.397670 0.363080 0.101133
0.439676 0.373608 0.103382
0.490664 0.395427 0.106779
0.543358 0.418799 0.110795
0.597405 0.442090 0.114762
0.652427 0.465291 0.119094
0.708062 0.488935 0.123607
0.760004 0.512850 0.128472
0.800597 0.536799 0.133354
0.829941 0.560637 0.138357
0.854196 0.583030 0.143369
0.877479 0.601323 0.148339
0.898676 0.619314 0.153685
0.912076 0.636981 0.159031
0.924832 0.654309 0.164892
0.936983 0.671287 0.170769
0.946991 0.687908 0.176963
0.952298 0.704168 0.183105
0.957336 0.718575 0.189408
0.962124 0.730026 0.195753
0.966678 0.741149 0.201817
0.968327 0.751949 0.207768
0.125484 0.467127 0.094795
0.127302 0.465709 0.094832
0.134509 0.460855 0.094968
0.148154 0.452806 0.095222
0.166652 0.442572 0.095608
0.190376 0.431491 0.096138
0.222159 0.420249 0.096824
0.259562 0.410475 0.097675
0.294912 0.403242 0.098701
0.331628 0.399032 0.099902
0.367069 0.398015 0.101276
0.405597 0.400110 0.102804
0.440732 0.405063 0.104463
0.479135 0.414955 0.106915
0.529591 0.435903 0.110695
0.581625 0.456912 0.114469
0.634903 0.478770 0.118568
0.689090 0.501259 0.122940
0.742515 0.524188 0.127612
0.785455 0.547196 0.132339
0.820257 0.570324 0.137276
0.844654 0.590079 0.142191
0.868141 0.607913 0.147135
0.890737 0.625509 0.152319
0.906588 0.642836 0.157617
0.919576 0.659868 0.163348
0.931962 0.676588 0.169093
0.943780 0.692981 0.175297
0.950113 0.709039 0.181420
0.955270 0.722041 0.187602
0.960171 0.733356 0.194087
0.964833 0.744355 0.200195
0.967766 0.755043 0.206185
0.127382 0.509680 0.097456
0.129181 0.508445 0.097490
0.136630 0.504182 0.097615
0.150051 0.496992 0.097847
0.168690 0.487610 0.098196
0.193244 0.477090 0.098672
0.226566 0.466547 0.099283
0.265094 0.456971 0.100033
0.301793 0.449139 0.100930
0.338532 0.443584 0.101976
0.374726 0.440624 0.103172
0.412658 0.440357 0.104512
0.446833 0.442711 0.106332
0.482012 0.447492 0.108530
0.518663 0.454770 0.110899
0.568699 0.474176 0.114464
0.620133 0.494580 0.118353
0.672686 0.515777 0.122553
0.725546 0.537467 0.127029
0.771703 0.559476 0.131601
0.810856 0.580970 0.136418
0.835643 0.598355 0.141213
0.859205 0.615636 0.146101
0.881938 0.632755 0.151114
0.901201 0.649668 0.156383
0.914370 0.666338 0.161931
0.926948 0.682741 0.167668
0.938964 0.698856 0.173723
0.947896 0.714581 0.179828
0.953161 0.726029 0.185976
0.958167 0.737178 0.192463
0.962931 0.748028 0.198601
0.967185 0.758582 0.204619
0.129422 0.550968 0.099910
0.131284 0.549895 0.099942
0.138762 0.546169 0.100057
0.151899 0.539800 0.100269
0.170540 0.531319 0.100588
0.195604 0.521503 0.101021
0.230587 0.511271 0.101573
0.269397 0.501553 0.102247
0.307316 0.493092 0.103048
0.344328 0.486453 0.103979
0.381602 0.482012 0.105113
0.418802 0.479974 0.106677
0.452809 0.480386 0.108502
0.487560 0.483170 0.110489
0.523226 0.488157 0.112618
0.559880 0.495124 0.114865
0.607939 0.512645 0.118437
0.658808 0.532416 0.122447
0.710676 0.552778 0.126731
0.759493 0.573693 0.131155
0.798060 0.591259 0.135809
0.827319 0.607909 0.140466
0.850834 0.624549 0.145269
0.873592 0.641109 0.150107
0.895590 0.657532 0.155321
0.909312 0.673775 0.160682
0.922034 0.689801 0.166387
0.934207 0.705583 0.172286
0.945685 0.719340 0.178378
0.951045 0.730568 0.184482
0.956145 0.741521 0.190853
0.961002 0.752195 0.197076
0.965629 0.762590 0.203114
0.131695 0.588240 0.102188
0.133764 0.587507 0.102218
0.141147 0.584950 0.102324
0.153731 0.580526 0.102521
0.172300 0.573491 0.102816
0.197658 0.564436 0.103214
0.233844 0.554784 0.103719
0.272762 0.545297 0.104335
0.311726 0.536654 0.105137
0.349230 0.529405 0.106223
0.387467 0.523934 0.107551
0.424257 0.520519 0.109043
0.458348 0.519322 0.110696
0.492924 0.520361 0.112502
0.528205 0.523556 0.114449
0.564327 0.528738 0.116566
0.601347 0.535696 0.119139
0.647256 0.551014 0.122607
0.697589 0.570098 0.126715
0.747218 0.587254 0.130972
0.786710 0.602917 0.135460
0.819775 0.618757 0.139983
0.843138 0.634679 0.144661
0.865820 0.650606 0.149325
0.887807 0.666471 0.154458
0.904482 0.682220 0.159635
0.917299 0.697810 0.165284
0.929586 0.713204 0.171022
0.941362 0.724711 0.177080
0.948955 0.735685 0.183124
0.954137 0.746409 0.189353
0.959075 0.756879 0.195656
0.963784 0.767089 0.201699
0.134391 0.618427 0.104313
0.136412 0.617790 0.104341
0.143479 0.615556 0.104441
0.155852 0.611661 0.104630
0.174016 0.606313 0.104948
0.199886 0.599893 0.105375
0.236529 0.592878 0.105989
0.275376 0.585772 0.106776
0.315149 0.579049 0.107705
0.353179 0.571691 0.108779
0.392264 0.565548 0.109999
0.428879 0.561161 0.111365
0.463230 0.558716 0.112878
0.497843 0.558299 0.114532
0.532949 0.559905 0.116332
0.568722 0.563460 0.118594
0.605270 0.568834 0.120989
0.642639 0.575868 0.123497
0.686605 0.586846 0.126963
0.735418 0.601190 0.131043
0.776798 0.615903 0.135370
0.813049 0.630880 0.139749
0.836177 0.646027 0.144286
0.858698 0.661258 0.148813
0.880591 0.676503 0.153815
0.899942 0.691699 0.158813
0.912805 0.706796 0.164384
0.925163 0.719822 0.169960
0.937028 0.730713 0.175964
0.946920 0.741397 0.181933
0.952169 0.751862 0.188015
0.957177 0.762098 0.194372
0.961956 0.772098 0.200404
0.137118 0.647467 0.106773
0.139019 0.646910 0.106809
0.145794 0.644952 0.106939
0.158034 0.641518 0.107178
0.175885 0.636754 0.107534
0.201962 0.630956 0.108014
0.238783 0.624512 0.108622
0.277397 0.617843 0.109359
0.317727 0.611362 0.110227
0.356184 0.605443 0.111227
0.396018 0.600399 0.112359
0.432620 0.596476 0.113625
0.467330 0.593851 0.115023
0.502132 0.592630 0.116605
0.537241 0.592857 0.118563
0.572841 0.594518 0.120664
0.609072 0.597555 0.122898
0.646019 0.601875 0.125398
0.683719 0.607363 0.128126
0.725427 0.616382 0.131349
0.768245 0.630138 0.135526
0.804414 0.644227 0.139750
0.829967 0.658560 0.144146
0.852262 0.673051 0.148550
0.873993 0.687627 0.153401
0.895140 0.702220 0.158278
0.908599 0.716141 0.163705
0.920985 0.726822 0.169130
0.932902 0.737355 0.175051
0.944361 0.747717 0.180933
0.950264 0.757892 0.186899
0.955328 0.767867 0.193251
0.960167 0.777630 0.199256
0.139915 0.675394 0.109365
0.141820 0.674906 0.109399
0.148365 0.673187 0.109523
0.160202 0.670154 0.109749
0.177778 0.665913 0.110087
0.203930 0.660693 0.110541
0.240502 0.654808 0.111115
0.278947 0.648610 0.111810
0.319597 0.642456 0.112626
0.358358 0.636679 0.113565
0.398804 0.631570 0.114626
0.435491 0.627371 0.115809
0.470597 0.624265 0.117270
0.505679 0.622380 0.118957
0.540920 0.621791 0.120784
0.576497 0.622520 0.122748
0.612560 0.624548 0.124942
0.649218 0.627821 0.127397
0.686541 0.632255 0.129973
0.724100 0.637755 0.132714
0.760924 0.645512 0.135910
0.796379 0.658715 0.139976
0.824488 0.672220 0.144233
0.846513 0.685945 0.148504
0.868030 0.699817 0.153218
0.889017 0.713768 0.157981
0.904710 0.724242 0.163256
0.917088 0.734493 0.168584
0.929020 0.744637 0.174358
0.940516 0.754648 0.180150
0.948443 0.764506 0.186044
0.953550 0.774192 0.192312
0.958435 0.783450 0.198274
0.142757 0.702242 0.111814
0.144479 0.701813 0.111847
0.150859 0.700301 0.111964
0.162350 0.697621 0.112179
0.179661 0.693848 0.112500
0.205825 0.689160 0.112932
0.241974 0.683811 0.113476
0.280127 0.678096 0.114135
0.320884 0.672319 0.114908
0.359817 0.666777 0.115796
0.400719 0.661735 0.116897
0.437542 0.657421 0.118216
0.473032 0.654019 0.119670
0.508433 0.651667 0.121257
0.543890 0.650458 0.122975
0.579556 0.650442 0.124921
0.615577 0.651630 0.127108
0.652073 0.653997 0.129425
0.689131 0.657493 0.131863
0.726248 0.662046 0.134596
0.760832 0.667571 0.137434
0.789451 0.674242 0.140412
0.819691 0.686925 0.144533
0.841423 0.699877 0.148666
0.862693 0.713028 0.153260
0.883481 0.723190 0.157899
0.901150 0.733021 0.163039
0.913489 0.742819 0.168259
0.925406 0.752549 0.173894
0.936908 0.762184 0.179595
0.946719 0.771699 0.185393
0.951855 0.781040 0.191538
0.956776 0.789515 0.197476
0.145440 0.724464 0.114129
0.147253 0.724187 0.114160
0.153273 0.723204 0.114272
0.164555 0.721456 0.114478
0.181536 0.718978 0.114784
0.207672 0.715871 0.115195
0.243289 0.711567 0.115714
0.281016 0.706331 0.116358
0.321693 0.700961 0.117229
0.360670 0.695715 0.118228
0.401865 0.690834 0.119355
0.438843 0.686529 0.120609
0.474673 0.682979 0.121989
0.510392 0.680325 0.123492
0.546103 0.678669 0.125252
0.581931 0.678080 0.127192
0.618007 0.678588 0.129263
0.654447 0.680197 0.131459
0.691349 0.682880 0.133912
0.728133 0.686589 0.136514
0.762054 0.691262 0.139222
0.790111 0.696824 0.142109
0.815951 0.703198 0.145136
0.836944 0.714655 0.149022
0.857950 0.723842 0.153517
0.878515 0.733119 0.158026
0.897920 0.742442 0.163050
0.910195 0.751772 0.168151
0.922072 0.761072 0.173659
0.933555 0.770311 0.179259
0.944649 0.779463 0.184956
0.950256 0.787874 0.190972
0.955201 0.796063 0.196873
0.148386 0.742652 0.116332
0.150051 0.742410 0.116368
0.155907 0.741552 0.116494
0.166956 0.740021 0.116727
0.183398 0.737840 0.117074
0.209484 0.735087 0.117540
0.244488 0.731883 0.118128
0.281678 0.728376 0.118839
0.322116 0.724729 0.119673
0.361014 0.721106 0.120630
0.402345 0.717667 0.121708
0.439473 0.714558 0.122906
0.475576 0.711054 0.124257
0.511582 0.708231 0.125849
0.547552 0.706275 0.127570
0.583580 0.705263 0.129417
0.619774 0.705243 0.131388
0.656241 0.706234 0.133597
0.693078 0.708232 0.135964
0.729639 0.711210 0.138446
0.763047 0.714920 0.141071
0.790892 0.718468 0.143888
0.816300 0.722612 0.146798
0.833960 0.727297 0.149881
0.853757 0.734910 0.153974
0.874085 0.743646 0.158350
0.893988 0.752461 0.163281
0.907202 0.761315 0.168258
0.919019 0.770174 0.173653
0.930463 0.779004 0.179141
0.941536 0.787207 0.184733
0.948759 0.795195 0.190631
0.953718 0.803083 0.196470
0.151185 0.759964 0.118789
0.152714 0.759753 0.118823
0.158603 0.759003 0.118945
0.169313 0.757662 0.119169
0.185322 0.755744 0.119503
0.211251 0.753310 0.119951
0.245600 0.750457 0.120516
0.282164 0.747307 0.121200
0.322226 0.743997 0.122002
0.360935 0.740671 0.122921
0.402255 0.737465 0.123961
0.439511 0.734512 0.125238
0.475811 0.731926 0.126641
0.512052 0.729808 0.128167
0.548259 0.728238 0.129816
0.584494 0.727278 0.131584
0.620841 0.726972 0.133587
0.657391 0.727344 0.135734
0.694233 0.728402 0.137998
0.730672 0.730137 0.140378
0.763734 0.732529 0.142981
0.791424 0.735547 0.145687
0.816521 0.739149 0.148487
0.834051 0.743293 0.151659
0.851392 0.747930 0.154992
0.870147 0.754709 0.158888
0.889839 0.763023 0.163718
0.904497 0.771404 0.168568
0.916241 0.779818 0.173867
0.927629 0.787625 0.179238
0.938663 0.795332 0.184725
0.947368 0.802983 0.190515
0.952330 0.810559 0.196271
0.153838 0.776441 0.121122
0.155480 0.776257 0.121155
0.161203 0.775602 0.121273
0.171619 0.774428 0.121489
0.187546 0.772743 0.121811
0.212929 0.770595 0.122243
0.246644 0.768063 0.122788
0.282511 0.765246 0.123446
0.322084 0.762262 0.124254
0.360504 0.759231 0.125238
0.401680 0.756275 0.126346
0.439032 0.753509 0.127577
0.475445 0.751040 0.128929
0.511858 0.748960 0.130399
0.548262 0.747347 0.131994
0.584690 0.746264 0.133819
0.621199 0.745757 0.135764
0.657863 0.745857 0.137826
0.694759 0.746581 0.140001
0.731161 0.747931 0.142380
0.764053 0.749897 0.144883
0.791640 0.752458 0.147488
0.816572 0.755585 0.150327
0.834001 0.759243 0.153460
0.851233 0.763393 0.156688
0.868276 0.767994 0.160180
0.886134 0.774070 0.164348
0.902062 0.781881 0.169070
0.913722 0.789212 0.174290
0.925044 0.796562 0.179541
0.936028 0.803903 0.184923
0.946081 0.811213 0.190619
0.951041 0.818468 0.196274
0.156808 0.791197 0.123338
0.158372 0.791049 0.123370
0.163704 0.790524 0.123484
0.173869 0.789581 0.123692
0.189776 0.788223 0.124014
0.214585 0.786485 0.124478
0.247635 0.784425 0.125062
0.282749 0.782120 0.125770
0.321739 0.779572 0.126600
0.359784 0.776831 0.127552
0.400695 0.774131 0.128624
0.438108 0.771574 0.129815
0.474550 0.769255 0.131121
0.511065 0.767260 0.132591
0.547613 0.765663 0.134235
0.584200 0.764524 0.135997
0.620861 0.763891 0.137874
0.657648 0.763800 0.139863
0.694625 0.764273 0.142040
0.731062 0.765319 0.144348
0.763958 0.766936 0.146762
0.791488 0.769114 0.149304
0.816417 0.771832 0.152235
0.833774 0.775063 0.155269
0.850922 0.778778 0.158398
0.867875 0.782757 0.162010
0.884642 0.786964 0.165752
0.899872 0.792014 0.169806
0.911446 0.798943 0.174911
0.922694 0.805909 0.180040
0.933619 0.812886 0.185320
0.944223 0.819852 0.190937
0.949848 0.826786 0.196474
0.159674 0.804891 0.125613
0.161128 0.804763 0.125647
0.166440 0.804306 0.125770
0.176280 0.803485 0.125994
0.191972 0.802299 0.126329
0.216216 0.800777 0.126778
0.248582 0.798965 0.127345
0.282900 0.796927 0.128030
0.321231 0.794737 0.128835
0.358826 0.792478 0.129758
0.399366 0.790233 0.130797
0.436800 0.788086 0.131959
0.473190 0.786114 0.133318
0.509733 0.784389 0.134795
0.546366 0.782975 0.136389
0.583069 0.781927 0.138096
0.619855 0.781287 0.139913
0.656758 0.781090 0.141911
0.693824 0.781359 0.144038
0.730349 0.782108 0.146271
0.763418 0.783341 0.148607
0.790929 0.785054 0.151285
0.816029 0.787236 0.154127
0.833340 0.789869 0.157070
0.850429 0.792931 0.160303
0.867315 0.796395 0.163850
0.884007 0.800232 0.167496
0.899108 0.804414 0.171444
0.909389 0.809029 0.175714
0.920561 0.815621 0.180730
0.931422 0.822242 0.185905
0.941974 0.828868 0.191460
0.948749 0.835480 0.196863
0.162398 0.817891 0.127835
0.163753 0.817780 0.127868
0.169098 0.817384 0.127987
0.178675 0.816671 0.128205
0.194126 0.815640 0.128530
0.217820 0.814312 0.128966
0.249488 0.812725 0.129516
0.282980 0.810933 0.130182
0.320589 0.808998 0.130963
0.357671 0.806990 0.131860
0.397748 0.804981 0.132943
0.435165 0.803044 0.134147
0.471425 0.801249 0.135468
0.507925 0.799660 0.136904
0.544579 0.798336 0.138453
0.581347 0.797327 0.140111
0.618221 0.796677 0.141950
0.655218 0.796418 0.143909
0.692367 0.796578 0.145973
0.729018 0.797171 0.148141
0.762419 0.798207 0.150573
0.789937 0.799688 0.153228
0.815385 0.801607 0.155989
0.832674 0.803952 0.158878
0.849728 0.806707 0.162228
0.866567 0.809851 0.165685
0.883205 0.813360 0.169246
0.898567 0.817210 0.173277
0.908739 0.821374 0.177411
0.918732 0.825825 0.181673
0.929421 0.831929 0.186666
0.939917 0.838224 0.192171
0.947738 0.844519 0.197433
0.165148 0.830227 0.129947
0.166606 0.830131 0.129979
0.171647 0.829789 0.130095
0.180995 0.829172 0.130306
0.196232 0.828279 0.130622
0.219390 0.827126 0.131046
0.250357 0.825744 0.131580
0.283001 0.824178 0.132255
0.319839 0.822481 0.133070
0.356355 0.820711 0.134006
0.395889 0.818931 0.135062
0.433250 0.817205 0.136234
0.469309 0.815594 0.137521
0.505696 0.814156 0.138919
0.542307 0.812945 0.140433
0.579085 0.812007 0.142124
0.616003 0.811383 0.143925
0.653062 0.811106 0.145831
0.690277 0.811203 0.147840
0.727076 0.811692 0.150059
0.760956 0.812585 0.152537
0.788500 0.813886 0.155122
0.814471 0.815594 0.157811
0.831759 0.817702 0.160858
