provia100f/Provia100F_Modern_IlfochromeM.cube
TITLE "Fuji Provia 100F Modern IlfochromeM"
# Adobe RGB in/out. REPLACES AgX. Fuji Provia 100F Modern IlfochromeM.
LUT_3D_SIZE 5
DOMAIN_MIN 0.0 0.0 0.0
DOMAIN_MAX 1.0 1.0 1.0
0.117435 0.082397 0.079689
0.381602 0.196671 0.094427
0.808146 0.421162 0.129441
0.945370 0.615688 0.170395
0.971240 0.739697 0.216958
0.120701 0.324781 0.087668
0.266996 0.277883 0.092425
0.695271 0.445122 0.121018
0.922854 0.627912 0.162369
0.969352 0.746987 0.210827
0.137118 0.647467 0.106773
0.317727 0.611362 0.110227
0.609072 0.597555 0.122898
0.873993 0.687627 0.153401
0.960167 0.777630 0.199256
0.159674 0.804891 0.125613
0.321231 0.794737 0.128835
0.619855 0.781287 0.139913
0.850429 0.792931 0.160303
0.948749 0.835480 0.196863
0.180835 0.876668 0.141189
0.313831 0.874864 0.144154
0.593070 0.872606 0.154604
0.837896 0.877601 0.174960
0.940223 0.892972 0.206126
0.117435 0.089823 0.389633
0.393064 0.207286 0.396410
0.793317 0.412849 0.364666
0.938116 0.604682 0.359682
0.970522 0.733529 0.367533
0.119437 0.267857 0.317053
0.198902 0.216890 0.212726
0.655074 0.420605 0.295283
0.914691 0.614545 0.331255
0.968628 0.740614 0.353464
0.133884 0.614457 0.327096
0.293352 0.581604 0.294558
0.571138 0.566968 0.260178
0.861262 0.671935 0.288898
0.958127 0.771428 0.324296
0.157480 0.794898 0.307185
0.312304 0.785344 0.298281
0.606376 0.771994 0.283388
0.843517 0.786037 0.284751
0.947579 0.831956 0.308410
0.179747 0.874222 0.284911
0.310898 0.872570 0.283852
0.589169 0.870708 0.283622
0.836084 0.876302 0.291050
0.939740 0.892553 0.309132
0.117435 0.115441 0.802529
0.393064 0.227828 0.804271
0.844423 0.475855 0.800168
0.943588 0.618719 0.715882
0.970201 0.732725 0.666349
0.120435 0.332508 0.787616
0.346856 0.362539 0.747137
0.728607 0.476544 0.689014
0.917486 0.623431 0.661282
0.968185 0.738412 0.642022
0.129615 0.561788 0.637948
0.264503 0.537077 0.591557
0.510148 0.510287 0.506113
0.849764 0.659790 0.562530
0.955728 0.765213 0.587434
0.152824 0.772505 0.616466
0.293787 0.764704 0.598657
0.580044 0.754132 0.559459
0.829023 0.771345 0.538573
0.945086 0.825630 0.552662
0.176918 0.868011 0.570276
0.303465 0.866871 0.564866
0.579676 0.866256 0.551767
0.831725 0.873363 0.542910
0.938587 0.891719 0.545493
0.117435 0.158575 0.942896
0.393064 0.262927 0.943132
0.853032 0.506813 0.943976
0.952872 0.657815 0.913677
0.971033 0.744722 0.876475
0.120701 0.369562 0.943020
0.400755 0.437898 0.943255
0.817711 0.569973 0.928102
0.935388 0.663396 0.890794
0.968959 0.749547 0.863403
0.129791 0.575436 0.869221
0.282605 0.578749 0.856598
0.611748 0.609945 0.834374
0.870310 0.691172 0.827779
0.956873 0.771732 0.824536
0.148926 0.751553 0.833063
0.278508 0.747679 0.823990
0.562106 0.743442 0.789968
0.814199 0.756879 0.760509
0.942711 0.823787 0.779843
0.173550 0.860735 0.801891
0.294639 0.860376 0.796902
0.569058 0.861655 0.783804
0.827072 0.870655 0.772508
0.937487 0.891368 0.770933
0.117435 0.220235 0.986113
0.393064 0.309320 0.986159
0.853032 0.536290 0.986326
0.959356 0.696219 0.980151
0.972137 0.761520 0.954801
0.120701 0.408474 0.986137
0.400755 0.470833 0.986184
0.849152 0.627286 0.985571
0.948478 0.705696 0.970038
0.970139 0.766613 0.947641
0.133127 0.632621 0.963521
0.321832 0.642131 0.959662
0.686857 0.676938 0.949505
0.898598 0.731569 0.938535
0.960413 0.786986 0.927320
0.147734 0.748941 0.925978
0.276620 0.749713 0.921618
0.575710 0.757871 0.910549
0.837060 0.786026 0.902136
0.945898 0.832188 0.899620
0.170808 0.854906 0.904554
0.287083 0.855402 0.902470
0.560835 0.858857 0.896756
0.824119 0.869820 0.891338
0.937011 0.892194 0.890398
