provia100f/Provia100F_Classic_RadianceIII.cube
TITLE "Fuji Provia 100F Classic RadianceIII"
# Adobe RGB in/out. REPLACES AgX. Fuji Provia 100F Classic RadianceIII.
LUT_3D_SIZE 9
DOMAIN_MIN 0.0 0.0 0.0
DOMAIN_MAX 1.0 1.0 1.0
0.079466 0.087905 0.084059
0.091714 0.092284 0.084746
0.171941 0.112756 0.086393
0.332537 0.166397 0.087916
0.504354 0.251396 0.091075
0.666982 0.333340 0.098587
0.816384 0.419288 0.109471
0.916079 0.507594 0.126710
0.961533 0.577133 0.148173
0.079709 0.099113 0.084431
0.092200 0.104923 0.085003
0.172737 0.130002 0.086579
0.333166 0.188968 0.088020
0.504778 0.268335 0.091303
0.667295 0.346324 0.098895
0.816592 0.430402 0.109886
0.916178 0.516816 0.127162
0.961577 0.583069 0.148624
0.080848 0.164720 0.085492
0.094399 0.173624 0.085889
0.175584 0.206422 0.087033
0.335420 0.259719 0.088359
0.506300 0.320183 0.092083
0.668415 0.390500 0.099973
0.817340 0.468256 0.111354
0.916530 0.541587 0.128770
0.961734 0.603859 0.150237
0.083236 0.289805 0.086774
0.098974 0.295632 0.087003
0.180773 0.316421 0.087756
0.339550 0.352682 0.089639
0.509091 0.402592 0.093685
0.670473 0.463314 0.101846
0.818712 0.527914 0.113973
0.917178 0.582577 0.131676
0.962023 0.639736 0.153169
0.086747 0.415011 0.087877
0.104989 0.419711 0.088075
0.188419 0.436222 0.089069
0.345689 0.465216 0.091560
0.513245 0.505339 0.097154
0.673541 0.546398 0.105124
0.820760 0.589776 0.117958
0.918145 0.637653 0.135992
0.962455 0.688968 0.157477
0.092410 0.539785 0.089986
0.113405 0.542514 0.090337
0.199262 0.552162 0.091714
0.353926 0.569327 0.095258
0.518822 0.593802 0.101198
0.677667 0.624920 0.110260
0.823516 0.661739 0.124286
0.919446 0.703345 0.142326
0.963036 0.747411 0.163291
0.103454 0.638809 0.093630
0.125232 0.640987 0.094342
0.212982 0.648744 0.096745
0.364341 0.662735 0.100648
0.525855 0.682942 0.106747
0.682883 0.709017 0.116902
0.827005 0.739399 0.131887
0.921094 0.773438 0.150082
0.963640 0.806491 0.171703
0.116859 0.736465 0.100449
0.139142 0.738195 0.100996
0.229878 0.744360 0.102965
0.376897 0.755514 0.107419
0.534209 0.771359 0.115080
0.689209 0.791173 0.126667
0.831240 0.811607 0.141390
0.923095 0.835197 0.159158
0.964079 0.861511 0.181718
0.133563 0.820420 0.108775
0.154386 0.821564 0.109575
0.248894 0.825644 0.112370
0.391589 0.833044 0.117321
0.543917 0.843863 0.126240
0.696652 0.858038 0.137654
0.836232 0.873269 0.152593
0.925455 0.886537 0.170825
0.964596 0.901393 0.193114
0.079466 0.088159 0.097836
0.091714 0.092468 0.098440
0.171941 0.113174 0.100500
0.332537 0.166870 0.104415
0.504354 0.251824 0.111702
0.666982 0.333648 0.122705
0.816384 0.419550 0.137309
0.916079 0.507812 0.155440
0.961533 0.577273 0.177594
0.079709 0.099454 0.098154
0.092200 0.105334 0.098750
0.172737 0.130376 0.100787
0.333166 0.189497 0.104767
0.504778 0.268708 0.112103
0.667295 0.346623 0.123171
0.816592 0.430660 0.137788
0.916178 0.517030 0.155875
0.961577 0.583208 0.178075
0.080848 0.165196 0.099262
0.094399 0.174175 0.099833
0.175584 0.206899 0.101791
0.335420 0.260101 0.106006
0.506300 0.320501 0.113523
0.668415 0.390777 0.124832
0.817340 0.468495 0.139496
0.916530 0.541740 0.157430
0.961734 0.603992 0.179797
0.083236 0.290135 0.101185
0.098974 0.295956 0.101717
0.180773 0.316746 0.103899
0.339550 0.352980 0.108519
0.509091 0.402862 0.116062
0.670473 0.463555 0.127831
0.818712 0.528076 0.142597
0.917178 0.582715 0.160260
0.962023 0.639858 0.182946
0.086747 0.415275 0.104287
0.104989 0.419973 0.104960
0.188419 0.436475 0.107339
0.345689 0.465457 0.112563
0.513245 0.505557 0.120584
0.673541 0.546549 0.132186
0.820760 0.589912 0.147141
0.918145 0.637776 0.164805
0.962455 0.689079 0.187608
0.092410 0.539939 0.109272
0.113405 0.542666 0.110066
0.199262 0.552310 0.112841
0.353926 0.569469 0.117901
0.518822 0.593937 0.126778
0.677667 0.625046 0.138221
0.823516 0.661856 0.153116
0.919446 0.703453 0.171407
0.963036 0.747506 0.193638
0.103454 0.638931 0.116007
0.125232 0.641108 0.116726
0.212982 0.648865 0.119993
0.364341 0.662852 0.125898
0.525855 0.683054 0.134234
0.682883 0.709124 0.146145
0.827005 0.739496 0.160466
0.921094 0.773523 0.179631
0.963640 0.806558 0.201047
0.116859 0.736562 0.125582
0.139142 0.738292 0.126453
0.229878 0.744456 0.129532
0.376897 0.755607 0.135010
0.534209 0.771445 0.143928
0.689209 0.791242 0.155398
0.831240 0.811672 0.170425
0.923095 0.835259 0.189439
0.964079 0.861569 0.209900
0.133563 0.820485 0.136509
0.154386 0.821628 0.137428
0.248894 0.825708 0.140691
0.391589 0.833106 0.146548
0.543917 0.843923 0.154988
0.696652 0.858096 0.166527
0.836232 0.873306 0.182325
0.925455 0.886571 0.200273
0.964596 0.901426 0.220478
0.079466 0.089144 0.197363
0.091714 0.093062 0.198197
0.171941 0.114690 0.201177
0.332537 0.168560 0.206598
0.504354 0.253359 0.214693
0.666982 0.334754 0.225585
0.816384 0.420493 0.238862
0.916079 0.508592 0.254220
0.961533 0.577775 0.270573
0.079709 0.100625 0.197799
0.092200 0.106770 0.198632
0.172737 0.131701 0.201609
0.333166 0.191302 0.207023
0.504778 0.270045 0.215124
0.667295 0.347698 0.226006
0.816592 0.431577 0.239255
0.916178 0.517800 0.254600
0.961577 0.583706 0.270904
0.080848 0.166899 0.199360
0.094399 0.176146 0.200189
0.175584 0.208608 0.203153
0.335420 0.261470 0.208546
0.506300 0.321641 0.216668
0.668415 0.391771 0.227512
0.817340 0.469353 0.240664
0.916530 0.542288 0.255961
0.961734 0.604466 0.272091
0.083236 0.291316 0.202215
0.098974 0.297118 0.203038
0.180773 0.317900 0.205979
0.339550 0.354047 0.211347
0.509091 0.403834 0.219495
0.670473 0.464419 0.230272
0.818712 0.528660 0.243244
0.917178 0.583212 0.258455
0.962023 0.640297 0.274266
0.086747 0.416225 0.206444
0.104989 0.420915 0.207258
0.188419 0.437380 0.210166
0.345689 0.466319 0.215621
0.513245 0.506341 0.223690
0.673541 0.547091 0.234336
0.820760 0.590403 0.247075
0.918145 0.638217 0.261825
0.962455 0.689478 0.277496
0.092410 0.540490 0.212126
0.113405 0.543213 0.212956
0.199262 0.552844 0.215923
0.353926 0.569981 0.221330
0.518822 0.594423 0.229298
0.677667 0.625499 0.239612
0.823516 0.662277 0.252200
0.919446 0.703840 0.266327
0.963036 0.747848 0.281819
0.103454 0.639371 0.219433
0.125232 0.641546 0.220248
0.212982 0.649297 0.223167
0.364341 0.663272 0.228487
0.525855 0.683457 0.236226
0.682883 0.709507 0.246230
0.827005 0.739842 0.258623
0.921094 0.773828 0.271977
0.963640 0.806797 0.287662
0.116859 0.736911 0.228198
0.139142 0.738639 0.228998
0.229878 0.744799 0.231860
0.376897 0.755944 0.236948
0.534209 0.771751 0.244361
0.689209 0.791491 0.254184
0.831240 0.811908 0.265656
0.923095 0.835481 0.278768
0.964079 0.861777 0.294356
0.133563 0.820715 0.238207
0.154386 0.821858 0.238960
0.248894 0.825935 0.241655
0.391589 0.833329 0.246572
0.543917 0.844141 0.253826
0.696652 0.858306 0.262996
0.836232 0.873438 0.273837
0.925455 0.886697 0.287080
0.964596 0.901543 0.302173
0.079466 0.090886 0.343320
0.091714 0.094061 0.343865
0.171941 0.117371 0.345816
0.332537 0.171916 0.349387
0.504354 0.256169 0.354702
0.666982 0.336782 0.361821
0.816384 0.422223 0.370740
0.916079 0.510026 0.381442
0.961533 0.578698 0.393905
0.079709 0.102595 0.343605
0.092200 0.109261 0.344149
0.172737 0.134078 0.346099
0.333166 0.194577 0.349667
0.504778 0.272494 0.354982
0.667295 0.349668 0.362097
0.816592 0.433255 0.371012
0.916178 0.518953 0.381708
0.961577 0.584622 0.394167
0.080848 0.169998 0.344625
0.094399 0.179746 0.345168
0.175584 0.211761 0.347114
0.335420 0.263975 0.350676
0.506300 0.323731 0.355987
0.668415 0.393594 0.363089
0.817340 0.470928 0.371987
0.916530 0.543296 0.382665
0.961734 0.605339 0.395107
0.083236 0.293478 0.346497
0.098974 0.299245 0.347038
0.180773 0.320008 0.348977
0.339550 0.356005 0.352531
0.509091 0.405616 0.357831
0.670473 0.466007 0.364908
0.818712 0.529703 0.373776
0.917178 0.584128 0.384420
0.962023 0.641103 0.396832
0.086747 0.417969 0.349284
0.104989 0.422644 0.349823
0.188419 0.439041 0.351751
0.345689 0.467901 0.355305
0.513245 0.507779 0.360577
0.673541 0.548086 0.367618
0.820760 0.591304 0.376443
0.918145 0.639026 0.387036
0.962455 0.690210 0.399403
0.092410 0.541502 0.353036
0.113405 0.544218 0.353574
0.199262 0.553825 0.355502
0.353926 0.570921 0.359030
0.518822 0.595316 0.364265
0.677667 0.626331 0.371258
0.823516 0.663051 0.380025
0.919446 0.704553 0.390557
0.963036 0.748476 0.402860
0.103454 0.640179 0.357790
0.125232 0.642350 0.358323
0.212982 0.650092 0.360233
0.364341 0.664044 0.363731
0.525855 0.684199 0.368920
0.682883 0.710212 0.375854
0.827005 0.740480 0.384548
0.921094 0.774389 0.395016
0.963640 0.807236 0.407227
0.116859 0.737553 0.363540
0.139142 0.739279 0.364067
0.229878 0.745431 0.365957
0.376897 0.756562 0.369417
0.534209 0.772315 0.374552
0.689209 0.791948 0.381416
0.831240 0.812342 0.390029
0.923095 0.835890 0.400418
0.964079 0.862160 0.412520
0.133563 0.821139 0.370287
0.154386 0.822281 0.370807
0.248894 0.826354 0.372674
0.391589 0.833740 0.376092
0.543917 0.844541 0.381165
0.696652 0.858693 0.387949
0.836232 0.873681 0.396491
0.925455 0.886927 0.406768
0.964596 0.901760 0.418746
0.079466 0.092854 0.493848
0.091714 0.097754 0.494184
0.171941 0.121413 0.495390
0.332537 0.177349 0.497601
0.504354 0.260171 0.500888
0.666982 0.339797 0.505292
0.816384 0.424802 0.510834
0.916079 0.512164 0.517516
0.961533 0.580074 0.525328
0.079709 0.106246 0.494024
0.092200 0.112679 0.494360
0.172737 0.139102 0.495565
0.333166 0.199421 0.497775
0.504778 0.276128 0.501061
0.667295 0.352606 0.505464
0.816592 0.435757 0.511003
0.916178 0.520594 0.517683
0.961577 0.585987 0.525492
0.080848 0.175418 0.494654
0.094399 0.185068 0.494990
0.175584 0.216548 0.496194
0.335420 0.267692 0.498400
0.506300 0.326838 0.501682
0.668415 0.396309 0.506078
0.817340 0.473277 0.511611
0.916530 0.544798 0.518282
0.961734 0.606641 0.526082
0.083236 0.296688 0.495812
0.098974 0.302404 0.496146
0.180773 0.323143 0.497347
0.339550 0.358918 0.499548
0.509091 0.408272 0.502821
0.670473 0.468375 0.507207
0.818712 0.531259 0.512727
0.917178 0.585495 0.519382
0.962023 0.642306 0.527164
0.086747 0.420567 0.497538
0.104989 0.425221 0.497871
0.188419 0.441518 0.499068
0.345689 0.470262 0.501260
0.513245 0.509926 0.504521
0.673541 0.549570 0.508891
0.820760 0.592648 0.514391
0.918145 0.640235 0.521023
0.962455 0.691304 0.528775
0.092410 0.543011 0.499860
0.113405 0.545717 0.500192
0.199262 0.555288 0.501382
0.353926 0.572324 0.503564
0.518822 0.596648 0.506808
0.677667 0.627574 0.511157
0.823516 0.664206 0.516630
0.919446 0.705616 0.523231
0.963036 0.749413 0.530891
0.103454 0.641384 0.502796
0.125232 0.643550 0.503126
0.212982 0.651279 0.504309
0.364341 0.665197 0.506477
0.525855 0.685305 0.509701
0.682883 0.711264 0.514023
0.827005 0.741433 0.519463
0.921094 0.775227 0.526025
0.963640 0.807893 0.533570
0.116859 0.738511 0.506358
0.139142 0.740233 0.506686
0.229878 0.746374 0.507859
0.376897 0.757485 0.510011
0.534209 0.773156 0.513211
0.689209 0.792631 0.517500
0.831240 0.812990 0.522900
0.923095 0.836500 0.529396
0.964079 0.862732 0.536821
0.133563 0.821773 0.510552
0.154386 0.822912 0.510876
0.248894 0.826979 0.512039
0.391589 0.834354 0.514171
0.543917 0.845138 0.517343
0.696652 0.859270 0.521596
0.836232 0.874045 0.526950
0.925455 0.887271 0.533288
0.964596 0.902084 0.540651
0.079466 0.096004 0.621678
0.091714 0.102126 0.621932
0.171941 0.126842 0.622843
0.332537 0.184568 0.624517
0.504354 0.265236 0.627010
0.666982 0.343841 0.630362
0.816384 0.428268 0.634595
0.916079 0.515042 0.639725
0.961533 0.581927 0.645755
0.079709 0.111177 0.621811
0.092200 0.118127 0.622065
0.172737 0.146212 0.622976
0.333166 0.205864 0.624649
0.504778 0.280984 0.627142
0.667295 0.356566 0.630492
0.816592 0.439120 0.634725
0.916178 0.522801 0.639853
0.961577 0.587825 0.645883
0.080848 0.182673 0.622287
0.094399 0.192017 0.622541
0.175584 0.222934 0.623451
0.335420 0.272656 0.625123
0.506300 0.331001 0.627613
0.668415 0.399957 0.630961
0.817340 0.476437 0.635190
0.916530 0.546819 0.640314
0.961734 0.608394 0.646341
0.083236 0.300981 0.623162
0.098974 0.306699 0.623415
0.180773 0.327341 0.624325
0.339550 0.362827 0.625993
0.509091 0.411841 0.628480
0.670473 0.471560 0.631823
0.818712 0.533351 0.636045
0.917178 0.587336 0.641161
0.962023 0.643927 0.647184
0.086747 0.424058 0.624469
0.104989 0.428685 0.624722
0.188419 0.444848 0.625628
0.345689 0.473437 0.627293
0.513245 0.512814 0.629774
0.673541 0.551567 0.633109
0.820760 0.594458 0.637322
0.918145 0.641863 0.642426
0.962455 0.692778 0.648442
0.092410 0.545041 0.626230
0.113405 0.547733 0.626482
0.199262 0.557256 0.627386
0.353926 0.574212 0.629045
0.518822 0.598441 0.631518
0.677667 0.629247 0.634843
0.823516 0.665762 0.639043
0.919446 0.707050 0.644131
0.963036 0.750678 0.650137
0.103454 0.643008 0.628461
0.125232 0.645167 0.628712
0.212982 0.652877 0.629612
0.364341 0.666750 0.631265
0.525855 0.686797 0.633728
0.682883 0.712682 0.637040
0.827005 0.742717 0.641223
0.921094 0.776357 0.646297
0.963640 0.808778 0.652286
0.116859 0.739802 0.631175
0.139142 0.741521 0.631425
0.229878 0.747646 0.632320
0.376897 0.758730 0.633965
0.534209 0.774291 0.636417
0.689209 0.793552 0.639712
0.831240 0.813863 0.643876
0.923095 0.837324 0.648939
0.964079 0.863504 0.654901
0.133563 0.822627 0.634379
0.154386 0.823764 0.634628
0.248894 0.827822 0.635519
0.391589 0.835181 0.637154
0.543917 0.845944 0.639591
0.696652 0.860048 0.642868
0.836232 0.874535 0.647017
0.925455 0.887735 0.652060
0.964596 0.902520 0.657991
0.079466 0.101883 0.745901
0.091714 0.108350 0.746086
0.171941 0.133197 0.746750
0.332537 0.193355 0.747969
0.504354 0.271580 0.749788
0.666982 0.348931 0.752237
0.816384 0.432628 0.755336
0.916079 0.518541 0.759098
0.961533 0.584279 0.763531
0.079709 0.117801 0.745998
0.092200 0.125129 0.746183
0.172737 0.154891 0.746847
0.333166 0.214006 0.748066
0.504778 0.287030 0.749884
0.667295 0.361556 0.752332
0.816592 0.443370 0.755431
0.916178 0.525590 0.759192
0.961577 0.590152 0.763625
0.080848 0.191603 0.746345
0.094399 0.200361 0.746530
0.175584 0.230925 0.747193
0.335420 0.278877 0.748411
0.506300 0.336239 0.750229
0.668415 0.404561 0.752675
0.817340 0.480361 0.755771
0.916530 0.549374 0.759531
0.961734 0.610613 0.763961
0.083236 0.306422 0.746982
0.098974 0.312310 0.747167
0.180773 0.332623 0.747829
0.339550 0.367753 0.749046
0.509091 0.416347 0.750862
0.670473 0.475587 0.753306
0.818712 0.535996 0.756398
0.917178 0.589665 0.760153
0.962023 0.645984 0.764579
0.086747 0.428469 0.747935
0.104989 0.433037 0.748119
0.188419 0.449056 0.748780
0.345689 0.477452 0.749995
0.513245 0.516468 0.751807
0.673541 0.554092 0.754247
0.820760 0.596749 0.757334
0.918145 0.643926 0.761083
0.962455 0.694647 0.765501
0.092410 0.547608 0.749219
0.113405 0.550283 0.749403
0.199262 0.559746 0.750062
0.353926 0.576600 0.751275
0.518822 0.600712 0.753083
0.677667 0.631367 0.755517
0.823516 0.667735 0.758597
0.919446 0.708868 0.762337
0.963036 0.752282 0.766746
0.103454 0.645066 0.750848
0.125232 0.647224 0.751031
0.212982 0.654903 0.751689
0.364341 0.668719 0.752898
0.525855 0.688688 0.754700
0.682883 0.714480 0.757127
0.827005 0.744346 0.760199
0.921094 0.777791 0.763929
0.963640 0.809901 0.768324
0.116859 0.741441 0.752832
0.139142 0.743153 0.753014
0.229878 0.749260 0.753670
0.376897 0.760309 0.754874
0.534209 0.775731 0.756670
0.689209 0.794721 0.759089
0.831240 0.814972 0.762150
0.923095 0.838368 0.765866
0.964079 0.864484 0.770247
0.133563 0.823711 0.755177
0.154386 0.824845 0.755359
0.248894 0.828892 0.756012
0.391589 0.836232 0.757211
0.543917 0.846967 0.759000
0.696652 0.861036 0.761408
0.836232 0.875158 0.764456
0.925455 0.888324 0.768158
0.964596 0.903075 0.772521
0.079466 0.109428 0.849823
0.091714 0.116157 0.849950
0.171941 0.143603 0.850405
0.332537 0.203485 0.851243
0.504354 0.279188 0.852493
0.666982 0.355099 0.854178
0.816384 0.437874 0.856311
0.916079 0.521983 0.858905
0.961533 0.587143 0.861966
0.079709 0.126294 0.849889
0.092200 0.132996 0.850016
0.172737 0.165017 0.850472
0.333166 0.223946 0.851309
0.504778 0.293860 0.852559
0.667295 0.367584 0.854243
0.816592 0.448520 0.856377
0.916178 0.528963 0.858970
0.961577 0.592977 0.862031
0.080848 0.201782 0.850127
0.094399 0.210299 0.850254
0.175584 0.240240 0.850710
0.335420 0.286346 0.851547
0.506300 0.342556 0.852796
0.668415 0.410133 0.854479
0.817340 0.485064 0.856612
0.916530 0.552474 0.859204
0.961734 0.613310 0.862263
0.083236 0.313271 0.850565
0.098974 0.319041 0.850692
0.180773 0.338991 0.851147
0.339550 0.373706 0.851983
0.509091 0.421804 0.853232
0.670473 0.480399 0.854913
0.818712 0.539203 0.857044
0.917178 0.592493 0.859634
0.962023 0.648493 0.862690
0.086747 0.433780 0.851219
0.104989 0.438279 0.851346
0.188419 0.454157 0.851800
0.345689 0.482195 0.852635
0.513245 0.520271 0.853882
0.673541 0.557155 0.855562
0.820760 0.599532 0.857689
0.918145 0.646439 0.860276
0.962455 0.696921 0.863328
0.092410 0.550721 0.852102
0.113405 0.553375 0.852228
0.199262 0.562766 0.852682
0.353926 0.579500 0.853515
0.518822 0.603469 0.854760
0.677667 0.633943 0.856436
0.823516 0.670134 0.858560
0.919446 0.711080 0.861142
0.963036 0.754234 0.864189
0.103454 0.647579 0.853222
0.125232 0.649727 0.853348
0.212982 0.657366 0.853801
0.364341 0.671113 0.854632
0.525855 0.690989 0.855874
0.682883 0.716594 0.857546
0.827005 0.746329 0.859665
0.921094 0.779537 0.862241
0.963640 0.811268 0.865281
0.116859 0.743435 0.854587
0.139142 0.745141 0.854713
0.229878 0.751224 0.855164
0.376897 0.762232 0.855993
0.534209 0.777484 0.857231
0.689209 0.796143 0.858899
0.831240 0.816322 0.861012
0.923095 0.839641 0.863580
0.964079 0.865678 0.866612
0.133563 0.825031 0.856202
0.154386 0.826161 0.856328
0.248894 0.830195 0.856777
0.391589 0.837511 0.857604
0.543917 0.848212 0.858838
0.696652 0.862240 0.860500
0.836232 0.875916 0.862606
0.925455 0.889042 0.865166
0.964596 0.903750 0.868188
0.079466 0.118847 0.917845
0.091714 0.126199 0.917912
0.171941 0.156231 0.918154
0.332537 0.215307 0.918599
0.504354 0.287923 0.919262
0.666982 0.362342 0.920156
0.816384 0.444040 0.921290
0.916079 0.526030 0.922668
0.961533 0.590519 0.924296
0.079709 0.135761 0.917880
0.092200 0.145354 0.917948
0.172737 0.177702 0.918189
0.333166 0.235391 0.918634
0.504778 0.301800 0.919297
0.667295 0.374645 0.920191
0.816592 0.454576 0.921324
0.916178 0.532836 0.922703
0.961577 0.596307 0.924330
0.080848 0.213599 0.918007
0.094399 0.222155 0.918074
0.175584 0.250936 0.918316
0.335420 0.294458 0.918760
0.506300 0.349941 0.919423
0.668415 0.416677 0.920317
0.817340 0.490600 0.921449
0.916530 0.556122 0.922827
0.961734 0.616490 0.924454
0.083236 0.321210 0.918239
0.098974 0.326829 0.918306
0.180773 0.346435 0.918548
0.339550 0.380681 0.918992
0.509091 0.428215 0.919654
0.670473 0.485978 0.920547
0.818712 0.542976 0.921679
0.917178 0.595827 0.923055
0.962023 0.651455 0.924681
0.086747 0.439990 0.918586
0.104989 0.444441 0.918653
0.188419 0.460156 0.918894
0.345689 0.487757 0.919338
0.513245 0.524335 0.920000
0.673541 0.560761 0.920891
0.820760 0.602812 0.922022
0.918145 0.649414 0.923397
0.962455 0.699607 0.925020
0.092410 0.554386 0.919054
0.113405 0.557015 0.919122
0.199262 0.566323 0.919362
0.353926 0.582916 0.919805
0.518822 0.606721 0.920466
0.677667 0.636983 0.921356
0.823516 0.672967 0.922485
0.919446 0.713694 0.923857
0.963036 0.756543 0.925478
0.103454 0.650546 0.919649
0.125232 0.652681 0.919716
0.212982 0.660274 0.919956
0.364341 0.673940 0.920398
0.525855 0.693706 0.921057
0.682883 0.719080 0.921946
0.827005 0.748673 0.923072
0.921094 0.781601 0.924442
0.963640 0.812886 0.926059
0.116859 0.745792 0.920374
0.139142 0.747491 0.920441
0.229878 0.753546 0.920680
0.376897 0.764505 0.921121
0.534209 0.779557 0.921778
0.689209 0.797825 0.922665
0.831240 0.817918 0.923788
0.923095 0.841146 0.925154
0.964079 0.867091 0.926768
0.133563 0.826593 0.921232
0.154386 0.827719 0.921298
0.248894 0.831736 0.921537
0.391589 0.839025 0.921977
0.543917 0.849686 0.922632
0.696652 0.863665 0.923516
0.836232 0.876813 0.924636
0.925455 0.889891 0.925998
0.964596 0.904549 0.927607
