LUTs/trix_modern/TriX_Yellow8_Normal.cube
TITLE "Tri-X Yellow8 Normal"
# Adobe RGB in/out. REPLACES AgX. Tri-X Yellow8 Normal.
LUT_3D_SIZE 33
DOMAIN_MIN 0.0 0.0 0.0
DOMAIN_MAX 1.0 1.0 1.0
0.093230 0.093230 0.093230
0.093230 0.093230 0.093230
0.093230 0.093230 0.093230
0.093249 0.093249 0.093249
0.093835 0.093835 0.093835
0.095517 0.095517 0.095517
0.104731 0.104731 0.104731
0.134562 0.134562 0.134562
0.154807 0.154807 0.154807
0.189202 0.189202 0.189202
0.246947 0.246947 0.246947
0.283502 0.283502 0.283502
0.311605 0.311605 0.311605
0.348955 0.348955 0.348955
0.400188 0.400188 0.400188
0.437317 0.437317 0.437317
0.473344 0.473344 0.473344
0.514425 0.514425 0.514425
0.558207 0.558207 0.558207
0.595983 0.595983 0.595983
0.632667 0.632667 0.632667
0.667838 0.667838 0.667838
0.698802 0.698802 0.698802
0.729224 0.729224 0.729224
0.753026 0.753026 0.753026
0.774017 0.774017 0.774017
0.795327 0.795327 0.795327
0.804988 0.804988 0.804988
0.834131 0.834131 0.834131
0.828291 0.828291 0.828291
0.822515 0.822515 0.822515
0.816788 0.816788 0.816788
0.864369 0.864369 0.864369
0.093230 0.093230 0.093230
0.093230 0.093230 0.093230
0.093230 0.093230 0.093230
0.093260 0.093260 0.093260
0.094128 0.094128 0.094128
0.096042 0.096042 0.096042
0.105996 0.105996 0.105996
0.137078 0.137078 0.137078
0.156967 0.156967 0.156967
0.191247 0.191247 0.191247
0.248539 0.248539 0.248539
0.284377 0.284377 0.284377
0.312173 0.312173 0.312173
0.349249 0.349249 0.349249
0.400193 0.400193 0.400193
0.437099 0.437099 0.437099
0.472952 0.472952 0.472952
0.513908 0.513908 0.513908
0.557647 0.557647 0.557647
0.595338 0.595338 0.595338
0.631997 0.631997 0.631997
0.667197 0.667197 0.667197
0.698273 0.698273 0.698273
0.728711 0.728711 0.728711
0.752564 0.752564 0.752564
0.773623 0.773623 0.773623
0.795036 0.795036 0.795036
0.804736 0.804736 0.804736
0.833815 0.833815 0.833815
0.828004 0.828004 0.828004
0.822253 0.822253 0.822253
0.816549 0.816549 0.816549
0.864137 0.864137 0.864137
0.093230 0.093230 0.093230
0.093230 0.093230 0.093230
0.093230 0.093230 0.093230
0.093268 0.093268 0.093268
0.095049 0.095049 0.095049
0.098825 0.098825 0.098825
0.113125 0.113125 0.113125
0.150513 0.150513 0.150513
0.167211 0.167211 0.167211
0.200477 0.200477 0.200477
0.255637 0.255637 0.255637
0.288273 0.288273 0.288273
0.314769 0.314769 0.314769
0.350757 0.350757 0.350757
0.400574 0.400574 0.400574
0.436585 0.436585 0.436585
0.471755 0.471755 0.471755
0.512221 0.512221 0.512221
0.555764 0.555764 0.555764
0.593120 0.593120 0.593120
0.629671 0.629671 0.629671
0.664956 0.664956 0.664956
0.696416 0.696416 0.696416
0.726903 0.726903 0.726903
0.750935 0.750935 0.750935
0.772234 0.772234 0.772234
0.794006 0.794006 0.794006
0.803848 0.803848 0.803848
0.832689 0.832689 0.832689
0.826979 0.826979 0.826979
0.821318 0.821318 0.821318
0.815695 0.815695 0.815695
0.863304 0.863304 0.863304
0.093274 0.093274 0.093274
0.093274 0.093274 0.093274
0.093278 0.093278 0.093278
0.093346 0.093346 0.093346
0.094902 0.094902 0.094902
0.098593 0.098593 0.098593
0.116209 0.116209 0.116209
0.159405 0.159405 0.159405
0.181643 0.181643 0.181643
0.215823 0.215823 0.215823
0.272524 0.272524 0.272524
0.298762 0.298762 0.298762
0.321956 0.321956 0.321956
0.355470 0.355470 0.355470
0.402830 0.402830 0.402830
0.436780 0.436780 0.436780
0.470448 0.470448 0.470448
0.509821 0.509821 0.509821
0.552835 0.552835 0.552835
0.589449 0.589449 0.589449
0.625712 0.625712 0.625712
0.661092 0.661092 0.661092
0.693181 0.693181 0.693181
0.723723 0.723723 0.723723
0.748066 0.748066 0.748066
0.769784 0.769784 0.769784
0.792180 0.792180 0.792180
0.802274 0.802274 0.802274
0.830647 0.830647 0.830647
0.825118 0.825118 0.825118
0.819620 0.819620 0.819620
0.814144 0.814144 0.814144
0.861788 0.861788 0.861788
0.095911 0.095911 0.095911
0.095882 0.095882 0.095882
0.095981 0.095981 0.095981
0.096287 0.096287 0.096287
0.097573 0.097573 0.097573
0.099024 0.099024 0.099024
0.115886 0.115886 0.115886
0.160582 0.160582 0.160582
0.187656 0.187656 0.187656
0.225452 0.225452 0.225452
0.281858 0.281858 0.281858
0.307469 0.307469 0.307469
0.330910 0.330910 0.330910
0.364727 0.364727 0.364727
0.410303 0.410303 0.410303
0.440041 0.440041 0.440041
0.470799 0.470799 0.470799
0.508038 0.508038 0.508038
0.549817 0.549817 0.549817
0.584997 0.584997 0.584997
0.620598 0.620598 0.620598
0.655955 0.655955 0.655955
0.688785 0.688785 0.688785
0.719324 0.719324 0.719324
0.744086 0.744086 0.744086
0.766385 0.766385 0.766385
0.789618 0.789618 0.789618
0.800072 0.800072 0.800072
0.827666 0.827666 0.827666
0.822395 0.822395 0.822395
0.817131 0.817131 0.817131
0.811882 0.811882 0.811882
0.859560 0.859560 0.859560
0.104886 0.104886 0.104886
0.104536 0.104536 0.104536
0.104392 0.104392 0.104392
0.104039 0.104039 0.104039
0.103486 0.103486 0.103486
0.105012 0.105012 0.105012
0.119067 0.119067 0.119067
0.162262 0.162262 0.162262
0.188374 0.188374 0.188374
0.228809 0.228809 0.228809
0.285139 0.285139 0.285139
0.314230 0.314230 0.314230
0.338779 0.338779 0.338779
0.371316 0.371316 0.371316
0.414276 0.414276 0.414276
0.443243 0.443243 0.443243
0.473047 0.473047 0.473047
0.509179 0.509179 0.509179
0.548594 0.548594 0.548594
0.581139 0.581139 0.581139
0.615336 0.615336 0.615336
0.650305 0.650305 0.650305
0.683732 0.683732 0.683732
0.714081 0.714081 0.714081
0.739322 0.739322 0.739322
0.762313 0.762313 0.762313
0.786490 0.786490 0.786490
0.797409 0.797409 0.797409
0.823772 0.823772 0.823772
0.818827 0.818827 0.818827
0.813863 0.813863 0.813863
0.861953 0.861953 0.861953
0.856624 0.856624 0.856624
0.145465 0.145465 0.145465
0.145983 0.145983 0.145983
0.144510 0.144510 0.144510
0.139774 0.139774 0.139774
0.135191 0.135191 0.135191
0.135035 0.135035 0.135035
0.140709 0.140709 0.140709
0.170159 0.170159 0.170159
0.192429 0.192429 0.192429
0.230307 0.230307 0.230307
0.286811 0.286811 0.286811
0.317818 0.317818 0.317818
0.342676 0.342676 0.342676
0.376224 0.376224 0.376224
0.420247 0.420247 0.420247
0.448840 0.448840 0.448840
0.474495 0.474495 0.474495
0.507571 0.507571 0.507571
0.546475 0.546475 0.546475
0.577828 0.577828 0.577828
0.611117 0.611117 0.611117
0.645510 0.645510 0.645510
0.678909 0.678909 0.678909
0.708652 0.708652 0.708652
0.734337 0.734337 0.734337
0.757923 0.757923 0.757923
0.783112 0.783112 0.783112
0.794610 0.794610 0.794610
0.819039 0.819039 0.819039
0.814468 0.814468 0.814468
0.809860 0.809860 0.809860
0.858057 0.858057 0.858057
0.853011 0.853011 0.853011
0.210063 0.210063 0.210063
0.210546 0.210546 0.210546
0.212064 0.212064 0.212064
0.203123 0.203123 0.203123
0.195293 0.195293 0.195293
0.192297 0.192297 0.192297
0.194621 0.194621 0.194621
0.203619 0.203619 0.203619
0.204436 0.204436 0.204436
0.235641 0.235641 0.235641
0.289134 0.289134 0.289134
0.318903 0.318903 0.318903
0.344525 0.344525 0.344525
0.379538 0.379538 0.379538
0.424339 0.424339 0.424339
0.451113 0.451113 0.451113
0.476949 0.476949 0.476949
0.509691 0.509691 0.509691
0.546550 0.546550 0.546550
0.574712 0.574712 0.574712
0.605966 0.605966 0.605966
0.639753 0.639753 0.639753
0.673942 0.673942 0.673942
0.703453 0.703453 0.703453
0.730052 0.730052 0.730052
0.754049 0.754049 0.754049
0.780012 0.780012 0.780012
0.792283 0.792283 0.792283
0.813629 0.813629 0.813629
0.809403 0.809403 0.809403
0.805191 0.805191 0.805191
0.853467 0.853467 0.853467
0.848773 0.848773 0.848773
0.244468 0.244468 0.244468
0.244812 0.244812 0.244812
0.242460 0.242460 0.242460
0.235147 0.235147 0.235147
0.227837 0.227837 0.227837
0.222799 0.222799 0.222799
0.222506 0.222506 0.222506
0.226464 0.226464 0.226464
0.235933 0.235933 0.235933
0.251032 0.251032 0.251032
0.294824 0.294824 0.294824
0.322255 0.322255 0.322255
0.347153 0.347153 0.347153
0.381560 0.381560 0.381560
0.426622 0.426622 0.426622
0.453701 0.453701 0.453701
0.479827 0.479827 0.479827
0.511359 0.511359 0.511359
0.546761 0.546761 0.546761
0.573898 0.573898 0.573898
0.604088 0.604088 0.604088
0.635755 0.635755 0.635755
0.669226 0.669226 0.669226
0.697711 0.697711 0.697711
0.724206 0.724206 0.724206
0.749278 0.749278 0.749278
0.776454 0.776454 0.776454
0.791114 0.791114 0.791114
0.810578 0.810578 0.810578
0.803828 0.803828 0.803828
0.799961 0.799961 0.799961
0.848290 0.848290 0.848290
0.843979 0.843979 0.843979
0.289788 0.289788 0.289788
0.288601 0.288601 0.288601
0.283972 0.283972 0.283972
0.279196 0.279196 0.279196
0.273564 0.273564 0.273564
0.268898 0.268898 0.268898
0.265905 0.265905 0.265905
0.267081 0.267081 0.267081
0.272392 0.272392 0.272392
0.280311 0.280311 0.280311
0.309515 0.309515 0.309515
0.328835 0.328835 0.328835
0.351471 0.351471 0.351471
0.384309 0.384309 0.384309
0.429071 0.429071 0.429071
0.456156 0.456156 0.456156
0.482178 0.482178 0.482178
0.513219 0.513219 0.513219
0.548997 0.548997 0.548997
0.574543 0.574543 0.574543
0.601751 0.601751 0.601751
0.633035 0.633035 0.633035
0.666162 0.666162 0.666162
0.693633 0.693633 0.693633
0.719513 0.719513 0.719513
0.744513 0.744513 0.744513
0.771564 0.771564 0.771564
0.787785 0.787785 0.787785
0.804163 0.804163 0.804163
0.816570 0.816570 0.816570
0.829417 0.829417 0.829417
0.842621 0.842621 0.842621
0.838712 0.838712 0.838712
0.344143 0.344143 0.344143
0.342460 0.342460 0.342460
0.337798 0.337798 0.337798
0.333966 0.333966 0.333966
0.328101 0.328101 0.328101
0.322344 0.322344 0.322344
0.319097 0.319097 0.319097
0.318215 0.318215 0.318215
0.320536 0.320536 0.320536
0.326241 0.326241 0.326241
0.335437 0.335437 0.335437
0.345790 0.345790 0.345790
0.358941 0.358941 0.358941
0.389519 0.389519 0.389519
0.432838 0.432838 0.432838
0.459040 0.459040 0.459040
0.484585 0.484585 0.484585
0.515721 0.515721 0.515721
0.551882 0.551882 0.551882
0.575610 0.575610 0.575610
0.602310 0.602310 0.602310
0.632548 0.632548 0.632548
0.663349 0.663349 0.663349
0.690013 0.690013 0.690013
0.715960 0.715960 0.715960
0.741520 0.741520 0.741520
0.767963 0.767963 0.767963
0.785327 0.785327 0.785327
0.801351 0.801351 0.801351
0.813716 0.813716 0.813716
0.824461 0.824461 0.824461
0.836565 0.836565 0.836565
0.833066 0.833066 0.833066
0.378968 0.378968 0.378968
0.377497 0.377497 0.377497
0.373099 0.373099 0.373099
0.368856 0.368856 0.368856
0.362614 0.362614 0.362614
0.357304 0.357304 0.357304
0.353812 0.353812 0.353812
0.351289 0.351289 0.351289
0.351819 0.351819 0.351819
0.355482 0.355482 0.355482
0.362291 0.362291 0.362291
0.372479 0.372479 0.372479
0.377962 0.377962 0.377962
0.397773 0.397773 0.397773
0.438661 0.438661 0.438661
0.463154 0.463154 0.463154
0.488284 0.488284 0.488284
0.519188 0.519188 0.519188
0.554898 0.554898 0.554898
0.578122 0.578122 0.578122
0.604656 0.604656 0.604656
0.632837 0.632837 0.632837
0.663053 0.663053 0.663053
0.688563 0.688563 0.688563
0.713125 0.713125 0.713125
0.737987 0.737987 0.737987
0.764728 0.764728 0.764728
0.783855 0.783855 0.783855
0.799962 0.799962 0.799962
0.812357 0.812357 0.812357
0.821355 0.821355 0.821355
0.830231 0.830231 0.830231
0.827136 0.827136 0.827136
0.407675 0.407675 0.407675
0.406393 0.406393 0.406393
0.402421 0.402421 0.402421
0.397834 0.397834 0.397834
0.392899 0.392899 0.392899
0.387964 0.387964 0.387964
0.383292 0.383292 0.383292
0.380349 0.380349 0.380349
0.379832 0.379832 0.379832
0.381591 0.381591 0.381591
0.386201 0.386201 0.386201
0.393396 0.393396 0.393396
0.404075 0.404075 0.404075
0.419105 0.419105 0.419105
0.447237 0.447237 0.447237
0.470195 0.470195 0.470195
0.493841 0.493841 0.493841
0.523896 0.523896 0.523896
0.559027 0.559027 0.559027
0.581808 0.581808 0.581808
0.607263 0.607263 0.607263
0.635295 0.635295 0.635295
0.664841 0.664841 0.664841
0.687872 0.687872 0.687872
0.712022 0.712022 0.712022
0.736766 0.736766 0.736766
0.762216 0.762216 0.762216
0.781755 0.781755 0.781755
0.798077 0.798077 0.798077
0.811863 0.811863 0.811863
0.825931 0.825931 0.825931
0.823740 0.823740 0.823740
0.821027 0.821027 0.821027
0.443535 0.443535 0.443535
0.442476 0.442476 0.442476
0.439108 0.439108 0.439108
0.434778 0.434778 0.434778
0.431517 0.431517 0.431517
0.426323 0.426323 0.426323
0.421609 0.421609 0.421609
0.418474 0.418474 0.418474
0.416975 0.416975 0.416975
0.417191 0.417191 0.417191
0.420069 0.420069 0.420069
0.425663 0.425663 0.425663
0.433268 0.433268 0.433268
0.443775 0.443775 0.443775
0.469289 0.469289 0.469289
0.480834 0.480834 0.480834
0.501358 0.501358 0.501358
0.529525 0.529525 0.529525
0.564013 0.564013 0.564013
0.586728 0.586728 0.586728
0.611582 0.611582 0.611582
0.639276 0.639276 0.639276
0.667412 0.667412 0.667412
0.689361 0.689361 0.689361
0.712508 0.712508 0.712508
0.735936 0.735936 0.735936
0.760985 0.760985 0.760985
0.781096 0.781096 0.781096
0.796946 0.796946 0.796946
0.810510 0.810510 0.810510
0.824029 0.824029 0.824029
0.835322 0.835322 0.835322
0.845557 0.845557 0.845557
0.488444 0.488444 0.488444
0.487511 0.487511 0.487511
0.484492 0.484492 0.484492
0.480338 0.480338 0.480338
0.477879 0.477879 0.477879
0.472261 0.472261 0.472261
0.468416 0.468416 0.468416
0.464983 0.464983 0.464983
0.462926 0.462926 0.462926
0.462582 0.462582 0.462582
0.464408 0.464408 0.464408
0.468098 0.468098 0.468098
0.474227 0.474227 0.474227
0.482694 0.482694 0.482694
0.493657 0.493657 0.493657
0.502870 0.502870 0.502870
0.514036 0.514036 0.514036
0.537700 0.537700 0.537700
0.570929 0.570929 0.570929
0.592734 0.592734 0.592734
0.617226 0.617226 0.617226
0.644647 0.644647 0.644647
0.671449 0.671449 0.671449
0.692545 0.692545 0.692545
0.714230 0.714230 0.714230
0.737243 0.737243 0.737243
0.761004 0.761004 0.761004
0.780502 0.780502 0.780502
0.796508 0.796508 0.796508
0.810766 0.810766 0.810766
0.823914 0.823914 0.823914
0.834278 0.834278 0.834278
0.840736 0.840736 0.840736
0.516970 0.516970 0.516970
0.516148 0.516148 0.516148
0.513425 0.513425 0.513425
0.509470 0.509470 0.509470
0.506334 0.506334 0.506334
0.502115 0.502115 0.502115
0.499327 0.499327 0.499327
0.494767 0.494767 0.494767
0.492251 0.492251 0.492251
0.491660 0.491660 0.491660
0.492191 0.492191 0.492191
0.494603 0.494603 0.494603
0.499517 0.499517 0.499517
0.506427 0.506427 0.506427
0.515488 0.515488 0.515488
0.526395 0.526395 0.526395
0.535225 0.535225 0.535225
0.551443 0.551443 0.551443
0.579721 0.579721 0.579721
0.600761 0.600761 0.600761
0.624089 0.624089 0.624089
0.651066 0.651066 0.651066
0.676702 0.676702 0.676702
0.696799 0.696799 0.696799
0.717837 0.717837 0.717837
0.739953 0.739953 0.739953
0.762166 0.762166 0.762166
0.781263 0.781263 0.781263
0.796723 0.796723 0.796723
0.810444 0.810444 0.810444
0.824282 0.824282 0.824282
0.836107 0.836107 0.836107
0.840151 0.840151 0.840151
0.543426 0.543426 0.543426
0.542721 0.542721 0.542721
0.540368 0.540368 0.540368
0.536809 0.536809 0.536809
0.533490 0.533490 0.533490
0.530727 0.530727 0.530727
0.526428 0.526428 0.526428
0.523083 0.523083 0.523083
0.520781 0.520781 0.520781
0.519451 0.519451 0.519451
0.519468 0.519468 0.519468
0.521022 0.521022 0.521022
0.524655 0.524655 0.524655
0.529844 0.529844 0.529844
0.537161 0.537161 0.537161
0.546493 0.546493 0.546493
0.557704 0.557704 0.557704
0.572389 0.572389 0.572389
0.594869 0.594869 0.594869
0.609758 0.609758 0.609758
0.632459 0.632459 0.632459
0.658562 0.658562 0.658562
0.682959 0.682959 0.682959
0.702428 0.702428 0.702428
0.723012 0.723012 0.723012
0.744052 0.744052 0.744052
0.765011 0.765011 0.765011
0.782565 0.782565 0.782565
0.797670 0.797670 0.797670
0.811539 0.811539 0.811539
0.824925 0.824925 0.824925
0.836102 0.836102 0.836102
0.846537 0.846537 0.846537
0.574177 0.574177 0.574177
0.573555 0.573555 0.573555
0.571460 0.571460 0.571460
0.568197 0.568197 0.568197
0.564849 0.564849 0.564849
0.563371 0.563371 0.563371
0.558286 0.558286 0.558286
0.556027 0.556027 0.556027
0.553293 0.553293 0.553293
0.551303 0.551303 0.551303
0.550977 0.550977 0.550977
0.552048 0.552048 0.552048
0.554959 0.554959 0.554959
0.558869 0.558869 0.558869
0.565127 0.565127 0.565127
0.572964 0.572964 0.572964
0.582749 0.582749 0.582749
0.594448 0.594448 0.594448
0.615535 0.615535 0.615535
0.626577 0.626577 0.626577
0.642112 0.642112 0.642112
0.667544 0.667544 0.667544
0.690191 0.690191 0.690191
0.709108 0.709108 0.709108
0.729438 0.729438 0.729438
0.749721 0.749721 0.749721
0.769266 0.769266 0.769266
0.785005 0.785005 0.785005
0.799630 0.799630 0.799630
0.812864 0.812864 0.812864
0.826372 0.826372 0.826372
0.838186 0.838186 0.838186
0.847694 0.847694 0.847694
0.609221 0.609221 0.609221
0.608683 0.608683 0.608683
0.606858 0.606858 0.606858
0.603960 0.603960 0.603960
0.600807 0.600807 0.600807
0.599071 0.599071 0.599071
0.595369 0.595369 0.595369
0.592971 0.592971 0.592971
0.590126 0.590126 0.590126
0.588937 0.588937 0.588937
0.588406 0.588406 0.588406
0.589143 0.589143 0.589143
0.590899 0.590899 0.590899
0.594268 0.594268 0.594268
0.599243 0.599243 0.599243
0.606452 0.606452 0.606452
0.614833 0.614833 0.614833
0.624898 0.624898 0.624898
0.637018 0.637018 0.637018
0.646968 0.646968 0.646968
0.660281 0.660281 0.660281
0.676589 0.676589 0.676589
0.698508 0.698508 0.698508
0.716984 0.716984 0.716984
0.736562 0.736562 0.736562
0.756568 0.756568 0.756568
0.774728 0.774728 0.774728
0.788539 0.788539 0.788539
0.802234 0.802234 0.802234
0.815227 0.815227 0.815227
0.828550 0.828550 0.828550
0.839702 0.839702 0.839702
0.850283 0.850283 0.850283
0.634623 0.634623 0.634623
0.634135 0.634135 0.634135
0.632467 0.632467 0.632467
0.629757 0.629757 0.629757
0.626626 0.626626 0.626626
0.624349 0.624349 0.624349
0.621898 0.621898 0.621898
0.618353 0.618353 0.618353
0.616434 0.616434 0.616434
0.615027 0.615027 0.615027
0.613551 0.613551 0.613551
0.613720 0.613720 0.613720
0.615190 0.615190 0.615190
0.617997 0.617997 0.617997
0.622410 0.622410 0.622410
0.628340 0.628340 0.628340
0.635859 0.635859 0.635859
0.645134 0.645134 0.645134
0.655689 0.655689 0.655689
0.668276 0.668276 0.668276
0.678710 0.678710 0.678710
0.693110 0.693110 0.693110
0.708539 0.708539 0.708539
0.725884 0.725884 0.725884
0.745029 0.745029 0.745029
0.764114 0.764114 0.764114
0.780659 0.780659 0.780659
0.792903 0.792903 0.792903
0.805860 0.805860 0.805860
0.818304 0.818304 0.818304
0.831165 0.831165 0.831165
0.842611 0.842611 0.842611
0.852732 0.852732 0.852732
0.660618 0.660618 0.660618
0.660183 0.660183 0.660183
0.658690 0.658690 0.658690
0.656225 0.656225 0.656225
0.653261 0.653261 0.653261
0.650779 0.650779 0.650779
0.649524 0.649524 0.649524
0.645434 0.645434 0.645434
0.644493 0.644493 0.644493
0.641441 0.641441 0.641441
0.640764 0.640764 0.640764
0.641121 0.641121 0.641121
0.641817 0.641817 0.641817
0.643834 0.643834 0.643834
0.647583 0.647583 0.647583
0.652849 0.652849 0.652849
0.659226 0.659226 0.659226
0.667301 0.667301 0.667301
0.676144 0.676144 0.676144
0.685672 0.685672 0.685672
0.696894 0.696894 0.696894
0.709971 0.709971 0.709971
0.724830 0.724830 0.724830
0.737178 0.737178 0.737178
0.754287 0.754287 0.754287
0.772565 0.772565 0.772565
0.786400 0.786400 0.786400
0.798052 0.798052 0.798052
0.810372 0.810372 0.810372
0.822075 0.822075 0.822075
0.834634 0.834634 0.834634
0.845691 0.845691 0.845691
0.855898 0.855898 0.855898
0.684932 0.684932 0.684932
0.684608 0.684608 0.684608
0.683490 0.683490 0.683490
0.681625 0.681625 0.681625
0.679329 0.679329 0.679329
0.677261 0.677261 0.677261
0.676616 0.676616 0.676616
0.673642 0.673642 0.673642
0.671933 0.671933 0.671933
0.670433 0.670433 0.670433
0.670014 0.670014 0.670014
0.669322 0.669322 0.669322
0.670098 0.670098 0.670098
0.671825 0.671825 0.671825
0.674471 0.674471 0.674471
0.678453 0.678453 0.678453
0.683444 0.683444 0.683444
0.689690 0.689690 0.689690
0.697221 0.697221 0.697221
0.706383 0.706383 0.706383
0.716197 0.716197 0.716197
0.727522 0.727522 0.727522
0.741333 0.741333 0.741333
0.753333 0.753333 0.753333
0.766105 0.766105 0.766105
0.780828 0.780828 0.780828
0.792872 0.792872 0.792872
0.804103 0.804103 0.804103
0.815738 0.815738 0.815738
0.826788 0.826788 0.826788
0.838694 0.838694 0.838694
0.849562 0.849562 0.849562
0.859684 0.859684 0.859684
0.708320 0.708320 0.708320
0.708038 0.708038 0.708038
0.707064 0.707064 0.707064
0.705424 0.705424 0.705424
0.703361 0.703361 0.703361
0.701388 0.701388 0.701388
0.700429 0.700429 0.700429
0.698735 0.698735 0.698735
0.696525 0.696525 0.696525
0.696093 0.696093 0.696093
0.694475 0.694475 0.694475
0.694522 0.694522 0.694522
0.695539 0.695539 0.695539
0.696438 0.696438 0.696438
0.698607 0.698607 0.698607
0.702019 0.702019 0.702019
0.706644 0.706644 0.706644
0.712347 0.712347 0.712347
0.719189 0.719189 0.719189
0.727241 0.727241 0.727241
0.736598 0.736598 0.736598
0.746850 0.746850 0.746850
0.758315 0.758315 0.758315
0.769308 0.769308 0.769308
0.780463 0.780463 0.780463
0.789711 0.789711 0.789711
0.799847 0.799847 0.799847
0.810752 0.810752 0.810752
0.821962 0.821962 0.821962
0.832368 0.832368 0.832368
0.843517 0.843517 0.843517
0.854067 0.854067 0.854067
0.863805 0.863805 0.863805
0.730365 0.730365 0.730365
0.730107 0.730107 0.730107
0.729208 0.729208 0.729208
0.727676 0.727676 0.727676
0.725690 0.725690 0.725690
0.723648 0.723648 0.723648
0.722267 0.722267 0.722267
0.721405 0.721405 0.721405
0.718771 0.718771 0.718771
0.718162 0.718162 0.718162
0.716651 0.716651 0.716651
0.716891 0.716891 0.716891
0.716623 0.716623 0.716623
0.717985 0.717985 0.717985
0.720287 0.720287 0.720287
0.722950 0.722950 0.722950
0.726897 0.726897 0.726897
0.732011 0.732011 0.732011
0.738316 0.738316 0.738316
0.745738 0.745738 0.745738
0.754363 0.754363 0.754363
0.763751 0.763751 0.763751
0.773998 0.773998 0.773998
0.783449 0.783449 0.783449
0.791545 0.791545 0.791545
0.800352 0.800352 0.800352
0.809321 0.809321 0.809321
0.817919 0.817919 0.817919
0.828757 0.828757 0.828757
0.838714 0.838714 0.838714
0.849166 0.849166 0.849166
0.859039 0.859039 0.859039
0.868676 0.868676 0.868676
0.749965 0.749965 0.749965
0.749745 0.749745 0.749745
0.748976 0.748976 0.748976
0.747658 0.747658 0.747658
0.745929 0.745929 0.745929
0.744099 0.744099 0.744099
0.742731 0.742731 0.742731
0.742822 0.742822 0.742822
0.740209 0.740209 0.740209
0.739037 0.739037 0.739037
0.738685 0.738685 0.738685
0.737918 0.737918 0.737918
0.738401 0.738401 0.738401
0.739662 0.739662 0.739662
0.741116 0.741116 0.741116
0.743895 0.743895 0.743895
0.747713 0.747713 0.747713
0.752432 0.752432 0.752432
0.758085 0.758085 0.758085
0.764619 0.764619 0.764619
0.772025 0.772025 0.772025
0.779945 0.779945 0.779945
0.786764 0.786764 0.786764
0.794459 0.794459 0.794459
0.802683 0.802683 0.802683
0.810934 0.810934 0.810934
0.820006 0.820006 0.820006
0.827643 0.827643 0.827643
0.836155 0.836155 0.836155
0.845690 0.845690 0.845690
0.855560 0.855560 0.855560
0.864853 0.864853 0.864853
0.873934 0.873934 0.873934
0.768049 0.768049 0.768049
0.767875 0.767875 0.767875
0.767266 0.767266 0.767266
0.766217 0.766217 0.766217
0.764831 0.764831 0.764831
0.763338 0.763338 0.763338
0.762160 0.762160 0.762160
0.762047 0.762047 0.762047
0.760823 0.760823 0.760823
0.759468 0.759468 0.759468
0.760208 0.760208 0.760208
0.758941 0.758941 0.758941
0.760072 0.760072 0.760072
0.760336 0.760336 0.760336
0.762275 0.762275 0.762275
0.764661 0.764661 0.764661
0.767678 0.767678 0.767678
0.771729 0.771729 0.771729
0.776669 0.776669 0.776669
0.781540 0.781540 0.781540
0.786563 0.786563 0.786563
0.792287 0.792287 0.792287
0.798632 0.798632 0.798632
0.805586 0.805586 0.805586
0.813349 0.813349 0.813349
0.821468 0.821468 0.821468
0.830694 0.830694 0.830694
0.838067 0.838067 0.838067
0.846208 0.846208 0.846208
0.853477 0.853477 0.853477
0.862488 0.862488 0.862488
0.871294 0.871294 0.871294
0.879876 0.879876 0.879876
0.787142 0.787142 0.787142
0.787020 0.787020 0.787020
0.786588 0.786588 0.786588
0.785830 0.785830 0.785830
0.784796 0.784796 0.784796
0.783605 0.783605 0.783605
0.782499 0.782499 0.782499
0.781926 0.781926 0.781926
0.781463 0.781463 0.781463
0.780184 0.780184 0.780184
0.779970 0.779970 0.779970
0.779745 0.779745 0.779745
0.779732 0.779732 0.779732
0.780330 0.780330 0.780330
0.781340 0.781340 0.781340
0.782716 0.782716 0.782716
0.785014 0.785014 0.785014
0.787729 0.787729 0.787729
0.790859 0.790859 0.790859
0.794782 0.794782 0.794782
0.799451 0.799451 0.799451
0.804837 0.804837 0.804837
0.810918 0.810918 0.810918
0.817648 0.817648 0.817648
0.825036 0.825036 0.825036
