LUTs/trix_modern/TriX_Green58_Normal.cube
TITLE "Tri-X Green58 Normal"
# Adobe RGB in/out. REPLACES AgX. Tri-X Green58 Normal.
LUT_3D_SIZE 5
DOMAIN_MIN 0.0 0.0 0.0
DOMAIN_MAX 1.0 1.0 1.0
0.093230 0.093230 0.093230
0.096902 0.096902 0.096902
0.181557 0.181557 0.181557
0.239417 0.239417 0.239417
0.302335 0.302335 0.302335
0.378258 0.378258 0.378258
0.231987 0.231987 0.231987
0.294394 0.294394 0.294394
0.344559 0.344559 0.344559
0.289828 0.289828 0.289828
0.775804 0.775804 0.775804
0.683425 0.683425 0.683425
0.552675 0.552675 0.552675
0.560833 0.560833 0.560833
0.517832 0.517832 0.517832
0.927340 0.927340 0.927340
0.904591 0.904591 0.904591
0.845744 0.845744 0.845744
0.801132 0.801132 0.801132
0.789815 0.789815 0.789815
0.952304 0.952304 0.952304
0.957487 0.957487 0.957487
0.950141 0.950141 0.950141
0.932655 0.932655 0.932655
0.926133 0.926133 0.926133
0.095052 0.095052 0.095052
0.125910 0.125910 0.125910
0.219453 0.219453 0.219453
0.259954 0.259954 0.259954
0.297619 0.297619 0.297619
0.294544 0.294544 0.294544
0.204394 0.204394 0.204394
0.308927 0.308927 0.308927
0.353971 0.353971 0.353971
0.285247 0.285247 0.285247
0.716955 0.716955 0.716955
0.639163 0.639163 0.639163
0.532852 0.532852 0.532852
0.560574 0.560574 0.560574
0.520714 0.520714 0.520714
0.910832 0.910832 0.910832
0.891019 0.891019 0.891019
0.834944 0.834944 0.834944
0.796749 0.796749 0.796749
0.787225 0.787225 0.787225
0.952516 0.952516 0.952516
0.957659 0.957659 0.957659
0.947816 0.947816 0.947816
0.929984 0.929984 0.929984
0.924606 0.924606 0.924606
0.184718 0.184718 0.184718
0.271883 0.271883 0.271883
0.341077 0.341077 0.341077
0.332000 0.332000 0.332000
0.295522 0.295522 0.295522
0.417494 0.417494 0.417494
0.401885 0.401885 0.401885
0.395537 0.395537 0.395537
0.406863 0.406863 0.406863
0.282500 0.282500 0.282500
0.647195 0.647195 0.647195
0.594117 0.594117 0.594117
0.508013 0.508013 0.508013
0.569400 0.569400 0.569400
0.544545 0.544545 0.544545
0.884254 0.884254 0.884254
0.865056 0.865056 0.865056
0.816427 0.816427 0.816427
0.787456 0.787456 0.787456
0.786563 0.786563 0.786563
0.953486 0.953486 0.953486
0.952849 0.952849 0.952849
0.941698 0.941698 0.941698
0.924697 0.924697 0.924697
0.923343 0.923343 0.923343
0.340206 0.340206 0.340206
0.404698 0.404698 0.404698
0.467240 0.467240 0.467240
0.443149 0.443149 0.443149
0.300958 0.300958 0.300958
0.521132 0.521132 0.521132
0.550110 0.550110 0.550110
0.544082 0.544082 0.544082
0.500773 0.500773 0.500773
0.287201 0.287201 0.287201
0.686900 0.686900 0.686900
0.668452 0.668452 0.668452
0.633277 0.633277 0.633277
0.631691 0.631691 0.631691
0.589791 0.589791 0.589791
0.866907 0.866907 0.866907
0.851356 0.851356 0.851356
0.812837 0.812837 0.812837
0.782937 0.782937 0.782937
0.794913 0.794913 0.794913
0.948148 0.948148 0.948148
0.948442 0.948442 0.948442
0.938175 0.938175 0.938175
0.923966 0.923966 0.923966
0.926233 0.926233 0.926233
0.403123 0.403123 0.403123
0.427132 0.427132 0.427132
0.490799 0.490799 0.490799
0.467356 0.467356 0.467356
0.322992 0.322992 0.322992
0.541298 0.541298 0.541298
0.559892 0.559892 0.559892
0.604936 0.604936 0.604936
0.531309 0.531309 0.531309
0.314312 0.314312 0.314312
0.771643 0.771643 0.771643
0.759530 0.759530 0.759530
0.733572 0.733572 0.733572
0.696913 0.696913 0.696913
0.548790 0.548790 0.548790
0.876705 0.876705 0.876705
0.866050 0.866050 0.866050
0.843370 0.843370 0.843370
0.828943 0.828943 0.828943
0.790646 0.790646 0.790646
0.939675 0.939675 0.939675
0.944343 0.944343 0.944343
0.942596 0.942596 0.942596
0.930445 0.930445 0.930445
0.932292 0.932292 0.932292
