LUTs/trix_modern/TriX_NoFilter_ExtraPunchy.cube
TITLE "Tri-X NoFilter ExtraPunchy"
# Adobe RGB in/out. REPLACES AgX. Tri-X NoFilter ExtraPunchy.
LUT_3D_SIZE 33
DOMAIN_MIN 0.0 0.0 0.0
DOMAIN_MAX 1.0 1.0 1.0
0.092237 0.092237 0.092237
0.092237 0.092237 0.092237
0.092237 0.092237 0.092237
0.092237 0.092237 0.092237
0.092237 0.092237 0.092237
0.092237 0.092237 0.092237
0.092237 0.092237 0.092237
0.092695 0.092695 0.092695
0.093283 0.093283 0.093283
0.094833 0.094833 0.094833
0.101760 0.101760 0.101760
0.110607 0.110607 0.110607
0.124636 0.124636 0.124636
0.148103 0.148103 0.148103
0.186109 0.186109 0.186109
0.217075 0.217075 0.217075
0.251043 0.251043 0.251043
0.292308 0.292308 0.292308
0.339397 0.339397 0.339397
0.381926 0.381926 0.381926
0.425534 0.425534 0.425534
0.469846 0.469846 0.469846
0.517019 0.517019 0.517019
0.562798 0.562798 0.562798
0.602009 0.602009 0.602009
0.641945 0.641945 0.641945
0.693833 0.693833 0.693833
0.755333 0.755333 0.755333
0.905757 0.905757 0.905757
0.900404 0.900404 0.900404
0.895108 0.895108 0.895108
0.889851 0.889851 0.889851
0.946265 0.946265 0.946265
0.092237 0.092237 0.092237
0.092237 0.092237 0.092237
0.092237 0.092237 0.092237
0.092237 0.092237 0.092237
0.092237 0.092237 0.092237
0.092237 0.092237 0.092237
0.092237 0.092237 0.092237
0.092731 0.092731 0.092731
0.093378 0.093378 0.093378
0.095003 0.095003 0.095003
0.101991 0.101991 0.101991
0.110948 0.110948 0.110948
0.124940 0.124940 0.124940
0.148293 0.148293 0.148293
0.186104 0.186104 0.186104
0.216876 0.216876 0.216876
0.250668 0.250668 0.250668
0.291810 0.291810 0.291810
0.338792 0.338792 0.338792
0.381189 0.381189 0.381189
0.424734 0.424734 0.424734
0.469034 0.469034 0.469034
0.516241 0.516241 0.516241
0.561988 0.561988 0.561988
0.601206 0.601206 0.601206
0.641208 0.641208 0.641208
0.692714 0.692714 0.692714
0.753321 0.753321 0.753321
0.905469 0.905469 0.905469
0.900141 0.900141 0.900141
0.894868 0.894868 0.894868
0.889631 0.889631 0.889631
0.946104 0.946104 0.946104
0.092237 0.092237 0.092237
0.092237 0.092237 0.092237
0.092237 0.092237 0.092237
0.092237 0.092237 0.092237
0.092237 0.092237 0.092237
0.092237 0.092237 0.092237
0.092255 0.092255 0.092255
0.093036 0.093036 0.093036
0.093809 0.093809 0.093809
0.095759 0.095759 0.095759
0.103017 0.103017 0.103017
0.112479 0.112479 0.112479
0.126351 0.126351 0.126351
0.149288 0.149288 0.149288
0.186367 0.186367 0.186367
0.216408 0.216408 0.216408
0.249528 0.249528 0.249528
0.290188 0.290188 0.290188
0.336764 0.336764 0.336764
0.378664 0.378664 0.378664
0.421963 0.421963 0.421963
0.466206 0.466206 0.466206
0.513492 0.513492 0.513492
0.559143 0.559143 0.559143
0.598388 0.598388 0.598388
0.638205 0.638205 0.638205
0.688856 0.688856 0.688856
0.746465 0.746465 0.746465
0.904438 0.904438 0.904438
0.899201 0.899201 0.899201
0.894010 0.894010 0.894010
0.888847 0.888847 0.888847
0.945531 0.945531 0.945531
0.092237 0.092237 0.092237
0.092237 0.092237 0.092237
0.092237 0.092237 0.092237
0.092237 0.092237 0.092237
0.092237 0.092237 0.092237
0.092237 0.092237 0.092237
0.092334 0.092334 0.092334
0.093434 0.093434 0.093434
0.094327 0.094327 0.094327
0.097036 0.097036 0.097036
0.106344 0.106344 0.106344
0.116859 0.116859 0.116859
0.130341 0.130341 0.130341
0.152476 0.152476 0.152476
0.188036 0.188036 0.188036
0.216574 0.216574 0.216574
0.248297 0.248297 0.248297
0.287904 0.287904 0.287904
0.333635 0.333635 0.333635
0.374516 0.374516 0.374516
0.417281 0.417281 0.417281
0.461362 0.461362 0.461362
0.508488 0.508488 0.508488
0.554175 0.554175 0.554175
0.593472 0.593472 0.593472
0.632993 0.632993 0.632993
0.682358 0.682358 0.682358
0.735353 0.735353 0.735353
0.902569 0.902569 0.902569
0.897495 0.897495 0.897495
0.892451 0.892451 0.892451
0.887420 0.887420 0.887420
0.944487 0.944487 0.944487
0.092237 0.092237 0.092237
0.092237 0.092237 0.092237
0.092237 0.092237 0.092237
0.092237 0.092237 0.092237
0.092237 0.092237 0.092237
0.092237 0.092237 0.092237
0.092331 0.092331 0.092331
0.093497 0.093497 0.093497
0.094551 0.094551 0.094551
0.098004 0.098004 0.098004
0.109409 0.109409 0.109409
0.121686 0.121686 0.121686
0.135442 0.135442 0.135442
0.158897 0.158897 0.158897
0.193699 0.193699 0.193699
0.219503 0.219503 0.219503
0.248676 0.248676 0.248676
0.286252 0.286252 0.286252
0.330458 0.330458 0.330458
0.369550 0.369550 0.369550
0.411301 0.411301 0.411301
0.454990 0.454990 0.454990
0.501768 0.501768 0.501768
0.547387 0.547387 0.547387
0.586755 0.586755 0.586755
0.625936 0.625936 0.625936
0.673887 0.673887 0.673887
0.720977 0.720977 0.720977
0.899839 0.899839 0.899839
0.894998 0.894998 0.894998
0.890166 0.890166 0.890166
0.885300 0.885300 0.885300
0.942951 0.942951 0.942951
0.092237 0.092237 0.092237
0.092237 0.092237 0.092237
0.092237 0.092237 0.092237
0.092237 0.092237 0.092237
0.092237 0.092237 0.092237
0.092237 0.092237 0.092237
0.092423 0.092423 0.092423
0.093607 0.093607 0.093607
0.094664 0.094664 0.094664
0.098599 0.098599 0.098599
0.110785 0.110785 0.110785
0.125559 0.125559 0.125559
0.140288 0.140288 0.140288
0.163677 0.163677 0.163677
0.196849 0.196849 0.196849
0.222475 0.222475 0.222475
0.250924 0.250924 0.250924
0.287463 0.287463 0.287463
0.329270 0.329270 0.329270
0.365353 0.365353 0.365353
0.405264 0.405264 0.405264
0.448096 0.448096 0.448096
0.494168 0.494168 0.494168
0.539435 0.539435 0.539435
0.578873 0.578873 0.578873
0.617737 0.617737 0.617737
0.664406 0.664406 0.664406
0.703224 0.703224 0.703224
0.896271 0.896271 0.896271
0.891724 0.891724 0.891724
0.887165 0.887165 0.887165
0.911542 0.911542 0.911542
0.940926 0.940926 0.940926
0.092905 0.092905 0.092905
0.092935 0.092935 0.092935
0.092874 0.092874 0.092874
0.092795 0.092795 0.092795
0.092725 0.092725 0.092725
0.092717 0.092717 0.092717
0.092796 0.092796 0.092796
0.093974 0.093974 0.093974
0.095108 0.095108 0.095108
0.098978 0.098978 0.098978
0.111699 0.111699 0.111699
0.127842 0.127842 0.127842
0.143159 0.143159 0.143159
0.167358 0.167358 0.167358
0.201771 0.201771 0.201771
0.227762 0.227762 0.227762
0.252515 0.252515 0.252515
0.286115 0.286115 0.286115
0.327204 0.327204 0.327204
0.361872 0.361872 0.361872
0.400574 0.400574 0.400574
0.442410 0.442410 0.442410
0.487091 0.487091 0.487091
0.531400 0.531400 0.531400
0.570833 0.570833 0.570833
0.609448 0.609448 0.609448
0.655054 0.655054 0.655054
0.688353 0.688353 0.688353
0.891934 0.891934 0.891934
0.887722 0.887722 0.887722
0.883342 0.883342 0.883342
0.908059 0.908059 0.908059
0.938431 0.938431 0.938431
0.096874 0.096874 0.096874
0.096926 0.096926 0.096926
0.097083 0.097083 0.097083
0.096303 0.096303 0.096303
0.095604 0.095604 0.095604
0.095323 0.095323 0.095323
0.095478 0.095478 0.095478
0.096213 0.096213 0.096213
0.096228 0.096228 0.096228
0.099995 0.099995 0.099995
0.112982 0.112982 0.112982
0.128848 0.128848 0.128848
0.144827 0.144827 0.144827
0.170110 0.170110 0.170110
0.205432 0.205432 0.205432
0.230108 0.230108 0.230108
0.255149 0.255149 0.255149
0.288431 0.288431 0.288431
0.327568 0.327568 0.327568
0.358705 0.358705 0.358705
0.394862 0.394862 0.394862
0.435711 0.435711 0.435711
0.480037 0.480037 0.480037
0.523986 0.523986 0.523986
0.564173 0.564173 0.564173
0.602591 0.602591 0.602591
0.647245 0.647245 0.647245
0.677870 0.677870 0.677870
0.886979 0.886979 0.886979
0.882901 0.882901 0.882901
0.878797 0.878797 0.878797
0.903963 0.903963 0.903963
0.935499 0.935499 0.935499
0.101832 0.101832 0.101832
0.101901 0.101901 0.101901
0.101566 0.101566 0.101566
0.100417 0.100417 0.100417
0.099211 0.099211 0.099211
0.098330 0.098330 0.098330
0.098231 0.098231 0.098231
0.098807 0.098807 0.098807
0.100270 0.100270 0.100270
0.102562 0.102562 0.102562
0.115704 0.115704 0.115704
0.131246 0.131246 0.131246
0.147175 0.147175 0.147175
0.172075 0.172075 0.172075
0.207930 0.207930 0.207930
0.232933 0.232933 0.232933
0.258315 0.258315 0.258315
0.290384 0.290384 0.290384
0.328143 0.328143 0.328143
0.358185 0.358185 0.358185
0.393106 0.393106 0.393106
0.431289 0.431289 0.431289
0.473527 0.473527 0.473527
0.515992 0.515992 0.515992
0.555523 0.555523 0.555523
0.594950 0.594950 0.594950
0.640613 0.640613 0.640613
0.672856 0.672856 0.672856
0.883446 0.883446 0.883446
0.877494 0.877494 0.877494
0.873711 0.873711 0.873711
0.899343 0.899343 0.899343
0.932175 0.932175 0.932175
0.114508 0.114508 0.114508
0.114023 0.114023 0.114023
0.112109 0.112109 0.112109
0.110072 0.110072 0.110072
0.108014 0.108014 0.108014
0.106576 0.106576 0.106576
0.105788 0.105788 0.105788
0.105978 0.105978 0.105978
0.107292 0.107292 0.107292
0.109939 0.109939 0.109939
0.124442 0.124442 0.124442
0.135602 0.135602 0.135602
0.150772 0.150772 0.150772
0.174718 0.174718 0.174718
0.210728 0.210728 0.210728
0.235783 0.235783 0.235783
0.261134 0.261134 0.261134
0.292647 0.292647 0.292647
0.330981 0.330981 0.330981
0.359361 0.359361 0.359361
0.390835 0.390835 0.390835
0.428481 0.428481 0.428481
0.469949 0.469949 0.469949
0.510364 0.510364 0.510364
0.548785 0.548785 0.548785
0.587579 0.587579 0.587579
0.631794 0.631794 0.631794
0.664613 0.664613 0.664613
0.704178 0.704178 0.704178
0.747859 0.747859 0.747859
0.874748 0.874748 0.874748
0.895106 0.895106 0.895106
0.928516 0.928516 0.928516
0.147987 0.147987 0.147987
0.146808 0.146808 0.146808
0.143476 0.143476 0.143476
0.140698 0.140698 0.140698
0.136884 0.136884 0.136884
0.133404 0.133404 0.133404
0.131366 0.131366 0.131366
0.130690 0.130690 0.130690
0.131849 0.131849 0.131849
0.135023 0.135023 0.135023
0.140555 0.140555 0.140555
0.147639 0.147639 0.147639
0.156712 0.156712 0.156712
0.179272 0.179272 0.179272
0.214832 0.214832 0.214832
0.239210 0.239210 0.239210
0.264141 0.264141 0.264141
0.295634 0.295634 0.295634
0.334620 0.334620 0.334620
0.361072 0.361072 0.361072
0.392018 0.392018 0.392018
0.428432 0.428432 0.428432
0.466928 0.466928 0.466928
0.505409 0.505409 0.505409
0.543937 0.543937 0.543937
0.583165 0.583165 0.583165
0.625497 0.625497 0.625497
0.658592 0.658592 0.658592
0.695181 0.695181 0.695181
0.732264 0.732264 0.732264
0.845977 0.845977 0.845977
0.892259 0.892259 0.892259
0.890040 0.890040 0.890040
0.173942 0.173942 0.173942
0.172840 0.172840 0.172840
0.169563 0.169563 0.169563
0.166426 0.166426 0.166426
0.161812 0.161812 0.161812
0.157878 0.157878 0.157878
0.155249 0.155249 0.155249
0.153265 0.153265 0.153265
0.153425 0.153425 0.153425
0.155800 0.155800 0.155800
0.160471 0.160471 0.160471
0.167715 0.167715 0.167715
0.171369 0.171369 0.171369
0.186255 0.186255 0.186255
0.220916 0.220916 0.220916
0.243898 0.243898 0.243898
0.268592 0.268592 0.268592
0.299843 0.299843 0.299843
0.338485 0.338485 0.338485
0.364471 0.364471 0.364471
0.395356 0.395356 0.395356
0.429348 0.429348 0.429348
0.467144 0.467144 0.467144
0.503853 0.503853 0.503853
0.540278 0.540278 0.540278
0.578167 0.578167 0.578167
0.620200 0.620200 0.620200
0.655106 0.655106 0.655106
0.690508 0.690508 0.690508
0.723930 0.723930 0.723930
0.806151 0.806151 0.806151
0.886573 0.886573 0.886573
0.885548 0.885548 0.885548
0.196572 0.196572 0.196572
0.195559 0.195559 0.195559
0.192436 0.192436 0.192436
0.188860 0.188860 0.188860
0.185018 0.185018 0.185018
0.181170 0.181170 0.181170
0.177516 0.177516 0.177516
0.175161 0.175161 0.175161
0.174559 0.174559 0.174559
0.175650 0.175650 0.175650
0.178895 0.178895 0.178895
0.184127 0.184127 0.184127
0.192199 0.192199 0.192199
0.204097 0.204097 0.204097
0.229689 0.229689 0.229689
0.251535 0.251535 0.251535
0.274993 0.274993 0.274993
0.305501 0.305501 0.305501
0.343822 0.343822 0.343822
0.369336 0.369336 0.369336
0.399030 0.399030 0.399030
0.432937 0.432937 0.432937
0.470032 0.470032 0.470032
0.503432 0.503432 0.503432
0.539244 0.539244 0.539244
0.576848 0.576848 0.576848
0.616330 0.616330 0.616330
0.650772 0.650772 0.650772
0.685773 0.685773 0.685773
0.719329 0.719329 0.719329
0.754395 0.754395 0.754395
0.880433 0.880433 0.880433
0.881038 0.881038 0.881038
0.228850 0.228850 0.228850
0.227860 0.227860 0.227860
0.224726 0.224726 0.224726
0.220735 0.220735 0.220735
0.217751 0.217751 0.217751
0.212983 0.212983 0.212983
0.208743 0.208743 0.208743
0.205980 0.205980 0.205980
0.204559 0.204559 0.204559
0.204507 0.204507 0.204507
0.206638 0.206638 0.206638
0.211211 0.211211 0.211211
0.217834 0.217834 0.217834
0.227303 0.227303 0.227303
0.251870 0.251870 0.251870
0.262920 0.262920 0.262920
0.283552 0.283552 0.283552
0.312198 0.312198 0.312198
0.350136 0.350136 0.350136
0.375766 0.375766 0.375766
0.404872 0.404872 0.404872
0.438445 0.438445 0.438445
0.473917 0.473917 0.473917
0.506352 0.506352 0.506352
0.540584 0.540584 0.540584
0.576109 0.576109 0.576109
0.614739 0.614739 0.614739
0.649561 0.649561 0.649561
0.682962 0.682962 0.682962
0.714459 0.714459 0.714459
0.745186 0.745186 0.745186
0.809897 0.809897 0.809897
0.893840 0.893840 0.893840
0.274028 0.274028 0.274028
0.273081 0.273081 0.273081
0.270029 0.270029 0.270029
0.265872 0.265872 0.265872
0.263459 0.263459 0.263459
0.257864 0.257864 0.257864
0.254007 0.254007 0.254007
0.250489 0.250489 0.250489
0.248338 0.248338 0.248338
0.247782 0.247782 0.247782
0.249327 0.249327 0.249327
0.252632 0.252632 0.252632
0.258405 0.258405 0.258405
0.266538 0.266538 0.266538
0.277390 0.277390 0.277390
0.286331 0.286331 0.286331
0.296946 0.296946 0.296946
0.321759 0.321759 0.321759
0.358733 0.358733 0.358733
0.383507 0.383507 0.383507
0.412335 0.412335 0.412335
0.445788 0.445788 0.445788
0.480369 0.480369 0.480369
0.511870 0.511870 0.511870
0.543733 0.543733 0.543733
0.578693 0.578693 0.578693
0.615313 0.615313 0.615313
0.648637 0.648637 0.648637
0.681957 0.681957 0.681957
0.713828 0.713828 0.713828
0.741462 0.741462 0.741462
0.779923 0.779923 0.779923
0.886399 0.886399 0.886399
0.303300 0.303300 0.303300
0.302472 0.302472 0.302472
0.299758 0.299758 0.299758
0.295847 0.295847 0.295847
0.292792 0.292792 0.292792
0.288658 0.288658 0.288658
0.285916 0.285916 0.285916
0.281166 0.281166 0.281166
0.278428 0.278428 0.278428
0.277677 0.277677 0.277677
0.277953 0.277953 0.277953
0.280178 0.280178 0.280178
0.284935 0.284935 0.284935
0.291433 0.291433 0.291433
0.300123 0.300123 0.300123
0.311245 0.311245 0.311245
0.320198 0.320198 0.320198
0.337628 0.337628 0.337628
0.369620 0.369620 0.369620
0.393783 0.393783 0.393783
0.421347 0.421347 0.421347
0.454525 0.454525 0.454525
0.488872 0.488872 0.488872
0.518766 0.518766 0.518766
0.549717 0.549717 0.549717
0.583427 0.583427 0.583427
0.617808 0.617808 0.617808
0.650563 0.650563 0.650563
0.682526 0.682526 0.682526
0.712631 0.712631 0.712631
0.740315 0.740315 0.740315
0.769369 0.769369 0.769369
0.864911 0.864911 0.864911
0.332192 0.332192 0.332192
0.331424 0.331424 0.331424
0.328874 0.328874 0.328874
0.325042 0.325042 0.325042
0.321515 0.321515 0.321515
0.318595 0.318595 0.318595
0.314011 0.314011 0.314011
0.310405 0.310405 0.310405
0.307852 0.307852 0.307852
0.306305 0.306305 0.306305
0.306158 0.306158 0.306158
0.307563 0.307563 0.307563
0.311104 0.311104 0.311104
0.316375 0.316375 0.316375
0.323920 0.323920 0.323920
0.333728 0.333728 0.333728
0.345800 0.345800 0.345800
0.362090 0.362090 0.362090
0.388181 0.388181 0.388181
0.405296 0.405296 0.405296
0.432347 0.432347 0.432347
0.464744 0.464744 0.464744
0.499017 0.499017 0.499017
0.527614 0.527614 0.527614
0.558097 0.558097 0.558097
0.590297 0.590297 0.590297
0.623171 0.623171 0.623171
0.653597 0.653597 0.653597
0.684736 0.684736 0.684736
0.714772 0.714772 0.714772
0.740299 0.740299 0.740299
0.764315 0.764315 0.764315
0.823761 0.823761 0.823761
0.367401 0.367401 0.367401
0.366692 0.366692 0.366692
0.364313 0.364313 0.364313
0.360629 0.360629 0.360629
0.356890 0.356890 0.356890
0.355294 0.355294 0.355294
0.349599 0.349599 0.349599
0.347070 0.347070 0.347070
0.343953 0.343953 0.343953
0.341610 0.341610 0.341610
0.341111 0.341111 0.341111
0.342085 0.342085 0.342085
0.345084 0.345084 0.345084
0.349136 0.349136 0.349136
0.355888 0.355888 0.355888
0.364445 0.364445 0.364445
0.375310 0.375310 0.375310
0.388612 0.388612 0.388612
0.413761 0.413761 0.413761
0.426435 0.426435 0.426435
0.445037 0.445037 0.445037
0.476976 0.476976 0.476976
0.510789 0.510789 0.510789
0.538120 0.538120 0.538120
0.568425 0.568425 0.568425
0.599661 0.599661 0.599661
0.630911 0.630911 0.630911
0.658968 0.658968 0.658968
0.689175 0.689175 0.689175
0.717621 0.717621 0.717621
0.742064 0.742064 0.742064
0.764790 0.764790 0.764790
0.805387 0.805387 0.805387
0.409612 0.409612 0.409612
0.408974 0.408974 0.408974
0.406818 0.406818 0.406818
0.403412 0.403412 0.403412
0.399720 0.399720 0.399720
0.397737 0.397737 0.397737
0.393392 0.393392 0.393392
0.390586 0.390586 0.390586
0.387225 0.387225 0.387225
0.385748 0.385748 0.385748
0.384956 0.384956 0.384956
0.385681 0.385681 0.385681
0.387515 0.387515 0.387515
0.391221 0.391221 0.391221
0.396774 0.396774 0.396774
0.405044 0.405044 0.405044
0.414692 0.414692 0.414692
0.426422 0.426422 0.426422
0.440896 0.440896 0.440896
0.452533 0.452533 0.452533
0.468757 0.468757 0.468757
0.491087 0.491087 0.491087
0.523748 0.523748 0.523748
0.550514 0.550514 0.550514
0.579899 0.579899 0.579899
0.610950 0.610950 0.610950
0.640732 0.640732 0.640732
0.666616 0.666616 0.666616
0.694945 0.694945 0.694945
0.722844 0.722844 0.722844
0.745279 0.745279 0.745279
0.765768 0.765768 0.765768
0.796479 0.796479 0.796479
0.440756 0.440756 0.440756
0.440159 0.440159 0.440159
0.438121 0.438121 0.438121
0.434829 0.434829 0.434829
0.431060 0.431060 0.431060
0.428375 0.428375 0.428375
0.425471 0.425471 0.425471
0.421219 0.421219 0.421219
0.418914 0.418914 0.418914
0.417179 0.417179 0.417179
0.415289 0.415289 0.415289
0.415351 0.415351 0.415351
0.416935 0.416935 0.416935
0.420076 0.420076 0.420076
0.425135 0.425135 0.425135
0.431997 0.431997 0.431997
0.440916 0.440916 0.440916
0.452042 0.452042 0.452042
0.464845 0.464845 0.464845
0.480475 0.480475 0.480475
0.495441 0.495441 0.495441
0.516879 0.516879 0.516879
0.539229 0.539229 0.539229
0.564576 0.564576 0.564576
0.593549 0.593549 0.593549
0.623799 0.623799 0.623799
0.651051 0.651051 0.651051
0.676003 0.676003 0.676003
0.702938 0.702938 0.702938
0.728419 0.728419 0.728419
0.749323 0.749323 0.749323
0.769569 0.769569 0.769569
0.794123 0.794123 0.794123
0.473779 0.473779 0.473779
0.473230 0.473230 0.473230
0.471346 0.471346 0.471346
0.468251 0.468251 0.468251
0.464563 0.464563 0.464563
0.461529 0.461529 0.461529
0.460064 0.460064 0.460064
0.454978 0.454978 0.454978
0.453847 0.453847 0.453847
0.450010 0.450010 0.450010
0.449092 0.449092 0.449092
0.449406 0.449406 0.449406
0.450131 0.450131 0.450131
0.452412 0.452412 0.452412
0.456864 0.456864 0.456864
0.463177 0.463177 0.463177
0.470904 0.470904 0.470904
0.480857 0.480857 0.480857
0.493423 0.493423 0.493423
0.507322 0.507322 0.507322
0.523451 0.523451 0.523451
0.542393 0.542393 0.542393
0.564383 0.564383 0.564383
0.582433 0.582433 0.582433
0.608586 0.608586 0.608586
0.638667 0.638667 0.638667
0.663120 0.663120 0.663120
0.687048 0.687048 0.687048
0.712877 0.712877 0.712877
0.734528 0.734528 0.734528
0.754869 0.754869 0.754869
0.774003 0.774003 0.774003
0.795947 0.795947 0.795947
0.509272 0.509272 0.509272
0.508784 0.508784 0.508784
0.507102 0.507102 0.507102
0.504312 0.504312 0.504312
0.500907 0.500907 0.500907
0.497896 0.497896 0.497896
0.497074 0.497074 0.497074
0.492681 0.492681 0.492681
0.490192 0.490192 0.490192
0.487960 0.487960 0.487960
0.487275 0.487275 0.487275
0.486175 0.486175 0.486175
0.487205 0.487205 0.487205
0.489585 0.489585 0.489585
0.493270 0.493270 0.493270
0.499015 0.499015 0.499015
0.506235 0.506235 0.506235
0.515315 0.515315 0.515315
0.525842 0.525842 0.525842
0.538847 0.538847 0.538847
0.552951 0.552951 0.552951
0.569471 0.569471 0.569471
0.590290 0.590290 0.590290
0.608122 0.608122 0.608122
0.628410 0.628410 0.628410
0.652816 0.652816 0.652816
0.676803 0.676803 0.676803
0.700088 0.700088 0.700088
0.724703 0.724703 0.724703
0.742183 0.742183 0.742183
0.761425 0.761425 0.761425
0.779951 0.779951 0.779951
0.800176 0.800176 0.800176
0.544182 0.544182 0.544182
0.543770 0.543770 0.543770
0.542347 0.542347 0.542347
0.539963 0.539963 0.539963
0.536990 0.536990 0.536990
0.534196 0.534196 0.534196
0.532944 0.532944 0.532944
0.530575 0.530575 0.530575
0.527419 0.527419 0.527419
0.526846 0.526846 0.526846
0.524450 0.524450 0.524450
0.524463 0.524463 0.524463
0.525879 0.525879 0.525879
0.527048 0.527048 0.527048
0.529991 0.529991 0.529991
0.534755 0.534755 0.534755
0.541317 0.541317 0.541317
0.549458 0.549458 0.549458
0.559317 0.559317 0.559317
0.571017 0.571017 0.571017
0.584796 0.584796 0.584796
0.600100 0.600100 0.600100
0.617455 0.617455 0.617455
0.634889 0.634889 0.634889
0.652693 0.652693 0.652693
0.671344 0.671344 0.671344
0.691662 0.691662 0.691662
0.714498 0.714498 0.714498
0.734798 0.734798 0.734798
0.751260 0.751260 0.751260
0.769244 0.769244 0.769244
0.787115 0.787115 0.787115
0.805227 0.805227 0.805227
0.577320 0.577320 0.577320
0.576933 0.576933 0.576933
0.575587 0.575587 0.575587
0.573300 0.573300 0.573300
0.570361 0.570361 0.570361
0.567384 0.567384 0.567384
0.565463 0.565463 0.565463
0.564333 0.564333 0.564333
0.560442 0.560442 0.560442
0.559620 0.559620 0.559620
0.557352 0.557352 0.557352
0.557669 0.557669 0.557669
0.557226 0.557226 0.557226
0.559173 0.559173 0.559173
0.562457 0.562457 0.562457
0.566222 0.566222 0.566222
0.571950 0.571950 0.571950
0.579410 0.579410 0.579410
0.588705 0.588705 0.588705
0.599728 0.599728 0.599728
0.612701 0.612701 0.612701
0.627307 0.627307 0.627307
0.643668 0.643668 0.643668
0.659621 0.659621 0.659621
0.675732 0.675732 0.675732
0.693822 0.693822 0.693822
0.711975 0.711975 0.711975
0.728759 0.728759 0.728759
0.745730 0.745730 0.745730
0.761614 0.761614 0.761614
0.778471 0.778471 0.778471
0.795071 0.795071 0.795071
0.809946 0.809946 0.809946
0.607794 0.607794 0.607794
0.607455 0.607455 0.607455
0.606274 0.606274 0.606274
0.604256 0.604256 0.604256
0.601631 0.601631 0.601631
0.598893 0.598893 0.598893
0.596930 0.596930 0.596930
0.597299 0.597299 0.597299
0.593330 0.593330 0.593330
0.591619 0.591619 0.591619
0.591140 0.591140 0.591140
0.589943 0.589943 0.589943
0.590650 0.590650 0.590650
0.592535 0.592535 0.592535
0.594641 0.594641 0.594641
0.598743 0.598743 0.598743
0.604429 0.604429 0.604429
0.611526 0.611526 0.611526
0.620061 0.620061 0.620061
0.630430 0.630430 0.630430
0.642310 0.642310 0.642310
0.654171 0.654171 0.654171
0.667473 0.667473 0.667473
0.682744 0.682744 0.682744
0.699304 0.699304 0.699304
0.716579 0.716579 0.716579
0.732436 0.732436 0.732436
0.744317 0.744317 0.744317
0.757681 0.757681 0.757681
0.772915 0.772915 0.772915
0.788959 0.788959 0.788959
0.804438 0.804438 0.804438
0.815249 0.815249 0.815249
0.637439 0.637439 0.637439
0.637148 0.637148 0.637148
0.636135 0.636135 0.636135
0.634398 0.634398 0.634398
0.632120 0.632120 0.632120
0.629706 0.629706 0.629706
0.627884 0.627884 0.627884
0.627935 0.627935 0.627935
0.626016 0.626016 0.626016
0.623915 0.623915 0.623915
0.625218 0.625218 0.625218
0.623212 0.623212 0.623212
0.624994 0.624994 0.624994
0.625384 0.625384 0.625384
0.628553 0.628553 0.628553
0.632403 0.632403 0.632403
0.637310 0.637310 0.637310
0.643544 0.643544 0.643544
0.650494 0.650494 0.650494
0.658916 0.658916 0.658916
0.668736 0.668736 0.668736
0.680038 0.680038 0.680038
0.692693 0.692693 0.692693
0.706730 0.706730 0.706730
0.722683 0.722683 0.722683
0.735635 0.735635 0.735635
0.749567 0.749567 0.749567
0.761127 0.761127 0.761127
0.773947 0.773947 0.773947
0.785607 0.785607 0.785607
0.800323 0.800323 0.800323
0.811355 0.811355 0.811355
0.821572 0.821572 0.821572
0.670280 0.670280 0.670280
0.670032 0.670032 0.670032
0.669163 0.669163 0.669163
0.667646 0.667646 0.667646
0.665590 0.665590 0.665590
0.663259 0.663259 0.663259
0.661161 0.661161 0.661161
0.660234 0.660234 0.660234
0.659516 0.659516 0.659516
0.657017 0.657017 0.657017
0.656714 0.656714 0.656714
0.656330 0.656330 0.656330
0.656318 0.656318 0.656318
0.657511 0.657511 0.657511
0.659499 0.659499 0.659499
0.662181 0.662181 0.662181
0.666691 0.666691 0.666691
0.672019 0.672019 0.672019
0.678193 0.678193 0.678193
0.685977 0.685977 0.685977
0.695315 0.695315 0.695315
0.706185 0.706185 0.706185
0.718582 0.718582 0.718582
0.730427 0.730427 0.730427
0.741634 0.741634 0.741634
