LUTs/trix_modern/TriX_Orange21_ExtraSoft.cube
TITLE "Tri-X Orange21 ExtraSoft"
# Adobe RGB in/out. REPLACES AgX. Tri-X Orange21 ExtraSoft.
LUT_3D_SIZE 9
DOMAIN_MIN 0.0 0.0 0.0
DOMAIN_MAX 1.0 1.0 1.0
0.099726 0.099726 0.099726
0.118765 0.118765 0.118765
0.262273 0.262273 0.262273
0.406520 0.406520 0.406520
0.591357 0.591357 0.591357
0.769168 0.769168 0.769168
0.869185 0.869185 0.869185
0.935731 0.935731 0.935731
0.953713 0.953713 0.953713
0.101000 0.101000 0.101000
0.141005 0.141005 0.141005
0.290164 0.290164 0.290164
0.424254 0.424254 0.424254
0.583716 0.583716 0.583716
0.754539 0.754539 0.754539
0.862441 0.862441 0.862441
0.931670 0.931670 0.931670
0.950743 0.950743 0.950743
0.159277 0.159277 0.159277
0.220448 0.220448 0.220448
0.298800 0.298800 0.298800
0.424008 0.424008 0.424008
0.579316 0.579316 0.579316
0.724938 0.724938 0.724938
0.839395 0.839395 0.839395
0.919623 0.919623 0.919623
0.941072 0.941072 0.941072
0.236986 0.236986 0.236986
0.278505 0.278505 0.278505
0.363660 0.363660 0.363660
0.441074 0.441074 0.441074
0.566794 0.566794 0.566794
0.708295 0.708295 0.708295
0.814705 0.814705 0.814705
0.891661 0.891661 0.891661
0.926679 0.926679 0.926679
0.301996 0.301996 0.301996
0.331106 0.331106 0.331106
0.407529 0.407529 0.407529
0.501421 0.501421 0.501421
0.589424 0.589424 0.589424
0.702604 0.702604 0.702604
0.804389 0.804389 0.804389
0.876943 0.876943 0.876943
0.933093 0.933093 0.933093
0.360891 0.360891 0.360891
0.379190 0.379190 0.379190
0.455488 0.455488 0.455488
0.546189 0.546189 0.546189
0.636143 0.636143 0.636143
0.724428 0.724428 0.724428
0.804512 0.804512 0.804512
0.869986 0.869986 0.869986
0.924401 0.924401 0.924401
0.413957 0.413957 0.413957
0.430587 0.430587 0.430587
0.499925 0.499925 0.499925
0.584061 0.584061 0.584061
0.674795 0.674795 0.674795
0.752214 0.752214 0.752214
0.819842 0.819842 0.819842
0.871528 0.871528 0.871528
0.916723 0.916723 0.916723
0.497202 0.497202 0.497202
0.503032 0.503032 0.503032
0.552987 0.552987 0.552987
0.625682 0.625682 0.625682
0.703937 0.703937 0.703937
0.773985 0.773985 0.773985
0.832848 0.832848 0.832848
0.882774 0.882774 0.882774
0.915090 0.915090 0.915090
0.480891 0.480891 0.480891
0.479219 0.479219 0.479219
0.639574 0.639574 0.639574
0.627950 0.627950 0.627950
0.732904 0.732904 0.732904
0.790856 0.790856 0.790856
0.840776 0.840776 0.840776
0.888938 0.888938 0.888938
0.919634 0.919634 0.919634
0.099726 0.099726 0.099726
0.112358 0.112358 0.112358
0.220918 0.220918 0.220918
0.373173 0.373173 0.373173
0.570682 0.570682 0.570682
0.759303 0.759303 0.759303
0.864890 0.864890 0.864890
0.933556 0.933556 0.933556
0.952174 0.952174 0.952174
0.102757 0.102757 0.102757
0.127675 0.127675 0.127675
0.246063 0.246063 0.246063
0.381701 0.381701 0.381701
0.559479 0.559479 0.559479
0.744335 0.744335 0.744335
0.858166 0.858166 0.858166
0.929508 0.929508 0.929508
0.949215 0.949215 0.949215
0.178817 0.178817 0.178817
0.213645 0.213645 0.213645
0.276355 0.276355 0.276355
0.397029 0.397029 0.397029
0.548750 0.548750 0.548750
0.711509 0.711509 0.711509
0.833896 0.833896 0.833896
0.917529 0.917529 0.917529
0.939596 0.939596 0.939596
0.253332 0.253332 0.253332
0.283754 0.283754 0.283754
0.352482 0.352482 0.352482
0.422131 0.422131 0.422131
0.548383 0.548383 0.548383
0.692954 0.692954 0.692954
0.808852 0.808852 0.808852
0.888819 0.888819 0.888819
0.925309 0.925309 0.925309
0.312861 0.312861 0.312861
0.337613 0.337613 0.337613
0.404143 0.404143 0.404143
0.490917 0.490917 0.490917
0.577298 0.577298 0.577298
0.692102 0.692102 0.692102
0.798155 0.798155 0.798155
0.874498 0.874498 0.874498
0.931834 0.931834 0.931834
0.366466 0.366466 0.366466
0.383409 0.383409 0.383409
0.454459 0.454459 0.454459
0.540936 0.540936 0.540936
0.628698 0.628698 0.628698
0.717937 0.717937 0.717937
0.799948 0.799948 0.799948
0.867878 0.867878 0.867878
0.923223 0.923223 0.923223
0.417647 0.417647 0.417647
0.433783 0.433783 0.433783
0.500234 0.500234 0.500234
0.581618 0.581618 0.581618
0.670868 0.670868 0.670868
0.748914 0.748914 0.748914
0.817225 0.817225 0.817225
0.869814 0.869814 0.869814
0.915981 0.915981 0.915981
0.495930 0.495930 0.495930
0.502595 0.502595 0.502595
0.552952 0.552952 0.552952
0.624559 0.624559 0.624559
0.702369 0.702369 0.702369
0.772435 0.772435 0.772435
0.831851 0.831851 0.831851
0.881837 0.881837 0.881837
0.914734 0.914734 0.914734
0.480024 0.480024 0.480024
0.478374 0.478374 0.478374
0.638493 0.638493 0.638493
0.626961 0.626961 0.626961
0.732352 0.732352 0.732352
0.790490 0.790490 0.790490
0.840652 0.840652 0.840652
0.888917 0.888917 0.888917
0.919559 0.919559 0.919559
0.099883 0.099883 0.099883
0.156645 0.156645 0.156645
0.247890 0.247890 0.247890
0.383428 0.383428 0.383428
0.562558 0.562558 0.562558
0.749164 0.749164 0.749164
0.858542 0.858542 0.858542
0.930815 0.930815 0.930815
0.948985 0.948985 0.948985
0.113575 0.113575 0.113575
0.192239 0.192239 0.192239
0.272434 0.272434 0.272434
0.379498 0.379498 0.379498
0.546275 0.546275 0.546275
0.732324 0.732324 0.732324
0.850028 0.850028 0.850028
0.927104 0.927104 0.927104
0.946009 0.946009 0.946009
0.174600 0.174600 0.174600
0.200474 0.200474 0.200474
0.255950 0.255950 0.255950
0.370228 0.370228 0.370228
0.517599 0.517599 0.517599
0.692228 0.692228 0.692228
0.824188 0.824188 0.824188
0.916425 0.916425 0.916425
0.936350 0.936350 0.936350
0.259612 0.259612 0.259612
0.281291 0.281291 0.281291
0.333730 0.333730 0.333730
0.391924 0.391924 0.391924
0.514039 0.514039 0.514039
0.661511 0.661511 0.661511
0.796201 0.796201 0.796201
0.882296 0.882296 0.882296
0.921363 0.921363 0.921363
0.329928 0.329928 0.329928
0.347356 0.347356 0.347356
0.397985 0.397985 0.397985
0.469865 0.469865 0.469865
0.551587 0.551587 0.551587
0.665675 0.665675 0.665675
0.781853 0.781853 0.781853
0.867999 0.867999 0.867999
0.928539 0.928539 0.928539
0.385398 0.385398 0.385398
0.398757 0.398757 0.398757
0.456974 0.456974 0.456974
0.531917 0.531917 0.531917
0.612932 0.612932 0.612932
0.701646 0.701646 0.701646
0.787268 0.787268 0.787268
0.861420 0.861420 0.861420
0.919686 0.919686 0.919686
0.437746 0.437746 0.437746
0.451824 0.451824 0.451824
0.506917 0.506917 0.506917
0.578964 0.578964 0.578964
0.662693 0.662693 0.662693
0.740825 0.740825 0.740825
0.809682 0.809682 0.809682
0.864044 0.864044 0.864044
0.913796 0.913796 0.913796
0.501854 0.501854 0.501854
0.511295 0.511295 0.511295
0.558805 0.558805 0.558805
0.624891 0.624891 0.624891
0.699638 0.699638 0.699638
0.769059 0.769059 0.769059
0.829320 0.829320 0.829320
0.878475 0.878475 0.878475
0.913558 0.913558 0.913558
0.477257 0.477257 0.477257
0.642220 0.642220 0.642220
0.635059 0.635059 0.635059
0.623879 0.623879 0.623879
0.732017 0.732017 0.732017
0.789878 0.789878 0.789878
0.840762 0.840762 0.840762
0.888933 0.888933 0.888933
0.919195 0.919195 0.919195
0.101505 0.101505 0.101505
0.164222 0.164222 0.164222
0.289975 0.289975 0.289975
0.411704 0.411704 0.411704
0.586569 0.586569 0.586569
0.754926 0.754926 0.754926
0.857973 0.857973 0.857973
0.920672 0.920672 0.920672
0.946863 0.946863 0.946863
0.123058 0.123058 0.123058
0.197650 0.197650 0.197650
0.326080 0.326080 0.326080
0.419540 0.419540 0.419540
0.568088 0.568088 0.568088
0.737814 0.737814 0.737814
0.848795 0.848795 0.848795
0.914845 0.914845 0.914845
0.943810 0.943810 0.943810
0.192837 0.192837 0.192837
0.225455 0.225455 0.225455
0.307344 0.307344 0.307344
0.393672 0.393672 0.393672
0.527042 0.527042 0.527042
0.692847 0.692847 0.692847
0.821050 0.821050 0.821050
0.896679 0.896679 0.896679
0.933899 0.933899 0.933899
0.255167 0.255167 0.255167
0.274008 0.274008 0.274008
0.320822 0.320822 0.320822
0.375333 0.375333 0.375333
0.497000 0.497000 0.497000
0.647629 0.647629 0.647629
0.789550 0.789550 0.789550
0.877462 0.877462 0.877462
0.917529 0.917529 0.917529
0.330383 0.330383 0.330383
0.344921 0.344921 0.344921
0.388479 0.388479 0.388479
0.447972 0.447972 0.447972
0.522995 0.522995 0.522995
0.639774 0.639774 0.639774
0.767165 0.767165 0.767165
0.862131 0.862131 0.862131
0.925055 0.925055 0.925055
0.390077 0.390077 0.390077
0.401612 0.401612 0.401612
0.451960 0.451960 0.451960
0.519930 0.519930 0.519930
0.594037 0.594037 0.594037
0.681678 0.681678 0.681678
0.771254 0.771254 0.771254
0.854865 0.854865 0.854865
0.915249 0.915249 0.915249
0.447786 0.447786 0.447786
0.460315 0.460315 0.460315
0.508375 0.508375 0.508375
0.573856 0.573856 0.573856
0.652527 0.652527 0.652527
0.729793 0.729793 0.729793
0.799609 0.799609 0.799609
0.858377 0.858377 0.858377
0.910692 0.910692 0.910692
0.509289 0.509289 0.509289
0.518620 0.518620 0.518620
0.561709 0.561709 0.561709
0.623237 0.623237 0.623237
0.695756 0.695756 0.695756
0.764581 0.764581 0.764581
0.825163 0.825163 0.825163
0.874079 0.874079 0.874079
0.911838 0.911838 0.911838
0.546842 0.546842 0.546842
0.636647 0.636647 0.636647
0.629857 0.629857 0.629857
0.678449 0.678449 0.678449
0.732478 0.732478 0.732478
0.789243 0.789243 0.789243
0.841039 0.841039 0.841039
0.888421 0.888421 0.888421
0.918793 0.918793 0.918793
0.107850 0.107850 0.107850
0.156191 0.156191 0.156191
0.321538 0.321538 0.321538
0.441716 0.441716 0.441716
0.627977 0.627977 0.627977
0.774386 0.774386 0.774386
0.863847 0.863847 0.863847
0.918295 0.918295 0.918295
0.946868 0.946868 0.946868
0.134135 0.134135 0.134135
0.189616 0.189616 0.189616
0.343856 0.343856 0.343856
0.466782 0.466782 0.466782
0.609185 0.609185 0.609185
0.757698 0.757698 0.757698
0.856404 0.856404 0.856404
0.913022 0.913022 0.913022
0.943723 0.943723 0.943723
0.228405 0.228405 0.228405
0.263177 0.263177 0.263177
0.362400 0.362400 0.362400
0.453037 0.453037 0.453037
0.563580 0.563580 0.563580
0.711953 0.711953 0.711953
0.827465 0.827465 0.827465
0.897378 0.897378 0.897378
0.933471 0.933471 0.933471
0.264490 0.264490 0.264490
0.283797 0.283797 0.283797
0.343060 0.343060 0.343060
0.414064 0.414064 0.414064
0.521033 0.521033 0.521033
0.659869 0.659869 0.659869
0.792156 0.792156 0.792156
0.876961 0.876961 0.876961
0.931697 0.931697 0.931697
0.326162 0.326162 0.326162
0.340159 0.340159 0.340159
0.381559 0.381559 0.381559
0.435639 0.435639 0.435639
0.504596 0.504596 0.504596
0.629101 0.629101 0.629101
0.761892 0.761892 0.761892
0.859233 0.859233 0.859233
0.922330 0.922330 0.922330
0.388620 0.388620 0.388620
0.399177 0.399177 0.399177
0.444251 0.444251 0.444251
0.508270 0.508270 0.508270
0.576375 0.576375 0.576375
0.658437 0.658437 0.658437
0.758414 0.758414 0.758414
0.848567 0.848567 0.848567
0.911474 0.911474 0.911474
0.449475 0.449475 0.449475
0.461141 0.461141 0.461141
0.505438 0.505438 0.505438
0.566941 0.566941 0.566941
0.641734 0.641734 0.641734
0.717844 0.717844 0.717844
0.789121 0.789121 0.789121
0.852600 0.852600 0.852600
0.907468 0.907468 0.907468
0.512428 0.512428 0.512428
0.521316 0.521316 0.521316
0.561236 0.561236 0.561236
0.619746 0.619746 0.619746
0.690972 0.690972 0.690972
0.759231 0.759231 0.759231
0.820095 0.820095 0.820095
0.869655 0.869655 0.869655
0.910219 0.910219 0.910219
0.563756 0.563756 0.563756
0.575196 0.575196 0.575196
0.600462 0.600462 0.600462
0.673624 0.673624 0.673624
0.730898 0.730898 0.730898
0.788182 0.788182 0.788182
0.840491 0.840491 0.840491
0.887398 0.887398 0.887398
0.918524 0.918524 0.918524
0.124647 0.124647 0.124647
0.160878 0.160878 0.160878
0.342255 0.342255 0.342255
0.466127 0.466127 0.466127
0.652897 0.652897 0.652897
0.796825 0.796825 0.796825
0.874072 0.874072 0.874072
0.923486 0.923486 0.923486
0.948930 0.948930 0.948930
0.149732 0.149732 0.149732
0.185349 0.185349 0.185349
0.356402 0.356402 0.356402
0.484967 0.484967 0.484967
0.658795 0.658795 0.658795
0.784375 0.784375 0.784375
0.866824 0.866824 0.866824
0.918445 0.918445 0.918445
0.945720 0.945720 0.945720
0.245236 0.245236 0.245236
0.276936 0.276936 0.276936
0.403482 0.403482 0.403482
0.511142 0.511142 0.511142
0.614307 0.614307 0.614307
0.741332 0.741332 0.741332
0.841522 0.841522 0.841522
0.902919 0.902919 0.902919
0.935201 0.935201 0.935201
0.287268 0.287268 0.287268
0.306308 0.306308 0.306308
0.378095 0.378095 0.378095
0.469289 0.469289 0.469289
0.567431 0.567431 0.567431
0.689674 0.689674 0.689674
0.804261 0.804261 0.804261
0.881401 0.881401 0.881401
0.934118 0.934118 0.934118
0.330482 0.330482 0.330482
0.343231 0.343231 0.343231
0.389693 0.389693 0.389693
0.457344 0.457344 0.457344
0.541491 0.541491 0.541491
0.649791 0.649791 0.649791
0.770420 0.770420 0.770420
0.861276 0.861276 0.861276
0.922186 0.922186 0.922186
0.384874 0.384874 0.384874
0.395255 0.395255 0.395255
0.437846 0.437846 0.437846
0.501504 0.501504 0.501504
0.567237 0.567237 0.567237
0.640439 0.640439 0.640439
0.753545 0.753545 0.753545
0.846623 0.846623 0.846623
0.909822 0.909822 0.909822
0.446023 0.446023 0.446023
0.457204 0.457204 0.457204
0.499955 0.499955 0.499955
0.559501 0.559501 0.559501
0.631705 0.631705 0.631705
0.706448 0.706448 0.706448
0.777501 0.777501 0.777501
0.847549 0.847549 0.847549
0.904988 0.904988 0.904988
0.510866 0.510866 0.510866
0.519530 0.519530 0.519530
0.557964 0.557964 0.557964
0.614748 0.614748 0.614748
0.685662 0.685662 0.685662
0.753535 0.753535 0.753535
0.814712 0.814712 0.814712
0.865597 0.865597 0.865597
0.908543 0.908543 0.908543
0.565809 0.565809 0.565809
0.575514 0.575514 0.575514
0.595898 0.595898 0.595898
0.671695 0.671695 0.671695
0.728687 0.728687 0.728687
0.786606 0.786606 0.786606
0.839367 0.839367 0.839367
0.886398 0.886398 0.886398
0.918009 0.918009 0.918009
0.150996 0.150996 0.150996
0.176027 0.176027 0.176027
0.341864 0.341864 0.341864
0.483176 0.483176 0.483176
0.664497 0.664497 0.664497
0.818823 0.818823 0.818823
0.886620 0.886620 0.886620
0.929940 0.929940 0.929940
0.952344 0.952344 0.952344
0.168304 0.168304 0.168304
0.194431 0.194431 0.194431
0.354095 0.354095 0.354095
0.497860 0.497860 0.497860
0.674670 0.674670 0.674670
0.807240 0.807240 0.807240
0.879637 0.879637 0.879637
0.926248 0.926248 0.926248
0.949121 0.949121 0.949121
0.251651 0.251651 0.251651
0.277245 0.277245 0.277245
0.399504 0.399504 0.399504
0.550678 0.550678 0.550678
0.658452 0.658452 0.658452
0.772262 0.772262 0.772262
0.858496 0.858496 0.858496
0.911652 0.911652 0.911652
0.938471 0.938471 0.938471
0.313350 0.313350 0.313350
0.331812 0.331812 0.331812
0.405035 0.405035 0.405035
0.513150 0.513150 0.513150
0.611943 0.611943 0.611943
0.723146 0.723146 0.723146
0.821768 0.821768 0.821768
0.889638 0.889638 0.889638
0.937476 0.937476 0.937476
0.342782 0.342782 0.342782
0.355482 0.355482 0.355482
0.405700 0.405700 0.405700
0.492173 0.492173 0.492173
0.581717 0.581717 0.581717
0.685401 0.685401 0.685401
0.788594 0.788594 0.788594
0.867964 0.867964 0.867964
0.924985 0.924985 0.924985
0.385526 0.385526 0.385526
0.395312 0.395312 0.395312
0.438702 0.438702 0.438702
0.508256 0.508256 0.508256
0.582791 0.582791 0.582791
0.671117 0.671117 0.671117
0.765581 0.765581 0.765581
0.851457 0.851457 0.851457
0.911210 0.911210 0.911210
0.439926 0.439926 0.439926
0.451106 0.451106 0.451106
0.494067 0.494067 0.494067
0.553837 0.553837 0.553837
0.626100 0.626100 0.626100
0.700172 0.700172 0.700172
0.765056 0.765056 0.765056
0.845847 0.845847 0.845847
0.904450 0.904450 0.904450
0.505310 0.505310 0.505310
0.513915 0.513915 0.513915
0.552187 0.552187 0.552187
0.608476 0.608476 0.608476
0.680344 0.680344 0.680344
0.748237 0.748237 0.748237
0.809650 0.809650 0.809650
0.861819 0.861819 0.861819
0.907283 0.907283 0.907283
0.558077 0.558077 0.558077
0.578154 0.578154 0.578154
0.601532 0.601532 0.601532
0.668208 0.668208 0.668208
0.725719 0.725719 0.725719
0.784364 0.784364 0.784364
0.837575 0.837575 0.837575
0.885536 0.885536 0.885536
0.917650 0.917650 0.917650
0.179861 0.179861 0.179861
0.198874 0.198874 0.198874
0.350237 0.350237 0.350237
0.488548 0.488548 0.488548
0.672622 0.672622 0.672622
0.839869 0.839869 0.839869
0.899682 0.899682 0.899682
0.938041 0.938041 0.938041
0.957543 0.957543 0.957543
0.194021 0.194021 0.194021
0.213403 0.213403 0.213403
0.361932 0.361932 0.361932
0.500735 0.500735 0.500735
0.680761 0.680761 0.680761
0.828936 0.828936 0.828936
0.893062 0.893062 0.893062
0.934419 0.934419 0.934419
0.954935 0.954935 0.954935
0.270620 0.270620 0.270620
0.290797 0.290797 0.290797
0.411102 0.411102 0.411102
0.552593 0.552593 0.552593
0.689649 0.689649 0.689649
0.798422 0.798422 0.798422
0.873057 0.873057 0.873057
0.922810 0.922810 0.922810
0.949465 0.949465 0.949465
0.339525 0.339525 0.339525
0.354810 0.354810 0.354810
0.440672 0.440672 0.440672
0.543810 0.543810 0.543810
0.645507 0.645507 0.645507
0.753443 0.753443 0.753443
0.841732 0.841732 0.841732
0.900730 0.900730 0.900730
0.942734 0.942734 0.942734
0.360011 0.360011 0.360011
0.372037 0.372037 0.372037
0.433032 0.433032 0.433032
0.522190 0.522190 0.522190
0.614599 0.614599 0.614599
0.713824 0.713824 0.713824
0.807409 0.807409 0.807409
0.878166 0.878166 0.878166
0.929628 0.929628 0.929628
0.389974 0.389974 0.389974
0.399587 0.399587 0.399587
0.450801 0.450801 0.450801
0.523760 0.523760 0.523760
0.607043 0.607043 0.607043
0.696505 0.696505 0.696505
0.785311 0.785311 0.785311
0.860999 0.860999 0.860999
0.916201 0.916201 0.916201
0.434971 0.434971 0.434971
0.445623 0.445623 0.445623
0.492217 0.492217 0.492217
0.553181 0.553181 0.553181
0.629331 0.629331 0.629331
0.707476 0.707476 0.707476
0.781018 0.781018 0.781018
0.852303 0.852303 0.852303
0.907223 0.907223 0.907223
0.496597 0.496597 0.496597
0.505135 0.505135 0.505135
0.544768 0.544768 0.544768
0.601829 0.601829 0.601829
0.675292 0.675292 0.675292
0.744861 0.744861 0.744861
0.806440 0.806440 0.806440
0.856334 0.856334 0.856334
0.907383 0.907383 0.907383
0.540328 0.540328 0.540328
0.598377 0.598377 0.598377
0.602788 0.602788 0.602788
0.664050 0.664050 0.664050
0.722301 0.722301 0.722301
0.781103 0.781103 0.781103
0.835177 0.835177 0.835177
0.884828 0.884828 0.884828
0.917557 0.917557 0.917557
0.228286 0.228286 0.228286
0.239016 0.239016 0.239016
0.295992 0.295992 0.295992
0.439995 0.439995 0.439995
0.686247 0.686247 0.686247
0.865954 0.865954 0.865954
0.915499 0.915499 0.915499
0.945408 0.945408 0.945408
0.958749 0.958749 0.958749
0.240221 0.240221 0.240221
0.251043 0.251043 0.251043
0.308081 0.308081 0.308081
0.450246 0.450246 0.450246
0.690057 0.690057 0.690057
0.858451 0.858451 0.858451
0.909048 0.909048 0.909048
0.941601 0.941601 0.941601
0.956562 0.956562 0.956562
0.296031 0.296031 0.296031
0.307439 0.307439 0.307439
0.363233 0.363233 0.363233
0.498788 0.498788 0.498788
0.702636 0.702636 0.702636
0.826843 0.826843 0.826843
0.889388 0.889388 0.889388
0.930077 0.930077 0.930077
0.946235 0.946235 0.946235
0.377884 0.377884 0.377884
0.386333 0.386333 0.386333
0.430658 0.430658 0.430658
0.527710 0.527710 0.527710
0.658262 0.658262 0.658262
0.785362 0.785362 0.785362
0.862237 0.862237 0.862237
0.911104 0.911104 0.911104
0.950211 0.950211 0.950211
0.390084 0.390084 0.390084
0.398318 0.398318 0.398318
0.442229 0.442229 0.442229
0.521745 0.521745 0.521745
0.620560 0.620560 0.620560
0.738023 0.738023 0.738023
0.827709 0.827709 0.827709
0.888803 0.888803 0.888803
0.939492 0.939492 0.939492
0.404639 0.404639 0.404639
0.412593 0.412593 0.412593
0.458078 0.458078 0.458078
0.528517 0.528517 0.528517
0.606756 0.606756 0.606756
0.706924 0.706924 0.706924
0.800238 0.800238 0.800238
0.870138 0.870138 0.870138
0.927863 0.927863 0.927863
0.434759 0.434759 0.434759
0.444309 0.444309 0.444309
0.487154 0.487154 0.487154
0.553227 0.553227 0.553227
0.624961 0.624961 0.624961
0.702955 0.702955 0.702955
0.787430 0.787430 0.787430
0.859271 0.859271 0.859271
0.918316 0.918316 0.918316
0.482690 0.482690 0.482690
0.490757 0.490757 0.490757
0.526912 0.526912 0.526912
0.590991 0.590991 0.590991
0.667929 0.667929 0.667929
0.734765 0.734765 0.734765
0.796338 0.796338 0.796338
0.858881 0.858881 0.858881
0.914382 0.914382 0.914382
0.514913 0.514913 0.514913
0.601662 0.601662 0.601662
0.597862 0.597862 0.597862
0.609223 0.609223 0.609223
0.717938 0.717938 0.717938
0.777171 0.777171 0.777171
0.832492 0.832492 0.832492
0.882359 0.882359 0.882359
0.917860 0.917860 0.917860
