LUTs/trix_modern/TriX_Yellow8_ExtraSoft.cube
TITLE "Tri-X Yellow8 ExtraSoft"
# Adobe RGB in/out. REPLACES AgX. Tri-X Yellow8 ExtraSoft.
LUT_3D_SIZE 33
DOMAIN_MIN 0.0 0.0 0.0
DOMAIN_MAX 1.0 1.0 1.0
0.099726 0.099726 0.099726
0.099726 0.099726 0.099726
0.099726 0.099726 0.099726
0.100427 0.100427 0.100427
0.107164 0.107164 0.107164
0.118459 0.118459 0.118459
0.157292 0.157292 0.157292
0.198574 0.198574 0.198574
0.217313 0.217313 0.217313
0.244913 0.244913 0.244913
0.286775 0.286775 0.286775
0.314505 0.314505 0.314505
0.339108 0.339108 0.339108
0.369049 0.369049 0.369049
0.406246 0.406246 0.406246
0.438310 0.438310 0.438310
0.472624 0.472624 0.472624
0.510226 0.510226 0.510226
0.549884 0.549884 0.549884
0.584145 0.584145 0.584145
0.619204 0.619204 0.619204
0.652771 0.652771 0.652771
0.685538 0.685538 0.685538
0.713810 0.713810 0.713810
0.735888 0.735888 0.735888
0.755329 0.755329 0.755329
0.780796 0.780796 0.780796
0.791344 0.791344 0.791344
0.820658 0.820658 0.820658
0.814782 0.814782 0.814782
0.808971 0.808971 0.808971
0.803211 0.803211 0.803211
0.851099 0.851099 0.851099
0.099726 0.099726 0.099726
0.099726 0.099726 0.099726
0.099726 0.099726 0.099726
0.100876 0.100876 0.100876
0.110406 0.110406 0.110406
0.122577 0.122577 0.122577
0.160597 0.160597 0.160597
0.201072 0.201072 0.201072
0.219244 0.219244 0.219244
0.246405 0.246405 0.246405
0.287872 0.287872 0.287872
0.315298 0.315298 0.315298
0.339577 0.339577 0.339577
0.369267 0.369267 0.369267
0.406249 0.406249 0.406249
0.438102 0.438102 0.438102
0.472251 0.472251 0.472251
0.509772 0.509772 0.509772
0.549378 0.549378 0.549378
0.583528 0.583528 0.583528
0.618565 0.618565 0.618565
0.652160 0.652160 0.652160
0.685045 0.685045 0.685045
0.713334 0.713334 0.713334
0.735460 0.735460 0.735460
0.754964 0.754964 0.754964
0.780425 0.780425 0.780425
0.791091 0.791091 0.791091
0.820341 0.820341 0.820341
0.814493 0.814493 0.814493
0.808708 0.808708 0.808708
0.802970 0.802970 0.802970
0.850865 0.850865 0.850865
0.099726 0.099726 0.099726
0.099726 0.099726 0.099726
0.099726 0.099726 0.099726
0.101163 0.101163 0.101163
0.114878 0.114878 0.114878
0.136261 0.136261 0.136261
0.172818 0.172818 0.172818
0.213444 0.213444 0.213444
0.228172 0.228172 0.228172
0.253059 0.253059 0.253059
0.292728 0.292728 0.292728
0.318821 0.318821 0.318821
0.341716 0.341716 0.341716
0.370384 0.370384 0.370384
0.406520 0.406520 0.406520
0.437611 0.437611 0.437611
0.471113 0.471113 0.471113
0.508291 0.508291 0.508291
0.547674 0.547674 0.547674
0.581406 0.581406 0.581406
0.616343 0.616343 0.616343
0.650022 0.650022 0.650022
0.683318 0.683318 0.683318
0.711655 0.711655 0.711655
0.733950 0.733950 0.733950
0.753678 0.753678 0.753678
0.779114 0.779114 0.779114
0.790198 0.790198 0.790198
0.819207 0.819207 0.819207
0.813462 0.813462 0.813462
0.807767 0.807767 0.807767
0.802111 0.802111 0.802111
0.850027 0.850027 0.850027
0.101394 0.101394 0.101394
0.101404 0.101404 0.101404
0.101482 0.101482 0.101482
0.102088 0.102088 0.102088
0.114015 0.114015 0.114015
0.135142 0.135142 0.135142
0.177640 0.177640 0.177640
0.221413 0.221413 0.221413
0.239333 0.239333 0.239333
0.264463 0.264463 0.264463
0.304522 0.304522 0.304522
0.328265 0.328265 0.328265
0.347614 0.347614 0.347614
0.373866 0.373866 0.373866
0.408124 0.408124 0.408124
0.437798 0.437798 0.437798
0.469870 0.469870 0.469870
0.506185 0.506185 0.506185
0.545023 0.545023 0.545023
0.578085 0.578085 0.578085
0.612561 0.612561 0.612561
0.646336 0.646336 0.646336
0.680306 0.680306 0.680306
0.708702 0.708702 0.708702
0.731290 0.731290 0.731290
0.751411 0.751411 0.751411
0.776791 0.776791 0.776791
0.788615 0.788615 0.788615
0.817153 0.817153 0.817153
0.811590 0.811590 0.811590
0.806059 0.806059 0.806059
0.800551 0.800551 0.800551
0.848500 0.848500 0.848500
0.121541 0.121541 0.121541
0.121314 0.121314 0.121314
0.122097 0.122097 0.122097
0.124372 0.124372 0.124372
0.130300 0.130300 0.130300
0.137227 0.137227 0.137227
0.177135 0.177135 0.177135
0.222455 0.222455 0.222455
0.243780 0.243780 0.243780
0.271496 0.271496 0.271496
0.313015 0.313015 0.313015
0.335690 0.335690 0.335690
0.354919 0.354919 0.354919
0.380665 0.380665 0.380665
0.413416 0.413416 0.413416
0.440910 0.440910 0.440910
0.470204 0.470204 0.470204
0.504618 0.504618 0.504618
0.542289 0.542289 0.542289
0.574074 0.574074 0.574074
0.607675 0.607675 0.607675
0.641435 0.641435 0.641435
0.675761 0.675761 0.675761
0.704616 0.704616 0.704616
0.727600 0.727600 0.727600
0.748264 0.748264 0.748264
0.773533 0.773533 0.773533
0.786401 0.786401 0.786401
0.814153 0.814153 0.814153
0.808850 0.808850 0.808850
0.803555 0.803555 0.803555
0.798276 0.798276 0.798276
0.846256 0.846256 0.846256
0.157696 0.157696 0.157696
0.156785 0.156785 0.156785
0.156412 0.156412 0.156412
0.155498 0.155498 0.155498
0.154070 0.154070 0.154070
0.158025 0.158025 0.158025
0.181957 0.181957 0.181957
0.223939 0.223939 0.223939
0.244306 0.244306 0.244306
0.273920 0.273920 0.273920
0.315987 0.315987 0.315987
0.341272 0.341272 0.341272
0.361299 0.361299 0.361299
0.385472 0.385472 0.385472
0.416868 0.416868 0.416868
0.443963 0.443963 0.443963
0.472341 0.472341 0.472341
0.505620 0.505620 0.505620
0.541182 0.541182 0.541182
0.570596 0.570596 0.570596
0.602647 0.602647 0.602647
0.636044 0.636044 0.636044
0.670195 0.670195 0.670195
0.699745 0.699745 0.699745
0.723182 0.723182 0.723182
0.744492 0.744492 0.744492
0.769562 0.769562 0.769562
0.783447 0.783447 0.783447
0.810235 0.810235 0.810235
0.805261 0.805261 0.805261
0.800269 0.800269 0.800269
0.848666 0.848666 0.848666
0.843300 0.843300 0.843300
0.208844 0.208844 0.208844
0.209319 0.209319 0.209319
0.207968 0.207968 0.207968
0.203589 0.203589 0.203589
0.199230 0.199230 0.199230
0.199067 0.199067 0.199067
0.204457 0.204457 0.204457
0.230612 0.230612 0.230612
0.247265 0.247265 0.247265
0.274997 0.274997 0.274997
0.317500 0.317500 0.317500
0.344222 0.344222 0.344222
0.364358 0.364358 0.364358
0.389037 0.389037 0.389037
0.422215 0.422215 0.422215
0.449300 0.449300 0.449300
0.473718 0.473718 0.473718
0.504208 0.504208 0.504208
0.539262 0.539262 0.539262
0.567610 0.567610 0.567610
0.598615 0.598615 0.598615
0.631467 0.631467 0.631467
0.664888 0.664888 0.664888
0.694699 0.694699 0.694699
0.718556 0.718556 0.718556
0.740426 0.740426 0.740426
0.765277 0.765277 0.765277
0.779883 0.779883 0.779883
0.805475 0.805475 0.805475
0.800877 0.800877 0.800877
0.796243 0.796243 0.796243
0.844742 0.844742 0.844742
0.839662 0.839662 0.839662
0.260196 0.260196 0.260196
0.260556 0.260556 0.260556
0.261683 0.261683 0.261683
0.254992 0.254992 0.254992
0.249339 0.249339 0.249339
0.247169 0.247169 0.247169
0.248854 0.248854 0.248854
0.255367 0.255367 0.255367
0.255982 0.255982 0.255982
0.278809 0.278809 0.278809
0.319599 0.319599 0.319599
0.345112 0.345112 0.345112
0.365759 0.365759 0.365759
0.391436 0.391436 0.391436
0.425917 0.425917 0.425917
0.451466 0.451466 0.451466
0.476050 0.476050 0.476050
0.506070 0.506070 0.506070
0.539330 0.539330 0.539330
0.564799 0.564799 0.564799
0.593691 0.593691 0.593691
0.625970 0.625970 0.625970
0.659427 0.659427 0.659427
0.689864 0.689864 0.689864
0.714578 0.714578 0.714578
0.736836 0.736836 0.736836
0.761350 0.761350 0.761350
0.776922 0.776922 0.776922
0.800033 0.800033 0.800033
0.795783 0.795783 0.795783
0.791548 0.791548 0.791548
0.840121 0.840121 0.840121
0.835395 0.835395 0.835395
0.285043 0.285043 0.285043
0.285284 0.285284 0.285284
0.283633 0.283633 0.283633
0.278457 0.278457 0.278457
0.273219 0.273219 0.273219
0.269570 0.269570 0.269570
0.269357 0.269357 0.269357
0.272228 0.272228 0.272228
0.279017 0.279017 0.279017
0.289584 0.289584 0.289584
0.324727 0.324727 0.324727
0.347859 0.347859 0.347859
0.367713 0.367713 0.367713
0.392896 0.392896 0.392896
0.428099 0.428099 0.428099
0.453931 0.453931 0.453931
0.478784 0.478784 0.478784
0.507535 0.507535 0.507535
0.539520 0.539520 0.539520
0.564064 0.564064 0.564064
0.591896 0.591896 0.591896
0.622153 0.622153 0.622153
0.654247 0.654247 0.654247
0.684523 0.684523 0.684523
0.709151 0.709151 0.709151
0.732414 0.732414 0.732414
0.757584 0.757584 0.757584
0.775436 0.775436 0.775436
0.796965 0.796965 0.796965
0.790178 0.790178 0.790178
0.786290 0.786290 0.786290
0.834909 0.834909 0.834909
0.830570 0.830570 0.830570
0.320189 0.320189 0.320189
0.319118 0.319118 0.319118
0.314931 0.314931 0.314931
0.310598 0.310598 0.310598
0.305471 0.305471 0.305471
0.301656 0.301656 0.301656
0.299657 0.299657 0.299657
0.300443 0.300443 0.300443
0.304401 0.304401 0.304401
0.311611 0.311611 0.311611
0.337382 0.337382 0.337382
0.353231 0.353231 0.353231
0.370912 0.370912 0.370912
0.394878 0.394878 0.394878
0.430438 0.430438 0.430438
0.456269 0.456269 0.456269
0.481018 0.481018 0.481018
0.509167 0.509167 0.509167
0.541547 0.541547 0.541547
0.564646 0.564646 0.564646
0.589661 0.589661 0.589661
0.619556 0.619556 0.619556
0.651173 0.651173 0.651173
0.680727 0.680727 0.680727
0.704792 0.704792 0.704792
0.727996 0.727996 0.727996
0.753058 0.753058 0.753058
0.771205 0.771205 0.771205
0.790515 0.790515 0.790515
0.802992 0.802992 0.802992
0.815915 0.815915 0.815915
0.829203 0.829203 0.829203
0.825269 0.825269 0.825269
0.365474 0.365474 0.365474
0.364192 0.364192 0.364192
0.360506 0.360506 0.360506
0.357402 0.357402 0.357402
0.352633 0.352633 0.352633
0.347932 0.347932 0.347932
0.345272 0.345272 0.345272
0.344548 0.344548 0.344548
0.346452 0.346452 0.346452
0.351116 0.351116 0.351116
0.358595 0.358595 0.358595
0.366699 0.366699 0.366699
0.376421 0.376421 0.376421
0.398623 0.398623 0.398623
0.434035 0.434035 0.434035
0.459016 0.459016 0.459016
0.483303 0.483303 0.483303
0.511362 0.511362 0.511362
0.544160 0.544160 0.544160
0.565609 0.565609 0.565609
0.590195 0.590195 0.590195
0.619091 0.619091 0.619091
0.648489 0.648489 0.648489
0.677113 0.677113 0.677113
0.701491 0.701491 0.701491
0.725220 0.725220 0.725220
0.749725 0.749725 0.749725
0.768085 0.768085 0.768085
0.787687 0.787687 0.787687
0.800121 0.800121 0.800121
0.810929 0.810929 0.810929
0.823108 0.823108 0.823108
0.819587 0.819587 0.819587
0.391023 0.391023 0.391023
0.389959 0.389959 0.389959
0.386768 0.386768 0.386768
0.383680 0.383680 0.383680
0.379117 0.379117 0.379117
0.375217 0.375217 0.375217
0.372642 0.372642 0.372642
0.370778 0.370778 0.370778
0.371170 0.371170 0.371170
0.373875 0.373875 0.373875
0.378880 0.378880 0.378880
0.386318 0.386318 0.386318
0.390295 0.390295 0.390295
0.404526 0.404526 0.404526
0.439593 0.439593 0.439593
0.462932 0.462932 0.462932
0.486816 0.486816 0.486816
0.514481 0.514481 0.514481
0.546890 0.546890 0.546890
0.567875 0.567875 0.567875
0.592439 0.592439 0.592439
0.619367 0.619367 0.619367
0.648207 0.648207 0.648207
0.675515 0.675515 0.675515
0.698857 0.698857 0.698857
0.721942 0.721942 0.721942
0.746729 0.746729 0.746729
0.766219 0.766219 0.766219
0.786291 0.786291 0.786291
0.798754 0.798754 0.798754
0.807804 0.807804 0.807804
0.816734 0.816734 0.816734
0.813620 0.813620 0.813620
0.411559 0.411559 0.411559
0.410651 0.410651 0.410651
0.407833 0.407833 0.407833
0.404569 0.404569 0.404569
0.401045 0.401045 0.401045
0.397507 0.397507 0.397507
0.394146 0.394146 0.394146
0.392022 0.392022 0.392022
0.391648 0.391648 0.391648
0.392918 0.392918 0.392918
0.396240 0.396240 0.396240
0.401400 0.401400 0.401400
0.409008 0.409008 0.409008
0.421193 0.421193 0.421193
0.447772 0.447772 0.447772
0.469630 0.469630 0.469630
0.492089 0.492089 0.492089
0.518764 0.518764 0.518764
0.550626 0.550626 0.550626
0.571199 0.571199 0.571199
0.594931 0.594931 0.594931
0.621714 0.621714 0.621714
0.649913 0.649913 0.649913
0.674754 0.674754 0.674754
0.697831 0.697831 0.697831
0.720810 0.720810 0.720810
0.744403 0.744403 0.744403
0.763557 0.763557 0.763557
0.784298 0.784298 0.784298
0.798257 0.798257 0.798257
0.812408 0.812408 0.812408
0.810203 0.810203 0.810203
0.807475 0.807475 0.807475
0.444242 0.444242 0.444242
0.443232 0.443232 0.443232
0.440020 0.440020 0.440020
0.435887 0.435887 0.435887
0.432774 0.432774 0.432774
0.427813 0.427813 0.427813
0.423433 0.423433 0.423433
0.420628 0.420628 0.420628
0.419286 0.419286 0.419286
0.419479 0.419479 0.419479
0.422055 0.422055 0.422055
0.427182 0.427182 0.427182
0.434446 0.434446 0.434446
0.444471 0.444471 0.444471
0.468768 0.468768 0.468768
0.479741 0.479741 0.479741
0.498744 0.498744 0.498744
0.523880 0.523880 0.523880
0.555135 0.555135 0.555135
0.575634 0.575634 0.575634
0.599060 0.599060 0.599060
0.625515 0.625515 0.625515
0.652365 0.652365 0.652365
0.676395 0.676395 0.676395
0.698283 0.698283 0.698283
0.720040 0.720040 0.720040
0.743263 0.743263 0.743263
0.762723 0.762723 0.762723
0.782858 0.782858 0.782858
0.796896 0.796896 0.796896
0.810495 0.810495 0.810495
0.821857 0.821857 0.821857
0.832158 0.832158 0.832158
0.486967 0.486967 0.486967
0.486082 0.486082 0.486082
0.483215 0.483215 0.483215
0.479270 0.479270 0.479270
0.476934 0.476934 0.476934
0.471594 0.471594 0.471594
0.467938 0.467938 0.467938
0.464671 0.464671 0.464671
0.462715 0.462715 0.462715
0.462387 0.462387 0.462387
0.464125 0.464125 0.464125
0.467635 0.467635 0.467635
0.473463 0.473463 0.473463
0.481508 0.481508 0.481508
0.491915 0.491915 0.491915
0.500075 0.500075 0.500075
0.509884 0.509884 0.509884
0.531304 0.531304 0.531304
0.561383 0.561383 0.561383
0.581044 0.581044 0.581044
0.604453 0.604453 0.604453
0.630643 0.630643 0.630643
0.656687 0.656687 0.656687
0.679715 0.679715 0.679715
0.699883 0.699883 0.699883
0.721252 0.721252 0.721252
0.743280 0.743280 0.743280
0.761971 0.761971 0.761971
0.782300 0.782300 0.782300
0.797154 0.797154 0.797154
0.810379 0.810379 0.810379
0.820807 0.820807 0.820807
0.827306 0.827306 0.827306
0.512463 0.512463 0.512463
0.511737 0.511737 0.511737
0.509348 0.509348 0.509348
0.505876 0.505876 0.505876
0.503120 0.503120 0.503120
0.499411 0.499411 0.499411
0.496957 0.496957 0.496957
0.492940 0.492940 0.492940
0.490580 0.490580 0.490580
0.490020 0.490020 0.490020
0.490524 0.490524 0.490524
0.492796 0.492796 0.492796
0.497124 0.497124 0.497124
0.503203 0.503203 0.503203
0.511158 0.511158 0.511158
0.521036 0.521036 0.521036
0.529057 0.529057 0.529057
0.543762 0.543762 0.543762
0.569317 0.569317 0.569317
0.588714 0.588714 0.588714
0.611011 0.611011 0.611011
0.636770 0.636770 0.636770
0.662461 0.662461 0.662461
0.683674 0.683674 0.683674
0.703235 0.703235 0.703235
0.723767 0.723767 0.723767
0.744357 0.744357 0.744357
0.762935 0.762935 0.762935
0.782573 0.782573 0.782573
0.796830 0.796830 0.796830
0.810749 0.810749 0.810749
0.822647 0.822647 0.822647
0.826716 0.826716 0.826716
0.536498 0.536498 0.536498
0.535858 0.535858 0.535858
0.533725 0.533725 0.533725
0.530495 0.530495 0.530495
0.527483 0.527483 0.527483
0.524973 0.524973 0.524973
0.521066 0.521066 0.521066
0.518024 0.518024 0.518024
0.515931 0.515931 0.515931
0.514721 0.514721 0.514721
0.514736 0.514736 0.514736
0.516150 0.516150 0.516150
0.519454 0.519454 0.519454
0.524170 0.524170 0.524170
0.530815 0.530815 0.530815
0.539278 0.539278 0.539278
0.549429 0.549429 0.549429
0.562701 0.562701 0.562701
0.583080 0.583080 0.583080
0.597316 0.597316 0.597316
0.619006 0.619006 0.619006
0.643923 0.643923 0.643923
0.669344 0.669344 0.669344
0.688911 0.688911 0.688911
0.708042 0.708042 0.708042
0.727568 0.727568 0.727568
0.746991 0.746991 0.746991
0.764584 0.764584 0.764584
0.783781 0.783781 0.783781
0.797932 0.797932 0.797932
0.811395 0.811395 0.811395
0.822642 0.822642 0.822642
0.833145 0.833145 0.833145
0.564315 0.564315 0.564315
0.563754 0.563754 0.563754
0.561863 0.561863 0.561863
0.558916 0.558916 0.558916
0.555890 0.555890 0.555890
0.554554 0.554554 0.554554
0.549955 0.549955 0.549955
0.547912 0.547912 0.547912
0.545437 0.545437 0.545437
0.543635 0.543635 0.543635
0.543340 0.543340 0.543340
0.544310 0.544310 0.544310
0.546946 0.546946 0.546946
0.550484 0.550484 0.550484
0.556141 0.556141 0.556141
0.563221 0.563221 0.563221
0.572049 0.572049 0.572049
0.582677 0.582677 0.582677
0.602838 0.602838 0.602838
0.613387 0.613387 0.613387
0.628223 0.628223 0.628223
0.652491 0.652491 0.652491
0.677310 0.677310 0.677310
0.695122 0.695122 0.695122
0.714008 0.714008 0.714008
0.732825 0.732825 0.732825
0.750931 0.750931 0.750931
0.767677 0.767677 0.767677
0.785957 0.785957 0.785957
0.799263 0.799263 0.799263
0.812851 0.812851 0.812851
0.824739 0.824739 0.824739
0.834309 0.834309 0.834309
0.596803 0.596803 0.596803
0.596288 0.596288 0.596288
0.594544 0.594544 0.594544
0.591773 0.591773 0.591773
0.588758 0.588758 0.588758
0.587098 0.587098 0.587098
0.583558 0.583558 0.583558
0.581264 0.581264 0.581264
0.578695 0.578695 0.578695
0.577624 0.577624 0.577624
0.577146 0.577146 0.577146
0.577810 0.577810 0.577810
0.579391 0.579391 0.579391
0.582505 0.582505 0.582505
0.587262 0.587262 0.587262
0.594156 0.594156 0.594156
0.602167 0.602167 0.602167
0.611784 0.611784 0.611784
0.623359 0.623359 0.623359
0.632858 0.632858 0.632858
0.645562 0.645562 0.645562
0.662336 0.662336 0.662336
0.685264 0.685264 0.685264
0.702443 0.702443 0.702443
0.720621 0.720621 0.720621
0.739171 0.739171 0.739171
0.755987 0.755987 0.755987
0.772163 0.772163 0.772163
0.788575 0.788575 0.788575
0.801640 0.801640 0.801640
0.815042 0.815042 0.815042
0.826265 0.826265 0.826265
0.836916 0.836916 0.836916
0.621073 0.621073 0.621073
0.620606 0.620606 0.620606
0.619013 0.619013 0.619013
0.616425 0.616425 0.616425
0.613435 0.613435 0.613435
0.611259 0.611259 0.611259
0.608917 0.608917 0.608917
0.605530 0.605530 0.605530
0.603697 0.603697 0.603697
0.602352 0.602352 0.602352
0.600941 0.600941 0.600941
0.601103 0.601103 0.601103
0.602508 0.602508 0.602508
0.605190 0.605190 0.605190
0.609407 0.609407 0.609407
0.615071 0.615071 0.615071
0.622253 0.622253 0.622253
0.631108 0.631108 0.631108
0.641182 0.641182 0.641182
0.653204 0.653204 0.653204
0.664669 0.664669 0.664669
0.680241 0.680241 0.680241
0.694593 0.694593 0.694593
0.710709 0.710709 0.710709
0.728475 0.728475 0.728475
0.746160 0.746160 0.746160
0.762169 0.762169 0.762169
0.777710 0.777710 0.777710
0.792221 0.792221 0.792221
0.804735 0.804735 0.804735
0.817674 0.817674 0.817674
0.829193 0.829193 0.829193
0.839381 0.839381 0.839381
0.645884 0.645884 0.645884
0.645470 0.645470 0.645470
0.644045 0.644045 0.644045
0.641693 0.641693 0.641693
0.638865 0.638865 0.638865
0.636496 0.636496 0.636496
0.635298 0.635298 0.635298
0.631394 0.631394 0.631394
0.630496 0.630496 0.630496
0.627582 0.627582 0.627582
0.626936 0.626936 0.626936
0.627277 0.627277 0.627277
0.627941 0.627941 0.627941
0.629867 0.629867 0.629867
0.633445 0.633445 0.633445
0.638471 0.638471 0.638471
0.644557 0.644557 0.644557
0.652259 0.652259 0.652259
0.661847 0.661847 0.661847
0.672331 0.672331 0.672331
0.683762 0.683762 0.683762
0.695925 0.695925 0.695925
0.709731 0.709731 0.709731
0.721192 0.721192 0.721192
0.737056 0.737056 0.737056
0.753985 0.753985 0.753985
0.769447 0.769447 0.769447
0.784267 0.784267 0.784267
0.796758 0.796758 0.796758
0.808528 0.808528 0.808528
0.821165 0.821165 0.821165
0.832293 0.832293 0.832293
0.842569 0.842569 0.842569
0.671517 0.671517 0.671517
0.671160 0.671160 0.671160
0.669928 0.669928 0.669928
0.667876 0.667876 0.667876
0.665350 0.665350 0.665350
0.663075 0.663075 0.663075
0.662366 0.662366 0.662366
0.659097 0.659097 0.659097
0.657220 0.657220 0.657220
0.655572 0.655572 0.655572
0.655111 0.655111 0.655111
0.654352 0.654352 0.654352
0.655203 0.655203 0.655203
0.657101 0.657101 0.657101
0.660009 0.660009 0.660009
0.664386 0.664386 0.664386
0.669878 0.669878 0.669878
0.676757 0.676757 0.676757
0.684067 0.684067 0.684067
0.692589 0.692589 0.692589
0.701712 0.701712 0.701712
0.712230 0.712230 0.712230
0.725047 0.725047 0.725047
0.736172 0.736172 0.736172
0.748004 0.748004 0.748004
0.762384 0.762384 0.762384
0.777671 0.777671 0.777671
0.790455 0.790455 0.790455
0.802155 0.802155 0.802155
0.813270 0.813270 0.813270
0.825251 0.825251 0.825251
0.836190 0.836190 0.836190
0.846381 0.846381 0.846381
0.694389 0.694389 0.694389
0.694128 0.694128 0.694128
0.693222 0.693222 0.693222
0.691697 0.691697 0.691697
0.689779 0.689779 0.689779
0.687943 0.687943 0.687943
0.687051 0.687051 0.687051
0.685475 0.685475 0.685475
0.683419 0.683419 0.683419
0.683016 0.683016 0.683016
0.681511 0.681511 0.681511
0.681555 0.681555 0.681555
0.682502 0.682502 0.682502
0.683338 0.683338 0.683338
0.685356 0.685356 0.685356
0.688530 0.688530 0.688530
0.692832 0.692832 0.692832
0.698133 0.698133 0.698133
0.704491 0.704491 0.704491
0.711969 0.711969 0.711969
0.720654 0.720654 0.720654
0.730163 0.730163 0.730163
0.740789 0.740789 0.740789
0.750970 0.750970 0.750970
0.761921 0.761921 0.761921
0.773651 0.773651 0.773651
0.786176 0.786176 0.786176
0.797140 0.797140 0.797140
0.808415 0.808415 0.808415
0.818884 0.818884 0.818884
0.830104 0.830104 0.830104
0.840725 0.840725 0.840725
0.850531 0.850531 0.850531
0.714869 0.714869 0.714869
0.714630 0.714630 0.714630
0.713796 0.713796 0.713796
0.712373 0.712373 0.712373
0.710529 0.710529 0.710529
0.708633 0.708633 0.708633
0.707351 0.707351 0.707351
0.706549 0.706549 0.706549
0.704103 0.704103 0.704103
0.703537 0.703537 0.703537
0.702133 0.702133 0.702133
0.702356 0.702356 0.702356
0.702107 0.702107 0.702107
0.703372 0.703372 0.703372
0.705511 0.705511 0.705511
0.707985 0.707985 0.707985
0.711650 0.711650 0.711650
0.716397 0.716397 0.716397
0.722248 0.722248 0.722248
0.729132 0.729132 0.729132
0.737127 0.737127 0.737127
0.745824 0.745824 0.745824
0.755311 0.755311 0.755311
0.765704 0.765704 0.765704
0.775983 0.775983 0.775983
0.786683 0.786683 0.786683
0.795701 0.795701 0.795701
0.804349 0.804349 0.804349
0.815251 0.815251 0.815251
0.825270 0.825270 0.825270
0.835791 0.835791 0.835791
0.845731 0.845731 0.845731
0.855437 0.855437 0.855437
0.733051 0.733051 0.733051
0.732847 0.732847 0.732847
0.732134 0.732134 0.732134
0.730912 0.730912 0.730912
0.729309 0.729309 0.729309
0.727612 0.727612 0.727612
0.726343 0.726343 0.726343
0.726428 0.726428 0.726428
0.724004 0.724004 0.724004
0.722917 0.722917 0.722917
0.722591 0.722591 0.722591
0.721879 0.721879 0.721879
0.722327 0.722327 0.722327
0.723496 0.723496 0.723496
0.724845 0.724845 0.724845
0.727423 0.727423 0.727423
0.730963 0.730963 0.730963
0.735338 0.735338 0.735338
0.740576 0.740576 0.740576
0.746628 0.746628 0.746628
0.753485 0.753485 0.753485
0.761265 0.761265 0.761265
0.769909 0.769909 0.769909
0.779691 0.779691 0.779691
0.789026 0.789026 0.789026
0.797323 0.797323 0.797323
0.806447 0.806447 0.806447
0.814131 0.814131 0.814131
0.822695 0.822695 0.822695
0.832292 0.832292 0.832292
0.842228 0.842228 0.842228
0.851587 0.851587 0.851587
0.859575 0.859575 0.859575
0.749804 0.749804 0.749804
0.749643 0.749643 0.749643
0.749079 0.749079 0.749079
0.748108 0.748108 0.748108
0.746825 0.746825 0.746825
0.745442 0.745442 0.745442
0.744350 0.744350 0.744350
0.744246 0.744246 0.744246
0.743112 0.743112 0.743112
0.741857 0.741857 0.741857
0.742543 0.742543 0.742543
0.741369 0.741369 0.741369
0.742416 0.742416 0.742416
0.742661 0.742661 0.742661
0.744458 0.744458 0.744458
0.746667 0.746667 0.746667
0.749460 0.749460 0.749460
0.753211 0.753211 0.753211
0.757782 0.757782 0.757782
0.763285 0.763285 0.763285
0.769654 0.769654 0.769654
0.776927 0.776927 0.776927
0.784954 0.784954 0.784954
0.791946 0.791946 0.791946
0.799752 0.799752 0.799752
0.807918 0.807918 0.807918
0.817200 0.817200 0.817200
0.824619 0.824619 0.824619
0.832813 0.832813 0.832813
0.840132 0.840132 0.840132
0.849205 0.849205 0.849205
0.857593 0.857593 0.857593
0.864149 0.864149 0.864149
0.770390 0.770390 0.770390
0.770234 0.770234 0.770234
0.769685 0.769685 0.769685
0.768724 0.768724 0.768724
0.767412 0.767412 0.767412
0.765902 0.765902 0.765902
0.764500 0.764500 0.764500
0.763774 0.763774 0.763774
0.763188 0.763188 0.763188
0.761568 0.761568 0.761568
0.761297 0.761297 0.761297
0.761012 0.761012 0.761012
0.760996 0.760996 0.760996
0.761753 0.761753 0.761753
0.763032 0.763032 0.763032
0.764775 0.764775 0.764775
0.767689 0.767689 0.767689
0.771135 0.771135 0.771135
0.775111 0.775111 0.775111
0.780101 0.780101 0.780101
0.785777 0.785777 0.785777
0.791192 0.791192 0.791192
0.797307 0.797307 0.797307
0.804075 0.804075 0.804075
0.811507 0.811507 0.811507
