LUTs/trix_modern/TriX_Yellow8_Punchy.cube
TITLE "Tri-X Yellow8 Punchy"
# Adobe RGB in/out. REPLACES AgX. Tri-X Yellow8 Punchy.
LUT_3D_SIZE 9
DOMAIN_MIN 0.0 0.0 0.0
DOMAIN_MAX 1.0 1.0 1.0
0.091936 0.091936 0.091936
0.092017 0.092017 0.092017
0.116715 0.116715 0.116715
0.274171 0.274171 0.274171
0.474879 0.474879 0.474879
0.645098 0.645098 0.645098
0.771706 0.771706 0.771706
0.865550 0.865550 0.865550
0.894655 0.894655 0.894655
0.092330 0.092330 0.092330
0.092960 0.092960 0.092960
0.139314 0.139314 0.139314
0.302626 0.302626 0.302626
0.472066 0.472066 0.472066
0.632676 0.632676 0.632676
0.762551 0.762551 0.762551
0.857966 0.857966 0.857966
0.890413 0.890413 0.890413
0.189351 0.189351 0.189351
0.173317 0.173317 0.173317
0.180859 0.180859 0.180859
0.325832 0.325832 0.325832
0.482049 0.482049 0.482049
0.615689 0.615689 0.615689
0.742194 0.742194 0.742194
0.837958 0.837958 0.837958
0.876648 0.876648 0.876648
0.401721 0.401721 0.401721
0.382857 0.382857 0.382857
0.366351 0.366351 0.366351
0.397106 0.397106 0.397106
0.497584 0.497584 0.497584
0.618955 0.618955 0.618955
0.729716 0.729716 0.729716
0.823354 0.823354 0.823354
0.850186 0.850186 0.850186
0.553307 0.553307 0.553307
0.542500 0.542500 0.542500
0.527742 0.527742 0.527742
0.532235 0.532235 0.532235
0.567984 0.567984 0.567984
0.644884 0.644884 0.644884
0.740971 0.740971 0.740971
0.822880 0.822880 0.822880
0.878910 0.878910 0.878910
0.673874 0.673874 0.673874
0.666299 0.666299 0.666299
0.657272 0.657272 0.657272
0.654516 0.654516 0.654516
0.672441 0.672441 0.672441
0.714224 0.714224 0.714224
0.772997 0.772997 0.772997
0.837716 0.837716 0.837716
0.887182 0.887182 0.887182
0.768571 0.768571 0.768571
0.764438 0.764438 0.764438
0.758581 0.758581 0.758581
0.756729 0.756729 0.756729
0.766265 0.766265 0.766265
0.791161 0.791161 0.791161
0.828731 0.828731 0.828731
0.867926 0.867926 0.867926
0.903080 0.903080 0.903080
0.845480 0.845480 0.845480
0.842071 0.842071 0.842071
0.835166 0.835166 0.835166
0.833038 0.833038 0.833038
0.838091 0.838091 0.838091
0.852892 0.852892 0.852892
0.878354 0.878354 0.878354
0.906065 0.906065 0.906065
0.927425 0.927425 0.927425
0.830214 0.830214 0.830214
0.828229 0.828229 0.828229
0.872097 0.872097 0.872097
0.864826 0.864826 0.864826
0.886783 0.886783 0.886783
0.895985 0.895985 0.895985
0.912030 0.912030 0.912030
0.934520 0.934520 0.934520
0.948848 0.948848 0.948848
0.091942 0.091942 0.091942
0.092029 0.092029 0.092029
0.105859 0.105859 0.105859
0.238444 0.238444 0.238444
0.459207 0.459207 0.459207
0.636119 0.636119 0.636119
0.765227 0.765227 0.765227
0.861483 0.861483 0.861483
0.892456 0.892456 0.892456
0.092615 0.092615 0.092615
0.092784 0.092784 0.092784
0.118208 0.118208 0.118208
0.257057 0.257057 0.257057
0.453323 0.453323 0.453323
0.623603 0.623603 0.623603
0.756226 0.756226 0.756226
0.853942 0.853942 0.853942
0.888234 0.888234 0.888234
0.187187 0.187187 0.187187
0.163883 0.163883 0.163883
0.164799 0.164799 0.164799
0.299842 0.299842 0.299842
0.458693 0.458693 0.458693
0.604954 0.604954 0.604954
0.736515 0.736515 0.736515
0.835171 0.835171 0.835171
0.874337 0.874337 0.874337
0.395275 0.395275 0.395275
0.375743 0.375743 0.375743
0.354798 0.354798 0.354798
0.382891 0.382891 0.382891
0.484987 0.484987 0.484987
0.607233 0.607233 0.607233
0.724128 0.724128 0.724128
0.820063 0.820063 0.820063
0.847643 0.847643 0.847643
0.548177 0.548177 0.548177
0.537309 0.537309 0.537309
0.521532 0.521532 0.521532
0.524824 0.524824 0.524824
0.561344 0.561344 0.561344
0.637588 0.637588 0.637588
0.735433 0.735433 0.735433
0.820289 0.820289 0.820289
0.877384 0.877384 0.877384
0.669341 0.669341 0.669341
0.662257 0.662257 0.662257
0.653131 0.653131 0.653131
0.650199 0.650199 0.650199
0.668121 0.668121 0.668121
0.710693 0.710693 0.710693
0.769399 0.769399 0.769399
0.835771 0.835771 0.835771
0.886041 0.886041 0.886041
0.766380 0.766380 0.766380
0.762402 0.762402 0.762402
0.756648 0.756648 0.756648
0.754766 0.754766 0.754766
0.764306 0.764306 0.764306
0.789504 0.789504 0.789504
0.827378 0.827378 0.827378
0.866613 0.866613 0.866613
0.902474 0.902474 0.902474
0.843590 0.843590 0.843590
0.840476 0.840476 0.840476
0.834350 0.834350 0.834350
0.832409 0.832409 0.832409
0.837544 0.837544 0.837544
0.852463 0.852463 0.852463
0.878188 0.878188 0.878188
0.905715 0.905715 0.905715
0.927283 0.927283 0.927283
0.848165 0.848165 0.848165
0.846152 0.846152 0.846152
0.884776 0.884776 0.884776
0.876364 0.876364 0.876364
0.886838 0.886838 0.886838
0.896087 0.896087 0.896087
0.912271 0.912271 0.912271
0.934703 0.934703 0.934703
0.948898 0.948898 0.948898
0.092038 0.092038 0.092038
0.095979 0.095979 0.095979
0.123857 0.123857 0.123857
0.266010 0.266010 0.266010
0.459584 0.459584 0.459584
0.630774 0.630774 0.630774
0.757540 0.757540 0.757540
0.856444 0.856444 0.856444
0.887906 0.887906 0.887906
0.101931 0.101931 0.101931
0.112144 0.112144 0.112144
0.150757 0.150757 0.150757
0.268890 0.268890 0.268890
0.449817 0.449817 0.449817
0.617546 0.617546 0.617546
0.748534 0.748534 0.748534
0.849577 0.849577 0.849577
0.883666 0.883666 0.883666
0.166090 0.166090 0.166090
0.150381 0.150381 0.150381
0.152941 0.152941 0.152941
0.276037 0.276037 0.276037
0.440553 0.440553 0.440553
0.594239 0.594239 0.594239
0.729053 0.729053 0.729053
0.836130 0.836130 0.836130
0.868235 0.868235 0.868235
0.375768 0.375768 0.375768
0.358293 0.358293 0.358293
0.333429 0.333429 0.333429
0.351926 0.351926 0.351926
0.462955 0.462955 0.462955
0.589708 0.589708 0.589708
0.715091 0.715091 0.715091
0.813703 0.813703 0.813703
0.841666 0.841666 0.841666
0.542971 0.542971 0.542971
0.532238 0.532238 0.532238
0.513024 0.513024 0.513024
0.511818 0.511818 0.511818
0.546311 0.546311 0.546311
0.623796 0.623796 0.623796
0.724502 0.724502 0.724502
0.815017 0.815017 0.815017
0.873298 0.873298 0.873298
0.670187 0.670187 0.670187
0.663354 0.663354 0.663354
0.651566 0.651566 0.651566
0.646289 0.646289 0.646289
0.662094 0.662094 0.662094
0.703559 0.703559 0.703559
0.761794 0.761794 0.761794
0.831482 0.831482 0.831482
0.883176 0.883176 0.883176
0.767915 0.767915 0.767915
0.764183 0.764183 0.764183
0.757569 0.757569 0.757569
0.754432 0.754432 0.754432
0.762947 0.762947 0.762947
0.787715 0.787715 0.787715
0.824786 0.824786 0.824786
0.863521 0.863521 0.863521
0.901004 0.901004 0.901004
0.840375 0.840375 0.840375
0.838347 0.838347 0.838347
0.835061 0.835061 0.835061
0.833496 0.833496 0.833496
0.838506 0.838506 0.838506
0.853352 0.853352 0.853352
0.878903 0.878903 0.878903
0.905012 0.905012 0.905012
0.926933 0.926933 0.926933
0.844799 0.844799 0.844799
0.887481 0.887481 0.887481
0.882281 0.882281 0.882281
0.873715 0.873715 0.873715
0.888018 0.888018 0.888018
0.897229 0.897229 0.897229
0.913729 0.913729 0.913729
0.935545 0.935545 0.935545
0.949135 0.949135 0.949135
0.097844 0.097844 0.097844
0.107184 0.107184 0.107184
0.175952 0.175952 0.175952
0.327716 0.327716 0.327716
0.494305 0.494305 0.494305
0.643728 0.643728 0.643728
0.760835 0.760835 0.760835
0.843287 0.843287 0.843287
0.884882 0.884882 0.884882
0.120144 0.120144 0.120144
0.140215 0.140215 0.140215
0.235628 0.235628 0.235628
0.346507 0.346507 0.346507
0.482655 0.482655 0.482655
0.630071 0.630071 0.630071
0.751454 0.751454 0.751454
0.836400 0.836400 0.836400
0.880539 0.880539 0.880539
0.208642 0.208642 0.208642
0.206954 0.206954 0.206954
0.241884 0.241884 0.241884
0.332433 0.332433 0.332433
0.461438 0.461438 0.461438
0.602248 0.602248 0.602248
0.730002 0.730002 0.730002
0.821270 0.821270 0.821270
0.863643 0.863643 0.863643
0.356480 0.356480 0.356480
0.344291 0.344291 0.344291
0.323702 0.323702 0.323702
0.338495 0.338495 0.338495
0.456719 0.456719 0.456719
0.586075 0.586075 0.586075
0.712532 0.712532 0.712532
0.809518 0.809518 0.809518
0.836478 0.836478 0.836478
0.526975 0.526975 0.526975
0.517874 0.517874 0.517874
0.500434 0.500434 0.500434
0.495551 0.495551 0.495551
0.523973 0.523973 0.523973
0.610084 0.610084 0.610084
0.716992 0.716992 0.716992
0.809785 0.809785 0.809785
0.869329 0.869329 0.869329
0.660509 0.660509 0.660509
0.654589 0.654589 0.654589
0.643522 0.643522 0.643522
0.637670 0.637670 0.637670
0.651219 0.651219 0.651219
0.690226 0.690226 0.690226
0.753179 0.753179 0.753179
0.826977 0.826977 0.826977
0.880272 0.880272 0.880272
0.764204 0.764204 0.764204
0.760890 0.760890 0.760890
0.754626 0.754626 0.754626
0.751529 0.751529 0.751529
0.759528 0.759528 0.759528
0.783654 0.783654 0.783654
0.820158 0.820158 0.820158
0.860330 0.860330 0.860330
0.899258 0.899258 0.899258
0.838093 0.838093 0.838093
0.836481 0.836481 0.836481
0.834050 0.834050 0.834050
0.832854 0.832854 0.832854
0.838192 0.838192 0.838192
0.853317 0.853317 0.853317
0.878655 0.878655 0.878655
0.903641 0.903641 0.903641
0.926464 0.926464 0.926464
0.870291 0.870291 0.870291
0.890596 0.890596 0.890596
0.885597 0.885597 0.885597
0.888969 0.888969 0.888969
0.889239 0.889239 0.889239
0.898549 0.898549 0.898549
0.915660 0.915660 0.915660
0.936413 0.936413 0.936413
0.949479 0.949479 0.949479
0.123082 0.123082 0.123082
0.132817 0.132817 0.132817
0.244649 0.244649 0.244649
0.384499 0.384499 0.384499
0.550674 0.550674 0.550674
0.675295 0.675295 0.675295
0.776956 0.776956 0.776956
0.844342 0.844342 0.844342
0.884890 0.884890 0.884890
0.161466 0.161466 0.161466
0.176973 0.176973 0.176973
0.292969 0.292969 0.292969
0.423327 0.423327 0.423327
0.539765 0.539765 0.539765
0.661856 0.661856 0.661856
0.767473 0.767473 0.767473
0.838584 0.838584 0.838584
0.880415 0.880415 0.880415
0.321945 0.321945 0.321945
0.324688 0.324688 0.324688
0.366460 0.366460 0.366460
0.431698 0.431698 0.431698
0.515198 0.515198 0.515198
0.632172 0.632172 0.632172
0.744538 0.744538 0.744538
0.826496 0.826496 0.826496
0.862842 0.862842 0.862842
0.383928 0.383928 0.383928
0.378569 0.378569 0.378569
0.381651 0.381651 0.381651
0.421368 0.421368 0.421368
0.497444 0.497444 0.497444
0.607098 0.607098 0.607098
0.722516 0.722516 0.722516
0.813650 0.813650 0.813650
0.861465 0.861465 0.861465
0.515094 0.515094 0.515094
0.508743 0.508743 0.508743
0.496196 0.496196 0.496196
0.491543 0.491543 0.491543
0.513339 0.513339 0.513339
0.609976 0.609976 0.609976
0.718639 0.718639 0.718639
0.810110 0.810110 0.810110
0.868640 0.868640 0.868640
0.648951 0.648951 0.648951
0.644221 0.644221 0.644221
0.635288 0.635288 0.635288
0.630187 0.630187 0.630187
0.640942 0.640942 0.640942
0.676043 0.676043 0.676043
0.747375 0.747375 0.747375
0.824712 0.824712 0.824712
0.878762 0.878762 0.878762
0.756882 0.756882 0.756882
0.754217 0.754217 0.754217
0.749188 0.749188 0.749188
0.747106 0.747106 0.747106
0.755133 0.755133 0.755133
0.778295 0.778295 0.778295
0.814784 0.814784 0.814784
0.857951 0.857951 0.857951
0.897930 0.897930 0.897930
0.834175 0.834175 0.834175
0.832878 0.832878 0.832878
0.831127 0.831127 0.831127
0.830877 0.830877 0.830877
0.836875 0.836875 0.836875
0.852384 0.852384 0.852384
0.877738 0.877738 0.877738
0.902251 0.902251 0.902251
0.926400 0.926400 0.926400
0.873805 0.873805 0.873805
0.875763 0.875763 0.875763
0.878107 0.878107 0.878107
0.883626 0.883626 0.883626
0.888823 0.888823 0.888823
0.898949 0.898949 0.898949
0.916631 0.916631 0.916631
0.936875 0.936875 0.936875
0.950003 0.950003 0.950003
0.187984 0.187984 0.187984
0.190843 0.190843 0.190843
0.317345 0.317345 0.317345
0.437695 0.437695 0.437695
0.591597 0.591597 0.591597
0.716259 0.716259 0.716259
0.801597 0.801597 0.801597
0.856577 0.856577 0.856577
0.887827 0.887827 0.887827
0.226529 0.226529 0.226529
0.232925 0.232925 0.232925
0.351737 0.351737 0.351737
0.464934 0.464934 0.464934
0.604028 0.604028 0.604028
0.705595 0.705595 0.705595
0.793025 0.793025 0.793025
0.851199 0.851199 0.851199
0.883255 0.883255 0.883255
0.394614 0.394614 0.394614
0.403796 0.403796 0.403796
0.470511 0.470511 0.470511
0.521283 0.521283 0.521283
0.584854 0.584854 0.584854
0.676956 0.676956 0.676956
0.770989 0.770989 0.770989
0.839276 0.839276 0.839276
0.866081 0.866081 0.866081
0.450085 0.450085 0.450085
0.449087 0.449087 0.449087
0.465909 0.465909 0.465909
0.506239 0.506239 0.506239
0.567212 0.567212 0.567212
0.649282 0.649282 0.649282
0.746459 0.746459 0.746459
0.825096 0.825096 0.825096
0.869787 0.869787 0.869787
0.529048 0.529048 0.529048
0.525287 0.525287 0.525287
0.523677 0.523677 0.523677
0.534463 0.534463 0.534463
0.571644 0.571644 0.571644
0.642251 0.642251 0.642251
0.735736 0.735736 0.735736
0.818860 0.818860 0.818860
0.872826 0.872826 0.872826
0.642115 0.642115 0.642115
0.638870 0.638870 0.638870
0.633267 0.633267 0.633267
0.631151 0.631151 0.631151
0.640836 0.640836 0.640836
0.667998 0.667998 0.667998
0.750256 0.750256 0.750256
0.827680 0.827680 0.827680
0.880127 0.880127 0.880127
0.749568 0.749568 0.749568
0.747542 0.747542 0.747542
0.744208 0.744208 0.744208
0.743807 0.743807 0.743807
0.752245 0.752245 0.752245
0.773544 0.773544 0.773544
0.808844 0.808844 0.808844
0.857278 0.857278 0.857278
0.897997 0.897997 0.897997
0.829371 0.829371 0.829371
0.828428 0.828428 0.828428
0.827649 0.827649 0.827649
0.828559 0.828559 0.828559
0.835454 0.835454 0.835454
0.851351 0.851351 0.851351
0.876689 0.876689 0.876689
0.901190 0.901190 0.901190
0.926872 0.926872 0.926872
0.869088 0.869088 0.869088
0.870868 0.870868 0.870868
0.873012 0.873012 0.873012
0.881809 0.881809 0.881809
0.887891 0.887891 0.887891
0.898822 0.898822 0.898822
0.917215 0.917215 0.917215
0.937327 0.937327 0.937327
0.950785 0.950785 0.950785
0.279086 0.279086 0.279086
0.277317 0.277317 0.277317
0.373937 0.373937 0.373937
0.485839 0.485839 0.485839
0.625530 0.625530 0.625530
0.760049 0.760049 0.760049
0.829247 0.829247 0.829247
0.874123 0.874123 0.874123
0.892699 0.892699 0.892699
0.312938 0.312938 0.312938
0.313591 0.313591 0.313591
0.405011 0.405011 0.405011
0.509547 0.509547 0.509547
0.641952 0.641952 0.641952
0.749961 0.749961 0.749961
0.822571 0.822571 0.822571
0.869100 0.869100 0.869100
0.888100 0.888100 0.888100
0.445900 0.445900 0.445900
0.450086 0.450086 0.450086
0.507477 0.507477 0.507477
0.596390 0.596390 0.596390
0.649529 0.649529 0.649529
0.726643 0.726643 0.726643
0.803406 0.803406 0.803406
0.857558 0.857558 0.857558
0.872218 0.872218 0.872218
0.530280 0.530280 0.530280
0.529339 0.529339 0.529339
0.547569 0.547569 0.547569
0.583871 0.583871 0.583871
0.633324 0.633324 0.633324
0.703900 0.703900 0.703900
0.779943 0.779943 0.779943
0.842911 0.842911 0.842911
0.881521 0.881521 0.881521
0.568319 0.568319 0.568319
0.567179 0.567179 0.567179
0.573387 0.573387 0.573387
0.594541 0.594541 0.594541
0.634776 0.634776 0.634776
0.694690 0.694690 0.694690
0.766216 0.766216 0.766216
0.834604 0.834604 0.834604
0.880369 0.880369 0.880369
0.649861 0.649861 0.649861
0.647940 0.647940 0.647940
0.647083 0.647083 0.647083
0.652967 0.652967 0.652967
0.672842 0.672842 0.672842
0.712787 0.712787 0.712787
0.773279 0.773279 0.773279
0.838947 0.838947 0.838947
0.885150 0.885150 0.885150
0.746015 0.746015 0.746015
0.744735 0.744735 0.744735
0.743414 0.743414 0.743414
0.745449 0.745449 0.745449
0.755639 0.755639 0.755639
0.775888 0.775888 0.775888
0.803966 0.803966 0.803966
0.861031 0.861031 0.861031
0.900661 0.900661 0.900661
0.825633 0.825633 0.825633
0.824998 0.824998 0.824998
0.825152 0.825152 0.825152
0.827350 0.827350 0.827350
0.835329 0.835329 0.835329
0.851563 0.851563 0.851563
0.876369 0.876369 0.876369
0.900731 0.900731 0.900731
0.927918 0.927918 0.927918
0.861346 0.861346 0.861346
0.866498 0.866498 0.866498
0.870008 0.870008 0.870008
0.880333 0.880333 0.880333
0.886992 0.886992 0.886992
0.898648 0.898648 0.898648
0.917636 0.917636 0.917636
0.937973 0.937973 0.937973
0.952054 0.952054 0.952054
0.373062 0.373062 0.373062
0.372359 0.372359 0.372359
0.438061 0.438061 0.438061
0.534928 0.534928 0.534928
0.664136 0.664136 0.664136
0.806485 0.806485 0.806485
0.858836 0.858836 0.858836
0.891325 0.891325 0.891325
0.900635 0.900635 0.900635
0.399106 0.399106 0.399106
0.399538 0.399538 0.399538
0.461063 0.461063 0.461063
0.555220 0.555220 0.555220
0.679085 0.679085 0.679085
0.797364 0.797364 0.797364
0.852537 0.852537 0.852537
0.887772 0.887772 0.887772
0.896797 0.896797 0.896797
0.507816 0.507816 0.507816
0.511009 0.511009 0.511009
0.562085 0.562085 0.562085
0.637454 0.637454 0.637454
0.713487 0.713487 0.713487
0.777803 0.777803 0.777803
0.837274 0.837274 0.837274
0.879487 0.879487 0.879487
0.889541 0.889541 0.889541
0.606944 0.606944 0.606944
0.605496 0.605496 0.605496
0.623236 0.623236 0.623236
0.653588 0.653588 0.653588
0.697009 0.697009 0.697009
0.753899 0.753899 0.753899
0.817981 0.817981 0.817981
0.866467 0.866467 0.866467
0.892336 0.892336 0.892336
0.621803 0.621803 0.621803
0.621566 0.621566 0.621566
0.633255 0.633255 0.633255
0.656994 0.656994 0.656994
0.695530 0.695530 0.695530
0.743631 0.743631 0.743631
0.804341 0.804341 0.804341
0.857018 0.857018 0.857018
0.890622 0.890622 0.890622
0.674135 0.674135 0.674135
0.673511 0.673511 0.673511
0.678960 0.678960 0.678960
0.692015 0.692015 0.692015
0.717927 0.717927 0.717927
0.755399 0.755399 0.755399
0.807029 0.807029 0.807029
0.858549 0.858549 0.858549
0.894143 0.894143 0.894143
0.749634 0.749634 0.749634
0.748978 0.748978 0.748978
0.750815 0.750815 0.750815
0.756350 0.756350 0.756350
0.770923 0.770923 0.770923
0.795612 0.795612 0.795612
0.829517 0.829517 0.829517
0.875228 0.875228 0.875228
0.907171 0.907171 0.907171
0.825335 0.825335 0.825335
0.824857 0.824857 0.824857
0.825556 0.825556 0.825556
0.828836 0.828836 0.828836
0.838076 0.838076 0.838076
0.855283 0.855283 0.855283
0.878794 0.878794 0.878794
0.899279 0.899279 0.899279
0.930147 0.930147 0.930147
0.850737 0.850737 0.850737
0.867689 0.867689 0.867689
0.865972 0.865972 0.865972
0.878281 0.878281 0.878281
0.886804 0.886804 0.886804
0.899008 0.899008 0.899008
0.918361 0.918361 0.918361
0.938957 0.938957 0.938957
0.953843 0.953843 0.953843
0.470819 0.470819 0.470819
0.476568 0.476568 0.476568
0.506837 0.506837 0.506837
0.592475 0.592475 0.592475
0.738883 0.738883 0.738883
0.872117 0.872117 0.872117
0.900615 0.900615 0.900615
0.917812 0.917812 0.917812
0.912743 0.912743 0.912743
0.488120 0.488120 0.488120
0.494047 0.494047 0.494047
0.524941 0.524941 0.524941
0.607379 0.607379 0.607379
0.748267 0.748267 0.748267
0.864641 0.864641 0.864641
0.895563 0.895563 0.895563
0.913390 0.913390 0.913390
0.911346 0.911346 0.911346
0.569844 0.569844 0.569844
0.575379 0.575379 0.575379
0.603265 0.603265 0.603265
0.676522 0.676522 0.676522
0.783334 0.783334 0.783334
0.844018 0.844018 0.844018
0.882890 0.882890 0.882890
0.903142 0.903142 0.903142
0.896397 0.896397 0.896397
0.693465 0.693465 0.693465
0.692937 0.692937 0.692937
0.698882 0.698882 0.698882
0.721532 0.721532 0.721532
0.765334 0.765334 0.765334
0.822369 0.822369 0.822369
0.866621 0.866621 0.866621
0.894581 0.894581 0.894581
0.913124 0.913124 0.913124
0.692917 0.692917 0.692917
0.693463 0.693463 0.693463
0.701687 0.701687 0.701687
0.721270 0.721270 0.721270
0.754776 0.754776 0.754776
0.805041 0.805041 0.805041
0.851192 0.851192 0.851192
0.887217 0.887217 0.887217
0.910465 0.910465 0.910465
0.716164 0.716164 0.716164
0.716578 0.716578 0.716578
0.722851 0.722851 0.722851
0.738811 0.738811 0.738811
0.763540 0.763540 0.763540
0.803136 0.803136 0.803136
0.846766 0.846766 0.846766
0.885701 0.885701 0.885701
0.912699 0.912699 0.912699
0.764154 0.764154 0.764154
0.764199 0.764199 0.764199
0.768331 0.768331 0.768331
0.780652 0.780652 0.780652
0.798268 0.798268 0.798268
0.823330 0.823330 0.823330
0.858326 0.858326 0.858326
0.894052 0.894052 0.894052
0.922662 0.922662 0.922662
0.823245 0.823245 0.823245
0.823067 0.823067 0.823067
0.825000 0.825000 0.825000
0.832445 0.832445 0.832445
0.845830 0.845830 0.845830
0.864331 0.864331 0.864331
0.885804 0.885804 0.885804
0.913496 0.913496 0.913496
0.936925 0.936925 0.936925
0.838580 0.838580 0.838580
0.864458 0.864458 0.864458
0.860656 0.860656 0.860656
0.859676 0.859676 0.859676
0.887135 0.887135 0.887135
0.900089 0.900089 0.900089
0.920160 0.920160 0.920160
0.940018 0.940018 0.940018
0.956150 0.956150 0.956150
