LUTs/trix_modern/TriX_Yellow8_Hard.cube
TITLE "Tri-X Yellow8 Hard"
# Adobe RGB in/out. REPLACES AgX. Tri-X Yellow8 Hard.
LUT_3D_SIZE 9
DOMAIN_MIN 0.0 0.0 0.0
DOMAIN_MAX 1.0 1.0 1.0
0.093024 0.093024 0.093024
0.093174 0.093174 0.093174
0.095481 0.095481 0.095481
0.162442 0.162442 0.162442
0.495396 0.495396 0.495396
0.856188 0.856188 0.856188
0.967662 0.967662 0.967662
0.988764 0.988764 0.988764
0.992719 0.992719 0.992719
0.093290 0.093290 0.093290
0.093333 0.093333 0.093333
0.097373 0.097373 0.097373
0.190010 0.190010 0.190010
0.488943 0.488943 0.488943
0.839501 0.839501 0.839501
0.962671 0.962671 0.962671
0.987758 0.987758 0.987758
0.992393 0.992393 0.992393
0.106947 0.106947 0.106947
0.102441 0.102441 0.102441
0.104362 0.104362 0.104362
0.216231 0.216231 0.216231
0.512058 0.512058 0.512058
0.816686 0.816686 0.816686
0.951450 0.951450 0.951450
0.985068 0.985068 0.985068
0.990282 0.990282 0.990282
0.332115 0.332115 0.332115
0.300299 0.300299 0.300299
0.273831 0.273831 0.273831
0.324176 0.324176 0.324176
0.549313 0.549313 0.549313
0.821072 0.821072 0.821072
0.942373 0.942373 0.942373
0.982802 0.982802 0.982802
0.986719 0.986719 0.986719
0.685169 0.685169 0.685169
0.658558 0.658558 0.658558
0.625337 0.625337 0.625337
0.635365 0.635365 0.635365
0.724399 0.724399 0.724399
0.855901 0.855901 0.855901
0.950771 0.950771 0.950771
0.982656 0.982656 0.982656
0.990674 0.990674 0.990674
0.889976 0.889976 0.889976
0.882214 0.882214 0.882214
0.872547 0.872547 0.872547
0.868844 0.868844 0.868844
0.888510 0.888510 0.888510
0.928838 0.928838 0.928838
0.968362 0.968362 0.968362
0.985035 0.985035 0.985035
0.992100 0.992100 0.992100
0.965957 0.965957 0.965957
0.963703 0.963703 0.963703
0.960496 0.960496 0.960496
0.959480 0.959480 0.959480
0.964699 0.964699 0.964699
0.973998 0.973998 0.973998
0.983808 0.983808 0.983808
0.989077 0.989077 0.989077
0.993364 0.993364 0.993364
0.986086 0.986086 0.986086
0.985625 0.985625 0.985625
0.984688 0.984688 0.984688
0.984397 0.984397 0.984397
0.985086 0.985086 0.985086
0.987081 0.987081 0.987081
0.990578 0.990578 0.990578
0.993591 0.993591 0.993591
0.995207 0.995207 0.995207
0.984011 0.984011 0.984011
0.983739 0.983739 0.983739
0.989625 0.989625 0.989625
0.988668 0.988668 0.988668
0.992031 0.992031 0.992031
0.992821 0.992821 0.992821
0.994042 0.994042 0.994042
0.996007 0.996007 0.996007
0.997607 0.997607 0.997607
0.093035 0.093035 0.093035
0.093195 0.093195 0.093195
0.094369 0.094369 0.094369
0.133933 0.133933 0.133933
0.460027 0.460027 0.460027
0.844125 0.844125 0.844125
0.964133 0.964133 0.964133
0.988226 0.988226 0.988226
0.992550 0.992550 0.992550
0.093310 0.093310 0.093310
0.093321 0.093321 0.093321
0.095620 0.095620 0.095620
0.148417 0.148417 0.148417
0.447116 0.447116 0.447116
0.827314 0.827314 0.827314
0.959203 0.959203 0.959203
0.987222 0.987222 0.987222
0.992224 0.992224 0.992224
0.105997 0.105997 0.105997
0.100451 0.100451 0.100451
0.100558 0.100558 0.100558
0.187166 0.187166 0.187166
0.458891 0.458891 0.458891
0.800155 0.800155 0.800155
0.948283 0.948283 0.948283
0.984688 0.984688 0.984688
0.989919 0.989919 0.989919
0.321055 0.321055 0.321055
0.288734 0.288734 0.288734
0.256656 0.256656 0.256656
0.300355 0.300355 0.300355
0.518985 0.518985 0.518985
0.804392 0.804392 0.804392
0.937502 0.937502 0.937502
0.981789 0.981789 0.981789
0.986377 0.986377 0.986377
0.671731 0.671731 0.671731
0.646780 0.646780 0.646780
0.609583 0.609583 0.609583
0.618138 0.618138 0.618138
0.706508 0.706508 0.706508
0.846099 0.846099 0.846099
0.947344 0.947344 0.947344
0.981859 0.981859 0.981859
0.990410 0.990410 0.990410
0.885334 0.885334 0.885334
0.878063 0.878063 0.878063
0.866983 0.866983 0.866983
0.863043 0.863043 0.863043
0.884083 0.884083 0.884083
0.925741 0.925741 0.925741
0.966407 0.966407 0.966407
0.984770 0.984770 0.984770
0.991904 0.991904 0.991904
0.964762 0.964762 0.964762
0.962590 0.962590 0.962590
0.959435 0.959435 0.959435
0.958400 0.958400 0.958400
0.963630 0.963630 0.963630
0.973563 0.973563 0.973563
0.983622 0.983622 0.983622
0.988904 0.988904 0.988904
0.993317 0.993317 0.993317
0.985831 0.985831 0.985831
0.985409 0.985409 0.985409
0.984576 0.984576 0.984576
0.984311 0.984311 0.984311
0.985011 0.985011 0.985011
0.987024 0.987024 0.987024
0.990549 0.990549 0.990549
0.993564 0.993564 0.993564
0.995191 0.995191 0.995191
0.986447 0.986447 0.986447
0.986176 0.986176 0.986176
0.991686 0.991686 0.991686
0.990233 0.990233 0.990233
0.992041 0.992041 0.992041
0.992829 0.992829 0.992829
0.994060 0.994060 0.994060
0.996028 0.996028 0.996028
0.997613 0.997613 0.997613
0.093210 0.093210 0.093210
0.093461 0.093461 0.093461
0.096132 0.096132 0.096132
0.155525 0.155525 0.155525
0.460861 0.460861 0.460861
0.836946 0.836946 0.836946
0.959925 0.959925 0.959925
0.987556 0.987556 0.987556
0.992199 0.992199 0.992199
0.093916 0.093916 0.093916
0.094963 0.094963 0.094963
0.098857 0.098857 0.098857
0.157830 0.157830 0.157830
0.439518 0.439518 0.439518
0.819180 0.819180 0.819180
0.954964 0.954964 0.954964
0.986637 0.986637 0.986637
0.991495 0.991495 0.991495
0.100709 0.100709 0.100709
0.098810 0.098810 0.098810
0.099130 0.099130 0.099130
0.164196 0.164196 0.164196
0.417880 0.417880 0.417880
0.780320 0.780320 0.780320
0.941796 0.941796 0.941796
0.984819 0.984819 0.984819
0.989118 0.989118 0.989118
0.288776 0.288776 0.288776
0.261770 0.261770 0.261770
0.226496 0.226496 0.226496
0.252493 0.252493 0.252493
0.468355 0.468355 0.468355
0.771976 0.771976 0.771976
0.929598 0.929598 0.929598
0.979846 0.979846 0.979846
0.985571 0.985571 0.985571
0.659630 0.659630 0.659630
0.635372 0.635372 0.635372
0.587776 0.587776 0.587776
0.584721 0.584721 0.584721
0.667265 0.667265 0.667265
0.827574 0.827574 0.827574
0.937828 0.937828 0.937828
0.980230 0.980230 0.980230
0.989783 0.989783 0.989783
0.886201 0.886201 0.886201
0.879191 0.879191 0.879191
0.864880 0.864880 0.864880
0.857789 0.857789 0.857789
0.877896 0.877896 0.877896
0.919585 0.919585 0.919585
0.962257 0.962257 0.962257
0.984185 0.984185 0.984185
0.991411 0.991411 0.991411
0.965599 0.965599 0.965599
0.963563 0.963563 0.963563
0.959941 0.959941 0.959941
0.958217 0.958217 0.958217
0.962887 0.962887 0.962887
0.973093 0.973093 0.973093
0.983241 0.983241 0.983241
0.988495 0.988495 0.988495
0.993205 0.993205 0.993205
0.985396 0.985396 0.985396
0.985120 0.985120 0.985120
0.984673 0.984673 0.984673
0.984460 0.984460 0.984460
0.985142 0.985142 0.985142
0.987143 0.987143 0.987143
0.990673 0.990673 0.990673
0.993511 0.993511 0.993511
0.995158 0.995158 0.995158
0.985994 0.985994 0.985994
0.992151 0.992151 0.992151
0.991256 0.991256 0.991256
0.989837 0.989837 0.989837
0.992208 0.992208 0.992208
0.992917 0.992917 0.992917
0.994170 0.994170 0.994170
0.996123 0.996123 0.996123
0.997639 0.997639 0.997639
0.093643 0.093643 0.093643
0.094521 0.094521 0.094521
0.103157 0.103157 0.103157
0.218754 0.218754 0.218754
0.541328 0.541328 0.541328
0.854348 0.854348 0.854348
0.961732 0.961732 0.961732
0.985790 0.985790 0.985790
0.991704 0.991704 0.991704
0.095798 0.095798 0.095798
0.097494 0.097494 0.097494
0.131990 0.131990 0.131990
0.244730 0.244730 0.244730
0.513480 0.513480 0.513480
0.836001 0.836001 0.836001
0.956576 0.956576 0.956576
0.984856 0.984856 0.984856
0.990956 0.990956 0.990956
0.115689 0.115689 0.115689
0.114675 0.114675 0.114675
0.136580 0.136580 0.136580
0.225137 0.225137 0.225137
0.464975 0.464975 0.464975
0.795133 0.795133 0.795133
0.942621 0.942621 0.942621
0.982161 0.982161 0.982161
0.988512 0.988512 0.988512
0.259111 0.259111 0.259111
0.241589 0.241589 0.241589
0.213395 0.213395 0.213395
0.233474 0.233474 0.233474
0.454543 0.454543 0.454543
0.765305 0.765305 0.765305
0.927355 0.927355 0.927355
0.978770 0.978770 0.978770
0.984866 0.984866 0.984866
0.623632 0.623632 0.623632
0.600155 0.600155 0.600155
0.556305 0.556305 0.556305
0.544354 0.544354 0.544354
0.615919 0.615919 0.615919
0.809160 0.809160 0.809160
0.931263 0.931263 0.931263
0.978839 0.978839 0.978839
0.989262 0.989262 0.989262
0.876267 0.876267 0.876267
0.868941 0.868941 0.868941
0.854071 0.854071 0.854071
0.846210 0.846210 0.846210
0.864413 0.864413 0.864413
0.906668 0.906668 0.906668
0.957527 0.957527 0.957527
0.983567 0.983567 0.983567
0.990910 0.990910 0.990910
0.963575 0.963575 0.963575
0.961762 0.961762 0.961762
0.958323 0.958323 0.958323
0.956617 0.956617 0.956617
0.961015 0.961015 0.961015
0.972022 0.972022 0.972022
0.981818 0.981818 0.981818
0.988072 0.988072 0.988072
0.993072 0.993072 0.993072
0.985086 0.985086 0.985086
0.984867 0.984867 0.984867
0.984536 0.984536 0.984536
0.984372 0.984372 0.984372
0.985100 0.985100 0.985100
0.987138 0.987138 0.987138
0.990630 0.990630 0.990630
0.993406 0.993406 0.993406
0.995123 0.995123 0.995123
0.989388 0.989388 0.989388
0.992407 0.992407 0.992407
0.991828 0.991828 0.991828
0.992281 0.992281 0.992281
0.992302 0.992302 0.992302
0.993018 0.993018 0.993018
0.994315 0.994315 0.994315
0.996220 0.996220 0.996220
0.997677 0.997677 0.997677
0.096063 0.096063 0.096063
0.096873 0.096873 0.096873
0.138717 0.138717 0.138717
0.303003 0.303003 0.303003
0.678254 0.678254 0.678254
0.891431 0.891431 0.891431
0.970246 0.970246 0.970246
0.985932 0.985932 0.985932
0.991706 0.991706 0.991706
0.100166 0.100166 0.100166
0.103432 0.103432 0.103432
0.180421 0.180421 0.180421
0.376012 0.376012 0.376012
0.652340 0.652340 0.652340
0.877651 0.877651 0.877651
0.965358 0.965358 0.965358
0.985153 0.985153 0.985153
0.990934 0.990934 0.990934
0.211071 0.211071 0.211071
0.214705 0.214705 0.214705
0.274002 0.274002 0.274002
0.396014 0.396014 0.396014
0.593307 0.593307 0.593307
0.838824 0.838824 0.838824
0.952752 0.952752 0.952752
0.983501 0.983501 0.983501
0.988406 0.988406 0.988406
0.302060 0.302060 0.302060
0.293301 0.293301 0.293301
0.298322 0.298322 0.298322
0.371424 0.371424 0.371424
0.548970 0.548970 0.548970
0.804142 0.804142 0.804142
0.936095 0.936095 0.936095
0.979832 0.979832 0.979832
0.988223 0.988223 0.988223
0.593041 0.593041 0.593041
0.576969 0.576969 0.576969
0.545925 0.545925 0.545925
0.534652 0.534652 0.534652
0.588577 0.588577 0.588577
0.809015 0.809015 0.809015
0.932705 0.932705 0.932705
0.978923 0.978923 0.978923
0.989171 0.989171 0.989171
0.861366 0.861366 0.861366
0.855010 0.855010 0.855010
0.843009 0.843009 0.843009
0.836157 0.836157 0.836157
0.850605 0.850605 0.850605
0.892195 0.892195 0.892195
0.954323 0.954323 0.954323
0.983219 0.983219 0.983219
0.990649 0.990649 0.990649
0.959564 0.959564 0.959564
0.958098 0.958098 0.958098
0.955325 0.955325 0.955325
0.954174 0.954174 0.954174
0.958602 0.958602 0.958602
0.970602 0.970602 0.970602
0.980158 0.980158 0.980158
0.987756 0.987756 0.987756
0.992970 0.992970 0.992970
0.984553 0.984553 0.984553
0.984375 0.984375 0.984375
0.984136 0.984136 0.984136
0.984102 0.984102 0.984102
0.984920 0.984920 0.984920
0.987013 0.987013 0.987013
0.990471 0.990471 0.990471
0.993300 0.993300 0.993300
0.995118 0.995118 0.995118
0.989849 0.989849 0.989849
0.990129 0.990129 0.990129
0.990535 0.990535 0.990535
0.991488 0.991488 0.991488
0.992270 0.992270 0.992270
0.993048 0.993048 0.993048
0.994388 0.994388 0.994388
0.996272 0.996272 0.996272
0.997735 0.997735 0.997735
0.106347 0.106347 0.106347
0.107601 0.107601 0.107601
0.205739 0.205739 0.205739
0.410742 0.410742 0.410742
0.775451 0.775451 0.775451
0.930622 0.930622 0.930622
0.976722 0.976722 0.976722
0.987573 0.987573 0.987573
0.992193 0.992193 0.992193
0.126475 0.126475 0.126475
0.130350 0.130350 0.130350
0.252220 0.252220 0.252220
0.472785 0.472785 0.472785
0.798436 0.798436 0.798436
0.921259 0.921259 0.921259
0.974487 0.974487 0.974487
0.986855 0.986855 0.986855
0.991425 0.991425 0.991425
0.319932 0.319932 0.319932
0.335715 0.335715 0.335715
0.485394 0.485394 0.485394
0.608939 0.608939 0.608939
0.763066 0.763066 0.763066
0.893130 0.893130 0.893130
0.967272 0.967272 0.967272
0.985247 0.985247 0.985247
0.988834 0.988834 0.988834
0.440097 0.440097 0.440097
0.437946 0.437946 0.437946
0.474977 0.474977 0.474977
0.570699 0.570699 0.570699
0.722308 0.722308 0.722308
0.861811 0.861811 0.861811
0.953816 0.953816 0.953816
0.983308 0.983308 0.983308
0.989322 0.989322 0.989322
0.628244 0.628244 0.628244
0.619345 0.619345 0.619345
0.615149 0.615149 0.615149
0.640367 0.640367 0.640367
0.734363 0.734363 0.734363
0.852364 0.852364 0.852364
0.947607 0.947607 0.947607
0.981418 0.981418 0.981418
0.989721 0.989721 0.989721
0.852181 0.852181 0.852181
0.847822 0.847822 0.847822
0.840295 0.840295 0.840295
0.837452 0.837452 0.837452
0.850462 0.850462 0.850462
0.883957 0.883957 0.883957
0.955915 0.955915 0.955915
0.983663 0.983663 0.983663
0.990885 0.990885 0.990885
0.955535 0.955535 0.955535
0.954415 0.954415 0.954415
0.952568 0.952568 0.952568
0.952346 0.952346 0.952346
0.957012 0.957012 0.957012
0.968659 0.968659 0.968659
0.978596 0.978596 0.978596
0.987667 0.987667 0.987667
0.992975 0.992975 0.992975
0.983896 0.983896 0.983896
0.983766 0.983766 0.983766
0.983659 0.983659 0.983659
0.983784 0.983784 0.983784
0.984727 0.984727 0.984727
0.986875 0.986875 0.986875
0.990289 0.990289 0.990289
0.993219 0.993219 0.993219
0.995153 0.995153 0.995153
0.989230 0.989230 0.989230
0.989464 0.989464 0.989464
0.989745 0.989745 0.989745
0.991175 0.991175 0.991175
0.992198 0.992198 0.992198
0.993039 0.993039 0.993039
0.994432 0.994432 0.994432
0.996323 0.996323 0.996323
0.997807 0.997807 0.997807
0.167075 0.167075 0.167075
0.165402 0.165402 0.165402
0.285838 0.285838 0.285838
0.521008 0.521008 0.521008
0.829903 0.829903 0.829903
0.961301 0.961301 0.961301
0.983879 0.983879 0.983879
0.989891 0.989891 0.989891
0.992569 0.992569 0.992569
0.200977 0.200977 0.200977
0.201679 0.201679 0.201679
0.337834 0.337834 0.337834
0.578990 0.578990 0.578990
0.851961 0.851961 0.851961
0.955752 0.955752 0.955752
0.982561 0.982561 0.982561
0.989232 0.989232 0.989232
0.992214 0.992214 0.992214
0.431115 0.431115 0.431115
0.440098 0.440098 0.440098
0.573793 0.573793 0.573793
0.784290 0.784290 0.784290
0.862143 0.862143 0.862143
0.939696 0.939696 0.939696
0.977191 0.977191 0.977191
0.987704 0.987704 0.987704
0.989641 0.989641 0.989641
0.630993 0.630993 0.630993
0.628893 0.628893 0.628893
0.670152 0.670152 0.670152
0.761266 0.761266 0.761266
0.840372 0.840372 0.840372
0.919844 0.919844 0.919844
0.971039 0.971039 0.971039
0.985739 0.985739 0.985739
0.991125 0.991125 0.991125
0.725309 0.725309 0.725309
0.722218 0.722218 0.722218
0.739134 0.739134 0.739134
0.780878 0.780878 0.780878
0.842321 0.842321 0.842321
0.911209 0.911209 0.911209
0.964673 0.964673 0.964673
0.984611 0.984611 0.984611
0.990926 0.990926 0.990926
0.862589 0.862589 0.862589
0.860007 0.860007 0.860007
0.858855 0.858855 0.858855
0.866762 0.866762 0.866762
0.888920 0.888920 0.888920
0.927578 0.927578 0.927578
0.968516 0.968516 0.968516
0.985202 0.985202 0.985202
0.991751 0.991751 0.991751
0.953570 0.953570 0.953570
0.952861 0.952861 0.952861
0.952128 0.952128 0.952128
0.953256 0.953256 0.953256
0.958880 0.958880 0.958880
0.969930 0.969930 0.969930
0.977336 0.977336 0.977336
0.988166 0.988166 0.988166
0.993179 0.993179 0.993179
0.983382 0.983382 0.983382
0.983294 0.983294 0.983294
0.983316 0.983316 0.983316
0.983618 0.983618 0.983618
0.984710 0.984710 0.984710
0.986903 0.986903 0.986903
0.990234 0.990234 0.990234
0.993184 0.993184 0.993184
0.995263 0.995263 0.995263
0.988207 0.988207 0.988207
0.988889 0.988889 0.988889
0.989351 0.989351 0.989351
0.990920 0.990920 0.990920
0.992067 0.992067 0.992067
0.993025 0.993025 0.993025
0.994464 0.994464 0.994464
0.996395 0.996395 0.996395
0.997832 0.997832 0.997832
0.284438 0.284438 0.284438
0.283317 0.283317 0.283317
0.411652 0.411652 0.411652
0.641412 0.641412 0.641412
0.879994 0.879994 0.879994
0.977988 0.977988 0.977988
0.987874 0.987874 0.987874
0.992463 0.992463 0.992463
0.993177 0.993177 0.993177
0.327604 0.327604 0.327604
0.328346 0.328346 0.328346
0.464140 0.464140 0.464140
0.690216 0.690216 0.690216
0.895306 0.895306 0.895306
0.975621 0.975621 0.975621
0.987034 0.987034 0.987034
0.992189 0.992189 0.992189
0.992884 0.992884 0.992884
0.574644 0.574644 0.574644
0.582675 0.582675 0.582675
0.708494 0.708494 0.708494
0.845919 0.845919 0.845919
0.928192 0.928192 0.928192
0.970471 0.970471 0.970471
0.984975 0.984975 0.984975
0.990774 0.990774 0.990774
0.992325 0.992325 0.992325
0.803854 0.803854 0.803854
0.801162 0.801162 0.801162
0.826822 0.826822 0.826822
0.867596 0.867596 0.867596
0.913566 0.913566 0.913566
0.957923 0.957923 0.957923
0.981147 0.981147 0.981147
0.988885 0.988885 0.988885
0.992541 0.992541 0.992541
0.824897 0.824897 0.824897
0.824579 0.824579 0.824579
0.840278 0.840278 0.840278
0.872174 0.872174 0.872174
0.912062 0.912062 0.912062
0.952248 0.952248 0.952248
0.977433 0.977433 0.977433
0.987632 0.987632 0.987632
0.992409 0.992409 0.992409
0.890244 0.890244 0.890244
0.889605 0.889605 0.889605
0.895178 0.895178 0.895178
0.908489 0.908489 0.908489
0.932082 0.932082 0.932082
0.958748 0.958748 0.958748
0.978128 0.978128 0.978128
0.987836 0.987836 0.987836
0.992680 0.992680 0.992680
0.955572 0.955572 0.955572
0.955209 0.955209 0.955209
0.956224 0.956224 0.956224
0.959271 0.959271 0.959271
0.967236 0.967236 0.967236
0.975163 0.975163 0.975163
0.983916 0.983916 0.983916
0.990036 0.990036 0.990036
0.993674 0.993674 0.993674
0.983341 0.983341 0.983341
0.983263 0.983263 0.983263
0.983371 0.983371 0.983371
0.983822 0.983822 0.983822
0.985084 0.985084 0.985084
0.987401 0.987401 0.987401
0.990654 0.990654 0.990654
0.993074 0.993074 0.993074
0.995515 0.995515 0.995515
0.986793 0.986793 0.986793
0.989046 0.989046 0.989046
0.988819 0.988819 0.988819
0.990565 0.990565 0.990565
0.992035 0.992035 0.992035
0.993053 0.993053 0.993053
0.994518 0.994518 0.994518
0.996505 0.996505 0.996505
0.997868 0.997868 0.997868
0.486095 0.486095 0.486095
0.499295 0.499295 0.499295
0.572192 0.572192 0.572192
0.777070 0.777070 0.777070
0.949609 0.949609 0.949609
0.989628 0.989628 0.989628
0.993176 0.993176 0.993176
0.994477 0.994477 0.994477
0.994096 0.994096 0.994096
0.526442 0.526442 0.526442
0.540702 0.540702 0.540702
0.618442 0.618442 0.618442
0.804664 0.804664 0.804664
0.954816 0.954816 0.954816
0.988644 0.988644 0.988644
0.992789 0.992789 0.992789
0.994144 0.994144 0.994144
0.993990 0.993990 0.993990
0.729453 0.729453 0.729453
0.744603 0.744603 0.744603
0.797020 0.797020 0.797020
0.892686 0.892686 0.892686
0.971937 0.971937 0.971937
0.985889 0.985889 0.985889
0.991361 0.991361 0.991361
0.993368 0.993368 0.993368
0.992853 0.992853 0.992853
0.909964 0.909964 0.909964
0.909427 0.909427 0.909427
0.915467 0.915467 0.915467
0.935235 0.935235 0.935235
0.964192 0.964192 0.964192
0.982499 0.982499 0.982499
0.988905 0.988905 0.988905
0.992713 0.992713 0.992713
0.994125 0.994125 0.994125
0.909406 0.909406 0.909406
0.909961 0.909961 0.909961
0.918166 0.918166 0.918166
0.935006 0.935006 0.935006
0.958406 0.958406 0.958406
0.977614 0.977614 0.977614
0.986854 0.986854 0.986854
0.992106 0.992106 0.992106
0.993924 0.993924 0.993924
0.930538 0.930538 0.930538
0.930901 0.930901 0.930901
0.936387 0.936387 0.936387
0.949569 0.949569 0.949569
0.963212 0.963212 0.963212
0.977121 0.977121 0.977121
0.986259 0.986259 0.986259
0.991845 0.991845 0.991845
0.994092 0.994092 0.994092
0.963547 0.963547 0.963547
0.963572 0.963572 0.963572
0.965826 0.965826 0.965826
0.971227 0.971227 0.971227
0.975856 0.975856 0.975856
0.982794 0.982794 0.982794
0.987806 0.987806 0.987806
0.992673 0.992673 0.992673
0.994840 0.994840 0.994840
0.982768 0.982768 0.982768
0.982713 0.982713 0.982713
0.983295 0.983295 0.983295
0.984316 0.984316 0.984316
0.986133 0.986133 0.986133
0.988603 0.988603 0.988603
0.991863 0.991863 0.991863
0.994153 0.994153 0.994153
0.996278 0.996278 0.996278
0.985152 0.985152 0.985152
0.988619 0.988619 0.988619
0.988116 0.988116 0.988116
0.987986 0.987986 0.987986
0.992092 0.992092 0.992092
0.993135 0.993135 0.993135
0.994653 0.994653 0.994653
0.996624 0.996624 0.996624
0.997914 0.997914 0.997914
