LUTs/trix_modern/TriX_Green58_Normal.cube
TITLE "Tri-X Green58 Normal"
# Adobe RGB in/out. REPLACES AgX. Tri-X Green58 Normal.
LUT_3D_SIZE 9
DOMAIN_MIN 0.0 0.0 0.0
DOMAIN_MAX 1.0 1.0 1.0
0.093230 0.093230 0.093230
0.093256 0.093256 0.093256
0.096902 0.096902 0.096902
0.126767 0.126767 0.126767
0.181557 0.181557 0.181557
0.226416 0.226416 0.226416
0.239417 0.239417 0.239417
0.150883 0.150883 0.150883
0.302335 0.302335 0.302335
0.113247 0.113247 0.113247
0.097244 0.097244 0.097244
0.107734 0.107734 0.107734
0.154743 0.154743 0.154743
0.211069 0.211069 0.211069
0.251605 0.251605 0.251605
0.262623 0.262623 0.262623
0.148321 0.148321 0.148321
0.299368 0.299368 0.299368
0.378258 0.378258 0.378258
0.318866 0.318866 0.318866
0.231987 0.231987 0.231987
0.251421 0.251421 0.251421
0.294394 0.294394 0.294394
0.331008 0.331008 0.331008
0.344559 0.344559 0.344559
0.151510 0.151510 0.151510
0.289828 0.289828 0.289828
0.604761 0.604761 0.604761
0.560536 0.560536 0.560536
0.467145 0.467145 0.467145
0.399228 0.399228 0.399228
0.398370 0.398370 0.398370
0.427196 0.427196 0.427196
0.450409 0.450409 0.450409
0.442242 0.442242 0.442242
0.276303 0.276303 0.276303
0.775804 0.775804 0.775804
0.750089 0.750089 0.750089
0.683425 0.683425 0.683425
0.605272 0.605272 0.605272
0.552675 0.552675 0.552675
0.543023 0.543023 0.543023
0.560833 0.560833 0.560833
0.567753 0.567753 0.567753
0.517832 0.517832 0.517832
0.870888 0.870888 0.870888
0.858803 0.858803 0.858803
0.825282 0.825282 0.825282
0.781579 0.781579 0.781579
0.728754 0.728754 0.728754
0.693032 0.693032 0.693032
0.681219 0.681219 0.681219
0.689270 0.689270 0.689270
0.670843 0.670843 0.670843
0.927340 0.927340 0.927340
0.921839 0.921839 0.921839
0.904591 0.904591 0.904591
0.879885 0.879885 0.879885
0.845744 0.845744 0.845744
0.818348 0.818348 0.818348
0.801132 0.801132 0.801132
0.793239 0.793239 0.793239
0.789815 0.789815 0.789815
0.959128 0.959128 0.959128
0.957113 0.957113 0.957113
0.948936 0.948936 0.948936
0.935377 0.935377 0.935377
0.915128 0.915128 0.915128
0.897324 0.897324 0.897324
0.884550 0.884550 0.884550
0.877252 0.877252 0.877252
0.871329 0.871329 0.871329
0.952304 0.952304 0.952304
0.951500 0.951500 0.951500
0.957487 0.957487 0.957487
0.953599 0.953599 0.953599
0.950141 0.950141 0.950141
0.942336 0.942336 0.942336
0.932655 0.932655 0.932655
0.926922 0.926922 0.926922
0.926133 0.926133 0.926133
0.093247 0.093247 0.093247
0.093663 0.093663 0.093663
0.102380 0.102380 0.102380
0.140162 0.140162 0.140162
0.189966 0.189966 0.189966
0.229826 0.229826 0.229826
0.241892 0.241892 0.241892
0.149519 0.149519 0.149519
0.300798 0.300798 0.300798
0.103967 0.103967 0.103967
0.097009 0.097009 0.097009
0.116323 0.116323 0.116323
0.168803 0.168803 0.168803
0.218724 0.218724 0.218724
0.254653 0.254653 0.254653
0.264805 0.264805 0.264805
0.146996 0.146996 0.146996
0.297848 0.297848 0.297848
0.344964 0.344964 0.344964
0.292795 0.292795 0.292795
0.215793 0.215793 0.215793
0.252080 0.252080 0.252080
0.297745 0.297745 0.297745
0.331857 0.331857 0.331857
0.344653 0.344653 0.344653
0.153464 0.153464 0.153464
0.288391 0.288391 0.288391
0.574604 0.574604 0.574604
0.535679 0.535679 0.535679
0.450065 0.450065 0.450065
0.389360 0.389360 0.389360
0.395899 0.395899 0.395899
0.426437 0.426437 0.426437
0.449257 0.449257 0.449257
0.441445 0.441445 0.441445
0.275024 0.275024 0.275024
0.756624 0.756624 0.756624
0.732380 0.732380 0.732380
0.670015 0.670015 0.670015
0.594910 0.594910 0.594910
0.546976 0.546976 0.546976
0.540356 0.540356 0.540356
0.559206 0.559206 0.559206
0.566068 0.566068 0.566068
0.517889 0.517889 0.517889
0.861515 0.861515 0.861515
0.850101 0.850101 0.850101
0.817994 0.817994 0.817994
0.775045 0.775045 0.775045
0.723212 0.723212 0.723212
0.689747 0.689747 0.689747
0.679571 0.679571 0.679571
0.687871 0.687871 0.687871
0.669951 0.669951 0.669951
0.923151 0.923151 0.923151
0.917796 0.917796 0.917796
0.901020 0.901020 0.901020
0.876055 0.876055 0.876055
0.842720 0.842720 0.842720
0.816245 0.816245 0.816245
0.799801 0.799801 0.799801
0.792507 0.792507 0.792507
0.789072 0.789072 0.789072
0.957663 0.957663 0.957663
0.955673 0.955673 0.955673
0.947676 0.947676 0.947676
0.933422 0.933422 0.933422
0.913592 0.913592 0.913592
0.896174 0.896174 0.896174
0.883768 0.883768 0.883768
0.876530 0.876530 0.876530
0.870644 0.870644 0.870644
0.953855 0.953855 0.953855
0.953054 0.953054 0.953054
0.958926 0.958926 0.958926
0.954646 0.954646 0.954646
0.949691 0.949691 0.949691
0.941682 0.941682 0.941682
0.932101 0.932101 0.932101
0.926525 0.926525 0.926525
0.925819 0.925819 0.925819
0.095052 0.095052 0.095052
0.102026 0.102026 0.102026
0.125910 0.125910 0.125910
0.176639 0.176639 0.176639
0.219453 0.219453 0.219453
0.253387 0.253387 0.253387
0.259954 0.259954 0.259954
0.153554 0.153554 0.153554
0.297619 0.297619 0.297619
0.148762 0.148762 0.148762
0.157006 0.157006 0.157006
0.160323 0.160323 0.160323
0.201787 0.201787 0.201787
0.245092 0.245092 0.245092
0.275403 0.275403 0.275403
0.279115 0.279115 0.279115
0.153369 0.153369 0.153369
0.294672 0.294672 0.294672
0.294544 0.294544 0.294544
0.260290 0.260290 0.260290
0.204394 0.204394 0.204394
0.257568 0.257568 0.257568
0.308927 0.308927 0.308927
0.343962 0.343962 0.343962
0.353971 0.353971 0.353971
0.221649 0.221649 0.221649
0.285247 0.285247 0.285247
0.519494 0.519494 0.519494
0.489265 0.489265 0.489265
0.417573 0.417573 0.417573
0.365642 0.365642 0.365642
0.392105 0.392105 0.392105
0.431998 0.431998 0.431998
0.454117 0.454117 0.454117
0.444316 0.444316 0.444316
0.272087 0.272087 0.272087
0.716955 0.716955 0.716955
0.697002 0.697002 0.697002
0.639163 0.639163 0.639163
0.572820 0.572820 0.572820
0.532852 0.532852 0.532852
0.538032 0.538032 0.538032
0.560574 0.560574 0.560574
0.565705 0.565705 0.565705
0.520714 0.520714 0.520714
0.839983 0.839983 0.839983
0.830156 0.830156 0.830156
0.801442 0.801442 0.801442
0.758106 0.758106 0.758106
0.711031 0.711031 0.711031
0.682560 0.682560 0.682560
0.678005 0.678005 0.678005
0.686863 0.686863 0.686863
0.668476 0.668476 0.668476
0.910832 0.910832 0.910832
0.906065 0.906065 0.906065
0.891019 0.891019 0.891019
0.865367 0.865367 0.865367
0.834944 0.834944 0.834944
0.811060 0.811060 0.811060
0.796749 0.796749 0.796749
0.791470 0.791470 0.791470
0.787225 0.787225 0.787225
0.950541 0.950541 0.950541
0.948833 0.948833 0.948833
0.942076 0.942076 0.942076
0.926471 0.926471 0.926471
0.908486 0.908486 0.908486
0.892528 0.892528 0.892528
0.881392 0.881392 0.881392
0.874361 0.874361 0.874361
0.868538 0.868538 0.868538
0.952516 0.952516 0.952516
0.960298 0.960298 0.960298
0.957659 0.957659 0.957659
0.953478 0.953478 0.953478
0.947816 0.947816 0.947816
0.939169 0.939169 0.939169
0.929984 0.929984 0.929984
0.924971 0.924971 0.924971
0.924606 0.924606 0.924606
0.117056 0.117056 0.117056
0.153330 0.153330 0.153330
0.189210 0.189210 0.189210
0.242858 0.242858 0.242858
0.275787 0.275787 0.275787
0.289725 0.289725 0.289725
0.290114 0.290114 0.290114
0.226611 0.226611 0.226611
0.295515 0.295515 0.295515
0.197478 0.197478 0.197478
0.222764 0.222764 0.222764
0.252573 0.252573 0.252573
0.275981 0.275981 0.275981
0.291787 0.291787 0.291787
0.305468 0.305468 0.305468
0.305456 0.305456 0.305456
0.241431 0.241431 0.241431
0.292508 0.292508 0.292508
0.324915 0.324915 0.324915
0.313953 0.313953 0.313953
0.295355 0.295355 0.295355
0.305843 0.305843 0.305843
0.337723 0.337723 0.337723
0.365628 0.365628 0.365628
0.372789 0.372789 0.372789
0.343142 0.343142 0.343142
0.282892 0.282892 0.282892
0.478182 0.478182 0.478182
0.457661 0.457661 0.457661
0.400650 0.400650 0.400650
0.357462 0.357462 0.357462
0.397392 0.397392 0.397392
0.439787 0.439787 0.439787
0.462583 0.462583 0.462583
0.454305 0.454305 0.454305
0.269149 0.269149 0.269149
0.676619 0.676619 0.676619
0.659749 0.659749 0.659749
0.608724 0.608724 0.608724
0.549578 0.549578 0.549578
0.514440 0.514440 0.514440
0.533123 0.533123 0.533123
0.560612 0.560612 0.560612
0.567504 0.567504 0.567504
0.529446 0.529446 0.529446
0.815848 0.815848 0.815848
0.807562 0.807562 0.807562
0.782751 0.782751 0.782751
0.737159 0.737159 0.737159
0.694928 0.694928 0.694928
0.671207 0.671207 0.671207
0.674250 0.674250 0.674250
0.684416 0.684416 0.684416
0.669592 0.669592 0.669592
0.896820 0.896820 0.896820
0.892624 0.892624 0.892624
0.879232 0.879232 0.879232
0.852542 0.852542 0.852542
0.825095 0.825095 0.825095
0.803828 0.803828 0.803828
0.792029 0.792029 0.792029
0.789345 0.789345 0.789345
0.785919 0.785919 0.785919
0.944336 0.944336 0.944336
0.942342 0.942342 0.942342
0.933239 0.933239 0.933239
0.918656 0.918656 0.918656
0.902403 0.902403 0.902403
0.888018 0.888018 0.888018
0.877746 0.877746 0.877746
0.871471 0.871471 0.871471
0.866407 0.866407 0.866407
0.954700 0.954700 0.954700
0.958897 0.958897 0.958897
0.956371 0.956371 0.956371
0.953882 0.953882 0.953882
0.944751 0.944751 0.944751
0.935338 0.935338 0.935338
0.927021 0.927021 0.927021
0.922794 0.922794 0.922794
0.923269 0.923269 0.923269
0.184718 0.184718 0.184718
0.217963 0.217963 0.217963
0.271883 0.271883 0.271883
0.307132 0.307132 0.307132
0.341077 0.341077 0.341077
0.340414 0.340414 0.340414
0.332000 0.332000 0.332000
0.285261 0.285261 0.285261
0.295522 0.295522 0.295522
0.254157 0.254157 0.254157
0.279116 0.279116 0.279116
0.312895 0.312895 0.312895
0.345009 0.345009 0.345009
0.355223 0.355223 0.355223
0.354747 0.354747 0.354747
0.346145 0.346145 0.346145
0.298435 0.298435 0.298435
0.292423 0.292423 0.292423
0.417494 0.417494 0.417494
0.414299 0.414299 0.414299
0.401885 0.401885 0.401885
0.391781 0.391781 0.391781
0.395537 0.395537 0.395537
0.408014 0.408014 0.408014
0.406863 0.406863 0.406863
0.378668 0.378668 0.378668
0.282500 0.282500 0.282500
0.491380 0.491380 0.491380
0.480058 0.480058 0.480058
0.450639 0.450639 0.450639
0.430087 0.430087 0.430087
0.441497 0.441497 0.441497
0.468245 0.468245 0.468245
0.484481 0.484481 0.484481
0.474695 0.474695 0.474695
0.354469 0.354469 0.354469
0.647195 0.647195 0.647195
0.633928 0.633928 0.633928
0.594117 0.594117 0.594117
0.542438 0.542438 0.542438
0.508013 0.508013 0.508013
0.539589 0.539589 0.539589
0.569400 0.569400 0.569400
0.577307 0.577307 0.577307
0.544545 0.544545 0.544545
0.795551 0.795551 0.795551
0.788692 0.788692 0.788692
0.763680 0.763680 0.763680
0.721228 0.721228 0.721228
0.681927 0.681927 0.681927
0.659358 0.659358 0.659358
0.672405 0.672405 0.672405
0.685526 0.685526 0.685526
0.675049 0.675049 0.675049
0.884254 0.884254 0.884254
0.880618 0.880618 0.880618
0.865056 0.865056 0.865056
0.841303 0.841303 0.841303
0.816427 0.816427 0.816427
0.797111 0.797111 0.797111
0.787456 0.787456 0.787456
0.787863 0.787863 0.787863
0.786563 0.786563 0.786563
0.936137 0.936137 0.936137
0.933609 0.933609 0.933609
0.924812 0.924812 0.924812
0.911636 0.911636 0.911636
0.896858 0.896858 0.896858
0.883853 0.883853 0.883853
0.873729 0.873729 0.873729
0.869086 0.869086 0.869086
0.865906 0.865906 0.865906
0.953486 0.953486 0.953486
0.953506 0.953506 0.953506
0.952849 0.952849 0.952849
0.948554 0.948554 0.948554
0.941698 0.941698 0.941698
0.932147 0.932147 0.932147
0.924697 0.924697 0.924697
0.921330 0.921330 0.921330
0.923343 0.923343 0.923343
0.270735 0.270735 0.270735
0.284907 0.284907 0.284907
0.338653 0.338653 0.338653
0.370574 0.370574 0.370574
0.409427 0.409427 0.409427
0.406262 0.406262 0.406262
0.386335 0.386335 0.386335
0.336831 0.336831 0.336831
0.297564 0.297564 0.297564
0.310316 0.310316 0.310316
0.324242 0.324242 0.324242
0.373960 0.373960 0.373960
0.403791 0.403791 0.403791
0.435741 0.435741 0.435741
0.418902 0.418902 0.418902
0.399677 0.399677 0.399677
0.350152 0.350152 0.350152
0.294388 0.294388 0.294388
0.477452 0.477452 0.477452
0.483583 0.483583 0.483583
0.506384 0.506384 0.506384
0.485600 0.485600 0.485600
0.471777 0.471777 0.471777
0.463228 0.463228 0.463228
0.451887 0.451887 0.451887
0.421156 0.421156 0.421156
0.284144 0.284144 0.284144
0.550137 0.550137 0.550137
0.544539 0.544539 0.544539
0.531858 0.531858 0.531858
0.516200 0.516200 0.516200
0.512027 0.512027 0.512027
0.516343 0.516343 0.516343
0.520348 0.520348 0.520348
0.505056 0.505056 0.505056
0.399252 0.399252 0.399252
0.651643 0.651643 0.651643
0.642539 0.642539 0.642539
0.616602 0.616602 0.616602
0.583170 0.583170 0.583170
0.565904 0.565904 0.565904
0.575649 0.575649 0.575649
0.594150 0.594150 0.594150
0.597275 0.597275 0.597275
0.565655 0.565655 0.565655
0.783245 0.783245 0.783245
0.777507 0.777507 0.777507
0.753779 0.753779 0.753779
0.717507 0.717507 0.717507
0.681014 0.681014 0.681014
0.654911 0.654911 0.654911
0.679200 0.679200 0.679200
0.693844 0.693844 0.693844
0.685432 0.685432 0.685432
0.873211 0.873211 0.873211
0.868904 0.868904 0.868904
0.855010 0.855010 0.855010
0.833991 0.833991 0.833991
0.811297 0.811297 0.811297
0.792824 0.792824 0.792824
0.784205 0.784205 0.784205
0.788620 0.788620 0.788620
0.789518 0.789518 0.789518
0.928840 0.928840 0.928840
0.926565 0.926565 0.926565
0.918599 0.918599 0.918599
0.906594 0.906594 0.906594
0.893090 0.893090 0.893090
0.881185 0.881185 0.881185
0.871329 0.871329 0.871329
0.868039 0.868039 0.868039
0.867191 0.867191 0.867191
0.951121 0.951121 0.951121
0.951111 0.951111 0.951111
0.950381 0.950381 0.950381
0.946644 0.946644 0.946644
0.939168 0.939168 0.939168
0.930214 0.930214 0.930214
0.923646 0.923646 0.923646
0.921027 0.921027 0.921027
0.924317 0.924317 0.924317
0.340206 0.340206 0.340206
0.348497 0.348497 0.348497
0.404698 0.404698 0.404698
0.433448 0.433448 0.433448
0.467240 0.467240 0.467240
0.475888 0.475888 0.475888
0.443149 0.443149 0.443149
0.388756 0.388756 0.388756
0.300958 0.300958 0.300958
0.374081 0.374081 0.374081
0.382457 0.382457 0.382457
0.434449 0.434449 0.434449
0.460716 0.460716 0.460716
0.493332 0.493332 0.493332
0.485103 0.485103 0.485103
0.454703 0.454703 0.454703
0.401827 0.401827 0.401827
0.297740 0.297740 0.297740
0.521132 0.521132 0.521132
0.525298 0.525298 0.525298
0.550110 0.550110 0.550110
0.567714 0.567714 0.567714
0.544082 0.544082 0.544082
0.523916 0.523916 0.523916
0.500773 0.500773 0.500773
0.463171 0.463171 0.463171
0.287201 0.287201 0.287201
0.627802 0.627802 0.627802
0.623119 0.623119 0.623119
0.613795 0.613795 0.613795
0.596108 0.596108 0.596108
0.582683 0.582683 0.582683
0.573766 0.573766 0.573766
0.562727 0.562727 0.562727
0.539553 0.539553 0.539553
0.462394 0.462394 0.462394
0.686900 0.686900 0.686900
0.681861 0.681861 0.681861
0.668452 0.668452 0.668452
0.647251 0.647251 0.647251
0.633277 0.633277 0.633277
0.630813 0.630813 0.630813
0.631691 0.631691 0.631691
0.625168 0.625168 0.625168
0.589791 0.589791 0.589791
0.784405 0.784405 0.784405
0.780284 0.780284 0.780284
0.763477 0.763477 0.763477
0.736411 0.736411 0.736411
0.710597 0.710597 0.710597
0.699036 0.699036 0.699036
0.704826 0.704826 0.704826
0.711347 0.711347 0.711347
0.699501 0.699501 0.699501
0.866907 0.866907 0.866907
0.863270 0.863270 0.863270
0.851356 0.851356 0.851356
0.833036 0.833036 0.833036
0.812837 0.812837 0.812837
0.795131 0.795131 0.795131
0.782937 0.782937 0.782937
0.793692 0.793692 0.793692
0.794913 0.794913 0.794913
0.924848 0.924848 0.924848
0.922787 0.922787 0.922787
0.915430 0.915430 0.915430
0.904453 0.904453 0.904453
0.892033 0.892033 0.892033
0.880909 0.880909 0.880909
0.871498 0.871498 0.871498
0.868845 0.868845 0.868845
0.870041 0.870041 0.870041
0.948148 0.948148 0.948148
0.948799 0.948799 0.948799
0.948442 0.948442 0.948442
0.946054 0.946054 0.946054
0.938175 0.938175 0.938175
0.929832 0.929832 0.929832
0.923966 0.923966 0.923966
0.922054 0.922054 0.922054
0.926233 0.926233 0.926233
0.411646 0.411646 0.411646
0.415406 0.415406 0.415406
0.451307 0.451307 0.451307
0.479595 0.479595 0.479595
0.511077 0.511077 0.511077
0.530804 0.530804 0.530804
0.488907 0.488907 0.488907
0.423897 0.423897 0.423897
0.315697 0.315697 0.315697
0.439439 0.439439 0.439439
0.443031 0.443031 0.443031
0.477163 0.477163 0.477163
0.504305 0.504305 0.504305
0.534184 0.534184 0.534184
0.538368 0.538368 0.538368
0.499101 0.499101 0.499101
0.436133 0.436133 0.436133
0.315827 0.315827 0.315827
0.570821 0.570821 0.570821
0.572680 0.572680 0.572680
0.591272 0.591272 0.591272
0.609448 0.609448 0.609448
0.607257 0.607257 0.607257
0.578256 0.578256 0.578256
0.545502 0.545502 0.545502
0.494464 0.494464 0.494464
0.340021 0.340021 0.340021
0.698314 0.698314 0.698314
0.693478 0.693478 0.693478
0.683603 0.683603 0.683603
0.665010 0.665010 0.665010
0.644982 0.644982 0.644982
0.626428 0.626428 0.626428
0.604458 0.604458 0.604458
0.568510 0.568510 0.568510
0.487752 0.487752 0.487752
0.735459 0.735459 0.735459
0.731357 0.731357 0.731357
0.721029 0.721029 0.721029
0.705162 0.705162 0.705162
0.691608 0.691608 0.691608
0.682296 0.682296 0.682296
0.672891 0.672891 0.672891
0.652885 0.652885 0.652885
0.607287 0.607287 0.607287
0.798895 0.798895 0.798895
0.795828 0.795828 0.795828
0.786707 0.786707 0.786707
0.770824 0.770824 0.770824
0.753261 0.753261 0.753261
0.743506 0.743506 0.743506
0.739931 0.739931 0.739931
0.733547 0.733547 0.733547
0.712057 0.712057 0.712057
0.868580 0.868580 0.868580
0.865586 0.865586 0.865586
0.855697 0.855697 0.855697
0.840492 0.840492 0.840492
0.823822 0.823822 0.823822
0.810629 0.810629 0.810629
0.805243 0.805243 0.805243
0.806051 0.806051 0.806051
0.801222 0.801222 0.801222
0.925734 0.925734 0.925734
0.923772 0.923772 0.923772
0.916440 0.916440 0.916440
0.906026 0.906026 0.906026
0.894470 0.894470 0.894470
0.884211 0.884211 0.884211
0.876256 0.876256 0.876256
0.869617 0.869617 0.869617
0.873951 0.873951 0.873951
0.944735 0.944735 0.944735
0.947627 0.947627 0.947627
0.946431 0.946431 0.946431
0.945523 0.945523 0.945523
0.939230 0.939230 0.939230
0.931485 0.931485 0.931485
0.926095 0.926095 0.926095
0.924561 0.924561 0.924561
0.928906 0.928906 0.928906
0.403123 0.403123 0.403123
0.408050 0.408050 0.408050
0.427132 0.427132 0.427132
0.457106 0.457106 0.457106
0.490799 0.490799 0.490799
0.517451 0.517451 0.517451
0.467356 0.467356 0.467356
0.361342 0.361342 0.361342
0.322992 0.322992 0.322992
0.427640 0.427640 0.427640
0.432269 0.432269 0.432269
0.450327 0.450327 0.450327
0.480192 0.480192 0.480192
0.513634 0.513634 0.513634
0.527478 0.527478 0.527478
0.478208 0.478208 0.478208
0.371415 0.371415 0.371415
0.325281 0.325281 0.325281
0.541298 0.541298 0.541298
0.545130 0.545130 0.545130
0.559892 0.559892 0.559892
0.584637 0.584637 0.584637
0.604936 0.604936 0.604936
0.575204 0.575204 0.575204
0.531309 0.531309 0.531309
0.434724 0.434724 0.434724
0.314312 0.314312 0.314312
0.722428 0.722428 0.722428
0.718978 0.718978 0.718978
0.708418 0.708418 0.708418
0.693628 0.693628 0.693628
0.675617 0.675617 0.675617
0.651174 0.651174 0.651174
0.615501 0.615501 0.615501
0.548987 0.548987 0.548987
0.448285 0.448285 0.448285
0.771643 0.771643 0.771643
0.768714 0.768714 0.768714
0.759530 0.759530 0.759530
0.746933 0.746933 0.746933
0.733572 0.733572 0.733572
0.718194 0.718194 0.718194
0.696913 0.696913 0.696913
0.654621 0.654621 0.654621
0.548790 0.548790 0.548790
0.817721 0.817721 0.817721
0.815411 0.815411 0.815411
0.808044 0.808044 0.808044
0.798644 0.798644 0.798644
0.789943 0.789943 0.789943
0.782209 0.782209 0.782209
0.771215 0.771215 0.771215
0.746517 0.746517 0.746517
0.682688 0.682688 0.682688
0.876705 0.876705 0.876705
0.874246 0.874246 0.874246
0.866050 0.866050 0.866050
0.854420 0.854420 0.854420
0.843370 0.843370 0.843370
0.835012 0.835012 0.835012
0.828943 0.828943 0.828943
0.819588 0.819588 0.819588
0.790646 0.790646 0.790646
0.925737 0.925737 0.925737
0.924160 0.924160 0.924160
0.918399 0.918399 0.918399
0.909259 0.909259 0.909259
0.899798 0.899798 0.899798
0.892230 0.892230 0.892230
0.887635 0.887635 0.887635
0.884568 0.884568 0.884568
0.869561 0.869561 0.869561
0.939675 0.939675 0.939675
0.945813 0.945813 0.945813
0.944343 0.944343 0.944343
0.941741 0.941741 0.941741
0.942596 0.942596 0.942596
0.935324 0.935324 0.935324
0.930445 0.930445 0.930445
0.929412 0.929412 0.929412
0.932292 0.932292 0.932292
