LUTs/trix_modern/TriX_Red25_Hard.cube
TITLE "Tri-X Red25 Hard"
# Adobe RGB in/out. REPLACES AgX. Tri-X Red25 Hard.
LUT_3D_SIZE 9
DOMAIN_MIN 0.0 0.0 0.0
DOMAIN_MAX 1.0 1.0 1.0
0.093024 0.093024 0.093024
0.093423 0.093423 0.093423
0.153059 0.153059 0.153059
0.704592 0.704592 0.704592
0.983607 0.983607 0.983607
0.998042 0.998042 0.998042
0.999170 0.999170 0.999170
0.999779 0.999779 0.999779
0.999510 0.999510 0.999510
0.093024 0.093024 0.093024
0.093242 0.093242 0.093242
0.167363 0.167363 0.167363
0.712243 0.712243 0.712243
0.976476 0.976476 0.976476
0.997645 0.997645 0.997645
0.999011 0.999011 0.999011
0.999704 0.999704 0.999704
0.999457 0.999457 0.999457
0.093048 0.093048 0.093048
0.093193 0.093193 0.093193
0.097203 0.097203 0.097203
0.459905 0.459905 0.459905
0.940882 0.940882 0.940882
0.993101 0.993101 0.993101
0.998431 0.998431 0.998431
0.999465 0.999465 0.999465
0.999281 0.999281 0.999281
0.093114 0.093114 0.093114
0.093234 0.093234 0.093234
0.095034 0.095034 0.095034
0.205853 0.205853 0.205853
0.785567 0.785567 0.785567
0.983357 0.983357 0.983357
0.996827 0.996827 0.996827
0.998719 0.998719 0.998719
0.999016 0.999016 0.999016
0.093188 0.093188 0.093188
0.093278 0.093278 0.093278
0.094274 0.094274 0.094274
0.135667 0.135667 0.135667
0.531211 0.531211 0.531211
0.940391 0.940391 0.940391
0.992606 0.992606 0.992606
0.998125 0.998125 0.998125
0.998695 0.998695 0.998695
0.093235 0.093235 0.093235
0.093297 0.093297 0.093297
0.093895 0.093895 0.093895
0.105391 0.105391 0.105391
0.360868 0.360868 0.360868
0.855914 0.855914 0.855914
0.985094 0.985094 0.985094
0.996532 0.996532 0.996532
0.998378 0.998378 0.998378
0.093210 0.093210 0.093210
0.093255 0.093255 0.093255
0.093543 0.093543 0.093543
0.097672 0.097672 0.097672
0.228128 0.228128 0.228128
0.735653 0.735653 0.735653
0.973889 0.973889 0.973889
0.994370 0.994370 0.994370
0.998115 0.998115 0.998115
0.093058 0.093058 0.093058
0.093072 0.093072 0.093072
0.093250 0.093250 0.093250
0.094146 0.094146 0.094146
0.127066 0.127066 0.127066
0.514891 0.514891 0.514891
0.943166 0.943166 0.943166
0.993329 0.993329 0.993329
0.997952 0.997952 0.997952
0.093024 0.093024 0.093024
0.093024 0.093024 0.093024
0.093024 0.093024 0.093024
0.093024 0.093024 0.093024
0.093410 0.093410 0.093410
0.201522 0.201522 0.201522
0.842551 0.842551 0.842551
0.991397 0.991397 0.991397
0.997938 0.997938 0.997938
0.093024 0.093024 0.093024
0.093304 0.093304 0.093304
0.101227 0.101227 0.101227
0.539668 0.539668 0.539668
0.978440 0.978440 0.978440
0.997958 0.997958 0.997958
0.999108 0.999108 0.999108
0.999739 0.999739 0.999739
0.999482 0.999482 0.999482
0.093044 0.093044 0.093044
0.093321 0.093321 0.093321
0.108723 0.108723 0.108723
0.520452 0.520452 0.520452
0.969584 0.969584 0.969584
0.997157 0.997157 0.997157
0.998951 0.998951 0.998951
0.999664 0.999664 0.999664
0.999429 0.999429 0.999429
0.093172 0.093172 0.093172
0.093381 0.093381 0.093381
0.099569 0.099569 0.099569
0.422738 0.422738 0.422738
0.914628 0.914628 0.914628
0.992609 0.992609 0.992609
0.998386 0.998386 0.998386
0.999425 0.999425 0.999425
0.999254 0.999254 0.999254
0.093269 0.093269 0.093269
0.093405 0.093405 0.093405
0.097099 0.097099 0.097099
0.241580 0.241580 0.241580
0.785298 0.785298 0.785298
0.981051 0.981051 0.981051
0.996651 0.996651 0.996651
0.998687 0.998687 0.998687
0.998991 0.998991 0.998991
0.093308 0.093308 0.093308
0.093398 0.093398 0.093398
0.095520 0.095520 0.095520
0.162853 0.162853 0.162853
0.575671 0.575671 0.575671
0.941667 0.941667 0.941667
0.992474 0.992474 0.992474
0.998110 0.998110 0.998110
0.998672 0.998672 0.998672
0.093311 0.093311 0.093311
0.093375 0.093375 0.093375
0.094498 0.094498 0.094498
0.116024 0.116024 0.116024
0.404027 0.404027 0.404027
0.870036 0.870036 0.870036
0.985220 0.985220 0.985220
0.996517 0.996517 0.996517
0.998362 0.998362 0.998362
0.093261 0.093261 0.093261
0.093311 0.093311 0.093311
0.093747 0.093747 0.093747
0.099464 0.099464 0.099464
0.254155 0.254155 0.254155
0.760889 0.760889 0.760889
0.975195 0.975195 0.975195
0.994388 0.994388 0.994388
0.998109 0.998109 0.998109
0.093072 0.093072 0.093072
0.093089 0.093089 0.093089
0.093294 0.093294 0.093294
0.094573 0.094573 0.094573
0.137690 0.137690 0.137690
0.542752 0.542752 0.542752
0.948620 0.948620 0.948620
0.993406 0.993406 0.993406
0.997952 0.997952 0.997952
0.093024 0.093024 0.093024
0.093024 0.093024 0.093024
0.093024 0.093024 0.093024
0.093024 0.093024 0.093024
0.093478 0.093478 0.093478
0.215918 0.215918 0.215918
0.850993 0.850993 0.850993
0.991675 0.991675 0.991675
0.997940 0.997940 0.997940
0.093024 0.093024 0.093024
0.093680 0.093680 0.093680
0.112744 0.112744 0.112744
0.565671 0.565671 0.565671
0.975254 0.975254 0.975254
0.997852 0.997852 0.997852
0.999008 0.999008 0.999008
0.999668 0.999668 0.999668
0.999425 0.999425 0.999425
0.093111 0.093111 0.093111
0.093958 0.093958 0.093958
0.128943 0.128943 0.128943
0.499175 0.499175 0.499175
0.960559 0.960559 0.960559
0.996566 0.996566 0.996566
0.998853 0.998853 0.998853
0.999591 0.999591 0.999591
0.999371 0.999371 0.999371
0.093270 0.093270 0.093270
0.093457 0.093457 0.093457
0.099130 0.099130 0.099130
0.341079 0.341079 0.341079
0.880287 0.880287 0.880287
0.991715 0.991715 0.991715
0.998316 0.998316 0.998316
0.999316 0.999316 0.999316
0.999195 0.999195 0.999195
0.093487 0.093487 0.093487
0.093929 0.093929 0.093929
0.100725 0.100725 0.100725
0.248631 0.248631 0.248631
0.759190 0.759190 0.759190
0.976932 0.976932 0.976932
0.996357 0.996357 0.996357
0.998620 0.998620 0.998620
0.998931 0.998931 0.998931
0.093799 0.093799 0.093799
0.094335 0.094335 0.094335
0.100184 0.100184 0.100184
0.227652 0.227652 0.227652
0.635189 0.635189 0.635189
0.943653 0.943653 0.943653
0.992225 0.992225 0.992225
0.998082 0.998082 0.998082
0.998613 0.998613 0.998613
0.093845 0.093845 0.093845
0.094230 0.094230 0.094230
0.098222 0.098222 0.098222
0.174146 0.174146 0.174146
0.523531 0.523531 0.523531
0.898775 0.898775 0.898775
0.985706 0.985706 0.985706
0.996526 0.996526 0.996526
0.998317 0.998317 0.998317
0.093573 0.093573 0.093573
0.093754 0.093754 0.093754
0.095626 0.095626 0.095626
0.121824 0.121824 0.121824
0.368307 0.368307 0.368307
0.827868 0.827868 0.827868
0.979436 0.979436 0.979436
0.994479 0.994479 0.994479
0.998089 0.998089 0.998089
0.093256 0.093256 0.093256
0.093299 0.093299 0.093299
0.093693 0.093693 0.093693
0.097630 0.097630 0.097630
0.205130 0.205130 0.205130
0.665577 0.665577 0.665577
0.963575 0.963575 0.963575
0.993698 0.993698 0.993698
0.997951 0.997951 0.997951
0.093024 0.093024 0.093024
0.093024 0.093024 0.093024
0.093024 0.093024 0.093024
0.093024 0.093024 0.093024
0.094752 0.094752 0.094752
0.290025 0.290025 0.290025
0.884887 0.884887 0.884887
0.992463 0.992463 0.992463
0.997942 0.997942 0.997942
0.093037 0.093037 0.093037
0.093417 0.093417 0.093417
0.152820 0.152820 0.152820
0.653837 0.653837 0.653837
0.979956 0.979956 0.979956
0.997853 0.997853 0.997853
0.998958 0.998958 0.998958
0.999545 0.999545 0.999545
0.999386 0.999386 0.999386
0.093139 0.093139 0.093139
0.093779 0.093779 0.093779
0.203064 0.203064 0.203064
0.641417 0.641417 0.641417
0.970392 0.970392 0.970392
0.996583 0.996583 0.996583
0.998801 0.998801 0.998801
0.999449 0.999449 0.999449
0.999331 0.999331 0.999331
0.093376 0.093376 0.093376
0.093896 0.093896 0.093896
0.124140 0.124140 0.124140
0.424501 0.424501 0.424501
0.892169 0.892169 0.892169
0.991723 0.991723 0.991723
0.998268 0.998268 0.998268
0.999062 0.999062 0.999062
0.999149 0.999149 0.999149
0.093754 0.093754 0.093754
0.094458 0.094458 0.094458
0.102501 0.102501 0.102501
0.233474 0.233474 0.233474
0.730228 0.730228 0.730228
0.975047 0.975047 0.975047
0.996097 0.996097 0.996097
0.998551 0.998551 0.998551
0.998878 0.998878 0.998878
0.094675 0.094675 0.094675
0.095694 0.095694 0.095694
0.107066 0.107066 0.107066
0.251983 0.251983 0.251983
0.618602 0.618602 0.618602
0.934361 0.934361 0.934361
0.991628 0.991628 0.991628
0.998028 0.998028 0.998028
0.998550 0.998550 0.998550
0.095080 0.095080 0.095080
0.096017 0.096017 0.096017
0.105114 0.105114 0.105114
0.226016 0.226016 0.226016
0.584430 0.584430 0.584430
0.904015 0.904015 0.904015
0.985383 0.985383 0.985383
0.996370 0.996370 0.996370
0.998262 0.998262 0.998262
0.094561 0.094561 0.094561
0.095027 0.095027 0.095027
0.099340 0.099340 0.099340
0.166968 0.166968 0.166968
0.470487 0.470487 0.470487
0.866093 0.866093 0.866093
0.981409 0.981409 0.981409
0.994491 0.994491 0.994491
0.998056 0.998056 0.998056
0.093436 0.093436 0.093436
0.093576 0.093576 0.093576
0.094881 0.094881 0.094881
0.106134 0.106134 0.106134
0.286629 0.286629 0.286629
0.761209 0.761209 0.761209
0.972268 0.972268 0.972268
0.993826 0.993826 0.993826
0.997938 0.997938 0.997938
0.093024 0.093024 0.093024
0.093024 0.093024 0.093024
0.093024 0.093024 0.093024
0.093024 0.093024 0.093024
0.100540 0.100540 0.100540
0.412518 0.412518 0.412518
0.920725 0.920725 0.920725
0.993028 0.993028 0.993028
0.997941 0.997941 0.997941
0.093074 0.093074 0.093074
0.093298 0.093298 0.093298
0.183617 0.183617 0.183617
0.707738 0.707738 0.707738
0.985366 0.985366 0.985366
0.997971 0.997971 0.997971
0.998986 0.998986 0.998986
0.999506 0.999506 0.999506
0.999386 0.999386 0.999386
0.093163 0.093163 0.093163
0.093432 0.093432 0.093432
0.212206 0.212206 0.212206
0.754907 0.754907 0.754907
0.979260 0.979260 0.979260
0.997299 0.997299 0.997299
0.998830 0.998830 0.998830
0.999407 0.999407 0.999407
0.999329 0.999329 0.999329
0.093688 0.093688 0.093688
0.095012 0.095012 0.095012
0.188449 0.188449 0.188449
0.603174 0.603174 0.603174
0.931182 0.931182 0.931182
0.992856 0.992856 0.992856
0.998306 0.998306 0.998306
0.999043 0.999043 0.999043
0.999142 0.999142 0.999142
0.094057 0.094057 0.094057
0.095141 0.095141 0.095141
0.115468 0.115468 0.115468
0.346111 0.346111 0.346111
0.792482 0.792482 0.792482
0.978453 0.978453 0.978453
0.996266 0.996266 0.996266
0.998532 0.998532 0.998532
0.998859 0.998859 0.998859
0.095324 0.095324 0.095324
0.096516 0.096516 0.096516
0.113104 0.113104 0.113104
0.259646 0.259646 0.259646
0.588577 0.588577 0.588577
0.930985 0.930985 0.930985
0.991482 0.991482 0.991482
0.997995 0.997995 0.997995
0.998509 0.998509 0.998509
0.096406 0.096406 0.096406
0.097488 0.097488 0.097488
0.116503 0.116503 0.116503
0.255780 0.255780 0.255780
0.601681 0.601681 0.601681
0.895146 0.895146 0.895146
0.984790 0.984790 0.984790
0.996171 0.996171 0.996171
0.998213 0.998213 0.998213
0.095935 0.095935 0.095935
0.096696 0.096696 0.096696
0.105282 0.105282 0.105282
0.207745 0.207745 0.207745
0.529377 0.529377 0.529377
0.880718 0.880718 0.880718
0.981154 0.981154 0.981154
0.994418 0.994418 0.994418
0.998017 0.998017 0.998017
0.093855 0.093855 0.093855
0.094069 0.094069 0.094069
0.096603 0.096603 0.096603
0.127546 0.127546 0.127546
0.358377 0.358377 0.358377
0.808387 0.808387 0.808387
0.975216 0.975216 0.975216
0.993812 0.993812 0.993812
0.997920 0.997920 0.997920
0.093024 0.093024 0.093024
0.093024 0.093024 0.093024
0.093024 0.093024 0.093024
0.093405 0.093405 0.093405
0.113811 0.113811 0.113811
0.488298 0.488298 0.488298
0.937915 0.937915 0.937915
0.993320 0.993320 0.993320
0.997936 0.997936 0.997936
0.093126 0.093126 0.093126
0.093279 0.093279 0.093279
0.194070 0.194070 0.194070
0.736563 0.736563 0.736563
0.986527 0.986527 0.986527
0.998125 0.998125 0.998125
0.999073 0.999073 0.999073
0.999538 0.999538 0.999538
0.999424 0.999424 0.999424
0.093205 0.093205 0.093205
0.093378 0.093378 0.093378
0.209386 0.209386 0.209386
0.763655 0.763655 0.763655
0.986019 0.986019 0.986019
0.997904 0.997904 0.997904
0.998923 0.998923 0.998923
0.999440 0.999440 0.999440
0.999366 0.999366 0.999366
0.093890 0.093890 0.093890
0.095422 0.095422 0.095422
0.258472 0.258472 0.258472
0.753405 0.753405 0.753405
0.964093 0.964093 0.964093
0.994246 0.994246 0.994246
0.998422 0.998422 0.998422
0.999089 0.999089 0.999089
0.999173 0.999173 0.999173
0.094953 0.094953 0.094953
0.096463 0.096463 0.096463
0.151328 0.151328 0.151328
0.487110 0.487110 0.487110
0.871463 0.871463 0.871463
0.984614 0.984614 0.984614
0.997048 0.997048 0.997048
0.998579 0.998579 0.998579
0.998873 0.998873 0.998873
0.096098 0.096098 0.096098
0.097226 0.097226 0.097226
0.126350 0.126350 0.126350
0.316682 0.316682 0.316682
0.712488 0.712488 0.712488
0.950490 0.950490 0.950490
0.992465 0.992465 0.992465
0.998026 0.998026 0.998026
0.998506 0.998506 0.998506
0.097094 0.097094 0.097094
0.098929 0.098929 0.098929
0.125122 0.125122 0.125122
0.273370 0.273370 0.273370
0.610598 0.610598 0.610598
0.883957 0.883957 0.883957
0.984767 0.984767 0.984767
0.996160 0.996160 0.996160
0.998192 0.998192 0.998192
0.096845 0.096845 0.096845
0.098073 0.098073 0.098073
0.113350 0.113350 0.113350
0.232723 0.232723 0.232723
0.558704 0.558704 0.558704
0.882944 0.882944 0.882944
0.979606 0.979606 0.979606
0.994300 0.994300 0.994300
0.997985 0.997985 0.997985
0.094244 0.094244 0.094244
0.094673 0.094673 0.094673
0.098031 0.098031 0.098031
0.144971 0.144971 0.144971
0.403106 0.403106 0.403106
0.826030 0.826030 0.826030
0.976136 0.976136 0.976136
0.993685 0.993685 0.993685
0.997896 0.997896 0.997896
0.093024 0.093024 0.093024
0.093024 0.093024 0.093024
0.093024 0.093024 0.093024
0.093433 0.093433 0.093433
0.123506 0.123506 0.123506
0.520881 0.520881 0.520881
0.945022 0.945022 0.945022
0.993408 0.993408 0.993408
0.997926 0.997926 0.997926
0.093203 0.093203 0.093203
0.093325 0.093325 0.093325
0.160325 0.160325 0.160325
0.749944 0.749944 0.749944
0.986479 0.986479 0.986479
0.998309 0.998309 0.998309
0.999206 0.999206 0.999206
0.999616 0.999616 0.999616
0.999486 0.999486 0.999486
0.093268 0.093268 0.093268
0.093396 0.093396 0.093396
0.173399 0.173399 0.173399
0.767540 0.767540 0.767540
0.986671 0.986671 0.986671
0.998118 0.998118 0.998118
0.999065 0.999065 0.999065
0.999520 0.999520 0.999520
0.999427 0.999427 0.999427
0.093953 0.093953 0.093953
0.095210 0.095210 0.095210
0.227824 0.227824 0.227824
0.822765 0.822765 0.822765
0.977924 0.977924 0.977924
0.995879 0.995879 0.995879
0.998593 0.998593 0.998593
0.999185 0.999185 0.999185
0.999234 0.999234 0.999234
0.096360 0.096360 0.096360
0.098524 0.098524 0.098524
0.188065 0.188065 0.188065
0.612329 0.612329 0.612329
0.924053 0.924053 0.924053
0.988978 0.988978 0.988978
0.997889 0.997889 0.997889
0.998687 0.998687 0.998687
0.998916 0.998916 0.998916
0.097044 0.097044 0.097044
0.099171 0.099171 0.099171
0.145880 0.145880 0.145880
0.409021 0.409021 0.409021
0.813617 0.813617 0.813617
0.971164 0.971164 0.971164
0.993718 0.993718 0.993718
0.998131 0.998131 0.998131
0.998545 0.998545 0.998545
0.098142 0.098142 0.098142
0.099977 0.099977 0.099977
0.132700 0.132700 0.132700
0.306427 0.306427 0.306427
0.675226 0.675226 0.675226
0.923038 0.923038 0.923038
0.986886 0.986886 0.986886
0.996615 0.996615 0.996615
0.998212 0.998212 0.998212
0.097183 0.097183 0.097183
0.098813 0.098813 0.098813
0.118023 0.118023 0.118023
0.245792 0.245792 0.245792
0.577333 0.577333 0.577333
0.884964 0.884964 0.884964
0.977336 0.977336 0.977336
0.994355 0.994355 0.994355
0.997979 0.997979 0.997979
0.094269 0.094269 0.094269
0.094711 0.094711 0.094711
0.098392 0.098392 0.098392
0.150036 0.150036 0.150036
0.418264 0.418264 0.418264
0.831086 0.831086 0.831086
0.975746 0.975746 0.975746
0.993467 0.993467 0.993467
0.997878 0.997878 0.997878
0.093024 0.093024 0.093024
0.093024 0.093024 0.093024
0.093024 0.093024 0.093024
0.093265 0.093265 0.093265
0.115403 0.115403 0.115403
0.506406 0.506406 0.506406
0.942179 0.942179 0.942179
0.993298 0.993298 0.993298
0.997918 0.997918 0.997918
0.093327 0.093327 0.093327
0.093421 0.093421 0.093421
0.178345 0.178345 0.178345
0.763141 0.763141 0.763141
0.987773 0.987773 0.987773
0.998567 0.998567 0.998567
0.999398 0.999398 0.999398
0.999748 0.999748 0.999748
0.999555 0.999555 0.999555
0.093381 0.093381 0.093381
0.093569 0.093569 0.093569
0.194469 0.194469 0.194469
0.778436 0.778436 0.778436
0.987923 0.987923 0.987923
0.998396 0.998396 0.998396
0.999270 0.999270 0.999270
0.999657 0.999657 0.999657
0.999498 0.999498 0.999498
0.094795 0.094795 0.094795
0.096241 0.096241 0.096241
0.275731 0.275731 0.275731
0.833931 0.833931 0.833931
0.985549 0.985549 0.985549
0.997821 0.997821 0.997821
0.998831 0.998831 0.998831
0.999340 0.999340 0.999340
0.999307 0.999307 0.999307
0.099152 0.099152 0.099152
0.103432 0.103432 0.103432
0.273456 0.273456 0.273456
0.735044 0.735044 0.735044
0.958098 0.958098 0.958098
0.993049 0.993049 0.993049
0.998180 0.998180 0.998180
0.998862 0.998862 0.998862
0.998989 0.998989 0.998989
0.099636 0.099636 0.099636
0.103208 0.103208 0.103208
0.194369 0.194369 0.194369
0.522562 0.522562 0.522562
0.879421 0.879421 0.879421
0.982797 0.982797 0.982797
0.995564 0.995564 0.995564
0.998317 0.998317 0.998317
0.998620 0.998620 0.998620
0.099456 0.099456 0.099456
0.101760 0.101760 0.101760
0.153622 0.153622 0.153622
0.371419 0.371419 0.371419
0.768893 0.768893 0.768893
0.954107 0.954107 0.954107
0.990671 0.990671 0.990671
0.997700 0.997700 0.997700
0.998276 0.998276 0.998276
0.097399 0.097399 0.097399
0.099002 0.099002 0.099002
0.123148 0.123148 0.123148
0.263218 0.263218 0.263218
0.621763 0.621763 0.621763
0.906874 0.906874 0.906874
0.983719 0.983719 0.983719
0.995134 0.995134 0.995134
0.998019 0.998019 0.998019
0.093840 0.093840 0.093840
0.094081 0.094081 0.094081
0.097108 0.097108 0.097108
0.143337 0.143337 0.143337
0.413246 0.413246 0.413246
0.832150 0.832150 0.832150
0.975495 0.975495 0.975495
0.993074 0.993074 0.993074
0.997881 0.997881 0.997881
0.093024 0.093024 0.093024
0.093024 0.093024 0.093024
0.093024 0.093024 0.093024
0.093024 0.093024 0.093024
0.099491 0.099491 0.099491
0.433355 0.433355 0.433355
0.926746 0.926746 0.926746
0.992937 0.992937 0.992937
0.997913 0.997913 0.997913
0.096815 0.096815 0.096815
0.098653 0.098653 0.098653
0.165405 0.165405 0.165405
0.805075 0.805075 0.805075
0.994724 0.994724 0.994724
0.999297 0.999297 0.999297
0.999899 0.999899 0.999899
0.999999 0.999999 0.999999
0.999617 0.999617 0.999617
0.097977 0.097977 0.097977
0.100257 0.100257 0.100257
0.184428 0.184428 0.184428
0.817109 0.817109 0.817109
0.994724 0.994724 0.994724
0.999160 0.999160 0.999160
0.999788 0.999788 0.999788
0.999919 0.999919 0.999919
0.999561 0.999561 0.999561
0.115803 0.115803 0.115803
0.132088 0.132088 0.132088
0.296619 0.296619 0.296619
0.869491 0.869491 0.869491
0.994365 0.994365 0.994365
0.998670 0.998670 0.998670
0.999408 0.999408 0.999408
0.999641 0.999641 0.999641
0.999375 0.999375 0.999375
0.204539 0.204539 0.204539
0.236399 0.236399 0.236399
0.448275 0.448275 0.448275
0.856879 0.856879 0.856879
0.986462 0.986462 0.986462
0.997922 0.997922 0.997922
0.998818 0.998818 0.998818
0.999198 0.999198 0.999198
0.999080 0.999080 0.999080
0.173511 0.173511 0.173511
0.199493 0.199493 0.199493
0.369529 0.369529 0.369529
0.755533 0.755533 0.755533
0.961343 0.961343 0.961343
0.993454 0.993454 0.993454
0.998147 0.998147 0.998147
0.998699 0.998699 0.998699
0.998732 0.998732 0.998732
0.134249 0.134249 0.134249
0.151548 0.151548 0.151548
0.274333 0.274333 0.274333
0.606848 0.606848 0.606848
0.893472 0.893472 0.893472
0.984593 0.984593 0.984593
0.995812 0.995812 0.995812
0.998219 0.998219 0.998219
0.998394 0.998394 0.998394
0.102544 0.102544 0.102544
0.107681 0.107681 0.107681
0.171158 0.171158 0.171158
0.437442 0.437442 0.437442
0.802937 0.802937 0.802937
0.960836 0.960836 0.960836
0.992138 0.992138 0.992138
0.997758 0.997758 0.997758
0.998129 0.998129 0.998129
0.093705 0.093705 0.093705
0.093882 0.093882 0.093882
0.096633 0.096633 0.096633
0.168478 0.168478 0.168478
0.540852 0.540852 0.540852
0.895345 0.895345 0.895345
0.983678 0.983678 0.983678
0.995449 0.995449 0.995449
0.997966 0.997966 0.997966
0.093024 0.093024 0.093024
0.093024 0.093024 0.093024
0.093024 0.093024 0.093024
0.093024 0.093024 0.093024
0.093305 0.093305 0.093305
0.278055 0.278055 0.278055
0.899906 0.899906 0.899906
0.992061 0.992061 0.992061
0.997914 0.997914 0.997914
