LUTs/trix_modern/TriX_Blue47_Punchy.cube
TITLE "Tri-X Blue47 Punchy"
# Adobe RGB in/out. REPLACES AgX. Tri-X Blue47 Punchy.
LUT_3D_SIZE 33
DOMAIN_MIN 0.0 0.0 0.0
DOMAIN_MAX 1.0 1.0 1.0
0.091936 0.091936 0.091936
0.091936 0.091936 0.091936
0.091936 0.091936 0.091936
0.091936 0.091936 0.091936
0.091936 0.091936 0.091936
0.091936 0.091936 0.091936
0.091939 0.091939 0.091939
0.091950 0.091950 0.091950
0.091956 0.091956 0.091956
0.091964 0.091964 0.091964
0.091987 0.091987 0.091987
0.092006 0.092006 0.092006
0.092021 0.092021 0.092021
0.092045 0.092045 0.092045
0.092157 0.092157 0.092157
0.092673 0.092673 0.092673
0.093145 0.093145 0.093145
0.093708 0.093708 0.093708
0.095337 0.095337 0.095337
0.096470 0.096470 0.096470
0.097757 0.097757 0.097757
0.099642 0.099642 0.099642
0.102274 0.102274 0.102274
0.104635 0.104635 0.104635
0.108789 0.108789 0.108789
0.115816 0.115816 0.115816
0.126688 0.126688 0.126688
0.179179 0.179179 0.179179
0.475900 0.475900 0.475900
0.469489 0.469489 0.469489
0.463238 0.463238 0.463238
0.457080 0.457080 0.457080
0.698909 0.698909 0.698909
0.091936 0.091936 0.091936
0.091936 0.091936 0.091936
0.091936 0.091936 0.091936
0.091936 0.091936 0.091936
0.091936 0.091936 0.091936
0.091936 0.091936 0.091936
0.091939 0.091939 0.091939
0.091951 0.091951 0.091951
0.091956 0.091956 0.091956
0.091964 0.091964 0.091964
0.091987 0.091987 0.091987
0.092006 0.092006 0.092006
0.092021 0.092021 0.092021
0.092044 0.092044 0.092044
0.092152 0.092152 0.092152
0.092668 0.092668 0.092668
0.093140 0.093140 0.093140
0.093703 0.093703 0.093703
0.095323 0.095323 0.095323
0.096455 0.096455 0.096455
0.097740 0.097740 0.097740
0.099613 0.099613 0.099613
0.102239 0.102239 0.102239
0.104576 0.104576 0.104576
0.108680 0.108680 0.108680
0.115592 0.115592 0.115592
0.126207 0.126207 0.126207
0.176810 0.176810 0.176810
0.475556 0.475556 0.475556
0.469178 0.469178 0.469178
0.462956 0.462956 0.462956
0.456824 0.456824 0.456824
0.698591 0.698591 0.698591
0.091936 0.091936 0.091936
0.091936 0.091936 0.091936
0.091936 0.091936 0.091936
0.091936 0.091936 0.091936
0.091936 0.091936 0.091936
0.091936 0.091936 0.091936
0.091939 0.091939 0.091939
0.091951 0.091951 0.091951
0.091956 0.091956 0.091956
0.091964 0.091964 0.091964
0.091987 0.091987 0.091987
0.092005 0.092005 0.092005
0.092020 0.092020 0.092020
0.092044 0.092044 0.092044
0.092137 0.092137 0.092137
0.092653 0.092653 0.092653
0.093126 0.093126 0.093126
0.093688 0.093688 0.093688
0.095277 0.095277 0.095277
0.096404 0.096404 0.096404
0.097685 0.097685 0.097685
0.099510 0.099510 0.099510
0.102119 0.102119 0.102119
0.104370 0.104370 0.104370
0.108313 0.108313 0.108313
0.115026 0.115026 0.115026
0.124652 0.124652 0.124652
0.169620 0.169620 0.169620
0.474331 0.474331 0.474331
0.468066 0.468066 0.468066
0.461949 0.461949 0.461949
0.455909 0.455909 0.455909
0.697456 0.697456 0.697456
0.091936 0.091936 0.091936
0.091936 0.091936 0.091936
0.091936 0.091936 0.091936
0.091936 0.091936 0.091936
0.091936 0.091936 0.091936
0.091936 0.091936 0.091936
0.091939 0.091939 0.091939
0.091951 0.091951 0.091951
0.091957 0.091957 0.091957
0.091965 0.091965 0.091965
0.091987 0.091987 0.091987
0.092005 0.092005 0.092005
0.092020 0.092020 0.092020
0.092044 0.092044 0.092044
0.092123 0.092123 0.092123
0.092637 0.092637 0.092637
0.093107 0.093107 0.093107
0.093667 0.093667 0.093667
0.095208 0.095208 0.095208
0.096324 0.096324 0.096324
0.097594 0.097594 0.097594
0.099340 0.099340 0.099340
0.101916 0.101916 0.101916
0.104023 0.104023 0.104023
0.107844 0.107844 0.107844
0.114090 0.114090 0.114090
0.122191 0.122191 0.122191
0.158168 0.158168 0.158168
0.472116 0.472116 0.472116
0.466053 0.466053 0.466053
0.460122 0.460122 0.460122
0.454248 0.454248 0.454248
0.695394 0.695394 0.695394
0.091936 0.091936 0.091936
0.091936 0.091936 0.091936
0.091936 0.091936 0.091936
0.091936 0.091936 0.091936
0.091936 0.091936 0.091936
0.091936 0.091936 0.091936
0.091939 0.091939 0.091939
0.091951 0.091951 0.091951
0.091958 0.091958 0.091958
0.091966 0.091966 0.091966
0.091989 0.091989 0.091989
0.092007 0.092007 0.092007
0.092021 0.092021 0.092021
0.092044 0.092044 0.092044
0.092134 0.092134 0.092134
0.092636 0.092636 0.092636
0.093098 0.093098 0.093098
0.093651 0.093651 0.093651
0.095141 0.095141 0.095141
0.096236 0.096236 0.096236
0.097488 0.097488 0.097488
0.099129 0.099129 0.099129
0.101657 0.101657 0.101657
0.103702 0.103702 0.103702
0.107231 0.107231 0.107231
0.112874 0.112874 0.112874
0.119210 0.119210 0.119210
0.144914 0.144914 0.144914
0.468894 0.468894 0.468894
0.463115 0.463115 0.463115
0.457452 0.457452 0.457452
0.451817 0.451817 0.451817
0.692371 0.692371 0.692371
0.091936 0.091936 0.091936
0.091936 0.091936 0.091936
0.091936 0.091936 0.091936
0.091937 0.091937 0.091937
0.091936 0.091936 0.091936
0.091937 0.091937 0.091937
0.091942 0.091942 0.091942
0.091954 0.091954 0.091954
0.091959 0.091959 0.091959
0.091967 0.091967 0.091967
0.091990 0.091990 0.091990
0.092009 0.092009 0.092009
0.092023 0.092023 0.092023
0.092046 0.092046 0.092046
0.092160 0.092160 0.092160
0.092652 0.092652 0.092652
0.093108 0.093108 0.093108
0.093656 0.093656 0.093656
0.095117 0.095117 0.095117
0.096179 0.096179 0.096179
0.097400 0.097400 0.097400
0.098927 0.098927 0.098927
0.101390 0.101390 0.101390
0.103361 0.103361 0.103361
0.106560 0.106560 0.106560
0.111550 0.111550 0.111550
0.116269 0.116269 0.116269
0.132756 0.132756 0.132756
0.464712 0.464712 0.464712
0.459280 0.459280 0.459280
0.453958 0.453958 0.453958
0.448629 0.448629 0.448629
0.688397 0.688397 0.688397
0.091948 0.091948 0.091948
0.091949 0.091949 0.091949
0.091950 0.091950 0.091950
0.091950 0.091950 0.091950
0.091950 0.091950 0.091950
0.091950 0.091950 0.091950
0.091951 0.091951 0.091951
0.091958 0.091958 0.091958
0.091962 0.091962 0.091962
0.091971 0.091971 0.091971
0.091994 0.091994 0.091994
0.092012 0.092012 0.092012
0.092025 0.092025 0.092025
0.092048 0.092048 0.092048
0.092219 0.092219 0.092219
0.092710 0.092710 0.092710
0.093137 0.093137 0.093137
0.093663 0.093663 0.093663
0.095110 0.095110 0.095110
0.096160 0.096160 0.096160
0.097366 0.097366 0.097366
0.098809 0.098809 0.098809
0.101188 0.101188 0.101188
0.103077 0.103077 0.103077
0.105956 0.105956 0.105956
0.110341 0.110341 0.110341
0.114415 0.114415 0.114415
0.125430 0.125430 0.125430
0.459690 0.459690 0.459690
0.454620 0.454620 0.454620
0.449698 0.449698 0.449698
0.444731 0.444731 0.444731
0.683520 0.683520 0.683520
0.091963 0.091963 0.091963
0.091964 0.091964 0.091964
0.091966 0.091966 0.091966
0.091966 0.091966 0.091966
0.091965 0.091965 0.091965
0.091966 0.091966 0.091966
0.091966 0.091966 0.091966
0.091968 0.091968 0.091968
0.091966 0.091966 0.091966
0.091977 0.091977 0.091977
0.092001 0.092001 0.092001
0.092017 0.092017 0.092017
0.092030 0.092030 0.092030
0.092052 0.092052 0.092052
0.092296 0.092296 0.092296
0.092759 0.092759 0.092759
0.093185 0.093185 0.093185
0.093707 0.093707 0.093707
0.095186 0.095186 0.095186
0.096185 0.096185 0.096185
0.097346 0.097346 0.097346
0.098737 0.098737 0.098737
0.101062 0.101062 0.101062
0.102905 0.102905 0.102905
0.105585 0.105585 0.105585
0.109522 0.109522 0.109522
0.113673 0.113673 0.113673
0.121868 0.121868 0.121868
0.454137 0.454137 0.454137
0.449253 0.449253 0.449253
0.444761 0.444761 0.444761
0.440193 0.440193 0.440193
0.677817 0.677817 0.677817
0.091974 0.091974 0.091974
0.091975 0.091975 0.091975
0.091977 0.091977 0.091977
0.091978 0.091978 0.091978
0.091978 0.091978 0.091978
0.091978 0.091978 0.091978
0.091978 0.091978 0.091978
0.091979 0.091979 0.091979
0.091982 0.091982 0.091982
0.091986 0.091986 0.091986
0.092009 0.092009 0.092009
0.092023 0.092023 0.092023
0.092037 0.092037 0.092037
0.092057 0.092057 0.092057
0.092418 0.092418 0.092418
0.092855 0.092855 0.092855
0.093259 0.093259 0.093259
0.093763 0.093763 0.093763
0.095301 0.095301 0.095301
0.096289 0.096289 0.096289
0.097438 0.097438 0.097438
0.098774 0.098774 0.098774
0.101013 0.101013 0.101013
0.102759 0.102759 0.102759
0.105222 0.105222 0.105222
0.108878 0.108878 0.108878
0.113421 0.113421 0.113421
0.121536 0.121536 0.121536
0.451688 0.451688 0.451688
0.443636 0.443636 0.443636
0.439330 0.439330 0.439330
0.435126 0.435126 0.435126
0.671389 0.671389 0.671389
0.091994 0.091994 0.091994
0.091994 0.091994 0.091994
0.091995 0.091995 0.091995
0.091997 0.091997 0.091997
0.091997 0.091997 0.091997
0.091997 0.091997 0.091997
0.091997 0.091997 0.091997
0.091998 0.091998 0.091998
0.092001 0.092001 0.092001
0.092005 0.092005 0.092005
0.092022 0.092022 0.092022
0.092033 0.092033 0.092033
0.092045 0.092045 0.092045
0.092064 0.092064 0.092064
0.092576 0.092576 0.092576
0.092979 0.092979 0.092979
0.093363 0.093363 0.093363
0.093845 0.093845 0.093845
0.095505 0.095505 0.095505
0.096464 0.096464 0.096464
0.097532 0.097532 0.097532
0.098898 0.098898 0.098898
0.101107 0.101107 0.101107
0.102766 0.102766 0.102766
0.105039 0.105039 0.105039
0.108329 0.108329 0.108329
0.112480 0.112480 0.112480
0.119166 0.119166 0.119166
0.129112 0.129112 0.129112
0.162018 0.162018 0.162018
0.399512 0.399512 0.399512
0.435250 0.435250 0.435250
0.664356 0.664356 0.664356
0.092030 0.092030 0.092030
0.092030 0.092030 0.092030
0.092030 0.092030 0.092030
0.092032 0.092032 0.092032
0.092033 0.092033 0.092033
0.092033 0.092033 0.092033
0.092034 0.092034 0.092034
0.092035 0.092035 0.092035
0.092037 0.092037 0.092037
0.092040 0.092040 0.092040
0.092045 0.092045 0.092045
0.092049 0.092049 0.092049
0.092055 0.092055 0.092055
0.092072 0.092072 0.092072
0.092768 0.092768 0.092768
0.093142 0.093142 0.093142
0.093490 0.093490 0.093490
0.094098 0.094098 0.094098
0.095767 0.095767 0.095767
0.096681 0.096681 0.096681
0.097726 0.097726 0.097726
0.099153 0.099153 0.099153
0.101237 0.101237 0.101237
0.102831 0.102831 0.102831
0.105049 0.105049 0.105049
0.108187 0.108187 0.108187
0.111932 0.111932 0.111932
0.117468 0.117468 0.117468
0.125648 0.125648 0.125648
0.145462 0.145462 0.145462
0.318447 0.318447 0.318447
0.446513 0.446513 0.446513
0.449042 0.449042 0.449042
0.092054 0.092054 0.092054
0.092054 0.092054 0.092054
0.092054 0.092054 0.092054
0.092055 0.092055 0.092055
0.092056 0.092056 0.092056
0.092057 0.092057 0.092057
0.092058 0.092058 0.092058
0.092059 0.092059 0.092059
0.092060 0.092060 0.092060
0.092063 0.092063 0.092063
0.092066 0.092066 0.092066
0.092071 0.092071 0.092071
0.092071 0.092071 0.092071
0.092312 0.092312 0.092312
0.092994 0.092994 0.092994
0.093327 0.093327 0.093327
0.093657 0.093657 0.093657
0.094506 0.094506 0.094506
0.096065 0.096065 0.096065
0.096954 0.096954 0.096954
0.097993 0.097993 0.097993
0.099466 0.099466 0.099466
0.101509 0.101509 0.101509
0.103058 0.103058 0.103058
0.105197 0.105197 0.105197
0.108160 0.108160 0.108160
0.111678 0.111678 0.111678
0.116593 0.116593 0.116593
0.124208 0.124208 0.124208
0.137346 0.137346 0.137346
0.218569 0.218569 0.218569
0.440148 0.440148 0.440148
0.448605 0.448605 0.448605
0.092071 0.092071 0.092071
0.092071 0.092071 0.092071
0.092071 0.092071 0.092071
0.092072 0.092072 0.092072
0.092085 0.092085 0.092085
0.092126 0.092126 0.092126
0.092156 0.092156 0.092156
0.092196 0.092196 0.092196
0.092232 0.092232 0.092232
0.092281 0.092281 0.092281
0.092356 0.092356 0.092356
0.092450 0.092450 0.092450
0.092592 0.092592 0.092592
0.092784 0.092784 0.092784
0.093253 0.093253 0.093253
0.093551 0.093551 0.093551
0.093842 0.093842 0.093842
0.094982 0.094982 0.094982
0.096536 0.096536 0.096536
0.097319 0.097319 0.097319
0.098268 0.098268 0.098268
0.099895 0.099895 0.099895
0.101904 0.101904 0.101904
0.103317 0.103317 0.103317
0.105511 0.105511 0.105511
0.108435 0.108435 0.108435
0.111652 0.111652 0.111652
0.115913 0.115913 0.115913
0.122940 0.122940 0.122940
0.134137 0.134137 0.134137
0.159891 0.159891 0.159891
0.433680 0.433680 0.433680
0.450305 0.450305 0.450305
0.092647 0.092647 0.092647
0.092646 0.092646 0.092646
0.092645 0.092645 0.092645
0.092668 0.092668 0.092668
0.092731 0.092731 0.092731
0.092767 0.092767 0.092767
0.092798 0.092798 0.092798
0.092842 0.092842 0.092842
0.092888 0.092888 0.092888
0.092929 0.092929 0.092929
0.092981 0.092981 0.092981
0.093068 0.093068 0.093068
0.093162 0.093162 0.093162
0.093299 0.093299 0.093299
0.093715 0.093715 0.093715
0.093822 0.093822 0.093822
0.094412 0.094412 0.094412
0.095480 0.095480 0.095480
0.097004 0.097004 0.097004
0.097775 0.097775 0.097775
0.098663 0.098663 0.098663
0.100420 0.100420 0.100420
0.102327 0.102327 0.102327
0.103709 0.103709 0.103709
0.105962 0.105962 0.105962
0.108779 0.108779 0.108779
0.111881 0.111881 0.111881
0.115853 0.115853 0.115853
0.122062 0.122062 0.122062
0.130731 0.130731 0.130731
0.149086 0.149086 0.149086
0.229443 0.229443 0.229443
0.453620 0.453620 0.453620
0.093437 0.093437 0.093437
0.093436 0.093436 0.093436
0.093438 0.093438 0.093438
0.093459 0.093459 0.093459
0.093533 0.093533 0.093533
0.093565 0.093565 0.093565
0.093616 0.093616 0.093616
0.093651 0.093651 0.093651
0.093700 0.093700 0.093700
0.093746 0.093746 0.093746
0.093807 0.093807 0.093807
0.093866 0.093866 0.093866
0.094114 0.094114 0.094114
0.094386 0.094386 0.094386
0.094755 0.094755 0.094755
0.094946 0.094946 0.094946
0.095201 0.095201 0.095201
0.096088 0.096088 0.096088
0.097548 0.097548 0.097548
0.098243 0.098243 0.098243
0.099323 0.099323 0.099323
0.101074 0.101074 0.101074
0.102869 0.102869 0.102869
0.104260 0.104260 0.104260
0.106485 0.106485 0.106485
0.109416 0.109416 0.109416
0.112321 0.112321 0.112321
0.116001 0.116001 0.116001
0.121774 0.121774 0.121774
0.129386 0.129386 0.129386
0.143513 0.143513 0.143513
0.182515 0.182515 0.182515
0.436004 0.436004 0.436004
0.093859 0.093859 0.093859
0.093858 0.093858 0.093858
0.093860 0.093860 0.093860
0.093897 0.093897 0.093897
0.094054 0.094054 0.094054
0.094194 0.094194 0.094194
0.094396 0.094396 0.094396
0.094463 0.094463 0.094463
0.094585 0.094585 0.094585
0.094762 0.094762 0.094762
0.094879 0.094879 0.094879
0.095047 0.095047 0.095047
0.095258 0.095258 0.095258
0.095506 0.095506 0.095506
0.095789 0.095789 0.095789
0.096162 0.096162 0.096162
0.096343 0.096343 0.096343
0.096935 0.096935 0.096935
0.098160 0.098160 0.098160
0.098839 0.098839 0.098839
0.100095 0.100095 0.100095
0.101786 0.101786 0.101786
0.103510 0.103510 0.103510
0.105029 0.105029 0.105029
0.107167 0.107167 0.107167
0.110201 0.110201 0.110201
0.112892 0.112892 0.112892
0.116638 0.116638 0.116638
0.121891 0.121891 0.121891
0.128428 0.128428 0.128428
0.140578 0.140578 0.140578
0.167759 0.167759 0.167759
0.366240 0.366240 0.366240
0.094929 0.094929 0.094929
0.094928 0.094928 0.094928
0.094931 0.094931 0.094931
0.094964 0.094964 0.094964
0.095083 0.095083 0.095083
0.095263 0.095263 0.095263
0.095390 0.095390 0.095390
0.095527 0.095527 0.095527
0.095662 0.095662 0.095662
0.095807 0.095807 0.095807
0.095973 0.095973 0.095973
0.096139 0.096139 0.096139
0.096320 0.096320 0.096320
0.096566 0.096566 0.096566
0.096832 0.096832 0.096832
0.097137 0.097137 0.097137
0.097516 0.097516 0.097516
0.098044 0.098044 0.098044
0.099179 0.099179 0.099179
0.099768 0.099768 0.099768
0.100979 0.100979 0.100979
0.102572 0.102572 0.102572
0.104318 0.104318 0.104318
0.105925 0.105925 0.105925
0.107980 0.107980 0.107980
0.111113 0.111113 0.111113
0.113698 0.113698 0.113698
0.117393 0.117393 0.117393
0.122318 0.122318 0.122318
0.128297 0.128297 0.128297
0.138341 0.138341 0.138341
0.158282 0.158282 0.158282
0.253498 0.253498 0.253498
0.096246 0.096246 0.096246
0.096245 0.096245 0.096245
0.096248 0.096248 0.096248
0.096275 0.096275 0.096275
0.096373 0.096373 0.096373
0.096605 0.096605 0.096605
0.096686 0.096686 0.096686
0.096888 0.096888 0.096888
0.097034 0.097034 0.097034
0.097165 0.097165 0.097165
0.097346 0.097346 0.097346
0.097519 0.097519 0.097519
0.097729 0.097729 0.097729
0.097908 0.097908 0.097908
0.098174 0.098174 0.098174
0.098446 0.098446 0.098446
0.098751 0.098751 0.098751
0.099370 0.099370 0.099370
0.100880 0.100880 0.100880
0.101184 0.101184 0.101184
0.101885 0.101885 0.101885
0.103421 0.103421 0.103421
0.105429 0.105429 0.105429
0.106929 0.106929 0.106929
0.109110 0.109110 0.109110
0.112219 0.112219 0.112219
0.114639 0.114639 0.114639
0.118439 0.118439 0.118439
0.123150 0.123150 0.123150
0.128471 0.128471 0.128471
0.137401 0.137401 0.137401
0.153762 0.153762 0.153762
0.207275 0.207275 0.207275
0.097888 0.097888 0.097888
0.097888 0.097888 0.097888
0.097891 0.097891 0.097891
0.097916 0.097916 0.097916
0.097996 0.097996 0.097996
0.098194 0.098194 0.098194
0.098319 0.098319 0.098319
0.098511 0.098511 0.098511
0.098667 0.098667 0.098667
0.098916 0.098916 0.098916
0.099171 0.099171 0.099171
0.099508 0.099508 0.099508
0.099803 0.099803 0.099803
0.100135 0.100135 0.100135
0.100472 0.100472 0.100472
0.100945 0.100945 0.100945
0.101414 0.101414 0.101414
0.101905 0.101905 0.101905
0.102542 0.102542 0.102542
0.102766 0.102766 0.102766
0.103308 0.103308 0.103308
0.104435 0.104435 0.104435
0.106593 0.106593 0.106593
0.108013 0.108013 0.108013
0.110446 0.110446 0.110446
0.113462 0.113462 0.113462
0.115758 0.115758 0.115758
0.119774 0.119774 0.119774
0.124043 0.124043 0.124043
0.129108 0.129108 0.129108
0.137291 0.137291 0.137291
0.150621 0.150621 0.150621
0.186852 0.186852 0.186852
0.098747 0.098747 0.098747
0.098747 0.098747 0.098747
0.098750 0.098750 0.098750
0.098781 0.098781 0.098781
0.098890 0.098890 0.098890
0.099154 0.099154 0.099154
0.099441 0.099441 0.099441
0.099661 0.099661 0.099661
0.099982 0.099982 0.099982
0.100296 0.100296 0.100296
0.100529 0.100529 0.100529
0.100831 0.100831 0.100831
0.101156 0.101156 0.101156
0.101487 0.101487 0.101487
0.101853 0.101853 0.101853
0.102221 0.102221 0.102221
0.102692 0.102692 0.102692
0.103188 0.103188 0.103188
0.103685 0.103685 0.103685
0.104426 0.104426 0.104426
0.105084 0.105084 0.105084
0.106425 0.106425 0.106425
0.107909 0.107909 0.107909
0.109453 0.109453 0.109453
0.111907 0.111907 0.111907
0.114783 0.114783 0.114783
0.117414 0.117414 0.117414
0.121270 0.121270 0.121270
0.125241 0.125241 0.125241
0.130004 0.130004 0.130004
0.137489 0.137489 0.137489
0.149311 0.149311 0.149311
0.175018 0.175018 0.175018
0.100240 0.100240 0.100240
0.100241 0.100241 0.100241
0.100247 0.100247 0.100247
0.100277 0.100277 0.100277
0.100371 0.100371 0.100371
0.100595 0.100595 0.100595
0.100966 0.100966 0.100966
0.101123 0.101123 0.101123
0.101519 0.101519 0.101519
0.101713 0.101713 0.101713
0.102027 0.102027 0.102027
0.102350 0.102350 0.102350
0.102664 0.102664 0.102664
0.102962 0.102962 0.102962
0.103337 0.103337 0.103337
0.103721 0.103721 0.103721
0.104150 0.104150 0.104150
0.104802 0.104802 0.104802
0.105531 0.105531 0.105531
0.106250 0.106250 0.106250
0.107114 0.107114 0.107114
0.108376 0.108376 0.108376
0.110322 0.110322 0.110322
0.111306 0.111306 0.111306
0.113430 0.113430 0.113430
0.116499 0.116499 0.116499
0.119239 0.119239 0.119239
0.122855 0.122855 0.122855
0.126732 0.126732 0.126732
0.131028 0.131028 0.131028
0.138303 0.138303 0.138303
0.148561 0.148561 0.148561
0.169195 0.169195 0.169195
0.101968 0.101968 0.101968
0.101969 0.101969 0.101969
0.101978 0.101978 0.101978
0.102010 0.102010 0.102010
0.102098 0.102098 0.102098
0.102296 0.102296 0.102296
0.102693 0.102693 0.102693
0.102874 0.102874 0.102874
0.103182 0.103182 0.103182
0.103468 0.103468 0.103468
0.103792 0.103792 0.103792
0.104090 0.104090 0.104090
0.104567 0.104567 0.104567
0.105043 0.105043 0.105043
0.105497 0.105497 0.105497
0.106084 0.106084 0.106084
0.106639 0.106639 0.106639
0.107253 0.107253 0.107253
0.107913 0.107913 0.107913
0.108788 0.108788 0.108788
0.109819 0.109819 0.109819
0.110984 0.110984 0.110984
0.112841 0.112841 0.112841
0.113702 0.113702 0.113702
0.115277 0.115277 0.115277
0.118585 0.118585 0.118585
0.121187 0.121187 0.121187
0.124645 0.124645 0.124645
0.128425 0.128425 0.128425
0.132678 0.132678 0.132678
0.139383 0.139383 0.139383
0.148570 0.148570 0.148570
0.165798 0.165798 0.165798
0.103624 0.103624 0.103624
0.103626 0.103626 0.103626
0.103636 0.103636 0.103636
0.103668 0.103668 0.103668
0.103750 0.103750 0.103750
0.103929 0.103929 0.103929
0.104382 0.104382 0.104382
0.104789 0.104789 0.104789
0.105133 0.105133 0.105133
0.105683 0.105683 0.105683
0.105998 0.105998 0.105998
0.106473 0.106473 0.106473
0.107028 0.107028 0.107028
0.107462 0.107462 0.107462
0.107911 0.107911 0.107911
0.108484 0.108484 0.108484
0.109317 0.109317 0.109317
0.110160 0.110160 0.110160
0.111039 0.111039 0.111039
0.111984 0.111984 0.111984
0.113030 0.113030 0.113030
0.114128 0.114128 0.114128
0.115291 0.115291 0.115291
0.116265 0.116265 0.116265
0.118348 0.118348 0.118348
0.121208 0.121208 0.121208
0.123164 0.123164 0.123164
0.126532 0.126532 0.126532
0.130254 0.130254 0.130254
0.134739 0.134739 0.134739
0.140688 0.140688 0.140688
0.149188 0.149188 0.149188
0.163580 0.163580 0.163580
0.105050 0.105050 0.105050
0.105052 0.105052 0.105052
0.105063 0.105063 0.105063
0.105098 0.105098 0.105098
0.105193 0.105193 0.105193
0.105404 0.105404 0.105404
0.105824 0.105824 0.105824
0.106364 0.106364 0.106364
0.106622 0.106622 0.106622
0.107171 0.107171 0.107171
0.107521 0.107521 0.107521
0.108028 0.108028 0.108028
0.108497 0.108497 0.108497
0.109228 0.109228 0.109228
0.109951 0.109951 0.109951
0.110591 0.110591 0.110591
0.111391 0.111391 0.111391
0.112212 0.112212 0.112212
0.113102 0.113102 0.113102
0.114002 0.114002 0.114002
0.114985 0.114985 0.114985
0.116190 0.116190 0.116190
0.117783 0.117783 0.117783
0.119462 0.119462 0.119462
0.121462 0.121462 0.121462
0.124231 0.124231 0.124231
0.125740 0.125740 0.125740
0.128538 0.128538 0.128538
0.132235 0.132235 0.132235
0.137080 0.137080 0.137080
0.142378 0.142378 0.142378
0.149758 0.149758 0.149758
0.162482 0.162482 0.162482
0.106810 0.106810 0.106810
0.106812 0.106812 0.106812
0.106822 0.106822 0.106822
0.106855 0.106855 0.106855
0.106941 0.106941 0.106941
0.107128 0.107128 0.107128
0.107498 0.107498 0.107498
0.108177 0.108177 0.108177
0.108394 0.108394 0.108394
0.108999 0.108999 0.108999
0.109710 0.109710 0.109710
0.110246 0.110246 0.110246
0.110944 0.110944 0.110944
0.111712 0.111712 0.111712
0.112360 0.112360 0.112360
0.113099 0.113099 0.113099
0.113894 0.113894 0.113894
0.114744 0.114744 0.114744
0.115598 0.115598 0.115598
0.116887 0.116887 0.116887
0.118192 0.118192 0.118192
0.119589 0.119589 0.119589
0.121040 0.121040 0.121040
0.122712 0.122712 0.122712
0.124460 0.124460 0.124460
0.127257 0.127257 0.127257
0.128731 0.128731 0.128731
0.131181 0.131181 0.131181
0.134651 0.134651 0.134651
0.139059 0.139059 0.139059
0.144308 0.144308 0.144308
0.150759 0.150759 0.150759
0.161936 0.161936 0.161936
0.108696 0.108696 0.108696
0.108700 0.108700 0.108700
0.108716 0.108716 0.108716
0.108762 0.108762 0.108762
0.108875 0.108875 0.108875
0.109114 0.109114 0.109114
0.109580 0.109580 0.109580
0.110429 0.110429 0.110429
0.110965 0.110965 0.110965
0.111469 0.111469 0.111469
0.112414 0.112414 0.112414
0.112837 0.112837 0.112837
0.113661 0.113661 0.113661
0.114268 0.114268 0.114268
0.115081 0.115081 0.115081
0.115933 0.115933 0.115933
0.117023 0.117023 0.117023
0.118201 0.118201 0.118201
0.119410 0.119410 0.119410
0.120686 0.120686 0.120686
0.122028 0.122028 0.122028
0.123428 0.123428 0.123428
0.124865 0.124865 0.124865
0.126408 0.126408 0.126408
0.128286 0.128286 0.128286
0.130231 0.130231 0.130231
0.131663 0.131663 0.131663
0.134770 0.134770 0.134770
0.137892 0.137892 0.137892
0.141325 0.141325 0.141325
0.146122 0.146122 0.146122
0.152018 0.152018 0.152018
0.161963 0.161963 0.161963
0.110449 0.110449 0.110449
0.110448 0.110448 0.110448
0.110450 0.110450 0.110450
0.110469 0.110469 0.110469
0.110540 0.110540 0.110540
0.110720 0.110720 0.110720
0.111110 0.111110 0.111110
0.111871 0.111871 0.111871
0.112679 0.112679 0.112679
0.113064 0.113064 0.113064
0.113841 0.113841 0.113841
0.114522 0.114522 0.114522
0.115166 0.115166 0.115166
0.116057 0.116057 0.116057
0.117129 0.117129 0.117129
0.118157 0.118157 0.118157
0.119341 0.119341 0.119341
0.120497 0.120497 0.120497
0.121665 0.121665 0.121665
0.122903 0.122903 0.122903
0.124205 0.124205 0.124205
0.125571 0.125571 0.125571
0.127088 0.127088 0.127088
0.128675 0.128675 0.128675
0.130347 0.130347 0.130347
