LUTs/trix_modern/TriX_NoFilter_ExtraPunchy.cube
TITLE "Tri-X NoFilter ExtraPunchy"
# Adobe RGB in/out. REPLACES AgX. Tri-X NoFilter ExtraPunchy.
LUT_3D_SIZE 9
DOMAIN_MIN 0.0 0.0 0.0
DOMAIN_MAX 1.0 1.0 1.0
0.092237 0.092237 0.092237
0.092237 0.092237 0.092237
0.093283 0.093283 0.093283
0.124636 0.124636 0.124636
0.251043 0.251043 0.251043
0.425534 0.425534 0.425534
0.602009 0.602009 0.602009
0.905757 0.905757 0.905757
0.946265 0.946265 0.946265
0.092237 0.092237 0.092237
0.092237 0.092237 0.092237
0.094551 0.094551 0.094551
0.135442 0.135442 0.135442
0.248676 0.248676 0.248676
0.411301 0.411301 0.411301
0.586755 0.586755 0.586755
0.899839 0.899839 0.899839
0.942951 0.942951 0.942951
0.101832 0.101832 0.101832
0.099211 0.099211 0.099211
0.100270 0.100270 0.100270
0.147175 0.147175 0.147175
0.258315 0.258315 0.258315
0.393106 0.393106 0.393106
0.555523 0.555523 0.555523
0.883446 0.883446 0.883446
0.932175 0.932175 0.932175
0.196572 0.196572 0.196572
0.185018 0.185018 0.185018
0.174559 0.174559 0.174559
0.192199 0.192199 0.192199
0.274993 0.274993 0.274993
0.399030 0.399030 0.399030
0.539244 0.539244 0.539244
0.685773 0.685773 0.685773
0.881038 0.881038 0.881038
0.332192 0.332192 0.332192
0.321515 0.321515 0.321515
0.307852 0.307852 0.307852
0.311104 0.311104 0.311104
0.345800 0.345800 0.345800
0.432347 0.432347 0.432347
0.558097 0.558097 0.558097
0.684736 0.684736 0.684736
0.823761 0.823761 0.823761
0.473779 0.473779 0.473779
0.464563 0.464563 0.464563
0.453847 0.453847 0.453847
0.450131 0.450131 0.450131
0.470904 0.470904 0.470904
0.523451 0.523451 0.523451
0.608586 0.608586 0.608586
0.712877 0.712877 0.712877
0.795947 0.795947 0.795947
0.607794 0.607794 0.607794
0.601631 0.601631 0.601631
0.593330 0.593330 0.593330
0.590650 0.590650 0.590650
0.604429 0.604429 0.604429
0.642310 0.642310 0.642310
0.699304 0.699304 0.699304
0.757681 0.757681 0.757681
0.815249 0.815249 0.815249
0.730264 0.730264 0.730264
0.725702 0.725702 0.725702
0.714470 0.714470 0.714470
0.711222 0.711222 0.711222
0.720325 0.720325 0.720325
0.740764 0.740764 0.740764
0.775396 0.775396 0.775396
0.817788 0.817788 0.817788
0.844511 0.844511 0.844511
0.703575 0.703575 0.703575
0.699973 0.699973 0.699973
0.761804 0.761804 0.761804
0.757274 0.757274 0.757274
0.792233 0.792233 0.792233
0.807326 0.807326 0.807326
0.826269 0.826269 0.826269
0.857493 0.857493 0.857493
0.881141 0.881141 0.881141
0.092399 0.092399 0.092399
0.209502 0.209502 0.209502
0.107191 0.107191 0.107191
0.142645 0.142645 0.142645
0.260268 0.260268 0.260268
0.430101 0.430101 0.430101
0.607899 0.607899 0.607899
0.902587 0.902587 0.902587
0.944548 0.944548 0.944548
0.092379 0.092379 0.092379
0.092317 0.092317 0.092317
0.096927 0.096927 0.096927
0.139233 0.139233 0.139233
0.252105 0.252105 0.252105
0.414454 0.414454 0.414454
0.590671 0.590671 0.590671
0.896697 0.896697 0.896697
0.941248 0.941248 0.941248
0.110483 0.110483 0.110483
0.103114 0.103114 0.103114
0.101695 0.101695 0.101695
0.148682 0.148682 0.148682
0.252421 0.252421 0.252421
0.392052 0.392052 0.392052
0.557046 0.557046 0.557046
0.881051 0.881051 0.881051
0.930532 0.930532 0.930532
0.210755 0.210755 0.210755
0.196895 0.196895 0.196895
0.180809 0.180809 0.180809
0.194970 0.194970 0.194970
0.274758 0.274758 0.274758
0.395048 0.395048 0.395048
0.539273 0.539273 0.539273
0.687558 0.687558 0.687558
0.914307 0.914307 0.914307
0.339646 0.339646 0.339646
0.329241 0.329241 0.329241
0.313757 0.313757 0.313757
0.314755 0.314755 0.314755
0.348434 0.348434 0.348434
0.431931 0.431931 0.431931
0.557187 0.557187 0.557187
0.686029 0.686029 0.686029
0.834149 0.834149 0.834149
0.477194 0.477194 0.477194
0.468565 0.468565 0.468565
0.457657 0.457657 0.457657
0.453369 0.453369 0.453369
0.473669 0.473669 0.473669
0.525924 0.525924 0.525924
0.609660 0.609660 0.609660
0.714524 0.714524 0.714524
0.799139 0.799139 0.799139
0.610862 0.610862 0.610862
0.604972 0.604972 0.604972
0.596978 0.596978 0.596978
0.594250 0.594250 0.594250
0.607878 0.607878 0.607878
0.645350 0.645350 0.645350
0.702177 0.702177 0.702177
0.759293 0.759293 0.759293
0.816763 0.816763 0.816763
0.729987 0.729987 0.729987
0.725956 0.725956 0.725956
0.717084 0.717084 0.717084
0.714499 0.714499 0.714499
0.723820 0.723820 0.723820
0.743407 0.743407 0.743407
0.778212 0.778212 0.778212
0.819339 0.819339 0.819339
0.846014 0.846014 0.846014
0.759088 0.759088 0.759088
0.756266 0.756266 0.756266
0.806361 0.806361 0.806361
0.791538 0.791538 0.791538
0.794493 0.794493 0.794493
0.808985 0.808985 0.808985
0.828089 0.828089 0.828089
0.859279 0.859279 0.859279
0.882159 0.882159 0.882159
0.140275 0.140275 0.140275
0.690913 0.690913 0.690913
0.645317 0.645317 0.645317
0.565808 0.565808 0.565808
0.558923 0.558923 0.558923
0.682892 0.682892 0.682892
0.809865 0.809865 0.809865
0.902570 0.902570 0.902570
0.940999 0.940999 0.940999
0.166200 0.166200 0.166200
0.305547 0.305547 0.305547
0.351638 0.351638 0.351638
0.370428 0.370428 0.370428
0.451552 0.451552 0.451552
0.611113 0.611113 0.611113
0.770667 0.770667 0.770667
0.897521 0.897521 0.897521
0.937676 0.937676 0.937676
0.150653 0.150653 0.150653
0.134754 0.134754 0.134754
0.128236 0.128236 0.128236
0.206302 0.206302 0.206302
0.327197 0.327197 0.327197
0.485234 0.485234 0.485234
0.658527 0.658527 0.658527
0.881327 0.881327 0.881327
0.926919 0.926919 0.926919
0.262651 0.262651 0.262651
0.245316 0.245316 0.245316
0.216397 0.216397 0.216397
0.219138 0.219138 0.219138
0.307397 0.307397 0.307397
0.438298 0.438298 0.438298
0.590959 0.590959 0.590959
0.752272 0.752272 0.752272
0.909502 0.909502 0.909502
0.395053 0.395053 0.395053
0.382103 0.382103 0.382103
0.356825 0.356825 0.356825
0.347528 0.347528 0.347528
0.373794 0.373794 0.373794
0.461559 0.461559 0.461559
0.586997 0.586997 0.586997
0.724244 0.724244 0.724244
0.875524 0.875524 0.875524
0.533588 0.533588 0.533588
0.524185 0.524185 0.524185
0.506143 0.506143 0.506143
0.494108 0.494108 0.494108
0.507929 0.507929 0.507929
0.553305 0.553305 0.553305
0.634606 0.634606 0.634606
0.736872 0.736872 0.736872
0.822270 0.822270 0.822270
0.654816 0.654816 0.654816
0.649411 0.649411 0.649411
0.639070 0.639070 0.639070
0.631539 0.631539 0.631539
0.640919 0.640919 0.640919
0.671059 0.671059 0.671059
0.724492 0.724492 0.724492
0.775108 0.775108 0.775108
0.828294 0.828294 0.828294
0.750194 0.750194 0.750194
0.747413 0.747413 0.747413
0.743273 0.743273 0.743273
0.740445 0.740445 0.740445
0.745668 0.745668 0.745668
0.763424 0.763424 0.763424
0.797098 0.797098 0.797098
0.829305 0.829305 0.829305
0.854948 0.854948 0.854948
0.754373 0.754373 0.754373
0.809734 0.809734 0.809734
0.802704 0.802704 0.802704
0.787262 0.787262 0.787262
0.807543 0.807543 0.807543
0.818973 0.818973 0.818973
0.838040 0.838040 0.838040
0.868438 0.868438 0.868438
0.887727 0.887727 0.887727
0.366046 0.366046 0.366046
0.823746 0.823746 0.823746
0.877165 0.877165 0.877165
0.881521 0.881521 0.881521
0.867438 0.867438 0.867438
0.876375 0.876375 0.876375
0.904951 0.904951 0.904951
0.940155 0.940155 0.940155
0.948140 0.948140 0.948140
0.415021 0.415021 0.415021
0.697739 0.697739 0.697739
0.842789 0.842789 0.842789
0.827195 0.827195 0.827195
0.817372 0.817372 0.817372
0.846297 0.846297 0.846297
0.890575 0.890575 0.890575
0.933890 0.933890 0.933890
0.944808 0.944808 0.944808
0.328266 0.328266 0.328266
0.338715 0.338715 0.338715
0.404791 0.404791 0.404791
0.483309 0.483309 0.483309
0.596381 0.596381 0.596381
0.728241 0.728241 0.728241
0.830182 0.830182 0.830182
0.905235 0.905235 0.905235
0.934034 0.934034 0.934034
0.350197 0.350197 0.350197
0.335254 0.335254 0.335254
0.304823 0.304823 0.304823
0.302165 0.302165 0.302165
0.417004 0.417004 0.417004
0.568866 0.568866 0.568866
0.730805 0.730805 0.730805
0.851113 0.851113 0.851113
0.917706 0.917706 0.917706
0.475367 0.475367 0.475367
0.461555 0.461555 0.461555
0.431974 0.431974 0.431974
0.412103 0.412103 0.412103
0.429008 0.429008 0.429008
0.530480 0.530480 0.530480
0.668279 0.668279 0.668279
0.794944 0.794944 0.794944
0.909369 0.909369 0.909369
0.604032 0.604032 0.604032
0.594255 0.594255 0.594255
0.573589 0.573589 0.573589
0.556421 0.556421 0.556421
0.562603 0.562603 0.562603
0.602586 0.602586 0.602586
0.684926 0.684926 0.684926
0.778931 0.778931 0.778931
0.881234 0.881234 0.881234
0.713776 0.713776 0.713776
0.708098 0.708098 0.708098
0.696063 0.696063 0.696063
0.686378 0.686378 0.686378
0.690520 0.690520 0.690520
0.716843 0.716843 0.716843
0.755084 0.755084 0.755084
0.805715 0.805715 0.805715
0.863713 0.863713 0.863713
0.786515 0.786515 0.786515
0.783839 0.783839 0.783839
0.779075 0.779075 0.779075
0.774882 0.774882 0.774882
0.778658 0.778658 0.778658
0.794963 0.794963 0.794963
0.818851 0.818851 0.818851
0.846202 0.846202 0.846202
0.875871 0.875871 0.875871
0.821474 0.821474 0.821474
0.841022 0.841022 0.841022
0.834571 0.834571 0.834571
0.827992 0.827992 0.827992
0.830835 0.830835 0.830835
0.839976 0.839976 0.839976
0.858173 0.858173 0.858173
0.882924 0.882924 0.882924
0.900137 0.900137 0.900137
0.686859 0.686859 0.686859
0.873561 0.873561 0.873561
0.946470 0.946470 0.946470
0.954072 0.954072 0.954072
0.958991 0.958991 0.958991
0.948488 0.948488 0.948488
0.951647 0.951647 0.951647
0.960258 0.960258 0.960258
0.965685 0.965685 0.965685
0.728103 0.728103 0.728103
0.859290 0.859290 0.859290
0.939720 0.939720 0.939720
0.950204 0.950204 0.950204
0.939468 0.939468 0.939468
0.934690 0.934690 0.934690
0.942871 0.942871 0.942871
0.957223 0.957223 0.957223
0.963279 0.963279 0.963279
0.737511 0.737511 0.737511
0.773651 0.773651 0.773651
0.847149 0.847149 0.847149
0.854049 0.854049 0.854049
0.859783 0.859783 0.859783
0.884096 0.884096 0.884096
0.914108 0.914108 0.914108
0.939251 0.939251 0.939251
0.954727 0.954727 0.954727
0.547768 0.547768 0.547768
0.545233 0.545233 0.545233
0.560352 0.560352 0.560352
0.605277 0.605277 0.605277
0.687312 0.687312 0.687312
0.783946 0.783946 0.783946
0.856631 0.856631 0.856631
0.911484 0.911484 0.911484
0.944795 0.944795 0.944795
0.593237 0.593237 0.593237
0.582782 0.582782 0.582782
0.559526 0.559526 0.559526
0.538772 0.538772 0.538772
0.545947 0.545947 0.545947
0.672961 0.672961 0.672961
0.791233 0.791233 0.791233
0.873255 0.873255 0.873255
0.931015 0.931015 0.931015
0.695283 0.695283 0.695283
0.687433 0.687433 0.687433
0.670094 0.670094 0.670094
0.653476 0.653476 0.653476
0.653233 0.653233 0.653233
0.683118 0.683118 0.683118
0.762921 0.762921 0.762921
0.840632 0.840632 0.840632
0.918079 0.918079 0.918079
0.772382 0.772382 0.772382
0.768525 0.768525 0.768525
0.759833 0.759833 0.759833
0.752124 0.752124 0.752124
0.753433 0.753433 0.753433
0.769820 0.769820 0.769820
0.803801 0.803801 0.803801
0.841796 0.841796 0.841796
0.906777 0.906777 0.906777
0.823739 0.823739 0.823739
0.822089 0.822089 0.822089
0.818955 0.818955 0.818955
0.816159 0.816159 0.816159
0.818125 0.818125 0.818125
0.827941 0.827941 0.827941
0.847016 0.847016 0.847016
0.872642 0.872642 0.872642
0.904412 0.904412 0.904412
0.861491 0.861491 0.861491
0.862501 0.862501 0.862501
0.862991 0.862991 0.862991
0.853366 0.853366 0.853366
0.856818 0.856818 0.856818
0.865745 0.865745 0.865745
0.880421 0.880421 0.880421
0.899717 0.899717 0.899717
0.919388 0.919388 0.919388
0.891424 0.891424 0.891424
0.943951 0.943951 0.943951
0.977547 0.977547 0.977547
0.980083 0.980083 0.980083
0.982484 0.982484 0.982484
0.980208 0.980208 0.980208
0.976756 0.976756 0.976756
0.976109 0.976109 0.976109
0.974853 0.974853 0.974853
0.902028 0.902028 0.902028
0.944180 0.944180 0.944180
0.976563 0.976563 0.976563
0.979983 0.979983 0.979983
0.981777 0.981777 0.981777
0.975743 0.975743 0.975743
0.972526 0.972526 0.972526
0.973320 0.973320 0.973320
0.972822 0.972822 0.972822
0.922271 0.922271 0.922271
0.941150 0.941150 0.941150
0.971386 0.971386 0.971386
0.965262 0.965262 0.965262
0.957918 0.957918 0.957918
0.955678 0.955678 0.955678
0.959145 0.959145 0.959145
0.964482 0.964482 0.964482
0.966149 0.966149 0.966149
0.825603 0.825603 0.825603
0.832156 0.832156 0.832156
0.862741 0.862741 0.862741
0.878535 0.878535 0.878535
0.888290 0.888290 0.888290
0.905310 0.905310 0.905310
0.927085 0.927085 0.927085
0.947958 0.947958 0.947958
0.960556 0.960556 0.960556
0.763619 0.763619 0.763619
0.761355 0.761355 0.761355
0.765104 0.765104 0.765104
0.773497 0.773497 0.773497
0.797830 0.797830 0.797830
0.837359 0.837359 0.837359
0.885891 0.885891 0.885891
0.924111 0.924111 0.924111
0.952077 0.952077 0.952077
0.791224 0.791224 0.791224
0.787320 0.787320 0.787320
0.779773 0.779773 0.779773
0.772832 0.772832 0.772832
0.772369 0.772369 0.772369
0.784665 0.784665 0.784665
0.847862 0.847862 0.847862
0.901547 0.901547 0.901547
0.941790 0.941790 0.941790
0.829365 0.829365 0.829365
0.827309 0.827309 0.827309
0.823056 0.823056 0.823056
0.819534 0.819534 0.819534
0.820949 0.820949 0.820949
0.830289 0.830289 0.830289
0.851457 0.851457 0.851457
0.890387 0.890387 0.890387
0.937315 0.937315 0.937315
0.861174 0.861174 0.861174
0.859805 0.859805 0.859805
0.857451 0.857451 0.857451
0.855471 0.855471 0.855471
0.857882 0.857882 0.857882
0.867434 0.867434 0.867434
0.882227 0.882227 0.882227
0.901056 0.901056 0.901056
0.936496 0.936496 0.936496
0.871912 0.871912 0.871912
0.873125 0.873125 0.873125
0.875421 0.875421 0.875421
0.880877 0.880877 0.880877
0.883917 0.883917 0.883917
0.890540 0.890540 0.890540
0.902746 0.902746 0.902746
0.919304 0.919304 0.919304
0.944353 0.944353 0.944353
0.974580 0.974580 0.974580
0.982452 0.982452 0.982452
0.986876 0.986876 0.986876
0.988159 0.988159 0.988159
0.989950 0.989950 0.989950
0.989728 0.989728 0.989728
0.986370 0.986370 0.986370
0.984374 0.984374 0.984374
0.982306 0.982306 0.982306
0.977028 0.977028 0.977028
0.982566 0.982566 0.982566
0.986905 0.986905 0.986905
0.988276 0.988276 0.988276
0.990077 0.990077 0.990077
0.987886 0.987886 0.987886
0.985106 0.985106 0.985106
0.983422 0.983422 0.983422
0.981519 0.981519 0.981519
0.980908 0.980908 0.980908
0.983156 0.983156 0.983156
0.986936 0.986936 0.986936
0.988657 0.988657 0.988657
0.984753 0.984753 0.984753
0.981900 0.981900 0.981900
0.980694 0.980694 0.980694
0.980441 0.980441 0.980441
0.978497 0.978497 0.978497
0.960892 0.960892 0.960892
0.962952 0.962952 0.962952
0.967529 0.967529 0.967529
0.966482 0.966482 0.966482
0.963886 0.963886 0.963886
0.963610 0.963610 0.963610
0.966468 0.966468 0.966468
0.970956 0.970956 0.970956
0.974564 0.974564 0.974564
0.901116 0.901116 0.901116
0.903123 0.903123 0.903123
0.912388 0.912388 0.912388
0.918054 0.918054 0.918054
0.922021 0.922021 0.922021
0.930058 0.930058 0.930058
0.943930 0.943930 0.943930
0.958878 0.958878 0.958878
0.967017 0.967017 0.967017
0.878816 0.878816 0.878816
0.878572 0.878572 0.878572
0.880820 0.880820 0.880820
0.884488 0.884488 0.884488
0.888511 0.888511 0.888511
0.898644 0.898644 0.898644
0.920487 0.920487 0.920487
0.943650 0.943650 0.943650
0.961397 0.961397 0.961397
0.884930 0.884930 0.884930
0.884191 0.884191 0.884191
0.883662 0.883662 0.883662
0.884748 0.884748 0.884748
0.888472 0.888472 0.888472
0.894480 0.894480 0.894480
0.903272 0.903272 0.903272
0.933698 0.933698 0.933698
0.959546 0.959546 0.959546
0.897636 0.897636 0.897636
0.896960 0.896960 0.896960
0.896373 0.896373 0.896373
0.896615 0.896615 0.896615
0.900032 0.900032 0.900032
0.907789 0.907789 0.907789
0.919294 0.919294 0.919294
0.933392 0.933392 0.933392
0.961351 0.961351 0.961351
0.887606 0.887606 0.887606
0.889633 0.889633 0.889633
0.890023 0.890023 0.890023
0.907315 0.907315 0.907315
0.910612 0.910612 0.910612
0.917045 0.917045 0.917045
0.925977 0.925977 0.925977
0.938588 0.938588 0.938588
0.966858 0.966858 0.966858
0.991561 0.991561 0.991561
0.991720 0.991720 0.991720
0.992019 0.992019 0.992019
0.992287 0.992287 0.992287
0.992725 0.992725 0.992725
0.993100 0.993100 0.993100
0.991833 0.991833 0.991833
0.990517 0.990517 0.990517
0.987144 0.987144 0.987144
0.991606 0.991606 0.991606
0.991755 0.991755 0.991755
0.992067 0.992067 0.992067
0.992339 0.992339 0.992339
0.992774 0.992774 0.992774
0.992620 0.992620 0.992620
0.991494 0.991494 0.991494
0.989704 0.989704 0.989704
0.986511 0.986511 0.986511
0.991863 0.991863 0.991863
0.991969 0.991969 0.991969
0.992279 0.992279 0.992279
0.992573 0.992573 0.992573
0.992174 0.992174 0.992174
0.991140 0.991140 0.991140
0.988728 0.988728 0.988728
0.987158 0.987158 0.987158
0.984626 0.984626 0.984626
0.990565 0.990565 0.990565
0.990341 0.990341 0.990341
0.989537 0.989537 0.989537
0.987672 0.987672 0.987672
0.985615 0.985615 0.985615
0.984054 0.984054 0.984054
0.983349 0.983349 0.983349
0.983233 0.983233 0.983233
0.982737 0.982737 0.982737
0.975872 0.975872 0.975872
0.975960 0.975960 0.975960
0.976091 0.976091 0.976091
0.974322 0.974322 0.974322
0.972622 0.972622 0.972622
0.972550 0.972550 0.972550
0.974897 0.974897 0.974897
0.978725 0.978725 0.978725
0.979915 0.979915 0.979915
0.955354 0.955354 0.955354
0.956069 0.956069 0.956069
0.957631 0.957631 0.957631
0.957406 0.957406 0.957406
0.957068 0.957068 0.957068
0.958542 0.958542 0.958542
0.962928 0.962928 0.962928
0.969608 0.969608 0.969608
0.975370 0.975370 0.975370
0.939205 0.939205 0.939205
0.939779 0.939779 0.939779
0.943344 0.943344 0.943344
0.946792 0.946792 0.946792
0.948738 0.948738 0.948738
0.950928 0.950928 0.950928
0.957000 0.957000 0.957000
0.964908 0.964908 0.964908
0.973005 0.973005 0.973005
0.934128 0.934128 0.934128
0.934084 0.934084 0.934084
0.935653 0.935653 0.935653
0.939060 0.939060 0.939060
0.945053 0.945053 0.945053
0.952327 0.952327 0.952327
0.958524 0.958524 0.958524
0.962840 0.962840 0.962840
0.975090 0.975090 0.975090
0.916276 0.916276 0.916276
0.921810 0.921810 0.921810
0.923489 0.923489 0.923489
0.931807 0.931807 0.931807
0.935968 0.935968 0.935968
0.942217 0.942217 0.942217
0.951578 0.951578 0.951578
0.960349 0.960349 0.960349
0.979847 0.979847 0.979847
0.993851 0.993851 0.993851
0.993864 0.993864 0.993864
0.993934 0.993934 0.993934
0.994156 0.994156 0.994156
0.994625 0.994625 0.994625
0.995271 0.995271 0.995271
0.993894 0.993894 0.993894
0.992740 0.992740 0.992740
0.991249 0.991249 0.991249
0.993890 0.993890 0.993890
0.993905 0.993905 0.993905
0.993977 0.993977 0.993977
0.994200 0.994200 0.994200
0.994664 0.994664 0.994664
0.994873 0.994873 0.994873
0.993576 0.993576 0.993576
0.992502 0.992502 0.992502
0.991248 0.991248 0.991248
0.994088 0.994088 0.994088
0.994104 0.994104 0.994104
0.994186 0.994186 0.994186
0.994410 0.994410 0.994410
0.994599 0.994599 0.994599
0.993514 0.993514 0.993514
0.992574 0.992574 0.992574
0.991764 0.991764 0.991764
0.989321 0.989321 0.989321
0.994148 0.994148 0.994148
0.994002 0.994002 0.994002
0.993542 0.993542 0.993542
0.992875 0.992875 0.992875
0.992178 0.992178 0.992178
0.991599 0.991599 0.991599
0.991094 0.991094 0.991094
0.989720 0.989720 0.989720
0.988361 0.988361 0.988361
0.990176 0.990176 0.990176
0.989894 0.989894 0.989894
0.989052 0.989052 0.989052
0.987890 0.987890 0.987890
0.986788 0.986788 0.986788
0.986153 0.986153 0.986153
0.985930 0.985930 0.985930
0.985894 0.985894 0.985894
0.985830 0.985830 0.985830
0.983117 0.983117 0.983117
0.982890 0.982890 0.982890
0.982262 0.982262 0.982262
0.981466 0.981466 0.981466
0.980799 0.980799 0.980799
0.980773 0.980773 0.980773
0.981449 0.981449 0.981449
0.982476 0.982476 0.982476
0.983454 0.983454 0.983454
0.980119 0.980119 0.980119
0.979936 0.979936 0.979936
0.979424 0.979424 0.979424
0.978265 0.978265 0.978265
0.976678 0.976678 0.976678
0.976426 0.976426 0.976426
0.978768 0.978768 0.978768
0.980536 0.980536 0.980536
0.982182 0.982182 0.982182
0.979214 0.979214 0.979214
0.979262 0.979262 0.979262
0.979202 0.979202 0.979202
0.978563 0.978563 0.978563
0.977779 0.977779 0.977779
0.977648 0.977648 0.977648
0.978956 0.978956 0.978956
0.980507 0.980507 0.980507
0.982439 0.982439 0.982439
0.937133 0.937133 0.937133
0.955051 0.955051 0.955051
0.952715 0.952715 0.952715
0.950368 0.950368 0.950368
0.970446 0.970446 0.970446
0.979967 0.979967 0.979967
0.981040 0.981040 0.981040
0.982617 0.982617 0.982617
0.984304 0.984304 0.984304
