LUTs/trix_modern/TriX_Yellow8_Punchy.cube
TITLE "Tri-X Yellow8 Punchy"
# Adobe RGB in/out. REPLACES AgX. Tri-X Yellow8 Punchy.
LUT_3D_SIZE 33
DOMAIN_MIN 0.0 0.0 0.0
DOMAIN_MAX 1.0 1.0 1.0
0.091936 0.091936 0.091936
0.091936 0.091936 0.091936
0.091936 0.091936 0.091936
0.091948 0.091948 0.091948
0.092017 0.092017 0.092017
0.092073 0.092073 0.092073
0.096126 0.096126 0.096126
0.107006 0.107006 0.107006
0.116715 0.116715 0.116715
0.140557 0.140557 0.140557
0.191834 0.191834 0.191834
0.234450 0.234450 0.234450
0.274171 0.274171 0.274171
0.328037 0.328037 0.328037
0.392137 0.392137 0.392137
0.435214 0.435214 0.435214
0.474879 0.474879 0.474879
0.520483 0.520483 0.520483
0.568500 0.568500 0.568500
0.607350 0.607350 0.607350
0.645098 0.645098 0.645098
0.681309 0.681309 0.681309
0.716178 0.716178 0.716178
0.747332 0.747332 0.747332
0.771706 0.771706 0.771706
0.793201 0.793201 0.793201
0.820146 0.820146 0.820146
0.831423 0.831423 0.831423
0.865550 0.865550 0.865550
0.858699 0.858699 0.858699
0.851929 0.851929 0.851929
0.845223 0.845223 0.845223
0.894655 0.894655 0.894655
0.091936 0.091936 0.091936
0.091936 0.091936 0.091936
0.091936 0.091936 0.091936
0.091955 0.091955 0.091955
0.092036 0.092036 0.092036
0.092416 0.092416 0.092416
0.096734 0.096734 0.096734
0.107970 0.107970 0.107970
0.118142 0.118142 0.118142
0.142202 0.142202 0.142202
0.193432 0.193432 0.193432
0.235736 0.235736 0.235736
0.274993 0.274993 0.274993
0.328397 0.328397 0.328397
0.392142 0.392142 0.392142
0.434974 0.434974 0.434974
0.474445 0.474445 0.474445
0.519907 0.519907 0.519907
0.567925 0.567925 0.567925
0.606686 0.606686 0.606686
0.644409 0.644409 0.644409
0.680648 0.680648 0.680648
0.715636 0.715636 0.715636
0.746806 0.746806 0.746806
0.771233 0.771233 0.771233
0.792797 0.792797 0.792797
0.819806 0.819806 0.819806
0.831130 0.831130 0.831130
0.865179 0.865179 0.865179
0.858362 0.858362 0.858362
0.851622 0.851622 0.851622
0.844943 0.844943 0.844943
0.894450 0.894450 0.894450
0.091936 0.091936 0.091936
0.091936 0.091936 0.091936
0.091936 0.091936 0.091936
0.091960 0.091960 0.091960
0.092061 0.092061 0.092061
0.093347 0.093347 0.093347
0.099006 0.099006 0.099006
0.114345 0.114345 0.114345
0.124804 0.124804 0.124804
0.149649 0.149649 0.149649
0.200594 0.200594 0.200594
0.241267 0.241267 0.241267
0.278760 0.278760 0.278760
0.330246 0.330246 0.330246
0.392629 0.392629 0.392629
0.434411 0.434411 0.434411
0.473122 0.473122 0.473122
0.518026 0.518026 0.518026
0.565989 0.565989 0.565989
0.604404 0.604404 0.604404
0.642014 0.642014 0.642014
0.678341 0.678341 0.678341
0.713735 0.713735 0.713735
0.744955 0.744955 0.744955
0.769564 0.769564 0.769564
0.791374 0.791374 0.791374
0.818606 0.818606 0.818606
0.830092 0.830092 0.830092
0.863858 0.863858 0.863858
0.857160 0.857160 0.857160
0.850527 0.850527 0.850527
0.843943 0.843943 0.843943
0.893716 0.893716 0.893716
0.091964 0.091964 0.091964
0.091964 0.091964 0.091964
0.091965 0.091965 0.091965
0.091971 0.091971 0.091971
0.092057 0.092057 0.092057
0.093276 0.093276 0.093276
0.100360 0.100360 0.100360
0.119752 0.119752 0.119752
0.134486 0.134486 0.134486
0.162833 0.162833 0.162833
0.218576 0.218576 0.218576
0.255856 0.255856 0.255856
0.289292 0.289292 0.289292
0.336039 0.336039 0.336039
0.395512 0.395512 0.395512
0.434625 0.434625 0.434625
0.471678 0.471678 0.471678
0.515353 0.515353 0.515353
0.562979 0.562979 0.562979
0.600629 0.600629 0.600629
0.637940 0.637940 0.637940
0.674362 0.674362 0.674362
0.710421 0.710421 0.710421
0.741698 0.741698 0.741698
0.766626 0.766626 0.766626
0.788866 0.788866 0.788866
0.816476 0.816476 0.816476
0.828254 0.828254 0.828254
0.861462 0.861462 0.861462
0.854979 0.854979 0.854979
0.848537 0.848537 0.848537
0.842128 0.842128 0.842128
0.892379 0.892379 0.892379
0.092330 0.092330 0.092330
0.092311 0.092311 0.092311
0.092376 0.092376 0.092376
0.092558 0.092558 0.092558
0.092960 0.092960 0.092960
0.093408 0.093408 0.093408
0.100219 0.100219 0.100219
0.120527 0.120527 0.120527
0.139314 0.139314 0.139314
0.171229 0.171229 0.171229
0.232042 0.232042 0.232042
0.268219 0.268219 0.268219
0.302626 0.302626 0.302626
0.347486 0.347486 0.347486
0.405098 0.405098 0.405098
0.438202 0.438202 0.438202
0.472066 0.472066 0.472066
0.513368 0.513368 0.513368
0.559876 0.559876 0.559876
0.596049 0.596049 0.596049
0.632676 0.632676 0.632676
0.669072 0.669072 0.669072
0.705920 0.705920 0.705920
0.737193 0.737193 0.737193
0.762551 0.762551 0.762551
0.785385 0.785385 0.785385
0.813356 0.813356 0.813356
0.825683 0.825683 0.825683
0.857966 0.857966 0.857966
0.851788 0.851788 0.851788
0.845623 0.845623 0.845623
0.839482 0.839482 0.839482
0.890413 0.890413 0.890413
0.096201 0.096201 0.096201
0.096032 0.096032 0.096032
0.095963 0.095963 0.095963
0.095792 0.095792 0.095792
0.095525 0.095525 0.095525
0.096261 0.096261 0.096261
0.101557 0.101557 0.101557
0.121633 0.121633 0.121633
0.139891 0.139891 0.139891
0.174169 0.174169 0.174169
0.236858 0.236858 0.236858
0.277976 0.277976 0.277976
0.314537 0.314537 0.314537
0.355686 0.355686 0.355686
0.410217 0.410217 0.410217
0.441716 0.441716 0.441716
0.474550 0.474550 0.474550
0.514638 0.514638 0.514638
0.558619 0.558619 0.558619
0.592081 0.592081 0.592081
0.627261 0.627261 0.627261
0.663256 0.663256 0.663256
0.700130 0.700130 0.700130
0.731824 0.731824 0.731824
0.757673 0.757673 0.757673
0.781215 0.781215 0.781215
0.808957 0.808957 0.808957
0.822574 0.822574 0.822574
0.853401 0.853401 0.853401
0.847609 0.847609 0.847609
0.841799 0.841799 0.841799
0.892525 0.892525 0.892525
0.887822 0.887822 0.887822
0.111925 0.111925 0.111925
0.112175 0.112175 0.112175
0.111464 0.111464 0.111464
0.109159 0.109159 0.109159
0.107259 0.107259 0.107259
0.107196 0.107196 0.107196
0.109616 0.109616 0.109616
0.126642 0.126642 0.126642
0.143154 0.143154 0.143154
0.175483 0.175483 0.175483
0.239260 0.239260 0.239260
0.283209 0.283209 0.283209
0.320335 0.320335 0.320335
0.361824 0.361824 0.361824
0.416774 0.416774 0.416774
0.447866 0.447866 0.447866
0.476151 0.476151 0.476151
0.512848 0.512848 0.512848
0.556441 0.556441 0.556441
0.588676 0.588676 0.588676
0.622920 0.622920 0.622920
0.658319 0.658319 0.658319
0.694395 0.694395 0.694395
0.726265 0.726265 0.726265
0.752568 0.752568 0.752568
0.776720 0.776720 0.776720
0.804212 0.804212 0.804212
0.819310 0.819310 0.819310
0.847858 0.847858 0.847858
0.842507 0.842507 0.842507
0.837118 0.837118 0.837118
0.889087 0.889087 0.889087
0.884632 0.884632 0.884632
0.157837 0.157837 0.157837
0.158256 0.158256 0.158256
0.159570 0.159570 0.159570
0.151846 0.151846 0.151846
0.145463 0.145463 0.145463
0.143048 0.143048 0.143048
0.144921 0.144921 0.144921
0.152274 0.152274 0.152274
0.152977 0.152977 0.152977
0.180570 0.180570 0.180570
0.242453 0.242453 0.242453
0.284799 0.284799 0.284799
0.322621 0.322621 0.322621
0.365982 0.365982 0.365982
0.421006 0.421006 0.421006
0.450365 0.450365 0.450365
0.478864 0.478864 0.478864
0.515208 0.515208 0.515208
0.556518 0.556518 0.556518
0.585472 0.585472 0.585472
0.617620 0.617620 0.617620
0.652392 0.652392 0.652392
0.688497 0.688497 0.688497
0.720941 0.720941 0.720941
0.748179 0.748179 0.748179
0.772753 0.772753 0.772753
0.799864 0.799864 0.799864
0.816597 0.816597 0.816597
0.841525 0.841525 0.841525
0.836583 0.836583 0.836583
0.831661 0.831661 0.831661
0.885035 0.885035 0.885035
0.880887 0.880887 0.880887
0.189351 0.189351 0.189351
0.189695 0.189695 0.189695
0.187345 0.187345 0.187345
0.180082 0.180082 0.180082
0.173317 0.173317 0.173317
0.168910 0.168910 0.168910
0.168654 0.168654 0.168654
0.172114 0.172114 0.172114
0.180859 0.180859 0.180859
0.195940 0.195940 0.195940
0.250340 0.250340 0.250340
0.289734 0.289734 0.289734
0.325832 0.325832 0.325832
0.368523 0.368523 0.368523
0.423502 0.423502 0.423502
0.453212 0.453212 0.453212
0.482049 0.482049 0.482049
0.517066 0.517066 0.517066
0.556735 0.556735 0.556735
0.584635 0.584635 0.584635
0.615689 0.615689 0.615689
0.648277 0.648277 0.648277
0.682902 0.682902 0.682902
0.715061 0.715061 0.715061
0.742194 0.742194 0.742194
0.767867 0.767867 0.767867
0.795696 0.795696 0.795696
0.815234 0.815234 0.815234
0.837958 0.837958 0.837958
0.830069 0.830069 0.830069
0.825553 0.825553 0.825553
0.880460 0.880460 0.880460
0.876648 0.876648 0.876648
0.243354 0.243354 0.243354
0.241719 0.241719 0.241719
0.235141 0.235141 0.235141
0.228165 0.228165 0.228165
0.220060 0.220060 0.220060
0.214130 0.214130 0.214130
0.211057 0.211057 0.211057
0.212263 0.212263 0.212263
0.218388 0.218388 0.218388
0.229786 0.229786 0.229786
0.271158 0.271158 0.271158
0.299515 0.299515 0.299515
0.331122 0.331122 0.331122
0.371987 0.371987 0.371987
0.426181 0.426181 0.426181
0.455915 0.455915 0.455915
0.484652 0.484652 0.484652
0.519138 0.519138 0.519138
0.559033 0.559033 0.559033
0.585298 0.585298 0.585298
0.613283 0.613283 0.613283
0.645477 0.645477 0.645477
0.679583 0.679583 0.679583
0.710884 0.710884 0.710884
0.737387 0.737387 0.737387
0.762988 0.762988 0.762988
0.790688 0.790688 0.790688
0.810777 0.810777 0.810777
0.830460 0.830460 0.830460
0.844967 0.844967 0.844967
0.860019 0.860019 0.860019
0.875446 0.875446 0.875446
0.870929 0.870929 0.870929
0.322155 0.322155 0.322155
0.320018 0.320018 0.320018
0.313043 0.313043 0.313043
0.307231 0.307231 0.307231
0.298417 0.298417 0.298417
0.289865 0.289865 0.289865
0.285084 0.285084 0.285084
0.283790 0.283790 0.283790
0.287200 0.287200 0.287200
0.295644 0.295644 0.295644
0.309457 0.309457 0.309457
0.324166 0.324166 0.324166
0.340321 0.340321 0.340321
0.378570 0.378570 0.378570
0.430305 0.430305 0.430305
0.459092 0.459092 0.459092
0.487318 0.487318 0.487318
0.521928 0.521928 0.521928
0.561999 0.561999 0.561999
0.586395 0.586395 0.586395
0.613859 0.613859 0.613859
0.644975 0.644975 0.644975
0.676686 0.676686 0.676686
0.707177 0.707177 0.707177
0.733749 0.733749 0.733749
0.759923 0.759923 0.759923
0.787001 0.787001 0.787001
0.807321 0.807321 0.807321
0.827176 0.827176 0.827176
0.841628 0.841628 0.841628
0.854208 0.854208 0.854208
0.868407 0.868407 0.868407
0.864300 0.864300 0.864300
0.365266 0.365266 0.365266
0.363420 0.363420 0.363420
0.357913 0.357913 0.357913
0.352619 0.352619 0.352619
0.344864 0.344864 0.344864
0.338300 0.338300 0.338300
0.333998 0.333998 0.333998
0.330899 0.330899 0.330899
0.331549 0.331549 0.331549
0.336054 0.336054 0.336054
0.344464 0.344464 0.344464
0.357138 0.357138 0.357138
0.364002 0.364002 0.364002
0.389056 0.389056 0.389056
0.436687 0.436687 0.436687
0.463627 0.463627 0.463627
0.491419 0.491419 0.491419
0.525895 0.525895 0.525895
0.565099 0.565099 0.565099
0.588978 0.588978 0.588978
0.616273 0.616273 0.616273
0.645273 0.645273 0.645273
0.676382 0.676382 0.676382
0.705692 0.705692 0.705692
0.730846 0.730846 0.730846
0.756305 0.756305 0.756305
0.783689 0.783689 0.783689
0.805254 0.805254 0.805254
0.825554 0.825554 0.825554
0.840038 0.840038 0.840038
0.850569 0.850569 0.850569
0.860974 0.860974 0.860974
0.857344 0.857344 0.857344
0.401721 0.401721 0.401721
0.400077 0.400077 0.400077
0.394989 0.394989 0.394989
0.389133 0.389133 0.389133
0.382857 0.382857 0.382857
0.376603 0.376603 0.376603
0.370706 0.370706 0.370706
0.367001 0.367001 0.367001
0.366351 0.366351 0.366351
0.368563 0.368563 0.368563
0.374375 0.374375 0.374375
0.383487 0.383487 0.383487
0.397106 0.397106 0.397106
0.415607 0.415607 0.415607
0.446103 0.446103 0.446103
0.471399 0.471399 0.471399
0.497584 0.497584 0.497584
0.531354 0.531354 0.531354
0.569344 0.569344 0.569344
0.592769 0.592769 0.592769
0.618955 0.618955 0.618955
0.647803 0.647803 0.647803
0.678223 0.678223 0.678223
0.704984 0.704984 0.704984
0.729716 0.729716 0.729716
0.755055 0.755055 0.755055
0.781117 0.781117 0.781117
0.802308 0.802308 0.802308
0.823354 0.823354 0.823354
0.839460 0.839460 0.839460
0.855932 0.855932 0.855932
0.853363 0.853363 0.853363
0.850186 0.850186 0.850186
0.442036 0.442036 0.442036
0.440874 0.440874 0.440874
0.437178 0.437178 0.437178
0.432430 0.432430 0.432430
0.428858 0.428858 0.428858
0.423175 0.423175 0.423175
0.418165 0.418165 0.418165
0.414961 0.414961 0.414961
0.413430 0.413430 0.413430
0.413650 0.413650 0.413650
0.416591 0.416591 0.416591
0.422453 0.422453 0.422453
0.430776 0.430776 0.430776
0.442300 0.442300 0.442300
0.470398 0.470398 0.470398
0.483164 0.483164 0.483164
0.505935 0.505935 0.505935
0.537890 0.537890 0.537890
0.574471 0.574471 0.574471
0.597829 0.597829 0.597829
0.623399 0.623399 0.623399
0.651901 0.651901 0.651901
0.680871 0.680871 0.680871
0.706510 0.706510 0.706510
0.730214 0.730214 0.730214
0.754205 0.754205 0.754205
0.779856 0.779856 0.779856
0.801384 0.801384 0.801384
0.822035 0.822035 0.822035
0.837877 0.837877 0.837877
0.853703 0.853703 0.853703
0.866948 0.866948 0.866948
0.878044 0.878044 0.878044
0.491596 0.491596 0.491596
0.490562 0.490562 0.490562
0.487215 0.487215 0.487215
0.482615 0.482615 0.482615
0.479893 0.479893 0.479893
0.473681 0.473681 0.473681
0.469434 0.469434 0.469434
0.465644 0.465644 0.465644
0.463376 0.463376 0.463376
0.462997 0.462997 0.462997
0.465011 0.465011 0.465011
0.469083 0.469083 0.469083
0.475855 0.475855 0.475855
0.485223 0.485223 0.485223
0.497380 0.497380 0.497380
0.507617 0.507617 0.507617
0.520049 0.520049 0.520049
0.547400 0.547400 0.547400
0.581581 0.581581 0.581581
0.604008 0.604008 0.604008
0.629206 0.629206 0.629206
0.657430 0.657430 0.657430
0.685538 0.685538 0.685538
0.709770 0.709770 0.709770
0.731977 0.731977 0.731977
0.755543 0.755543 0.755543
0.779875 0.779875 0.779875
0.800551 0.800551 0.800551
0.821523 0.821523 0.821523
0.838177 0.838177 0.838177
0.853568 0.853568 0.853568
0.865723 0.865723 0.865723
0.873307 0.873307 0.873307
0.523327 0.523327 0.523327
0.522404 0.522404 0.522404
0.519368 0.519368 0.519368
0.514962 0.514962 0.514962
0.511470 0.511470 0.511470
0.506777 0.506777 0.506777
0.503678 0.503678 0.503678
0.498612 0.498612 0.498612
0.495819 0.495819 0.495819
0.495164 0.495164 0.495164
0.495753 0.495753 0.495753
0.498430 0.498430 0.498430
0.503889 0.503889 0.503889
0.511575 0.511575 0.511575
0.521668 0.521668 0.521668
0.534255 0.534255 0.534255
0.544519 0.544519 0.544519
0.561548 0.561548 0.561548
0.590623 0.590623 0.590623
0.612265 0.612265 0.612265
0.636270 0.636270 0.636270
0.664039 0.664039 0.664039
0.691774 0.691774 0.691774
0.714126 0.714126 0.714126
0.735671 0.735671 0.735671
0.758319 0.758319 0.758319
0.781065 0.781065 0.781065
0.801618 0.801618 0.801618
0.821774 0.821774 0.821774
0.837800 0.837800 0.837800
0.853999 0.853999 0.853999
0.867870 0.867870 0.867870
0.872619 0.872619 0.872619
0.553307 0.553307 0.553307
0.552582 0.552582 0.552582
0.550164 0.550164 0.550164
0.546362 0.546362 0.546362
0.542500 0.542500 0.542500
0.539287 0.539287 0.539287
0.534293 0.534293 0.534293
0.530411 0.530411 0.530411
0.527742 0.527742 0.527742
0.526201 0.526201 0.526201
0.526220 0.526220 0.526220
0.528022 0.528022 0.528022
0.532235 0.532235 0.532235
0.538261 0.538261 0.538261
0.546772 0.546772 0.546772
0.556459 0.556459 0.556459
0.567984 0.567984 0.567984
0.583083 0.583083 0.583083
0.606204 0.606204 0.606204
0.621522 0.621522 0.621522
0.644884 0.644884 0.644884
0.671757 0.671757 0.671757
0.699210 0.699210 0.699210
0.719891 0.719891 0.719891
0.740971 0.740971 0.740971
0.762516 0.762516 0.762516
0.783978 0.783978 0.783978
0.803445 0.803445 0.803445
0.822880 0.822880 0.822880
0.839081 0.839081 0.839081
0.854752 0.854752 0.854752
0.867864 0.867864 0.867864
0.878910 0.878910 0.878910
0.584921 0.584921 0.584921
0.584282 0.584282 0.584282
0.582128 0.582128 0.582128
0.578772 0.578772 0.578772
0.575329 0.575329 0.575329
0.573810 0.573810 0.573810
0.568582 0.568582 0.568582
0.566260 0.566260 0.566260
0.563450 0.563450 0.563450
0.561403 0.561403 0.561403
0.561069 0.561069 0.561069
0.562169 0.562169 0.562169
0.565162 0.565162 0.565162
0.569182 0.569182 0.569182
0.575615 0.575615 0.575615
0.583675 0.583675 0.583675
0.593738 0.593738 0.593738
0.605771 0.605771 0.605771
0.627467 0.627467 0.627467
0.638830 0.638830 0.638830
0.654820 0.654820 0.654820
0.681006 0.681006 0.681006
0.707359 0.707359 0.707359
0.726732 0.726732 0.726732
0.747550 0.747550 0.747550
0.768321 0.768321 0.768321
0.788336 0.788336 0.788336
0.806869 0.806869 0.806869
0.825167 0.825167 0.825167
0.840630 0.840630 0.840630
0.856449 0.856449 0.856449
0.870311 0.870311 0.870311
0.879933 0.879933 0.879933
0.620970 0.620970 0.620970
0.620416 0.620416 0.620416
0.618538 0.618538 0.618538
0.615556 0.615556 0.615556
0.612312 0.612312 0.612312
0.610526 0.610526 0.610526
0.606718 0.606718 0.606718
0.604251 0.604251 0.604251
0.601325 0.601325 0.601325
0.600102 0.600102 0.600102
0.599555 0.599555 0.599555
0.600314 0.600314 0.600314
0.602120 0.602120 0.602120
0.605586 0.605586 0.605586
0.610703 0.610703 0.610703
0.618121 0.618121 0.618121
0.626744 0.626744 0.626744
0.637102 0.637102 0.637102
0.649577 0.649577 0.649577
0.659820 0.659820 0.659820
0.673527 0.673527 0.673527
0.691639 0.691639 0.691639
0.715876 0.715876 0.715876
0.734798 0.734798 0.734798
0.754846 0.754846 0.754846
0.775333 0.775333 0.775333
0.793929 0.793929 0.793929
0.811838 0.811838 0.811838
0.828207 0.828207 0.828207
0.843395 0.843395 0.843395
0.859002 0.859002 0.859002
0.872092 0.872092 0.872092
0.882222 0.882222 0.882222
0.647112 0.647112 0.647112
0.646609 0.646609 0.646609
0.644892 0.644892 0.644892
0.642103 0.642103 0.642103
0.638881 0.638881 0.638881
0.636537 0.636537 0.636537
0.634014 0.634014 0.634014
0.630366 0.630366 0.630366
0.628392 0.628392 0.628392
0.626943 0.626943 0.626943
0.625425 0.625425 0.625425
0.625599 0.625599 0.625599
0.627112 0.627112 0.627112
0.630000 0.630000 0.630000
0.634541 0.634541 0.634541
0.640644 0.640644 0.640644
0.648384 0.648384 0.648384
0.657932 0.657932 0.657932
0.668799 0.668799 0.668799
0.681776 0.681776 0.681776
0.694159 0.694159 0.694159
0.710349 0.710349 0.710349
0.726149 0.726149 0.726149
0.743911 0.743911 0.743911
0.763517 0.763517 0.763517
0.783060 0.783060 0.783060
0.800771 0.800771 0.800771
0.817319 0.817319 0.817319
0.832442 0.832442 0.832442
0.846997 0.846997 0.846997
0.862070 0.862070 0.862070
0.875438 0.875438 0.875438
0.884386 0.884386 0.884386
0.673874 0.673874 0.673874
0.673426 0.673426 0.673426
0.671889 0.671889 0.671889
0.669350 0.669350 0.669350
0.666299 0.666299 0.666299
0.663743 0.663743 0.663743
0.662452 0.662452 0.662452
0.658240 0.658240 0.658240
0.657272 0.657272 0.657272
0.654130 0.654130 0.654130
0.653433 0.653433 0.653433
0.653801 0.653801 0.653801
0.654516 0.654516 0.654516
0.656593 0.656593 0.656593
0.660452 0.660452 0.660452
0.665874 0.665874 0.665874
0.672441 0.672441 0.672441
0.680755 0.680755 0.680755
0.691111 0.691111 0.691111
0.702439 0.702439 0.702439
0.714224 0.714224 0.714224
0.727616 0.727616 0.727616
0.742832 0.742832 0.742832
0.755477 0.755477 0.755477
0.772997 0.772997 0.772997
0.791713 0.791713 0.791713
0.808829 0.808829 0.808829
0.823325 0.823325 0.823325
0.837716 0.837716 0.837716
0.851413 0.851413 0.851413
0.866141 0.866141 0.866141
0.878162 0.878162 0.878162
0.887182 0.887182 0.887182
0.701559 0.701559 0.701559
0.701173 0.701173 0.701173
0.699842 0.699842 0.699842
0.697624 0.697624 0.697624
0.694895 0.694895 0.694895
0.692438 0.692438 0.692438
0.691672 0.691672 0.691672
0.688140 0.688140 0.688140
0.686113 0.686113 0.686113
0.684333 0.684333 0.684333
0.683836 0.683836 0.683836
0.683016 0.683016 0.683016
0.683935 0.683935 0.683935
0.685984 0.685984 0.685984
0.689125 0.689125 0.689125
0.693853 0.693853 0.693853
0.699788 0.699788 0.699788
0.706846 0.706846 0.706846
0.714559 0.714559 0.714559
0.723942 0.723942 0.723942
0.733992 0.733992 0.733992
0.745589 0.745589 0.745589
0.759732 0.759732 0.759732
0.772019 0.772019 0.772019
0.785098 0.785098 0.785098
0.801008 0.801008 0.801008
0.817283 0.817283 0.817283
0.830390 0.830390 0.830390
0.843993 0.843993 0.843993
0.856937 0.856937 0.856937
0.870908 0.870908 0.870908
0.881585 0.881585 0.881585
0.890523 0.890523 0.890523
0.725925 0.725925 0.725925
0.725636 0.725636 0.725636
0.724639 0.724639 0.724639
0.722959 0.722959 0.722959
0.720847 0.720847 0.720847
0.718826 0.718826 0.718826
0.717844 0.717844 0.717844
0.716109 0.716109 0.716109
0.713846 0.713846 0.713846
0.713403 0.713403 0.713403
0.711746 0.711746 0.711746
0.711795 0.711795 0.711795
0.712837 0.712837 0.712837
0.713757 0.713757 0.713757
0.715978 0.715978 0.715978
0.719473 0.719473 0.719473
0.724209 0.724209 0.724209
0.730048 0.730048 0.730048
0.737056 0.737056 0.737056
0.745301 0.745301 0.745301
0.754882 0.754882 0.754882
0.765381 0.765381 0.765381
0.777121 0.777121 0.777121
0.788378 0.788378 0.788378
0.800497 0.800497 0.800497
0.813486 0.813486 0.813486
0.825421 0.825421 0.825421
0.838161 0.838161 0.838161
0.851281 0.851281 0.851281
0.863481 0.863481 0.863481
0.876239 0.876239 0.876239
0.885565 0.885565 0.885565
0.894158 0.894158 0.894158
0.748500 0.748500 0.748500
0.748236 0.748236 0.748236
0.747316 0.747316 0.747316
0.745746 0.745746 0.745746
0.743713 0.743713 0.743713
0.741621 0.741621 0.741621
0.740208 0.740208 0.740208
0.739324 0.739324 0.739324
0.736627 0.736627 0.736627
0.736003 0.736003 0.736003
0.734457 0.734457 0.734457
0.734703 0.734703 0.734703
0.734428 0.734428 0.734428
0.735822 0.735822 0.735822
0.738180 0.738180 0.738180
0.740907 0.740907 0.740907
0.744949 0.744949 0.744949
0.750186 0.750186 0.750186
0.756642 0.756642 0.756642
0.764243 0.764243 0.764243
0.773075 0.773075 0.773075
0.782688 0.782688 0.782688
0.793181 0.793181 0.793181
0.804684 0.804684 0.804684
0.815736 0.815736 0.815736
0.826009 0.826009 0.826009
0.836487 0.836487 0.836487
0.846547 0.846547 0.846547
0.859245 0.859245 0.859245
0.870931 0.870931 0.870931
0.881235 0.881235 0.881235
0.889954 0.889954 0.889954
0.898450 0.898450 0.898450
0.768571 0.768571 0.768571
0.768346 0.768346 0.768346
0.767559 0.767559 0.767559
0.766209 0.766209 0.766209
0.764438 0.764438 0.764438
0.762564 0.762564 0.762564
0.761163 0.761163 0.761163
0.761257 0.761257 0.761257
0.758581 0.758581 0.758581
0.757381 0.757381 0.757381
0.757020 0.757020 0.757020
0.756235 0.756235 0.756235
0.756729 0.756729 0.756729
0.758020 0.758020 0.758020
0.759509 0.759509 0.759509
0.762355 0.762355 0.762355
0.766265 0.766265 0.766265
0.771098 0.771098 0.771098
0.776886 0.776886 0.776886
0.783577 0.783577 0.783577
0.791161 0.791161 0.791161
0.799770 0.799770 0.799770
0.809341 0.809341 0.809341
0.819134 0.819134 0.819134
0.828731 0.828731 0.828731
0.838374 0.838374 0.838374
0.848990 0.848990 0.848990
0.857939 0.857939 0.857939
0.867926 0.867926 0.867926
0.878162 0.878162 0.878162
0.886883 0.886883 0.886883
0.895082 0.895082 0.895082
0.903080 0.903080 0.903080
0.787089 0.787089 0.787089
0.786911 0.786911 0.786911
0.786287 0.786287 0.786287
0.785214 0.785214 0.785214
0.783794 0.783794 0.783794
0.782265 0.782265 0.782265
0.781059 0.781059 0.781059
0.780943 0.780943 0.780943
0.779690 0.779690 0.779690
0.778302 0.778302 0.778302
0.779060 0.779060 0.779060
0.777762 0.777762 0.777762
0.778920 0.778920 0.778920
0.779191 0.779191 0.779191
0.781177 0.781177 0.781177
0.783620 0.783620 0.783620
0.786709 0.786709 0.786709
0.790858 0.790858 0.790858
0.795916 0.795916 0.795916
0.802006 0.802006 0.802006
0.809058 0.809058 0.809058
0.816601 0.816601 0.816601
0.824002 0.824002 0.824002
0.832123 0.832123 0.832123
0.841199 0.841199 0.841199
0.850702 0.850702 0.850702
0.861517 0.861517 0.861517
0.870171 0.870171 0.870171
0.878619 0.878619 0.878619
0.885044 0.885044 0.885044
0.892997 0.892997 0.892997
0.900756 0.900756 0.900756
0.908447 0.908447 0.908447
0.809873 0.809873 0.809873
0.809701 0.809701 0.809701
0.809093 0.809093 0.809093
0.808029 0.808029 0.808029
0.806575 0.806575 0.806575
0.804904 0.804904 0.804904
0.803351 0.803351 0.803351
0.802548 0.802548 0.802548
0.801898 0.801898 0.801898
0.800105 0.800105 0.800105
0.799805 0.799805 0.799805
0.799490 0.799490 0.799490
0.799473 0.799473 0.799473
0.800311 0.800311 0.800311
0.801726 0.801726 0.801726
0.803656 0.803656 0.803656
0.806883 0.806883 0.806883
0.810699 0.810699 0.810699
0.814937 0.814937 0.814937
0.819510 0.819510 0.819510
0.824958 0.824958 0.824958
0.831247 0.831247 0.831247
0.838355 0.838355 0.838355
0.846228 0.846228 0.846228
0.854882 0.854882 0.854882
