LUTs/trix_modern/TriX_Red25_Hard.cube
TITLE "Tri-X Red25 Hard"
# Adobe RGB in/out. REPLACES AgX. Tri-X Red25 Hard.
LUT_3D_SIZE 33
DOMAIN_MIN 0.0 0.0 0.0
DOMAIN_MAX 1.0 1.0 1.0
0.093024 0.093024 0.093024
0.093024 0.093024 0.093024
0.093024 0.093024 0.093024
0.093107 0.093107 0.093107
0.093423 0.093423 0.093423
0.093896 0.093896 0.093896
0.096973 0.096973 0.096973
0.119803 0.119803 0.119803
0.153059 0.153059 0.153059
0.230728 0.230728 0.230728
0.414170 0.414170 0.414170
0.562532 0.562532 0.562532
0.704592 0.704592 0.704592
0.834647 0.834647 0.834647
0.930234 0.930234 0.930234
0.969089 0.969089 0.969089
0.983607 0.983607 0.983607
0.990284 0.990284 0.990284
0.994317 0.994317 0.994317
0.996883 0.996883 0.996883
0.998042 0.998042 0.998042
0.998363 0.998363 0.998363
0.998669 0.998669 0.998669
0.998965 0.998965 0.998965
0.999170 0.999170 0.999170
0.999340 0.999340 0.999340
0.999560 0.999560 0.999560
0.999631 0.999631 0.999631
0.999779 0.999779 0.999779
0.999712 0.999712 0.999712
0.999644 0.999644 0.999644
0.999577 0.999577 0.999577
0.999510 0.999510 0.999510
0.093024 0.093024 0.093024
0.093024 0.093024 0.093024
0.093042 0.093042 0.093042
0.093152 0.093152 0.093152
0.093553 0.093553 0.093553
0.094055 0.094055 0.094055
0.097356 0.097356 0.097356
0.122642 0.122642 0.122642
0.155943 0.155943 0.155943
0.233914 0.233914 0.233914
0.416739 0.416739 0.416739
0.563269 0.563269 0.563269
0.703829 0.703829 0.703829
0.833519 0.833519 0.833519
0.929177 0.929177 0.929177
0.968269 0.968269 0.968269
0.983423 0.983423 0.983423
0.990099 0.990099 0.990099
0.994237 0.994237 0.994237
0.996805 0.996805 0.996805
0.998030 0.998030 0.998030
0.998352 0.998352 0.998352
0.998660 0.998660 0.998660
0.998957 0.998957 0.998957
0.999162 0.999162 0.999162
0.999333 0.999333 0.999333
0.999554 0.999554 0.999554
0.999627 0.999627 0.999627
0.999775 0.999775 0.999775
0.999708 0.999708 0.999708
0.999641 0.999641 0.999641
0.999574 0.999574 0.999574
0.999508 0.999508 0.999508
0.093024 0.093024 0.093024
0.093024 0.093024 0.093024
0.093024 0.093024 0.093024
0.093122 0.093122 0.093122
0.093599 0.093599 0.093599
0.094731 0.094731 0.094731
0.099506 0.099506 0.099506
0.139032 0.139032 0.139032
0.172091 0.172091 0.172091
0.249536 0.249536 0.249536
0.430169 0.430169 0.430169
0.568899 0.568899 0.568899
0.703136 0.703136 0.703136
0.830237 0.830237 0.830237
0.925706 0.925706 0.925706
0.965466 0.965466 0.965466
0.982163 0.982163 0.982163
0.989445 0.989445 0.989445
0.993952 0.993952 0.993952
0.996527 0.996527 0.996527
0.997988 0.997988 0.997988
0.998314 0.998314 0.998314
0.998626 0.998626 0.998626
0.998926 0.998926 0.998926
0.999136 0.999136 0.999136
0.999310 0.999310 0.999310
0.999533 0.999533 0.999533
0.999609 0.999609 0.999609
0.999762 0.999762 0.999762
0.999696 0.999696 0.999696
0.999630 0.999630 0.999630
0.999564 0.999564 0.999564
0.999498 0.999498 0.999498
0.093024 0.093024 0.093024
0.093024 0.093024 0.093024
0.093024 0.093024 0.093024
0.093069 0.093069 0.093069
0.093329 0.093329 0.093329
0.093872 0.093872 0.093872
0.098360 0.098360 0.098360
0.139765 0.139765 0.139765
0.186680 0.186680 0.186680
0.273634 0.273634 0.273634
0.461871 0.461871 0.461871
0.592214 0.592214 0.592214
0.710447 0.710447 0.710447
0.827395 0.827395 0.827395
0.920659 0.920659 0.920659
0.960902 0.960902 0.960902
0.979707 0.979707 0.979707
0.988288 0.988288 0.988288
0.993439 0.993439 0.993439
0.996021 0.996021 0.996021
0.997903 0.997903 0.997903
0.998245 0.998245 0.998245
0.998563 0.998563 0.998563
0.998869 0.998869 0.998869
0.999086 0.999086 0.999086
0.999266 0.999266 0.999266
0.999494 0.999494 0.999494
0.999576 0.999576 0.999576
0.999739 0.999739 0.999739
0.999675 0.999675 0.999675
0.999611 0.999611 0.999611
0.999546 0.999546 0.999546
0.999481 0.999481 0.999481
0.093024 0.093024 0.093024
0.093024 0.093024 0.093024
0.093024 0.093024 0.093024
0.093084 0.093084 0.093084
0.093242 0.093242 0.093242
0.093419 0.093419 0.093419
0.095672 0.095672 0.095672
0.116043 0.116043 0.116043
0.167363 0.167363 0.167363
0.265160 0.265160 0.265160
0.463158 0.463158 0.463158
0.592357 0.592357 0.592357
0.712243 0.712243 0.712243
0.826409 0.826409 0.826409
0.916027 0.916027 0.916027
0.955557 0.955557 0.955557
0.976476 0.976476 0.976476
0.986675 0.986675 0.986675
0.992701 0.992701 0.992701
0.995275 0.995275 0.995275
0.997645 0.997645 0.997645
0.998140 0.998140 0.998140
0.998469 0.998469 0.998469
0.998784 0.998784 0.998784
0.999011 0.999011 0.999011
0.999201 0.999201 0.999201
0.999436 0.999436 0.999436
0.999527 0.999527 0.999527
0.999704 0.999704 0.999704
0.999643 0.999643 0.999643
0.999581 0.999581 0.999581
0.999519 0.999519 0.999519
0.999457 0.999457 0.999457
0.093024 0.093024 0.093024
0.093024 0.093024 0.093024
0.093027 0.093027 0.093027
0.093074 0.093074 0.093074
0.093175 0.093175 0.093175
0.093356 0.093356 0.093356
0.094112 0.094112 0.094112
0.100457 0.100457 0.100457
0.130716 0.130716 0.130716
0.220149 0.220149 0.220149
0.412883 0.412883 0.412883
0.562075 0.562075 0.562075
0.694481 0.694481 0.694481
0.815255 0.815255 0.815255
0.903292 0.903292 0.903292
0.948588 0.948588 0.948588
0.972705 0.972705 0.972705
0.984733 0.984733 0.984733
0.991249 0.991249 0.991249
0.994285 0.994285 0.994285
0.996687 0.996687 0.996687
0.997997 0.997997 0.997997
0.998338 0.998338 0.998338
0.998665 0.998665 0.998665
0.998908 0.998908 0.998908
0.999110 0.999110 0.999110
0.999355 0.999355 0.999355
0.999459 0.999459 0.999459
0.999659 0.999659 0.999659
0.999601 0.999601 0.999601
0.999543 0.999543 0.999543
0.999484 0.999484 0.999484
0.999424 0.999424 0.999424
0.093024 0.093024 0.093024
0.093024 0.093024 0.093024
0.093046 0.093046 0.093046
0.093087 0.093087 0.093087
0.093192 0.093192 0.093192
0.093361 0.093361 0.093361
0.093814 0.093814 0.093814
0.096683 0.096683 0.096683
0.105573 0.105573 0.105573
0.165016 0.165016 0.165016
0.329322 0.329322 0.329322
0.494507 0.494507 0.494507
0.641528 0.641528 0.641528
0.787164 0.787164 0.787164
0.887912 0.887912 0.887912
0.937251 0.937251 0.937251
0.966347 0.966347 0.966347
0.981673 0.981673 0.981673
0.988974 0.988974 0.988974
0.993167 0.993167 0.993167
0.995508 0.995508 0.995508
0.997736 0.997736 0.997736
0.998166 0.998166 0.998166
0.998507 0.998507 0.998507
0.998770 0.998770 0.998770
0.998990 0.998990 0.998990
0.999247 0.999247 0.999247
0.999370 0.999370 0.999370
0.999603 0.999603 0.999603
0.999550 0.999550 0.999550
0.999495 0.999495 0.999495
0.999440 0.999440 0.999440
0.999383 0.999383 0.999383
0.093037 0.093037 0.093037
0.093043 0.093043 0.093043
0.093066 0.093066 0.093066
0.093112 0.093112 0.093112
0.093219 0.093219 0.093219
0.093382 0.093382 0.093382
0.093857 0.093857 0.093857
0.095783 0.095783 0.095783
0.099129 0.099129 0.099129
0.126721 0.126721 0.126721
0.247773 0.247773 0.247773
0.401935 0.401935 0.401935
0.554306 0.554306 0.554306
0.735142 0.735142 0.735142
0.861731 0.861731 0.861731
0.920102 0.920102 0.920102
0.955727 0.955727 0.955727
0.976611 0.976611 0.976611
0.986551 0.986551 0.986551
0.991825 0.991825 0.991825
0.994380 0.994380 0.994380
0.996634 0.996634 0.996634
0.997983 0.997983 0.997983
0.998318 0.998318 0.998318
0.998587 0.998587 0.998587
0.998830 0.998830 0.998830
0.999101 0.999101 0.999101
0.999251 0.999251 0.999251
0.999538 0.999538 0.999538
0.999490 0.999490 0.999490
0.999440 0.999440 0.999440
0.999388 0.999388 0.999388
0.999335 0.999335 0.999335
0.093048 0.093048 0.093048
0.093052 0.093052 0.093052
0.093069 0.093069 0.093069
0.093109 0.093109 0.093109
0.093193 0.093193 0.093193
0.093330 0.093330 0.093330
0.093608 0.093608 0.093608
0.094650 0.094650 0.094650
0.097203 0.097203 0.097203
0.107287 0.107287 0.107287
0.185206 0.185206 0.185206
0.307543 0.307543 0.307543
0.459905 0.459905 0.459905
0.645360 0.645360 0.645360
0.820114 0.820114 0.820114
0.892647 0.892647 0.892647
0.940882 0.940882 0.940882
0.971096 0.971096 0.971096
0.984049 0.984049 0.984049
0.989149 0.989149 0.989149
0.993101 0.993101 0.993101
0.995407 0.995407 0.995407
0.997646 0.997646 0.997646
0.998144 0.998144 0.998144
0.998431 0.998431 0.998431
0.998673 0.998673 0.998673
0.998935 0.998935 0.998935
0.999092 0.999092 0.999092
0.999465 0.999465 0.999465
0.999422 0.999422 0.999422
0.999377 0.999377 0.999377
0.999330 0.999330 0.999330
0.999281 0.999281 0.999281
0.093062 0.093062 0.093062
0.093066 0.093066 0.093066
0.093078 0.093078 0.093078
0.093118 0.093118 0.093118
0.093194 0.093194 0.093194
0.093318 0.093318 0.093318
0.093496 0.093496 0.093496
0.094249 0.094249 0.094249
0.096392 0.096392 0.096392
0.101921 0.101921 0.101921
0.149300 0.149300 0.149300
0.235118 0.235118 0.235118
0.363300 0.363300 0.363300
0.542173 0.542173 0.542173
0.758778 0.758778 0.758778
0.854152 0.854152 0.854152
0.918059 0.918059 0.918059
0.958788 0.958788 0.958788
0.979242 0.979242 0.979242
0.986513 0.986513 0.986513
0.991559 0.991559 0.991559
0.994162 0.994162 0.994162
0.996359 0.996359 0.996359
0.997933 0.997933 0.997933
0.998246 0.998246 0.998246
0.998510 0.998510 0.998510
0.998791 0.998791 0.998791
0.998968 0.998968 0.998968
0.999140 0.999140 0.999140
0.999231 0.999231 0.999231
0.999296 0.999296 0.999296
0.999265 0.999265 0.999265
0.999221 0.999221 0.999221
0.093083 0.093083 0.093083
0.093088 0.093088 0.093088
0.093106 0.093106 0.093106
0.093153 0.093153 0.093153
0.093233 0.093233 0.093233
0.093344 0.093344 0.093344
0.093564 0.093564 0.093564
0.094354 0.094354 0.094354
0.096477 0.096477 0.096477
0.102100 0.102100 0.102100
0.131259 0.131259 0.131259
0.191810 0.191810 0.191810
0.282743 0.282743 0.282743
0.447989 0.447989 0.447989
0.663663 0.663663 0.663663
0.805093 0.805093 0.805093
0.883509 0.883509 0.883509
0.941203 0.941203 0.941203
0.973088 0.973088 0.973088
0.983790 0.983790 0.983790
0.988826 0.988826 0.988826
0.992919 0.992919 0.992919
0.995161 0.995161 0.995161
0.997313 0.997313 0.997313
0.998047 0.998047 0.998047
0.998315 0.998315 0.998315
0.998619 0.998619 0.998619
0.998822 0.998822 0.998822
0.999015 0.999015 0.999015
0.999127 0.999127 0.999127
0.999215 0.999215 0.999215
0.999196 0.999196 0.999196
0.999156 0.999156 0.999156
0.093102 0.093102 0.093102
0.093105 0.093105 0.093105
0.093120 0.093120 0.093120
0.093164 0.093164 0.093164
0.093233 0.093233 0.093233
0.093335 0.093335 0.093335
0.093494 0.093494 0.093494
0.094017 0.094017 0.094017
0.095777 0.095777 0.095777
0.099573 0.099573 0.099573
0.116773 0.116773 0.116773
0.166320 0.166320 0.166320
0.236973 0.236973 0.236973
0.359495 0.359495 0.359495
0.564417 0.564417 0.564417
0.732156 0.732156 0.732156
0.838970 0.838970 0.838970
0.915423 0.915423 0.915423
0.961845 0.961845 0.961845
0.978078 0.978078 0.978078
0.986133 0.986133 0.986133
0.991188 0.991188 0.991188
0.993940 0.993940 0.993940
0.996044 0.996044 0.996044
0.997843 0.997843 0.997843
0.998143 0.998143 0.998143
0.998444 0.998444 0.998444
0.998654 0.998654 0.998654
0.998862 0.998862 0.998862
0.999004 0.999004 0.999004
0.999121 0.999121 0.999121
0.999123 0.999123 0.999123
0.999087 0.999087 0.999087
0.093114 0.093114 0.093114
0.093117 0.093117 0.093117
0.093131 0.093131 0.093131
0.093169 0.093169 0.093169
0.093234 0.093234 0.093234
0.093326 0.093326 0.093326
0.093430 0.093430 0.093430
0.093859 0.093859 0.093859
0.095034 0.095034 0.095034
0.097614 0.097614 0.097614
0.105610 0.105610 0.105610
0.140030 0.140030 0.140030
0.205853 0.205853 0.205853
0.307794 0.307794 0.307794
0.475181 0.475181 0.475181
0.640928 0.640928 0.640928
0.785567 0.785567 0.785567
0.880445 0.880445 0.880445
0.945182 0.945182 0.945182
0.971457 0.971457 0.971457
0.983357 0.983357 0.983357
0.988564 0.988564 0.988564
0.992771 0.992771 0.992771
0.994886 0.994886 0.994886
0.996827 0.996827 0.996827
0.997946 0.997946 0.997946
0.998269 0.998269 0.998269
0.998502 0.998502 0.998502
0.998719 0.998719 0.998719
0.998869 0.998869 0.998869
0.998975 0.998975 0.998975
0.999048 0.999048 0.999048
0.999016 0.999016 0.999016
0.093132 0.093132 0.093132
0.093136 0.093136 0.093136
0.093152 0.093152 0.093152
0.093183 0.093183 0.093183
0.093249 0.093249 0.093249
0.093330 0.093330 0.093330
0.093425 0.093425 0.093425
0.093811 0.093811 0.093811
0.094806 0.094806 0.094806
0.096851 0.096851 0.096851
0.102254 0.102254 0.102254
0.127597 0.127597 0.127597
0.181544 0.181544 0.181544
0.268670 0.268670 0.268670
0.424926 0.424926 0.424926
0.554349 0.554349 0.554349
0.712969 0.712969 0.712969
0.836439 0.836439 0.836439
0.920000 0.920000 0.920000
0.958250 0.958250 0.958250
0.977162 0.977162 0.977162
0.985960 0.985960 0.985960
0.991013 0.991013 0.991013
0.993732 0.993732 0.993732
0.995676 0.995676 0.995676
0.997526 0.997526 0.997526
0.998090 0.998090 0.998090
0.998328 0.998328 0.998328
0.998570 0.998570 0.998570
0.998744 0.998744 0.998744
0.998871 0.998871 0.998871
0.998931 0.998931 0.998931
0.998942 0.998942 0.998942
0.093162 0.093162 0.093162
0.093166 0.093166 0.093166
0.093179 0.093179 0.093179
0.093213 0.093213 0.093213
0.093276 0.093276 0.093276
0.093349 0.093349 0.093349
0.093438 0.093438 0.093438
0.093833 0.093833 0.093833
0.094795 0.094795 0.094795
0.096767 0.096767 0.096767
0.101609 0.101609 0.101609
0.124290 0.124290 0.124290
0.174866 0.174866 0.174866
0.256894 0.256894 0.256894
0.374403 0.374403 0.374403
0.500665 0.500665 0.500665
0.638560 0.638560 0.638560
0.787651 0.787651 0.787651
0.887576 0.887576 0.887576
0.940074 0.940074 0.940074
0.970697 0.970697 0.970697
0.983347 0.983347 0.983347
0.988571 0.988571 0.988571
0.992633 0.992633 0.992633
0.994609 0.994609 0.994609
0.996436 0.996436 0.996436
0.997909 0.997909 0.997909
0.998174 0.998174 0.998174
0.998419 0.998419 0.998419
0.998603 0.998603 0.998603
0.998755 0.998755 0.998755
0.998837 0.998837 0.998837
0.998867 0.998867 0.998867
0.093176 0.093176 0.093176
0.093179 0.093179 0.093179
0.093193 0.093193 0.093193
0.093223 0.093223 0.093223
0.093277 0.093277 0.093277
0.093347 0.093347 0.093347
0.093434 0.093434 0.093434
0.093766 0.093766 0.093766
0.094524 0.094524 0.094524
0.096207 0.096207 0.096207
0.099683 0.099683 0.099683
0.112872 0.112872 0.112872
0.152659 0.152659 0.152659
0.221897 0.221897 0.221897
0.321377 0.321377 0.321377
0.453500 0.453500 0.453500
0.583246 0.583246 0.583246
0.735039 0.735039 0.735039
0.849736 0.849736 0.849736
0.916544 0.916544 0.916544
0.957221 0.957221 0.957221
0.977469 0.977469 0.977469
0.986146 0.986146 0.986146
0.990876 0.990876 0.990876
0.993579 0.993579 0.993579
0.995427 0.995427 0.995427
0.997379 0.997379 0.997379
0.998010 0.998010 0.998010
0.998270 0.998270 0.998270
0.998477 0.998477 0.998477
0.998638 0.998638 0.998638
0.998731 0.998731 0.998731
0.998786 0.998786 0.998786
0.093188 0.093188 0.093188
0.093192 0.093192 0.093192
0.093205 0.093205 0.093205
0.093232 0.093232 0.093232
0.093278 0.093278 0.093278
0.093348 0.093348 0.093348
0.093420 0.093420 0.093420
0.093697 0.093697 0.093697
0.094274 0.094274 0.094274
0.095664 0.095664 0.095664
0.098240 0.098240 0.098240
0.105507 0.105507 0.105507
0.135667 0.135667 0.135667
0.190552 0.190552 0.190552
0.276344 0.276344 0.276344
0.396342 0.396342 0.396342
0.531211 0.531211 0.531211
0.682268 0.682268 0.682268
0.817016 0.817016 0.817016
0.885910 0.885910 0.885910
0.940391 0.940391 0.940391
0.971423 0.971423 0.971423
0.983701 0.983701 0.983701
0.988612 0.988612 0.988612
0.992606 0.992606 0.992606
0.994493 0.994493 0.994493
0.996394 0.996394 0.996394
0.997845 0.997845 0.997845
0.998125 0.998125 0.998125
0.998339 0.998339 0.998339
0.998523 0.998523 0.998523
0.998637 0.998637 0.998637
0.998695 0.998695 0.998695
0.093206 0.093206 0.093206
0.093209 0.093209 0.093209
0.093221 0.093221 0.093221
0.093245 0.093245 0.093245
0.093287 0.093287 0.093287
0.093357 0.093357 0.093357
0.093417 0.093417 0.093417
0.093685 0.093685 0.093685
0.094153 0.094153 0.094153
0.095328 0.095328 0.095328
0.097312 0.097312 0.097312
0.102945 0.102945 0.102945
0.126176 0.126176 0.126176
0.172210 0.172210 0.172210
0.248468 0.248468 0.248468
0.355121 0.355121 0.355121
0.487010 0.487010 0.487010
0.633423 0.633423 0.633423
0.784229 0.784229 0.784229
0.859802 0.859802 0.859802
0.918890 0.918890 0.918890
0.960041 0.960041 0.960041
0.978732 0.978732 0.978732
0.986358 0.986358 0.986358
0.991065 0.991065 0.991065
0.993608 0.993608 0.993608
0.995499 0.995499 0.995499
0.997148 0.997148 0.997148
0.997980 0.997980 0.997980
0.998215 0.998215 0.998215
0.998408 0.998408 0.998408
0.998535 0.998535 0.998535
0.998613 0.998613 0.998613
0.093228 0.093228 0.093228
0.093231 0.093231 0.093231
0.093242 0.093242 0.093242
0.093263 0.093263 0.093263
0.093303 0.093303 0.093303
0.093365 0.093365 0.093365
0.093426 0.093426 0.093426
0.093693 0.093693 0.093693
0.094100 0.094100 0.094100
0.095240 0.095240 0.095240
0.097103 0.097103 0.097103
0.101841 0.101841 0.101841
0.121117 0.121117 0.121117
0.162664 0.162664 0.162664
0.232659 0.232659 0.232659
0.334585 0.334585 0.334585
0.462080 0.462080 0.462080
0.603429 0.603429 0.603429
0.749029 0.749029 0.749029
0.833935 0.833935 0.833935
0.898819 0.898819 0.898819
0.946713 0.946713 0.946713
0.973278 0.973278 0.973278
0.984133 0.984133 0.984133
0.989025 0.989025 0.989025
0.992766 0.992766 0.992766
0.994674 0.994674 0.994674
0.996315 0.996315 0.996315
0.997839 0.997839 0.997839
0.998089 0.998089 0.998089
0.998297 0.998297 0.998297
0.998443 0.998443 0.998443
0.998531 0.998531 0.998531
0.093232 0.093232 0.093232
0.093234 0.093234 0.093234
0.093244 0.093244 0.093244
0.093263 0.093263 0.093263
0.093300 0.093300 0.093300
0.093355 0.093355 0.093355
0.093418 0.093418 0.093418
0.093614 0.093614 0.093614
0.093943 0.093943 0.093943
0.094893 0.094893 0.094893
0.096473 0.096473 0.096473
0.099735 0.099735 0.099735
0.111108 0.111108 0.111108
0.144343 0.144343 0.144343
0.202304 0.202304 0.202304
0.289223 0.289223 0.289223
0.408695 0.408695 0.408695
0.541666 0.541666 0.541666
0.686647 0.686647 0.686647
0.808463 0.808463 0.808463
0.879489 0.879489 0.879489
0.933054 0.933054 0.933054
0.965739 0.965739 0.965739
0.980257 0.980257 0.980257
0.987057 0.987057 0.987057
0.991669 0.991669 0.991669
0.993894 0.993894 0.993894
0.995554 0.995554 0.995554
0.997238 0.997238 0.997238
0.997967 0.997967 0.997967
0.998191 0.998191 0.998191
0.998348 0.998348 0.998348
0.998453 0.998453 0.998453
0.093235 0.093235 0.093235
0.093237 0.093237 0.093237
0.093247 0.093247 0.093247
0.093264 0.093264 0.093264
0.093297 0.093297 0.093297
0.093347 0.093347 0.093347
0.093412 0.093412 0.093412
0.093557 0.093557 0.093557
0.093895 0.093895 0.093895
0.094606 0.094606 0.094606
0.096016 0.096016 0.096016
0.098689 0.098689 0.098689
0.105391 0.105391 0.105391
0.130892 0.130892 0.130892
0.179396 0.179396 0.179396
0.255689 0.255689 0.255689
0.360868 0.360868 0.360868
0.489453 0.489453 0.489453
0.635669 0.635669 0.635669
0.769393 0.769393 0.769393
0.855914 0.855914 0.855914
0.919170 0.919170 0.919170
0.957673 0.957673 0.957673
0.975773 0.975773 0.975773
0.985094 0.985094 0.985094
0.989939 0.989939 0.989939
0.993164 0.993164 0.993164
0.994866 0.994866 0.994866
0.996532 0.996532 0.996532
0.997845 0.997845 0.997845
0.998086 0.998086 0.998086
0.998260 0.998260 0.998260
0.998378 0.998378 0.998378
0.093239 0.093239 0.093239
0.093242 0.093242 0.093242
0.093250 0.093250 0.093250
0.093267 0.093267 0.093267
0.093297 0.093297 0.093297
0.093342 0.093342 0.093342
0.093407 0.093407 0.093407
0.093525 0.093525 0.093525
0.093821 0.093821 0.093821
0.094435 0.094435 0.094435
0.095707 0.095707 0.095707
0.097558 0.097558 0.097558
0.102595 0.102595 0.102595
0.122382 0.122382 0.122382
0.162883 0.162883 0.162883
0.230543 0.230543 0.230543
0.325610 0.325610 0.325610
0.450917 0.450917 0.450917
0.588522 0.588522 0.588522
0.735746 0.735746 0.735746
0.832209 0.832209 0.832209
0.900806 0.900806 0.900806
0.949310 0.949310 0.949310
0.972360 0.972360 0.972360
0.983386 0.983386 0.983386
0.988217 0.988217 0.988217
0.992474 0.992474 0.992474
0.994233 0.994233 0.994233
0.995900 0.995900 0.995900
0.997404 0.997404 0.997404
0.997990 0.997990 0.997990
0.998175 0.998175 0.998175
0.998305 0.998305 0.998305
0.093239 0.093239 0.093239
0.093241 0.093241 0.093241
0.093249 0.093249 0.093249
0.093264 0.093264 0.093264
0.093293 0.093293 0.093293
0.093334 0.093334 0.093334
0.093393 0.093393 0.093393
0.093487 0.093487 0.093487
0.093752 0.093752 0.093752
0.094286 0.094286 0.094286
0.095241 0.095241 0.095241
0.096948 0.096948 0.096948
0.100699 0.100699 0.100699
0.114161 0.114161 0.114161
0.148798 0.148798 0.148798
0.207217 0.207217 0.207217
0.293552 0.293552 0.293552
0.413286 0.413286 0.413286
0.545171 0.545171 0.545171
0.691625 0.691625 0.691625
0.810961 0.810961 0.810961
0.883963 0.883963 0.883963
0.936426 0.936426 0.936426
0.967341 0.967341 0.967341
0.980455 0.980455 0.980455
0.986798 0.986798 0.986798
0.991346 0.991346 0.991346
0.993636 0.993636 0.993636
0.995348 0.995348 0.995348
0.996838 0.996838 0.996838
0.997892 0.997892 0.997892
0.998093 0.998093 0.998093
0.998238 0.998238 0.998238
0.093225 0.093225 0.093225
0.093227 0.093227 0.093227
0.093234 0.093234 0.093234
0.093249 0.093249 0.093249
0.093273 0.093273 0.093273
0.093312 0.093312 0.093312
0.093368 0.093368 0.093368
0.093433 0.093433 0.093433
0.093642 0.093642 0.093642
0.093963 0.093963 0.093963
0.094805 0.094805 0.094805
0.096362 0.096362 0.096362
0.098990 0.098990 0.098990
0.106624 0.106624 0.106624
0.134218 0.134218 0.134218
0.181992 0.181992 0.181992
0.256713 0.256713 0.256713
0.362821 0.362821 0.362821
0.492688 0.492688 0.492688
0.638509 0.638509 0.638509
0.774352 0.774352 0.774352
0.859588 0.859588 0.859588
0.921479 0.921479 0.921479
0.959406 0.959406 0.959406
0.977243 0.977243 0.977243
0.985597 0.985597 0.985597
0.990215 0.990215 0.990215
0.993069 0.993069 0.993069
0.994836 0.994836 0.994836
0.996343 0.996343 0.996343
0.997798 0.997798 0.997798
0.998019 0.998019 0.998019
0.998175 0.998175 0.998175
0.093210 0.093210 0.093210
0.093212 0.093212 0.093212
0.093220 0.093220 0.093220
0.093234 0.093234 0.093234
0.093255 0.093255 0.093255
0.093291 0.093291 0.093291
0.093343 0.093343 0.093343
0.093414 0.093414 0.093414
0.093543 0.093543 0.093543
0.093835 0.093835 0.093835
0.094514 0.094514 0.094514
0.095679 0.095679 0.095679
0.097672 0.097672 0.097672
0.102835 0.102835 0.102835
0.121278 0.121278 0.121278
0.160756 0.160756 0.160756
0.228128 0.228128 0.228128
0.323969 0.323969 0.323969
0.449860 0.449860 0.449860
0.588654 0.588654 0.588654
0.735653 0.735653 0.735653
0.834245 0.834245 0.834245
0.903259 0.903259 0.903259
0.950550 0.950550 0.950550
0.973889 0.973889 0.973889
0.984317 0.984317 0.984317
0.989231 0.989231 0.989231
0.992672 0.992672 0.992672
0.994370 0.994370 0.994370
0.995915 0.995915 0.995915
0.997364 0.997364 0.997364
0.997949 0.997949 0.997949
0.998115 0.998115 0.998115
0.093191 0.093191 0.093191
0.093193 0.093193 0.093193
0.093200 0.093200 0.093200
0.093213 0.093213 0.093213
0.093234 0.093234 0.093234
0.093265 0.093265 0.093265
0.093314 0.093314 0.093314
0.093382 0.093382 0.093382
0.093442 0.093442 0.093442
0.093709 0.093709 0.093709
0.094238 0.094238 0.094238
0.095072 0.095072 0.095072
0.096886 0.096886 0.096886
0.100115 0.100115 0.100115
0.112570 0.112570 0.112570
0.145847 0.145847 0.145847
0.201207 0.201207 0.201207
0.285681 0.285681 0.285681
0.404687 0.404687 0.404687
0.538962 0.538962 0.538962
0.687473 0.687473 0.687473
0.810385 0.810385 0.810385
0.885299 0.885299 0.885299
0.938498 0.938498 0.938498
0.970206 0.970206 0.970206
0.982592 0.982592 0.982592
0.988200 0.988200 0.988200
0.992314 0.992314 0.992314
0.994090 0.994090 0.994090
0.995557 0.995557 0.995557
0.996986 0.996986 0.996986
0.997882 0.997882 0.997882
0.998065 0.998065 0.998065
0.093148 0.093148 0.093148
0.093150 0.093150 0.093150
0.093155 0.093155 0.093155
0.093166 0.093166 0.093166
0.093182 0.093182 0.093182
0.093212 0.093212 0.093212
0.093255 0.093255 0.093255
0.093323 0.093323 0.093323
0.093396 0.093396 0.093396
0.093499 0.093499 0.093499
0.093835 0.093835 0.093835
0.094528 0.094528 0.094528
0.095819 0.095819 0.095819
0.098146 0.098146 0.098146
0.104246 0.104246 0.104246
0.126741 0.126741 0.126741
0.173388 0.173388 0.173388
0.247479 0.247479 0.247479
0.350674 0.350674 0.350674
0.482410 0.482410 0.482410
0.631979 0.631979 0.631979
0.772710 0.772710 0.772710
0.862304 0.862304 0.862304
0.924929 0.924929 0.924929
0.962787 0.962787 0.962787
