LUTs/trix_modern/TriX_Red25_Normal.cube
TITLE "Tri-X Red25 Normal"
# Adobe RGB in/out. REPLACES AgX. Tri-X Red25 Normal.
LUT_3D_SIZE 5
DOMAIN_MIN 0.0 0.0 0.0
DOMAIN_MAX 1.0 1.0 1.0
0.093230 0.093230 0.093230
0.303754 0.303754 0.303754
0.801431 0.801431 0.801431
0.976834 0.976834 0.976834
0.982297 0.982297 0.982297
0.093249 0.093249 0.093249
0.186055 0.186055 0.186055
0.710351 0.710351 0.710351
0.957090 0.957090 0.957090
0.978613 0.978613 0.978613
0.093921 0.093921 0.093921
0.129747 0.129747 0.129747
0.487106 0.487106 0.487106
0.862693 0.862693 0.862693
0.967655 0.967655 0.967655
0.094202 0.094202 0.094202
0.106168 0.106168 0.106168
0.354318 0.354318 0.354318
0.771617 0.771617 0.771617
0.944625 0.944625 0.944625
0.093230 0.093230 0.093230
0.093230 0.093230 0.093230
0.101242 0.101242 0.101242
0.622804 0.622804 0.622804
0.933870 0.933870 0.933870
0.093230 0.093230 0.093230
0.257683 0.257683 0.257683
0.776710 0.776710 0.776710
0.974239 0.974239 0.974239
0.980923 0.980923 0.980923
0.095488 0.095488 0.095488
0.204394 0.204394 0.204394
0.651438 0.651438 0.651438
0.952540 0.952540 0.952540
0.977228 0.977228 0.977228
0.115193 0.115193 0.115193
0.214423 0.214423 0.214423
0.524587 0.524587 0.524587
0.857095 0.857095 0.857095
0.964361 0.964361 0.964361
0.106810 0.106810 0.106810
0.157158 0.157158 0.157158
0.423431 0.423431 0.423431
0.788728 0.788728 0.788728
0.943607 0.943607 0.943607
0.093230 0.093230 0.093230
0.093230 0.093230 0.093230
0.140560 0.140560 0.140560
0.655793 0.655793 0.655793
0.934116 0.934116 0.934116
0.093271 0.093271 0.093271
0.326639 0.326639 0.326639
0.812457 0.812457 0.812457
0.973901 0.973901 0.973901
0.980306 0.980306 0.980306
0.110932 0.110932 0.110932
0.329919 0.329919 0.329919
0.699506 0.699506 0.699506
0.952132 0.952132 0.952132
0.976381 0.976381 0.976381
0.152280 0.152280 0.152280
0.258503 0.258503 0.258503
0.508013 0.508013 0.508013
0.851833 0.851833 0.851833
0.960211 0.960211 0.960211
0.162292 0.162292 0.162292
0.239860 0.239860 0.239860
0.486416 0.486416 0.486416
0.793490 0.793490 0.793490
0.938914 0.938914 0.938914
0.093230 0.093230 0.093230
0.093230 0.093230 0.093230
0.260114 0.260114 0.260114
0.707027 0.707027 0.707027
0.933706 0.933706 0.933706
0.094050 0.094050 0.094050
0.310036 0.310036 0.310036
0.819506 0.819506 0.819506
0.977416 0.977416 0.977416
0.981900 0.981900 0.981900
0.122450 0.122450 0.122450
0.354138 0.354138 0.354138
0.784556 0.784556 0.784556
0.963559 0.963559 0.963559
0.977862 0.977862 0.977862
0.182909 0.182909 0.182909
0.297321 0.297321 0.297321
0.601867 0.601867 0.601867
0.879231 0.879231 0.879231
0.961656 0.961656 0.961656
0.185659 0.185659 0.185659
0.267334 0.267334 0.267334
0.504013 0.504013 0.504013
0.782937 0.782937 0.782937
0.936474 0.936474 0.936474
0.093230 0.093230 0.093230
0.093230 0.093230 0.093230
0.263079 0.263079 0.263079
0.711805 0.711805 0.711805
0.932556 0.932556 0.932556
0.178438 0.178438 0.178438
0.313778 0.313778 0.313778
0.890411 0.890411 0.890411
0.987336 0.987336 0.987336
0.984018 0.984018 0.984018
0.263731 0.263731 0.263731
0.391128 0.391128 0.391128
0.886426 0.886426 0.886426
0.980660 0.980660 0.980660
0.980120 0.980120 0.980120
0.319605 0.319605 0.319605
0.423926 0.423926 0.423926
0.741718 0.741718 0.741718
0.945865 0.945865 0.945865
0.969136 0.969136 0.969136
0.228267 0.228267 0.228267
0.317931 0.317931 0.317931
0.595109 0.595109 0.595109
0.856148 0.856148 0.856148
0.945143 0.945143 0.945143
0.093230 0.093230 0.093230
0.093230 0.093230 0.093230
0.096266 0.096266 0.096266
0.669807 0.669807 0.669807
0.932292 0.932292 0.932292
