LUTs/trix_modern/TriX_Red25_Punchy.cube
TITLE "Tri-X Red25 Punchy"
# Adobe RGB in/out. REPLACES AgX. Tri-X Red25 Punchy.
LUT_3D_SIZE 33
DOMAIN_MIN 0.0 0.0 0.0
DOMAIN_MAX 1.0 1.0 1.0
0.091936 0.091936 0.091936
0.091936 0.091936 0.091936
0.091936 0.091936 0.091936
0.091980 0.091980 0.091980
0.094973 0.094973 0.094973
0.101591 0.101591 0.101591
0.134383 0.134383 0.134383
0.215478 0.215478 0.215478
0.262916 0.262916 0.262916
0.336510 0.336510 0.336510
0.439071 0.439071 0.439071
0.502955 0.502955 0.502955
0.560628 0.560628 0.560628
0.629063 0.629063 0.629063
0.715816 0.715816 0.715816
0.774335 0.774335 0.774335
0.827269 0.827269 0.827269
0.876659 0.876659 0.876659
0.915679 0.915679 0.915679
0.942334 0.942334 0.942334
0.960842 0.960842 0.960842
0.971806 0.971806 0.971806
0.978982 0.978982 0.978982
0.983712 0.983712 0.983712
0.985699 0.985699 0.985699
0.987351 0.987351 0.987351
0.989426 0.989426 0.989426
0.990063 0.990063 0.990063
0.991375 0.991375 0.991375
0.990776 0.990776 0.990776
0.990178 0.990178 0.990178
0.989582 0.989582 0.989582
0.988986 0.988986 0.988986
0.091936 0.091936 0.091936
0.091936 0.091936 0.091936
0.091945 0.091945 0.091945
0.092005 0.092005 0.092005
0.096913 0.096913 0.096913
0.103424 0.103424 0.103424
0.139183 0.139183 0.139183
0.220187 0.220187 0.220187
0.266534 0.266534 0.266534
0.338811 0.338811 0.338811
0.440098 0.440098 0.440098
0.503253 0.503253 0.503253
0.560342 0.560342 0.560342
0.628222 0.628222 0.628222
0.714610 0.714610 0.714610
0.772824 0.772824 0.772824
0.825931 0.825931 0.825931
0.875591 0.875591 0.875591
0.914614 0.914614 0.914614
0.941638 0.941638 0.941638
0.960431 0.960431 0.960431
0.971560 0.971560 0.971560
0.978760 0.978760 0.978760
0.983629 0.983629 0.983629
0.985627 0.985627 0.985627
0.987288 0.987288 0.987288
0.989375 0.989375 0.989375
0.990020 0.990020 0.990020
0.991342 0.991342 0.991342
0.990746 0.990746 0.990746
0.990151 0.990151 0.990151
0.989557 0.989557 0.989557
0.988963 0.988963 0.988963
0.091936 0.091936 0.091936
0.091936 0.091936 0.091936
0.091936 0.091936 0.091936
0.091988 0.091988 0.091988
0.097388 0.097388 0.097388
0.109289 0.109289 0.109289
0.155996 0.155996 0.155996
0.245055 0.245055 0.245055
0.284350 0.284350 0.284350
0.349873 0.349873 0.349873
0.445457 0.445457 0.445457
0.505518 0.505518 0.505518
0.560083 0.560083 0.560083
0.625779 0.625779 0.625779
0.710654 0.710654 0.710654
0.767671 0.767671 0.767671
0.821277 0.821277 0.821277
0.870722 0.870722 0.870722
0.910837 0.910837 0.910837
0.939155 0.939155 0.939155
0.958956 0.958956 0.958956
0.970454 0.970454 0.970454
0.977962 0.977962 0.977962
0.983333 0.983333 0.983333
0.985367 0.985367 0.985367
0.987059 0.987059 0.987059
0.989189 0.989189 0.989189
0.989862 0.989862 0.989862
0.991227 0.991227 0.991227
0.990640 0.990640 0.990640
0.990054 0.990054 0.990054
0.989467 0.989467 0.989467
0.988881 0.988881 0.988881
0.091936 0.091936 0.091936
0.091936 0.091936 0.091936
0.091936 0.091936 0.091936
0.091959 0.091959 0.091959
0.092893 0.092893 0.092893
0.101172 0.101172 0.101172
0.146842 0.146842 0.146842
0.246001 0.246001 0.246001
0.299349 0.299349 0.299349
0.366225 0.366225 0.366225
0.460040 0.460040 0.460040
0.514769 0.514769 0.514769
0.562814 0.562814 0.562814
0.623663 0.623663 0.623663
0.704914 0.704914 0.704914
0.759320 0.759320 0.759320
0.813162 0.813162 0.813162
0.861956 0.861956 0.861956
0.904077 0.904077 0.904077
0.934644 0.934644 0.934644
0.955599 0.955599 0.955599
0.967992 0.967992 0.967992
0.976492 0.976492 0.976492
0.982784 0.982784 0.982784
0.984886 0.984886 0.984886
0.986636 0.986636 0.986636
0.988846 0.988846 0.988846
0.989572 0.989572 0.989572
0.991017 0.991017 0.991017
0.990448 0.990448 0.990448
0.989877 0.989877 0.989877
0.989305 0.989305 0.989305
0.988729 0.988729 0.988729
0.091936 0.091936 0.091936
0.091936 0.091936 0.091936
0.091936 0.091936 0.091936
0.091966 0.091966 0.091966
0.092056 0.092056 0.092056
0.094827 0.094827 0.094827
0.118773 0.118773 0.118773
0.209231 0.209231 0.209231
0.279390 0.279390 0.279390
0.360592 0.360592 0.360592
0.460621 0.460621 0.460621
0.514825 0.514825 0.514825
0.563482 0.563482 0.563482
0.622929 0.622929 0.622929
0.699433 0.699433 0.699433
0.749609 0.749609 0.749609
0.800652 0.800652 0.800652
0.849859 0.849859 0.849859
0.894420 0.894420 0.894420
0.928026 0.928026 0.928026
0.949194 0.949194 0.949194
0.964304 0.964304 0.964304
0.974279 0.974279 0.974279
0.981672 0.981672 0.981672
0.984159 0.984159 0.984159
0.985998 0.985998 0.985998
0.988286 0.988286 0.988286
0.989135 0.989135 0.989135
0.990709 0.990709 0.990709
0.990166 0.990166 0.990166
0.989618 0.989618 0.989618
0.989066 0.989066 0.989066
0.988486 0.988486 0.988486
0.091936 0.091936 0.091936
0.091936 0.091936 0.091936
0.091938 0.091938 0.091938
0.091961 0.091961 0.091961
0.092018 0.092018 0.092018
0.093290 0.093290 0.093290
0.103765 0.103765 0.103765
0.163937 0.163937 0.163937
0.233529 0.233529 0.233529
0.328753 0.328753 0.328753
0.438555 0.438555 0.438555
0.502771 0.502771 0.502771
0.556830 0.556830 0.556830
0.614623 0.614623 0.614623
0.686911 0.686911 0.686911
0.737051 0.737051 0.737051
0.786244 0.786244 0.786244
0.835501 0.835501 0.835501
0.882238 0.882238 0.882238
0.915262 0.915262 0.915262
0.940583 0.940583 0.940583
0.959282 0.959282 0.959282
0.971239 0.971239 0.971239
0.978884 0.978884 0.978884
0.983156 0.983156 0.983156
0.985117 0.985117 0.985117
0.987499 0.987499 0.987499
0.988513 0.988513 0.988513
0.990305 0.990305 0.990305
0.989794 0.989794 0.989794
0.989276 0.989276 0.989276
0.988750 0.988750 0.988750
0.988167 0.988167 0.988167
0.091936 0.091936 0.091936
0.091936 0.091936 0.091936
0.091947 0.091947 0.091947
0.091968 0.091968 0.091968
0.092027 0.092027 0.092027
0.093356 0.093356 0.093356
0.100172 0.100172 0.100172
0.130210 0.130210 0.130210
0.185995 0.185995 0.185995
0.276908 0.276908 0.276908
0.400105 0.400105 0.400105
0.474492 0.474492 0.474492
0.534979 0.534979 0.534979
0.597945 0.597945 0.597945
0.671857 0.671857 0.671857
0.723840 0.723840 0.723840
0.769287 0.769287 0.769287
0.819686 0.819686 0.819686
0.867141 0.867141 0.867141
0.900503 0.900503 0.900503
0.930083 0.930083 0.930083
0.950016 0.950016 0.950016
0.965224 0.965224 0.965224
0.975177 0.975177 0.975177
0.981348 0.981348 0.981348
0.983950 0.983950 0.983950
0.986449 0.986449 0.986449
0.987641 0.987641 0.987641
0.989810 0.989810 0.989810
0.989339 0.989339 0.989339
0.988855 0.988855 0.988855
0.988323 0.988323 0.988323
0.987772 0.987772 0.987772
0.091943 0.091943 0.091943
0.091946 0.091946 0.091946
0.091958 0.091958 0.091958
0.091982 0.091982 0.091982
0.092043 0.092043 0.092043
0.093656 0.093656 0.093656
0.100904 0.100904 0.100904
0.119984 0.119984 0.119984
0.152930 0.152930 0.152930
0.226934 0.226934 0.226934
0.348642 0.348642 0.348642
0.434125 0.434125 0.434125
0.499621 0.499621 0.499621
0.571929 0.571929 0.571929
0.649223 0.649223 0.649223
0.704241 0.704241 0.704241
0.749916 0.749916 0.749916
0.801172 0.801172 0.801172
0.848937 0.848937 0.848937
0.885585 0.885585 0.885585
0.916519 0.916519 0.916519
0.940113 0.940113 0.940113
0.958792 0.958792 0.958792
0.970601 0.970601 0.970601
0.977047 0.977047 0.977047
0.982404 0.982404 0.982404
0.985032 0.985032 0.985032
0.986483 0.986483 0.986483
0.989234 0.989234 0.989234
0.988806 0.988806 0.988806
0.988324 0.988324 0.988324
0.987822 0.987822 0.987822
0.987306 0.987306 0.987306
0.091948 0.091948 0.091948
0.091950 0.091950 0.091950
0.091959 0.091959 0.091959
0.091980 0.091980 0.091980
0.092028 0.092028 0.092028
0.092908 0.092908 0.092908
0.097477 0.097477 0.097477
0.108311 0.108311 0.108311
0.138027 0.138027 0.138027
0.190125 0.190125 0.190125
0.297854 0.297854 0.297854
0.387241 0.387241 0.387241
0.459152 0.459152 0.459152
0.536680 0.536680 0.536680
0.618241 0.618241 0.618241
0.676484 0.676484 0.676484
0.728005 0.728005 0.728005
0.780156 0.780156 0.780156
0.830489 0.830489 0.830489
0.868473 0.868473 0.868473
0.899644 0.899644 0.899644
0.929187 0.929187 0.929187
0.949199 0.949199 0.949199
0.964447 0.964447 0.964447
0.973392 0.973392 0.973392
0.979072 0.979072 0.979072
0.983424 0.983424 0.983424
0.984945 0.984945 0.984945
0.988568 0.988568 0.988568
0.988152 0.988152 0.988152
0.987712 0.987712 0.987712
0.987253 0.987253 0.987253
0.986778 0.986778 0.986778
0.091956 0.091956 0.091956
0.091957 0.091957 0.091957
0.091963 0.091963 0.091963
0.091985 0.091985 0.091985
0.092029 0.092029 0.092029
0.092743 0.092743 0.092743
0.096336 0.096336 0.096336
0.104829 0.104829 0.104829
0.126823 0.126823 0.126823
0.171419 0.171419 0.171419
0.258175 0.258175 0.258175
0.339676 0.339676 0.339676
0.417861 0.417861 0.417861
0.494653 0.494653 0.494653
0.582512 0.582512 0.582512
0.643582 0.643582 0.643582
0.701545 0.701545 0.701545
0.755471 0.755471 0.755471
0.811349 0.811349 0.811349
0.848650 0.848650 0.848650
0.884036 0.884036 0.884036
0.913620 0.913620 0.913620
0.937655 0.937655 0.937655
0.957032 0.957032 0.957032
0.968025 0.968025 0.968025
0.975252 0.975252 0.975252
0.981847 0.981847 0.981847
0.983742 0.983742 0.983742
0.985411 0.985411 0.985411
0.986294 0.986294 0.986294
0.986920 0.986920 0.986920
0.986627 0.986627 0.986627
0.986193 0.986193 0.986193
0.091966 0.091966 0.091966
0.091968 0.091968 0.091968
0.091978 0.091978 0.091978
0.092005 0.092005 0.092005
0.092051 0.092051 0.092051
0.093109 0.093109 0.093109
0.097030 0.097030 0.097030
0.105735 0.105735 0.105735
0.127808 0.127808 0.127808
0.172070 0.172070 0.172070
0.234424 0.234424 0.234424
0.304335 0.304335 0.304335
0.371998 0.371998 0.371998
0.453724 0.453724 0.453724
0.544737 0.544737 0.544737
0.607610 0.607610 0.607610
0.667562 0.667562 0.667562
0.728373 0.728373 0.728373
0.787697 0.787697 0.787697
0.828601 0.828601 0.828601
0.866024 0.866024 0.866024
0.897258 0.897258 0.897258
0.926970 0.926970 0.926970
0.946202 0.946202 0.946202
0.961031 0.961031 0.961031
0.970475 0.970475 0.970475
0.977791 0.977791 0.977791
0.982325 0.982325 0.982325
0.984191 0.984191 0.984191
0.985285 0.985285 0.985285
0.986136 0.986136 0.986136
0.985954 0.985954 0.985954
0.985563 0.985563 0.985563
0.091976 0.091976 0.091976
0.091978 0.091978 0.091978
0.091986 0.091986 0.091986
0.092012 0.092012 0.092012
0.092051 0.092051 0.092051
0.092988 0.092988 0.092988
0.096310 0.096310 0.096310
0.103191 0.103191 0.103191
0.119912 0.119912 0.119912
0.156544 0.156544 0.156544
0.210445 0.210445 0.210445
0.278288 0.278288 0.278288
0.341006 0.341006 0.341006
0.416202 0.416202 0.416202
0.503716 0.503716 0.503716
0.570836 0.570836 0.570836
0.632281 0.632281 0.632281
0.698838 0.698838 0.698838
0.761041 0.761041 0.761041
0.806836 0.806836 0.806836
0.845829 0.845829 0.845829
0.881883 0.881883 0.881883
0.910676 0.910676 0.910676
0.934848 0.934848 0.934848
0.952593 0.952593 0.952593
0.964418 0.964418 0.964418
0.973701 0.973701 0.973701
0.978626 0.978626 0.978626
0.982708 0.982708 0.982708
0.984090 0.984090 0.984090
0.985221 0.985221 0.985221
0.985246 0.985246 0.985246
0.984897 0.984897 0.984897
0.091983 0.091983 0.091983
0.091985 0.091985 0.091985
0.091993 0.091993 0.091993
0.092015 0.092015 0.092015
0.092051 0.092051 0.092051
0.092856 0.092856 0.092856
0.095288 0.095288 0.095288
0.100945 0.100945 0.100945
0.113012 0.113012 0.113012
0.141118 0.141118 0.141118
0.186154 0.186154 0.186154
0.246342 0.246342 0.246342
0.317450 0.317450 0.317450
0.387391 0.387391 0.387391
0.466000 0.466000 0.466000
0.534713 0.534713 0.534713
0.597081 0.597081 0.597081
0.664576 0.664576 0.664576
0.732945 0.732945 0.732945
0.781520 0.781520 0.781520
0.825451 0.825451 0.825451
0.864036 0.864036 0.864036
0.895334 0.895334 0.895334
0.923279 0.923279 0.923279
0.941834 0.941834 0.941834
0.957492 0.957492 0.957492
0.968839 0.968839 0.968839
0.975055 0.975055 0.975055
0.980160 0.980160 0.980160
0.982779 0.982779 0.982779
0.983803 0.983803 0.983803
0.984513 0.984513 0.984513
0.984206 0.984206 0.984206
0.091994 0.091994 0.091994
0.091996 0.091996 0.091996
0.092005 0.092005 0.092005
0.092023 0.092023 0.092023
0.092060 0.092060 0.092060
0.092916 0.092916 0.092916
0.095071 0.095071 0.095071
0.100112 0.100112 0.100112
0.110200 0.110200 0.110200
0.132470 0.132470 0.132470
0.172632 0.172632 0.172632
0.228383 0.228383 0.228383
0.294120 0.294120 0.294120
0.362956 0.362956 0.362956
0.443345 0.443345 0.443345
0.499639 0.499639 0.499639
0.563752 0.563752 0.563752
0.630397 0.630397 0.630397
0.704107 0.704107 0.704107
0.754493 0.754493 0.754493
0.803294 0.803294 0.803294
0.844544 0.844544 0.844544
0.880868 0.880868 0.880868
0.907933 0.907933 0.907933
0.931577 0.931577 0.931577
0.948119 0.948119 0.948119
0.962539 0.962539 0.962539
0.970923 0.970923 0.970923
0.976657 0.976657 0.976657
0.980745 0.980745 0.980745
0.982800 0.982800 0.982800
0.983379 0.983379 0.983379
0.983485 0.983485 0.983485
0.092011 0.092011 0.092011
0.092013 0.092013 0.092013
0.092020 0.092020 0.092020
0.092040 0.092040 0.092040
0.092136 0.092136 0.092136
0.093178 0.093178 0.093178
0.095624 0.095624 0.095624
0.100502 0.100502 0.100502
0.110073 0.110073 0.110073
0.131207 0.131207 0.131207
0.170283 0.170283 0.170283
0.222915 0.222915 0.222915
0.287238 0.287238 0.287238
0.354961 0.354961 0.354961
0.422641 0.422641 0.422641
0.477160 0.477160 0.477160
0.533659 0.533659 0.533659
0.598208 0.598208 0.598208
0.671530 0.671530 0.671530
0.727077 0.727077 0.727077
0.778653 0.778653 0.778653
0.825381 0.825381 0.825381
0.864089 0.864089 0.864089
0.893529 0.893529 0.893529
0.919568 0.919568 0.919568
0.938338 0.938338 0.938338
0.955916 0.955916 0.955916
0.965494 0.965494 0.965494
0.973113 0.973113 0.973113
0.977427 0.977427 0.977427
0.981003 0.981003 0.981003
0.982474 0.982474 0.982474
0.982757 0.982757 0.982757
0.092019 0.092019 0.092019
0.092020 0.092020 0.092020
0.092028 0.092028 0.092028
0.092045 0.092045 0.092045
0.092144 0.092144 0.092144
0.093159 0.093159 0.093159
0.095458 0.095458 0.095458
0.099350 0.099350 0.099350
0.107210 0.107210 0.107210
0.124714 0.124714 0.124714
0.157448 0.157448 0.157448
0.202964 0.202964 0.202964
0.262414 0.262414 0.262414
0.330048 0.330048 0.330048
0.395465 0.395465 0.395465
0.456244 0.456244 0.456244
0.511235 0.511235 0.511235
0.571891 0.571891 0.571891
0.640295 0.640295 0.640295
0.699942 0.699942 0.699942
0.752623 0.752623 0.752623
0.804479 0.804479 0.804479
0.845927 0.845927 0.845927
0.880079 0.880079 0.880079
0.905919 0.905919 0.905919
0.929366 0.929366 0.929366
0.946793 0.946793 0.946793
0.959732 0.959732 0.959732
0.968890 0.968890 0.968890
0.974467 0.974467 0.974467
0.978247 0.978247 0.978247
0.980439 0.980439 0.980439
0.981724 0.981724 0.981724
0.092025 0.092025 0.092025
0.092027 0.092027 0.092027
0.092035 0.092035 0.092035
0.092050 0.092050 0.092050
0.092165 0.092165 0.092165
0.093167 0.093167 0.093167
0.094849 0.094849 0.094849
0.098396 0.098396 0.098396
0.105046 0.105046 0.105046
0.118687 0.118687 0.118687
0.145912 0.145912 0.145912
0.185715 0.185715 0.185715
0.240700 0.240700 0.240700
0.303142 0.303142 0.303142
0.367953 0.367953 0.367953
0.431833 0.431833 0.431833
0.490112 0.490112 0.490112
0.552204 0.552204 0.552204
0.615935 0.615935 0.615935
0.669903 0.669903 0.669903
0.727441 0.727441 0.727441
0.781392 0.781392 0.781392
0.827951 0.827951 0.827951
0.864405 0.864405 0.864405
0.893177 0.893177 0.893177
0.918028 0.918028 0.918028
0.937965 0.937965 0.937965
0.952702 0.952702 0.952702
0.963791 0.963791 0.963791
0.971253 0.971253 0.971253
0.975548 0.975548 0.975548
0.978225 0.978225 0.978225
0.979579 0.979579 0.979579
0.092036 0.092036 0.092036
0.092037 0.092037 0.092037
0.092044 0.092044 0.092044
0.092058 0.092058 0.092058
0.092292 0.092292 0.092292
0.093294 0.093294 0.093294
0.094753 0.094753 0.094753
0.098275 0.098275 0.098275
0.104013 0.104013 0.104013
0.115219 0.115219 0.115219
0.138854 0.138854 0.138854
0.175170 0.175170 0.175170
0.226035 0.226035 0.226035
0.284475 0.284475 0.284475
0.349128 0.349128 0.349128
0.414282 0.414282 0.414282
0.471220 0.471220 0.471220
0.531367 0.531367 0.531367
0.596356 0.596356 0.596356
0.647788 0.647788 0.647788
0.702641 0.702641 0.702641
0.757752 0.757752 0.757752
0.809371 0.809371 0.809371
0.847498 0.847498 0.847498
0.881169 0.881169 0.881169
0.906294 0.906294 0.906294
0.930008 0.930008 0.930008
0.944716 0.944716 0.944716
0.958695 0.958695 0.958695
0.966933 0.966933 0.966933
0.972871 0.972871 0.972871
0.975831 0.975831 0.975831
0.977663 0.977663 0.977663
0.092048 0.092048 0.092048
0.092050 0.092050 0.092050
0.092056 0.092056 0.092056
0.092068 0.092068 0.092068
0.092521 0.092521 0.092521
0.093412 0.093412 0.093412
0.095093 0.095093 0.095093
0.098360 0.098360 0.098360
0.103694 0.103694 0.103694
0.114553 0.114553 0.114553
0.136438 0.136438 0.136438
0.171127 0.171127 0.171127
0.217659 0.217659 0.217659
0.274408 0.274408 0.274408
0.337907 0.337907 0.337907
0.403146 0.403146 0.403146
0.460134 0.460134 0.460134
0.519148 0.519148 0.519148
0.577173 0.577173 0.577173
0.628532 0.628532 0.628532
0.682525 0.682525 0.682525
0.734707 0.734707 0.734707
0.788419 0.788419 0.788419
0.831105 0.831105 0.831105
0.867532 0.867532 0.867532
0.895259 0.895259 0.895259
0.920447 0.920447 0.920447
0.937255 0.937255 0.937255
0.952376 0.952376 0.952376
0.962500 0.962500 0.962500
0.969828 0.969828 0.969828
0.973682 0.973682 0.973682
0.975741 0.975741 0.975741
0.092050 0.092050 0.092050
0.092052 0.092052 0.092052
0.092057 0.092057 0.092057
0.092068 0.092068 0.092068
0.092473 0.092473 0.092473
0.093265 0.093265 0.093265
0.094758 0.094758 0.094758
0.097537 0.097537 0.097537
0.102405 0.102405 0.102405
0.111277 0.111277 0.111277
0.127761 0.127761 0.127761
0.157876 0.157876 0.157876
0.198888 0.198888 0.198888
0.251872 0.251872 0.251872
0.314171 0.314171 0.314171
0.376046 0.376046 0.376046
0.436869 0.436869 0.436869
0.494444 0.494444 0.494444
0.553868 0.553868 0.553868
0.609565 0.609565 0.609565
0.663644 0.663644 0.663644
0.719038 0.719038 0.719038
0.768172 0.768172 0.768172
0.815102 0.815102 0.815102
0.852712 0.852712 0.852712
0.884676 0.884676 0.884676
0.910073 0.910073 0.910073
0.930491 0.930491 0.930491
0.945525 0.945525 0.945525
0.958223 0.958223 0.958223
0.966095 0.966095 0.966095
0.971470 0.971470 0.971470
0.973922 0.973922 0.973922
0.092052 0.092052 0.092052
0.092053 0.092053 0.092053
0.092059 0.092059 0.092059
0.092069 0.092069 0.092069
0.092438 0.092438 0.092438
0.093151 0.093151 0.093151
0.094539 0.094539 0.094539
0.096951 0.096951 0.096951
0.101571 0.101571 0.101571
0.107923 0.107923 0.107923
0.122557 0.122557 0.122557
0.149425 0.149425 0.149425
0.185218 0.185218 0.185218
0.233820 0.233820 0.233820
0.291917 0.291917 0.291917
0.354133 0.354133 0.354133
0.416802 0.416802 0.416802
0.472289 0.472289 0.472289
0.532371 0.532371 0.532371
0.588302 0.588302 0.588302
0.644894 0.644894 0.644894
0.703011 0.703011 0.703011
0.753444 0.753444 0.753444
0.797951 0.797951 0.797951
0.838150 0.838150 0.838150
0.874490 0.874490 0.874490
0.900463 0.900463 0.900463
0.923011 0.923011 0.923011
0.939193 0.939193 0.939193
0.952710 0.952710 0.952710
0.962411 0.962411 0.962411
0.968547 0.968547 0.968547
0.972159 0.972159 0.972159
0.092055 0.092055 0.092055
0.092056 0.092056 0.092056
0.092061 0.092061 0.092061
0.092070 0.092070 0.092070
0.092439 0.092439 0.092439
0.093088 0.093088 0.093088
0.094306 0.094306 0.094306
0.096623 0.096623 0.096623
0.100295 0.100295 0.100295
0.106432 0.106432 0.106432
0.119153 0.119153 0.119153
0.140697 0.140697 0.140697
0.173881 0.173881 0.173881
0.219756 0.219756 0.219756
0.274642 0.274642 0.274642
0.336376 0.336376 0.336376
0.397944 0.397944 0.397944
0.455065 0.455065 0.455065
0.513318 0.513318 0.513318
0.572150 0.572150 0.572150
0.627248 0.627248 0.627248
0.684474 0.684474 0.684474
0.738345 0.738345 0.738345
0.784934 0.784934 0.784934
0.825660 0.825660 0.825660
0.861420 0.861420 0.861420
0.891466 0.891466 0.891466
0.914559 0.914559 0.914559
0.933563 0.933563 0.933563
0.947022 0.947022 0.947022
0.959030 0.959030 0.959030
0.965544 0.965544 0.965544
0.970118 0.970118 0.970118
0.092054 0.092054 0.092054
0.092055 0.092055 0.092055
0.092060 0.092060 0.092060
0.092069 0.092069 0.092069
0.092372 0.092372 0.092372
0.092973 0.092973 0.092973
0.093827 0.093827 0.093827
0.096238 0.096238 0.096238
0.099112 0.099112 0.099112
0.105146 0.105146 0.105146
0.114563 0.114563 0.114563
0.133985 0.133985 0.133985
0.166007 0.166007 0.166007
0.205954 0.205954 0.205954
0.257540 0.257540 0.257540
0.318705 0.318705 0.318705
0.378724 0.378724 0.378724
0.438717 0.438717 0.438717
0.495887 0.495887 0.495887
0.555752 0.555752 0.555752
0.611425 0.611425 0.611425
0.668004 0.668004 0.668004
0.722896 0.722896 0.722896
0.771116 0.771116 0.771116
0.815743 0.815743 0.815743
0.850780 0.850780 0.850780
0.882801 0.882801 0.882801
0.906670 0.906670 0.906670
0.928666 0.928666 0.928666
0.941934 0.941934 0.941934
0.955067 0.955067 0.955067
0.962666 0.962666 0.962666
0.967768 0.967768 0.967768
0.092046 0.092046 0.092046
0.092047 0.092047 0.092047
0.092052 0.092052 0.092052
0.092060 0.092060 0.092060
0.092090 0.092090 0.092090
0.092656 0.092656 0.092656
0.093453 0.093453 0.093453
0.095392 0.095392 0.095392
0.097830 0.097830 0.097830
0.102758 0.102758 0.102758
0.110187 0.110187 0.110187
0.126482 0.126482 0.126482
0.151815 0.151815 0.151815
0.188613 0.188613 0.188613
0.238816 0.238816 0.238816
0.294577 0.294577 0.294577
0.354837 0.354837 0.354837
0.417653 0.417653 0.417653
0.473701 0.473701 0.473701
0.533637 0.533637 0.533637
0.591000 0.591000 0.591000
0.647628 0.647628 0.647628
0.705846 0.705846 0.705846
0.756594 0.756594 0.756594
0.803606 0.803606 0.803606
0.841862 0.841862 0.841862
0.876260 0.876260 0.876260
0.899225 0.899225 0.899225
0.922615 0.922615 0.922615
0.937513 0.937513 0.937513
0.950571 0.950571 0.950571
0.960056 0.960056 0.960056
0.965531 0.965531 0.965531
0.092038 0.092038 0.092038
0.092039 0.092039 0.092039
0.092043 0.092043 0.092043
0.092051 0.092051 0.092051
0.092064 0.092064 0.092064
0.092346 0.092346 0.092346
0.093095 0.093095 0.093095
0.094627 0.094627 0.094627
0.096816 0.096816 0.096816
0.100534 0.100534 0.100534
0.107118 0.107118 0.107118
0.118848 0.118848 0.118848
0.141556 0.141556 0.141556
0.174765 0.174765 0.174765
0.217925 0.217925 0.217925
0.272370 0.272370 0.272370
0.334620 0.334620 0.334620
0.396985 0.396985 0.396985
0.454581 0.454581 0.454581
0.513370 0.513370 0.513370
0.572116 0.572116 0.572116
0.628763 0.628763 0.628763
0.686880 0.686880 0.686880
0.740573 0.740573 0.740573
0.790743 0.790743 0.790743
0.832450 0.832450 0.832450
0.869099 0.869099 0.869099
0.894035 0.894035 0.894035
0.916390 0.916390 0.916390
0.933697 0.933697 0.933697
0.946662 0.946662 0.946662
0.957590 0.957590 0.957590
0.963435 0.963435 0.963435
0.092027 0.092027 0.092027
0.092028 0.092028 0.092028
0.092032 0.092032 0.092032
0.092040 0.092040 0.092040
0.092052 0.092052 0.092052
0.092069 0.092069 0.092069
0.092682 0.092682 0.092682
0.093668 0.093668 0.093668
0.095772 0.095772 0.095772
0.098527 0.098527 0.098527
0.104732 0.104732 0.104732
0.113294 0.113294 0.113294
0.133018 0.133018 0.133018
0.161045 0.161045 0.161045
0.202264 0.202264 0.202264
0.253791 0.253791 0.253791
0.313153 0.313153 0.313153
0.373840 0.373840 0.373840
0.435246 0.435246 0.435246
0.493328 0.493328 0.493328
0.554181 0.554181 0.554181
0.610996 0.610996 0.610996
0.669307 0.669307 0.669307
0.725270 0.725270 0.725270
0.776806 0.776806 0.776806
0.822672 0.822672 0.822672
0.861293 0.861293 0.861293
0.889393 0.889393 0.889393
0.912669 0.912669 0.912669
0.930521 0.930521 0.930521
0.943266 0.943266 0.943266
0.954562 0.954562 0.954562
0.961666 0.961666 0.961666
0.092003 0.092003 0.092003
0.092004 0.092004 0.092004
0.092007 0.092007 0.092007
0.092013 0.092013 0.092013
0.092022 0.092022 0.092022
0.092039 0.092039 0.092039
0.092063 0.092063 0.092063
0.092804 0.092804 0.092804
0.093878 0.093878 0.093878
0.096364 0.096364 0.096364
0.100540 0.100540 0.100540
0.107244 0.107244 0.107244
0.120372 0.120372 0.120372
0.145181 0.145181 0.145181
0.180372 0.180372 0.180372
0.226968 0.226968 0.226968
0.285701 0.285701 0.285701
0.348436 0.348436 0.348436
0.412292 0.412292 0.412292
0.469198 0.469198 0.469198
0.530721 0.530721 0.530721
0.590107 0.590107 0.590107
0.649650 0.649650 0.649650
0.709769 0.709769 0.709769
0.762764 0.762764 0.762764
