LUTs/trix_modern/TriX_Yellow8_Hard.cube
TITLE "Tri-X Yellow8 Hard"
# Adobe RGB in/out. REPLACES AgX. Tri-X Yellow8 Hard.
LUT_3D_SIZE 5
DOMAIN_MIN 0.0 0.0 0.0
DOMAIN_MAX 1.0 1.0 1.0
0.093024 0.093024 0.093024
0.095481 0.095481 0.095481
0.495396 0.495396 0.495396
0.967662 0.967662 0.967662
0.992719 0.992719 0.992719
0.106947 0.106947 0.106947
0.104362 0.104362 0.104362
0.512058 0.512058 0.512058
0.951450 0.951450 0.951450
0.990282 0.990282 0.990282
0.685169 0.685169 0.685169
0.625337 0.625337 0.625337
0.724399 0.724399 0.724399
0.950771 0.950771 0.950771
0.990674 0.990674 0.990674
0.965957 0.965957 0.965957
0.960496 0.960496 0.960496
0.964699 0.964699 0.964699
0.983808 0.983808 0.983808
0.993364 0.993364 0.993364
0.984011 0.984011 0.984011
0.989625 0.989625 0.989625
0.992031 0.992031 0.992031
0.994042 0.994042 0.994042
0.997607 0.997607 0.997607
0.093210 0.093210 0.093210
0.096132 0.096132 0.096132
0.460861 0.460861 0.460861
0.959925 0.959925 0.959925
0.992199 0.992199 0.992199
0.100709 0.100709 0.100709
0.099130 0.099130 0.099130
0.417880 0.417880 0.417880
0.941796 0.941796 0.941796
0.989118 0.989118 0.989118
0.659630 0.659630 0.659630
0.587776 0.587776 0.587776
0.667265 0.667265 0.667265
0.937828 0.937828 0.937828
0.989783 0.989783 0.989783
0.965599 0.965599 0.965599
0.959941 0.959941 0.959941
0.962887 0.962887 0.962887
0.983241 0.983241 0.983241
0.993205 0.993205 0.993205
0.985994 0.985994 0.985994
0.991256 0.991256 0.991256
0.992208 0.992208 0.992208
0.994170 0.994170 0.994170
0.997639 0.997639 0.997639
0.096063 0.096063 0.096063
0.138717 0.138717 0.138717
0.678254 0.678254 0.678254
0.970246 0.970246 0.970246
0.991706 0.991706 0.991706
0.211071 0.211071 0.211071
0.274002 0.274002 0.274002
0.593307 0.593307 0.593307
0.952752 0.952752 0.952752
0.988406 0.988406 0.988406
0.593041 0.593041 0.593041
0.545925 0.545925 0.545925
0.588577 0.588577 0.588577
0.932705 0.932705 0.932705
0.989171 0.989171 0.989171
0.959564 0.959564 0.959564
0.955325 0.955325 0.955325
0.958602 0.958602 0.958602
0.980158 0.980158 0.980158
0.992970 0.992970 0.992970
0.989849 0.989849 0.989849
0.990535 0.990535 0.990535
0.992270 0.992270 0.992270
0.994388 0.994388 0.994388
0.997735 0.997735 0.997735
0.167075 0.167075 0.167075
0.285838 0.285838 0.285838
0.829903 0.829903 0.829903
0.983879 0.983879 0.983879
0.992569 0.992569 0.992569
0.431115 0.431115 0.431115
0.573793 0.573793 0.573793
0.862143 0.862143 0.862143
0.977191 0.977191 0.977191
0.989641 0.989641 0.989641
0.725309 0.725309 0.725309
0.739134 0.739134 0.739134
0.842321 0.842321 0.842321
0.964673 0.964673 0.964673
0.990926 0.990926 0.990926
0.953570 0.953570 0.953570
0.952128 0.952128 0.952128
0.958880 0.958880 0.958880
0.977336 0.977336 0.977336
0.993179 0.993179 0.993179
0.988207 0.988207 0.988207
0.989351 0.989351 0.989351
0.992067 0.992067 0.992067
0.994464 0.994464 0.994464
0.997832 0.997832 0.997832
0.486095 0.486095 0.486095
0.572192 0.572192 0.572192
0.949609 0.949609 0.949609
0.993176 0.993176 0.993176
0.994096 0.994096 0.994096
0.729453 0.729453 0.729453
0.797020 0.797020 0.797020
0.971937 0.971937 0.971937
0.991361 0.991361 0.991361
0.992853 0.992853 0.992853
0.909406 0.909406 0.909406
0.918166 0.918166 0.918166
0.958406 0.958406 0.958406
0.986854 0.986854 0.986854
0.993924 0.993924 0.993924
0.963547 0.963547 0.963547
0.965826 0.965826 0.965826
0.975856 0.975856 0.975856
0.987806 0.987806 0.987806
0.994840 0.994840 0.994840
0.985152 0.985152 0.985152
0.988116 0.988116 0.988116
0.992092 0.992092 0.992092
0.994653 0.994653 0.994653
0.997914 0.997914 0.997914
