LUTs/trix_modern/TriX_NoFilter_Normal.cube
TITLE "Tri-X NoFilter Normal"
# Adobe RGB in/out. REPLACES AgX. Tri-X NoFilter Normal.
LUT_3D_SIZE 33
DOMAIN_MIN 0.0 0.0 0.0
DOMAIN_MAX 1.0 1.0 1.0
0.093230 0.093230 0.093230
0.093230 0.093230 0.093230
0.093230 0.093230 0.093230
0.093230 0.093230 0.093230
0.093274 0.093274 0.093274
0.093540 0.093540 0.093540
0.095112 0.095112 0.095112
0.100870 0.100870 0.100870
0.106034 0.106034 0.106034
0.118808 0.118808 0.118808
0.150038 0.150038 0.150038
0.174437 0.174437 0.174437
0.198991 0.198991 0.198991
0.230743 0.230743 0.230743
0.273171 0.273171 0.273171
0.297116 0.297116 0.297116
0.321660 0.321660 0.321660
0.350325 0.350325 0.350325
0.383635 0.383635 0.383635
0.412191 0.412191 0.412191
0.439263 0.439263 0.439263
0.465000 0.465000 0.465000
0.491394 0.491394 0.491394
0.517510 0.517510 0.517510
0.538432 0.538432 0.538432
0.559238 0.559238 0.559238
0.589905 0.589905 0.589905
0.631872 0.631872 0.631872
0.785494 0.785494 0.785494
0.779990 0.779990 0.779990
0.773059 0.773059 0.773059
0.765707 0.765707 0.765707
0.838451 0.838451 0.838451
0.093230 0.093230 0.093230
0.093230 0.093230 0.093230
0.093230 0.093230 0.093230
0.093234 0.093234 0.093234
0.093348 0.093348 0.093348
0.093624 0.093624 0.093624
0.095342 0.095342 0.095342
0.101374 0.101374 0.101374
0.106556 0.106556 0.106556
0.119767 0.119767 0.119767
0.150882 0.150882 0.150882
0.175135 0.175135 0.175135
0.199461 0.199461 0.199461
0.230966 0.230966 0.230966
0.273168 0.273168 0.273168
0.296968 0.296968 0.296968
0.321397 0.321397 0.321397
0.349962 0.349962 0.349962
0.383219 0.383219 0.383219
0.411707 0.411707 0.411707
0.438789 0.438789 0.438789
0.464538 0.464538 0.464538
0.490942 0.490942 0.490942
0.517072 0.517072 0.517072
0.538010 0.538010 0.538010
0.558797 0.558797 0.558797
0.589252 0.589252 0.589252
0.630290 0.630290 0.630290
0.785197 0.785197 0.785197
0.779719 0.779719 0.779719
0.772723 0.772723 0.772723
0.765400 0.765400 0.765400
0.838225 0.838225 0.838225
0.093230 0.093230 0.093230
0.093230 0.093230 0.093230
0.093230 0.093230 0.093230
0.093238 0.093238 0.093238
0.093464 0.093464 0.093464
0.093851 0.093851 0.093851
0.096396 0.096396 0.096396
0.104673 0.104673 0.104673
0.110352 0.110352 0.110352
0.124107 0.124107 0.124107
0.154679 0.154679 0.154679
0.178288 0.178288 0.178288
0.201640 0.201640 0.201640
0.232133 0.232133 0.232133
0.273378 0.273378 0.273378
0.296617 0.296617 0.296617
0.320598 0.320598 0.320598
0.348778 0.348778 0.348778
0.381823 0.381823 0.381823
0.410046 0.410046 0.410046
0.437140 0.437140 0.437140
0.462926 0.462926 0.462926
0.489360 0.489360 0.489360
0.515480 0.515480 0.515480
0.536524 0.536524 0.536524
0.557253 0.557253 0.557253
0.586996 0.586996 0.586996
0.624895 0.624895 0.624895
0.784136 0.784136 0.784136
0.778754 0.778754 0.778754
0.771521 0.771521 0.771521
0.764305 0.764305 0.764305
0.837417 0.837417 0.837417
0.093243 0.093243 0.093243
0.093244 0.093244 0.093244
0.093245 0.093245 0.093245
0.093249 0.093249 0.093249
0.093450 0.093450 0.093450
0.093837 0.093837 0.093837
0.097187 0.097187 0.097187
0.106870 0.106870 0.106870
0.115483 0.115483 0.115483
0.131720 0.131720 0.131720
0.164166 0.164166 0.164166
0.186973 0.186973 0.186973
0.207442 0.207442 0.207442
0.235862 0.235862 0.235862
0.274712 0.274712 0.274712
0.296742 0.296742 0.296742
0.319734 0.319734 0.319734
0.347105 0.347105 0.347105
0.379661 0.379661 0.379661
0.407309 0.407309 0.407309
0.434346 0.434346 0.434346
0.460155 0.460155 0.460155
0.486613 0.486613 0.486613
0.512677 0.512677 0.512677
0.533926 0.533926 0.533926
0.554570 0.554570 0.554570
0.583187 0.583187 0.583187
0.616147 0.616147 0.616147
0.782215 0.782215 0.782215
0.776408 0.776408 0.776408
0.769340 0.769340 0.769340
0.762317 0.762317 0.762317
0.835945 0.835945 0.835945
0.093612 0.093612 0.093612
0.093612 0.093612 0.093612
0.093627 0.093627 0.093627
0.093671 0.093671 0.093671
0.093772 0.093772 0.093772
0.093882 0.093882 0.093882
0.097159 0.097159 0.097159
0.107365 0.107365 0.107365
0.117654 0.117654 0.117654
0.136663 0.136663 0.136663
0.171849 0.171849 0.171849
0.194436 0.194436 0.194436
0.214809 0.214809 0.214809
0.243315 0.243315 0.243315
0.279198 0.279198 0.279198
0.298926 0.298926 0.298926
0.320000 0.320000 0.320000
0.345893 0.345893 0.345893
0.377459 0.377459 0.377459
0.404016 0.404016 0.404016
0.430757 0.430757 0.430757
0.456492 0.456492 0.456492
0.482906 0.482906 0.482906
0.508831 0.508831 0.508831
0.530362 0.530362 0.530362
0.550924 0.550924 0.550924
0.578205 0.578205 0.578205
0.605661 0.605661 0.605661
0.779409 0.779409 0.779409
0.772906 0.772906 0.772906
0.766147 0.766147 0.766147
0.759364 0.759364 0.759364
0.833783 0.833783 0.833783
0.095188 0.095188 0.095188
0.095131 0.095131 0.095131
0.095091 0.095091 0.095091
0.095031 0.095031 0.095031
0.094885 0.094885 0.094885
0.095182 0.095182 0.095182
0.098079 0.098079 0.098079
0.108412 0.108412 0.108412
0.118106 0.118106 0.118106
0.138730 0.138730 0.138730
0.174801 0.174801 0.174801
0.200417 0.200417 0.200417
0.221500 0.221500 0.221500
0.248814 0.248814 0.248814
0.281667 0.281667 0.281667
0.301129 0.301129 0.301129
0.321576 0.321576 0.321576
0.346782 0.346782 0.346782
0.376633 0.376633 0.376633
0.401219 0.401219 0.401219
0.427111 0.427111 0.427111
0.452503 0.452503 0.452503
0.478688 0.478688 0.478688
0.504302 0.504302 0.504302
0.526158 0.526158 0.526158
0.546666 0.546666 0.546666
0.572605 0.572605 0.572605
0.595378 0.595378 0.595378
0.774690 0.774690 0.774690
0.768324 0.768324 0.768324
0.761960 0.761960 0.761960
0.791448 0.791448 0.791448
0.830936 0.830936 0.830936
0.103953 0.103953 0.103953
0.104118 0.104118 0.104118
0.103788 0.103788 0.103788
0.102535 0.102535 0.102535
0.101250 0.101250 0.101250
0.101105 0.101105 0.101105
0.102557 0.102557 0.102557
0.111962 0.111962 0.111962
0.120364 0.120364 0.120364
0.140057 0.140057 0.140057
0.176680 0.176680 0.176680
0.203824 0.203824 0.203824
0.224910 0.224910 0.224910
0.253022 0.253022 0.253022
0.285491 0.285491 0.285491
0.305015 0.305015 0.305015
0.322688 0.322688 0.322688
0.345792 0.345792 0.345792
0.375194 0.375194 0.375194
0.398890 0.398890 0.398890
0.424272 0.424272 0.424272
0.449194 0.449194 0.449194
0.474736 0.474736 0.474736
0.499700 0.499700 0.499700
0.521845 0.521845 0.521845
0.542338 0.542338 0.542338
0.567057 0.567057 0.567057
0.586702 0.586702 0.586702
0.768618 0.768618 0.768618
0.762737 0.762737 0.762737
0.756641 0.756641 0.756641
0.787862 0.787862 0.787862
0.827431 0.827431 0.827431
0.130735 0.130735 0.130735
0.131051 0.131051 0.131051
0.132005 0.132005 0.132005
0.127306 0.127306 0.127306
0.123210 0.123210 0.123210
0.121589 0.121589 0.121589
0.122481 0.122481 0.122481
0.126776 0.126776 0.126776
0.126863 0.126863 0.126863
0.143658 0.143658 0.143658
0.179326 0.179326 0.179326
0.205281 0.205281 0.205281
0.226884 0.226884 0.226884
0.256153 0.256153 0.256153
0.288307 0.288307 0.288307
0.306726 0.306726 0.306726
0.324521 0.324521 0.324521
0.347492 0.347492 0.347492
0.375448 0.375448 0.375448
0.396764 0.396764 0.396764
0.420626 0.420626 0.420626
0.445271 0.445271 0.445271
0.470772 0.470772 0.470772
0.495429 0.495429 0.495429
0.518254 0.518254 0.518254
0.538738 0.538738 0.538738
0.562406 0.562406 0.562406
0.580550 0.580550 0.580550
0.761701 0.761701 0.761701
0.756028 0.756028 0.756028
0.750335 0.750335 0.750335
0.783648 0.783648 0.783648
0.823320 0.823320 0.823320
0.150301 0.150301 0.150301
0.150553 0.150553 0.150553
0.149327 0.149327 0.149327
0.145169 0.145169 0.145169
0.140877 0.140877 0.140877
0.137794 0.137794 0.137794
0.137451 0.137451 0.137451
0.139458 0.139458 0.139458
0.144640 0.144640 0.144640
0.152991 0.152991 0.152991
0.184972 0.184972 0.184972
0.208751 0.208751 0.208751
0.229651 0.229651 0.229651
0.258382 0.258382 0.258382
0.290216 0.290216 0.290216
0.308776 0.308776 0.308776
0.326714 0.326714 0.326714
0.348921 0.348921 0.348921
0.375849 0.375849 0.375849
0.396413 0.396413 0.396413
0.419487 0.419487 0.419487
0.442668 0.442668 0.442668
0.467091 0.467091 0.467091
0.490797 0.490797 0.490797
0.513438 0.513438 0.513438
0.534708 0.534708 0.534708
0.558489 0.558489 0.558489
0.577597 0.577597 0.577597
0.756785 0.756785 0.756785
0.748531 0.748531 0.748531
0.743302 0.743302 0.743302
0.778899 0.778899 0.778899
0.818670 0.818670 0.818670
0.182486 0.182486 0.182486
0.181481 0.181481 0.181481
0.177526 0.177526 0.177526
0.173339 0.173339 0.173339
0.168323 0.168323 0.168323
0.164719 0.164719 0.164719
0.162847 0.162847 0.162847
0.163298 0.163298 0.163298
0.166511 0.166511 0.166511
0.173065 0.173065 0.173065
0.198692 0.198692 0.198692
0.215040 0.215040 0.215040
0.233872 0.233872 0.233872
0.261368 0.261368 0.261368
0.292342 0.292342 0.292342
0.310833 0.310833 0.310833
0.328655 0.328655 0.328655
0.350572 0.350572 0.350572
0.377822 0.377822 0.377822
0.397205 0.397205 0.397205
0.418011 0.418011 0.418011
0.441009 0.441009 0.441009
0.465059 0.465059 0.465059
0.487644 0.487644 0.487644
0.509625 0.509625 0.509625
0.530800 0.530800 0.530800
0.553952 0.553952 0.553952
0.572728 0.572728 0.572728
0.595933 0.595933 0.595933
0.625993 0.625993 0.625993
0.744734 0.744734 0.744734
0.773056 0.773056 0.773056
0.813561 0.813561 0.813561
0.230607 0.230607 0.230607
0.229219 0.229219 0.229219
0.225286 0.225286 0.225286
0.221988 0.221988 0.221988
0.216887 0.216887 0.216887
0.211868 0.211868 0.211868
0.208924 0.208924 0.208924
0.207947 0.207947 0.207947
0.209623 0.209623 0.209623
0.214205 0.214205 0.214205
0.221817 0.221817 0.221817
0.230198 0.230198 0.230198
0.240786 0.240786 0.240786
0.266490 0.266490 0.266490
0.295436 0.295436 0.295436
0.313291 0.313291 0.313291
0.330716 0.330716 0.330716
0.352743 0.352743 0.352743
0.380342 0.380342 0.380342
0.398353 0.398353 0.398353
0.418781 0.418781 0.418781
0.440980 0.440980 0.440980
0.463338 0.463338 0.463338
0.484917 0.484917 0.484917
0.506870 0.506870 0.506870
0.528450 0.528450 0.528450
0.550697 0.550697 0.550697
0.569159 0.569159 0.569159
0.590693 0.590693 0.590693
0.613713 0.613713 0.613713
0.713449 0.713449 0.713449
0.769071 0.769071 0.769071
0.765971 0.765971 0.765971
0.260492 0.260492 0.260492
0.259247 0.259247 0.259247
0.255532 0.255532 0.255532
0.251958 0.251958 0.251958
0.246672 0.246672 0.246672
0.242137 0.242137 0.242137
0.239090 0.239090 0.239090
0.236782 0.236782 0.236782
0.236968 0.236968 0.236968
0.239729 0.239729 0.239729
0.245129 0.245129 0.245129
0.253429 0.253429 0.253429
0.257581 0.257581 0.257581
0.273288 0.273288 0.273288
0.299976 0.299976 0.299976
0.316629 0.316629 0.316629
0.333747 0.333747 0.333747
0.355789 0.355789 0.355789
0.383008 0.383008 0.383008
0.400630 0.400630 0.400630
0.420945 0.420945 0.420945
0.441522 0.441522 0.441522
0.463461 0.463461 0.463461
0.484058 0.484058 0.484058
0.504784 0.504784 0.504784
0.525780 0.525780 0.525780
0.547948 0.547948 0.547948
0.567088 0.567088 0.567088
0.587963 0.587963 0.587963
0.607364 0.607364 0.607364
0.671942 0.671942 0.671942
0.761136 0.761136 0.761136
0.759709 0.759709 0.759709
0.281451 0.281451 0.281451
0.280659 0.280659 0.280659
0.278203 0.278203 0.278203
0.275368 0.275368 0.275368
0.272296 0.272296 0.272296
0.268615 0.268615 0.268615
0.264519 0.264519 0.264519
0.261868 0.261868 0.261868
0.261189 0.261189 0.261189
0.262419 0.262419 0.262419
0.266067 0.266067 0.266067
0.271579 0.271579 0.271579
0.278015 0.278015 0.278015
0.287283 0.287283 0.287283
0.306421 0.306421 0.306421
0.322004 0.322004 0.322004
0.338066 0.338066 0.338066
0.359857 0.359857 0.359857
0.386669 0.386669 0.386669
0.403874 0.403874 0.403874
0.423320 0.423320 0.423320
0.443639 0.443639 0.443639
0.465107 0.465107 0.465107
0.483826 0.483826 0.483826
0.504193 0.504193 0.504193
0.525074 0.525074 0.525074
0.545933 0.545933 0.545933
0.564509 0.564509 0.564509
0.585190 0.585190 0.585190
0.604710 0.604710 0.604710
0.631134 0.631134 0.631134
0.752602 0.752602 0.752602
0.753442 0.753442 0.753442
0.305810 0.305810 0.305810
0.305087 0.305087 0.305087
0.302789 0.302789 0.302789
0.299841 0.299841 0.299841
0.297621 0.297621 0.297621
0.294045 0.294045 0.294045
0.290835 0.290835 0.290835
0.288728 0.288728 0.288728
0.287638 0.287638 0.287638
0.287599 0.287599 0.287599
0.289230 0.289230 0.289230
0.292708 0.292708 0.292708
0.297683 0.297683 0.297683
0.304679 0.304679 0.304679
0.322238 0.322238 0.322238
0.329880 0.329880 0.329880
0.343940 0.343940 0.343940
0.364634 0.364634 0.364634
0.390973 0.390973 0.390973
0.408135 0.408135 0.408135
0.426874 0.426874 0.426874
0.446875 0.446875 0.446875
0.467312 0.467312 0.467312
0.485437 0.485437 0.485437
0.504958 0.504958 0.504958
0.524678 0.524678 0.524678
0.545103 0.545103 0.545103
0.563787 0.563787 0.563787
0.583542 0.583542 0.583542
0.601895 0.601895 0.601895
0.623889 0.623889 0.623889
0.675825 0.675825 0.675825
0.771284 0.771284 0.771284
0.337417 0.337417 0.337417
0.336781 0.336781 0.336781
0.334720 0.334720 0.334720
0.331898 0.331898 0.331898
0.330249 0.330249 0.330249
0.326402 0.326402 0.326402
0.323727 0.323727 0.323727
0.321272 0.321272 0.321272
0.319763 0.319763 0.319763
0.319372 0.319372 0.319372
0.320457 0.320457 0.320457
0.322769 0.322769 0.322769
0.326776 0.326776 0.326776
0.332351 0.332351 0.332351
0.339672 0.339672 0.339672
0.345951 0.345951 0.345951
0.353695 0.353695 0.353695
0.371385 0.371385 0.371385
0.396783 0.396783 0.396783
0.413228 0.413228 0.413228
0.431379 0.431379 0.431379
0.451162 0.451162 0.451162
0.470958 0.470958 0.470958
0.488470 0.488470 0.488470
0.506753 0.506753 0.506753
0.526062 0.526062 0.526062
0.545402 0.545402 0.545402
0.563236 0.563236 0.563236
0.582952 0.582952 0.582952
0.601530 0.601530 0.601530
0.620958 0.620958 0.620958
0.651190 0.651190 0.651190
0.760893 0.760893 0.760893
0.358278 0.358278 0.358278
0.357683 0.357683 0.357683
0.355728 0.355728 0.355728
0.352898 0.352898 0.352898
0.350677 0.350677 0.350677
0.347658 0.347658 0.347658
0.345646 0.345646 0.345646
0.342278 0.342278 0.342278
0.340365 0.340365 0.340365
0.339863 0.339863 0.339863
0.340047 0.340047 0.340047
0.341589 0.341589 0.341589
0.344924 0.344924 0.344924
0.349687 0.349687 0.349687
0.355991 0.355991 0.355991
0.363956 0.363956 0.363956
0.370288 0.370288 0.370288
0.382418 0.382418 0.382418
0.404062 0.404062 0.404062
0.419926 0.419926 0.419926
0.436774 0.436774 0.436774
0.456224 0.456224 0.456224
0.475732 0.475732 0.475732
0.492407 0.492407 0.492407
0.510153 0.510153 0.510153
0.528590 0.528590 0.528590
0.546703 0.546703 0.546703
0.564384 0.564384 0.564384
0.583286 0.583286 0.583286
0.600837 0.600837 0.600837
0.620055 0.620055 0.620055
0.642903 0.642903 0.642903
0.733351 0.733351 0.733351
0.378662 0.378662 0.378662
0.378130 0.378130 0.378130
0.376357 0.376357 0.376357
0.373685 0.373685 0.373685
0.371213 0.371213 0.371213
0.369159 0.369159 0.369159
0.365920 0.365920 0.365920
0.363359 0.363359 0.363359
0.361538 0.361538 0.361538
0.360433 0.360433 0.360433
0.360327 0.360327 0.360327
0.361332 0.361332 0.361332
0.363857 0.363857 0.363857
0.367593 0.367593 0.367593
0.372899 0.372899 0.372899
0.379726 0.379726 0.379726
0.388021 0.388021 0.388021
0.399036 0.399036 0.399036
0.416283 0.416283 0.416283
0.427131 0.427131 0.427131
0.443292 0.443292 0.443292
0.462091 0.462091 0.462091
0.481382 0.481382 0.481382
0.497522 0.497522 0.497522
0.514891 0.514891 0.514891
0.532244 0.532244 0.532244
0.549490 0.549490 0.549490
0.566191 0.566191 0.566191
0.584583 0.584583 0.584583
0.602076 0.602076 0.602076
0.620042 0.620042 0.620042
0.638932 0.638932 0.638932
0.690235 0.690235 0.690235
0.402585 0.402585 0.402585
0.402113 0.402113 0.402113
0.400524 0.400524 0.400524
0.398057 0.398057 0.398057
0.395542 0.395542 0.395542
0.394465 0.394465 0.394465
0.390607 0.390607 0.390607
0.388887 0.388887 0.388887
0.386759 0.386759 0.386759
0.385155 0.385155 0.385155
0.384812 0.384812 0.384812
0.385480 0.385480 0.385480
0.387532 0.387532 0.387532
0.390293 0.390293 0.390293
0.394866 0.394866 0.394866
0.400612 0.400612 0.400612
0.407834 0.407834 0.407834
0.416564 0.416564 0.416564
0.432236 0.432236 0.432236
0.439798 0.439798 0.439798
0.450725 0.450725 0.450725
0.469043 0.469043 0.469043
0.487877 0.487877 0.487877
0.503551 0.503551 0.503551
0.520549 0.520549 0.520549
0.537196 0.537196 0.537196
0.553496 0.553496 0.553496
0.569382 0.569382 0.569382
0.587183 0.587183 0.587183
0.603724 0.603724 0.603724
0.621431 0.621431 0.621431
0.639305 0.639305 0.639305
0.671150 0.671150 0.671150
0.429739 0.429739 0.429739
0.429355 0.429355 0.429355
0.428052 0.428052 0.428052
0.425988 0.425988 0.425988
0.423757 0.423757 0.423757
0.422486 0.422486 0.422486
0.419673 0.419673 0.419673
0.417850 0.417850 0.417850
0.415659 0.415659 0.415659
0.414694 0.414694 0.414694
0.414177 0.414177 0.414177
0.414650 0.414650 0.414650
0.415849 0.415849 0.415849
0.418263 0.418263 0.418263
0.421863 0.421863 0.421863
0.426978 0.426978 0.426978
0.432795 0.432795 0.432795
0.439790 0.439790 0.439790
0.448309 0.448309 0.448309
0.455073 0.455073 0.455073
0.464380 0.464380 0.464380
0.476970 0.476970 0.476970
0.495291 0.495291 0.495291
0.510605 0.510605 0.510605
0.526706 0.526706 0.526706
0.543124 0.543124 0.543124
0.558550 0.558550 0.558550
0.573913 0.573913 0.573913
0.590555 0.590555 0.590555
0.606738 0.606738 0.606738
0.623962 0.623962 0.623962
0.640074 0.640074 0.640074
0.664176 0.664176 0.664176
0.448227 0.448227 0.448227
0.447878 0.447878 0.447878
0.446685 0.446685 0.446685
0.444753 0.444753 0.444753
0.442533 0.442533 0.442533
0.440946 0.440946 0.440946
0.439226 0.439226 0.439226
0.436697 0.436697 0.436697
0.435322 0.435322 0.435322
0.434285 0.434285 0.434285
0.433153 0.433153 0.433153
0.433190 0.433190 0.433190
0.434139 0.434139 0.434139
0.436016 0.436016 0.436016
0.439026 0.439026 0.439026
0.443086 0.443086 0.443086
0.448321 0.448321 0.448321
0.454789 0.454789 0.454789
0.462149 0.462149 0.462149
0.471018 0.471018 0.471018
0.479396 0.479396 0.479396
0.491312 0.491312 0.491312
0.504184 0.504184 0.504184
0.518472 0.518472 0.518472
0.533967 0.533967 0.533967
0.549816 0.549816 0.549816
0.564674 0.564674 0.564674
0.579451 0.579451 0.579451
0.595212 0.595212 0.595212
0.610684 0.610684 0.610684
0.627145 0.627145 0.627145
0.643060 0.643060 0.643060
0.662329 0.662329 0.662329
0.467234 0.467234 0.467234
0.466922 0.466922 0.466922
0.465853 0.465853 0.465853
0.464093 0.464093 0.464093
0.461988 0.461988 0.461988
0.460251 0.460251 0.460251
0.459411 0.459411 0.459411
0.456485 0.456485 0.456485
0.455832 0.455832 0.455832
0.453613 0.453613 0.453613
0.453081 0.453081 0.453081
0.453263 0.453263 0.453263
0.453683 0.453683 0.453683
0.455003 0.455003 0.455003
0.457571 0.457571 0.457571
0.461195 0.461195 0.461195
0.465602 0.465602 0.465602
0.471233 0.471233 0.471233
0.478273 0.478273 0.478273
0.485971 0.485971 0.485971
0.495120 0.495120 0.495120
0.505990 0.505990 0.505990
0.518367 0.518367 0.518367
0.528060 0.528060 0.528060
0.541886 0.541886 0.541886
0.557490 0.557490 0.557490
0.571844 0.571844 0.571844
0.585937 0.585937 0.585937
0.600979 0.600979 0.600979
0.615497 0.615497 0.615497
0.631506 0.631506 0.631506
0.646543 0.646543 0.646543
0.663759 0.663759 0.663759
0.487044 0.487044 0.487044
0.486776 0.486776 0.486776
0.485850 0.485850 0.485850
0.484311 0.484311 0.484311
0.482430 0.482430 0.482430
0.480760 0.480760 0.480760
0.480304 0.480304 0.480304
0.477859 0.477859 0.477859
0.476471 0.476471 0.476471
0.475222 0.475222 0.475222
0.474838 0.474838 0.474838
0.474222 0.474222 0.474222
0.474799 0.474799 0.474799
0.476131 0.476131 0.476131
0.478188 0.478188 0.478188
0.481381 0.481381 0.481381
0.485372 0.485372 0.485372
0.490404 0.490404 0.490404
0.496500 0.496500 0.496500
0.503967 0.503967 0.503967
0.511985 0.511985 0.511985
0.521112 0.521112 0.521112
0.532239 0.532239 0.532239
0.541643 0.541643 0.541643
0.552204 0.552204 0.552204
0.565726 0.565726 0.565726
0.579922 0.579922 0.579922
0.593553 0.593553 0.593553
0.607809 0.607809 0.607809
0.621525 0.621525 0.621525
0.636661 0.636661 0.636661
0.651213 0.651213 0.651213
0.667074 0.667074 0.667074
0.507009 0.507009 0.507009
0.506775 0.506775 0.506775
0.505964 0.505964 0.505964
0.504604 0.504604 0.504604
0.502905 0.502905 0.502905
0.501304 0.501304 0.501304
0.500586 0.500586 0.500586
0.499226 0.499226 0.499226
0.497409 0.497409 0.497409
0.497079 0.497079 0.497079
0.495696 0.495696 0.495696
0.495704 0.495704 0.495704
0.496521 0.496521 0.496521
0.497195 0.497195 0.497195
0.498890 0.498890 0.498890
0.501625 0.501625 0.501625
0.505377 0.505377 0.505377
0.510006 0.510006 0.510006
0.515578 0.515578 0.515578
0.521944 0.521944 0.521944
0.529319 0.529319 0.529319
0.537427 0.537427 0.537427
0.546519 0.546519 0.546519
0.555547 0.555547 0.555547
0.565653 0.565653 0.565653
0.576706 0.576706 0.576706
0.588637 0.588637 0.588637
0.601918 0.601918 0.601918
0.615710 0.615710 0.615710
0.628668 0.628668 0.628668
0.642805 0.642805 0.642805
0.656834 0.656834 0.656834
0.670985 0.670985 0.670985
0.525327 0.525327 0.525327
0.525119 0.525119 0.525119
0.524398 0.524398 0.524398
0.523171 0.523171 0.523171
0.521591 0.521591 0.521591
0.519987 0.519987 0.519987
0.518951 0.518951 0.518951
0.518340 0.518340 0.518340
0.516212 0.516212 0.516212
0.515748 0.515748 0.515748
0.514471 0.514471 0.514471
0.514649 0.514649 0.514649
0.514399 0.514399 0.514399
0.515497 0.515497 0.515497
0.517326 0.517326 0.517326
0.519361 0.519361 0.519361
0.522446 0.522446 0.522446
0.526445 0.526445 0.526445
0.531398 0.531398 0.531398
0.537231 0.537231 0.537231
0.544039 0.544039 0.544039
0.551634 0.551634 0.551634
0.560268 0.560268 0.560268
0.569769 0.569769 0.569769
0.579292 0.579292 0.579292
0.589899 0.589899 0.589899
0.600457 0.600457 0.600457
0.610952 0.610952 0.610952
0.624317 0.624317 0.624317
0.636809 0.636809 0.636809
0.650050 0.650050 0.650050
0.663072 0.663072 0.663072
0.675876 0.675876 0.675876
0.541471 0.541471 0.541471
0.541293 0.541293 0.541293
0.540673 0.540673 0.540673
0.539614 0.539614 0.539614
0.538233 0.538233 0.538233
0.536791 0.536791 0.536791
0.535755 0.535755 0.535755
0.535950 0.535950 0.535950
0.533851 0.533851 0.533851
0.532945 0.532945 0.532945
0.532691 0.532691 0.532691
0.532055 0.532055 0.532055
0.532431 0.532431 0.532431
0.533430 0.533430 0.533430
0.534544 0.534544 0.534544
0.536711 0.536711 0.536711
0.539705 0.539705 0.539705
0.543425 0.543425 0.543425
0.547875 0.547875 0.547875
0.553248 0.553248 0.553248
0.559456 0.559456 0.559456
0.566532 0.566532 0.566532
0.574419 0.574419 0.574419
0.583414 0.583414 0.583414
0.593097 0.593097 0.593097
0.603121 0.603121 0.603121
0.613849 0.613849 0.613849
0.623205 0.623205 0.623205
0.633718 0.633718 0.633718
0.645688 0.645688 0.645688
0.658280 0.658280 0.658280
0.670167 0.670167 0.670167
0.681380 0.681380 0.681380
0.556859 0.556859 0.556859
0.556710 0.556710 0.556710
0.556188 0.556188 0.556188
0.555294 0.555294 0.555294
0.554120 0.554120 0.554120
0.552874 0.552874 0.552874
0.551932 0.551932 0.551932
0.551958 0.551958 0.551958
0.550965 0.550965 0.550965
0.549876 0.549876 0.549876
0.550552 0.550552 0.550552
0.549511 0.549511 0.549511
0.550436 0.550436 0.550436
0.550638 0.550638 0.550638
0.552278 0.552278 0.552278
0.554266 0.554266 0.554266
0.556793 0.556793 0.556793
0.560195 0.560195 0.560195
0.564343 0.564343 0.564343
0.569351 0.569351 0.569351
0.575166 0.575166 0.575166
0.581825 0.581825 0.581825
0.589240 0.589240 0.589240
0.597415 0.597415 0.597415
0.606646 0.606646 0.606646
0.616369 0.616369 0.616369
0.627336 0.627336 0.627336
0.636427 0.636427 0.636427
0.646499 0.646499 0.646499
0.655650 0.655650 0.655650
0.667190 0.667190 0.667190
0.677338 0.677338 0.677338
0.687956 0.687956 0.687956
0.576077 0.576077 0.576077
0.575931 0.575931 0.575931
0.575418 0.575418 0.575418
0.574522 0.574522 0.574522
0.573306 0.573306 0.573306
0.571926 0.571926 0.571926
0.570683 0.570683 0.570683
0.570133 0.570133 0.570133
0.569707 0.569707 0.569707
0.568224 0.568224 0.568224
0.568044 0.568044 0.568044
0.567816 0.567816 0.567816
0.567808 0.567808 0.567808
0.568517 0.568517 0.568517
0.569697 0.569697 0.569697
0.571287 0.571287 0.571287
0.573957 0.573957 0.573957
0.577104 0.577104 0.577104
0.580740 0.580740 0.580740
0.585310 0.585310 0.585310
0.590771 0.590771 0.590771
0.597099 0.597099 0.597099
0.604279 0.604279 0.604279
0.612266 0.612266 0.612266
0.621093 0.621093 0.621093
