LUTs/trix_modern/TriX_Orange21_ExtraSoft.cube
TITLE "Tri-X Orange21 ExtraSoft"
# Adobe RGB in/out. REPLACES AgX. Tri-X Orange21 ExtraSoft.
LUT_3D_SIZE 5
DOMAIN_MIN 0.0 0.0 0.0
DOMAIN_MAX 1.0 1.0 1.0
0.099726 0.099726 0.099726
0.262273 0.262273 0.262273
0.591357 0.591357 0.591357
0.869185 0.869185 0.869185
0.953713 0.953713 0.953713
0.159277 0.159277 0.159277
0.298800 0.298800 0.298800
0.579316 0.579316 0.579316
0.839395 0.839395 0.839395
0.941072 0.941072 0.941072
0.301996 0.301996 0.301996
0.407529 0.407529 0.407529
0.589424 0.589424 0.589424
0.804389 0.804389 0.804389
0.933093 0.933093 0.933093
0.413957 0.413957 0.413957
0.499925 0.499925 0.499925
0.674795 0.674795 0.674795
0.819842 0.819842 0.819842
0.916723 0.916723 0.916723
0.480891 0.480891 0.480891
0.639574 0.639574 0.639574
0.732904 0.732904 0.732904
0.840776 0.840776 0.840776
0.919634 0.919634 0.919634
0.099883 0.099883 0.099883
0.247890 0.247890 0.247890
0.562558 0.562558 0.562558
0.858542 0.858542 0.858542
0.948985 0.948985 0.948985
0.174600 0.174600 0.174600
0.255950 0.255950 0.255950
0.517599 0.517599 0.517599
0.824188 0.824188 0.824188
0.936350 0.936350 0.936350
0.329928 0.329928 0.329928
0.397985 0.397985 0.397985
0.551587 0.551587 0.551587
0.781853 0.781853 0.781853
0.928539 0.928539 0.928539
0.437746 0.437746 0.437746
0.506917 0.506917 0.506917
0.662693 0.662693 0.662693
0.809682 0.809682 0.809682
0.913796 0.913796 0.913796
0.477257 0.477257 0.477257
0.635059 0.635059 0.635059
0.732017 0.732017 0.732017
0.840762 0.840762 0.840762
0.919195 0.919195 0.919195
0.107850 0.107850 0.107850
0.321538 0.321538 0.321538
0.627977 0.627977 0.627977
0.863847 0.863847 0.863847
0.946868 0.946868 0.946868
0.228405 0.228405 0.228405
0.362400 0.362400 0.362400
0.563580 0.563580 0.563580
0.827465 0.827465 0.827465
0.933471 0.933471 0.933471
0.326162 0.326162 0.326162
0.381559 0.381559 0.381559
0.504596 0.504596 0.504596
0.761892 0.761892 0.761892
0.922330 0.922330 0.922330
0.449475 0.449475 0.449475
0.505438 0.505438 0.505438
0.641734 0.641734 0.641734
0.789121 0.789121 0.789121
0.907468 0.907468 0.907468
0.563756 0.563756 0.563756
0.600462 0.600462 0.600462
0.730898 0.730898 0.730898
0.840491 0.840491 0.840491
0.918524 0.918524 0.918524
0.150996 0.150996 0.150996
0.341864 0.341864 0.341864
0.664497 0.664497 0.664497
0.886620 0.886620 0.886620
0.952344 0.952344 0.952344
0.251651 0.251651 0.251651
0.399504 0.399504 0.399504
0.658452 0.658452 0.658452
0.858496 0.858496 0.858496
0.938471 0.938471 0.938471
0.342782 0.342782 0.342782
0.405700 0.405700 0.405700
0.581717 0.581717 0.581717
0.788594 0.788594 0.788594
0.924985 0.924985 0.924985
0.439926 0.439926 0.439926
0.494067 0.494067 0.494067
0.626100 0.626100 0.626100
0.765056 0.765056 0.765056
0.904450 0.904450 0.904450
0.558077 0.558077 0.558077
0.601532 0.601532 0.601532
0.725719 0.725719 0.725719
0.837575 0.837575 0.837575
0.917650 0.917650 0.917650
0.228286 0.228286 0.228286
0.295992 0.295992 0.295992
0.686247 0.686247 0.686247
0.915499 0.915499 0.915499
0.958749 0.958749 0.958749
0.296031 0.296031 0.296031
0.363233 0.363233 0.363233
0.702636 0.702636 0.702636
0.889388 0.889388 0.889388
0.946235 0.946235 0.946235
0.390084 0.390084 0.390084
0.442229 0.442229 0.442229
0.620560 0.620560 0.620560
0.827709 0.827709 0.827709
0.939492 0.939492 0.939492
0.434759 0.434759 0.434759
0.487154 0.487154 0.487154
0.624961 0.624961 0.624961
0.787430 0.787430 0.787430
0.918316 0.918316 0.918316
0.514913 0.514913 0.514913
0.597862 0.597862 0.597862
0.717938 0.717938 0.717938
0.832492 0.832492 0.832492
0.917860 0.917860 0.917860
