LUTs/trix_modern/TriX_Orange21_Normal.cube
TITLE "Tri-X Orange21 Normal"
# Adobe RGB in/out. REPLACES AgX. Tri-X Orange21 Normal.
LUT_3D_SIZE 5
DOMAIN_MIN 0.0 0.0 0.0
DOMAIN_MAX 1.0 1.0 1.0
0.093230 0.093230 0.093230
0.212859 0.212859 0.212859
0.603524 0.603524 0.603524
0.884797 0.884797 0.884797
0.961737 0.961737 0.961737
0.105492 0.105492 0.105492
0.264626 0.264626 0.264626
0.590815 0.590815 0.590815
0.852746 0.852746 0.852746
0.952622 0.952622 0.952622
0.269409 0.269409 0.269409
0.401992 0.401992 0.401992
0.601503 0.601503 0.601503
0.817960 0.817960 0.817960
0.946851 0.946851 0.946851
0.411029 0.411029 0.411029
0.502700 0.502700 0.502700
0.687909 0.687909 0.687909
0.833320 0.833320 0.833320
0.931184 0.931184 0.931184
0.482045 0.482045 0.482045
0.654005 0.654005 0.654005
0.749806 0.749806 0.749806
0.854118 0.854118 0.854118
0.934022 0.934022 0.934022
0.093234 0.093234 0.093234
0.193290 0.193290 0.193290
0.572230 0.572230 0.572230
0.872558 0.872558 0.872558
0.958332 0.958332 0.958332
0.114265 0.114265 0.114265
0.204394 0.204394 0.204394
0.522615 0.522615 0.522615
0.837639 0.837639 0.837639
0.949209 0.949209 0.949209
0.300616 0.300616 0.300616
0.388629 0.388629 0.388629
0.560089 0.560089 0.560089
0.796158 0.796158 0.796158
0.943551 0.943551 0.943551
0.436725 0.436725 0.436725
0.510655 0.510655 0.510655
0.676914 0.676914 0.676914
0.823221 0.823221 0.823221
0.928331 0.928331 0.928331
0.478219 0.478219 0.478219
0.649274 0.649274 0.649274
0.748850 0.748850 0.748850
0.854103 0.854103 0.854103
0.933594 0.933594 0.933594
0.093878 0.093878 0.093878
0.291283 0.291283 0.291283
0.641854 0.641854 0.641854
0.879582 0.879582 0.879582
0.956806 0.956806 0.956806
0.167492 0.167492 0.167492
0.340141 0.340141 0.340141
0.573362 0.573362 0.573362
0.840895 0.840895 0.840895
0.947125 0.947125 0.947125
0.296420 0.296420 0.296420
0.365951 0.365951 0.365951
0.508013 0.508013 0.508013
0.780440 0.780440 0.780440
0.936649 0.936649 0.936649
0.449024 0.449024 0.449024
0.508971 0.508971 0.508971
0.656269 0.656269 0.656269
0.802777 0.802777 0.802777
0.922161 0.922161 0.922161
0.573557 0.573557 0.573557
0.613049 0.613049 0.613049
0.747643 0.747643 0.747643
0.853834 0.853834 0.853834
0.932939 0.932939 0.932939
0.102288 0.102288 0.102288
0.314949 0.314949 0.314949
0.678554 0.678554 0.678554
0.901821 0.901821 0.901821
0.960751 0.960751 0.960751
0.198508 0.198508 0.198508
0.390747 0.390747 0.390747
0.673055 0.673055 0.673055
0.872497 0.872497 0.872497
0.950742 0.950742 0.950742
0.316066 0.316066 0.316066
0.399421 0.399421 0.399421
0.593445 0.593445 0.593445
0.802253 0.802253 0.802253
0.939285 0.939285 0.939285
0.439010 0.439010 0.439010
0.496046 0.496046 0.496046
0.639888 0.639888 0.639888
0.782937 0.782937 0.782937
0.919217 0.919217 0.919217
0.567269 0.567269 0.567269
0.614170 0.614170 0.614170
0.742058 0.742058 0.742058
0.850938 0.850938 0.850938
0.932087 0.932087 0.932087
0.167348 0.167348 0.167348
0.260453 0.260453 0.260453
0.699565 0.699565 0.699565
0.929991 0.929991 0.929991
0.966016 0.966016 0.966016
0.260512 0.260512 0.260512
0.341212 0.341212 0.341212
0.717193 0.717193 0.717193
0.904523 0.904523 0.904523
0.956349 0.956349 0.956349
0.377670 0.377670 0.377670
0.441424 0.441424 0.441424
0.634087 0.634087 0.634087
0.841137 0.841137 0.841137
0.951481 0.951481 0.951481
0.433596 0.433596 0.433596
0.488641 0.488641 0.488641
0.638695 0.638695 0.638695
0.801096 0.801096 0.801096
0.932737 0.932737 0.932737
0.519663 0.519663 0.519663
0.610329 0.610329 0.610329
0.733671 0.733671 0.733671
0.845889 0.845889 0.845889
0.932292 0.932292 0.932292
