LUTs/trix_modern/TriX_Red25_Normal.cube
TITLE "Tri-X Red25 Normal"
# Adobe RGB in/out. REPLACES AgX. Tri-X Red25 Normal.
LUT_3D_SIZE 9
DOMAIN_MIN 0.0 0.0 0.0
DOMAIN_MAX 1.0 1.0 1.0
0.093230 0.093230 0.093230
0.102350 0.102350 0.102350
0.303754 0.303754 0.303754
0.550548 0.550548 0.550548
0.801431 0.801431 0.801431
0.940535 0.940535 0.940535
0.976834 0.976834 0.976834
0.986630 0.986630 0.986630
0.982297 0.982297 0.982297
0.093230 0.093230 0.093230
0.094871 0.094871 0.094871
0.315202 0.315202 0.315202
0.553325 0.553325 0.553325
0.780574 0.780574 0.780574
0.923422 0.923422 0.923422
0.974296 0.974296 0.974296
0.985421 0.985421 0.985421
0.981434 0.981434 0.981434
0.093249 0.093249 0.093249
0.093953 0.093953 0.093953
0.186055 0.186055 0.186055
0.459095 0.459095 0.459095
0.710351 0.710351 0.710351
0.870032 0.870032 0.870032
0.957090 0.957090 0.957090
0.981568 0.981568 0.981568
0.978613 0.978613 0.978613
0.093474 0.093474 0.093474
0.094704 0.094704 0.094704
0.147724 0.147724 0.147724
0.340702 0.340702 0.340702
0.586000 0.586000 0.586000
0.799874 0.799874 0.799874
0.914059 0.914059 0.914059
0.968650 0.968650 0.968650
0.974373 0.974373 0.974373
0.093921 0.093921 0.093921
0.095661 0.095661 0.095661
0.129747 0.129747 0.129747
0.287860 0.287860 0.287860
0.487106 0.487106 0.487106
0.709800 0.709800 0.709800
0.862693 0.862693 0.862693
0.945023 0.945023 0.945023
0.967655 0.967655 0.967655
0.094724 0.094724 0.094724
0.096076 0.096076 0.096076
0.119111 0.119111 0.119111
0.240325 0.240325 0.240325
0.420275 0.420275 0.420275
0.632468 0.632468 0.632468
0.810743 0.810743 0.810743
0.910705 0.910705 0.910705
0.954990 0.954990 0.954990
0.094202 0.094202 0.094202
0.095169 0.095169 0.095169
0.106168 0.106168 0.106168
0.190444 0.190444 0.190444
0.354318 0.354318 0.354318
0.561723 0.561723 0.561723
0.771617 0.771617 0.771617
0.886485 0.886485 0.886485
0.944625 0.944625 0.944625
0.093257 0.093257 0.093257
0.093268 0.093268 0.093268
0.095060 0.095060 0.095060
0.127077 0.127077 0.127077
0.278741 0.278741 0.278741
0.480916 0.480916 0.480916
0.712913 0.712913 0.712913
0.873412 0.873412 0.873412
0.934730 0.934730 0.934730
0.093230 0.093230 0.093230
0.093230 0.093230 0.093230
0.093230 0.093230 0.093230
0.093230 0.093230 0.093230
0.101242 0.101242 0.101242
0.338062 0.338062 0.338062
0.622804 0.622804 0.622804
0.851272 0.851272 0.851272
0.933870 0.933870 0.933870
0.093230 0.093230 0.093230
0.096234 0.096234 0.096234
0.222789 0.222789 0.222789
0.490269 0.490269 0.490269
0.785978 0.785978 0.785978
0.935138 0.935138 0.935138
0.975836 0.975836 0.975836
0.985983 0.985983 0.985983
0.981850 0.981850 0.981850
0.093246 0.093246 0.093246
0.097009 0.097009 0.097009
0.248515 0.248515 0.248515
0.483038 0.483038 0.483038
0.756485 0.756485 0.756485
0.917829 0.917829 0.917829
0.973332 0.973332 0.973332
0.984775 0.984775 0.984775
0.980990 0.980990 0.980990
0.093826 0.093826 0.093826
0.099800 0.099800 0.099800
0.208523 0.208523 0.208523
0.443940 0.443940 0.443940
0.681987 0.681987 0.681987
0.862736 0.862736 0.862736
0.955328 0.955328 0.955328
0.980929 0.980929 0.980929
0.978180 0.978180 0.978180
0.095461 0.095461 0.095461
0.100927 0.100927 0.100927
0.183999 0.183999 0.183999
0.362146 0.362146 0.362146
0.585858 0.585858 0.585858
0.793205 0.793205 0.793205
0.912061 0.912061 0.912061
0.967332 0.967332 0.967332
0.973969 0.973969 0.973969
0.096380 0.096380 0.096380
0.100629 0.100629 0.100629
0.155433 0.155433 0.155433
0.311908 0.311908 0.311908
0.503418 0.503418 0.503418
0.711231 0.711231 0.711231
0.860760 0.860760 0.860760
0.944411 0.944411 0.944411
0.966740 0.966740 0.966740
0.096532 0.096532 0.096532
0.099497 0.099497 0.099497
0.134503 0.134503 0.134503
0.264090 0.264090 0.264090
0.437101 0.437101 0.437101
0.642678 0.642678 0.642678
0.811536 0.811536 0.811536
0.910534 0.910534 0.910534
0.954346 0.954346 0.954346
0.095280 0.095280 0.095280
0.096528 0.096528 0.096528
0.113164 0.113164 0.113164
0.207529 0.207529 0.207529
0.369223 0.369223 0.369223
0.572955 0.572955 0.572955
0.776492 0.776492 0.776492
0.886685 0.886685 0.886685
0.944356 0.944356 0.944356
0.093269 0.093269 0.093269
0.093321 0.093321 0.093321
0.095996 0.095996 0.095996
0.136155 0.136155 0.136155
0.289765 0.289765 0.289765
0.491415 0.491415 0.491415
0.719239 0.719239 0.719239
0.874569 0.874569 0.874569
0.934723 0.934723 0.934723
0.093230 0.093230 0.093230
0.093230 0.093230 0.093230
0.093230 0.093230 0.093230
0.093230 0.093230 0.093230
0.104769 0.104769 0.104769
0.346961 0.346961 0.346961
0.628909 0.628909 0.628909
0.853097 0.853097 0.853097
0.933977 0.933977 0.933977
0.093230 0.093230 0.093230
0.110612 0.110612 0.110612
0.257683 0.257683 0.257683
0.499816 0.499816 0.499816
0.776710 0.776710 0.776710
0.928352 0.928352 0.928352
0.974239 0.974239 0.974239
0.984836 0.984836 0.984836
0.980923 0.980923 0.980923
0.093457 0.093457 0.093457
0.122761 0.122761 0.122761
0.280873 0.280873 0.280873
0.474826 0.474826 0.474826
0.740321 0.740321 0.740321
0.911098 0.911098 0.911098
0.971766 0.971766 0.971766
0.983600 0.983600 0.983600
0.980055 0.980055 0.980055
0.095488 0.095488 0.095488
0.104335 0.104335 0.104335
0.204394 0.204394 0.204394
0.411675 0.411675 0.411675
0.651438 0.651438 0.651438
0.853364 0.853364 0.853364
0.952540 0.952540 0.952540
0.979169 0.979169 0.979169
0.977228 0.977228 0.977228
0.104962 0.104962 0.104962
0.121061 0.121061 0.121061
0.219727 0.219727 0.219727
0.366141 0.366141 0.366141
0.572053 0.572053 0.572053
0.781825 0.781825 0.781825
0.908728 0.908728 0.908728
0.964648 0.964648 0.964648
0.973011 0.973011 0.973011
0.115193 0.115193 0.115193
0.131015 0.131015 0.131015
0.214423 0.214423 0.214423
0.354035 0.354035 0.354035
0.524587 0.524587 0.524587
0.713459 0.713459 0.713459
0.857095 0.857095 0.857095
0.943162 0.943162 0.943162
0.964361 0.964361 0.964361
0.117014 0.117014 0.117014
0.128811 0.128811 0.128811
0.195668 0.195668 0.195668
0.320054 0.320054 0.320054
0.484207 0.484207 0.484207
0.668872 0.668872 0.668872
0.814602 0.814602 0.814602
0.910642 0.910642 0.910642
0.952593 0.952593 0.952593
0.106810 0.106810 0.106810
0.113419 0.113419 0.113419
0.157158 0.157158 0.157158
0.272702 0.272702 0.272702
0.423431 0.423431 0.423431
0.612181 0.612181 0.612181
0.788728 0.788728 0.788728
0.887686 0.887686 0.887686
0.943607 0.943607 0.943607
0.095190 0.095190 0.095190
0.096121 0.096121 0.096121
0.111112 0.111112 0.111112
0.190054 0.190054 0.190054
0.340250 0.340250 0.340250
0.536132 0.536132 0.536132
0.745701 0.745701 0.745701
0.878941 0.878941 0.878941
0.934656 0.934656 0.934656
0.093230 0.093230 0.093230
0.093230 0.093230 0.093230
0.093230 0.093230 0.093230
0.093230 0.093230 0.093230
0.140560 0.140560 0.140560
0.387917 0.387917 0.387917
0.655793 0.655793 0.655793
0.860596 0.860596 0.860596
0.934116 0.934116 0.934116
0.093240 0.093240 0.093240
0.101894 0.101894 0.101894
0.303543 0.303543 0.303543
0.531706 0.531706 0.531706
0.790169 0.790169 0.790169
0.928412 0.928412 0.928412
0.973446 0.973446 0.973446
0.982854 0.982854 0.982854
0.980305 0.980305 0.980305
0.093624 0.093624 0.093624
0.114393 0.114393 0.114393
0.339000 0.339000 0.339000
0.526977 0.526977 0.526977
0.758690 0.758690 0.758690
0.911286 0.911286 0.911286
0.970938 0.970938 0.970938
0.981320 0.981320 0.981320
0.979414 0.979414 0.979414
0.099575 0.099575 0.099575
0.119180 0.119180 0.119180
0.275386 0.275386 0.275386
0.444574 0.444574 0.444574
0.662699 0.662699 0.662699
0.853412 0.853412 0.853412
0.950652 0.950652 0.950652
0.975113 0.975113 0.975113
0.976507 0.976507 0.976507
0.113434 0.113434 0.113434
0.133633 0.133633 0.133633
0.228090 0.228090 0.228090
0.357462 0.357462 0.357462
0.559790 0.559790 0.559790
0.775936 0.775936 0.775936
0.905785 0.905785 0.905785
0.961901 0.961901 0.961901
0.972174 0.972174 0.972174
0.138649 0.138649 0.138649
0.158278 0.158278 0.158278
0.244739 0.244739 0.244739
0.368016 0.368016 0.368016
0.518417 0.518417 0.518417
0.703054 0.703054 0.703054
0.852790 0.852790 0.852790
0.939644 0.939644 0.939644
0.961844 0.961844 0.961844
0.148437 0.148437 0.148437
0.163692 0.163692 0.163692
0.239142 0.239142 0.239142
0.353063 0.353063 0.353063
0.506543 0.506543 0.506543
0.673204 0.673204 0.673204
0.812567 0.812567 0.812567
0.908878 0.908878 0.908878
0.950398 0.950398 0.950398
0.135868 0.135868 0.135868
0.147573 0.147573 0.147573
0.206365 0.206365 0.206365
0.314915 0.314915 0.314915
0.463409 0.463409 0.463409
0.639828 0.639828 0.639828
0.794199 0.794199 0.794199
0.887823 0.887823 0.887823
0.941494 0.941494 0.941494
0.103458 0.103458 0.103458
0.106863 0.106863 0.106863
0.143807 0.143807 0.143807
0.242615 0.242615 0.242615
0.386246 0.386246 0.386246
0.573125 0.573125 0.573125
0.765603 0.765603 0.765603
0.880478 0.880478 0.880478
0.933878 0.933878 0.933878
0.093230 0.093230 0.093230
0.093230 0.093230 0.093230
0.093230 0.093230 0.093230
0.093230 0.093230 0.093230
0.217905 0.217905 0.217905
0.440230 0.440230 0.440230
0.687876 0.687876 0.687876
0.868946 0.868946 0.868946
0.934045 0.934045 0.934045
0.093271 0.093271 0.093271
0.096092 0.096092 0.096092
0.326639 0.326639 0.326639
0.551692 0.551692 0.551692
0.812457 0.812457 0.812457
0.935957 0.935957 0.935957
0.973901 0.973901 0.973901
0.982226 0.982226 0.982226
0.980306 0.980306 0.980306
0.093773 0.093773 0.093773
0.103122 0.103122 0.103122
0.344674 0.344674 0.344674
0.569775 0.569775 0.569775
0.788242 0.788242 0.788242
0.919446 0.919446 0.919446
0.971407 0.971407 0.971407
0.980638 0.980638 0.980638
0.979388 0.979388 0.979388
0.110932 0.110932 0.110932
0.147183 0.147183 0.147183
0.329919 0.329919 0.329919
0.513139 0.513139 0.513139
0.699506 0.699506 0.699506
0.866385 0.866385 0.866385
0.952132 0.952132 0.952132
0.974804 0.974804 0.974804
0.976381 0.976381 0.976381
0.125271 0.125271 0.125271
0.149395 0.149395 0.149395
0.263185 0.263185 0.263185
0.413891 0.413891 0.413891
0.589633 0.589633 0.589633
0.786014 0.786014 0.786014
0.907696 0.907696 0.907696
0.961128 0.961128 0.961128
0.971862 0.971862 0.971862
0.152280 0.152280 0.152280
0.172766 0.172766 0.172766
0.258503 0.258503 0.258503
0.372245 0.372245 0.372245
0.508013 0.508013 0.508013
0.699287 0.699287 0.699287
0.851833 0.851833 0.851833
0.937533 0.937533 0.937533
0.960211 0.960211 0.960211
0.170714 0.170714 0.170714
0.188722 0.188722 0.188722
0.264869 0.264869 0.264869
0.370121 0.370121 0.370121
0.512618 0.512618 0.512618
0.665527 0.665527 0.665527
0.808835 0.808835 0.808835
0.906625 0.906625 0.906625
0.948486 0.948486 0.948486
0.162292 0.162292 0.162292
0.176151 0.176151 0.176151
0.239860 0.239860 0.239860
0.341893 0.341893 0.341893
0.486416 0.486416 0.486416
0.651846 0.651846 0.651846
0.793490 0.793490 0.793490
0.887011 0.887011 0.887011
0.938914 0.938914 0.938914
0.117398 0.117398 0.117398
0.125516 0.125516 0.125516
0.174397 0.174397 0.174397
0.279288 0.279288 0.279288
0.419209 0.419209 0.419209
0.598081 0.598081 0.598081
0.776568 0.776568 0.776568
0.880330 0.880330 0.880330
0.932661 0.932661 0.932661
0.093230 0.093230 0.093230
0.093230 0.093230 0.093230
0.093230 0.093230 0.093230
0.100932 0.100932 0.100932
0.260114 0.260114 0.260114
0.470544 0.470544 0.470544
0.707027 0.707027 0.707027
0.873279 0.873279 0.873279
0.933706 0.933706 0.933706
0.093549 0.093549 0.093549
0.095680 0.095680 0.095680
0.333463 0.333463 0.333463
0.562047 0.562047 0.562047
0.819806 0.819806 0.819806
0.945010 0.945010 0.945010
0.975287 0.975287 0.975287
0.982750 0.982750 0.982750
0.980907 0.980907 0.980907
0.094075 0.094075 0.094075
0.099671 0.099671 0.099671
0.342920 0.342920 0.342920
0.574424 0.574424 0.574424
0.816583 0.816583 0.816583
0.931689 0.931689 0.931689
0.972894 0.972894 0.972894
0.981163 0.981163 0.981163
0.979971 0.979971 0.979971
0.118825 0.118825 0.118825
0.153853 0.153853 0.153853
0.371602 0.371602 0.371602
0.568975 0.568975 0.568975
0.746627 0.746627 0.746627
0.885106 0.885106 0.885106
0.956759 0.956759 0.956759
0.975535 0.975535 0.975535
0.976890 0.976890 0.976890
0.145646 0.145646 0.145646
0.171772 0.171772 0.171772
0.302219 0.302219 0.302219
0.470072 0.470072 0.470072
0.643710 0.643710 0.643710
0.807731 0.807731 0.807731
0.916579 0.916579 0.916579
0.963012 0.963012 0.963012
0.972090 0.972090 0.972090
0.165092 0.165092 0.165092
0.186295 0.186295 0.186295
0.277923 0.277923 0.277923
0.400626 0.400626 0.400626
0.553414 0.553414 0.553414
0.722519 0.722519 0.722519
0.860623 0.860623 0.860623
0.939545 0.939545 0.939545
0.960098 0.960098 0.960098
0.183886 0.183886 0.183886
0.202524 0.202524 0.202524
0.276515 0.276515 0.276515
0.379598 0.379598 0.379598
0.515718 0.515718 0.515718
0.654911 0.654911 0.654911
0.808688 0.808688 0.808688
0.906497 0.906497 0.906497
0.947642 0.947642 0.947642
0.179010 0.179010 0.179010
0.194248 0.194248 0.194248
0.259063 0.259063 0.259063
0.357023 0.357023 0.357023
0.497284 0.497284 0.497284
0.653953 0.653953 0.653953
0.789201 0.789201 0.789201
0.885706 0.885706 0.885706
0.936864 0.936864 0.936864
0.129102 0.129102 0.129102
0.138611 0.138611 0.138611
0.193846 0.193846 0.193846
0.296495 0.296495 0.296495
0.436759 0.436759 0.436759
0.610851 0.610851 0.610851
0.779641 0.779641 0.779641
0.878741 0.878741 0.878741
0.931160 0.931160 0.931160
0.093230 0.093230 0.093230
0.093230 0.093230 0.093230
0.093230 0.093230 0.093230
0.103264 0.103264 0.103264
0.274654 0.274654 0.274654
0.483201 0.483201 0.483201
0.714996 0.714996 0.714996
0.874601 0.874601 0.874601
0.933080 0.933080 0.933080
0.094050 0.094050 0.094050
0.097188 0.097188 0.097188
0.310036 0.310036 0.310036
0.567130 0.567130 0.567130
0.819506 0.819506 0.819506
0.952245 0.952245 0.952245
0.977416 0.977416 0.977416
0.984002 0.984002 0.984002
0.981900 0.981900 0.981900
0.095450 0.095450 0.095450
0.100502 0.100502 0.100502
0.319525 0.319525 0.319525
0.576483 0.576483 0.576483
0.820726 0.820726 0.820726
0.944717 0.944717 0.944717
0.975156 0.975156 0.975156
0.982460 0.982460 0.982460
0.980964 0.980964 0.980964
0.122450 0.122450 0.122450
0.150481 0.150481 0.150481
0.354138 0.354138 0.354138
0.608488 0.608488 0.608488
0.784556 0.784556 0.784556
0.903326 0.903326 0.903326
0.963559 0.963559 0.963559
0.977077 0.977077 0.977077
0.977862 0.977862 0.977862
0.169852 0.169852 0.169852
0.198585 0.198585 0.198585
0.329660 0.329660 0.329660
0.516316 0.516316 0.516316
0.691570 0.691570 0.691570
0.835516 0.835516 0.835516
0.930707 0.930707 0.930707
0.967337 0.967337 0.967337
0.972772 0.972772 0.972772
0.182909 0.182909 0.182909
0.204775 0.204775 0.204775
0.297321 0.297321 0.297321
0.438947 0.438947 0.438947
0.601867 0.601867 0.601867
0.761529 0.761529 0.761529
0.879231 0.879231 0.879231
0.945229 0.945229 0.945229
0.961656 0.961656 0.961656
0.194906 0.194906 0.194906
0.212426 0.212426 0.212426
0.285038 0.285038 0.285038
0.395820 0.395820 0.395820
0.539738 0.539738 0.539738
0.690443 0.690443 0.690443
0.822090 0.822090 0.822090
0.911651 0.911651 0.911651
0.948421 0.948421 0.948421
0.185659 0.185659 0.185659
0.201408 0.201408 0.201408
0.267334 0.267334 0.267334
0.364541 0.364541 0.364541
0.504013 0.504013 0.504013
0.655865 0.655865 0.655865
0.782937 0.782937 0.782937
0.886317 0.886317 0.886317
0.936474 0.936474 0.936474
0.129634 0.129634 0.129634
0.139546 0.139546 0.139546
0.197311 0.197311 0.197311
0.301066 0.301066 0.301066
0.442323 0.442323 0.442323
0.614510 0.614510 0.614510
0.778555 0.778555 0.778555
0.875471 0.875471 0.875471
0.929971 0.929971 0.929971
0.093230 0.093230 0.093230
0.093230 0.093230 0.093230
0.093230 0.093230 0.093230
0.095372 0.095372 0.095372
0.263079 0.263079 0.263079
0.477642 0.477642 0.477642
0.711805 0.711805 0.711805
0.872960 0.872960 0.872960
0.932556 0.932556 0.932556
0.097289 0.097289 0.097289
0.102168 0.102168 0.102168
0.323000 0.323000 0.323000
0.574151 0.574151 0.574151
0.827758 0.827758 0.827758
0.962534 0.962534 0.962534
0.980492 0.980492 0.980492
0.986135 0.986135 0.986135
0.983017 0.983017 0.983017
0.099815 0.099815 0.099815
0.106715 0.106715 0.106715
0.333712 0.333712 0.333712
0.582243 0.582243 0.582243
0.828722 0.828722 0.828722
0.955728 0.955728 0.955728
0.978432 0.978432 0.978432
0.984667 0.984667 0.984667
0.982095 0.982095 0.982095
0.141633 0.141633 0.141633
0.167686 0.167686 0.167686
0.380796 0.380796 0.380796
0.616568 0.616568 0.616568
0.813613 0.813613 0.813613
0.926343 0.926343 0.926343
0.971428 0.971428 0.971428
0.979561 0.979561 0.979561
0.979024 0.979024 0.979024
0.204598 0.204598 0.204598
0.231996 0.231996 0.231996
0.379641 0.379641 0.379641
0.561507 0.561507 0.561507
0.735947 0.735947 0.735947
0.869250 0.869250 0.869250
0.947175 0.947175 0.947175
0.971918 0.971918 0.971918
0.973948 0.973948 0.973948
0.209165 0.209165 0.209165
0.231053 0.231053 0.231053
0.333650 0.333650 0.333650
0.483840 0.483840 0.483840
0.650619 0.650619 0.650619
0.798063 0.798063 0.798063
0.899789 0.899789 0.899789
0.952586 0.952586 0.952586
0.964646 0.964646 0.964646
0.207461 0.207461 0.207461
0.224998 0.224998 0.224998
0.304252 0.304252 0.304252
0.424668 0.424668 0.424668
0.577200 0.577200 0.577200
0.728885 0.728885 0.728885
0.846516 0.846516 0.846516
0.924054 0.924054 0.924054
0.950970 0.950970 0.950970
0.187891 0.187891 0.187891
0.203196 0.203196 0.203196
0.274239 0.274239 0.274239
0.374190 0.374190 0.374190
0.519461 0.519461 0.519461
0.675569 0.675569 0.675569
0.802132 0.802132 0.802132
0.894974 0.894974 0.894974
0.939063 0.939063 0.939063
0.116784 0.116784 0.116784
0.125763 0.125763 0.125763
0.184174 0.184174 0.184174
0.295001 0.295001 0.295001
0.440496 0.440496 0.440496
0.615280 0.615280 0.615280
0.777611 0.777611 0.777611
0.869617 0.869617 0.869617
0.930179 0.930179 0.930179
0.093230 0.093230 0.093230
0.093230 0.093230 0.093230
0.093230 0.093230 0.093230
0.093230 0.093230 0.093230
0.207787 0.207787 0.207787
0.448006 0.448006 0.448006
0.694565 0.694565 0.694565
0.867592 0.867592 0.867592
0.932255 0.932255 0.932255
0.178438 0.178438 0.178438
0.199846 0.199846 0.199846
0.313778 0.313778 0.313778
0.596226 0.596226 0.596226
0.890411 0.890411 0.890411
0.978875 0.978875 0.978875
0.987336 0.987336 0.987336
0.987889 0.987889 0.987889
0.984018 0.984018 0.984018
0.193335 0.193335 0.193335
0.215134 0.215134 0.215134
0.327193 0.327193 0.327193
0.604395 0.604395 0.604395
0.890410 0.890410 0.890410
0.976682 0.976682 0.976682
0.986718 0.986718 0.986718
0.987444 0.987444 0.987444
0.983121 0.983121 0.983121
0.263731 0.263731 0.263731
0.284414 0.284414 0.284414
0.391128 0.391128 0.391128
0.642284 0.642284 0.642284
0.886426 0.886426 0.886426
0.966666 0.966666 0.966666
0.980660 0.980660 0.980660
0.984402 0.984402 0.984402
0.980120 0.980120 0.980120
0.339893 0.339893 0.339893
0.359163 0.359163 0.359163
0.454285 0.454285 0.454285
0.633166 0.633166 0.633166
0.819393 0.819393 0.819393
0.932813 0.932813 0.932813
0.971218 0.971218 0.971218
0.977287 0.977287 0.977287
0.975395 0.975395 0.975395
0.319605 0.319605 0.319605
0.336821 0.336821 0.336821
0.423926 0.423926 0.423926
0.570108 0.570108 0.570108
0.741718 0.741718 0.741718
0.875290 0.875290 0.875290
0.945865 0.945865 0.945865
0.967819 0.967819 0.967819
0.969136 0.969136 0.969136
0.286515 0.286515 0.286515
0.302414 0.302414 0.302414
0.380087 0.380087 0.380087
0.514417 0.514417 0.514417
0.663936 0.663936 0.663936
0.807594 0.807594 0.807594
0.902572 0.902572 0.902572
0.948715 0.948715 0.948715
0.955651 0.955651 0.955651
0.228267 0.228267 0.228267
0.246140 0.246140 0.246140
0.317931 0.317931 0.317931
0.449738 0.449738 0.449738
0.595109 0.595109 0.595109
0.740815 0.740815 0.740815
0.856148 0.856148 0.856148
0.924713 0.924713 0.924713
0.945143 0.945143 0.945143
0.111560 0.111560 0.111560
0.118489 0.118489 0.118489
0.174968 0.174968 0.174968
0.316008 0.316008 0.316008
0.490709 0.490709 0.490709
0.665716 0.665716 0.665716
0.801874 0.801874 0.801874
0.898498 0.898498 0.898498
0.935634 0.935634 0.935634
0.093230 0.093230 0.093230
0.093230 0.093230 0.093230
0.093230 0.093230 0.093230
0.093230 0.093230 0.093230
0.096266 0.096266 0.096266
0.381969 0.381969 0.381969
0.669807 0.669807 0.669807
0.855642 0.855642 0.855642
0.932292 0.932292 0.932292
