LUTs/trix_modern/TriX_Blue47_Soft.cube
TITLE "Tri-X Blue47 Soft"
# Adobe RGB in/out. REPLACES AgX. Tri-X Blue47 Soft.
LUT_3D_SIZE 9
DOMAIN_MIN 0.0 0.0 0.0
DOMAIN_MAX 1.0 1.0 1.0
0.093873 0.093873 0.093873
0.093873 0.093873 0.093873
0.093935 0.093935 0.093935
0.094273 0.094273 0.094273
0.101324 0.101324 0.101324
0.124698 0.124698 0.124698
0.165560 0.165560 0.165560
0.471656 0.471656 0.471656
0.645276 0.645276 0.645276
0.093873 0.093873 0.093873
0.093873 0.093873 0.093873
0.093944 0.093944 0.093944
0.094275 0.094275 0.094275
0.101092 0.101092 0.101092
0.123374 0.123374 0.123374
0.161048 0.161048 0.161048
0.466376 0.466376 0.466376
0.640149 0.640149 0.640149
0.094034 0.094034 0.094034
0.094055 0.094055 0.094055
0.094075 0.094075 0.094075
0.095142 0.095142 0.095142
0.101889 0.101889 0.101889
0.123124 0.123124 0.123124
0.154877 0.154877 0.154877
0.453327 0.453327 0.453327
0.623630 0.623630 0.623630
0.097037 0.097037 0.097037
0.097187 0.097187 0.097187
0.097519 0.097519 0.097519
0.098623 0.098623 0.098623
0.106775 0.106775 0.106775
0.127249 0.127249 0.127249
0.155756 0.155756 0.155756
0.194018 0.194018 0.194018
0.452273 0.452273 0.452273
0.111261 0.111261 0.111261
0.111961 0.111961 0.111961
0.114633 0.114633 0.114633
0.117730 0.117730 0.117730
0.123510 0.123510 0.123510
0.138744 0.138744 0.138744
0.163391 0.163391 0.163391
0.192954 0.192954 0.192954
0.315803 0.315803 0.315803
0.135814 0.135814 0.135814
0.136332 0.136332 0.136332
0.140910 0.140910 0.140910
0.145578 0.145578 0.145578
0.151637 0.151637 0.151637
0.160684 0.160684 0.160684
0.176389 0.176389 0.176389
0.200511 0.200511 0.200511
0.250529 0.250529 0.250529
0.159739 0.159739 0.159739
0.160145 0.160145 0.160145
0.164650 0.164650 0.164650
0.170561 0.170561 0.170561
0.177485 0.177485 0.177485
0.185911 0.185911 0.185911
0.196619 0.196619 0.196619
0.212795 0.212795 0.212795
0.242875 0.242875 0.242875
0.178204 0.178204 0.178204
0.177429 0.177429 0.177429
0.182194 0.182194 0.182194
0.188609 0.188609 0.188609
0.196215 0.196215 0.196215
0.205247 0.205247 0.205247
0.215416 0.215416 0.215416
0.225811 0.225811 0.225811
0.243289 0.243289 0.243289
0.170547 0.170547 0.170547
0.169786 0.169786 0.169786
0.167323 0.167323 0.167323
0.193305 0.193305 0.193305
0.205703 0.205703 0.205703
0.214409 0.214409 0.214409
0.221959 0.221959 0.221959
0.229575 0.229575 0.229575
0.236959 0.236959 0.236959
0.142277 0.142277 0.142277
0.268319 0.268319 0.268319
0.190641 0.190641 0.190641
0.174166 0.174166 0.174166
0.159426 0.159426 0.159426
0.167877 0.167877 0.167877
0.203118 0.203118 0.203118
0.468838 0.468838 0.468838
0.642621 0.642621 0.642621
0.104707 0.104707 0.104707
0.099556 0.099556 0.099556
0.124863 0.124863 0.124863
0.149647 0.149647 0.149647
0.151978 0.151978 0.151978
0.163644 0.163644 0.163644
0.195542 0.195542 0.195542
0.463608 0.463608 0.463608
0.637523 0.637523 0.637523
0.129328 0.129328 0.129328
0.117767 0.117767 0.117767
0.106012 0.106012 0.106012
0.123000 0.123000 0.123000
0.140536 0.140536 0.140536
0.157684 0.157684 0.157684
0.184689 0.184689 0.184689
0.452146 0.452146 0.452146
0.621132 0.621132 0.621132
0.144833 0.144833 0.144833
0.140187 0.140187 0.140187
0.130585 0.130585 0.130585
0.127571 0.127571 0.127571
0.139012 0.139012 0.139012
0.157297 0.157297 0.157297
0.181764 0.181764 0.181764
0.219136 0.219136 0.219136
0.597260 0.597260 0.597260
0.153630 0.153630 0.153630
0.153132 0.153132 0.153132
0.152482 0.152482 0.152482
0.151802 0.151802 0.151802
0.155872 0.155872 0.155872
0.165402 0.165402 0.165402
0.186663 0.186663 0.186663
0.215261 0.215261 0.215261
0.346014 0.346014 0.346014
0.166072 0.166072 0.166072
0.166403 0.166403 0.166403
0.170145 0.170145 0.170145
0.173238 0.173238 0.173238
0.177770 0.177770 0.177770
0.185880 0.185880 0.185880
0.197803 0.197803 0.197803
0.220336 0.220336 0.220336
0.269518 0.269518 0.269518
0.181623 0.181623 0.181623
0.182117 0.182117 0.182117
0.186864 0.186864 0.186864
0.192509 0.192509 0.192509
0.198827 0.198827 0.198827
0.207250 0.207250 0.207250
0.217849 0.217849 0.217849
0.229483 0.229483 0.229483
0.258670 0.258670 0.258670
0.189809 0.189809 0.189809
0.189855 0.189855 0.189855
0.198000 0.198000 0.198000
0.206113 0.206113 0.206113
0.214581 0.214581 0.214581
0.222373 0.222373 0.222373
0.230904 0.230904 0.230904
0.241152 0.241152 0.241152
0.257263 0.257263 0.257263
0.284083 0.284083 0.284083
0.283122 0.283122 0.283122
0.279925 0.279925 0.279925
0.274906 0.274906 0.274906
0.217415 0.217415 0.217415
0.225958 0.225958 0.225958
0.233785 0.233785 0.233785
0.241337 0.241337 0.241337
0.247440 0.247440 0.247440
0.361142 0.361142 0.361142
0.556221 0.556221 0.556221
0.533338 0.533338 0.533338
0.493580 0.493580 0.493580
0.451606 0.451606 0.451606
0.447876 0.447876 0.447876
0.466900 0.466900 0.466900
0.486307 0.486307 0.486307
0.637173 0.637173 0.637173
0.360796 0.360796 0.360796
0.424015 0.424015 0.424015
0.416771 0.416771 0.416771
0.408114 0.408114 0.408114
0.403242 0.403242 0.403242
0.414892 0.414892 0.414892
0.437939 0.437939 0.437939
0.483712 0.483712 0.483712
0.632037 0.632037 0.632037
0.281412 0.281412 0.281412
0.261617 0.261617 0.261617
0.233250 0.233250 0.233250
0.279899 0.279899 0.279899
0.316536 0.316536 0.316536
0.346406 0.346406 0.346406
0.367955 0.367955 0.367955
0.479586 0.479586 0.479586
0.615661 0.615661 0.615661
0.296590 0.296590 0.296590
0.286545 0.286545 0.286545
0.261730 0.261730 0.261730
0.243979 0.243979 0.243979
0.269801 0.269801 0.269801
0.299888 0.299888 0.299888
0.320894 0.320894 0.320894
0.369465 0.369465 0.369465
0.591958 0.591958 0.591958
0.300901 0.300901 0.300901
0.296088 0.296088 0.296088
0.283741 0.283741 0.283741
0.271218 0.271218 0.271218
0.265879 0.265879 0.265879
0.280673 0.280673 0.280673
0.297711 0.297711 0.297711
0.329232 0.329232 0.329232
0.462070 0.462070 0.462070
0.303085 0.303085 0.303085
0.300554 0.300554 0.300554
0.294942 0.294942 0.294942
0.287999 0.287999 0.287999
0.283565 0.283565 0.283565
0.284341 0.284341 0.284341
0.290554 0.290554 0.290554
0.312973 0.312973 0.312973
0.358785 0.358785 0.358785
0.295577 0.295577 0.295577
0.294542 0.294542 0.294542
0.293089 0.293089 0.293089
0.291270 0.291270 0.291270
0.290286 0.290286 0.290286
0.291664 0.291664 0.291664
0.296124 0.296124 0.296124
0.307688 0.307688 0.307688
0.328690 0.328690 0.328690
0.291449 0.291449 0.291449
0.291182 0.291182 0.291182
0.293671 0.293671 0.293671
0.294758 0.294758 0.294758
0.296328 0.296328 0.296328
0.298789 0.298789 0.298789
0.303105 0.303105 0.303105
0.309519 0.309519 0.309519
0.316384 0.316384 0.316384
0.282484 0.282484 0.282484
0.281549 0.281549 0.281549
0.278437 0.278437 0.278437
0.273563 0.273563 0.273563
0.272852 0.272852 0.272852
0.282939 0.282939 0.282939
0.288917 0.288917 0.288917
0.294017 0.294017 0.294017
0.297424 0.297424 0.297424
0.566018 0.566018 0.566018
0.727808 0.727808 0.727808
0.762318 0.762318 0.762318
0.753471 0.753471 0.753471
0.707172 0.707172 0.707172
0.671267 0.671267 0.671267
0.667234 0.667234 0.667234
0.707972 0.707972 0.707972
0.692145 0.692145 0.692145
0.574745 0.574745 0.574745
0.663935 0.663935 0.663935
0.727114 0.727114 0.727114
0.695085 0.695085 0.695085
0.655255 0.655255 0.655255
0.638212 0.638212 0.638212
0.644634 0.644634 0.644634
0.693873 0.693873 0.693873
0.687224 0.687224 0.687224
0.475285 0.475285 0.475285
0.475342 0.475342 0.475342
0.484678 0.484678 0.484678
0.498866 0.498866 0.498866
0.522175 0.522175 0.522175
0.541930 0.541930 0.541930
0.569532 0.569532 0.569532
0.627913 0.627913 0.627913
0.671593 0.671593 0.671593
0.431120 0.431120 0.431120
0.421667 0.421667 0.421667
0.394206 0.394206 0.394206
0.372918 0.372918 0.372918
0.413630 0.413630 0.413630
0.450349 0.450349 0.450349
0.484363 0.484363 0.484363
0.541404 0.541404 0.541404
0.646379 0.646379 0.646379
0.433158 0.433158 0.433158
0.427066 0.427066 0.427066
0.410860 0.410860 0.410860
0.389776 0.389776 0.389776
0.379197 0.379197 0.379197
0.400583 0.400583 0.400583
0.429018 0.429018 0.429018
0.466941 0.466941 0.466941
0.593589 0.593589 0.593589
0.427153 0.427153 0.427153
0.423765 0.423765 0.423765
0.415077 0.415077 0.415077
0.402754 0.402754 0.402754
0.392742 0.392742 0.392742
0.390348 0.390348 0.390348
0.402733 0.402733 0.402733
0.426386 0.426386 0.426386
0.515892 0.515892 0.515892
0.415813 0.415813 0.415813
0.413992 0.413992 0.413992
0.409692 0.409692 0.409692
0.403349 0.403349 0.403349
0.397654 0.397654 0.397654
0.395089 0.395089 0.395089
0.397085 0.397085 0.397085
0.406974 0.406974 0.406974
0.454917 0.454917 0.454917
0.399888 0.399888 0.399888
0.398802 0.398802 0.398802
0.397398 0.397398 0.397398
0.394803 0.394803 0.394803
0.392899 0.392899 0.392899
0.392330 0.392330 0.392330
0.393982 0.393982 0.393982
0.398619 0.398619 0.398619
0.420905 0.420905 0.420905
0.401591 0.401591 0.401591
0.400342 0.400342 0.400342
0.396174 0.396174 0.396174
0.357800 0.357800 0.357800
0.377280 0.377280 0.377280
0.378397 0.378397 0.378397
0.380362 0.380362 0.380362
0.382491 0.382491 0.382491
0.391449 0.391449 0.391449
0.762573 0.762573 0.762573
0.839038 0.839038 0.839038
0.900857 0.900857 0.900857
0.901260 0.901260 0.901260
0.893799 0.893799 0.893799
0.843846 0.843846 0.843846
0.815330 0.815330 0.815330
0.812850 0.812850 0.812850
0.820778 0.820778 0.820778
0.770053 0.770053 0.770053
0.827069 0.827069 0.827069
0.891438 0.891438 0.891438
0.894253 0.894253 0.894253
0.859233 0.859233 0.859233
0.818421 0.818421 0.818421
0.798710 0.798710 0.798710
0.801800 0.801800 0.801800
0.811722 0.811722 0.811722
0.742397 0.742397 0.742397
0.753766 0.753766 0.753766
0.777140 0.777140 0.777140
0.760407 0.760407 0.760407
0.741967 0.741967 0.741967
0.735643 0.735643 0.735643
0.739382 0.739382 0.739382
0.757942 0.757942 0.757942
0.782895 0.782895 0.782895
0.590745 0.590745 0.590745
0.587008 0.587008 0.587008
0.580731 0.580731 0.580731
0.579426 0.579426 0.579426
0.595953 0.595953 0.595953
0.623781 0.623781 0.623781
0.652561 0.652561 0.652561
0.690887 0.690887 0.690887
0.753854 0.753854 0.753854
0.558166 0.558166 0.558166
0.552834 0.552834 0.552834
0.537517 0.537517 0.537517
0.515220 0.515220 0.515220
0.499564 0.499564 0.499564
0.534315 0.534315 0.534315
0.571400 0.571400 0.571400
0.616307 0.616307 0.616307
0.698405 0.698405 0.698405
0.547094 0.547094 0.547094
0.543496 0.543496 0.543496
0.533791 0.533791 0.533791
0.519609 0.519609 0.519609
0.506504 0.506504 0.506504
0.501990 0.501990 0.501990
0.521946 0.521946 0.521946
0.555470 0.555470 0.555470
0.642575 0.642575 0.642575
0.530652 0.530652 0.530652
0.528580 0.528580 0.528580
0.523202 0.523202 0.523202
0.515524 0.515524 0.515524
0.507979 0.507979 0.507979
0.503288 0.503288 0.503288
0.504645 0.504645 0.504645
0.518806 0.518806 0.518806
0.588211 0.588211 0.588211
0.507618 0.507618 0.507618
0.506400 0.506400 0.506400
0.504164 0.504164 0.504164
0.500496 0.500496 0.500496
0.497059 0.497059 0.497059
0.494926 0.494926 0.494926
0.495215 0.495215 0.495215
0.499583 0.499583 0.499583
0.538966 0.538966 0.538966
0.520175 0.520175 0.520175
0.518806 0.518806 0.518806
0.514223 0.514223 0.514223
0.474712 0.474712 0.474712
0.474995 0.474995 0.474995
0.474947 0.474947 0.474947
0.475196 0.475196 0.475196
0.476036 0.476036 0.476036
0.501535 0.501535 0.501535
0.911045 0.911045 0.911045
0.938014 0.938014 0.938014
0.962364 0.962364 0.962364
0.963160 0.963160 0.963160
0.963614 0.963614 0.963614
0.943440 0.943440 0.943440
0.917299 0.917299 0.917299
0.900185 0.900185 0.900185
0.885215 0.885215 0.885215
0.913779 0.913779 0.913779
0.936509 0.936509 0.936509
0.960450 0.960450 0.960450
0.961986 0.961986 0.961986
0.961078 0.961078 0.961078
0.932595 0.932595 0.932595
0.907441 0.907441 0.907441
0.893423 0.893423 0.893423
0.880259 0.880259 0.880259
0.914741 0.914741 0.914741
0.926582 0.926582 0.926582
0.948860 0.948860 0.948860
0.933150 0.933150 0.933150
0.908370 0.908370 0.908370
0.887879 0.887879 0.887879
0.870547 0.870547 0.870547
0.862524 0.862524 0.862524
0.860299 0.860299 0.860299
0.794341 0.794341 0.794341
0.796040 0.796040 0.796040
0.805404 0.805404 0.805404
0.802818 0.802818 0.802818
0.796637 0.796637 0.796637
0.795324 0.795324 0.795324
0.799634 0.799634 0.799634
0.810171 0.810171 0.810171
0.828069 0.828069 0.828069
0.704534 0.704534 0.704534
0.701542 0.701542 0.701542
0.695812 0.695812 0.695812
0.685276 0.685276 0.685276
0.681587 0.681587 0.681587
0.696508 0.696508 0.696508
0.721232 0.721232 0.721232
0.749867 0.749867 0.749867
0.789329 0.789329 0.789329
0.671599 0.671599 0.671599
0.668707 0.668707 0.668707
0.660839 0.660839 0.660839
0.647972 0.647972 0.647972
0.632569 0.632569 0.632569
0.620952 0.620952 0.620952
0.653242 0.653242 0.653242
0.689997 0.689997 0.689997
0.746464 0.746464 0.746464
0.648077 0.648077 0.648077
0.646143 0.646143 0.646143
0.641153 0.641153 0.641153
0.633486 0.633486 0.633486
0.625195 0.625195 0.625195
0.618842 0.618842 0.618842
0.619994 0.619994 0.619994
0.642420 0.642420 0.642420
0.707373 0.707373 0.707373
0.617915 0.617915 0.617915
0.616767 0.616767 0.616767
0.614719 0.614719 0.614719
0.611048 0.611048 0.611048
0.607409 0.607409 0.607409
0.604871 0.604871 0.604871
0.604994 0.604994 0.604994
0.610740 0.610740 0.610740
0.665731 0.665731 0.665731
0.563154 0.563154 0.563154
0.564389 0.564389 0.564389
0.569569 0.569569 0.569569
0.573867 0.573867 0.573867
0.574723 0.574723 0.574723
0.574756 0.574756 0.574756
0.574927 0.574927 0.574927
0.575287 0.575287 0.575287
0.627118 0.627118 0.627118
0.974745 0.974745 0.974745
0.980442 0.980442 0.980442
0.982601 0.982601 0.982601
0.982872 0.982872 0.982872
0.983018 0.983018 0.983018
0.980706 0.980706 0.980706
0.966603 0.966603 0.966603
0.951228 0.951228 0.951228
0.935921 0.935921 0.935921
0.975243 0.975243 0.975243
0.980276 0.980276 0.980276
0.982403 0.982403 0.982403
0.982727 0.982727 0.982727
0.982898 0.982898 0.982898
0.977320 0.977320 0.977320
0.962911 0.962911 0.962911
0.946859 0.946859 0.946859
0.931923 0.931923 0.931923
0.975951 0.975951 0.975951
0.979295 0.979295 0.979295
0.981509 0.981509 0.981509
0.982041 0.982041 0.982041
0.972920 0.972920 0.972920
0.960135 0.960135 0.960135
0.943722 0.943722 0.943722
0.930946 0.930946 0.930946
0.917805 0.917805 0.917805
0.945457 0.945457 0.945457
0.946284 0.946284 0.946284
0.946725 0.946725 0.946725
0.939765 0.939765 0.939765
0.928019 0.928019 0.928019
0.916196 0.916196 0.916196
0.906419 0.906419 0.906419
0.900552 0.900552 0.900552
0.899697 0.899697 0.899697
0.862290 0.862290 0.862290
0.862332 0.862332 0.862332
0.863518 0.863518 0.863518
0.858107 0.858107 0.858107
0.850376 0.850376 0.850376
0.847036 0.847036 0.847036
0.849230 0.849230 0.849230
0.855888 0.855888 0.855888
0.867825 0.867825 0.867825
0.802662 0.802662 0.802662
0.801392 0.801392 0.801392
0.798714 0.798714 0.798714
0.792341 0.792341 0.792341
0.783171 0.783171 0.783171
0.779709 0.779709 0.779709
0.789666 0.789666 0.789666
0.806924 0.806924 0.806924
0.830996 0.830996 0.830996
0.768217 0.768217 0.768217
0.766954 0.766954 0.766954
0.764072 0.764072 0.764072
0.759174 0.759174 0.759174
0.752379 0.752379 0.752379
0.744282 0.744282 0.744282
0.737280 0.737280 0.737280
0.765274 0.765274 0.765274
0.802139 0.802139 0.802139
0.731593 0.731593 0.731593
0.730738 0.730738 0.730738
0.729596 0.729596 0.729596
0.727402 0.727402 0.727402
0.725200 0.725200 0.725200
0.723329 0.723329 0.723329
0.723458 0.723458 0.723458
0.729997 0.729997 0.729997
0.778712 0.778712 0.778712
0.635306 0.635306 0.635306
0.633958 0.633958 0.633958
0.629957 0.629957 0.629957
0.679752 0.679752 0.679752
0.681367 0.681367 0.681367
0.682271 0.682271 0.682271
0.682855 0.682855 0.682855
0.683126 0.683126 0.683126
0.753580 0.753580 0.753580
0.988872 0.988872 0.988872
0.989045 0.989045 0.989045
0.989268 0.989268 0.989268
0.989311 0.989311 0.989311
0.989350 0.989350 0.989350
0.988999 0.988999 0.988999
0.983567 0.983567 0.983567
0.977820 0.977820 0.977820
0.964903 0.964903 0.964903
0.988855 0.988855 0.988855
0.989018 0.989018 0.989018
0.989247 0.989247 0.989247
0.989295 0.989295 0.989295
0.989336 0.989336 0.989336
0.987788 0.987788 0.987788
0.982480 0.982480 0.982480
0.975397 0.975397 0.975397
0.963219 0.963219 0.963219
0.988797 0.988797 0.988797
0.988910 0.988910 0.988910
0.989127 0.989127 0.989127
0.989205 0.989205 0.989205
0.987548 0.987548 0.987548
0.982939 0.982939 0.982939
0.977085 0.977085 0.977085
0.967270 0.967270 0.967270
0.955134 0.955134 0.955134
0.985060 0.985060 0.985060
0.984789 0.984789 0.984789
0.983677 0.983677 0.983677
0.981450 0.981450 0.981450
0.976545 0.976545 0.976545
0.968300 0.968300 0.968300
0.960851 0.960851 0.960851
0.950858 0.950858 0.950858
0.942185 0.942185 0.942185
0.959984 0.959984 0.959984
0.959462 0.959462 0.959462
0.957011 0.957011 0.957011
0.951008 0.951008 0.951008
0.943704 0.943704 0.943704
0.937031 0.937031 0.937031
0.930570 0.930570 0.930570
0.925709 0.925709 0.925709
0.921481 0.921481 0.921481
0.918617 0.918617 0.918617
0.918306 0.918306 0.918306
0.916806 0.916806 0.916806
0.910849 0.910849 0.910849
0.903112 0.903112 0.903112
0.897445 0.897445 0.897445
0.895518 0.895518 0.895518
0.896738 0.896738 0.896738
0.898919 0.898919 0.898919
0.885617 0.885617 0.885617
0.885513 0.885513 0.885513
0.885638 0.885638 0.885638
0.883370 0.883370 0.883370
0.875150 0.875150 0.875150
0.865552 0.865552 0.865552
0.861699 0.861699 0.861699
0.868686 0.868686 0.868686
0.880287 0.880287 0.880287
0.843631 0.843631 0.843631
0.843342 0.843342 0.843342
0.844073 0.844073 0.844073
0.844736 0.844736 0.844736
0.845030 0.845030 0.845030
0.843421 0.843421 0.843421
0.840874 0.840874 0.840874
0.837347 0.837347 0.837347
0.862892 0.862892 0.862892
0.757759 0.757759 0.757759
0.758738 0.758738 0.758738
0.769890 0.769890 0.769890
0.788814 0.788814 0.788814
0.791289 0.791289 0.791289
0.793819 0.793819 0.793819
0.795751 0.795751 0.795751
0.796091 0.796091 0.796091
0.849497 0.849497 0.849497
0.991879 0.991879 0.991879
0.991881 0.991881 0.991881
0.991888 0.991888 0.991888
0.991903 0.991903 0.991903
0.991925 0.991925 0.991925
0.991952 0.991952 0.991952
0.989369 0.989369 0.989369
0.985107 0.985107 0.985107
0.979032 0.979032 0.979032
0.991881 0.991881 0.991881
0.991883 0.991883 0.991883
0.991890 0.991890 0.991890
0.991905 0.991905 0.991905
0.991928 0.991928 0.991928
0.991400 0.991400 0.991400
0.988923 0.988923 0.988923
0.984376 0.984376 0.984376
0.979110 0.979110 0.979110
0.991879 0.991879 0.991879
0.991881 0.991881 0.991881
0.991889 0.991889 0.991889
0.991907 0.991907 0.991907
0.991615 0.991615 0.991615
0.989461 0.989461 0.989461
0.985878 0.985878 0.985878
0.981950 0.981950 0.981950
0.973555 0.973555 0.973555
0.991430 0.991430 0.991430
0.991223 0.991223 0.991223
0.990526 0.990526 0.990526
0.989414 0.989414 0.989414
0.987197 0.987197 0.987197
0.984022 0.984022 0.984022
0.980981 0.980981 0.980981
0.974934 0.974934 0.974934
0.966873 0.966873 0.966873
0.983855 0.983855 0.983855
0.983569 0.983569 0.983569
0.982615 0.982615 0.982615
0.981096 0.981096 0.981096
0.978222 0.978222 0.978222
0.972469 0.972469 0.972469
0.967012 0.967012 0.967012
0.962031 0.962031 0.962031
0.955022 0.955022 0.955022
0.969479 0.969479 0.969479
0.968804 0.968804 0.968804
0.966570 0.966570 0.966570
0.963097 0.963097 0.963097
0.957789 0.957789 0.957789
0.951703 0.951703 0.951703
0.946699 0.946699 0.946699
0.942654 0.942654 0.942654
0.939228 0.939228 0.939228
0.953883 0.953883 0.953883
0.952925 0.952925 0.952925
0.949679 0.949679 0.949679
0.944476 0.944476 0.944476
0.938474 0.938474 0.938474
0.932359 0.932359 0.932359
0.927713 0.927713 0.927713
0.925405 0.925405 0.925405
0.924407 0.924407 0.924407
0.940805 0.940805 0.940805
0.940514 0.940514 0.940514
0.938789 0.938789 0.938789
0.934915 0.934915 0.934915
0.928545 0.928545 0.928545
0.922048 0.922048 0.922048
0.916904 0.916904 0.916904
0.914406 0.914406 0.914406
0.914910 0.914910 0.914910
0.851120 0.851120 0.851120
0.885766 0.885766 0.885766
0.883243 0.883243 0.883243
0.876952 0.876952 0.876952
0.911997 0.911997 0.911997
0.917634 0.917634 0.917634
0.914827 0.914827 0.914827
0.912773 0.912773 0.912773
0.912373 0.912373 0.912373
