LUTs/trix_modern/TriX_Orange21_Normal.cube
TITLE "Tri-X Orange21 Normal"
# Adobe RGB in/out. REPLACES AgX. Tri-X Orange21 Normal.
LUT_3D_SIZE 9
DOMAIN_MIN 0.0 0.0 0.0
DOMAIN_MAX 1.0 1.0 1.0
0.093230 0.093230 0.093230
0.095557 0.095557 0.095557
0.212859 0.212859 0.212859
0.400574 0.400574 0.400574
0.603524 0.603524 0.603524
0.786180 0.786180 0.786180
0.884797 0.884797 0.884797
0.948761 0.948761 0.948761
0.961737 0.961737 0.961737
0.093264 0.093264 0.093264
0.099794 0.099794 0.099794
0.251879 0.251879 0.251879
0.422527 0.422527 0.422527
0.595534 0.595534 0.595534
0.773164 0.773164 0.773164
0.877756 0.877756 0.877756
0.945821 0.945821 0.945821
0.959598 0.959598 0.959598
0.105492 0.105492 0.105492
0.158319 0.158319 0.158319
0.264626 0.264626 0.264626
0.422251 0.422251 0.422251
0.590815 0.590815 0.590815
0.741216 0.741216 0.741216
0.852746 0.852746 0.852746
0.934011 0.934011 0.934011
0.952622 0.952622 0.952622
0.178505 0.178505 0.178505
0.235214 0.235214 0.235214
0.341768 0.341768 0.341768
0.440214 0.440214 0.440214
0.576923 0.576923 0.576923
0.723284 0.723284 0.723284
0.828215 0.828215 0.828215
0.906741 0.906741 0.906741
0.941319 0.941319 0.941319
0.269409 0.269409 0.269409
0.301943 0.301943 0.301943
0.401992 0.401992 0.401992
0.504401 0.504401 0.504401
0.601503 0.601503 0.601503
0.717158 0.717158 0.717158
0.817960 0.817960 0.817960
0.892374 0.892374 0.892374
0.946851 0.946851 0.946851
0.338273 0.338273 0.338273
0.362713 0.362713 0.362713
0.455335 0.455335 0.455335
0.554123 0.554123 0.554123
0.650409 0.650409 0.650409
0.740666 0.740666 0.740666
0.818082 0.818082 0.818082
0.885580 0.885580 0.885580
0.938667 0.938667 0.938667
0.411029 0.411029 0.411029
0.429227 0.429227 0.429227
0.502700 0.502700 0.502700
0.595895 0.595895 0.595895
0.687909 0.687909 0.687909
0.770652 0.770652 0.770652
0.833320 0.833320 0.833320
0.887086 0.887086 0.887086
0.931184 0.931184 0.931184
0.499605 0.499605 0.499605
0.506233 0.506233 0.506233
0.561638 0.561638 0.561638
0.639450 0.639450 0.639450
0.718593 0.718593 0.718593
0.789973 0.789973 0.789973
0.846242 0.846242 0.846242
0.898067 0.898067 0.898067
0.929592 0.929592 0.929592
0.482045 0.482045 0.482045
0.480284 0.480284 0.480284
0.654005 0.654005 0.654005
0.641826 0.641826 0.641826
0.749806 0.749806 0.749806
0.804503 0.804503 0.804503
0.854118 0.854118 0.854118
0.904084 0.904084 0.904084
0.934022 0.934022 0.934022
0.093230 0.093230 0.093230
0.094549 0.094549 0.094549
0.158847 0.158847 0.158847
0.354530 0.354530 0.354530
0.581234 0.581234 0.581234
0.778312 0.778312 0.778312
0.880600 0.880600 0.880600
0.947186 0.947186 0.947186
0.960629 0.960629 0.960629
0.093415 0.093415 0.093415
0.097009 0.097009 0.097009
0.190777 0.190777 0.190777
0.366146 0.366146 0.366146
0.568820 0.568820 0.568820
0.762143 0.762143 0.762143
0.872058 0.872058 0.872058
0.944254 0.944254 0.944254
0.958498 0.958498 0.958498
0.116962 0.116962 0.116962
0.150735 0.150735 0.150735
0.232202 0.232202 0.232202
0.387299 0.387299 0.387299
0.556954 0.556954 0.556954
0.726746 0.726746 0.726746
0.847284 0.847284 0.847284
0.931970 0.931970 0.931970
0.951556 0.951556 0.951556
0.200859 0.200859 0.200859
0.242632 0.242632 0.242632
0.327916 0.327916 0.327916
0.420153 0.420153 0.420153
0.556547 0.556547 0.556547
0.706776 0.706776 0.706776
0.822397 0.822397 0.822397
0.903968 0.903968 0.903968
0.939673 0.939673 0.939673
0.281689 0.281689 0.281689
0.309794 0.309794 0.309794
0.397236 0.397236 0.397236
0.492605 0.492605 0.492605
0.588575 0.588575 0.588575
0.705859 0.705859 0.705859
0.811762 0.811762 0.811762
0.889986 0.889986 0.889986
0.945940 0.945940 0.945940
0.345475 0.345475 0.345475
0.368485 0.368485 0.368485
0.454256 0.454256 0.454256
0.548324 0.548324 0.548324
0.642610 0.642610 0.642610
0.733670 0.733670 0.733670
0.813544 0.813544 0.813544
0.883520 0.883520 0.883520
0.937519 0.937519 0.937519
0.415145 0.415145 0.415145
0.432574 0.432574 0.432574
0.503051 0.503051 0.503051
0.593341 0.593341 0.593341
0.684344 0.684344 0.684344
0.767087 0.767087 0.767087
0.830718 0.830718 0.830718
0.885411 0.885411 0.885411
0.930461 0.930461 0.930461
0.498161 0.498161 0.498161
0.505736 0.505736 0.505736
0.561599 0.561599 0.561599
0.638274 0.638274 0.638274
0.716905 0.716905 0.716905
0.788753 0.788753 0.788753
0.845252 0.845252 0.845252
0.897152 0.897152 0.897152
0.929246 0.929246 0.929246
0.481132 0.481132 0.481132
0.479395 0.479395 0.479395
0.652871 0.652871 0.652871
0.640790 0.640790 0.640790
0.749212 0.749212 0.749212
0.804138 0.804138 0.804138
0.853994 0.853994 0.853994
0.904063 0.904063 0.904063
0.933948 0.933948 0.933948
0.093234 0.093234 0.093234
0.104482 0.104482 0.104482
0.193290 0.193290 0.193290
0.368510 0.368510 0.368510
0.572230 0.572230 0.572230
0.767358 0.767358 0.767358
0.872558 0.872558 0.872558
0.945201 0.945201 0.945201
0.958332 0.958332 0.958332
0.094808 0.094808 0.094808
0.128530 0.128530 0.128530
0.226749 0.226749 0.226749
0.363135 0.363135 0.363135
0.554219 0.554219 0.554219
0.749181 0.749181 0.749181
0.863305 0.863305 0.863305
0.941829 0.941829 0.941829
0.956186 0.956186 0.956186
0.114265 0.114265 0.114265
0.136440 0.136440 0.136440
0.204394 0.204394 0.204394
0.350546 0.350546 0.350546
0.522615 0.522615 0.522615
0.705995 0.705995 0.705995
0.837639 0.837639 0.837639
0.930893 0.930893 0.930893
0.949209 0.949209 0.949209
0.209280 0.209280 0.209280
0.239139 0.239139 0.239139
0.305103 0.305103 0.305103
0.380214 0.380214 0.380214
0.518702 0.518702 0.518702
0.675838 0.675838 0.675838
0.809819 0.809819 0.809819
0.897600 0.897600 0.897600
0.935706 0.935706 0.935706
0.300616 0.300616 0.300616
0.321641 0.321641 0.321641
0.388629 0.388629 0.388629
0.470442 0.470442 0.470442
0.560089 0.560089 0.560089
0.679625 0.679625 0.679625
0.796158 0.796158 0.796158
0.883638 0.883638 0.883638
0.943551 0.943551 0.943551
0.371214 0.371214 0.371214
0.389705 0.389705 0.389705
0.456895 0.456895 0.456895
0.538376 0.538376 0.538376
0.626100 0.626100 0.626100
0.716127 0.716127 0.716127
0.800934 0.800934 0.800934
0.876394 0.876394 0.876394
0.934072 0.934072 0.934072
0.436725 0.436725 0.436725
0.451489 0.451489 0.451489
0.510655 0.510655 0.510655
0.590425 0.590425 0.590425
0.676914 0.676914 0.676914
0.758354 0.758354 0.758354
0.823221 0.823221 0.823221
0.879774 0.879774 0.879774
0.928331 0.928331 0.928331
0.504893 0.504893 0.504893
0.515644 0.515644 0.515644
0.568074 0.568074 0.568074
0.638623 0.638623 0.638623
0.713966 0.713966 0.713966
0.786094 0.786094 0.786094
0.842738 0.842738 0.842738
0.893870 0.893870 0.893870
0.928099 0.928099 0.928099
0.478219 0.478219 0.478219
0.656778 0.656778 0.656778
0.649274 0.649274 0.649274
0.637562 0.637562 0.637562
0.748850 0.748850 0.748850
0.803530 0.803530 0.803530
0.854103 0.854103 0.854103
0.904079 0.904079 0.904079
0.933594 0.933594 0.933594
0.093283 0.093283 0.093283
0.107623 0.107623 0.107623
0.251602 0.251602 0.251602
0.407881 0.407881 0.407881
0.598517 0.598517 0.598517
0.773582 0.773582 0.773582
0.871800 0.871800 0.871800
0.935033 0.935033 0.935033
0.956802 0.956802 0.956802
0.096102 0.096102 0.096102
0.133677 0.133677 0.133677
0.296329 0.296329 0.296329
0.417258 0.417258 0.417258
0.578358 0.578358 0.578358
0.755104 0.755104 0.755104
0.862081 0.862081 0.862081
0.929353 0.929353 0.929353
0.954600 0.954600 0.954600
0.129096 0.129096 0.129096
0.163986 0.163986 0.163986
0.275619 0.275619 0.275619
0.382636 0.382636 0.382636
0.533005 0.533005 0.533005
0.706661 0.706661 0.706661
0.834521 0.834521 0.834521
0.911637 0.911637 0.911637
0.947435 0.947435 0.947435
0.203355 0.203355 0.203355
0.228931 0.228931 0.228931
0.290490 0.290490 0.290490
0.357462 0.357462 0.357462
0.499376 0.499376 0.499376
0.662447 0.662447 0.662447
0.803204 0.803204 0.803204
0.892881 0.892881 0.892881
0.931969 0.931969 0.931969
0.301124 0.301124 0.301124
0.318669 0.318669 0.318669
0.375455 0.375455 0.375455
0.447447 0.447447 0.447447
0.528551 0.528551 0.528551
0.654214 0.654214 0.654214
0.784601 0.784601 0.784601
0.877343 0.877343 0.877343
0.939369 0.939369 0.939369
0.377660 0.377660 0.377660
0.393692 0.393692 0.393692
0.451632 0.451632 0.451632
0.525179 0.525179 0.525179
0.606328 0.606328 0.606328
0.694654 0.694654 0.694654
0.787824 0.787824 0.787824
0.868109 0.868109 0.868109
0.929747 0.929747 0.929747
0.447252 0.447252 0.447252
0.460405 0.460405 0.460405
0.512316 0.512316 0.512316
0.584754 0.584754 0.584754
0.667582 0.667582 0.667582
0.746451 0.746451 0.746451
0.813207 0.813207 0.813207
0.872339 0.872339 0.872339
0.925305 0.925305 0.925305
0.513357 0.513357 0.513357
0.523737 0.523737 0.523737
0.571289 0.571289 0.571289
0.636890 0.636890 0.636890
0.709790 0.709790 0.709790
0.782563 0.782563 0.782563
0.838607 0.838607 0.838607
0.889577 0.889577 0.889577
0.926422 0.926422 0.926422
0.554845 0.554845 0.554845
0.650938 0.650938 0.650938
0.643823 0.643823 0.643823
0.691225 0.691225 0.691225
0.749347 0.749347 0.749347
0.802899 0.802899 0.802899
0.854379 0.854379 0.854379
0.903579 0.903579 0.903579
0.933202 0.933202 0.933202
0.093878 0.093878 0.093878
0.104306 0.104306 0.104306
0.291283 0.291283 0.291283
0.440887 0.440887 0.440887
0.641854 0.641854 0.641854
0.790289 0.790289 0.790289
0.879582 0.879582 0.879582
0.932716 0.932716 0.932716
0.956806 0.956806 0.956806
0.098383 0.098383 0.098383
0.126056 0.126056 0.126056
0.317372 0.317372 0.317372
0.467201 0.467201 0.467201
0.622178 0.622178 0.622178
0.776577 0.776577 0.776577
0.869710 0.869710 0.869710
0.927576 0.927576 0.927576
0.954537 0.954537 0.954537
0.167492 0.167492 0.167492
0.214081 0.214081 0.214081
0.340141 0.340141 0.340141
0.452762 0.452762 0.452762
0.573362 0.573362 0.573362
0.727224 0.727224 0.727224
0.840895 0.840895 0.840895
0.912319 0.912319 0.912319
0.947125 0.947125 0.947125
0.215859 0.215859 0.215859
0.242694 0.242694 0.242694
0.316404 0.316404 0.316404
0.411149 0.411149 0.411149
0.526392 0.526392 0.526392
0.674345 0.674345 0.674345
0.805796 0.805796 0.805796
0.892391 0.892391 0.892391
0.945840 0.945840 0.945840
0.296420 0.296420 0.296420
0.312879 0.312879 0.312879
0.365951 0.365951 0.365951
0.434518 0.434518 0.434518
0.508013 0.508013 0.508013
0.643032 0.643032 0.643032
0.780440 0.780440 0.780440
0.873478 0.873478 0.873478
0.936649 0.936649 0.936649
0.375649 0.375649 0.375649
0.390292 0.390292 0.390292
0.443544 0.443544 0.443544
0.512197 0.512197 0.512197
0.587550 0.587550 0.587550
0.673041 0.673041 0.673041
0.777352 0.777352 0.777352
0.861855 0.861855 0.861855
0.926067 0.926067 0.926067
0.449024 0.449024 0.449024
0.461273 0.461273 0.461273
0.508971 0.508971 0.508971
0.577086 0.577086 0.577086
0.656269 0.656269 0.656269
0.733570 0.733570 0.733570
0.802777 0.802777 0.802777
0.865860 0.865860 0.865860
0.922161 0.922161 0.922161
0.516932 0.516932 0.516932
0.526703 0.526703 0.526703
0.570766 0.570766 0.570766
0.633234 0.633234 0.633234
0.704645 0.704645 0.704645
0.778235 0.778235 0.778235
0.833571 0.833571 0.833571
0.885255 0.885255 0.885255
0.924844 0.924844 0.924844
0.573557 0.573557 0.573557
0.586242 0.586242 0.586242
0.613049 0.613049 0.613049
0.686846 0.686846 0.686846
0.747643 0.747643 0.747643
0.801843 0.801843 0.801843
0.853834 0.853834 0.853834
0.902580 0.902580 0.902580
0.932939 0.932939 0.932939
0.096348 0.096348 0.096348
0.106104 0.106104 0.106104
0.315424 0.315424 0.315424
0.466513 0.466513 0.466513
0.667970 0.667970 0.667970
0.810439 0.810439 0.810439
0.889570 0.889570 0.889570
0.937775 0.937775 0.937775
0.958292 0.958292 0.958292
0.101839 0.101839 0.101839
0.122118 0.122118 0.122118
0.332735 0.332735 0.332735
0.486337 0.486337 0.486337
0.673367 0.673367 0.673367
0.798137 0.798137 0.798137
0.882491 0.882491 0.882491
0.932863 0.932863 0.932863
0.955978 0.955978 0.955978
0.189644 0.189644 0.189644
0.233014 0.233014 0.233014
0.396309 0.396309 0.396309
0.515470 0.515470 0.515470
0.627539 0.627539 0.627539
0.758901 0.758901 0.758901
0.854858 0.854858 0.854858
0.917724 0.917724 0.917724
0.948378 0.948378 0.948378
0.247662 0.247662 0.247662
0.274482 0.274482 0.274482
0.361220 0.361220 0.361220
0.469837 0.469837 0.469837
0.577629 0.577629 0.577629
0.703249 0.703249 0.703249
0.817832 0.817832 0.817832
0.896727 0.896727 0.896727
0.947593 0.947593 0.947593
0.301234 0.301234 0.301234
0.316612 0.316612 0.316612
0.377130 0.377130 0.377130
0.457285 0.457285 0.457285
0.548936 0.548936 0.548936
0.664714 0.664714 0.664714
0.787167 0.787167 0.787167
0.876202 0.876202 0.876202
0.936508 0.936508 0.936508
0.370495 0.370495 0.370495
0.384832 0.384832 0.384832
0.436830 0.436830 0.436830
0.504495 0.504495 0.504495
0.577414 0.577414 0.577414
0.654911 0.654911 0.654911
0.772090 0.772090 0.772090
0.859924 0.859924 0.859924
0.924456 0.924456 0.924456
0.445403 0.445403 0.445403
0.457138 0.457138 0.457138
0.502734 0.502734 0.502734
0.568845 0.568845 0.568845
0.645759 0.645759 0.645759
0.721296 0.721296 0.721296
0.792739 0.792739 0.792739
0.860844 0.860844 0.860844
0.919742 0.919742 0.919742
0.515156 0.515156 0.515156
0.524738 0.524738 0.524738
0.567143 0.567143 0.567143
0.628001 0.628001 0.628001
0.698935 0.698935 0.698935
0.772079 0.772079 0.772079
0.828222 0.828222 0.828222
0.881291 0.881291 0.881291
0.923209 0.923209 0.923209
0.575832 0.575832 0.575832
0.586594 0.586594 0.586594
0.608274 0.608274 0.608274
0.685094 0.685094 0.685094
0.745258 0.745258 0.745258
0.800276 0.800276 0.800276
0.852718 0.852718 0.852718
0.901605 0.901605 0.901605
0.932437 0.932437 0.932437
0.102288 0.102288 0.102288
0.115178 0.115178 0.115178
0.314949 0.314949 0.314949
0.484450 0.484450 0.484450
0.678554 0.678554 0.678554
0.832307 0.832307 0.832307
0.901821 0.901821 0.901821
0.944567 0.944567 0.944567
0.960751 0.960751 0.960751
0.110237 0.110237 0.110237
0.130608 0.130608 0.130608
0.329896 0.329896 0.329896
0.500353 0.500353 0.500353
0.687795 0.687795 0.687795
0.820794 0.820794 0.820794
0.895004 0.895004 0.895004
0.940801 0.940801 0.940801
0.958430 0.958430 0.958430
0.198508 0.198508 0.198508
0.233446 0.233446 0.233446
0.390747 0.390747 0.390747
0.559084 0.559084 0.559084
0.673055 0.673055 0.673055
0.788617 0.788617 0.788617
0.872497 0.872497 0.872497
0.926240 0.926240 0.926240
0.950742 0.950742 0.950742
0.282228 0.282228 0.282228
0.302793 0.302793 0.302793
0.398488 0.398488 0.398488
0.517726 0.517726 0.517726
0.625064 0.625064 0.625064
0.739284 0.739284 0.739284
0.835234 0.835234 0.835234
0.904767 0.904767 0.904767
0.950023 0.950023 0.950023
0.316066 0.316066 0.316066
0.331603 0.331603 0.331603
0.399421 0.399421 0.399421
0.493929 0.493929 0.493929
0.593445 0.593445 0.593445
0.698655 0.698655 0.698655
0.802253 0.802253 0.802253
0.883604 0.883604 0.883604
0.939285 0.939285 0.939285
0.371391 0.371391 0.371391
0.384912 0.384912 0.384912
0.437728 0.437728 0.437728
0.512181 0.512181 0.512181
0.594568 0.594568 0.594568
0.684570 0.684570 0.684570
0.783352 0.783352 0.783352
0.864725 0.864725 0.864725
0.925809 0.925809 0.925809
0.439010 0.439010 0.439010
0.450736 0.450736 0.450736
0.496046 0.496046 0.496046
0.562577 0.562577 0.562577
0.639888 0.639888 0.639888
0.714541 0.714541 0.714541
0.782937 0.782937 0.782937
0.859154 0.859154 0.859154
0.919217 0.919217 0.919217
0.508825 0.508825 0.508825
0.518566 0.518566 0.518566
0.560753 0.560753 0.560753
0.621436 0.621436 0.621436
0.693222 0.693222 0.693222
0.766356 0.766356 0.766356
0.823190 0.823190 0.823190
0.876927 0.876927 0.876927
0.921980 0.921980 0.921980
0.567269 0.567269 0.567269
0.589525 0.589525 0.589525
0.614170 0.614170 0.614170
0.681927 0.681927 0.681927
0.742058 0.742058 0.742058
0.798128 0.798128 0.798128
0.850938 0.850938 0.850938
0.900763 0.900763 0.900763
0.932087 0.932087 0.932087
0.117629 0.117629 0.117629
0.134849 0.134849 0.134849
0.325164 0.325164 0.325164
0.490109 0.490109 0.490109
0.685936 0.685936 0.685936
0.853217 0.853217 0.853217
0.914567 0.914567 0.914567
0.950432 0.950432 0.950432
0.964569 0.964569 0.964569
0.130218 0.130218 0.130218
0.150468 0.150468 0.150468
0.339561 0.339561 0.339561
0.503621 0.503621 0.503621
0.693669 0.693669 0.693669
0.842356 0.842356 0.842356
0.908108 0.908108 0.908108
0.947811 0.947811 0.947811
0.962616 0.962616 0.962616
0.224244 0.224244 0.224244
0.252805 0.252805 0.252805
0.407031 0.407031 0.407031
0.561201 0.561201 0.561201
0.703221 0.703221 0.703221
0.812026 0.812026 0.812026
0.888578 0.888578 0.888578
0.937116 0.937116 0.937116
0.958678 0.958678 0.958678
0.312110 0.312110 0.312110
0.330775 0.330775 0.330775
0.439792 0.439792 0.439792
0.551496 0.551496 0.551496
0.660223 0.660223 0.660223
0.771980 0.771980 0.771980
0.855067 0.855067 0.855067
0.915590 0.915590 0.915590
0.953823 0.953823 0.953823
0.337186 0.337186 0.337186
0.352991 0.352991 0.352991
0.431787 0.431787 0.431787
0.527665 0.527665 0.527665
0.627845 0.627845 0.627845
0.729239 0.729239 0.729239
0.820962 0.820962 0.820962
0.893568 0.893568 0.893568
0.944341 0.944341 0.944341
0.377518 0.377518 0.377518
0.390864 0.390864 0.390864
0.450416 0.450416 0.450416
0.529392 0.529392 0.529392
0.619936 0.619936 0.619936
0.710596 0.710596 0.710596
0.798987 0.798987 0.798987
0.875833 0.875833 0.875833
0.930675 0.930675 0.930675
0.433818 0.433818 0.433818
0.444984 0.444984 0.444984
0.493976 0.493976 0.493976
0.561851 0.561851 0.561851
0.643272 0.643272 0.643272
0.722402 0.722402 0.722402
0.795502 0.795502 0.795502
0.865565 0.865565 0.865565
0.921922 0.921922 0.921922
0.498918 0.498918 0.498918
0.508626 0.508626 0.508626
0.552554 0.552554 0.552554
0.614480 0.614480 0.614480
0.688360 0.688360 0.688360
0.762710 0.762710 0.762710
0.819999 0.819999 0.819999
0.869617 0.869617 0.869617
0.922078 0.922078 0.922078
0.547652 0.547652 0.547652
0.610868 0.610868 0.610868
0.615484 0.615484 0.615484
0.678148 0.678148 0.678148
0.738373 0.738373 0.738373
0.795568 0.795568 0.795568
0.848556 0.848556 0.848556
0.900072 0.900072 0.900072
0.931997 0.931997 0.931997
0.167348 0.167348 0.167348
0.181218 0.181218 0.181218
0.260453 0.260453 0.260453
0.439083 0.439083 0.439083
0.699565 0.699565 0.699565
0.881641 0.881641 0.881641
0.929991 0.929991 0.929991
0.955752 0.955752 0.955752
0.966016 0.966016 0.966016
0.182837 0.182837 0.182837
0.197659 0.197659 0.197659
0.276428 0.276428 0.276428
0.449833 0.449833 0.449833
0.703660 0.703660 0.703660
0.872437 0.872437 0.872437
0.923701 0.923701 0.923701
0.953005 0.953005 0.953005
0.963786 0.963786 0.963786
0.260512 0.260512 0.260512
0.275723 0.275723 0.275723
0.341212 0.341212 0.341212
0.501407 0.501407 0.501407
0.717193 0.717193 0.717193
0.840277 0.840277 0.840277
0.904523 0.904523 0.904523
0.944666 0.944666 0.944666
0.956349 0.956349 0.956349
0.360933 0.360933 0.360933
0.372501 0.372501 0.372501
0.429301 0.429301 0.429301
0.533741 0.533741 0.533741
0.672882 0.672882 0.672882
0.799038 0.799038 0.799038
0.877484 0.877484 0.877484
0.925706 0.925706 0.925706
0.959215 0.959215 0.959215
0.377670 0.377670 0.377670
0.389093 0.389093 0.389093
0.441424 0.441424 0.441424
0.527175 0.527175 0.527175
0.634087 0.634087 0.634087
0.755330 0.755330 0.755330
0.841137 0.841137 0.841137
0.903952 0.903952 0.903952
0.951481 0.951481 0.951481
0.397932 0.397932 0.397932
0.409137 0.409137 0.409137
0.458056 0.458056 0.458056
0.534630 0.534630 0.534630
0.619636 0.619636 0.619636
0.721809 0.721809 0.721809
0.813833 0.813833 0.813833
0.885728 0.885728 0.885728
0.942741 0.942741 0.942741
0.433596 0.433596 0.433596
0.443606 0.443606 0.443606
0.488641 0.488641 0.488641
0.561903 0.561903 0.561903
0.638695 0.638695 0.638695
0.717536 0.717536 0.717536
0.801096 0.801096 0.801096
0.873530 0.873530 0.873530
0.932737 0.932737 0.932737
0.483939 0.483939 0.483939
0.492437 0.492437 0.492437
0.532862 0.532862 0.532862
0.603142 0.603142 0.603142
0.681673 0.681673 0.681673
0.751814 0.751814 0.751814
0.809954 0.809954 0.809954
0.873010 0.873010 0.873010
0.928902 0.928902 0.928902
0.519663 0.519663 0.519663
0.614305 0.614305 0.614305
0.610329 0.610329 0.610329
0.622218 0.622218 0.622218
0.733671 0.733671 0.733671
0.792479 0.792479 0.792479
0.845889 0.845889 0.845889
0.897662 0.897662 0.897662
0.932292 0.932292 0.932292
