LUTs/trix_modern/TriX_Red25_Normal.cube
TITLE "Tri-X Red25 Normal"
# Adobe RGB in/out. REPLACES AgX. Tri-X Red25 Normal.
LUT_3D_SIZE 33
DOMAIN_MIN 0.0 0.0 0.0
DOMAIN_MAX 1.0 1.0 1.0
0.093230 0.093230 0.093230
0.093230 0.093230 0.093230
0.093230 0.093230 0.093230
0.093434 0.093434 0.093434
0.102350 0.102350 0.102350
0.119178 0.119178 0.119178
0.181514 0.181514 0.181514
0.270209 0.270209 0.270209
0.303754 0.303754 0.303754
0.355853 0.355853 0.355853
0.440834 0.440834 0.440834
0.498677 0.498677 0.498677
0.550548 0.550548 0.550548
0.617086 0.617086 0.617086
0.698449 0.698449 0.698449
0.755594 0.755594 0.755594
0.801431 0.801431 0.801431
0.843992 0.843992 0.843992
0.885893 0.885893 0.885893
0.914694 0.914694 0.914694
0.940535 0.940535 0.940535
0.954389 0.954389 0.954389
0.966633 0.966633 0.966633
0.973559 0.973559 0.973559
0.976834 0.976834 0.976834
0.979559 0.979559 0.979559
0.983094 0.983094 0.983094
0.984250 0.984250 0.984250
0.986630 0.986630 0.986630
0.985543 0.985543 0.985543
0.984458 0.984458 0.984458
0.983376 0.983376 0.983376
0.982297 0.982297 0.982297
0.093230 0.093230 0.093230
0.093230 0.093230 0.093230
0.093245 0.093245 0.093245
0.093707 0.093707 0.093707
0.106372 0.106372 0.106372
0.125241 0.125241 0.125241
0.187494 0.187494 0.187494
0.273653 0.273653 0.273653
0.306291 0.306291 0.306291
0.357719 0.357719 0.357719
0.441769 0.441769 0.441769
0.498945 0.498945 0.498945
0.550270 0.550270 0.550270
0.616270 0.616270 0.616270
0.697271 0.697271 0.697271
0.754118 0.754118 0.754118
0.800285 0.800285 0.800285
0.842785 0.842785 0.842785
0.885008 0.885008 0.885008
0.913811 0.913811 0.913811
0.939774 0.939774 0.939774
0.953971 0.953971 0.953971
0.966254 0.966254 0.966254
0.973423 0.973423 0.973423
0.976715 0.976715 0.976715
0.979454 0.979454 0.979454
0.983000 0.983000 0.983000
0.984170 0.984170 0.984170
0.986572 0.986572 0.986572
0.985489 0.985489 0.985489
0.984409 0.984409 0.984409
0.983331 0.983331 0.983331
0.982255 0.982255 0.982255
0.093230 0.093230 0.093230
0.093230 0.093230 0.093230
0.093230 0.093230 0.093230
0.093523 0.093523 0.093523
0.107614 0.107614 0.107614
0.140040 0.140040 0.140040
0.207934 0.207934 0.207934
0.291019 0.291019 0.291019
0.318596 0.318596 0.318596
0.366649 0.366649 0.366649
0.446648 0.446648 0.446648
0.500982 0.500982 0.500982
0.550018 0.550018 0.550018
0.613895 0.613895 0.613895
0.693408 0.693408 0.693408
0.749086 0.749086 0.749086
0.796296 0.796296 0.796296
0.838536 0.838536 0.838536
0.881865 0.881865 0.881865
0.910656 0.910656 0.910656
0.937052 0.937052 0.937052
0.952472 0.952472 0.952472
0.964890 0.964890 0.964890
0.972935 0.972935 0.972935
0.976286 0.976286 0.976286
0.979077 0.979077 0.979077
0.982664 0.982664 0.982664
0.983885 0.983885 0.983885
0.986362 0.986362 0.986362
0.985297 0.985297 0.985297
0.984233 0.984233 0.984233
0.983169 0.983169 0.983169
0.982106 0.982106 0.982106
0.093230 0.093230 0.093230
0.093230 0.093230 0.093230
0.093230 0.093230 0.093230
0.093266 0.093266 0.093266
0.097359 0.097359 0.097359
0.118077 0.118077 0.118077
0.197002 0.197002 0.197002
0.291702 0.291702 0.291702
0.328724 0.328724 0.328724
0.379732 0.379732 0.379732
0.459901 0.459901 0.459901
0.509297 0.509297 0.509297
0.552675 0.552675 0.552675
0.611839 0.611839 0.611839
0.687803 0.687803 0.687803
0.740931 0.740931 0.740931
0.789480 0.789480 0.789480
0.831068 0.831068 0.831068
0.875067 0.875067 0.875067
0.904934 0.904934 0.904934
0.931588 0.931588 0.931588
0.949718 0.949718 0.949718
0.962378 0.962378 0.962378
0.972033 0.972033 0.972033
0.975494 0.975494 0.975494
0.978379 0.978379 0.978379
0.982042 0.982042 0.982042
0.983359 0.983359 0.983359
0.985980 0.985980 0.985980
0.984948 0.984948 0.984948
0.983912 0.983912 0.983912
0.982874 0.982874 0.982874
0.981834 0.981834 0.981834
0.093230 0.093230 0.093230
0.093230 0.093230 0.093230
0.093230 0.093230 0.093230
0.093291 0.093291 0.093291
0.094871 0.094871 0.094871
0.102050 0.102050 0.102050
0.157921 0.157921 0.157921
0.264121 0.264121 0.264121
0.315202 0.315202 0.315202
0.375240 0.375240 0.375240
0.460427 0.460427 0.460427
0.509347 0.509347 0.509347
0.553325 0.553325 0.553325
0.611125 0.611125 0.611125
0.683146 0.683146 0.683146
0.731448 0.731448 0.731448
0.780574 0.780574 0.780574
0.820748 0.820748 0.820748
0.864102 0.864102 0.864102
0.896555 0.896555 0.896555
0.923422 0.923422 0.923422
0.945596 0.945596 0.945596
0.958602 0.958602 0.958602
0.970669 0.970669 0.970669
0.974296 0.974296 0.974296
0.977327 0.977327 0.977327
0.981103 0.981103 0.981103
0.982566 0.982566 0.982566
0.985421 0.985421 0.985421
0.984435 0.984435 0.984435
0.983441 0.983441 0.983441
0.982440 0.982440 0.982440
0.981434 0.981434 0.981434
0.093230 0.093230 0.093230
0.093230 0.093230 0.093230
0.093232 0.093232 0.093232
0.093271 0.093271 0.093271
0.093842 0.093842 0.093842
0.098640 0.098640 0.098640
0.126390 0.126390 0.126390
0.217093 0.217093 0.217093
0.282874 0.282874 0.282874
0.349539 0.349539 0.349539
0.440364 0.440364 0.440364
0.498511 0.498511 0.498511
0.546854 0.546854 0.546854
0.603052 0.603052 0.603052
0.672607 0.672607 0.672607
0.719185 0.719185 0.719185
0.767223 0.767223 0.767223
0.808477 0.808477 0.808477
0.850301 0.850301 0.850301
0.885546 0.885546 0.885546
0.912470 0.912470 0.912470
0.937654 0.937654 0.937654
0.953425 0.953425 0.953425
0.966467 0.966467 0.966467
0.972644 0.972644 0.972644
0.975875 0.975875 0.975875
0.979804 0.979804 0.979804
0.981477 0.981477 0.981477
0.984688 0.984688 0.984688
0.983762 0.983762 0.983762
0.982821 0.982821 0.982821
0.981869 0.981869 0.981869
0.980906 0.980906 0.980906
0.093230 0.093230 0.093230
0.093230 0.093230 0.093230
0.093248 0.093248 0.093248
0.093310 0.093310 0.093310
0.093944 0.093944 0.093944
0.098854 0.098854 0.098854
0.115779 0.115779 0.115779
0.175907 0.175907 0.175907
0.241105 0.241105 0.241105
0.313495 0.313495 0.313495
0.406415 0.406415 0.406415
0.472995 0.472995 0.472995
0.527019 0.527019 0.527019
0.586840 0.586840 0.586840
0.658659 0.658659 0.658659
0.706284 0.706284 0.706284
0.750665 0.750665 0.750665
0.794933 0.794933 0.794933
0.835486 0.835486 0.835486
0.871007 0.871007 0.871007
0.899157 0.899157 0.899157
0.924469 0.924469 0.924469
0.946624 0.946624 0.946624
0.960133 0.960133 0.960133
0.970450 0.970450 0.970450
0.973951 0.973951 0.973951
0.978070 0.978070 0.978070
0.980038 0.980038 0.980038
0.983791 0.983791 0.983791
0.982935 0.982935 0.982935
0.982059 0.982059 0.982059
0.981164 0.981164 0.981164
0.980253 0.980253 0.980253
0.093241 0.093241 0.093241
0.093245 0.093245 0.093245
0.093264 0.093264 0.093264
0.093464 0.093464 0.093464
0.094377 0.094377 0.094377
0.099831 0.099831 0.099831
0.117459 0.117459 0.117459
0.159757 0.159757 0.159757
0.204381 0.204381 0.204381
0.278346 0.278346 0.278346
0.365659 0.365659 0.365659
0.436324 0.436324 0.436324
0.495676 0.495676 0.495676
0.561541 0.561541 0.561541
0.636674 0.636674 0.636674
0.687186 0.687186 0.687186
0.731748 0.731748 0.731748
0.780945 0.780945 0.780945
0.819961 0.819961 0.819961
0.854090 0.854090 0.854090
0.886591 0.886591 0.886591
0.911873 0.911873 0.911873
0.936749 0.936749 0.936749
0.952636 0.952636 0.952636
0.963325 0.963325 0.963325
0.971407 0.971407 0.971407
0.975734 0.975734 0.975734
0.978127 0.978127 0.978127
0.982745 0.982745 0.982745
0.981969 0.981969 0.981969
0.981165 0.981165 0.981165
0.980336 0.980336 0.980336
0.979485 0.979485 0.979485
0.093249 0.093249 0.093249
0.093253 0.093253 0.093253
0.093266 0.093266 0.093266
0.093441 0.093441 0.093441
0.093953 0.093953 0.093953
0.097408 0.097408 0.097408
0.107930 0.107930 0.107930
0.138026 0.138026 0.138026
0.186055 0.186055 0.186055
0.245242 0.245242 0.245242
0.327723 0.327723 0.327723
0.396348 0.396348 0.396348
0.459095 0.459095 0.459095
0.528483 0.528483 0.528483
0.606569 0.606569 0.606569
0.663152 0.663152 0.663152
0.710351 0.710351 0.710351
0.761278 0.761278 0.761278
0.804188 0.804188 0.804188
0.836621 0.836621 0.836621
0.870032 0.870032 0.870032
0.898023 0.898023 0.898023
0.923428 0.923428 0.923428
0.945756 0.945756 0.945756
0.957090 0.957090 0.957090
0.966789 0.966789 0.966789
0.973085 0.973085 0.973085
0.975592 0.975592 0.975592
0.981568 0.981568 0.981568
0.980881 0.980881 0.980881
0.980155 0.980155 0.980155
0.979398 0.979398 0.979398
0.978613 0.978613 0.978613
0.093261 0.093261 0.093261
0.093264 0.093264 0.093264
0.093274 0.093274 0.093274
0.093496 0.093496 0.093496
0.093962 0.093962 0.093962
0.096879 0.096879 0.096879
0.105167 0.105167 0.105167
0.129220 0.129220 0.129220
0.170451 0.170451 0.170451
0.225669 0.225669 0.225669
0.300408 0.300408 0.300408
0.358420 0.358420 0.358420
0.421311 0.421311 0.421311
0.491200 0.491200 0.491200
0.571834 0.571834 0.571834
0.631194 0.631194 0.631194
0.684921 0.684921 0.684921
0.737172 0.737172 0.737172
0.788192 0.788192 0.788192
0.819716 0.819716 0.819716
0.852336 0.852336 0.852336
0.884181 0.884181 0.884181
0.908753 0.908753 0.908753
0.933506 0.933506 0.933506
0.949755 0.949755 0.949755
0.960261 0.960261 0.960261
0.970787 0.970787 0.970787
0.973610 0.973610 0.973610
0.976359 0.976359 0.976359
0.977814 0.977814 0.977814
0.978848 0.978848 0.978848
0.978365 0.978365 0.978365
0.977649 0.977649 0.977649
0.093288 0.093288 0.093288
0.093316 0.093316 0.093316
0.093423 0.093423 0.093423
0.093710 0.093710 0.093710
0.094679 0.094679 0.094679
0.098053 0.098053 0.098053
0.106616 0.106616 0.106616
0.131430 0.131430 0.131430
0.172034 0.172034 0.172034
0.226413 0.226413 0.226413
0.283485 0.283485 0.283485
0.332046 0.332046 0.332046
0.384318 0.384318 0.384318
0.454166 0.454166 0.454166
0.535413 0.535413 0.535413
0.596235 0.596235 0.596235
0.654488 0.654488 0.654488
0.710711 0.710711 0.710711
0.768643 0.768643 0.768643
0.802571 0.802571 0.802571
0.834535 0.834535 0.834535
0.867323 0.867323 0.867323
0.895273 0.895273 0.895273
0.919613 0.919613 0.919613
0.940884 0.940884 0.940884
0.952495 0.952495 0.952495
0.964597 0.964597 0.964597
0.971278 0.971278 0.971278
0.974349 0.974349 0.974349
0.976152 0.976152 0.976152
0.977555 0.977555 0.977555
0.977255 0.977255 0.977255
0.976610 0.976610 0.976610
0.093399 0.093399 0.093399
0.093422 0.093422 0.093422
0.093508 0.093508 0.093508
0.093776 0.093776 0.093776
0.094683 0.094683 0.094683
0.097663 0.097663 0.097663
0.105114 0.105114 0.105114
0.124460 0.124460 0.124460
0.159649 0.159649 0.159649
0.208567 0.208567 0.208567
0.265308 0.265308 0.265308
0.314444 0.314444 0.314444
0.359496 0.359496 0.359496
0.419688 0.419688 0.419688
0.499361 0.499361 0.499361
0.560478 0.560478 0.560478
0.620213 0.620213 0.620213
0.682645 0.682645 0.682645
0.742612 0.742612 0.742612
0.784981 0.784981 0.784981
0.817307 0.817307 0.817307
0.849899 0.849899 0.849899
0.881731 0.881731 0.881731
0.905193 0.905193 0.905193
0.927753 0.927753 0.927753
0.945723 0.945723 0.945723
0.957617 0.957617 0.957617
0.966025 0.966025 0.966025
0.971908 0.971908 0.971908
0.974183 0.974183 0.974183
0.976045 0.976045 0.976045
0.976086 0.976086 0.976086
0.975513 0.975513 0.975513
0.093474 0.093474 0.093474
0.093493 0.093493 0.093493
0.093579 0.093579 0.093579
0.093808 0.093808 0.093808
0.094704 0.094704 0.094704
0.097240 0.097240 0.097240
0.102998 0.102998 0.102998
0.117553 0.117553 0.117553
0.147724 0.147724 0.147724
0.189899 0.189899 0.189899
0.241265 0.241265 0.241265
0.291949 0.291949 0.291949
0.340702 0.340702 0.340702
0.396466 0.396466 0.396466
0.465305 0.465305 0.465305
0.526790 0.526790 0.526790
0.586000 0.586000 0.586000
0.651588 0.651588 0.651588
0.715175 0.715175 0.715175
0.762610 0.762610 0.762610
0.799874 0.799874 0.799874
0.832841 0.832841 0.832841
0.865140 0.865140 0.865140
0.892209 0.892209 0.892209
0.914059 0.914059 0.914059
0.934353 0.934353 0.934353
0.950665 0.950665 0.950665
0.959926 0.959926 0.959926
0.968650 0.968650 0.968650
0.972024 0.972024 0.972024
0.973710 0.973710 0.973710
0.974879 0.974879 0.974879
0.974373 0.974373 0.974373
0.093584 0.093584 0.093584
0.093609 0.093609 0.093609
0.093703 0.093703 0.093703
0.093893 0.093893 0.093893
0.095029 0.095029 0.095029
0.097434 0.097434 0.097434
0.102551 0.102551 0.102551
0.115641 0.115641 0.115641
0.141907 0.141907 0.141907
0.179127 0.179127 0.179127
0.227054 0.227054 0.227054
0.279346 0.279346 0.279346
0.325216 0.325216 0.325216
0.377127 0.377127 0.377127
0.444726 0.444726 0.444726
0.495691 0.495691 0.495691
0.553588 0.553588 0.553588
0.618383 0.618383 0.618383
0.687073 0.687073 0.687073
0.736217 0.736217 0.736217
0.782458 0.782458 0.782458
0.816209 0.816209 0.816209
0.848751 0.848751 0.848751
0.879448 0.879448 0.879448
0.901049 0.901049 0.901049
0.922053 0.922053 0.922053
0.943624 0.943624 0.943624
0.952996 0.952996 0.952996
0.962660 0.962660 0.962660
0.969652 0.969652 0.969652
0.972059 0.972059 0.972059
0.973012 0.973012 0.973012
0.973185 0.973185 0.973185
0.093767 0.093767 0.093767
0.093789 0.093789 0.093789
0.093870 0.093870 0.093870
0.094260 0.094260 0.094260
0.095617 0.095617 0.095617
0.098277 0.098277 0.098277
0.103691 0.103691 0.103691
0.116535 0.116535 0.116535
0.141645 0.141645 0.141645
0.177519 0.177519 0.177519
0.224371 0.224371 0.224371
0.275558 0.275558 0.275558
0.320562 0.320562 0.320562
0.370735 0.370735 0.370735
0.425835 0.425835 0.425835
0.475408 0.475408 0.475408
0.525882 0.525882 0.525882
0.587096 0.587096 0.587096
0.658341 0.658341 0.658341
0.709445 0.709445 0.709445
0.759811 0.759811 0.759811
0.799814 0.799814 0.799814
0.832886 0.832886 0.832886
0.863092 0.863092 0.863092
0.889126 0.889126 0.889126
0.909619 0.909619 0.909619
0.931993 0.931993 0.931993
0.946925 0.946925 0.946925
0.956614 0.956614 0.956614
0.963976 0.963976 0.963976
0.970095 0.970095 0.970095
0.971523 0.971523 0.971523
0.971989 0.971989 0.971989
0.093850 0.093850 0.093850
0.093869 0.093869 0.093869
0.093951 0.093951 0.093951
0.094479 0.094479 0.094479
0.095630 0.095630 0.095630
0.098217 0.098217 0.098217
0.103349 0.103349 0.103349
0.113905 0.113905 0.113905
0.135070 0.135070 0.135070
0.167067 0.167067 0.167067
0.209613 0.209613 0.209613
0.257973 0.257973 0.257973
0.303400 0.303400 0.303400
0.350595 0.350595 0.350595
0.402793 0.402793 0.402793
0.456455 0.456455 0.456455
0.506122 0.506122 0.506122
0.561505 0.561505 0.561505
0.628001 0.628001 0.628001
0.683574 0.683574 0.683574
0.734392 0.734392 0.734392
0.783302 0.783302 0.783302
0.817390 0.817390 0.817390
0.847858 0.847858 0.847858
0.877161 0.877161 0.877161
0.898250 0.898250 0.898250
0.920365 0.920365 0.920365
0.938483 0.938483 0.938483
0.950723 0.950723 0.950723
0.958922 0.958922 0.958922
0.965377 0.965377 0.965377
0.969128 0.969128 0.969128
0.970704 0.970704 0.970704
0.093921 0.093921 0.093921
0.093944 0.093944 0.093944
0.094090 0.094090 0.094090
0.094662 0.094662 0.094662
0.095661 0.095661 0.095661
0.098241 0.098241 0.098241
0.102094 0.102094 0.102094
0.111245 0.111245 0.111245
0.129747 0.129747 0.129747
0.157791 0.157791 0.157791
0.195849 0.195849 0.195849
0.240824 0.240824 0.240824
0.287860 0.287860 0.287860
0.331253 0.331253 0.331253
0.381106 0.381106 0.381106
0.434232 0.434232 0.434232
0.487106 0.487106 0.487106
0.542353 0.542353 0.542353
0.604327 0.604327 0.604327
0.656761 0.656761 0.656761
0.709800 0.709800 0.709800
0.762485 0.762485 0.762485
0.802015 0.802015 0.802015
0.833156 0.833156 0.833156
0.862693 0.862693 0.862693
0.887846 0.887846 0.887846
0.909146 0.909146 0.909146
0.927893 0.927893 0.927893
0.945023 0.945023 0.945023
0.953448 0.953448 0.953448
0.960766 0.960766 0.960766
0.965339 0.965339 0.965339
0.967655 0.967655 0.967655
0.094105 0.094105 0.094105
0.094175 0.094175 0.094175
0.094436 0.094436 0.094436
0.094944 0.094944 0.094944
0.095853 0.095853 0.095853
0.098652 0.098652 0.098652
0.101898 0.101898 0.101898
0.110806 0.110806 0.110806
0.127229 0.127229 0.127229
0.152351 0.152351 0.152351
0.187085 0.187085 0.187085
0.229950 0.229950 0.229950
0.277724 0.277724 0.277724
0.318682 0.318682 0.318682
0.366049 0.366049 0.366049
0.417809 0.417809 0.417809
0.470033 0.470033 0.470033
0.523907 0.523907 0.523907
0.585296 0.585296 0.585296
0.635280 0.635280 0.635280
0.685842 0.685842 0.685842
0.739399 0.739399 0.739399
0.786785 0.786785 0.786785
0.818732 0.818732 0.818732
0.849092 0.849092 0.849092
0.877586 0.877586 0.877586
0.899061 0.899061 0.899061
0.917722 0.917722 0.917722
0.936570 0.936570 0.936570
0.948534 0.948534 0.948534
0.956203 0.956203 0.956203
0.961250 0.961250 0.961250
0.964379 0.964379 0.964379
0.094572 0.094572 0.094572
0.094636 0.094636 0.094636
0.094872 0.094872 0.094872
0.095328 0.095328 0.095328
0.096201 0.096201 0.096201
0.099036 0.099036 0.099036
0.102597 0.102597 0.102597
0.111116 0.111116 0.111116
0.126148 0.126148 0.126148
0.150949 0.150949 0.150949
0.184077 0.184077 0.184077
0.225336 0.225336 0.225336
0.271879 0.271879 0.271879
0.311768 0.311768 0.311768
0.356986 0.356986 0.356986
0.408784 0.408784 0.408784
0.459986 0.459986 0.459986
0.513228 0.513228 0.513228
0.566642 0.566642 0.566642
0.616571 0.616571 0.616571
0.668909 0.668909 0.668909
0.716896 0.716896 0.716896
0.769348 0.769348 0.769348
0.804716 0.804716 0.804716
0.835819 0.835819 0.835819
0.865054 0.865054 0.865054
0.889856 0.889856 0.889856
0.908246 0.908246 0.908246
0.927477 0.927477 0.927477
0.943580 0.943580 0.943580
0.951771 0.951771 0.951771
0.957584 0.957584 0.957584
0.961096 0.961096 0.961096
0.094653 0.094653 0.094653
0.094712 0.094712 0.094712
0.094927 0.094927 0.094927
0.095342 0.095342 0.095342
0.096129 0.096129 0.096129
0.098557 0.098557 0.098557
0.101908 0.101908 0.101908
0.108145 0.108145 0.108145
0.121846 0.121846 0.121846
0.144124 0.144124 0.144124
0.171959 0.171959 0.171959
0.210108 0.210108 0.210108
0.253952 0.253952 0.253952
0.295921 0.295921 0.295921
0.338538 0.338538 0.338538
0.387524 0.387524 0.387524
0.438827 0.438827 0.438827
0.491012 0.491012 0.491012
0.543972 0.543972 0.543972
0.598136 0.598136 0.598136
0.650683 0.650683 0.650683
0.701595 0.701595 0.701595
0.749576 0.749576 0.749576
0.791001 0.791001 0.791001
0.823184 0.823184 0.823184
0.853061 0.853061 0.853061
0.881229 0.881229 0.881229
0.899674 0.899674 0.899674
0.918752 0.918752 0.918752
0.935699 0.935699 0.935699
0.947598 0.947598 0.947598
0.953817 0.953817 0.953817
0.957994 0.957994 0.957994
0.094724 0.094724 0.094724
0.094778 0.094778 0.094778
0.094977 0.094977 0.094977
0.095357 0.095357 0.095357
0.096076 0.096076 0.096076
0.098189 0.098189 0.098189
0.101461 0.101461 0.101461
0.106452 0.106452 0.106452
0.119111 0.119111 0.119111
0.136948 0.136948 0.136948
0.163667 0.163667 0.163667
0.200200 0.200200 0.200200
0.240325 0.240325 0.240325
0.283073 0.283073 0.283073
0.323731 0.323731 0.323731
0.370071 0.370071 0.370071
0.420275 0.420275 0.420275
0.471001 0.471001 0.471001
0.524772 0.524772 0.524772
0.577464 0.577464 0.577464
0.632468 0.632468 0.632468
0.686152 0.686152 0.686152
0.735193 0.735193 0.735193
0.778646 0.778646 0.778646
0.810743 0.810743 0.810743
0.841743 0.841743 0.841743
0.870961 0.870961 0.870961
0.891987 0.891987 0.891987
0.910705 0.910705 0.910705
0.927903 0.927903 0.927903
0.943436 0.943436 0.943436
0.950339 0.950339 0.950339
0.954990 0.954990 0.954990
0.094820 0.094820 0.094820
0.094870 0.094870 0.094870
0.095055 0.095055 0.095055
0.095409 0.095409 0.095409
0.096077 0.096077 0.096077
0.097987 0.097987 0.097987
0.101028 0.101028 0.101028
0.105764 0.105764 0.105764
0.116059 0.116059 0.116059
0.133145 0.133145 0.133145
0.158498 0.158498 0.158498
0.189376 0.189376 0.189376
0.228480 0.228480 0.228480
0.273352 0.273352 0.273352
0.311930 0.311930 0.311930
0.355744 0.355744 0.355744
0.404730 0.404730 0.404730
0.455384 0.455384 0.455384
0.507993 0.507993 0.507993
0.561757 0.561757 0.561757
0.615322 0.615322 0.615322
0.670552 0.670552 0.670552
0.720449 0.720449 0.720449
0.765944 0.765944 0.765944
0.800052 0.800052 0.800052
0.830612 0.830612 0.830612
0.860753 0.860753 0.860753
0.884962 0.884962 0.884962
0.903565 0.903565 0.903565
0.920656 0.920656 0.920656
0.937188 0.937188 0.937188
0.946981 0.946981 0.946981
0.952095 0.952095 0.952095
0.094810 0.094810 0.094810
0.094857 0.094857 0.094857
0.095030 0.095030 0.095030
0.095360 0.095360 0.095360
0.095976 0.095976 0.095976
0.097616 0.097616 0.097616
0.100390 0.100390 0.100390
0.104964 0.104964 0.104964
0.113364 0.113364 0.113364
0.129990 0.129990 0.129990
0.150970 0.150970 0.150970
0.181018 0.181018 0.181018
0.219470 0.219470 0.219470
0.260912 0.260912 0.260912
0.299957 0.299957 0.299957
0.341561 0.341561 0.341561
0.389640 0.389640 0.389640
0.440511 0.440511 0.440511
0.492312 0.492312 0.492312
0.545805 0.545805 0.545805
0.599944 0.599944 0.599944
0.654917 0.654917 0.654917
0.705362 0.705362 0.705362
0.752450 0.752450 0.752450
0.791551 0.791551 0.791551
0.821535 0.821535 0.821535
0.850939 0.850939 0.850939
0.878014 0.878014 0.878014
0.897363 0.897363 0.897363
0.914186 0.914186 0.914186
0.930910 0.930910 0.930910
0.943766 0.943766 0.943766
0.949468 0.949468 0.949468
0.094507 0.094507 0.094507
0.094552 0.094552 0.094552
0.094717 0.094717 0.094717
0.095030 0.095030 0.095030
0.095548 0.095548 0.095548
0.096598 0.096598 0.096598
0.099169 0.099169 0.099169
0.103213 0.103213 0.103213
0.109196 0.109196 0.109196
0.123014 0.123014 0.123014
0.141880 0.141880 0.141880
0.169902 0.169902 0.169902
0.203086 0.203086 0.203086
0.243730 0.243730 0.243730
0.286487 0.286487 0.286487
0.325524 0.325524 0.325524
0.370636 0.370636 0.370636
0.421108 0.421108 0.421108
0.472279 0.472279 0.472279
0.525863 0.525863 0.525863
0.580087 0.580087 0.580087
0.635125 0.635125 0.635125
0.688713 0.688713 0.688713
0.738269 0.738269 0.738269
0.782680 0.782680 0.782680
0.813916 0.813916 0.813916
0.843540 0.843540 0.843540
0.869555 0.869555 0.869555
0.891658 0.891658 0.891658
0.908573 0.908573 0.908573
0.925177 0.925177 0.925177
0.939082 0.939082 0.939082
0.946967 0.946967 0.946967
0.094202 0.094202 0.094202
0.094245 0.094245 0.094245
0.094403 0.094403 0.094403
0.094701 0.094701 0.094701
0.095169 0.095169 0.095169
0.095936 0.095936 0.095936
0.098009 0.098009 0.098009
0.101641 0.101641 0.101641
0.106168 0.106168 0.106168
0.116607 0.116607 0.116607
0.134840 0.134840 0.134840
0.158035 0.158035 0.158035
0.190444 0.190444 0.190444
0.229489 0.229489 0.229489
0.272066 0.272066 0.272066
0.310357 0.310357 0.310357
0.354318 0.354318 0.354318
0.403981 0.403981 0.403981
0.454945 0.454945 0.454945
0.508040 0.508040 0.508040
0.561723 0.561723 0.561723
0.616795 0.616795 0.616795
0.672580 0.672580 0.672580
0.722624 0.722624 0.722624
0.771617 0.771617 0.771617
0.805867 0.805867 0.805867
0.837154 0.837154 0.837154
0.863666 0.863666 0.863666
0.886485 0.886485 0.886485
0.903734 0.903734 0.903734
0.920198 0.920198 0.920198
0.934533 0.934533 0.934533
0.944625 0.944625 0.944625
0.093939 0.093939 0.093939
0.093951 0.093951 0.093951
0.093995 0.093995 0.093995
0.094264 0.094264 0.094264
0.094715 0.094715 0.094715
0.095367 0.095367 0.095367
0.096682 0.096682 0.096682
0.099871 0.099871 0.099871
0.103997 0.103997 0.103997
0.111724 0.111724 0.111724
0.128985 0.128985 0.128985
0.148314 0.148314 0.148314
0.179812 0.179812 0.179812
0.213764 0.213764 0.213764
0.257284 0.257284 0.257284
0.297292 0.297292 0.297292
0.337870 0.337870 0.337870
0.385777 0.385777 0.385777
0.437346 0.437346 0.437346
0.490006 0.490006 0.490006
0.544276 0.544276 0.544276
0.599527 0.599527 0.599527
0.656183 0.656183 0.656183
0.707681 0.707681 0.707681
0.758007 0.758007 0.758007
0.797492 0.797492 0.797492
0.830503 0.830503 0.830503
0.858404 0.858404 0.858404
0.883390 0.883390 0.883390
0.899711 0.899711 0.899711
0.915879 0.915879 0.915879
0.930265 0.930265 0.930265
0.942058 0.942058 0.942058
0.093681 0.093681 0.093681
0.093690 0.093690 0.093690
0.093724 0.093724 0.093724
0.093786 0.093786 0.093786
0.093884 0.093884 0.093884
0.094228 0.094228 0.094228
0.095152 0.095152 0.095152
0.097073 0.097073 0.097073
0.100528 0.100528 0.100528
0.105225 0.105225 0.105225
0.116622 0.116622 0.116622
0.135153 0.135153 0.135153
0.160347 0.160347 0.160347
0.194944 0.194944 0.194944
0.235441 0.235441 0.235441
0.278370 0.278370 0.278370
0.319518 0.319518 0.319518
0.365493 0.365493 0.365493
0.415883 0.415883 0.415883
0.468202 0.468202 0.468202
0.523350 0.523350 0.523350
0.579219 0.579219 0.579219
0.637089 0.637089 0.637089
0.692544 0.692544 0.692544
0.744294 0.744294 0.744294
