LUTs/trix_modern/TriX_Red25_Soft.cube
TITLE "Tri-X Red25 Soft"
# Adobe RGB in/out. REPLACES AgX. Tri-X Red25 Soft.
LUT_3D_SIZE 9
DOMAIN_MIN 0.0 0.0 0.0
DOMAIN_MAX 1.0 1.0 1.0
0.093873 0.093873 0.093873
0.111459 0.111459 0.111459
0.322478 0.322478 0.322478
0.535060 0.535060 0.535060
0.760199 0.760199 0.760199
0.920439 0.920439 0.920439
0.972102 0.972102 0.972102
0.983215 0.983215 0.983215
0.980590 0.980590 0.980590
0.093873 0.093873 0.093873
0.096190 0.096190 0.096190
0.333912 0.333912 0.333912
0.537373 0.537373 0.537373
0.734363 0.734363 0.734363
0.903693 0.903693 0.903693
0.967406 0.967406 0.967406
0.982483 0.982483 0.982483
0.980067 0.980067 0.980067
0.093889 0.093889 0.093889
0.094647 0.094647 0.094647
0.216915 0.216915 0.216915
0.459002 0.459002 0.459002
0.670307 0.670307 0.670307
0.837804 0.837804 0.837804
0.942969 0.942969 0.942969
0.980149 0.980149 0.980149
0.975399 0.975399 0.975399
0.094082 0.094082 0.094082
0.095941 0.095941 0.095941
0.175405 0.175405 0.175405
0.357980 0.357980 0.357980
0.564477 0.564477 0.564477
0.758263 0.758263 0.758263
0.894530 0.894530 0.894530
0.957184 0.957184 0.957184
0.967549 0.967549 0.967549
0.094481 0.094481 0.094481
0.097368 0.097368 0.097368
0.154341 0.154341 0.154341
0.306561 0.306561 0.306561
0.482310 0.482310 0.482310
0.669809 0.669809 0.669809
0.829711 0.829711 0.829711
0.925781 0.925781 0.925781
0.955959 0.955959 0.955959
0.095972 0.095972 0.095972
0.097988 0.097988 0.097988
0.141119 0.141119 0.141119
0.266161 0.266161 0.266161
0.426494 0.426494 0.426494
0.602657 0.602657 0.602657
0.771802 0.771802 0.771802
0.891248 0.891248 0.891248
0.940392 0.940392 0.940392
0.095196 0.095196 0.095196
0.096634 0.096634 0.096634
0.120101 0.120101 0.120101
0.220825 0.220825 0.220825
0.370124 0.370124 0.370124
0.544361 0.544361 0.544361
0.725640 0.725640 0.725640
0.858854 0.858854 0.858854
0.925135 0.925135 0.925135
0.093918 0.093918 0.093918
0.093959 0.093959 0.093959
0.096471 0.096471 0.096471
0.151017 0.151017 0.151017
0.297405 0.297405 0.297405
0.477180 0.477180 0.477180
0.672625 0.672625 0.672625
0.841535 0.841535 0.841535
0.914758 0.914758 0.914758
0.093873 0.093873 0.093873
0.093873 0.093873 0.093873
0.093873 0.093873 0.093873
0.093873 0.093873 0.093873
0.109014 0.109014 0.109014
0.355517 0.355517 0.355517
0.594750 0.594750 0.594750
0.817135 0.817135 0.817135
0.913917 0.913917 0.913917
0.093873 0.093873 0.093873
0.098380 0.098380 0.098380
0.250222 0.250222 0.250222
0.484928 0.484928 0.484928
0.741037 0.741037 0.741037
0.915158 0.915158 0.915158
0.970255 0.970255 0.970255
0.982823 0.982823 0.982823
0.980319 0.980319 0.980319
0.093878 0.093878 0.093878
0.099556 0.099556 0.099556
0.272857 0.272857 0.272857
0.478940 0.478940 0.478940
0.711992 0.711992 0.711992
0.898220 0.898220 0.898220
0.965625 0.965625 0.965625
0.982091 0.982091 0.982091
0.979798 0.979798 0.979798
0.094251 0.094251 0.094251
0.105074 0.105074 0.105074
0.237083 0.237083 0.237083
0.446295 0.446295 0.446295
0.644611 0.644611 0.644611
0.829759 0.829759 0.829759
0.940806 0.940806 0.940806
0.979700 0.979700 0.979700
0.974597 0.974597 0.974597
0.097069 0.097069 0.097069
0.108073 0.108073 0.108073
0.215073 0.215073 0.215073
0.377074 0.377074 0.377074
0.564360 0.564360 0.564360
0.749985 0.749985 0.749985
0.892575 0.892575 0.892575
0.955561 0.955561 0.955561
0.966801 0.966801 0.966801
0.098601 0.098601 0.098601
0.107275 0.107275 0.107275
0.184099 0.184099 0.184099
0.330624 0.330624 0.330624
0.495782 0.495782 0.495782
0.671104 0.671104 0.671104
0.827581 0.827581 0.827581
0.924789 0.924789 0.924789
0.954832 0.954832 0.954832
0.098831 0.098831 0.098831
0.104277 0.104277 0.104277
0.160273 0.160273 0.160273
0.284459 0.284459 0.284459
0.440538 0.440538 0.440538
0.610991 0.610991 0.610991
0.772793 0.772793 0.772793
0.891082 0.891082 0.891082
0.939601 0.939601 0.939601
0.096800 0.096800 0.096800
0.098826 0.098826 0.098826
0.131077 0.131077 0.131077
0.236162 0.236162 0.236162
0.383338 0.383338 0.383338
0.553683 0.553683 0.553683
0.730035 0.730035 0.730035
0.859158 0.859158 0.859158
0.924698 0.924698 0.924698
0.093960 0.093960 0.093960
0.094008 0.094008 0.094008
0.097868 0.097868 0.097868
0.162314 0.162314 0.162314
0.308471 0.308471 0.308471
0.485876 0.485876 0.485876
0.678347 0.678347 0.678347
0.842813 0.842813 0.842813
0.914752 0.914752 0.914752
0.093873 0.093873 0.093873
0.093873 0.093873 0.093873
0.093873 0.093873 0.093873
0.093873 0.093873 0.093873
0.116896 0.116896 0.116896
0.363572 0.363572 0.363572
0.599747 0.599747 0.599747
0.819143 0.819143 0.819143
0.914022 0.914022 0.914022
0.093873 0.093873 0.093873
0.127017 0.127017 0.127017
0.279713 0.279713 0.279713
0.492813 0.492813 0.492813
0.730232 0.730232 0.730232
0.908517 0.908517 0.908517
0.967301 0.967301 0.967301
0.982129 0.982129 0.982129
0.979689 0.979689 0.979689
0.094074 0.094074 0.094074
0.145650 0.145650 0.145650
0.299548 0.299548 0.299548
0.472120 0.472120 0.472120
0.697398 0.697398 0.697398
0.891633 0.891633 0.891633
0.962735 0.962735 0.962735
0.981380 0.981380 0.981380
0.978077 0.978077 0.978077
0.097110 0.097110 0.097110
0.115911 0.115911 0.115911
0.233250 0.233250 0.233250
0.419651 0.419651 0.419651
0.618126 0.618126 0.618126
0.819437 0.819437 0.819437
0.937386 0.937386 0.937386
0.976430 0.976430 0.976430
0.972831 0.972831 0.972831
0.117336 0.117336 0.117336
0.143539 0.143539 0.143539
0.247415 0.247415 0.247415
0.380612 0.380612 0.380612
0.552935 0.552935 0.552935
0.735907 0.735907 0.735907
0.889314 0.889314 0.889314
0.952258 0.952258 0.952258
0.965032 0.965032 0.965032
0.134541 0.134541 0.134541
0.155922 0.155922 0.155922
0.242537 0.242537 0.242537
0.369873 0.369873 0.369873
0.513347 0.513347 0.513347
0.673119 0.673119 0.673119
0.823544 0.823544 0.823544
0.923010 0.923010 0.923010
0.951906 0.951906 0.951906
0.137675 0.137675 0.137675
0.153176 0.153176 0.153176
0.225452 0.225452 0.225452
0.338553 0.338553 0.338553
0.479909 0.479909 0.479909
0.632373 0.632373 0.632373
0.776623 0.776623 0.776623
0.891186 0.891186 0.891186
0.937451 0.937451 0.937451
0.121584 0.121584 0.121584
0.131511 0.131511 0.131511
0.186042 0.186042 0.186042
0.291334 0.291334 0.291334
0.428997 0.428997 0.428997
0.586039 0.586039 0.586039
0.744439 0.744439 0.744439
0.860677 0.860677 0.860677
0.923484 0.923484 0.923484
0.096665 0.096665 0.096665
0.098055 0.098055 0.098055
0.127709 0.127709 0.127709
0.220479 0.220479 0.220479
0.357572 0.357572 0.357572
0.523021 0.523021 0.523021
0.702257 0.702257 0.702257
0.847643 0.847643 0.847643
0.914686 0.914686 0.914686
0.093873 0.093873 0.093873
0.093873 0.093873 0.093873
0.093873 0.093873 0.093873
0.093873 0.093873 0.093873
0.167304 0.167304 0.167304
0.399800 0.399800 0.399800
0.621669 0.621669 0.621669
0.827400 0.827400 0.827400
0.914157 0.914157 0.914157
0.093858 0.093858 0.093858
0.110450 0.110450 0.110450
0.322266 0.322266 0.322266
0.519316 0.519316 0.519316
0.746223 0.746223 0.746223
0.908577 0.908577 0.908577
0.965836 0.965836 0.965836
0.980928 0.980928 0.980928
0.978540 0.978540 0.978540
0.094154 0.094154 0.094154
0.133174 0.133174 0.133174
0.356398 0.356398 0.356398
0.515352 0.515352 0.515352
0.713981 0.713981 0.713981
0.891817 0.891817 0.891817
0.961209 0.961209 0.961209
0.979998 0.979998 0.979998
0.976885 0.976885 0.976885
0.104481 0.104481 0.104481
0.141203 0.141203 0.141203
0.294033 0.294033 0.294033
0.446828 0.446828 0.446828
0.627280 0.627280 0.627280
0.819490 0.819490 0.819490
0.934935 0.934935 0.934935
0.968916 0.968916 0.968916
0.971496 0.971496 0.971496
0.131537 0.131537 0.131537
0.159185 0.159185 0.159185
0.255063 0.255063 0.255063
0.372918 0.372918 0.372918
0.542754 0.542754 0.542754
0.729534 0.729534 0.729534
0.886434 0.886434 0.886434
0.948881 0.948881 0.948881
0.963487 0.963487 0.963487
0.165140 0.165140 0.165140
0.187303 0.187303 0.187303
0.270011 0.270011 0.270011
0.382271 0.382271 0.382271
0.508156 0.508156 0.508156
0.663704 0.663704 0.663704
0.818805 0.818805 0.818805
0.919567 0.919567 0.919567
0.948810 0.948810 0.948810
0.176210 0.176210 0.176210
0.193391 0.193391 0.193391
0.265093 0.265093 0.265093
0.369008 0.369008 0.369008
0.498355 0.498355 0.498355
0.636416 0.636416 0.636416
0.774080 0.774080 0.774080
0.889461 0.889461 0.889461
0.934521 0.934521 0.934521
0.161986 0.161986 0.161986
0.175234 0.175234 0.175234
0.235082 0.235082 0.235082
0.333626 0.333626 0.333626
0.462607 0.462607 0.462607
0.608666 0.608666 0.608666
0.751217 0.751217 0.751217
0.860885 0.860885 0.860885
0.921377 0.921377 0.921377
0.113933 0.113933 0.113933
0.121708 0.121708 0.121708
0.170978 0.170978 0.170978
0.268226 0.268226 0.268226
0.398333 0.398333 0.398333
0.553824 0.553824 0.553824
0.720217 0.720217 0.720217
0.849762 0.849762 0.849762
0.913925 0.913925 0.913925
0.093873 0.093873 0.093873
0.093873 0.093873 0.093873
0.093873 0.093873 0.093873
0.093873 0.093873 0.093873
0.245741 0.245741 0.245741
0.443174 0.443174 0.443174
0.649961 0.649961 0.649961
0.836606 0.836606 0.836606
0.914089 0.914089 0.914089
0.093967 0.093967 0.093967
0.098013 0.098013 0.098013
0.344768 0.344768 0.344768
0.536013 0.536013 0.536013
0.773943 0.773943 0.773943
0.915959 0.915959 0.915959
0.966676 0.966676 0.966676
0.980548 0.980548 0.980548
0.978543 0.978543 0.978543
0.094225 0.094225 0.094225
0.113181 0.113181 0.113181
0.361531 0.361531 0.361531
0.551046 0.551046 0.551046
0.743837 0.743837 0.743837
0.899802 0.899802 0.899802
0.962072 0.962072 0.962072
0.979160 0.979160 0.979160
0.976838 0.976838 0.976838
0.127460 0.127460 0.127460
0.174793 0.174793 0.174793
0.347858 0.347858 0.347858
0.503776 0.503776 0.503776
0.660492 0.660492 0.660492
0.833781 0.833781 0.833781
0.936886 0.936886 0.936886
0.968345 0.968345 0.968345
0.971262 0.971262 0.971262
0.148770 0.148770 0.148770
0.177291 0.177291 0.177291
0.283791 0.283791 0.283791
0.421417 0.421417 0.421417
0.567478 0.567478 0.567478
0.741081 0.741081 0.741081
0.888304 0.888304 0.888304
0.947930 0.947930 0.947930
0.962911 0.962911 0.962911
0.180546 0.180546 0.180546
0.203137 0.203137 0.203137
0.280323 0.280323 0.280323
0.386007 0.386007 0.386007
0.499564 0.499564 0.499564
0.660294 0.660294 0.660294
0.817752 0.817752 0.817752
0.917502 0.917502 0.917502
0.946803 0.946803 0.946803
0.200949 0.200949 0.200949
0.219294 0.219294 0.219294
0.285033 0.285033 0.285033
0.384132 0.384132 0.384132
0.503348 0.503348 0.503348
0.629574 0.629574 0.629574
0.769422 0.769422 0.769422
0.887256 0.887256 0.887256
0.931409 0.931409 0.931409
0.191818 0.191818 0.191818
0.206742 0.206742 0.206742
0.265741 0.265741 0.265741
0.359045 0.359045 0.359045
0.481739 0.481739 0.481739
0.618458 0.618458 0.618458
0.750338 0.750338 0.750338
0.859653 0.859653 0.859653
0.918853 0.918853 0.918853
0.138339 0.138339 0.138339
0.149075 0.149075 0.149075
0.204875 0.204875 0.204875
0.297955 0.297955 0.297955
0.425647 0.425647 0.425647
0.574443 0.574443 0.574443
0.730103 0.730103 0.730103
0.849539 0.849539 0.849539
0.912734 0.912734 0.912734
0.093873 0.093873 0.093873
0.093873 0.093873 0.093873
0.093873 0.093873 0.093873
0.108086 0.108086 0.108086
0.281519 0.281519 0.281519
0.468556 0.468556 0.468556
0.667300 0.667300 0.667300
0.841389 0.841389 0.841389
0.913757 0.913757 0.913757
0.094118 0.094118 0.094118
0.097396 0.097396 0.097396
0.351194 0.351194 0.351194
0.544630 0.544630 0.544630
0.782616 0.782616 0.782616
0.925761 0.925761 0.925761
0.969238 0.969238 0.969238
0.980865 0.980865 0.980865
0.979659 0.979659 0.979659
0.095009 0.095009 0.095009
0.104734 0.104734 0.104734
0.359964 0.359964 0.359964
0.554900 0.554900 0.554900
0.779092 0.779092 0.779092
0.911783 0.911783 0.911783
0.964816 0.964816 0.964816
0.979903 0.979903 0.979903
0.977921 0.977921 0.977921
0.140764 0.140764 0.140764
0.182319 0.182319 0.182319
0.385440 0.385440 0.385440
0.550383 0.550383 0.550383
0.703093 0.703093 0.703093
0.856765 0.856765 0.856765
0.942562 0.942562 0.942562
0.969697 0.969697 0.969697
0.972205 0.972205 0.972205
0.173056 0.173056 0.173056
0.202077 0.202077 0.202077
0.320943 0.320943 0.320943
0.468164 0.468164 0.468164
0.611832 0.611832 0.611832
0.768045 0.768045 0.768045
0.896996 0.896996 0.896996
0.950247 0.950247 0.950247
0.963331 0.963331 0.963331
0.194942 0.194942 0.194942
0.217130 0.217130 0.217130
0.296584 0.296584 0.296584
0.410813 0.410813 0.410813
0.537447 0.537447 0.537447
0.681313 0.681313 0.681313
0.827429 0.827429 0.827429
0.919470 0.919470 0.919470
0.946664 0.946664 0.946664
0.214953 0.214953 0.214953
0.231508 0.231508 0.231508
0.295169 0.295169 0.295169
0.392489 0.392489 0.392489
0.505893 0.505893 0.505893
0.620952 0.620952 0.620952
0.769238 0.769238 0.769238
0.887131 0.887131 0.887131
0.930035 0.930035 0.930035
0.209781 0.209781 0.209781
0.224197 0.224197 0.224197
0.280738 0.280738 0.280738
0.372528 0.372528 0.372528
0.490724 0.490724 0.490724
0.620173 0.620173 0.620173
0.745024 0.745024 0.745024
0.857673 0.857673 0.857673
0.916847 0.916847 0.916847
0.153538 0.153538 0.153538
0.165097 0.165097 0.165097
0.223841 0.223841 0.223841
0.315214 0.315214 0.315214
0.440250 0.440250 0.440250
0.584947 0.584947 0.584947
0.733213 0.733213 0.733213
0.847422 0.847422 0.847422
0.911265 0.911265 0.911265
0.093873 0.093873 0.093873
0.093873 0.093873 0.093873
0.093873 0.093873 0.093873
0.113499 0.113499 0.113499
0.293297 0.293297 0.293297
0.479075 0.479075 0.479075
0.674509 0.674509 0.674509
0.842849 0.842849 0.842849
0.913144 0.913144 0.913144
0.094971 0.094971 0.094971
0.099827 0.099827 0.099827
0.328756 0.328756 0.328756
0.548852 0.548852 0.548852
0.782288 0.782288 0.782288
0.937024 0.937024 0.937024
0.973180 0.973180 0.973180
0.981624 0.981624 0.981624
0.980350 0.980350 0.980350
0.097053 0.097053 0.097053
0.106935 0.106935 0.106935
0.338054 0.338054 0.338054
0.556606 0.556606 0.556606
0.783623 0.783623 0.783623
0.925284 0.925284 0.925284
0.968995 0.968995 0.968995
0.980689 0.980689 0.980689
0.979765 0.979765 0.979765
0.145264 0.145264 0.145264
0.178517 0.178517 0.178517
0.369964 0.369964 0.369964
0.583006 0.583006 0.583006
0.739279 0.739279 0.739279
0.884028 0.884028 0.884028
0.950918 0.950918 0.950918
0.972551 0.972551 0.972551
0.974006 0.974006 0.974006
0.200029 0.200029 0.200029
0.228023 0.228023 0.228023
0.347615 0.347615 0.347615
0.506384 0.506384 0.506384
0.653307 0.653307 0.653307
0.799826 0.799826 0.799826
0.910822 0.910822 0.910822
0.955568 0.955568 0.955568
0.964590 0.964590 0.964590
0.213919 0.213919 0.213919
0.233604 0.233604 0.233604
0.316042 0.316042 0.316042
0.442093 0.442093 0.442093
0.577561 0.577561 0.577561
0.716542 0.716542 0.716542
0.847964 0.847964 0.847964
0.926116 0.926116 0.926116
0.948579 0.948579 0.948579
0.224779 0.224779 0.224779
0.240694 0.240694 0.240694
0.303729 0.303729 0.303729
0.406723 0.406723 0.406723
0.526037 0.526037 0.526037
0.652286 0.652286 0.652286
0.785115 0.785115 0.785115
0.892174 0.892174 0.892174
0.931304 0.931304 0.931304
0.216562 0.216562 0.216562
0.230502 0.230502 0.230502
0.286848 0.286848 0.286848
0.379196 0.379196 0.379196
0.496272 0.496272 0.496272
0.621728 0.621728 0.621728
0.737280 0.737280 0.737280
0.858600 0.858600 0.858600
0.916465 0.916465 0.916465
0.154200 0.154200 0.154200
0.166157 0.166157 0.166157
0.226902 0.226902 0.226902
0.319790 0.319790 0.319790
0.444935 0.444935 0.444935
0.587951 0.587951 0.587951
0.731895 0.731895 0.731895
0.843810 0.843810 0.843810
0.910102 0.910102 0.910102
0.093873 0.093873 0.093873
0.093873 0.093873 0.093873
0.093873 0.093873 0.093873
0.096937 0.096937 0.096937
0.283713 0.283713 0.283713
0.474461 0.474461 0.474461
0.671623 0.671623 0.671623
0.841037 0.841037 0.841037
0.912632 0.912632 0.912632
0.099981 0.099981 0.099981
0.111057 0.111057 0.111057
0.341335 0.341335 0.341335
0.554674 0.554674 0.554674
0.791322 0.791322 0.791322
0.949658 0.949658 0.949658
0.978887 0.978887 0.978887
0.982915 0.982915 0.982915
0.981027 0.981027 0.981027
0.105114 0.105114 0.105114
0.121364 0.121364 0.121364
0.351429 0.351429 0.351429
0.561372 0.561372 0.561372
0.792378 0.792378 0.792378
0.941297 0.941297 0.941297
0.975064 0.975064 0.975064
0.982026 0.982026 0.982026
0.980468 0.980468 0.980468
0.168518 0.168518 0.168518
0.197716 0.197716 0.197716
0.393543 0.393543 0.393543
0.589639 0.589639 0.589639
0.775387 0.775387 0.775387
0.906552 0.906552 0.906552
0.962111 0.962111 0.962111
0.977158 0.977158 0.977158
0.976162 0.976162 0.976162
0.233439 0.233439 0.233439
0.258618 0.258618 0.258618
0.392527 0.392527 0.392527
0.544181 0.544181 0.544181
0.693447 0.693447 0.693447
0.836942 0.836942 0.836942
0.929277 0.929277 0.929277
0.963016 0.963016 0.963016
0.966762 0.966762 0.966762
0.237678 0.237678 0.237678
0.257761 0.257761 0.257761
0.351370 0.351370 0.351370
0.479604 0.479604 0.479604
0.617460 0.617460 0.617460
0.756013 0.756013 0.756013
0.879117 0.879117 0.879117
0.937442 0.937442 0.937442
0.952256 0.952256 0.952256
0.236098 0.236098 0.236098
0.252242 0.252242 0.252242
0.322976 0.322976 0.322976
0.430033 0.430033 0.430033
0.557199 0.557199 0.557199
0.687067 0.687067 0.687067
0.811906 0.811906 0.811906
0.904311 0.904311 0.904311
0.935455 0.935455 0.935455
0.218554 0.218554 0.218554
0.232135 0.232135 0.232135
0.292880 0.292880 0.292880
0.387724 0.387724 0.387724
0.509042 0.509042 0.509042
0.638623 0.638623 0.638623
0.761071 0.761071 0.761071
0.871765 0.871765 0.871765
0.918999 0.918999 0.918999
0.137279 0.137279 0.137279
0.149382 0.149382 0.149382
0.215233 0.215233 0.215233
0.313718 0.313718 0.313718
0.443398 0.443398 0.443398
0.588582 0.588582 0.588582
0.731044 0.731044 0.731044
0.837347 0.837347 0.837347
0.910305 0.910305 0.910305
0.093873 0.093873 0.093873
0.093873 0.093873 0.093873
0.093873 0.093873 0.093873
0.093873 0.093873 0.093873
0.236401 0.236401 0.236401
0.449711 0.449711 0.449711
0.656018 0.656018 0.656018
0.835113 0.835113 0.835113
0.912337 0.912337 0.912337
0.209173 0.209173 0.209173
0.229132 0.229132 0.229132
0.332492 0.332492 0.332492
0.572915 0.572915 0.572915
0.864817 0.864817 0.864817
0.975885 0.975885 0.975885
0.984393 0.984393 0.984393
0.985369 0.985369 0.985369
0.981633 0.981633 0.981633
0.223389 0.223389 0.223389
0.243191 0.243191 0.243191
0.345290 0.345290 0.345290
0.579641 0.579641 0.579641
0.864816 0.864816 0.864816
0.971819 0.971819 0.971819
0.983303 0.983303 0.983303
0.984583 0.984583 0.984583
0.981090 0.981090 0.981090
0.284194 0.284194 0.284194
0.303103 0.303103 0.303103
0.402615 0.402615 0.402615
0.610670 0.610670 0.610670
0.858765 0.858765 0.858765
0.954741 0.954741 0.954741
0.979200 0.979200 0.979200
0.981866 0.981866 0.981866
0.978197 0.978197 0.978197
0.357237 0.357237 0.357237
0.374429 0.374429 0.374429
0.454977 0.454977 0.454977
0.603227 0.603227 0.603227
0.782164 0.782164 0.782164
0.912883 0.912883 0.912883
0.961724 0.961724 0.961724
0.972941 0.972941 0.972941
0.969438 0.969438 0.969438
0.338129 0.338129 0.338129
0.354351 0.354351 0.354351
0.429404 0.429404 0.429404
0.551323 0.551323 0.551323
0.698660 0.698660 0.698660
0.843609 0.843609 0.843609
0.927148 0.927148 0.927148
0.956161 0.956161 0.956161
0.957782 0.957782 0.957782
0.305212 0.305212 0.305212
0.321138 0.321138 0.321138
0.392920 0.392920 0.392920
0.504826 0.504826 0.504826
0.628283 0.628283 0.628283
0.767874 0.767874 0.767874
0.883289 0.883289 0.883289
0.931782 0.931782 0.931782
0.941203 0.941203 0.941203
0.255224 0.255224 0.255224
0.271068 0.271068 0.271068
0.336547 0.336547 0.336547
0.451165 0.451165 0.451165
0.571995 0.571995 0.571995
0.697845 0.697845 0.697845
0.822501 0.822501 0.822501
0.904956 0.904956 0.904956
0.925976 0.925976 0.925976
0.128361 0.128361 0.128361
0.140230 0.140230 0.140230
0.205483 0.205483 0.205483
0.334716 0.334716 0.334716
0.485293 0.485293 0.485293
0.629728 0.629728 0.629728
0.760750 0.760750 0.760750
0.877144 0.877144 0.877144
0.915643 0.915643 0.915643
0.093873 0.093873 0.093873
0.093873 0.093873 0.093873
0.093873 0.093873 0.093873
0.093873 0.093873 0.093873
0.098428 0.098428 0.098428
0.394575 0.394575 0.394575
0.633245 0.633245 0.633245
0.821944 0.821944 0.821944
0.912373 0.912373 0.912373
