LUTs/trix_modern/TriX_Red25_Soft.cube
TITLE "Tri-X Red25 Soft"
# Adobe RGB in/out. REPLACES AgX. Tri-X Red25 Soft.
LUT_3D_SIZE 33
DOMAIN_MIN 0.0 0.0 0.0
DOMAIN_MAX 1.0 1.0 1.0
0.093873 0.093873 0.093873
0.093873 0.093873 0.093873
0.093873 0.093873 0.093873
0.094063 0.094063 0.094063
0.111459 0.111459 0.111459
0.141201 0.141201 0.141201
0.212439 0.212439 0.212439
0.288957 0.288957 0.288957
0.322478 0.322478 0.322478
0.371488 0.371488 0.371488
0.443682 0.443682 0.443682
0.491874 0.491874 0.491874
0.535060 0.535060 0.535060
0.590064 0.590064 0.590064
0.659536 0.659536 0.659536
0.711187 0.711187 0.711187
0.760199 0.760199 0.760199
0.809132 0.809132 0.809132
0.857958 0.857958 0.857958
0.895153 0.895153 0.895153
0.920439 0.920439 0.920439
0.939654 0.939654 0.939654
0.954701 0.954701 0.954701
0.966044 0.966044 0.966044
0.972102 0.972102 0.972102
0.977156 0.977156 0.977156
0.981073 0.981073 0.981073
0.981773 0.981773 0.981773
0.983215 0.983215 0.983215
0.982556 0.982556 0.982556
0.981900 0.981900 0.981900
0.981244 0.981244 0.981244
0.980590 0.980590 0.980590
0.093873 0.093873 0.093873
0.093873 0.093873 0.093873
0.093873 0.093873 0.093873
0.094194 0.094194 0.094194
0.120570 0.120570 0.120570
0.148733 0.148733 0.148733
0.218199 0.218199 0.218199
0.292290 0.292290 0.292290
0.325014 0.325014 0.325014
0.373146 0.373146 0.373146
0.444470 0.444470 0.444470
0.492095 0.492095 0.492095
0.534828 0.534828 0.534828
0.589394 0.589394 0.589394
0.658469 0.658469 0.658469
0.709855 0.709855 0.709855
0.758774 0.758774 0.758774
0.807806 0.807806 0.807806
0.856615 0.856615 0.856615
0.894288 0.894288 0.894288
0.919695 0.919695 0.919695
0.939141 0.939141 0.939141
0.954234 0.954234 0.954234
0.965793 0.965793 0.965793
0.971881 0.971881 0.971881
0.976961 0.976961 0.976961
0.981017 0.981017 0.981017
0.981725 0.981725 0.981725
0.983179 0.983179 0.983179
0.982524 0.982524 0.982524
0.981870 0.981870 0.981870
0.981217 0.981217 0.981217
0.980565 0.980565 0.980565
0.093873 0.093873 0.093873
0.093873 0.093873 0.093873
0.093873 0.093873 0.093873
0.094105 0.094105 0.094105
0.122881 0.122881 0.122881
0.166715 0.166715 0.166715
0.236537 0.236537 0.236537
0.309729 0.309729 0.309729
0.337176 0.337176 0.337176
0.381062 0.381062 0.381062
0.448571 0.448571 0.448571
0.493775 0.493775 0.493775
0.534618 0.534618 0.534618
0.587447 0.587447 0.587447
0.654971 0.654971 0.654971
0.705313 0.705313 0.705313
0.753819 0.753819 0.753819
0.803141 0.803141 0.803141
0.851858 0.851858 0.851858
0.891201 0.891201 0.891201
0.917031 0.917031 0.917031
0.937302 0.937302 0.937302
0.952556 0.952556 0.952556
0.964892 0.964892 0.964892
0.971087 0.971087 0.971087
0.976260 0.976260 0.976260
0.980813 0.980813 0.980813
0.981553 0.981553 0.981553
0.983052 0.983052 0.983052
0.982408 0.982408 0.982408
0.981763 0.981763 0.981763
0.981119 0.981119 0.981119
0.980475 0.980475 0.980475
0.093873 0.093873 0.093873
0.093873 0.093873 0.093873
0.093873 0.093873 0.093873
0.093951 0.093951 0.093951
0.100088 0.100088 0.100088
0.139516 0.139516 0.139516
0.226629 0.226629 0.226629
0.310413 0.310413 0.310413
0.346733 0.346733 0.346733
0.392607 0.392607 0.392607
0.459676 0.459676 0.459676
0.500620 0.500620 0.500620
0.536832 0.536832 0.536832
0.585758 0.585758 0.585758
0.649894 0.649894 0.649894
0.697950 0.697950 0.697950
0.745369 0.745369 0.745369
0.794949 0.794949 0.794949
0.843363 0.843363 0.843363
0.885601 0.885601 0.885601
0.911684 0.911684 0.911684
0.933414 0.933414 0.933414
0.949467 0.949467 0.949467
0.963227 0.963227 0.963227
0.969620 0.969620 0.969620
0.974966 0.974966 0.974966
0.980436 0.980436 0.980436
0.981234 0.981234 0.981234
0.982821 0.982821 0.982821
0.982196 0.982196 0.982196
0.981569 0.981569 0.981569
0.980940 0.980940 0.980940
0.980310 0.980310 0.980310
0.093873 0.093873 0.093873
0.093873 0.093873 0.093873
0.093873 0.093873 0.093873
0.093994 0.093994 0.093994
0.096190 0.096190 0.096190
0.110796 0.110796 0.110796
0.186901 0.186901 0.186901
0.284482 0.284482 0.284482
0.333912 0.333912 0.333912
0.388650 0.388650 0.388650
0.460116 0.460116 0.460116
0.500661 0.500661 0.500661
0.537373 0.537373 0.537373
0.585172 0.585172 0.585172
0.645675 0.645675 0.645675
0.689383 0.689383 0.689383
0.734363 0.734363 0.734363
0.783647 0.783647 0.783647
0.831264 0.831264 0.831264
0.874176 0.874176 0.874176
0.903693 0.903693 0.903693
0.926711 0.926711 0.926711
0.944826 0.944826 0.944826
0.960377 0.960377 0.960377
0.967406 0.967406 0.967406
0.973014 0.973014 0.973014
0.979867 0.979867 0.979867
0.980754 0.980754 0.980754
0.982483 0.982483 0.982483
0.981886 0.981886 0.981886
0.981284 0.981284 0.981284
0.980677 0.980677 0.980677
0.980067 0.980067 0.980067
0.093873 0.093873 0.093873
0.093873 0.093873 0.093873
0.093868 0.093868 0.093868
0.093967 0.093967 0.093967
0.094258 0.094258 0.094258
0.102042 0.102042 0.102042
0.150163 0.150163 0.150163
0.244994 0.244994 0.244994
0.301558 0.301558 0.301558
0.365870 0.365870 0.365870
0.443286 0.443286 0.443286
0.491737 0.491737 0.491737
0.531979 0.531979 0.531979
0.578536 0.578536 0.578536
0.635858 0.635858 0.635858
0.678297 0.678297 0.678297
0.721679 0.721679 0.721679
0.768976 0.768976 0.768976
0.816067 0.816067 0.816067
0.857431 0.857431 0.857431
0.892976 0.892976 0.892976
0.917620 0.917620 0.917620
0.938471 0.938471 0.938471
0.954497 0.954497 0.954497
0.964355 0.964355 0.964355
0.970326 0.970326 0.970326
0.977610 0.977610 0.977610
0.980094 0.980094 0.980094
0.982039 0.982039 0.982039
0.981478 0.981478 0.981478
0.980908 0.980908 0.980908
0.980331 0.980331 0.980331
0.979657 0.979657 0.979657
0.093873 0.093873 0.093873
0.093873 0.093873 0.093873
0.093884 0.093884 0.093884
0.094003 0.094003 0.094003
0.094600 0.094600 0.094600
0.102598 0.102598 0.102598
0.135548 0.135548 0.135548
0.206482 0.206482 0.206482
0.266865 0.266865 0.266865
0.332208 0.332208 0.332208
0.415450 0.415450 0.415450
0.470597 0.470597 0.470597
0.515387 0.515387 0.515387
0.565171 0.565171 0.565171
0.623999 0.623999 0.623999
0.666628 0.666628 0.666628
0.706738 0.706738 0.706738
0.752127 0.752127 0.752127
0.799794 0.799794 0.799794
0.838881 0.838881 0.838881
0.878151 0.878151 0.878151
0.904718 0.904718 0.904718
0.928382 0.928382 0.928382
0.946707 0.946707 0.946707
0.959692 0.959692 0.959692
0.966769 0.966769 0.966769
0.974392 0.974392 0.974392
0.978045 0.978045 0.978045
0.981496 0.981496 0.981496
0.980977 0.980977 0.980977
0.980446 0.980446 0.980446
0.979904 0.979904 0.979904
0.978445 0.978445 0.978445
0.093858 0.093858 0.093858
0.093875 0.093875 0.093875
0.093944 0.093944 0.093944
0.094077 0.094077 0.094077
0.095456 0.095456 0.095456
0.105157 0.105157 0.105157
0.138444 0.138444 0.138444
0.188967 0.188967 0.188967
0.233238 0.233238 0.233238
0.297009 0.297009 0.297009
0.380185 0.380185 0.380185
0.439883 0.439883 0.439883
0.489397 0.489397 0.489397
0.544210 0.544210 0.544210
0.606092 0.606092 0.606092
0.649335 0.649335 0.649335
0.689654 0.689654 0.689654
0.734821 0.734821 0.734821
0.782786 0.782786 0.782786
0.820236 0.820236 0.820236
0.859016 0.859016 0.859016
0.892391 0.892391 0.892391
0.916735 0.916735 0.916735
0.937504 0.937504 0.937504
0.950631 0.950631 0.950631
0.962072 0.962072 0.962072
0.970065 0.970065 0.970065
0.974498 0.974498 0.974498
0.980862 0.980862 0.980862
0.980392 0.980392 0.980392
0.979904 0.979904 0.979904
0.978598 0.978598 0.978598
0.977019 0.977019 0.977019
0.093889 0.093889 0.093889
0.093902 0.093902 0.093902
0.093951 0.093951 0.093951
0.094066 0.094066 0.094066
0.094647 0.094647 0.094647
0.100162 0.100162 0.100162
0.123315 0.123315 0.123315
0.164434 0.164434 0.164434
0.216915 0.216915 0.216915
0.270390 0.270390 0.270390
0.345790 0.345790 0.345790
0.407185 0.407185 0.407185
0.459002 0.459002 0.459002
0.516615 0.516615 0.516615
0.581429 0.581429 0.581429
0.627647 0.627647 0.627647
0.670307 0.670307 0.670307
0.716316 0.716316 0.716316
0.763630 0.763630 0.763630
0.801039 0.801039 0.801039
0.837804 0.837804 0.837804
0.876418 0.876418 0.876418
0.903699 0.903699 0.903699
0.926971 0.926971 0.926971
0.942969 0.942969 0.942969
0.954893 0.954893 0.954893
0.965169 0.965169 0.965169
0.969802 0.969802 0.969802
0.980149 0.980149 0.980149
0.979611 0.979611 0.979611
0.978262 0.978262 0.978262
0.976856 0.976856 0.976856
0.975399 0.975399 0.975399
0.093932 0.093932 0.093932
0.093942 0.093942 0.093942
0.093978 0.093978 0.093978
0.094092 0.094092 0.094092
0.094691 0.094691 0.094691
0.099357 0.099357 0.099357
0.117803 0.117803 0.117803
0.153685 0.153685 0.153685
0.200668 0.200668 0.200668
0.252855 0.252855 0.252855
0.319131 0.319131 0.319131
0.373768 0.373768 0.373768
0.427316 0.427316 0.427316
0.485699 0.485699 0.485699
0.552754 0.552754 0.552754
0.601615 0.601615 0.601615
0.647283 0.647283 0.647283
0.694554 0.694554 0.694554
0.743775 0.743775 0.743775
0.782518 0.782518 0.782518
0.818306 0.818306 0.818306
0.855362 0.855362 0.855362
0.889338 0.889338 0.889338
0.913561 0.913561 0.913561
0.933475 0.933475 0.933475
0.946864 0.946864 0.946864
0.960746 0.960746 0.960746
0.966137 0.966137 0.966137
0.971222 0.971222 0.971222
0.973918 0.973918 0.973918
0.975835 0.975835 0.975835
0.974939 0.974939 0.974939
0.973612 0.973612 0.973612
0.093993 0.093993 0.093993
0.094006 0.094006 0.094006
0.094057 0.094057 0.094057
0.094195 0.094195 0.094195
0.095904 0.095904 0.095904
0.101145 0.101145 0.101145
0.121136 0.121136 0.121136
0.156438 0.156438 0.156438
0.202357 0.202357 0.202357
0.253534 0.253534 0.253534
0.302170 0.302170 0.302170
0.349861 0.349861 0.349861
0.396640 0.396640 0.396640
0.454877 0.454877 0.454877
0.522419 0.522419 0.522419
0.572923 0.572923 0.572923
0.620608 0.620608 0.620608
0.670633 0.670633 0.670633
0.722958 0.722958 0.722958
0.761618 0.761618 0.761618
0.798751 0.798751 0.798751
0.834816 0.834816 0.834816
0.872221 0.872221 0.872221
0.899966 0.899966 0.899966
0.920781 0.920781 0.920781
0.937330 0.937330 0.937330
0.952196 0.952196 0.952196
0.961834 0.961834 0.961834
0.967504 0.967504 0.967504
0.970838 0.970838 0.970838
0.973437 0.973437 0.973437
0.972881 0.972881 0.972881
0.971687 0.971687 0.971687
0.094046 0.094046 0.094046
0.094057 0.094057 0.094057
0.094098 0.094098 0.094098
0.094227 0.094227 0.094227
0.095910 0.095910 0.095910
0.100550 0.100550 0.100550
0.117681 0.117681 0.117681
0.147761 0.147761 0.147761
0.188845 0.188845 0.188845
0.237124 0.237124 0.237124
0.285357 0.285357 0.285357
0.333156 0.333156 0.333156
0.374723 0.374723 0.374723
0.426028 0.426028 0.426028
0.492439 0.492439 0.492439
0.543326 0.543326 0.543326
0.592628 0.592628 0.592628
0.645221 0.645221 0.645221
0.699468 0.699468 0.699468
0.739804 0.739804 0.739804
0.779883 0.779883 0.779883
0.815625 0.815625 0.815625
0.851656 0.851656 0.851656
0.885855 0.885855 0.885855
0.907932 0.907932 0.907932
0.926918 0.926918 0.926918
0.943616 0.943616 0.943616
0.953953 0.953953 0.953953
0.962996 0.962996 0.962996
0.967197 0.967197 0.967197
0.970641 0.970641 0.970641
0.970717 0.970717 0.970717
0.969655 0.969655 0.969655
0.094082 0.094082 0.094082
0.094091 0.094091 0.094091
0.094132 0.094132 0.094132
0.094242 0.094242 0.094242
0.095941 0.095941 0.095941
0.099906 0.099906 0.099906
0.112904 0.112904 0.112904
0.138607 0.138607 0.138607
0.175405 0.175405 0.175405
0.220341 0.220341 0.220341
0.267009 0.267009 0.267009
0.310660 0.310660 0.310660
0.357980 0.357980 0.357980
0.407289 0.407289 0.407289
0.464189 0.464189 0.464189
0.515195 0.515195 0.515195
0.564477 0.564477 0.564477
0.618248 0.618248 0.618248
0.674671 0.674671 0.674671
0.717517 0.717517 0.717517
0.758263 0.758263 0.758263
0.796893 0.796893 0.796893
0.832408 0.832408 0.832408
0.867552 0.867552 0.867552
0.894530 0.894530 0.894530
0.914390 0.914390 0.914390
0.934956 0.934956 0.934956
0.946452 0.946452 0.946452
0.957184 0.957184 0.957184
0.963211 0.963211 0.963211
0.966323 0.966323 0.966323
0.968483 0.968483 0.968483
0.967549 0.967549 0.967549
0.094135 0.094135 0.094135
0.094147 0.094147 0.094147
0.094192 0.094192 0.094192
0.094337 0.094337 0.094337
0.096425 0.096425 0.096425
0.100201 0.100201 0.100201
0.111906 0.111906 0.111906
0.135311 0.135311 0.135311
0.168829 0.168829 0.168829
0.209906 0.209906 0.209906
0.254119 0.254119 0.254119
0.298014 0.298014 0.298014
0.343426 0.343426 0.343426
0.390313 0.390313 0.390313
0.446956 0.446956 0.446956
0.489410 0.489410 0.489410
0.537592 0.537592 0.537592
0.591127 0.591127 0.591127
0.649233 0.649233 0.649233
0.693692 0.693692 0.693692
0.736689 0.736689 0.736689
0.778633 0.778633 0.778633
0.814363 0.814363 0.814363
0.848206 0.848206 0.848206
0.881045 0.881045 0.881045
0.902353 0.902353 0.902353
0.923511 0.923511 0.923511
0.937945 0.937945 0.937945
0.949813 0.949813 0.949813
0.958419 0.958419 0.958419
0.963275 0.963275 0.963275
0.965034 0.965034 0.965034
0.965354 0.965354 0.965354
0.094223 0.094223 0.094223
0.094233 0.094233 0.094233
0.094272 0.094272 0.094272
0.095283 0.095283 0.095283
0.097302 0.097302 0.097302
0.101487 0.101487 0.101487
0.114456 0.114456 0.114456
0.136848 0.136848 0.136848
0.168532 0.168532 0.168532
0.208197 0.208197 0.208197
0.251668 0.251668 0.251668
0.294206 0.294206 0.294206
0.339034 0.339034 0.339034
0.384674 0.384674 0.384674
0.431021 0.431021 0.431021
0.472604 0.472604 0.472604
0.514434 0.514434 0.514434
0.565383 0.565383 0.565383
0.623740 0.623740 0.623740
0.669488 0.669488 0.669488
0.714992 0.714992 0.714992
0.758188 0.758188 0.758188
0.796942 0.796942 0.796942
0.830151 0.830151 0.830151
0.862863 0.862863 0.862863
0.890186 0.890186 0.890186
0.912081 0.912081 0.912081
0.928871 0.928871 0.928871
0.942385 0.942385 0.942385
0.951431 0.951431 0.951431
0.958964 0.958964 0.958964
0.962287 0.962287 0.962287
0.963145 0.963145 0.963145
0.094262 0.094262 0.094262
0.094271 0.094271 0.094271
0.094635 0.094635 0.094635
0.095607 0.095607 0.095607
0.097322 0.097322 0.097322
0.101395 0.101395 0.101395
0.113690 0.113690 0.113690
0.132340 0.132340 0.132340
0.160984 0.160984 0.160984
0.197055 0.197055 0.197055
0.238093 0.238093 0.238093
0.279929 0.279929 0.279929
0.322124 0.322124 0.322124
0.366811 0.366811 0.366811
0.412550 0.412550 0.412550
0.456794 0.456794 0.456794
0.498009 0.498009 0.498009
0.544180 0.544180 0.544180
0.599004 0.599004 0.599004
0.646063 0.646063 0.646063
0.692042 0.692042 0.692042
0.737731 0.737731 0.737731
0.779974 0.779974 0.779974
0.813381 0.813381 0.813381
0.845676 0.845676 0.845676
0.876765 0.876765 0.876765
0.900702 0.900702 0.900702
0.918432 0.918432 0.918432
0.935051 0.935051 0.935051
0.945220 0.945220 0.945220
0.953155 0.953155 0.953155
0.957773 0.957773 0.957773
0.960486 0.960486 0.960486
0.094481 0.094481 0.094481
0.094598 0.094598 0.094598
0.095030 0.095030 0.095030
0.095880 0.095880 0.095880
0.097368 0.097368 0.097368
0.101433 0.101433 0.101433
0.110894 0.110894 0.110894
0.127894 0.127894 0.127894
0.154341 0.154341 0.154341
0.186755 0.186755 0.186755
0.225612 0.225612 0.225612
0.266611 0.266611 0.266611
0.306561 0.306561 0.306561
0.349115 0.349115 0.349115
0.393816 0.393816 0.393816
0.438118 0.438118 0.438118
0.482310 0.482310 0.482310
0.528222 0.528222 0.528222
0.579585 0.579585 0.579585
0.622456 0.622456 0.622456
0.669809 0.669809 0.669809
0.717405 0.717405 0.717405
0.760926 0.760926 0.760926
0.797238 0.797238 0.797238
0.829711 0.829711 0.829711
0.860920 0.860920 0.860920
0.889723 0.889723 0.889723
0.908068 0.908068 0.908068
0.925781 0.925781 0.925781
0.938500 0.938500 0.938500
0.947485 0.947485 0.947485
0.953109 0.953109 0.953109
0.955959 0.955959 0.955959
0.095052 0.095052 0.095052
0.095157 0.095157 0.095157
0.095544 0.095544 0.095544
0.096298 0.096298 0.096298
0.097655 0.097655 0.097655
0.102073 0.102073 0.102073
0.110459 0.110459 0.110459
0.127285 0.127285 0.127285
0.151206 0.151206 0.151206
0.180625 0.180625 0.180625
0.217835 0.217835 0.217835
0.256757 0.256757 0.256757
0.296384 0.296384 0.296384
0.337256 0.337256 0.337256
0.380531 0.380531 0.380531
0.424534 0.424534 0.424534
0.468131 0.468131 0.468131
0.512776 0.512776 0.512776
0.563895 0.563895 0.563895
0.604954 0.604954 0.604954
0.648118 0.648118 0.648118
0.696566 0.696566 0.696566
0.742035 0.742035 0.742035
0.781441 0.781441 0.781441
0.814737 0.814737 0.814737
0.846147 0.846147 0.846147
0.878006 0.878006 0.878006
0.898116 0.898116 0.898116
0.916559 0.916559 0.916559
0.931487 0.931487 0.931487
0.941881 0.941881 0.941881
0.948079 0.948079 0.948079
0.951928 0.951928 0.951928
0.095746 0.095746 0.095746
0.095841 0.095841 0.095841
0.096192 0.096192 0.096192
0.096871 0.096871 0.096871
0.098279 0.098279 0.098279
0.103071 0.103071 0.103071
0.112010 0.112010 0.112010
0.127716 0.127716 0.127716
0.149861 0.149861 0.149861
0.179045 0.179045 0.179045
0.215146 0.215146 0.215146
0.252550 0.252550 0.252550
0.290506 0.290506 0.290506
0.330485 0.330485 0.330485
0.372495 0.372495 0.372495
0.417343 0.417343 0.417343
0.459747 0.459747 0.459747
0.503849 0.503849 0.503849
0.548447 0.548447 0.548447
0.589641 0.589641 0.589641
0.632407 0.632407 0.632407
0.676228 0.676228 0.676228
0.723594 0.723594 0.723594
0.764288 0.764288 0.764288
0.800159 0.800159 0.800159
0.832314 0.832314 0.832314
0.863974 0.863974 0.863974
0.888842 0.888842 0.888842
0.907661 0.907661 0.907661
0.923440 0.923440 0.923440
0.936443 0.936443 0.936443
0.943575 0.943575 0.943575
0.947890 0.947890 0.947890
0.095866 0.095866 0.095866
0.095953 0.095953 0.095953
0.096274 0.096274 0.096274
0.096891 0.096891 0.096891
0.098067 0.098067 0.098067
0.101916 0.101916 0.101916
0.110481 0.110481 0.110481
0.123612 0.123612 0.123612
0.144514 0.144514 0.144514
0.171337 0.171337 0.171337
0.202277 0.202277 0.202277
0.238551 0.238551 0.238551
0.276933 0.276933 0.276933
0.314640 0.314640 0.314640
0.355965 0.355965 0.355965
0.399455 0.399455 0.399455
0.441992 0.441992 0.441992
0.485543 0.485543 0.485543
0.529574 0.529574 0.529574
0.574489 0.574489 0.574489
0.617512 0.617512 0.617512
0.662383 0.662383 0.662383
0.705755 0.705755 0.705755
0.747253 0.747253 0.747253
0.786313 0.786313 0.786313
0.819103 0.819103 0.819103
0.850897 0.850897 0.850897
0.878942 0.878942 0.878942
0.899123 0.899123 0.899123
0.915707 0.915707 0.915707
0.929964 0.929964 0.929964
0.938953 0.938953 0.938953
0.944079 0.944079 0.944079
0.095972 0.095972 0.095972
0.096052 0.096052 0.096052
0.096348 0.096348 0.096348
0.096914 0.096914 0.096914
0.097988 0.097988 0.097988
0.101353 0.101353 0.101353
0.109495 0.109495 0.109495
0.120755 0.120755 0.120755
0.141119 0.141119 0.141119
0.163213 0.163213 0.163213
0.193363 0.193363 0.193363
0.229442 0.229442 0.229442
0.266161 0.266161 0.266161
0.301757 0.301757 0.301757
0.342025 0.342025 0.342025
0.384087 0.384087 0.384087
0.426494 0.426494 0.426494
0.468937 0.468937 0.468937
0.513502 0.513502 0.513502
0.557418 0.557418 0.557418
0.602657 0.602657 0.602657
0.648399 0.648399 0.648399
0.692767 0.692767 0.692767
0.731986 0.731986 0.731986
0.771802 0.771802 0.771802
0.806662 0.806662 0.806662
0.838830 0.838830 0.838830
0.867214 0.867214 0.867214
0.891248 0.891248 0.891248
0.908078 0.908078 0.908078
0.923279 0.923279 0.923279
0.934426 0.934426 0.934426
0.940392 0.940392 0.940392
0.096114 0.096114 0.096114
0.096189 0.096189 0.096189
0.096463 0.096463 0.096463
0.096991 0.096991 0.096991
0.097989 0.097989 0.097989
0.101044 0.101044 0.101044
0.108448 0.108448 0.108448
0.119171 0.119171 0.119171
0.136029 0.136029 0.136029
0.158577 0.158577 0.158577
0.187550 0.187550 0.187550
0.219876 0.219876 0.219876
0.255419 0.255419 0.255419
0.291987 0.291987 0.291987
0.330647 0.330647 0.330647
0.371392 0.371392 0.371392
0.414101 0.414101 0.414101
0.455897 0.455897 0.455897
0.499548 0.499548 0.499548
0.544389 0.544389 0.544389
0.588617 0.588617 0.588617
0.633940 0.633940 0.633940
0.679441 0.679441 0.679441
0.720525 0.720525 0.720525
0.758485 0.758485 0.758485
0.794449 0.794449 0.794449
0.827573 0.827573 0.827573
0.856546 0.856546 0.856546
0.884261 0.884261 0.884261
0.900987 0.900987 0.900987
0.917164 0.917164 0.917164
0.928961 0.928961 0.928961
0.936840 0.936840 0.936840
0.096099 0.096099 0.096099
0.096169 0.096169 0.096169
0.096427 0.096427 0.096427
0.096919 0.096919 0.096919
0.097838 0.097838 0.097838
0.100479 0.100479 0.100479
0.106638 0.106638 0.106638
0.117340 0.117340 0.117340
0.131419 0.131419 0.131419
0.154644 0.154644 0.154644
0.179068 0.179068 0.179068
0.211912 0.211912 0.211912
0.247179 0.247179 0.247179
0.282110 0.282110 0.282110
0.318680 0.318680 0.318680
0.358749 0.358749 0.358749
0.401311 0.401311 0.401311
0.443410 0.443410 0.443410
0.486618 0.486618 0.486618
0.531104 0.531104 0.531104
0.575978 0.575978 0.575978
0.620957 0.620957 0.620957
0.665793 0.665793 0.665793
0.708350 0.708350 0.708350
0.747935 0.747935 0.747935
0.784508 0.784508 0.784508
0.816769 0.816769 0.816769
0.846619 0.846619 0.846619
0.875411 0.875411 0.875411
0.894655 0.894655 0.894655
0.911021 0.911021 0.911021
0.923741 0.923741 0.923741
0.933006 0.933006 0.933006
0.095649 0.095649 0.095649
0.095716 0.095716 0.095716
0.095961 0.095961 0.095961
0.096427 0.096427 0.096427
0.097199 0.097199 0.097199
0.098932 0.098932 0.098932
0.103417 0.103417 0.103417
0.113383 0.113383 0.113383
0.125060 0.125060 0.125060
0.145964 0.145964 0.145964
0.168798 0.168798 0.168798
0.200083 0.200083 0.200083
0.232033 0.232033 0.232033
0.269230 0.269230 0.269230
0.305183 0.305183 0.305183
0.343717 0.343717 0.343717
0.384586 0.384586 0.384586
0.427154 0.427154 0.427154
0.470001 0.470001 0.470001
0.514417 0.514417 0.514417
0.559589 0.559589 0.559589
0.604827 0.604827 0.604827
0.650718 0.650718 0.650718
0.695546 0.695546 0.695546
0.736963 0.736963 0.736963
0.775766 0.775766 0.775766
0.808636 0.808636 0.808636
0.837278 0.837278 0.837278
0.866713 0.866713 0.866713
0.889162 0.889162 0.889162
0.905410 0.905410 0.905410
0.919017 0.919017 0.919017
0.928938 0.928938 0.928938
0.095196 0.095196 0.095196
0.095261 0.095261 0.095261
0.095494 0.095494 0.095494
0.095937 0.095937 0.095937
0.096634 0.096634 0.096634
0.097780 0.097780 0.097780
0.101078 0.101078 0.101078
0.109893 0.109893 0.109893
0.120101 0.120101 0.120101
0.136973 0.136973 0.136973
0.160696 0.160696 0.160696
0.187029 0.187029 0.187029
0.220825 0.220825 0.220825
0.256338 0.256338 0.256338
0.290694 0.290694 0.290694
0.329076 0.329076 0.329076
0.370124 0.370124 0.370124
0.413502 0.413502 0.413502
0.455529 0.455529 0.455529
0.499587 0.499587 0.499587
0.544361 0.544361 0.544361
0.589826 0.589826 0.589826
0.635833 0.635833 0.635833
0.681407 0.681407 0.681407
0.725640 0.725640 0.725640
0.765721 0.765721 0.765721
0.801624 0.801624 0.801624
0.830783 0.830783 0.830783
0.858854 0.858854 0.858854
0.884427 0.884427 0.884427
0.900539 0.900539 0.900539
0.914566 0.914566 0.914566
0.925135 0.925135 0.925135
0.094575 0.094575 0.094575
0.094637 0.094637 0.094637
0.094862 0.094862 0.094862
0.095289 0.095289 0.095289
0.095958 0.095958 0.095958
0.096929 0.096929 0.096929
0.099059 0.099059 0.099059
0.105261 0.105261 0.105261
0.115146 0.115146 0.115146
0.128637 0.128637 0.128637
0.153392 0.153392 0.153392
0.176070 0.176070 0.176070
0.210632 0.210632 0.210632
0.241928 0.241928 0.241928
0.279417 0.279417 0.279417
0.316012 0.316012 0.316012
0.355337 0.355337 0.355337
0.397922 0.397922 0.397922
0.440745 0.440745 0.440745
0.484711 0.484711 0.484711
0.529828 0.529828 0.529828
0.575635 0.575635 0.575635
0.621986 0.621986 0.621986
0.667891 0.667891 0.667891
0.713365 0.713365 0.713365
0.755304 0.755304 0.755304
0.794330 0.794330 0.794330
0.824985 0.824985 0.824985
0.854165 0.854165 0.854165
0.878998 0.878998 0.878998
0.896312 0.896312 0.896312
0.910390 0.910390 0.910390
0.921930 0.921930 0.921930
0.094181 0.094181 0.094181
0.094186 0.094186 0.094186
0.094202 0.094202 0.094202
0.094232 0.094232 0.094232
0.094289 0.094289 0.094289
0.095235 0.095235 0.095235
0.096608 0.096608 0.096608
0.099653 0.099653 0.099653
0.107005 0.107005 0.107005
0.117936 0.117936 0.117936
0.136998 0.136998 0.136998
0.161088 0.161088 0.161088
0.189631 0.189631 0.189631
0.224812 0.224812 0.224812
0.261743 0.261743 0.261743
0.297033 0.297033 0.297033
0.338046 0.338046 0.338046
0.380039 0.380039 0.380039
0.423003 0.423003 0.423003
0.466605 0.466605 0.466605
0.512309 0.512309 0.512309
0.558871 0.558871 0.558871
0.606431 0.606431 0.606431
0.654189 0.654189 0.654189
0.700987 0.700987 0.700987
