LUTs/trix_modern/TriX_Yellow8_ExtraSoft.cube
TITLE "Tri-X Yellow8 ExtraSoft"
# Adobe RGB in/out. REPLACES AgX. Tri-X Yellow8 ExtraSoft.
LUT_3D_SIZE 5
DOMAIN_MIN 0.0 0.0 0.0
DOMAIN_MAX 1.0 1.0 1.0
0.099726 0.099726 0.099726
0.217313 0.217313 0.217313
0.472624 0.472624 0.472624
0.735888 0.735888 0.735888
0.851099 0.851099 0.851099
0.285043 0.285043 0.285043
0.279017 0.279017 0.279017
0.478784 0.478784 0.478784
0.709151 0.709151 0.709151
0.830570 0.830570 0.830570
0.536498 0.536498 0.536498
0.515931 0.515931 0.515931
0.549429 0.549429 0.549429
0.708042 0.708042 0.708042
0.833145 0.833145 0.833145
0.733051 0.733051 0.733051
0.724004 0.724004 0.724004
0.730963 0.730963 0.730963
0.789026 0.789026 0.789026
0.859575 0.859575 0.859575
0.790303 0.790303 0.790303
0.826269 0.826269 0.826269
0.842114 0.842114 0.842114
0.867201 0.867201 0.867201
0.908310 0.908310 0.908310
0.110706 0.110706 0.110706
0.226910 0.226910 0.226910
0.459441 0.459441 0.459441
0.723061 0.723061 0.723061
0.843395 0.843395 0.843395
0.267211 0.267211 0.267211
0.255950 0.255950 0.255950
0.442953 0.442953 0.442953
0.697230 0.697230 0.697230
0.822960 0.822960 0.822960
0.527850 0.527850 0.527850
0.504347 0.504347 0.504347
0.530455 0.530455 0.530455
0.693098 0.693098 0.693098
0.827298 0.827298 0.827298
0.732457 0.732457 0.732457
0.723087 0.723087 0.723087
0.727958 0.727958 0.727958
0.785629 0.785629 0.785629
0.857804 0.857804 0.857804
0.802847 0.802847 0.802847
0.836982 0.836982 0.836982
0.843523 0.843523 0.843523
0.868647 0.868647 0.868647
0.908684 0.908684 0.908684
0.225877 0.225877 0.225877
0.321036 0.321036 0.321036
0.534174 0.534174 0.534174
0.740639 0.740639 0.740639
0.839956 0.839956 0.839956
0.365346 0.365346 0.365346
0.391711 0.391711 0.391711
0.506062 0.506062 0.506062
0.711278 0.711278 0.711278
0.818336 0.818336 0.818336
0.505980 0.505980 0.505980
0.490903 0.490903 0.490903
0.504596 0.504596 0.504596
0.687773 0.687773 0.687773
0.823307 0.823307 0.823307
0.722465 0.722465 0.722465
0.715493 0.715493 0.715493
0.720881 0.720881 0.720881
0.774945 0.774945 0.774945
0.854842 0.854842 0.854842
0.827733 0.827733 0.827733
0.832230 0.832230 0.832230
0.844441 0.844441 0.844441
0.871117 0.871117 0.871117
0.909818 0.909818 0.909818
0.341900 0.341900 0.341900
0.395991 0.395991 0.395991
0.601039 0.601039 0.601039
0.789471 0.789471 0.789471
0.848865 0.848865 0.848865
0.447595 0.447595 0.447595
0.499964 0.499964 0.499964
0.623315 0.623315 0.623315
0.764549 0.764549 0.764549
0.826373 0.826373 0.826373
0.549725 0.549725 0.549725
0.554183 0.554183 0.554183
0.609624 0.609624 0.609624
0.730919 0.730919 0.730919
0.834805 0.834805 0.834805
0.712616 0.712616 0.712616
0.710258 0.710258 0.710258
0.721339 0.721339 0.721339
0.765056 0.765056 0.765056
0.857512 0.857512 0.857512
0.817053 0.817053 0.817053
0.824480 0.824480 0.824480
0.842353 0.842353 0.842353
0.871973 0.871973 0.871973
0.912499 0.912499 0.912499
0.469130 0.469130 0.469130
0.499458 0.499458 0.499458
0.706149 0.706149 0.706149
0.857473 0.857473 0.857473
0.867808 0.867808 0.867808
0.551066 0.551066 0.551066
0.580394 0.580394 0.580394
0.746408 0.746408 0.746408
0.837676 0.837676 0.837676
0.853090 0.853090 0.853090
0.663519 0.663519 0.663519
0.671635 0.671635 0.671635
0.720557 0.720557 0.720557
0.808338 0.808338 0.808338
0.865868 0.865868 0.865868
0.729052 0.729052 0.729052
0.732833 0.732833 0.732833
0.759908 0.759908 0.759908
0.814462 0.814462 0.814462
0.876249 0.876249 0.876249
0.797500 0.797500 0.797500
0.816461 0.816461 0.816461
0.842516 0.842516 0.842516
0.874121 0.874121 0.874121
0.917860 0.917860 0.917860
