LUTs/trix_modern/TriX_NoFilter_Normal.cube
TITLE "Tri-X NoFilter Normal"
# Adobe RGB in/out. REPLACES AgX. Tri-X NoFilter Normal.
LUT_3D_SIZE 5
DOMAIN_MIN 0.0 0.0 0.0
DOMAIN_MAX 1.0 1.0 1.0
0.093230 0.093230 0.093230
0.106034 0.106034 0.106034
0.321660 0.321660 0.321660
0.538432 0.538432 0.538432
0.838451 0.838451 0.838451
0.150301 0.150301 0.150301
0.144640 0.144640 0.144640
0.326714 0.326714 0.326714
0.513438 0.513438 0.513438
0.818670 0.818670 0.818670
0.378662 0.378662 0.378662
0.361538 0.361538 0.361538
0.388021 0.388021 0.388021
0.514891 0.514891 0.514891
0.690235 0.690235 0.690235
0.541471 0.541471 0.541471
0.533851 0.533851 0.533851
0.539705 0.539705 0.539705
0.593097 0.593097 0.593097
0.681380 0.681380 0.681380
0.595582 0.595582 0.595582
0.636959 0.636959 0.636959
0.660848 0.660848 0.660848
0.692848 0.692848 0.692848
0.753584 0.753584 0.753584
0.221484 0.221484 0.221484
0.561254 0.561254 0.561254
0.515356 0.515356 0.515356
0.675791 0.675791 0.675791
0.831037 0.831037 0.831037
0.233732 0.233732 0.233732
0.204394 0.204394 0.204394
0.375189 0.375189 0.375189
0.569120 0.569120 0.569120
0.811336 0.811336 0.811336
0.420749 0.420749 0.420749
0.395498 0.395498 0.395498
0.406831 0.406831 0.406831
0.530491 0.530491 0.530491
0.745807 0.745807 0.745807
0.566916 0.566916 0.566916
0.557697 0.557697 0.557697
0.558646 0.558646 0.558646
0.607688 0.607688 0.607688
0.694959 0.694959 0.694959
0.631117 0.631117 0.631117
0.668940 0.668940 0.668940
0.673384 0.673384 0.673384
0.705138 0.705138 0.705138
0.762744 0.762744 0.762744
0.585827 0.585827 0.585827
0.838740 0.838740 0.838740
0.859550 0.859550 0.859550
0.846054 0.846054 0.846054
0.877107 0.877107 0.877107
0.617847 0.617847 0.617847
0.714678 0.714678 0.714678
0.727950 0.727950 0.727950
0.794092 0.794092 0.794092
0.850417 0.850417 0.850417
0.533802 0.533802 0.533802
0.515696 0.515696 0.515696
0.508013 0.508013 0.508013
0.660064 0.660064 0.660064
0.817048 0.817048 0.817048
0.645270 0.645270 0.645270
0.635410 0.635410 0.635410
0.630377 0.630377 0.630377
0.669686 0.669686 0.669686
0.786543 0.786543 0.786543
0.729748 0.729748 0.729748
0.731328 0.731328 0.731328
0.724831 0.724831 0.724831
0.752585 0.752585 0.752585
0.800869 0.800869 0.800869
0.895027 0.895027 0.895027
0.945364 0.945364 0.945364
0.955745 0.955745 0.955745
0.943663 0.943663 0.943663
0.921339 0.921339 0.921339
0.913733 0.913733 0.913733
0.945564 0.945564 0.945564
0.934770 0.934770 0.934770
0.912577 0.912577 0.912577
0.902701 0.902701 0.902701
0.780721 0.780721 0.780721
0.792320 0.792320 0.792320
0.804522 0.804522 0.804522
0.835161 0.835161 0.835161
0.880312 0.880312 0.880312
0.758849 0.758849 0.758849
0.757086 0.757086 0.757086
0.763783 0.763783 0.763783
0.782937 0.782937 0.782937
0.860997 0.860997 0.860997
0.762575 0.762575 0.762575
0.765947 0.765947 0.765947
0.790491 0.790491 0.790491
0.810024 0.810024 0.810024
0.880003 0.880003 0.880003
0.978643 0.978643 0.978643
0.979031 0.979031 0.979031
0.982238 0.982238 0.982238
0.978844 0.978844 0.978844
0.961051 0.961051 0.961051
0.979743 0.979743 0.979743
0.980198 0.980198 0.980198
0.982119 0.982119 0.982119
0.972738 0.972738 0.972738
0.953614 0.953614 0.953614
0.956512 0.956512 0.956512
0.952703 0.952703 0.952703
0.945066 0.945066 0.945066
0.941293 0.941293 0.941293
0.940735 0.940735 0.940735
0.909467 0.909467 0.909467
0.905718 0.905718 0.905718
0.899134 0.899134 0.899134
0.903233 0.903233 0.903233
0.920658 0.920658 0.920658
0.825610 0.825610 0.825610
0.847566 0.847566 0.847566
0.886967 0.886967 0.886967
0.914448 0.914448 0.914448
0.932292 0.932292 0.932292
