LUTs/trix_modern/TriX_Red25_ExtraSoft.cube
TITLE "Tri-X Red25 ExtraSoft"
# Adobe RGB in/out. REPLACES AgX. Tri-X Red25 ExtraSoft.
LUT_3D_SIZE 33
DOMAIN_MIN 0.0 0.0 0.0
DOMAIN_MAX 1.0 1.0 1.0
0.099726 0.099726 0.099726
0.099726 0.099726 0.099726
0.099726 0.099726 0.099726
0.102940 0.102940 0.102940
0.151154 0.151154 0.151154
0.182080 0.182080 0.182080
0.239237 0.239237 0.239237
0.302529 0.302529 0.302529
0.332611 0.332611 0.332611
0.374148 0.374148 0.374148
0.441666 0.441666 0.441666
0.496385 0.496385 0.496385
0.542952 0.542952 0.542952
0.604320 0.604320 0.604320
0.685209 0.685209 0.685209
0.738268 0.738268 0.738268
0.787767 0.787767 0.787767
0.830582 0.830582 0.830582
0.870308 0.870308 0.870308
0.899813 0.899813 0.899813
0.926026 0.926026 0.926026
0.943518 0.943518 0.943518
0.959263 0.959263 0.959263
0.969214 0.969214 0.969214
0.976166 0.976166 0.976166
0.981971 0.981971 0.981971
0.985817 0.985817 0.985817
0.986457 0.986457 0.986457
0.987774 0.987774 0.987774
0.987173 0.987173 0.987173
0.986573 0.986573 0.986573
0.985974 0.985974 0.985974
0.985376 0.985376 0.985376
0.099726 0.099726 0.099726
0.099726 0.099726 0.099726
0.100277 0.100277 0.100277
0.105609 0.105609 0.105609
0.161583 0.161583 0.161583
0.188748 0.188748 0.188748
0.243660 0.243660 0.243660
0.305552 0.305552 0.305552
0.334715 0.334715 0.334715
0.375522 0.375522 0.375522
0.442558 0.442558 0.442558
0.496620 0.496620 0.496620
0.542700 0.542700 0.542700
0.603539 0.603539 0.603539
0.684113 0.684113 0.684113
0.736900 0.736900 0.736900
0.786616 0.786616 0.786616
0.829368 0.829368 0.829368
0.869401 0.869401 0.869401
0.898907 0.898907 0.898907
0.925393 0.925393 0.925393
0.942939 0.942939 0.942939
0.958946 0.958946 0.958946
0.968926 0.968926 0.968926
0.975913 0.975913 0.975913
0.981747 0.981747 0.981747
0.985766 0.985766 0.985766
0.986413 0.986413 0.986413
0.987742 0.987742 0.987742
0.987143 0.987143 0.987143
0.986545 0.986545 0.986545
0.985949 0.985949 0.985949
0.985353 0.985353 0.985353
0.099726 0.099726 0.099726
0.099726 0.099726 0.099726
0.099726 0.099726 0.099726
0.103800 0.103800 0.103800
0.164210 0.164210 0.164210
0.203836 0.203836 0.203836
0.258607 0.258607 0.258607
0.321300 0.321300 0.321300
0.344861 0.344861 0.344861
0.382069 0.382069 0.382069
0.447210 0.447210 0.447210
0.498414 0.498414 0.498414
0.542471 0.542471 0.542471
0.601271 0.601271 0.601271
0.680518 0.680518 0.680518
0.732236 0.732236 0.732236
0.782030 0.782030 0.782030
0.825091 0.825091 0.825091
0.866184 0.866184 0.866184
0.895673 0.895673 0.895673
0.922744 0.922744 0.922744
0.940864 0.940864 0.940864
0.957810 0.957810 0.957810
0.967892 0.967892 0.967892
0.975000 0.975000 0.975000
0.980941 0.980941 0.980941
0.985579 0.985579 0.985579
0.986255 0.986255 0.986255
0.987625 0.987625 0.987625
0.987037 0.987037 0.987037
0.986448 0.986448 0.986448
0.985859 0.985859 0.985859
0.985270 0.985270 0.985270
0.099726 0.099726 0.099726
0.099726 0.099726 0.099726
0.099726 0.099726 0.099726
0.101094 0.101094 0.101094
0.129299 0.129299 0.129299
0.180563 0.180563 0.180563
0.250570 0.250570 0.250570
0.321916 0.321916 0.321916
0.353140 0.353140 0.353140
0.391575 0.391575 0.391575
0.459835 0.459835 0.459835
0.505724 0.505724 0.505724
0.544877 0.544877 0.544877
0.599305 0.599305 0.599305
0.674679 0.674679 0.674679
0.724674 0.724674 0.724674
0.773358 0.773358 0.773358
0.817577 0.817577 0.817577
0.860424 0.860424 0.860424
0.889809 0.889809 0.889809
0.917138 0.917138 0.917138
0.937054 0.937054 0.937054
0.954605 0.954605 0.954605
0.965983 0.965983 0.965983
0.973317 0.973317 0.973317
0.979455 0.979455 0.979455
0.985235 0.985235 0.985235
0.985964 0.985964 0.985964
0.987414 0.987414 0.987414
0.986843 0.986843 0.986843
0.986270 0.986270 0.986270
0.985696 0.985696 0.985696
0.985119 0.985119 0.985119
0.099726 0.099726 0.099726
0.099726 0.099726 0.099726
0.099726 0.099726 0.099726
0.101561 0.101561 0.101561
0.113869 0.113869 0.113869
0.150355 0.150355 0.150355
0.220094 0.220094 0.220094
0.298461 0.298461 0.298461
0.342072 0.342072 0.342072
0.388323 0.388323 0.388323
0.460336 0.460336 0.460336
0.505768 0.505768 0.505768
0.545466 0.545466 0.545466
0.598623 0.598623 0.598623
0.669550 0.669550 0.669550
0.715874 0.715874 0.715874
0.762061 0.762061 0.762061
0.807194 0.807194 0.807194
0.850830 0.850830 0.850830
0.881225 0.881225 0.881225
0.908761 0.908761 0.908761
0.931360 0.931360 0.931360
0.949360 0.949360 0.949360
0.963101 0.963101 0.963101
0.970777 0.970777 0.970777
0.977213 0.977213 0.977213
0.984714 0.984714 0.984714
0.985525 0.985525 0.985525
0.987105 0.987105 0.987105
0.986560 0.986560 0.986560
0.986010 0.986010 0.986010
0.985455 0.985455 0.985455
0.984898 0.984898 0.984898
0.099726 0.099726 0.099726
0.099726 0.099726 0.099726
0.099816 0.099816 0.099816
0.101260 0.101260 0.101260
0.107272 0.107272 0.107272
0.135365 0.135365 0.135365
0.189971 0.189971 0.189971
0.265397 0.265397 0.265397
0.313936 0.313936 0.313936
0.369482 0.369482 0.369482
0.441217 0.441217 0.441217
0.496239 0.496239 0.496239
0.539605 0.539605 0.539605
0.590905 0.590905 0.590905
0.657959 0.657959 0.657959
0.704487 0.704487 0.704487
0.749040 0.749040 0.749040
0.794853 0.794853 0.794853
0.836934 0.836934 0.836934
0.869952 0.869952 0.869952
0.897533 0.897533 0.897533
0.923361 0.923361 0.923361
0.942183 0.942183 0.942183
0.959124 0.959124 0.959124
0.967276 0.967276 0.967276
0.974127 0.974127 0.974127
0.982493 0.982493 0.982493
0.984922 0.984922 0.984922
0.986700 0.986700 0.986700
0.986187 0.986187 0.986187
0.985666 0.985666 0.985666
0.985139 0.985139 0.985139
0.984605 0.984605 0.984605
0.099726 0.099726 0.099726
0.099726 0.099726 0.099726
0.100395 0.100395 0.100395
0.101745 0.101745 0.101745
0.108898 0.108898 0.108898
0.136401 0.136401 0.136401
0.176967 0.176967 0.176967
0.235030 0.235030 0.235030
0.282679 0.282679 0.282679
0.340666 0.340666 0.340666
0.410667 0.410667 0.410667
0.472291 0.472291 0.472291
0.521603 0.521603 0.521603
0.575735 0.575735 0.575735
0.644016 0.644016 0.644016
0.692497 0.692497 0.692497
0.733699 0.733699 0.733699
0.780293 0.780293 0.780293
0.822022 0.822022 0.822022
0.857378 0.857378 0.857378
0.883890 0.883890 0.883890
0.909835 0.909835 0.909835
0.932779 0.932779 0.932779
0.951486 0.951486 0.951486
0.962638 0.962638 0.962638
0.970045 0.970045 0.970045
0.978796 0.978796 0.978796
0.982992 0.982992 0.982992
0.986203 0.986203 0.986203
0.985729 0.985729 0.985729
0.985244 0.985244 0.985244
0.984748 0.984748 0.984748
0.983452 0.983452 0.983452
0.100122 0.100122 0.100122
0.100298 0.100298 0.100298
0.101020 0.101020 0.101020
0.103232 0.103232 0.103232
0.111558 0.111558 0.111558
0.141192 0.141192 0.141192
0.179595 0.179595 0.179595
0.221725 0.221725 0.221725
0.255941 0.255941 0.255941
0.309826 0.309826 0.309826
0.381346 0.381346 0.381346
0.437363 0.437363 0.437363
0.493741 0.493741 0.493741
0.552900 0.552900 0.552900
0.623031 0.623031 0.623031
0.673999 0.673999 0.673999
0.716153 0.716153 0.716153
0.762531 0.762531 0.762531
0.806402 0.806402 0.806402
0.840748 0.840748 0.840748
0.871022 0.871022 0.871022
0.896920 0.896920 0.896920
0.922433 0.922433 0.922433
0.941091 0.941091 0.941091
0.955921 0.955921 0.955921
0.964659 0.964659 0.964659
0.973827 0.973827 0.973827
0.978918 0.978918 0.978918
0.985624 0.985624 0.985624
0.985194 0.985194 0.985194
0.984749 0.984749 0.984749
0.983628 0.983628 0.983628
0.981813 0.981813 0.981813
0.100448 0.100448 0.100448
0.100578 0.100578 0.100578
0.101092 0.101092 0.101092
0.103007 0.103007 0.103007
0.109043 0.109043 0.109043
0.129527 0.129527 0.129527
0.164702 0.164702 0.164702
0.201959 0.201959 0.201959
0.242602 0.242602 0.242602
0.285585 0.285585 0.285585
0.352325 0.352325 0.352325
0.403509 0.403509 0.403509
0.459068 0.459068 0.459068
0.522934 0.522934 0.522934
0.594268 0.594268 0.594268
0.648302 0.648302 0.648302
0.696278 0.696278 0.696278
0.743534 0.743534 0.743534
0.790539 0.790539 0.790539
0.823164 0.823164 0.823164
0.856645 0.856645 0.856645
0.882729 0.882729 0.882729
0.908768 0.908768 0.908768
0.931580 0.931580 0.931580
0.947262 0.947262 0.947262
0.959392 0.959392 0.959392
0.968210 0.968210 0.968210
0.973525 0.973525 0.973525
0.984972 0.984972 0.984972
0.984591 0.984591 0.984591
0.983242 0.983242 0.983242
0.981626 0.981626 0.981626
0.979952 0.979952 0.979952
0.100895 0.100895 0.100895
0.100997 0.100997 0.100997
0.101374 0.101374 0.101374
0.103539 0.103539 0.103539
0.109176 0.109176 0.109176
0.127074 0.127074 0.127074
0.158428 0.158428 0.158428
0.192968 0.192968 0.192968
0.230852 0.230852 0.230852
0.271653 0.271653 0.271653
0.329741 0.329741 0.329741
0.376038 0.376038 0.376038
0.423167 0.423167 0.423167
0.489584 0.489584 0.489584
0.562200 0.562200 0.562200
0.617798 0.617798 0.617798
0.671504 0.671504 0.671504
0.721187 0.721187 0.721187
0.771722 0.771722 0.771722
0.806156 0.806156 0.806156
0.838983 0.838983 0.838983
0.868554 0.868554 0.868554
0.893722 0.893722 0.893722
0.919105 0.919105 0.919105
0.937106 0.937106 0.937106
0.951663 0.951663 0.951663
0.963351 0.963351 0.963351
0.969321 0.969321 0.969321
0.975156 0.975156 0.975156
0.978252 0.978252 0.978252
0.980453 0.980453 0.980453
0.979424 0.979424 0.979424
0.977900 0.977900 0.977900
0.101532 0.101532 0.101532
0.101796 0.101796 0.101796
0.102830 0.102830 0.102830
0.105639 0.105639 0.105639
0.112966 0.112966 0.112966
0.132560 0.132560 0.132560
0.162226 0.162226 0.162226
0.195295 0.195295 0.195295
0.232091 0.232091 0.232091
0.272191 0.272191 0.272191
0.314489 0.314489 0.314489
0.355843 0.355843 0.355843
0.394885 0.394885 0.394885
0.454374 0.454374 0.454374
0.529228 0.529228 0.529228
0.584387 0.584387 0.584387
0.640035 0.640035 0.640035
0.696612 0.696612 0.696612
0.750354 0.750354 0.750354
0.788914 0.788914 0.788914
0.821065 0.821065 0.821065
0.854074 0.854074 0.854074
0.879912 0.879912 0.879912
0.904856 0.904856 0.904856
0.926317 0.926317 0.926317
0.940895 0.940895 0.940895
0.957566 0.957566 0.957566
0.964386 0.964386 0.964386
0.970889 0.970889 0.970889
0.974715 0.974715 0.974715
0.977699 0.977699 0.977699
0.977060 0.977060 0.977060
0.975690 0.975690 0.975690
0.102600 0.102600 0.102600
0.102818 0.102818 0.102818
0.103656 0.103656 0.103656
0.106295 0.106295 0.106295
0.112984 0.112984 0.112984
0.130720 0.130720 0.130720
0.158289 0.158289 0.158289
0.187915 0.187915 0.187915
0.221629 0.221629 0.221629
0.259080 0.259080 0.259080
0.299257 0.299257 0.299257
0.341448 0.341448 0.341448
0.376829 0.376829 0.376829
0.421715 0.421715 0.421715
0.496987 0.496987 0.496987
0.551938 0.551938 0.551938
0.607308 0.607308 0.607308
0.668999 0.668999 0.668999
0.726233 0.726233 0.726233
0.767647 0.767647 0.767647
0.803732 0.803732 0.803732
0.836529 0.836529 0.836529
0.866047 0.866047 0.866047
0.890075 0.890075 0.890075
0.913204 0.913204 0.913204
0.931536 0.931536 0.931536
0.947993 0.947993 0.947993
0.958756 0.958756 0.958756
0.965719 0.965719 0.965719
0.970536 0.970536 0.970536
0.974489 0.974489 0.974489
0.974576 0.974576 0.974576
0.973357 0.973357 0.973357
0.103324 0.103324 0.103324
0.103508 0.103508 0.103508
0.104348 0.104348 0.104348
0.106739 0.106739 0.106739
0.113082 0.113082 0.113082
0.128742 0.128742 0.128742
0.152815 0.152815 0.152815
0.179742 0.179742 0.179742
0.210910 0.210910 0.210910
0.245423 0.245423 0.245423
0.282791 0.282791 0.282791
0.322138 0.322138 0.322138
0.362840 0.362840 0.362840
0.403594 0.403594 0.403594
0.464978 0.464978 0.464978
0.521395 0.521395 0.521395
0.574978 0.574978 0.574978
0.637268 0.637268 0.637268
0.700762 0.700762 0.700762
0.744768 0.744768 0.744768
0.786202 0.786202 0.786202
0.819361 0.819361 0.819361
0.851875 0.851875 0.851875
0.876774 0.876774 0.876774
0.899161 0.899161 0.899161
0.919974 0.919974 0.919974
0.938363 0.938363 0.938363
0.951198 0.951198 0.951198
0.960943 0.960943 0.960943
0.965964 0.965964 0.965964
0.969534 0.969534 0.969534
0.972012 0.972012 0.972012
0.970940 0.970940 0.970940
0.104402 0.104402 0.104402
0.104647 0.104647 0.104647
0.105572 0.105572 0.105572
0.108087 0.108087 0.108087
0.114726 0.114726 0.114726
0.129647 0.129647 0.129647
0.151668 0.151668 0.151668
0.176752 0.176752 0.176752
0.205567 0.205567 0.205567
0.237453 0.237453 0.237453
0.272655 0.272655 0.272655
0.310734 0.310734 0.310734
0.350280 0.350280 0.350280
0.389691 0.389691 0.389691
0.445378 0.445378 0.445378
0.493755 0.493755 0.493755
0.545704 0.545704 0.545704
0.605559 0.605559 0.605559
0.673874 0.673874 0.673874
0.720300 0.720300 0.720300
0.764449 0.764449 0.764449
0.802628 0.802628 0.802628
0.835374 0.835374 0.835374
0.863710 0.863710 0.863710
0.885828 0.885828 0.885828
0.907357 0.907357 0.907357
0.928639 0.928639 0.928639
0.941589 0.941589 0.941589
0.954996 0.954996 0.954996
0.961778 0.961778 0.961778
0.966038 0.966038 0.966038
0.968055 0.968055 0.968055
0.968422 0.968422 0.968422
0.106212 0.106212 0.106212
0.106440 0.106440 0.106440
0.107717 0.107717 0.107717
0.111015 0.111015 0.111015
0.119235 0.119235 0.119235
0.133626 0.133626 0.133626
0.154598 0.154598 0.154598
0.178149 0.178149 0.178149
0.205325 0.205325 0.205325
0.236246 0.236246 0.236246
0.270712 0.270712 0.270712
0.307289 0.307289 0.307289
0.346473 0.346473 0.346473
0.385049 0.385049 0.385049
0.427347 0.427347 0.427347
0.474585 0.474585 0.474585
0.520570 0.520570 0.520570
0.575966 0.575966 0.575966
0.643712 0.643712 0.643712
0.695436 0.695436 0.695436
0.742175 0.742175 0.742175
0.786142 0.786142 0.786142
0.819406 0.819406 0.819406
0.849813 0.849813 0.849813
0.873617 0.873617 0.873617
0.894610 0.894610 0.894610
0.917553 0.917553 0.917553
0.933195 0.933195 0.933195
0.946603 0.946603 0.946603
0.956826 0.956826 0.956826
0.962146 0.962146 0.962146
0.964905 0.964905 0.964905
0.965889 0.965889 0.965889
0.107392 0.107392 0.107392
0.107693 0.107693 0.107693
0.109004 0.109004 0.109004
0.112029 0.112029 0.112029
0.119335 0.119335 0.119335
0.133340 0.133340 0.133340
0.153718 0.153718 0.153718
0.174037 0.174037 0.174037
0.199104 0.199104 0.199104
0.228052 0.228052 0.228052
0.259861 0.259861 0.259861
0.294314 0.294314 0.294314
0.332317 0.332317 0.332317
0.370264 0.370264 0.370264
0.408097 0.408097 0.408097
0.456554 0.456554 0.456554
0.502934 0.502934 0.502934
0.552867 0.552867 0.552867
0.614748 0.614748 0.614748
0.670021 0.670021 0.670021
0.718607 0.718607 0.718607
0.765518 0.765518 0.765518
0.803816 0.803816 0.803816
0.834475 0.834475 0.834475
0.861994 0.861994 0.861994
0.882961 0.882961 0.882961
0.905627 0.905627 0.905627
0.924213 0.924213 0.924213
0.938443 0.938443 0.938443
0.949805 0.949805 0.949805
0.958216 0.958216 0.958216
0.961341 0.961341 0.961341
0.963175 0.963175 0.963175
0.108531 0.108531 0.108531
0.108890 0.108890 0.108890
0.110227 0.110227 0.110227
0.112888 0.112888 0.112888
0.119577 0.119577 0.119577
0.133458 0.133458 0.133458
0.150485 0.150485 0.150485
0.169880 0.169880 0.169880
0.193524 0.193524 0.193524
0.219978 0.219978 0.219978
0.249740 0.249740 0.249740
0.282481 0.282481 0.282481
0.318448 0.318448 0.318448
0.355198 0.355198 0.355198
0.392568 0.392568 0.392568
0.435366 0.435366 0.435366
0.485697 0.485697 0.485697
0.535525 0.535525 0.535525
0.592124 0.592124 0.592124
0.642205 0.642205 0.642205
0.695766 0.695766 0.695766
0.744652 0.744652 0.744652
0.788355 0.788355 0.788355
0.819677 0.819677 0.819677
0.849411 0.849411 0.849411
0.872307 0.872307 0.872307
0.894126 0.894126 0.894126
0.913347 0.913347 0.913347
0.930569 0.930569 0.930569
0.942215 0.942215 0.942215
0.952365 0.952365 0.952365
0.958184 0.958184 0.958184
0.960114 0.960114 0.960114
0.110297 0.110297 0.110297
0.110623 0.110623 0.110623
0.111831 0.111831 0.111831
0.114214 0.114214 0.114214
0.121086 0.121086 0.121086
0.135424 0.135424 0.135424
0.149905 0.149905 0.149905
0.169193 0.169193 0.169193
0.190861 0.190861 0.190861
0.215104 0.215104 0.215104
0.243360 0.243360 0.243360
0.274740 0.274740 0.274740
0.309260 0.309260 0.309260
0.344931 0.344931 0.344931
0.381631 0.381631 0.381631
0.420033 0.420033 0.420033
0.469475 0.469475 0.469475
0.518774 0.518774 0.518774
0.574343 0.574343 0.574343
0.621700 0.621700 0.621700
0.672518 0.672518 0.672518
0.723253 0.723253 0.723253
0.769936 0.769936 0.769936
0.805166 0.805166 0.805166
0.835716 0.835716 0.835716
0.862314 0.862314 0.862314
0.883793 0.883793 0.883793
0.902917 0.902917 0.902917
0.922249 0.922249 0.922249
0.935418 0.935418 0.935418
0.946033 0.946033 0.946033
0.953036 0.953036 0.953036
0.957384 0.957384 0.957384
0.112466 0.112466 0.112466
0.112766 0.112766 0.112766
0.113874 0.113874 0.113874
0.117003 0.117003 0.117003
0.123854 0.123854 0.123854
0.137282 0.137282 0.137282
0.151787 0.151787 0.151787
0.169679 0.169679 0.169679
0.189713 0.189713 0.189713
0.213838 0.213838 0.213838
0.241140 0.241140 0.241140
0.271412 0.271412 0.271412
0.303934 0.303934 0.303934
0.339243 0.339243 0.339243
0.374983 0.374983 0.374983
0.412343 0.412343 0.412343
0.459916 0.459916 0.459916
0.509175 0.509175 0.509175
0.557511 0.557511 0.557511
0.603827 0.603827 0.603827
0.653898 0.653898 0.653898
0.702361 0.702361 0.702361
0.751007 0.751007 0.751007
0.791070 0.791070 0.791070
0.822357 0.822357 0.822357
0.851789 0.851789 0.851789
0.874365 0.874365 0.874365
0.893203 0.893203 0.893203
0.912920 0.912920 0.912920
0.928578 0.928578 0.928578
0.939894 0.939894 0.939894
0.947947 0.947947 0.947947
0.952823 0.952823 0.952823
0.112845 0.112845 0.112845
0.113120 0.113120 0.113120
0.114135 0.114135 0.114135
0.117105 0.117105 0.117105
0.123274 0.123274 0.123274
0.134969 0.134969 0.134969
0.149934 0.149934 0.149934
0.165039 0.165039 0.165039
0.185048 0.185048 0.185048
0.207613 0.207613 0.207613
0.232033 0.232033 0.232033
0.260229 0.260229 0.260229
0.291580 0.291580 0.291580
0.325714 0.325714 0.325714
0.361105 0.361105 0.361105
0.397191 0.397191 0.397191
0.439751 0.439751 0.439751
0.489405 0.489405 0.489405
0.536993 0.536993 0.536993
0.586204 0.586204 0.586204
0.636404 0.636404 0.636404
0.688135 0.688135 0.688135
0.732690 0.732690 0.732690
0.775292 0.775292 0.775292
0.809644 0.809644 0.809644
0.839712 0.839712 0.839712
0.865534 0.865534 0.865534
0.884420 0.884420 0.884420
0.903973 0.903973 0.903973
0.921355 0.921355 0.921355
0.934124 0.934124 0.934124
0.942727 0.942727 0.942727
0.948516 0.948516 0.948516
0.113179 0.113179 0.113179
0.113434 0.113434 0.113434
0.114370 0.114370 0.114370
0.117224 0.117224 0.117224
0.122851 0.122851 0.122851
0.133209 0.133209 0.133209
0.148617 0.148617 0.148617
0.161793 0.161793 0.161793
0.182006 0.182006 0.182006
0.200951 0.200951 0.200951
0.225175 0.225175 0.225175
0.252862 0.252862 0.252862
0.282128 0.282128 0.282128
0.314116 0.314116 0.314116
0.349067 0.349067 0.349067
0.384565 0.384565 0.384565
0.422240 0.422240 0.422240
0.470396 0.470396 0.470396
0.519560 0.519560 0.519560
0.567282 0.567282 0.567282
0.619015 0.619015 0.619015
0.672860 0.672860 0.672860
0.719350 0.719350 0.719350
0.759621 0.759621 0.759621
0.797131 0.797131 0.797131
0.828320 0.828320 0.828320
0.857343 0.857343 0.857343
0.876547 0.876547 0.876547
0.895723 0.895723 0.895723
0.913357 0.913357 0.913357
0.928441 0.928441 0.928441
0.937913 0.937913 0.937913
0.944352 0.944352 0.944352
0.113629 0.113629 0.113629
0.113867 0.113867 0.113867
0.114923 0.114923 0.114923
0.117622 0.117622 0.117622
0.122858 0.122858 0.122858
0.132249 0.132249 0.132249
0.147219 0.147219 0.147219
0.159989 0.159989 0.159989
0.177405 0.177405 0.177405
0.197093 0.197093 0.197093
0.220607 0.220607 0.220607
0.245040 0.245040 0.245040
0.273683 0.273683 0.273683
0.305277 0.305277 0.305277
0.339376 0.339376 0.339376
0.374068 0.374068 0.374068
0.409472 0.409472 0.409472
0.455534 0.455534 0.455534
0.504579 0.504579 0.504579
0.553095 0.553095 0.553095
0.602634 0.602634 0.602634
0.655702 0.655702 0.655702
0.705661 0.705661 0.705661
0.747855 0.747855 0.747855
0.786382 0.786382 0.786382
0.817117 0.817117 0.817117
0.847458 0.847458 0.847458
0.869354 0.869354 0.869354
0.888406 0.888406 0.888406
0.905925 0.905925 0.905925
0.922884 0.922884 0.922884
0.933272 0.933272 0.933272
0.940342 0.940342 0.940342
0.113580 0.113580 0.113580
0.113804 0.113804 0.113804
0.114739 0.114739 0.114739
0.117247 0.117247 0.117247
0.122053 0.122053 0.122053
0.130500 0.130500 0.130500
0.143984 0.143984 0.143984
0.157900 0.157900 0.157900
0.173192 0.173192 0.173192
0.193781 0.193781 0.193781
0.213857 0.213857 0.213857
0.238866 0.238866 0.238866
0.267141 0.267141 0.267141
0.296301 0.296301 0.296301
0.329338 0.329338 0.329338
0.363501 0.363501 0.363501
0.398710 0.398710 0.398710
0.441358 0.441358 0.441358
0.490638 0.490638 0.490638
0.538654 0.538654 0.538654
0.587934 0.587934 0.587934
0.640445 0.640445 0.640445
0.691639 0.691639 0.691639
0.735355 0.735355 0.735355
0.775991 0.775991 0.775991
0.807985 0.807985 0.807985
0.837576 0.837576 0.837576
0.862634 0.862634 0.862634
0.882053 0.882053 0.882053
0.899292 0.899292 0.899292
0.916442 0.916442 0.916442
0.928835 0.928835 0.928835
0.936708 0.936708 0.936708
0.112162 0.112162 0.112162
0.112373 0.112373 0.112373
0.113145 0.113145 0.113145
0.114737 0.114737 0.114737
0.118697 0.118697 0.118697
0.125787 0.125787 0.125787
0.137930 0.137930 0.137930
0.153366 0.153366 0.153366
0.166679 0.166679 0.166679
0.186340 0.186340 0.186340
0.205542 0.205542 0.205542
0.230400 0.230400 0.230400
0.254965 0.254965 0.254965
0.284525 0.284525 0.284525
0.317207 0.317207 0.317207
0.350531 0.350531 0.350531
0.384977 0.384977 0.384977
0.422985 0.422985 0.422985
0.471611 0.471611 0.471611
0.520552 0.520552 0.520552
0.569648 0.569648 0.569648
0.621552 0.621552 0.621552
0.675681 0.675681 0.675681
0.722205 0.722205 0.722205
0.764730 0.764730 0.764730
0.800322 0.800322 0.800322
0.830128 0.830128 0.830128
0.856287 0.856287 0.856287
0.876210 0.876210 0.876210
0.893538 0.893538 0.893538
0.910561 0.910561 0.910561
0.924816 0.924816 0.924816
0.933252 0.933252 0.933252
0.110746 0.110746 0.110746
0.110946 0.110946 0.110946
0.111676 0.111676 0.111676
0.113069 0.113069 0.113069
0.115790 0.115790 0.115790
0.121742 0.121742 0.121742
0.132353 0.132353 0.132353
0.149148 0.149148 0.149148
0.161049 0.161049 0.161049
0.178263 0.178263 0.178263
0.198864 0.198864 0.198864
0.220195 0.220195 0.220195
0.245820 0.245820 0.245820
0.274409 0.274409 0.274409
0.304104 0.304104 0.304104
0.338078 0.338078 0.338078
0.373016 0.373016 0.373016
0.408941 0.408941 0.408941
0.455116 0.455116 0.455116
0.504620 0.504620 0.504620
0.553065 0.553065 0.553065
0.604042 0.604042 0.604042
0.657930 0.657930 0.657930
0.707682 0.707682 0.707682
0.753107 0.753107 0.753107
0.792227 0.792227 0.792227
0.823700 0.823700 0.823700
0.850391 0.850391 0.850391
0.870913 0.870913 0.870913
0.888580 0.888580 0.888580
0.905456 0.905456 0.905456
0.920159 0.920159 0.920159
0.930020 0.930020 0.930020
0.108821 0.108821 0.108821
0.109012 0.109012 0.109012
0.109708 0.109708 0.109708
0.111034 0.111034 0.111034
0.113137 0.113137 0.113137
0.117299 0.117299 0.117299
0.126172 0.126172 0.126172
0.141387 0.141387 0.141387
0.155388 0.155388 0.155388
0.170629 0.170629 0.170629
0.192720 0.192720 0.192720
0.211447 0.211447 0.211447
0.237965 0.237965 0.237965
0.262943 0.262943 0.262943
0.293847 0.293847 0.293847
0.326945 0.326945 0.326945
0.360565 0.360565 0.360565
0.395935 0.395935 0.395935
0.438338 0.438338 0.438338
0.488450 0.488450 0.488450
0.537269 0.537269 0.537269
0.587534 0.587534 0.587534
0.641653 0.641653 0.641653
0.693795 0.693795 0.693795
0.740504 0.740504 0.740504
0.783554 0.783554 0.783554
0.817008 0.817008 0.817008
0.845092 0.845092 0.845092
0.867745 0.867745 0.867745
0.884458 0.884458 0.884458
0.901028 0.901028 0.901028
0.915781 0.915781 0.915781
0.927294 0.927294 0.927294
0.105356 0.105356 0.105356
0.105446 0.105446 0.105446
0.105775 0.105775 0.105775
0.106399 0.106399 0.106399
0.107940 0.107940 0.107940
0.110865 0.110865 0.110865
0.115659 0.115659 0.115659
0.127970 0.127970 0.127970
0.144680 0.144680 0.144680
0.158580 0.158580 0.158580
0.178286 0.178286 0.178286
0.199190 0.199190 0.199190
0.222247 0.222247 0.222247
0.249087 0.249087 0.249087
0.278666 0.278666 0.278666
0.309847 0.309847 0.309847
0.345617 0.345617 0.345617
0.381224 0.381224 0.381224
0.418308 0.418308 0.418308
0.467734 0.467734 0.467734
0.518268 0.518268 0.518268
0.568865 0.568865 0.568865
0.623427 0.623427 0.623427
0.679714 0.679714 0.679714
0.727793 0.727793 0.727793
