LUTs/trix_modern/TriX_NoFilter_ExtraSoft.cube
TITLE "Tri-X NoFilter ExtraSoft"
# Adobe RGB in/out. REPLACES AgX. Tri-X NoFilter ExtraSoft.
LUT_3D_SIZE 9
DOMAIN_MIN 0.0 0.0 0.0
DOMAIN_MAX 1.0 1.0 1.0
0.099726 0.099726 0.099726
0.101398 0.101398 0.101398
0.160695 0.160695 0.160695
0.251997 0.251997 0.251997
0.347372 0.347372 0.347372
0.440167 0.440167 0.440167
0.531968 0.531968 0.531968
0.768297 0.768297 0.768297
0.825006 0.825006 0.825006
0.104678 0.104678 0.104678
0.106261 0.106261 0.106261
0.179900 0.179900 0.179900
0.263715 0.263715 0.263715
0.346012 0.346012 0.346012
0.432048 0.432048 0.432048
0.524641 0.524641 0.524641
0.760586 0.760586 0.760586
0.820309 0.820309 0.820309
0.213251 0.213251 0.213251
0.204614 0.204614 0.204614
0.208087 0.208087 0.208087
0.274525 0.274525 0.274525
0.351502 0.351502 0.351502
0.421535 0.421535 0.421535
0.509360 0.509360 0.509360
0.739372 0.739372 0.739372
0.805103 0.805103 0.805103
0.312646 0.312646 0.312646
0.304314 0.304314 0.304314
0.296488 0.296488 0.296488
0.309525 0.309525 0.309525
0.360723 0.360723 0.360723
0.424964 0.424964 0.424964
0.501239 0.501239 0.501239
0.574249 0.574249 0.574249
0.736274 0.736274 0.736274
0.390802 0.390802 0.390802
0.385397 0.385397 0.385397
0.378328 0.378328 0.378328
0.380027 0.380027 0.380027
0.397548 0.397548 0.397548
0.444010 0.444010 0.444010
0.510634 0.510634 0.510634
0.573701 0.573701 0.573701
0.677358 0.677358 0.677358
0.466813 0.466813 0.466813
0.461822 0.461822 0.461822
0.455961 0.455961 0.455961
0.453914 0.453914 0.453914
0.465261 0.465261 0.465261
0.493251 0.493251 0.493251
0.535101 0.535101 0.535101
0.588923 0.588923 0.588923
0.648881 0.648881 0.648881
0.534725 0.534725 0.534725
0.531787 0.531787 0.531787
0.527810 0.527810 0.527810
0.526520 0.526520 0.526520
0.533123 0.533123 0.533123
0.551014 0.551014 0.551014
0.581384 0.581384 0.581384
0.620208 0.620208 0.620208
0.667606 0.667606 0.667606
0.599591 0.599591 0.599591
0.596154 0.596154 0.596154
0.589805 0.589805 0.589805
0.588006 0.588006 0.588006
0.593040 0.593040 0.593040
0.607494 0.607494 0.607494
0.633496 0.633496 0.633496
0.670512 0.670512 0.670512
0.697729 0.697729 0.697729
0.583762 0.583762 0.583762
0.581757 0.581757 0.581757
0.623303 0.623303 0.623303
0.619903 0.619903 0.619903
0.646103 0.646103 0.646103
0.658566 0.658566 0.658566
0.679996 0.679996 0.679996
0.710390 0.710390 0.710390
0.736405 0.736405 0.736405
0.131541 0.131541 0.131541
0.321654 0.321654 0.321654
0.227380 0.227380 0.227380
0.270661 0.270661 0.270661
0.352599 0.352599 0.352599
0.442747 0.442747 0.442747
0.534775 0.534775 0.534775
0.764164 0.764164 0.764164
0.822571 0.822571 0.822571
0.130604 0.130604 0.130604
0.127675 0.127675 0.127675
0.194903 0.194903 0.194903
0.267706 0.267706 0.267706
0.347979 0.347979 0.347979
0.433858 0.433858 0.433858
0.526530 0.526530 0.526530
0.756504 0.756504 0.756504
0.817898 0.817898 0.817898
0.233724 0.233724 0.233724
0.217523 0.217523 0.217523
0.212797 0.212797 0.212797
0.275797 0.275797 0.275797
0.348159 0.348159 0.348159
0.420922 0.420922 0.420922
0.510114 0.510114 0.510114
0.736290 0.736290 0.736290
0.802795 0.802795 0.802795
0.322510 0.322510 0.322510
0.312874 0.312874 0.312874
0.301198 0.301198 0.301198
0.311507 0.311507 0.311507
0.360595 0.360595 0.360595
0.422661 0.422661 0.422661
0.501253 0.501253 0.501253
0.575191 0.575191 0.575191
0.779483 0.779483 0.779483
0.394516 0.394516 0.394516
0.389318 0.389318 0.389318
0.381405 0.381405 0.381405
0.381922 0.381922 0.381922
0.398836 0.398836 0.398836
0.443777 0.443777 0.443777
0.510184 0.510184 0.510184
0.574384 0.574384 0.574384
0.687648 0.687648 0.687648
0.468652 0.468652 0.468652
0.463995 0.463995 0.463995
0.458052 0.458052 0.458052
0.455698 0.455698 0.455698
0.466754 0.466754 0.466754
0.494509 0.494509 0.494509
0.535611 0.535611 0.535611
0.589835 0.589835 0.589835
0.651267 0.651267 0.651267
0.536182 0.536182 0.536182
0.533381 0.533381 0.533381
0.529561 0.529561 0.529561
0.528252 0.528252 0.528252
0.534765 0.534765 0.534765
0.552658 0.552658 0.552658
0.582984 0.582984 0.582984
0.621418 0.621418 0.621418
0.669339 0.669339 0.669339
0.599382 0.599382 0.599382
0.596345 0.596345 0.596345
0.591251 0.591251 0.591251
0.589821 0.589821 0.589821
0.594967 0.594967 0.594967
0.609482 0.609482 0.609482
0.635607 0.635607 0.635607
0.672287 0.672287 0.672287
0.699193 0.699193 0.699193
0.621264 0.621264 0.621264
0.619145 0.619145 0.619145
0.657467 0.657467 0.657467
0.645583 0.645583 0.645583
0.647793 0.647793 0.647793
0.660456 0.660456 0.660456
0.681762 0.681762 0.681762
0.712135 0.712135 0.712135
0.737715 0.737715 0.737715
0.268613 0.268613 0.268613
0.576960 0.576960 0.576960
0.552641 0.552641 0.552641
0.514435 0.514435 0.514435
0.511042 0.511042 0.511042
0.572726 0.572726 0.572726
0.661459 0.661459 0.661459
0.764142 0.764142 0.764142
0.817545 0.817545 0.817545
0.290042 0.290042 0.290042
0.377118 0.377118 0.377118
0.400395 0.400395 0.400395
0.409379 0.409379 0.409379
0.454698 0.454698 0.454698
0.536301 0.536301 0.536301
0.629952 0.629952 0.629952
0.757574 0.757574 0.757574
0.812851 0.812851 0.812851
0.277449 0.277449 0.277449
0.262982 0.262982 0.262982
0.255950 0.255950 0.255950
0.319454 0.319454 0.319454
0.388286 0.388286 0.388286
0.472957 0.472957 0.472957
0.559750 0.559750 0.559750
0.736645 0.736645 0.736645
0.797727 0.797727 0.797727
0.353932 0.353932 0.353932
0.344070 0.344070 0.344070
0.326332 0.326332 0.326332
0.328169 0.328169 0.328169
0.378090 0.378090 0.378090
0.447345 0.447345 0.447345
0.526669 0.526669 0.526669
0.616146 0.616146 0.616146
0.773190 0.773190 0.773190
0.422664 0.422664 0.422664
0.415103 0.415103 0.415103
0.402902 0.402902 0.402902
0.398393 0.398393 0.398393
0.410961 0.410961 0.410961
0.460185 0.460185 0.460185
0.524758 0.524758 0.524758
0.595201 0.595201 0.595201
0.729195 0.729195 0.729195
0.498390 0.498390 0.498390
0.493625 0.493625 0.493625
0.484003 0.484003 0.484003
0.477671 0.477671 0.477671
0.484937 0.484937 0.484937
0.508260 0.508260 0.508260
0.547346 0.547346 0.547346
0.604566 0.604566 0.604566
0.675647 0.675647 0.675647
0.557758 0.557758 0.557758
0.554849 0.554849 0.554849
0.549423 0.549423 0.549423
0.545915 0.545915 0.545915
0.550281 0.550281 0.550281
0.566445 0.566445 0.566445
0.595337 0.595337 0.595337
0.633280 0.633280 0.633280
0.681962 0.681962 0.681962
0.614584 0.614584 0.614584
0.612494 0.612494 0.612494
0.609381 0.609381 0.609381
0.607254 0.607254 0.607254
0.611182 0.611182 0.611182
0.624519 0.624519 0.624519
0.649742 0.649742 0.649742
0.682943 0.682943 0.682943
0.707906 0.707906 0.707906
0.617724 0.617724 0.617724
0.661310 0.661310 0.661310
0.653932 0.653932 0.653932
0.642383 0.642383 0.642383
0.658813 0.658813 0.658813
0.671868 0.671868 0.671868
0.691431 0.691431 0.691431
0.721092 0.721092 0.721092
0.744892 0.744892 0.744892
0.407308 0.407308 0.407308
0.677341 0.677341 0.677341
0.731300 0.731300 0.731300
0.736894 0.736894 0.736894
0.720113 0.720113 0.720113
0.730286 0.730286 0.730286
0.767245 0.767245 0.767245
0.816353 0.816353 0.816353
0.827669 0.827669 0.827669
0.434183 0.434183 0.434183
0.580549 0.580549 0.580549
0.696052 0.696052 0.696052
0.680895 0.680895 0.680895
0.670035 0.670035 0.670035
0.699469 0.699469 0.699469
0.748572 0.748572 0.748572
0.807515 0.807515 0.807515
0.822939 0.822939 0.822939
0.388826 0.388826 0.388826
0.394055 0.394055 0.394055
0.428292 0.428292 0.428292
0.471929 0.471929 0.471929
0.529275 0.529275 0.529275
0.598067 0.598067 0.598067
0.683795 0.683795 0.683795
0.767616 0.767616 0.767616
0.807717 0.807717 0.807717
0.399695 0.399695 0.399695
0.392333 0.392333 0.392333
0.376737 0.376737 0.376737
0.375333 0.375333 0.375333
0.435317 0.435317 0.435317
0.515935 0.515935 0.515935
0.599998 0.599998 0.599998
0.704164 0.704164 0.704164
0.784860 0.784860 0.784860
0.467669 0.467669 0.467669
0.460183 0.460183 0.460183
0.443801 0.443801 0.443801
0.432509 0.432509 0.432509
0.442130 0.442130 0.442130
0.496820 0.496820 0.496820
0.564964 0.564964 0.564964
0.648131 0.648131 0.648131
0.773017 0.773017 0.773017
0.532933 0.532933 0.532933
0.528254 0.528254 0.528254
0.518246 0.518246 0.518246
0.509805 0.509805 0.509805
0.512858 0.512858 0.512858
0.532243 0.532243 0.532243
0.573801 0.573801 0.573801
0.636145 0.636145 0.636145
0.736526 0.736526 0.736526
0.589421 0.589421 0.589421
0.586275 0.586275 0.586275
0.579669 0.579669 0.579669
0.574568 0.574568 0.574568
0.576753 0.576753 0.576753
0.591117 0.591117 0.591117
0.618258 0.618258 0.618258
0.656732 0.656732 0.656732
0.716469 0.716469 0.716469
0.641824 0.641824 0.641824
0.639821 0.639821 0.639821
0.636253 0.636253 0.636253
0.633111 0.633111 0.633111
0.635941 0.635941 0.635941
0.648145 0.648145 0.648145
0.671729 0.671729 0.671729
0.699376 0.699376 0.699376
0.729640 0.729640 0.729640
0.674734 0.674734 0.674734
0.694332 0.694332 0.694332
0.688058 0.688058 0.688058
0.681668 0.681668 0.681668
0.684428 0.684428 0.684428
0.693315 0.693315 0.693315
0.711055 0.711055 0.711055
0.738700 0.738700 0.738700
0.760975 0.760975 0.760975
0.574822 0.574822 0.574822
0.726681 0.726681 0.726681
0.825297 0.825297 0.825297
0.836115 0.836115 0.836115
0.846246 0.846246 0.846246
0.828164 0.828164 0.828164
0.832659 0.832659 0.832659
0.849574 0.849574 0.849574
0.861954 0.861954 0.861954
0.597963 0.597963 0.597963
0.712146 0.712146 0.712146
0.815738 0.815738 0.815738
0.830604 0.830604 0.830604
0.815382 0.815382 0.815382
0.808642 0.808642 0.808642
0.820195 0.820195 0.820195
0.841615 0.841615 0.841615
0.857200 0.857200 0.857200
0.605047 0.605047 0.605047
0.632189 0.632189 0.632189
0.700299 0.700299 0.700299
0.707028 0.707028 0.707028
0.712628 0.712628 0.712628
0.740209 0.740209 0.740209
0.779223 0.779223 0.779223
0.815074 0.815074 0.815074
0.837050 0.837050 0.837050
0.505505 0.505505 0.505505
0.504239 0.504239 0.504239
0.511748 0.511748 0.511748
0.533527 0.533527 0.533527
0.575061 0.575061 0.575061
0.639901 0.639901 0.639901
0.709549 0.709549 0.709549
0.775784 0.775784 0.775784
0.822920 0.822920 0.822920
0.527765 0.527765 0.527765
0.522718 0.522718 0.522718
0.511340 0.511340 0.511340
0.501001 0.501001 0.501001
0.504596 0.504596 0.504596
0.567458 0.567458 0.567458
0.645355 0.645355 0.645355
0.726290 0.726290 0.726290
0.803472 0.803472 0.803472
0.579259 0.579259 0.579259
0.575125 0.575125 0.575125
0.565932 0.565932 0.565932
0.557038 0.557038 0.557038
0.556907 0.556907 0.556907
0.572845 0.572845 0.572845
0.624142 0.624142 0.624142
0.693953 0.693953 0.693953
0.785379 0.785379 0.785379
0.631238 0.631238 0.631238
0.628345 0.628345 0.628345
0.621824 0.621824 0.621824
0.616034 0.616034 0.616034
0.617018 0.617018 0.617018
0.629316 0.629316 0.629316
0.654752 0.654752 0.654752
0.695086 0.695086 0.695086
0.769629 0.769629 0.769629
0.677333 0.677333 0.677333
0.675440 0.675440 0.675440
0.671847 0.671847 0.671847
0.668648 0.668648 0.668648
0.670897 0.670897 0.670897
0.681619 0.681619 0.681619
0.700170 0.700170 0.700170
0.725505 0.725505 0.725505
0.766542 0.766542 0.766542
0.714296 0.714296 0.714296
0.715284 0.715284 0.715284
0.715763 0.715763 0.715763
0.706361 0.706361 0.706361
0.709732 0.709732 0.709732
0.718457 0.718457 0.718457
0.735480 0.735480 0.735480
0.760428 0.760428 0.760428
0.787202 0.787202 0.787202
0.749670 0.749670 0.749670
0.821724 0.821724 0.821724
0.885612 0.885612 0.885612
0.894254 0.894254 0.894254
0.907619 0.907619 0.907619
0.894945 0.894945 0.894945
0.884022 0.884022 0.884022
0.882725 0.882725 0.882725
0.880207 0.880207 0.880207
0.763435 0.763435 0.763435
0.822049 0.822049 0.822049
0.883636 0.883636 0.883636
0.893700 0.893700 0.893700
0.903668 0.903668 0.903668
0.881991 0.881991 0.881991
0.875555 0.875555 0.875555
0.877140 0.877140 0.877140
0.876147 0.876147 0.876147
0.791224 0.791224 0.791224
0.817759 0.817759 0.817759
0.873279 0.873279 0.873279
0.861117 0.861117 0.861117
0.843432 0.843432 0.843432
0.838407 0.838407 0.838407
0.846649 0.846649 0.846649
0.859576 0.859576 0.859576
0.862873 0.862873 0.862873
0.679351 0.679351 0.679351
0.685711 0.685711 0.685711
0.715518 0.715518 0.715518
0.733057 0.733057 0.733057
0.745619 0.745619 0.745619
0.767713 0.767713 0.767713
0.797958 0.797958 0.797958
0.827410 0.827410 0.827410
0.850358 0.850358 0.850358
0.624665 0.624665 0.624665
0.622966 0.622966 0.622966
0.625779 0.625779 0.625779
0.632073 0.632073 0.632073
0.650289 0.650289 0.650289
0.690769 0.690769 0.690769
0.742523 0.742523 0.742523
0.793796 0.793796 0.793796
0.833271 0.833271 0.833271
0.645348 0.645348 0.645348
0.642427 0.642427 0.642427
0.636776 0.636776 0.636776
0.631574 0.631574 0.631574
0.631227 0.631227 0.631227
0.640439 0.640439 0.640439
0.700994 0.700994 0.700994
0.762809 0.762809 0.762809
0.818665 0.818665 0.818665
0.683002 0.683002 0.683002
0.681005 0.681005 0.681005
0.676549 0.676549 0.676549
0.672511 0.672511 0.672511
0.674132 0.674132 0.674132
0.683898 0.683898 0.683898
0.704499 0.704499 0.704499
0.748329 0.748329 0.748329
0.812342 0.812342 0.812342
0.713987 0.713987 0.713987
0.712649 0.712649 0.712649
0.710349 0.710349 0.710349
0.708416 0.708416 0.708416
0.710770 0.710770 0.710770
0.720109 0.720109 0.720109
0.737803 0.737803 0.737803
0.762170 0.762170 0.762170
0.811187 0.811187 0.811187
0.724571 0.724571 0.724571
0.726123 0.726123 0.726123
0.729064 0.729064 0.729064
0.736067 0.736067 0.736067
0.739979 0.739979 0.739979
0.748527 0.748527 0.748527
0.764371 0.764371 0.764371
0.787086 0.787086 0.787086
0.822295 0.822295 0.822295
0.879660 0.879660 0.879660
0.907439 0.907439 0.907439
0.931039 0.931039 0.931039
0.937009 0.937009 0.937009
0.945397 0.945397 0.945397
0.944354 0.944354 0.944354
0.928693 0.928693 0.928693
0.918258 0.918258 0.918258
0.906626 0.906626 0.906626
0.884568 0.884568 0.884568
0.908078 0.908078 0.908078
0.931173 0.931173 0.931173
0.937558 0.937558 0.937558
0.945996 0.945996 0.945996
0.935735 0.935735 0.935735
0.922407 0.922407 0.922407
0.912887 0.912887 0.912887
0.902230 0.902230 0.902230
0.898827 0.898827 0.898827
0.911391 0.911391 0.911391
0.931316 0.931316 0.931316
0.939334 0.939334 0.939334
0.920402 0.920402 0.920402
0.904351 0.904351 0.904351
0.897642 0.897642 0.897642
0.896235 0.896235 0.896235
0.887521 0.887521 0.887521
0.851244 0.851244 0.851244
0.856554 0.856554 0.856554
0.865609 0.865609 0.865609
0.863533 0.863533 0.863533
0.858397 0.858397 0.858397
0.857852 0.857852 0.857852
0.863505 0.863505 0.863505
0.872424 0.872424 0.872424
0.879628 0.879628 0.879628
0.762248 0.762248 0.762248
0.764862 0.764862 0.764862
0.776969 0.776969 0.776969
0.785344 0.785344 0.785344
0.790876 0.790876 0.790876
0.802129 0.802129 0.802129
0.821695 0.821695 0.821695
0.845948 0.845948 0.845948
0.864595 0.864595 0.864595
0.733418 0.733418 0.733418
0.733104 0.733104 0.733104
0.735994 0.735994 0.735994
0.740714 0.740714 0.740714
0.745904 0.745904 0.745904
0.759033 0.759033 0.759033
0.788734 0.788734 0.788734
0.821298 0.821298 0.821298
0.852575 0.852575 0.852575
0.741284 0.741284 0.741284
0.740331 0.740331 0.740331
0.739650 0.739650 0.739650
0.741049 0.741049 0.741049
0.745854 0.745854 0.745854
0.753628 0.753628 0.753628
0.765056 0.765056 0.765056
0.807245 0.807245 0.807245
0.847703 0.847703 0.847703
0.757724 0.757724 0.757724
0.756846 0.756846 0.756846
0.756084 0.756084 0.756084
0.756398 0.756398 0.756398
0.760837 0.760837 0.760837
0.770951 0.770951 0.770951
0.787072 0.787072 0.787072
0.806814 0.806814 0.806814
0.852451 0.852451 0.852451
0.744735 0.744735 0.744735
0.747354 0.747354 0.747354
0.747858 0.747858 0.747858
0.770332 0.770332 0.770332
0.774643 0.774643 0.774643
0.783721 0.783721 0.783721
0.796408 0.796408 0.796408
0.814139 0.814139 0.814139
0.864278 0.864278 0.864278
0.957623 0.957623 0.957623
0.959158 0.959158 0.959158
0.962065 0.962065 0.962065
0.964668 0.964668 0.964668
0.968944 0.968944 0.968944
0.972624 0.972624 0.972624
0.960253 0.960253 0.960253
0.948062 0.948062 0.948062
0.932284 0.932284 0.932284
0.958055 0.958055 0.958055
0.959499 0.959499 0.959499
0.962530 0.962530 0.962530
0.965183 0.965183 0.965183
0.969430 0.969430 0.969430
0.967923 0.967923 0.967923
0.956695 0.956695 0.956695
0.944241 0.944241 0.944241
0.929344 0.929344 0.929344
0.960549 0.960549 0.960549
0.961579 0.961579 0.961579
0.964591 0.964591 0.964591
0.967460 0.967460 0.967460
0.963575 0.963575 0.963575
0.951002 0.951002 0.951002
0.939671 0.939671 0.939671
0.932347 0.932347 0.932347
0.919686 0.919686 0.919686
0.948292 0.948292 0.948292
0.947236 0.947236 0.947236
0.943458 0.943458 0.943458
0.934740 0.934740 0.934740
0.925198 0.925198 0.925198
0.916447 0.916447 0.916447
0.912478 0.912478 0.912478
0.911821 0.911821 0.911821
0.909039 0.909039 0.909039
0.882249 0.882249 0.882249
0.882426 0.882426 0.882426
0.882689 0.882689 0.882689
0.879144 0.879144 0.879144
0.875745 0.875745 0.875745
0.875603 0.875603 0.875603
0.880296 0.880296 0.880296
0.887980 0.887980 0.887980
0.893323 0.893323 0.893323
0.837944 0.837944 0.837944
0.838966 0.838966 0.838966
0.842682 0.842682 0.842682
0.842093 0.842093 0.842093
0.841209 0.841209 0.841209
0.845069 0.845069 0.845069
0.856506 0.856506 0.856506
0.869739 0.869739 0.869739
0.881244 0.881244 0.881244
0.815010 0.815010 0.815010
0.815821 0.815821 0.815821
0.820865 0.820865 0.820865
0.825754 0.825754 0.825754
0.828519 0.828519 0.828519
0.831635 0.831635 0.831635
0.841031 0.841031 0.841031
0.860417 0.860417 0.860417
0.876512 0.876512 0.876512
0.807850 0.807850 0.807850
0.807789 0.807789 0.807789
0.809999 0.809999 0.809999
0.814805 0.814805 0.814805
0.823287 0.823287 0.823287
0.833628 0.833628 0.833628
0.845020 0.845020 0.845020
0.856334 0.856334 0.856334
0.880682 0.880682 0.880682
0.782365 0.782365 0.782365
0.790580 0.790580 0.790580
0.792927 0.792927 0.792927
0.804585 0.804585 0.804585
0.810442 0.810442 0.810442
0.819268 0.819268 0.819268
0.832561 0.832561 0.832561
0.849812 0.849812 0.849812
0.892948 0.892948 0.892948
0.980017 0.980017 0.980017
0.980151 0.980151 0.980151
0.980843 0.980843 0.980843
0.983035 0.983035 0.983035
0.985343 0.985343 0.985343
0.987008 0.987008 0.987008
0.980446 0.980446 0.980446
0.969098 0.969098 0.969098
0.952761 0.952761 0.952761
0.980410 0.980410 0.980410
0.980550 0.980550 0.980550
0.981268 0.981268 0.981268
0.983475 0.983475 0.983475
0.985443 0.985443 0.985443
0.985984 0.985984 0.985984
0.977306 0.977306 0.977306
0.966768 0.966768 0.966768
0.952733 0.952733 0.952733
0.982363 0.982363 0.982363
0.982525 0.982525 0.982525
0.983334 0.983334 0.983334
0.984791 0.984791 0.984791
0.985277 0.985277 0.985277
0.976700 0.976700 0.976700
0.967474 0.967474 0.967474
0.959590 0.959590 0.959590
0.942445 0.942445 0.942445
0.982957 0.982957 0.982957
0.981519 0.981519 0.981519
0.976971 0.976971 0.976971
0.970421 0.970421 0.970421
0.963608 0.963608 0.963608
0.957987 0.957987 0.957987
0.950786 0.950786 0.950786
0.944318 0.944318 0.944318
0.937954 0.937954 0.937954
0.946462 0.946462 0.946462
0.945133 0.945133 0.945133
0.941184 0.941184 0.941184
0.935758 0.935758 0.935758
0.930629 0.930629 0.930629
0.927688 0.927688 0.927688
0.926657 0.926657 0.926657
0.926490 0.926490 0.926490
0.926193 0.926193 0.926193
0.911169 0.911169 0.911169
0.909897 0.909897 0.909897
0.906378 0.906378 0.906378
0.901930 0.901930 0.901930
0.898224 0.898224 0.898224
0.898081 0.898081 0.898081
0.901840 0.901840 0.901840
0.907575 0.907575 0.907575
0.913066 0.913066 0.913066
0.894455 0.894455 0.894455
0.893439 0.893439 0.893439
0.890612 0.890612 0.890612
0.887055 0.887055 0.887055
0.883867 0.883867 0.883867
0.883361 0.883361 0.883361
0.888066 0.888066 0.888066
0.896762 0.896762 0.896762
0.905927 0.905927 0.905927
0.889459 0.889459 0.889459
0.889721 0.889721 0.889721
0.889391 0.889391 0.889391
0.887653 0.887653 0.887653
0.886076 0.886076 0.886076
0.885813 0.885813 0.885813
0.888444 0.888444 0.888444
0.896602 0.896602 0.896602
0.907369 0.907369 0.907369
0.812085 0.812085 0.812085
0.837512 0.837512 0.837512
0.834180 0.834180 0.834180
0.830837 0.830837 0.830837
0.871407 0.871407 0.871407
0.893610 0.893610 0.893610
0.899560 0.899560 0.899560
0.908365 0.908365 0.908365
0.917860 0.917860 0.917860
