LUTs/trix_modern/TriX_Red25_Hard.cube
TITLE "Tri-X Red25 Hard"
# Adobe RGB in/out. REPLACES AgX. Tri-X Red25 Hard.
LUT_3D_SIZE 5
DOMAIN_MIN 0.0 0.0 0.0
DOMAIN_MAX 1.0 1.0 1.0
0.093024 0.093024 0.093024
0.153059 0.153059 0.153059
0.983607 0.983607 0.983607
0.999170 0.999170 0.999170
0.999510 0.999510 0.999510
0.093048 0.093048 0.093048
0.097203 0.097203 0.097203
0.940882 0.940882 0.940882
0.998431 0.998431 0.998431
0.999281 0.999281 0.999281
0.093188 0.093188 0.093188
0.094274 0.094274 0.094274
0.531211 0.531211 0.531211
0.992606 0.992606 0.992606
0.998695 0.998695 0.998695
0.093210 0.093210 0.093210
0.093543 0.093543 0.093543
0.228128 0.228128 0.228128
0.973889 0.973889 0.973889
0.998115 0.998115 0.998115
0.093024 0.093024 0.093024
0.093024 0.093024 0.093024
0.093410 0.093410 0.093410
0.842551 0.842551 0.842551
0.997938 0.997938 0.997938
0.093024 0.093024 0.093024
0.112744 0.112744 0.112744
0.975254 0.975254 0.975254
0.999008 0.999008 0.999008
0.999425 0.999425 0.999425
0.093270 0.093270 0.093270
0.099130 0.099130 0.099130
0.880287 0.880287 0.880287
0.998316 0.998316 0.998316
0.999195 0.999195 0.999195
0.093799 0.093799 0.093799
0.100184 0.100184 0.100184
0.635189 0.635189 0.635189
0.992225 0.992225 0.992225
0.998613 0.998613 0.998613
0.093573 0.093573 0.093573
0.095626 0.095626 0.095626
0.368307 0.368307 0.368307
0.979436 0.979436 0.979436
0.998089 0.998089 0.998089
0.093024 0.093024 0.093024
0.093024 0.093024 0.093024
0.094752 0.094752 0.094752
0.884887 0.884887 0.884887
0.997942 0.997942 0.997942
0.093074 0.093074 0.093074
0.183617 0.183617 0.183617
0.985366 0.985366 0.985366
0.998986 0.998986 0.998986
0.999386 0.999386 0.999386
0.093688 0.093688 0.093688
0.188449 0.188449 0.188449
0.931182 0.931182 0.931182
0.998306 0.998306 0.998306
0.999142 0.999142 0.999142
0.095324 0.095324 0.095324
0.113104 0.113104 0.113104
0.588577 0.588577 0.588577
0.991482 0.991482 0.991482
0.998509 0.998509 0.998509
0.095935 0.095935 0.095935
0.105282 0.105282 0.105282
0.529377 0.529377 0.529377
0.981154 0.981154 0.981154
0.998017 0.998017 0.998017
0.093024 0.093024 0.093024
0.093024 0.093024 0.093024
0.113811 0.113811 0.113811
0.937915 0.937915 0.937915
0.997936 0.997936 0.997936
0.093203 0.093203 0.093203
0.160325 0.160325 0.160325
0.986479 0.986479 0.986479
0.999206 0.999206 0.999206
0.999486 0.999486 0.999486
0.093953 0.093953 0.093953
0.227824 0.227824 0.227824
0.977924 0.977924 0.977924
0.998593 0.998593 0.998593
0.999234 0.999234 0.999234
0.097044 0.097044 0.097044
0.145880 0.145880 0.145880
0.813617 0.813617 0.813617
0.993718 0.993718 0.993718
0.998545 0.998545 0.998545
0.097183 0.097183 0.097183
0.118023 0.118023 0.118023
0.577333 0.577333 0.577333
0.977336 0.977336 0.977336
0.997979 0.997979 0.997979
0.093024 0.093024 0.093024
0.093024 0.093024 0.093024
0.115403 0.115403 0.115403
0.942179 0.942179 0.942179
0.997918 0.997918 0.997918
0.096815 0.096815 0.096815
0.165405 0.165405 0.165405
0.994724 0.994724 0.994724
0.999899 0.999899 0.999899
0.999617 0.999617 0.999617
0.115803 0.115803 0.115803
0.296619 0.296619 0.296619
0.994365 0.994365 0.994365
0.999408 0.999408 0.999408
0.999375 0.999375 0.999375
0.173511 0.173511 0.173511
0.369529 0.369529 0.369529
0.961343 0.961343 0.961343
0.998147 0.998147 0.998147
0.998732 0.998732 0.998732
0.102544 0.102544 0.102544
0.171158 0.171158 0.171158
0.802937 0.802937 0.802937
0.992138 0.992138 0.992138
0.998129 0.998129 0.998129
0.093024 0.093024 0.093024
0.093024 0.093024 0.093024
0.093305 0.093305 0.093305
0.899906 0.899906 0.899906
0.997914 0.997914 0.997914
