LUTs/trix_modern/TriX_Red25_Soft.cube
TITLE "Tri-X Red25 Soft"
# Adobe RGB in/out. REPLACES AgX. Tri-X Red25 Soft.
LUT_3D_SIZE 5
DOMAIN_MIN 0.0 0.0 0.0
DOMAIN_MAX 1.0 1.0 1.0
0.093873 0.093873 0.093873
0.322478 0.322478 0.322478
0.760199 0.760199 0.760199
0.972102 0.972102 0.972102
0.980590 0.980590 0.980590
0.093889 0.093889 0.093889
0.216915 0.216915 0.216915
0.670307 0.670307 0.670307
0.942969 0.942969 0.942969
0.975399 0.975399 0.975399
0.094481 0.094481 0.094481
0.154341 0.154341 0.154341
0.482310 0.482310 0.482310
0.829711 0.829711 0.829711
0.955959 0.955959 0.955959
0.095196 0.095196 0.095196
0.120101 0.120101 0.120101
0.370124 0.370124 0.370124
0.725640 0.725640 0.725640
0.925135 0.925135 0.925135
0.093873 0.093873 0.093873
0.093873 0.093873 0.093873
0.109014 0.109014 0.109014
0.594750 0.594750 0.594750
0.913917 0.913917 0.913917
0.093873 0.093873 0.093873
0.279713 0.279713 0.279713
0.730232 0.730232 0.730232
0.967301 0.967301 0.967301
0.979689 0.979689 0.979689
0.097110 0.097110 0.097110
0.233250 0.233250 0.233250
0.618126 0.618126 0.618126
0.937386 0.937386 0.937386
0.972831 0.972831 0.972831
0.134541 0.134541 0.134541
0.242537 0.242537 0.242537
0.513347 0.513347 0.513347
0.823544 0.823544 0.823544
0.951906 0.951906 0.951906
0.121584 0.121584 0.121584
0.186042 0.186042 0.186042
0.428997 0.428997 0.428997
0.744439 0.744439 0.744439
0.923484 0.923484 0.923484
0.093873 0.093873 0.093873
0.093873 0.093873 0.093873
0.167304 0.167304 0.167304
0.621669 0.621669 0.621669
0.914157 0.914157 0.914157
0.093967 0.093967 0.093967
0.344768 0.344768 0.344768
0.773943 0.773943 0.773943
0.966676 0.966676 0.966676
0.978543 0.978543 0.978543
0.127460 0.127460 0.127460
0.347858 0.347858 0.347858
0.660492 0.660492 0.660492
0.936886 0.936886 0.936886
0.971262 0.971262 0.971262
0.180546 0.180546 0.180546
0.280323 0.280323 0.280323
0.499564 0.499564 0.499564
0.817752 0.817752 0.817752
0.946803 0.946803 0.946803
0.191818 0.191818 0.191818
0.265741 0.265741 0.265741
0.481739 0.481739 0.481739
0.750338 0.750338 0.750338
0.918853 0.918853 0.918853
0.093873 0.093873 0.093873
0.093873 0.093873 0.093873
0.281519 0.281519 0.281519
0.667300 0.667300 0.667300
0.913757 0.913757 0.913757
0.094971 0.094971 0.094971
0.328756 0.328756 0.328756
0.782288 0.782288 0.782288
0.973180 0.973180 0.973180
0.980350 0.980350 0.980350
0.145264 0.145264 0.145264
0.369964 0.369964 0.369964
0.739279 0.739279 0.739279
0.950918 0.950918 0.950918
0.974006 0.974006 0.974006
0.213919 0.213919 0.213919
0.316042 0.316042 0.316042
0.577561 0.577561 0.577561
0.847964 0.847964 0.847964
0.948579 0.948579 0.948579
0.216562 0.216562 0.216562
0.286848 0.286848 0.286848
0.496272 0.496272 0.496272
0.737280 0.737280 0.737280
0.916465 0.916465 0.916465
0.093873 0.093873 0.093873
0.093873 0.093873 0.093873
0.283713 0.283713 0.283713
0.671623 0.671623 0.671623
0.912632 0.912632 0.912632
0.209173 0.209173 0.209173
0.332492 0.332492 0.332492
0.864817 0.864817 0.864817
0.984393 0.984393 0.984393
0.981633 0.981633 0.981633
0.284194 0.284194 0.284194
0.402615 0.402615 0.402615
0.858765 0.858765 0.858765
0.979200 0.979200 0.979200
0.978197 0.978197 0.978197
0.338129 0.338129 0.338129
0.429404 0.429404 0.429404
0.698660 0.698660 0.698660
0.927148 0.927148 0.927148
0.957782 0.957782 0.957782
0.255224 0.255224 0.255224
0.336547 0.336547 0.336547
0.571995 0.571995 0.571995
0.822501 0.822501 0.822501
0.925976 0.925976 0.925976
0.093873 0.093873 0.093873
0.093873 0.093873 0.093873
0.098428 0.098428 0.098428
0.633245 0.633245 0.633245
0.912373 0.912373 0.912373
