LUTs/trix_modern/TriX_Yellow8_Punchy.cube
TITLE "Tri-X Yellow8 Punchy"
# Adobe RGB in/out. REPLACES AgX. Tri-X Yellow8 Punchy.
LUT_3D_SIZE 5
DOMAIN_MIN 0.0 0.0 0.0
DOMAIN_MAX 1.0 1.0 1.0
0.091936 0.091936 0.091936
0.116715 0.116715 0.116715
0.474879 0.474879 0.474879
0.771706 0.771706 0.771706
0.894655 0.894655 0.894655
0.189351 0.189351 0.189351
0.180859 0.180859 0.180859
0.482049 0.482049 0.482049
0.742194 0.742194 0.742194
0.876648 0.876648 0.876648
0.553307 0.553307 0.553307
0.527742 0.527742 0.527742
0.567984 0.567984 0.567984
0.740971 0.740971 0.740971
0.878910 0.878910 0.878910
0.768571 0.768571 0.768571
0.758581 0.758581 0.758581
0.766265 0.766265 0.766265
0.828731 0.828731 0.828731
0.903080 0.903080 0.903080
0.830214 0.830214 0.830214
0.872097 0.872097 0.872097
0.886783 0.886783 0.886783
0.912030 0.912030 0.912030
0.948848 0.948848 0.948848
0.092038 0.092038 0.092038
0.123857 0.123857 0.123857
0.459584 0.459584 0.459584
0.757540 0.757540 0.757540
0.887906 0.887906 0.887906
0.166090 0.166090 0.166090
0.152941 0.152941 0.152941
0.440553 0.440553 0.440553
0.729053 0.729053 0.729053
0.868235 0.868235 0.868235
0.542971 0.542971 0.542971
0.513024 0.513024 0.513024
0.546311 0.546311 0.546311
0.724502 0.724502 0.724502
0.873298 0.873298 0.873298
0.767915 0.767915 0.767915
0.757569 0.757569 0.757569
0.762947 0.762947 0.762947
0.824786 0.824786 0.824786
0.901004 0.901004 0.901004
0.844799 0.844799 0.844799
0.882281 0.882281 0.882281
0.888018 0.888018 0.888018
0.913729 0.913729 0.913729
0.949135 0.949135 0.949135
0.123082 0.123082 0.123082
0.244649 0.244649 0.244649
0.550674 0.550674 0.550674
0.776956 0.776956 0.776956
0.884890 0.884890 0.884890
0.321945 0.321945 0.321945
0.366460 0.366460 0.366460
0.515198 0.515198 0.515198
0.744538 0.744538 0.744538
0.862842 0.862842 0.862842
0.515094 0.515094 0.515094
0.496196 0.496196 0.496196
0.513339 0.513339 0.513339
0.718639 0.718639 0.718639
0.868640 0.868640 0.868640
0.756882 0.756882 0.756882
0.749188 0.749188 0.749188
0.755133 0.755133 0.755133
0.814784 0.814784 0.814784
0.897930 0.897930 0.897930
0.873805 0.873805 0.873805
0.878107 0.878107 0.878107
0.888823 0.888823 0.888823
0.916631 0.916631 0.916631
0.950003 0.950003 0.950003
0.279086 0.279086 0.279086
0.373937 0.373937 0.373937
0.625530 0.625530 0.625530
0.829247 0.829247 0.829247
0.892699 0.892699 0.892699
0.445900 0.445900 0.445900
0.507477 0.507477 0.507477
0.649529 0.649529 0.649529
0.803406 0.803406 0.803406
0.872218 0.872218 0.872218
0.568319 0.568319 0.568319
0.573387 0.573387 0.573387
0.634776 0.634776 0.634776
0.766216 0.766216 0.766216
0.880369 0.880369 0.880369
0.746015 0.746015 0.746015
0.743414 0.743414 0.743414
0.755639 0.755639 0.755639
0.803966 0.803966 0.803966
0.900661 0.900661 0.900661
0.861346 0.861346 0.861346
0.870008 0.870008 0.870008
0.886992 0.886992 0.886992
0.917636 0.917636 0.917636
0.952054 0.952054 0.952054
0.470819 0.470819 0.470819
0.506837 0.506837 0.506837
0.738883 0.738883 0.738883
0.900615 0.900615 0.900615
0.912743 0.912743 0.912743
0.569844 0.569844 0.569844
0.603265 0.603265 0.603265
0.783334 0.783334 0.783334
0.882890 0.882890 0.882890
0.896397 0.896397 0.896397
0.692917 0.692917 0.692917
0.701687 0.701687 0.701687
0.754776 0.754776 0.754776
0.851192 0.851192 0.851192
0.910465 0.910465 0.910465
0.764154 0.764154 0.764154
0.768331 0.768331 0.768331
0.798268 0.798268 0.798268
0.858326 0.858326 0.858326
0.922662 0.922662 0.922662
0.838580 0.838580 0.838580
0.860656 0.860656 0.860656
0.887135 0.887135 0.887135
0.920160 0.920160 0.920160
0.956150 0.956150 0.956150
