LUTs/trix_modern/TriX_NoFilter_ExtraSoft.cube
TITLE "Tri-X NoFilter ExtraSoft"
# Adobe RGB in/out. REPLACES AgX. Tri-X NoFilter ExtraSoft.
LUT_3D_SIZE 5
DOMAIN_MIN 0.0 0.0 0.0
DOMAIN_MAX 1.0 1.0 1.0
0.099726 0.099726 0.099726
0.160695 0.160695 0.160695
0.347372 0.347372 0.347372
0.531968 0.531968 0.531968
0.825006 0.825006 0.825006
0.213251 0.213251 0.213251
0.208087 0.208087 0.208087
0.351502 0.351502 0.351502
0.509360 0.509360 0.509360
0.805103 0.805103 0.805103
0.390802 0.390802 0.390802
0.378328 0.378328 0.378328
0.397548 0.397548 0.397548
0.510634 0.510634 0.510634
0.677358 0.677358 0.677358
0.534725 0.534725 0.534725
0.527810 0.527810 0.527810
0.533123 0.533123 0.533123
0.581384 0.581384 0.581384
0.667606 0.667606 0.667606
0.583762 0.583762 0.583762
0.623303 0.623303 0.623303
0.646103 0.646103 0.646103
0.679996 0.679996 0.679996
0.736405 0.736405 0.736405
0.268613 0.268613 0.268613
0.552641 0.552641 0.552641
0.511042 0.511042 0.511042
0.661459 0.661459 0.661459
0.817545 0.817545 0.817545
0.277449 0.277449 0.277449
0.255950 0.255950 0.255950
0.388286 0.388286 0.388286
0.559750 0.559750 0.559750
0.797727 0.797727 0.797727
0.422664 0.422664 0.422664
0.402902 0.402902 0.402902
0.410961 0.410961 0.410961
0.524758 0.524758 0.524758
0.729195 0.729195 0.729195
0.557758 0.557758 0.557758
0.549423 0.549423 0.549423
0.550281 0.550281 0.550281
0.595337 0.595337 0.595337
0.681962 0.681962 0.681962
0.617724 0.617724 0.617724
0.653932 0.653932 0.653932
0.658813 0.658813 0.658813
0.691431 0.691431 0.691431
0.744892 0.744892 0.744892
0.574822 0.574822 0.574822
0.825297 0.825297 0.825297
0.846246 0.846246 0.846246
0.832659 0.832659 0.832659
0.861954 0.861954 0.861954
0.605047 0.605047 0.605047
0.700299 0.700299 0.700299
0.712628 0.712628 0.712628
0.779223 0.779223 0.779223
0.837050 0.837050 0.837050
0.527765 0.527765 0.527765
0.511340 0.511340 0.511340
0.504596 0.504596 0.504596
0.645355 0.645355 0.645355
0.803472 0.803472 0.803472
0.631238 0.631238 0.631238
0.621824 0.621824 0.621824
0.617018 0.617018 0.617018
0.654752 0.654752 0.654752
0.769629 0.769629 0.769629
0.714296 0.714296 0.714296
0.715763 0.715763 0.715763
0.709732 0.709732 0.709732
0.735480 0.735480 0.735480
0.787202 0.787202 0.787202
0.879660 0.879660 0.879660
0.931039 0.931039 0.931039
0.945397 0.945397 0.945397
0.928693 0.928693 0.928693
0.906626 0.906626 0.906626
0.898827 0.898827 0.898827
0.931316 0.931316 0.931316
0.920402 0.920402 0.920402
0.897642 0.897642 0.897642
0.887521 0.887521 0.887521
0.762248 0.762248 0.762248
0.776969 0.776969 0.776969
0.790876 0.790876 0.790876
0.821695 0.821695 0.821695
0.864595 0.864595 0.864595
0.741284 0.741284 0.741284
0.739650 0.739650 0.739650
0.745854 0.745854 0.745854
0.765056 0.765056 0.765056
0.847703 0.847703 0.847703
0.744735 0.744735 0.744735
0.747858 0.747858 0.747858
0.774643 0.774643 0.774643
0.796408 0.796408 0.796408
0.864278 0.864278 0.864278
0.980017 0.980017 0.980017
0.980843 0.980843 0.980843
0.985343 0.985343 0.985343
0.980446 0.980446 0.980446
0.952761 0.952761 0.952761
0.982363 0.982363 0.982363
0.983334 0.983334 0.983334
0.985277 0.985277 0.985277
0.967474 0.967474 0.967474
0.942445 0.942445 0.942445
0.946462 0.946462 0.946462
0.941184 0.941184 0.941184
0.930629 0.930629 0.930629
0.926657 0.926657 0.926657
0.926193 0.926193 0.926193
0.894455 0.894455 0.894455
0.890612 0.890612 0.890612
0.883867 0.883867 0.883867
0.888066 0.888066 0.888066
0.905927 0.905927 0.905927
0.812085 0.812085 0.812085
0.834180 0.834180 0.834180
0.871407 0.871407 0.871407
0.899560 0.899560 0.899560
0.917860 0.917860 0.917860
