LUTs/trix_modern/TriX_Blue47_Punchy.cube
TITLE "Tri-X Blue47 Punchy"
# Adobe RGB in/out. REPLACES AgX. Tri-X Blue47 Punchy.
LUT_3D_SIZE 9
DOMAIN_MIN 0.0 0.0 0.0
DOMAIN_MAX 1.0 1.0 1.0
0.091936 0.091936 0.091936
0.091936 0.091936 0.091936
0.091956 0.091956 0.091956
0.092021 0.092021 0.092021
0.093145 0.093145 0.093145
0.097757 0.097757 0.097757
0.108789 0.108789 0.108789
0.475900 0.475900 0.475900
0.698909 0.698909 0.698909
0.091936 0.091936 0.091936
0.091936 0.091936 0.091936
0.091958 0.091958 0.091958
0.092021 0.092021 0.092021
0.093098 0.093098 0.093098
0.097488 0.097488 0.097488
0.107231 0.107231 0.107231
0.468894 0.468894 0.468894
0.692371 0.692371 0.692371
0.091974 0.091974 0.091974
0.091978 0.091978 0.091978
0.091982 0.091982 0.091982
0.092037 0.092037 0.092037
0.093259 0.093259 0.093259
0.097438 0.097438 0.097438
0.105222 0.105222 0.105222
0.451688 0.451688 0.451688
0.671389 0.671389 0.671389
0.092071 0.092071 0.092071
0.092085 0.092085 0.092085
0.092232 0.092232 0.092232
0.092592 0.092592 0.092592
0.093842 0.093842 0.093842
0.098268 0.098268 0.098268
0.105511 0.105511 0.105511
0.122940 0.122940 0.122940
0.450305 0.450305 0.450305
0.094929 0.094929 0.094929
0.095083 0.095083 0.095083
0.095662 0.095662 0.095662
0.096320 0.096320 0.096320
0.097516 0.097516 0.097516
0.100979 0.100979 0.100979
0.107980 0.107980 0.107980
0.122318 0.122318 0.122318
0.253498 0.253498 0.253498
0.100240 0.100240 0.100240
0.100371 0.100371 0.100371
0.101519 0.101519 0.101519
0.102664 0.102664 0.102664
0.104150 0.104150 0.104150
0.107114 0.107114 0.107114
0.113430 0.113430 0.113430
0.126732 0.126732 0.126732
0.169195 0.169195 0.169195
0.106810 0.106810 0.106810
0.106941 0.106941 0.106941
0.108394 0.108394 0.108394
0.110944 0.110944 0.110944
0.113894 0.113894 0.113894
0.118192 0.118192 0.118192
0.124460 0.124460 0.124460
0.134651 0.134651 0.134651
0.161936 0.161936 0.161936
0.114198 0.114198 0.114198
0.113870 0.113870 0.113870
0.116010 0.116010 0.116010
0.119774 0.119774 0.119774
0.124224 0.124224 0.124224
0.129491 0.129491 0.129491
0.136681 0.136681 0.136681
0.146093 0.146093 0.146093
0.162326 0.162326 0.162326
0.110938 0.110938 0.110938
0.110612 0.110612 0.110612
0.109551 0.109551 0.109551
0.122523 0.122523 0.122523
0.129756 0.129756 0.129756
0.135873 0.135873 0.135873
0.142584 0.142584 0.142584
0.149547 0.149547 0.149547
0.156390 0.156390 0.156390
0.101857 0.101857 0.101857
0.187603 0.187603 0.187603
0.120964 0.120964 0.120964
0.112485 0.112485 0.112485
0.106708 0.106708 0.106708
0.109790 0.109790 0.109790
0.128251 0.128251 0.128251
0.472157 0.472157 0.472157
0.695518 0.695518 0.695518
0.093604 0.093604 0.093604
0.092784 0.092784 0.092784
0.097790 0.097790 0.097790
0.103643 0.103643 0.103643
0.104264 0.104264 0.104264
0.108060 0.108060 0.108060
0.123831 0.123831 0.123831
0.465231 0.465231 0.465231
0.689029 0.689029 0.689029
0.098638 0.098638 0.098638
0.096328 0.096328 0.096328
0.093755 0.093755 0.093755
0.097412 0.097412 0.097412
0.101426 0.101426 0.101426
0.106142 0.106142 0.106142
0.117475 0.117475 0.117475
0.450139 0.450139 0.450139
0.668226 0.668226 0.668226
0.102483 0.102483 0.102483
0.101339 0.101339 0.101339
0.098895 0.098895 0.098895
0.098332 0.098332 0.098332
0.101046 0.101046 0.101046
0.106016 0.106016 0.106016
0.115757 0.115757 0.115757
0.140028 0.140028 0.140028
0.638101 0.638101 0.638101
0.104811 0.104811 0.104811
0.104646 0.104646 0.104646
0.104431 0.104431 0.104431
0.104205 0.104205 0.104205
0.105549 0.105549 0.105549
0.108720 0.108720 0.108720
0.118633 0.118633 0.118633
0.136542 0.136542 0.136542
0.298208 0.298208 0.298208
0.109010 0.109010 0.109010
0.109154 0.109154 0.109154
0.110766 0.110766 0.110766
0.112089 0.112089 0.112089
0.114015 0.114015 0.114015
0.118174 0.118174 0.118174
0.125151 0.125151 0.125151
0.141113 0.141113 0.141113
0.188970 0.188970 0.188970
0.115674 0.115674 0.115674
0.115964 0.115964 0.115964
0.118751 0.118751 0.118751
0.122057 0.122057 0.122057
0.125749 0.125749 0.125749
0.130657 0.130657 0.130657
0.138867 0.138867 0.138867
0.149462 0.149462 0.149462
0.177029 0.177029 0.177029
0.120477 0.120477 0.120477
0.120504 0.120504 0.120504
0.125266 0.125266 0.125266
0.129995 0.129995 0.129995
0.136003 0.136003 0.136003
0.142960 0.142960 0.142960
0.150772 0.150772 0.150772
0.160315 0.160315 0.160315
0.175658 0.175658 0.175658
0.208678 0.208678 0.208678
0.207350 0.207350 0.207350
0.202958 0.202958 0.202958
0.196154 0.196154 0.196154
0.138476 0.138476 0.138476
0.146228 0.146228 0.146228
0.153438 0.153438 0.153438
0.160488 0.160488 0.160488
0.166255 0.166255 0.166255
0.322273 0.322273 0.322273
0.586815 0.586815 0.586815
0.558505 0.558505 0.558505
0.505254 0.505254 0.505254
0.449431 0.449431 0.449431
0.444546 0.444546 0.444546
0.469588 0.469588 0.469588
0.495469 0.495469 0.495469
0.688584 0.688584 0.688584
0.321801 0.321801 0.321801
0.413614 0.413614 0.413614
0.402225 0.402225 0.402225
0.388594 0.388594 0.388594
0.381517 0.381517 0.381517
0.399210 0.399210 0.399210
0.431600 0.431600 0.431600
0.491989 0.491989 0.491989
0.682056 0.682056 0.682056
0.204995 0.204995 0.204995
0.180235 0.180235 0.180235
0.152941 0.152941 0.152941
0.202923 0.202923 0.202923
0.254525 0.254525 0.254525
0.298830 0.298830 0.298830
0.331624 0.331624 0.331624
0.486469 0.486469 0.486469
0.661303 0.661303 0.661303
0.226331 0.226331 0.226331
0.212100 0.212100 0.212100
0.180358 0.180358 0.180358
0.162977 0.162977 0.162977
0.189344 0.189344 0.189344
0.231099 0.231099 0.231099
0.260669 0.260669 0.260669
0.333709 0.333709 0.333709
0.631440 0.631440 0.631440
0.232571 0.232571 0.232571
0.225610 0.225610 0.225610
0.208205 0.208205 0.208205
0.191224 0.191224 0.191224
0.184907 0.184907 0.184907
0.203982 0.203982 0.203982
0.227946 0.227946 0.227946
0.272595 0.272595 0.272595
0.463200 0.463200 0.463200
0.235763 0.235763 0.235763
0.232066 0.232066 0.232066
0.223967 0.223967 0.223967
0.214132 0.214132 0.214132
0.207961 0.207961 0.207961
0.209036 0.209036 0.209036
0.217728 0.217728 0.217728
0.249550 0.249550 0.249550
0.318764 0.318764 0.318764
0.224877 0.224877 0.224877
0.223395 0.223395 0.223395
0.221322 0.221322 0.221322
0.218740 0.218740 0.218740
0.217350 0.217350 0.217350
0.219297 0.219297 0.219297
0.225662 0.225662 0.225662
0.242246 0.242246 0.242246
0.271814 0.271814 0.271814
0.218994 0.218994 0.218994
0.218615 0.218615 0.218615
0.222151 0.222151 0.222151
0.223703 0.223703 0.223703
0.225955 0.225955 0.225955
0.229504 0.229504 0.229504
0.235793 0.235793 0.235793
0.244766 0.244766 0.244766
0.254313 0.254313 0.254313
0.206470 0.206470 0.206470
0.205183 0.205183 0.205183
0.200929 0.200929 0.200929
0.194352 0.194352 0.194352
0.193400 0.193400 0.193400
0.207097 0.207097 0.207097
0.215421 0.215421 0.215421
0.222645 0.222645 0.222645
0.227532 0.227532 0.227532
0.599000 0.599000 0.599000
0.793205 0.793205 0.793205
0.829258 0.829258 0.829258
0.820949 0.820949 0.820949
0.769780 0.769780 0.769780
0.729091 0.729091 0.729091
0.724526 0.724526 0.724526
0.770688 0.770688 0.770688
0.752739 0.752739 0.752739
0.609884 0.609884 0.609884
0.720793 0.720793 0.720793
0.792417 0.792417 0.792417
0.756072 0.756072 0.756072
0.710975 0.710975 0.710975
0.689906 0.689906 0.689906
0.698084 0.698084 0.698084
0.754698 0.754698 0.754698
0.747163 0.747163 0.747163
0.480729 0.480729 0.480729
0.480806 0.480806 0.480806
0.493285 0.493285 0.493285
0.512395 0.512395 0.512395
0.544397 0.544397 0.544397
0.569110 0.569110 0.569110
0.603379 0.603379 0.603379
0.676821 0.676821 0.676821
0.729460 0.729460 0.729460
0.422768 0.422768 0.422768
0.410126 0.410126 0.410126
0.368511 0.368511 0.368511
0.338495 0.338495 0.338495
0.397190 0.397190 0.397190
0.447783 0.447783 0.447783
0.492862 0.492862 0.492862
0.568460 0.568460 0.568460
0.700358 0.700358 0.700358
0.425403 0.425403 0.425403
0.417539 0.417539 0.417539
0.392771 0.392771 0.392771
0.362192 0.362192 0.362192
0.347256 0.347256 0.347256
0.377673 0.377673 0.377673
0.420055 0.420055 0.420055
0.469643 0.469643 0.469643
0.633489 0.633489 0.633489
0.417652 0.417652 0.417652
0.413293 0.413293 0.413293
0.399506 0.399506 0.399506
0.380810 0.380810 0.380810
0.366419 0.366419 0.366419
0.363005 0.363005 0.363005
0.380779 0.380779 0.380779
0.416663 0.416663 0.416663
0.535678 0.535678 0.535678
0.400688 0.400688 0.400688
0.397770 0.397770 0.397770
0.390913 0.390913 0.390913
0.381672 0.381672 0.381672
0.373455 0.373455 0.373455
0.369775 0.369775 0.369775
0.372637 0.372637 0.372637
0.386934 0.386934 0.386934
0.453777 0.453777 0.453777
0.376670 0.376670 0.376670
0.375107 0.375107 0.375107
0.373087 0.373087 0.373087
0.369365 0.369365 0.369365
0.366643 0.366643 0.366643
0.365830 0.365830 0.365830
0.368191 0.368191 0.368191
0.374843 0.374843 0.374843
0.408891 0.408891 0.408891
0.379128 0.379128 0.379128
0.377325 0.377325 0.377325
0.371330 0.371330 0.371330
0.317156 0.317156 0.317156
0.344573 0.344573 0.344573
0.346136 0.346136 0.346136
0.348890 0.348890 0.348890
0.351883 0.351883 0.351883
0.364573 0.364573 0.364573
0.829497 0.829497 0.829497
0.900629 0.900629 0.900629
0.946918 0.946918 0.946918
0.947241 0.947241 0.947241
0.941245 0.941245 0.941245
0.904462 0.904462 0.904462
0.881645 0.881645 0.881645
0.879652 0.879652 0.879652
0.886020 0.886020 0.886020
0.836511 0.836511 0.836511
0.891063 0.891063 0.891063
0.939346 0.939346 0.939346
0.941611 0.941611 0.941611
0.916691 0.916691 0.916691
0.884129 0.884129 0.884129
0.865980 0.865980 0.865980
0.869288 0.869288 0.869288
0.878744 0.878744 0.878744
0.809783 0.809783 0.809783
0.821227 0.821227 0.821227
0.843148 0.843148 0.843148
0.827464 0.827464 0.827464
0.809294 0.809294 0.809294
0.802106 0.802106 0.802106
0.806355 0.806355 0.806355
0.825150 0.825150 0.825150
0.849054 0.849054 0.849054
0.629917 0.629917 0.629917
0.625229 0.625229 0.625229
0.617367 0.617367 0.617367
0.615735 0.615735 0.615735
0.636459 0.636459 0.636459
0.671581 0.671581 0.671581
0.707929 0.707929 0.707929
0.751314 0.751314 0.751314
0.821309 0.821309 0.821309
0.589232 0.589232 0.589232
0.582612 0.582612 0.582612
0.563659 0.563659 0.563659
0.534748 0.534748 0.534748
0.513339 0.513339 0.513339
0.559709 0.559709 0.559709
0.605708 0.605708 0.605708
0.662120 0.662120 0.662120
0.759836 0.759836 0.759836
0.575498 0.575498 0.575498
0.571047 0.571047 0.571047
0.559063 0.559063 0.559063
0.540833 0.540833 0.540833
0.522755 0.522755 0.522755
0.516626 0.516626 0.516626
0.544079 0.544079 0.544079
0.585882 0.585882 0.585882
0.695461 0.695461 0.695461
0.555195 0.555195 0.555195
0.552645 0.552645 0.552645
0.545826 0.545826 0.545826
0.535169 0.535169 0.535169
0.524761 0.524761 0.524761
0.518386 0.518386 0.518386
0.520229 0.520229 0.520229
0.539718 0.539718 0.539718
0.626738 0.626738 0.626738
0.524269 0.524269 0.524269
0.522613 0.522613 0.522613
0.519575 0.519575 0.519575
0.514601 0.514601 0.514601
0.509951 0.509951 0.509951
0.507070 0.507070 0.507070
0.507460 0.507460 0.507460
0.513364 0.513364 0.513364
0.565448 0.565448 0.565448
0.541618 0.541618 0.541618
0.539718 0.539718 0.539718
0.533368 0.533368 0.533368
0.479966 0.479966 0.479966
0.480343 0.480343 0.480343
0.480280 0.480280 0.480280
0.480611 0.480611 0.480611
0.481730 0.481730 0.481730
0.516009 0.516009 0.516009
0.955087 0.955087 0.955087
0.970973 0.970973 0.970973
0.982500 0.982500 0.982500
0.982762 0.982762 0.982762
0.982912 0.982912 0.982912
0.973617 0.973617 0.973617
0.959104 0.959104 0.959104
0.946378 0.946378 0.946378
0.934332 0.934332 0.934332
0.957153 0.957153 0.957153
0.969876 0.969876 0.969876
0.981707 0.981707 0.981707
0.982375 0.982375 0.982375
0.982004 0.982004 0.982004
0.967542 0.967542 0.967542
0.952200 0.952200 0.952200
0.940943 0.940943 0.940943
0.931171 0.931171 0.931171
0.957687 0.957687 0.957687
0.964233 0.964233 0.964233
0.976203 0.976203 0.976203
0.967847 0.967847 0.967847
0.952944 0.952944 0.952944
0.936480 0.936480 0.936480
0.925647 0.925647 0.925647
0.919299 0.919299 0.919299
0.917536 0.917536 0.917536
0.861305 0.861305 0.861305
0.863124 0.863124 0.863124
0.873144 0.873144 0.873144
0.870377 0.870377 0.870377
0.863762 0.863762 0.863762
0.862357 0.862357 0.862357
0.866970 0.866970 0.866970
0.877496 0.877496 0.877496
0.891863 0.891863 0.891863
0.766787 0.766787 0.766787
0.763394 0.763394 0.763394
0.756897 0.756897 0.756897
0.744955 0.744955 0.744955
0.740776 0.740776 0.740776
0.757686 0.757686 0.757686
0.785737 0.785737 0.785737
0.817560 0.817560 0.817560
0.855941 0.855941 0.855941
0.729467 0.729467 0.729467
0.726194 0.726194 0.726194
0.717290 0.717290 0.717290
0.702449 0.702449 0.702449
0.682731 0.682731 0.682731
0.667998 0.667998 0.667998
0.708699 0.708699 0.708699
0.750305 0.750305 0.750305
0.814360 0.814360 0.814360
0.702588 0.702588 0.702588
0.700048 0.700048 0.700048
0.693649 0.693649 0.693649
0.683897 0.683897 0.683897
0.673374 0.673374 0.673374
0.665327 0.665327 0.665327
0.666785 0.666785 0.666785
0.695263 0.695263 0.695263
0.770007 0.770007 0.770007
0.664154 0.664154 0.664154
0.662702 0.662702 0.662702
0.660113 0.660113 0.660113
0.655475 0.655475 0.655475
0.650883 0.650883 0.650883
0.647683 0.647683 0.647683
0.647838 0.647838 0.647838
0.655087 0.655087 0.655087
0.722825 0.722825 0.722825
0.595434 0.595434 0.595434
0.596970 0.596970 0.596970
0.603426 0.603426 0.603426
0.608788 0.608788 0.608788
0.609857 0.609857 0.609857
0.609898 0.609898 0.609898
0.610112 0.610112 0.610112
0.610562 0.610562 0.610562
0.675812 0.675812 0.675812
0.986564 0.986564 0.986564
0.988851 0.988851 0.988851
0.990817 0.990817 0.990817
0.991063 0.991063 0.991063
0.991196 0.991196 0.991196
0.989091 0.989091 0.989091
0.983895 0.983895 0.983895
0.977330 0.977330 0.977330
0.969448 0.969448 0.969448
0.986727 0.986727 0.986727
0.988695 0.988695 0.988695
0.990636 0.990636 0.990636
0.990931 0.990931 0.990931
0.991087 0.991087 0.991087
0.987405 0.987405 0.987405
0.982680 0.982680 0.982680
0.975249 0.975249 0.975249
0.967172 0.967172 0.967172
0.986958 0.986958 0.986958
0.988049 0.988049 0.988049
0.989823 0.989823 0.989823
0.990307 0.990307 0.990307
0.985967 0.985967 0.985967
0.981558 0.981558 0.981558
0.973752 0.973752 0.973752
0.966636 0.966636 0.966636
0.959385 0.959385 0.959385
0.974580 0.974580 0.974580
0.974975 0.974975 0.974975
0.975186 0.975186 0.975186
0.971859 0.971859 0.971859
0.965025 0.965025 0.965025
0.958493 0.958493 0.958493
0.951380 0.951380 0.951380
0.946673 0.946673 0.946673
0.945986 0.945986 0.945986
0.919114 0.919114 0.919114
0.919147 0.919147 0.919147
0.920087 0.920087 0.920087
0.915798 0.915798 0.915798
0.909659 0.909659 0.909659
0.907002 0.907002 0.907002
0.908747 0.908747 0.908747
0.914037 0.914037 0.914037
0.923495 0.923495 0.923495
0.870209 0.870209 0.870209
0.868851 0.868851 0.868851
0.865985 0.865985 0.865985
0.859165 0.859165 0.859165
0.849349 0.849349 0.849349
0.845644 0.845644 0.845644
0.856301 0.856301 0.856301
0.874771 0.874771 0.874771
0.894206 0.894206 0.894206
0.834790 0.834790 0.834790
0.833606 0.833606 0.833606
0.830903 0.830903 0.830903
0.826306 0.826306 0.826306
0.819922 0.819922 0.819922
0.811925 0.811925 0.811925
0.803966 0.803966 0.803966
0.832031 0.832031 0.832031
0.869650 0.869650 0.869650
0.797504 0.797504 0.797504
0.796533 0.796533 0.796533
0.795236 0.795236 0.795236
0.792743 0.792743 0.792743
0.790242 0.790242 0.790242
0.788118 0.788118 0.788118
0.788265 0.788265 0.788265
0.795691 0.795691 0.795691
0.844618 0.844618 0.844618
0.686210 0.686210 0.686210
0.684497 0.684497 0.684497
0.679414 0.679414 0.679414
0.738698 0.738698 0.738698
0.740527 0.740527 0.740527
0.741551 0.741551 0.741551
0.742213 0.742213 0.742213
0.742520 0.742520 0.742520
0.821051 0.821051 0.821051
0.995766 0.995766 0.995766
0.995846 0.995846 0.995846
0.995947 0.995947 0.995947
0.995967 0.995967 0.995967
0.995985 0.995985 0.995985
0.995825 0.995825 0.995825
0.991695 0.991695 0.991695
0.987568 0.987568 0.987568
0.983336 0.983336 0.983336
0.995759 0.995759 0.995759
0.995833 0.995833 0.995833
0.995938 0.995938 0.995938
0.995960 0.995960 0.995960
0.995979 0.995979 0.995979
0.995514 0.995514 0.995514
0.990706 0.990706 0.990706
0.986777 0.986777 0.986777
0.982782 0.982782 0.982782
0.995732 0.995732 0.995732
0.995784 0.995784 0.995784
0.995883 0.995883 0.995883
0.995919 0.995919 0.995919
0.995317 0.995317 0.995317
0.991124 0.991124 0.991124
0.987328 0.987328 0.987328
0.984115 0.984115 0.984115
0.979187 0.979187 0.979187
0.993054 0.993054 0.993054
0.992808 0.992808 0.992808
0.991796 0.991796 0.991796
0.989768 0.989768 0.989768
0.987152 0.987152 0.987152
0.984453 0.984453 0.984453
0.981897 0.981897 0.981897
0.977154 0.977154 0.977154
0.973017 0.973017 0.973017
0.981486 0.981486 0.981486
0.981239 0.981239 0.981239
0.980078 0.980078 0.980078
0.977226 0.977226 0.977226
0.973743 0.973743 0.973743
0.970257 0.970257 0.970257
0.966429 0.966429 0.966429
0.963752 0.963752 0.963752
0.961418 0.961418 0.961418
0.959834 0.959834 0.959834
0.959662 0.959662 0.959662
0.958831 0.958831 0.958831
0.954930 0.954930 0.954930
0.948728 0.948728 0.948728
0.944177 0.944177 0.944177
0.942627 0.942627 0.942627
0.943608 0.943608 0.943608
0.945361 0.945361 0.945361
0.934657 0.934657 0.934657
0.934573 0.934573 0.934573
0.934674 0.934674 0.934674
0.932845 0.932845 0.932845
0.928530 0.928530 0.928530
0.921697 0.921697 0.921697
0.918646 0.918646 0.918646
0.924176 0.924176 0.924176
0.931186 0.931186 0.931186
0.904290 0.904290 0.904290
0.904060 0.904060 0.904060
0.904643 0.904643 0.904643
0.905171 0.905171 0.905171
0.905405 0.905405 0.905405
0.904124 0.904124 0.904124
0.902093 0.902093 0.902093
0.899279 0.899279 0.899279
0.919591 0.919591 0.919591
0.824978 0.824978 0.824978
0.825897 0.825897 0.825897
0.836358 0.836358 0.836358
0.855390 0.855390 0.855390
0.858039 0.858039 0.858039
0.860747 0.860747 0.860747
0.862814 0.862814 0.862814
0.863178 0.863178 0.863178
0.908959 0.908959 0.908959
0.997139 0.997139 0.997139
0.997140 0.997140 0.997140
0.997143 0.997143 0.997143
0.997150 0.997150 0.997150
0.997160 0.997160 0.997160
0.997172 0.997172 0.997172
0.995994 0.995994 0.995994
0.993097 0.993097 0.993097
0.987963 0.987963 0.987963
0.997140 0.997140 0.997140
0.997141 0.997141 0.997141
0.997144 0.997144 0.997144
0.997151 0.997151 0.997151
0.997161 0.997161 0.997161
0.996921 0.996921 0.996921
0.995790 0.995790 0.995790
0.992431 0.992431 0.992431
0.987988 0.987988 0.987988
0.997139 0.997139 0.997139
0.997140 0.997140 0.997140
0.997144 0.997144 0.997144
0.997152 0.997152 0.997152
0.997019 0.997019 0.997019
0.996036 0.996036 0.996036
0.993798 0.993798 0.993798
0.990224 0.990224 0.990224
0.986175 0.986175 0.986175
0.996934 0.996934 0.996934
0.996840 0.996840 0.996840
0.996522 0.996522 0.996522
0.996014 0.996014 0.996014
0.994998 0.994998 0.994998
0.992109 0.992109 0.992109
0.989342 0.989342 0.989342
0.986626 0.986626 0.986626
0.983984 0.983984 0.983984
0.991957 0.991957 0.991957
0.991697 0.991697 0.991697
0.990829 0.990829 0.990829
0.989447 0.989447 0.989447
0.987699 0.987699 0.987699
0.985820 0.985820 0.985820
0.984030 0.984030 0.984030
0.982390 0.982390 0.982390
0.979134 0.979134 0.979134
0.984840 0.984840 0.984840
0.984618 0.984618 0.984618
0.983885 0.983885 0.983885
0.982742 0.982742 0.982742
0.980447 0.980447 0.980447
0.977557 0.977557 0.977557
0.975173 0.975173 0.975173
0.973241 0.973241 0.973241
0.971602 0.971602 0.971602
0.978593 0.978593 0.978593
0.978138 0.978138 0.978138
0.976594 0.976594 0.976594
0.974112 0.974112 0.974112
0.971241 0.971241 0.971241
0.967412 0.967412 0.967412
0.964856 0.964856 0.964856
0.963584 0.963584 0.963584
0.963034 0.963034 0.963034
0.972357 0.972357 0.972357
0.972217 0.972217 0.972217
0.971392 0.971392 0.971392
0.968816 0.968816 0.968816
0.965314 0.965314 0.965314
0.961731 0.961731 0.961731
0.958886 0.958886 0.958886
0.957501 0.957501 0.957501
0.957781 0.957781 0.957781
0.910250 0.910250 0.910250
0.934777 0.934777 0.934777
0.932742 0.932742 0.932742
0.929463 0.929463 0.929463
0.955849 0.955849 0.955849
0.959290 0.959290 0.959290
0.957735 0.957735 0.957735
0.956470 0.956470 0.956470
0.956150 0.956150 0.956150
