LUTs/trix_modern/TriX_Green58_Normal.cube
TITLE "Tri-X Green58 Normal"
# Adobe RGB in/out. REPLACES AgX. Tri-X Green58 Normal.
LUT_3D_SIZE 33
DOMAIN_MIN 0.0 0.0 0.0
DOMAIN_MAX 1.0 1.0 1.0
0.093230 0.093230 0.093230
0.093230 0.093230 0.093230
0.093230 0.093230 0.093230
0.093230 0.093230 0.093230
0.093256 0.093256 0.093256
0.093275 0.093275 0.093275
0.093736 0.093736 0.093736
0.095375 0.095375 0.095375
0.096902 0.096902 0.096902
0.100266 0.100266 0.100266
0.108943 0.108943 0.108943
0.117620 0.117620 0.117620
0.126767 0.126767 0.126767
0.139872 0.139872 0.139872
0.159192 0.159192 0.159192
0.170398 0.170398 0.170398
0.181557 0.181557 0.181557
0.195511 0.195511 0.195511
0.212473 0.212473 0.212473
0.219299 0.219299 0.219299
0.226416 0.226416 0.226416
0.234982 0.234982 0.234982
0.241325 0.241325 0.241325
0.239933 0.239933 0.239933
0.239417 0.239417 0.239417
0.236365 0.236365 0.236365
0.216290 0.216290 0.216290
0.203159 0.203159 0.203159
0.150883 0.150883 0.150883
0.148499 0.148499 0.148499
0.146201 0.146201 0.146201
0.143946 0.143946 0.143946
0.302335 0.302335 0.302335
0.093231 0.093231 0.093231
0.093230 0.093230 0.093230
0.093230 0.093230 0.093230
0.093230 0.093230 0.093230
0.093262 0.093262 0.093262
0.093314 0.093314 0.093314
0.093788 0.093788 0.093788
0.095592 0.095592 0.095592
0.097268 0.097268 0.097268
0.100569 0.100569 0.100569
0.109793 0.109793 0.109793
0.118393 0.118393 0.118393
0.127773 0.127773 0.127773
0.140950 0.140950 0.140950
0.160289 0.160289 0.160289
0.171587 0.171587 0.171587
0.182712 0.182712 0.182712
0.196658 0.196658 0.196658
0.213568 0.213568 0.213568
0.220365 0.220365 0.220365
0.227461 0.227461 0.227461
0.236019 0.236019 0.236019
0.242357 0.242357 0.242357
0.240943 0.240943 0.240943
0.240402 0.240402 0.240402
0.237321 0.237321 0.237321
0.217160 0.217160 0.217160
0.203922 0.203922 0.203922
0.150757 0.150757 0.150757
0.148385 0.148385 0.148385
0.146097 0.146097 0.146097
0.143853 0.143853 0.143853
0.302192 0.302192 0.302192
0.093248 0.093248 0.093248
0.093241 0.093241 0.093241
0.093230 0.093230 0.093230
0.093244 0.093244 0.093244
0.093325 0.093325 0.093325
0.093493 0.093493 0.093493
0.094073 0.094073 0.094073
0.097019 0.097019 0.097019
0.098846 0.098846 0.098846
0.102373 0.102373 0.102373
0.113240 0.113240 0.113240
0.122569 0.122569 0.122569
0.131705 0.131705 0.131705
0.145113 0.145113 0.145113
0.164481 0.164481 0.164481
0.176096 0.176096 0.176096
0.187060 0.187060 0.187060
0.200955 0.200955 0.200955
0.217646 0.217646 0.217646
0.224321 0.224321 0.224321
0.231327 0.231327 0.231327
0.239846 0.239846 0.239846
0.246161 0.246161 0.246161
0.244665 0.244665 0.244665
0.244028 0.244028 0.244028
0.240843 0.240843 0.240843
0.220377 0.220377 0.220377
0.206748 0.206748 0.206748
0.150308 0.150308 0.150308
0.147976 0.147976 0.147976
0.145728 0.145728 0.145728
0.143520 0.143520 0.143520
0.301679 0.301679 0.301679
0.093901 0.093901 0.093901
0.093817 0.093817 0.093817
0.093551 0.093551 0.093551
0.093330 0.093330 0.093330
0.093713 0.093713 0.093713
0.093828 0.093828 0.093828
0.095410 0.095410 0.095410
0.099826 0.099826 0.099826
0.101672 0.101672 0.101672
0.106634 0.106634 0.106634
0.121898 0.121898 0.121898
0.132478 0.132478 0.132478
0.140890 0.140890 0.140890
0.154082 0.154082 0.154082
0.174097 0.174097 0.174097
0.185447 0.185447 0.185447
0.195938 0.195938 0.195938
0.209158 0.209158 0.209158
0.225776 0.225776 0.225776
0.232146 0.232146 0.232146
0.238930 0.238930 0.238930
0.247334 0.247334 0.247334
0.253578 0.253578 0.253578
0.251911 0.251911 0.251911
0.251079 0.251079 0.251079
0.247692 0.247692 0.247692
0.226691 0.226691 0.226691
0.212322 0.212322 0.212322
0.149497 0.149497 0.149497
0.147237 0.147237 0.147237
0.145058 0.145058 0.145058
0.142918 0.142918 0.142918
0.300743 0.300743 0.300743
0.113247 0.113247 0.113247
0.110713 0.110713 0.110713
0.105113 0.105113 0.105113
0.100159 0.100159 0.100159
0.097244 0.097244 0.097244
0.095512 0.095512 0.095512
0.098807 0.098807 0.098807
0.105360 0.105360 0.105360
0.107734 0.107734 0.107734
0.115446 0.115446 0.115446
0.134944 0.134944 0.134944
0.145683 0.145683 0.145683
0.154743 0.154743 0.154743
0.169411 0.169411 0.169411
0.192646 0.192646 0.192646
0.202390 0.202390 0.202390
0.211069 0.211069 0.211069
0.223243 0.223243 0.223243
0.239625 0.239625 0.239625
0.245316 0.245316 0.245316
0.251605 0.251605 0.251605
0.259716 0.259716 0.259716
0.265772 0.265772 0.265772
0.263796 0.263796 0.263796
0.262623 0.262623 0.262623
0.258917 0.258917 0.258917
0.237195 0.237195 0.237195
0.221667 0.221667 0.221667
0.148321 0.148321 0.148321
0.146159 0.146159 0.146159
0.144080 0.144080 0.144080
0.142090 0.142090 0.142090
0.299368 0.299368 0.299368
0.158084 0.158084 0.158084
0.153871 0.153871 0.153871
0.143007 0.143007 0.143007
0.126419 0.126419 0.126419
0.111411 0.111411 0.111411
0.104357 0.104357 0.104357
0.106408 0.106408 0.106408
0.119159 0.119159 0.119159
0.120659 0.120659 0.120659
0.130324 0.130324 0.130324
0.152128 0.152128 0.152128
0.163128 0.163128 0.163128
0.172470 0.172470 0.172470
0.187733 0.187733 0.187733
0.210081 0.210081 0.210081
0.220773 0.220773 0.220773
0.231306 0.231306 0.231306
0.246107 0.246107 0.246107
0.262157 0.262157 0.262157
0.266375 0.266375 0.266375
0.271353 0.271353 0.271353
0.276729 0.276729 0.276729
0.280767 0.280767 0.280767
0.278961 0.278961 0.278961
0.277707 0.277707 0.277707
0.274695 0.274695 0.274695
0.253740 0.253740 0.253740
0.236572 0.236572 0.236572
0.146804 0.146804 0.146804
0.144755 0.144755 0.144755
0.142802 0.142802 0.142802
0.300800 0.300800 0.300800
0.297561 0.297561 0.297561
0.251231 0.251231 0.251231
0.249112 0.249112 0.249112
0.234307 0.234307 0.234307
0.207288 0.207288 0.207288
0.175643 0.175643 0.175643
0.152618 0.152618 0.152618
0.138424 0.138424 0.138424
0.145878 0.145878 0.145878
0.143650 0.143650 0.143650
0.152137 0.152137 0.152137
0.175889 0.175889 0.175889
0.187411 0.187411 0.187411
0.194679 0.194679 0.194679
0.209224 0.209224 0.209224
0.232397 0.232397 0.232397
0.244254 0.244254 0.244254
0.251734 0.251734 0.251734
0.264617 0.264617 0.264617
0.279958 0.279958 0.279958
0.285257 0.285257 0.285257
0.291770 0.291770 0.291770
0.298448 0.298448 0.298448
0.301811 0.301811 0.301811
0.299309 0.299309 0.299309
0.297345 0.297345 0.297345
0.293824 0.293824 0.293824
0.277177 0.277177 0.277177
0.260347 0.260347 0.260347
0.145014 0.145014 0.145014
0.143052 0.143052 0.143052
0.141247 0.141247 0.141247
0.298440 0.298440 0.298440
0.295342 0.295342 0.295342
0.335729 0.335729 0.335729
0.334199 0.334199 0.334199
0.326824 0.326824 0.326824
0.301814 0.301814 0.301814
0.274488 0.274488 0.274488
0.243217 0.243217 0.243217
0.217630 0.217630 0.217630
0.200085 0.200085 0.200085
0.176187 0.176187 0.176187
0.181170 0.181170 0.181170
0.206907 0.206907 0.206907
0.215358 0.215358 0.215358
0.220708 0.220708 0.220708
0.234368 0.234368 0.234368
0.257492 0.257492 0.257492
0.267186 0.267186 0.267186
0.274441 0.274441 0.274441
0.285342 0.285342 0.285342
0.299489 0.299489 0.299489
0.302821 0.302821 0.302821
0.307803 0.307803 0.307803
0.315307 0.315307 0.315307
0.322342 0.322342 0.322342
0.324118 0.324118 0.324118
0.326919 0.326919 0.326919
0.322900 0.322900 0.322900
0.307495 0.307495 0.307495
0.291740 0.291740 0.291740
0.143217 0.143217 0.143217
0.141107 0.141107 0.141107
0.139450 0.139450 0.139450
0.295621 0.295621 0.295621
0.292749 0.292749 0.292749
0.378258 0.378258 0.378258
0.376846 0.376846 0.376846
0.366514 0.366514 0.366514
0.344287 0.344287 0.344287
0.318866 0.318866 0.318866
0.293474 0.293474 0.293474
0.271859 0.271859 0.271859
0.248737 0.248737 0.248737
0.231987 0.231987 0.231987
0.221419 0.221419 0.221419
0.242204 0.242204 0.242204
0.248150 0.248150 0.248150
0.251421 0.251421 0.251421
0.263431 0.263431 0.263431
0.282042 0.282042 0.282042
0.288306 0.288306 0.288306
0.294394 0.294394 0.294394
0.304750 0.304750 0.304750
0.318757 0.318757 0.318757
0.323877 0.323877 0.323877
0.331008 0.331008 0.331008
0.336558 0.336558 0.336558
0.342200 0.342200 0.342200
0.342647 0.342647 0.342647
0.344559 0.344559 0.344559
0.346551 0.346551 0.346551
0.340674 0.340674 0.340674
0.335875 0.335875 0.335875
0.151510 0.151510 0.151510
0.139278 0.139278 0.139278
0.137510 0.137510 0.137510
0.292454 0.292454 0.292454
0.289828 0.289828 0.289828
0.439837 0.439837 0.439837
0.436559 0.436559 0.436559
0.423779 0.423779 0.423779
0.403834 0.403834 0.403834
0.378421 0.378421 0.378421
0.351701 0.351701 0.351701
0.327047 0.327047 0.327047
0.306180 0.306180 0.306180
0.289354 0.289354 0.289354
0.276947 0.276947 0.276947
0.284385 0.284385 0.284385
0.281976 0.281976 0.281976
0.282106 0.282106 0.282106
0.289616 0.289616 0.289616
0.306383 0.306383 0.306383
0.311492 0.311492 0.311492
0.316403 0.316403 0.316403
0.325834 0.325834 0.325834
0.340821 0.340821 0.340821
0.345916 0.345916 0.345916
0.350727 0.350727 0.350727
0.359443 0.359443 0.359443
0.368562 0.368562 0.368562
0.369579 0.369579 0.369579
0.369645 0.369645 0.369645
0.370202 0.370202 0.370202
0.363209 0.363209 0.363209
0.356862 0.356862 0.356862
0.342439 0.342439 0.342439
0.325775 0.325775 0.325775
0.276205 0.276205 0.276205
0.289004 0.289004 0.289004
0.286634 0.286634 0.286634
0.519629 0.519629 0.519629
0.515979 0.515979 0.515979
0.503893 0.503893 0.503893
0.486918 0.486918 0.486918
0.463322 0.463322 0.463322
0.436926 0.436926 0.436926
0.410082 0.410082 0.410082
0.384483 0.384483 0.384483
0.362489 0.362489 0.362489
0.344609 0.344609 0.344609
0.331461 0.331461 0.331461
0.319854 0.319854 0.319854
0.311243 0.311243 0.311243
0.317132 0.317132 0.317132
0.333333 0.333333 0.333333
0.336843 0.336843 0.336843
0.340330 0.340330 0.340330
0.349531 0.349531 0.349531
0.365447 0.365447 0.365447
0.369036 0.369036 0.369036
0.375207 0.375207 0.375207
0.384801 0.384801 0.384801
0.391563 0.391563 0.391563
0.393459 0.393459 0.393459
0.397658 0.397658 0.397658
0.402861 0.402861 0.402861
0.394430 0.394430 0.394430
0.386304 0.386304 0.386304
0.370684 0.370684 0.370684
0.350443 0.350443 0.350443
0.286929 0.286929 0.286929
0.285338 0.285338 0.285338
0.283231 0.283231 0.283231
0.566374 0.566374 0.566374
0.563233 0.563233 0.563233
0.552908 0.552908 0.552908
0.537828 0.537828 0.537828
0.516853 0.516853 0.516853
0.492314 0.492314 0.492314
0.466980 0.466980 0.466980
0.442012 0.442012 0.442012
0.419097 0.419097 0.419097
0.398347 0.398347 0.398347
0.381175 0.381175 0.381175
0.367953 0.367953 0.367953
0.350714 0.350714 0.350714
0.347604 0.347604 0.347604
0.363577 0.363577 0.363577
0.365361 0.365361 0.365361
0.368043 0.368043 0.368043
0.376551 0.376551 0.376551
0.391528 0.391528 0.391528
0.394491 0.394491 0.394491
0.401288 0.401288 0.401288
0.409033 0.409033 0.409033
0.418103 0.418103 0.418103
0.421801 0.421801 0.421801
0.423632 0.423632 0.423632
0.426785 0.426785 0.426785
0.424357 0.424357 0.424357
0.422983 0.422983 0.422983
0.411919 0.411919 0.411919
0.389275 0.389275 0.389275
0.316487 0.316487 0.316487
0.281579 0.281579 0.281579
0.279790 0.279790 0.279790
0.604761 0.604761 0.604761
0.602030 0.602030 0.602030
0.592892 0.592892 0.592892
0.578841 0.578841 0.578841
0.560536 0.560536 0.560536
0.538819 0.538819 0.538819
0.514998 0.514998 0.514998
0.490375 0.490375 0.490375
0.467145 0.467145 0.467145
0.446033 0.446033 0.446033
0.427931 0.427931 0.427931
0.411919 0.411919 0.411919
0.399228 0.399228 0.399228
0.391119 0.391119 0.391119
0.396908 0.396908 0.396908
0.397234 0.397234 0.397234
0.398370 0.398370 0.398370
0.405985 0.405985 0.405985
0.420093 0.420093 0.420093
0.422041 0.422041 0.422041
0.427196 0.427196 0.427196
0.435100 0.435100 0.435100
0.444440 0.444440 0.444440
0.445827 0.445827 0.445827
0.450409 0.450409 0.450409
0.456529 0.456529 0.456529
0.451974 0.451974 0.451974
0.448706 0.448706 0.448706
0.442242 0.442242 0.442242
0.432631 0.432631 0.432631
0.417434 0.417434 0.417434
0.277897 0.277897 0.277897
0.276303 0.276303 0.276303
0.653858 0.653858 0.653858
0.651437 0.651437 0.651437
0.643226 0.643226 0.643226
0.630123 0.630123 0.630123
0.614081 0.614081 0.614081
0.593188 0.593188 0.593188
0.570326 0.570326 0.570326
0.547107 0.547107 0.547107
0.524464 0.524464 0.524464
0.502420 0.502420 0.502420
0.482418 0.482418 0.482418
0.465228 0.465228 0.465228
0.450579 0.450579 0.450579
0.438952 0.438952 0.438952
0.442280 0.442280 0.442280
0.432097 0.432097 0.432097
0.430196 0.430196 0.430196
0.435853 0.435853 0.435853
0.448423 0.448423 0.448423
0.449866 0.449866 0.449866
0.453955 0.453955 0.453955
0.461608 0.461608 0.461608
0.469675 0.469675 0.469675
0.472636 0.472636 0.472636
0.477743 0.477743 0.477743
0.481824 0.481824 0.481824
0.481205 0.481205 0.481205
0.482182 0.482182 0.482182
0.474052 0.474052 0.474052
0.462363 0.462363 0.462363
0.444989 0.444989 0.444989
0.421786 0.421786 0.421786
0.392789 0.392789 0.392789
0.709754 0.709754 0.709754
0.707888 0.707888 0.707888
0.701491 0.701491 0.701491
0.690971 0.690971 0.690971
0.678357 0.678357 0.678357
0.659791 0.659791 0.659791
0.638265 0.638265 0.638265
0.615126 0.615126 0.615126
0.592149 0.592149 0.592149
0.569941 0.569941 0.569941
0.549410 0.549410 0.549410
0.530855 0.530855 0.530855
0.514588 0.514588 0.514588
0.500321 0.500321 0.500321
0.488651 0.488651 0.488651
0.475775 0.475775 0.475775
0.465156 0.465156 0.465156
0.467263 0.467263 0.467263
0.478733 0.478733 0.478733
0.479031 0.479031 0.479031
0.482489 0.482489 0.482489
0.489635 0.489635 0.489635
0.496975 0.496975 0.496975
0.500542 0.500542 0.500542
0.504405 0.504405 0.504405
0.510824 0.510824 0.510824
0.510519 0.510519 0.510519
0.509332 0.509332 0.509332
0.506498 0.506498 0.506498
0.501472 0.501472 0.501472
0.483320 0.483320 0.483320
0.455421 0.455421 0.455421
0.398445 0.398445 0.398445
0.743960 0.743960 0.743960
0.742309 0.742309 0.742309
0.736602 0.736602 0.736602
0.727020 0.727020 0.727020
0.714974 0.714974 0.714974
0.699621 0.699621 0.699621
0.682668 0.682668 0.682668
0.662206 0.662206 0.662206
0.639706 0.639706 0.639706
0.617966 0.617966 0.617966
0.596799 0.596799 0.596799
0.577441 0.577441 0.577441
0.560222 0.560222 0.560222
0.544931 0.544931 0.544931
0.532107 0.532107 0.532107
0.521453 0.521453 0.521453
0.508872 0.508872 0.508872
0.503791 0.503791 0.503791
0.511024 0.511024 0.511024
0.510477 0.510477 0.510477
0.512561 0.512561 0.512561
0.518903 0.518903 0.518903
0.525510 0.525510 0.525510
0.528050 0.528050 0.528050
0.532340 0.532340 0.532340
0.538592 0.538592 0.538592
0.538366 0.538366 0.538366
0.540310 0.540310 0.540310
0.537459 0.537459 0.537459
0.530499 0.530499 0.530499
0.520869 0.520869 0.520869
0.507728 0.507728 0.507728
0.436920 0.436920 0.436920
0.775804 0.775804 0.775804
0.774419 0.774419 0.774419
0.769598 0.769598 0.769598
0.761367 0.761367 0.761367
0.750089 0.750089 0.750089
0.736585 0.736585 0.736585
0.719901 0.719901 0.719901
0.702041 0.702041 0.702041
0.683425 0.683425 0.683425
0.664146 0.664146 0.664146
0.643265 0.643265 0.643265
0.623459 0.623459 0.623459
0.605272 0.605272 0.605272
0.589176 0.589176 0.589176
0.574859 0.574859 0.574859
0.562717 0.562717 0.562717
0.552675 0.552675 0.552675
0.546323 0.546323 0.546323
0.547747 0.547747 0.547747
0.541627 0.541627 0.541627
0.543023 0.543023 0.543023
0.548231 0.548231 0.548231
0.554471 0.554471 0.554471
0.556336 0.556336 0.556336
0.560833 0.560833 0.560833
0.566245 0.566245 0.566245
0.567716 0.567716 0.567716
0.568857 0.568857 0.568857
0.567753 0.567753 0.567753
0.565046 0.565046 0.565046
0.554577 0.554577 0.554577
0.538765 0.538765 0.538765
0.517832 0.517832 0.517832
0.802154 0.802154 0.802154
0.801266 0.801266 0.801266
0.798157 0.798157 0.798157
0.792768 0.792768 0.792768
0.785541 0.785541 0.785541
0.776909 0.776909 0.776909
0.761798 0.761798 0.761798
0.745583 0.745583 0.745583
0.727731 0.727731 0.727731
0.709417 0.709417 0.709417
0.691561 0.691561 0.691561
0.674247 0.674247 0.674247
0.656575 0.656575 0.656575
0.639331 0.639331 0.639331
0.624125 0.624125 0.624125
0.610649 0.610649 0.610649
0.599010 0.599010 0.599010
0.589461 0.589461 0.589461
0.589622 0.589622 0.589622
0.579624 0.579624 0.579624
0.574404 0.574404 0.574404
0.578996 0.578996 0.578996
0.584565 0.584565 0.584565
0.585797 0.585797 0.585797
0.590172 0.590172 0.590172
0.595219 0.595219 0.595219
0.596927 0.596927 0.596927
0.598493 0.598493 0.598493
0.599849 0.599849 0.599849
0.595159 0.595159 0.595159
0.588913 0.588913 0.588913
0.580068 0.580068 0.580068
0.554936 0.554936 0.554936
0.830167 0.830167 0.830167
0.829396 0.829396 0.829396
0.826684 0.826684 0.826684
0.821937 0.821937 0.821937
0.815440 0.815440 0.815440
0.807883 0.807883 0.807883
0.798219 0.798219 0.798219
0.787658 0.787658 0.787658
0.775148 0.775148 0.775148
0.758870 0.758870 0.758870
0.741298 0.741298 0.741298
0.724262 0.724262 0.724262
0.707796 0.707796 0.707796
0.692491 0.692491 0.692491
0.678289 0.678289 0.678289
0.665422 0.665422 0.665422
0.652705 0.652705 0.652705
0.641405 0.641405 0.641405
0.632293 0.632293 0.632293
0.621134 0.621134 0.621134
0.613648 0.613648 0.613648
0.610940 0.610940 0.610940
0.615821 0.615821 0.615821
0.616550 0.616550 0.616550
0.619993 0.619993 0.619993
0.624989 0.624989 0.624989
0.626361 0.626361 0.626361
0.629146 0.629146 0.629146
0.629488 0.629488 0.629488
0.627757 0.627757 0.627757
0.623213 0.623213 0.623213
0.612045 0.612045 0.612045
0.597038 0.597038 0.597038
0.850612 0.850612 0.850612
0.849921 0.849921 0.849921
0.847485 0.847485 0.847485
0.843180 0.843180 0.843180
0.837186 0.837186 0.837186
0.829988 0.829988 0.829988
0.821421 0.821421 0.821421
0.811283 0.811283 0.811283
0.800676 0.800676 0.800676
0.789438 0.789438 0.789438
0.777374 0.777374 0.777374
0.761598 0.761598 0.761598
0.745477 0.745477 0.745477
0.730101 0.730101 0.730101
0.715839 0.715839 0.715839
0.702606 0.702606 0.702606
0.691009 0.691009 0.691009
0.680788 0.680788 0.680788
0.671638 0.671638 0.671638
0.663623 0.663623 0.663623
0.654704 0.654704 0.654704
0.650976 0.650976 0.650976
0.648846 0.648846 0.648846
0.648390 0.648390 0.648390
0.651190 0.651190 0.651190
0.655459 0.655459 0.655459
0.656776 0.656776 0.656776
0.659790 0.659790 0.659790
0.660711 0.660711 0.660711
0.660278 0.660278 0.660278
0.655895 0.655895 0.655895
0.649282 0.649282 0.649282
0.633766 0.633766 0.633766
0.870888 0.870888 0.870888
0.870276 0.870276 0.870276
0.868107 0.868107 0.868107
0.864248 0.864248 0.864248
0.858803 0.858803 0.858803
0.852103 0.852103 0.852103
0.844495 0.844495 0.844495
0.834994 0.834994 0.834994
0.825282 0.825282 0.825282
0.814423 0.814423 0.814423
0.803547 0.803547 0.803547
0.792538 0.792538 0.792538
0.781579 0.781579 0.781579
0.768147 0.768147 0.768147
0.754303 0.754303 0.754303
0.740975 0.740975 0.740975
0.728754 0.728754 0.728754
0.717886 0.717886 0.717886
0.708432 0.708432 0.708432
0.699968 0.699968 0.699968
0.693032 0.693032 0.693032
0.688324 0.688324 0.688324
0.685863 0.685863 0.685863
0.680797 0.680797 0.680797
0.681219 0.681219 0.681219
0.684513 0.684513 0.684513
0.685477 0.685477 0.685477
0.687571 0.687571 0.687571
0.689270 0.689270 0.689270
0.688727 0.688727 0.688727
0.687166 0.687166 0.687166
0.681249 0.681249 0.681249
0.670843 0.670843 0.670843
0.887892 0.887892 0.887892
0.887501 0.887501 0.887501
0.886116 0.886116 0.886116
0.883634 0.883634 0.883634
0.880090 0.880090 0.880090
0.874258 0.874258 0.874258
0.867398 0.867398 0.867398
0.858874 0.858874 0.858874
0.849695 0.849695 0.849695
0.839868 0.839868 0.839868
0.829642 0.829642 0.829642
0.819192 0.819192 0.819192
0.808814 0.808814 0.808814
0.798566 0.798566 0.798566
0.788695 0.788695 0.788695
0.779556 0.779556 0.779556
0.768180 0.768180 0.768180
0.757351 0.757351 0.757351
0.747141 0.747141 0.747141
0.738382 0.738382 0.738382
0.730567 0.730567 0.730567
0.724049 0.724049 0.724049
0.720392 0.720392 0.720392
0.714953 0.714953 0.714953
0.711481 0.711481 0.711481
0.712296 0.712296 0.712296
0.713294 0.713294 0.713294
0.715050 0.715050 0.715050
0.716862 0.716862 0.716862
0.716877 0.716877 0.716877
0.715812 0.715812 0.715812
0.711482 0.711482 0.711482
0.703580 0.703580 0.703580
0.902296 0.902296 0.902296
0.901955 0.901955 0.901955
0.900738 0.900738 0.900738
0.898548 0.898548 0.898548
0.895392 0.895392 0.895392
0.891370 0.891370 0.891370
0.886691 0.886691 0.886691
0.881183 0.881183 0.881183
0.873255 0.873255 0.873255
0.864301 0.864301 0.864301
0.854557 0.854557 0.854557
0.844777 0.844777 0.844777
0.835004 0.835004 0.835004
0.825155 0.825155 0.825155
0.815576 0.815576 0.815576
0.806518 0.806518 0.806518
0.798069 0.798069 0.798069
0.790208 0.790208 0.790208
0.783005 0.783005 0.783005
0.775668 0.775668 0.775668
0.768023 0.768023 0.768023
0.761277 0.761277 0.761277
0.755284 0.755284 0.755284
0.749359 0.749359 0.749359
0.745160 0.745160 0.745160
0.742894 0.742894 0.742894
0.741480 0.741480 0.741480
0.742884 0.742884 0.742884
0.744632 0.744632 0.744632
0.745250 0.745250 0.745250
0.744436 0.744436 0.744436
0.741844 0.741844 0.741844
0.733970 0.733970 0.733970
0.915929 0.915929 0.915929
0.915621 0.915621 0.915621
0.914522 0.914522 0.914522
0.912535 0.912535 0.912535
0.909643 0.909643 0.909643
0.905899 0.905899 0.905899
0.901433 0.901433 0.901433
0.896348 0.896348 0.896348
0.890487 0.890487 0.890487
0.884272 0.884272 0.884272
0.876922 0.876922 0.876922
0.867532 0.867532 0.867532
0.858129 0.858129 0.858129
0.848784 0.848784 0.848784
0.839544 0.839544 0.839544
0.830647 0.830647 0.830647
0.822297 0.822297 0.822297
0.814475 0.814475 0.814475
0.807279 0.807279 0.807279
0.800700 0.800700 0.800700
0.794802 0.794802 0.794802
0.789673 0.789673 0.789673
0.785281 0.785281 0.785281
0.781547 0.781547 0.781547
0.777859 0.777859 0.777859
0.774947 0.774947 0.774947
0.772144 0.772144 0.772144
0.770452 0.770452 0.770452
0.771945 0.771945 0.771945
0.772884 0.772884 0.772884
0.772686 0.772686 0.772686
0.770469 0.770469 0.770469
0.765001 0.765001 0.765001
0.927340 0.927340 0.927340
0.927073 0.927073 0.927073
0.926117 0.926117 0.926117
0.924381 0.924381 0.924381
0.921839 0.921839 0.921839
0.918513 0.918513 0.918513
0.914477 0.914477 0.914477
0.909878 0.909878 0.909878
0.904591 0.904591 0.904591
0.898860 0.898860 0.898860
0.892789 0.892789 0.892789
0.886374 0.886374 0.886374
0.879885 0.879885 0.879885
0.871182 0.871182 0.871182
0.862439 0.862439 0.862439
0.853919 0.853919 0.853919
0.845744 0.845744 0.845744
0.838010 0.838010 0.838010
0.830856 0.830856 0.830856
0.824299 0.824299 0.824299
0.818348 0.818348 0.818348
0.813056 0.813056 0.813056
0.808354 0.808354 0.808354
0.804459 0.804459 0.804459
0.801132 0.801132 0.801132
0.798399 0.798399 0.798399
0.796507 0.796507 0.796507
0.794253 0.794253 0.794253
0.793239 0.793239 0.793239
0.793851 0.793851 0.793851
0.794197 0.794197 0.794197
0.793078 0.793078 0.793078
0.789815 0.789815 0.789815
0.937536 0.937536 0.937536
0.937328 0.937328 0.937328
0.936577 0.936577 0.936577
0.935074 0.935074 0.935074
0.932859 0.932859 0.932859
0.929934 0.929934 0.929934
0.926334 0.926334 0.926334
0.922137 0.922137 0.922137
0.917437 0.917437 0.917437
0.912260 0.912260 0.912260
0.906726 0.906726 0.906726
0.900885 0.900885 0.900885
0.894816 0.894816 0.894816
0.888794 0.888794 0.888794
0.882752 0.882752 0.882752
0.875866 0.875866 0.875866
0.868102 0.868102 0.868102
0.860628 0.860628 0.860628
0.853562 0.853562 0.853562
0.847057 0.847057 0.847057
0.841110 0.841110 0.841110
0.835764 0.835764 0.835764
0.830972 0.830972 0.830972
0.826737 0.826737 0.826737
0.823294 0.823294 0.823294
0.820351 0.820351 0.820351
0.818744 0.818744 0.818744
0.816135 0.816135 0.816135
0.814770 0.814770 0.814770
0.813401 0.813401 0.813401
0.813702 0.813702 0.813702
0.813227 0.813227 0.813227
0.810594 0.810594 0.810594
0.947249 0.947249 0.947249
0.947135 0.947135 0.947135
0.946728 0.946728 0.946728
0.945980 0.945980 0.945980
0.944866 0.944866 0.944866
0.943248 0.943248 0.943248
0.940111 0.940111 0.940111
0.936288 0.936288 0.936288
0.931646 0.931646 0.931646
0.926790 0.926790 0.926790
0.921451 0.921451 0.921451
0.915905 0.915905 0.915905
0.910163 0.910163 0.910163
0.904336 0.904336 0.904336
0.898505 0.898505 0.898505
0.892864 0.892864 0.892864
0.887337 0.887337 0.887337
0.882037 0.882037 0.882037
0.876124 0.876124 0.876124
0.869712 0.869712 0.869712
0.863828 0.863828 0.863828
0.858488 0.858488 0.858488
0.853716 0.853716 0.853716
0.849516 0.849516 0.849516
0.845907 0.845907 0.845907
