LUTs/trix_modern/TriX_Blue47_Soft.cube
TITLE "Tri-X Blue47 Soft"
# Adobe RGB in/out. REPLACES AgX. Tri-X Blue47 Soft.
LUT_3D_SIZE 33
DOMAIN_MIN 0.0 0.0 0.0
DOMAIN_MAX 1.0 1.0 1.0
0.093873 0.093873 0.093873
0.093873 0.093873 0.093873
0.093873 0.093873 0.093873
0.093873 0.093873 0.093873
0.093873 0.093873 0.093873
0.093873 0.093873 0.093873
0.093864 0.093864 0.093864
0.093903 0.093903 0.093903
0.093935 0.093935 0.093935
0.093983 0.093983 0.093983
0.094100 0.094100 0.094100
0.094196 0.094196 0.094196
0.094273 0.094273 0.094273
0.095552 0.095552 0.095552
0.097350 0.097350 0.097350
0.099014 0.099014 0.099014
0.101324 0.101324 0.101324
0.105605 0.105605 0.105605
0.113127 0.113127 0.113127
0.118442 0.118442 0.118442
0.124698 0.124698 0.124698
0.133475 0.133475 0.133475
0.143978 0.143978 0.143978
0.153099 0.153099 0.153099
0.165560 0.165560 0.165560
0.181864 0.181864 0.181864
0.200436 0.200436 0.200436
0.260649 0.260649 0.260649
0.471656 0.471656 0.471656
0.466825 0.466825 0.466825
0.462099 0.462099 0.462099
0.457429 0.457429 0.457429
0.645276 0.645276 0.645276
0.093873 0.093873 0.093873
0.093873 0.093873 0.093873
0.093873 0.093873 0.093873
0.093873 0.093873 0.093873
0.093873 0.093873 0.093873
0.093873 0.093873 0.093873
0.093864 0.093864 0.093864
0.093903 0.093903 0.093903
0.093935 0.093935 0.093935
0.093983 0.093983 0.093983
0.094100 0.094100 0.094100
0.094195 0.094195 0.094195
0.094272 0.094272 0.094272
0.095542 0.095542 0.095542
0.097338 0.097338 0.097338
0.098991 0.098991 0.098991
0.101301 0.101301 0.101301
0.105565 0.105565 0.105565
0.113063 0.113063 0.113063
0.118370 0.118370 0.118370
0.124617 0.124617 0.124617
0.133358 0.133358 0.133358
0.143836 0.143836 0.143836
0.152920 0.152920 0.152920
0.165309 0.165309 0.165309
0.181483 0.181483 0.181483
0.199612 0.199612 0.199612
0.258456 0.258456 0.258456
0.471397 0.471397 0.471397
0.466590 0.466590 0.466590
0.461886 0.461886 0.461886
0.457234 0.457234 0.457234
0.645032 0.645032 0.645032
0.093873 0.093873 0.093873
0.093873 0.093873 0.093873
0.093873 0.093873 0.093873
0.093873 0.093873 0.093873
0.093873 0.093873 0.093873
0.093873 0.093873 0.093873
0.093864 0.093864 0.093864
0.093906 0.093906 0.093906
0.093938 0.093938 0.093938
0.093984 0.093984 0.093984
0.094099 0.094099 0.094099
0.094193 0.094193 0.094193
0.094271 0.094271 0.094271
0.095515 0.095515 0.095515
0.097305 0.097305 0.097305
0.098920 0.098920 0.098920
0.101229 0.101229 0.101229
0.105436 0.105436 0.105436
0.112853 0.112853 0.112853
0.118128 0.118128 0.118128
0.124342 0.124342 0.124342
0.132960 0.132960 0.132960
0.143344 0.143344 0.143344
0.152299 0.152299 0.152299
0.164441 0.164441 0.164441
0.180167 0.180167 0.180167
0.196949 0.196949 0.196949
0.250974 0.250974 0.250974
0.470475 0.470475 0.470475
0.465751 0.465751 0.465751
0.461123 0.461123 0.461123
0.456539 0.456539 0.456539
0.644141 0.644141 0.644141
0.093873 0.093873 0.093873
0.093873 0.093873 0.093873
0.093873 0.093873 0.093873
0.093873 0.093873 0.093873
0.093873 0.093873 0.093873
0.093873 0.093873 0.093873
0.093864 0.093864 0.093864
0.093906 0.093906 0.093906
0.093940 0.093940 0.093940
0.093986 0.093986 0.093986
0.094101 0.094101 0.094101
0.094194 0.094194 0.094194
0.094270 0.094270 0.094270
0.095500 0.095500 0.095500
0.097273 0.097273 0.097273
0.098839 0.098839 0.098839
0.101137 0.101137 0.101137
0.105253 0.105253 0.105253
0.112536 0.112536 0.112536
0.117746 0.117746 0.117746
0.123896 0.123896 0.123896
0.132299 0.132299 0.132299
0.142517 0.142517 0.142517
0.151250 0.151250 0.151250
0.162967 0.162967 0.162967
0.177948 0.177948 0.177948
0.192737 0.192737 0.192737
0.238862 0.238862 0.238862
0.468807 0.468807 0.468807
0.464229 0.464229 0.464229
0.459738 0.459738 0.459738
0.455276 0.455276 0.455276
0.642523 0.642523 0.642523
0.093873 0.093873 0.093873
0.093873 0.093873 0.093873
0.093873 0.093873 0.093873
0.093873 0.093873 0.093873
0.093873 0.093873 0.093873
0.093873 0.093873 0.093873
0.093863 0.093863 0.093863
0.093908 0.093908 0.093908
0.093944 0.093944 0.093944
0.093991 0.093991 0.093991
0.094109 0.094109 0.094109
0.094202 0.094202 0.094202
0.094275 0.094275 0.094275
0.095541 0.095541 0.095541
0.097297 0.097297 0.097297
0.098835 0.098835 0.098835
0.101092 0.101092 0.101092
0.105111 0.105111 0.105111
0.112226 0.112226 0.112226
0.117330 0.117330 0.117330
0.123374 0.123374 0.123374
0.131485 0.131485 0.131485
0.141467 0.141467 0.141467
0.149898 0.149898 0.149898
0.161048 0.161048 0.161048
0.175080 0.175080 0.175080
0.187646 0.187646 0.187646
0.224520 0.224520 0.224520
0.466376 0.466376 0.466376
0.462006 0.462006 0.462006
0.457711 0.457711 0.457711
0.453425 0.453425 0.453425
0.640149 0.640149 0.640149
0.093873 0.093873 0.093873
0.093873 0.093873 0.093873
0.093873 0.093873 0.093873
0.093872 0.093872 0.093872
0.093873 0.093873 0.093873
0.093870 0.093870 0.093870
0.093854 0.093854 0.093854
0.093923 0.093923 0.093923
0.093951 0.093951 0.093951
0.093999 0.093999 0.093999
0.094115 0.094115 0.094115
0.094211 0.094211 0.094211
0.094363 0.094363 0.094363
0.095656 0.095656 0.095656
0.097357 0.097357 0.097357
0.098911 0.098911 0.098911
0.101140 0.101140 0.101140
0.105153 0.105153 0.105153
0.112116 0.112116 0.112116
0.117058 0.117058 0.117058
0.122941 0.122941 0.122941
0.130710 0.130710 0.130710
0.140390 0.140390 0.140390
0.148469 0.148469 0.148469
0.158969 0.158969 0.158969
0.171974 0.171974 0.171974
0.182635 0.182635 0.182635
0.210285 0.210285 0.210285
0.463215 0.463215 0.463215
0.459099 0.459099 0.459099
0.455055 0.455055 0.455055
0.450995 0.450995 0.450995
0.637026 0.637026 0.637026
0.093886 0.093886 0.093886
0.093892 0.093892 0.093892
0.093901 0.093901 0.093901
0.093902 0.093902 0.093902
0.093899 0.093899 0.093899
0.093898 0.093898 0.093898
0.093907 0.093907 0.093907
0.093947 0.093947 0.093947
0.093968 0.093968 0.093968
0.094020 0.094020 0.094020
0.094137 0.094137 0.094137
0.094228 0.094228 0.094228
0.094486 0.094486 0.094486
0.095764 0.095764 0.095764
0.097491 0.097491 0.097491
0.099194 0.099194 0.099194
0.101284 0.101284 0.101284
0.105217 0.105217 0.105217
0.112085 0.112085 0.112085
0.116969 0.116969 0.116969
0.122771 0.122771 0.122771
0.130257 0.130257 0.130257
0.139578 0.139578 0.139578
0.147285 0.147285 0.147285
0.157116 0.157116 0.157116
0.169156 0.169156 0.169156
0.178719 0.178719 0.178719
0.198281 0.198281 0.198281
0.459410 0.459410 0.459410
0.455559 0.455559 0.455559
0.451810 0.451810 0.451810
0.448016 0.448016 0.448016
0.633190 0.633190 0.633190
0.093974 0.093974 0.093974
0.093978 0.093978 0.093978
0.093995 0.093995 0.093995
0.093995 0.093995 0.093995
0.093988 0.093988 0.093988
0.093991 0.093991 0.093991
0.093992 0.093992 0.093992
0.094006 0.094006 0.094006
0.093996 0.093996 0.093996
0.094051 0.094051 0.094051
0.094170 0.094170 0.094170
0.094252 0.094252 0.094252
0.094761 0.094761 0.094761
0.095980 0.095980 0.095980
0.097666 0.097666 0.097666
0.099434 0.099434 0.099434
0.101521 0.101521 0.101521
0.105601 0.105601 0.105601
0.112432 0.112432 0.112432
0.117087 0.117087 0.117087
0.122677 0.122677 0.122677
0.129943 0.129943 0.129943
0.139074 0.139074 0.139074
0.146575 0.146575 0.146575
0.155980 0.155980 0.155980
0.167256 0.167256 0.167256
0.176963 0.176963 0.176963
0.192186 0.192186 0.192186
0.455191 0.455191 0.455191
0.451471 0.451471 0.451471
0.448039 0.448039 0.448039
0.444542 0.444542 0.444542
0.628698 0.628698 0.628698
0.094034 0.094034 0.094034
0.094040 0.094040 0.094040
0.094052 0.094052 0.094052
0.094056 0.094056 0.094056
0.094055 0.094055 0.094055
0.094053 0.094053 0.094053
0.094057 0.094057 0.094057
0.094062 0.094062 0.094062
0.094075 0.094075 0.094075
0.094094 0.094094 0.094094
0.094213 0.094213 0.094213
0.094341 0.094341 0.094341
0.095142 0.095142 0.095142
0.096260 0.096260 0.096260
0.097943 0.097943 0.097943
0.099900 0.099900 0.099900
0.101889 0.101889 0.101889
0.106082 0.106082 0.106082
0.112961 0.112961 0.112961
0.117583 0.117583 0.117583
0.123124 0.123124 0.123124
0.130121 0.130121 0.130121
0.138880 0.138880 0.138880
0.145970 0.145970 0.145970
0.154877 0.154877 0.154877
0.165765 0.165765 0.165765
0.176369 0.176369 0.176369
0.191619 0.191619 0.191619
0.453327 0.453327 0.453327
0.447179 0.447179 0.447179
0.443880 0.443880 0.443880
0.440653 0.440653 0.440653
0.623630 0.623630 0.623630
0.094137 0.094137 0.094137
0.094139 0.094139 0.094139
0.094142 0.094142 0.094142
0.094150 0.094150 0.094150
0.094152 0.094152 0.094152
0.094151 0.094151 0.094151
0.094154 0.094154 0.094154
0.094159 0.094159 0.094159
0.094171 0.094171 0.094171
0.094190 0.094190 0.094190
0.094281 0.094281 0.094281
0.094904 0.094904 0.094904
0.095583 0.095583 0.095583
0.096631 0.096631 0.096631
0.098544 0.098544 0.098544
0.100506 0.100506 0.100506
0.102653 0.102653 0.102653
0.106795 0.106795 0.106795
0.113903 0.113903 0.113903
0.118413 0.118413 0.118413
0.123587 0.123587 0.123587
0.130599 0.130599 0.130599
0.139255 0.139255 0.139255
0.146000 0.146000 0.146000
0.154321 0.154321 0.154321
0.164490 0.164490 0.164490
0.174155 0.174155 0.174155
0.187572 0.187572 0.187572
0.204597 0.204597 0.204597
0.242962 0.242962 0.242962
0.415080 0.415080 0.415080
0.440748 0.440748 0.440748
0.618075 0.618075 0.618075
0.094760 0.094760 0.094760
0.094751 0.094751 0.094751
0.094752 0.094752 0.094752
0.094864 0.094864 0.094864
0.094905 0.094905 0.094905
0.094931 0.094931 0.094931
0.094972 0.094972 0.094972
0.095031 0.095031 0.095031
0.095120 0.095120 0.095120
0.095310 0.095310 0.095310
0.095593 0.095593 0.095593
0.095829 0.095829 0.095829
0.096129 0.096129 0.096129
0.097088 0.097088 0.097088
0.099478 0.099478 0.099478
0.101311 0.101311 0.101311
0.103731 0.103731 0.103731
0.107692 0.107692 0.107692
0.115126 0.115126 0.115126
0.119449 0.119449 0.119449
0.124545 0.124545 0.124545
0.131579 0.131579 0.131579
0.139774 0.139774 0.139774
0.146268 0.146268 0.146268
0.154352 0.154352 0.154352
0.164041 0.164041 0.164041
0.172869 0.172869 0.172869
0.184677 0.184677 0.184677
0.198655 0.198655 0.198655
0.225120 0.225120 0.225120
0.358591 0.358591 0.358591
0.449379 0.449379 0.449379
0.451309 0.451309 0.451309
0.096079 0.096079 0.096079
0.096071 0.096071 0.096071
0.096064 0.096064 0.096064
0.096144 0.096144 0.096144
0.096185 0.096185 0.096185
0.096245 0.096245 0.096245
0.096331 0.096331 0.096331
0.096372 0.096372 0.096372
0.096449 0.096449 0.096449
0.096567 0.096567 0.096567
0.096754 0.096754 0.096754
0.097045 0.097045 0.097045
0.097044 0.097044 0.097044
0.097703 0.097703 0.097703
0.100582 0.100582 0.100582
0.102353 0.102353 0.102353
0.105166 0.105166 0.105166
0.109345 0.109345 0.109345
0.116521 0.116521 0.116521
0.120768 0.120768 0.120768
0.125871 0.125871 0.125871
0.132789 0.132789 0.132789
0.140870 0.140870 0.140870
0.147208 0.147208 0.147208
0.154800 0.154800 0.154800
0.163957 0.163957 0.163957
0.172275 0.172275 0.172275
0.183187 0.183187 0.183187
0.196187 0.196187 0.196187
0.216158 0.216158 0.216158
0.291149 0.291149 0.291149
0.444507 0.444507 0.444507
0.450976 0.450976 0.450976
0.097037 0.097037 0.097037
0.097030 0.097030 0.097030
0.097025 0.097025 0.097025
0.097091 0.097091 0.097091
0.097187 0.097187 0.097187
0.097279 0.097279 0.097279
0.097349 0.097349 0.097349
0.097438 0.097438 0.097438
0.097519 0.097519 0.097519
0.097632 0.097632 0.097632
0.097802 0.097802 0.097802
0.098015 0.098015 0.098015
0.098623 0.098623 0.098623
0.099553 0.099553 0.099553
0.101859 0.101859 0.101859
0.104256 0.104256 0.104256
0.106775 0.106775 0.106775
0.111502 0.111502 0.111502
0.118756 0.118756 0.118756
0.122542 0.122542 0.122542
0.127249 0.127249 0.127249
0.134460 0.134460 0.134460
0.142467 0.142467 0.142467
0.148286 0.148286 0.148286
0.155756 0.155756 0.155756
0.164744 0.164744 0.164744
0.172213 0.172213 0.172213
0.182030 0.182030 0.182030
0.194018 0.194018 0.194018
0.212114 0.212114 0.212114
0.240700 0.240700 0.240700
0.439540 0.439540 0.439540
0.452273 0.452273 0.452273
0.098891 0.098891 0.098891
0.098883 0.098883 0.098883
0.098880 0.098880 0.098880
0.098990 0.098990 0.098990
0.099296 0.099296 0.099296
0.099474 0.099474 0.099474
0.099624 0.099624 0.099624
0.099837 0.099837 0.099837
0.100063 0.100063 0.100063
0.100261 0.100261 0.100261
0.100517 0.100517 0.100517
0.100944 0.100944 0.100944
0.101407 0.101407 0.101407
0.102115 0.102115 0.102115
0.105666 0.105666 0.105666
0.106592 0.106592 0.106592
0.108925 0.108925 0.108925
0.113789 0.113789 0.113789
0.121008 0.121008 0.121008
0.124787 0.124787 0.124787
0.129480 0.129480 0.129480
0.136525 0.136525 0.136525
0.144193 0.144193 0.144193
0.149925 0.149925 0.149925
0.157134 0.157134 0.157134
0.165537 0.165537 0.165537
0.172749 0.172749 0.172749
0.181927 0.181927 0.181927
0.192518 0.192518 0.192518
0.207377 0.207377 0.207377
0.229074 0.229074 0.229074
0.298747 0.298747 0.298747
0.454798 0.454798 0.454798
0.103284 0.103284 0.103284
0.103279 0.103279 0.103279
0.103294 0.103294 0.103294
0.103468 0.103468 0.103468
0.104097 0.104097 0.104097
0.104377 0.104377 0.104377
0.104810 0.104810 0.104810
0.105110 0.105110 0.105110
0.105539 0.105539 0.105539
0.105931 0.105931 0.105931
0.106468 0.106468 0.106468
0.106968 0.106968 0.106968
0.107742 0.107742 0.107742
0.108807 0.108807 0.108807
0.110471 0.110471 0.110471
0.111338 0.111338 0.111338
0.112503 0.112503 0.112503
0.116631 0.116631 0.116631
0.123665 0.123665 0.123665
0.127126 0.127126 0.127126
0.132236 0.132236 0.132236
0.139122 0.139122 0.139122
0.146426 0.146426 0.146426
0.151966 0.151966 0.151966
0.158738 0.158738 0.158738
0.167010 0.167010 0.167010
0.173781 0.173781 0.173781
0.182179 0.182179 0.182179
0.192024 0.192024 0.192024
0.205067 0.205067 0.205067
0.222981 0.222981 0.222981
0.263702 0.263702 0.263702
0.441328 0.441328 0.441328
0.106918 0.106918 0.106918
0.106915 0.106915 0.106915
0.106929 0.106929 0.106929
0.107066 0.107066 0.107066
0.107554 0.107554 0.107554
0.107992 0.107992 0.107992
0.108851 0.108851 0.108851
0.109151 0.109151 0.109151
0.109699 0.109699 0.109699
0.110502 0.110502 0.110502
0.111032 0.111032 0.111032
0.111800 0.111800 0.111800
0.112767 0.112767 0.112767
0.113908 0.113908 0.113908
0.115226 0.115226 0.115226
0.116980 0.116980 0.116980
0.117835 0.117835 0.117835
0.120674 0.120674 0.120674
0.126709 0.126709 0.126709
0.130372 0.130372 0.130372
0.135244 0.135244 0.135244
0.141992 0.141992 0.141992
0.149091 0.149091 0.149091
0.154291 0.154291 0.154291
0.160849 0.160849 0.160849
0.168832 0.168832 0.168832
0.175123 0.175123 0.175123
0.183263 0.183263 0.183263
0.192225 0.192225 0.192225
0.203422 0.203422 0.203422
0.219744 0.219744 0.219744
0.249023 0.249023 0.249023
0.392617 0.392617 0.392617
0.111261 0.111261 0.111261
0.111256 0.111256 0.111256
0.111270 0.111270 0.111270
0.111421 0.111421 0.111421
0.111961 0.111961 0.111961
0.112790 0.112790 0.112790
0.113371 0.113371 0.113371
0.114005 0.114005 0.114005
0.114633 0.114633 0.114633
0.115311 0.115311 0.115311
0.116088 0.116088 0.116088
0.116873 0.116873 0.116873
0.117730 0.117730 0.117730
0.118899 0.118899 0.118899
0.120176 0.120176 0.120176
0.121653 0.121653 0.121653
0.123510 0.123510 0.123510
0.126127 0.126127 0.126127
0.131678 0.131678 0.131678
0.133963 0.133963 0.133963
0.138744 0.138744 0.138744
0.145198 0.145198 0.145198
0.152143 0.152143 0.152143
0.157018 0.157018 0.157018
0.163391 0.163391 0.163391
0.170955 0.170955 0.170955
0.177023 0.177023 0.177023
0.184549 0.184549 0.184549
0.192954 0.192954 0.192954
0.203197 0.203197 0.203197
0.217265 0.217265 0.217265
0.238984 0.238984 0.238984
0.315803 0.315803 0.315803
0.117376 0.117376 0.117376
0.117373 0.117373 0.117373
0.117385 0.117385 0.117385
0.117516 0.117516 0.117516
0.117979 0.117979 0.117979
0.119085 0.119085 0.119085
0.119475 0.119475 0.119475
0.120450 0.120450 0.120450
0.121153 0.121153 0.121153
0.121791 0.121791 0.121791
0.122674 0.122674 0.122674
0.123525 0.123525 0.123525
0.124562 0.124562 0.124562
0.125448 0.125448 0.125448
0.126780 0.126780 0.126780
0.128148 0.128148 0.128148
0.130030 0.130030 0.130030
0.132416 0.132416 0.132416
0.138347 0.138347 0.138347
0.139564 0.139564 0.139564
0.142392 0.142392 0.142392
0.148719 0.148719 0.148719
0.155507 0.155507 0.155507
0.160107 0.160107 0.160107
0.166303 0.166303 0.166303
0.173543 0.173543 0.173543
0.179249 0.179249 0.179249
0.186332 0.186332 0.186332
0.194377 0.194377 0.194377
0.203496 0.203496 0.203496
0.216219 0.216219 0.216219
0.234135 0.234135 0.234135
0.283068 0.283068 0.283068
0.125350 0.125350 0.125350
0.125349 0.125349 0.125349
0.125367 0.125367 0.125367
0.125488 0.125488 0.125488
0.125890 0.125890 0.125890
0.126878 0.126878 0.126878
0.127508 0.127508 0.127508
0.128537 0.128537 0.128537
0.129506 0.129506 0.129506
0.130666 0.130666 0.130666
0.131648 0.131648 0.131648
0.132952 0.132952 0.132952
0.134101 0.134101 0.134101
0.135402 0.135402 0.135402
0.136731 0.136731 0.136731
0.138609 0.138609 0.138609
0.140489 0.140489 0.140489
0.142473 0.142473 0.142473
0.145078 0.145078 0.145078
0.145998 0.145998 0.145998
0.148249 0.148249 0.148249
0.152495 0.152495 0.152495
0.159070 0.159070 0.159070
0.163495 0.163495 0.163495
0.169400 0.169400 0.169400
0.176464 0.176464 0.176464
0.181765 0.181765 0.181765
0.188609 0.188609 0.188609
0.195906 0.195906 0.195906
0.204590 0.204590 0.204590
0.216097 0.216097 0.216097
0.230740 0.230740 0.230740
0.267640 0.267640 0.267640
0.130002 0.130002 0.130002
0.130002 0.130002 0.130002
0.130023 0.130023 0.130023
0.130151 0.130151 0.130151
0.130567 0.130567 0.130567
0.131581 0.131581 0.131581
0.132690 0.132690 0.132690
0.133548 0.133548 0.133548
0.134802 0.134802 0.134802
0.136036 0.136036 0.136036
0.136954 0.136954 0.136954
0.138154 0.138154 0.138154
0.139452 0.139452 0.139452
0.140782 0.140782 0.140782
0.142263 0.142263 0.142263
0.143762 0.143762 0.143762
0.145693 0.145693 0.145693
0.147748 0.147748 0.147748
0.149826 0.149826 0.149826
0.152466 0.152466 0.152466
0.154456 0.154456 0.154456
0.158553 0.158553 0.158553
0.163170 0.163170 0.163170
0.167097 0.167097 0.167097
0.172810 0.172810 0.172810
0.179590 0.179590 0.179590
0.184586 0.184586 0.184586
0.191163 0.191163 0.191163
0.197956 0.197956 0.197956
0.206129 0.206129 0.206129
0.216317 0.216317 0.216317
0.229318 0.229318 0.229318
0.256600 0.256600 0.256600
0.135814 0.135814 0.135814
0.135816 0.135816 0.135816
0.135840 0.135840 0.135840
0.135961 0.135961 0.135961
0.136332 0.136332 0.136332
0.137216 0.137216 0.137216
0.138692 0.138692 0.138692
0.139320 0.139320 0.139320
0.140910 0.140910 0.140910
0.141696 0.141696 0.141696
0.142968 0.142968 0.142968
0.144288 0.144288 0.144288
0.145578 0.145578 0.145578
0.146811 0.146811 0.146811
0.148369 0.148369 0.148369
0.149977 0.149977 0.149977
0.151637 0.151637 0.151637
0.153603 0.153603 0.153603
0.155818 0.155818 0.155818
0.158016 0.158016 0.158016
0.160684 0.160684 0.160684
0.164608 0.164608 0.164608
0.169111 0.169111 0.169111
0.171405 0.171405 0.171405
0.176389 0.176389 0.176389
0.183027 0.183027 0.183027
0.187696 0.187696 0.187696
0.193873 0.193873 0.193873
0.200511 0.200511 0.200511
0.207888 0.207888 0.207888
0.217223 0.217223 0.217223
0.228503 0.228503 0.228503
0.250529 0.250529 0.250529
0.142728 0.142728 0.142728
0.142734 0.142734 0.142734
0.142769 0.142769 0.142769
0.142899 0.142899 0.142899
0.143256 0.143256 0.143256
0.144068 0.144068 0.144068
0.145697 0.145697 0.145697
0.146444 0.146444 0.146444
0.147722 0.147722 0.147722
0.148918 0.148918 0.148918
0.150274 0.150274 0.150274
0.151455 0.151455 0.151455
0.152893 0.152893 0.152893
0.154332 0.154332 0.154332
0.155712 0.155712 0.155712
0.157507 0.157507 0.157507
0.159213 0.159213 0.159213
0.161117 0.161117 0.161117
0.163182 0.163182 0.163182
0.165559 0.165559 0.165559
0.167945 0.167945 0.167945
0.170652 0.170652 0.170652
0.175003 0.175003 0.175003
0.177031 0.177031 0.177031
0.180763 0.180763 0.180763
0.186581 0.186581 0.186581
0.191022 0.191022 0.191022
0.196936 0.196936 0.196936
0.203417 0.203417 0.203417
0.210181 0.210181 0.210181
0.218421 0.218421 0.218421
0.228513 0.228513 0.228513
0.246960 0.246960 0.246960
0.149567 0.149567 0.149567
0.149576 0.149576 0.149576
0.149618 0.149618 0.149618
0.149754 0.149754 0.149754
0.150100 0.150100 0.150100
0.150854 0.150854 0.150854
0.152335 0.152335 0.152335
0.153563 0.153563 0.153563
0.154604 0.154604 0.154604
0.156281 0.156281 0.156281
0.157242 0.157242 0.157242
0.158701 0.158701 0.158701
0.160417 0.160417 0.160417
0.161768 0.161768 0.161768
0.163177 0.163177 0.163177
0.164857 0.164857 0.164857
0.166781 0.166781 0.166781
0.168736 0.168736 0.168736
0.170782 0.170782 0.170782
0.172990 0.172990 0.172990
0.175448 0.175448 0.175448
0.178039 0.178039 0.178039
0.180796 0.180796 0.180796
0.182629 0.182629 0.182629
0.186177 0.186177 0.186177
0.191057 0.191057 0.191057
0.194401 0.194401 0.194401
0.200169 0.200169 0.200169
0.206558 0.206558 0.206558
0.212911 0.212911 0.212911
0.219866 0.219866 0.219866
0.229185 0.229185 0.229185
0.244617 0.244617 0.244617
0.154355 0.154355 0.154355
0.154361 0.154361 0.154361
0.154393 0.154393 0.154393
0.154501 0.154501 0.154501
0.154788 0.154788 0.154788
0.155431 0.155431 0.155431
0.156712 0.156712 0.156712
0.158367 0.158367 0.158367
0.159160 0.159160 0.159160
0.160861 0.160861 0.160861
0.161953 0.161953 0.161953
0.163542 0.163542 0.163542
0.164888 0.164888 0.164888
0.166576 0.166576 0.166576
0.168250 0.168250 0.168250
0.169737 0.169737 0.169737
0.171604 0.171604 0.171604
0.173525 0.173525 0.173525
0.175616 0.175616 0.175616
0.177740 0.177740 0.177740
0.180069 0.180069 0.180069
0.182501 0.182501 0.182501
0.185214 0.185214 0.185214
0.188078 0.188078 0.188078
0.191492 0.191492 0.191492
0.196228 0.196228 0.196228
0.198811 0.198811 0.198811
0.203610 0.203610 0.203610
0.209593 0.209593 0.209593
0.215862 0.215862 0.215862
0.221732 0.221732 0.221732
0.229805 0.229805 0.229805
0.243454 0.243454 0.243454
0.159739 0.159739 0.159739
0.159746 0.159746 0.159746
0.159778 0.159778 0.159778
0.159880 0.159880 0.159880
0.160145 0.160145 0.160145
0.160728 0.160728 0.160728
0.161883 0.161883 0.161883
0.164012 0.164012 0.164012
0.164650 0.164650 0.164650
0.166046 0.166046 0.166046
0.167692 0.167692 0.167692
0.168934 0.168934 0.168934
0.170561 0.170561 0.170561
0.172354 0.172354 0.172354
0.173873 0.173873 0.173873
0.175610 0.175610 0.175610
0.177485 0.177485 0.177485
0.179497 0.179497 0.179497
0.181494 0.181494 0.181494
0.183687 0.183687 0.183687
0.185911 0.185911 0.185911
0.188293 0.188293 0.188293
0.190771 0.190771 0.190771
0.193628 0.193628 0.193628
0.196619 0.196619 0.196619
0.201412 0.201412 0.201412
0.203943 0.203943 0.203943
0.208151 0.208151 0.208151
0.212795 0.212795 0.212795
0.218062 0.218062 0.218062
0.223855 0.223855 0.223855
0.230890 0.230890 0.230890
0.242875 0.242875 0.242875
0.165347 0.165347 0.165347
0.165355 0.165355 0.165355
0.165392 0.165392 0.165392
0.165499 0.165499 0.165499
0.165759 0.165759 0.165759
0.166313 0.166313 0.166313
0.167390 0.167390 0.167390
0.169361 0.169361 0.169361
0.170610 0.170610 0.170610
0.171786 0.171786 0.171786
0.173999 0.173999 0.173999
0.174994 0.174994 0.174994
0.176934 0.176934 0.176934
0.178370 0.178370 0.178370
0.180299 0.180299 0.180299
0.182063 0.182063 0.182063
0.183920 0.183920 0.183920
0.185926 0.185926 0.185926
0.187988 0.187988 0.187988
0.190167 0.190167 0.190167
0.192460 0.192460 0.192460
0.194853 0.194853 0.194853
0.197313 0.197313 0.197313
0.199957 0.199957 0.199957
0.203178 0.203178 0.203178
0.206518 0.206518 0.206518
0.208834 0.208834 0.208834
0.212951 0.212951 0.212951
0.216766 0.216766 0.216766
0.220571 0.220571 0.220571
0.225842 0.225842 0.225842
0.232252 0.232252 0.232252
0.242904 0.242904 0.242904
0.169406 0.169406 0.169406
0.169405 0.169405 0.169405
0.169409 0.169409 0.169409
0.169454 0.169454 0.169454
0.169618 0.169618 0.169618
0.170039 0.170039 0.170039
0.170947 0.170947 0.170947
0.172727 0.172727 0.172727
0.174622 0.174622 0.174622
0.175527 0.175527 0.175527
0.177360 0.177360 0.177360
0.178971 0.178971 0.178971
0.180501 0.180501 0.180501
0.182274 0.182274 0.182274
0.184099 0.184099 0.184099
0.185851 0.185851 0.185851
0.187871 0.187871 0.187871
0.189844 0.189844 0.189844
0.191839 0.191839 0.191839
0.193955 0.193955 0.193955
0.196182 0.196182 0.196182
0.198522 0.198522 0.198522
0.201122 0.201122 0.201122
0.203845 0.203845 0.203845
0.206718 0.206718 0.206718
