LUTs/trix_modern/TriX_NoFilter_Normal.cube
TITLE "Tri-X NoFilter Normal"
# Adobe RGB in/out. REPLACES AgX. Tri-X NoFilter Normal.
LUT_3D_SIZE 9
DOMAIN_MIN 0.0 0.0 0.0
DOMAIN_MAX 1.0 1.0 1.0
0.093230 0.093230 0.093230
0.093274 0.093274 0.093274
0.106034 0.106034 0.106034
0.198991 0.198991 0.198991
0.321660 0.321660 0.321660
0.439263 0.439263 0.439263
0.538432 0.538432 0.538432
0.785494 0.785494 0.785494
0.838451 0.838451 0.838451
0.093612 0.093612 0.093612
0.093772 0.093772 0.093772
0.117654 0.117654 0.117654
0.214809 0.214809 0.214809
0.320000 0.320000 0.320000
0.430757 0.430757 0.430757
0.530362 0.530362 0.530362
0.779409 0.779409 0.779409
0.833783 0.833783 0.833783
0.150301 0.150301 0.150301
0.140877 0.140877 0.140877
0.144640 0.144640 0.144640
0.229651 0.229651 0.229651
0.326714 0.326714 0.326714
0.419487 0.419487 0.419487
0.513438 0.513438 0.513438
0.756785 0.756785 0.756785
0.818670 0.818670 0.818670
0.281451 0.281451 0.281451
0.272296 0.272296 0.272296
0.261189 0.261189 0.261189
0.278015 0.278015 0.278015
0.338066 0.338066 0.338066
0.423320 0.423320 0.423320
0.504193 0.504193 0.504193
0.585190 0.585190 0.585190
0.753442 0.753442 0.753442
0.378662 0.378662 0.378662
0.371213 0.371213 0.371213
0.361538 0.361538 0.361538
0.363857 0.363857 0.363857
0.388021 0.388021 0.388021
0.443292 0.443292 0.443292
0.514891 0.514891 0.514891
0.584583 0.584583 0.584583
0.690235 0.690235 0.690235
0.467234 0.467234 0.467234
0.461988 0.461988 0.461988
0.455832 0.455832 0.455832
0.453683 0.453683 0.453683
0.465602 0.465602 0.465602
0.495120 0.495120 0.495120
0.541886 0.541886 0.541886
0.600979 0.600979 0.600979
0.663759 0.663759 0.663759
0.541471 0.541471 0.541471
0.538233 0.538233 0.538233
0.533851 0.533851 0.533851
0.532431 0.532431 0.532431
0.539705 0.539705 0.539705
0.559456 0.559456 0.559456
0.593097 0.593097 0.593097
0.633718 0.633718 0.633718
0.681380 0.681380 0.681380
0.612138 0.612138 0.612138
0.608543 0.608543 0.608543
0.601901 0.601901 0.601901
0.600021 0.600021 0.600021
0.605285 0.605285 0.605285
0.620408 0.620408 0.620408
0.647636 0.647636 0.647636
0.684020 0.684020 0.684020
0.711912 0.711912 0.711912
0.595582 0.595582 0.595582
0.593487 0.593487 0.593487
0.636959 0.636959 0.636959
0.633398 0.633398 0.633398
0.660848 0.660848 0.660848
0.673159 0.673159 0.673159
0.692848 0.692848 0.692848
0.725541 0.725541 0.725541
0.753584 0.753584 0.753584
0.097837 0.097837 0.097837
0.291412 0.291412 0.291412
0.166258 0.166258 0.166258
0.224300 0.224300 0.224300
0.328060 0.328060 0.328060
0.441967 0.441967 0.441967
0.541526 0.541526 0.541526
0.782234 0.782234 0.782234
0.836031 0.836031 0.836031
0.097638 0.097638 0.097638
0.097009 0.097009 0.097009
0.131057 0.131057 0.131057
0.220242 0.220242 0.220242
0.322402 0.322402 0.322402
0.432652 0.432652 0.432652
0.532442 0.532442 0.532442
0.775287 0.775287 0.775287
0.831388 0.831388 0.831388
0.174181 0.174181 0.174181
0.155042 0.155042 0.155042
0.149799 0.149799 0.149799
0.231423 0.231423 0.231423
0.322622 0.322622 0.322622
0.418803 0.418803 0.418803
0.514298 0.514298 0.514298
0.753460 0.753460 0.753460
0.816375 0.816375 0.816375
0.292362 0.292362 0.292362
0.281703 0.281703 0.281703
0.268211 0.268211 0.268211
0.280197 0.280197 0.280197
0.337908 0.337908 0.337908
0.420746 0.420746 0.420746
0.504210 0.504210 0.504210
0.586236 0.586236 0.586236
0.794296 0.794296 0.794296
0.383807 0.383807 0.383807
0.376613 0.376613 0.376613
0.365740 0.365740 0.365740
0.366447 0.366447 0.366447
0.389815 0.389815 0.389815
0.443047 0.443047 0.443047
0.514378 0.514378 0.514378
0.585340 0.585340 0.585340
0.701071 0.701071 0.701071
0.469167 0.469167 0.469167
0.464271 0.464271 0.464271
0.458028 0.458028 0.458028
0.455556 0.455556 0.455556
0.467172 0.467172 0.467172
0.496547 0.496547 0.496547
0.542448 0.542448 0.542448
0.601933 0.601933 0.601933
0.666261 0.666261 0.666261
0.543078 0.543078 0.543078
0.539990 0.539990 0.539990
0.535780 0.535780 0.535780
0.534338 0.534338 0.534338
0.541515 0.541515 0.541515
0.561274 0.561274 0.561274
0.594769 0.594769 0.594769
0.634985 0.634985 0.634985
0.682954 0.682954 0.682954
0.611920 0.611920 0.611920
0.608743 0.608743 0.608743
0.603413 0.603413 0.603413
0.601918 0.601918 0.601918
0.607300 0.607300 0.607300
0.622488 0.622488 0.622488
0.649847 0.649847 0.649847
0.685632 0.685632 0.685632
0.713488 0.713488 0.713488
0.634824 0.634824 0.634824
0.632605 0.632605 0.632605
0.672159 0.672159 0.672159
0.660303 0.660303 0.660303
0.662619 0.662619 0.662619
0.674879 0.674879 0.674879
0.694745 0.694745 0.694745
0.727420 0.727420 0.727420
0.754998 0.754998 0.754998
0.221484 0.221484 0.221484
0.588199 0.588199 0.588199
0.561254 0.561254 0.561254
0.519137 0.519137 0.519137
0.515356 0.515356 0.515356
0.583501 0.583501 0.583501
0.675791 0.675791 0.675791
0.782216 0.782216 0.782216
0.831037 0.831037 0.831037
0.251701 0.251701 0.251701
0.359890 0.359890 0.359890
0.391991 0.391991 0.391991
0.404599 0.404599 0.404599
0.454506 0.454506 0.454506
0.543209 0.543209 0.543209
0.643923 0.643923 0.643923
0.776443 0.776443 0.776443
0.826371 0.826371 0.826371
0.233732 0.233732 0.233732
0.213817 0.213817 0.213817
0.204394 0.204394 0.204394
0.288974 0.288974 0.288974
0.375189 0.375189 0.375189
0.473694 0.473694 0.473694
0.569120 0.569120 0.569120
0.753843 0.753843 0.753843
0.811336 0.811336 0.811336
0.329696 0.329696 0.329696
0.317632 0.317632 0.317632
0.296609 0.296609 0.296609
0.298654 0.298654 0.298654
0.361213 0.361213 0.361213
0.446789 0.446789 0.446789
0.532595 0.532595 0.532595
0.629464 0.629464 0.629464
0.789347 0.789347 0.789347
0.420749 0.420749 0.420749
0.412307 0.412307 0.412307
0.395498 0.395498 0.395498
0.389199 0.389199 0.389199
0.406831 0.406831 0.406831
0.460268 0.460268 0.460268
0.530491 0.530491 0.530491
0.607545 0.607545 0.607545
0.745807 0.745807 0.745807
0.500956 0.500956 0.500956
0.495544 0.495544 0.495544
0.485322 0.485322 0.485322
0.478655 0.478655 0.478655
0.486305 0.486305 0.486305
0.512185 0.512185 0.512185
0.555402 0.555402 0.555402
0.617344 0.617344 0.617344
0.688682 0.688682 0.688682
0.566916 0.566916 0.566916
0.563697 0.563697 0.563697
0.557697 0.557697 0.557697
0.553821 0.553821 0.553821
0.558646 0.558646 0.558646
0.576537 0.576537 0.576537
0.607688 0.607688 0.607688
0.647410 0.647410 0.647410
0.694959 0.694959 0.694959
0.627830 0.627830 0.627830
0.625642 0.625642 0.625642
0.622383 0.622383 0.622383
0.620157 0.620157 0.620157
0.624268 0.624268 0.624268
0.638233 0.638233 0.638233
0.664661 0.664661 0.664661
0.696014 0.696014 0.696014
0.722865 0.722865 0.722865
0.631117 0.631117 0.631117
0.675656 0.675656 0.675656
0.668940 0.668940 0.668940
0.656949 0.656949 0.656949
0.673384 0.673384 0.673384
0.685252 0.685252 0.685252
0.705138 0.705138 0.705138
0.737070 0.737070 0.737070
0.762744 0.762744 0.762744
0.401682 0.401682 0.401682
0.690219 0.690219 0.690219
0.748076 0.748076 0.748076
0.754112 0.754112 0.754112
0.736015 0.736015 0.736015
0.746983 0.746983 0.746983
0.784664 0.784664 0.784664
0.829852 0.829852 0.829852
0.841097 0.841097 0.841097
0.432992 0.432992 0.432992
0.592185 0.592185 0.592185
0.710108 0.710108 0.710108
0.693813 0.693813 0.693813
0.683587 0.683587 0.683587
0.713785 0.713785 0.713785
0.766718 0.766718 0.766718
0.821068 0.821068 0.821068
0.836398 0.836398 0.836398
0.375934 0.375934 0.375934
0.383166 0.383166 0.383166
0.426825 0.426825 0.426825
0.472613 0.472613 0.472613
0.535464 0.535464 0.535464
0.610544 0.610544 0.610544
0.696929 0.696929 0.696929
0.784957 0.784957 0.784957
0.821269 0.821269 0.821269
0.391013 0.391013 0.391013
0.380780 0.380780 0.380780
0.359371 0.359371 0.359371
0.357462 0.357462 0.357462
0.434180 0.434180 0.434180
0.520786 0.520786 0.520786
0.612564 0.612564 0.612564
0.718837 0.718837 0.718837
0.798539 0.798539 0.798539
0.468134 0.468134 0.468134
0.460266 0.460266 0.460266
0.443072 0.443072 0.443072
0.431240 0.431240 0.431240
0.441321 0.441321 0.441321
0.499171 0.499171 0.499171
0.574896 0.574896 0.574896
0.662973 0.662973 0.662973
0.789211 0.789211 0.789211
0.539496 0.539496 0.539496
0.534340 0.534340 0.534340
0.523326 0.523326 0.523326
0.513945 0.513945 0.513945
0.517405 0.517405 0.517405
0.538736 0.538736 0.538736
0.584694 0.584694 0.584694
0.650412 0.650412 0.650412
0.753714 0.753714 0.753714
0.601500 0.601500 0.601500
0.598210 0.598210 0.598210
0.591207 0.591207 0.591207
0.585545 0.585545 0.585545
0.587969 0.587969 0.587969
0.603274 0.603274 0.603274
0.631676 0.631676 0.631676
0.671489 0.671489 0.671489
0.732088 0.732088 0.732088
0.656363 0.656363 0.656363
0.654264 0.654264 0.654264
0.650524 0.650524 0.650524
0.647233 0.647233 0.647233
0.650197 0.650197 0.650197
0.662988 0.662988 0.662988
0.685125 0.685125 0.685125
0.713685 0.713685 0.713685
0.746286 0.746286 0.746286
0.687854 0.687854 0.687854
0.708258 0.708258 0.708258
0.701511 0.701511 0.701511
0.694644 0.694644 0.694644
0.697610 0.697610 0.697610
0.707164 0.707164 0.707164
0.726256 0.726256 0.726256
0.756060 0.756060 0.756060
0.779715 0.779715 0.779715
0.585827 0.585827 0.585827
0.743096 0.743096 0.743096
0.838740 0.838740 0.838740
0.849488 0.849488 0.849488
0.859550 0.859550 0.859550
0.841589 0.841589 0.841589
0.846054 0.846054 0.846054
0.862855 0.862855 0.862855
0.877107 0.877107 0.877107
0.610435 0.610435 0.610435
0.727431 0.727431 0.727431
0.829241 0.829241 0.829241
0.844013 0.844013 0.844013
0.828887 0.828887 0.828887
0.822188 0.822188 0.822188
0.833671 0.833671 0.833671
0.854951 0.854951 0.854951
0.870771 0.870771 0.870771
0.617847 0.617847 0.617847
0.646266 0.646266 0.646266
0.714678 0.714678 0.714678
0.721920 0.721920 0.721920
0.727950 0.727950 0.727950
0.757689 0.757689 0.757689
0.794092 0.794092 0.794092
0.828581 0.828581 0.828581
0.850417 0.850417 0.850417
0.509048 0.509048 0.509048
0.507607 0.507607 0.507607
0.516161 0.516161 0.516161
0.540150 0.540150 0.540150
0.586092 0.586092 0.586092
0.654347 0.654347 0.654347
0.724634 0.724634 0.724634
0.791389 0.791389 0.791389
0.836379 0.836379 0.836379
0.533802 0.533802 0.533802
0.528246 0.528246 0.528246
0.515696 0.515696 0.515696
0.503923 0.503923 0.503923
0.508013 0.508013 0.508013
0.577659 0.577659 0.577659
0.660064 0.660064 0.660064
0.742673 0.742673 0.742673
0.817048 0.817048 0.817048
0.590752 0.590752 0.590752
0.586163 0.586163 0.586163
0.575968 0.575968 0.575968
0.566119 0.566119 0.566119
0.565974 0.565974 0.565974
0.583634 0.583634 0.583634
0.637837 0.637837 0.637837
0.707850 0.707850 0.707850
0.799055 0.799055 0.799055
0.645270 0.645270 0.645270
0.642240 0.642240 0.642240
0.635410 0.635410 0.635410
0.629348 0.629348 0.629348
0.630377 0.630377 0.630377
0.643257 0.643257 0.643257
0.669686 0.669686 0.669686
0.709069 0.709069 0.709069
0.786543 0.786543 0.786543
0.690212 0.690212 0.690212
0.688494 0.688494 0.688494
0.685233 0.685233 0.685233
0.682326 0.682326 0.682326
0.684370 0.684370 0.684370
0.694591 0.694591 0.694591
0.714538 0.714538 0.714538
0.741827 0.741827 0.741827
0.784110 0.784110 0.784110
0.729748 0.729748 0.729748
0.730812 0.730812 0.730812
0.731328 0.731328 0.731328
0.721202 0.721202 0.721202
0.724831 0.724831 0.724831
0.734230 0.734230 0.734230
0.752585 0.752585 0.752585
0.779283 0.779283 0.779283
0.800869 0.800869 0.800869
0.767904 0.767904 0.767904
0.835190 0.835190 0.835190
0.900837 0.900837 0.900837
0.909271 0.909271 0.909271
0.922308 0.922308 0.922308
0.909945 0.909945 0.909945
0.899286 0.899286 0.899286
0.898020 0.898020 0.898020
0.895561 0.895561 0.895561
0.781659 0.781659 0.781659
0.835512 0.835512 0.835512
0.898908 0.898908 0.898908
0.908730 0.908730 0.908730
0.918455 0.918455 0.918455
0.897302 0.897302 0.897302
0.891019 0.891019 0.891019
0.892566 0.892566 0.892566
0.891596 0.891596 0.891596
0.804869 0.804869 0.804869
0.831249 0.831249 0.831249
0.888796 0.888796 0.888796
0.875991 0.875991 0.875991
0.856755 0.856755 0.856755
0.851765 0.851765 0.851765
0.859951 0.859951 0.859951
0.873936 0.873936 0.873936
0.878332 0.878332 0.878332
0.692154 0.692154 0.692154
0.698989 0.698989 0.698989
0.731064 0.731064 0.731064
0.749972 0.749972 0.749972
0.763530 0.763530 0.763530
0.785033 0.785033 0.785033
0.811566 0.811566 0.811566
0.840840 0.840840 0.840840
0.863634 0.863634 0.863634
0.638385 0.638385 0.638385
0.636606 0.636606 0.636606
0.639552 0.639552 0.639552
0.646145 0.646145 0.646145
0.665235 0.665235 0.665235
0.704426 0.704426 0.704426
0.760187 0.760187 0.760187
0.807427 0.807427 0.807427
0.846663 0.846663 0.846663
0.660056 0.660056 0.660056
0.656994 0.656994 0.656994
0.651073 0.651073 0.651073
0.645623 0.645623 0.645623
0.645259 0.645259 0.645259
0.654911 0.654911 0.654911
0.715425 0.715425 0.715425
0.781164 0.781164 0.781164
0.832150 0.832150 0.832150
0.696077 0.696077 0.696077
0.693932 0.693932 0.693932
0.689501 0.689501 0.689501
0.685835 0.685835 0.685835
0.687307 0.687307 0.687307
0.697040 0.697040 0.697040
0.719198 0.719198 0.719198
0.766456 0.766456 0.766456
0.825865 0.825865 0.825865
0.729415 0.729415 0.729415
0.727973 0.727973 0.727973
0.725496 0.725496 0.725496
0.723415 0.723415 0.723415
0.725950 0.725950 0.725950
0.736010 0.736010 0.736010
0.755092 0.755092 0.755092
0.780660 0.780660 0.780660
0.824717 0.824717 0.824717
0.740821 0.740821 0.740821
0.742493 0.742493 0.742493
0.745664 0.745664 0.745664
0.753219 0.753219 0.753219
0.757440 0.757440 0.757440
0.766669 0.766669 0.766669
0.782397 0.782397 0.782397
0.800752 0.800752 0.800752
0.835757 0.835757 0.835757
0.895027 0.895027 0.895027
0.922133 0.922133 0.922133
0.945364 0.945364 0.945364
0.949686 0.949686 0.949686
0.955745 0.955745 0.955745
0.954992 0.954992 0.954992
0.943663 0.943663 0.943663
0.932681 0.932681 0.932681
0.921339 0.921339 0.921339
0.899818 0.899818 0.899818
0.922756 0.922756 0.922756
0.945461 0.945461 0.945461
0.950083 0.950083 0.950083
0.956177 0.956177 0.956177
0.948764 0.948764 0.948764
0.936724 0.936724 0.936724
0.927444 0.927444 0.927444
0.917053 0.917053 0.917053
0.913733 0.913733 0.913733
0.925986 0.925986 0.925986
0.945564 0.945564 0.945564
0.951367 0.951367 0.951367
0.934770 0.934770 0.934770
0.919121 0.919121 0.919121
0.912577 0.912577 0.912577
0.911204 0.911204 0.911204
0.902701 0.902701 0.902701
0.864513 0.864513 0.864513
0.869911 0.869911 0.869911
0.881303 0.881303 0.881303
0.879213 0.879213 0.879213
0.872365 0.872365 0.872365
0.871639 0.871639 0.871639
0.879177 0.879177 0.879177
0.887960 0.887960 0.887960
0.894996 0.894996 0.894996
0.780721 0.780721 0.780721
0.782784 0.782784 0.782784
0.792320 0.792320 0.792320
0.799020 0.799020 0.799020
0.804522 0.804522 0.804522
0.815713 0.815713 0.815713
0.835161 0.835161 0.835161
0.859254 0.859254 0.859254
0.880312 0.880312 0.880312
0.750361 0.750361 0.750361
0.750023 0.750023 0.750023
0.753140 0.753140 0.753140
0.758234 0.758234 0.758234
0.763837 0.763837 0.763837
0.778020 0.778020 0.778020
0.802393 0.802393 0.802393
0.834766 0.834766 0.834766
0.865834 0.865834 0.865834
0.758849 0.758849 0.758849
0.757821 0.757821 0.757821
0.757086 0.757086 0.757086
0.758596 0.758596 0.758596
0.763783 0.763783 0.763783
0.772180 0.772180 0.772180
0.782937 0.782937 0.782937
0.820799 0.820799 0.820799
0.860997 0.860997 0.860997
0.776605 0.776605 0.776605
0.775656 0.775656 0.775656
0.774833 0.774833 0.774833
0.775173 0.775173 0.775173
0.779607 0.779607 0.779607
0.787584 0.787584 0.787584
0.800739 0.800739 0.800739
0.820371 0.820371 0.820371
0.865712 0.865712 0.865712
0.762575 0.762575 0.762575
0.765402 0.765402 0.765402
0.765947 0.765947 0.765947
0.787097 0.787097 0.787097
0.790491 0.790491 0.790491
0.797624 0.797624 0.797624
0.810024 0.810024 0.810024
0.827651 0.827651 0.827651
0.880003 0.880003 0.880003
0.964666 0.964666 0.964666
0.966507 0.966507 0.966507
0.969997 0.969997 0.969997
0.971411 0.971411 0.971411
0.973432 0.973432 0.973432
0.975167 0.975167 0.975167
0.967822 0.967822 0.967822
0.957666 0.957666 0.957666
0.946265 0.946265 0.946265
0.965184 0.965184 0.965184
0.966917 0.966917 0.966917
0.970399 0.970399 0.970399
0.971655 0.971655 0.971655
0.973661 0.973661 0.973661
0.972950 0.972950 0.972950
0.963881 0.963881 0.963881
0.954911 0.954911 0.954911
0.944135 0.944135 0.944135
0.968177 0.968177 0.968177
0.969414 0.969414 0.969414
0.971375 0.971375 0.971375
0.972731 0.972731 0.972731
0.970894 0.970894 0.970894
0.959785 0.959785 0.959785
0.951610 0.951610 0.951610
0.946311 0.946311 0.946311
0.934072 0.934072 0.934072
0.957833 0.957833 0.957833
0.957071 0.957071 0.957071
0.954345 0.954345 0.954345
0.948043 0.948043 0.948043
0.939540 0.939540 0.939540
0.930915 0.930915 0.930915
0.927046 0.927046 0.927046
0.926406 0.926406 0.926406
0.923693 0.923693 0.923693
0.897554 0.897554 0.897554
0.897728 0.897728 0.897728
0.897984 0.897984 0.897984
0.894523 0.894523 0.894523
0.891204 0.891204 0.891204
0.891065 0.891065 0.891065
0.895648 0.895648 0.895648
0.903148 0.903148 0.903148
0.908363 0.908363 0.908363
0.851305 0.851305 0.851305
0.852320 0.852320 0.852320
0.856011 0.856011 0.856011
0.855426 0.855426 0.855426
0.854547 0.854547 0.854547
0.858381 0.858381 0.858381
0.869847 0.869847 0.869847
0.885338 0.885338 0.885338
0.896573 0.896573 0.896573
0.828518 0.828518 0.828518
0.829324 0.829324 0.829324
0.834336 0.834336 0.834336
0.839195 0.839195 0.839195
0.841942 0.841942 0.841942
0.845037 0.845037 0.845037
0.854371 0.854371 0.854371
0.875057 0.875057 0.875057
0.891953 0.891953 0.891953
0.821400 0.821400 0.821400
0.821340 0.821340 0.821340
0.823537 0.823537 0.823537
0.828314 0.828314 0.828314
0.836743 0.836743 0.836743
0.847017 0.847017 0.847017
0.858332 0.858332 0.858332
0.869617 0.869617 0.869617
0.896025 0.896025 0.896025
0.796559 0.796559 0.796559
0.804229 0.804229 0.804229
0.806562 0.806562 0.806562
0.818155 0.818155 0.818155
0.823977 0.823977 0.823977
0.832749 0.832749 0.832749
0.845957 0.845957 0.845957
0.863091 0.863091 0.863091
0.907997 0.907997 0.907997
0.978643 0.978643 0.978643
0.978706 0.978706 0.978706
0.979031 0.979031 0.979031
0.980058 0.980058 0.980058
0.982238 0.982238 0.982238
0.985246 0.985246 0.985246
0.978844 0.978844 0.978844
0.973504 0.973504 0.973504
0.961051 0.961051 0.961051
0.978828 0.978828 0.978828
0.978893 0.978893 0.978893
0.979230 0.979230 0.979230
0.980264 0.980264 0.980264
0.982419 0.982419 0.982419
0.983394 0.983394 0.983394
0.977370 0.977370 0.977370
0.972404 0.972404 0.972404
0.961031 0.961031 0.961031
0.979743 0.979743 0.979743
0.979819 0.979819 0.979819
0.980198 0.980198 0.980198
0.981241 0.981241 0.981241
0.982119 0.982119 0.982119
0.977085 0.977085 0.977085
0.972738 0.972738 0.972738
0.967026 0.967026 0.967026
0.953614 0.953614 0.953614
0.980021 0.980021 0.980021
0.979347 0.979347 0.979347
0.977212 0.977212 0.977212
0.974129 0.974129 0.974129
0.970909 0.970909 0.970909
0.965103 0.965103 0.965103
0.959629 0.959629 0.959629
0.954966 0.954966 0.954966
0.950369 0.950369 0.950369
0.956512 0.956512 0.956512
0.955554 0.955554 0.955554
0.952703 0.952703 0.952703
0.948780 0.948780 0.948780
0.945066 0.945066 0.945066
0.942532 0.942532 0.942532
0.941293 0.941293 0.941293
0.941092 0.941092 0.941092
0.940735 0.940735 0.940735
0.925770 0.925770 0.925770
0.924530 0.924530 0.924530
0.921098 0.921098 0.921098
0.916760 0.916760 0.916760
0.913144 0.913144 0.913144
0.913005 0.913005 0.913005
0.916672 0.916672 0.916672
0.922265 0.922265 0.922265
0.927619 0.927619 0.927619
0.909467 0.909467 0.909467
0.908476 0.908476 0.908476
0.905718 0.905718 0.905718
0.902245 0.902245 0.902245
0.899134 0.899134 0.899134
0.898640 0.898640 0.898640
0.903233 0.903233 0.903233
0.911719 0.911719 0.911719
0.920658 0.920658 0.920658
0.904592 0.904592 0.904592
0.904848 0.904848 0.904848
0.904526 0.904526 0.904526
0.902830 0.902830 0.902830
0.901291 0.901291 0.901291
0.901034 0.901034 0.901034
0.903602 0.903602 0.903602
0.911562 0.911562 0.911562
0.922065 0.922065 0.922065
0.825610 0.825610 0.825610
0.850876 0.850876 0.850876
0.847566 0.847566 0.847566
0.844244 0.844244 0.844244
0.886967 0.886967 0.886967
0.908643 0.908643 0.908643
0.914448 0.914448 0.914448
0.923036 0.923036 0.923036
0.932292 0.932292 0.932292
