LUTs/trix_modern/TriX_Yellow8_Normal.cube
TITLE "Tri-X Yellow8 Normal"
# Adobe RGB in/out. REPLACES AgX. Tri-X Yellow8 Normal.
LUT_3D_SIZE 9
DOMAIN_MIN 0.0 0.0 0.0
DOMAIN_MAX 1.0 1.0 1.0
0.093230 0.093230 0.093230
0.093835 0.093835 0.093835
0.154807 0.154807 0.154807
0.311605 0.311605 0.311605
0.473344 0.473344 0.473344
0.632667 0.632667 0.632667
0.753026 0.753026 0.753026
0.834131 0.834131 0.834131
0.864369 0.864369 0.864369
0.095911 0.095911 0.095911
0.097573 0.097573 0.097573
0.187656 0.187656 0.187656
0.330910 0.330910 0.330910
0.470799 0.470799 0.470799
0.620598 0.620598 0.620598
0.744086 0.744086 0.744086
0.827666 0.827666 0.827666
0.859560 0.859560 0.859560
0.244468 0.244468 0.244468
0.227837 0.227837 0.227837
0.235933 0.235933 0.235933
0.347153 0.347153 0.347153
0.479827 0.479827 0.479827
0.604088 0.604088 0.604088
0.724206 0.724206 0.724206
0.810578 0.810578 0.810578
0.843979 0.843979 0.843979
0.407675 0.407675 0.407675
0.392899 0.392899 0.392899
0.379832 0.379832 0.379832
0.404075 0.404075 0.404075
0.493841 0.493841 0.493841
0.607263 0.607263 0.607263
0.712022 0.712022 0.712022
0.798077 0.798077 0.798077
0.821027 0.821027 0.821027
0.543426 0.543426 0.543426
0.533490 0.533490 0.533490
0.520781 0.520781 0.520781
0.524655 0.524655 0.524655
0.557704 0.557704 0.557704
0.632459 0.632459 0.632459
0.723012 0.723012 0.723012
0.797670 0.797670 0.797670
0.846537 0.846537 0.846537
0.660618 0.660618 0.660618
0.653261 0.653261 0.653261
0.644493 0.644493 0.644493
0.641817 0.641817 0.641817
0.659226 0.659226 0.659226
0.696894 0.696894 0.696894
0.754287 0.754287 0.754287
0.810372 0.810372 0.810372
0.855898 0.855898 0.855898
0.749965 0.749965 0.749965
0.745929 0.745929 0.745929
0.740209 0.740209 0.740209
0.738401 0.738401 0.738401
0.747713 0.747713 0.747713
0.772025 0.772025 0.772025
0.802683 0.802683 0.802683
0.836155 0.836155 0.836155
0.873934 0.873934 0.873934
0.817008 0.817008 0.817008
0.814095 0.814095 0.814095
0.808191 0.808191 0.808191
0.806370 0.806370 0.806370
0.810692 0.810692 0.810692
0.823337 0.823337 0.823337
0.845907 0.845907 0.845907
0.877327 0.877327 0.877327
0.895794 0.895794 0.895794
0.803952 0.803952 0.803952
0.802253 0.802253 0.802253
0.839706 0.839706 0.839706
0.833514 0.833514 0.833514
0.855446 0.855446 0.855446
0.865879 0.865879 0.865879
0.882858 0.882858 0.882858
0.904777 0.904777 0.904777
0.922982 0.922982 0.922982
0.093239 0.093239 0.093239
0.093965 0.093965 0.093965
0.131734 0.131734 0.131734
0.286215 0.286215 0.286215
0.459145 0.459145 0.459145
0.623943 0.623943 0.623943
0.746699 0.746699 0.746699
0.830665 0.830665 0.830665
0.861876 0.861876 0.861876
0.096468 0.096468 0.096468
0.097009 0.097009 0.097009
0.157066 0.157066 0.157066
0.299615 0.299615 0.299615
0.453801 0.453801 0.453801
0.611780 0.611780 0.611780
0.737909 0.737909 0.737909
0.824233 0.824233 0.824233
0.857090 0.857090 0.857090
0.242302 0.242302 0.242302
0.217031 0.217031 0.217031
0.218083 0.218083 0.218083
0.329053 0.329053 0.329053
0.458678 0.458678 0.458678
0.593654 0.593654 0.593654
0.718661 0.718661 0.718661
0.808195 0.808195 0.808195
0.841613 0.841613 0.841613
0.402645 0.402645 0.402645
0.387284 0.387284 0.387284
0.370604 0.370604 0.370604
0.392926 0.392926 0.392926
0.482480 0.482480 0.482480
0.595870 0.595870 0.595870
0.706565 0.706565 0.706565
0.795256 0.795256 0.795256
0.818855 0.818855 0.818855
0.538435 0.538435 0.538435
0.529025 0.529025 0.529025
0.515366 0.515366 0.515366
0.518263 0.518263 0.518263
0.551245 0.551245 0.551245
0.625370 0.625370 0.625370
0.717605 0.717605 0.717605
0.795450 0.795450 0.795450
0.844811 0.844811 0.844811
0.656216 0.656216 0.656216
0.649335 0.649335 0.649335
0.640471 0.640471 0.640471
0.637623 0.637623 0.637623
0.655031 0.655031 0.655031
0.693447 0.693447 0.693447
0.750773 0.750773 0.750773
0.808708 0.808708 0.808708
0.854606 0.854606 0.854606
0.747825 0.747825 0.747825
0.743941 0.743941 0.743941
0.738321 0.738321 0.738321
0.736484 0.736484 0.736484
0.745800 0.745800 0.745800
0.770407 0.770407 0.770407
0.801524 0.801524 0.801524
0.835037 0.835037 0.835037
0.873245 0.873245 0.873245
0.815394 0.815394 0.815394
0.812732 0.812732 0.812732
0.807493 0.807493 0.807493
0.805831 0.805831 0.805831
0.810225 0.810225 0.810225
0.822971 0.822971 0.822971
0.845721 0.845721 0.845721
0.876929 0.876929 0.876929
0.895615 0.895615 0.895615
0.819302 0.819302 0.819302
0.817582 0.817582 0.817582
0.853174 0.853174 0.853174
0.843659 0.843659 0.843659
0.855509 0.855509 0.855509
0.865993 0.865993 0.865993
0.883059 0.883059 0.883059
0.905008 0.905008 0.905008
0.923045 0.923045 0.923045
0.094193 0.094193 0.094193
0.104425 0.104425 0.104425
0.165694 0.165694 0.165694
0.305925 0.305925 0.305925
0.459487 0.459487 0.459487
0.618749 0.618749 0.618749
0.739193 0.739193 0.739193
0.826368 0.826368 0.826368
0.856718 0.856718 0.856718
0.120286 0.120286 0.120286
0.145919 0.145919 0.145919
0.201848 0.201848 0.201848
0.307937 0.307937 0.307937
0.450615 0.450615 0.450615
0.605894 0.605894 0.605894
0.730398 0.730398 0.730398
0.820507 0.820507 0.820507
0.851917 0.851917 0.851917
0.219566 0.219566 0.219566
0.201382 0.201382 0.201382
0.204394 0.204394 0.204394
0.312894 0.312894 0.312894
0.442184 0.442184 0.442184
0.583237 0.583237 0.583237
0.711375 0.711375 0.711375
0.809015 0.809015 0.809015
0.836418 0.836418 0.836418
0.387304 0.387304 0.387304
0.373403 0.373403 0.373403
0.353349 0.353349 0.353349
0.368300 0.368300 0.368300
0.462544 0.462544 0.462544
0.578831 0.578831 0.578831
0.697741 0.697741 0.697741
0.789864 0.789864 0.789864
0.813749 0.813749 0.813749
0.533895 0.533895 0.533895
0.524658 0.524658 0.524658
0.507729 0.507729 0.507729
0.506646 0.506646 0.506646
0.536765 0.536765 0.536765
0.611968 0.611968 0.611968
0.706931 0.706931 0.706931
0.790928 0.790928 0.790928
0.840729 0.840729 0.840729
0.657038 0.657038 0.657038
0.650401 0.650401 0.650401
0.638951 0.638951 0.638951
0.633824 0.633824 0.633824
0.649177 0.649177 0.649177
0.686613 0.686613 0.686613
0.743347 0.743347 0.743347
0.805038 0.805038 0.805038
0.851363 0.851363 0.851363
0.749325 0.749325 0.749325
0.745680 0.745680 0.745680
0.739221 0.739221 0.739221
0.736158 0.736158 0.736158
0.744473 0.744473 0.744473
0.768660 0.768660 0.768660
0.799304 0.799304 0.799304
0.832402 0.832402 0.832402
0.871575 0.871575 0.871575
0.812646 0.812646 0.812646
0.810911 0.810911 0.810911
0.808100 0.808100 0.808100
0.806762 0.806762 0.806762
0.811048 0.811048 0.811048
0.823730 0.823730 0.823730
0.846528 0.846528 0.846528
0.876130 0.876130 0.876130
0.895243 0.895243 0.895243
0.816427 0.816427 0.816427
0.856237 0.856237 0.856237
0.850349 0.850349 0.850349
0.841083 0.841083 0.841083
0.856846 0.856846 0.856846
0.867290 0.867290 0.867290
0.884271 0.884271 0.884271
0.906076 0.906076 0.906076
0.923346 0.923346 0.923346
0.109246 0.109246 0.109246
0.135004 0.135004 0.135004
0.230840 0.230840 0.230840
0.348693 0.348693 0.348693
0.490886 0.490886 0.490886
0.631336 0.631336 0.631336
0.742410 0.742410 0.742410
0.815135 0.815135 0.815135
0.853293 0.853293 0.853293
0.160000 0.160000 0.160000
0.188777 0.188777 0.188777
0.284304 0.284304 0.284304
0.363939 0.363939 0.363939
0.480374 0.480374 0.480374
0.618066 0.618066 0.618066
0.733250 0.733250 0.733250
0.809246 0.809246 0.809246
0.848378 0.848378 0.848378
0.263546 0.263546 0.263546
0.261893 0.261893 0.261893
0.288721 0.288721 0.288721
0.352539 0.352539 0.352539
0.461169 0.461169 0.461169
0.591023 0.591023 0.591023
0.712301 0.712301 0.712301
0.796291 0.796291 0.796291
0.832506 0.832506 0.832506
0.371952 0.371952 0.371952
0.362151 0.362151 0.362151
0.345410 0.345410 0.345410
0.357462 0.357462 0.357462
0.456886 0.456886 0.456886
0.575299 0.575299 0.575299
0.695242 0.695242 0.695242
0.786890 0.786890 0.786890
0.809313 0.809313 0.809313
0.520119 0.520119 0.520119
0.512085 0.512085 0.512085
0.496407 0.496407 0.496407
0.492009 0.492009 0.492009
0.517528 0.517528 0.517528
0.598641 0.598641 0.598641
0.699597 0.699597 0.699597
0.787080 0.787080 0.787080
0.837350 0.837350 0.837350
0.647637 0.647637 0.647637
0.641887 0.641887 0.641887
0.631135 0.631135 0.631135
0.625450 0.625450 0.625450
0.638614 0.638614 0.638614
0.675400 0.675400 0.675400
0.734934 0.734934 0.734934
0.801181 0.801181 0.801181
0.848077 0.848077 0.848077
0.745700 0.745700 0.745700
0.742464 0.742464 0.742464
0.736347 0.736347 0.736347
0.733323 0.733323 0.733323
0.741134 0.741134 0.741134
0.764695 0.764695 0.764695
0.795338 0.795338 0.795338
0.829682 0.829682 0.829682
0.869593 0.869593 0.869593
0.810694 0.810694 0.810694
0.809316 0.809316 0.809316
0.807236 0.807236 0.807236
0.806212 0.806212 0.806212
0.810779 0.810779 0.810779
0.823700 0.823700 0.823700
0.846248 0.846248 0.846248
0.874572 0.874572 0.874572
0.894854 0.894854 0.894854
0.838169 0.838169 0.838169
0.859767 0.859767 0.859767
0.854103 0.854103 0.854103
0.857923 0.857923 0.857923
0.858229 0.858229 0.858229
0.868788 0.868788 0.868788
0.885877 0.885877 0.885877
0.907177 0.907177 0.907177
0.923785 0.923785 0.923785
0.164466 0.164466 0.164466
0.179560 0.179560 0.179560
0.290726 0.290726 0.290726
0.394193 0.394193 0.394193
0.540864 0.540864 0.540864
0.661998 0.661998 0.661998
0.758153 0.758153 0.758153
0.816036 0.816036 0.816036
0.853303 0.853303 0.853303
0.214249 0.214249 0.214249
0.231997 0.231997 0.231997
0.324441 0.324441 0.324441
0.426462 0.426462 0.426462
0.531138 0.531138 0.531138
0.648946 0.648946 0.648946
0.748892 0.748892 0.748892
0.811114 0.811114 0.811114
0.848238 0.848238 0.848238
0.343970 0.343970 0.343970
0.346217 0.346217 0.346217
0.379919 0.379919 0.379919
0.434109 0.434109 0.434109
0.509682 0.509682 0.509682
0.620108 0.620108 0.620108
0.726496 0.726496 0.726496
0.800769 0.800769 0.800769
0.831823 0.831823 0.831823
0.393743 0.393743 0.393743
0.389518 0.389518 0.389518
0.391949 0.391949 0.391949
0.424670 0.424670 0.424670
0.493715 0.493715 0.493715
0.595738 0.595738 0.595738
0.704992 0.704992 0.704992
0.789826 0.789826 0.789826
0.830650 0.830650 0.830650
0.509588 0.509588 0.509588
0.503883 0.503883 0.503883
0.492591 0.492591 0.492591
0.488396 0.488396 0.488396
0.508013 0.508013 0.508013
0.598536 0.598536 0.598536
0.701205 0.701205 0.701205
0.787311 0.787311 0.787311
0.836763 0.836763 0.836763
0.636410 0.636410 0.636410
0.631814 0.631814 0.631814
0.623135 0.623135 0.623135
0.618179 0.618179 0.618179
0.628629 0.628629 0.628629
0.662724 0.662724 0.662724
0.729267 0.729267 0.729267
0.799241 0.799241 0.799241
0.846370 0.846370 0.846370
0.738551 0.738551 0.738551
0.735948 0.735948 0.735948
0.731037 0.731037 0.731037
0.729004 0.729004 0.729004
0.736842 0.736842 0.736842
0.759461 0.759461 0.759461
0.790728 0.790728 0.790728
0.827653 0.827653 0.827653
0.868085 0.868085 0.868085
0.807343 0.807343 0.807343
0.806232 0.806232 0.806232
0.804734 0.804734 0.804734
0.804520 0.804520 0.804520
0.809652 0.809652 0.809652
0.822904 0.822904 0.822904
0.845211 0.845211 0.845211
0.872992 0.872992 0.872992
0.894801 0.894801 0.894801
0.841160 0.841160 0.841160
0.842979 0.842979 0.842979
0.845629 0.845629 0.845629
0.851872 0.851872 0.851872
0.857757 0.857757 0.857757
0.869242 0.869242 0.869242
0.886684 0.886684 0.886684
0.907764 0.907764 0.907764
0.924452 0.924452 0.924452
0.243100 0.243100 0.243100
0.245959 0.245959 0.245959
0.340630 0.340630 0.340630
0.439579 0.439579 0.439579
0.580668 0.580668 0.580668
0.698881 0.698881 0.698881
0.781248 0.781248 0.781248
0.826481 0.826481 0.826481
0.856629 0.856629 0.856629
0.278066 0.278066 0.278066
0.282462 0.282462 0.282462
0.368148 0.368148 0.368148
0.464339 0.464339 0.464339
0.592754 0.592754 0.592754
0.688468 0.688468 0.688468
0.773845 0.773845 0.773845
0.821892 0.821892 0.821892
0.851453 0.851453 0.851453
0.402128 0.402128 0.402128
0.409290 0.409290 0.409290
0.469391 0.469391 0.469391
0.515143 0.515143 0.515143
0.574111 0.574111 0.574111
0.663611 0.663611 0.663611
0.752326 0.752326 0.752326
0.811705 0.811705 0.811705
0.834584 0.834584 0.834584
0.450859 0.450859 0.450859
0.449951 0.449951 0.449951
0.465222 0.465222 0.465222
0.501631 0.501631 0.501631
0.556954 0.556954 0.556954
0.636732 0.636732 0.636732
0.728372 0.728372 0.728372
0.799569 0.799569 0.799569
0.837740 0.837740 0.837740
0.521908 0.521908 0.521908
0.518663 0.518663 0.518663
0.517273 0.517273 0.517273
0.526575 0.526575 0.526575
0.561264 0.561264 0.561264
0.629901 0.629901 0.629901
0.717901 0.717901 0.717901
0.794224 0.794224 0.794224
0.840327 0.840327 0.840327
0.629768 0.629768 0.629768
0.626616 0.626616 0.626616
0.621172 0.621172 0.621172
0.619115 0.619115 0.619115
0.628526 0.628526 0.628526
0.654911 0.654911 0.654911
0.732080 0.732080 0.732080
0.801782 0.801782 0.801782
0.847912 0.847912 0.847912
0.731408 0.731408 0.731408
0.729430 0.729430 0.729430
0.726174 0.726174 0.726174
0.725782 0.725782 0.725782
0.734022 0.734022 0.734022
0.754821 0.754821 0.754821
0.786410 0.786410 0.786410
0.827080 0.827080 0.827080
0.868161 0.868161 0.868161
0.803231 0.803231 0.803231
0.802423 0.802423 0.802423
0.801756 0.801756 0.801756
0.802535 0.802535 0.802535
0.808437 0.808437 0.808437
0.822022 0.822022 0.822022
0.844026 0.844026 0.844026
0.871786 0.871786 0.871786
0.895192 0.895192 0.895192
0.837144 0.837144 0.837144
0.838660 0.838660 0.838660
0.840486 0.840486 0.840486
0.849816 0.849816 0.849816
0.856702 0.856702 0.856702
0.869098 0.869098 0.869098
0.887170 0.887170 0.887170
0.908337 0.908337 0.908337
0.925449 0.925449 0.925449
0.314993 0.314993 0.314993
0.313776 0.313776 0.313776
0.385855 0.385855 0.385855
0.483249 0.483249 0.483249
0.613654 0.613654 0.613654
0.741642 0.741642 0.741642
0.803125 0.803125 0.803125
0.841431 0.841431 0.841431
0.862151 0.862151 0.862151
0.337729 0.337729 0.337729
0.338158 0.338158 0.338158
0.410235 0.410235 0.410235
0.504605 0.504605 0.504605
0.629610 0.629610 0.629610
0.731792 0.731792 0.731792
0.797406 0.797406 0.797406
0.837155 0.837155 0.837155
0.856938 0.856938 0.856938
0.447052 0.447052 0.447052
0.450859 0.450859 0.450859
0.502744 0.502744 0.502744
0.585328 0.585328 0.585328
0.636972 0.636972 0.636972
0.709022 0.709022 0.709022
0.782538 0.782538 0.782538
0.827318 0.827318 0.827318
0.839809 0.839809 0.839809
0.522970 0.522970 0.522970
0.522159 0.522159 0.522159
0.537845 0.537845 0.537845
0.573155 0.573155 0.573155
0.621227 0.621227 0.621227
0.686900 0.686900 0.686900
0.761071 0.761071 0.761071
0.814813 0.814813 0.814813
0.849490 0.849490 0.849490
0.558030 0.558030 0.558030
0.556921 0.556921 0.556921
0.562960 0.562960 0.562960
0.583531 0.583531 0.583531
0.622638 0.622638 0.622638
0.679157 0.679157 0.679157
0.747666 0.747666 0.747666
0.807709 0.807709 0.807709
0.848187 0.848187 0.848187
0.637294 0.637294 0.637294
0.635428 0.635428 0.635428
0.634595 0.634595 0.634595
0.640312 0.640312 0.640312
0.659615 0.659615 0.659615
0.695491 0.695491 0.695491
0.754562 0.754562 0.754562
0.811425 0.811425 0.811425
0.853597 0.853597 0.853597
0.727938 0.727938 0.727938
0.726688 0.726688 0.726688
0.725398 0.725398 0.725398
0.727386 0.727386 0.727386
0.737336 0.737336 0.737336
0.757110 0.757110 0.757110
0.782937 0.782937 0.782937
0.830280 0.830280 0.830280
0.871186 0.871186 0.871186
0.800029 0.800029 0.800029
0.799486 0.799486 0.799486
0.799617 0.799617 0.799617
0.801500 0.801500 0.801500
0.808330 0.808330 0.808330
0.822203 0.822203 0.822203
0.843664 0.843664 0.843664
0.871265 0.871265 0.871265
0.896418 0.896418 0.896418
0.830548 0.830548 0.830548
0.834938 0.834938 0.834938
0.837928 0.837928 0.837928
0.848146 0.848146 0.848146
0.855683 0.855683 0.855683
0.868900 0.868900 0.868900
0.887520 0.887520 0.887520
0.909156 0.909156 0.909156
0.927066 0.927066 0.927066
0.385161 0.385161 0.385161
0.384604 0.384604 0.384604
0.439913 0.439913 0.439913
0.526975 0.526975 0.526975
0.651161 0.651161 0.651161
0.784732 0.784732 0.784732
0.828408 0.828408 0.828408
0.860593 0.860593 0.860593
0.871156 0.871156 0.871156
0.405636 0.405636 0.405636
0.405973 0.405973 0.405973
0.460828 0.460828 0.460828
0.545287 0.545287 0.545287
0.665679 0.665679 0.665679
0.778083 0.778083 0.778083
0.823034 0.823034 0.823034
0.856567 0.856567 0.856567
0.866799 0.866799 0.866799
0.503050 0.503050 0.503050
0.505919 0.505919 0.505919
0.551966 0.551966 0.551966
0.625240 0.625240 0.625240
0.696174 0.696174 0.696174
0.758981 0.758981 0.758981
0.809994 0.809994 0.809994
0.847189 0.847189 0.847189
0.858571 0.858571 0.858571
0.595588 0.595588 0.595588
0.594181 0.594181 0.594181
0.611424 0.611424 0.611424
0.640914 0.640914 0.640914
0.681108 0.681108 0.681108
0.735638 0.735638 0.735638
0.793471 0.793471 0.793471
0.834912 0.834912 0.834912
0.861740 0.861740 0.861740
0.610031 0.610031 0.610031
0.609801 0.609801 0.609801
0.621160 0.621160 0.621160
0.644223 0.644223 0.644223
0.679863 0.679863 0.679863
0.725610 0.725610 0.725610
0.783204 0.783204 0.783204
0.826858 0.826858 0.826858
0.859796 0.859796 0.859796
0.660871 0.660871 0.660871
0.660265 0.660265 0.660265
0.665557 0.665557 0.665557
0.676906 0.676906 0.676906
0.700510 0.700510 0.700510
0.737102 0.737102 0.737102
0.785118 0.785118 0.785118
0.828163 0.828163 0.828163
0.863788 0.863788 0.863788
0.731473 0.731473 0.731473
0.730832 0.730832 0.730832
0.732626 0.732626 0.732626
0.738031 0.738031 0.738031
0.752262 0.752262 0.752262
0.776372 0.776372 0.776372
0.803356 0.803356 0.803356
0.842374 0.842374 0.842374
0.878584 0.878584 0.878584
0.799775 0.799775 0.799775
0.799364 0.799364 0.799364
0.799964 0.799964 0.799964
0.802773 0.802773 0.802773
0.810680 0.810680 0.810680
0.825377 0.825377 0.825377
0.846405 0.846405 0.846405
0.869617 0.869617 0.869617
0.899238 0.899238 0.899238
0.821498 0.821498 0.821498
0.835953 0.835953 0.835953
0.834490 0.834490 0.834490
0.845825 0.845825 0.845825
0.855471 0.855471 0.855471
0.869309 0.869309 0.869309
0.888122 0.888122 0.888122
0.910405 0.910405 0.910405
0.929348 0.929348 0.929348
0.469670 0.469670 0.469670
0.474873 0.474873 0.474873
0.502169 0.502169 0.502169
0.581522 0.581522 0.581522
0.720974 0.720974 0.720974
0.839723 0.839723 0.839723
0.871134 0.871134 0.871134
0.887666 0.887666 0.887666
0.883451 0.883451 0.883451
0.485309 0.485309 0.485309
0.490654 0.490654 0.490654
0.518364 0.518364 0.518364
0.596011 0.596011 0.596011
0.730138 0.730138 0.730138
0.833357 0.833357 0.833357
0.865399 0.865399 0.865399
0.883989 0.883989 0.883989
0.882289 0.882289 0.882289
0.559513 0.559513 0.559513
0.564897 0.564897 0.564897
0.592012 0.592012 0.592012
0.663189 0.663189 0.663189
0.764381 0.764381 0.764381
0.815759 0.815759 0.815759
0.851038 0.851038 0.851038
0.874004 0.874004 0.874004
0.866346 0.866346 0.866346
0.678126 0.678126 0.678126
0.677682 0.677682 0.677682
0.682682 0.682682 0.682682
0.704031 0.704031 0.704031
0.746804 0.746804 0.746804
0.797233 0.797233 0.797233
0.835044 0.835044 0.835044
0.864285 0.864285 0.864285
0.883768 0.883768 0.883768
0.677664 0.677664 0.677664
0.678124 0.678124 0.678124
0.685040 0.685040 0.685040
0.703775 0.703775 0.703775
0.736493 0.736493 0.736493
0.783703 0.783703 0.783703
0.821886 0.821886 0.821886
0.855938 0.855938 0.855938
0.881556 0.881556 0.881556
0.698788 0.698788 0.698788
0.699193 0.699193 0.699193
0.705318 0.705318 0.705318
0.720903 0.720903 0.720903
0.745052 0.745052 0.745052
0.782345 0.782345 0.782345
0.818107 0.818107 0.818107
0.854221 0.854221 0.854221
0.883415 0.883415 0.883415
0.745652 0.745652 0.745652
0.745696 0.745696 0.745696
0.749730 0.749730 0.749730
0.761763 0.761763 0.761763
0.778872 0.778872 0.778872
0.798056 0.798056 0.798056
0.827973 0.827973 0.827973
0.863686 0.863686 0.863686
0.891696 0.891696 0.891696
0.797983 0.797983 0.797983
0.797831 0.797831 0.797831
0.799488 0.799488 0.799488
0.805863 0.805863 0.805863
0.817307 0.817307 0.817307
0.833092 0.833092 0.833092
0.854337 0.854337 0.854337
0.884078 0.884078 0.884078
0.907827 0.907827 0.907827
0.811110 0.811110 0.811110
0.833201 0.833201 0.833201
0.829960 0.829960 0.829960
0.829124 0.829124 0.829124
0.855846 0.855846 0.855846
0.870536 0.870536 0.870536
0.889618 0.889618 0.889618
0.911753 0.911753 0.911753
0.932292 0.932292 0.932292
