LUTs/trix_modern/TriX_Blue47_Punchy.cube
TITLE "Tri-X Blue47 Punchy"
# Adobe RGB in/out. REPLACES AgX. Tri-X Blue47 Punchy.
LUT_3D_SIZE 5
DOMAIN_MIN 0.0 0.0 0.0
DOMAIN_MAX 1.0 1.0 1.0
0.091936 0.091936 0.091936
0.091956 0.091956 0.091956
0.093145 0.093145 0.093145
0.108789 0.108789 0.108789
0.698909 0.698909 0.698909
0.091974 0.091974 0.091974
0.091982 0.091982 0.091982
0.093259 0.093259 0.093259
0.105222 0.105222 0.105222
0.671389 0.671389 0.671389
0.094929 0.094929 0.094929
0.095662 0.095662 0.095662
0.097516 0.097516 0.097516
0.107980 0.107980 0.107980
0.253498 0.253498 0.253498
0.106810 0.106810 0.106810
0.108394 0.108394 0.108394
0.113894 0.113894 0.113894
0.124460 0.124460 0.124460
0.161936 0.161936 0.161936
0.110938 0.110938 0.110938
0.109551 0.109551 0.109551
0.129756 0.129756 0.129756
0.142584 0.142584 0.142584
0.156390 0.156390 0.156390
0.322273 0.322273 0.322273
0.558505 0.558505 0.558505
0.449431 0.449431 0.449431
0.469588 0.469588 0.469588
0.688584 0.688584 0.688584
0.204995 0.204995 0.204995
0.152941 0.152941 0.152941
0.254525 0.254525 0.254525
0.331624 0.331624 0.331624
0.661303 0.661303 0.661303
0.232571 0.232571 0.232571
0.208205 0.208205 0.208205
0.184907 0.184907 0.184907
0.227946 0.227946 0.227946
0.463200 0.463200 0.463200
0.224877 0.224877 0.224877
0.221322 0.221322 0.221322
0.217350 0.217350 0.217350
0.225662 0.225662 0.225662
0.271814 0.271814 0.271814
0.206470 0.206470 0.206470
0.200929 0.200929 0.200929
0.193400 0.193400 0.193400
0.215421 0.215421 0.215421
0.227532 0.227532 0.227532
0.829497 0.829497 0.829497
0.946918 0.946918 0.946918
0.941245 0.941245 0.941245
0.881645 0.881645 0.881645
0.886020 0.886020 0.886020
0.809783 0.809783 0.809783
0.843148 0.843148 0.843148
0.809294 0.809294 0.809294
0.806355 0.806355 0.806355
0.849054 0.849054 0.849054
0.589232 0.589232 0.589232
0.563659 0.563659 0.563659
0.513339 0.513339 0.513339
0.605708 0.605708 0.605708
0.759836 0.759836 0.759836
0.555195 0.555195 0.555195
0.545826 0.545826 0.545826
0.524761 0.524761 0.524761
0.520229 0.520229 0.520229
0.626738 0.626738 0.626738
0.541618 0.541618 0.541618
0.533368 0.533368 0.533368
0.480343 0.480343 0.480343
0.480611 0.480611 0.480611
0.516009 0.516009 0.516009
0.986564 0.986564 0.986564
0.990817 0.990817 0.990817
0.991196 0.991196 0.991196
0.983895 0.983895 0.983895
0.969448 0.969448 0.969448
0.986958 0.986958 0.986958
0.989823 0.989823 0.989823
0.985967 0.985967 0.985967
0.973752 0.973752 0.973752
0.959385 0.959385 0.959385
0.919114 0.919114 0.919114
0.920087 0.920087 0.920087
0.909659 0.909659 0.909659
0.908747 0.908747 0.908747
0.923495 0.923495 0.923495
0.834790 0.834790 0.834790
0.830903 0.830903 0.830903
0.819922 0.819922 0.819922
0.803966 0.803966 0.803966
0.869650 0.869650 0.869650
0.686210 0.686210 0.686210
0.679414 0.679414 0.679414
0.740527 0.740527 0.740527
0.742213 0.742213 0.742213
0.821051 0.821051 0.821051
0.997139 0.997139 0.997139
0.997143 0.997143 0.997143
0.997160 0.997160 0.997160
0.995994 0.995994 0.995994
0.987963 0.987963 0.987963
0.997139 0.997139 0.997139
0.997144 0.997144 0.997144
0.997019 0.997019 0.997019
0.993798 0.993798 0.993798
0.986175 0.986175 0.986175
0.991957 0.991957 0.991957
0.990829 0.990829 0.990829
0.987699 0.987699 0.987699
0.984030 0.984030 0.984030
0.979134 0.979134 0.979134
0.978593 0.978593 0.978593
0.976594 0.976594 0.976594
0.971241 0.971241 0.971241
0.964856 0.964856 0.964856
0.963034 0.963034 0.963034
0.910250 0.910250 0.910250
0.932742 0.932742 0.932742
0.955849 0.955849 0.955849
0.957735 0.957735 0.957735
0.956150 0.956150 0.956150
