LUTs/trix_modern/TriX_Blue47_Soft.cube
TITLE "Tri-X Blue47 Soft"
# Adobe RGB in/out. REPLACES AgX. Tri-X Blue47 Soft.
LUT_3D_SIZE 5
DOMAIN_MIN 0.0 0.0 0.0
DOMAIN_MAX 1.0 1.0 1.0
0.093873 0.093873 0.093873
0.093935 0.093935 0.093935
0.101324 0.101324 0.101324
0.165560 0.165560 0.165560
0.645276 0.645276 0.645276
0.094034 0.094034 0.094034
0.094075 0.094075 0.094075
0.101889 0.101889 0.101889
0.154877 0.154877 0.154877
0.623630 0.623630 0.623630
0.111261 0.111261 0.111261
0.114633 0.114633 0.114633
0.123510 0.123510 0.123510
0.163391 0.163391 0.163391
0.315803 0.315803 0.315803
0.159739 0.159739 0.159739
0.164650 0.164650 0.164650
0.177485 0.177485 0.177485
0.196619 0.196619 0.196619
0.242875 0.242875 0.242875
0.170547 0.170547 0.170547
0.167323 0.167323 0.167323
0.205703 0.205703 0.205703
0.221959 0.221959 0.221959
0.236959 0.236959 0.236959
0.361142 0.361142 0.361142
0.533338 0.533338 0.533338
0.451606 0.451606 0.451606
0.466900 0.466900 0.466900
0.637173 0.637173 0.637173
0.281412 0.281412 0.281412
0.233250 0.233250 0.233250
0.316536 0.316536 0.316536
0.367955 0.367955 0.367955
0.615661 0.615661 0.615661
0.300901 0.300901 0.300901
0.283741 0.283741 0.283741
0.265879 0.265879 0.265879
0.297711 0.297711 0.297711
0.462070 0.462070 0.462070
0.295577 0.295577 0.295577
0.293089 0.293089 0.293089
0.290286 0.290286 0.290286
0.296124 0.296124 0.296124
0.328690 0.328690 0.328690
0.282484 0.282484 0.282484
0.278437 0.278437 0.278437
0.272852 0.272852 0.272852
0.288917 0.288917 0.288917
0.297424 0.297424 0.297424
0.762573 0.762573 0.762573
0.900857 0.900857 0.900857
0.893799 0.893799 0.893799
0.815330 0.815330 0.815330
0.820778 0.820778 0.820778
0.742397 0.742397 0.742397
0.777140 0.777140 0.777140
0.741967 0.741967 0.741967
0.739382 0.739382 0.739382
0.782895 0.782895 0.782895
0.558166 0.558166 0.558166
0.537517 0.537517 0.537517
0.499564 0.499564 0.499564
0.571400 0.571400 0.571400
0.698405 0.698405 0.698405
0.530652 0.530652 0.530652
0.523202 0.523202 0.523202
0.507979 0.507979 0.507979
0.504645 0.504645 0.504645
0.588211 0.588211 0.588211
0.520175 0.520175 0.520175
0.514223 0.514223 0.514223
0.474995 0.474995 0.474995
0.475196 0.475196 0.475196
0.501535 0.501535 0.501535
0.974745 0.974745 0.974745
0.982601 0.982601 0.982601
0.983018 0.983018 0.983018
0.966603 0.966603 0.966603
0.935921 0.935921 0.935921
0.975951 0.975951 0.975951
0.981509 0.981509 0.981509
0.972920 0.972920 0.972920
0.943722 0.943722 0.943722
0.917805 0.917805 0.917805
0.862290 0.862290 0.862290
0.863518 0.863518 0.863518
0.850376 0.850376 0.850376
0.849230 0.849230 0.849230
0.867825 0.867825 0.867825
0.768217 0.768217 0.768217
0.764072 0.764072 0.764072
0.752379 0.752379 0.752379
0.737280 0.737280 0.737280
0.802139 0.802139 0.802139
0.635306 0.635306 0.635306
0.629957 0.629957 0.629957
0.681367 0.681367 0.681367
0.682855 0.682855 0.682855
0.753580 0.753580 0.753580
0.991879 0.991879 0.991879
0.991888 0.991888 0.991888
0.991925 0.991925 0.991925
0.989369 0.989369 0.989369
0.979032 0.979032 0.979032
0.991879 0.991879 0.991879
0.991889 0.991889 0.991889
0.991615 0.991615 0.991615
0.985878 0.985878 0.985878
0.973555 0.973555 0.973555
0.983855 0.983855 0.983855
0.982615 0.982615 0.982615
0.978222 0.978222 0.978222
0.967012 0.967012 0.967012
0.955022 0.955022 0.955022
0.953883 0.953883 0.953883
0.949679 0.949679 0.949679
0.938474 0.938474 0.938474
0.927713 0.927713 0.927713
0.924407 0.924407 0.924407
0.851120 0.851120 0.851120
0.883243 0.883243 0.883243
0.911997 0.911997 0.911997
0.914827 0.914827 0.914827
0.912373 0.912373 0.912373
