LUTs/trix_modern/TriX_Red25_ExtraSoft.cube
TITLE "Tri-X Red25 ExtraSoft"
# Adobe RGB in/out. REPLACES AgX. Tri-X Red25 ExtraSoft.
LUT_3D_SIZE 5
DOMAIN_MIN 0.0 0.0 0.0
DOMAIN_MAX 1.0 1.0 1.0
0.099726 0.099726 0.099726
0.332611 0.332611 0.332611
0.787767 0.787767 0.787767
0.976166 0.976166 0.976166
0.985376 0.985376 0.985376
0.100448 0.100448 0.100448
0.242602 0.242602 0.242602
0.696278 0.696278 0.696278
0.947262 0.947262 0.947262
0.979952 0.979952 0.979952
0.108531 0.108531 0.108531
0.193524 0.193524 0.193524
0.485697 0.485697 0.485697
0.849411 0.849411 0.849411
0.960114 0.960114 0.960114
0.110746 0.110746 0.110746
0.161049 0.161049 0.161049
0.373016 0.373016 0.373016
0.753107 0.753107 0.753107
0.930020 0.930020 0.930020
0.099726 0.099726 0.099726
0.099726 0.099726 0.099726
0.147975 0.147975 0.147975
0.609783 0.609783 0.609783
0.919478 0.919478 0.919478
0.099726 0.099726 0.099726
0.294117 0.294117 0.294117
0.757820 0.757820 0.757820
0.970656 0.970656 0.970656
0.984614 0.984614 0.984614
0.118235 0.118235 0.118235
0.255950 0.255950 0.255950
0.637125 0.637125 0.637125
0.940958 0.940958 0.940958
0.977003 0.977003 0.977003
0.176051 0.176051 0.176051
0.263430 0.263430 0.263430
0.519392 0.519392 0.519392
0.843774 0.843774 0.843774
0.957362 0.957362 0.957362
0.162736 0.162736 0.162736
0.219414 0.219414 0.219414
0.425062 0.425062 0.425062
0.772403 0.772403 0.772403
0.928616 0.928616 0.928616
0.099726 0.099726 0.099726
0.099726 0.099726 0.099726
0.204319 0.204319 0.204319
0.641281 0.641281 0.641281
0.919731 0.919731 0.919731
0.101262 0.101262 0.101262
0.351441 0.351441 0.351441
0.798855 0.798855 0.798855
0.969938 0.969938 0.969938
0.983565 0.983565 0.983565
0.169391 0.169391 0.169391
0.354113 0.354113 0.354113
0.686192 0.686192 0.686192
0.940394 0.940394 0.940394
0.975202 0.975202 0.975202
0.215041 0.215041 0.215041
0.294673 0.294673 0.294673
0.504596 0.504596 0.504596
0.838476 0.838476 0.838476
0.951594 0.951594 0.951594
0.223965 0.223965 0.223965
0.281800 0.281800 0.281800
0.485042 0.485042 0.485042
0.778457 0.778457 0.778457
0.924655 0.924655 0.924655
0.099726 0.099726 0.099726
0.099726 0.099726 0.099726
0.295763 0.295763 0.295763
0.693188 0.693188 0.693188
0.919311 0.919311 0.919311
0.110045 0.110045 0.110045
0.337813 0.337813 0.337813
0.805944 0.805944 0.805944
0.977404 0.977404 0.977404
0.985156 0.985156 0.985156
0.185717 0.185717 0.185717
0.372883 0.372883 0.372883
0.767108 0.767108 0.767108
0.956246 0.956246 0.956246
0.978352 0.978352 0.978352
0.240274 0.240274 0.240274
0.326972 0.326972 0.326972
0.589772 0.589772 0.589772
0.863546 0.863546 0.863546
0.953602 0.953602 0.953602
0.242310 0.242310 0.242310
0.300613 0.300613 0.300613
0.501080 0.501080 0.501080
0.765056 0.765056 0.765056
0.922150 0.922150 0.922150
0.099726 0.099726 0.099726
0.099726 0.099726 0.099726
0.297761 0.297761 0.297761
0.697629 0.697629 0.697629
0.918131 0.918131 0.918131
0.236936 0.236936 0.236936
0.340900 0.340900 0.340900
0.874933 0.874933 0.874933
0.988851 0.988851 0.988851
0.986329 0.986329 0.986329
0.298199 0.298199 0.298199
0.399776 0.399776 0.399776
0.870853 0.870853 0.870853
0.984320 0.984320 0.984320
0.983168 0.983168 0.983168
0.345688 0.345688 0.345688
0.425522 0.425522 0.425522
0.725403 0.725403 0.725403
0.931731 0.931731 0.931731
0.961347 0.961347 0.961347
0.273529 0.273529 0.273529
0.344315 0.344315 0.344315
0.583309 0.583309 0.583309
0.842820 0.842820 0.842820
0.930735 0.930735 0.930735
0.099726 0.099726 0.099726
0.099726 0.099726 0.099726
0.124275 0.124275 0.124275
0.654884 0.654884 0.654884
0.917860 0.917860 0.917860
