LUTs/trix_modern/TriX_NoFilter_Soft.cube
TITLE "Tri-X NoFilter Soft"
# Adobe RGB in/out. REPLACES AgX. Tri-X NoFilter Soft.
LUT_3D_SIZE 9
DOMAIN_MIN 0.0 0.0 0.0
DOMAIN_MAX 1.0 1.0 1.0
0.093873 0.093873 0.093873
0.093980 0.093980 0.093980
0.119790 0.119790 0.119790
0.228380 0.228380 0.228380
0.340070 0.340070 0.340070
0.442360 0.442360 0.442360
0.524945 0.524945 0.524945
0.740438 0.740438 0.740438
0.803048 0.803048 0.803048
0.094148 0.094148 0.094148
0.094225 0.094225 0.094225
0.138782 0.138782 0.138782
0.242892 0.242892 0.242892
0.338502 0.338502 0.338502
0.435184 0.435184 0.435184
0.518190 0.518190 0.518190
0.732926 0.732926 0.732926
0.797926 0.797926 0.797926
0.178313 0.178313 0.178313
0.167663 0.167663 0.167663
0.171920 0.171920 0.171920
0.256485 0.256485 0.256485
0.344838 0.344838 0.344838
0.425868 0.425868 0.425868
0.504022 0.504022 0.504022
0.712262 0.712262 0.712262
0.781373 0.781373 0.781373
0.300129 0.300129 0.300129
0.290925 0.290925 0.290925
0.282315 0.282315 0.282315
0.296676 0.296676 0.296676
0.355521 0.355521 0.355521
0.428909 0.428909 0.428909
0.496421 0.496421 0.496421
0.563808 0.563808 0.563808
0.709245 0.709245 0.709245
0.391665 0.391665 0.391665
0.385096 0.385096 0.385096
0.376535 0.376535 0.376535
0.378590 0.378590 0.378590
0.399891 0.399891 0.399891
0.445750 0.445750 0.445750
0.505214 0.505214 0.505214
0.563306 0.563306 0.563306
0.652097 0.652097 0.652097
0.465798 0.465798 0.465798
0.461420 0.461420 0.461420
0.456273 0.456273 0.456273
0.454473 0.454473 0.454473
0.464437 0.464437 0.464437
0.488938 0.488938 0.488938
0.527831 0.527831 0.527831
0.576830 0.576830 0.576830
0.628140 0.628140 0.628140
0.527485 0.527485 0.527485
0.524778 0.524778 0.524778
0.521112 0.521112 0.521112
0.519923 0.519923 0.519923
0.526009 0.526009 0.526009
0.542476 0.542476 0.542476
0.570335 0.570335 0.570335
0.603678 0.603678 0.603678
0.644045 0.644045 0.644045
0.586004 0.586004 0.586004
0.583051 0.583051 0.583051
0.577589 0.577589 0.577589
0.576041 0.576041 0.576041
0.580373 0.580373 0.580373
0.592787 0.592787 0.592787
0.615031 0.615031 0.615031
0.646466 0.646466 0.646466
0.671720 0.671720 0.671720
0.572385 0.572385 0.572385
0.570657 0.570657 0.570657
0.606325 0.606325 0.606325
0.603417 0.603417 0.603417
0.625776 0.625776 0.625776
0.636373 0.636373 0.636373
0.654464 0.654464 0.654464
0.684044 0.684044 0.684044
0.709374 0.709374 0.709374
0.100816 0.100816 0.100816
0.310123 0.310123 0.310123
0.196190 0.196190 0.196190
0.251604 0.251604 0.251604
0.346107 0.346107 0.346107
0.444636 0.444636 0.444636
0.527531 0.527531 0.527531
0.736411 0.736411 0.736411
0.800392 0.800392 0.800392
0.100513 0.100513 0.100513
0.099556 0.099556 0.099556
0.155973 0.155973 0.155973
0.247888 0.247888 0.247888
0.340770 0.340770 0.340770
0.436785 0.436785 0.436785
0.519932 0.519932 0.519932
0.728949 0.728949 0.728949
0.795300 0.795300 0.795300
0.204645 0.204645 0.204645
0.183659 0.183659 0.183659
0.177747 0.177747 0.177747
0.258097 0.258097 0.258097
0.340978 0.340978 0.340978
0.425324 0.425324 0.425324
0.504728 0.504728 0.504728
0.709261 0.709261 0.709261
0.778840 0.778840 0.778840
0.311075 0.311075 0.311075
0.300382 0.300382 0.300382
0.287492 0.287492 0.287492
0.298869 0.298869 0.298869
0.355373 0.355373 0.355373
0.426867 0.426867 0.426867
0.496434 0.496434 0.496434
0.564672 0.564672 0.564672
0.751338 0.751338 0.751338
0.396191 0.396191 0.396191
0.389860 0.389860 0.389860
0.380257 0.380257 0.380257
0.380883 0.380883 0.380883
0.401465 0.401465 0.401465
0.445544 0.445544 0.445544
0.504794 0.504794 0.504794
0.563933 0.563933 0.563933
0.661909 0.661909 0.661909
0.467409 0.467409 0.467409
0.463327 0.463327 0.463327
0.458110 0.458110 0.458110
0.456041 0.456041 0.456041
0.465746 0.465746 0.465746
0.490117 0.490117 0.490117
0.528301 0.528301 0.528301
0.577615 0.577615 0.577615
0.630170 0.630170 0.630170
0.528827 0.528827 0.528827
0.526247 0.526247 0.526247
0.522727 0.522727 0.522727
0.521520 0.521520 0.521520
0.527522 0.527522 0.527522
0.543988 0.543988 0.543988
0.571714 0.571714 0.571714
0.604713 0.604713 0.604713
0.645501 0.645501 0.645501
0.585825 0.585825 0.585825
0.583215 0.583215 0.583215
0.578833 0.578833 0.578833
0.577603 0.577603 0.577603
0.582030 0.582030 0.582030
0.594492 0.594492 0.594492
0.616832 0.616832 0.616832
0.647927 0.647927 0.647927
0.673145 0.673145 0.673145
0.604581 0.604581 0.604581
0.602769 0.602769 0.602769
0.635440 0.635440 0.635440
0.625333 0.625333 0.625333
0.627215 0.627215 0.627215
0.637978 0.637978 0.637978
0.656182 0.656182 0.656182
0.685743 0.685743 0.685743
0.710649 0.710649 0.710649
0.249027 0.249027 0.249027
0.566294 0.566294 0.566294
0.543971 0.543971 0.543971
0.508769 0.508769 0.508769
0.505596 0.505596 0.505596
0.562412 0.562412 0.562412
0.638830 0.638830 0.638830
0.736390 0.736390 0.736390
0.794915 0.794915 0.794915
0.275249 0.275249 0.275249
0.375073 0.375073 0.375073
0.403372 0.403372 0.403372
0.413997 0.413997 0.413997
0.455162 0.455162 0.455162
0.528936 0.528936 0.528936
0.612006 0.612006 0.612006
0.729991 0.729991 0.729991
0.789803 0.789803 0.789803
0.260194 0.260194 0.260194
0.241978 0.241978 0.241978
0.233250 0.233250 0.233250
0.307678 0.307678 0.307678
0.388605 0.388605 0.388605
0.471179 0.471179 0.471179
0.550503 0.550503 0.550503
0.709607 0.709607 0.709607
0.772542 0.772542 0.772542
0.347648 0.347648 0.347648
0.336264 0.336264 0.336264
0.315329 0.315329 0.315329
0.317376 0.317376 0.317376
0.376247 0.376247 0.376247
0.448690 0.448690 0.448690
0.520060 0.520060 0.520060
0.600201 0.600201 0.600201
0.745205 0.745205 0.745205
0.426870 0.426870 0.426870
0.420154 0.420154 0.420154
0.406441 0.406441 0.406441
0.400924 0.400924 0.400924
0.415782 0.415782 0.415782
0.459983 0.459983 0.459983
0.518297 0.518297 0.518297
0.582231 0.582231 0.582231
0.702352 0.702352 0.702352
0.493753 0.493753 0.493753
0.489288 0.489288 0.489288
0.480832 0.480832 0.480832
0.475302 0.475302 0.475302
0.481647 0.481647 0.481647
0.502993 0.502993 0.502993
0.539103 0.539103 0.539103
0.590275 0.590275 0.590275
0.650691 0.650691 0.650691
0.548674 0.548674 0.548674
0.546001 0.546001 0.546001
0.541013 0.541013 0.541013
0.537786 0.537786 0.537786
0.541802 0.541802 0.541802
0.556651 0.556651 0.556651
0.582348 0.582348 0.582348
0.614847 0.614847 0.614847
0.656376 0.656376 0.656376
0.598864 0.598864 0.598864
0.597074 0.597074 0.597074
0.594405 0.594405 0.594405
0.592581 0.592581 0.592581
0.595949 0.595949 0.595949
0.607364 0.607364 0.607364
0.628872 0.628872 0.628872
0.657331 0.657331 0.657331
0.681625 0.681625 0.681625
0.601552 0.601552 0.601552
0.638703 0.638703 0.638703
0.632436 0.632436 0.632436
0.622608 0.622608 0.622608
0.636583 0.636583 0.636583
0.647583 0.647583 0.647583
0.665591 0.665591 0.665591
0.694463 0.694463 0.694463
0.717639 0.717639 0.717639
0.411660 0.411660 0.411660
0.652083 0.652083 0.652083
0.704401 0.704401 0.704401
0.709850 0.709850 0.709850
0.693509 0.693509 0.693509
0.703414 0.703414 0.703414
0.739413 0.739413 0.739413
0.793617 0.793617 0.793617
0.805952 0.805952 0.805952
0.437072 0.437072 0.437072
0.569583 0.569583 0.569583
0.670088 0.670088 0.670088
0.655338 0.655338 0.655338
0.646074 0.646074 0.646074
0.673414 0.673414 0.673414
0.721223 0.721223 0.721223
0.783997 0.783997 0.783997
0.800794 0.800794 0.800794
0.389262 0.389262 0.389262
0.395628 0.395628 0.395628
0.431859 0.431859 0.431859
0.470279 0.470279 0.470279
0.522462 0.522462 0.522462
0.584695 0.584695 0.584695
0.658160 0.658160 0.658160
0.739775 0.739775 0.739775
0.784217 0.784217 0.784217
0.402515 0.402515 0.402515
0.393530 0.393530 0.393530
0.374613 0.374613 0.374613
0.372918 0.372918 0.372918
0.438075 0.438075 0.438075
0.510155 0.510155 0.510155
0.586354 0.586354 0.586354
0.677983 0.677983 0.677983
0.756604 0.756604 0.756604
0.466548 0.466548 0.466548
0.459981 0.459981 0.459981
0.445566 0.445566 0.445566
0.435592 0.435592 0.435592
0.444092 0.444092 0.444092
0.492282 0.492282 0.492282
0.555291 0.555291 0.555291
0.627502 0.627502 0.627502
0.745037 0.745037 0.745037
0.525835 0.525835 0.525835
0.521522 0.521522 0.521522
0.512288 0.512288 0.512288
0.504439 0.504439 0.504439
0.507295 0.507295 0.507295
0.525199 0.525199 0.525199
0.563398 0.563398 0.563398
0.617291 0.617291 0.617291
0.709491 0.709491 0.709491
0.577259 0.577259 0.577259
0.574550 0.574550 0.574550
0.568777 0.568777 0.568777
0.564102 0.564102 0.564102
0.566104 0.566104 0.566104
0.578719 0.578719 0.578719
0.602009 0.602009 0.602009
0.634815 0.634815 0.634815
0.689961 0.689961 0.689961
0.622132 0.622132 0.622132
0.620425 0.620425 0.620425
0.617383 0.617383 0.617383
0.614703 0.614703 0.614703
0.617117 0.617117 0.617117
0.627514 0.627514 0.627514
0.647468 0.647468 0.647468
0.673323 0.673323 0.673323
0.702785 0.702785 0.702785
0.649940 0.649940 0.649940
0.668414 0.668414 0.668414
0.662308 0.662308 0.662308
0.656090 0.656090 0.656090
0.658776 0.658776 0.658776
0.667424 0.667424 0.667424
0.684690 0.684690 0.684690
0.711608 0.711608 0.711608
0.733304 0.733304 0.733304
0.564334 0.564334 0.564334
0.699904 0.699904 0.699904
0.803365 0.803365 0.803365
0.815173 0.815173 0.815173
0.826247 0.826247 0.826247
0.806493 0.806493 0.806493
0.811398 0.811398 0.811398
0.829890 0.829890 0.829890
0.845617 0.845617 0.845617
0.584605 0.584605 0.584605
0.685753 0.685753 0.685753
0.792946 0.792946 0.792946
0.809155 0.809155 0.809155
0.792559 0.792559 0.792559
0.785223 0.785223 0.785223
0.797803 0.797803 0.797803
0.821183 0.821183 0.821183
0.838620 0.838620 0.838620
0.590688 0.590688 0.590688
0.613915 0.613915 0.613915
0.674222 0.674222 0.674222
0.680771 0.680771 0.680771
0.686222 0.686222 0.686222
0.713078 0.713078 0.713078
0.751084 0.751084 0.751084
0.792224 0.792224 0.792224
0.816194 0.816194 0.816194
0.500415 0.500415 0.500415
0.499230 0.499230 0.499230
0.506256 0.506256 0.506256
0.526381 0.526381 0.526381
0.564554 0.564554 0.564554
0.620493 0.620493 0.620493
0.683224 0.683224 0.683224
0.747733 0.747733 0.747733
0.800773 0.800773 0.800773
0.521071 0.521071 0.521071
0.516416 0.516416 0.516416
0.505875 0.505875 0.505875
0.496198 0.496198 0.496198
0.499564 0.499564 0.499564
0.557579 0.557579 0.557579
0.625139 0.625139 0.625139
0.699523 0.699523 0.699523
0.779600 0.779600 0.779600
0.568401 0.568401 0.568401
0.564612 0.564612 0.564612
0.556179 0.556179 0.556179
0.548012 0.548012 0.548012
0.547892 0.547892 0.547892
0.562522 0.562522 0.562522
0.607042 0.607042 0.607042
0.668045 0.668045 0.668045
0.757246 0.757246 0.757246
0.613104 0.613104 0.613104
0.610634 0.610634 0.610634
0.605060 0.605060 0.605060
0.600106 0.600106 0.600106
0.600948 0.600948 0.600948
0.611463 0.611463 0.611463
0.633132 0.633132 0.633132
0.669147 0.669147 0.669147
0.741736 0.741736 0.741736
0.652076 0.652076 0.652076
0.650520 0.650520 0.650520
0.647566 0.647566 0.647566
0.644927 0.644927 0.644927
0.646783 0.646783 0.646783
0.656043 0.656043 0.656043
0.674095 0.674095 0.674095
0.698759 0.698759 0.698759
0.738728 0.738728 0.738728
0.687846 0.687846 0.687846
0.688808 0.688808 0.688808
0.689274 0.689274 0.689274
0.680122 0.680122 0.680122
0.683403 0.683403 0.683403
0.691897 0.691897 0.691897
0.708472 0.708472 0.708472
0.732771 0.732771 0.732771
0.759500 0.759500 0.759500
0.722292 0.722292 0.722292
0.799469 0.799469 0.799469
0.880722 0.880722 0.880722
0.889846 0.889846 0.889846
0.902603 0.902603 0.902603
0.890505 0.890505 0.890505
0.878348 0.878348 0.878348
0.876413 0.876413 0.876413
0.872660 0.872660 0.872660
0.735702 0.735702 0.735702
0.799823 0.799823 0.799823
0.877772 0.877772 0.877772
0.889316 0.889316 0.889316
0.898833 0.898833 0.898833
0.875318 0.875318 0.875318
0.865741 0.865741 0.865741
0.868096 0.868096 0.868096
0.866619 0.866619 0.866619
0.764479 0.764479 0.764479
0.795148 0.795148 0.795148
0.862362 0.862362 0.862362
0.844383 0.844383 0.844383
0.823170 0.823170 0.823170
0.817677 0.817677 0.817677
0.826689 0.826689 0.826689
0.842114 0.842114 0.842114
0.846971 0.846971 0.846971
0.653835 0.653835 0.653835
0.660025 0.660025 0.660025
0.689036 0.689036 0.689036
0.706113 0.706113 0.706113
0.718347 0.718347 0.718347
0.739870 0.739870 0.739870
0.772830 0.772830 0.772830
0.805670 0.805670 0.805670
0.830748 0.830748 0.830748
0.607489 0.607489 0.607489
0.606037 0.606037 0.606037
0.608442 0.608442 0.608442
0.613817 0.613817 0.613817
0.629338 0.629338 0.629338
0.664946 0.664946 0.664946
0.715331 0.715331 0.715331
0.767665 0.767665 0.767665
0.812067 0.812067 0.812067
0.625133 0.625133 0.625133
0.622645 0.622645 0.622645
0.617829 0.617829 0.617829
0.613391 0.613391 0.613391
0.613095 0.613095 0.613095
0.620952 0.620952 0.620952
0.674898 0.674898 0.674898
0.735092 0.735092 0.735092
0.796135 0.796135 0.796135
0.657388 0.657388 0.657388
0.655445 0.655445 0.655445
0.651432 0.651432 0.651432
0.648111 0.648111 0.648111
0.649445 0.649445 0.649445
0.658260 0.658260 0.658260
0.678309 0.678309 0.678309
0.720986 0.720986 0.720986
0.789249 0.789249 0.789249
0.687545 0.687545 0.687545
0.686242 0.686242 0.686242
0.684004 0.684004 0.684004
0.682122 0.682122 0.682122
0.684413 0.684413 0.684413
0.693505 0.693505 0.693505
0.710734 0.710734 0.710734
0.734469 0.734469 0.734469
0.787992 0.787992 0.787992
0.697850 0.697850 0.697850
0.699361 0.699361 0.699361
0.702224 0.702224 0.702224
0.709043 0.709043 0.709043
0.712853 0.712853 0.712853
0.721179 0.721179 0.721179
0.736613 0.736613 0.736613
0.759356 0.759356 0.759356
0.800091 0.800091 0.800091
0.871845 0.871845 0.871845
0.902432 0.902432 0.902432
0.926334 0.926334 0.926334
0.933362 0.933362 0.933362
0.941317 0.941317 0.941317
0.940394 0.940394 0.940394
0.923575 0.923575 0.923575
0.912753 0.912753 0.912753
0.901655 0.901655 0.901655
0.879163 0.879163 0.879163
0.903041 0.903041 0.903041
0.926492 0.926492 0.926492
0.934008 0.934008 0.934008
0.941848 0.941848 0.941848
0.931861 0.931861 0.931861
0.916710 0.916710 0.916710
0.907629 0.907629 0.907629
0.897460 0.897460 0.897460
0.894212 0.894212 0.894212
0.906202 0.906202 0.906202
0.926660 0.926660 0.926660
0.935947 0.935947 0.935947
0.914798 0.914798 0.914798
0.899484 0.899484 0.899484
0.893081 0.893081 0.893081
0.891737 0.891737 0.891737
0.883416 0.883416 0.883416
0.831717 0.831717 0.831717
0.837671 0.837671 0.837671
0.851009 0.851009 0.851009
0.847945 0.847945 0.847945
0.840380 0.840380 0.840380
0.839579 0.839579 0.839579
0.847904 0.847904 0.847904
0.861094 0.861094 0.861094
0.871798 0.871798 0.871798
0.734544 0.734544 0.734544
0.737091 0.737091 0.737091
0.748887 0.748887 0.748887
0.757202 0.757202 0.757202
0.764047 0.764047 0.764047
0.778012 0.778012 0.778012
0.799437 0.799437 0.799437
0.825922 0.825922 0.825922
0.849511 0.849511 0.849511
0.706464 0.706464 0.706464
0.706159 0.706159 0.706159
0.708972 0.708972 0.708972
0.713569 0.713569 0.713569
0.718624 0.718624 0.718624
0.731413 0.731413 0.731413
0.761396 0.761396 0.761396
0.799004 0.799004 0.799004
0.833174 0.833174 0.833174
0.714124 0.714124 0.714124
0.713196 0.713196 0.713196
0.712534 0.712534 0.712534
0.713896 0.713896 0.713896
0.718576 0.718576 0.718576
0.726148 0.726148 0.726148
0.737280 0.737280 0.737280
0.783702 0.783702 0.783702
0.827842 0.827842 0.827842
0.730138 0.730138 0.730138
0.729282 0.729282 0.729282
0.728540 0.728540 0.728540
0.728846 0.728846 0.728846
0.733171 0.733171 0.733171
0.743023 0.743023 0.743023
0.759339 0.759339 0.759339
0.783234 0.783234 0.783234
0.833039 0.833039 0.833039
0.717486 0.717486 0.717486
0.720036 0.720036 0.720036
0.720528 0.720528 0.720528
0.742420 0.742420 0.742420
0.746621 0.746621 0.746621
0.755467 0.755467 0.755467
0.770905 0.770905 0.770905
0.791205 0.791205 0.791205
0.849044 0.849044 0.849044
0.952280 0.952280 0.952280
0.954546 0.954546 0.954546
0.958843 0.958843 0.958843
0.962080 0.962080 0.962080
0.965809 0.965809 0.965809
0.969016 0.969016 0.969016
0.956165 0.956165 0.956165
0.943677 0.943677 0.943677
0.927798 0.927798 0.927798
0.952918 0.952918 0.952918
0.955051 0.955051 0.955051
0.959531 0.959531 0.959531
0.962529 0.962529 0.962529
0.966233 0.966233 0.966233
0.964919 0.964919 0.964919
0.951315 0.951315 0.951315
0.940294 0.940294 0.940294
0.924340 0.924340 0.924340
0.956602 0.956602 0.956602
0.958125 0.958125 0.958125
0.962013 0.962013 0.962013
0.964515 0.964515 0.964515
0.961078 0.961078 0.961078
0.946280 0.946280 0.946280
0.936245 0.936245 0.936245
0.927873 0.927873 0.927873
0.914115 0.914115 0.914115
0.943881 0.943881 0.943881
0.942946 0.942946 0.942946
0.939600 0.939600 0.939600
0.930689 0.930689 0.930689
0.919466 0.919466 0.919466
0.911026 0.911026 0.911026
0.907239 0.907239 0.907239
0.906613 0.906613 0.906613
0.903959 0.903959 0.903959
0.875702 0.875702 0.875702
0.875967 0.875967 0.875967
0.876359 0.876359 0.876359
0.871077 0.871077 0.871077
0.866023 0.866023 0.866023
0.865811 0.865811 0.865811
0.872792 0.872792 0.872792
0.883854 0.883854 0.883854
0.888956 0.888956 0.888956
0.817171 0.817171 0.817171
0.818288 0.818288 0.818288
0.822350 0.822350 0.822350
0.821706 0.821706 0.821706
0.820739 0.820739 0.820739
0.824960 0.824960 0.824960
0.837600 0.837600 0.837600
0.857116 0.857116 0.857116
0.874204 0.874204 0.874204
0.792154 0.792154 0.792154
0.793037 0.793037 0.793037
0.798533 0.798533 0.798533
0.803864 0.803864 0.803864
0.806880 0.806880 0.806880
0.810281 0.810281 0.810281
0.820545 0.820545 0.820545
0.843352 0.843352 0.843352
0.867162 0.867162 0.867162
0.784361 0.784361 0.784361
0.784294 0.784294 0.784294
0.786699 0.786699 0.786699
0.791931 0.791931 0.791931
0.801173 0.801173 0.801173
0.812456 0.812456 0.812456
0.824906 0.824906 0.824906
0.837347 0.837347 0.837347
0.873368 0.873368 0.873368
0.754146 0.754146 0.754146
0.763681 0.763681 0.763681
0.766588 0.766588 0.766588
0.780810 0.780810 0.780810
0.787181 0.787181 0.787181
0.796793 0.796793 0.796793
0.811291 0.811291 0.811291
0.830150 0.830150 0.830150
0.888599 0.888599 0.888599
0.975455 0.975455 0.975455
0.975572 0.975572 0.975572
0.976174 0.976174 0.976174
0.978081 0.978081 0.978081
0.980555 0.980555 0.980555
0.982377 0.982377 0.982377
0.975828 0.975828 0.975828
0.965943 0.965943 0.965943
0.947836 0.947836 0.947836
0.975797 0.975797 0.975797
0.975919 0.975919 0.975919
0.976544 0.976544 0.976544
0.978465 0.978465 0.978465
0.980664 0.980664 0.980664
0.981255 0.981255 0.981255
0.973094 0.973094 0.973094
0.963912 0.963912 0.963912
0.947811 0.947811 0.947811
0.977497 0.977497 0.977497
0.977638 0.977638 0.977638
0.978342 0.978342 0.978342
0.979950 0.979950 0.979950
0.980483 0.980483 0.980483
0.972567 0.972567 0.972567
0.964528 0.964528 0.964528
0.955184 0.955184 0.955184
0.938703 0.938703 0.938703
0.978014 0.978014 0.978014
0.976762 0.976762 0.976762
0.972803 0.972803 0.972803
0.967096 0.967096 0.967096
0.961127 0.961127 0.961127
0.952818 0.952818 0.952818
0.946088 0.946088 0.946088
0.940362 0.940362 0.940362
0.934475 0.934475 0.934475
0.942260 0.942260 0.942260
0.941084 0.941084 0.941084
0.937586 0.937586 0.937586
0.931888 0.931888 0.931888
0.925851 0.925851 0.925851
0.922393 0.922393 0.922393
0.921181 0.921181 0.921181
0.920985 0.920985 0.920985
0.920636 0.920636 0.920636
0.905991 0.905991 0.905991
0.904777 0.904777 0.904777
0.901419 0.901419 0.901419
0.897174 0.897174 0.897174
0.893636 0.893636 0.893636
0.893499 0.893499 0.893499
0.897088 0.897088 0.897088
0.902561 0.902561 0.902561
0.907800 0.907800 0.907800
0.890037 0.890037 0.890037
0.889067 0.889067 0.889067
0.886368 0.886368 0.886368
0.882878 0.882878 0.882878
0.878116 0.878116 0.878116
0.877361 0.877361 0.877361
0.883937 0.883937 0.883937
0.892241 0.892241 0.892241
0.900989 0.900989 0.900989
0.885267 0.885267 0.885267
0.885517 0.885517 0.885517
0.885202 0.885202 0.885202
0.883542 0.883542 0.883542
0.881416 0.881416 0.881416
0.881022 0.881022 0.881022
0.884298 0.884298 0.884298
0.892087 0.892087 0.892087
0.902365 0.902365 0.902365
0.788969 0.788969 0.788969
0.816700 0.816700 0.816700
0.813060 0.813060 0.813060
0.809409 0.809409 0.809409
0.859587 0.859587 0.859587
0.889231 0.889231 0.889231
0.894911 0.894911 0.894911
0.903315 0.903315 0.903315
0.912373 0.912373 0.912373
