LUTs/trix_modern/TriX_Red25_Punchy.cube
TITLE "Tri-X Red25 Punchy"
# Adobe RGB in/out. REPLACES AgX. Tri-X Red25 Punchy.
LUT_3D_SIZE 9
DOMAIN_MIN 0.0 0.0 0.0
DOMAIN_MAX 1.0 1.0 1.0
0.091936 0.091936 0.091936
0.094973 0.094973 0.094973
0.262916 0.262916 0.262916
0.560628 0.560628 0.560628
0.827269 0.827269 0.827269
0.960842 0.960842 0.960842
0.985699 0.985699 0.985699
0.991375 0.991375 0.991375
0.988986 0.988986 0.988986
0.091936 0.091936 0.091936
0.092056 0.092056 0.092056
0.279390 0.279390 0.279390
0.563482 0.563482 0.563482
0.800652 0.800652 0.800652
0.949194 0.949194 0.949194
0.984159 0.984159 0.984159
0.990709 0.990709 0.990709
0.988486 0.988486 0.988486
0.091948 0.091948 0.091948
0.092028 0.092028 0.092028
0.138027 0.138027 0.138027
0.459152 0.459152 0.459152
0.728005 0.728005 0.728005
0.899644 0.899644 0.899644
0.973392 0.973392 0.973392
0.988568 0.988568 0.988568
0.986778 0.986778 0.986778
0.091983 0.091983 0.091983
0.092051 0.092051 0.092051
0.113012 0.113012 0.113012
0.317450 0.317450 0.317450
0.597081 0.597081 0.597081
0.825451 0.825451 0.825451
0.941834 0.941834 0.941834
0.980160 0.980160 0.980160
0.984206 0.984206 0.984206
0.092025 0.092025 0.092025
0.092165 0.092165 0.092165
0.105046 0.105046 0.105046
0.240700 0.240700 0.240700
0.490112 0.490112 0.490112
0.727441 0.727441 0.727441
0.893177 0.893177 0.893177
0.963791 0.963791 0.963791
0.979579 0.979579 0.979579
0.092052 0.092052 0.092052
0.092438 0.092438 0.092438
0.101571 0.101571 0.101571
0.185218 0.185218 0.185218
0.416802 0.416802 0.416802
0.644894 0.644894 0.644894
0.838150 0.838150 0.838150
0.939193 0.939193 0.939193
0.972159 0.972159 0.972159
0.092038 0.092038 0.092038
0.092064 0.092064 0.092064
0.096816 0.096816 0.096816
0.141556 0.141556 0.141556
0.334620 0.334620 0.334620
0.572116 0.572116 0.572116
0.790743 0.790743 0.790743
0.916390 0.916390 0.916390
0.963435 0.963435 0.963435
0.091953 0.091953 0.091953
0.091960 0.091960 0.091960
0.092061 0.092061 0.092061
0.103968 0.103968 0.103968
0.227506 0.227506 0.227506
0.483255 0.483255 0.483255
0.730628 0.730628 0.730628
0.902620 0.902620 0.902620
0.957697 0.957697 0.957697
0.091936 0.091936 0.091936
0.091936 0.091936 0.091936
0.091936 0.091936 0.091936
0.091936 0.091936 0.091936
0.094432 0.094432 0.094432
0.313445 0.313445 0.313445
0.634947 0.634947 0.634947
0.883096 0.883096 0.883096
0.957230 0.957230 0.957230
0.091936 0.091936 0.091936
0.092542 0.092542 0.092542
0.168902 0.168902 0.168902
0.493620 0.493620 0.493620
0.808236 0.808236 0.808236
0.957918 0.957918 0.957918
0.985094 0.985094 0.985094
0.991018 0.991018 0.991018
0.988738 0.988738 0.988738
0.091946 0.091946 0.091946
0.092784 0.092784 0.092784
0.193408 0.193408 0.193408
0.485605 0.485605 0.485605
0.775248 0.775248 0.775248
0.944799 0.944799 0.944799
0.983574 0.983574 0.983574
0.990353 0.990353 0.990353
0.988218 0.988218 0.988218
0.092016 0.092016 0.092016
0.093646 0.093646 0.093646
0.156505 0.156505 0.156505
0.442481 0.442481 0.442481
0.698055 0.698055 0.698055
0.893215 0.893215 0.893215
0.972357 0.972357 0.972357
0.988180 0.988180 0.988180
0.986516 0.986516 0.986516
0.092071 0.092071 0.092071
0.094220 0.094220 0.094220
0.136376 0.136376 0.136376
0.344284 0.344284 0.344284
0.596935 0.596935 0.596935
0.817672 0.817672 0.817672
0.940261 0.940261 0.940261
0.979390 0.979390 0.979390
0.983960 0.983960 0.983960
0.092587 0.092587 0.092587
0.093964 0.093964 0.093964
0.117129 0.117129 0.117129
0.274609 0.274609 0.274609
0.508226 0.508226 0.508226
0.728906 0.728906 0.728906
0.891473 0.891473 0.891473
0.963244 0.963244 0.963244
0.979044 0.979044 0.979044
0.092635 0.092635 0.092635
0.093554 0.093554 0.093554
0.106982 0.106982 0.106982
0.209199 0.209199 0.209199
0.434978 0.434978 0.434978
0.655403 0.655403 0.655403
0.839077 0.839077 0.839077
0.939059 0.939059 0.939059
0.971781 0.971781 0.971781
0.092067 0.092067 0.092067
0.092634 0.092634 0.092634
0.099023 0.099023 0.099023
0.155647 0.155647 0.155647
0.353076 0.353076 0.353076
0.583665 0.583665 0.583665
0.795735 0.795735 0.795735
0.916631 0.916631 0.916631
0.963194 0.963194 0.963194
0.091960 0.091960 0.091960
0.091969 0.091969 0.091969
0.092385 0.092385 0.092385
0.107636 0.107636 0.107636
0.243322 0.243322 0.243322
0.494892 0.494892 0.494892
0.737107 0.737107 0.737107
0.903639 0.903639 0.903639
0.957693 0.957693 0.957693
0.091936 0.091936 0.091936
0.091936 0.091936 0.091936
0.091936 0.091936 0.091936
0.091936 0.091936 0.091936
0.096144 0.096144 0.096144
0.325598 0.325598 0.325598
0.641230 0.641230 0.641230
0.884708 0.884708 0.884708
0.957288 0.957288 0.957288
0.091936 0.091936 0.091936
0.098222 0.098222 0.098222
0.202669 0.202669 0.202669
0.504221 0.504221 0.504221
0.795958 0.795958 0.795958
0.953062 0.953062 0.953062
0.984125 0.984125 0.984125
0.990387 0.990387 0.990387
0.988177 0.988177 0.988177
0.091982 0.091982 0.091982
0.102681 0.102681 0.102681
0.230604 0.230604 0.230604
0.476516 0.476516 0.476516
0.758695 0.758695 0.758695
0.939503 0.939503 0.939503
0.982622 0.982622 0.982622
0.989705 0.989705 0.989705
0.987652 0.987652 0.987652
0.092072 0.092072 0.092072
0.095935 0.095935 0.095935
0.152941 0.152941 0.152941
0.406864 0.406864 0.406864
0.664422 0.664422 0.664422
0.884944 0.884944 0.884944
0.970515 0.970515 0.970515
0.987114 0.987114 0.987114
0.985938 0.985938 0.985938
0.096237 0.096237 0.096237
0.102167 0.102167 0.102167
0.166230 0.166230 0.166230
0.349241 0.349241 0.349241
0.582737 0.582737 0.582737
0.802406 0.802406 0.802406
0.937636 0.937636 0.937636
0.977821 0.977821 0.977821
0.983379 0.983379 0.983379
0.099916 0.099916 0.099916
0.105566 0.105566 0.105566
0.161617 0.161617 0.161617
0.334273 0.334273 0.334273
0.532156 0.532156 0.532156
0.731188 0.731188 0.731188
0.888238 0.888238 0.888238
0.962263 0.962263 0.962263
0.977653 0.977653 0.977653
0.100711 0.100711 0.100711
0.104661 0.104661 0.104661
0.145765 0.145765 0.145765
0.286490 0.286490 0.286490
0.486900 0.486900 0.486900
0.682482 0.682482 0.682482
0.842664 0.842664 0.842664
0.939143 0.939143 0.939143
0.970563 0.970563 0.970563
0.097122 0.097122 0.097122
0.099135 0.099135 0.099135
0.118269 0.118269 0.118269
0.218830 0.218830 0.218830
0.420028 0.420028 0.420028
0.624015 0.624015 0.624015
0.812104 0.812104 0.812104
0.917836 0.917836 0.917836
0.962524 0.962524 0.962524
0.092064 0.092064 0.092064
0.092468 0.092468 0.092468
0.098359 0.098359 0.098359
0.141242 0.141242 0.141242
0.316784 0.316784 0.316784
0.545574 0.545574 0.545574
0.764205 0.764205 0.764205
0.907485 0.907485 0.907485
0.957657 0.957657 0.957657
0.091936 0.091936 0.091936
0.091936 0.091936 0.091936
0.091936 0.091936 0.091936
0.091936 0.091936 0.091936
0.109543 0.109543 0.109543
0.376544 0.376544 0.376544
0.668906 0.668906 0.668906
0.891328 0.891328 0.891328
0.957364 0.957364 0.957364
0.091943 0.091943 0.091943
0.094751 0.094751 0.094751
0.262616 0.262616 0.262616
0.540425 0.540425 0.540425
0.814132 0.814132 0.814132
0.953109 0.953109 0.953109
0.983643 0.983643 0.983643
0.989294 0.989294 0.989294
0.987803 0.987803 0.987803
0.091997 0.091997 0.091997
0.099565 0.099565 0.099565
0.314875 0.314875 0.314875
0.534930 0.534930 0.534930
0.777505 0.777505 0.777505
0.939651 0.939651 0.939651
0.982070 0.982070 0.982070
0.988417 0.988417 0.988417
0.987263 0.987263 0.987263
0.093577 0.093577 0.093577
0.101592 0.101592 0.101592
0.222668 0.222668 0.222668
0.443178 0.443178 0.443178
0.676017 0.676017 0.676017
0.884987 0.884987 0.884987
0.968827 0.968827 0.968827
0.984655 0.984655 0.984655
0.985501 0.985501 0.985501
0.099142 0.099142 0.099142
0.106630 0.106630 0.106630
0.173539 0.173539 0.173539
0.338495 0.338495 0.338495
0.570128 0.570128 0.570128
0.795165 0.795165 0.795165
0.935315 0.935315 0.935315
0.976213 0.976213 0.976213
0.982870 0.982870 0.982870
0.108607 0.108607 0.108607
0.119008 0.119008 0.119008
0.189623 0.189623 0.189623
0.351573 0.351573 0.351573
0.525002 0.525002 0.525002
0.720532 0.720532 0.720532
0.884437 0.884437 0.884437
0.960360 0.960360 0.960360
0.976179 0.976179 0.976179
0.113354 0.113354 0.113354
0.122574 0.122574 0.122574
0.184042 0.184042 0.184042
0.333078 0.333078 0.333078
0.511703 0.511703 0.511703
0.687621 0.687621 0.687621
0.840283 0.840283 0.840283
0.937754 0.937754 0.937754
0.968600 0.968600 0.968600
0.107531 0.107531 0.107531
0.112939 0.112939 0.112939
0.154642 0.154642 0.154642
0.278973 0.278973 0.278973
0.463908 0.463908 0.463908
0.652469 0.652469 0.652469
0.818831 0.818831 0.818831
0.918000 0.918000 0.918000
0.961361 0.961361 0.961361
0.095511 0.095511 0.095511
0.097148 0.097148 0.097148
0.111123 0.111123 0.111123
0.187500 0.187500 0.187500
0.374432 0.374432 0.374432
0.583840 0.583840 0.583840
0.784584 0.784584 0.784584
0.909170 0.909170 0.909170
0.957234 0.957234 0.957234
0.091936 0.091936 0.091936
0.091936 0.091936 0.091936
0.091936 0.091936 0.091936
0.091936 0.091936 0.091936
0.164643 0.164643 0.164643
0.438409 0.438409 0.438409
0.704989 0.704989 0.704989
0.898688 0.898688 0.898688
0.957325 0.957325 0.957325
0.091962 0.091962 0.091962
0.092449 0.092449 0.092449
0.296237 0.296237 0.296237
0.561803 0.561803 0.561803
0.840155 0.840155 0.840155
0.958363 0.958363 0.958363
0.983919 0.983919 0.983919
0.988947 0.988947 0.988947
0.987804 0.987804 0.987804
0.092011 0.092011 0.092011
0.095348 0.095348 0.095348
0.322804 0.322804 0.322804
0.580395 0.580395 0.580395
0.811420 0.811420 0.811420
0.946071 0.946071 0.946071
0.982404 0.982404 0.982404
0.988005 0.988005 0.988005
0.987248 0.987248 0.987248
0.098310 0.098310 0.098310
0.112752 0.112752 0.112752
0.301138 0.301138 0.301138
0.519049 0.519049 0.519049
0.716898 0.716898 0.716898
0.896432 0.896432 0.896432
0.970151 0.970151 0.970151
0.984467 0.984467 0.984467
0.985424 0.985424 0.985424
0.103433 0.103433 0.103433
0.113812 0.113812 0.113812
0.208274 0.208274 0.208274
0.409721 0.409721 0.409721
0.600818 0.600818 0.600818
0.808287 0.808287 0.808287
0.936822 0.936822 0.936822
0.975760 0.975760 0.975760
0.982680 0.982680 0.982680
0.115185 0.115185 0.115185
0.128262 0.128262 0.128262
0.203502 0.203502 0.203502
0.356846 0.356846 0.356846
0.513339 0.513339 0.513339
0.716674 0.716674 0.716674
0.883591 0.883591 0.883591
0.959217 0.959217 0.959217
0.975223 0.975223 0.975223
0.126987 0.126987 0.126987
0.140170 0.140170 0.140170
0.209996 0.209996 0.209996
0.354196 0.354196 0.354196
0.518468 0.518468 0.518468
0.678929 0.678929 0.678929
0.835920 0.835920 0.835920
0.935978 0.935978 0.935978
0.966890 0.966890 0.966890
0.121653 0.121653 0.121653
0.130361 0.130361 0.130361
0.184755 0.184755 0.184755
0.319190 0.319190 0.319190
0.489347 0.489347 0.489347
0.664842 0.664842 0.664842
0.818003 0.818003 0.818003
0.917024 0.917024 0.917024
0.959965 0.959965 0.959965
0.100878 0.100878 0.100878
0.103506 0.103506 0.103506
0.129275 0.129275 0.129275
0.228299 0.228299 0.228299
0.415713 0.415713 0.415713
0.609508 0.609508 0.609508
0.795812 0.795812 0.795812
0.908993 0.908993 0.908993
0.956439 0.956439 0.956439
0.091936 0.091936 0.091936
0.091936 0.091936 0.091936
0.091936 0.091936 0.091936
0.094224 0.094224 0.094224
0.205142 0.205142 0.205142
0.471784 0.471784 0.471784
0.724601 0.724601 0.724601
0.902504 0.902504 0.902504
0.957141 0.957141 0.957141
0.091990 0.091990 0.091990
0.092177 0.092177 0.092177
0.306471 0.306471 0.306471
0.572449 0.572449 0.572449
0.848756 0.848756 0.848756
0.963780 0.963780 0.963780
0.984761 0.984761 0.984761
0.989236 0.989236 0.989236
0.988167 0.988167 0.988167
0.092035 0.092035 0.092035
0.093607 0.093607 0.093607
0.320666 0.320666 0.320666
0.585175 0.585175 0.585175
0.844983 0.844983 0.844983
0.955678 0.955678 0.955678
0.983307 0.983307 0.983307
0.988322 0.988322 0.988322
0.987601 0.987601 0.987601
0.101483 0.101483 0.101483
0.116083 0.116083 0.116083
0.356043 0.356043 0.356043
0.579572 0.579572 0.579572
0.765153 0.765153 0.765153
0.914733 0.914733 0.914733
0.973197 0.973197 0.973197
0.984911 0.984911 0.984911
0.985733 0.985733 0.985733
0.112012 0.112012 0.112012
0.127645 0.127645 0.127645
0.260738 0.260738 0.260738
0.471263 0.471263 0.471263
0.656465 0.656465 0.656465
0.834629 0.834629 0.834629
0.943816 0.943816 0.943816
0.976864 0.976864 0.976864
0.982819 0.982819 0.982819
0.123480 0.123480 0.123480
0.138220 0.138220 0.138220
0.226322 0.226322 0.226322
0.392695 0.392695 0.392695
0.563573 0.563573 0.563573
0.740466 0.740466 0.740466
0.891351 0.891351 0.891351
0.960306 0.960306 0.960306
0.975157 0.975157 0.975157
0.136285 0.136285 0.136285
0.151330 0.151330 0.151330
0.224291 0.224291 0.224291
0.366057 0.366057 0.366057
0.521924 0.521924 0.521924
0.667998 0.667998 0.667998
0.835747 0.835747 0.835747
0.935877 0.935877 0.935877
0.966134 0.966134 0.966134
0.132376 0.132376 0.132376
0.144620 0.144620 0.144620
0.204072 0.204072 0.204072
0.337953 0.337953 0.337953
0.501407 0.501407 0.501407
0.667011 0.667011 0.667011
0.812769 0.812769 0.812769
0.915454 0.915454 0.915454
0.958854 0.958854 0.958854
0.104781 0.104781 0.104781
0.108588 0.108588 0.108588
0.144296 0.144296 0.144296
0.252675 0.252675 0.252675
0.434602 0.434602 0.434602
0.622647 0.622647 0.622647
0.799345 0.799345 0.799345
0.907309 0.907309 0.907309
0.955263 0.955263 0.955263
0.091936 0.091936 0.091936
0.091936 0.091936 0.091936
0.091936 0.091936 0.091936
0.095417 0.095417 0.095417
0.221617 0.221617 0.221617
0.485785 0.485785 0.485785
0.732761 0.732761 0.732761
0.903668 0.903668 0.903668
0.956767 0.956767 0.956767
0.092034 0.092034 0.092034
0.092840 0.092840 0.092840
0.271908 0.271908 0.271908
0.577676 0.577676 0.577676
0.848404 0.848404 0.848404
0.970251 0.970251 0.970251
0.986052 0.986052 0.986052
0.989927 0.989927 0.989927
0.988768 0.988768 0.988768
0.092071 0.092071 0.092071
0.093861 0.093861 0.093861
0.285713 0.285713 0.285713
0.587293 0.587293 0.587293
0.849833 0.849833 0.849833
0.963518 0.963518 0.963518
0.984681 0.984681 0.984681
0.989077 0.989077 0.989077
0.988202 0.988202 0.988202
0.102588 0.102588 0.102588
0.114330 0.114330 0.114330
0.334399 0.334399 0.334399
0.620216 0.620216 0.620216
0.806239 0.806239 0.806239
0.933375 0.933375 0.933375
0.977183 0.977183 0.977183
0.985846 0.985846 0.985846
0.986322 0.986322 0.986322
0.126450 0.126450 0.126450
0.148120 0.148120 0.148120
0.300750 0.300750 0.300750
0.522592 0.522592 0.522592
0.708772 0.708772 0.708772
0.867175 0.867175 0.867175
0.954908 0.954908 0.954908
0.979393 0.979393 0.979393
0.983233 0.983233 0.983233
0.135502 0.135502 0.135502
0.153270 0.153270 0.153270
0.253833 0.253833 0.253833
0.437001 0.437001 0.437001
0.613403 0.613403 0.613403
0.780412 0.780412 0.780412
0.907740 0.907740 0.907740
0.963976 0.963976 0.963976
0.976069 0.976069 0.976069
0.145151 0.145151 0.145151
0.159885 0.159885 0.159885
0.236709 0.236709 0.236709
0.386569 0.386569 0.386569
0.549516 0.549516 0.549516
0.707618 0.707618 0.707618
0.851431 0.851431 0.851431
0.939938 0.939938 0.939938
0.966832 0.966832 0.966832
0.137709 0.137709 0.137709
0.150401 0.150401 0.150401
0.212523 0.212523 0.212523
0.347254 0.347254 0.347254
0.508888 0.508888 0.508888
0.668980 0.668980 0.668980
0.803966 0.803966 0.803966
0.916189 0.916189 0.916189
0.958643 0.958643 0.958643
0.104999 0.104999 0.104999
0.109047 0.109047 0.109047
0.147092 0.147092 0.147092
0.259106 0.259106 0.259106
0.440706 0.440706 0.440706
0.626411 0.626411 0.626411
0.797847 0.797847 0.797847
0.904433 0.904433 0.904433
0.954331 0.954331 0.954331
0.091936 0.091936 0.091936
0.091936 0.091936 0.091936
0.091936 0.091936 0.091936
0.092069 0.092069 0.092069
0.208166 0.208166 0.208166
0.479631 0.479631 0.479631
0.729493 0.729493 0.729493
0.902223 0.902223 0.902223
0.956357 0.956357 0.956357
0.092871 0.092871 0.092871
0.094885 0.094885 0.094885
0.290835 0.290835 0.290835
0.584895 0.584895 0.584895
0.858074 0.858074 0.858074
0.976583 0.976583 0.976583
0.987916 0.987916 0.987916
0.991102 0.991102 0.991102
0.989384 0.989384 0.989384
0.093651 0.093651 0.093651
0.097077 0.097077 0.097077
0.306847 0.306847 0.306847
0.593217 0.593217 0.593217
0.859205 0.859205 0.859205
0.972592 0.972592 0.972592
0.986668 0.986668 0.986668
0.990293 0.990293 0.990293
0.988875 0.988875 0.988875
0.110067 0.110067 0.110067
0.125100 0.125100 0.125100
0.367563 0.367563 0.367563
0.628529 0.628529 0.628529
0.841507 0.841507 0.841507
0.951487 0.951487 0.951487
0.982416 0.982416 0.982416
0.987352 0.987352 0.987352
0.987027 0.987027 0.987027
0.153117 0.153117 0.153117
0.176972 0.176972 0.176972
0.366111 0.366111 0.366111
0.571893 0.571893 0.571893
0.754216 0.754216 0.754216
0.898956 0.898956 0.898956
0.965717 0.965717 0.965717
0.982715 0.982715 0.982715
0.983947 0.983947 0.983947
0.157060 0.157060 0.157060
0.176138 0.176138 0.176138
0.306753 0.306753 0.306753
0.486493 0.486493 0.486493
0.663578 0.663578 0.663578
0.823338 0.823338 0.823338
0.930582 0.930582 0.930582
0.970557 0.970557 0.970557
0.977820 0.977820 0.977820
0.155588 0.155588 0.155588
0.170832 0.170832 0.170832
0.263625 0.263625 0.263625
0.421365 0.421365 0.421365
0.588030 0.588030 0.588030
0.746985 0.746985 0.746985
0.878892 0.878892 0.878892
0.949690 0.949690 0.949690
0.969112 0.969112 0.969112
0.139503 0.139503 0.139503
0.151909 0.151909 0.151909
0.221024 0.221024 0.221024
0.359277 0.359277 0.359277
0.526212 0.526212 0.526212
0.690428 0.690428 0.690428
0.828088 0.828088 0.828088
0.926610 0.926610 0.926610
0.960046 0.960046 0.960046
0.100611 0.100611 0.100611
0.103579 0.103579 0.103579
0.136517 0.136517 0.136517
0.250586 0.250586 0.250586
0.438701 0.438701 0.438701
0.627204 0.627204 0.627204
0.796881 0.796881 0.796881
0.899279 0.899279 0.899279
0.954494 0.954494 0.954494
0.091936 0.091936 0.091936
0.091936 0.091936 0.091936
0.091936 0.091936 0.091936
0.091936 0.091936 0.091936
0.155869 0.155869 0.155869
0.446948 0.446948 0.446948
0.711838 0.711838 0.711838
0.897496 0.897496 0.897496
0.956121 0.956121 0.956121
0.131918 0.131918 0.131918
0.149139 0.149139 0.149139
0.277320 0.277320 0.277320
0.607600 0.607600 0.607600
0.921115 0.921115 0.921115
0.986936 0.986936 0.986936
0.992447 0.992447 0.992447
0.993335 0.993335 0.993335
0.989936 0.989936 0.989936
0.143884 0.143884 0.143884
0.162234 0.162234 0.162234
0.297062 0.297062 0.297062
0.616004 0.616004 0.616004
0.921114 0.921114 0.921114
0.985607 0.985607 0.985607
0.991456 0.991456 0.991456
0.992620 0.992620 0.992620
0.989441 0.989441 0.989441
0.208832 0.208832 0.208832
0.235790 0.235790 0.235790
0.380609 0.380609 0.380609
0.654998 0.654998 0.654998
0.916320 0.916320 0.916320
0.979000 0.979000 0.979000
0.988018 0.988018 0.988018
0.990147 0.990147 0.990147
0.987691 0.987691 0.987691
0.316239 0.316239 0.316239
0.340595 0.340595 0.340595
0.453855 0.453855 0.453855
0.645612 0.645612 0.645612
0.848272 0.848272 0.848272
0.956558 0.956558 0.956558
0.982289 0.982289 0.982289
0.985974 0.985974 0.985974
0.984826 0.984826 0.984826
0.285830 0.285830 0.285830
0.311556 0.311556 0.311556
0.420554 0.420554 0.420554
0.580737 0.580737 0.580737
0.760126 0.760126 0.760126
0.904273 0.904273 0.904273
0.964545 0.964545 0.964545
0.979675 0.979675 0.979675
0.980443 0.980443 0.980443
0.238856 0.238856 0.238856
0.261014 0.261014 0.261014
0.366672 0.366672 0.366672
0.520474 0.520474 0.520474
0.677291 0.677291 0.677291
0.834469 0.834469 0.834469
0.932780 0.932780 0.932780
0.967095 0.967095 0.967095
0.972547 0.972547 0.972547
0.173694 0.173694 0.173694
0.191024 0.191024 0.191024
0.283375 0.283375 0.283375
0.448853 0.448853 0.448853
0.606451 0.606451 0.606451
0.759201 0.759201 0.759201
0.887402 0.887402 0.887402
0.950207 0.950207 0.950207
0.963899 0.963899 0.963899
0.098482 0.098482 0.098482
0.101350 0.101350 0.101350
0.129629 0.129629 0.129629
0.280564 0.280564 0.280564
0.494109 0.494109 0.494109
0.679124 0.679124 0.679124
0.827786 0.827786 0.827786
0.929562 0.929562 0.929562
0.958187 0.958187 0.958187
0.091936 0.091936 0.091936
0.091936 0.091936 0.091936
0.091936 0.091936 0.091936
0.091936 0.091936 0.091936
0.092552 0.092552 0.092552
0.369039 0.369039 0.369039
0.683590 0.683590 0.683590
0.886956 0.886956 0.886956
0.956150 0.956150 0.956150
