LUTs/trix_modern/TriX_NoFilter_ExtraPunchy.cube
TITLE "Tri-X NoFilter ExtraPunchy"
# Adobe RGB in/out. REPLACES AgX. Tri-X NoFilter ExtraPunchy.
LUT_3D_SIZE 5
DOMAIN_MIN 0.0 0.0 0.0
DOMAIN_MAX 1.0 1.0 1.0
0.092237 0.092237 0.092237
0.093283 0.093283 0.093283
0.251043 0.251043 0.251043
0.602009 0.602009 0.602009
0.946265 0.946265 0.946265
0.101832 0.101832 0.101832
0.100270 0.100270 0.100270
0.258315 0.258315 0.258315
0.555523 0.555523 0.555523
0.932175 0.932175 0.932175
0.332192 0.332192 0.332192
0.307852 0.307852 0.307852
0.345800 0.345800 0.345800
0.558097 0.558097 0.558097
0.823761 0.823761 0.823761
0.607794 0.607794 0.607794
0.593330 0.593330 0.593330
0.604429 0.604429 0.604429
0.699304 0.699304 0.699304
0.815249 0.815249 0.815249
0.703575 0.703575 0.703575
0.761804 0.761804 0.761804
0.792233 0.792233 0.792233
0.826269 0.826269 0.826269
0.881141 0.881141 0.881141
0.140275 0.140275 0.140275
0.645317 0.645317 0.645317
0.558923 0.558923 0.558923
0.809865 0.809865 0.809865
0.940999 0.940999 0.940999
0.150653 0.150653 0.150653
0.128236 0.128236 0.128236
0.327197 0.327197 0.327197
0.658527 0.658527 0.658527
0.926919 0.926919 0.926919
0.395053 0.395053 0.395053
0.356825 0.356825 0.356825
0.373794 0.373794 0.373794
0.586997 0.586997 0.586997
0.875524 0.875524 0.875524
0.654816 0.654816 0.654816
0.639070 0.639070 0.639070
0.640919 0.640919 0.640919
0.724492 0.724492 0.724492
0.828294 0.828294 0.828294
0.754373 0.754373 0.754373
0.802704 0.802704 0.802704
0.807543 0.807543 0.807543
0.838040 0.838040 0.838040
0.887727 0.887727 0.887727
0.686859 0.686859 0.686859
0.946470 0.946470 0.946470
0.958991 0.958991 0.958991
0.951647 0.951647 0.951647
0.965685 0.965685 0.965685
0.737511 0.737511 0.737511
0.847149 0.847149 0.847149
0.859783 0.859783 0.859783
0.914108 0.914108 0.914108
0.954727 0.954727 0.954727
0.593237 0.593237 0.593237
0.559526 0.559526 0.559526
0.545947 0.545947 0.545947
0.791233 0.791233 0.791233
0.931015 0.931015 0.931015
0.772382 0.772382 0.772382
0.759833 0.759833 0.759833
0.753433 0.753433 0.753433
0.803801 0.803801 0.803801
0.906777 0.906777 0.906777
0.861491 0.861491 0.861491
0.862991 0.862991 0.862991
0.856818 0.856818 0.856818
0.880421 0.880421 0.880421
0.919388 0.919388 0.919388
0.974580 0.974580 0.974580
0.986876 0.986876 0.986876
0.989950 0.989950 0.989950
0.986370 0.986370 0.986370
0.982306 0.982306 0.982306
0.980908 0.980908 0.980908
0.986936 0.986936 0.986936
0.984753 0.984753 0.984753
0.980694 0.980694 0.980694
0.978497 0.978497 0.978497
0.901116 0.901116 0.901116
0.912388 0.912388 0.912388
0.922021 0.922021 0.922021
0.943930 0.943930 0.943930
0.967017 0.967017 0.967017
0.884930 0.884930 0.884930
0.883662 0.883662 0.883662
0.888472 0.888472 0.888472
0.903272 0.903272 0.903272
0.959546 0.959546 0.959546
0.887606 0.887606 0.887606
0.890023 0.890023 0.890023
0.910612 0.910612 0.910612
0.925977 0.925977 0.925977
0.966858 0.966858 0.966858
0.993851 0.993851 0.993851
0.993934 0.993934 0.993934
0.994625 0.994625 0.994625
0.993894 0.993894 0.993894
0.991249 0.991249 0.991249
0.994088 0.994088 0.994088
0.994186 0.994186 0.994186
0.994599 0.994599 0.994599
0.992574 0.992574 0.992574
0.989321 0.989321 0.989321
0.990176 0.990176 0.990176
0.989052 0.989052 0.989052
0.986788 0.986788 0.986788
0.985930 0.985930 0.985930
0.985830 0.985830 0.985830
0.980119 0.980119 0.980119
0.979424 0.979424 0.979424
0.976678 0.976678 0.976678
0.978768 0.978768 0.978768
0.982182 0.982182 0.982182
0.937133 0.937133 0.937133
0.952715 0.952715 0.952715
0.970446 0.970446 0.970446
0.981040 0.981040 0.981040
0.984304 0.984304 0.984304
