LUTs/trix_modern/TriX_Orange21_ExtraSoft.cube
TITLE "Tri-X Orange21 ExtraSoft"
# Adobe RGB in/out. REPLACES AgX. Tri-X Orange21 ExtraSoft.
LUT_3D_SIZE 33
DOMAIN_MIN 0.0 0.0 0.0
DOMAIN_MAX 1.0 1.0 1.0
0.099726 0.099726 0.099726
0.099726 0.099726 0.099726
0.099726 0.099726 0.099726
0.101065 0.101065 0.101065
0.118765 0.118765 0.118765
0.144339 0.144339 0.144339
0.190161 0.190161 0.190161
0.239504 0.239504 0.239504
0.262273 0.262273 0.262273
0.295652 0.295652 0.295652
0.346163 0.346163 0.346163
0.378519 0.378519 0.378519
0.406520 0.406520 0.406520
0.450320 0.450320 0.450320
0.508672 0.508672 0.508672
0.549627 0.549627 0.549627
0.591357 0.591357 0.591357
0.640654 0.640654 0.640654
0.692270 0.692270 0.692270
0.732360 0.732360 0.732360
0.769168 0.769168 0.769168
0.799331 0.799331 0.799331
0.826271 0.826271 0.826271
0.853003 0.853003 0.853003
0.869185 0.869185 0.869185
0.883226 0.883226 0.883226
0.902492 0.902492 0.902492
0.911916 0.911916 0.911916
0.935731 0.935731 0.935731
0.932064 0.932064 0.932064
0.928425 0.928425 0.928425
0.924806 0.924806 0.924806
0.953713 0.953713 0.953713
0.099726 0.099726 0.099726
0.099726 0.099726 0.099726
0.099747 0.099747 0.099747
0.101924 0.101924 0.101924
0.127249 0.127249 0.127249
0.150452 0.150452 0.150452
0.194088 0.194088 0.194088
0.242476 0.242476 0.242476
0.264545 0.264545 0.264545
0.297362 0.297362 0.297362
0.347335 0.347335 0.347335
0.379262 0.379262 0.379262
0.406938 0.406938 0.406938
0.450478 0.450478 0.450478
0.508489 0.508489 0.508489
0.549195 0.549195 0.549195
0.590698 0.590698 0.590698
0.639854 0.639854 0.639854
0.691533 0.691533 0.691533
0.731552 0.731552 0.731552
0.768398 0.768398 0.768398
0.798760 0.798760 0.798760
0.825737 0.825737 0.825737
0.852497 0.852497 0.852497
0.868849 0.868849 0.868849
0.882926 0.882926 0.882926
0.902200 0.902200 0.902200
0.911668 0.911668 0.911668
0.935533 0.935533 0.935533
0.931883 0.931883 0.931883
0.928260 0.928260 0.928260
0.924629 0.924629 0.924629
0.953570 0.953570 0.953570
0.099726 0.099726 0.099726
0.099726 0.099726 0.099726
0.099770 0.099770 0.099770
0.102564 0.102564 0.102564
0.137362 0.137362 0.137362
0.165704 0.165704 0.165704
0.208407 0.208407 0.208407
0.257253 0.257253 0.257253
0.275105 0.275105 0.275105
0.305048 0.305048 0.305048
0.352600 0.352600 0.352600
0.382655 0.382655 0.382655
0.408963 0.408963 0.408963
0.451553 0.451553 0.451553
0.508203 0.508203 0.508203
0.547930 0.547930 0.547930
0.588564 0.588564 0.588564
0.637160 0.637160 0.637160
0.689004 0.689004 0.689004
0.728735 0.728735 0.728735
0.765695 0.765695 0.765695
0.796748 0.796748 0.796748
0.823850 0.823850 0.823850
0.850700 0.850700 0.850700
0.867656 0.867656 0.867656
0.881860 0.881860 0.881860
0.901161 0.901161 0.901161
0.910783 0.910783 0.910783
0.934826 0.934826 0.934826
0.931238 0.931238 0.931238
0.927670 0.927670 0.927670
0.923962 0.923962 0.923962
0.953056 0.953056 0.953056
0.099726 0.099726 0.099726
0.099957 0.099957 0.099957
0.101102 0.101102 0.101102
0.103148 0.103148 0.103148
0.129352 0.129352 0.129352
0.160876 0.160876 0.160876
0.211972 0.211972 0.211972
0.265395 0.265395 0.265395
0.287553 0.287553 0.287553
0.318090 0.318090 0.318090
0.365528 0.365528 0.365528
0.392054 0.392054 0.392054
0.415232 0.415232 0.415232
0.455692 0.455692 0.455692
0.509246 0.509246 0.509246
0.546800 0.546800 0.546800
0.585616 0.585616 0.585616
0.632959 0.632959 0.632959
0.684838 0.684838 0.684838
0.723911 0.723911 0.723911
0.760975 0.760975 0.760975
0.793194 0.793194 0.793194
0.820492 0.820492 0.820492
0.847482 0.847482 0.847482
0.865514 0.865514 0.865514
0.879946 0.879946 0.879946
0.899289 0.899289 0.899289
0.909190 0.909190 0.909190
0.933545 0.933545 0.933545
0.930066 0.930066 0.930066
0.926597 0.926597 0.926597
0.922751 0.922751 0.922751
0.952120 0.952120 0.952120
0.101000 0.101000 0.101000
0.101548 0.101548 0.101548
0.106856 0.106856 0.106856
0.120892 0.120892 0.120892
0.141005 0.141005 0.141005
0.156564 0.156564 0.156564
0.206374 0.206374 0.206374
0.262727 0.262727 0.262727
0.290164 0.290164 0.290164
0.324758 0.324758 0.324758
0.373472 0.373472 0.373472
0.398999 0.398999 0.398999
0.424254 0.424254 0.424254
0.464298 0.464298 0.464298
0.514897 0.514897 0.514897
0.548209 0.548209 0.548209
0.583716 0.583716 0.583716
0.628594 0.628594 0.628594
0.679841 0.679841 0.679841
0.717593 0.717593 0.717593
0.754539 0.754539 0.754539
0.788245 0.788245 0.788245
0.815746 0.815746 0.815746
0.842878 0.842878 0.842878
0.862441 0.862441 0.862441
0.877197 0.877197 0.877197
0.896583 0.896583 0.896583
0.906896 0.906896 0.906896
0.931670 0.931670 0.931670
0.928349 0.928349 0.928349
0.925023 0.925023 0.925023
0.920842 0.920842 0.920842
0.950743 0.950743 0.950743
0.103537 0.103537 0.103537
0.104936 0.104936 0.104936
0.113501 0.113501 0.113501
0.135070 0.135070 0.135070
0.153458 0.153458 0.153458
0.169828 0.169828 0.169828
0.204274 0.204274 0.204274
0.257862 0.257862 0.257862
0.285917 0.285917 0.285917
0.323834 0.323834 0.323834
0.373780 0.373780 0.373780
0.403098 0.403098 0.403098
0.431060 0.431060 0.431060
0.469226 0.469226 0.469226
0.516579 0.516579 0.516579
0.549108 0.549108 0.549108
0.583264 0.583264 0.583264
0.626468 0.626468 0.626468
0.675101 0.675101 0.675101
0.710904 0.710904 0.710904
0.747103 0.747103 0.747103
0.781621 0.781621 0.781621
0.809869 0.809869 0.809869
0.837046 0.837046 0.837046
0.858530 0.858530 0.858530
0.873694 0.873694 0.873694
0.893100 0.893100 0.893100
0.903962 0.903962 0.903962
0.929217 0.929217 0.929217
0.926096 0.926096 0.926096
0.922533 0.922533 0.922533
0.952222 0.952222 0.952222
0.948927 0.948927 0.948927
0.114514 0.114514 0.114514
0.119344 0.119344 0.119344
0.139723 0.139723 0.139723
0.163343 0.163343 0.163343
0.183705 0.183705 0.183705
0.201318 0.201318 0.201318
0.219232 0.219232 0.219232
0.256800 0.256800 0.256800
0.282333 0.282333 0.282333
0.319163 0.319163 0.319163
0.370789 0.370789 0.370789
0.402739 0.402739 0.402739
0.431702 0.431702 0.431702
0.471296 0.471296 0.471296
0.519532 0.519532 0.519532
0.551982 0.551982 0.551982
0.581649 0.581649 0.581649
0.621428 0.621428 0.621428
0.669008 0.669008 0.669008
0.704257 0.704257 0.704257
0.739530 0.739530 0.739530
0.773686 0.773686 0.773686
0.803326 0.803326 0.803326
0.830268 0.830268 0.830268
0.853183 0.853183 0.853183
0.869581 0.869581 0.869581
0.888934 0.888934 0.888934
0.900515 0.900515 0.900515
0.926229 0.926229 0.926229
0.923005 0.923005 0.923005
0.919092 0.919092 0.919092
0.949813 0.949813 0.949813
0.946688 0.946688 0.946688
0.144720 0.144720 0.144720
0.150287 0.150287 0.150287
0.170235 0.170235 0.170235
0.191828 0.191828 0.191828
0.214139 0.214139 0.214139
0.235035 0.235035 0.235035
0.254006 0.254006 0.254006
0.273631 0.273631 0.273631
0.283705 0.283705 0.283705
0.316064 0.316064 0.316064
0.366833 0.366833 0.366833
0.398580 0.398580 0.398580
0.428228 0.428228 0.428228
0.470165 0.470165 0.470165
0.519716 0.519716 0.519716
0.550767 0.550767 0.550767
0.580581 0.580581 0.580581
0.619694 0.619694 0.619694
0.664790 0.664790 0.664790
0.697705 0.697705 0.697705
0.731209 0.731209 0.731209
0.765277 0.765277 0.765277
0.796500 0.796500 0.796500
0.823013 0.823013 0.823013
0.846455 0.846455 0.846455
0.865048 0.865048 0.865048
0.884183 0.884183 0.884183
0.896739 0.896739 0.896739
0.922346 0.922346 0.922346
0.918696 0.918696 0.918696
0.915047 0.915047 0.915047
0.946970 0.946970 0.946970
0.944056 0.944056 0.944056
0.159277 0.159277 0.159277
0.163371 0.163371 0.163371
0.177666 0.177666 0.177666
0.198254 0.198254 0.198254
0.220448 0.220448 0.220448
0.241564 0.241564 0.241564
0.261405 0.261405 0.261405
0.279823 0.279823 0.279823
0.298800 0.298800 0.298800
0.319581 0.319581 0.319581
0.364648 0.364648 0.364648
0.395176 0.395176 0.395176
0.424008 0.424008 0.424008
0.466107 0.466107 0.466107
0.516894 0.516894 0.516894
0.548843 0.548843 0.548843
0.579316 0.579316 0.579316
0.617141 0.617141 0.617141
0.660534 0.660534 0.660534
0.692801 0.692801 0.692801
0.724938 0.724938 0.724938
0.757707 0.757707 0.757707
0.789766 0.789766 0.789766
0.815750 0.815750 0.815750
0.839395 0.839395 0.839395
0.860160 0.860160 0.860160
0.879100 0.879100 0.879100
0.892766 0.892766 0.892766
0.919623 0.919623 0.919623
0.913863 0.913863 0.913863
0.910510 0.910510 0.910510
0.943755 0.943755 0.943755
0.941072 0.941072 0.941072
0.180042 0.180042 0.180042
0.182837 0.182837 0.182837
0.193028 0.193028 0.193028
0.212159 0.212159 0.212159
0.233860 0.233860 0.233860
0.256306 0.256306 0.256306
0.276699 0.276699 0.276699
0.295711 0.295711 0.295711
0.314313 0.314313 0.314313
0.333989 0.333989 0.333989
0.369297 0.369297 0.369297
0.393487 0.393487 0.393487
0.420182 0.420182 0.420182
0.461389 0.461389 0.461389
0.512956 0.512956 0.512956
0.545633 0.545633 0.545633
0.576572 0.576572 0.576572
0.614046 0.614046 0.614046
0.657967 0.657967 0.657967
0.689074 0.689074 0.689074
0.718584 0.718584 0.718584
0.751017 0.751017 0.751017
0.783602 0.783602 0.783602
0.808864 0.808864 0.808864
0.832407 0.832407 0.832407
0.854822 0.854822 0.854822
0.874144 0.874144 0.874144
0.888266 0.888266 0.888266
0.904987 0.904987 0.904987
0.918185 0.918185 0.918185
0.931331 0.931331 0.931331
0.940225 0.940225 0.940225
0.937785 0.937785 0.937785
0.207897 0.207897 0.207897
0.210088 0.210088 0.210088
0.218882 0.218882 0.218882
0.238602 0.238602 0.238602
0.260236 0.260236 0.260236
0.282105 0.282105 0.282105
0.304422 0.304422 0.304422
0.325322 0.325322 0.325322
0.344675 0.344675 0.344675
0.363346 0.363346 0.363346
0.381953 0.381953 0.381953
0.399422 0.399422 0.399422
0.418384 0.418384 0.418384
0.457997 0.457997 0.457997
0.509120 0.509120 0.509120
0.541696 0.541696 0.541696
0.572866 0.572866 0.572866
0.610742 0.610742 0.610742
0.655485 0.655485 0.655485
0.685435 0.685435 0.685435
0.714320 0.714320 0.714320
0.745918 0.745918 0.745918
0.776726 0.776726 0.776726
0.802482 0.802482 0.802482
0.825804 0.825804 0.825804
0.848386 0.848386 0.848386
0.869193 0.869193 0.869193
0.883805 0.883805 0.883805
0.900493 0.900493 0.900493
0.914051 0.914051 0.914051
0.927713 0.927713 0.927713
0.936441 0.936441 0.936441
0.934250 0.934250 0.934250
0.224107 0.224107 0.224107
0.226025 0.226025 0.226025
0.233666 0.233666 0.233666
0.250523 0.250523 0.250523
0.270046 0.270046 0.270046
0.292682 0.292682 0.292682
0.316082 0.316082 0.316082
0.336951 0.336951 0.336951
0.356292 0.356292 0.356292
0.374710 0.374710 0.374710
0.392689 0.392689 0.392689
0.411092 0.411092 0.411092
0.427122 0.427122 0.427122
0.456543 0.456543 0.456543
0.506299 0.506299 0.506299
0.537945 0.537945 0.537945
0.569404 0.569404 0.569404
0.607517 0.607517 0.607517
0.652312 0.652312 0.652312
0.682578 0.682578 0.682578
0.711366 0.711366 0.711366
0.741437 0.741437 0.741437
0.771477 0.771477 0.771477
0.797203 0.797203 0.797203
0.819802 0.819802 0.819802
0.842182 0.842182 0.842182
0.864341 0.864341 0.864341
0.879422 0.879422 0.879422
0.896068 0.896068 0.896068
0.910134 0.910134 0.910134
0.924429 0.924429 0.924429
0.932472 0.932472 0.932472
0.930527 0.930527 0.930527
0.236986 0.236986 0.236986
0.238664 0.238664 0.238664
0.245142 0.245142 0.245142
0.259183 0.259183 0.259183
0.278505 0.278505 0.278505
0.300465 0.300465 0.300465
0.322479 0.322479 0.322479
0.343638 0.343638 0.343638
0.363660 0.363660 0.363660
0.381890 0.381890 0.381890
0.399533 0.399533 0.399533
0.417704 0.417704 0.417704
0.441074 0.441074 0.441074
0.467038 0.467038 0.467038
0.505189 0.505189 0.505189
0.536102 0.536102 0.536102
0.566794 0.566794 0.566794
0.604677 0.604677 0.604677
0.649313 0.649313 0.649313
0.680137 0.680137 0.680137
0.708295 0.708295 0.708295
0.738261 0.738261 0.738261
0.767776 0.767776 0.767776
0.792717 0.792717 0.792717
0.814705 0.814705 0.814705
0.836739 0.836739 0.836739
0.859774 0.859774 0.859774
0.874979 0.874979 0.874979
0.891661 0.891661 0.891661
0.906248 0.906248 0.906248
0.921893 0.921893 0.921893
0.928388 0.928388 0.928388
0.926679 0.926679 0.926679
0.253736 0.253736 0.253736
0.255250 0.255250 0.255250
0.261028 0.261028 0.261028
0.273203 0.273203 0.273203
0.292976 0.292976 0.292976
0.312784 0.312784 0.312784
0.334615 0.334615 0.334615
0.355907 0.355907 0.355907
0.375797 0.375797 0.375797
0.394080 0.394080 0.394080
0.411948 0.411948 0.411948
0.434043 0.434043 0.434043
0.456678 0.456678 0.456678
0.480493 0.480493 0.480493
0.516275 0.516275 0.516275
0.536816 0.536816 0.536816
0.565239 0.565239 0.565239
0.601955 0.601955 0.601955
0.646383 0.646383 0.646383
0.677963 0.677963 0.677963
0.706122 0.706122 0.706122
0.736031 0.736031 0.736031
0.764661 0.764661 0.764661
0.789487 0.789487 0.789487
0.810646 0.810646 0.810646
0.831979 0.831979 0.831979
0.855485 0.855485 0.855485
0.870836 0.870836 0.870836
0.887474 0.887474 0.887474
0.902265 0.902265 0.902265
0.917845 0.917845 0.917845
0.929971 0.929971 0.929971
0.940348 0.940348 0.940348
0.276038 0.276038 0.276038
0.277442 0.277442 0.277442
0.282745 0.282745 0.282745
0.293593 0.293593 0.293593
0.313132 0.313132 0.313132
0.331556 0.331556 0.331556
0.352943 0.352943 0.352943
0.373948 0.373948 0.373948
0.393926 0.393926 0.393926
0.413253 0.413253 0.413253
0.437024 0.437024 0.437024
0.460012 0.460012 0.460012
0.483144 0.483144 0.483144
0.505622 0.505622 0.505622
0.528139 0.528139 0.528139
0.547590 0.547590 0.547590
0.567759 0.567759 0.567759
0.600973 0.600973 0.600973
0.644588 0.644588 0.644588
0.675852 0.675852 0.675852
0.704466 0.704466 0.704466
0.734492 0.734492 0.734492
0.762722 0.762722 0.762722
0.787331 0.787331 0.787331
0.807523 0.807523 0.807523
0.828249 0.828249 0.828249
0.850776 0.850776 0.850776
0.867159 0.867159 0.867159
0.883565 0.883565 0.883565
0.898533 0.898533 0.898533
0.914120 0.914120 0.914120
0.927173 0.927173 0.927173
0.936906 0.936906 0.936906
0.289329 0.289329 0.289329
0.290584 0.290584 0.290584
0.295291 0.295291 0.295291
0.304828 0.304828 0.304828
0.321856 0.321856 0.321856
0.340391 0.340391 0.340391
0.362407 0.362407 0.362407
0.381101 0.381101 0.381101
0.400974 0.400974 0.400974
0.422659 0.422659 0.422659
0.446478 0.446478 0.446478
0.469483 0.469483 0.469483
0.492914 0.492914 0.492914
0.514636 0.514636 0.514636
0.536399 0.536399 0.536399
0.558886 0.558886 0.558886
0.578204 0.578204 0.578204
0.605093 0.605093 0.605093
0.643843 0.643843 0.643843
0.674962 0.674962 0.674962
0.703206 0.703206 0.703206
0.733257 0.733257 0.733257
0.761547 0.761547 0.761547
0.785841 0.785841 0.785841
0.805496 0.805496 0.805496
0.825521 0.825521 0.825521
0.846898 0.846898 0.846898
0.863940 0.863940 0.863940
0.880038 0.880038 0.880038
0.894940 0.894940 0.894940
0.910513 0.910513 0.910513
0.924597 0.924597 0.924597
0.934406 0.934406 0.934406
0.301996 0.301996 0.301996
0.303138 0.303138 0.303138
0.307393 0.307393 0.307393
0.315969 0.315969 0.315969
0.331106 0.331106 0.331106
0.349772 0.349772 0.349772
0.367844 0.367844 0.367844
0.387354 0.387354 0.387354
0.407529 0.407529 0.407529
0.430622 0.430622 0.430622
0.454694 0.454694 0.454694
0.478270 0.478270 0.478270
0.501421 0.501421 0.501421
0.522549 0.522549 0.522549
0.544272 0.544272 0.544272
0.566383 0.566383 0.566383
0.589424 0.589424 0.589424
0.615764 0.615764 0.615764
0.649107 0.649107 0.649107
0.674339 0.674339 0.674339
0.702604 0.702604 0.702604
0.732317 0.732317 0.732317
0.760762 0.760762 0.760762
0.785013 0.785013 0.785013
0.804389 0.804389 0.804389
0.823726 0.823726 0.823726
0.843961 0.843961 0.843961
0.861237 0.861237 0.861237
0.876943 0.876943 0.876943
0.891628 0.891628 0.891628
0.907086 0.907086 0.907086
0.921368 0.921368 0.921368
0.933093 0.933093 0.933093
0.317638 0.317638 0.317638
0.318728 0.318728 0.318728
0.322774 0.322774 0.322774
0.330781 0.330781 0.330781
0.343317 0.343317 0.343317
0.362951 0.362951 0.362951
0.377990 0.377990 0.377990
0.398546 0.398546 0.398546
0.418768 0.418768 0.418768
0.442874 0.442874 0.442874
0.467450 0.467450 0.467450
0.491706 0.491706 0.491706
0.514233 0.514233 0.514233
0.535242 0.535242 0.535242
0.556971 0.556971 0.556971
0.578607 0.578607 0.578607
0.602142 0.602142 0.602142
0.626521 0.626521 0.626521
0.659117 0.659117 0.659117
0.680787 0.680787 0.680787
0.702488 0.702488 0.702488
0.732025 0.732025 0.732025
0.760327 0.760327 0.760327
0.784500 0.784500 0.784500
0.803932 0.803932 0.803932
0.822797 0.822797 0.822797
0.842079 0.842079 0.842079
0.859235 0.859235 0.859235
0.874273 0.874273 0.874273
0.888802 0.888802 0.888802
0.903999 0.903999 0.903999
0.918170 0.918170 0.918170
0.930705 0.930705 0.930705
0.336775 0.336775 0.336775
0.337719 0.337719 0.337719
0.341205 0.341205 0.341205
0.348036 0.348036 0.348036
0.359363 0.359363 0.359363
0.376776 0.376776 0.376776
0.392700 0.392700 0.392700
0.412141 0.412141 0.412141
0.434980 0.434980 0.434980
0.460741 0.460741 0.460741
0.485954 0.485954 0.485954
0.509280 0.509280 0.509280
0.531105 0.531105 0.531105
0.552659 0.552659 0.552659
0.574213 0.574213 0.574213
0.597416 0.597416 0.597416
0.620475 0.620475 0.620475
0.644260 0.644260 0.644260
0.668988 0.668988 0.668988
0.688875 0.688875 0.688875
0.709215 0.709215 0.709215
0.732264 0.732264 0.732264
0.760360 0.760360 0.760360
0.784518 0.784518 0.784518
0.803660 0.803660 0.803660
0.822458 0.822458 0.822458
0.841001 0.841001 0.841001
0.857903 0.857903 0.857903
0.872326 0.872326 0.872326
0.886334 0.886334 0.886334
0.901276 0.901276 0.901276
0.915299 0.915299 0.915299
0.928494 0.928494 0.928494
0.348339 0.348339 0.348339
0.349207 0.349207 0.349207
0.352404 0.352404 0.352404
0.358626 0.358626 0.358626
0.368718 0.368718 0.368718
0.383975 0.383975 0.383975
0.401125 0.401125 0.401125
0.418746 0.418746 0.418746
0.443677 0.443677 0.443677
0.468919 0.468919 0.468919
0.492380 0.492380 0.492380
0.515056 0.515056 0.515056
0.537382 0.537382 0.537382
0.559280 0.559280 0.559280
0.581118 0.581118 0.581118
0.604397 0.604397 0.604397
0.627504 0.627504 0.627504
0.651253 0.651253 0.651253
0.675242 0.675242 0.675242
0.696940 0.696940 0.696940
0.716806 0.716806 0.716806
0.739526 0.739526 0.739526
0.761460 0.761460 0.761460
0.784918 0.784918 0.784918
0.803997 0.803997 0.803997
0.822487 0.822487 0.822487
0.840583 0.840583 0.840583
0.857156 0.857156 0.857156
0.870886 0.870886 0.870886
0.884277 0.884277 0.884277
0.898899 0.898899 0.898899
0.912668 0.912668 0.912668
0.926413 0.926413 0.926413
0.360891 0.360891 0.360891
0.361694 0.361694 0.361694
0.364645 0.364645 0.364645
0.370199 0.370199 0.370199
0.379190 0.379190 0.379190
0.392858 0.392858 0.392858
0.411248 0.411248 0.411248
0.428869 0.428869 0.428869
0.455488 0.455488 0.455488
0.476641 0.476641 0.476641
0.501169 0.501169 0.501169
0.524620 0.524620 0.524620
0.546189 0.546189 0.546189
0.567755 0.567755 0.567755
0.590084 0.590084 0.590084
0.613394 0.613394 0.613394
0.636143 0.636143 0.636143
0.659367 0.659367 0.659367
0.682895 0.682895 0.682895
0.703193 0.703193 0.703193
0.724428 0.724428 0.724428
0.746277 0.746277 0.746277
0.767983 0.767983 0.767983
0.786641 0.786641 0.786641
0.804512 0.804512 0.804512
0.823035 0.823035 0.823035
0.840803 0.840803 0.840803
0.856961 0.856961 0.856961
0.869986 0.869986 0.869986
0.882793 0.882793 0.882793
0.896814 0.896814 0.896814
0.910371 0.910371 0.910371
0.924401 0.924401 0.924401
0.374835 0.374835 0.374835
0.375560 0.375560 0.375560
0.378217 0.378217 0.378217
0.383334 0.383334 0.383334
0.391574 0.391574 0.391574
0.403955 0.403955 0.403955
0.424391 0.424391 0.424391
0.442549 0.442549 0.442549
0.465622 0.465622 0.465622
0.489059 0.489059 0.489059
0.512968 0.512968 0.512968
0.533859 0.533859 0.533859
0.556192 0.556192 0.556192
0.578410 0.578410 0.578410
0.601305 0.601305 0.601305
0.624351 0.624351 0.624351
0.647207 0.647207 0.647207
0.670283 0.670283 0.670283
0.691466 0.691466 0.691466
0.712080 0.712080 0.712080
0.732312 0.732312 0.732312
0.752815 0.752815 0.752815
0.774106 0.774106 0.774106
0.791584 0.791584 0.791584
0.806801 0.806801 0.806801
0.823703 0.823703 0.823703
0.841512 0.841512 0.841512
0.857277 0.857277 0.857277
0.869689 0.869689 0.869689
0.881832 0.881832 0.881832
0.895201 0.895201 0.895201
0.908376 0.908376 0.908376
0.922143 0.922143 0.922143
0.388960 0.388960 0.388960
0.389634 0.389634 0.389634
0.392101 0.392101 0.392101
0.396831 0.396831 0.396831
0.404403 0.404403 0.404403
0.416177 0.416177 0.416177
0.437053 0.437053 0.437053
0.457498 0.457498 0.457498
0.477763 0.477763 0.477763
0.502599 0.502599 0.502599
0.522629 0.522629 0.522629
0.545284 0.545284 0.545284
0.568190 0.568190 0.568190
0.589380 0.589380 0.589380
0.612139 0.612139 0.612139
0.635095 0.635095 0.635095
0.658173 0.658173 0.658173
0.680889 0.680889 0.680889
0.700554 0.700554 0.700554
0.720555 0.720555 0.720555
0.740881 0.740881 0.740881
0.760242 0.760242 0.760242
0.780047 0.780047 0.780047
0.796293 0.796293 0.796293
0.811440 0.811440 0.811440
0.826442 0.826442 0.826442
0.842460 0.842460 0.842460
0.857883 0.857883 0.857883
0.869996 0.869996 0.869996
0.881437 0.881437 0.881437
0.894077 0.894077 0.894077
0.906641 0.906641 0.906641
0.920134 0.920134 0.920134
0.401195 0.401195 0.401195
0.401816 0.401816 0.401816
0.404084 0.404084 0.404084
0.408425 0.408425 0.408425
0.415755 0.415755 0.415755
0.428819 0.428819 0.428819
0.447729 0.447729 0.447729
0.470315 0.470315 0.470315
0.488180 0.488180 0.488180
0.511502 0.511502 0.511502
0.531228 0.531228 0.531228
0.554650 0.554650 0.554650
0.574544 0.574544 0.574544
0.597598 0.597598 0.597598
0.621275 0.621275 0.621275
0.643394 0.643394 0.643394
0.665946 0.665946 0.665946
0.687264 0.687264 0.687264
0.706821 0.706821 0.706821
0.726590 0.726590 0.726590
0.746507 0.746507 0.746507
0.765547 0.765547 0.765547
0.785069 0.785069 0.785069
0.800813 0.800813 0.800813
0.815771 0.815771 0.815771
0.830709 0.830709 0.830709
0.845773 0.845773 0.845773
0.858706 0.858706 0.858706
0.870605 0.870605 0.870605
0.881578 0.881578 0.881578
0.893446 0.893446 0.893446
0.905328 0.905328 0.905328
0.918335 0.918335 0.918335
0.413957 0.413957 0.413957
0.414687 0.414687 0.414687
0.417356 0.417356 0.417356
0.422459 0.422459 0.422459
0.430587 0.430587 0.430587
0.442603 0.442603 0.442603
0.459847 0.459847 0.459847
0.484503 0.484503 0.484503
0.499925 0.499925 0.499925
0.520053 0.520053 0.520053
0.542082 0.542082 0.542082
0.562108 0.562108 0.562108
0.584061 0.584061 0.584061
0.607268 0.607268 0.607268
0.628899 0.628899 0.628899
0.651733 0.651733 0.651733
0.674795 0.674795 0.674795
0.694705 0.694705 0.694705
0.713817 0.713817 0.713817
0.733187 0.733187 0.733187
0.752214 0.752214 0.752214
0.770952 0.770952 0.770952
0.788877 0.788877 0.788877
0.804321 0.804321 0.804321
0.819842 0.819842 0.819842
0.834585 0.834585 0.834585
0.850052 0.850052 0.850052
0.861366 0.861366 0.861366
0.871528 0.871528 0.871528
0.882190 0.882190 0.882190
0.893333 0.893333 0.893333
0.904508 0.904508 0.904508
0.916723 0.916723 0.916723
0.430861 0.430861 0.430861
0.431540 0.431540 0.431540
0.434020 0.434020 0.434020
0.438751 0.438751 0.438751
0.446261 0.446261 0.446261
0.457313 0.457313 0.457313
0.473085 0.473085 0.473085
0.495270 0.495270 0.495270
0.512690 0.512690 0.512690
0.530407 0.530407 0.530407
0.554554 0.554554 0.554554
0.571886 0.571886 0.571886
0.595916 0.595916 0.595916
0.615919 0.615919 0.615919
0.639089 0.639089 0.639089
0.661418 0.661418 0.661418
0.682497 0.682497 0.682497
0.701404 0.701404 0.701404
0.720374 0.720374 0.720374
0.739531 0.739531 0.739531
0.757937 0.757937 0.757937
0.776423 0.776423 0.776423
0.792915 0.792915 0.792915
0.807790 0.807790 0.807790
0.823027 0.823027 0.823027
0.838152 0.838152 0.838152
0.854032 0.854032 0.854032
0.864361 0.864361 0.864361
0.874395 0.874395 0.874395
0.883321 0.883321 0.883321
0.893606 0.893606 0.893606
0.904080 0.904080 0.904080
0.915801 0.915801 0.915801
0.449790 0.449790 0.449790
0.450390 0.450390 0.450390
0.452583 0.452583 0.452583
0.456771 0.456771 0.456771
0.463437 0.463437 0.463437
0.473298 0.473298 0.473298
0.487488 0.487488 0.487488
0.506780 0.506780 0.506780
0.526801 0.526801 0.526801
0.542261 0.542261 0.542261
0.563284 0.563284 0.563284
0.583361 0.583361 0.583361
0.604440 0.604440 0.604440
0.626571 0.626571 0.626571
0.648574 0.648574 0.648574
0.669783 0.669783 0.669783
0.690356 0.690356 0.690356
0.708987 0.708987 0.708987
0.727103 0.727103 0.727103
0.745604 0.745604 0.745604
0.763612 0.763612 0.763612
0.781956 0.781956 0.781956
0.797258 0.797258 0.797258
0.812145 0.812145 0.812145
0.827273 0.827273 0.827273
