LUTs/trix_modern/TriX_Yellow8_Hard.cube
TITLE "Tri-X Yellow8 Hard"
# Adobe RGB in/out. REPLACES AgX. Tri-X Yellow8 Hard.
LUT_3D_SIZE 33
DOMAIN_MIN 0.0 0.0 0.0
DOMAIN_MAX 1.0 1.0 1.0
0.093024 0.093024 0.093024
0.093024 0.093024 0.093024
0.093024 0.093024 0.093024
0.093047 0.093047 0.093047
0.093174 0.093174 0.093174
0.093272 0.093272 0.093272
0.093476 0.093476 0.093476
0.094501 0.094501 0.094501
0.095481 0.095481 0.095481
0.097539 0.097539 0.097539
0.108035 0.108035 0.108035
0.131275 0.131275 0.131275
0.162442 0.162442 0.162442
0.219185 0.219185 0.219185
0.315740 0.315740 0.315740
0.404608 0.404608 0.404608
0.495396 0.495396 0.495396
0.606870 0.606870 0.606870
0.725801 0.725801 0.725801
0.804609 0.804609 0.804609
0.856188 0.856188 0.856188
0.897577 0.897577 0.897577
0.930551 0.930551 0.930551
0.954299 0.954299 0.954299
0.967662 0.967662 0.967662
0.974533 0.974533 0.974533
0.981814 0.981814 0.981814
0.984177 0.984177 0.984177
0.988764 0.988764 0.988764
0.987856 0.987856 0.987856
0.986952 0.986952 0.986952
0.986051 0.986051 0.986051
0.992719 0.992719 0.992719
0.093024 0.093024 0.093024
0.093024 0.093024 0.093024
0.093024 0.093024 0.093024
0.093062 0.093062 0.093062
0.093207 0.093207 0.093207
0.093296 0.093296 0.093296
0.093535 0.093535 0.093535
0.094611 0.094611 0.094611
0.095614 0.095614 0.095614
0.097757 0.097757 0.097757
0.108733 0.108733 0.108733
0.132055 0.132055 0.132055
0.163213 0.163213 0.163213
0.219670 0.219670 0.219670
0.315750 0.315750 0.315750
0.404019 0.404019 0.404019
0.494398 0.494398 0.494398
0.605384 0.605384 0.605384
0.724239 0.724239 0.724239
0.803375 0.803375 0.803375
0.855263 0.855263 0.855263
0.896903 0.896903 0.896903
0.930076 0.930076 0.930076
0.954008 0.954008 0.954008
0.967404 0.967404 0.967404
0.974427 0.974427 0.974427
0.981710 0.981710 0.981710
0.984136 0.984136 0.984136
0.988715 0.988715 0.988715
0.987811 0.987811 0.987811
0.986911 0.986911 0.986911
0.986013 0.986013 0.986013
0.992703 0.992703 0.992703
0.093024 0.093024 0.093024
0.093024 0.093024 0.093024
0.093024 0.093024 0.093024
0.093071 0.093071 0.093071
0.093250 0.093250 0.093250
0.093360 0.093360 0.093360
0.093746 0.093746 0.093746
0.095212 0.095212 0.095212
0.096215 0.096215 0.096215
0.098718 0.098718 0.098718
0.111847 0.111847 0.111847
0.136104 0.136104 0.136104
0.166767 0.166767 0.166767
0.222166 0.222166 0.222166
0.316571 0.316571 0.316571
0.402635 0.402635 0.402635
0.491361 0.491361 0.491361
0.600545 0.600545 0.600545
0.719000 0.719000 0.719000
0.799134 0.799134 0.799134
0.852045 0.852045 0.852045
0.894545 0.894545 0.894545
0.928409 0.928409 0.928409
0.952982 0.952982 0.952982
0.966497 0.966497 0.966497
0.974054 0.974054 0.974054
0.981339 0.981339 0.981339
0.983994 0.983994 0.983994
0.988540 0.988540 0.988540
0.987651 0.987651 0.987651
0.986764 0.986764 0.986764
0.985878 0.985878 0.985878
0.992647 0.992647 0.992647
0.093079 0.093079 0.093079
0.093079 0.093079 0.093079
0.093082 0.093082 0.093082
0.093093 0.093093 0.093093
0.093243 0.093243 0.093243
0.093355 0.093355 0.093355
0.093825 0.093825 0.093825
0.095762 0.095762 0.095762
0.096980 0.096980 0.096980
0.100327 0.100327 0.100327
0.121671 0.121671 0.121671
0.147471 0.147471 0.147471
0.176850 0.176850 0.176850
0.230078 0.230078 0.230078
0.321458 0.321458 0.321458
0.403162 0.403162 0.403162
0.488055 0.488055 0.488055
0.593703 0.593703 0.593703
0.710891 0.710891 0.710891
0.792131 0.792131 0.792131
0.846572 0.846572 0.846572
0.890476 0.890476 0.890476
0.925501 0.925501 0.925501
0.951175 0.951175 0.951175
0.964897 0.964897 0.964897
0.973396 0.973396 0.973396
0.980682 0.980682 0.980682
0.983742 0.983742 0.983742
0.988223 0.988223 0.988223
0.987360 0.987360 0.987360
0.986497 0.986497 0.986497
0.985633 0.985633 0.985633
0.992544 0.992544 0.992544
0.093290 0.093290 0.093290
0.093288 0.093288 0.093288
0.093293 0.093293 0.093293
0.093306 0.093306 0.093306
0.093333 0.093333 0.093333
0.093365 0.093365 0.093365
0.093817 0.093817 0.093817
0.095833 0.095833 0.095833
0.097373 0.097373 0.097373
0.101869 0.101869 0.101869
0.129814 0.129814 0.129814
0.157292 0.157292 0.157292
0.190010 0.190010 0.190010
0.246122 0.246122 0.246122
0.337987 0.337987 0.337987
0.412003 0.412003 0.412003
0.488943 0.488943 0.488943
0.588650 0.588650 0.588650
0.702584 0.702584 0.702584
0.783662 0.783662 0.783662
0.839501 0.839501 0.839501
0.885058 0.885058 0.885058
0.921544 0.921544 0.921544
0.948668 0.948668 0.948668
0.962671 0.962671 0.962671
0.972479 0.972479 0.972479
0.979757 0.979757 0.979757
0.983389 0.983389 0.983389
0.987758 0.987758 0.987758
0.986933 0.986933 0.986933
0.986105 0.986105 0.986105
0.985275 0.985275 0.985275
0.992393 0.992393 0.992393
0.093483 0.093483 0.093483
0.093467 0.093467 0.093467
0.093460 0.093460 0.093460
0.093443 0.093443 0.093443
0.093436 0.093436 0.093436
0.093489 0.093489 0.093489
0.093894 0.093894 0.093894
0.095933 0.095933 0.095933
0.097451 0.097451 0.097451
0.102673 0.102673 0.102673
0.132805 0.132805 0.132805
0.166025 0.166025 0.166025
0.202699 0.202699 0.202699
0.257950 0.257950 0.257950
0.346990 0.346990 0.346990
0.420804 0.420804 0.420804
0.494640 0.494640 0.494640
0.591880 0.591880 0.591880
0.699234 0.699234 0.699234
0.776344 0.776344 0.776344
0.832228 0.832228 0.832228
0.879089 0.879089 0.879089
0.916734 0.916734 0.916734
0.944207 0.944207 0.944207
0.959998 0.959998 0.959998
0.971377 0.971377 0.971377
0.978626 0.978626 0.978626
0.982562 0.982562 0.982562
0.987149 0.987149 0.987149
0.986373 0.986373 0.986373
0.985589 0.985589 0.985589
0.992555 0.992555 0.992555
0.992192 0.992192 0.992192
0.094946 0.094946 0.094946
0.094966 0.094966 0.094966
0.094908 0.094908 0.094908
0.094721 0.094721 0.094721
0.094530 0.094530 0.094530
0.094523 0.094523 0.094523
0.094758 0.094758 0.094758
0.096376 0.096376 0.096376
0.097882 0.097882 0.097882
0.103030 0.103030 0.103030
0.134559 0.134559 0.134559
0.170999 0.170999 0.170999
0.208995 0.208995 0.208995
0.266987 0.266987 0.266987
0.360803 0.360803 0.360803
0.435321 0.435321 0.435321
0.498330 0.498330 0.498330
0.587330 0.587330 0.587330
0.693449 0.693449 0.693449
0.770079 0.770079 0.770079
0.826397 0.826397 0.826397
0.873954 0.873954 0.873954
0.910910 0.910910 0.910910
0.939366 0.939366 0.939366
0.957190 0.957190 0.957190
0.970183 0.970183 0.970183
0.977400 0.977400 0.977400
0.981557 0.981557 0.981557
0.986406 0.986406 0.986406
0.985684 0.985684 0.985684
0.984953 0.984953 0.984953
0.992290 0.992290 0.992290
0.991662 0.991662 0.991662
0.099730 0.099730 0.099730
0.099781 0.099781 0.099781
0.099939 0.099939 0.099939
0.098994 0.098994 0.098994
0.098182 0.098182 0.098182
0.097868 0.097868 0.097868
0.098112 0.098112 0.098112
0.099047 0.099047 0.099047
0.099135 0.099135 0.099135
0.104293 0.104293 0.104293
0.137018 0.137018 0.137018
0.172521 0.172521 0.172521
0.211964 0.211964 0.211964
0.273254 0.273254 0.273254
0.370581 0.370581 0.370581
0.440701 0.440701 0.440701
0.504620 0.504620 0.504620
0.593332 0.593332 0.593332
0.693653 0.693653 0.693653
0.764200 0.764200 0.764200
0.819280 0.819280 0.819280
0.865989 0.865989 0.865989
0.904907 0.904907 0.904907
0.934718 0.934718 0.934718
0.954767 0.954767 0.954767
0.968230 0.968230 0.968230
0.976272 0.976272 0.976272
0.980719 0.980719 0.980719
0.985552 0.985552 0.985552
0.984881 0.984881 0.984881
0.984209 0.984209 0.984209
0.991731 0.991731 0.991731
0.991016 0.991016 0.991016
0.106947 0.106947 0.106947
0.107098 0.107098 0.107098
0.106066 0.106066 0.106066
0.104177 0.104177 0.104177
0.102441 0.102441 0.102441
0.101230 0.101230 0.101230
0.101159 0.101159 0.101159
0.102112 0.102112 0.102112
0.104362 0.104362 0.104362
0.109827 0.109827 0.109827
0.143144 0.143144 0.143144
0.177277 0.177277 0.177277
0.216231 0.216231 0.216231
0.277242 0.277242 0.277242
0.376424 0.376424 0.376424
0.446874 0.446874 0.446874
0.512058 0.512058 0.512058
0.598083 0.598083 0.598083
0.694227 0.694227 0.694227
0.762664 0.762664 0.762664
0.816686 0.816686 0.816686
0.860460 0.860460 0.860460
0.899203 0.899203 0.899203
0.929572 0.929572 0.929572
0.951450 0.951450 0.951450
0.965573 0.965573 0.965573
0.975185 0.975185 0.975185
0.980297 0.980297 0.980297
0.985068 0.985068 0.985068
0.983991 0.983991 0.983991
0.983371 0.983371 0.983371
0.990942 0.990942 0.990942
0.990282 0.990282 0.990282
0.137715 0.137715 0.137715
0.136452 0.136452 0.136452
0.131694 0.131694 0.131694
0.127466 0.127466 0.127466
0.122566 0.122566 0.122566
0.118990 0.118990 0.118990
0.117141 0.117141 0.117141
0.117866 0.117866 0.117866
0.121557 0.121557 0.121557
0.128447 0.128447 0.128447
0.159651 0.159651 0.159651
0.186844 0.186844 0.186844
0.223353 0.223353 0.223353
0.282725 0.282725 0.282725
0.382759 0.382759 0.382759
0.452778 0.452778 0.452778
0.518193 0.518193 0.518193
0.603404 0.603404 0.603404
0.700338 0.700338 0.700338
0.763881 0.763881 0.763881
0.813456 0.813456 0.813456
0.856698 0.856698 0.856698
0.895814 0.895814 0.895814
0.925908 0.925908 0.925908
0.948776 0.948776 0.948776
0.962910 0.962910 0.962910
0.973874 0.973874 0.973874
0.979094 0.979094 0.979094
0.984045 0.984045 0.984045
0.986017 0.986017 0.986017
0.988031 0.988031 0.988031
0.990074 0.990074 0.990074
0.989472 0.989472 0.989472
0.211348 0.211348 0.211348
0.208649 0.208649 0.208649
0.201089 0.201089 0.201089
0.194877 0.194877 0.194877
0.185761 0.185761 0.185761
0.177405 0.177405 0.177405
0.172795 0.172795 0.172795
0.171555 0.171555 0.171555
0.174829 0.174829 0.174829
0.183036 0.183036 0.183036
0.197247 0.197247 0.197247
0.214011 0.214011 0.214011
0.236016 0.236016 0.236016
0.293302 0.293302 0.293302
0.392642 0.392642 0.392642
0.459772 0.459772 0.459772
0.524527 0.524527 0.524527
0.610607 0.610607 0.610607
0.708262 0.708262 0.708262
0.765892 0.765892 0.765892
0.814229 0.814229 0.814229
0.856024 0.856024 0.856024
0.892854 0.892854 0.892854
0.922650 0.922650 0.922650
0.945880 0.945880 0.945880
0.961232 0.961232 0.961232
0.972905 0.972905 0.972905
0.978204 0.978204 0.978204
0.983594 0.983594 0.983594
0.985565 0.985565 0.985565
0.987257 0.987257 0.987257
0.989140 0.989140 0.989140
0.988599 0.988599 0.988599
0.272135 0.272135 0.272135
0.269362 0.269362 0.269362
0.261210 0.261210 0.261210
0.253494 0.253494 0.253494
0.242400 0.242400 0.242400
0.233204 0.233204 0.233204
0.227274 0.227274 0.227274
0.223051 0.223051 0.223051
0.223933 0.223933 0.223933
0.230099 0.230099 0.230099
0.241835 0.241835 0.241835
0.260074 0.260074 0.260074
0.270232 0.270232 0.270232
0.310570 0.310570 0.310570
0.408245 0.408245 0.408245
0.469858 0.469858 0.469858
0.534352 0.534352 0.534352
0.620934 0.620934 0.620934
0.716597 0.716597 0.716597
0.770636 0.770636 0.770636
0.817470 0.817470 0.817470
0.856424 0.856424 0.856424
0.892542 0.892542 0.892542
0.921344 0.921344 0.921344
0.943356 0.943356 0.943356
0.959247 0.959247 0.959247
0.972031 0.972031 0.972031
0.977670 0.977670 0.977670
0.983371 0.983371 0.983371
0.985350 0.985350 0.985350
0.986770 0.986770 0.986770
0.988158 0.988158 0.988158
0.987676 0.987676 0.987676
0.332115 0.332115 0.332115
0.329274 0.329274 0.329274
0.320569 0.320569 0.320569
0.310699 0.310699 0.310699
0.300299 0.300299 0.300299
0.290120 0.290120 0.290120
0.280690 0.280690 0.280690
0.274849 0.274849 0.274849
0.273831 0.273831 0.273831
0.277304 0.277304 0.277304
0.286539 0.286539 0.286539
0.301335 0.301335 0.301335
0.324176 0.324176 0.324176
0.358134 0.358134 0.358134
0.431549 0.431549 0.431549
0.487419 0.487419 0.487419
0.549313 0.549313 0.549313
0.633394 0.633394 0.633394
0.728093 0.728093 0.728093
0.777611 0.777611 0.777611
0.821072 0.821072 0.821072
0.859823 0.859823 0.859823
0.894424 0.894424 0.894424
0.920721 0.920721 0.920721
0.942373 0.942373 0.942373
0.958559 0.958559 0.958559
0.971350 0.971350 0.971350
0.976906 0.976906 0.976906
0.982802 0.982802 0.982802
0.985272 0.985272 0.985272
0.987487 0.987487 0.987487
0.987144 0.987144 0.987144
0.986719 0.986719 0.986719
0.421613 0.421613 0.421613
0.418685 0.418685 0.418685
0.409460 0.409460 0.409460
0.397795 0.397795 0.397795
0.389157 0.389157 0.389157
0.375655 0.375655 0.375655
0.364000 0.364000 0.364000
0.356665 0.356665 0.356665
0.353191 0.353191 0.353191
0.353689 0.353689 0.353689
0.360384 0.360384 0.360384
0.373961 0.373961 0.373961
0.393780 0.393780 0.393780
0.422280 0.422280 0.422280
0.485137 0.485137 0.485137
0.514676 0.514676 0.514676
0.569940 0.569940 0.569940
0.648093 0.648093 0.648093
0.742106 0.742106 0.742106
0.786951 0.786951 0.786951
0.827041 0.827041 0.827041
0.865329 0.865329 0.865329
0.897130 0.897130 0.897130
0.922063 0.922063 0.922063
0.942806 0.942806 0.942806
0.958092 0.958092 0.958092
0.971016 0.971016 0.971016
0.976666 0.976666 0.976666
0.982396 0.982396 0.982396
0.985057 0.985057 0.985057
0.987190 0.987190 0.987190
0.988948 0.988948 0.988948
0.990524 0.990524 0.990524
0.534779 0.534779 0.534779
0.532291 0.532291 0.532291
0.524282 0.524282 0.524282
0.513387 0.513387 0.513387
0.507017 0.507017 0.507017
0.492642 0.492642 0.492642
0.482945 0.482945 0.482945
0.474382 0.474382 0.474382
0.469295 0.469295 0.469295
0.468449 0.468449 0.468449
0.472958 0.472958 0.472958
0.482149 0.482149 0.482149
0.497647 0.497647 0.497647
0.519547 0.519547 0.519547
0.548815 0.548815 0.548815
0.574145 0.574145 0.574145
0.605750 0.605750 0.605750
0.669764 0.669764 0.669764
0.757076 0.757076 0.757076
0.798398 0.798398 0.798398
0.834840 0.834840 0.834840
0.872760 0.872760 0.872760
0.901892 0.901892 0.901892
0.924930 0.924930 0.924930
0.944340 0.944340 0.944340
0.958828 0.958828 0.958828
0.971021 0.971021 0.971021
0.976450 0.976450 0.976450
0.982239 0.982239 0.982239
0.985097 0.985097 0.985097
0.987172 0.987172 0.987172
0.988787 0.988787 0.988787
0.989784 0.989784 0.989784
0.614239 0.614239 0.614239
0.611843 0.611843 0.611843
0.603996 0.603996 0.603996
0.592705 0.592705 0.592705
0.583841 0.583841 0.583841
0.572043 0.572043 0.572043
0.564324 0.564324 0.564324
0.551830 0.551830 0.551830
0.545007 0.545007 0.545007
0.543413 0.543413 0.543413
0.544846 0.544846 0.544846
0.551383 0.551383 0.551383
0.564848 0.564848 0.564848
0.584105 0.584105 0.584105
0.609935 0.609935 0.609935
0.639897 0.639897 0.639897
0.663163 0.663163 0.663163
0.707053 0.707053 0.707053
0.773659 0.773659 0.773659
0.812089 0.812089 0.812089
0.844328 0.844328 0.844328
0.879893 0.879893 0.879893
0.908243 0.908243 0.908243
0.928753 0.928753 0.928753
0.947550 0.947550 0.947550
0.960352 0.960352 0.960352
0.971337 0.971337 0.971337
0.976727 0.976727 0.976727
0.982316 0.982316 0.982316
0.985046 0.985046 0.985046
0.987229 0.987229 0.987229
0.989070 0.989070 0.989070
0.989694 0.989694 0.989694
0.685169 0.685169 0.685169
0.683261 0.683261 0.683261
0.676919 0.676919 0.676919
0.667383 0.667383 0.667383
0.658558 0.658558 0.658558
0.651256 0.651256 0.651256
0.639984 0.639984 0.639984
0.631285 0.631285 0.631285
0.625337 0.625337 0.625337
0.621734 0.621734 0.621734
0.621784 0.621784 0.621784
0.625959 0.625959 0.625959
0.635365 0.635365 0.635365
0.648932 0.648932 0.648932
0.668323 0.668323 0.668323
0.693497 0.693497 0.693497
0.724399 0.724399 0.724399
0.759823 0.759823 0.759823
0.802479 0.802479 0.802479
0.824520 0.824520 0.824520
0.855901 0.855901 0.855901
0.887809 0.887809 0.887809
0.915801 0.915801 0.915801
0.933801 0.933801 0.933801
0.950771 0.950771 0.950771
0.962652 0.962652 0.962652
0.972108 0.972108 0.972108
0.977201 0.977201 0.977201
0.982656 0.982656 0.982656
0.985220 0.985220 0.985220
0.987330 0.987330 0.987330
0.989069 0.989069 0.989069
0.990674 0.990674 0.990674
0.763190 0.763190 0.763190
0.762018 0.762018 0.762018
0.758075 0.758075 0.758075
0.751945 0.751945 0.751945
0.744468 0.744468 0.744468
0.740293 0.740293 0.740293
0.726021 0.726021 0.726021
0.719732 0.719732 0.719732
0.712156 0.712156 0.712156
0.706667 0.706667 0.706667
0.705772 0.705772 0.705772
0.708718 0.708718 0.708718
0.716767 0.716767 0.716767
0.727652 0.727652 0.727652
0.745255 0.745255 0.745255
0.760906 0.760906 0.760906
0.779396 0.779396 0.779396
0.801674 0.801674 0.801674
0.832504 0.832504 0.832504
0.847767 0.847767 0.847767
0.869252 0.869252 0.869252
0.897268 0.897268 0.897268
0.922811 0.922811 0.922811
0.939773 0.939773 0.939773
0.954420 0.954420 0.954420
0.965821 0.965821 0.965821
0.973256 0.973256 0.973256
0.978087 0.978087 0.978087
0.983318 0.983318 0.983318
0.985430 0.985430 0.985430
0.987556 0.987556 0.987556
0.989391 0.989391 0.989391
0.990851 0.990851 0.990851
0.823778 0.823778 0.823778
0.823034 0.823034 0.823034
0.820513 0.820513 0.820513
0.816508 0.816508 0.816508
0.812152 0.812152 0.812152
0.809755 0.809755 0.809755
0.803434 0.803434 0.803434
0.798849 0.798849 0.798849
0.793421 0.793421 0.793421
0.791155 0.791155 0.791155
0.790144 0.790144 0.790144
0.791548 0.791548 0.791548
0.794895 0.794895 0.794895
0.801329 0.801329 0.801329
0.809992 0.809992 0.809992
0.819952 0.819952 0.819952
0.831533 0.831533 0.831533
0.845446 0.845446 0.845446
0.862206 0.862206 0.862206
0.875558 0.875558 0.875558
0.889621 0.889621 0.889621
0.908106 0.908106 0.908106
0.930287 0.930287 0.930287
0.946792 0.946792 0.946792
0.958445 0.958445 0.958445
0.969629 0.969629 0.969629
0.974723 0.974723 0.974723
0.979367 0.979367 0.979367
0.983736 0.983736 0.983736
0.985804 0.985804 0.985804
0.987896 0.987896 0.987896
0.989625 0.989625 0.989625
0.991246 0.991246 0.991246
0.858894 0.858894 0.858894
0.858219 0.858219 0.858219
0.855912 0.855912 0.855912
0.852165 0.852165 0.852165
0.847836 0.847836 0.847836
0.844687 0.844687 0.844687
0.841299 0.841299 0.841299
0.836398 0.836398 0.836398
0.833746 0.833746 0.833746
0.831801 0.831801 0.831801
0.829761 0.829761 0.829761
0.829995 0.829995 0.829995
0.832027 0.832027 0.832027
0.835906 0.835906 0.835906
0.842007 0.842007 0.842007
0.850205 0.850205 0.850205
0.860604 0.860604 0.860604
0.873434 0.873434 0.873434
0.884778 0.884778 0.884778
0.898054 0.898054 0.898054
0.910669 0.910669 0.910669
0.925438 0.925438 0.925438
0.939265 0.939265 0.939265
0.952404 0.952404 0.952404
0.963199 0.963199 0.963199
0.971865 0.971865 0.971865
0.976507 0.976507 0.976507
0.980942 0.980942 0.980942
0.984316 0.984316 0.984316
0.986290 0.986290 0.986290
0.988303 0.988303 0.988303
0.990072 0.990072 0.990072
0.991619 0.991619 0.991619
0.889976 0.889976 0.889976
0.889519 0.889519 0.889519
0.887944 0.887944 0.887944
0.885343 0.885343 0.885343
0.882214 0.882214 0.882214
0.879590 0.879590 0.879590
0.878263 0.878263 0.878263
0.873848 0.873848 0.873848
0.872547 0.872547 0.872547
0.868325 0.868325 0.868325
0.867388 0.867388 0.867388
0.867882 0.867882 0.867882
0.868844 0.868844 0.868844
0.871635 0.871635 0.871635
0.876208 0.876208 0.876208
0.881778 0.881778 0.881778
0.888510 0.888510 0.888510
0.897012 0.897012 0.897012
0.907568 0.907568 0.907568
0.918737 0.918737 0.918737
0.928838 0.928838 0.928838
0.940544 0.940544 0.940544
0.951805 0.951805 0.951805
0.958791 0.958791 0.958791
0.968362 0.968362 0.968362
0.974143 0.974143 0.974143
0.978593 0.978593 0.978593
0.982793 0.982793 0.982793
0.985035 0.985035 0.985035
0.986883 0.986883 0.986883
0.988842 0.988842 0.988842
0.990545 0.990545 0.990545
0.992100 0.992100 0.992100
0.918069 0.918069 0.918069
0.917776 0.917776 0.917776
0.916442 0.916442 0.916442
0.914190 0.914190 0.914190
0.911417 0.911417 0.911417
0.908918 0.908918 0.908918
0.908139 0.908139 0.908139
0.904544 0.904544 0.904544
0.902478 0.902478 0.902478
0.900663 0.900663 0.900663
0.900156 0.900156 0.900156
0.899319 0.899319 0.899319
0.900257 0.900257 0.900257
0.902347 0.902347 0.902347
0.905547 0.905547 0.905547
0.910359 0.910359 0.910359
0.916387 0.916387 0.916387
0.922359 0.922359 0.922359
0.929132 0.929132 0.929132
0.937339 0.937339 0.937339
0.946092 0.946092 0.946092
0.953334 0.953334 0.953334
0.961127 0.961127 0.961127
0.967832 0.967832 0.967832
0.972403 0.972403 0.972403
0.976569 0.976569 0.976569
0.980931 0.980931 0.980931
0.984035 0.984035 0.984035
0.985885 0.985885 0.985885
0.987621 0.987621 0.987621
0.989469 0.989469 0.989469
0.991136 0.991136 0.991136
0.992401 0.992401 0.992401
0.939069 0.939069 0.939069
0.938818 0.938818 0.938818
0.937947 0.937947 0.937947
0.936481 0.936481 0.936481
0.934636 0.934636 0.934636
0.932869 0.932869 0.932869
0.932010 0.932010 0.932010
0.930491 0.930491 0.930491
0.928507 0.928507 0.928507
0.928119 0.928119 0.928119
0.926665 0.926665 0.926665
0.926708 0.926708 0.926708
0.927622 0.927622 0.927622
0.928429 0.928429 0.928429
0.930376 0.930376 0.930376
0.933434 0.933434 0.933434
0.937572 0.937572 0.937572
0.942662 0.942662 0.942662
0.948591 0.948591 0.948591
0.953174 0.953174 0.953174
0.958464 0.958464 0.958464
0.964217 0.964217 0.964217
0.970290 0.970290 0.970290
0.973268 0.973268 0.973268
0.976436 0.976436 0.976436
0.979791 0.979791 0.979791
0.983353 0.983353 0.983353
0.985095 0.985095 0.985095
0.986866 0.986866 0.986866
0.988490 0.988490 0.988490
0.990211 0.990211 0.990211
0.991822 0.991822 0.991822
0.992681 0.992681 0.992681
0.954945 0.954945 0.954945
0.954799 0.954799 0.954799
0.954290 0.954290 0.954290
0.953421 0.953421 0.953421
0.952294 0.952294 0.952294
0.951133 0.951133 0.951133
0.950347 0.950347 0.950347
0.949855 0.949855 0.949855
0.948352 0.948352 0.948352
0.947839 0.947839 0.947839
0.946495 0.946495 0.946495
0.946709 0.946709 0.946709
0.946470 0.946470 0.946470
0.947682 0.947682 0.947682
0.949218 0.949218 0.949218
0.950736 0.950736 0.950736
0.952979 0.952979 0.952979
0.955876 0.955876 0.955876
0.959432 0.959432 0.959432
0.963596 0.963596 0.963596
0.968405 0.968405 0.968405
0.971766 0.971766 0.971766
0.974528 0.974528 0.974528
0.977522 0.977522 0.977522
0.980453 0.980453 0.980453
0.983434 0.983434 0.983434
0.984868 0.984868 0.984868
0.986230 0.986230 0.986230
0.987928 0.987928 0.987928
0.989472 0.989472 0.989472
0.991076 0.991076 0.991076
0.992357 0.992357 0.992357
0.993010 0.993010 0.993010
0.965957 0.965957 0.965957
0.965834 0.965834 0.965834
0.965405 0.965405 0.965405
0.964669 0.964669 0.964669
0.963703 0.963703 0.963703
0.962678 0.962678 0.962678
0.961911 0.961911 0.961911
0.961963 0.961963 0.961963
0.960496 0.960496 0.960496
0.959837 0.959837 0.959837
0.959640 0.959640 0.959640
0.959208 0.959208 0.959208
0.959480 0.959480 0.959480
0.960189 0.960189 0.960189
0.961005 0.961005 0.961005
0.962564 0.962564 0.962564
0.964699 0.964699 0.964699
0.967331 0.967331 0.967331
0.970227 0.970227 0.970227
0.972001 0.972001 0.972001
0.973998 0.973998 0.973998
0.976247 0.976247 0.976247
0.978725 0.978725 0.978725
0.981502 0.981502 0.981502
0.983808 0.983808 0.983808
0.985124 0.985124 0.985124
0.986558 0.986558 0.986558
0.987755 0.987755 0.987755
0.989077 0.989077 0.989077
0.990545 0.990545 0.990545
0.992049 0.992049 0.992049
0.992752 0.992752 0.992752
0.993364 0.993364 0.993364
0.972928 0.972928 0.972928
0.972881 0.972881 0.972881
0.972717 0.972717 0.972717
0.972434 0.972434 0.972434
0.972059 0.972059 0.972059
0.971655 0.971655 0.971655
0.971335 0.971335 0.971335
0.971305 0.971305 0.971305
0.970972 0.970972 0.970972
0.970604 0.970604 0.970604
0.970805 0.970805 0.970805
0.970460 0.970460 0.970460
0.970768 0.970768 0.970768
0.970840 0.970840 0.970840
0.971366 0.971366 0.971366
0.972013 0.972013 0.972013
0.972828 0.972828 0.972828
0.973919 0.973919 0.973919
0.975243 0.975243 0.975243
0.976828 0.976828 0.976828
0.978652 0.978652 0.978652
0.980720 0.980720 0.980720
0.983001 0.983001 0.983001
0.984272 0.984272 0.984272
0.985507 0.985507 0.985507
0.986788 0.986788 0.986788
0.988230 0.988230 0.988230
0.989372 0.989372 0.989372
0.990624 0.990624 0.990624
0.991732 0.991732 0.991732
0.992592 0.992592 0.992592
0.993186 0.993186 0.993186
0.993771 0.993771 0.993771
0.978862 0.978862 0.978862
0.978817 0.978817 0.978817
0.978661 0.978661 0.978661
0.978386 0.978386 0.978386
0.978011 0.978011 0.978011
0.977579 0.977579 0.977579
0.977177 0.977177 0.977177
0.976969 0.976969 0.976969
0.976800 0.976800 0.976800
0.976334 0.976334 0.976334
0.976256 0.976256 0.976256
0.976174 0.976174 0.976174
0.976170 0.976170 0.976170
0.976388 0.976388 0.976388
0.976755 0.976755 0.976755
0.977256 0.977256 0.977256
0.978090 0.978090 0.978090
0.979074 0.979074 0.979074
0.980205 0.980205 0.980205
0.981618 0.981618 0.981618
0.983289 0.983289 0.983289
0.984153 0.984153 0.984153
0.985122 0.985122 0.985122
0.986187 0.986187 0.986187
0.987347 0.987347 0.987347
