LUTs/trix_modern/TriX_NoFilter_Soft.cube
TITLE "Tri-X NoFilter Soft"
# Adobe RGB in/out. REPLACES AgX. Tri-X NoFilter Soft.
LUT_3D_SIZE 5
DOMAIN_MIN 0.0 0.0 0.0
DOMAIN_MAX 1.0 1.0 1.0
0.093873 0.093873 0.093873
0.119790 0.119790 0.119790
0.340070 0.340070 0.340070
0.524945 0.524945 0.524945
0.803048 0.803048 0.803048
0.178313 0.178313 0.178313
0.171920 0.171920 0.171920
0.344838 0.344838 0.344838
0.504022 0.504022 0.504022
0.781373 0.781373 0.781373
0.391665 0.391665 0.391665
0.376535 0.376535 0.376535
0.399891 0.399891 0.399891
0.505214 0.505214 0.505214
0.652097 0.652097 0.652097
0.527485 0.527485 0.527485
0.521112 0.521112 0.521112
0.526009 0.526009 0.526009
0.570335 0.570335 0.570335
0.644045 0.644045 0.644045
0.572385 0.572385 0.572385
0.606325 0.606325 0.606325
0.625776 0.625776 0.625776
0.654464 0.654464 0.654464
0.709374 0.709374 0.709374
0.249027 0.249027 0.249027
0.543971 0.543971 0.543971
0.505596 0.505596 0.505596
0.638830 0.638830 0.638830
0.794915 0.794915 0.794915
0.260194 0.260194 0.260194
0.233250 0.233250 0.233250
0.388605 0.388605 0.388605
0.550503 0.550503 0.550503
0.772542 0.772542 0.772542
0.426870 0.426870 0.426870
0.406441 0.406441 0.406441
0.415782 0.415782 0.415782
0.518297 0.518297 0.518297
0.702352 0.702352 0.702352
0.548674 0.548674 0.548674
0.541013 0.541013 0.541013
0.541802 0.541802 0.541802
0.582348 0.582348 0.582348
0.656376 0.656376 0.656376
0.601552 0.601552 0.601552
0.632436 0.632436 0.632436
0.636583 0.636583 0.636583
0.665591 0.665591 0.665591
0.717639 0.717639 0.717639
0.564334 0.564334 0.564334
0.803365 0.803365 0.803365
0.826247 0.826247 0.826247
0.811398 0.811398 0.811398
0.845617 0.845617 0.845617
0.590688 0.590688 0.590688
0.674222 0.674222 0.674222
0.686222 0.686222 0.686222
0.751084 0.751084 0.751084
0.816194 0.816194 0.816194
0.521071 0.521071 0.521071
0.505875 0.505875 0.505875
0.499564 0.499564 0.499564
0.625139 0.625139 0.625139
0.779600 0.779600 0.779600
0.613104 0.613104 0.613104
0.605060 0.605060 0.605060
0.600948 0.600948 0.600948
0.633132 0.633132 0.633132
0.741736 0.741736 0.741736
0.687846 0.687846 0.687846
0.689274 0.689274 0.689274
0.683403 0.683403 0.683403
0.708472 0.708472 0.708472
0.759500 0.759500 0.759500
0.871845 0.871845 0.871845
0.926334 0.926334 0.926334
0.941317 0.941317 0.941317
0.923575 0.923575 0.923575
0.901655 0.901655 0.901655
0.894212 0.894212 0.894212
0.926660 0.926660 0.926660
0.914798 0.914798 0.914798
0.893081 0.893081 0.893081
0.883416 0.883416 0.883416
0.734544 0.734544 0.734544
0.748887 0.748887 0.748887
0.764047 0.764047 0.764047
0.799437 0.799437 0.799437
0.849511 0.849511 0.849511
0.714124 0.714124 0.714124
0.712534 0.712534 0.712534
0.718576 0.718576 0.718576
0.737280 0.737280 0.737280
0.827842 0.827842 0.827842
0.717486 0.717486 0.717486
0.720528 0.720528 0.720528
0.746621 0.746621 0.746621
0.770905 0.770905 0.770905
0.849044 0.849044 0.849044
0.975455 0.975455 0.975455
0.976174 0.976174 0.976174
0.980555 0.980555 0.980555
0.975828 0.975828 0.975828
0.947836 0.947836 0.947836
0.977497 0.977497 0.977497
0.978342 0.978342 0.978342
0.980483 0.980483 0.980483
0.964528 0.964528 0.964528
0.938703 0.938703 0.938703
0.942260 0.942260 0.942260
0.937586 0.937586 0.937586
0.925851 0.925851 0.925851
0.921181 0.921181 0.921181
0.920636 0.920636 0.920636
0.890037 0.890037 0.890037
0.886368 0.886368 0.886368
0.878116 0.878116 0.878116
0.883937 0.883937 0.883937
0.900989 0.900989 0.900989
0.788969 0.788969 0.788969
0.813060 0.813060 0.813060
0.859587 0.859587 0.859587
0.894911 0.894911 0.894911
0.912373 0.912373 0.912373
