LUTs/trix_modern/TriX_NoFilter_Soft.cube
TITLE "Tri-X NoFilter Soft"
# Adobe RGB in/out. REPLACES AgX. Tri-X NoFilter Soft.
LUT_3D_SIZE 33
DOMAIN_MIN 0.0 0.0 0.0
DOMAIN_MAX 1.0 1.0 1.0
0.093873 0.093873 0.093873
0.093873 0.093873 0.093873
0.093873 0.093873 0.093873
0.093873 0.093873 0.093873
0.093980 0.093980 0.093980
0.094113 0.094113 0.094113
0.096549 0.096549 0.096549
0.107920 0.107920 0.107920
0.119790 0.119790 0.119790
0.140742 0.140742 0.140742
0.178016 0.178016 0.178016
0.204917 0.204917 0.204917
0.228380 0.228380 0.228380
0.257479 0.257479 0.257479
0.291805 0.291805 0.291805
0.315837 0.315837 0.315837
0.340070 0.340070 0.340070
0.366570 0.366570 0.366570
0.396040 0.396040 0.396040
0.420062 0.420062 0.420062
0.442360 0.442360 0.442360
0.463935 0.463935 0.463935
0.485859 0.485859 0.485859
0.507385 0.507385 0.507385
0.524945 0.524945 0.524945
0.542295 0.542295 0.542295
0.567702 0.567702 0.567702
0.602169 0.602169 0.602169
0.740438 0.740438 0.740438
0.733643 0.733643 0.733643
0.726941 0.726941 0.726941
0.720311 0.720311 0.720311
0.803048 0.803048 0.803048
0.093873 0.093873 0.093873
0.093873 0.093873 0.093873
0.093873 0.093873 0.093873
0.093865 0.093865 0.093865
0.094021 0.094021 0.094021
0.094154 0.094154 0.094154
0.096891 0.096891 0.096891
0.109304 0.109304 0.109304
0.120997 0.120997 0.120997
0.141932 0.141932 0.141932
0.178969 0.178969 0.178969
0.205661 0.205661 0.205661
0.228793 0.228793 0.228793
0.257681 0.257681 0.257681
0.291802 0.291802 0.291802
0.315688 0.315688 0.315688
0.339822 0.339822 0.339822
0.366246 0.366246 0.366246
0.395674 0.395674 0.395674
0.419676 0.419676 0.419676
0.441960 0.441960 0.441960
0.463550 0.463550 0.463550
0.485485 0.485485 0.485485
0.507011 0.507011 0.507011
0.524592 0.524592 0.524592
0.541928 0.541928 0.541928
0.567163 0.567163 0.567163
0.600876 0.600876 0.600876
0.740071 0.740071 0.740071
0.733309 0.733309 0.733309
0.726638 0.726638 0.726638
0.720034 0.720034 0.720034
0.802799 0.802799 0.802799
0.093873 0.093873 0.093873
0.093873 0.093873 0.093873
0.093873 0.093873 0.093873
0.093856 0.093856 0.093856
0.094077 0.094077 0.094077
0.094263 0.094263 0.094263
0.098626 0.098626 0.098626
0.116677 0.116677 0.116677
0.126657 0.126657 0.126657
0.147323 0.147323 0.147323
0.183250 0.183250 0.183250
0.209014 0.209014 0.209014
0.230706 0.230706 0.230706
0.258743 0.258743 0.258743
0.292013 0.292013 0.292013
0.315337 0.315337 0.315337
0.339067 0.339067 0.339067
0.365192 0.365192 0.365192
0.394447 0.394447 0.394447
0.418351 0.418351 0.418351
0.440571 0.440571 0.440571
0.462204 0.462204 0.462204
0.484176 0.484176 0.484176
0.505698 0.505698 0.505698
0.523349 0.523349 0.523349
0.540644 0.540644 0.540644
0.565300 0.565300 0.565300
0.596463 0.596463 0.596463
0.738761 0.738761 0.738761
0.732119 0.732119 0.732119
0.725554 0.725554 0.725554
0.719047 0.719047 0.719047
0.801912 0.801912 0.801912
0.093868 0.093868 0.093868
0.093870 0.093870 0.093870
0.093876 0.093876 0.093876
0.093888 0.093888 0.093888
0.094070 0.094070 0.094070
0.094256 0.094256 0.094256
0.099825 0.099825 0.099825
0.121725 0.121725 0.121725
0.135039 0.135039 0.135039
0.156800 0.156800 0.156800
0.193924 0.193924 0.193924
0.217735 0.217735 0.217735
0.236080 0.236080 0.236080
0.262125 0.262125 0.262125
0.293356 0.293356 0.293356
0.315462 0.315462 0.315462
0.338251 0.338251 0.338251
0.363700 0.363700 0.363700
0.392545 0.392545 0.392545
0.416165 0.416165 0.416165
0.438214 0.438214 0.438214
0.459889 0.459889 0.459889
0.481902 0.481902 0.481902
0.503397 0.503397 0.503397
0.521175 0.521175 0.521175
0.538410 0.538410 0.538410
0.562153 0.562153 0.562153
0.589294 0.589294 0.589294
0.736388 0.736388 0.736388
0.729959 0.729959 0.729959
0.723587 0.723587 0.723587
0.717253 0.717253 0.717253
0.800298 0.800298 0.800298
0.094148 0.094148 0.094148
0.094148 0.094148 0.094148
0.094155 0.094155 0.094155
0.094176 0.094176 0.094176
0.094225 0.094225 0.094225
0.094278 0.094278 0.094278
0.099783 0.099783 0.099783
0.122538 0.122538 0.122538
0.138782 0.138782 0.138782
0.162890 0.162890 0.162890
0.202160 0.202160 0.202160
0.224364 0.224364 0.224364
0.242892 0.242892 0.242892
0.268856 0.268856 0.268856
0.297865 0.297865 0.297865
0.317648 0.317648 0.317648
0.338502 0.338502 0.338502
0.362619 0.362619 0.362619
0.390605 0.390605 0.390605
0.413530 0.413530 0.413530
0.435184 0.435184 0.435184
0.456824 0.456824 0.456824
0.478830 0.478830 0.478830
0.500237 0.500237 0.500237
0.518190 0.518190 0.518190
0.535373 0.535373 0.535373
0.558031 0.558031 0.558031
0.580682 0.580682 0.580682
0.732926 0.732926 0.732926
0.726802 0.726802 0.726802
0.720708 0.720708 0.720708
0.714589 0.714589 0.714589
0.797926 0.797926 0.797926
0.096662 0.096662 0.096662
0.096577 0.096577 0.096577
0.096517 0.096517 0.096517
0.096428 0.096428 0.096428
0.096211 0.096211 0.096211
0.096653 0.096653 0.096653
0.101185 0.101185 0.101185
0.123980 0.123980 0.123980
0.139565 0.139565 0.139565
0.165232 0.165232 0.165232
0.205306 0.205306 0.205306
0.229633 0.229633 0.229633
0.249041 0.249041 0.249041
0.273082 0.273082 0.273082
0.300346 0.300346 0.300346
0.319853 0.319853 0.319853
0.339991 0.339991 0.339991
0.363412 0.363412 0.363412
0.389878 0.389878 0.389878
0.411289 0.411289 0.411289
0.432101 0.432101 0.432101
0.453484 0.453484 0.453484
0.475329 0.475329 0.475329
0.496511 0.496511 0.496511
0.514665 0.514665 0.514665
0.531822 0.531822 0.531822
0.553393 0.553393 0.553393
0.572216 0.572216 0.572216
0.728411 0.728411 0.728411
0.722671 0.722671 0.722671
0.716931 0.716931 0.716931
0.747807 0.747807 0.747807
0.794804 0.794804 0.794804
0.115047 0.115047 0.115047
0.115421 0.115421 0.115421
0.114676 0.114676 0.114676
0.111871 0.111871 0.111871
0.109033 0.109033 0.109033
0.108713 0.108713 0.108713
0.111920 0.111920 0.111920
0.129039 0.129039 0.129039
0.142673 0.142673 0.142673
0.166735 0.166735 0.166735
0.207305 0.207305 0.207305
0.232719 0.232719 0.232719
0.252161 0.252161 0.252161
0.276238 0.276238 0.276238
0.304184 0.304184 0.304184
0.323738 0.323738 0.323738
0.341041 0.341041 0.341041
0.362529 0.362529 0.362529
0.388609 0.388609 0.388609
0.409408 0.409408 0.409408
0.429698 0.429698 0.429698
0.450708 0.450708 0.450708
0.472045 0.472045 0.472045
0.492718 0.492718 0.492718
0.511045 0.511045 0.511045
0.528209 0.528209 0.528209
0.548791 0.548791 0.548791
0.565057 0.565057 0.565057
0.722936 0.722936 0.722936
0.717632 0.717632 0.717632
0.712132 0.712132 0.712132
0.743367 0.743367 0.743367
0.790964 0.790964 0.790964
0.155573 0.155573 0.155573
0.155966 0.155966 0.155966
0.157155 0.157155 0.157155
0.151302 0.151302 0.151302
0.146208 0.146208 0.146208
0.144195 0.144195 0.144195
0.145302 0.145302 0.145302
0.150643 0.150643 0.150643
0.150750 0.150750 0.150750
0.170809 0.170809 0.170809
0.210117 0.210117 0.210117
0.234074 0.234074 0.234074
0.253963 0.253963 0.253963
0.278575 0.278575 0.278575
0.307010 0.307010 0.307010
0.325449 0.325449 0.325449
0.342771 0.342771 0.342771
0.364045 0.364045 0.364045
0.388833 0.388833 0.388833
0.407549 0.407549 0.407549
0.426772 0.426772 0.426772
0.447414 0.447414 0.447414
0.468746 0.468746 0.468746
0.489193 0.489193 0.489193
0.508018 0.508018 0.508018
0.525201 0.525201 0.525201
0.544928 0.544928 0.544928
0.559972 0.559972 0.559972
0.716698 0.716698 0.716698
0.711579 0.711579 0.711579
0.706441 0.706441 0.706441
0.738158 0.738158 0.738158
0.786462 0.786462 0.786462
0.178313 0.178313 0.178313
0.178598 0.178598 0.178598
0.177214 0.177214 0.177214
0.172517 0.172517 0.172517
0.167663 0.167663 0.167663
0.164171 0.164171 0.164171
0.163783 0.163783 0.163783
0.166056 0.166056 0.166056
0.171920 0.171920 0.171920
0.181347 0.181347 0.181347
0.215948 0.215948 0.215948
0.237294 0.237294 0.237294
0.256485 0.256485 0.256485
0.280233 0.280233 0.280233
0.308923 0.308923 0.308923
0.327497 0.327497 0.327497
0.344838 0.344838 0.344838
0.365319 0.365319 0.365319
0.389186 0.389186 0.389186
0.407242 0.407242 0.407242
0.425868 0.425868 0.425868
0.445226 0.445226 0.445226
0.465679 0.465679 0.465679
0.485365 0.485365 0.485365
0.504022 0.504022 0.504022
0.521830 0.521830 0.521830
0.541672 0.541672 0.541672
0.557528 0.557528 0.557528
0.712262 0.712262 0.712262
0.704812 0.704812 0.704812
0.700091 0.700091 0.700091
0.732298 0.732298 0.732298
0.781373 0.781373 0.781373
0.213470 0.213470 0.213470
0.212404 0.212404 0.212404
0.208204 0.208204 0.208204
0.203748 0.203748 0.203748
0.198397 0.198397 0.198397
0.194542 0.194542 0.194542
0.192441 0.192441 0.192441
0.192948 0.192948 0.192948
0.196460 0.196460 0.196460
0.203456 0.203456 0.203456
0.228118 0.228118 0.228118
0.243105 0.243105 0.243105
0.260321 0.260321 0.260321
0.282448 0.282448 0.282448
0.311054 0.311054 0.311054
0.329552 0.329552 0.329552
0.346668 0.346668 0.346668
0.366790 0.366790 0.366790
0.390925 0.390925 0.390925
0.407934 0.407934 0.407934
0.424695 0.424695 0.424695
0.443830 0.443830 0.443830
0.463984 0.463984 0.463984
0.482756 0.482756 0.482756
0.500889 0.500889 0.500889
0.518557 0.518557 0.518557
0.537896 0.537896 0.537896
0.553495 0.553495 0.553495
0.572674 0.572674 0.572674
0.597361 0.597361 0.597361
0.701384 0.701384 0.701384
0.726938 0.726938 0.726938
0.775322 0.775322 0.775322
0.257355 0.257355 0.257355
0.256092 0.256092 0.256092
0.252505 0.252505 0.252505
0.249488 0.249488 0.249488
0.244806 0.244806 0.244806
0.240179 0.240179 0.240179
0.237454 0.237454 0.237454
0.236549 0.236549 0.236549
0.238102 0.238102 0.238102
0.242335 0.242335 0.242335
0.249332 0.249332 0.249332
0.256983 0.256983 0.256983
0.266577 0.266577 0.266577
0.286227 0.286227 0.286227
0.314154 0.314154 0.314154
0.332005 0.332005 0.332005
0.348609 0.348609 0.348609
0.368723 0.368723 0.368723
0.393144 0.393144 0.393144
0.408938 0.408938 0.408938
0.425307 0.425307 0.425307
0.443805 0.443805 0.443805
0.462548 0.462548 0.462548
0.480497 0.480497 0.480497
0.498624 0.498624 0.498624
0.516587 0.516587 0.516587
0.535184 0.535184 0.535184
0.550535 0.550535 0.550535
0.568352 0.568352 0.568352
0.587297 0.587297 0.587297
0.673110 0.673110 0.673110
0.723345 0.723345 0.723345
0.720549 0.720549 0.720549
0.281799 0.281799 0.281799
0.280875 0.280875 0.280875
0.278112 0.278112 0.278112
0.275442 0.275442 0.275442
0.271470 0.271470 0.271470
0.267795 0.267795 0.267795
0.265045 0.265045 0.265045
0.262958 0.262958 0.262958
0.263127 0.263127 0.263127
0.265622 0.265622 0.265622
0.270305 0.270305 0.270305
0.276542 0.276542 0.276542
0.279638 0.279638 0.279638
0.291923 0.291923 0.291923
0.318698 0.318698 0.318698
0.335315 0.335315 0.335315
0.351461 0.351461 0.351461
0.371432 0.371432 0.371432
0.395489 0.395489 0.395489
0.410816 0.410816 0.410816
0.427026 0.427026 0.427026
0.444262 0.444262 0.444262
0.462651 0.462651 0.462651
0.479785 0.479785 0.479785
0.496907 0.496907 0.496907
0.514348 0.514348 0.514348
0.532891 0.532891 0.532891
0.548817 0.548817 0.548817
0.566098 0.566098 0.566098
0.582082 0.582082 0.582082
0.635237 0.635237 0.635237
0.716188 0.716188 0.716188
0.714901 0.714901 0.714901
0.300129 0.300129 0.300129
0.299332 0.299332 0.299332
0.296865 0.296865 0.296865
0.294015 0.294015 0.294015
0.290925 0.290925 0.290925
0.287789 0.287789 0.287789
0.284775 0.284775 0.284775
0.282817 0.282817 0.282817
0.282315 0.282315 0.282315
0.283225 0.283225 0.283225
0.285916 0.285916 0.285916
0.290204 0.290204 0.290204
0.296676 0.296676 0.296676
0.305982 0.305982 0.305982
0.325144 0.325144 0.325144
0.340395 0.340395 0.340395
0.355521 0.355521 0.355521
0.375044 0.375044 0.375044
0.398705 0.398705 0.398705
0.413416 0.413416 0.413416
0.428909 0.428909 0.428909
0.446043 0.446043 0.446043
0.464024 0.464024 0.464024
0.479593 0.479593 0.479593
0.496421 0.496421 0.496421
0.513755 0.513755 0.513755
0.531211 0.531211 0.531211
0.546675 0.546675 0.546675
0.563808 0.563808 0.563808
0.579900 0.579900 0.579900
0.601566 0.601566 0.601566
0.708487 0.708487 0.708487
0.709245 0.709245 0.709245
0.324533 0.324533 0.324533
0.323810 0.323810 0.323810
0.321512 0.321512 0.321512
0.318564 0.318564 0.318564
0.316342 0.316342 0.316342
0.312761 0.312761 0.312761
0.309544 0.309544 0.309544
0.307431 0.307431 0.307431
0.306338 0.306338 0.306338
0.306299 0.306299 0.306299
0.307935 0.307935 0.307935
0.311421 0.311421 0.311421
0.316404 0.316404 0.316404
0.323403 0.323403 0.323403
0.340615 0.340615 0.340615
0.347822 0.347822 0.347822
0.360874 0.360874 0.360874
0.379278 0.379278 0.379278
0.402479 0.402479 0.402479
0.416825 0.416825 0.416825
0.431901 0.431901 0.431901
0.448762 0.448762 0.448762
0.465863 0.465863 0.465863
0.480928 0.480928 0.480928
0.497051 0.497051 0.497051
0.513423 0.513423 0.513423
0.530518 0.530518 0.530518
0.546076 0.546076 0.546076
0.562446 0.562446 0.562446
0.577584 0.577584 0.577584
0.595639 0.595639 0.595639
0.638861 0.638861 0.638861
0.725340 0.725340 0.725340
0.354912 0.354912 0.354912
0.354313 0.354313 0.354313
0.352377 0.352377 0.352377
0.349721 0.349721 0.349721
0.348170 0.348170 0.348170
0.344545 0.344545 0.344545
0.342022 0.342022 0.342022
0.339704 0.339704 0.339704
0.338278 0.338278 0.338278
0.337909 0.337909 0.337909
0.338934 0.338934 0.338934
0.341117 0.341117 0.341117
0.344897 0.344897 0.344897
0.350148 0.350148 0.350148
0.357029 0.357029 0.357029
0.362670 0.362670 0.362670
0.369570 0.369570 0.369570
0.385248 0.385248 0.385248
0.407565 0.407565 0.407565
0.420888 0.420888 0.420888
0.435709 0.435709 0.435709
0.452359 0.452359 0.452359
0.468902 0.468902 0.468902
0.483440 0.483440 0.483440
0.498528 0.498528 0.498528
0.514584 0.514584 0.514584
0.530768 0.530768 0.530768
0.545618 0.545618 0.545618
0.561958 0.561958 0.561958
0.577283 0.577283 0.577283
0.593238 0.593238 0.593238
0.617925 0.617925 0.617925
0.715969 0.715969 0.715969
0.373643 0.373643 0.373643
0.373114 0.373114 0.373114
0.371377 0.371377 0.371377
0.368861 0.368861 0.368861
0.366884 0.366884 0.366884
0.364193 0.364193 0.364193
0.362398 0.362398 0.362398
0.359390 0.359390 0.359390
0.357679 0.357679 0.357679
0.357209 0.357209 0.357209
0.357382 0.357382 0.357382
0.358774 0.358774 0.358774
0.361754 0.361754 0.361754
0.366002 0.366002 0.366002
0.371611 0.371611 0.371611
0.378678 0.378678 0.378678
0.384279 0.384279 0.384279
0.394970 0.394970 0.394970
0.413567 0.413567 0.413567
0.426216 0.426216 0.426216
0.440262 0.440262 0.440262
0.456600 0.456600 0.456600
0.472874 0.472874 0.472874
0.486697 0.486697 0.486697
0.501324 0.501324 0.501324
0.516704 0.516704 0.516704
0.531853 0.531853 0.531853
0.546572 0.546572 0.546572
0.562234 0.562234 0.562234
0.576713 0.576713 0.576713
0.592498 0.592498 0.592498
0.611174 0.611174 0.611174
0.691103 0.691103 0.691103
0.391665 0.391665 0.391665
0.391196 0.391196 0.391196
0.389635 0.389635 0.389635
0.387278 0.387278 0.387278
0.385096 0.385096 0.385096
0.383282 0.383282 0.383282
0.380417 0.380417 0.380417
0.378149 0.378149 0.378149
0.376535 0.376535 0.376535
0.375555 0.375555 0.375555
0.375462 0.375462 0.375462
0.376352 0.376352 0.376352
0.378590 0.378590 0.378590
0.381897 0.381897 0.381897
0.386585 0.386585 0.386585
0.392602 0.392602 0.392602
0.399891 0.399891 0.399891
0.409535 0.409535 0.409535
0.423321 0.423321 0.423321
0.432118 0.432118 0.432118
0.445750 0.445750 0.445750
0.461507 0.461507 0.461507
0.477566 0.477566 0.477566
0.490921 0.490921 0.490921
0.505214 0.505214 0.505214
0.519766 0.519766 0.519766
0.534178 0.534178 0.534178
0.548072 0.548072 0.548072
0.563306 0.563306 0.563306
0.577733 0.577733 0.577733
0.592487 0.592487 0.592487
0.607936 0.607936 0.607936
0.652097 0.652097 0.652097
0.412384 0.412384 0.412384
0.412005 0.412005 0.412005
0.410731 0.410731 0.410731
0.408679 0.408679 0.408679
0.406480 0.406480 0.406480
0.405537 0.405537 0.405537
0.402159 0.402159 0.402159
0.400650 0.400650 0.400650
0.398784 0.398784 0.398784
0.397375 0.397375 0.397375
0.397074 0.397074 0.397074
0.397661 0.397661 0.397661
0.399462 0.399462 0.399462
0.401883 0.401883 0.401883
0.405889 0.405889 0.405889
0.410802 0.410802 0.410802
0.416584 0.416584 0.416584
0.423544 0.423544 0.423544
0.436433 0.436433 0.436433
0.442810 0.442810 0.442810
0.451993 0.451993 0.451993
0.467306 0.467306 0.467306
0.482949 0.482949 0.482949
0.495892 0.495892 0.495892
0.509956 0.509956 0.509956
0.523911 0.523911 0.523911
0.537516 0.537516 0.537516
0.550720 0.550720 0.550720
0.565455 0.565455 0.565455
0.579089 0.579089 0.579089
0.593626 0.593626 0.593626
0.608240 0.608240 0.608240
0.634498 0.634498 0.634498
0.434324 0.434324 0.434324
0.433999 0.433999 0.433999
0.432897 0.432897 0.432897
0.431151 0.431151 0.431151
0.429262 0.429262 0.429262
0.428247 0.428247 0.428247
0.426015 0.426015 0.426015
0.424567 0.424567 0.424567
0.422825 0.422825 0.422825
0.422056 0.422056 0.422056
0.421644 0.421644 0.421644
0.422021 0.422021 0.422021
0.422975 0.422975 0.422975
0.424895 0.424895 0.424895
0.427754 0.427754 0.427754
0.431988 0.431988 0.431988
0.436905 0.436905 0.436905
0.442803 0.442803 0.442803
0.449966 0.449966 0.449966
0.455637 0.455637 0.455637
0.463418 0.463418 0.463418
0.473903 0.473903 0.473903
0.489080 0.489080 0.489080
0.501695 0.501695 0.501695
0.515125 0.515125 0.515125
0.528865 0.528865 0.528865
0.541723 0.541723 0.541723
0.554477 0.554477 0.554477
0.568239 0.568239 0.568239
0.581568 0.581568 0.581568
0.595699 0.595699 0.595699
0.608867 0.608867 0.608867
0.628479 0.628479 0.628479
0.449897 0.449897 0.449897
0.449604 0.449604 0.449604
0.448603 0.448603 0.448603
0.446979 0.446979 0.446979
0.445112 0.445112 0.445112
0.443777 0.443777 0.443777
0.442328 0.442328 0.442328
0.440198 0.440198 0.440198
0.439038 0.439038 0.439038
0.438163 0.438163 0.438163
0.437207 0.437207 0.437207
0.437239 0.437239 0.437239
0.438040 0.438040 0.438040
0.439623 0.439623 0.439623
0.442160 0.442160 0.442160
0.445577 0.445577 0.445577
0.449976 0.449976 0.449976
0.455399 0.455399 0.455399
0.461555 0.461555 0.461555
0.468952 0.468952 0.468952
0.475918 0.475918 0.475918
0.485791 0.485791 0.485791
0.496413 0.496413 0.496413
0.508203 0.508203 0.508203
0.521209 0.521209 0.521209
0.534450 0.534450 0.534450
0.546813 0.546813 0.546813
0.559063 0.559063 0.559063
0.572079 0.572079 0.572079
0.584810 0.584810 0.584810
0.598303 0.598303 0.598303
0.611302 0.611302 0.611302
0.626979 0.626979 0.626979
0.465798 0.465798 0.465798
0.465538 0.465538 0.465538
0.464647 0.464647 0.464647
0.463178 0.463178 0.463178
0.461420 0.461420 0.461420
0.459969 0.459969 0.459969
0.459267 0.459267 0.459267
0.456819 0.456819 0.456819
0.456273 0.456273 0.456273
0.454414 0.454414 0.454414
0.453968 0.453968 0.453968
0.454121 0.454121 0.454121
0.454473 0.454473 0.454473
0.455579 0.455579 0.455579
0.457728 0.457728 0.457728
0.460758 0.460758 0.460758
0.464437 0.464437 0.464437
0.469131 0.469131 0.469131
0.474985 0.474985 0.474985
0.481371 0.481371 0.481371
0.488938 0.488938 0.488938
0.497900 0.497900 0.497900
0.508114 0.508114 0.508114
0.516260 0.516260 0.516260
0.527831 0.527831 0.527831
0.540841 0.540841 0.540841
0.552762 0.552762 0.552762
0.564426 0.564426 0.564426
0.576830 0.576830 0.576830
0.588761 0.588761 0.588761
0.601871 0.601871 0.601871
0.614141 0.614141 0.614141
0.628140 0.628140 0.628140
0.482259 0.482259 0.482259
0.482037 0.482037 0.482037
0.481270 0.481270 0.481270
0.479995 0.479995 0.479995
0.478435 0.478435 0.478435
0.477050 0.477050 0.477050
0.476671 0.476671 0.476671
0.474641 0.474641 0.474641
0.473487 0.473487 0.473487
0.472450 0.472450 0.472450
0.472130 0.472130 0.472130
0.471618 0.471618 0.471618
0.472098 0.472098 0.472098
0.473205 0.473205 0.473205
0.474914 0.474914 0.474914
0.477565 0.477565 0.477565
0.480874 0.480874 0.480874
0.485040 0.485040 0.485040
0.490078 0.490078 0.490078
0.496234 0.496234 0.496234
0.502829 0.502829 0.502829
0.510429 0.510429 0.510429
0.519763 0.519763 0.519763
0.527628 0.527628 0.527628
0.536440 0.536440 0.536440
0.547686 0.547686 0.547686
0.559452 0.559452 0.559452
0.570712 0.570712 0.570712
0.582448 0.582448 0.582448
0.593702 0.593702 0.593702
0.606082 0.606082 0.606082
0.617943 0.617943 0.617943
0.630830 0.630830 0.630830
0.498738 0.498738 0.498738
0.498546 0.498546 0.498546
0.497878 0.497878 0.497878
0.496759 0.496759 0.496759
0.495360 0.495360 0.495360
0.494041 0.494041 0.494041
0.493449 0.493449 0.493449
0.492327 0.492327 0.492327
0.490828 0.490828 0.490828
0.490556 0.490556 0.490556
0.489414 0.489414 0.489414
0.489420 0.489420 0.489420
0.490095 0.490095 0.490095
0.490652 0.490652 0.490652
0.492050 0.492050 0.492050
0.494305 0.494305 0.494305
0.497395 0.497395 0.497395
0.501203 0.501203 0.501203
0.505778 0.505778 0.505778
0.511128 0.511128 0.511128
0.517316 0.517316 0.517316
0.524104 0.524104 0.524104
0.531700 0.531700 0.531700
0.539224 0.539224 0.539224
0.547625 0.547625 0.547625
0.556790 0.556790 0.556790
0.566656 0.566656 0.566656
0.577603 0.577603 0.577603
0.588935 0.588935 0.588935
0.599550 0.599550 0.599550
0.611095 0.611095 0.611095
0.622515 0.622515 0.622515
0.634344 0.634344 0.634344
0.513968 0.513968 0.513968
0.513793 0.513793 0.513793
0.513188 0.513188 0.513188
0.512158 0.512158 0.512158
0.510832 0.510832 0.510832
0.509484 0.509484 0.509484
0.508611 0.508611 0.508611
0.508091 0.508091 0.508091
0.506298 0.506298 0.506298
0.505918 0.505918 0.505918
0.504870 0.504870 0.504870
0.505016 0.505016 0.505016
0.504811 0.504811 0.504811
0.505712 0.505712 0.505712
0.507227 0.507227 0.507227
0.508957 0.508957 0.508957
0.511549 0.511549 0.511549
0.514906 0.514906 0.514906
0.519058 0.519058 0.519058
0.523940 0.523940 0.523940
0.529630 0.529630 0.529630
0.535965 0.535965 0.535965
0.543152 0.543152 0.543152
0.551042 0.551042 0.551042
0.558931 0.558931 0.558931
0.567697 0.567697 0.567697
0.576400 0.576400 0.576400
0.585030 0.585030 0.585030
0.595989 0.595989 0.595989
0.606203 0.606203 0.606203
0.616997 0.616997 0.616997
0.627582 0.627582 0.627582
0.638908 0.638908 0.638908
0.527485 0.527485 0.527485
0.527336 0.527336 0.527336
0.526818 0.526818 0.526818
0.525933 0.525933 0.525933
0.524778 0.524778 0.524778
0.523572 0.523572 0.523572
0.522705 0.522705 0.522705
0.522868 0.522868 0.522868
0.521112 0.521112 0.521112
0.520353 0.520353 0.520353
0.520140 0.520140 0.520140
0.519608 0.519608 0.519608
0.519923 0.519923 0.519923
0.520759 0.520759 0.520759
0.521693 0.521693 0.521693
0.523506 0.523506 0.523506
0.526009 0.526009 0.526009
0.529117 0.529117 0.529117
0.532831 0.532831 0.532831
0.537309 0.537309 0.537309
0.542476 0.542476 0.542476
0.548355 0.548355 0.548355
0.554897 0.554897 0.554897
0.562340 0.562340 0.562340
0.570335 0.570335 0.570335
0.578593 0.578593 0.578593
0.587409 0.587409 0.587409
0.595078 0.595078 0.595078
0.603678 0.603678 0.603678
0.613444 0.613444 0.613444
0.623690 0.623690 0.623690
0.633581 0.633581 0.633581
0.644045 0.644045 0.644045
0.540316 0.540316 0.540316
0.540191 0.540191 0.540191
0.539758 0.539758 0.539758
0.539013 0.539013 0.539013
0.538036 0.538036 0.538036
0.536998 0.536998 0.536998
0.536213 0.536213 0.536213
0.536235 0.536235 0.536235
0.535408 0.535408 0.535408
0.534500 0.534500 0.534500
0.535063 0.535063 0.535063
0.534196 0.534196 0.534196
0.534966 0.534966 0.534966
0.535135 0.535135 0.535135
0.536502 0.536502 0.536502
0.538157 0.538157 0.538157
0.540261 0.540261 0.540261
0.543090 0.543090 0.543090
0.546538 0.546538 0.546538
0.550695 0.550695 0.550695
0.555515 0.555515 0.555515
0.561026 0.561026 0.561026
0.567153 0.567153 0.567153
0.573895 0.573895 0.573895
0.581492 0.581492 0.581492
0.589476 0.589476 0.589476
0.598460 0.598460 0.598460
0.605890 0.605890 0.605890
0.614105 0.614105 0.614105
0.621553 0.621553 0.621553
0.630923 0.630923 0.630923
0.640273 0.640273 0.640273
0.650033 0.650033 0.650033
0.556270 0.556270 0.556270
0.556149 0.556149 0.556149
0.555724 0.555724 0.555724
0.554981 0.554981 0.554981
0.553974 0.553974 0.553974
0.552830 0.552830 0.552830
0.551799 0.551799 0.551799
0.551344 0.551344 0.551344
0.550990 0.550990 0.550990
0.549760 0.549760 0.549760
0.549610 0.549610 0.549610
0.549421 0.549421 0.549421
0.549415 0.549415 0.549415
0.550003 0.550003 0.550003
0.550982 0.550982 0.550982
0.552301 0.552301 0.552301
0.554514 0.554514 0.554514
0.557120 0.557120 0.557120
0.560129 0.560129 0.560129
0.563907 0.563907 0.563907
0.568417 0.568417 0.568417
0.573635 0.573635 0.573635
0.579545 0.579545 0.579545
0.586109 0.586109 0.586109
0.593348 0.593348 0.593348
