LUTs/trix_modern/TriX_Yellow8_Normal.cube
TITLE "Tri-X Yellow8 Normal"
# Adobe RGB in/out. REPLACES AgX. Tri-X Yellow8 Normal.
LUT_3D_SIZE 5
DOMAIN_MIN 0.0 0.0 0.0
DOMAIN_MAX 1.0 1.0 1.0
0.093230 0.093230 0.093230
0.154807 0.154807 0.154807
0.473344 0.473344 0.473344
0.753026 0.753026 0.753026
0.864369 0.864369 0.864369
0.244468 0.244468 0.244468
0.235933 0.235933 0.235933
0.479827 0.479827 0.479827
0.724206 0.724206 0.724206
0.843979 0.843979 0.843979
0.543426 0.543426 0.543426
0.520781 0.520781 0.520781
0.557704 0.557704 0.557704
0.723012 0.723012 0.723012
0.846537 0.846537 0.846537
0.749965 0.749965 0.749965
0.740209 0.740209 0.740209
0.747713 0.747713 0.747713
0.802683 0.802683 0.802683
0.873934 0.873934 0.873934
0.803952 0.803952 0.803952
0.839706 0.839706 0.839706
0.855446 0.855446 0.855446
0.882858 0.882858 0.882858
0.922982 0.922982 0.922982
0.094193 0.094193 0.094193
0.165694 0.165694 0.165694
0.459487 0.459487 0.459487
0.739193 0.739193 0.739193
0.856718 0.856718 0.856718
0.219566 0.219566 0.219566
0.204394 0.204394 0.204394
0.442184 0.442184 0.442184
0.711375 0.711375 0.711375
0.836418 0.836418 0.836418
0.533895 0.533895 0.533895
0.507729 0.507729 0.507729
0.536765 0.536765 0.536765
0.706931 0.706931 0.706931
0.840729 0.840729 0.840729
0.749325 0.749325 0.749325
0.739221 0.739221 0.739221
0.744473 0.744473 0.744473
0.799304 0.799304 0.799304
0.871575 0.871575 0.871575
0.816427 0.816427 0.816427
0.850349 0.850349 0.850349
0.856846 0.856846 0.856846
0.884271 0.884271 0.884271
0.923346 0.923346 0.923346
0.164466 0.164466 0.164466
0.290726 0.290726 0.290726
0.540864 0.540864 0.540864
0.758153 0.758153 0.758153
0.853303 0.853303 0.853303
0.343970 0.343970 0.343970
0.379919 0.379919 0.379919
0.509682 0.509682 0.509682
0.726496 0.726496 0.726496
0.831823 0.831823 0.831823
0.509588 0.509588 0.509588
0.492591 0.492591 0.492591
0.508013 0.508013 0.508013
0.701205 0.701205 0.701205
0.836763 0.836763 0.836763
0.738551 0.738551 0.738551
0.731037 0.731037 0.731037
0.736842 0.736842 0.736842
0.790728 0.790728 0.790728
0.868085 0.868085 0.868085
0.841160 0.841160 0.841160
0.845629 0.845629 0.845629
0.857757 0.857757 0.857757
0.886684 0.886684 0.886684
0.924452 0.924452 0.924452
0.314993 0.314993 0.314993
0.385855 0.385855 0.385855
0.613654 0.613654 0.613654
0.803125 0.803125 0.803125
0.862151 0.862151 0.862151
0.447052 0.447052 0.447052
0.502744 0.502744 0.502744
0.636972 0.636972 0.636972
0.782538 0.782538 0.782538
0.839809 0.839809 0.839809
0.558030 0.558030 0.558030
0.562960 0.562960 0.562960
0.622638 0.622638 0.622638
0.747666 0.747666 0.747666
0.848187 0.848187 0.848187
0.727938 0.727938 0.727938
0.725398 0.725398 0.725398
0.737336 0.737336 0.737336
0.782937 0.782937 0.782937
0.871186 0.871186 0.871186
0.830548 0.830548 0.830548
0.837928 0.837928 0.837928
0.855683 0.855683 0.855683
0.887520 0.887520 0.887520
0.927066 0.927066 0.927066
0.469670 0.469670 0.469670
0.502169 0.502169 0.502169
0.720974 0.720974 0.720974
0.871134 0.871134 0.871134
0.883451 0.883451 0.883451
0.559513 0.559513 0.559513
0.592012 0.592012 0.592012
0.764381 0.764381 0.764381
0.851038 0.851038 0.851038
0.866346 0.866346 0.866346
0.677664 0.677664 0.677664
0.685040 0.685040 0.685040
0.736493 0.736493 0.736493
0.821886 0.821886 0.821886
0.881556 0.881556 0.881556
0.745652 0.745652 0.745652
0.749730 0.749730 0.749730
0.778872 0.778872 0.778872
0.827973 0.827973 0.827973
0.891696 0.891696 0.891696
0.811110 0.811110 0.811110
0.829960 0.829960 0.829960
0.855846 0.855846 0.855846
0.889618 0.889618 0.889618
0.932292 0.932292 0.932292
