LUTs/trix_modern/TriX_Red25_ExtraSoft.cube
TITLE "Tri-X Red25 ExtraSoft"
# Adobe RGB in/out. REPLACES AgX. Tri-X Red25 ExtraSoft.
LUT_3D_SIZE 9
DOMAIN_MIN 0.0 0.0 0.0
DOMAIN_MAX 1.0 1.0 1.0
0.099726 0.099726 0.099726
0.151154 0.151154 0.151154
0.332611 0.332611 0.332611
0.542952 0.542952 0.542952
0.787767 0.787767 0.787767
0.926026 0.926026 0.926026
0.976166 0.976166 0.976166
0.987774 0.987774 0.987774
0.985376 0.985376 0.985376
0.099726 0.099726 0.099726
0.113869 0.113869 0.113869
0.342072 0.342072 0.342072
0.545466 0.545466 0.545466
0.762061 0.762061 0.762061
0.908761 0.908761 0.908761
0.970777 0.970777 0.970777
0.987105 0.987105 0.987105
0.984898 0.984898 0.984898
0.100448 0.100448 0.100448
0.109043 0.109043 0.109043
0.242602 0.242602 0.242602
0.459068 0.459068 0.459068
0.696278 0.696278 0.696278
0.856645 0.856645 0.856645
0.947262 0.947262 0.947262
0.984972 0.984972 0.984972
0.979952 0.979952 0.979952
0.103324 0.103324 0.103324
0.113082 0.113082 0.113082
0.210910 0.210910 0.210910
0.362840 0.362840 0.362840
0.574978 0.574978 0.574978
0.786202 0.786202 0.786202
0.899161 0.899161 0.899161
0.960943 0.960943 0.960943
0.970940 0.970940 0.970940
0.108531 0.108531 0.108531
0.119577 0.119577 0.119577
0.193524 0.193524 0.193524
0.318448 0.318448 0.318448
0.485697 0.485697 0.485697
0.695766 0.695766 0.695766
0.849411 0.849411 0.849411
0.930569 0.930569 0.930569
0.960114 0.960114 0.960114
0.113179 0.113179 0.113179
0.122851 0.122851 0.122851
0.182006 0.182006 0.182006
0.282128 0.282128 0.282128
0.422240 0.422240 0.422240
0.619015 0.619015 0.619015
0.797131 0.797131 0.797131
0.895723 0.895723 0.895723
0.944352 0.944352 0.944352
0.110746 0.110746 0.110746
0.115790 0.115790 0.115790
0.161049 0.161049 0.161049
0.245820 0.245820 0.245820
0.373016 0.373016 0.373016
0.553065 0.553065 0.553065
0.753107 0.753107 0.753107
0.870913 0.870913 0.870913
0.930020 0.930020 0.930020
0.100751 0.100751 0.100751
0.101176 0.101176 0.101176
0.114961 0.114961 0.114961
0.190701 0.190701 0.190701
0.310184 0.310184 0.310184
0.479820 0.479820 0.479820
0.698659 0.698659 0.698659
0.859183 0.859183 0.859183
0.920361 0.920361 0.920361
0.099726 0.099726 0.099726
0.099726 0.099726 0.099726
0.099726 0.099726 0.099726
0.099726 0.099726 0.099726
0.147975 0.147975 0.147975
0.360720 0.360720 0.360720
0.609783 0.609783 0.609783
0.837911 0.837911 0.837911
0.919478 0.919478 0.919478
0.099726 0.099726 0.099726
0.124130 0.124130 0.124130
0.269563 0.269563 0.269563
0.488699 0.488699 0.488699
0.768911 0.768911 0.768911
0.920780 0.920780 0.920780
0.974045 0.974045 0.974045
0.987416 0.987416 0.987416
0.985128 0.985128 0.985128
0.100334 0.100334 0.100334
0.127675 0.127675 0.127675
0.287855 0.287855 0.287855
0.481835 0.481835 0.481835
0.739094 0.739094 0.739094
0.903026 0.903026 0.903026
0.968733 0.968733 0.968733
0.986748 0.986748 0.986748
0.984652 0.984652 0.984652
0.107022 0.107022 0.107022
0.141035 0.141035 0.141035
0.259047 0.259047 0.259047
0.444628 0.444628 0.444628
0.668274 0.668274 0.668274
0.849455 0.849455 0.849455
0.944819 0.944819 0.944819
0.984618 0.984618 0.984618
0.979031 0.979031 0.979031
0.118023 0.118023 0.118023
0.146707 0.146707 0.146707
0.241082 0.241082 0.241082
0.378774 0.378774 0.378774
0.574850 0.574850 0.574850
0.778095 0.778095 0.778095
0.897113 0.897113 0.897113
0.959845 0.959845 0.959845
0.970083 0.970083 0.970083
0.124792 0.124792 0.124792
0.145192 0.145192 0.145192
0.217873 0.217873 0.217873
0.339358 0.339358 0.339358
0.500557 0.500557 0.500557
0.697096 0.697096 0.697096
0.847465 0.847465 0.847465
0.929725 0.929725 0.929725
0.959351 0.959351 0.959351
0.125483 0.125483 0.125483
0.139538 0.139538 0.139538
0.198513 0.198513 0.198513
0.298440 0.298440 0.298440
0.438105 0.438105 0.438105
0.628763 0.628763 0.628763
0.797929 0.797929 0.797929
0.895549 0.895549 0.895549
0.943459 0.943459 0.943459
0.116635 0.116635 0.116635
0.125468 0.125468 0.125468
0.172878 0.172878 0.172878
0.258304 0.258304 0.258304
0.383947 0.383947 0.383947
0.563213 0.563213 0.563213
0.757619 0.757619 0.757619
0.871118 0.871118 0.871118
0.929648 0.929648 0.929648
0.101186 0.101186 0.101186
0.101845 0.101845 0.101845
0.122214 0.122214 0.122214
0.200207 0.200207 0.200207
0.320168 0.320168 0.320168
0.489787 0.489787 0.489787
0.704538 0.704538 0.704538
0.860051 0.860051 0.860051
0.920354 0.920354 0.920354
0.099726 0.099726 0.099726
0.099726 0.099726 0.099726
0.099726 0.099726 0.099726
0.099726 0.099726 0.099726
0.157392 0.157392 0.157392
0.367570 0.367570 0.367570
0.615615 0.615615 0.615615
0.839748 0.839748 0.839748
0.919588 0.919588 0.919588
0.099726 0.099726 0.099726
0.168891 0.168891 0.168891
0.294117 0.294117 0.294117
0.497387 0.497387 0.497387
0.757820 0.757820 0.757820
0.913818 0.913818 0.913818
0.970656 0.970656 0.970656
0.986782 0.986782 0.986782
0.984614 0.984614 0.984614
0.103158 0.103158 0.103158
0.186061 0.186061 0.186061
0.312121 0.312121 0.312121
0.474032 0.474032 0.474032
0.724107 0.724107 0.724107
0.896126 0.896126 0.896126
0.965419 0.965419 0.965419
0.986098 0.986098 0.986098
0.983030 0.983030 0.983030
0.118235 0.118235 0.118235
0.156265 0.156265 0.156265
0.255950 0.255950 0.255950
0.414536 0.414536 0.414536
0.637125 0.637125 0.637125
0.840018 0.840018 0.840018
0.940958 0.940958 0.940958
0.981137 0.981137 0.981137
0.977003 0.977003 0.977003
0.157894 0.157894 0.157894
0.184177 0.184177 0.184177
0.267329 0.267329 0.267329
0.381698 0.381698 0.381698
0.562398 0.562398 0.562398
0.763646 0.763646 0.763646
0.893697 0.893697 0.893697
0.957608 0.957608 0.957608
0.968053 0.968053 0.968053
0.176051 0.176051 0.176051
0.194860 0.194860 0.194860
0.263430 0.263430 0.263430
0.372808 0.372808 0.372808
0.519392 0.519392 0.519392
0.699167 0.699167 0.699167
0.843774 0.843774 0.843774
0.928213 0.928213 0.928213
0.957362 0.957362 0.957362
0.178899 0.178899 0.178899
0.192536 0.192536 0.192536
0.249610 0.249610 0.249610
0.346057 0.346057 0.346057
0.482945 0.482945 0.482945
0.653858 0.653858 0.653858
0.801012 0.801012 0.801012
0.895658 0.895658 0.895658
0.941031 0.941031 0.941031
0.162736 0.162736 0.162736
0.173277 0.173277 0.173277
0.219414 0.219414 0.219414
0.304685 0.304685 0.304685
0.425062 0.425062 0.425062
0.599632 0.599632 0.599632
0.772403 0.772403 0.772403
0.872143 0.872143 0.872143
0.928616 0.928616 0.928616
0.115947 0.115947 0.115947
0.123210 0.123210 0.123210
0.169672 0.169672 0.169672
0.245535 0.245535 0.245535
0.362488 0.362488 0.362488
0.529881 0.529881 0.529881
0.729098 0.729098 0.729098
0.863329 0.863329 0.863329
0.920285 0.920285 0.920285
0.099726 0.099726 0.099726
0.099726 0.099726 0.099726
0.099726 0.099726 0.099726
0.099726 0.099726 0.099726
0.204319 0.204319 0.204319
0.397473 0.397473 0.397473
0.641281 0.641281 0.641281
0.847300 0.847300 0.847300
0.919731 0.919731 0.919731
0.100121 0.100121 0.100121
0.149893 0.149893 0.149893
0.332435 0.332435 0.332435
0.525862 0.525862 0.525862
0.774234 0.774234 0.774234
0.913880 0.913880 0.913880
0.968975 0.968975 0.968975
0.985685 0.985685 0.985685
0.983561 0.983561 0.983561
0.104795 0.104795 0.104795
0.174801 0.174801 0.174801
0.361478 0.361478 0.361478
0.521565 0.521565 0.521565
0.741136 0.741136 0.741136
0.896319 0.896319 0.896319
0.963669 0.963669 0.963669
0.984834 0.984834 0.984834
0.981660 0.981660 0.981660
0.139922 0.139922 0.139922
0.182083 0.182083 0.182083
0.307132 0.307132 0.307132
0.445233 0.445233 0.445233
0.647870 0.647870 0.647870
0.840066 0.840066 0.840066
0.938345 0.938345 0.938345
0.972509 0.972509 0.972509
0.975470 0.975470 0.975470
0.173301 0.173301 0.173301
0.197604 0.197604 0.197604
0.273402 0.273402 0.273402
0.375333 0.375333 0.375333
0.551316 0.551316 0.551316
0.757104 0.757104 0.757104
0.890681 0.890681 0.890681
0.953942 0.953942 0.953942
0.966281 0.966281 0.966281
0.202541 0.202541 0.202541
0.220412 0.220412 0.220412
0.285233 0.285233 0.285233
0.383067 0.383067 0.383067
0.513779 0.513779 0.513779
0.689493 0.689493 0.689493
0.839440 0.839440 0.839440
0.925284 0.925284 0.925284
0.953862 0.953862 0.953862
0.211559 0.211559 0.211559
0.225197 0.225197 0.225197
0.281293 0.281293 0.281293
0.372090 0.372090 0.372090
0.503304 0.503304 0.503304
0.658616 0.658616 0.658616
0.798965 0.798965 0.798965
0.893851 0.893851 0.893851
0.937994 0.937994 0.937994
0.199935 0.199935 0.199935
0.210771 0.210771 0.210771
0.257432 0.257432 0.257432
0.341836 0.341836 0.341836
0.463174 0.463174 0.463174
0.626042 0.626042 0.626042
0.779360 0.779360 0.779360
0.872283 0.872283 0.872283
0.926824 0.926824 0.926824
0.153997 0.153997 0.153997
0.162877 0.162877 0.162877
0.207321 0.207321 0.207321
0.283742 0.283742 0.283742
0.396272 0.396272 0.396272
0.563366 0.563366 0.563366
0.747539 0.747539 0.747539
0.864764 0.864764 0.864764
0.919487 0.919487 0.919487
0.099726 0.099726 0.099726
0.099726 0.099726 0.099726
0.099726 0.099726 0.099726
0.099726 0.099726 0.099726
0.265994 0.265994 0.265994
0.441090 0.441090 0.441090
0.674759 0.674759 0.674759
0.855709 0.855709 0.855709
0.919659 0.919659 0.919659
0.101262 0.101262 0.101262
0.122982 0.122982 0.122982
0.351441 0.351441 0.351441
0.543987 0.543987 0.543987
0.798855 0.798855 0.798855
0.921620 0.921620 0.921620
0.969938 0.969938 0.969938
0.985337 0.985337 0.985337
0.983565 0.983565 0.983565
0.106269 0.106269 0.106269
0.153134 0.153134 0.153134
0.365870 0.365870 0.365870
0.560341 0.560341 0.560341
0.771786 0.771786 0.771786
0.904684 0.904684 0.904684
0.964659 0.964659 0.964659
0.984274 0.984274 0.984274
0.981606 0.981606 0.981606
0.169391 0.169391 0.169391
0.210416 0.210416 0.210416
0.354113 0.354113 0.354113
0.509097 0.509097 0.509097
0.686192 0.686192 0.686192
0.853129 0.853129 0.853129
0.940394 0.940394 0.940394
0.971853 0.971853 0.971853
0.975202 0.975202 0.975202
0.188780 0.188780 0.188780
0.212430 0.212430 0.212430
0.297832 0.297832 0.297832
0.416523 0.416523 0.416523
0.578252 0.578252 0.578252
0.768957 0.768957 0.768957
0.892640 0.892640 0.892640
0.952868 0.952868 0.952868
0.965621 0.965621 0.965621
0.215041 0.215041 0.215041
0.232649 0.232649 0.232649
0.294673 0.294673 0.294673
0.386148 0.386148 0.386148
0.504596 0.504596 0.504596
0.685988 0.685988 0.685988
0.838476 0.838476 0.838476
0.923238 0.923238 0.923238
0.951594 0.951594 0.951594
0.231069 0.231069 0.231069
0.244561 0.244561 0.244561
0.298962 0.298962 0.298962
0.384602 0.384602 0.384602
0.508640 0.508640 0.508640
0.650567 0.650567 0.650567
0.795213 0.795213 0.795213
0.891543 0.891543 0.891543
0.935351 0.935351 0.935351
0.223965 0.223965 0.223965
0.235214 0.235214 0.235214
0.281800 0.281800 0.281800
0.363756 0.363756 0.363756
0.485042 0.485042 0.485042
0.637514 0.637514 0.637514
0.778457 0.778457 0.778457
0.871452 0.871452 0.871452
0.924655 0.924655 0.924655
0.179500 0.179500 0.179500
0.189041 0.189041 0.189041
0.233888 0.233888 0.233888
0.310681 0.310681 0.310681
0.421286 0.421286 0.421286
0.586151 0.586151 0.586151
0.757689 0.757689 0.757689
0.864613 0.864613 0.864613
0.918238 0.918238 0.918238
0.099726 0.099726 0.099726
0.099726 0.099726 0.099726
0.099726 0.099726 0.099726
0.146732 0.146732 0.146732
0.295763 0.295763 0.295763
0.469961 0.469961 0.469961
0.693188 0.693188 0.693188
0.859083 0.859083 0.859083
0.919311 0.919311 0.919311
0.104058 0.104058 0.104058
0.119726 0.119726 0.119726
0.356993 0.356993 0.356993
0.553357 0.553357 0.553357
0.806246 0.806246 0.806246
0.930552 0.930552 0.930552
0.972879 0.972879 0.972879
0.985627 0.985627 0.985627
0.984605 0.984605 0.984605
0.110161 0.110161 0.110161
0.140397 0.140397 0.140397
0.364546 0.364546 0.364546
0.564538 0.564538 0.564538
0.803005 0.803005 0.803005
0.917242 0.917242 0.917242
0.967805 0.967805 0.967805
0.984747 0.984747 0.984747
0.982850 0.982850 0.982850
0.181687 0.181687 0.181687
0.216456 0.216456 0.216456
0.385680 0.385680 0.385680
0.559618 0.559618 0.559618
0.729956 0.729956 0.729956
0.869502 0.869502 0.869502
0.946803 0.946803 0.946803
0.973406 0.973406 0.973406
0.976285 0.976285 0.976285
0.209010 0.209010 0.209010
0.231891 0.231891 0.231891
0.331336 0.331336 0.331336
0.469513 0.469513 0.469513
0.629748 0.629748 0.629748
0.794102 0.794102 0.794102
0.901744 0.901744 0.901744
0.955486 0.955486 0.955486
0.966103 0.966103 0.966103
0.226408 0.226408 0.226408
0.242779 0.242779 0.242779
0.309441 0.309441 0.309441
0.406557 0.406557 0.406557
0.545546 0.545546 0.545546
0.707585 0.707585 0.707585
0.847326 0.847326 0.847326
0.925201 0.925201 0.925201
0.951437 0.951437 0.951437
0.240998 0.240998 0.240998
0.254539 0.254539 0.254539
0.308160 0.308160 0.308160
0.391479 0.391479 0.391479
0.511359 0.511359 0.511359
0.640439 0.640439 0.640439
0.795064 0.795064 0.795064
0.891411 0.891411 0.891411
0.934184 0.934184 0.934184
0.237365 0.237365 0.237365
0.248584 0.248584 0.248584
0.295052 0.295052 0.295052
0.375010 0.375010 0.375010
0.495158 0.495158 0.495158
0.639525 0.639525 0.639525
0.773004 0.773004 0.773004
0.870115 0.870115 0.870115
0.922551 0.922551 0.922551
0.192844 0.192844 0.192844
0.202505 0.202505 0.202505
0.248293 0.248293 0.248293
0.326229 0.326229 0.326229
0.437778 0.437778 0.437778
0.598361 0.598361 0.598361
0.760881 0.760881 0.760881
0.863179 0.863179 0.863179
0.916698 0.916698 0.916698
0.099726 0.099726 0.099726
0.099726 0.099726 0.099726
0.099726 0.099726 0.099726
0.153499 0.153499 0.153499
0.306464 0.306464 0.306464
0.481990 0.481990 0.481990
0.700595 0.700595 0.700595
0.860075 0.860075 0.860075
0.918668 0.918668 0.918668
0.110045 0.110045 0.110045
0.128501 0.128501 0.128501
0.337813 0.337813 0.337813
0.557952 0.557952 0.557952
0.805944 0.805944 0.805944
0.940549 0.940549 0.940549
0.977404 0.977404 0.977404
0.986320 0.986320 0.986320
0.985156 0.985156 0.985156
0.117942 0.117942 0.117942
0.144546 0.144546 0.144546
0.345623 0.345623 0.345623
0.566397 0.566397 0.566397
0.807172 0.807172 0.807172
0.930147 0.930147 0.930147
0.972600 0.972600 0.972600
0.985466 0.985466 0.985466
0.984637 0.984637 0.984637
0.185717 0.185717 0.185717
0.213415 0.213415 0.213415
0.372883 0.372883 0.372883
0.596102 0.596102 0.596102
0.767108 0.767108 0.767108
0.888162 0.888162 0.888162
0.956246 0.956246 0.956246
0.976682 0.976682 0.976682
0.978352 0.978352 0.978352
0.230358 0.230358 0.230358
0.251706 0.251706 0.251706
0.353902 0.353902 0.353902
0.511884 0.511884 0.511884
0.678807 0.678807 0.678807
0.822052 0.822052 0.822052
0.916233 0.916233 0.916233
0.959849 0.959849 0.959849
0.967546 0.967546 0.967546
0.240274 0.240274 0.240274
0.256237 0.256237 0.256237
0.326972 0.326972 0.326972
0.439865 0.439865 0.439865
0.589772 0.589772 0.589772
0.743766 0.743766 0.743766
0.863546 0.863546 0.863546
0.930854 0.930854 0.930854
0.953602 0.953602 0.953602
0.249060 0.249060 0.249060
0.261952 0.261952 0.261952
0.315896 0.315896 0.315896
0.403132 0.403132 0.403132
0.533153 0.533153 0.533153
0.677588 0.677588 0.677588
0.808544 0.808544 0.808544
0.896692 0.896692 0.896692
0.935262 0.935262 0.935262
0.242310 0.242310 0.242310
0.253723 0.253723 0.253723
0.300613 0.300613 0.300613
0.380528 0.380528 0.380528
0.501080 0.501080 0.501080
0.641350 0.641350 0.641350
0.765056 0.765056 0.765056
0.870741 0.870741 0.870741
0.922150 0.922150 0.922150
0.193405 0.193405 0.193405
0.203377 0.203377 0.203377
0.250793 0.250793 0.250793
0.330332 0.330332 0.330332
0.443086 0.443086 0.443086
0.601858 0.601858 0.601858
0.759528 0.759528 0.759528
0.860728 0.860728 0.860728
0.915479 0.915479 0.915479
0.099726 0.099726 0.099726
0.099726 0.099726 0.099726
0.099726 0.099726 0.099726
0.117342 0.117342 0.117342
0.297761 0.297761 0.297761
0.476709 0.476709 0.476709
0.697629 0.697629 0.697629
0.858844 0.858844 0.858844
0.918131 0.918131 0.918131
0.128971 0.128971 0.128971
0.150690 0.150690 0.150690
0.348469 0.348469 0.348469
0.564292 0.564292 0.564292
0.814246 0.814246 0.814246
0.954821 0.954821 0.954821
0.983961 0.983961 0.983961
0.987500 0.987500 0.987500
0.985775 0.985775 0.985775
0.141110 0.141110 0.141110
0.162486 0.162486 0.162486
0.357195 0.357195 0.357195
0.571592 0.571592 0.571592
0.815216 0.815216 0.815216
0.945374 0.945374 0.945374
0.979568 0.979568 0.979568
0.986688 0.986688 0.986688
0.985264 0.985264 0.985264
0.205313 0.205313 0.205313
0.228566 0.228566 0.228566
0.392345 0.392345 0.392345
0.603825 0.603825 0.603825
0.800018 0.800018 0.800018
0.911758 0.911758 0.911758
0.964703 0.964703 0.964703
0.981974 0.981974 0.981974
0.980829 0.980829 0.980829
0.256104 0.256104 0.256104
0.276208 0.276208 0.276208
0.391510 0.391510 0.391510
0.552869 0.552869 0.552869
0.720050 0.720050 0.720050
0.856015 0.856015 0.856015
0.933540 0.933540 0.933540
0.965741 0.965741 0.965741
0.970037 0.970037 0.970037
0.259526 0.259526 0.259526
0.275532 0.275532 0.275532
0.357145 0.357145 0.357145
0.482596 0.482596 0.482596
0.636343 0.636343 0.636343
0.784281 0.784281 0.784281
0.884537 0.884537 0.884537
0.941022 0.941022 0.941022
0.957607 0.957607 0.957607
0.258253 0.258253 0.258253
0.271167 0.271167 0.271167
0.333024 0.333024 0.333024
0.426232 0.426232 0.426232
0.567043 0.567043 0.567043
0.713496 0.713496 0.713496
0.833124 0.833124 0.833124
0.909409 0.909409 0.909409
0.938786 0.938786 0.938786
0.243952 0.243952 0.243952
0.255047 0.255047 0.255047
0.306087 0.306087 0.306087
0.387561 0.387561 0.387561
0.514729 0.514729 0.514729
0.661215 0.661215 0.661215
0.788472 0.788472 0.788472
0.879606 0.879606 0.879606
0.924801 0.924801 0.924801
0.178540 0.178540 0.178540
0.189304 0.189304 0.189304
0.241212 0.241212 0.241212
0.324886 0.324886 0.324886
0.441344 0.441344 0.441344
0.602593 0.602593 0.602593
0.758655 0.758655 0.758655
0.856334 0.856334 0.856334
0.915692 0.915692 0.915692
0.099726 0.099726 0.099726
0.099726 0.099726 0.099726
0.099726 0.099726 0.099726
0.099726 0.099726 0.099726
0.258497 0.258497 0.258497
0.448504 0.448504 0.448504
0.681594 0.681594 0.681594
0.854345 0.854345 0.854345
0.917822 0.917822 0.917822
0.236936 0.236936 0.236936
0.252609 0.252609 0.252609
0.340900 0.340900 0.340900
0.584377 0.584377 0.584377
0.874933 0.874933 0.874933
0.980511 0.980511 0.980511
0.988851 0.988851 0.988851
0.989742 0.989742 0.989742
0.986329 0.986329 0.986329
0.247923 0.247923 0.247923
0.263955 0.263955 0.263955
0.351893 0.351893 0.351893
0.592189 0.592189 0.592189
0.874932 0.874932 0.874932
0.975842 0.975842 0.975842
0.987855 0.987855 0.987855
0.989024 0.989024 0.989024
0.985832 0.985832 0.985832
0.298199 0.298199 0.298199
0.315331 0.315331 0.315331
0.399776 0.399776 0.399776
0.628387 0.628387 0.628387
0.870853 0.870853 0.870853
0.959290 0.959290 0.959290
0.984320 0.984320 0.984320
0.986542 0.986542 0.986542
0.983168 0.983168 0.983168
0.362200 0.362200 0.362200
0.376585 0.376585 0.376585
0.454487 0.454487 0.454487
0.619681 0.619681 0.619681
0.805831 0.805831 0.805831
0.918395 0.918395 0.918395
0.964259 0.964259 0.964259
0.977129 0.977129 0.977129
0.973109 0.973109 0.973109
0.345688 0.345688 0.345688
0.359715 0.359715 0.359715
0.425522 0.425522 0.425522
0.560642 0.560642 0.560642
0.725403 0.725403 0.725403
0.860592 0.860592 0.860592
0.931731 0.931731 0.931731
0.960251 0.960251 0.960251
0.961347 0.961347 0.961347
0.317233 0.317233 0.317233
0.331498 0.331498 0.331498
0.391832 0.391832 0.391832
0.510219 0.510219 0.510219
0.649049 0.649049 0.649049
0.793964 0.793964 0.793964
0.887389 0.887389 0.887389
0.935668 0.935668 0.935668
0.945268 0.945268 0.945268
0.273529 0.273529 0.273529
0.286214 0.286214 0.286214
0.344315 0.344315 0.344315
0.450156 0.450156 0.450156
0.583309 0.583309 0.583309
0.724566 0.724566 0.724566
0.842820 0.842820 0.842820
0.910085 0.910085 0.910085
0.930735 0.930735 0.930735
0.170373 0.170373 0.170373
0.181207 0.181207 0.181207
0.234321 0.234321 0.234321
0.342735 0.342735 0.342735
0.489118 0.489118 0.489118
0.650747 0.650747 0.650747
0.788213 0.788213 0.788213
0.883215 0.883215 0.883215
0.921289 0.921289 0.921289
0.099726 0.099726 0.099726
0.099726 0.099726 0.099726
0.099726 0.099726 0.099726
0.099726 0.099726 0.099726
0.124275 0.124275 0.124275
0.393192 0.393192 0.393192
0.654884 0.654884 0.654884
0.842311 0.842311 0.842311
0.917860 0.917860 0.917860
