LUTs/trix_modern/TriX_Yellow8_ExtraSoft.cube
TITLE "Tri-X Yellow8 ExtraSoft"
# Adobe RGB in/out. REPLACES AgX. Tri-X Yellow8 ExtraSoft.
LUT_3D_SIZE 9
DOMAIN_MIN 0.0 0.0 0.0
DOMAIN_MAX 1.0 1.0 1.0
0.099726 0.099726 0.099726
0.107164 0.107164 0.107164
0.217313 0.217313 0.217313
0.339108 0.339108 0.339108
0.472624 0.472624 0.472624
0.619204 0.619204 0.619204
0.735888 0.735888 0.735888
0.820658 0.820658 0.820658
0.851099 0.851099 0.851099
0.121541 0.121541 0.121541
0.130300 0.130300 0.130300
0.243780 0.243780 0.243780
0.354919 0.354919 0.354919
0.470204 0.470204 0.470204
0.607675 0.607675 0.607675
0.727600 0.727600 0.727600
0.814153 0.814153 0.814153
0.846256 0.846256 0.846256
0.285043 0.285043 0.285043
0.273219 0.273219 0.273219
0.279017 0.279017 0.279017
0.367713 0.367713 0.367713
0.478784 0.478784 0.478784
0.591896 0.591896 0.591896
0.709151 0.709151 0.709151
0.796965 0.796965 0.796965
0.830570 0.830570 0.830570
0.411559 0.411559 0.411559
0.401045 0.401045 0.401045
0.391648 0.391648 0.391648
0.409008 0.409008 0.409008
0.492089 0.492089 0.492089
0.594931 0.594931 0.594931
0.697831 0.697831 0.697831
0.784298 0.784298 0.784298
0.807475 0.807475 0.807475
0.536498 0.536498 0.536498
0.527483 0.527483 0.527483
0.515931 0.515931 0.515931
0.519454 0.519454 0.519454
0.549429 0.549429 0.549429
0.619006 0.619006 0.619006
0.708042 0.708042 0.708042
0.783781 0.783781 0.783781
0.833145 0.833145 0.833145
0.645884 0.645884 0.645884
0.638865 0.638865 0.638865
0.630496 0.630496 0.630496
0.627941 0.627941 0.627941
0.644557 0.644557 0.644557
0.683762 0.683762 0.683762
0.737056 0.737056 0.737056
0.796758 0.796758 0.796758
0.842569 0.842569 0.842569
0.733051 0.733051 0.733051
0.729309 0.729309 0.729309
0.724004 0.724004 0.724004
0.722327 0.722327 0.722327
0.730963 0.730963 0.730963
0.753485 0.753485 0.753485
0.789026 0.789026 0.789026
0.822695 0.822695 0.822695
0.859575 0.859575 0.859575
0.803432 0.803432 0.803432
0.800502 0.800502 0.800502
0.794564 0.794564 0.794564
0.792733 0.792733 0.792733
0.797080 0.797080 0.797080
0.809798 0.809798 0.809798
0.832511 0.832511 0.832511
0.862119 0.862119 0.862119
0.880446 0.880446 0.880446
0.790303 0.790303 0.790303
0.788594 0.788594 0.788594
0.826269 0.826269 0.826269
0.820038 0.820038 0.820038
0.842114 0.842114 0.842114
0.852619 0.852619 0.852619
0.867201 0.867201 0.867201
0.889648 0.889648 0.889648
0.908310 0.908310 0.908310
0.100075 0.100075 0.100075
0.109233 0.109233 0.109233
0.195615 0.195615 0.195615
0.316961 0.316961 0.316961
0.459115 0.459115 0.459115
0.610871 0.610871 0.610871
0.730023 0.730023 0.730023
0.817171 0.817171 0.817171
0.848588 0.848588 0.848588
0.125195 0.125195 0.125195
0.127675 0.127675 0.127675
0.219332 0.219332 0.219332
0.329030 0.329030 0.329030
0.454027 0.454027 0.454027
0.599249 0.599249 0.599249
0.721871 0.721871 0.721871
0.810700 0.810700 0.810700
0.843769 0.843769 0.843769
0.283521 0.283521 0.283521
0.265352 0.265352 0.265352
0.266125 0.266125 0.266125
0.353408 0.353408 0.353408
0.458671 0.458671 0.458671
0.581917 0.581917 0.581917
0.704000 0.704000 0.704000
0.794569 0.794569 0.794569
0.828188 0.828188 0.828188
0.407992 0.407992 0.407992
0.397018 0.397018 0.397018
0.384954 0.384954 0.384954
0.401064 0.401064 0.401064
0.481305 0.481305 0.481305
0.584037 0.584037 0.584037
0.692758 0.692758 0.692758
0.780705 0.780705 0.780705
0.805290 0.805290 0.805290
0.531971 0.531971 0.531971
0.523426 0.523426 0.523426
0.511051 0.511051 0.511051
0.513639 0.513639 0.513639
0.543583 0.543583 0.543583
0.612235 0.612235 0.612235
0.703019 0.703019 0.703019
0.780952 0.780952 0.780952
0.831407 0.831407 0.831407
0.641684 0.641684 0.641684
0.635118 0.635118 0.635118
0.626656 0.626656 0.626656
0.623937 0.623937 0.623937
0.640553 0.640553 0.640553
0.680554 0.680554 0.680554
0.733800 0.733800 0.733800
0.795085 0.795085 0.795085
0.841268 0.841268 0.841268
0.731067 0.731067 0.731067
0.727465 0.727465 0.727465
0.722253 0.722253 0.722253
0.720548 0.720548 0.720548
0.729189 0.729189 0.729189
0.751987 0.751987 0.751987
0.787861 0.787861 0.787861
0.821570 0.821570 0.821570
0.859058 0.859058 0.859058
0.801808 0.801808 0.801808
0.799131 0.799131 0.799131
0.793862 0.793862 0.793862
0.792192 0.792192 0.792192
0.796610 0.796610 0.796610
0.809430 0.809430 0.809430
0.832323 0.832323 0.832323
0.861821 0.861821 0.861821
0.880263 0.880263 0.880263
0.805739 0.805739 0.805739
0.804009 0.804009 0.804009
0.839826 0.839826 0.839826
0.830247 0.830247 0.830247
0.842177 0.842177 0.842177
0.852735 0.852735 0.852735
0.867406 0.867406 0.867406
0.889885 0.889885 0.889885
0.908375 0.908375 0.908375
0.110706 0.110706 0.110706
0.156499 0.156499 0.156499
0.226910 0.226910 0.226910
0.334411 0.334411 0.334411
0.459441 0.459441 0.459441
0.605909 0.605909 0.605909
0.723061 0.723061 0.723061
0.812847 0.812847 0.812847
0.843395 0.843395 0.843395
0.183315 0.183315 0.183315
0.209260 0.209260 0.209260
0.254036 0.254036 0.254036
0.336078 0.336078 0.336078
0.450991 0.450991 0.450991
0.593622 0.593622 0.593622
0.714900 0.714900 0.714900
0.806952 0.806952 0.806952
0.838560 0.838560 0.838560
0.267211 0.267211 0.267211
0.253704 0.253704 0.253704
0.255950 0.255950 0.255950
0.340171 0.340171 0.340171
0.442953 0.442953 0.442953
0.572488 0.572488 0.572488
0.697230 0.697230 0.697230
0.795393 0.795393 0.795393
0.822960 0.822960 0.822960
0.397033 0.397033 0.397033
0.386990 0.386990 0.386990
0.372300 0.372300 0.372300
0.383274 0.383274 0.383274
0.462351 0.462351 0.462351
0.568515 0.568515 0.568515
0.684550 0.684550 0.684550
0.773846 0.773846 0.773846
0.800154 0.800154 0.800154
0.527850 0.527850 0.527850
0.519456 0.519456 0.519456
0.504347 0.504347 0.504347
0.503395 0.503395 0.503395
0.530455 0.530455 0.530455
0.599428 0.599428 0.599428
0.693098 0.693098 0.693098
0.775199 0.775199 0.775199
0.827298 0.827298 0.827298
0.642468 0.642468 0.642468
0.636135 0.636135 0.636135
0.625205 0.625205 0.625205
0.620309 0.620309 0.620309
0.634967 0.634967 0.634967
0.673367 0.673367 0.673367
0.726915 0.726915 0.726915
0.791394 0.791394 0.791394
0.838003 0.838003 0.838003
0.732457 0.732457 0.732457
0.729078 0.729078 0.729078
0.723087 0.723087 0.723087
0.720246 0.720246 0.720246
0.727958 0.727958 0.727958
0.750370 0.750370 0.750370
0.785629 0.785629 0.785629
0.818918 0.818918 0.818918
0.857804 0.857804 0.857804
0.799045 0.799045 0.799045
0.797300 0.797300 0.797300
0.794474 0.794474 0.794474
0.793127 0.793127 0.793127
0.797437 0.797437 0.797437
0.810193 0.810193 0.810193
0.833136 0.833136 0.833136
0.861222 0.861222 0.861222
0.879881 0.879881 0.879881
0.802847 0.802847 0.802847
0.842910 0.842910 0.842910
0.836982 0.836982 0.836982
0.827655 0.827655 0.827655
0.843523 0.843523 0.843523
0.854041 0.854041 0.854041
0.868647 0.868647 0.868647
0.890980 0.890980 0.890980
0.908684 0.908684 0.908684
0.166757 0.166757 0.166757
0.199035 0.199035 0.199035
0.275379 0.275379 0.275379
0.368855 0.368855 0.368855
0.489286 0.489286 0.489286
0.617933 0.617933 0.617933
0.726046 0.726046 0.726046
0.801548 0.801548 0.801548
0.839946 0.839946 0.839946
0.221940 0.221940 0.221940
0.244602 0.244602 0.244602
0.315231 0.315231 0.315231
0.380088 0.380088 0.380088
0.479304 0.479304 0.479304
0.605256 0.605256 0.605256
0.717547 0.717547 0.717547
0.795625 0.795625 0.795625
0.834998 0.834998 0.834998
0.298074 0.298074 0.298074
0.296962 0.296962 0.296962
0.319226 0.319226 0.319226
0.371702 0.371702 0.371702
0.461042 0.461042 0.461042
0.579503 0.579503 0.579503
0.698090 0.698090 0.698090
0.782023 0.782023 0.782023
0.819023 0.819023 0.819023
0.385935 0.385935 0.385935
0.378777 0.378777 0.378777
0.366417 0.366417 0.366417
0.375333 0.375333 0.375333
0.456965 0.456965 0.456965
0.565328 0.565328 0.565328
0.682225 0.682225 0.682225
0.770069 0.770069 0.770069
0.795693 0.795693 0.795693
0.515328 0.515328 0.515328
0.508172 0.508172 0.508172
0.494386 0.494386 0.494386
0.490351 0.490351 0.490351
0.512970 0.512970 0.512970
0.586687 0.586687 0.586687
0.686277 0.686277 0.686277
0.770310 0.770310 0.770310
0.823898 0.823898 0.823898
0.633497 0.633497 0.633497
0.628008 0.628008 0.628008
0.617742 0.617742 0.617742
0.612311 0.612311 0.612311
0.624883 0.624883 0.624883
0.661029 0.661029 0.661029
0.719110 0.719110 0.719110
0.787516 0.787516 0.787516
0.834695 0.834695 0.834695
0.729097 0.729097 0.729097
0.726095 0.726095 0.726095
0.720421 0.720421 0.720421
0.717614 0.717614 0.717614
0.724862 0.724862 0.724862
0.746698 0.746698 0.746698
0.780809 0.780809 0.780809
0.816181 0.816181 0.816181
0.856316 0.856316 0.856316
0.797082 0.797082 0.797082
0.795696 0.795696 0.795696
0.793604 0.793604 0.793604
0.792575 0.792575 0.792575
0.797167 0.797167 0.797167
0.810163 0.810163 0.810163
0.832854 0.832854 0.832854
0.860053 0.860053 0.860053
0.879483 0.879483 0.879483
0.824722 0.824722 0.824722
0.846465 0.846465 0.846465
0.840762 0.840762 0.840762
0.844608 0.844608 0.844608
0.844915 0.844915 0.844915
0.855549 0.855549 0.855549
0.870291 0.870291 0.870291
0.892108 0.892108 0.892108
0.909133 0.909133 0.909133
0.225877 0.225877 0.225877
0.237777 0.237777 0.237777
0.321036 0.321036 0.321036
0.401970 0.401970 0.401970
0.534174 0.534174 0.534174
0.647201 0.647201 0.647201
0.740639 0.740639 0.740639
0.802454 0.802454 0.802454
0.839956 0.839956 0.839956
0.263302 0.263302 0.263302
0.276208 0.276208 0.276208
0.349647 0.349647 0.349647
0.427946 0.427946 0.427946
0.525346 0.525346 0.525346
0.634746 0.634746 0.634746
0.732056 0.732056 0.732056
0.797504 0.797504 0.797504
0.834857 0.834857 0.834857
0.365346 0.365346 0.365346
0.367017 0.367017 0.367017
0.391711 0.391711 0.391711
0.435248 0.435248 0.435248
0.506062 0.506062 0.506062
0.607207 0.607207 0.607207
0.711278 0.711278 0.711278
0.787102 0.787102 0.787102
0.818336 0.818336 0.818336
0.401648 0.401648 0.401648
0.398622 0.398622 0.398622
0.400365 0.400365 0.400365
0.426234 0.426234 0.426234
0.491969 0.491969 0.491969
0.583911 0.583911 0.583911
0.691295 0.691295 0.691295
0.773799 0.773799 0.773799
0.817155 0.817155 0.817155
0.505980 0.505980 0.505980
0.500965 0.500965 0.500965
0.490903 0.490903 0.490903
0.486922 0.486922 0.486922
0.504596 0.504596 0.504596
0.586586 0.586586 0.586586
0.687773 0.687773 0.687773
0.770603 0.770603 0.770603
0.823307 0.823307 0.823307
0.622779 0.622779 0.622779
0.618390 0.618390 0.618390
0.610099 0.610099 0.610099
0.605364 0.605364 0.605364
0.615348 0.615348 0.615348
0.647893 0.647893 0.647893
0.713850 0.713850 0.713850
0.785566 0.785566 0.785566
0.832976 0.832976 0.832976
0.722465 0.722465 0.722465
0.720051 0.720051 0.720051
0.715493 0.715493 0.715493
0.713606 0.713606 0.713606
0.720881 0.720881 0.720881
0.741851 0.741851 0.741851
0.774945 0.774945 0.774945
0.814141 0.814141 0.814141
0.854842 0.854842 0.854842
0.793711 0.793711 0.793711
0.792595 0.792595 0.792595
0.791088 0.791088 0.791088
0.790874 0.790874 0.790874
0.796034 0.796034 0.796034
0.809362 0.809362 0.809362
0.831810 0.831810 0.831810
0.858868 0.858868 0.858868
0.879428 0.879428 0.879428
0.827733 0.827733 0.827733
0.829563 0.829563 0.829563
0.832230 0.832230 0.832230
0.838516 0.838516 0.838516
0.844441 0.844441 0.844441
0.856007 0.856007 0.856007
0.871117 0.871117 0.871117
0.892709 0.892709 0.892709
0.909818 0.909818 0.909818
0.284083 0.284083 0.284083
0.286087 0.286087 0.286087
0.362785 0.362785 0.362785
0.440469 0.440469 0.440469
0.570171 0.570171 0.570171
0.685611 0.685611 0.685611
0.762915 0.762915 0.762915
0.812962 0.812962 0.812962
0.843305 0.843305 0.843305
0.309571 0.309571 0.309571
0.313562 0.313562 0.313562
0.383163 0.383163 0.383163
0.464059 0.464059 0.464059
0.581061 0.581061 0.581061
0.675411 0.675411 0.675411
0.755170 0.755170 0.755170
0.808345 0.808345 0.808345
0.838093 0.838093 0.838093
0.407625 0.407625 0.407625
0.412701 0.412701 0.412701
0.468865 0.468865 0.468865
0.510855 0.510855 0.510855
0.564256 0.564256 0.564256
0.648740 0.648740 0.648740
0.735239 0.735239 0.735239
0.798099 0.798099 0.798099
0.821114 0.821114 0.821114
0.451223 0.451223 0.451223
0.450358 0.450358 0.450358
0.464900 0.464900 0.464900
0.498985 0.498985 0.498985
0.548750 0.548750 0.548750
0.623086 0.623086 0.623086
0.713019 0.713019 0.713019
0.785896 0.785896 0.785896
0.824290 0.824290 0.824290
0.516956 0.516956 0.516956
0.514003 0.514003 0.514003
0.512738 0.512738 0.512738
0.521200 0.521200 0.521200
0.552650 0.552650 0.552650
0.616563 0.616563 0.616563
0.703294 0.703294 0.703294
0.779392 0.779392 0.779392
0.826894 0.826894 0.826894
0.616436 0.616436 0.616436
0.613425 0.613425 0.613425
0.608224 0.608224 0.608224
0.606259 0.606259 0.606259
0.615249 0.615249 0.615249
0.640439 0.640439 0.640439
0.716461 0.716461 0.716461
0.788121 0.788121 0.788121
0.834529 0.834529 0.834529
0.715837 0.715837 0.715837
0.714001 0.714001 0.714001
0.710978 0.710978 0.710978
0.710614 0.710614 0.710614
0.718264 0.718264 0.718264
0.737552 0.737552 0.737552
0.769460 0.769460 0.769460
0.813563 0.813563 0.813563
0.854918 0.854918 0.854918
0.789578 0.789578 0.789578
0.788766 0.788766 0.788766
0.788095 0.788095 0.788095
0.788878 0.788878 0.788878
0.794812 0.794812 0.794812
0.808475 0.808475 0.808475
0.830617 0.830617 0.830617
0.857963 0.857963 0.857963
0.879830 0.879830 0.879830
0.823691 0.823691 0.823691
0.825216 0.825216 0.825216
0.827054 0.827054 0.827054
0.836445 0.836445 0.836445
0.843378 0.843378 0.843378
0.855861 0.855861 0.855861
0.871615 0.871615 0.871615
0.893296 0.893296 0.893296
0.910840 0.910840 0.910840
0.341900 0.341900 0.341900
0.340898 0.340898 0.340898
0.395991 0.395991 0.395991
0.482035 0.482035 0.482035
0.601039 0.601039 0.601039
0.725334 0.725334 0.725334
0.789471 0.789471 0.789471
0.828005 0.828005 0.828005
0.848865 0.848865 0.848865
0.360451 0.360451 0.360451
0.360797 0.360797 0.360797
0.413368 0.413368 0.413368
0.501601 0.501601 0.501601
0.616285 0.616285 0.616285
0.716193 0.716193 0.716193
0.783444 0.783444 0.783444
0.823702 0.823702 0.823702
0.843616 0.843616 0.843616
0.447595 0.447595 0.447595
0.451224 0.451224 0.451224
0.499964 0.499964 0.499964
0.574372 0.574372 0.574372
0.623315 0.623315 0.623315
0.695042 0.695042 0.695042
0.764549 0.764549 0.764549
0.813803 0.813803 0.813803
0.826373 0.826373 0.826373
0.517922 0.517922 0.517922
0.517184 0.517184 0.517184
0.531436 0.531436 0.531436
0.563393 0.563393 0.563393
0.608277 0.608277 0.608277
0.673683 0.673683 0.673683
0.743342 0.743342 0.743342
0.801224 0.801224 0.801224
0.836118 0.836118 0.836118
0.549725 0.549725 0.549725
0.548721 0.548721 0.548721
0.554183 0.554183 0.554183
0.572753 0.572753 0.572753
0.609624 0.609624 0.609624
0.665161 0.665161 0.665161
0.730919 0.730919 0.730919
0.794080 0.794080 0.794080
0.834805 0.834805 0.834805
0.623623 0.623623 0.623623
0.621841 0.621841 0.621841
0.621045 0.621045 0.621045
0.626504 0.626504 0.626504
0.644928 0.644928 0.644928
0.682457 0.682457 0.682457
0.737312 0.737312 0.737312
0.797816 0.797816 0.797816
0.840252 0.840252 0.840252
0.712616 0.712616 0.712616
0.711456 0.711456 0.711456
0.710258 0.710258 0.710258
0.712103 0.712103 0.712103
0.721339 0.721339 0.721339
0.739673 0.739673 0.739673
0.765056 0.765056 0.765056
0.816783 0.816783 0.816783
0.857512 0.857512 0.857512
0.786358 0.786358 0.786358
0.785812 0.785812 0.785812
0.785944 0.785944 0.785944
0.787837 0.787837 0.787837
0.794704 0.794704 0.794704
0.808658 0.808658 0.808658
0.830252 0.830252 0.830252
0.857572 0.857572 0.857572
0.881085 0.881085 0.881085
0.817053 0.817053 0.817053
0.821471 0.821471 0.821471
0.824480 0.824480 0.824480
0.834764 0.834764 0.834764
0.842353 0.842353 0.842353
0.855662 0.855662 0.855662
0.871973 0.871973 0.871973
0.894136 0.894136 0.894136
0.912499 0.912499 0.912499
0.395492 0.395492 0.395492
0.395091 0.395091 0.395091
0.440787 0.440787 0.440787
0.521563 0.521563 0.521563
0.636860 0.636860 0.636860
0.767331 0.767331 0.767331
0.814900 0.814900 0.814900
0.847296 0.847296 0.847296
0.857490 0.857490 0.857490
0.410115 0.410115 0.410115
0.410353 0.410353 0.410353
0.460718 0.460718 0.460718
0.538185 0.538185 0.538185
0.650712 0.650712 0.650712
0.759092 0.759092 0.759092
0.809494 0.809494 0.809494
0.843242 0.843242 0.843242
0.853546 0.853546 0.853546
0.500233 0.500233 0.500233
0.502756 0.502756 0.502756
0.544236 0.544236 0.544236
0.612110 0.612110 0.612110
0.683092 0.683092 0.683092
0.741406 0.741406 0.741406
0.796378 0.796378 0.796378
0.833801 0.833801 0.833801
0.845261 0.845261 0.845261
0.583767 0.583767 0.583767
0.582421 0.582421 0.582421
0.598909 0.598909 0.598909
0.627080 0.627080 0.627080
0.667307 0.667307 0.667307
0.719763 0.719763 0.719763
0.778433 0.778433 0.778433
0.821445 0.821445 0.821445
0.848451 0.848451 0.848451
0.597577 0.597577 0.597577
0.597357 0.597357 0.597357
0.608212 0.608212 0.608212
0.630239 0.630239 0.630239
0.665937 0.665937 0.665937
0.710455 0.710455 0.710455
0.765394 0.765394 0.765394
0.813340 0.813340 0.813340
0.846494 0.846494 0.846494
0.646126 0.646126 0.646126
0.645548 0.645548 0.645548
0.650595 0.650595 0.650595
0.662684 0.662684 0.662684
0.687127 0.687127 0.687127
0.721121 0.721121 0.721121
0.767821 0.767821 0.767821
0.814654 0.814654 0.814654
0.850514 0.850514 0.850514
0.715897 0.715897 0.715897
0.715303 0.715303 0.715303
0.716968 0.716968 0.716968
0.721983 0.721983 0.721983
0.735180 0.735180 0.735180
0.757508 0.757508 0.757508
0.789703 0.789703 0.789703
0.828955 0.828955 0.828955
0.863061 0.863061 0.863061
0.786102 0.786102 0.786102
0.785690 0.785690 0.785690
0.786293 0.786293 0.786293
0.789117 0.789117 0.789117
0.797068 0.797068 0.797068
0.811851 0.811851 0.811851
0.833012 0.833012 0.833012
0.856334 0.856334 0.856334
0.883973 0.883973 0.883973
0.807948 0.807948 0.807948
0.822492 0.822492 0.822492
0.821020 0.821020 0.821020
0.832428 0.832428 0.832428
0.842139 0.842139 0.842139
0.856074 0.856074 0.856074
0.872590 0.872590 0.872590
0.895416 0.895416 0.895416
0.914839 0.914839 0.914839
0.469130 0.469130 0.469130
0.474077 0.474077 0.474077
0.499458 0.499458 0.499458
0.570942 0.570942 0.570942
0.706149 0.706149 0.706149
0.826286 0.826286 0.826286
0.857473 0.857473 0.857473
0.872123 0.872123 0.872123
0.867808 0.867808 0.867808
0.483991 0.483991 0.483991
0.489065 0.489065 0.489065
0.513731 0.513731 0.513731
0.584172 0.584172 0.584172
0.714658 0.714658 0.714658
0.819879 0.819879 0.819879
0.852136 0.852136 0.852136
0.868358 0.868358 0.868358
0.866618 0.866618 0.866618
0.551066 0.551066 0.551066
0.555933 0.555933 0.555933
0.580394 0.580394 0.580394
0.648337 0.648337 0.648337
0.746408 0.746408 0.746408
0.802176 0.802176 0.802176
0.837676 0.837676 0.837676
0.859627 0.859627 0.859627
0.853090 0.853090 0.853090
0.664027 0.664027 0.664027
0.663538 0.663538 0.663538
0.669040 0.669040 0.669040
0.690401 0.690401 0.690401
0.730120 0.730120 0.730120
0.783223 0.783223 0.783223
0.821577 0.821577 0.821577
0.851014 0.851014 0.851014
0.868132 0.868132 0.868132
0.663519 0.663519 0.663519
0.664024 0.664024 0.664024
0.671635 0.671635 0.671635
0.690163 0.690163 0.690163
0.720557 0.720557 0.720557
0.766026 0.766026 0.766026
0.808338 0.808338 0.808338
0.842609 0.842609 0.842609
0.865868 0.865868 0.865868
0.685525 0.685525 0.685525
0.685901 0.685901 0.685901
0.691599 0.691599 0.691599
0.706083 0.706083 0.706083
0.728496 0.728496 0.728496
0.764306 0.764306 0.764306
0.804537 0.804537 0.804537
0.840880 0.840880 0.840880
0.867770 0.867770 0.867770
0.729052 0.729052 0.729052
0.729092 0.729092 0.729092
0.732833 0.732833 0.732833
0.743983 0.743983 0.743983
0.759908 0.759908 0.759908
0.784272 0.784272 0.784272
0.814462 0.814462 0.814462
0.850411 0.850411 0.850411
0.876249 0.876249 0.876249
0.784179 0.784179 0.784179
0.783985 0.783985 0.783985
0.785814 0.785814 0.785814
0.792223 0.792223 0.792223
0.803733 0.803733 0.803733
0.819613 0.819613 0.819613
0.840997 0.840997 0.840997
0.868449 0.868449 0.868449
0.892774 0.892774 0.892774
0.797500 0.797500 0.797500
0.819722 0.819722 0.819722
0.816461 0.816461 0.816461
0.815621 0.815621 0.815621
0.842516 0.842516 0.842516
0.857024 0.857024 0.857024
0.874121 0.874121 0.874121
0.896797 0.896797 0.896797
0.917860 0.917860 0.917860
