LUTs/trix_modern/TriX_Red25_Punchy.cube
TITLE "Tri-X Red25 Punchy"
# Adobe RGB in/out. REPLACES AgX. Tri-X Red25 Punchy.
LUT_3D_SIZE 5
DOMAIN_MIN 0.0 0.0 0.0
DOMAIN_MAX 1.0 1.0 1.0
0.091936 0.091936 0.091936
0.262916 0.262916 0.262916
0.827269 0.827269 0.827269
0.985699 0.985699 0.985699
0.988986 0.988986 0.988986
0.091948 0.091948 0.091948
0.138027 0.138027 0.138027
0.728005 0.728005 0.728005
0.973392 0.973392 0.973392
0.986778 0.986778 0.986778
0.092025 0.092025 0.092025
0.105046 0.105046 0.105046
0.490112 0.490112 0.490112
0.893177 0.893177 0.893177
0.979579 0.979579 0.979579
0.092038 0.092038 0.092038
0.096816 0.096816 0.096816
0.334620 0.334620 0.334620
0.790743 0.790743 0.790743
0.963435 0.963435 0.963435
0.091936 0.091936 0.091936
0.091936 0.091936 0.091936
0.094432 0.094432 0.094432
0.634947 0.634947 0.634947
0.957230 0.957230 0.957230
0.091936 0.091936 0.091936
0.202669 0.202669 0.202669
0.795958 0.795958 0.795958
0.984125 0.984125 0.984125
0.988177 0.988177 0.988177
0.092072 0.092072 0.092072
0.152941 0.152941 0.152941
0.664422 0.664422 0.664422
0.970515 0.970515 0.970515
0.985938 0.985938 0.985938
0.099916 0.099916 0.099916
0.161617 0.161617 0.161617
0.532156 0.532156 0.532156
0.888238 0.888238 0.888238
0.977653 0.977653 0.977653
0.097122 0.097122 0.097122
0.118269 0.118269 0.118269
0.420028 0.420028 0.420028
0.812104 0.812104 0.812104
0.962524 0.962524 0.962524
0.091936 0.091936 0.091936
0.091936 0.091936 0.091936
0.109543 0.109543 0.109543
0.668906 0.668906 0.668906
0.957364 0.957364 0.957364
0.091962 0.091962 0.091962
0.296237 0.296237 0.296237
0.840155 0.840155 0.840155
0.983919 0.983919 0.983919
0.987804 0.987804 0.987804
0.098310 0.098310 0.098310
0.301138 0.301138 0.301138
0.716898 0.716898 0.716898
0.970151 0.970151 0.970151
0.985424 0.985424 0.985424
0.115185 0.115185 0.115185
0.203502 0.203502 0.203502
0.513339 0.513339 0.513339
0.883591 0.883591 0.883591
0.975223 0.975223 0.975223
0.121653 0.121653 0.121653
0.184755 0.184755 0.184755
0.489347 0.489347 0.489347
0.818003 0.818003 0.818003
0.959965 0.959965 0.959965
0.091936 0.091936 0.091936
0.091936 0.091936 0.091936
0.205142 0.205142 0.205142
0.724601 0.724601 0.724601
0.957141 0.957141 0.957141
0.092034 0.092034 0.092034
0.271908 0.271908 0.271908
0.848404 0.848404 0.848404
0.986052 0.986052 0.986052
0.988768 0.988768 0.988768
0.102588 0.102588 0.102588
0.334399 0.334399 0.334399
0.806239 0.806239 0.806239
0.977183 0.977183 0.977183
0.986322 0.986322 0.986322
0.135502 0.135502 0.135502
0.253833 0.253833 0.253833
0.613403 0.613403 0.613403
0.907740 0.907740 0.907740
0.976069 0.976069 0.976069
0.137709 0.137709 0.137709
0.212523 0.212523 0.212523
0.508888 0.508888 0.508888
0.803966 0.803966 0.803966
0.958643 0.958643 0.958643
0.091936 0.091936 0.091936
0.091936 0.091936 0.091936
0.208166 0.208166 0.208166
0.729493 0.729493 0.729493
0.956357 0.956357 0.956357
0.131918 0.131918 0.131918
0.277320 0.277320 0.277320
0.921115 0.921115 0.921115
0.992447 0.992447 0.992447
0.989936 0.989936 0.989936
0.208832 0.208832 0.208832
0.380609 0.380609 0.380609
0.916320 0.916320 0.916320
0.988018 0.988018 0.988018
0.987691 0.987691 0.987691
0.285830 0.285830 0.285830
0.420554 0.420554 0.420554
0.760126 0.760126 0.760126
0.964545 0.964545 0.964545
0.980443 0.980443 0.980443
0.173694 0.173694 0.173694
0.283375 0.283375 0.283375
0.606451 0.606451 0.606451
0.887402 0.887402 0.887402
0.963899 0.963899 0.963899
0.091936 0.091936 0.091936
0.091936 0.091936 0.091936
0.092552 0.092552 0.092552
0.683590 0.683590 0.683590
0.956150 0.956150 0.956150
