LUTs/trix_modern/TriX_Orange21_Normal.cube
TITLE "Tri-X Orange21 Normal"
# Adobe RGB in/out. REPLACES AgX. Tri-X Orange21 Normal.
LUT_3D_SIZE 33
DOMAIN_MIN 0.0 0.0 0.0
DOMAIN_MAX 1.0 1.0 1.0
0.093230 0.093230 0.093230
0.093230 0.093230 0.093230
0.093230 0.093230 0.093230
0.093265 0.093265 0.093265
0.095557 0.095557 0.095557
0.100460 0.100460 0.100460
0.126569 0.126569 0.126569
0.181874 0.181874 0.181874
0.212859 0.212859 0.212859
0.259951 0.259951 0.259951
0.320185 0.320185 0.320185
0.361798 0.361798 0.361798
0.400574 0.400574 0.400574
0.449911 0.449911 0.449911
0.512655 0.512655 0.512655
0.557923 0.557923 0.557923
0.603524 0.603524 0.603524
0.655136 0.655136 0.655136
0.706040 0.706040 0.706040
0.749220 0.749220 0.749220
0.786180 0.786180 0.786180
0.812930 0.812930 0.812930
0.839708 0.839708 0.839708
0.866260 0.866260 0.866260
0.884797 0.884797 0.884797
0.898508 0.898508 0.898508
0.917308 0.917308 0.917308
0.926498 0.926498 0.926498
0.948761 0.948761 0.948761
0.946106 0.946106 0.946106
0.943417 0.943417 0.943417
0.939070 0.939070 0.939070
0.961737 0.961737 0.961737
0.093230 0.093230 0.093230
0.093230 0.093230 0.093230
0.093231 0.093231 0.093231
0.093329 0.093329 0.093329
0.096917 0.096917 0.096917
0.102083 0.102083 0.102083
0.130282 0.130282 0.130282
0.185884 0.185884 0.185884
0.215934 0.215934 0.215934
0.262486 0.262486 0.262486
0.321614 0.321614 0.321614
0.362812 0.362812 0.362812
0.401162 0.401162 0.401162
0.450077 0.450077 0.450077
0.512446 0.512446 0.512446
0.557445 0.557445 0.557445
0.602835 0.602835 0.602835
0.654298 0.654298 0.654298
0.705248 0.705248 0.705248
0.748348 0.748348 0.748348
0.785573 0.785573 0.785573
0.812363 0.812363 0.812363
0.839178 0.839178 0.839178
0.865757 0.865757 0.865757
0.884469 0.884469 0.884469
0.898215 0.898215 0.898215
0.917023 0.917023 0.917023
0.926256 0.926256 0.926256
0.948618 0.948618 0.948618
0.945975 0.945975 0.945975
0.943219 0.943219 0.943219
0.938889 0.938889 0.938889
0.961633 0.961633 0.961633
0.093230 0.093230 0.093230
0.093230 0.093230 0.093230
0.093231 0.093231 0.093231
0.093395 0.093395 0.093395
0.099052 0.099052 0.099052
0.108572 0.108572 0.108572
0.144988 0.144988 0.144988
0.206126 0.206126 0.206126
0.230457 0.230457 0.230457
0.273100 0.273100 0.273100
0.328061 0.328061 0.328061
0.367452 0.367452 0.367452
0.404012 0.404012 0.404012
0.451205 0.451205 0.451205
0.512120 0.512120 0.512120
0.556047 0.556047 0.556047
0.600604 0.600604 0.600604
0.651475 0.651475 0.651475
0.702529 0.702529 0.702529
0.745310 0.745310 0.745310
0.783442 0.783442 0.783442
0.810362 0.810362 0.810362
0.837302 0.837302 0.837302
0.863973 0.863973 0.863973
0.883303 0.883303 0.883303
0.897175 0.897175 0.897175
0.916009 0.916009 0.916009
0.925393 0.925393 0.925393
0.948106 0.948106 0.948106
0.945508 0.945508 0.945508
0.942509 0.942509 0.942509
0.938240 0.938240 0.938240
0.961264 0.961264 0.961264
0.093230 0.093230 0.093230
0.093236 0.093236 0.093236
0.093266 0.093266 0.093266
0.093456 0.093456 0.093456
0.097371 0.097371 0.097371
0.106103 0.106103 0.106103
0.148891 0.148891 0.148891
0.217089 0.217089 0.217089
0.248075 0.248075 0.248075
0.287464 0.287464 0.287464
0.344215 0.344215 0.344215
0.380394 0.380394 0.380394
0.412451 0.412451 0.412451
0.455550 0.455550 0.455550
0.513308 0.513308 0.513308
0.554798 0.554798 0.554798
0.597522 0.597522 0.597522
0.647073 0.647073 0.647073
0.698050 0.698050 0.698050
0.740109 0.740109 0.740109
0.779716 0.779716 0.779716
0.806828 0.806828 0.806828
0.833965 0.833965 0.833965
0.860778 0.860778 0.860778
0.881211 0.881211 0.881211
0.895306 0.895306 0.895306
0.914183 0.914183 0.914183
0.923840 0.923840 0.923840
0.947178 0.947178 0.947178
0.944658 0.944658 0.944658
0.941221 0.941221 0.941221
0.937060 0.937060 0.937060
0.960590 0.960590 0.960590
0.093264 0.093264 0.093264
0.093290 0.093290 0.093290
0.093816 0.093816 0.093816
0.095829 0.095829 0.095829
0.099794 0.099794 0.099794
0.104451 0.104451 0.104451
0.142780 0.142780 0.142780
0.213472 0.213472 0.213472
0.251879 0.251879 0.251879
0.294859 0.294859 0.294859
0.354937 0.354937 0.354937
0.390044 0.390044 0.390044
0.422527 0.422527 0.422527
0.464590 0.464590 0.464590
0.519645 0.519645 0.519645
0.556356 0.556356 0.556356
0.595534 0.595534 0.595534
0.642501 0.642501 0.642501
0.692680 0.692680 0.692680
0.733299 0.733299 0.733299
0.773164 0.773164 0.773164
0.801906 0.801906 0.801906
0.829249 0.829249 0.829249
0.856205 0.856205 0.856205
0.877756 0.877756 0.877756
0.892622 0.892622 0.892622
0.911544 0.911544 0.911544
0.921603 0.921603 0.921603
0.945821 0.945821 0.945821
0.943326 0.943326 0.943326
0.939331 0.939331 0.939331
0.935199 0.935199 0.935199
0.959598 0.959598 0.959598
0.093496 0.093496 0.093496
0.093639 0.093639 0.093639
0.094793 0.094793 0.094793
0.098578 0.098578 0.098578
0.103248 0.103248 0.103248
0.111211 0.111211 0.111211
0.140511 0.140511 0.140511
0.206939 0.206939 0.206939
0.245715 0.245715 0.245715
0.293832 0.293832 0.293832
0.355354 0.355354 0.355354
0.395772 0.395772 0.395772
0.429722 0.429722 0.429722
0.469770 0.469770 0.469770
0.521494 0.521494 0.521494
0.557349 0.557349 0.557349
0.595062 0.595062 0.595062
0.640273 0.640273 0.640273
0.688187 0.688187 0.688187
0.726094 0.726094 0.726094
0.765131 0.765131 0.765131
0.795975 0.795975 0.795975
0.823408 0.823408 0.823408
0.850412 0.850412 0.850412
0.872541 0.872541 0.872541
0.889201 0.889201 0.889201
0.908145 0.908145 0.908145
0.918742 0.918742 0.918742
0.944043 0.944043 0.944043
0.940619 0.940619 0.940619
0.936846 0.936846 0.936846
0.960663 0.960663 0.960663
0.958290 0.958290 0.958290
0.095000 0.095000 0.095000
0.095631 0.095631 0.095631
0.099534 0.099534 0.099534
0.107059 0.107059 0.107059
0.120637 0.120637 0.120637
0.137341 0.137341 0.137341
0.156953 0.156953 0.156953
0.205524 0.205524 0.205524
0.240615 0.240615 0.240615
0.288651 0.288651 0.288651
0.351304 0.351304 0.351304
0.395269 0.395269 0.395269
0.430394 0.430394 0.430394
0.471947 0.471947 0.471947
0.524740 0.524740 0.524740
0.560526 0.560526 0.560526
0.593373 0.593373 0.593373
0.634996 0.634996 0.634996
0.682654 0.682654 0.682654
0.718937 0.718937 0.718937
0.756956 0.756956 0.756956
0.789738 0.789738 0.789738
0.816903 0.816903 0.816903
0.843679 0.843679 0.843679
0.866438 0.866438 0.866438
0.885184 0.885184 0.885184
0.904080 0.904080 0.904080
0.915379 0.915379 0.915379
0.940779 0.940779 0.940779
0.937306 0.937306 0.937306
0.933493 0.933493 0.933493
0.958929 0.958929 0.958929
0.956675 0.956675 0.956675
0.100536 0.100536 0.100536
0.102027 0.102027 0.102027
0.111473 0.111473 0.111473
0.128141 0.128141 0.128141
0.151282 0.151282 0.151282
0.175913 0.175913 0.175913
0.201805 0.201805 0.201805
0.228409 0.228409 0.228409
0.242562 0.242562 0.242562
0.285224 0.285224 0.285224
0.345969 0.345969 0.345969
0.389459 0.389459 0.389459
0.426757 0.426757 0.426757
0.470759 0.470759 0.470759
0.524943 0.524943 0.524943
0.559183 0.559183 0.559183
0.592220 0.592220 0.592220
0.633179 0.633179 0.633179
0.678821 0.678821 0.678821
0.711887 0.711887 0.711887
0.747978 0.747978 0.747978
0.783112 0.783112 0.783112
0.810115 0.810115 0.810115
0.836471 0.836471 0.836471
0.859757 0.859757 0.859757
0.880755 0.880755 0.880755
0.899442 0.899442 0.899442
0.911696 0.911696 0.911696
0.936664 0.936664 0.936664
0.933108 0.933108 0.933108
0.929551 0.929551 0.929551
0.956879 0.956879 0.956879
0.954777 0.954777 0.954777
0.105492 0.105492 0.105492
0.107077 0.107077 0.107077
0.116226 0.116226 0.116226
0.134256 0.134256 0.134256
0.158319 0.158319 0.158319
0.184649 0.184649 0.184649
0.211689 0.211689 0.211689
0.237068 0.237068 0.237068
0.264626 0.264626 0.264626
0.289114 0.289114 0.289114
0.343053 0.343053 0.343053
0.384722 0.384722 0.384722
0.422251 0.422251 0.422251
0.466492 0.466492 0.466492
0.521840 0.521840 0.521840
0.557056 0.557056 0.557056
0.590815 0.590815 0.590815
0.630507 0.630507 0.630507
0.674950 0.674950 0.674950
0.706611 0.706611 0.706611
0.741216 0.741216 0.741216
0.776587 0.776587 0.776587
0.803419 0.803419 0.803419
0.829253 0.829253 0.829253
0.852746 0.852746 0.852746
0.874714 0.874714 0.874714
0.894480 0.894480 0.894480
0.907819 0.907819 0.907819
0.934011 0.934011 0.934011
0.928396 0.928396 0.928396
0.925127 0.925127 0.925127
0.954560 0.954560 0.954560
0.952622 0.952622 0.952622
0.117745 0.117745 0.117745
0.119857 0.119857 0.119857
0.129277 0.129277 0.129277
0.149097 0.149097 0.149097
0.174360 0.174360 0.174360
0.204867 0.204867 0.204867
0.232683 0.232683 0.232683
0.260038 0.260038 0.260038
0.283290 0.283290 0.283290
0.305415 0.305415 0.305415
0.349290 0.349290 0.349290
0.382380 0.382380 0.382380
0.417976 0.417976 0.417976
0.461534 0.461534 0.461534
0.517512 0.517512 0.517512
0.553510 0.553510 0.553510
0.587769 0.587769 0.587769
0.627266 0.627266 0.627266
0.672614 0.672614 0.672614
0.702603 0.702603 0.702603
0.734367 0.734367 0.734367
0.769359 0.769359 0.769359
0.797530 0.797530 0.797530
0.822408 0.822408 0.822408
0.845804 0.845804 0.845804
0.868065 0.868065 0.868065
0.889640 0.889640 0.889640
0.903427 0.903427 0.903427
0.919741 0.919741 0.919741
0.932609 0.932609 0.932609
0.945575 0.945575 0.945575
0.952010 0.952010 0.952010
0.950246 0.950246 0.950246
0.144433 0.144433 0.144433
0.146824 0.146824 0.146824
0.156562 0.156562 0.156562
0.180663 0.180663 0.180663
0.210117 0.210117 0.210117
0.240291 0.240291 0.240291
0.272414 0.272414 0.272414
0.295486 0.295486 0.295486
0.318369 0.318369 0.318369
0.341360 0.341360 0.341360
0.366489 0.366489 0.366489
0.390633 0.390633 0.390633
0.415968 0.415968 0.415968
0.457970 0.457970 0.457970
0.513165 0.513165 0.513165
0.549162 0.549162 0.549162
0.583656 0.583656 0.583656
0.623807 0.623807 0.623807
0.670354 0.670354 0.670354
0.698692 0.698692 0.698692
0.729774 0.729774 0.729774
0.763852 0.763852 0.763852
0.792129 0.792129 0.792129
0.816064 0.816064 0.816064
0.839244 0.839244 0.839244
0.861675 0.861675 0.861675
0.884805 0.884805 0.884805
0.899073 0.899073 0.899073
0.915358 0.915358 0.915358
0.928579 0.928579 0.928579
0.942561 0.942561 0.942561
0.949275 0.949275 0.949275
0.947689 0.947689 0.947689
0.162453 0.162453 0.162453
0.164636 0.164636 0.164636
0.174105 0.174105 0.174105
0.196936 0.196936 0.196936
0.223454 0.223454 0.223454
0.255569 0.255569 0.255569
0.285243 0.285243 0.285243
0.308993 0.308993 0.308993
0.332599 0.332599 0.332599
0.356615 0.356615 0.356615
0.381273 0.381273 0.381273
0.407016 0.407016 0.407016
0.425600 0.425600 0.425600
0.456443 0.456443 0.456443
0.509952 0.509952 0.509952
0.545022 0.545022 0.545022
0.579817 0.579817 0.579817
0.620432 0.620432 0.620432
0.667356 0.667356 0.667356
0.695622 0.695622 0.695622
0.726591 0.726591 0.726591
0.759014 0.759014 0.759014
0.787999 0.787999 0.787999
0.810815 0.810815 0.810815
0.833280 0.833280 0.833280
0.855514 0.855514 0.855514
0.880064 0.880064 0.880064
0.894794 0.894794 0.894794
0.911041 0.911041 0.911041
0.924760 0.924760 0.924760
0.938694 0.938694 0.938694
0.946401 0.946401 0.946401
0.944993 0.944993 0.944993
0.178505 0.178505 0.178505
0.180746 0.180746 0.180746
0.189515 0.189515 0.189515
0.208705 0.208705 0.208705
0.235214 0.235214 0.235214
0.267113 0.267113 0.267113
0.292327 0.292327 0.292327
0.317107 0.317107 0.317107
0.341768 0.341768 0.341768
0.366403 0.366403 0.366403
0.390788 0.390788 0.390788
0.415208 0.415208 0.415208
0.440214 0.440214 0.440214
0.467470 0.467470 0.467470
0.508688 0.508688 0.508688
0.542990 0.542990 0.542990
0.576923 0.576923 0.576923
0.617460 0.617460 0.617460
0.664212 0.664212 0.664212
0.692999 0.692999 0.692999
0.723284 0.723284 0.723284
0.755586 0.755586 0.755586
0.785083 0.785083 0.785083
0.806353 0.806353 0.806353
0.828215 0.828215 0.828215
0.850108 0.850108 0.850108
0.874200 0.874200 0.874200
0.890456 0.890456 0.890456
0.906741 0.906741 0.906741
0.920971 0.920971 0.920971
0.936223 0.936223 0.936223
0.943372 0.943372 0.943372
0.941319 0.941319 0.941319
0.201426 0.201426 0.201426
0.203465 0.203465 0.203465
0.211182 0.211182 0.211182
0.227815 0.227815 0.227815
0.256001 0.256001 0.256001
0.281604 0.281604 0.281604
0.306170 0.306170 0.306170
0.332125 0.332125 0.332125
0.358093 0.358093 0.358093
0.383201 0.383201 0.383201
0.408225 0.408225 0.408225
0.432846 0.432846 0.432846
0.456585 0.456585 0.456585
0.481626 0.481626 0.481626
0.521159 0.521159 0.521159
0.543777 0.543777 0.543777
0.575200 0.575200 0.575200
0.614612 0.614612 0.614612
0.661141 0.661141 0.661141
0.690783 0.690783 0.690783
0.720944 0.720944 0.720944
0.753180 0.753180 0.753180
0.782626 0.782626 0.782626
0.803141 0.803141 0.803141
0.824180 0.824180 0.824180
0.845379 0.845379 0.845379
0.868723 0.868723 0.868723
0.886409 0.886409 0.886409
0.902654 0.902654 0.902654
0.917087 0.917087 0.917087
0.932278 0.932278 0.932278
0.944589 0.944589 0.944589
0.952100 0.952100 0.952100
0.231759 0.231759 0.231759
0.233722 0.233722 0.233722
0.241199 0.241199 0.241199
0.256909 0.256909 0.256909
0.281987 0.281987 0.281987
0.302484 0.302484 0.302484
0.328482 0.328482 0.328482
0.355581 0.355581 0.355581
0.382988 0.382988 0.382988
0.410071 0.410071 0.410071
0.435969 0.435969 0.435969
0.460087 0.460087 0.460087
0.484416 0.484416 0.484416
0.509181 0.509181 0.509181
0.534214 0.534214 0.534214
0.555672 0.555672 0.555672
0.577994 0.577994 0.577994
0.613584 0.613584 0.613584
0.659259 0.659259 0.659259
0.688868 0.688868 0.688868
0.719163 0.719163 0.719163
0.751520 0.751520 0.751520
0.781096 0.781096 0.781096
0.800997 0.800997 0.800997
0.821076 0.821076 0.821076
0.841673 0.841673 0.841673
0.864048 0.864048 0.864048
0.882817 0.882817 0.882817
0.898839 0.898839 0.898839
0.913446 0.913446 0.913446
0.928647 0.928647 0.928647
0.941913 0.941913 0.941913
0.949611 0.949611 0.949611
0.250661 0.250661 0.250661
0.252494 0.252494 0.252494
0.259416 0.259416 0.259416
0.272859 0.272859 0.272859
0.291636 0.291636 0.291636
0.313161 0.313161 0.313161
0.340150 0.340150 0.340150
0.365324 0.365324 0.365324
0.392800 0.392800 0.392800
0.420743 0.420743 0.420743
0.445880 0.445880 0.445880
0.470041 0.470041 0.470041
0.494737 0.494737 0.494737
0.519359 0.519359 0.519359
0.543317 0.543317 0.543317
0.568164 0.568164 0.568164
0.589581 0.589581 0.589581
0.617895 0.617895 0.617895
0.658479 0.658479 0.658479
0.688060 0.688060 0.688060
0.717805 0.717805 0.717805
0.750187 0.750187 0.750187
0.780167 0.780167 0.780167
0.799514 0.799514 0.799514
0.819060 0.819060 0.819060
0.838963 0.838963 0.838963
0.860198 0.860198 0.860198
0.879672 0.879672 0.879672
0.895396 0.895396 0.895396
0.909941 0.909941 0.909941
0.925130 0.925130 0.925130
0.938858 0.938858 0.938858
0.947802 0.947802 0.947802
0.269409 0.269409 0.269409
0.271008 0.271008 0.271008
0.275673 0.275673 0.275673
0.285119 0.285119 0.285119
0.301943 0.301943 0.301943
0.324594 0.324594 0.324594
0.347331 0.347331 0.347331
0.373904 0.373904 0.373904
0.401992 0.401992 0.401992
0.429263 0.429263 0.429263
0.454502 0.454502 0.454502
0.479285 0.479285 0.479285
0.504401 0.504401 0.504401
0.528059 0.528059 0.528059
0.552006 0.552006 0.552006
0.576468 0.576468 0.576468
0.601503 0.601503 0.601503
0.629065 0.629065 0.629065
0.663996 0.663996 0.663996
0.687495 0.687495 0.687495
0.717158 0.717158 0.717158
0.749173 0.749173 0.749173
0.779547 0.779547 0.779547
0.798691 0.798691 0.798691
0.817960 0.817960 0.817960
0.837180 0.837180 0.837180
0.857281 0.857281 0.857281
0.876150 0.876150 0.876150
0.892374 0.892374 0.892374
0.906709 0.906709 0.906709
0.921789 0.921789 0.921789
0.935711 0.935711 0.935711
0.946851 0.946851 0.946851
0.286963 0.286963 0.286963
0.288169 0.288169 0.288169
0.292654 0.292654 0.292654
0.301568 0.301568 0.301568
0.316716 0.316716 0.316716
0.340846 0.340846 0.340846
0.361077 0.361077 0.361077
0.389411 0.389411 0.389411
0.416397 0.416397 0.416397
0.442101 0.442101 0.442101
0.467903 0.467903 0.467903
0.493438 0.493438 0.493438
0.518915 0.518915 0.518915
0.542042 0.542042 0.542042
0.566045 0.566045 0.566045
0.590028 0.590028 0.590028
0.614807 0.614807 0.614807
0.640329 0.640329 0.640329
0.673660 0.673660 0.673660
0.693697 0.693697 0.693697
0.717034 0.717034 0.717034
0.748858 0.748858 0.748858
0.779204 0.779204 0.779204
0.798234 0.798234 0.798234
0.817505 0.817505 0.817505
0.836256 0.836256 0.836256
0.855411 0.855411 0.855411
0.873481 0.873481 0.873481
0.889767 0.889767 0.889767
0.903951 0.903951 0.903951
0.918778 0.918778 0.918778
0.932595 0.932595 0.932595
0.945121 0.945121 0.945121
0.308780 0.308780 0.308780
0.309922 0.309922 0.309922
0.314149 0.314149 0.314149
0.322471 0.322471 0.322471
0.336385 0.336385 0.336385
0.359424 0.359424 0.359424
0.381288 0.381288 0.381288
0.408498 0.408498 0.408498
0.433827 0.433827 0.433827
0.460853 0.460853 0.460853
0.487377 0.487377 0.487377
0.513348 0.513348 0.513348
0.537481 0.537481 0.537481
0.561275 0.561275 0.561275
0.585151 0.585151 0.585151
0.609863 0.609863 0.609863
0.633997 0.633997 0.633997
0.658915 0.658915 0.658915
0.682635 0.682635 0.682635
0.702390 0.702390 0.702390
0.724275 0.724275 0.724275
0.749117 0.749117 0.749117
0.779230 0.779230 0.779230
0.798249 0.798249 0.798249
0.817235 0.817235 0.817235
0.835920 0.835920 0.835920
0.854341 0.854341 0.854341
0.871707 0.871707 0.871707
0.887865 0.887865 0.887865
0.901543 0.901543 0.901543
0.916122 0.916122 0.916122
0.929796 0.929796 0.929796
0.943500 0.943500 0.943500
0.322841 0.322841 0.322841
0.323903 0.323903 0.323903
0.327820 0.327820 0.327820
0.335477 0.335477 0.335477
0.348508 0.348508 0.348508
0.369261 0.369261 0.369261
0.393011 0.393011 0.393011
0.416372 0.416372 0.416372
0.442943 0.442943 0.442943
0.469448 0.469448 0.469448
0.494148 0.494148 0.494148
0.519820 0.519820 0.519820
0.544402 0.544402 0.544402
0.568600 0.568600 0.568600
0.592817 0.592817 0.592817
0.617167 0.617167 0.617167
0.641359 0.641359 0.641359
0.666247 0.666247 0.666247
0.688315 0.688315 0.688315
0.711064 0.711064 0.711064
0.732452 0.732452 0.732452
0.756952 0.756952 0.756952
0.780099 0.780099 0.780099
0.798596 0.798596 0.798596
0.817570 0.817570 0.817570
0.835948 0.835948 0.835948
0.853926 0.853926 0.853926
0.870712 0.870712 0.870712
0.886459 0.886459 0.886459
0.899534 0.899534 0.899534
0.913803 0.913803 0.913803
0.927231 0.927231 0.927231
0.940999 0.940999 0.940999
0.338273 0.338273 0.338273
0.339267 0.339267 0.339267
0.343050 0.343050 0.343050
0.350506 0.350506 0.350506
0.362713 0.362713 0.362713
0.381507 0.381507 0.381507
0.407237 0.407237 0.407237
0.427428 0.427428 0.427428
0.455335 0.455335 0.455335
0.477571 0.477571 0.477571
0.504114 0.504114 0.504114
0.530339 0.530339 0.530339
0.554123 0.554123 0.554123
0.577989 0.577989 0.577989
0.602194 0.602194 0.602194
0.626583 0.626583 0.626583
0.650409 0.650409 0.650409
0.673888 0.673888 0.673888
0.695962 0.695962 0.695962
0.717792 0.717792 0.717792
0.740666 0.740666 0.740666
0.764240 0.764240 0.764240
0.785246 0.785246 0.785246
0.800310 0.800310 0.800310
0.818082 0.818082 0.818082
0.836492 0.836492 0.836492
0.854145 0.854145 0.854145
0.870452 0.870452 0.870452
0.885580 0.885580 0.885580
0.898086 0.898086 0.898086
0.911770 0.911770 0.911770
0.924992 0.924992 0.924992
0.938667 0.938667 0.938667
0.356785 0.356785 0.356785
0.357770 0.357770 0.357770
0.361387 0.361387 0.361387
0.368381 0.368381 0.368381
0.379730 0.379730 0.379730
0.396973 0.396973 0.396973
0.422679 0.422679 0.422679
0.441759 0.441759 0.441759
0.465981 0.465981 0.465981
0.490648 0.490648 0.490648
0.517525 0.517525 0.517525
0.540516 0.540516 0.540516
0.565182 0.565182 0.565182
0.589809 0.589809 0.589809
0.613932 0.613932 0.613932
0.638057 0.638057 0.638057
0.662005 0.662005 0.662005
0.683812 0.683812 0.683812
0.705176 0.705176 0.705176
0.727360 0.727360 0.727360
0.749168 0.749168 0.749168
0.771301 0.771301 0.771301
0.790068 0.790068 0.790068
0.805226 0.805226 0.805226
0.820358 0.820358 0.820358
0.837157 0.837157 0.837157
0.854848 0.854848 0.854848
0.870873 0.870873 0.870873
0.885289 0.885289 0.885289
0.897148 0.897148 0.897148
0.910195 0.910195 0.910195
0.923046 0.923046 0.923046
0.936466 0.936466 0.936466
0.376119 0.376119 0.376119
0.377049 0.377049 0.377049
0.380458 0.380458 0.380458
0.387023 0.387023 0.387023
0.397601 0.397601 0.397601
0.413505 0.413505 0.413505
0.435999 0.435999 0.435999
0.457447 0.457447 0.457447
0.478752 0.478752 0.478752
0.505741 0.505741 0.505741
0.528148 0.528148 0.528148
0.553123 0.553123 0.553123
0.578470 0.578470 0.578470
0.601457 0.601457 0.601457
0.625270 0.625270 0.625270
0.649311 0.649311 0.649311
0.672801 0.672801 0.672801
0.693807 0.693807 0.693807
0.714952 0.714952 0.714952
0.736491 0.736491 0.736491
0.758414 0.758414 0.758414
0.779136 0.779136 0.779136
0.794739 0.794739 0.794739
0.809910 0.809910 0.809910
0.824969 0.824969 0.824969
0.839878 0.839878 0.839878
0.855789 0.855789 0.855789
0.871680 0.871680 0.871680
0.885589 0.885589 0.885589
0.896762 0.896762 0.896762
0.909098 0.909098 0.909098
0.921355 0.921355 0.921355
0.934508 0.934508 0.934508
0.393110 0.393110 0.393110
0.393977 0.393977 0.393977
0.397154 0.397154 0.397154
0.403254 0.403254 0.403254
0.413034 0.413034 0.413034
0.427376 0.427376 0.427376
0.447192 0.447192 0.447192
0.470916 0.470916 0.470916
0.489722 0.489722 0.489722
0.515880 0.515880 0.515880
0.537617 0.537617 0.537617
0.563477 0.563477 0.563477
0.585518 0.585518 0.585518
0.610053 0.610053 0.610053
0.634836 0.634836 0.634836
0.658008 0.658008 0.658008
0.679871 0.679871 0.679871
0.700658 0.700658 0.700658
0.721697 0.721697 0.721697
0.742998 0.742998 0.742998
0.764488 0.764488 0.764488
0.783325 0.783325 0.783325
0.798747 0.798747 0.798747
0.814405 0.814405 0.814405
0.829274 0.829274 0.829274
0.844118 0.844118 0.844118
0.859080 0.859080 0.859080
0.872776 0.872776 0.872776
0.886184 0.886184 0.886184
0.896900 0.896900 0.896900
0.908483 0.908483 0.908483
0.920074 0.920074 0.920074
0.932755 0.932755 0.932755
0.411029 0.411029 0.411029
0.411844 0.411844 0.411844
0.414821 0.414821 0.414821
0.420520 0.420520 0.420520
0.429227 0.429227 0.429227
0.441816 0.441816 0.441816
0.459913 0.459913 0.459913
0.485848 0.485848 0.485848
0.502700 0.502700 0.502700
0.525314 0.525314 0.525314
0.549588 0.549588 0.549588
0.571732 0.571732 0.571732
0.595895 0.595895 0.595895
0.620172 0.620172 0.620172
0.642821 0.642821 0.642821
0.666750 0.666750 0.666750
0.687909 0.687909 0.687909
0.708659 0.708659 0.708659
0.729231 0.729231 0.729231
0.750112 0.750112 0.750112
0.770652 0.770652 0.770652
0.787585 0.787585 0.787585
0.802534 0.802534 0.802534
0.817892 0.817892 0.817892
0.833320 0.833320 0.833320
0.847968 0.847968 0.847968
0.863330 0.863330 0.863330
0.876322 0.876322 0.876322
0.887086 0.887086 0.887086
0.897497 0.897497 0.897497
0.908372 0.908372 0.908372
0.919274 0.919274 0.919274
0.931184 0.931184 0.931184
0.429514 0.429514 0.429514
0.430225 0.430225 0.430225
0.432822 0.432822 0.432822
0.437779 0.437779 0.437779
0.445653 0.445653 0.445653
0.457252 0.457252 0.457252
0.473829 0.473829 0.473829
0.497412 0.497412 0.497412
0.517220 0.517220 0.517220
0.536712 0.536712 0.536712
0.563371 0.563371 0.563371
0.582569 0.582569 0.582569
0.608293 0.608293 0.608293
0.629227 0.629227 0.629227
0.653496 0.653496 0.653496
0.675754 0.675754 0.675754
0.695535 0.695535 0.695535
0.715866 0.715866 0.715866
0.736296 0.736296 0.736296
0.756957 0.756957 0.756957
0.776836 0.776836 0.776836
0.791891 0.791891 0.791891
0.806550 0.806550 0.806550
0.821340 0.821340 0.821340
0.836485 0.836485 0.836485
0.851511 0.851511 0.851511
0.867282 0.867282 0.867282
0.880084 0.880084 0.880084
0.889885 0.889885 0.889885
0.898601 0.898601 0.898601
0.908639 0.908639 0.908639
0.918857 0.918857 0.918857
0.930286 0.930286 0.930286
0.449355 0.449355 0.449355
0.449985 0.449985 0.449985
0.452285 0.452285 0.452285
0.456683 0.456683 0.456683
0.463686 0.463686 0.463686
0.474054 0.474054 0.474054
0.488992 0.488992 0.488992
0.510500 0.510500 0.510500
0.532740 0.532740 0.532740
0.549786 0.549786 0.549786
0.573034 0.573034 0.573034
0.595163 0.595163 0.595163
0.617212 0.617212 0.617212
0.640382 0.640382 0.640382
0.663437 0.663437 0.663437
0.683357 0.683357 0.683357
0.703983 0.703983 0.703983
0.724030 0.724030 0.724030
0.743550 0.743550 0.743550
0.763513 0.763513 0.763513
0.781798 0.781798 0.781798
0.796238 0.796238 0.796238
0.810869 0.810869 0.810869
0.825669 0.825669 0.825669
0.840704 0.840704 0.840704
