LUTs/trix_modern/TriX_NoFilter_ExtraSoft.cube
TITLE "Tri-X NoFilter ExtraSoft"
# Adobe RGB in/out. REPLACES AgX. Tri-X NoFilter ExtraSoft.
LUT_3D_SIZE 33
DOMAIN_MIN 0.0 0.0 0.0
DOMAIN_MAX 1.0 1.0 1.0
0.099726 0.099726 0.099726
0.099726 0.099726 0.099726
0.099726 0.099726 0.099726
0.099726 0.099726 0.099726
0.101398 0.101398 0.101398
0.103965 0.103965 0.103965
0.115358 0.115358 0.115358
0.146416 0.146416 0.146416
0.160695 0.160695 0.160695
0.181668 0.181668 0.181668
0.213013 0.213013 0.213013
0.233918 0.233918 0.233918
0.251997 0.251997 0.251997
0.275310 0.275310 0.275310
0.305113 0.305113 0.305113
0.326788 0.326788 0.326788
0.347372 0.347372 0.347372
0.370064 0.370064 0.370064
0.394393 0.394393 0.394393
0.414999 0.414999 0.414999
0.440167 0.440167 0.440167
0.464688 0.464688 0.464688
0.489767 0.489767 0.489767
0.512954 0.512954 0.512954
0.531968 0.531968 0.531968
0.550817 0.550817 0.550817
0.578497 0.578497 0.578497
0.618445 0.618445 0.618445
0.768297 0.768297 0.768297
0.761322 0.761322 0.761322
0.754442 0.754442 0.754442
0.747636 0.747636 0.747636
0.825006 0.825006 0.825006
0.099726 0.099726 0.099726
0.099726 0.099726 0.099726
0.099726 0.099726 0.099726
0.099872 0.099872 0.099872
0.102106 0.102106 0.102106
0.104795 0.104795 0.104795
0.117105 0.117105 0.117105
0.148362 0.148362 0.148362
0.162069 0.162069 0.162069
0.182737 0.182737 0.182737
0.213778 0.213778 0.213778
0.234447 0.234447 0.234447
0.252334 0.252334 0.252334
0.275469 0.275469 0.275469
0.305109 0.305109 0.305109
0.326654 0.326654 0.326654
0.347157 0.347157 0.347157
0.369795 0.369795 0.369795
0.394093 0.394093 0.394093
0.414565 0.414565 0.414565
0.439714 0.439714 0.439714
0.464249 0.464249 0.464249
0.489338 0.489338 0.489338
0.512555 0.512555 0.512555
0.531585 0.531585 0.531585
0.550418 0.550418 0.550418
0.577908 0.577908 0.577908
0.616934 0.616934 0.616934
0.767920 0.767920 0.767920
0.760980 0.760980 0.760980
0.754131 0.754131 0.754131
0.747352 0.747352 0.747352
0.824778 0.824778 0.824778
0.099726 0.099726 0.099726
0.099726 0.099726 0.099726
0.099726 0.099726 0.099726
0.100037 0.100037 0.100037
0.103224 0.103224 0.103224
0.107414 0.107414 0.107414
0.124866 0.124866 0.124866
0.157142 0.157142 0.157142
0.168484 0.168484 0.168484
0.187538 0.187538 0.187538
0.217198 0.217198 0.217198
0.236824 0.236824 0.236824
0.253888 0.253888 0.253888
0.276306 0.276306 0.276306
0.305301 0.305301 0.305301
0.326339 0.326339 0.326339
0.346502 0.346502 0.346502
0.368918 0.368918 0.368918
0.393086 0.393086 0.393086
0.413235 0.413235 0.413235
0.438142 0.438142 0.438142
0.462715 0.462715 0.462715
0.487837 0.487837 0.487837
0.511151 0.511151 0.511151
0.530237 0.530237 0.530237
0.549021 0.549021 0.549021
0.575876 0.575876 0.575876
0.611781 0.611781 0.611781
0.766576 0.766576 0.766576
0.759758 0.759758 0.759758
0.753019 0.753019 0.753019
0.746338 0.746338 0.746338
0.823965 0.823965 0.823965
0.100224 0.100224 0.100224
0.100247 0.100247 0.100247
0.100307 0.100307 0.100307
0.100437 0.100437 0.100437
0.103091 0.103091 0.103091
0.107191 0.107191 0.107191
0.128497 0.128497 0.128497
0.162896 0.162896 0.162896
0.176505 0.176505 0.176505
0.195600 0.195600 0.195600
0.225613 0.225613 0.225613
0.243278 0.243278 0.243278
0.258239 0.258239 0.258239
0.278966 0.278966 0.278966
0.306518 0.306518 0.306518
0.326452 0.326452 0.326452
0.345794 0.345794 0.345794
0.367677 0.367677 0.367677
0.391525 0.391525 0.391525
0.411300 0.411300 0.411300
0.435474 0.435474 0.435474
0.460077 0.460077 0.460077
0.485229 0.485229 0.485229
0.508692 0.508692 0.508692
0.527878 0.527878 0.527878
0.546593 0.546593 0.546593
0.572443 0.572443 0.572443
0.603423 0.603423 0.603423
0.764140 0.764140 0.764140
0.757541 0.757541 0.757541
0.751000 0.751000 0.751000
0.744496 0.744496 0.744496
0.822484 0.822484 0.822484
0.104678 0.104678 0.104678
0.104670 0.104670 0.104670
0.104819 0.104819 0.104819
0.105256 0.105256 0.105256
0.106261 0.106261 0.106261
0.107903 0.107903 0.107903
0.128369 0.128369 0.128369
0.163820 0.163820 0.163820
0.179900 0.179900 0.179900
0.200683 0.200683 0.200683
0.231950 0.231950 0.231950
0.248720 0.248720 0.248720
0.263715 0.263715 0.263715
0.284234 0.284234 0.284234
0.310600 0.310600 0.310600
0.328413 0.328413 0.328413
0.346012 0.346012 0.346012
0.366776 0.366776 0.366776
0.389931 0.389931 0.389931
0.408966 0.408966 0.408966
0.432048 0.432048 0.432048
0.456589 0.456589 0.456589
0.481709 0.481709 0.481709
0.505315 0.505315 0.505315
0.524641 0.524641 0.524641
0.543292 0.543292 0.543292
0.567950 0.567950 0.567950
0.593400 0.593400 0.593400
0.760586 0.760586 0.760586
0.754300 0.754300 0.754300
0.748043 0.748043 0.748043
0.741761 0.741761 0.741761
0.820309 0.820309 0.820309
0.115931 0.115931 0.115931
0.115497 0.115497 0.115497
0.115196 0.115196 0.115196
0.114744 0.114744 0.114744
0.113937 0.113937 0.113937
0.115888 0.115888 0.115888
0.132685 0.132685 0.132685
0.165456 0.165456 0.165456
0.180608 0.180608 0.180608
0.202616 0.202616 0.202616
0.234194 0.234194 0.234194
0.253016 0.253016 0.253016
0.268624 0.268624 0.268624
0.288061 0.288061 0.288061
0.312842 0.312842 0.312842
0.330388 0.330388 0.330388
0.347303 0.347303 0.347303
0.367437 0.367437 0.367437
0.389333 0.389333 0.389333
0.406979 0.406979 0.406979
0.428566 0.428566 0.428566
0.452790 0.452790 0.452790
0.477702 0.477702 0.477702
0.501335 0.501335 0.501335
0.520820 0.520820 0.520820
0.539434 0.539434 0.539434
0.562897 0.562897 0.562897
0.583566 0.583566 0.583566
0.755951 0.755951 0.755951
0.750059 0.750059 0.750059
0.744166 0.744166 0.744166
0.775860 0.775860 0.775860
0.817443 0.817443 0.817443
0.155275 0.155275 0.155275
0.155704 0.155704 0.155704
0.154850 0.154850 0.154850
0.151628 0.151628 0.151628
0.148000 0.148000 0.148000
0.147573 0.147573 0.147573
0.151684 0.151684 0.151684
0.171000 0.171000 0.171000
0.183401 0.183401 0.183401
0.203852 0.203852 0.203852
0.235614 0.235614 0.235614
0.255521 0.255521 0.255521
0.271103 0.271103 0.271103
0.290945 0.290945 0.290945
0.316306 0.316306 0.316306
0.333657 0.333657 0.333657
0.348213 0.348213 0.348213
0.366702 0.366702 0.366702
0.388290 0.388290 0.388290
0.405322 0.405322 0.405322
0.425853 0.425853 0.425853
0.449637 0.449637 0.449637
0.473946 0.473946 0.473946
0.497285 0.497285 0.497285
0.516899 0.516899 0.516899
0.535511 0.535511 0.535511
0.557886 0.557886 0.557886
0.575611 0.575611 0.575611
0.750331 0.750331 0.750331
0.744885 0.744885 0.744885
0.739238 0.739238 0.739238
0.771303 0.771303 0.771303
0.813917 0.813917 0.813917
0.194565 0.194565 0.194565
0.194897 0.194897 0.194897
0.195899 0.195899 0.195899
0.190943 0.190943 0.190943
0.186558 0.186558 0.186558
0.184763 0.184763 0.184763
0.185751 0.185751 0.185751
0.190381 0.190381 0.190381
0.190473 0.190473 0.190473
0.207184 0.207184 0.207184
0.237602 0.237602 0.237602
0.256618 0.256618 0.256618
0.272531 0.272531 0.272531
0.293079 0.293079 0.293079
0.318852 0.318852 0.318852
0.335075 0.335075 0.335075
0.349712 0.349712 0.349712
0.367964 0.367964 0.367964
0.388474 0.388474 0.388474
0.403806 0.403806 0.403806
0.422554 0.422554 0.422554
0.445897 0.445897 0.445897
0.470178 0.470178 0.470178
0.493523 0.493523 0.493523
0.513631 0.513631 0.513631
0.532246 0.532246 0.532246
0.553682 0.553682 0.553682
0.570065 0.570065 0.570065
0.743926 0.743926 0.743926
0.738670 0.738670 0.738670
0.733394 0.733394 0.733394
0.765957 0.765957 0.765957
0.809781 0.809781 0.809781
0.213251 0.213251 0.213251
0.213480 0.213480 0.213480
0.212368 0.212368 0.212368
0.208572 0.208572 0.208572
0.204614 0.204614 0.204614
0.201742 0.201742 0.201742
0.201421 0.201421 0.201421
0.203295 0.203295 0.203295
0.208087 0.208087 0.208087
0.215681 0.215681 0.215681
0.241803 0.241803 0.241803
0.259218 0.259218 0.259218
0.274525 0.274525 0.274525
0.294591 0.294591 0.294591
0.320575 0.320575 0.320575
0.336772 0.336772 0.336772
0.351502 0.351502 0.351502
0.369024 0.369024 0.369024
0.388764 0.388764 0.388764
0.403556 0.403556 0.403556
0.421535 0.421535 0.421535
0.443415 0.443415 0.443415
0.466677 0.466677 0.466677
0.489201 0.489201 0.489201
0.509360 0.509360 0.509360
0.528588 0.528588 0.528588
0.550139 0.550139 0.550139
0.567402 0.567402 0.567402
0.739372 0.739372 0.739372
0.731722 0.731722 0.731722
0.726873 0.726873 0.726873
0.759942 0.759942 0.759942
0.805103 0.805103 0.805103
0.239960 0.239960 0.239960
0.239212 0.239212 0.239212
0.236251 0.236251 0.236251
0.233084 0.233084 0.233084
0.229094 0.229094 0.229094
0.226096 0.226096 0.226096
0.224454 0.224454 0.224454
0.224850 0.224850 0.224850
0.227591 0.227591 0.227591
0.232876 0.232876 0.232876
0.251783 0.251783 0.251783
0.263885 0.263885 0.263885
0.277548 0.277548 0.277548
0.296609 0.296609 0.296609
0.322492 0.322492 0.322492
0.338471 0.338471 0.338471
0.353085 0.353085 0.353085
0.370247 0.370247 0.370247
0.390194 0.390194 0.390194
0.404120 0.404120 0.404120
0.420214 0.420214 0.420214
0.441833 0.441833 0.441833
0.464744 0.464744 0.464744
0.486208 0.486208 0.486208
0.506012 0.506012 0.506012
0.525039 0.525039 0.525039
0.546034 0.546034 0.546034
0.563007 0.563007 0.563007
0.584097 0.584097 0.584097
0.612829 0.612829 0.612829
0.728201 0.728201 0.728201
0.754440 0.754440 0.754440
0.799965 0.799965 0.799965
0.275212 0.275212 0.275212
0.274215 0.274215 0.274215
0.271376 0.271376 0.271376
0.268980 0.268980 0.268980
0.265246 0.265246 0.265246
0.261538 0.261538 0.261538
0.259347 0.259347 0.259347
0.258616 0.258616 0.258616
0.259868 0.259868 0.259868
0.263269 0.263269 0.263269
0.268856 0.268856 0.268856
0.274918 0.274918 0.274918
0.282454 0.282454 0.282454
0.300048 0.300048 0.300048
0.325278 0.325278 0.325278
0.340499 0.340499 0.340499
0.354761 0.354761 0.354761
0.371853 0.371853 0.371853
0.392017 0.392017 0.392017
0.404939 0.404939 0.404939
0.420903 0.420903 0.420903
0.441805 0.441805 0.441805
0.463107 0.463107 0.463107
0.483619 0.483619 0.483619
0.503591 0.503591 0.503591
0.522904 0.522904 0.522904
0.543086 0.543086 0.543086
0.559785 0.559785 0.559785
0.579205 0.579205 0.579205
0.601096 0.601096 0.601096
0.699157 0.699157 0.699157
0.750751 0.750751 0.750751
0.747880 0.747880 0.747880
0.296018 0.296018 0.296018
0.295177 0.295177 0.295177
0.292657 0.292657 0.292657
0.290218 0.290218 0.290218
0.286586 0.286586 0.286586
0.283405 0.283405 0.283405
0.281256 0.281256 0.281256
0.279620 0.279620 0.279620
0.279752 0.279752 0.279752
0.281707 0.281707 0.281707
0.285506 0.285506 0.285506
0.291223 0.291223 0.291223
0.294049 0.294049 0.294049
0.305219 0.305219 0.305219
0.329354 0.329354 0.329354
0.343245 0.343245 0.343245
0.357224 0.357224 0.357224
0.374101 0.374101 0.374101
0.393941 0.393941 0.393941
0.406560 0.406560 0.406560
0.422840 0.422840 0.422840
0.442322 0.442322 0.442322
0.463224 0.463224 0.463224
0.482803 0.482803 0.482803
0.501758 0.501758 0.501758
0.520477 0.520477 0.520477
0.540596 0.540596 0.540596
0.557914 0.557914 0.557914
0.576746 0.576746 0.576746
0.595028 0.595028 0.595028
0.657229 0.657229 0.657229
0.743402 0.743402 0.743402
0.742081 0.742081 0.742081
0.312646 0.312646 0.312646
0.311926 0.311926 0.311926
0.309695 0.309695 0.309695
0.307116 0.307116 0.307116
0.304314 0.304314 0.304314
0.301467 0.301467 0.301467
0.298728 0.298728 0.298728
0.296946 0.296946 0.296946
0.296488 0.296488 0.296488
0.297317 0.297317 0.297317
0.299765 0.299765 0.299765
0.303660 0.303660 0.303660
0.309525 0.309525 0.309525
0.317927 0.317927 0.317927
0.334823 0.334823 0.334823
0.347653 0.347653 0.347653
0.360723 0.360723 0.360723
0.377094 0.377094 0.377094
0.396577 0.396577 0.396577
0.408865 0.408865 0.408865
0.424964 0.424964 0.424964
0.444342 0.444342 0.444342
0.464789 0.464789 0.464789
0.482583 0.482583 0.482583
0.501239 0.501239 0.501239
0.519835 0.519835 0.519835
0.538770 0.538770 0.538770
0.555583 0.555583 0.555583
0.574249 0.574249 0.574249
0.592490 0.592490 0.592490
0.617740 0.617740 0.617740
0.735496 0.735496 0.735496
0.736274 0.736274 0.736274
0.334316 0.334316 0.334316
0.333716 0.333716 0.333716
0.331809 0.331809 0.331809
0.329233 0.329233 0.329233
0.327241 0.327241 0.327241
0.324026 0.324026 0.324026
0.321134 0.321134 0.321134
0.319232 0.319232 0.319232
0.318248 0.318248 0.318248
0.318212 0.318212 0.318212
0.319686 0.319686 0.319686
0.322822 0.322822 0.322822
0.327297 0.327297 0.327297
0.333378 0.333378 0.333378
0.347845 0.347845 0.347845
0.354082 0.354082 0.354082
0.365323 0.365323 0.365323
0.380596 0.380596 0.380596
0.399665 0.399665 0.399665
0.411884 0.411884 0.411884
0.428339 0.428339 0.428339
0.447427 0.447427 0.447427
0.466887 0.466887 0.466887
0.484113 0.484113 0.484113
0.501911 0.501911 0.501911
0.519475 0.519475 0.519475
0.538018 0.538018 0.538018
0.554931 0.554931 0.554931
0.572763 0.572763 0.572763
0.589799 0.589799 0.589799
0.610820 0.610820 0.610820
0.661496 0.661496 0.661496
0.752799 0.752799 0.752799
0.360198 0.360198 0.360198
0.359683 0.359683 0.359683
0.358013 0.358013 0.358013
0.355722 0.355722 0.355722
0.354382 0.354382 0.354382
0.351248 0.351248 0.351248
0.349063 0.349063 0.349063
0.347054 0.347054 0.347054
0.345818 0.345818 0.345818
0.345497 0.345497 0.345497
0.346387 0.346387 0.346387
0.348280 0.348280 0.348280
0.351553 0.351553 0.351553
0.356090 0.356090 0.356090
0.362021 0.362021 0.362021
0.366819 0.366819 0.366819
0.372556 0.372556 0.372556
0.385522 0.385522 0.385522
0.403819 0.403819 0.403819
0.415928 0.415928 0.415928
0.432642 0.432642 0.432642
0.451512 0.451512 0.451512
0.470355 0.470355 0.470355
0.486992 0.486992 0.486992
0.503489 0.503489 0.503489
0.520733 0.520733 0.520733
0.538289 0.538289 0.538289
0.554432 0.554432 0.554432
0.572231 0.572231 0.572231
0.589449 0.589449 0.589449
0.608019 0.608019 0.608019
0.636888 0.636888 0.636888
0.743177 0.743177 0.743177
0.375933 0.375933 0.375933
0.375496 0.375496 0.375496
0.374056 0.374056 0.374056
0.371967 0.371967 0.371967
0.370325 0.370325 0.370325
0.368087 0.368087 0.368087
0.366593 0.366593 0.366593
0.364052 0.364052 0.364052
0.362581 0.362581 0.362581
0.362176 0.362176 0.362176
0.362325 0.362325 0.362325
0.363523 0.363523 0.363523
0.366056 0.366056 0.366056
0.369592 0.369592 0.369592
0.374250 0.374250 0.374250
0.380100 0.380100 0.380100
0.384724 0.384724 0.384724
0.393515 0.393515 0.393515
0.408999 0.408999 0.408999
0.421928 0.421928 0.421928
0.437792 0.437792 0.437792
0.456334 0.456334 0.456334
0.474894 0.474894 0.474894
0.490729 0.490729 0.490729
0.506476 0.506476 0.506476
0.523031 0.523031 0.523031
0.539468 0.539468 0.539468
0.555470 0.555470 0.555470
0.572532 0.572532 0.572532
0.588787 0.588787 0.588787
0.607156 0.607156 0.607156
0.628978 0.628978 0.628978
0.717641 0.717641 0.717641
0.390802 0.390802 0.390802
0.390417 0.390417 0.390417
0.389133 0.389133 0.389133
0.387194 0.387194 0.387194
0.385397 0.385397 0.385397
0.383901 0.383901 0.383901
0.381537 0.381537 0.381537
0.379663 0.379663 0.379663
0.378328 0.378328 0.378328
0.377517 0.377517 0.377517
0.377440 0.377440 0.377440
0.378177 0.378177 0.378177
0.380027 0.380027 0.380027
0.382759 0.382759 0.382759
0.386623 0.386623 0.386623
0.391571 0.391571 0.391571
0.397548 0.397548 0.397548
0.405426 0.405426 0.405426
0.418666 0.418666 0.418666
0.428584 0.428584 0.428584
0.444010 0.444010 0.444010
0.461920 0.461920 0.461920
0.480262 0.480262 0.480262
0.495367 0.495367 0.495367
0.510634 0.510634 0.510634
0.526350 0.526350 0.526350
0.541993 0.541993 0.541993
0.557103 0.557103 0.557103
0.573701 0.573701 0.573701
0.589972 0.589972 0.589972
0.607144 0.607144 0.607144
0.625187 0.625187 0.625187
0.677358 0.677358 0.677358
0.407950 0.407950 0.407950
0.407615 0.407615 0.407615
0.406485 0.406485 0.406485
0.404728 0.404728 0.404728
0.402934 0.402934 0.402934
0.402164 0.402164 0.402164
0.399404 0.399404 0.399404
0.398169 0.398169 0.398169
0.396641 0.396641 0.396641
0.395487 0.395487 0.395487
0.395241 0.395241 0.395241
0.395721 0.395721 0.395721
0.397197 0.397197 0.397197
0.399178 0.399178 0.399178
0.402451 0.402451 0.402451
0.406548 0.406548 0.406548
0.411671 0.411671 0.411671
0.418918 0.418918 0.418918
0.433460 0.433460 0.433460
0.440677 0.440677 0.440677
0.451096 0.451096 0.451096
0.468534 0.468534 0.468534
0.486430 0.486430 0.486430
0.500674 0.500674 0.500674
0.515719 0.515719 0.515719
0.530846 0.530846 0.530846
0.545621 0.545621 0.545621
0.559986 0.559986 0.559986
0.576044 0.576044 0.576044
0.591547 0.591547 0.591547
0.608472 0.608472 0.608472
0.625543 0.625543 0.625543
0.656359 0.656359 0.656359
0.431076 0.431076 0.431076
0.430709 0.430709 0.430709
0.429465 0.429465 0.429465
0.427493 0.427493 0.427493
0.425361 0.425361 0.425361
0.424217 0.424217 0.424217
0.421701 0.421701 0.421701
0.420069 0.420069 0.420069
0.418107 0.418107 0.418107
0.417243 0.417243 0.417243
0.416779 0.416779 0.416779
0.417203 0.417203 0.417203
0.418277 0.418277 0.418277
0.420439 0.420439 0.420439
0.423661 0.423661 0.423661
0.428439 0.428439 0.428439
0.433994 0.433994 0.433994
0.440670 0.440670 0.440670
0.448794 0.448794 0.448794
0.455238 0.455238 0.455238
0.464099 0.464099 0.464099
0.476070 0.476070 0.476070
0.493402 0.493402 0.493402
0.506873 0.506873 0.506873
0.521319 0.521319 0.521319
0.536223 0.536223 0.536223
0.550195 0.550195 0.550195
0.564077 0.564077 0.564077
0.579082 0.579082 0.579082
0.594429 0.594429 0.594429
0.610890 0.610890 0.610890
0.626277 0.626277 0.626277
0.649279 0.649279 0.649279
0.448716 0.448716 0.448716
0.448383 0.448383 0.448383
0.447246 0.447246 0.447246
0.445403 0.445403 0.445403
0.443286 0.443286 0.443286
0.441773 0.441773 0.441773
0.440132 0.440132 0.440132
0.437719 0.437719 0.437719
0.436407 0.436407 0.436407
0.435417 0.435417 0.435417
0.434336 0.434336 0.434336
0.434371 0.434371 0.434371
0.435277 0.435277 0.435277
0.437069 0.437069 0.437069
0.439941 0.439941 0.439941
0.443813 0.443813 0.443813
0.448805 0.448805 0.448805
0.454968 0.454968 0.454968
0.461975 0.461975 0.461975
0.470412 0.470412 0.470412
0.478376 0.478376 0.478376
0.489690 0.489690 0.489690
0.501231 0.501231 0.501231
0.513829 0.513829 0.513829
0.527915 0.527915 0.527915
0.542289 0.542289 0.542289
0.555733 0.555733 0.555733
0.569074 0.569074 0.569074
0.583408 0.583408 0.583408
0.598201 0.598201 0.598201
0.613930 0.613930 0.613930
0.629128 0.629128 0.629128
0.647517 0.647517 0.647517
0.466813 0.466813 0.466813
0.466517 0.466517 0.466517
0.465500 0.465500 0.465500
0.463825 0.463825 0.463825
0.461822 0.461822 0.461822
0.460169 0.460169 0.460169
0.459369 0.459369 0.459369
0.456583 0.456583 0.456583
0.455961 0.455961 0.455961
0.453847 0.453847 0.453847
0.453341 0.453341 0.453341
0.453514 0.453514 0.453514
0.453914 0.453914 0.453914
0.455172 0.455172 0.455172
0.457617 0.457617 0.457617
0.461067 0.461067 0.461067
0.465261 0.465261 0.465261
0.470617 0.470617 0.470617
0.477308 0.477308 0.477308
0.484620 0.484620 0.484620
0.493251 0.493251 0.493251
0.502818 0.502818 0.502818
0.513734 0.513734 0.513734
0.522549 0.522549 0.522549
0.535101 0.535101 0.535101
0.549236 0.549236 0.549236
0.562209 0.562209 0.562209
0.574922 0.574922 0.574922
0.588923 0.588923 0.588923
0.602801 0.602801 0.602801
0.618096 0.618096 0.618096
0.632453 0.632453 0.632453
0.648881 0.648881 0.648881
0.485639 0.485639 0.485639
0.485384 0.485384 0.485384
0.484505 0.484505 0.484505
0.483044 0.483044 0.483044
0.481257 0.481257 0.481257
0.479671 0.479671 0.479671
0.479238 0.479238 0.479238
0.476915 0.476915 0.476915
0.475595 0.475595 0.475595
0.474409 0.474409 0.474409
0.474044 0.474044 0.474044
0.473458 0.473458 0.473458
0.474007 0.474007 0.474007
0.475273 0.475273 0.475273
0.477227 0.477227 0.477227
0.480261 0.480261 0.480261
0.484051 0.484051 0.484051
0.488828 0.488828 0.488828
0.494467 0.494467 0.494467
0.501039 0.501039 0.501039
0.508084 0.508084 0.508084
0.516232 0.516232 0.516232
0.526346 0.526346 0.526346
0.534880 0.534880 0.534880
0.544451 0.544451 0.544451
0.556683 0.556683 0.556683
0.569499 0.569499 0.569499
0.581821 0.581821 0.581821
0.595453 0.595453 0.595453
0.608561 0.608561 0.608561
0.623019 0.623019 0.623019
0.636910 0.636910 0.636910
0.652043 0.652043 0.652043
0.503714 0.503714 0.503714
0.503508 0.503508 0.503508
0.502795 0.502795 0.502795
0.501600 0.501600 0.501600
0.500105 0.500105 0.500105
0.498697 0.498697 0.498697
0.498065 0.498065 0.498065
0.496868 0.496868 0.496868
0.495268 0.495268 0.495268
0.494977 0.494977 0.494977
0.493759 0.493759 0.493759
0.493766 0.493766 0.493766
0.494486 0.494486 0.494486
0.495080 0.495080 0.495080
0.496572 0.496572 0.496572
0.498979 0.498979 0.498979
0.502279 0.502279 0.502279
0.506347 0.506347 0.506347
0.511237 0.511237 0.511237
0.516989 0.516989 0.516989
0.523694 0.523694 0.523694
0.531056 0.531056 0.531056
0.539301 0.539301 0.539301
0.547478 0.547478 0.547478
0.556617 0.556617 0.556617
0.566597 0.566597 0.566597
0.577354 0.577354 0.577354
0.589820 0.589820 0.589820
0.603004 0.603004 0.603004
0.615385 0.615385 0.615385
0.628885 0.628885 0.628885
0.642274 0.642274 0.642274
0.656177 0.656177 0.656177
0.520065 0.520065 0.520065
0.519876 0.519876 0.519876
0.519220 0.519220 0.519220
0.518105 0.518105 0.518105
0.516668 0.516668 0.516668
0.515208 0.515208 0.515208
0.514265 0.514265 0.514265
0.513709 0.513709 0.513709
0.511793 0.511793 0.511793
0.511386 0.511386 0.511386
0.510266 0.510266 0.510266
0.510422 0.510422 0.510422
0.510203 0.510203 0.510203
0.511166 0.511166 0.511166
0.512786 0.512786 0.512786
0.514638 0.514638 0.514638
0.517445 0.517445 0.517445
0.521082 0.521082 0.521082
0.525583 0.525583 0.525583
0.530878 0.530878 0.530878
0.537053 0.537053 0.537053
0.543935 0.543935 0.543935
0.551749 0.551749 0.551749
0.560336 0.560336 0.560336
0.568930 0.568930 0.568930
0.578491 0.578491 0.578491
0.588424 0.588424 0.588424
0.598457 0.598457 0.598457
0.611228 0.611228 0.611228
0.623160 0.623160 0.623160
0.635801 0.635801 0.635801
0.648226 0.648226 0.648226
0.661552 0.661552 0.661552
0.534725 0.534725 0.534725
0.534563 0.534563 0.534563
0.534001 0.534001 0.534001
0.533040 0.533040 0.533040
0.531787 0.531787 0.531787
0.530478 0.530478 0.530478
0.529538 0.529538 0.529538
0.529715 0.529715 0.529715
0.527810 0.527810 0.527810
0.526987 0.526987 0.526987
0.526756 0.526756 0.526756
0.526179 0.526179 0.526179
0.526520 0.526520 0.526520
0.527427 0.527427 0.527427
0.528440 0.528440 0.528440
0.530406 0.530406 0.530406
0.533123 0.533123 0.533123
0.536497 0.536497 0.536497
0.540530 0.540530 0.540530
0.545396 0.545396 0.545396
0.551014 0.551014 0.551014
0.557411 0.557411 0.557411
0.564534 0.564534 0.564534
0.572647 0.572647 0.572647
0.581384 0.581384 0.581384
0.590971 0.590971 0.590971
0.601226 0.601226 0.601226
0.610166 0.610166 0.610166
0.620208 0.620208 0.620208
0.631637 0.631637 0.631637
0.643654 0.643654 0.643654
0.655280 0.655280 0.655280
0.667606 0.667606 0.667606
0.548665 0.548665 0.548665
0.548530 0.548530 0.548530
0.548058 0.548058 0.548058
0.547249 0.547249 0.547249
0.546186 0.546186 0.546186
0.545058 0.545058 0.545058
0.544205 0.544205 0.544205
0.544229 0.544229 0.544229
0.543330 0.543330 0.543330
0.542343 0.542343 0.542343
0.542955 0.542955 0.542955
0.542013 0.542013 0.542013
0.542850 0.542850 0.542850
0.543033 0.543033 0.543033
0.544518 0.544518 0.544518
0.546318 0.546318 0.546318
0.548605 0.548605 0.548605
0.551682 0.551682 0.551682
0.555433 0.555433 0.555433
0.559958 0.559958 0.559958
0.565208 0.565208 0.565208
0.571215 0.571215 0.571215
0.577897 0.577897 0.577897
0.585515 0.585515 0.585515
0.594341 0.594341 0.594341
0.603635 0.603635 0.603635
0.614113 0.614113 0.614113
0.622795 0.622795 0.622795
0.632411 0.632411 0.632411
0.641145 0.641145 0.641145
0.652153 0.652153 0.652153
0.663160 0.663160 0.663160
0.674847 0.674847 0.674847
0.566031 0.566031 0.566031
0.565899 0.565899 0.565899
0.565435 0.565435 0.565435
0.564627 0.564627 0.564627
0.563529 0.563529 0.563529
0.562284 0.562284 0.562284
0.561161 0.561161 0.561161
0.560665 0.560665 0.560665
0.560280 0.560280 0.560280
0.558940 0.558940 0.558940
0.558777 0.558777 0.558777
0.558571 0.558571 0.558571
0.558565 0.558565 0.558565
0.559205 0.559205 0.559205
0.560271 0.560271 0.560271
0.561707 0.561707 0.561707
0.564117 0.564117 0.564117
0.566957 0.566957 0.566957
0.570237 0.570237 0.570237
0.574356 0.574356 0.574356
0.579276 0.579276 0.579276
0.585212 0.585212 0.585212
0.592078 0.592078 0.592078
0.599713 0.599713 0.599713
0.608148 0.608148 0.608148
