negative-gold-200/Gold200_Classic_ExtraSoft.cube
TITLE "Kodak Gold 200 Classic ExtraSoft"
# Adobe RGB in/out. REPLACES AgX. Kodak Gold 200 Classic ExtraSoft.
LUT_3D_SIZE 9
DOMAIN_MIN 0.0 0.0 0.0
DOMAIN_MAX 1.0 1.0 1.0
0.058206 0.064417 0.080741
0.077252 0.069711 0.083272
0.142103 0.080943 0.087046
0.318674 0.099880 0.091532
0.470371 0.136074 0.096688
0.562396 0.201888 0.103392
0.636912 0.302316 0.111066
0.686396 0.396519 0.119953
0.723596 0.464244 0.130741
0.062182 0.079351 0.083087
0.079361 0.081962 0.084390
0.144625 0.092956 0.087619
0.321418 0.113168 0.092019
0.471703 0.153376 0.097106
0.563021 0.226163 0.103858
0.637355 0.320967 0.111403
0.686602 0.408210 0.120308
0.723758 0.473776 0.131170
0.070408 0.124634 0.086629
0.085740 0.128380 0.087350
0.153520 0.143520 0.089871
0.331228 0.174491 0.093534
0.476459 0.231394 0.098495
0.565251 0.307913 0.105460
0.638941 0.386004 0.112576
0.687339 0.448083 0.121557
0.724337 0.506581 0.132693
0.082945 0.261101 0.090712
0.097827 0.266959 0.091330
0.174700 0.287997 0.093183
0.349092 0.321597 0.096672
0.485085 0.367104 0.101429
0.569306 0.415804 0.108143
0.641836 0.461629 0.115255
0.688686 0.509952 0.123757
0.725399 0.548780 0.135416
0.101452 0.429078 0.095388
0.119146 0.431870 0.095918
0.209127 0.441777 0.097643
0.375401 0.458904 0.100722
0.497706 0.482631 0.106017
0.575259 0.513001 0.111660
0.646110 0.539722 0.119048
0.690679 0.568756 0.127696
0.726974 0.600194 0.139320
0.132733 0.541814 0.101053
0.153670 0.543265 0.101641
0.255987 0.548425 0.103631
0.401165 0.557704 0.106891
0.509509 0.571105 0.111048
0.583099 0.588391 0.116809
0.651781 0.609181 0.123643
0.693331 0.625979 0.133462
0.729077 0.642915 0.145586
0.181874 0.622394 0.108554
0.211082 0.623124 0.108978
0.309353 0.625721 0.110443
0.427609 0.630413 0.112965
0.522294 0.637230 0.117502
0.592754 0.646088 0.122882
0.658830 0.656452 0.130667
0.696638 0.667984 0.140216
0.731713 0.680830 0.153890
0.254803 0.673278 0.116261
0.283865 0.673802 0.116705
0.365585 0.675671 0.118258
0.457094 0.679064 0.120961
0.537053 0.684032 0.124774
0.604109 0.690551 0.131287
0.664227 0.697039 0.139127
0.700583 0.704028 0.150401
0.734876 0.711899 0.163462
0.329435 0.712113 0.125020
0.351846 0.712423 0.125434
0.413382 0.713530 0.127204
0.489765 0.715546 0.130522
0.553514 0.718510 0.135226
0.616590 0.722421 0.141232
0.670008 0.727247 0.150910
0.705139 0.732934 0.161947
0.738551 0.739411 0.176692
0.059870 0.067664 0.104610
0.077769 0.071477 0.105112
0.142703 0.082232 0.106831
0.319326 0.101413 0.109695
0.470687 0.138151 0.113650
0.562544 0.204727 0.119558
0.637017 0.304516 0.126395
0.686445 0.397904 0.136461
0.723634 0.465372 0.149241
0.062994 0.080535 0.105052
0.079836 0.083462 0.105545
0.145220 0.094125 0.107233
0.322068 0.114659 0.110052
0.472019 0.155348 0.114069
0.563168 0.229016 0.119917
0.637460 0.323136 0.126850
0.686651 0.409562 0.136859
0.723796 0.474881 0.149731
0.070840 0.126383 0.106574
0.086111 0.130088 0.107036
0.154099 0.145549 0.108623
0.331873 0.176851 0.111290
0.476771 0.234114 0.115537
0.565398 0.310104 0.121179
0.639046 0.388080 0.128464
0.687388 0.449334 0.138274
0.724376 0.507617 0.151476
0.083357 0.263819 0.109139
0.098377 0.269676 0.109553
0.175473 0.290714 0.110985
0.349729 0.323765 0.113634
0.485392 0.369206 0.118095
0.569451 0.417136 0.123399
0.641940 0.462762 0.131342
0.688734 0.510981 0.140812
0.725437 0.549439 0.154636
0.101979 0.430376 0.112523
0.119798 0.433160 0.112906
0.209959 0.443043 0.114622
0.376027 0.460044 0.117586
0.498005 0.483717 0.121629
0.575401 0.514024 0.127201
0.646212 0.540400 0.135452
0.690726 0.569376 0.145806
0.727011 0.600759 0.159245
0.133353 0.542488 0.117823
0.154248 0.543937 0.118249
0.256818 0.549085 0.119742
0.401552 0.558345 0.122347
0.509692 0.571720 0.126370
0.583236 0.588976 0.133004
0.651881 0.609731 0.140680
0.693377 0.626312 0.152364
0.729114 0.643221 0.165269
0.182711 0.622733 0.123751
0.211915 0.623461 0.124117
0.310009 0.626054 0.125611
0.427958 0.630738 0.128954
0.522467 0.637544 0.133754
0.592886 0.646389 0.139795
0.658927 0.656717 0.149158
0.696683 0.668234 0.160316
0.731750 0.681064 0.174720
0.255635 0.673521 0.132414
0.284696 0.674044 0.132891
0.366215 0.675911 0.134581
0.457420 0.679300 0.137596
0.537216 0.684262 0.142255
0.604236 0.690773 0.149865
0.664284 0.697199 0.159016
0.700628 0.704180 0.170699
0.734911 0.712043 0.185952
0.330081 0.712257 0.142601
0.352482 0.712566 0.143183
0.413760 0.713673 0.145256
0.490069 0.715687 0.148993
0.553667 0.718648 0.154414
0.616704 0.722555 0.161449
0.670063 0.727376 0.171283
0.705182 0.733058 0.184156
0.738586 0.739530 0.198934
0.062508 0.073624 0.168420
0.079541 0.076905 0.169059
0.144850 0.087819 0.171341
0.321664 0.107030 0.175495
0.471823 0.145501 0.181610
0.563076 0.214942 0.189694
0.637395 0.312390 0.199982
0.686621 0.402848 0.213980
0.723772 0.469399 0.230213
0.065038 0.085783 0.168982
0.081470 0.088925 0.169619
0.147350 0.098110 0.171897
0.324401 0.121244 0.176044
0.473151 0.163234 0.182148
0.563699 0.238863 0.190219
0.637837 0.330901 0.200582
0.686826 0.414389 0.214566
0.723934 0.478831 0.230786
0.072252 0.132534 0.170991
0.087403 0.137043 0.171624
0.156636 0.152739 0.173887
0.334189 0.185284 0.178008
0.477892 0.243882 0.184075
0.565924 0.317944 0.192100
0.639421 0.395157 0.202731
0.687562 0.453568 0.216668
0.724513 0.511321 0.232838
0.084786 0.273581 0.174653
0.100323 0.279438 0.175279
0.178246 0.300471 0.177515
0.352015 0.331527 0.181590
0.486492 0.376731 0.187591
0.569969 0.421890 0.195534
0.642311 0.466812 0.206666
0.688907 0.514662 0.220518
0.725573 0.551797 0.236686
0.103848 0.435009 0.180052
0.122128 0.437769 0.180667
0.212951 0.447566 0.182867
0.378272 0.464117 0.186875
0.499077 0.487597 0.192783
0.575907 0.517146 0.201045
0.646577 0.542827 0.212506
0.690897 0.571593 0.226236
0.727146 0.602781 0.242674
0.135569 0.544898 0.187208
0.156837 0.546336 0.187809
0.259806 0.551445 0.189962
0.402943 0.560639 0.193887
0.510350 0.573922 0.199951
0.583728 0.591068 0.208995
0.652239 0.611702 0.220315
0.693545 0.627502 0.233889
0.729247 0.644314 0.250709
0.185719 0.623945 0.196093
0.214906 0.624668 0.196679
0.312364 0.627246 0.198894
0.429208 0.631902 0.203393
0.523091 0.638669 0.210062
0.593362 0.647465 0.218964
0.659276 0.657668 0.230116
0.696847 0.669129 0.244085
0.731881 0.681901 0.261146
0.258622 0.674392 0.208163
0.287161 0.674913 0.208836
0.368475 0.676771 0.211246
0.458588 0.680145 0.215657
0.537804 0.685086 0.222200
0.604692 0.691571 0.230943
0.664488 0.697772 0.242373
0.700787 0.704726 0.256690
0.735040 0.712559 0.273814
0.332400 0.712772 0.222590
0.354763 0.713081 0.223248
0.415112 0.714183 0.225606
0.491159 0.716190 0.229923
0.554217 0.719141 0.236400
0.617112 0.723035 0.245586
0.670259 0.727841 0.257334
0.705337 0.733505 0.271767
0.738712 0.739958 0.288700
0.066037 0.082633 0.329840
0.082503 0.086144 0.330504
0.148761 0.095981 0.332889
0.325954 0.117749 0.337268
0.473904 0.158636 0.343798
0.564052 0.233641 0.352580
0.638088 0.326756 0.363687
0.686943 0.411815 0.377061
0.724025 0.476724 0.388299
0.068490 0.094471 0.330425
0.084227 0.096816 0.331089
0.151230 0.108463 0.333473
0.328683 0.132768 0.337850
0.475226 0.178899 0.344377
0.564673 0.256834 0.353157
0.638530 0.345077 0.364260
0.687148 0.423150 0.377466
0.724187 0.486018 0.388696
0.074831 0.146163 0.332523
0.089630 0.150488 0.333186
0.161786 0.167275 0.335567
0.338439 0.202647 0.339939
0.479947 0.261851 0.346458
0.566889 0.332251 0.355227
0.640109 0.404266 0.366317
0.687882 0.461137 0.378919
0.724765 0.517424 0.390119
0.087230 0.291539 0.336377
0.103795 0.297394 0.337039
0.183666 0.314974 0.339414
0.356211 0.345696 0.343776
0.488510 0.390486 0.350280
0.570920 0.430523 0.359030
0.642992 0.474175 0.370096
0.689225 0.519798 0.381582
0.725824 0.556091 0.392730
0.107188 0.443427 0.342125
0.126360 0.446144 0.342785
0.218454 0.455417 0.345152
0.382395 0.471521 0.349499
0.501044 0.494660 0.355981
0.576837 0.521943 0.364703
0.647248 0.547242 0.375734
0.691210 0.575635 0.385542
0.727394 0.606470 0.396612
0.139602 0.549285 0.349862
0.161987 0.550703 0.350518
0.265301 0.555744 0.352875
0.405490 0.564817 0.357202
0.511554 0.577936 0.363656
0.584632 0.594884 0.372340
0.652896 0.614483 0.381441
0.693853 0.629673 0.390848
0.729492 0.646311 0.401818
0.191252 0.626155 0.359651
0.220409 0.626871 0.360304
0.316686 0.629420 0.362647
0.431498 0.634025 0.366951
0.524233 0.640722 0.373370
0.594234 0.649432 0.380506
0.659830 0.659406 0.388231
0.697149 0.670766 0.397527
0.732121 0.683433 0.408372
0.264118 0.675984 0.371538
0.291573 0.676501 0.372186
0.372624 0.678344 0.374514
0.460730 0.681691 0.378220
0.538880 0.686594 0.382746
0.605530 0.692907 0.388804
0.664862 0.698821 0.396417
0.701081 0.705724 0.405583
0.735276 0.713505 0.416282
0.336656 0.713716 0.383016
0.358951 0.714023 0.383471
0.417551 0.715118 0.385105
0.493157 0.717112 0.388098
0.555227 0.720044 0.392545
0.617860 0.723914 0.398500
0.670618 0.728691 0.405986
0.705622 0.734324 0.415005
0.738943 0.740742 0.425539
0.071145 0.095969 0.490657
0.086380 0.098467 0.490933
0.154523 0.110593 0.491922
0.332347 0.135613 0.493737
0.477000 0.182087 0.496436
0.565505 0.260523 0.500053
0.639122 0.347971 0.504605
0.687424 0.424931 0.510095
0.724404 0.487481 0.516515
0.072737 0.108446 0.490899
0.087875 0.111804 0.491175
0.157694 0.125239 0.492165
0.335062 0.152938 0.493978
0.478314 0.204224 0.496675
0.566122 0.283703 0.500290
0.639562 0.366028 0.504839
0.687628 0.435980 0.510326
0.724565 0.496579 0.516743
0.079963 0.167250 0.491770
0.094331 0.172364 0.492046
0.169463 0.190739 0.493033
0.344773 0.230792 0.494842
0.483004 0.288718 0.497533
0.568327 0.353385 0.501140
0.641136 0.417580 0.505679
0.688360 0.472239 0.511155
0.725142 0.524566 0.517558
0.090710 0.314951 0.493368
0.108750 0.319644 0.493642
0.191943 0.336368 0.494625
0.362466 0.366639 0.496427
0.491513 0.405419 0.499107
0.572336 0.443174 0.502699
0.644008 0.484987 0.507221
0.689698 0.526885 0.512675
0.726198 0.562408 0.519054
0.111970 0.455405 0.495745
0.132570 0.457877 0.496018
0.226684 0.466651 0.496995
0.387272 0.482391 0.498786
0.502960 0.505046 0.501449
0.578222 0.528981 0.505020
0.648248 0.553735 0.509515
0.691677 0.581591 0.514938
0.727765 0.611918 0.521281
0.145535 0.555737 0.498935
0.169662 0.557126 0.499205
0.273521 0.562068 0.500174
0.409273 0.570969 0.501950
0.513345 0.583851 0.504592
0.585978 0.600514 0.508135
0.653875 0.617943 0.512594
0.694312 0.632876 0.517976
0.729858 0.649262 0.524255
0.199529 0.629416 0.502954
0.228638 0.630120 0.503221
0.323124 0.632627 0.504180
0.434901 0.637160 0.505938
0.525933 0.643755 0.508554
0.595533 0.652277 0.512061
0.660407 0.661975 0.516477
0.697598 0.673187 0.521806
0.732481 0.685703 0.527775
0.272337 0.678342 0.507808
0.298143 0.678852 0.508072
0.378809 0.680673 0.509019
0.463916 0.683981 0.510756
0.540482 0.688827 0.513340
0.606778 0.694528 0.516805
0.665420 0.700376 0.521169
0.701519 0.707205 0.526277
0.735629 0.714907 0.532030
0.342998 0.715116 0.513494
0.365194 0.715420 0.513754
0.421069 0.716505 0.514688
0.496132 0.718480 0.516400
0.556730 0.721384 0.518948
0.618976 0.725219 0.522365
0.671155 0.729955 0.526494
0.706048 0.735540 0.531343
0.739287 0.741906 0.537018
0.076984 0.116089 0.593769
0.091289 0.120050 0.593892
0.164812 0.133760 0.594334
0.340936 0.163274 0.595144
0.481152 0.217963 0.596351
0.567456 0.296826 0.597970
0.640514 0.376161 0.600012
0.688071 0.442134 0.602480
0.724913 0.501661 0.605375
0.079116 0.131192 0.593878
0.093443 0.135409 0.594001
0.168083 0.151181 0.594442
0.343635 0.183447 0.595252
0.482455 0.241748 0.596458
0.568069 0.316235 0.598076
0.640951 0.393896 0.600117
0.688274 0.452661 0.602584
0.725074 0.510514 0.605477
0.085549 0.200103 0.594266
0.101388 0.206223 0.594389
0.179806 0.228272 0.594830
0.353286 0.267117 0.595638
0.487104 0.320251 0.596842
0.570257 0.381477 0.598457
0.642517 0.435028 0.600495
0.689003 0.486850 0.602958
0.725649 0.533957 0.605845
0.097545 0.343784 0.594979
0.115057 0.348380 0.595102
0.203111 0.364775 0.595541
0.370875 0.394468 0.596347
0.495542 0.423286 0.597546
0.574237 0.459153 0.599157
0.645374 0.499236 0.601187
0.690335 0.536207 0.603642
0.726702 0.570754 0.606521
0.118813 0.470524 0.596042
0.140749 0.472919 0.596164
0.237802 0.481427 0.596601
0.392596 0.496712 0.597402
0.505466 0.517921 0.598596
0.580082 0.538240 0.600198
0.649594 0.562304 0.602219
0.692307 0.589475 0.604663
0.728264 0.616989 0.607528
0.153375 0.564254 0.597469
0.180022 0.565607 0.597590
0.284625 0.570422 0.598024
0.414334 0.579103 0.598821
0.515743 0.591683 0.600006
0.587786 0.607980 0.601598
0.655194 0.622522 0.603606
0.694930 0.637125 0.606034
0.730350 0.653063 0.608881
0.210658 0.633739 0.599271
0.239756 0.634427 0.599391
0.331773 0.636882 0.599821
0.439457 0.641320 0.600611
0.528211 0.647782 0.601787
0.597280 0.655873 0.603366
0.661184 0.665392 0.605357
0.698203 0.676412 0.607765
0.732966 0.688729 0.610590
0.283442 0.681482 0.601451
0.306964 0.681984 0.601570
0.386359 0.683777 0.601996
0.468186 0.687033 0.602778
0.542631 0.691806 0.603942
0.608456 0.696690 0.605505
0.666170 0.702450 0.607477
0.702109 0.709182 0.609862
0.736104 0.716781 0.612660
0.351522 0.716987 0.604012
0.373587 0.717287 0.604129
0.425776 0.718358 0.604550
0.500123 0.720308 0.605323
0.558747 0.723176 0.606473
0.620477 0.726964 0.608018
0.671876 0.731645 0.609967
0.706621 0.737167 0.612325
0.739752 0.743466 0.615092
0.084645 0.148314 0.659620
0.100128 0.152611 0.659687
0.177966 0.169814 0.659931
0.351784 0.205681 0.660378
0.486381 0.264755 0.661044
0.569917 0.334550 0.661940
0.642273 0.405722 0.663072
0.688890 0.462349 0.664445
0.725559 0.518204 0.666059
0.086237 0.166563 0.659679
0.102362 0.171680 0.659747
0.181356 0.189969 0.659990
0.354462 0.229975 0.660437
0.487669 0.287933 0.661103
0.570523 0.352772 0.661999
0.642708 0.417196 0.663130
0.689092 0.471918 0.664502
0.725719 0.524360 0.666116
0.092007 0.247678 0.659893
0.109959 0.253538 0.659961
0.194032 0.274582 0.660204
0.364040 0.310838 0.660650
0.492268 0.356686 0.661315
0.572692 0.409176 0.662210
0.644263 0.455992 0.663340
0.689817 0.504840 0.664710
0.726292 0.545503 0.666322
0.106475 0.379647 0.660287
0.125449 0.384137 0.660354
0.217261 0.398280 0.660597
0.381502 0.417582 0.661042
0.500618 0.445138 0.661705
0.576636 0.478156 0.662597
0.647103 0.516514 0.663725
0.691142 0.547671 0.665092
0.727341 0.581073 0.666700
0.129695 0.489097 0.660873
0.150838 0.491405 0.660941
0.251937 0.499607 0.661182
0.399271 0.514367 0.661626
0.508614 0.530074 0.662287
0.582430 0.549632 0.663176
0.651296 0.572886 0.664299
0.693103 0.599245 0.665661
0.728896 0.622824 0.667263
0.166091 0.574774 0.661663
0.194248 0.576085 0.661730
0.296032 0.580752 0.661970
0.420512 0.589172 0.662411
0.518760 0.601392 0.663069
0.590068 0.615755 0.663954
0.656862 0.628196 0.665072
0.695713 0.642402 0.666427
0.730975 0.657606 0.668022
0.224805 0.639104 0.662661
0.253890 0.639775 0.662727
0.342693 0.642165 0.662966
0.445184 0.646490 0.663405
0.531077 0.652699 0.664058
0.599486 0.660349 0.664938
0.662166 0.669652 0.666049
0.698970 0.680437 0.667396
0.733580 0.692511 0.668982
0.295087 0.685405 0.663872
0.318092 0.685897 0.663938
0.393132 0.687655 0.664175
0.473560 0.690848 0.664610
0.545338 0.694782 0.665259
0.610562 0.699392 0.666132
0.667119 0.705045 0.667235
0.702856 0.711657 0.668573
0.736706 0.719129 0.670146
0.362289 0.719332 0.665298
0.384196 0.719627 0.665363
0.431686 0.720681 0.665598
0.503715 0.722600 0.666030
0.561290 0.725424 0.666673
0.622373 0.729155 0.667538
0.672789 0.733766 0.668632
0.707346 0.739211 0.669958
0.740341 0.745425 0.671518
0.092725 0.196178 0.704611
0.110634 0.202192 0.704662
0.195208 0.224223 0.704848
0.364925 0.263260 0.705188
0.492693 0.317164 0.705696
0.572892 0.378516 0.706380
0.644407 0.433202 0.707246
0.689884 0.485318 0.708299
0.726345 0.532973 0.709540
0.094831 0.220324 0.704656
0.112629 0.226469 0.704708
0.198736 0.247721 0.704893
0.367579 0.286438 0.705233
0.493964 0.335611 0.705741
0.573492 0.395633 0.706425
0.644838 0.444079 0.707291
0.690085 0.494455 0.708343
0.726504 0.538841 0.709584
0.102854 0.303414 0.704819
0.120885 0.308148 0.704871
0.211351 0.325014 0.705056
0.377072 0.355520 0.705396
0.498504 0.398192 0.705903
0.575637 0.436474 0.706587
0.646382 0.479257 0.707452
0.690806 0.523131 0.708503
0.727074 0.559058 0.709742
0.116326 0.413066 0.705119
0.138373 0.415947 0.705170
0.234540 0.426164 0.705355
0.391041 0.444445 0.705695
0.504734 0.469262 0.706201
0.579538 0.500420 0.706883
0.649199 0.531364 0.707747
0.692122 0.561137 0.708796
0.728118 0.593264 0.710033
0.142430 0.510899 0.705566
0.165631 0.513111 0.705617
0.269199 0.519520 0.705802
0.407288 0.529688 0.706140
0.512405 0.544296 0.706645
0.585271 0.563017 0.707326
0.653361 0.585372 0.708187
0.694071 0.610820 0.709234
0.729666 0.629723 0.710468
0.182361 0.587191 0.706168
0.211566 0.588454 0.706220
0.309735 0.592954 0.706403
0.427812 0.601082 0.706741
0.522395 0.612897 0.707244
0.592831 0.622904 0.707922
0.658886 0.634913 0.708780
0.696664 0.648667 0.709823
0.731734 0.663012 0.711053
0.242080 0.645471 0.706932
0.271152 0.646120 0.706983
0.355918 0.648437 0.707165
0.452080 0.652550 0.707501
0.534535 0.658245 0.708003
0.602157 0.665678 0.708677
0.663356 0.674731 0.709532
0.699901 0.685245 0.710570
0.734327 0.695910 0.711795
0.308800 0.690094 0.707859
0.331559 0.690575 0.707910
0.401263 0.692291 0.708092
0.480043 0.694692 0.708426
0.548607 0.698121 0.708924
0.612966 0.702624 0.709596
0.668270 0.708151 0.710446
0.703764 0.714624 0.711479
0.737439 0.721947 0.712697
0.375337 0.722146 0.708954
0.392756 0.722435 0.709005
0.438798 0.723469 0.709185
0.507584 0.725351 0.709517
0.564364 0.728123 0.710013
0.624671 0.731786 0.710680
0.673897 0.736317 0.711524
0.708228 0.741671 0.712551
0.741058 0.747785 0.713762
0.105566 0.264622 0.744288
0.124294 0.270480 0.744326
0.215756 0.291517 0.744462
0.380375 0.324406 0.744713
0.500081 0.369826 0.745086
0.576382 0.417529 0.745590
0.646919 0.463097 0.746228
0.691057 0.511285 0.747004
0.727273 0.549634 0.747921
0.107670 0.287801 0.744322
0.126979 0.293656 0.744360
0.219265 0.311969 0.744496
0.383001 0.342757 0.744746
0.501274 0.387632 0.745119
0.576974 0.428738 0.745623
0.647346 0.472651 0.746261
0.691256 0.518799 0.747037
0.727431 0.555201 0.747954
0.114865 0.356582 0.744441
0.136411 0.361139 0.744479
0.231867 0.377398 0.744615
0.389762 0.402781 0.744865
0.504132 0.431131 0.745239
0.579091 0.465969 0.745742
0.648876 0.505527 0.746379
0.691971 0.540315 0.747155
0.727998 0.574446 0.748071
0.132027 0.445077 0.744662
0.153011 0.447785 0.744699
0.255041 0.456918 0.744835
0.400723 0.472973 0.745085
0.509300 0.496046 0.745458
0.582943 0.522884 0.745960
0.651668 0.548109 0.746597
0.693278 0.576429 0.747371
0.729035 0.607196 0.748286
0.157605 0.530040 0.744990
0.185117 0.531547 0.745028
0.288770 0.536902 0.745164
0.416620 0.546521 0.745413
0.516828 0.560384 0.745785
0.588605 0.578224 0.746286
0.655793 0.599620 0.746922
0.695211 0.620197 0.747695
0.730574 0.637613 0.748608
0.202977 0.601365 0.745434
0.232081 0.602577 0.745471
0.325808 0.606898 0.745607
0.436317 0.614099 0.745855
0.526640 0.621495 0.746226
0.596075 0.631064 0.746726
0.660648 0.642604 0.747360
0.697786 0.655558 0.748131
0.732631 0.669235 0.749042
0.262577 0.652686 0.745996
0.290338 0.653270 0.746033
0.371462 0.655351 0.746168
0.460131 0.659121 0.746416
0.538579 0.664624 0.746786
0.605295 0.671816 0.747284
0.664757 0.680592 0.747916
0.700999 0.690803 0.748684
0.735210 0.699834 0.749592
0.324886 0.694774 0.746680
0.347371 0.695124 0.746717
0.410722 0.696376 0.746852
0.487625 0.698650 0.747098
0.552433 0.701983 0.747466
0.615791 0.706367 0.747963
0.669624 0.711752 0.748592
0.704835 0.718068 0.749357
0.738305 0.725222 0.750261
0.388655 0.725417 0.747488
0.402400 0.725700 0.747526
0.447091 0.726710 0.747659
0.512097 0.728552 0.747905
0.567967 0.731264 0.748271
0.627373 0.734851 0.748765
0.675201 0.739290 0.749391
0.709269 0.744539 0.750153
0.741905 0.750540 0.751053
