negative-gold-200/Gold200_Modern_Normal.cube
TITLE "Kodak Gold 200 Modern Normal"
# Adobe RGB in/out. REPLACES AgX. Kodak Gold 200 Modern Normal.
LUT_3D_SIZE 33
DOMAIN_MIN 0.0 0.0 0.0
DOMAIN_MAX 1.0 1.0 1.0
0.078266 0.080889 0.091315
0.078266 0.080889 0.091315
0.080285 0.080889 0.091315
0.089886 0.081293 0.091315
0.110821 0.083206 0.091315
0.151949 0.088026 0.091315
0.212126 0.095100 0.091315
0.275016 0.102713 0.091315
0.339698 0.113356 0.091315
0.406747 0.127806 0.091344
0.470471 0.143337 0.091445
0.533020 0.163942 0.091737
0.587589 0.185263 0.092157
0.642456 0.208463 0.092650
0.683797 0.232152 0.093145
0.720009 0.259446 0.093688
0.749913 0.287815 0.094489
0.776091 0.316899 0.095444
0.801202 0.342940 0.096545
0.821101 0.368692 0.097747
0.839375 0.394479 0.099307
0.856886 0.420304 0.101109
0.871402 0.445964 0.102836
0.882312 0.469366 0.104503
0.892598 0.489871 0.107233
0.902449 0.510115 0.109979
0.911115 0.530142 0.112648
0.916745 0.550046 0.115327
0.921319 0.569662 0.118814
0.925694 0.588983 0.122231
0.929881 0.607389 0.125578
0.933892 0.621608 0.128854
0.937735 0.635438 0.132827
0.078266 0.080889 0.091315
0.078266 0.080889 0.091315
0.079234 0.080889 0.091315
0.086999 0.081497 0.091315
0.106485 0.083711 0.091315
0.145292 0.088528 0.091315
0.204645 0.095664 0.091315
0.268149 0.103215 0.091315
0.333922 0.114025 0.091315
0.402051 0.128682 0.091339
0.466254 0.144412 0.091441
0.529854 0.164966 0.091722
0.584706 0.186316 0.092140
0.639844 0.209474 0.092636
0.682179 0.233122 0.093130
0.718558 0.260517 0.093675
0.748893 0.288865 0.094470
0.775178 0.317920 0.095424
0.800376 0.343795 0.096520
0.820507 0.369513 0.097722
0.838836 0.395269 0.099273
0.856397 0.421068 0.101079
0.871095 0.446692 0.102809
0.882043 0.469938 0.104478
0.892352 0.490420 0.107193
0.902225 0.510643 0.109942
0.910985 0.530656 0.112614
0.916645 0.550541 0.115284
0.921227 0.570141 0.118774
0.925610 0.589445 0.122194
0.929804 0.607731 0.125543
0.933820 0.621936 0.128822
0.937669 0.635753 0.132788
0.078266 0.081767 0.091315
0.078266 0.081594 0.091315
0.078856 0.081365 0.091315
0.082883 0.082158 0.091315
0.096466 0.085015 0.091315
0.128050 0.089851 0.091315
0.182757 0.097300 0.091315
0.247154 0.105479 0.091315
0.315511 0.116570 0.091315
0.385417 0.131636 0.091322
0.452158 0.148101 0.091428
0.518576 0.168513 0.091673
0.574817 0.189988 0.092082
0.630820 0.213015 0.092588
0.676542 0.236903 0.093077
0.713483 0.264303 0.093630
0.745311 0.292584 0.094404
0.771960 0.321298 0.095354
0.797459 0.346830 0.096433
0.818411 0.372432 0.097633
0.836926 0.398082 0.099156
0.854661 0.423791 0.100973
0.870005 0.449288 0.102713
0.881083 0.471978 0.104390
0.891477 0.492380 0.107053
0.901424 0.512529 0.109813
0.910522 0.532492 0.112495
0.916272 0.552313 0.115132
0.920901 0.571852 0.118633
0.925309 0.591100 0.122062
0.929527 0.608952 0.125420
0.933564 0.623111 0.128707
0.937432 0.636879 0.132651
0.078266 0.087706 0.091315
0.078411 0.087362 0.091315
0.079628 0.086474 0.091315
0.082724 0.085660 0.091315
0.090146 0.087193 0.091315
0.113302 0.092538 0.091315
0.157114 0.099974 0.091315
0.219628 0.109240 0.091315
0.289371 0.121620 0.091315
0.359720 0.136512 0.091315
0.429954 0.154350 0.091407
0.497734 0.174559 0.091594
0.558575 0.196367 0.091995
0.615564 0.219223 0.092507
0.666867 0.243768 0.092987
0.704667 0.271034 0.093552
0.739029 0.299222 0.094291
0.766282 0.326941 0.095231
0.792288 0.352270 0.096281
0.814700 0.377683 0.097491
0.833513 0.403158 0.098948
0.851550 0.428716 0.100785
0.868047 0.453991 0.102543
0.879355 0.475675 0.104234
0.889898 0.495937 0.106802
0.899978 0.515956 0.109581
0.909624 0.535833 0.112281
0.915503 0.555540 0.114903
0.920308 0.574972 0.118378
0.924764 0.594119 0.121824
0.929023 0.611180 0.125197
0.933099 0.625249 0.128499
0.937002 0.638937 0.132403
0.078574 0.100454 0.091315
0.078994 0.100007 0.091315
0.081051 0.098564 0.091315
0.085614 0.096691 0.091315
0.092114 0.095485 0.091315
0.106779 0.097475 0.091315
0.140087 0.104367 0.091315
0.195370 0.114453 0.091315
0.261366 0.128509 0.091315
0.331460 0.143258 0.091315
0.403853 0.162881 0.091384
0.472091 0.183072 0.091525
0.537853 0.205232 0.091913
0.595587 0.227917 0.092405
0.653158 0.253489 0.092890
0.692630 0.280699 0.093448
0.729977 0.308732 0.094137
0.758342 0.335036 0.095063
0.784999 0.360108 0.096071
0.809427 0.385278 0.097301
0.828644 0.410533 0.098657
0.847093 0.435848 0.100521
0.864752 0.460790 0.102302
0.876858 0.481078 0.104012
0.887610 0.501148 0.106444
0.897876 0.520987 0.109250
0.907690 0.540746 0.111974
0.914381 0.560292 0.114618
0.919441 0.579573 0.118011
0.923965 0.598577 0.121480
0.928286 0.614468 0.124875
0.932417 0.628404 0.128197
0.936369 0.641980 0.132042
0.079949 0.132650 0.091315
0.080863 0.131559 0.091315
0.084768 0.127778 0.091315
0.091256 0.121434 0.091315
0.100390 0.114329 0.091315
0.112498 0.111513 0.091315
0.133163 0.113208 0.091315
0.179625 0.124320 0.091315
0.239173 0.137593 0.091315
0.306248 0.154443 0.091315
0.376258 0.173644 0.091364
0.445349 0.194422 0.091479
0.513973 0.216392 0.091831
0.573060 0.239577 0.092295
0.631253 0.265863 0.092791
0.678283 0.293055 0.093330
0.716512 0.320777 0.093958
0.748558 0.345431 0.094864
0.775926 0.370217 0.095821
0.802045 0.395115 0.097069
0.822484 0.420138 0.098349
0.841419 0.445080 0.100194
0.859518 0.468118 0.102002
0.873550 0.488161 0.103733
0.884653 0.507999 0.105993
0.895150 0.527645 0.108830
0.905173 0.547235 0.111583
0.912917 0.566582 0.114254
0.918307 0.585673 0.117542
0.922917 0.604497 0.121039
0.927316 0.618833 0.124461
0.931518 0.632598 0.127808
0.935535 0.646030 0.131577
0.083158 0.180649 0.091315
0.084610 0.181319 0.091315
0.089412 0.175321 0.091315
0.098215 0.163137 0.091315
0.109273 0.149185 0.091315
0.122816 0.140315 0.091315
0.143460 0.137237 0.091315
0.172014 0.138000 0.091315
0.224806 0.151698 0.091315
0.286842 0.168741 0.091315
0.352431 0.187494 0.091353
0.420892 0.208283 0.091451
0.487851 0.229865 0.091762
0.550546 0.254632 0.092196
0.608316 0.280858 0.092694
0.662763 0.307950 0.093211
0.701605 0.333581 0.093772
0.737469 0.357935 0.094651
0.765536 0.382432 0.095623
0.792309 0.407067 0.096812
0.815322 0.431859 0.098076
0.834738 0.456382 0.099823
0.853313 0.477082 0.101659
0.869583 0.496854 0.103414
0.881102 0.516431 0.105471
0.891863 0.535914 0.108340
0.902126 0.555265 0.111124
0.911136 0.574383 0.113824
0.916923 0.593254 0.116985
0.921635 0.610338 0.120514
0.926127 0.624260 0.123966
0.930414 0.637824 0.127341
0.934508 0.651083 0.131018
0.086898 0.233406 0.091315
0.088714 0.234046 0.091315
0.095006 0.231030 0.091315
0.105414 0.214950 0.091315
0.118580 0.198245 0.091315
0.136045 0.184545 0.091315
0.158543 0.176013 0.091315
0.186791 0.172534 0.091315
0.219756 0.173190 0.091315
0.273408 0.187024 0.091315
0.334518 0.205292 0.091354
0.400677 0.225044 0.091446
0.464718 0.247567 0.091720
0.529531 0.272463 0.092122
0.586091 0.298513 0.092615
0.643379 0.324624 0.093105
0.686195 0.348423 0.093657
0.724120 0.372434 0.094454
0.754368 0.396630 0.095424
0.781733 0.421027 0.096550
0.807468 0.445384 0.097793
0.827313 0.467934 0.099433
0.846359 0.487584 0.101293
0.864563 0.507068 0.103071
0.877060 0.526382 0.104903
0.888102 0.545685 0.107804
0.898623 0.564777 0.110617
0.908661 0.583644 0.113347
0.915114 0.602273 0.116364
0.920143 0.617019 0.119925
0.924739 0.630698 0.123408
0.929121 0.644057 0.126813
0.933303 0.657120 0.130382
0.092169 0.300624 0.091315
0.094433 0.301304 0.091315
0.101745 0.294706 0.091315
0.112961 0.276455 0.091315
0.128519 0.256363 0.091315
0.149400 0.238094 0.091315
0.174640 0.225141 0.091315
0.202915 0.217194 0.091315
0.235001 0.213787 0.091315
0.271176 0.214373 0.091315
0.322391 0.226794 0.091366
0.384013 0.246643 0.091450
0.445750 0.269272 0.091711
0.509212 0.293549 0.092085
0.565988 0.319014 0.092562
0.622009 0.341996 0.093024
0.671131 0.365293 0.093570
0.709155 0.388900 0.094305
0.742973 0.412803 0.095243
0.770803 0.436876 0.096305
0.797522 0.460728 0.097530
0.819430 0.480200 0.099050
0.838907 0.499539 0.100926
0.857527 0.518721 0.102723
0.872523 0.537865 0.104452
0.883971 0.556886 0.107246
0.894755 0.575705 0.110087
0.905037 0.594306 0.112842
0.912979 0.610955 0.115704
0.918470 0.624708 0.119295
0.923177 0.638127 0.122807
0.927662 0.651261 0.126241
0.931939 0.664111 0.129693
0.100262 0.368467 0.091315
0.102452 0.366592 0.091315
0.109105 0.356987 0.091315
0.120955 0.341824 0.091315
0.139294 0.323838 0.091315
0.163012 0.303997 0.091315
0.190011 0.286400 0.091315
0.219146 0.273152 0.091315
0.251028 0.264840 0.091334
0.286162 0.261255 0.091366
0.322886 0.261828 0.091404
0.372213 0.273658 0.091473
0.431257 0.295014 0.091739
0.491420 0.318128 0.092091
0.548838 0.339623 0.092543
0.602884 0.361682 0.092978
0.657181 0.384332 0.093510
0.694940 0.407482 0.094191
0.731868 0.431011 0.095096
0.759976 0.454469 0.096094
0.787006 0.474768 0.097319
0.811452 0.493885 0.098699
0.831213 0.512888 0.100583
0.850195 0.531825 0.102389
0.867723 0.550729 0.104127
0.879586 0.569455 0.106698
0.890621 0.587988 0.109557
0.901144 0.606101 0.112334
0.910669 0.619871 0.115034
0.916651 0.633330 0.118649
0.921473 0.646500 0.122187
0.926064 0.659397 0.125647
0.930440 0.672018 0.129030
0.108528 0.428639 0.091407
0.110522 0.426076 0.091406
0.117636 0.417385 0.091402
0.130927 0.403256 0.091397
0.150895 0.385771 0.091392
0.176471 0.367392 0.091390
0.204558 0.350270 0.091392
0.234732 0.335914 0.091400
0.266927 0.325200 0.091416
0.301090 0.318248 0.091438
0.336527 0.314860 0.091484
0.375218 0.315389 0.091580
0.420845 0.324161 0.091801
0.477663 0.342907 0.092139
0.534761 0.362900 0.092561
0.586581 0.383945 0.092972
0.640064 0.405830 0.093484
0.682010 0.428361 0.094125
0.718718 0.451085 0.094995
0.749645 0.471526 0.095936
0.776803 0.490270 0.097150
0.803045 0.508981 0.098420
0.823526 0.527641 0.100283
0.842788 0.546356 0.102090
0.861260 0.564933 0.103829
0.875018 0.583348 0.106185
0.886329 0.601580 0.109054
0.897074 0.616230 0.111844
0.907330 0.629693 0.114555
0.914410 0.642866 0.118015
0.919660 0.655776 0.121572
0.924357 0.668422 0.125054
0.928833 0.680803 0.128459
0.117686 0.482667 0.091537
0.119603 0.480844 0.091535
0.127211 0.474584 0.091529
0.141702 0.464132 0.091519
0.163092 0.448486 0.091509
0.189418 0.430363 0.091503
0.218424 0.412321 0.091505
0.249458 0.396157 0.091518
0.282228 0.382905 0.091544
0.315406 0.373117 0.091610
0.350506 0.366947 0.091711
0.388214 0.364250 0.091836
0.425699 0.364700 0.091981
0.467533 0.370566 0.092227
0.523873 0.389210 0.092617
0.573413 0.409104 0.093011
0.625044 0.430016 0.093496
0.670710 0.451435 0.094113
0.706841 0.470983 0.094950
0.740090 0.489080 0.095843
0.767219 0.507284 0.097035
0.793498 0.525524 0.098271
0.816093 0.543923 0.100047
0.835512 0.562250 0.101843
0.854200 0.580466 0.103575
0.870328 0.598543 0.105736
0.881982 0.613829 0.108604
0.892922 0.627248 0.111397
0.903372 0.640385 0.114115
0.912039 0.653275 0.117418
0.917775 0.665915 0.120988
0.922574 0.678301 0.124484
0.927147 0.690432 0.127906
0.128090 0.530257 0.091860
0.130449 0.528633 0.091858
0.138536 0.523034 0.091848
0.153592 0.513600 0.091834
0.175658 0.501160 0.091820
0.202027 0.486974 0.091809
0.231621 0.472371 0.091810
0.263295 0.458086 0.091825
0.296464 0.443200 0.091859
0.329344 0.431138 0.091915
0.364333 0.422201 0.091992
0.401210 0.416642 0.092125
0.436897 0.414326 0.092296
0.474708 0.414978 0.092490
0.514837 0.418669 0.092707
0.563402 0.437209 0.093092
0.612928 0.456659 0.093547
0.661242 0.473928 0.094158
0.696536 0.490960 0.094966
0.731553 0.508315 0.095826
0.758481 0.525886 0.096984
0.784638 0.543747 0.098184
0.809107 0.561648 0.099889
0.828545 0.579529 0.101663
0.847360 0.597339 0.103380
0.865475 0.612754 0.105373
0.877677 0.626060 0.108227
0.888778 0.639109 0.111013
0.899393 0.651935 0.113728
0.909546 0.664529 0.116886
0.915752 0.676886 0.120458
0.920747 0.689002 0.123960
0.925412 0.700632 0.127391
0.140110 0.577459 0.092232
0.142553 0.576017 0.092229
0.151026 0.571000 0.092219
0.166554 0.562381 0.092203
0.188226 0.550801 0.092187
0.214530 0.537270 0.092174
0.244306 0.522940 0.092173
0.276414 0.508985 0.092188
0.309158 0.496154 0.092224
0.342687 0.485107 0.092285
0.377879 0.476279 0.092372
0.413300 0.469894 0.092486
0.448464 0.466001 0.092626
0.485439 0.464507 0.092788
0.523772 0.465226 0.092974
0.557639 0.467919 0.093232
0.603550 0.481241 0.093635
0.652679 0.496724 0.094259
0.687886 0.512790 0.095045
0.722147 0.529341 0.095883
0.750738 0.546338 0.097002
0.776628 0.563544 0.098168
0.801889 0.580867 0.099822
0.822030 0.598232 0.101563
0.840881 0.613163 0.103255
0.859077 0.626253 0.105118
0.873404 0.639134 0.107945
0.884723 0.651830 0.110711
0.895469 0.664324 0.113413
0.905760 0.676606 0.116441
0.913460 0.688667 0.120004
0.918907 0.700378 0.123503
0.923656 0.708256 0.126936
0.153444 0.619457 0.092631
0.155786 0.618483 0.092629
0.164555 0.615074 0.092622
0.179819 0.609147 0.092610
0.200892 0.599683 0.092597
0.226963 0.587026 0.092588
0.256673 0.573279 0.092586
0.289050 0.559381 0.092597
0.321432 0.546162 0.092625
0.355425 0.534288 0.092673
0.390952 0.524250 0.092742
0.425118 0.516424 0.092835
0.460021 0.510859 0.092950
0.496398 0.507571 0.093125
0.532334 0.506470 0.093329
0.565393 0.507393 0.093554
0.600004 0.510137 0.093830
0.643981 0.521441 0.094413
0.680860 0.536598 0.095185
0.714266 0.552339 0.096020
0.744041 0.568499 0.097091
0.769570 0.584962 0.098225
0.794551 0.601625 0.099853
0.816100 0.615310 0.101550
0.834873 0.628031 0.103207
0.853070 0.640625 0.104984
0.869302 0.653092 0.107772
0.880828 0.665405 0.110507
0.891668 0.677544 0.113186
0.902064 0.689493 0.116103
0.911205 0.700883 0.119647
0.917085 0.708714 0.123133
0.921906 0.716272 0.126557
0.167878 0.653633 0.093009
0.170251 0.652781 0.093007
0.178585 0.649788 0.093000
0.193212 0.644545 0.092988
0.213777 0.637285 0.092976
0.239373 0.628460 0.092967
0.268827 0.618619 0.092966
0.300691 0.608367 0.092978
0.333182 0.596105 0.093007
0.367521 0.583874 0.093058
0.402866 0.573088 0.093132
0.436452 0.564102 0.093232
0.471280 0.557135 0.093357
0.507281 0.552282 0.093508
0.540989 0.549538 0.093683
0.573406 0.548814 0.093968
0.607395 0.549968 0.094325
0.642484 0.552824 0.094754
0.675345 0.562362 0.095379
0.707855 0.577119 0.096230
0.738417 0.592378 0.097250
0.763500 0.607409 0.098357
0.788110 0.619524 0.099984
0.810816 0.631675 0.101629
0.829413 0.643817 0.103242
0.847538 0.655917 0.104984
0.865108 0.667933 0.107721
0.877153 0.679832 0.110414
0.888047 0.691589 0.113058
0.898515 0.702205 0.115890
0.908570 0.709948 0.119403
0.915101 0.717417 0.122865
0.920189 0.724698 0.126272
0.182481 0.686607 0.093448
0.184732 0.685856 0.093447
0.192665 0.683209 0.093442
0.206756 0.678544 0.093434
0.226738 0.672023 0.093425
0.251746 0.663996 0.093419
0.280814 0.654925 0.093420
0.311678 0.645317 0.093431
0.344424 0.635670 0.093456
0.378989 0.626434 0.093499
0.413458 0.617965 0.093561
0.447186 0.610574 0.093645
0.482011 0.604196 0.093756
0.517839 0.598111 0.093971
0.549504 0.593982 0.094223
0.581554 0.591788 0.094510
0.614947 0.591449 0.094898
0.649370 0.592837 0.095318
0.675554 0.595803 0.095765
0.702799 0.603614 0.096509
0.733824 0.614958 0.097474
0.758406 0.626151 0.098611
0.782580 0.637512 0.100215
0.806184 0.649003 0.101801
0.824546 0.660560 0.103364
0.842535 0.672127 0.105124
0.860018 0.683657 0.107798
0.873652 0.695111 0.110439
0.884653 0.704430 0.113040
0.895158 0.712009 0.115815
0.905266 0.719345 0.119287
0.913065 0.726531 0.122715
0.918527 0.733562 0.126094
0.197047 0.712507 0.093927
0.199193 0.712065 0.093926
0.206818 0.710496 0.093920
0.220420 0.707682 0.093911
0.239727 0.703708 0.093902
0.264061 0.698109 0.093897
0.292655 0.689769 0.093901
0.322553 0.680800 0.093919
0.355214 0.671631 0.093957
0.389879 0.662668 0.094019
0.423417 0.654262 0.094110
0.457272 0.646705 0.094231
0.492099 0.640219 0.094385
0.526904 0.634959 0.094587
0.557702 0.631018 0.094856
0.589523 0.628429 0.095164
0.622459 0.627178 0.095509
0.656074 0.627209 0.095907
0.679888 0.628438 0.096472
0.704053 0.630764 0.097072
0.729791 0.635452 0.097783
0.754235 0.645837 0.099008
0.777936 0.656476 0.100540
0.801302 0.667299 0.102063
0.820290 0.678241 0.103571
0.838090 0.689243 0.105405
0.855434 0.700212 0.108009
0.870434 0.707670 0.110588
0.881520 0.714980 0.113137
0.892029 0.722134 0.115887
0.902160 0.729172 0.119308
0.911133 0.736080 0.122692
0.916938 0.742850 0.126036
0.211648 0.732757 0.094569
0.213711 0.732371 0.094567
0.221020 0.731002 0.094563
0.234065 0.728565 0.094556
0.252681 0.725103 0.094550
0.276324 0.720746 0.094549
0.303540 0.715688 0.094558
0.333161 0.710145 0.094582
0.365604 0.704292 0.094626
0.400026 0.697664 0.094695
0.432779 0.689443 0.094793
0.466708 0.681867 0.094925
0.501539 0.675160 0.095090
0.534806 0.669490 0.095292
0.565459 0.664971 0.095530
0.597156 0.661669 0.095804
0.629755 0.659601 0.096223
0.660790 0.658747 0.096697
0.684214 0.659056 0.097210
0.707942 0.660455 0.097785
0.731833 0.662857 0.098453
0.750911 0.666449 0.099494
0.774125 0.676369 0.100954
0.797060 0.686514 0.102411
0.816658 0.696824 0.103862
0.834208 0.704962 0.105826
0.851371 0.712036 0.108352
0.867541 0.718987 0.110863
0.878669 0.725883 0.113352
0.889154 0.732704 0.116113
0.899280 0.739431 0.119473
0.909053 0.746050 0.122805
0.915260 0.752550 0.126104
0.226175 0.752012 0.095286
0.228144 0.751673 0.095286
0.235130 0.750471 0.095283
0.247643 0.748323 0.095280
0.265558 0.745255 0.095279
0.288513 0.741367 0.095282
0.314273 0.736814 0.095295
0.343529 0.731782 0.095320
0.375636 0.726477 0.095363
0.408922 0.721101 0.095428
0.441586 0.715850 0.095518
0.475518 0.710894 0.095636
0.510321 0.706312 0.095785
0.542145 0.702304 0.096020
0.572701 0.698421 0.096318
0.604344 0.694588 0.096661
0.636701 0.691875 0.097048
0.665322 0.690289 0.097477
0.688428 0.689809 0.098000
0.711784 0.690386 0.098639
0.734538 0.691956 0.099544
0.753072 0.694445 0.100497
0.771559 0.697771 0.101492
0.793568 0.704517 0.102838
0.813608 0.711071 0.104233
0.830876 0.717591 0.106381
0.847826 0.724143 0.108825
0.864391 0.730696 0.111263
0.876100 0.737222 0.113686
0.886546 0.743699 0.116494
0.896642 0.750106 0.119786
0.906403 0.756427 0.123059
0.913596 0.762648 0.126305
0.240540 0.770325 0.096007
0.242421 0.770027 0.096007
0.249097 0.768969 0.096006
0.261068 0.767072 0.096006
0.278341 0.764352 0.096009
0.300060 0.760884 0.096020
0.324988 0.756792 0.096041
0.353669 0.752229 0.096080
0.385345 0.747367 0.096140
0.417406 0.742381 0.096227
0.449885 0.737442 0.096344
0.483688 0.732705 0.096497
0.518462 0.728309 0.096687
0.548913 0.724368 0.096917
0.579485 0.720975 0.097187
0.611017 0.718197 0.097499
0.643199 0.716078 0.097891
0.669590 0.714641 0.098343
0.692444 0.713888 0.099016
0.715489 0.713803 0.099801
0.737175 0.714358 0.100641
0.755412 0.715515 0.101530
0.773614 0.717229 0.102462
0.791811 0.719451 0.103432
0.811088 0.724467 0.104711
0.828065 0.730537 0.107062
0.844782 0.736664 0.109423
0.861150 0.742817 0.111783
0.873764 0.748970 0.114137
0.884212 0.755097 0.117029
0.894256 0.761177 0.120248
0.903985 0.767192 0.123455
0.912064 0.773127 0.126642
0.254680 0.787791 0.096884
0.256473 0.787526 0.096884
0.262851 0.786587 0.096886
0.274344 0.784901 0.096889
0.290993 0.782472 0.096897
0.311111 0.779368 0.096912
0.335535 0.775695 0.096938
0.363589 0.771569 0.096980
0.394802 0.767132 0.097041
0.425516 0.762536 0.097125
0.457722 0.757928 0.097238
0.491302 0.753448 0.097381
0.525308 0.749223 0.097558
0.555124 0.745361 0.097797
0.585703 0.741953 0.098084
0.617139 0.739068 0.098414
0.649187 0.736757 0.098943
0.673551 0.735052 0.099553
0.696193 0.733968 0.100224
0.718983 0.733501 0.100952
0.739687 0.733637 0.101734
0.757666 0.734349 0.102565
0.775613 0.735604 0.103440
0.793557 0.737363 0.104362
0.810226 0.739583 0.105838
0.825736 0.743844 0.107861
0.842211 0.749555 0.110136
0.858366 0.755314 0.112418
0.871725 0.761094 0.114699
0.882149 0.766870 0.117716
0.892125 0.772620 0.120857
0.901803 0.778325 0.123992
0.910667 0.783990 0.127116
0.268566 0.804466 0.097725
0.270282 0.804233 0.097726
0.276394 0.803404 0.097730
0.287433 0.801913 0.097737
0.302725 0.799758 0.097750
0.322177 0.796986 0.097773
0.345899 0.793674 0.097808
0.373289 0.789928 0.097859
0.403323 0.785870 0.097931
0.433281 0.781627 0.098028
0.465134 0.777351 0.098153
0.498415 0.773153 0.098310
0.531124 0.769140 0.098525
0.560802 0.765412 0.098860
0.591359 0.762057 0.099253
0.622696 0.759144 0.099704
0.654630 0.756728 0.100213
0.677166 0.754845 0.100781
0.699626 0.753518 0.101406
0.722208 0.752755 0.102085
0.742024 0.752552 0.102816
0.759781 0.752893 0.103595
0.777507 0.753754 0.104426
0.795226 0.755106 0.105800
0.811363 0.756913 0.107397
0.825288 0.759140 0.109058
0.840075 0.762770 0.110957
0.856010 0.768144 0.113160
0.869971 0.773557 0.115499
0.880350 0.778985 0.118548
0.890243 0.784431 0.121608
0.899856 0.789859 0.124669
0.909187 0.795243 0.127724
0.282189 0.820325 0.098694
0.283833 0.820120 0.098696
0.289695 0.819388 0.098703
0.299785 0.818069 0.098718
0.314122 0.816159 0.098744
0.333052 0.813691 0.098783
0.356063 0.810729 0.098840
0.382764 0.807359 0.098920
0.411297 0.803683 0.099029
0.440726 0.799810 0.099171
0.472156 0.795855 0.099351
0.505066 0.791927 0.099574
0.536483 0.788128 0.099844
0.565978 0.784553 0.100163
0.596474 0.781284 0.100534
0.627696 0.778401 0.100958
0.658260 0.775950 0.101437
0.680406 0.773965 0.101969
0.702713 0.772475 0.102555
0.725121 0.771494 0.103192
0.744146 0.771028 0.103881
0.761716 0.771068 0.104622
0.779252 0.771600 0.105991
0.796774 0.772602 0.107443
0.812423 0.774048 0.108967
0.826197 0.775908 0.110557
0.839945 0.778149 0.112206
0.854048 0.781268 0.114000
0.868483 0.786358 0.116557
0.878800 0.791478 0.119518
0.888602 0.796607 0.122495
0.898138 0.801725 0.125480
0.907408 0.806814 0.128464
0.295357 0.829368 0.099927
0.296817 0.829261 0.099930
0.302025 0.828881 0.099940
0.311448 0.828194 0.099958
0.325434 0.827195 0.099989
0.343706 0.825900 0.100033
0.366011 0.824336 0.100096
0.392031 0.822547 0.100182
0.419013 0.820540 0.100294
0.447867 0.817022 0.100437
0.478803 0.813401 0.100616
0.511290 0.809775 0.100835
0.541421 0.806234 0.101095
0.570686 0.802865 0.101402
0.601075 0.799742 0.101756
0.632155 0.796931 0.102159
0.661233 0.794486 0.102612
0.683265 0.792451 0.103115
0.705436 0.790855 0.103668
0.727696 0.789719 0.104276
0.746026 0.789054 0.105156
0.763438 0.788859 0.106385
0.780811 0.789126 0.107695
0.798164 0.789842 0.109081
0.813379 0.790987 0.110538
0.827018 0.792535 0.112061
0.840625 0.794462 0.113645
0.854143 0.796739 0.115383
0.867239 0.799463 0.117744
0.877483 0.804252 0.120617
0.887186 0.809063 0.123512
0.896639 0.813877 0.126419
0.905840 0.818676 0.129354
0.307400 0.837780 0.101093
0.308798 0.837687 0.101096
0.313825 0.837354 0.101108
0.323027 0.836751 0.101130
0.336483 0.835874 0.101164
0.354118 0.834733 0.101214
0.375725 0.833351 0.101282
0.400733 0.831762 0.101372
0.426474 0.830007 0.101488
0.454718 0.828133 0.101634
0.485074 0.826188 0.101812
0.517118 0.824223 0.102027
0.545968 0.822285 0.102281
0.574987 0.820271 0.102578
0.605192 0.817324 0.102918
0.636097 0.814637 0.103304
0.663831 0.812262 0.103738
0.685746 0.810241 0.104221
0.707789 0.808607 0.104844
0.729917 0.807383 0.105855
0.747646 0.806584 0.106949
0.764923 0.806215 0.108123
0.782158 0.806274 0.109376
0.799364 0.806754 0.110703
0.814203 0.807640 0.112100
0.827724 0.808914 0.113562
0.841206 0.810554 0.115110
0.854601 0.812538 0.117288
0.867400 0.814841 0.119547
0.876479 0.817439 0.121880
0.885982 0.821306 0.124649
0.895346 0.823983 0.127478
0.904471 0.826651 0.130606
0.319233 0.845658 0.102195
0.320596 0.845578 0.102198
0.325462 0.845291 0.102211
0.334298 0.844771 0.102236
0.347247 0.844013 0.102274
0.364266 0.843025 0.102328
0.385186 0.841825 0.102401
0.408617 0.840418 0.102496
0.433677 0.838858 0.102615
0.461285 0.837184 0.102763
0.491024 0.835437 0.102941
0.522447 0.833661 0.103154
0.550154 0.831897 0.103404
0.578911 0.830187 0.103694
0.608855 0.828568 0.104027
0.639549 0.827073 0.104403
0.666070 0.825733 0.104968
0.687860 0.824573 0.105780
0.709776 0.823612 0.106672
0.731739 0.822866 0.107644
0.748996 0.822345 0.108695
0.766154 0.822056 0.109822
0.783270 0.822001 0.111025
0.800352 0.822176 0.112300
