negative-gold-200/Gold200_Classic_Normal.cube
TITLE "Kodak Gold 200 Classic Normal"
# Adobe RGB in/out. REPLACES AgX. Kodak Gold 200 Classic Normal.
LUT_3D_SIZE 9
DOMAIN_MIN 0.0 0.0 0.0
DOMAIN_MAX 1.0 1.0 1.0
0.075187 0.075821 0.088847
0.112346 0.081021 0.089810
0.338794 0.088764 0.091088
0.602290 0.100773 0.092922
0.733070 0.116190 0.095848
0.785954 0.132872 0.100986
0.815315 0.140544 0.111278
0.835739 0.156375 0.399944
0.840051 0.256868 0.528490
0.077146 0.097315 0.089808
0.084496 0.097650 0.090613
0.199813 0.100471 0.091560
0.504899 0.112247 0.093435
0.706862 0.128759 0.096444
0.780013 0.144954 0.101534
0.814153 0.153331 0.111160
0.835740 0.156391 0.399964
0.840052 0.256873 0.528488
0.081312 0.161837 0.091171
0.084801 0.168000 0.091882
0.113762 0.163677 0.093251
0.281335 0.169763 0.095442
0.569918 0.185749 0.098414
0.744138 0.207802 0.103835
0.806519 0.218106 0.112889
0.835955 0.161454 0.402322
0.840052 0.256873 0.528488
0.088237 0.298189 0.093012
0.090720 0.306142 0.093762
0.109503 0.311645 0.096037
0.189876 0.301992 0.098553
0.394448 0.307126 0.103079
0.655716 0.322501 0.109476
0.781145 0.338879 0.118279
0.825574 0.332719 0.133014
0.839513 0.230906 0.423124
0.098560 0.460255 0.095552
0.101286 0.464116 0.096527
0.116275 0.472977 0.099715
0.171769 0.470211 0.104013
0.303760 0.463388 0.109957
0.521137 0.466587 0.117232
0.729025 0.476479 0.126423
0.816627 0.482486 0.140945
0.839500 0.466667 0.249318
0.113219 0.599840 0.098370
0.115437 0.601749 0.099674
0.130007 0.609343 0.103974
0.174466 0.609889 0.110931
0.270371 0.605623 0.118311
0.430473 0.601555 0.126387
0.650011 0.605850 0.137979
0.795005 0.612729 0.152037
0.838461 0.612715 0.185918
0.132262 0.705004 0.101028
0.134740 0.705469 0.102179
0.149298 0.707755 0.107551
0.186522 0.708298 0.115892
0.261326 0.706391 0.125774
0.386279 0.704130 0.137013
0.563087 0.704106 0.149013
0.752716 0.707248 0.163455
0.837674 0.711627 0.189123
0.158818 0.775219 0.096731
0.160153 0.774533 0.097473
0.172716 0.771204 0.103953
0.201956 0.769078 0.114538
0.262312 0.766197 0.127022
0.361367 0.763519 0.141408
0.504323 0.762735 0.155120
0.695574 0.765133 0.169384
0.837597 0.769348 0.190921
0.164248 0.794384 0.092836
0.164250 0.794386 0.092836
0.197544 0.813552 0.092841
0.198686 0.815191 0.095192
0.259755 0.818240 0.103422
0.342253 0.814190 0.119358
0.454072 0.812464 0.133036
0.612289 0.813951 0.143870
0.841902 0.818854 0.147902
0.076545 0.082174 0.099093
0.101867 0.097866 0.140438
0.372434 0.096072 0.108980
0.647679 0.106823 0.107378
0.742052 0.121405 0.106129
0.787646 0.136565 0.110209
0.815363 0.144515 0.122350
0.835740 0.156391 0.399967
0.840052 0.256873 0.528491
0.078990 0.097742 0.098935
0.098917 0.104184 0.104403
0.280747 0.106599 0.103535
0.580052 0.119409 0.106289
0.726028 0.133962 0.106836
0.782728 0.149576 0.110773
0.814279 0.157501 0.121454
0.835741 0.156416 0.399998
0.840052 0.256873 0.528489
0.083715 0.158325 0.099482
0.089121 0.162653 0.101169
0.139062 0.164650 0.103652
0.369418 0.176803 0.107899
0.630720 0.193313 0.110328
0.754419 0.212233 0.113929
0.807538 0.221296 0.122791
0.836019 0.163053 0.403354
0.840052 0.256873 0.528488
0.090660 0.291211 0.101225
0.094119 0.297308 0.102843
0.118835 0.304140 0.106981
0.223518 0.301720 0.111837
0.445554 0.311696 0.115841
0.680492 0.326559 0.120617
0.786308 0.341437 0.128286
0.825809 0.335175 0.145495
0.840052 0.256888 0.528485
0.101093 0.452813 0.102494
0.104478 0.457231 0.103986
0.121280 0.466266 0.109960
0.186937 0.465988 0.116336
0.331984 0.462693 0.123618
0.549559 0.467602 0.129123
0.740631 0.477790 0.139117
0.817837 0.483304 0.153270
0.839659 0.471854 0.286383
0.115023 0.594792 0.104207
0.117472 0.596770 0.106011
0.134265 0.605168 0.112748
0.182382 0.606472 0.121228
0.284619 0.603063 0.129748
0.450701 0.600771 0.140934
0.666124 0.606008 0.151547
0.799678 0.612914 0.164948
0.838549 0.613615 0.201118
0.134040 0.703540 0.105845
0.136707 0.703998 0.107742
0.152240 0.706194 0.114578
0.191250 0.706852 0.125017
0.269201 0.705319 0.137263
0.397860 0.703533 0.150001
0.577236 0.703877 0.163058
0.759949 0.707226 0.177793
0.837932 0.711766 0.202401
0.159529 0.774105 0.098659
0.161112 0.773491 0.100062
0.174557 0.770414 0.109283
0.204760 0.768375 0.122022
0.266801 0.765664 0.137123
0.367513 0.763195 0.152869
0.513218 0.762619 0.167919
0.703444 0.765120 0.183566
0.838165 0.769384 0.203800
0.169880 0.802159 0.104532
0.169884 0.802161 0.104532
0.202609 0.820724 0.104532
0.202610 0.820724 0.104531
0.261667 0.818324 0.107122
0.344894 0.814264 0.125967
0.457591 0.812594 0.142885
0.617499 0.814116 0.154647
0.843160 0.818961 0.159049
0.078893 0.093762 0.159623
0.113149 0.137035 0.337934
0.343623 0.137569 0.312730
0.644154 0.142886 0.285156
0.745695 0.156671 0.268591
0.790135 0.175843 0.283882
0.816259 0.192099 0.328027
0.835910 0.161791 0.415182
0.840052 0.256879 0.528512
0.081740 0.108112 0.163501
0.098398 0.120287 0.206793
0.284149 0.132552 0.233873
0.597057 0.145627 0.234732
0.735394 0.163854 0.236585
0.786401 0.183047 0.256972
0.815190 0.197878 0.301606
0.835962 0.163185 0.417120
0.840052 0.256874 0.528492
0.087782 0.164588 0.159917
0.095381 0.168976 0.163593
0.194293 0.193038 0.192995
0.446685 0.194398 0.192006
0.680999 0.214306 0.203675
0.768270 0.234726 0.220594
0.809920 0.246310 0.240165
0.835712 0.197507 0.416598
0.840052 0.256873 0.528489
0.097140 0.291647 0.164245
0.103556 0.296288 0.167652
0.142294 0.304249 0.175921
0.291671 0.309326 0.184836
0.545836 0.326637 0.197170
0.727096 0.344594 0.211233
0.796611 0.357234 0.222106
0.826851 0.354381 0.268379
0.840052 0.256876 0.528492
0.109704 0.449742 0.166839
0.114492 0.452985 0.170274
0.141777 0.460945 0.179620
0.229167 0.463792 0.189867
0.406097 0.465618 0.199689
0.636337 0.475433 0.213429
0.766650 0.486634 0.222648
0.821232 0.490614 0.246315
0.840268 0.492059 0.425206
0.124549 0.589937 0.170921
0.129279 0.591530 0.174065
0.153215 0.597703 0.184505
0.212959 0.600660 0.196583
0.334706 0.600642 0.208156
0.521967 0.602193 0.219438
0.711497 0.609094 0.229160
0.810370 0.615894 0.248095
0.839026 0.619199 0.297422
0.144947 0.700660 0.165364
0.148694 0.701084 0.168631
0.168169 0.702879 0.180536
0.212810 0.703754 0.195517
0.302485 0.703227 0.209968
0.441199 0.702756 0.223375
0.631794 0.704117 0.236220
0.783361 0.707992 0.254139
0.838778 0.712859 0.274461
0.167522 0.767873 0.150454
0.170287 0.767727 0.154148
0.186596 0.766948 0.171822
0.220689 0.765848 0.191665
0.289791 0.763977 0.210445
0.397530 0.762327 0.226648
0.549471 0.762522 0.241439
0.734856 0.765358 0.256732
0.839682 0.769807 0.269646
0.169884 0.802161 0.104535
0.202608 0.820724 0.104535
0.202609 0.820724 0.104533
0.202626 0.820726 0.104535
0.272846 0.818190 0.144968
0.357947 0.814422 0.182630
0.474157 0.813018 0.205216
0.641606 0.814695 0.219377
0.844656 0.819464 0.226283
0.082715 0.112745 0.297990
0.105694 0.165891 0.451516
0.307560 0.185951 0.486206
0.613967 0.195463 0.478206
0.741310 0.211498 0.478322
0.789282 0.228598 0.486718
0.816333 0.244070 0.512262
0.833982 0.227820 0.555594
0.840207 0.265376 0.559347
0.085717 0.130289 0.308185
0.102354 0.159952 0.387939
0.270944 0.189567 0.453726
0.577098 0.201349 0.453124
0.732547 0.218891 0.459060
0.786029 0.237313 0.472031
0.815427 0.253855 0.502022
0.833676 0.235235 0.552276
0.840209 0.265470 0.559678
0.092534 0.190817 0.303000
0.103517 0.198257 0.313762
0.197101 0.216255 0.354719
0.461586 0.232127 0.378527
0.688550 0.257705 0.399447
0.770967 0.283338 0.421626
0.810910 0.302406 0.457890
0.831047 0.304151 0.525542
0.840215 0.265812 0.560883
0.104750 0.305058 0.297661
0.112240 0.309926 0.301092
0.163950 0.320833 0.313122
0.351009 0.347648 0.347054
0.588052 0.350752 0.351725
0.740488 0.370480 0.371512
0.800768 0.387205 0.401960
0.827806 0.395538 0.469809
0.840217 0.265933 0.561244
0.119045 0.455289 0.302825
0.125322 0.458072 0.305094
0.163793 0.465137 0.313294
0.269704 0.470279 0.324225
0.463549 0.475693 0.336311
0.678018 0.488191 0.352599
0.779354 0.500907 0.371749
0.823109 0.507868 0.411198
0.840829 0.517650 0.548460
0.137701 0.590378 0.305150
0.143613 0.591837 0.307352
0.173954 0.597370 0.315481
0.245075 0.601300 0.325753
0.382814 0.603911 0.337028
0.576898 0.607646 0.348883
0.741668 0.615464 0.364221
0.815462 0.622396 0.385385
0.840085 0.634955 0.495004
0.158705 0.699626 0.305404
0.163617 0.700170 0.307588
0.186641 0.701740 0.316046
0.239209 0.702876 0.327494
0.338695 0.703165 0.339593
0.491218 0.703775 0.351795
0.678152 0.706050 0.364239
0.799373 0.710269 0.379639
0.839799 0.717130 0.433163
0.178631 0.765706 0.298791
0.182066 0.765691 0.301117
0.200346 0.765499 0.311720
0.239687 0.764782 0.324756
0.314149 0.763585 0.338784
0.428825 0.762712 0.352143
0.589389 0.763520 0.364952
0.759589 0.766682 0.377954
0.841000 0.771814 0.404771
0.188511 0.813925 0.315774
0.207166 0.822978 0.315774
0.207170 0.822979 0.315772
0.228218 0.823997 0.251136
0.292986 0.817476 0.322047
0.378924 0.814700 0.339151
0.500639 0.813882 0.353568
0.671723 0.815748 0.364915
0.845398 0.820745 0.374705
0.088330 0.145511 0.463847
0.102845 0.185878 0.531212
0.259754 0.229114 0.589102
0.580745 0.242572 0.590122
0.733350 0.259727 0.591191
0.786701 0.280028 0.597378
0.815656 0.293614 0.607953
0.832734 0.277361 0.625218
0.840612 0.287889 0.644493
0.090866 0.165228 0.472391
0.104646 0.195952 0.523293
0.241666 0.238293 0.579895
0.552990 0.253814 0.583438
0.723918 0.271651 0.585705
0.783763 0.291744 0.593210
0.814845 0.305255 0.605121
0.832491 0.288264 0.623924
0.840600 0.287216 0.641602
0.100825 0.227928 0.473769
0.111325 0.240611 0.491670
0.204698 0.277055 0.540465
0.462531 0.297741 0.557115
0.686419 0.317119 0.564562
0.770861 0.338320 0.575885
0.811020 0.352378 0.592356
0.830844 0.350091 0.616155
0.840564 0.285104 0.632418
0.113920 0.338166 0.464017
0.121761 0.343266 0.469045
0.184543 0.359077 0.491354
0.363549 0.375251 0.516688
0.605152 0.391221 0.530586
0.745561 0.412821 0.546759
0.802728 0.431255 0.567591
0.828392 0.438218 0.599732
0.841632 0.364266 0.632500
0.130219 0.468647 0.459668
0.138913 0.471244 0.461709
0.183503 0.478945 0.470531
0.300299 0.487041 0.485121
0.511841 0.505513 0.511401
0.696737 0.510642 0.518961
0.785574 0.525453 0.537819
0.824541 0.536526 0.571112
0.841151 0.542374 0.630230
0.151814 0.597749 0.463201
0.159014 0.599220 0.464360
0.193566 0.604789 0.469715
0.274245 0.608889 0.478420
0.421153 0.612712 0.489810
0.617935 0.617855 0.502222
0.756428 0.626933 0.518025
0.818572 0.635613 0.540426
0.840878 0.651398 0.613704
0.173153 0.701521 0.468085
0.178723 0.701929 0.468909
0.204164 0.703464 0.472769
0.264111 0.704896 0.479330
0.371801 0.705902 0.487993
0.533136 0.707387 0.497866
0.706267 0.710426 0.509028
0.808037 0.714985 0.522337
0.840939 0.725104 0.582794
0.189988 0.766246 0.476102
0.193889 0.766242 0.476346
0.213957 0.766098 0.478700
0.258247 0.765690 0.483084
0.337422 0.764987 0.489584
0.459158 0.764758 0.497487
0.627118 0.766110 0.506237
0.778090 0.769661 0.515017
0.842125 0.776304 0.546342
0.197691 0.818886 0.575529
0.200385 0.820432 0.575528
0.206770 0.822682 0.575526
0.244129 0.821326 0.504097
0.306217 0.818345 0.502524
0.396160 0.816152 0.505783
0.522908 0.815648 0.510728
0.691890 0.817722 0.515671
0.846035 0.822619 0.524037
0.096894 0.198150 0.603606
0.108426 0.226210 0.639444
0.233425 0.280145 0.680745
0.545770 0.294669 0.682202
0.724367 0.311853 0.683490
0.783843 0.328146 0.685929
0.814836 0.338985 0.689832
0.832165 0.326666 0.694782
0.840831 0.300501 0.690828
0.099768 0.213867 0.608588
0.110532 0.238967 0.638730
0.226257 0.291523 0.678968
0.525683 0.306747 0.681050
0.716229 0.323737 0.682628
0.781200 0.339212 0.685222
0.814112 0.349800 0.689457
0.831952 0.337152 0.694714
0.840831 0.300501 0.690828
0.111810 0.286800 0.615224
0.120849 0.301132 0.629907
0.212313 0.337761 0.665201
0.453933 0.352947 0.674120
0.683632 0.368057 0.678312
0.769979 0.383594 0.681930
0.810845 0.395422 0.687423
0.830705 0.391779 0.694146
0.840831 0.300504 0.690827
0.125107 0.380120 0.604476
0.135908 0.386245 0.610747
0.204420 0.409507 0.636234
0.380642 0.427655 0.655122
0.617468 0.442808 0.664515
0.748390 0.458560 0.672616
0.803982 0.471610 0.681986
0.828753 0.474453 0.691959
0.841793 0.412791 0.692784
0.145295 0.494097 0.595315
0.154698 0.496884 0.597920
0.205141 0.507788 0.610291
0.327697 0.519409 0.627491
0.530851 0.530481 0.642368
0.708512 0.542316 0.653949
0.789700 0.556761 0.668690
0.825706 0.566255 0.685744
0.841444 0.567649 0.700644
0.166679 0.610757 0.591866
0.174849 0.612100 0.592988
0.211784 0.616926 0.598328
0.299507 0.622287 0.608037
0.451011 0.628014 0.620519
0.651083 0.638199 0.635828
0.765762 0.644753 0.648196
0.820966 0.654512 0.671341
0.841501 0.667236 0.699759
0.186720 0.706190 0.594509
0.192749 0.706600 0.594863
0.220520 0.708220 0.597210
0.286114 0.710039 0.602238
0.399684 0.711771 0.610045
0.562885 0.714055 0.619329
0.725876 0.717819 0.629803
0.812690 0.723035 0.647314
0.841985 0.733940 0.693115
0.200158 0.769389 0.603986
0.204401 0.769395 0.603683
0.226746 0.769284 0.603394
0.274311 0.769022 0.604499
0.357088 0.768700 0.607917
0.484361 0.768995 0.613301
0.656518 0.770825 0.619990
0.789739 0.774735 0.628563
0.843368 0.783497 0.675080
0.201092 0.820661 0.618411
0.203543 0.821489 0.620734
0.209265 0.823408 0.629577
0.251227 0.822811 0.625696
0.315125 0.820826 0.620773
0.406681 0.819060 0.620310
0.535173 0.818865 0.622201
0.704220 0.820863 0.625519
0.846864 0.825837 0.652865
0.111982 0.271621 0.722366
0.120367 0.293782 0.738298
0.207344 0.330951 0.746930
0.526215 0.343501 0.747592
0.719538 0.358092 0.748689
0.782735 0.372337 0.750109
0.814738 0.380665 0.752213
0.832078 0.369307 0.753678
0.841131 0.320082 0.744908
0.114412 0.286769 0.724365
0.122022 0.306050 0.737816
0.208324 0.341076 0.746860
0.509543 0.353916 0.747693
0.712983 0.368619 0.748831
0.780570 0.382975 0.750267
0.814100 0.391556 0.752412
0.831899 0.380039 0.754018
0.841128 0.319910 0.744409
0.126704 0.351311 0.728396
0.136465 0.360680 0.735513
0.213237 0.385689 0.745137
0.454801 0.398826 0.747294
0.686125 0.412812 0.748783
0.771188 0.426779 0.750415
0.811319 0.436191 0.752838
0.830931 0.431806 0.755162
0.841110 0.318990 0.742137
0.145096 0.435344 0.722419
0.155621 0.441534 0.727179
0.220136 0.461868 0.738699
0.397862 0.473588 0.744344
0.632905 0.484103 0.747106
0.752939 0.495068 0.749605
0.805885 0.503559 0.752684
0.829397 0.504274 0.756347
0.841883 0.474870 0.754146
0.165306 0.529364 0.712397
0.175434 0.532680 0.715485
0.227186 0.545513 0.726287
0.353899 0.557610 0.736163
0.555654 0.567535 0.742115
0.721212 0.577741 0.746173
0.794160 0.587164 0.750573
0.827011 0.593440 0.756305
0.841863 0.592383 0.759412
0.184677 0.629833 0.704128
0.192912 0.631392 0.705776
0.233086 0.637557 0.712658
0.326116 0.644981 0.722855
0.483387 0.651768 0.732177
0.670194 0.658660 0.739027
0.774171 0.666092 0.745297
0.823290 0.673638 0.753495
0.842161 0.682207 0.762246
0.199954 0.714140 0.700135
0.206421 0.714635 0.700795
0.237326 0.716524 0.703952
0.306062 0.718935 0.710197
0.423096 0.721568 0.718659
0.588963 0.724602 0.727017
0.738863 0.728630 0.734103
0.816626 0.733766 0.745471
0.842958 0.742308 0.762671
0.208578 0.775614 0.702399
0.213008 0.775598 0.702354
0.237294 0.775390 0.702662
0.287147 0.775238 0.704530
0.372712 0.775259 0.708577
0.504085 0.776017 0.714195
0.671565 0.778338 0.720691
0.797202 0.782595 0.728722
0.844599 0.791667 0.758008
0.203941 0.821446 0.686535
0.208514 0.822997 0.686545
0.214496 0.825004 0.686807
0.252174 0.826011 0.711770
0.318635 0.823519 0.709322
0.410574 0.822451 0.710053
0.538926 0.822424 0.711920
0.705991 0.823742 0.714295
0.848015 0.830273 0.752167
0.134411 0.356347 0.798509
0.138230 0.359469 0.799621
0.230558 0.374849 0.799171
0.554848 0.386826 0.799251
0.731307 0.400364 0.799691
0.787447 0.413460 0.800340
0.816479 0.419864 0.801199
0.833197 0.405260 0.803056
0.841598 0.348038 0.792316
0.136366 0.365761 0.798418
0.140525 0.368892 0.799476
0.233352 0.384722 0.799314
0.543222 0.396708 0.799401
0.726575 0.410294 0.799826
0.785908 0.423475 0.800467
0.816039 0.430066 0.801339
0.833062 0.415908 0.803184
0.841632 0.350395 0.792316
0.150821 0.417006 0.798029
0.157460 0.419504 0.798774
0.246397 0.432384 0.799358
0.498167 0.442942 0.799621
0.705322 0.455425 0.800065
0.778671 0.466566 0.800723
0.813935 0.472384 0.801678
0.832348 0.464816 0.803445
0.842019 0.375956 0.792316
0.172178 0.488896 0.796662
0.180909 0.490924 0.797498
0.254499 0.500155 0.798908
0.440436 0.507766 0.799597
0.669277 0.516664 0.800197
0.765173 0.526120 0.800963
0.810059 0.532603 0.802087
0.831295 0.529622 0.803873
0.842477 0.502210 0.802599
0.194027 0.573686 0.793417
0.203019 0.575879 0.794595
0.261628 0.584693 0.797276
0.395340 0.592012 0.798903
0.601970 0.599589 0.800008
0.742080 0.607426 0.801010
0.802612 0.612824 0.802286
0.829690 0.613886 0.804227
0.842690 0.610688 0.804728
0.210288 0.657439 0.787773
0.218812 0.659084 0.789225
0.265805 0.665426 0.793435
0.360958 0.670853 0.796877
0.528290 0.675600 0.798974
0.699300 0.681078 0.800549
0.787141 0.686511 0.802112
0.827158 0.690027 0.804309
0.843222 0.694971 0.805928
0.218200 0.726382 0.779650
0.225521 0.727041 0.780852
0.261812 0.729739 0.785427
0.332673 0.732734 0.791225
0.455349 0.735224 0.795885
0.627365 0.737749 0.798850
0.756706 0.740897 0.801056
0.822174 0.744175 0.803891
0.844205 0.749536 0.806601
0.216033 0.786263 0.773719
0.220898 0.786153 0.774093
0.247274 0.785529 0.775997
0.299604 0.785417 0.780098
0.389175 0.785948 0.786110
0.524757 0.787319 0.791991
0.687197 0.789812 0.796627
0.803077 0.792036 0.798728
0.845763 0.799229 0.806655
0.206983 0.822081 0.752308
0.219879 0.826373 0.753373
0.222780 0.827199 0.760699
0.252369 0.829307 0.771826
0.315040 0.827676 0.772937
0.406619 0.826562 0.775212
0.532237 0.826589 0.777996
0.694600 0.827843 0.780055
0.849006 0.834593 0.806131
0.216370 0.402294 0.839911
0.252429 0.403834 0.839913
0.499599 0.409959 0.839920
0.719270 0.420627 0.839980
0.777685 0.433209 0.840116
0.807899 0.443622 0.840387
0.824413 0.444838 0.841135
0.836875 0.414325 0.842713
0.842003 0.378896 0.837705
0.220048 0.409873 0.839751
0.254556 0.411457 0.839756
0.493767 0.417737 0.839773
0.716343 0.428633 0.839849
0.776644 0.441405 0.840001
0.807574 0.451949 0.840290
0.824315 0.453061 0.841042
0.836837 0.421046 0.842631
0.842109 0.388757 0.842694
0.239483 0.449336 0.838969
0.268816 0.450916 0.838991
0.472558 0.457099 0.839070
0.702467 0.466413 0.839241
0.771611 0.476456 0.839479
0.806020 0.484782 0.839858
0.823812 0.485674 0.840625
0.836667 0.460069 0.842182
0.842109 0.388777 0.842694
0.264986 0.517983 0.837887
0.287927 0.518967 0.837941
0.437452 0.522815 0.838123
0.674455 0.529659 0.838422
0.760701 0.537846 0.838768
0.801772 0.544958 0.839241
0.822734 0.546425 0.840052
0.836477 0.530512 0.841441
0.843953 0.507056 0.843708
0.274695 0.602945 0.837234
0.292130 0.603697 0.837315
0.397175 0.606421 0.837586
0.619732 0.610624 0.837929
0.742836 0.615914 0.838367
0.794539 0.620703 0.838905
0.820972 0.622268 0.839692
0.836474 0.614501 0.841020
0.844798 0.596795 0.843753
0.273866 0.680347 0.837097
0.286693 0.680724 0.837201
0.357665 0.682342 0.837541
0.537632 0.685385 0.837959
0.706905 0.689437 0.838415
0.781527 0.693551 0.838972
0.817858 0.695455 0.839710
0.836369 0.690790 0.840893
0.845613 0.689248 0.843323
0.266408 0.742137 0.837501
0.274781 0.742223 0.837622
0.318993 0.742631 0.837984
0.436085 0.743350 0.838452
0.625936 0.744695 0.838960
0.752814 0.746645 0.839517
0.810990 0.748056 0.840279
0.835888 0.746426 0.841289
0.846734 0.748408 0.843345
0.249779 0.801031 0.836725
0.254562 0.801049 0.837401
0.278847 0.800516 0.838625
0.341023 0.799095 0.839370
0.465040 0.798116 0.840045
0.658448 0.798494 0.840660
0.780500 0.800127 0.841331
0.832535 0.800429 0.842213
0.848163 0.800924 0.843744
0.209811 0.822258 0.791233
0.233058 0.829312 0.802740
0.233058 0.829312 0.802741
0.239797 0.829805 0.802768
0.310739 0.835484 0.828104
0.412246 0.835744 0.841631
0.539064 0.835459 0.842992
0.708500 0.836549 0.843807
0.849873 0.838757 0.844366
