negative-gold-200/Gold200_Classic_ExtraSoft.cube
TITLE "Kodak Gold 200 Classic ExtraSoft"
# Adobe RGB in/out. REPLACES AgX. Kodak Gold 200 Classic ExtraSoft.
LUT_3D_SIZE 33
DOMAIN_MIN 0.0 0.0 0.0
DOMAIN_MAX 1.0 1.0 1.0
0.058206 0.064417 0.080741
0.060456 0.065066 0.081053
0.064463 0.066280 0.081698
0.070055 0.067924 0.082508
0.077252 0.069711 0.083272
0.086763 0.071993 0.084086
0.099521 0.074510 0.085007
0.116449 0.077830 0.086094
0.142103 0.080943 0.087046
0.174897 0.085319 0.087953
0.219803 0.090125 0.089021
0.270676 0.094705 0.090310
0.318674 0.099880 0.091532
0.366924 0.107119 0.092671
0.406119 0.115038 0.093738
0.438380 0.125104 0.095249
0.470371 0.136074 0.096688
0.502049 0.149305 0.098059
0.522497 0.163991 0.099582
0.542605 0.181587 0.101330
0.562396 0.201888 0.103392
0.581891 0.225822 0.105392
0.601108 0.250263 0.107335
0.619436 0.275822 0.109225
0.636912 0.302316 0.111066
0.654136 0.325053 0.112875
0.666583 0.348507 0.115276
0.676601 0.372672 0.117635
0.686396 0.396519 0.119953
0.695983 0.413537 0.122233
0.705371 0.430671 0.124533
0.714572 0.447919 0.127472
0.723596 0.464244 0.130741
0.058661 0.066102 0.081032
0.060645 0.066373 0.081216
0.064564 0.067406 0.081857
0.070146 0.068620 0.082577
0.077357 0.070502 0.083331
0.086835 0.072610 0.084141
0.099629 0.075124 0.085061
0.116549 0.078387 0.086133
0.142223 0.081465 0.087075
0.175052 0.085948 0.087985
0.219969 0.090653 0.089047
0.270842 0.095156 0.090338
0.318804 0.100505 0.091556
0.367049 0.107770 0.092691
0.406196 0.115795 0.093760
0.438448 0.125811 0.095272
0.470434 0.136916 0.096708
0.502087 0.150113 0.098077
0.522532 0.164956 0.099602
0.542637 0.182535 0.101355
0.562426 0.203036 0.103414
0.581919 0.226975 0.105412
0.601134 0.251363 0.107354
0.619459 0.276921 0.109243
0.636933 0.303206 0.111082
0.654156 0.325928 0.112896
0.666594 0.349368 0.115295
0.676611 0.373519 0.117653
0.686406 0.397080 0.119970
0.695992 0.414078 0.122249
0.705380 0.431195 0.124551
0.714581 0.448425 0.127493
0.723603 0.464701 0.130761
0.059781 0.069135 0.081623
0.061188 0.069288 0.081782
0.064911 0.070062 0.082271
0.070466 0.071244 0.082803
0.077727 0.072751 0.083526
0.087091 0.074660 0.084326
0.100016 0.077452 0.085248
0.117022 0.080199 0.086269
0.142654 0.083580 0.087179
0.175606 0.088092 0.088099
0.220567 0.092473 0.089147
0.271439 0.096721 0.090440
0.319272 0.102697 0.091641
0.367501 0.110066 0.092764
0.406471 0.118482 0.093854
0.438692 0.128327 0.095354
0.470661 0.139921 0.096780
0.502223 0.153001 0.098141
0.522656 0.168415 0.099674
0.542752 0.185937 0.101442
0.562532 0.207164 0.103494
0.582018 0.231100 0.105486
0.601226 0.255313 0.107421
0.619540 0.280869 0.109305
0.637008 0.306400 0.111140
0.654227 0.329068 0.112969
0.666634 0.352456 0.115364
0.676648 0.376559 0.117717
0.686441 0.399089 0.120031
0.696025 0.416019 0.122306
0.705411 0.433071 0.124614
0.714610 0.450241 0.127570
0.723631 0.466336 0.130834
0.060955 0.073536 0.082391
0.061929 0.073682 0.082479
0.065483 0.074180 0.082741
0.071030 0.075149 0.083270
0.078395 0.076812 0.083854
0.087556 0.078742 0.084632
0.100724 0.080823 0.085567
0.117891 0.083839 0.086507
0.143445 0.087731 0.087362
0.176627 0.091647 0.088300
0.221666 0.095547 0.089368
0.272537 0.100384 0.090623
0.320132 0.106931 0.091795
0.368332 0.114137 0.092895
0.406978 0.123302 0.094025
0.439141 0.132968 0.095503
0.471079 0.145377 0.096912
0.502473 0.158253 0.098258
0.522886 0.174748 0.099806
0.542963 0.192607 0.101603
0.562728 0.214768 0.103641
0.582199 0.238371 0.105620
0.601395 0.262580 0.107545
0.619688 0.288132 0.109419
0.637147 0.312256 0.111246
0.654357 0.334826 0.113103
0.666708 0.358122 0.115490
0.676717 0.382138 0.117835
0.686506 0.402764 0.120142
0.696085 0.419569 0.122411
0.705468 0.436505 0.124729
0.714663 0.453346 0.127711
0.723682 0.469331 0.130969
0.062182 0.079351 0.083087
0.063451 0.079478 0.083162
0.066335 0.079921 0.083407
0.071816 0.080697 0.083772
0.079361 0.081962 0.084390
0.088237 0.084072 0.085103
0.101771 0.086792 0.085994
0.119184 0.089781 0.086834
0.144625 0.092956 0.087619
0.178152 0.096253 0.088587
0.223311 0.100735 0.089685
0.274179 0.106597 0.090888
0.321418 0.113168 0.092019
0.369574 0.121342 0.093087
0.407734 0.130240 0.094275
0.439811 0.141272 0.095722
0.471703 0.153376 0.097106
0.502846 0.167739 0.098431
0.523228 0.184150 0.100000
0.543279 0.203618 0.101841
0.563021 0.226163 0.103858
0.582471 0.249245 0.105820
0.601649 0.273448 0.107729
0.619910 0.298995 0.109589
0.637355 0.320967 0.111403
0.654552 0.343396 0.113303
0.666818 0.366558 0.115678
0.676820 0.390446 0.118012
0.686602 0.408210 0.120308
0.696176 0.424834 0.122568
0.705553 0.441600 0.124901
0.714744 0.457942 0.127921
0.723758 0.473776 0.131170
0.064069 0.087010 0.083809
0.064917 0.087160 0.083879
0.067981 0.087694 0.084114
0.072789 0.088650 0.084490
0.080609 0.090020 0.085005
0.089132 0.091771 0.085743
0.103167 0.093853 0.086495
0.120922 0.096209 0.087231
0.146212 0.099394 0.088014
0.180265 0.103809 0.088950
0.225534 0.109211 0.090092
0.276399 0.115011 0.091230
0.323153 0.122697 0.092311
0.371250 0.130761 0.093339
0.408753 0.140968 0.094604
0.440715 0.152166 0.096013
0.472546 0.165170 0.097363
0.503349 0.180509 0.098695
0.523690 0.197850 0.100259
0.543705 0.218989 0.102159
0.563415 0.241071 0.104149
0.582838 0.263934 0.106087
0.601991 0.288131 0.107975
0.620209 0.311154 0.109816
0.637635 0.332650 0.111614
0.654816 0.354896 0.113572
0.666967 0.377885 0.115929
0.676959 0.399247 0.118249
0.686732 0.415473 0.120531
0.696298 0.431863 0.122779
0.705668 0.448408 0.125132
0.714852 0.464082 0.128204
0.723860 0.479720 0.131441
0.065654 0.095664 0.084678
0.066396 0.095775 0.084726
0.069740 0.096170 0.084907
0.073904 0.096884 0.085304
0.082111 0.098017 0.085821
0.090229 0.100165 0.086413
0.104911 0.102791 0.087041
0.123116 0.106136 0.087677
0.148219 0.110155 0.088525
0.183108 0.114596 0.089467
0.228360 0.120720 0.090576
0.279221 0.127378 0.091643
0.325357 0.135024 0.092666
0.373379 0.144592 0.093646
0.410047 0.154777 0.095010
0.441862 0.167215 0.096371
0.473615 0.181425 0.097683
0.503987 0.197619 0.099052
0.524276 0.217385 0.100582
0.544246 0.238222 0.102557
0.563917 0.259756 0.104514
0.583304 0.282612 0.106422
0.602426 0.305608 0.108284
0.620590 0.326103 0.110102
0.637992 0.347370 0.111880
0.655150 0.369397 0.113911
0.667156 0.392175 0.116248
0.677136 0.408636 0.118548
0.686898 0.424561 0.120813
0.696454 0.440666 0.123045
0.705814 0.456492 0.125425
0.714990 0.471780 0.128562
0.723990 0.487177 0.131784
0.067942 0.107783 0.085681
0.068845 0.107947 0.085732
0.071528 0.108532 0.085906
0.076205 0.109598 0.086204
0.083833 0.111168 0.086606
0.092386 0.113244 0.087083
0.106998 0.116111 0.087607
0.125770 0.120010 0.088313
0.150654 0.124510 0.089084
0.186582 0.129579 0.090108
0.231813 0.135904 0.091125
0.282669 0.143668 0.092116
0.328045 0.152115 0.093076
0.375977 0.161843 0.094135
0.411622 0.173960 0.095486
0.443260 0.187002 0.096795
0.474917 0.203045 0.098061
0.504765 0.221488 0.099478
0.524991 0.240834 0.101071
0.544906 0.261051 0.103034
0.564528 0.282575 0.104951
0.583873 0.304492 0.106824
0.602957 0.323924 0.108656
0.621054 0.344149 0.110447
0.638426 0.365154 0.112200
0.655559 0.386931 0.114321
0.667387 0.404499 0.116632
0.677352 0.419868 0.118910
0.687100 0.435447 0.121155
0.696643 0.451167 0.123369
0.705993 0.466028 0.125780
0.715158 0.481021 0.128997
0.724149 0.496140 0.132201
0.070408 0.124634 0.086629
0.071114 0.124814 0.086667
0.073302 0.125457 0.086800
0.078755 0.126635 0.087031
0.085740 0.128380 0.087350
0.094853 0.130707 0.087738
0.109415 0.133932 0.088344
0.128888 0.138352 0.088998
0.153520 0.143520 0.089871
0.190705 0.149424 0.090799
0.235912 0.156048 0.091724
0.286421 0.164510 0.092638
0.331228 0.174491 0.093534
0.379054 0.185412 0.094742
0.413484 0.198507 0.096026
0.444913 0.214284 0.097277
0.476459 0.231394 0.098495
0.505684 0.249023 0.099969
0.525836 0.267933 0.101674
0.545686 0.288138 0.103587
0.565251 0.307913 0.105460
0.584546 0.326227 0.107294
0.603585 0.345354 0.109090
0.621603 0.365284 0.110851
0.638941 0.386004 0.112576
0.656043 0.403190 0.114801
0.667660 0.417915 0.117084
0.677607 0.432883 0.119336
0.687339 0.448083 0.121557
0.696868 0.462592 0.123749
0.706204 0.477108 0.126314
0.715358 0.491774 0.129511
0.724337 0.506581 0.132693
0.072658 0.146930 0.087474
0.073225 0.147136 0.087503
0.076036 0.147874 0.087607
0.081418 0.149229 0.087809
0.087797 0.151245 0.088167
0.097834 0.153951 0.088613
0.112149 0.157362 0.089131
0.132466 0.162175 0.089890
0.157518 0.168179 0.090694
0.195496 0.175112 0.091522
0.240673 0.182977 0.092361
0.290245 0.192160 0.093200
0.334917 0.203726 0.094175
0.382623 0.216942 0.095409
0.415639 0.231435 0.096624
0.446826 0.246534 0.097814
0.478244 0.262885 0.099093
0.506748 0.280502 0.100519
0.526815 0.299400 0.102355
0.546590 0.315917 0.104213
0.566089 0.333070 0.106037
0.585326 0.351056 0.107827
0.604313 0.369864 0.109585
0.622241 0.389481 0.111311
0.639539 0.404785 0.113072
0.656604 0.418785 0.115352
0.667977 0.433064 0.117603
0.677904 0.447607 0.119825
0.687617 0.461568 0.122019
0.697129 0.475533 0.124196
0.706450 0.489676 0.126933
0.715589 0.503987 0.130103
0.724556 0.517702 0.133260
0.075438 0.176079 0.088429
0.076355 0.176320 0.088462
0.079388 0.177185 0.088579
0.084152 0.178776 0.088786
0.089971 0.181151 0.089081
0.101367 0.184351 0.089573
0.115181 0.188409 0.090162
0.136500 0.193957 0.090820
0.162611 0.200855 0.091526
0.200965 0.209168 0.092265
0.246113 0.218685 0.093024
0.294599 0.229436 0.093814
0.339120 0.240929 0.094972
0.386075 0.253564 0.096126
0.418027 0.267417 0.097270
0.449002 0.282504 0.098399
0.480275 0.298843 0.099757
0.507958 0.313390 0.101284
0.527928 0.328495 0.103108
0.547619 0.344460 0.104907
0.567044 0.361274 0.106679
0.586214 0.378926 0.108423
0.605143 0.396427 0.110139
0.622967 0.409301 0.111826
0.640219 0.422509 0.113730
0.657243 0.436030 0.115971
0.668339 0.449849 0.118187
0.678241 0.463011 0.120376
0.687934 0.476359 0.122540
0.697426 0.489914 0.124768
0.706730 0.503665 0.127633
0.715853 0.517085 0.130774
0.724806 0.527215 0.133904
0.079273 0.215135 0.089500
0.080058 0.215426 0.089537
0.082690 0.216471 0.089666
0.086926 0.218395 0.089899
0.093607 0.221274 0.090232
0.105186 0.225167 0.090658
0.119421 0.230122 0.091164
0.140981 0.235918 0.091736
0.168336 0.242767 0.092358
0.207105 0.250724 0.093018
0.252246 0.259815 0.093704
0.299489 0.270062 0.094737
0.343843 0.281488 0.095808
0.389029 0.294113 0.096883
0.420650 0.306542 0.097957
0.451442 0.318673 0.099149
0.482555 0.331692 0.100472
0.509315 0.345589 0.102173
0.529178 0.360356 0.103928
0.548775 0.375983 0.105666
0.568116 0.392460 0.107382
0.587213 0.404705 0.109077
0.606075 0.416701 0.110747
0.623784 0.429064 0.112394
0.640985 0.441774 0.114459
0.657963 0.454509 0.116658
0.668745 0.466932 0.118834
0.678622 0.479606 0.120988
0.688290 0.492517 0.123120
0.697761 0.505652 0.125406
0.707045 0.518093 0.128415
0.716150 0.527812 0.131523
0.725086 0.537597 0.134623
0.082945 0.261101 0.090712
0.083625 0.261379 0.090742
0.085931 0.262376 0.090851
0.089716 0.264212 0.091047
0.097827 0.266959 0.091330
0.109265 0.270670 0.091694
0.124730 0.275389 0.092132
0.145901 0.281154 0.092632
0.174700 0.287997 0.093183
0.213953 0.295947 0.093786
0.259084 0.304175 0.094718
0.304919 0.312440 0.095684
0.349092 0.321597 0.096672
0.392300 0.331645 0.097673
0.423555 0.342582 0.098717
0.454148 0.354403 0.099976
0.485085 0.367104 0.101429
0.510820 0.380678 0.103123
0.530564 0.394886 0.104809
0.550057 0.405128 0.106483
0.569306 0.415804 0.108143
0.588322 0.426895 0.109785
0.607112 0.438381 0.111409
0.624691 0.450243 0.113083
0.641836 0.461629 0.115255
0.658764 0.473304 0.117409
0.669197 0.485259 0.119544
0.679044 0.497480 0.121660
0.688686 0.509952 0.123757
0.698133 0.520728 0.126199
0.707395 0.529992 0.129277
0.716481 0.539346 0.132350
0.725399 0.548780 0.135416
0.086472 0.309054 0.091840
0.087068 0.309278 0.091866
0.089106 0.310082 0.091959
0.094066 0.311560 0.092126
0.102699 0.313768 0.092369
0.113576 0.316745 0.092684
0.130477 0.320522 0.093066
0.151248 0.325123 0.093505
0.181895 0.330564 0.094119
0.221518 0.336860 0.094916
0.266640 0.344019 0.095762
0.310893 0.352049 0.096646
0.354870 0.360954 0.097557
0.395885 0.370734 0.098487
0.426743 0.381390 0.099654
0.457120 0.392919 0.100900
0.487866 0.401731 0.102512
0.512471 0.410547 0.104129
0.532087 0.419834 0.105745
0.551466 0.429576 0.107354
0.570616 0.439752 0.108955
0.589542 0.450347 0.110544
0.608253 0.460585 0.112119
0.625691 0.471161 0.113995
0.642774 0.482060 0.116115
0.659645 0.493266 0.118222
0.669695 0.504762 0.120313
0.679510 0.516317 0.122389
0.689123 0.524968 0.124500
0.698544 0.533741 0.127180
0.707782 0.542627 0.130218
0.716846 0.551615 0.133253
0.725744 0.560697 0.136284
0.089871 0.352539 0.092898
0.090511 0.352756 0.092920
0.093572 0.353535 0.093000
0.099283 0.354968 0.093144
0.107751 0.357108 0.093355
0.118838 0.359996 0.093630
0.136644 0.363660 0.094074
0.157779 0.368126 0.094660
0.190239 0.373410 0.095318
0.229813 0.379527 0.096036
0.274924 0.386489 0.096805
0.317411 0.394302 0.097615
0.361180 0.400162 0.098455
0.399783 0.406519 0.099517
0.430212 0.413395 0.100620
0.460356 0.420780 0.102113
0.490897 0.428658 0.103643
0.514269 0.437017 0.105183
0.533746 0.445841 0.106729
0.553003 0.454788 0.108274
0.572045 0.463820 0.109815
0.590875 0.473228 0.111350
0.609499 0.482994 0.112895
0.626783 0.493104 0.114970
0.643799 0.503542 0.117036
0.660249 0.514292 0.119094
0.670239 0.522653 0.121140
0.680019 0.530764 0.123174
0.689601 0.539019 0.125365
0.698993 0.547409 0.128241
0.708205 0.555922 0.131237
0.717245 0.564549 0.134232
0.726121 0.573280 0.137225
0.095177 0.397165 0.093968
0.095982 0.397307 0.093997
0.099230 0.397815 0.094102
0.104981 0.398749 0.094291
0.112960 0.400142 0.094568
0.125842 0.402019 0.094933
0.143217 0.404395 0.095379
0.166225 0.407282 0.095902
0.199328 0.410687 0.096493
0.238848 0.414614 0.097143
0.283948 0.419064 0.097843
0.324475 0.424034 0.098600
0.368024 0.429520 0.099570
0.403989 0.435516 0.100575
0.433959 0.442013 0.101936
0.463856 0.449001 0.103363
0.494177 0.456050 0.104813
0.516212 0.463436 0.106279
0.535541 0.471237 0.107755
0.554668 0.479439 0.109236
0.573593 0.488028 0.110719
0.592319 0.496991 0.112199
0.610819 0.506312 0.113987
0.627967 0.515916 0.116003
0.644911 0.523108 0.118015
0.660881 0.530488 0.120022
0.670829 0.538044 0.122021
0.680572 0.545765 0.124011
0.690119 0.553639 0.126433
0.699480 0.561656 0.129380
0.708664 0.569806 0.132331
0.717678 0.578079 0.135284
0.726531 0.586467 0.138238
0.101452 0.429078 0.095388
0.102324 0.429211 0.095414
0.105389 0.429688 0.095505
0.110774 0.430563 0.095673
0.119146 0.431870 0.095918
0.133226 0.433631 0.096242
0.150179 0.435862 0.096641
0.175333 0.438575 0.097110
0.209127 0.441777 0.097643
0.248632 0.445473 0.098233
0.292013 0.449666 0.098958
0.332084 0.454081 0.099811
0.375401 0.458904 0.100722
0.408501 0.464179 0.101988
0.437981 0.469897 0.103298
0.467618 0.476051 0.104644
0.497706 0.482631 0.106017
0.518300 0.489628 0.107410
0.537471 0.497029 0.108818
0.556458 0.504824 0.110237
0.575259 0.513001 0.111660
0.593875 0.519926 0.113183
0.612182 0.526313 0.115135
0.629244 0.532916 0.117091
0.646110 0.539722 0.119048
0.661563 0.546720 0.121003
0.671466 0.553898 0.122954
0.681168 0.561247 0.125022
0.690679 0.568756 0.127696
0.700007 0.576414 0.130594
0.709160 0.584213 0.133498
0.718147 0.592142 0.136407
0.726974 0.600194 0.139320
0.107917 0.460628 0.096741
0.108730 0.460744 0.096764
0.111592 0.461161 0.096845
0.116709 0.461928 0.096994
0.127296 0.463073 0.097213
0.140975 0.464615 0.097503
0.158467 0.466569 0.097860
0.185586 0.468946 0.098283
0.219682 0.471753 0.098826
0.259175 0.474994 0.099498
0.300426 0.478671 0.100231
0.340237 0.482785 0.101138
0.383313 0.487333 0.102266
0.413313 0.492311 0.103449
0.442275 0.497715 0.104679
0.471638 0.503539 0.105947
0.501369 0.509775 0.107247
0.520531 0.516230 0.108571
0.539535 0.521293 0.109914
0.558375 0.526612 0.111270
0.577044 0.532177 0.112636
0.595542 0.537978 0.114445
0.613643 0.544004 0.116333
0.630614 0.550245 0.118230
0.647397 0.556690 0.120130
0.662294 0.563329 0.122033
0.672149 0.570151 0.123935
0.681808 0.577147 0.126199
0.691280 0.584307 0.129034
0.700572 0.591622 0.131881
0.709693 0.599082 0.134737
0.718650 0.606680 0.137600
0.727450 0.613900 0.140470
0.114389 0.490968 0.098034
0.115149 0.491077 0.098055
0.118449 0.491469 0.098128
0.125526 0.492190 0.098261
0.135776 0.493266 0.098457
0.149072 0.494717 0.098765
0.169040 0.496556 0.099169
0.196975 0.498795 0.099648
0.231005 0.501439 0.100199
0.270486 0.504495 0.100863
0.309390 0.507965 0.101775
0.348933 0.511849 0.102761
0.389349 0.516039 0.103812
0.418343 0.519432 0.104918
0.446836 0.523110 0.106073
0.475914 0.527067 0.107269
0.503937 0.531296 0.108499
0.522901 0.535790 0.109756
0.541731 0.540541 0.111035
0.560415 0.545540 0.112332
0.578947 0.550779 0.113943
0.597321 0.556250 0.115753
0.615202 0.561942 0.117578
0.632076 0.567847 0.119415
0.648772 0.573955 0.121260
0.663074 0.580256 0.123110
0.672879 0.586743 0.125096
0.682492 0.593405 0.127664
0.691922 0.600234 0.130443
0.701177 0.607221 0.133237
0.710263 0.613869 0.136044
0.719188 0.618607 0.138861
0.727959 0.623413 0.141959
0.122947 0.519896 0.099461
0.124012 0.519970 0.099484
0.127801 0.520236 0.099566
0.134638 0.520724 0.099717
0.144571 0.521454 0.099939
0.158449 0.522437 0.100234
0.180338 0.523683 0.100601
0.209100 0.525199 0.101166
0.243104 0.526988 0.101848
0.282572 0.529053 0.102614
0.318902 0.531396 0.103459
0.358169 0.534017 0.104375
0.395111 0.536914 0.105355
0.423496 0.540084 0.106391
0.451660 0.543524 0.107476
0.480441 0.547229 0.108603
0.506652 0.551195 0.109767
0.525410 0.555414 0.110961
0.544058 0.559881 0.112180
0.562579 0.564589 0.113638
0.580965 0.569530 0.115358
0.599209 0.574696 0.117102
0.616859 0.580079 0.118865
0.633630 0.585672 0.120643
0.650233 0.591466 0.122432
0.663904 0.597452 0.124246
0.673655 0.603624 0.126494
0.683220 0.609971 0.129197
0.692606 0.615256 0.131920
0.701820 0.619598 0.134661
0.710870 0.624022 0.137417
0.719761 0.628523 0.140186
0.728501 0.633096 0.143726
0.132733 0.541814 0.101053
0.133760 0.541883 0.101081
0.137419 0.542131 0.101182
0.144034 0.542586 0.101367
0.153670 0.543265 0.101641
0.170482 0.544181 0.102005
0.193305 0.545343 0.102460
0.221996 0.546756 0.103003
0.255987 0.548425 0.103631
0.293392 0.550353 0.104340
0.328955 0.552542 0.105124
0.367941 0.554993 0.105976
0.401165 0.557704 0.106891
0.428917 0.560674 0.107862
0.456741 0.563900 0.108883
0.485217 0.567378 0.109947
0.509509 0.571105 0.111048
0.528054 0.575075 0.112182
0.546512 0.579284 0.113534
0.564865 0.583725 0.115156
0.583099 0.588391 0.116809
0.601206 0.593277 0.118489
0.618611 0.598376 0.120190
0.635276 0.603679 0.121910
0.651781 0.609181 0.123643
0.664783 0.614204 0.125590
0.674478 0.618030 0.128152
0.683991 0.621957 0.130795
0.693331 0.625979 0.133462
0.702503 0.630091 0.136149
0.711514 0.634288 0.138854
0.720370 0.638565 0.141804
0.729077 0.642915 0.145586
0.142764 0.563520 0.103008
0.143756 0.563584 0.103034
0.147294 0.563816 0.103126
0.153702 0.564241 0.103296
0.166062 0.564876 0.103547
0.183492 0.565732 0.103881
0.207036 0.566818 0.104300
0.235684 0.568140 0.104801
0.269661 0.569702 0.105382
0.304283 0.571508 0.106039
0.339548 0.573560 0.106768
0.378248 0.575858 0.107563
0.407501 0.578402 0.108419
0.434597 0.581191 0.109330
0.462074 0.584224 0.110290
0.490236 0.587497 0.111295
0.512506 0.591007 0.112338
0.530831 0.594751 0.113632
0.549093 0.598724 0.115148
0.567270 0.602920 0.116702
0.585346 0.607335 0.118291
0.603312 0.611963 0.119908
0.620460 0.615459 0.121549
0.637012 0.618735 0.123211
0.653416 0.622127 0.125013
0.665710 0.625631 0.127317
0.675346 0.629240 0.129872
0.684806 0.632951 0.132456
0.694096 0.636758 0.135066
0.703224 0.640656 0.137698
0.712194 0.644639 0.140351
0.721013 0.648704 0.143804
0.729686 0.652748 0.147534
0.153032 0.585025 0.104907
0.153993 0.585085 0.104931
0.158335 0.585302 0.105016
0.166856 0.585701 0.105172
0.179532 0.586296 0.105403
0.198069 0.587099 0.105712
0.221535 0.588118 0.106098
0.250169 0.589358 0.106562
0.284134 0.590824 0.107101
0.315710 0.592520 0.107711
0.350674 0.594448 0.108390
0.387624 0.596609 0.109133
0.414111 0.599003 0.109935
0.440530 0.601629 0.110791
0.467654 0.604486 0.111695
0.495493 0.607573 0.112644
0.515638 0.610887 0.113931
0.533738 0.613912 0.115334
0.551798 0.616360 0.116784
0.569793 0.618942 0.118274
0.587706 0.621656 0.119799
0.605523 0.624497 0.121356
0.622403 0.627461 0.122939
0.638838 0.630543 0.124612
0.655136 0.633740 0.126700
0.666685 0.637045 0.129158
0.676259 0.640455 0.131651
0.685663 0.643966 0.134175
0.694903 0.647571 0.136728
0.703984 0.651268 0.139306
0.712912 0.654802 0.142263
0.721692 0.658399 0.145892
0.730329 0.662066 0.149569
0.166716 0.606340 0.106754
0.168002 0.606397 0.106776
0.172614 0.606601 0.106855
0.181201 0.606975 0.106999
0.194922 0.607535 0.107212
0.213393 0.608290 0.107498
0.236838 0.609248 0.107856
0.265461 0.610415 0.108287
0.296567 0.611795 0.108788
0.327667 0.613239 0.109356
0.362329 0.614423 0.109990
0.394927 0.615750 0.110685
0.420797 0.617220 0.111438
0.446708 0.618831 0.112243
0.473473 0.620582 0.113197
0.500985 0.622473 0.114426
0.518902 0.624500 0.115713
0.536771 0.626663 0.117052
0.554623 0.628957 0.118438
0.572431 0.631380 0.119865
0.590176 0.633928 0.121331
0.607841 0.636600 0.122829
0.624439 0.639389 0.124392
0.640753 0.642294 0.126307
0.656941 0.645309 0.128659
0.667708 0.648432 0.131053
0.677218 0.651642 0.133484
0.686564 0.654737 0.135950
0.695750 0.657918 0.138446
0.704783 0.661182 0.140971
0.713666 0.664525 0.144490
0.722405 0.667943 0.148064
0.731004 0.671432 0.151689
0.181874 0.622394 0.108554
0.183262 0.622429 0.108574
0.188247 0.622553 0.108647
0.197419 0.622782 0.108780
0.211082 0.623124 0.108978
0.229519 0.623584 0.109243
0.252954 0.624168 0.109576
0.281564 0.624880 0.109977
0.309353 0.625721 0.110443
0.340147 0.626694 0.110975
0.374508 0.627800 0.111568
0.402489 0.629040 0.112220
0.427609 0.630413 0.112965
0.453125 0.631919 0.114003
0.479527 0.633559 0.115108
0.504705 0.635329 0.116276
0.522294 0.637230 0.117502
0.539927 0.639258 0.118780
0.557566 0.641413 0.120106
0.575183 0.643690 0.121475
0.592754 0.646088 0.122882
0.610262 0.648604 0.124355
0.626567 0.651234 0.126141
0.642756 0.653800 0.128380
0.658830 0.656452 0.130667
0.668778 0.659200 0.132998
0.678221 0.662040 0.135369
0.687506 0.664969 0.137776
0.696638 0.667984 0.140216
0.705620 0.671082 0.143338
0.714456 0.674257 0.146800
0.723153 0.677508 0.150318
0.731713 0.680830 0.153890
0.198923 0.635893 0.110308
0.200309 0.635925 0.110327
0.205269 0.636041 0.110394
0.214393 0.636255 0.110518
0.228036 0.636574 0.110703
0.246464 0.637004 0.110949
0.269888 0.637550 0.111259
0.295827 0.638216 0.111633
0.322654 0.639002 0.112069
0.353146 0.639912 0.112566
0.386409 0.640947 0.113233
0.410298 0.642108 0.114071
0.434653 0.643395 0.114984
0.459772 0.644807 0.115967
0.485808 0.646345 0.117017
0.508486 0.648007 0.118128
0.525809 0.649792 0.119296
0.543202 0.651682 0.120517
0.560625 0.653569 0.121786
0.578046 0.655565 0.123098
0.595439 0.657668 0.124501
0.612629 0.659876 0.126203
0.628786 0.662186 0.128323
0.644846 0.664595 0.130498
0.660365 0.667100 0.132722
0.669895 0.669699 0.134991
0.679269 0.672388 0.137302
0.688491 0.675164 0.139651
0.697565 0.678025 0.142440
0.706494 0.680966 0.145784
0.715283 0.683985 0.149189
0.723935 0.687079 0.152653
0.732455 0.690244 0.156171
0.216722 0.649137 0.112020
0.218102 0.649168 0.112038
0.223059 0.649277 0.112101
0.232178 0.649477 0.112216
0.245814 0.649776 0.112388
0.264233 0.650179 0.112618
0.287133 0.650690 0.112940
0.309929 0.651314 0.113417
0.336464 0.652010 0.113977
0.366656 0.652804 0.114616
0.394908 0.653708 0.115333
0.418273 0.654722 0.116126
0.441921 0.655847 0.116990
0.466643 0.657082 0.117923
0.492310 0.658427 0.118920
0.512388 0.659882 0.119978
0.529443 0.661445 0.121093
0.546594 0.663115 0.122259
0.563796 0.664892 0.123474
0.581016 0.666772 0.124829
0.598227 0.668755 0.126493
0.615083 0.670839 0.128489
0.631095 0.673020 0.130545
0.647022 0.675297 0.132657
