negative-gold-200/Gold200_Modern_Punchy.cube
TITLE "Kodak Gold 200 Modern Punchy"
# Adobe RGB in/out. REPLACES AgX. Kodak Gold 200 Modern Punchy.
LUT_3D_SIZE 9
DOMAIN_MIN 0.0 0.0 0.0
DOMAIN_MAX 1.0 1.0 1.0
0.072541 0.084015 0.079839
0.193711 0.089599 0.082117
0.617783 0.102957 0.086666
0.825226 0.128244 0.092621
0.887687 0.164840 0.102624
0.907294 0.192284 0.115112
0.913414 0.198035 0.134833
0.916640 0.213785 0.562530
0.911046 0.363947 0.674069
0.079337 0.114106 0.081869
0.094434 0.104019 0.082939
0.311866 0.116036 0.086874
0.725205 0.147833 0.092719
0.863255 0.182532 0.102492
0.899769 0.211919 0.114520
0.909575 0.216549 0.132742
0.914429 0.210062 0.556222
0.909471 0.359167 0.668626
0.097018 0.313149 0.087274
0.103159 0.277125 0.088762
0.149224 0.202900 0.089633
0.380349 0.216473 0.094416
0.724958 0.257478 0.103328
0.858929 0.298291 0.114748
0.894569 0.311192 0.130419
0.907520 0.207059 0.536651
0.904328 0.343925 0.651105
0.117816 0.541501 0.093218
0.121456 0.520985 0.095149
0.151324 0.458819 0.097692
0.246836 0.387818 0.100078
0.489720 0.384893 0.106294
0.753925 0.415596 0.117198
0.861861 0.440639 0.131369
0.889536 0.428331 0.154834
0.895527 0.288454 0.517021
0.141041 0.672066 0.100546
0.144345 0.662475 0.102398
0.167182 0.634821 0.106905
0.231013 0.590288 0.110701
0.366135 0.544945 0.114449
0.598346 0.535653 0.122655
0.791287 0.551741 0.135123
0.869204 0.558809 0.155386
0.883863 0.536506 0.293597
0.166694 0.760683 0.106093
0.169121 0.754371 0.108054
0.187973 0.737818 0.114548
0.234302 0.708561 0.121132
0.330648 0.676470 0.126923
0.498612 0.653014 0.132682
0.697951 0.645126 0.142551
0.838086 0.652023 0.160845
0.872711 0.649799 0.199666
0.190147 0.814250 0.107783
0.191905 0.812026 0.109637
0.205426 0.805596 0.117301
0.242746 0.793272 0.127149
0.315905 0.767602 0.135297
0.439507 0.745165 0.144423
0.615150 0.730685 0.154721
0.784410 0.724584 0.167684
0.863942 0.728113 0.194240
0.210422 0.848148 0.096351
0.210649 0.846010 0.097696
0.221208 0.838225 0.108362
0.249595 0.828617 0.121300
0.305975 0.817475 0.134005
0.400994 0.807021 0.146884
0.545836 0.799308 0.158991
0.722919 0.795337 0.170911
0.857938 0.792619 0.189760
0.199961 0.841811 0.087715
0.199239 0.840847 0.087675
0.233974 0.851338 0.087553
0.229975 0.847312 0.090870
0.287953 0.843263 0.102605
0.364757 0.834166 0.118831
0.478530 0.827318 0.131238
0.632249 0.823587 0.138119
0.856520 0.823044 0.140597
0.077918 0.092052 0.121021
0.168730 0.124052 0.261974
0.660114 0.117995 0.154620
0.845909 0.142589 0.139304
0.889004 0.172223 0.131961
0.905566 0.197193 0.136002
0.911728 0.203342 0.160850
0.915455 0.211796 0.559153
0.910230 0.361467 0.671246
0.084418 0.110569 0.106358
0.108222 0.103789 0.100700
0.410535 0.122771 0.114770
0.770902 0.159627 0.127255
0.868173 0.189429 0.128628
0.898449 0.216215 0.134201
0.907924 0.221138 0.155181
0.913247 0.208195 0.552896
0.908660 0.356726 0.665839
0.102748 0.280912 0.117764
0.111840 0.240549 0.112556
0.175096 0.185028 0.106016
0.471025 0.214637 0.114732
0.760229 0.260505 0.123618
0.861777 0.299335 0.132039
0.892961 0.312255 0.148044
0.906393 0.207719 0.533994
0.903541 0.341643 0.648457
0.122815 0.515175 0.120409
0.128232 0.493909 0.120548
0.165110 0.428957 0.118560
0.277249 0.368084 0.117575
0.537291 0.377823 0.123199
0.768561 0.413020 0.132282
0.862732 0.438624 0.147119
0.888203 0.428073 0.172932
0.894905 0.320161 0.623152
0.145354 0.658058 0.119609
0.149481 0.648585 0.121802
0.175752 0.621181 0.126323
0.245874 0.574981 0.128543
0.391722 0.535479 0.131411
0.623864 0.530762 0.136206
0.799348 0.548809 0.151209
0.868804 0.556687 0.171412
0.883097 0.540278 0.339371
0.169285 0.751949 0.119443
0.172233 0.745820 0.121797
0.192424 0.729259 0.129668
0.242062 0.701015 0.135727
0.342658 0.670234 0.141712
0.518630 0.648810 0.149449
0.710621 0.642714 0.158965
0.841000 0.650301 0.176215
0.872090 0.649334 0.216102
0.191662 0.811573 0.117314
0.193674 0.809365 0.119518
0.208232 0.802926 0.128936
0.247275 0.788502 0.139030
0.322537 0.763599 0.150945
0.450070 0.742119 0.160833
0.628198 0.728533 0.171149
0.790350 0.723279 0.182539
0.863671 0.727382 0.208078
0.210502 0.846400 0.100607
0.211030 0.844329 0.102420
0.222704 0.836771 0.115376
0.252104 0.827282 0.130701
0.309680 0.816326 0.146156
0.406468 0.806102 0.160954
0.552730 0.798645 0.173526
0.730779 0.794464 0.185589
0.858075 0.792083 0.202943
0.205520 0.846913 0.106756
0.204712 0.845948 0.106566
0.239486 0.856005 0.105933
0.234068 0.850821 0.104977
0.289374 0.842920 0.106693
0.366982 0.833873 0.126334
0.482040 0.827133 0.139611
0.637197 0.823508 0.150345
0.857317 0.823014 0.152664
0.087233 0.114223 0.317042
0.205088 0.247166 0.620817
0.638353 0.248835 0.589027
0.854305 0.248581 0.528989
0.890604 0.251907 0.467827
0.904500 0.272902 0.462297
0.909859 0.286446 0.494020
0.913455 0.217662 0.567382
0.908538 0.356368 0.665449
0.098349 0.158229 0.328373
0.154242 0.189077 0.414979
0.489924 0.199698 0.418086
0.788292 0.220184 0.400223
0.871467 0.247796 0.390780
0.897227 0.275024 0.408440
0.905930 0.288883 0.453123
0.911228 0.216149 0.562769
0.906956 0.351644 0.660018
0.108241 0.244819 0.241078
0.118943 0.217235 0.214877
0.198748 0.182425 0.184714
0.540037 0.227438 0.226325
0.785143 0.283534 0.267284
0.865361 0.327873 0.306019
0.890751 0.343360 0.339454
0.903951 0.259016 0.540408
0.901809 0.336665 0.642655
0.132656 0.477358 0.257766
0.141463 0.453350 0.245082
0.186925 0.389875 0.215834
0.321177 0.337429 0.197322
0.614420 0.372404 0.218763
0.795658 0.420444 0.250862
0.864293 0.447858 0.273650
0.885657 0.444978 0.342160
0.892494 0.315437 0.617531
0.159815 0.635477 0.254261
0.166395 0.626041 0.250414
0.198334 0.596504 0.238372
0.283985 0.548545 0.224421
0.455915 0.517508 0.218055
0.687708 0.524921 0.232266
0.817785 0.547895 0.250404
0.868091 0.557235 0.284791
0.881275 0.557315 0.486491
0.185243 0.735172 0.245221
0.189407 0.729133 0.245001
0.213543 0.711802 0.244934
0.273834 0.684288 0.240811
0.389304 0.657131 0.236966
0.574021 0.639979 0.237624
0.753434 0.638743 0.244062
0.848142 0.647935 0.268749
0.870540 0.650919 0.326326
0.203457 0.804818 0.219589
0.206587 0.802668 0.221543
0.225085 0.796148 0.229263
0.269946 0.776465 0.236015
0.353325 0.753604 0.240106
0.496379 0.734668 0.244246
0.671903 0.723480 0.250418
0.809779 0.720621 0.264050
0.862942 0.726148 0.284721
0.217691 0.838934 0.180906
0.219676 0.837262 0.184998
0.235300 0.831558 0.204511
0.268147 0.822953 0.221403
0.330543 0.812814 0.234616
0.435486 0.803415 0.244409
0.586427 0.796815 0.253400
0.760003 0.792168 0.262807
0.858332 0.790849 0.270216
0.204169 0.845300 0.106445
0.241244 0.857668 0.106258
0.237870 0.854469 0.105638
0.232623 0.849409 0.104784
0.298987 0.841563 0.148807
0.378929 0.832901 0.187529
0.499471 0.826561 0.206799
0.657972 0.823297 0.217387
0.858134 0.823033 0.220967
0.101419 0.172334 0.570182
0.181375 0.323826 0.735656
0.587009 0.376729 0.766582
0.853466 0.400259 0.759539
0.897663 0.393011 0.721492
0.906528 0.386278 0.693158
0.910038 0.381799 0.688565
0.911590 0.331169 0.708748
0.907493 0.364937 0.692998
0.112919 0.225838 0.583209
0.170315 0.308216 0.679559
0.535681 0.385876 0.737657
0.810821 0.385099 0.712711
0.878986 0.378645 0.680973
0.899480 0.383996 0.664818
0.906009 0.385810 0.670692
0.909077 0.336779 0.699640
0.905871 0.360104 0.689163
0.122888 0.303586 0.486689
0.141904 0.298419 0.477691
0.277080 0.297223 0.485808
0.603695 0.318645 0.505158
0.800756 0.361622 0.534151
0.867916 0.399240 0.558361
0.890450 0.417336 0.589945
0.900202 0.409109 0.649770
0.900586 0.344790 0.676877
0.141109 0.451200 0.443288
0.150949 0.433604 0.424220
0.200832 0.381690 0.377008
0.345666 0.339066 0.345093
0.649320 0.393205 0.395330
0.803187 0.444766 0.446249
0.864013 0.477893 0.487577
0.883910 0.487243 0.559703
0.890512 0.322595 0.651128
0.171991 0.615548 0.449478
0.179618 0.607288 0.438633
0.215683 0.574240 0.409268
0.310086 0.530127 0.375598
0.495765 0.503316 0.358262
0.713211 0.523894 0.382669
0.823195 0.553084 0.418822
0.866364 0.568642 0.467343
0.879362 0.579631 0.608662
0.197755 0.718455 0.437854
0.202861 0.712971 0.432807
0.232548 0.696477 0.418829
0.299791 0.670261 0.398720
0.427925 0.645639 0.382063
0.617116 0.631856 0.375948
0.771919 0.636480 0.389084
0.849132 0.647909 0.417227
0.869062 0.661185 0.529165
0.216626 0.797794 0.414365
0.220753 0.795770 0.412592
0.243164 0.784159 0.408530
0.293267 0.765217 0.400876
0.385822 0.744278 0.392267
0.538943 0.727565 0.386926
0.706189 0.718804 0.387298
0.821123 0.718856 0.397047
0.861925 0.728281 0.454202
0.227804 0.833166 0.378541
0.230652 0.831673 0.378761
0.248348 0.826652 0.382973
0.284587 0.818654 0.384867
0.352551 0.809325 0.385322
0.467450 0.800805 0.385295
0.623377 0.794687 0.386919
0.780880 0.790231 0.391558
0.858124 0.791019 0.412170
0.222852 0.851221 0.369575
0.243969 0.857887 0.368059
0.240702 0.854821 0.363014
0.258306 0.851162 0.276891
0.316478 0.839190 0.352578
0.398121 0.831500 0.361107
0.524758 0.825883 0.367333
0.683832 0.823121 0.371719
0.858324 0.823479 0.375907
0.121407 0.271799 0.746765
0.171918 0.376545 0.805584
0.520070 0.474719 0.843892
0.832731 0.494676 0.844532
0.904656 0.508589 0.838888
0.911493 0.483655 0.808752
0.912603 0.461503 0.787638
0.911945 0.408121 0.774778
0.907713 0.396570 0.767707
0.131048 0.322074 0.754387
0.177869 0.401337 0.799927
0.487345 0.488703 0.838082
0.813917 0.510211 0.840324
0.889666 0.498844 0.819062
0.904576 0.481979 0.794870
0.908527 0.465204 0.774617
0.909386 0.414889 0.766766
0.906034 0.390125 0.760519
0.160191 0.454656 0.741233
0.188684 0.464632 0.745597
0.360072 0.484953 0.763539
0.674932 0.479988 0.750728
0.824547 0.479277 0.736231
0.875602 0.487128 0.730634
0.893787 0.488302 0.731445
0.900713 0.470844 0.738354
0.900542 0.369663 0.737572
0.158208 0.486238 0.619152
0.171658 0.479961 0.610393
0.241014 0.462329 0.595527
0.432537 0.451699 0.591892
0.689185 0.472104 0.608898
0.816009 0.501720 0.637684
0.866637 0.523234 0.667052
0.884261 0.527783 0.694500
0.890761 0.443698 0.715482
0.182149 0.606107 0.594173
0.190676 0.598381 0.585529
0.231422 0.571496 0.561608
0.330658 0.533256 0.528753
0.517783 0.507503 0.506621
0.729030 0.541551 0.546733
0.826721 0.575420 0.584925
0.865971 0.595948 0.630207
0.878219 0.602849 0.690412
0.208521 0.706201 0.589064
0.214876 0.701548 0.583490
0.248268 0.686498 0.567525
0.320041 0.663054 0.545199
0.455796 0.640014 0.523354
0.641769 0.627938 0.514251
0.780160 0.639646 0.535559
0.848660 0.655082 0.569856
0.867813 0.672705 0.652337
0.228313 0.788746 0.577427
0.233335 0.785338 0.574105
0.258066 0.774583 0.564453
0.312390 0.757428 0.550810
0.412552 0.738363 0.535388
0.568379 0.723324 0.524824
0.728870 0.716650 0.522665
0.826001 0.720218 0.535454
0.861015 0.735314 0.602777
0.236977 0.828619 0.562309
0.240363 0.827248 0.560047
0.259779 0.822608 0.553984
0.299114 0.815293 0.544342
0.372221 0.806752 0.534232
0.496674 0.799061 0.526428
0.655022 0.792874 0.522548
0.795360 0.790033 0.523764
0.857832 0.794601 0.555763
0.230569 0.851649 0.639101
0.232847 0.851894 0.637393
0.237226 0.851611 0.631673
0.271654 0.845441 0.545217
0.327308 0.837588 0.532827
0.412668 0.830654 0.525224
0.541628 0.825626 0.520704
0.703861 0.823438 0.519485
0.858378 0.825092 0.524184
0.152356 0.406191 0.852943
0.190676 0.468406 0.874671
0.471861 0.545771 0.889637
0.808940 0.564930 0.890354
0.904408 0.587215 0.890988
0.917531 0.562972 0.875407
0.916794 0.529043 0.849111
0.914164 0.480160 0.830239
0.908926 0.415186 0.808544
0.161662 0.441007 0.856023
0.197285 0.489645 0.874366
0.458361 0.560805 0.888760
0.794908 0.580634 0.889787
0.899768 0.598001 0.888738
0.911003 0.560861 0.865186
0.912804 0.531467 0.842104
0.911596 0.485482 0.825681
0.907220 0.410058 0.805251
0.201010 0.554588 0.860104
0.231766 0.573358 0.869048
0.431354 0.617583 0.883832
0.714315 0.601475 0.870612
0.850195 0.578837 0.848736
0.886200 0.563034 0.831520
0.899642 0.548756 0.819473
0.902983 0.522207 0.810179
0.901609 0.393158 0.793467
0.194063 0.565930 0.786251
0.209012 0.565588 0.785373
0.304240 0.570515 0.789525
0.522874 0.566523 0.785081
0.738790 0.565562 0.778323
0.836653 0.570838 0.775905
0.873018 0.577284 0.777396
0.887117 0.570870 0.780439
0.891731 0.498753 0.771009
0.199464 0.620594 0.721605
0.208733 0.616927 0.717349
0.261213 0.607479 0.707887
0.378556 0.588967 0.696592
0.583450 0.580142 0.692262
0.757329 0.594286 0.702538
0.836272 0.613284 0.719901
0.868036 0.622783 0.738392
0.878551 0.622244 0.753192
0.219310 0.702150 0.704262
0.227023 0.698497 0.700417
0.263252 0.686741 0.689418
0.339686 0.667590 0.674501
0.481592 0.646809 0.653781
0.654976 0.632819 0.639220
0.786986 0.653183 0.671392
0.850238 0.670728 0.697993
0.867487 0.685609 0.729604
0.238020 0.781950 0.695103
0.243567 0.779029 0.692279
0.270136 0.769816 0.683989
0.327734 0.754865 0.671833
0.433728 0.737786 0.656209
0.589579 0.723697 0.644749
0.741692 0.718297 0.642737
0.828205 0.726619 0.662808
0.860429 0.744241 0.707756
0.243807 0.825668 0.686964
0.247573 0.824438 0.684754
0.268379 0.820239 0.677999
0.310164 0.813595 0.666523
0.387257 0.805850 0.653876
0.518526 0.798910 0.644176
0.672566 0.793854 0.639148
0.803231 0.792528 0.640637
0.857683 0.798813 0.682557
0.231006 0.849476 0.678322
0.233017 0.849684 0.678976
0.236765 0.849339 0.681919
0.275470 0.844434 0.671775
0.333221 0.837064 0.655801
0.421040 0.830735 0.644827
0.551389 0.826320 0.637922
0.715341 0.824635 0.634820
0.858596 0.828266 0.658453
0.201512 0.534380 0.909777
0.229975 0.563769 0.917294
0.421152 0.610714 0.921325
0.795283 0.623324 0.921633
0.902558 0.637727 0.922143
0.923643 0.632262 0.913419
0.921730 0.595635 0.893543
0.917372 0.538272 0.877806
0.910902 0.444916 0.851829
0.209197 0.554547 0.910726
0.236074 0.579733 0.917068
0.423163 0.620904 0.921292
0.784833 0.633633 0.921680
0.900032 0.647955 0.922209
0.917714 0.629916 0.907545
0.917926 0.597397 0.889560
0.914856 0.543113 0.875134
0.909190 0.439180 0.848235
0.247867 0.631067 0.912634
0.271722 0.640254 0.915987
0.433251 0.664262 0.920490
0.749563 0.676085 0.921259
0.866467 0.650980 0.904308
0.897979 0.629308 0.889133
0.905357 0.608970 0.876733
0.906442 0.574267 0.861151
0.903525 0.420311 0.835975
0.251489 0.654853 0.885130
0.268332 0.655563 0.885313
0.365351 0.658400 0.884280
0.587883 0.650470 0.878090
0.776639 0.640750 0.867723
0.857717 0.633244 0.856389
0.881892 0.625593 0.847175
0.892041 0.612809 0.839433
0.894010 0.564884 0.828073
0.233001 0.660618 0.828077
0.244613 0.659426 0.827497
0.304963 0.657776 0.826559
0.445013 0.651613 0.822228
0.654214 0.646271 0.816882
0.785725 0.646454 0.814047
0.851913 0.649274 0.814009
0.872654 0.649871 0.815075
0.880495 0.643544 0.813083
0.238162 0.712745 0.798374
0.246273 0.710473 0.796908
0.285873 0.704062 0.791592
0.373018 0.692435 0.783121
0.531560 0.679620 0.773145
0.697973 0.674801 0.768751
0.802579 0.682183 0.776168
0.854708 0.692292 0.788456
0.868656 0.700657 0.797771
0.247784 0.782021 0.778741
0.253861 0.779738 0.776520
0.282344 0.772490 0.770224
0.343743 0.760437 0.761804
0.456310 0.746232 0.753168
0.611351 0.733248 0.744863
0.749520 0.724547 0.738080
0.831767 0.739270 0.758176
0.860688 0.754402 0.780308
0.248229 0.825136 0.765532
0.252217 0.824035 0.763550
0.274156 0.820227 0.757430
0.317862 0.814304 0.749259
0.398249 0.807412 0.741537
0.530994 0.801184 0.735695
0.683899 0.797344 0.732969
0.807251 0.797224 0.735947
0.857743 0.803497 0.766491
0.230633 0.846882 0.728542
0.235053 0.848024 0.727413
0.239248 0.848044 0.723854
0.273029 0.845432 0.744638
0.333430 0.837921 0.734300
0.421960 0.832088 0.727405
0.552486 0.828172 0.722888
0.715545 0.826965 0.720824
0.859136 0.832924 0.757592
0.266668 0.636018 0.939810
0.276082 0.639072 0.940174
0.466465 0.653945 0.940026
0.815192 0.665337 0.940053
0.907052 0.678024 0.940196
0.930817 0.682757 0.938869
0.927065 0.641886 0.928280
0.921206 0.589355 0.911225
0.913195 0.487746 0.888900
0.271479 0.645191 0.939780
0.281607 0.648218 0.940126
0.471722 0.663347 0.940073
0.807176 0.674618 0.940102
0.905251 0.687207 0.940240
0.925592 0.679842 0.936412
0.923562 0.642262 0.924408
0.918790 0.593678 0.908491
0.911527 0.485722 0.886899
0.304504 0.693358 0.939653
0.318873 0.695636 0.939897
0.496218 0.706811 0.940088
0.777935 0.715583 0.940173
0.887029 0.707556 0.936386
0.908057 0.679431 0.927053
0.911882 0.651224 0.911837
0.910711 0.616225 0.899410
0.906127 0.497338 0.880254
0.324487 0.730785 0.933578
0.337402 0.728680 0.933006
0.453268 0.724096 0.930702
0.672149 0.711057 0.922897
0.821247 0.695866 0.912558
0.875704 0.680539 0.902425
0.892747 0.664444 0.893356
0.898489 0.642767 0.885687
0.897363 0.603409 0.876719
0.288927 0.717179 0.895978
0.300039 0.716097 0.895464
0.371428 0.713942 0.893112
0.531811 0.706481 0.888263
0.719718 0.698241 0.882700
0.821903 0.691628 0.877690
0.865073 0.685664 0.873073
0.879437 0.676400 0.867780
0.883709 0.663168 0.860934
0.273215 0.741126 0.867122
0.281939 0.739937 0.866722
0.329114 0.736960 0.864862
0.428081 0.729009 0.859257
0.597113 0.720272 0.852275
0.752062 0.715560 0.847167
0.826631 0.714973 0.845071
0.861720 0.714743 0.845119
0.871368 0.715297 0.844241
0.265549 0.792603 0.841657
0.272044 0.791101 0.841327
0.305616 0.786772 0.840772
0.372282 0.778218 0.838398
0.498205 0.767012 0.833496
0.657509 0.757309 0.827933
0.776945 0.754168 0.825406
0.842496 0.758211 0.828210
0.862474 0.765903 0.831463
0.252058 0.828511 0.824570
0.256191 0.827493 0.823866
0.280002 0.823874 0.822139
0.326631 0.818697 0.820378
0.411782 0.812907 0.819228
0.546834 0.807663 0.817734
0.698599 0.804064 0.815910
0.810025 0.801789 0.813454
0.858360 0.808355 0.824023
0.230583 0.844278 0.794699
0.243909 0.848732 0.794768
0.244592 0.847632 0.798080
0.270122 0.846741 0.803230
0.326651 0.840721 0.799559
0.414388 0.835282 0.797063
0.543390 0.831802 0.795550
0.701935 0.830877 0.794535
0.859665 0.837588 0.821703
0.439685 0.679817 0.951953
0.507514 0.681244 0.951953
0.778808 0.686899 0.951955
0.902455 0.696658 0.951972
0.929069 0.707499 0.952009
0.940180 0.716145 0.952084
0.934691 0.670820 0.943550
0.925875 0.607114 0.935312
0.915247 0.526668 0.922099
0.446645 0.686820 0.951909
0.511493 0.688276 0.951910
0.775241 0.694025 0.951915
0.901329 0.703669 0.951936
0.928583 0.714313 0.951977
0.937628 0.713353 0.950226
0.931637 0.669732 0.941835
0.923612 0.607208 0.934046
0.913661 0.532465 0.923467
0.483246 0.720848 0.951694
0.532727 0.722148 0.951700
0.762047 0.727215 0.951721
0.894978 0.735885 0.951769
0.924104 0.740142 0.950790
0.925231 0.709673 0.943648
0.921424 0.674174 0.936194
0.916111 0.619404 0.929775
0.908175 0.516357 0.916713
0.518939 0.777782 0.949938
0.545819 0.774744 0.949257
0.708793 0.765107 0.946973
0.857672 0.750463 0.943216
0.894267 0.732642 0.938120
0.904289 0.712841 0.932787
0.905991 0.688879 0.925175
0.904629 0.652150 0.915217
0.900547 0.612585 0.906812
0.423574 0.760106 0.932242
0.445599 0.758211 0.931765
0.573307 0.752325 0.930175
0.766256 0.743633 0.924974
0.850079 0.733498 0.918251
0.874842 0.722323 0.911344
0.885173 0.708691 0.904856
0.889180 0.686475 0.899109
0.888141 0.657163 0.894577
0.358305 0.772550 0.907317
0.371794 0.770854 0.906507
0.455002 0.765623 0.903832
0.644963 0.758170 0.899676
0.778239 0.750388 0.894998
0.839125 0.743410 0.890714
0.863232 0.736037 0.887224
0.872740 0.724138 0.884514
0.875663 0.715243 0.882696
0.318088 0.805135 0.892071
0.325724 0.804210 0.891386
0.370235 0.801208 0.889069
0.499056 0.796566 0.885370
0.676542 0.788189 0.881109
0.786784 0.780726 0.877318
0.838403 0.775466 0.874858
0.859952 0.768924 0.873194
0.866235 0.768104 0.872988
0.284060 0.836061 0.882677
0.288015 0.835286 0.882538
0.309341 0.832242 0.881367
0.369068 0.826930 0.878661
0.499918 0.821012 0.875214
0.678013 0.816043 0.869883
0.796363 0.812890 0.865298
0.848584 0.810732 0.863307
0.860998 0.810386 0.864070
0.230676 0.841556 0.827158
0.254016 0.849325 0.838522
0.252004 0.847534 0.836472
0.255328 0.845191 0.833159
0.319930 0.848214 0.855963
0.418691 0.844826 0.865953
0.549005 0.841343 0.863639
0.716101 0.840481 0.861973
0.860257 0.842272 0.861661
