negative-gold-200/Gold200_Classic_Punchy.cube
TITLE "Kodak Gold 200 Classic Punchy"
# Adobe RGB in/out. REPLACES AgX. Kodak Gold 200 Classic Punchy.
LUT_3D_SIZE 9
DOMAIN_MIN 0.0 0.0 0.0
DOMAIN_MAX 1.0 1.0 1.0
0.072541 0.084015 0.079839
0.118015 0.086152 0.080874
0.329246 0.090677 0.083068
0.608382 0.097129 0.086416
0.742872 0.109403 0.090354
0.795113 0.120983 0.096403
0.824829 0.127853 0.106555
0.848989 0.141337 0.397039
0.853111 0.237229 0.526487
0.075674 0.095283 0.080873
0.086677 0.095467 0.082176
0.196019 0.096966 0.084287
0.510727 0.106039 0.087257
0.714298 0.118092 0.090860
0.789586 0.131925 0.096987
0.823458 0.138645 0.106428
0.848990 0.141352 0.397059
0.853111 0.237233 0.526485
0.082458 0.146348 0.083231
0.087005 0.152006 0.084753
0.119320 0.148036 0.086897
0.271733 0.153624 0.089878
0.575480 0.167903 0.093644
0.756140 0.186704 0.099888
0.814455 0.197846 0.108275
0.849245 0.145996 0.399335
0.853111 0.237234 0.526484
0.091696 0.277512 0.086546
0.095473 0.285309 0.087888
0.115390 0.290734 0.090514
0.187271 0.281239 0.093815
0.386694 0.286274 0.098856
0.659541 0.302253 0.104760
0.790639 0.321627 0.113106
0.836952 0.314312 0.127105
0.852683 0.211791 0.420436
0.103553 0.460281 0.090008
0.106288 0.465045 0.090931
0.121630 0.475956 0.095050
0.171206 0.472664 0.100131
0.293586 0.464137 0.105145
0.526028 0.468131 0.112288
0.738087 0.479359 0.121118
0.826378 0.485195 0.133199
0.852673 0.468231 0.241707
0.118820 0.598731 0.093559
0.120860 0.600571 0.095006
0.134501 0.607497 0.100079
0.173610 0.607980 0.106184
0.261417 0.604208 0.113131
0.427248 0.600384 0.121077
0.655247 0.604408 0.130928
0.803527 0.610489 0.143311
0.851846 0.610477 0.177703
0.136624 0.693854 0.096448
0.138952 0.694494 0.097675
0.151593 0.697642 0.103260
0.184308 0.698391 0.111239
0.252899 0.695763 0.120378
0.378231 0.692651 0.130186
0.568538 0.692619 0.140062
0.764149 0.696944 0.155660
0.851219 0.702808 0.180932
0.159607 0.785645 0.091105
0.160807 0.784742 0.091907
0.172051 0.780353 0.100049
0.197898 0.777553 0.110040
0.253828 0.773764 0.121801
0.352486 0.770246 0.133553
0.510075 0.769216 0.146633
0.702199 0.772365 0.161227
0.851158 0.777909 0.182744
0.164482 0.803561 0.086289
0.164484 0.803563 0.086289
0.194025 0.816735 0.086297
0.195029 0.817857 0.089581
0.251419 0.819942 0.099325
0.332802 0.817172 0.114058
0.453544 0.815990 0.127122
0.618549 0.817009 0.135430
0.854583 0.820362 0.138870
0.074363 0.086841 0.094389
0.106933 0.095586 0.132812
0.363911 0.094596 0.104373
0.653519 0.102026 0.103125
0.754192 0.112750 0.102150
0.796687 0.123623 0.105413
0.824886 0.131572 0.116990
0.848990 0.141352 0.397061
0.853111 0.237234 0.526488
0.078493 0.095518 0.094220
0.103906 0.100178 0.100664
0.271180 0.101870 0.099478
0.585779 0.111460 0.102274
0.734867 0.121763 0.102702
0.792112 0.135639 0.106015
0.823607 0.142370 0.116112
0.848991 0.141375 0.397092
0.853111 0.237234 0.526485
0.085837 0.143126 0.094802
0.093036 0.147097 0.096598
0.143004 0.148930 0.099638
0.360796 0.160091 0.103532
0.637288 0.174273 0.105541
0.765738 0.191483 0.109388
0.815656 0.201317 0.117423
0.849321 0.147463 0.400331
0.853111 0.237234 0.526484
0.095382 0.270681 0.096658
0.099634 0.276649 0.098535
0.123977 0.283345 0.102815
0.217311 0.280972 0.107151
0.444032 0.290786 0.111199
0.686053 0.307030 0.115292
0.795442 0.324676 0.123240
0.837230 0.317225 0.136666
0.853112 0.237248 0.526481
0.106075 0.452728 0.098061
0.109832 0.457212 0.100094
0.126774 0.467731 0.105148
0.184675 0.467384 0.111587
0.322293 0.463271 0.118234
0.554793 0.469400 0.124065
0.752864 0.480634 0.131801
0.827807 0.485989 0.144638
0.852799 0.474722 0.277072
0.120480 0.593863 0.100396
0.122729 0.595771 0.102057
0.138506 0.603858 0.108124
0.180643 0.604959 0.115891
0.274820 0.601837 0.124575
0.449778 0.599628 0.133191
0.670724 0.604549 0.142784
0.807867 0.610653 0.157062
0.851915 0.611272 0.193042
0.138295 0.691840 0.101927
0.140797 0.692470 0.103409
0.154016 0.695491 0.110083
0.188484 0.696398 0.119606
0.260316 0.694288 0.130378
0.390273 0.691830 0.141123
0.582917 0.692304 0.155228
0.770896 0.696912 0.169531
0.851425 0.702988 0.194339
0.160247 0.784176 0.093927
0.161669 0.783367 0.095420
0.173691 0.779312 0.104609
0.200335 0.776629 0.116668
0.258056 0.773064 0.130270
0.358828 0.769819 0.144206
0.519280 0.769063 0.159852
0.710633 0.772348 0.175335
0.851610 0.777956 0.195755
0.169520 0.808917 0.100842
0.169523 0.808918 0.100842
0.198468 0.821680 0.100842
0.198469 0.821679 0.100841
0.253221 0.820000 0.102925
0.335518 0.817223 0.120599
0.457479 0.816079 0.134680
0.623846 0.817121 0.146122
0.855583 0.820435 0.150879
0.078322 0.093308 0.151502
0.118755 0.124121 0.334759
0.334211 0.124689 0.305823
0.650904 0.130260 0.275806
0.757594 0.141608 0.260165
0.799000 0.159209 0.274604
0.825943 0.173252 0.323341
0.849192 0.146306 0.411745
0.853111 0.237240 0.526512
0.083078 0.102925 0.155703
0.103391 0.112018 0.198784
0.274378 0.120761 0.226510
0.603063 0.132467 0.227399
0.746062 0.148199 0.229319
0.795528 0.165624 0.249179
0.824682 0.178109 0.293174
0.849252 0.147585 0.413764
0.853111 0.237235 0.526489
0.091008 0.148873 0.151820
0.100630 0.152902 0.155790
0.191165 0.174041 0.184837
0.445295 0.175184 0.183838
0.686594 0.193724 0.195628
0.778652 0.215856 0.212789
0.818464 0.227026 0.232899
0.848957 0.177797 0.413185
0.853111 0.237234 0.526485
0.102145 0.271107 0.156402
0.108808 0.275650 0.159601
0.145786 0.283452 0.167651
0.281447 0.288432 0.176614
0.551010 0.307122 0.189051
0.736014 0.328445 0.203284
0.805018 0.343626 0.214349
0.838462 0.340187 0.259964
0.853111 0.237237 0.526488
0.115576 0.449611 0.158838
0.119992 0.452903 0.162062
0.145356 0.461091 0.171367
0.222548 0.464641 0.181681
0.399834 0.466920 0.191597
0.643000 0.478343 0.205511
0.777143 0.489223 0.214908
0.831817 0.493087 0.238738
0.853284 0.494489 0.422753
0.129919 0.589182 0.162669
0.133816 0.590718 0.165788
0.154817 0.596671 0.176280
0.207827 0.599521 0.188459
0.325069 0.599504 0.200165
0.526765 0.600999 0.211611
0.719269 0.607277 0.221634
0.818995 0.613284 0.240464
0.852295 0.616201 0.288596
0.147992 0.687884 0.157453
0.151094 0.688467 0.160520
0.167992 0.690932 0.172288
0.207685 0.692134 0.187382
0.292292 0.691410 0.202002
0.439179 0.690763 0.215658
0.638381 0.692634 0.228941
0.792702 0.697968 0.246499
0.852098 0.704392 0.265710
0.167413 0.775968 0.141609
0.169883 0.775776 0.145585
0.184373 0.774752 0.163538
0.214844 0.773305 0.183495
0.279681 0.770847 0.202485
0.389891 0.768681 0.219038
0.554704 0.768937 0.234109
0.745322 0.772662 0.248953
0.852817 0.778513 0.261162
0.169524 0.808919 0.100847
0.198467 0.821680 0.100845
0.198468 0.821680 0.100844
0.198483 0.821682 0.100846
0.263747 0.819908 0.136265
0.348959 0.817331 0.174393
0.476054 0.816369 0.197188
0.648359 0.817518 0.211550
0.856761 0.820779 0.218661
0.084495 0.106490 0.289190
0.111184 0.150069 0.452139
0.297443 0.168073 0.483579
0.620254 0.176080 0.476352
0.753498 0.190689 0.476457
0.798207 0.209272 0.484041
0.826031 0.224864 0.507527
0.846906 0.208447 0.556135
0.853235 0.245465 0.559690
0.088257 0.119195 0.300646
0.107474 0.144619 0.385443
0.261956 0.171120 0.454168
0.582776 0.181021 0.453621
0.742154 0.198700 0.459011
0.795183 0.218348 0.470767
0.824961 0.234315 0.497834
0.846544 0.216345 0.552991
0.853236 0.245556 0.560003
0.098264 0.172173 0.294755
0.108764 0.178427 0.307001
0.193636 0.195837 0.353303
0.461952 0.213125 0.376344
0.694677 0.238038 0.396560
0.781165 0.262983 0.418771
0.819631 0.281645 0.457949
0.843430 0.283355 0.523034
0.853241 0.245889 0.561144
0.110134 0.284245 0.288846
0.117917 0.289022 0.292591
0.164214 0.300294 0.306270
0.341811 0.332100 0.345319
0.593910 0.335823 0.350402
0.752730 0.359680 0.369560
0.808880 0.380161 0.398985
0.839593 0.390451 0.468755
0.853243 0.246006 0.561486
0.124169 0.455240 0.294556
0.130546 0.458065 0.297132
0.164074 0.466320 0.306466
0.260789 0.472750 0.318974
0.464151 0.478596 0.332884
0.683406 0.490735 0.351248
0.788973 0.503074 0.369789
0.834037 0.509825 0.407901
0.853729 0.519305 0.549105
0.141729 0.589607 0.297196
0.146884 0.591015 0.299698
0.173154 0.596349 0.308964
0.237575 0.600138 0.320728
0.374645 0.602655 0.333712
0.582573 0.605997 0.347443
0.753833 0.612905 0.362504
0.825003 0.619021 0.382975
0.853138 0.630084 0.491513
0.159505 0.686681 0.297484
0.163916 0.687211 0.299967
0.184413 0.689368 0.309609
0.232037 0.690928 0.322728
0.329144 0.691324 0.336676
0.495264 0.692164 0.350469
0.683549 0.695293 0.362521
0.807584 0.701063 0.377420
0.852910 0.709891 0.431618
0.177314 0.773119 0.290027
0.180362 0.773099 0.292619
0.196486 0.772846 0.304672
0.232489 0.771904 0.319583
0.304138 0.770332 0.335741
0.425417 0.769186 0.350807
0.595269 0.770247 0.363212
0.770560 0.774402 0.375791
0.853866 0.781156 0.401699
0.186066 0.816990 0.309298
0.202421 0.824273 0.309298
0.202425 0.824275 0.309296
0.221652 0.825446 0.243554
0.282682 0.819420 0.316476
0.370620 0.817521 0.336166
0.505906 0.816961 0.352187
0.676675 0.818238 0.363176
0.857351 0.821704 0.372648
0.091837 0.132374 0.463352
0.108018 0.168012 0.529676
0.251418 0.209835 0.587829
0.586483 0.223419 0.588792
0.743256 0.239995 0.589802
0.795808 0.259751 0.595642
0.825231 0.273032 0.605617
0.845427 0.257147 0.621883
0.853557 0.267431 0.640013
0.095696 0.149460 0.471092
0.110019 0.176490 0.520403
0.234357 0.219292 0.579131
0.558279 0.234275 0.582479
0.732601 0.251578 0.584620
0.793075 0.271202 0.591708
0.824274 0.284439 0.602946
0.845139 0.267798 0.620664
0.853548 0.266774 0.637296
0.105777 0.208565 0.472339
0.117074 0.221527 0.488508
0.200281 0.256848 0.540305
0.463010 0.277073 0.557576
0.692395 0.296321 0.564627
0.781066 0.320962 0.575340
0.819761 0.337777 0.590902
0.843189 0.335030 0.613347
0.853519 0.264709 0.628658
0.119465 0.320779 0.463507
0.127388 0.326859 0.468063
0.182557 0.345851 0.488223
0.354737 0.365499 0.512687
0.611292 0.385114 0.528943
0.757469 0.409810 0.547231
0.810699 0.429697 0.567494
0.840286 0.437228 0.597864
0.854368 0.352131 0.628736
0.134701 0.470707 0.459563
0.142864 0.473957 0.461414
0.181636 0.481756 0.469408
0.290075 0.489618 0.482600
0.518105 0.507540 0.506524
0.703445 0.512514 0.515341
0.794760 0.526863 0.537395
0.835730 0.537582 0.570826
0.853986 0.543240 0.626600
0.153666 0.596715 0.462768
0.159783 0.598134 0.463818
0.190525 0.603501 0.468670
0.265063 0.607096 0.476545
0.416908 0.610474 0.486831
0.624289 0.615016 0.498014
0.767612 0.623020 0.514248
0.828675 0.630663 0.540261
0.853769 0.644530 0.611038
0.172441 0.689066 0.467193
0.177396 0.689626 0.467939
0.199818 0.691736 0.471434
0.255523 0.693705 0.477368
0.363257 0.695090 0.485191
0.538109 0.697135 0.494092
0.713659 0.701264 0.504135
0.816244 0.707129 0.519285
0.853817 0.720184 0.581871
0.187370 0.773828 0.474450
0.190810 0.773824 0.474671
0.208775 0.773634 0.476799
0.249998 0.773097 0.480760
0.327839 0.772174 0.486627
0.459233 0.771872 0.493750
0.633626 0.773650 0.501626
0.787796 0.778320 0.510738
0.854761 0.787077 0.546772
0.194154 0.820383 0.575002
0.196520 0.821440 0.575002
0.202078 0.823934 0.575000
0.236682 0.822372 0.499701
0.296080 0.820014 0.498285
0.388469 0.818514 0.501217
0.527720 0.818170 0.505740
0.698252 0.819588 0.511501
0.857856 0.823860 0.521274
0.101902 0.178337 0.601518
0.114223 0.206683 0.635266
0.226574 0.259865 0.674866
0.550943 0.274065 0.676258
0.733083 0.290947 0.677490
0.793149 0.308903 0.679822
0.824263 0.321753 0.683552
0.844753 0.307157 0.688282
0.853731 0.279777 0.684504
0.104748 0.193249 0.606215
0.116342 0.219942 0.634595
0.219797 0.270986 0.672742
0.530539 0.285902 0.675158
0.724346 0.303707 0.676666
0.790691 0.322024 0.679146
0.823409 0.334681 0.683194
0.844502 0.319573 0.688218
0.853731 0.279777 0.684504
0.117521 0.266367 0.612470
0.126226 0.280395 0.626296
0.207214 0.320297 0.659459
0.453388 0.338461 0.667825
0.689413 0.356733 0.671863
0.780244 0.375721 0.675999
0.819555 0.390308 0.681249
0.843024 0.385803 0.687675
0.853731 0.279780 0.684503
0.130371 0.371458 0.602338
0.140049 0.378980 0.608251
0.200040 0.406243 0.632248
0.372397 0.425808 0.649998
0.623814 0.442198 0.658816
0.760111 0.458560 0.666415
0.811863 0.474417 0.676052
0.840714 0.477391 0.685585
0.854497 0.409778 0.686374
0.148281 0.496467 0.593695
0.156034 0.499172 0.596154
0.200666 0.509747 0.607821
0.317926 0.521009 0.624022
0.535788 0.531731 0.638016
0.716067 0.543183 0.648897
0.798596 0.557150 0.662733
0.837109 0.566324 0.679645
0.854219 0.567670 0.693882
0.166659 0.608747 0.590439
0.173951 0.609934 0.591499
0.206711 0.614196 0.596539
0.289271 0.618925 0.605696
0.450124 0.623973 0.617458
0.656041 0.632937 0.631866
0.776315 0.638697 0.643493
0.831504 0.647261 0.665219
0.854264 0.658405 0.693037
0.184483 0.695486 0.592935
0.189805 0.696050 0.593269
0.214696 0.698283 0.595484
0.276225 0.700768 0.600228
0.392388 0.702993 0.607589
0.568333 0.705931 0.616337
0.734704 0.710779 0.626198
0.821731 0.717511 0.642665
0.854649 0.731629 0.686690
0.196321 0.777963 0.601876
0.200023 0.777971 0.601591
0.220260 0.777825 0.601318
0.265125 0.777480 0.602360
0.348074 0.777057 0.605584
0.487533 0.777445 0.610658
0.660403 0.779853 0.616960
0.798632 0.785008 0.625031
0.855749 0.796034 0.668726
0.197141 0.821607 0.615472
0.199279 0.822560 0.617660
0.204317 0.824768 0.625985
0.243379 0.824081 0.622332
0.305131 0.821797 0.617698
0.400514 0.820502 0.617261
0.540178 0.820369 0.619042
0.711465 0.821839 0.622166
0.858515 0.827566 0.647879
0.117680 0.251548 0.714619
0.125613 0.273197 0.729814
0.202575 0.312218 0.738042
0.531079 0.327139 0.738673
0.727898 0.344661 0.739718
0.792119 0.361943 0.741071
0.824149 0.372126 0.743076
0.844651 0.358253 0.744472
0.853970 0.299412 0.736115
0.119918 0.266337 0.716527
0.127694 0.285218 0.729355
0.203424 0.324245 0.737975
0.515987 0.339627 0.738770
0.720863 0.357417 0.739854
0.790105 0.374960 0.741222
0.823395 0.385528 0.743266
0.844439 0.371359 0.744796
0.853967 0.299210 0.735640
0.131664 0.336494 0.720371
0.140570 0.347788 0.727159
0.208092 0.378296 0.736333
0.454359 0.394526 0.738389
0.692081 0.409800 0.739808
0.781371 0.424861 0.741363
0.820114 0.435035 0.743672
0.843292 0.430293 0.745886
0.853953 0.298232 0.733474
0.148116 0.434118 0.714669
0.156753 0.440818 0.719210
0.214361 0.462242 0.730197
0.390276 0.476551 0.735578
0.639511 0.486765 0.738210
0.764357 0.497409 0.740591
0.813708 0.505646 0.743525
0.841476 0.506339 0.747015
0.854568 0.477796 0.744918
0.165430 0.530649 0.705105
0.174472 0.533859 0.708053
0.220676 0.546276 0.718360
0.344788 0.557971 0.727779
0.560986 0.567560 0.733453
0.729695 0.577414 0.737321
0.802741 0.586506 0.741513
0.838652 0.592561 0.746975
0.854553 0.591541 0.749934
0.182676 0.625576 0.697210
0.189949 0.626948 0.698783
0.226253 0.632372 0.705354
0.316315 0.638897 0.715086
0.486436 0.644855 0.723978
0.675040 0.650896 0.730509
0.784148 0.657405 0.736486
0.834251 0.664004 0.744298
0.854789 0.671487 0.752633
0.196142 0.706041 0.693396
0.201776 0.706678 0.694027
0.230259 0.709111 0.697042
0.295922 0.712218 0.703004
0.419062 0.715616 0.711082
0.594836 0.719535 0.719056
0.750830 0.724746 0.725814
0.826376 0.731404 0.736652
0.855423 0.742508 0.753038
0.203663 0.786167 0.695559
0.207874 0.786146 0.695515
0.230228 0.785871 0.695809
0.277197 0.785671 0.697594
0.364198 0.785699 0.701458
0.509805 0.786698 0.706821
0.676505 0.789763 0.713021
0.805567 0.795390 0.720683
0.856716 0.801686 0.748597
0.199624 0.822510 0.680401
0.203603 0.824296 0.680410
0.209287 0.826606 0.680661
0.244272 0.827766 0.704506
0.308700 0.824897 0.702169
0.405046 0.823667 0.702868
0.543990 0.823637 0.704650
0.713363 0.825153 0.706917
0.859429 0.832678 0.743033
0.138643 0.342556 0.800644
0.142225 0.346324 0.801792
0.223864 0.365009 0.801327
0.560167 0.379696 0.801410
0.740539 0.396414 0.801864
0.796501 0.410498 0.802534
0.826204 0.417399 0.803421
0.845977 0.401675 0.805337
0.854341 0.332568 0.793604
0.140478 0.353944 0.800550
0.144312 0.357748 0.801642
0.226504 0.377107 0.801474
0.548355 0.391901 0.801565
0.735454 0.407090 0.802003
0.795070 0.421294 0.802665
0.825683 0.428412 0.803565
0.845816 0.413135 0.805469
0.854369 0.335394 0.793604
0.152849 0.414319 0.800149
0.158385 0.417011 0.800918
0.238823 0.430918 0.801520
0.503112 0.442342 0.801791
0.712647 0.455378 0.802249
0.788338 0.468105 0.802929
0.823200 0.475380 0.803915
0.844970 0.465919 0.805738
0.854676 0.366361 0.793604
0.171571 0.491419 0.798744
0.179337 0.493387 0.799600
0.246465 0.502344 0.801055
0.438328 0.509726 0.801766
0.674060 0.518349 0.802386
0.775766 0.527509 0.803177
0.818629 0.533785 0.804337
0.843724 0.530900 0.806181
0.855040 0.504337 0.804865
0.190931 0.573499 0.795231
0.198824 0.575616 0.796754
0.253184 0.584123 0.799371
0.387618 0.591183 0.801050
0.608057 0.598488 0.802191
0.754218 0.605802 0.803225
0.810592 0.610573 0.804542
0.841823 0.611511 0.806546
0.855210 0.608686 0.807063
0.205289 0.649827 0.786901
0.213205 0.651269 0.789043
0.257118 0.656822 0.795259
0.352064 0.661569 0.798960
0.533187 0.665718 0.801124
0.706191 0.670502 0.802749
0.796217 0.675242 0.804362
0.838826 0.678308 0.806631
0.855633 0.682615 0.808302
0.212670 0.721837 0.774963
0.219101 0.722690 0.776727
0.253358 0.726184 0.783449
0.322996 0.730065 0.791993
0.454971 0.733296 0.797996
0.633877 0.736576 0.800996
0.767872 0.740671 0.803273
0.832931 0.744940 0.806199
0.856407 0.751934 0.808997
0.210747 0.797949 0.766284
0.215026 0.797874 0.766830
0.239650 0.797442 0.769614
0.289369 0.797364 0.775620
0.381231 0.797732 0.784454
0.529599 0.798680 0.793125
0.693228 0.800404 0.798710
0.811023 0.801941 0.800870
0.857641 0.806901 0.809052
0.202262 0.823241 0.743166
0.214136 0.828184 0.744181
0.216667 0.829134 0.751160
0.244456 0.831564 0.763519
0.305043 0.829684 0.765140
0.400442 0.828401 0.768465
0.537196 0.828432 0.772539
0.701155 0.829877 0.775557
0.860216 0.837659 0.808511
0.211067 0.398486 0.841727
0.244514 0.400141 0.841730
0.504730 0.406729 0.841737
0.727610 0.418223 0.841794
0.787420 0.431809 0.841925
0.816082 0.443080 0.842186
0.835579 0.444397 0.842906
0.850335 0.411429 0.844423
0.854664 0.369958 0.839605
0.214284 0.406636 0.841574
0.246519 0.408341 0.841579
0.498141 0.415106 0.841595
0.724469 0.426864 0.841668
0.786451 0.440678 0.841814
0.815699 0.451851 0.842092
0.835463 0.452979 0.842816
0.850290 0.418674 0.844344
0.854748 0.382074 0.844405
0.232296 0.449199 0.840822
0.259953 0.450803 0.840843
0.474258 0.457078 0.840918
0.709585 0.467914 0.841083
0.781764 0.479337 0.841312
0.813868 0.487425 0.841677
0.834868 0.488291 0.842415
0.850088 0.460092 0.843913
0.854748 0.382099 0.844405
0.256347 0.519627 0.839781
0.277929 0.520581 0.839832
0.435006 0.524308 0.840008
0.679596 0.530935 0.840295
0.771598 0.538859 0.840628
0.809811 0.545739 0.841083
0.833594 0.547158 0.841863
0.849863 0.531761 0.843200
0.856214 0.509037 0.845381
0.265487 0.601724 0.839152
0.281879 0.602449 0.839230
0.389522 0.604914 0.839490
0.626115 0.608629 0.839820
0.754924 0.613302 0.840242
0.803093 0.617528 0.840760
0.831511 0.618909 0.841517
0.849860 0.612055 0.842795
0.856874 0.595795 0.845424
0.264707 0.669863 0.839020
0.276770 0.670192 0.839121
0.348669 0.671605 0.839447
0.542676 0.674260 0.839850
0.714343 0.677793 0.840288
0.790995 0.681378 0.840824
0.827831 0.683036 0.841535
0.849735 0.678972 0.842672
0.857521 0.677628 0.845011
0.257686 0.742284 0.839409
0.265568 0.742397 0.839525
0.309065 0.742928 0.839874
0.433486 0.743864 0.840324
0.632424 0.745617 0.840813
0.764240 0.748160 0.841348
0.819726 0.750001 0.842082
0.849165 0.747874 0.843053
0.858412 0.750460 0.845031
0.242014 0.808141 0.838662
0.246525 0.808153 0.839313
0.269392 0.807787 0.840491
0.331537 0.806809 0.841207
0.465822 0.806134 0.841857
0.662475 0.806394 0.842449
0.790039 0.807519 0.843094
0.845191 0.807726 0.843942
0.859547 0.808067 0.845415
0.204836 0.823445 0.792006
0.226226 0.831569 0.805011
0.226227 0.831569 0.805011
0.232593 0.832138 0.805040
0.300673 0.838687 0.830365
0.406996 0.838987 0.843383
0.544131 0.838658 0.844692
0.716054 0.839915 0.845476
0.860904 0.842464 0.846014
