negative-gold-200/Gold200_Classic_ExtraPunchy.cube
TITLE "Kodak Gold 200 Classic ExtraPunchy"
# Adobe RGB in/out. REPLACES AgX. Kodak Gold 200 Classic ExtraPunchy.
LUT_3D_SIZE 33
DOMAIN_MIN 0.0 0.0 0.0
DOMAIN_MAX 1.0 1.0 1.0
0.069662 0.073299 0.081842
0.067655 0.072850 0.081842
0.069207 0.072256 0.081216
0.071918 0.073141 0.079579
0.075869 0.074840 0.078496
0.082189 0.077058 0.078079
0.093151 0.079483 0.078278
0.111533 0.082498 0.078516
0.135423 0.085862 0.078768
0.165913 0.089836 0.078999
0.204465 0.094164 0.079345
0.252083 0.099690 0.079661
0.298221 0.106141 0.079991
0.343305 0.113188 0.080372
0.386832 0.122836 0.080759
0.430369 0.133786 0.081178
0.474054 0.146621 0.081573
0.509120 0.159798 0.082271
0.544554 0.173303 0.083107
0.574852 0.188505 0.083906
0.600030 0.208193 0.084927
0.625003 0.228824 0.085994
0.649781 0.250398 0.087024
0.669239 0.272909 0.088090
0.687594 0.294866 0.089689
0.704559 0.316176 0.091388
0.721195 0.338099 0.093050
0.737574 0.360628 0.095121
0.753709 0.383757 0.097291
0.769612 0.406490 0.099432
0.781222 0.426254 0.102477
0.792102 0.446284 0.105850
0.802780 0.465219 0.109222
0.068321 0.072218 0.081842
0.067734 0.072277 0.081842
0.069253 0.072669 0.080860
0.071971 0.073673 0.079443
0.075922 0.075487 0.078451
0.082262 0.077650 0.078092
0.093238 0.080083 0.078287
0.111643 0.083100 0.078526
0.135547 0.086331 0.078776
0.166057 0.090378 0.079009
0.204605 0.094752 0.079354
0.252240 0.100275 0.079669
0.298344 0.106787 0.079999
0.343413 0.113850 0.080378
0.386935 0.123581 0.080766
0.430463 0.134670 0.081185
0.474123 0.147462 0.081578
0.509185 0.160600 0.082282
0.544615 0.174087 0.083118
0.574892 0.189517 0.083916
0.600068 0.209191 0.084939
0.625039 0.229810 0.086005
0.649815 0.251371 0.087034
0.669262 0.273872 0.088104
0.687616 0.295702 0.089704
0.704579 0.316995 0.091402
0.721213 0.338902 0.093063
0.737591 0.361417 0.095137
0.753725 0.384531 0.097307
0.769627 0.407113 0.099447
0.781233 0.426860 0.102499
0.792111 0.446874 0.105872
0.802789 0.465754 0.109243
0.067565 0.074285 0.081478
0.067960 0.074484 0.081027
0.069409 0.075127 0.080037
0.072158 0.076199 0.078852
0.076111 0.077770 0.078306
0.082522 0.079644 0.078134
0.093548 0.082146 0.078323
0.112039 0.085058 0.078562
0.135992 0.088336 0.078803
0.166573 0.092218 0.079046
0.205110 0.096801 0.079383
0.252802 0.102313 0.079696
0.298786 0.109053 0.080028
0.343799 0.116704 0.080403
0.387305 0.126223 0.080792
0.430801 0.137820 0.081207
0.474370 0.150461 0.081598
0.509417 0.163463 0.082323
0.544834 0.177011 0.083154
0.575038 0.193146 0.083948
0.600204 0.212772 0.084982
0.625166 0.233346 0.086044
0.649934 0.254865 0.087069
0.669347 0.277326 0.088155
0.687695 0.298699 0.089759
0.704648 0.319933 0.091453
0.721279 0.341784 0.093110
0.737652 0.364246 0.095198
0.753783 0.387312 0.097364
0.769682 0.409345 0.099501
0.781269 0.429033 0.102581
0.792146 0.448860 0.105951
0.802822 0.467672 0.109319
0.067863 0.078437 0.079804
0.068249 0.078592 0.079634
0.069666 0.079128 0.078988
0.072484 0.080104 0.078498
0.076448 0.081580 0.078080
0.082995 0.083483 0.078204
0.094115 0.085732 0.078390
0.112763 0.088560 0.078625
0.136811 0.091908 0.078851
0.167523 0.095860 0.079112
0.206038 0.100784 0.079436
0.253838 0.106662 0.079746
0.299599 0.113021 0.080079
0.344510 0.121786 0.080446
0.387986 0.131539 0.080840
0.431423 0.143514 0.081248
0.474824 0.155895 0.081634
0.509844 0.168662 0.082398
0.545236 0.182334 0.083221
0.575306 0.199799 0.084008
0.600454 0.219340 0.085061
0.625400 0.239834 0.086115
0.650153 0.261277 0.087135
0.669503 0.283665 0.088248
0.687841 0.304190 0.089859
0.704776 0.325318 0.091546
0.721399 0.347070 0.093197
0.737766 0.369437 0.095308
0.753889 0.392412 0.097468
0.769782 0.413433 0.099600
0.781336 0.433014 0.102732
0.792209 0.452474 0.106095
0.802882 0.471185 0.109458
0.068303 0.084142 0.078635
0.068747 0.084278 0.078578
0.070194 0.084757 0.078395
0.072939 0.085596 0.078122
0.076934 0.086761 0.078149
0.083687 0.088762 0.078293
0.094953 0.091103 0.078489
0.113966 0.093781 0.078712
0.138032 0.097425 0.078919
0.168942 0.101704 0.079205
0.207467 0.107025 0.079512
0.255387 0.112724 0.079817
0.300814 0.120573 0.080154
0.345572 0.129102 0.080510
0.389003 0.140221 0.080909
0.432352 0.151808 0.081309
0.475502 0.163835 0.081687
0.510482 0.176441 0.082509
0.545838 0.191240 0.083320
0.575706 0.209696 0.084097
0.600828 0.229116 0.085177
0.625749 0.249495 0.086221
0.650482 0.270829 0.087232
0.669736 0.292016 0.088386
0.688059 0.312351 0.090007
0.704968 0.333326 0.091684
0.721578 0.354933 0.093327
0.737935 0.377163 0.095473
0.754049 0.400007 0.097624
0.769933 0.419506 0.099747
0.781437 0.438930 0.102957
0.792304 0.457843 0.106312
0.802972 0.476409 0.109666
0.069029 0.091290 0.078103
0.069412 0.091419 0.078067
0.070906 0.091877 0.078086
0.073498 0.092695 0.078172
0.077558 0.094048 0.078278
0.084597 0.095999 0.078427
0.096069 0.098585 0.078622
0.115586 0.101646 0.078817
0.139675 0.105638 0.079019
0.170857 0.110202 0.079322
0.209558 0.115639 0.079608
0.257481 0.122809 0.079909
0.302454 0.130786 0.080252
0.347005 0.140877 0.080593
0.390375 0.151505 0.081000
0.433606 0.162637 0.081388
0.476418 0.174268 0.081826
0.511343 0.187356 0.082655
0.546651 0.204675 0.083451
0.576247 0.222971 0.084266
0.601332 0.242237 0.085332
0.626221 0.262470 0.086363
0.650924 0.283664 0.087361
0.670051 0.303157 0.088571
0.688353 0.323283 0.090207
0.705226 0.344061 0.091870
0.721821 0.365480 0.093529
0.738163 0.387531 0.095695
0.754264 0.408717 0.097833
0.770137 0.427634 0.099945
0.781573 0.446854 0.103260
0.792433 0.465030 0.106603
0.803093 0.483405 0.109947
0.069743 0.100937 0.078215
0.070227 0.101081 0.078226
0.071735 0.101595 0.078263
0.074134 0.102525 0.078335
0.078598 0.104214 0.078443
0.085715 0.106435 0.078600
0.097615 0.109150 0.078766
0.117630 0.112314 0.078934
0.141756 0.116813 0.079185
0.173290 0.122362 0.079460
0.212217 0.128420 0.079733
0.260144 0.136630 0.080029
0.304537 0.145571 0.080370
0.348825 0.155115 0.080720
0.392060 0.165223 0.081112
0.435199 0.175998 0.081486
0.477581 0.188333 0.082030
0.512436 0.204468 0.082838
0.547683 0.221593 0.083615
0.576933 0.239701 0.084480
0.601972 0.258789 0.085526
0.626820 0.278849 0.086541
0.651487 0.297955 0.087524
0.670450 0.317159 0.088804
0.688713 0.337037 0.090458
0.705554 0.357577 0.092105
0.722129 0.378770 0.093825
0.738453 0.400604 0.095975
0.754538 0.419191 0.098098
0.770396 0.437846 0.100317
0.781746 0.456147 0.103644
0.792596 0.474062 0.106972
0.803247 0.492204 0.110302
0.070889 0.113867 0.078414
0.071272 0.114070 0.078425
0.072773 0.114796 0.078466
0.075335 0.116121 0.078545
0.079832 0.118076 0.078652
0.087024 0.120669 0.078778
0.100102 0.123892 0.078915
0.120103 0.127723 0.079116
0.144442 0.133045 0.079366
0.176257 0.139390 0.079612
0.215467 0.146451 0.079881
0.263397 0.154195 0.080187
0.307077 0.162586 0.080506
0.351043 0.171591 0.080870
0.394091 0.181674 0.081244
0.437141 0.194283 0.081602
0.478998 0.209198 0.082272
0.513769 0.225115 0.083054
0.548941 0.242027 0.083810
0.577770 0.259930 0.084735
0.602752 0.278817 0.085759
0.627551 0.296908 0.086754
0.652173 0.315120 0.087720
0.670938 0.334029 0.089105
0.689140 0.353625 0.090762
0.705954 0.373894 0.092389
0.722505 0.394827 0.094184
0.738807 0.413777 0.096314
0.754872 0.431788 0.098419
0.770711 0.449931 0.100803
0.781957 0.467310 0.104110
0.792795 0.484939 0.107421
0.803435 0.502811 0.110734
0.072124 0.133200 0.078658
0.072533 0.133424 0.078668
0.073791 0.134228 0.078703
0.076630 0.135700 0.078764
0.081250 0.137885 0.078848
0.089200 0.140809 0.078950
0.103000 0.144480 0.079126
0.123006 0.148896 0.079338
0.147685 0.154047 0.079556
0.179772 0.159916 0.079793
0.219325 0.166481 0.080056
0.267260 0.173716 0.080361
0.310086 0.182119 0.080673
0.353670 0.192586 0.081039
0.396497 0.205249 0.081392
0.439442 0.218924 0.081771
0.480675 0.233609 0.082549
0.515348 0.249298 0.083304
0.550432 0.265987 0.084035
0.578760 0.283671 0.085032
0.603677 0.300117 0.086030
0.628417 0.317275 0.087002
0.652987 0.335155 0.087980
0.671515 0.353745 0.089486
0.689646 0.373032 0.091117
0.706428 0.393004 0.092721
0.722951 0.411527 0.094606
0.739227 0.428816 0.096713
0.755268 0.446475 0.098797
0.771086 0.463284 0.101375
0.782207 0.480329 0.104661
0.793031 0.497639 0.107951
0.803658 0.515206 0.111245
0.073422 0.157440 0.078881
0.073747 0.157644 0.078888
0.075249 0.158378 0.078916
0.078099 0.159723 0.078964
0.083239 0.161723 0.079069
0.091795 0.164405 0.079213
0.106299 0.167781 0.079379
0.126335 0.171856 0.079561
0.151430 0.176812 0.079765
0.183847 0.182639 0.079988
0.223808 0.189988 0.080269
0.271369 0.199383 0.080547
0.313574 0.209791 0.080881
0.356714 0.221212 0.081222
0.399284 0.233646 0.081555
0.442110 0.247092 0.082114
0.482618 0.261546 0.082858
0.517177 0.277005 0.083583
0.552160 0.292326 0.084371
0.579907 0.307621 0.085366
0.604748 0.323676 0.086336
0.629420 0.340478 0.087284
0.653747 0.358012 0.088383
0.672185 0.376266 0.089920
0.690233 0.395225 0.091524
0.706978 0.412529 0.093102
0.723467 0.429025 0.095091
0.739713 0.445920 0.097171
0.755727 0.462085 0.099231
0.771485 0.478476 0.102036
0.782497 0.495159 0.105296
0.793305 0.512122 0.108562
0.803917 0.529356 0.111834
0.074942 0.183448 0.079154
0.075412 0.183650 0.079164
0.076948 0.184373 0.079202
0.080060 0.185700 0.079269
0.085452 0.188040 0.079365
0.094630 0.191454 0.079485
0.109984 0.195785 0.079625
0.130085 0.201058 0.079799
0.155682 0.207294 0.079989
0.188492 0.214507 0.080237
0.228932 0.222710 0.080489
0.275480 0.231910 0.080781
0.317548 0.242112 0.081102
0.360180 0.253319 0.081419
0.402458 0.265534 0.081766
0.445149 0.278755 0.082488
0.484829 0.291900 0.083196
0.519260 0.305252 0.083889
0.554128 0.319397 0.084776
0.581214 0.334320 0.085736
0.605969 0.350009 0.086677
0.630564 0.366449 0.087597
0.654564 0.383629 0.088834
0.672948 0.401535 0.090408
0.690902 0.416822 0.091980
0.707605 0.432463 0.093568
0.724057 0.448435 0.095637
0.740268 0.463774 0.097688
0.756251 0.479447 0.099721
0.771836 0.495440 0.102784
0.782828 0.511740 0.106016
0.793617 0.528335 0.109256
0.804213 0.542961 0.112504
0.076890 0.219657 0.079468
0.077283 0.219907 0.079476
0.079013 0.220807 0.079507
0.082354 0.222461 0.079563
0.088024 0.224932 0.079642
0.097942 0.228265 0.079755
0.114187 0.232495 0.079892
0.134264 0.237648 0.080060
0.160440 0.243746 0.080268
0.193713 0.250806 0.080487
0.234709 0.258840 0.080744
0.280097 0.267858 0.081037
0.322014 0.277867 0.081332
0.364073 0.288284 0.081626
0.406024 0.298832 0.082206
0.448565 0.310203 0.082887
0.487312 0.322387 0.083559
0.521600 0.335374 0.084273
0.556340 0.349152 0.085214
0.582681 0.363710 0.086140
0.607340 0.379034 0.087049
0.631849 0.395114 0.087969
0.655482 0.410130 0.089388
0.673806 0.424395 0.090946
0.691654 0.439133 0.092484
0.708311 0.453831 0.094208
0.724720 0.468370 0.096243
0.740893 0.483271 0.098262
0.756841 0.498520 0.100430
0.772231 0.514102 0.103620
0.783200 0.530004 0.106821
0.793968 0.543673 0.110032
0.804545 0.555364 0.113252
0.079196 0.259974 0.079770
0.079683 0.260219 0.079778
0.081408 0.261098 0.079807
0.085192 0.262715 0.079860
0.091789 0.265131 0.079936
0.102819 0.268391 0.080046
0.119135 0.272530 0.080192
0.139352 0.277575 0.080359
0.165730 0.283548 0.080542
0.199519 0.289688 0.080773
0.241154 0.296611 0.081032
0.285226 0.304362 0.081298
0.326978 0.312941 0.081568
0.368397 0.322344 0.082024
0.409986 0.332566 0.082667
0.452362 0.343601 0.083307
0.490068 0.355442 0.083943
0.524199 0.368079 0.084784
0.558798 0.381503 0.085684
0.584311 0.395704 0.086573
0.608863 0.409098 0.087450
0.633278 0.421887 0.088546
0.656503 0.435191 0.090013
0.674760 0.448863 0.091532
0.692490 0.462156 0.093035
0.709095 0.475853 0.094909
0.725457 0.489939 0.096907
0.741588 0.504399 0.098893
0.757497 0.519217 0.101388
0.772671 0.534381 0.104542
0.783615 0.546276 0.107709
0.794360 0.557457 0.110889
0.804915 0.568766 0.114080
0.081893 0.301188 0.080095
0.082498 0.301398 0.080103
0.084571 0.302152 0.080134
0.088458 0.303538 0.080190
0.095695 0.305607 0.080271
0.108030 0.308397 0.080376
0.124484 0.311935 0.080503
0.145113 0.316241 0.080661
0.172253 0.321333 0.080866
0.205913 0.327219 0.081086
0.248277 0.333908 0.081319
0.290869 0.341405 0.081561
0.332444 0.349710 0.081950
0.373155 0.358823 0.082544
0.414345 0.368742 0.083144
0.456543 0.379461 0.083746
0.493099 0.390976 0.084456
0.527058 0.403055 0.085321
0.561504 0.413739 0.086182
0.586103 0.424987 0.087034
0.610540 0.436784 0.087877
0.634850 0.448976 0.089196
0.657626 0.460934 0.090685
0.675810 0.473335 0.092163
0.693411 0.486164 0.093702
0.709959 0.499405 0.095669
0.726270 0.513043 0.097629
0.742354 0.527064 0.099579
0.758221 0.540282 0.102434
0.773156 0.550754 0.105550
0.784072 0.561387 0.108681
0.794791 0.572171 0.111827
0.805323 0.583095 0.115001
0.085351 0.341862 0.080447
0.085888 0.342064 0.080455
0.087991 0.342791 0.080481
0.092960 0.344128 0.080529
0.101003 0.346124 0.080599
0.113643 0.348817 0.080713
0.130219 0.352233 0.080853
0.151648 0.356393 0.081016
0.179375 0.361314 0.081197
0.213585 0.367008 0.081395
0.256090 0.373484 0.081605
0.297028 0.380746 0.081987
0.338388 0.388800 0.082524
0.378347 0.397644 0.083074
0.419103 0.406328 0.083634
0.461108 0.414828 0.084241
0.496404 0.423926 0.085062
0.530179 0.433608 0.085883
0.563639 0.443864 0.086703
0.588059 0.454157 0.087519
0.612369 0.464722 0.088570
0.636567 0.475764 0.089958
0.658852 0.487266 0.091401
0.676957 0.499214 0.092838
0.694417 0.511593 0.094562
0.710903 0.524389 0.096486
0.727158 0.537524 0.098405
0.743191 0.547196 0.100510
0.759012 0.557066 0.103566
0.773686 0.567120 0.106641
0.784572 0.577348 0.109735
0.795263 0.587737 0.112845
0.805770 0.598278 0.116195
0.089506 0.384650 0.080824
0.090266 0.384846 0.080832
0.092917 0.385549 0.080861
0.097698 0.386841 0.080914
0.107282 0.388772 0.080990
0.120170 0.391377 0.081091
0.136574 0.394682 0.081214
0.158689 0.398710 0.081358
0.187100 0.403217 0.081519
0.222090 0.407729 0.081697
0.264604 0.412851 0.082133
0.303703 0.418583 0.082607
0.344246 0.424923 0.083101
0.383974 0.431867 0.083611
0.424260 0.439410 0.084146
0.466060 0.447513 0.084912
0.499983 0.455632 0.085686
0.533560 0.464273 0.086465
0.565908 0.473424 0.087245
0.590177 0.483075 0.088099
0.614353 0.493210 0.089361
0.638430 0.503819 0.090760
0.660182 0.514886 0.092158
0.678201 0.526400 0.093597
0.695509 0.538065 0.095476
0.711928 0.546867 0.097355
0.728122 0.555899 0.099232
0.744101 0.565148 0.101771
0.759871 0.574602 0.104782
0.774262 0.584250 0.107815
0.785115 0.594080 0.110869
0.795776 0.604082 0.113941
0.806255 0.614245 0.117485
0.094698 0.424411 0.081217
0.095396 0.424565 0.081224
0.098184 0.425116 0.081249
0.104637 0.426129 0.081295
0.113930 0.427642 0.081362
0.127042 0.429682 0.081451
0.143906 0.432268 0.081560
0.166319 0.435416 0.081688
0.195429 0.439136 0.082005
0.231305 0.443436 0.082382
0.273038 0.448236 0.082790
0.310896 0.453331 0.083224
0.350552 0.458968 0.083679
0.390035 0.465143 0.084174
0.429817 0.471851 0.084877
0.471062 0.479085 0.085596
0.503835 0.486838 0.086326
0.537202 0.495101 0.087063
0.568349 0.503864 0.087805
0.592457 0.513117 0.088913
0.616489 0.522849 0.090251
0.640437 0.533049 0.091601
0.661615 0.541886 0.092952
0.679542 0.549767 0.094613
0.696686 0.557907 0.096443
0.713034 0.566293 0.098276
0.729163 0.574914 0.100180
0.745083 0.583758 0.103117
0.760799 0.592813 0.106081
0.774884 0.602068 0.109070
0.785701 0.611512 0.112082
0.796331 0.621136 0.115156
0.806780 0.630928 0.118869
0.101202 0.460984 0.081587
0.102176 0.461120 0.081593
0.105626 0.461609 0.081616
0.111778 0.462506 0.081656
0.121524 0.463847 0.081730
0.134257 0.465654 0.081915
0.152224 0.467945 0.082144
0.175407 0.470734 0.082414
0.204363 0.474031 0.082722
0.241240 0.477841 0.083064
0.280983 0.482170 0.083437
0.318604 0.487019 0.083835
0.357302 0.492388 0.084324
0.396275 0.498276 0.084958
0.435772 0.504678 0.085615
0.475431 0.511590 0.086289
0.507958 0.519007 0.086977
0.541104 0.526920 0.087675
0.570962 0.535322 0.088650
0.594900 0.542242 0.089882
0.618779 0.548885 0.091174
0.642589 0.555820 0.092475
0.663151 0.563037 0.093905
0.680981 0.570525 0.095677
0.697949 0.578272 0.097457
0.714221 0.586266 0.099244
0.730281 0.594497 0.101657
0.746137 0.602954 0.104543
0.761796 0.611626 0.107459
0.775552 0.620503 0.110402
0.786331 0.629574 0.113371
0.796926 0.638376 0.116672
0.807344 0.645722 0.120346
0.109019 0.496686 0.082255
0.109945 0.496815 0.082268
0.113280 0.497279 0.082315
0.119876 0.498132 0.082400
0.129412 0.499406 0.082525
0.142658 0.501124 0.082691
0.161025 0.503304 0.082897
0.185103 0.505958 0.083141
0.214706 0.509096 0.083420
0.251904 0.512726 0.083732
0.289450 0.516852 0.084073
0.326827 0.521477 0.084589
0.364495 0.526603 0.085152
0.402888 0.532228 0.085742
0.442124 0.538068 0.086356
0.480082 0.542785 0.086989
0.512351 0.547832 0.087637
0.545264 0.553202 0.088522
0.573744 0.558887 0.089660
0.597502 0.564879 0.090887
0.621221 0.571167 0.092127
0.644886 0.577742 0.093379
0.664789 0.584595 0.095068
0.682516 0.591716 0.096787
0.699298 0.599093 0.098517
0.715488 0.606718 0.100414
0.731475 0.614580 0.103213
0.747264 0.622670 0.106047
0.762862 0.630977 0.108914
0.776266 0.638891 0.111811
0.787005 0.645676 0.114735
0.797563 0.652588 0.118281
0.807947 0.659619 0.121914
0.117474 0.532998 0.083046
0.118465 0.533121 0.083057
0.121994 0.533563 0.083099
0.128355 0.534376 0.083176
0.137976 0.535590 0.083289
0.152209 0.537228 0.083438
0.170920 0.538751 0.083624
0.195406 0.540557 0.083845
0.226098 0.542690 0.084099
0.263305 0.545154 0.084511
0.298436 0.547952 0.084963
0.335564 0.551083 0.085453
0.372126 0.554546 0.085974
0.409905 0.558340 0.086524
0.448871 0.562461 0.087098
0.485010 0.566905 0.087692
0.517011 0.571665 0.088531
0.549680 0.576737 0.089590
0.576694 0.582113 0.090742
0.600264 0.587785 0.091916
0.623814 0.593747 0.093107
0.647326 0.599989 0.094623
0.666530 0.606504 0.096272
0.684148 0.613281 0.097938
0.700732 0.620314 0.099619
0.716837 0.627591 0.102101
0.732746 0.635105 0.104845
0.748464 0.641506 0.107626
0.763997 0.647698 0.110443
0.777026 0.654036 0.113292
0.787723 0.660511 0.116439
0.798241 0.667117 0.119981
0.808589 0.673847 0.123572
0.126583 0.560413 0.083803
0.127538 0.560495 0.083814
0.130939 0.560792 0.083851
0.137420 0.561337 0.083920
0.147854 0.562152 0.084022
0.162220 0.563250 0.084183
0.181985 0.564642 0.084428
0.206317 0.566337 0.084719
0.238235 0.568340 0.085055
0.274340 0.570655 0.085434
0.307938 0.573285 0.085851
0.344176 0.576230 0.086304
0.380192 0.579492 0.086789
0.417324 0.583067 0.087302
0.456009 0.586954 0.087839
0.490211 0.591150 0.088677
0.521934 0.595650 0.089672
0.554351 0.600448 0.090744
0.579808 0.605541 0.091844
0.603183 0.610920 0.092966
0.626556 0.616581 0.094349
0.649909 0.622515 0.095919
0.668372 0.628715 0.097513
0.685876 0.635173 0.099128
0.702250 0.640755 0.101216
0.718265 0.646165 0.103861
0.734092 0.651744 0.106549
0.749736 0.657485 0.109278
0.765201 0.663381 0.112044
0.777832 0.669423 0.114845
0.788484 0.675606 0.118272
0.798961 0.681921 0.121770
0.809271 0.688363 0.125318
0.136106 0.586497 0.084722
0.137132 0.586574 0.084736
0.140797 0.586853 0.084785
0.147891 0.587366 0.084876
0.158553 0.588132 0.085010
0.173618 0.589164 0.085189
0.193655 0.590474 0.085413
0.219110 0.592070 0.085680
0.251126 0.593956 0.085989
0.284625 0.596137 0.086338
0.317952 0.598616 0.086724
0.352982 0.601395 0.087144
0.388689 0.604473 0.087595
0.425140 0.607851 0.088175
0.463537 0.611525 0.088957
0.495683 0.615495 0.089905
0.527119 0.619757 0.090892
0.559273 0.624306 0.091912
0.583086 0.629138 0.092961
0.606258 0.634248 0.094250
0.629447 0.639000 0.095734
0.652633 0.643400 0.097249
0.670314 0.647993 0.098789
0.687699 0.652774 0.100567
0.703853 0.657735 0.103104
0.719774 0.662870 0.105690
0.735515 0.668172 0.108323
0.751081 0.673635 0.110999
0.766473 0.679251 0.113714
0.778685 0.685015 0.116797
0.789289 0.690920 0.120193
0.799723 0.696960 0.123645
0.809993 0.703127 0.127149
0.147132 0.612497 0.085736
0.148220 0.612570 0.085749
0.152113 0.612833 0.085794
0.159213 0.613316 0.085877
0.170226 0.614039 0.086000
0.186032 0.615013 0.086164
0.205927 0.616249 0.086369
0.232753 0.617754 0.086615
0.264780 0.619535 0.086900
0.295420 0.621595 0.087222
0.328474 0.623938 0.087580
0.362220 0.626565 0.088015
0.397307 0.629478 0.088668
0.433348 0.632675 0.089429
0.471101 0.636157 0.090284
0.501419 0.639226 0.091182
0.532560 0.642377 0.092119
0.563629 0.645738 0.093090
0.586524 0.649307 0.094326
0.609486 0.653077 0.095718
0.632484 0.657046 0.097147
0.654939 0.661208 0.098607
0.672355 0.665557 0.100158
0.689545 0.670088 0.102579
0.705540 0.674796 0.105057
0.721362 0.679675 0.107586
0.737014 0.684718 0.110164
0.752497 0.689921 0.112786
0.767815 0.695276 0.115563
0.779583 0.700778 0.118852
0.790137 0.706420 0.122200
0.800526 0.712198 0.125605
0.810754 0.718105 0.129065
0.159096 0.638053 0.086717
0.160163 0.638107 0.086728
0.163983 0.638301 0.086770
0.171658 0.638657 0.086846
0.183360 0.639190 0.086959
0.199044 0.639908 0.087110
0.220198 0.640819 0.087299
0.247166 0.641929 0.087526
0.277338 0.643241 0.087789
0.306720 0.644758 0.088197
0.339372 0.646484 0.088713
0.371882 0.648418 0.089330
0.406225 0.650562 0.090040
0.441945 0.652914 0.090802
0.477427 0.655475 0.091611
0.507416 0.658241 0.092462
0.538254 0.661212 0.093351
0.567463 0.664384 0.094576
0.590120 0.667754 0.095872
0.612864 0.671319 0.097209
0.635666 0.675075 0.098584
0.657220 0.679017 0.099992
0.674494 0.683141 0.102292
0.691426 0.687442 0.104653
0.707309 0.691915 0.107072
0.723029 0.696555 0.109545
0.738587 0.701357 0.112067
0.753985 0.706315 0.114636
0.769224 0.711425 0.117751
0.780527 0.716680 0.120989
0.791029 0.722075 0.124289
0.801370 0.727605 0.127648
0.811554 0.733265 0.131062
0.172234 0.658126 0.087666
0.173421 0.658177 0.087677
0.177678 0.658359 0.087715
0.185481 0.658694 0.087785
0.197087 0.659194 0.087889
0.213308 0.659869 0.088104
0.235377 0.660725 0.088376
0.262355 0.661769 0.088702
0.289414 0.663003 0.089101
0.318519 0.664430 0.089603
0.349789 0.666055 0.090163
0.381963 0.667876 0.090780
0.415531 0.669896 0.091450
0.450925 0.672114 0.092169
0.484014 0.674530 0.092934
0.513667 0.677141 0.093852
0.544196 0.679948 0.094997
0.571458 0.682947 0.096192
0.593869 0.686136 0.097434
0.616391 0.689512 0.098719
0.638990 0.693071 0.100072
0.659602 0.696811 0.102243
0.676730 0.700726 0.104482
0.693394 0.704814 0.106785
0.709160 0.709069 0.109146
0.724774 0.713487 0.111562
0.740235 0.718063 0.114031
0.755544 0.722794 0.116896
0.770702 0.727673 0.120019
0.781516 0.732696 0.123208
0.791964 0.737858 0.126459
0.802256 0.742591 0.129770
0.812394 0.746738 0.133139
0.186757 0.677973 0.088973
0.187933 0.678021 0.088991
0.192153 0.678192 0.089055
0.199891 0.678508 0.089172
0.211912 0.678979 0.089346
0.229262 0.679615 0.089579
0.251340 0.680422 0.089872
0.276639 0.681405 0.090225
0.301982 0.682568 0.090638
0.330812 0.683915 0.091109
0.360619 0.685447 0.091635
0.392384 0.687166 0.092216
0.425218 0.689074 0.092848
0.460284 0.691169 0.093564
0.490856 0.693453 0.094543
0.520169 0.695923 0.095582
0.550383 0.698579 0.096675
0.575609 0.701420 0.097820
0.597770 0.704443 0.099011
0.620064 0.707645 0.100396
0.642455 0.711023 0.102435
0.662084 0.714576 0.104546
0.679061 0.718299 0.106726
0.695446 0.722188 0.108971
0.711092 0.726240 0.111275
0.726596 0.730452 0.113637
0.741957 0.734818 0.116293
0.757174 0.739335 0.119294
0.772000 0.743247 0.122366
0.782550 0.746899 0.125504
0.792943 0.750471 0.128707
0.803182 0.754132 0.131971
0.813273 0.757879 0.135447
0.201861 0.697605 0.090591
0.203028 0.697650 0.090608
0.207229 0.697812 0.090668
0.215810 0.698110 0.090777
0.228650 0.698555 0.090940
0.246008 0.699155 0.091158
0.268094 0.699917 0.091432
0.289959 0.700845 0.091763
0.315036 0.701945 0.092151
0.343077 0.703217 0.092593
0.371856 0.704666 0.093089
0.402793 0.706292 0.093711
0.435280 0.708097 0.094518
0.470003 0.710081 0.095390
0.497946 0.712244 0.096323
0.526915 0.714585 0.097315
0.556810 0.717103 0.098360
0.579912 0.719798 0.099456
0.601818 0.722668 0.100961
0.623879 0.725710 0.102864
0.646057 0.728922 0.104844
0.664663 0.732301 0.106897
0.681485 0.735846 0.109020
0.697581 0.739551 0.111208
