negative-gold-200/Gold200_Modern_ExtraPunchy.cube
TITLE "Kodak Gold 200 Modern ExtraPunchy"
# Adobe RGB in/out. REPLACES AgX. Kodak Gold 200 Modern ExtraPunchy.
LUT_3D_SIZE 33
DOMAIN_MIN 0.0 0.0 0.0
DOMAIN_MAX 1.0 1.0 1.0
0.069662 0.073299 0.081842
0.068424 0.072451 0.080284
0.069306 0.072263 0.079725
0.076571 0.072750 0.078438
0.144968 0.075077 0.078160
0.217152 0.076796 0.078362
0.385810 0.080343 0.078800
0.546384 0.085136 0.079349
0.603068 0.087432 0.079636
0.667659 0.091580 0.080093
0.730689 0.099076 0.080905
0.769219 0.104582 0.081429
0.791725 0.109498 0.081981
0.813971 0.116679 0.083132
0.835712 0.128344 0.084798
0.846965 0.136297 0.085984
0.854532 0.143595 0.087075
0.861091 0.152607 0.088661
0.866649 0.163849 0.091499
0.871272 0.168212 0.093165
0.874442 0.172668 0.095570
0.876578 0.178283 0.098605
0.878483 0.182091 0.102883
0.880253 0.179733 0.107168
0.881002 0.178008 0.113022
0.881427 0.174322 0.122089
0.882520 0.157890 0.135791
0.882233 0.159370 0.210738
0.884460 0.194354 0.564856
0.882326 0.190470 0.559372
0.880201 0.186715 0.553778
0.878084 0.183770 0.548068
0.878463 0.361586 0.653687
0.068199 0.073010 0.081722
0.067509 0.072391 0.081133
0.069360 0.072212 0.080641
0.077456 0.073065 0.078496
0.136952 0.075548 0.078169
0.200093 0.077182 0.078366
0.360882 0.080753 0.078801
0.523776 0.085533 0.079351
0.589097 0.087881 0.079637
0.658349 0.091956 0.080093
0.723293 0.099582 0.080901
0.763121 0.105147 0.081425
0.788213 0.110006 0.081973
0.811149 0.117343 0.083125
0.833468 0.129062 0.084789
0.845821 0.137090 0.085975
0.853608 0.144357 0.087067
0.860342 0.153355 0.088648
0.866039 0.164599 0.091482
0.870768 0.168941 0.093146
0.874071 0.173381 0.095542
0.876265 0.179035 0.098573
0.878218 0.182841 0.102821
0.880026 0.180471 0.107088
0.880805 0.178725 0.112904
0.881255 0.175006 0.121854
0.882367 0.158403 0.135054
0.882094 0.159275 0.207198
0.884345 0.194146 0.564561
0.882221 0.190282 0.559104
0.880105 0.186546 0.553517
0.877996 0.183650 0.547830
0.878382 0.361343 0.653490
0.068038 0.073864 0.080940
0.067770 0.073676 0.080026
0.067766 0.073034 0.080334
0.070704 0.074088 0.078615
0.087361 0.077294 0.078153
0.139667 0.078558 0.078350
0.282892 0.082395 0.078807
0.457829 0.087587 0.079385
0.537789 0.089831 0.079656
0.618209 0.093594 0.080104
0.696946 0.101627 0.080897
0.741072 0.107380 0.081417
0.775369 0.111982 0.081956
0.800804 0.119900 0.083108
0.825252 0.132225 0.084762
0.841634 0.140094 0.085949
0.850233 0.147222 0.087040
0.857617 0.156152 0.088604
0.863829 0.167395 0.091425
0.868942 0.171644 0.093086
0.872731 0.176162 0.095450
0.875141 0.181815 0.098465
0.877265 0.185607 0.102607
0.879211 0.183190 0.106810
0.880101 0.181371 0.112499
0.880639 0.177535 0.121047
0.881821 0.160349 0.133079
0.881598 0.159158 0.195261
0.883933 0.193404 0.563507
0.881844 0.189613 0.558145
0.879760 0.186041 0.552584
0.877679 0.183225 0.546980
0.878089 0.360472 0.652789
0.067498 0.080212 0.079027
0.067588 0.080049 0.078646
0.068031 0.079049 0.078441
0.068950 0.077457 0.078408
0.073819 0.080378 0.078175
0.085938 0.081188 0.078358
0.152207 0.085284 0.078798
0.317524 0.091104 0.079392
0.431736 0.093057 0.079681
0.546625 0.097584 0.080138
0.647558 0.107086 0.080922
0.700564 0.112415 0.081427
0.742561 0.117376 0.081963
0.780836 0.125362 0.083104
0.809379 0.138883 0.084743
0.829172 0.146301 0.085923
0.843753 0.153056 0.087009
0.852429 0.161780 0.088547
0.859655 0.172966 0.091345
0.865519 0.177203 0.092994
0.869898 0.181697 0.095305
0.873056 0.187507 0.098289
0.875506 0.192321 0.102256
0.877712 0.189089 0.106348
0.878811 0.186571 0.111820
0.879514 0.182498 0.119705
0.880826 0.164348 0.130008
0.880699 0.159860 0.176791
0.883184 0.192067 0.561598
0.881160 0.188403 0.556380
0.879132 0.185188 0.550890
0.877103 0.182454 0.545436
0.877557 0.358886 0.651514
0.068184 0.096730 0.078069
0.068250 0.096481 0.078149
0.068662 0.095334 0.078239
0.069708 0.091920 0.078314
0.072203 0.088456 0.078401
0.076088 0.085715 0.078436
0.096635 0.090117 0.078818
0.178982 0.096606 0.079409
0.292688 0.098576 0.079717
0.427177 0.103194 0.080178
0.571795 0.113844 0.080986
0.644324 0.120466 0.081468
0.695113 0.125897 0.082028
0.741888 0.135938 0.083150
0.783434 0.151233 0.084787
0.808250 0.157483 0.085940
0.828603 0.163325 0.087007
0.844088 0.171502 0.088517
0.853054 0.183029 0.091278
0.860173 0.186932 0.092904
0.865530 0.192232 0.095148
0.869494 0.199148 0.098083
0.872848 0.203862 0.101826
0.875464 0.200358 0.105773
0.876887 0.197504 0.110959
0.877843 0.191943 0.118011
0.879353 0.171335 0.126341
0.879381 0.163023 0.159065
0.882089 0.190127 0.558815
0.880156 0.186642 0.553660
0.878211 0.183941 0.548411
0.876256 0.181358 0.543173
0.876775 0.356562 0.649641
0.068814 0.117273 0.078350
0.068891 0.116403 0.078408
0.069260 0.114766 0.078498
0.070066 0.109279 0.078650
0.071604 0.101494 0.078647
0.074245 0.096294 0.078725
0.082915 0.098228 0.078925
0.121391 0.106545 0.079540
0.180366 0.107059 0.079780
0.299120 0.111797 0.080227
0.458391 0.124759 0.081029
0.564629 0.131864 0.081519
0.634242 0.138301 0.082164
0.694019 0.148304 0.083255
0.747050 0.163105 0.084861
0.781947 0.170311 0.085993
0.805381 0.177588 0.087050
0.825697 0.188644 0.088573
0.843082 0.203356 0.091290
0.852267 0.206873 0.092871
0.859221 0.211254 0.095045
0.864391 0.217639 0.097911
0.868665 0.222040 0.101422
0.872327 0.218052 0.105203
0.874273 0.214649 0.110068
0.875591 0.208554 0.116252
0.877382 0.183371 0.122806
0.877641 0.170883 0.143662
0.880653 0.187624 0.555074
0.878838 0.184796 0.550103
0.876999 0.182313 0.545163
0.877260 0.312294 0.540202
0.875742 0.353514 0.647176
0.070067 0.171346 0.078855
0.070209 0.171841 0.078914
0.070680 0.168788 0.079080
0.071451 0.157755 0.079195
0.072948 0.141212 0.079249
0.075461 0.126676 0.079276
0.080531 0.118030 0.079377
0.097815 0.122451 0.079742
0.131025 0.120686 0.079940
0.201792 0.125526 0.080357
0.342755 0.141588 0.081140
0.461588 0.148911 0.081610
0.556347 0.153422 0.082281
0.633209 0.163000 0.083352
0.698836 0.179065 0.085010
0.742090 0.187819 0.086142
0.779160 0.194519 0.087133
0.804601 0.206357 0.088624
0.826101 0.224045 0.091315
0.842228 0.230611 0.092891
0.850521 0.238634 0.095058
0.857199 0.246867 0.097862
0.862922 0.250439 0.101189
0.867645 0.245572 0.104807
0.870604 0.241252 0.109352
0.872688 0.234480 0.114801
0.874870 0.207833 0.120146
0.875463 0.187302 0.132782
0.878898 0.185027 0.550376
0.877222 0.182624 0.545769
0.875510 0.180329 0.541193
0.875883 0.308802 0.536560
0.874467 0.349785 0.644143
0.071982 0.259524 0.079510
0.072118 0.260192 0.079577
0.072707 0.260795 0.079808
0.073356 0.240550 0.079933
0.074682 0.215090 0.079992
0.077513 0.189498 0.080087
0.082795 0.171769 0.080134
0.093476 0.159766 0.080247
0.109656 0.143442 0.080195
0.151702 0.146331 0.080541
0.256110 0.163104 0.081308
0.359559 0.168486 0.081760
0.462571 0.171769 0.082514
0.562899 0.181285 0.083537
0.645171 0.201171 0.085196
0.696306 0.210002 0.086267
0.739439 0.217932 0.087257
0.777406 0.232109 0.088811
0.803552 0.250546 0.091464
0.824929 0.254537 0.092963
0.841527 0.260755 0.095072
0.849689 0.270466 0.097824
0.856297 0.279474 0.101080
0.861793 0.280715 0.104658
0.865470 0.283274 0.109059
0.868457 0.275642 0.114139
0.871541 0.250216 0.119082
0.872777 0.225791 0.127910
0.876858 0.182542 0.545060
0.875336 0.180130 0.540754
0.873766 0.178035 0.536577
0.874266 0.304677 0.532312
0.872967 0.345440 0.640587
0.073015 0.308395 0.079838
0.073113 0.308839 0.079894
0.073422 0.304841 0.080057
0.073944 0.290624 0.080233
0.075276 0.268734 0.080352
0.077407 0.242664 0.080422
0.081455 0.218137 0.080506
0.088600 0.197209 0.080568
0.103402 0.182596 0.080691
0.128938 0.174450 0.080858
0.195141 0.190123 0.081522
0.284082 0.195026 0.082137
0.372981 0.197417 0.082830
0.479778 0.208220 0.083772
0.580393 0.229794 0.085481
0.645433 0.237569 0.086495
0.694920 0.245215 0.087439
0.739763 0.258809 0.089041
0.779168 0.277785 0.091664
0.803019 0.284437 0.093148
0.822648 0.292929 0.095310
0.839862 0.299344 0.097945
0.848909 0.305692 0.101099
0.855842 0.305185 0.104492
0.860537 0.306355 0.108673
0.863946 0.307438 0.113646
0.867345 0.297709 0.118981
0.869000 0.289507 0.127213
0.874684 0.186559 0.540912
0.873217 0.177610 0.535329
0.871673 0.175527 0.531447
0.872395 0.300066 0.527545
0.871068 0.340565 0.636567
0.074515 0.379498 0.080372
0.074569 0.377293 0.080405
0.074797 0.368223 0.080507
0.075537 0.355961 0.080693
0.076697 0.336975 0.080861
0.078809 0.314296 0.080979
0.082411 0.289950 0.081079
0.088594 0.265150 0.081165
0.100478 0.243689 0.081260
0.121276 0.227147 0.081382
0.165530 0.236833 0.082034
0.226049 0.232904 0.082609
0.305026 0.232356 0.083191
0.400091 0.241606 0.084078
0.510530 0.263675 0.085843
0.585693 0.270106 0.086785
0.647874 0.276366 0.087686
0.698505 0.288551 0.089402
0.744704 0.307109 0.091994
0.779211 0.312871 0.093426
0.803373 0.318253 0.095533
0.822938 0.328506 0.098150
0.838839 0.339287 0.101398
0.848296 0.339647 0.104651
0.854546 0.338635 0.108573
0.859030 0.338087 0.113235
0.863230 0.327083 0.117969
0.865454 0.317151 0.125092
0.867581 0.296246 0.134364
0.868646 0.276365 0.170656
0.870368 0.272837 0.479141
0.870117 0.295890 0.525127
0.868937 0.335258 0.632154
0.077430 0.466155 0.081195
0.077448 0.463804 0.081218
0.077609 0.456828 0.081312
0.078574 0.449147 0.081507
0.079963 0.433955 0.081671
0.082205 0.413837 0.081945
0.086251 0.389797 0.082212
0.093552 0.362793 0.082426
0.106355 0.338164 0.082611
0.125964 0.317188 0.082844
0.154342 0.300718 0.083130
0.195108 0.285672 0.083360
0.254118 0.273077 0.083632
0.338577 0.280633 0.084584
0.443409 0.300789 0.086282
0.524599 0.304608 0.087163
0.592976 0.308459 0.088035
0.656436 0.319202 0.089844
0.706979 0.338489 0.092407
0.747342 0.342460 0.093872
0.780763 0.349731 0.095948
0.803604 0.361411 0.098504
0.823719 0.369426 0.101731
0.839939 0.371069 0.104884
0.847627 0.375658 0.108737
0.852998 0.381509 0.113238
0.858394 0.368742 0.117548
0.861423 0.356478 0.123751
0.864088 0.333806 0.131098
0.865547 0.307469 0.151260
0.867477 0.267954 0.396876
0.867689 0.293132 0.528122
0.866276 0.290981 0.527907
0.079635 0.514860 0.081637
0.079658 0.512798 0.081657
0.079832 0.506422 0.081770
0.080573 0.499004 0.082154
0.081778 0.486003 0.082522
0.084240 0.469966 0.082885
0.088029 0.451297 0.083216
0.094627 0.429154 0.083437
0.106000 0.407277 0.083638
0.122773 0.384142 0.083833
0.146042 0.363220 0.084056
0.180966 0.346606 0.084440
0.222919 0.324750 0.084483
0.290552 0.320324 0.085184
0.384212 0.339591 0.086790
0.467226 0.341180 0.087585
0.540381 0.343902 0.088637
0.607088 0.354038 0.090461
0.669201 0.372600 0.092856
0.711559 0.375839 0.094422
0.751158 0.384116 0.096498
0.783569 0.393639 0.098916
0.806149 0.404452 0.102335
0.824978 0.407917 0.105431
0.839873 0.409249 0.109060
0.847172 0.412230 0.113328
0.853236 0.408406 0.117469
0.856846 0.405955 0.123277
0.860094 0.390438 0.129957
0.862149 0.359223 0.142023
0.864248 0.284568 0.273616
0.865113 0.287613 0.522245
0.863866 0.286671 0.525199
0.081488 0.550107 0.082264
0.081512 0.548828 0.082305
0.081670 0.544749 0.082460
0.082420 0.539402 0.082783
0.083811 0.529930 0.083175
0.085916 0.515996 0.083554
0.089496 0.498320 0.083869
0.095270 0.478806 0.084163
0.105376 0.458801 0.084478
0.119681 0.438615 0.084762
0.138802 0.419602 0.085056
0.166034 0.402912 0.085359
0.205927 0.386737 0.085751
0.264370 0.375987 0.086240
0.339128 0.382854 0.087369
0.411132 0.382760 0.088203
0.487201 0.383650 0.089352
0.563790 0.392909 0.091173
0.627960 0.409178 0.093577
0.676742 0.410821 0.095144
0.718123 0.416215 0.097054
0.758039 0.424915 0.099462
0.787216 0.435360 0.103164
0.809710 0.436485 0.106012
0.826682 0.441365 0.109606
0.839502 0.448014 0.113827
0.847745 0.441955 0.117641
0.852361 0.437400 0.122881
0.856146 0.429003 0.129067
0.858525 0.417395 0.138966
0.860293 0.402300 0.163615
0.862456 0.281876 0.516242
0.861373 0.282484 0.523522
0.084575 0.586764 0.083176
0.084603 0.585650 0.083213
0.084765 0.582020 0.083351
0.085348 0.576885 0.083632
0.086729 0.571444 0.084054
0.089031 0.561962 0.084555
0.092787 0.550428 0.085023
0.098374 0.537476 0.085462
0.108141 0.517942 0.085834
0.120964 0.497882 0.086128
0.137968 0.478910 0.086399
0.162515 0.461794 0.086713
0.196676 0.446630 0.087013
0.244928 0.433320 0.087394
0.313475 0.436892 0.088710
0.369218 0.424793 0.089181
0.438667 0.422241 0.090240
0.514059 0.428331 0.091908
0.587197 0.442401 0.094477
0.640597 0.443662 0.096039
0.686533 0.447958 0.097843
0.727540 0.455908 0.100191
0.766525 0.464339 0.104032
0.792402 0.467229 0.106845
0.812276 0.472480 0.110325
0.828350 0.476591 0.114279
0.841727 0.475512 0.118111
0.847164 0.476298 0.123089
0.851964 0.466925 0.128570
0.855003 0.453952 0.136135
0.857182 0.435409 0.152400
0.858569 0.424115 0.261552
0.859693 0.437986 0.521567
0.089155 0.632921 0.084446
0.089201 0.631947 0.084495
0.089439 0.628719 0.084677
0.090206 0.623903 0.085044
0.092309 0.619563 0.085670
0.094446 0.610480 0.086162
0.098465 0.600612 0.086698
0.105434 0.588519 0.087138
0.114605 0.575179 0.087549
0.127295 0.561149 0.087889
0.144276 0.547200 0.088394
0.167533 0.532399 0.088813
0.200034 0.515344 0.089352
0.244273 0.500482 0.089904
0.295299 0.487960 0.090574
0.345368 0.473911 0.090942
0.399775 0.462147 0.091390
0.473756 0.464121 0.092790
0.549070 0.476199 0.095516
0.602008 0.476225 0.096946
0.655415 0.479671 0.098713
0.698450 0.487143 0.101472
0.738730 0.494858 0.105126
0.774095 0.498518 0.107848
0.797201 0.502480 0.111122
0.815483 0.509328 0.115050
0.831905 0.508790 0.118812
0.842157 0.507321 0.123394
0.847589 0.504256 0.128587
0.851157 0.499223 0.135133
0.853912 0.480673 0.147128
0.855535 0.457043 0.191618
0.857091 0.442331 0.507784
0.092801 0.656339 0.085274
0.092843 0.655675 0.085318
0.093051 0.653440 0.085483
0.093678 0.649967 0.085808
0.095311 0.646390 0.086354
0.097612 0.640840 0.086897
0.102813 0.633924 0.087503
0.108498 0.622277 0.087935
0.116899 0.609976 0.088586
0.128476 0.597084 0.089270
0.143372 0.583471 0.089819
0.163820 0.570188 0.090366
0.192559 0.557797 0.090916
0.230812 0.546288 0.091470
0.278053 0.535867 0.092037
0.326736 0.523914 0.092698
0.375593 0.509976 0.093039
0.437084 0.504198 0.094160
0.509048 0.511768 0.096678
0.569280 0.511004 0.098031
0.619484 0.513063 0.099633
0.670045 0.519832 0.102856
0.711688 0.527143 0.106402
0.749532 0.529880 0.108960
0.780845 0.534629 0.112131
0.801927 0.540459 0.116115
0.821119 0.540244 0.119640
0.833730 0.541902 0.124138
0.843075 0.539780 0.128921
0.847503 0.533441 0.134511
0.850624 0.524410 0.144906
0.852454 0.515314 0.168804
0.854271 0.474163 0.429731
0.096242 0.677751 0.085995
0.096281 0.677167 0.086035
0.096464 0.675183 0.086185
0.096987 0.672004 0.086477
0.098854 0.668439 0.086958
0.102166 0.664250 0.087549
0.106004 0.657639 0.088158
0.111491 0.650116 0.088939
0.119517 0.641560 0.089761
0.129720 0.630746 0.090502
0.143216 0.618014 0.091180
0.161754 0.605138 0.091763
0.187359 0.592703 0.092298
0.219842 0.581109 0.092868
0.263623 0.570432 0.093424
0.307772 0.561090 0.094203
0.356991 0.553131 0.095097
0.412434 0.547958 0.096263
0.480616 0.548918 0.098314
0.533310 0.543900 0.099111
0.588112 0.544967 0.101085
0.640698 0.549080 0.104367
0.685986 0.554035 0.107831
0.724203 0.555497 0.110233
0.760963 0.559089 0.113310
0.787754 0.563440 0.117312
0.809103 0.564719 0.120741
0.824442 0.565783 0.124932
0.836812 0.565276 0.129483
0.843523 0.563834 0.134694
0.847367 0.556946 0.143444
0.849629 0.547633 0.159872
0.851193 0.545717 0.284262
0.101816 0.702045 0.086879
0.101875 0.701534 0.086917
0.102134 0.699783 0.087054
0.102831 0.696911 0.087320
0.104483 0.693494 0.087753
0.108033 0.690490 0.088668
0.111020 0.683924 0.089432
0.117011 0.677731 0.090477
0.124285 0.669799 0.091335
0.133348 0.660916 0.092085
0.146477 0.651660 0.092828
0.163749 0.642072 0.093494
0.187692 0.631445 0.094345
0.216959 0.619592 0.095038
0.256845 0.608735 0.095849
0.298001 0.598791 0.096612
0.343702 0.589971 0.097402
0.393114 0.582544 0.098312
0.457440 0.582580 0.100502
0.506080 0.574642 0.101246
0.560790 0.570428 0.102767
0.610229 0.574069 0.105984
0.660901 0.578484 0.109369
0.699962 0.579500 0.111641
0.737551 0.583014 0.114625
0.772820 0.587070 0.118732
0.796521 0.588605 0.121978
0.814414 0.590072 0.125954
0.828708 0.591657 0.130371
0.838882 0.588758 0.135108
0.844107 0.585556 0.143089
0.846737 0.582028 0.156189
0.848520 0.572360 0.215390
0.108856 0.728965 0.087997
0.108919 0.728523 0.088051
0.109185 0.726997 0.088249
0.109853 0.724448 0.088631
0.111338 0.721282 0.089293
0.114670 0.718313 0.090363
0.118303 0.713053 0.091275
0.123984 0.707313 0.092320
0.130580 0.700084 0.093221
0.140282 0.692357 0.094362
0.153502 0.683712 0.095394
0.170501 0.674708 0.096416
0.192663 0.665459 0.097275
0.221107 0.656448 0.098092
0.258072 0.647750 0.098842
0.297315 0.639823 0.099704
0.339459 0.631421 0.100808
0.384759 0.623008 0.102070
0.436008 0.616077 0.103586
0.485308 0.607507 0.104215
0.534268 0.601664 0.105468
0.583761 0.599473 0.107669
0.633684 0.603363 0.110949
0.676731 0.604058 0.113135
0.714835 0.606850 0.116213
0.752042 0.610871 0.120294
0.783338 0.612192 0.123330
0.803508 0.614666 0.127197
0.820690 0.615494 0.131245
0.832398 0.615065 0.136002
0.840721 0.613352 0.143362
0.844054 0.608059 0.153924
0.846009 0.604958 0.187656
0.113631 0.746665 0.088577
0.113696 0.746376 0.088629
0.113964 0.745342 0.088818
0.114620 0.743508 0.089216
0.116038 0.741142 0.089889
0.118946 0.738169 0.090884
0.122851 0.734018 0.091934
0.127299 0.728151 0.092876
0.133915 0.721996 0.094080
0.143139 0.714862 0.095369
0.154619 0.706665 0.096420
0.169877 0.698216 0.097471
0.190335 0.689539 0.098447
0.215982 0.680879 0.099334
0.249741 0.672502 0.100298
0.286679 0.664447 0.101548
0.325216 0.657144 0.102916
0.367585 0.650559 0.104267
0.413964 0.644543 0.105563
0.467438 0.639578 0.107084
0.512772 0.633631 0.108240
0.565215 0.630756 0.110378
0.608127 0.629097 0.112716
0.654842 0.628952 0.114672
0.693594 0.631278 0.117981
0.730942 0.634732 0.121915
0.768681 0.636064 0.124798
0.791971 0.638294 0.128538
0.811835 0.639319 0.132346
0.825603 0.639799 0.137088
0.835643 0.638615 0.143772
0.841349 0.637277 0.153305
0.843670 0.633347 0.174739
0.119081 0.760781 0.089216
0.119144 0.760525 0.089274
0.119398 0.759629 0.089486
0.119998 0.758087 0.089890
0.121251 0.756044 0.090531
0.123740 0.753810 0.091470
0.127970 0.751499 0.092667
0.131573 0.747352 0.093571
0.138845 0.743411 0.095167
0.146307 0.737000 0.096299
0.157730 0.729787 0.097557
0.172745 0.722023 0.098723
0.191175 0.713724 0.099750
0.214408 0.705356 0.101062
0.245377 0.697259 0.102548
0.280474 0.689443 0.103940
0.315405 0.682025 0.105245
0.354778 0.675255 0.106616
0.398460 0.669256 0.108035
0.446073 0.663786 0.109379
0.494565 0.659247 0.110899
0.544160 0.656106 0.112970
0.589316 0.654472 0.115333
0.630658 0.651143 0.116802
0.672791 0.651580 0.119772
0.710880 0.653989 0.123644
0.749023 0.654941 0.126361
0.779991 0.656654 0.129900
0.802190 0.658285 0.133589
0.818644 0.658653 0.138212
0.830356 0.658976 0.144605
0.837442 0.657505 0.153021
0.841448 0.656124 0.169208
0.124907 0.774924 0.090074
0.124971 0.774702 0.090131
0.125226 0.773921 0.090337
0.125807 0.772563 0.090729
0.126968 0.770727 0.091346
0.129186 0.768638 0.092244
0.133364 0.766679 0.093526
0.137189 0.763073 0.094759
0.143461 0.759300 0.096234
0.151727 0.754910 0.097601
0.162745 0.750139 0.098959
0.175973 0.744679 0.100172
0.193695 0.738214 0.102010
0.216213 0.730341 0.103699
0.244965 0.722449 0.105204
0.277828 0.714901 0.106781
0.310446 0.707619 0.108196
0.347535 0.700818 0.109606
0.387647 0.694537 0.111009
0.432678 0.689067 0.112489
0.479987 0.684109 0.113906
0.524658 0.679947 0.115534
0.572700 0.677589 0.118266
0.611472 0.674134 0.119618
0.654570 0.671913 0.121917
0.691765 0.672606 0.125354
0.729821 0.673617 0.127965
0.766001 0.675104 0.131381
0.791957 0.676786 0.134939
0.811082 0.677505 0.139579
0.825050 0.678086 0.145524
0.833436 0.677573 0.153257
0.838310 0.677465 0.166777
0.130696 0.788885 0.090697
0.130760 0.788688 0.090753
0.131012 0.787994 0.090956
0.131567 0.786777 0.091341
0.132643 0.785103 0.091946
0.134695 0.783130 0.092820
0.138750 0.781133 0.094246
0.143326 0.778263 0.095747
0.148977 0.774586 0.097139
0.157813 0.770863 0.098778
0.166893 0.766150 0.100026
0.180829 0.761352 0.102173
0.198140 0.756301 0.104291
0.218511 0.750853 0.106024
0.245165 0.745363 0.107656
0.276038 0.739355 0.109284
0.306824 0.732299 0.110903
0.342097 0.725586 0.112424
0.379360 0.719326 0.113891
0.421068 0.713558 0.115449
0.468302 0.708576 0.117279
0.509570 0.704135 0.119116
0.556347 0.700368 0.120990
0.594299 0.696707 0.122280
0.635328 0.694085 0.124517
0.674289 0.692696 0.127468
0.711233 0.692075 0.129495
0.748202 0.693332 0.132807
0.781345 0.694947 0.136685
0.802930 0.696012 0.141107
0.819559 0.696664 0.146486
0.829438 0.697088 0.153845
0.835238 0.696751 0.165282
0.135901 0.802074 0.090485
0.135965 0.801892 0.090541
0.136216 0.801248 0.090744
0.136766 0.800106 0.091129
0.137817 0.798505 0.091731
0.139738 0.796554 0.092597
0.143267 0.794444 0.093919
0.148650 0.791998 0.095731
0.153344 0.788398 0.097065
0.161496 0.784847 0.098808
0.170397 0.780497 0.100283
0.184060 0.776013 0.102697
0.198282 0.771084 0.104697
0.218360 0.766094 0.106781
0.244175 0.760964 0.108706
0.272702 0.755804 0.110353
0.300810 0.750829 0.112055
0.333699 0.746062 0.113665
0.368678 0.741278 0.115317
0.407554 0.735743 0.117145
0.451224 0.730558 0.118998
0.493314 0.726017 0.120820
0.536474 0.722125 0.122737
0.578851 0.718833 0.124681
0.617381 0.715732 0.126903
0.658969 0.713858 0.129822
0.695038 0.712220 0.131457
0.730539 0.711315 0.134150
0.769439 0.712800 0.138202
0.794216 0.714040 0.142725
0.813723 0.714965 0.147608
0.825540 0.715343 0.154177
0.832319 0.715928 0.164604
0.141080 0.813455 0.090350
0.141144 0.813295 0.090405
0.141389 0.812727 0.090608
0.141915 0.811714 0.090991
0.142933 0.810277 0.091589
0.144830 0.808488 0.092445
0.148173 0.806481 0.093690
0.154122 0.804465 0.095834
0.158188 0.801112 0.097128
0.165018 0.797667 0.098795
0.175188 0.793908 0.100803
0.186381 0.789567 0.103087
0.201077 0.785086 0.105466
0.220272 0.780411 0.107757
0.242689 0.775567 0.109701
0.270635 0.770734 0.111630
0.297546 0.765963 0.113481
0.328561 0.761325 0.115330
0.361414 0.756944 0.117320
0.397822 0.752864 0.119303
0.437834 0.749117 0.121194
0.480330 0.745755 0.123081
0.519911 0.742535 0.124944
0.564368 0.739665 0.126954
0.601048 0.736773 0.128982
0.641940 0.734358 0.131902
0.679872 0.732887 0.133449
0.714822 0.731019 0.136219
0.753047 0.730414 0.139631
0.784806 0.731543 0.143809
0.807482 0.732771 0.148725
0.821654 0.733374 0.154637
0.829549 0.734092 0.164155
0.146311 0.823685 0.090018
0.146380 0.823581 0.090074
0.146644 0.823211 0.090279
0.147197 0.822464 0.090666
0.148206 0.821182 0.091268
0.149962 0.819558 0.092129
0.152986 0.817679 0.093310
0.158254 0.815688 0.095415
0.163180 0.812912 0.097102
0.169495 0.809659 0.098722
0.180616 0.806374 0.101280
0.190059 0.802284 0.103480
0.205190 0.798163 0.106274
0.221592 0.793717 0.108447
0.244379 0.789233 0.110813
0.270540 0.784673 0.112899
0.294831 0.780166 0.114854
0.323624 0.775736 0.117151
0.355072 0.771462 0.119342
0.389479 0.767467 0.121456
0.426927 0.763767 0.123511
0.469556 0.760413 0.125514
0.506515 0.757393 0.127462
0.548196 0.754723 0.129391
0.586154 0.752566 0.131499
0.624523 0.750745 0.133610
0.665034 0.749870 0.135159
0.700038 0.748284 0.138365
0.738151 0.747594 0.141492
0.774867 0.746967 0.144882
0.800501 0.747713 0.149464
0.817667 0.748385 0.155020
0.827131 0.749009 0.163855
0.152254 0.833817 0.088083
0.152309 0.833717 0.088135
0.152521 0.833358 0.088326
0.152969 0.832707 0.088686
0.153794 0.831754 0.089294
0.155251 0.830511 0.090232
0.157799 0.829005 0.091525
0.162321 0.827294 0.093275
0.168292 0.825286 0.095555
0.173815 0.822871 0.097210
0.183024 0.819459 0.099330
0.193472 0.815661 0.101910
0.205870 0.811568 0.104658
0.223089 0.807314 0.107382
0.243801 0.802918 0.109929
0.267551 0.798539 0.112203
0.291852 0.794185 0.114482
0.318782 0.789909 0.116898
0.347931 0.785774 0.119227
0.379670 0.781863 0.121480
0.414933 0.778233 0.123657
0.454650 0.774912 0.125774
0.492879 0.771931 0.127838
0.531962 0.769305 0.129862
