negative-gold-200/Gold200_Classic_ExtraPunchy.cube
TITLE "Kodak Gold 200 Classic ExtraPunchy"
# Adobe RGB in/out. REPLACES AgX. Kodak Gold 200 Classic ExtraPunchy.
LUT_3D_SIZE 9
DOMAIN_MIN 0.0 0.0 0.0
DOMAIN_MAX 1.0 1.0 1.0
0.069662 0.073299 0.081842
0.075869 0.074840 0.078496
0.135423 0.085862 0.078768
0.298221 0.106141 0.079991
0.474054 0.146621 0.081573
0.600030 0.208193 0.084927
0.687594 0.294866 0.089689
0.753709 0.383757 0.097291
0.802780 0.465219 0.109222
0.068303 0.084142 0.078635
0.076934 0.086761 0.078149
0.138032 0.097425 0.078919
0.300814 0.120573 0.080154
0.475502 0.163835 0.081687
0.600828 0.229116 0.085177
0.688059 0.312351 0.090007
0.754049 0.400007 0.097624
0.802972 0.476409 0.109666
0.072124 0.133200 0.078658
0.081250 0.137885 0.078848
0.147685 0.154047 0.079556
0.310086 0.182119 0.080673
0.480675 0.233609 0.082549
0.603677 0.300117 0.086030
0.689646 0.373032 0.091117
0.755268 0.446475 0.098797
0.803658 0.515206 0.111245
0.079196 0.259974 0.079770
0.091789 0.265131 0.079936
0.165730 0.283548 0.080542
0.326978 0.312941 0.081568
0.490068 0.355442 0.083943
0.608863 0.409098 0.087450
0.692490 0.462156 0.093035
0.757497 0.519217 0.101388
0.804915 0.568766 0.114080
0.094698 0.424411 0.081217
0.113930 0.427642 0.081362
0.195429 0.439136 0.082005
0.350552 0.458968 0.083679
0.503835 0.486838 0.086326
0.616489 0.522849 0.090251
0.696686 0.557907 0.096443
0.760799 0.592813 0.106081
0.806780 0.630928 0.118869
0.126583 0.560413 0.083803
0.147854 0.562152 0.084022
0.238235 0.568340 0.085055
0.380192 0.579492 0.086789
0.521934 0.595650 0.089672
0.626556 0.616581 0.094349
0.702250 0.640755 0.101216
0.765201 0.663381 0.112044
0.809271 0.688363 0.125318
0.172234 0.658126 0.087666
0.197087 0.659194 0.087889
0.289414 0.663003 0.089101
0.415531 0.669896 0.091450
0.544196 0.679948 0.094997
0.638990 0.693071 0.100072
0.709160 0.709069 0.109146
0.770702 0.727673 0.120019
0.812394 0.746738 0.133139
0.237119 0.736265 0.093837
0.264526 0.737117 0.094252
0.342160 0.740160 0.095703
0.456506 0.744567 0.098236
0.567820 0.750526 0.102791
0.653546 0.758243 0.109788
0.717362 0.767711 0.118623
0.775564 0.778799 0.129848
0.816142 0.791344 0.144508
0.308392 0.791686 0.103114
0.329583 0.792181 0.103656
0.396365 0.793952 0.105574
0.495170 0.797178 0.108996
0.588708 0.801928 0.113882
0.666248 0.808209 0.121234
0.726782 0.815980 0.130328
0.780948 0.824552 0.142611
0.820499 0.832325 0.158087
0.067513 0.072904 0.085578
0.076132 0.076466 0.085845
0.136043 0.087052 0.086757
0.298837 0.107726 0.088473
0.474398 0.148695 0.091924
0.600220 0.210660 0.096921
0.687704 0.296931 0.104743
0.753789 0.385672 0.115224
0.802826 0.466541 0.128756
0.068538 0.085420 0.085813
0.077172 0.088234 0.086075
0.138648 0.098938 0.086970
0.301429 0.122440 0.088763
0.475846 0.165788 0.092215
0.601016 0.231552 0.097257
0.688169 0.314382 0.105211
0.754130 0.401900 0.115730
0.803017 0.477709 0.129217
0.072375 0.135385 0.086622
0.081559 0.140030 0.086866
0.148341 0.156066 0.087702
0.310696 0.184093 0.089901
0.481015 0.236038 0.093230
0.603864 0.302172 0.098441
0.689749 0.374963 0.106871
0.755348 0.447875 0.117531
0.803704 0.516438 0.130862
0.079492 0.262368 0.088020
0.092232 0.267519 0.088357
0.166449 0.285677 0.089612
0.327581 0.314971 0.091914
0.490402 0.357399 0.095551
0.609048 0.410631 0.100849
0.692592 0.463483 0.109844
0.757577 0.520443 0.120787
0.804960 0.569558 0.133844
0.095120 0.425912 0.091068
0.114538 0.429137 0.091409
0.196135 0.440608 0.092597
0.351086 0.460302 0.095075
0.504161 0.488119 0.098864
0.616670 0.524069 0.105571
0.696786 0.558719 0.114117
0.760878 0.593561 0.125525
0.806824 0.631616 0.139247
0.127160 0.561220 0.095297
0.148510 0.562956 0.095695
0.239019 0.569132 0.097093
0.380711 0.580264 0.099539
0.522251 0.596393 0.104718
0.626733 0.617290 0.111568
0.702348 0.641278 0.120616
0.765278 0.663869 0.131699
0.809315 0.688816 0.146780
0.172950 0.658622 0.101378
0.197793 0.659689 0.101931
0.290035 0.663491 0.103889
0.416009 0.670375 0.107376
0.544502 0.680412 0.112348
0.639161 0.693518 0.119479
0.709255 0.709495 0.128677
0.770778 0.728078 0.140578
0.812437 0.747014 0.156139
0.237903 0.736660 0.110955
0.265310 0.737511 0.111451
0.342699 0.740551 0.113209
0.456965 0.744867 0.116667
0.568027 0.750798 0.122192
0.653671 0.758506 0.129343
0.717454 0.767965 0.138962
0.775617 0.779041 0.152173
0.816184 0.791574 0.167267
0.309003 0.791916 0.122517
0.330184 0.792410 0.123063
0.396852 0.794180 0.125008
0.495501 0.797403 0.128522
0.588903 0.802149 0.133634
0.666367 0.808424 0.141989
0.726871 0.816189 0.152748
0.780999 0.824702 0.165483
0.820540 0.832468 0.182148
0.068363 0.078530 0.149929
0.077025 0.081663 0.150557
0.138264 0.091984 0.152804
0.301046 0.113110 0.156904
0.475632 0.156019 0.162956
0.600899 0.219491 0.171004
0.688101 0.304315 0.183319
0.754079 0.392529 0.199192
0.802989 0.471266 0.217899
0.069466 0.090236 0.150482
0.078137 0.092930 0.151109
0.140854 0.104309 0.153353
0.303634 0.128980 0.157447
0.477076 0.172700 0.163490
0.601694 0.240273 0.171641
0.688561 0.321648 0.183994
0.754419 0.407470 0.199862
0.803180 0.482359 0.218565
0.073189 0.143080 0.152460
0.082839 0.147589 0.153084
0.150692 0.163204 0.155316
0.312886 0.192450 0.159389
0.482234 0.244737 0.165403
0.604537 0.309520 0.173928
0.690117 0.381876 0.186417
0.755637 0.452733 0.202269
0.803866 0.520848 0.220953
0.080513 0.270946 0.156072
0.093794 0.276074 0.156690
0.169029 0.293142 0.158901
0.329743 0.322233 0.162937
0.491602 0.364407 0.168898
0.609711 0.416109 0.178122
0.692956 0.468229 0.190868
0.757863 0.524830 0.206689
0.805122 0.572390 0.225341
0.096612 0.431279 0.161413
0.116710 0.434481 0.162022
0.198670 0.445873 0.164203
0.353003 0.465070 0.168185
0.505332 0.492701 0.174760
0.617320 0.528435 0.184516
0.697145 0.561626 0.197510
0.761161 0.596240 0.213288
0.806984 0.634079 0.232085
0.129220 0.564109 0.168516
0.150861 0.565833 0.169115
0.241834 0.571967 0.171329
0.382572 0.583025 0.176107
0.523387 0.599054 0.183283
0.627366 0.619830 0.193511
0.702699 0.643152 0.206455
0.765557 0.665616 0.222177
0.809473 0.690438 0.241243
0.175520 0.660398 0.178807
0.200325 0.661458 0.179526
0.292259 0.665240 0.182106
0.417723 0.672088 0.187164
0.545597 0.682075 0.194725
0.639774 0.695118 0.204902
0.709597 0.711024 0.217786
0.771051 0.729528 0.233690
0.812593 0.748005 0.252866
0.240719 0.738077 0.192566
0.268127 0.738925 0.193330
0.344632 0.741656 0.196073
0.458612 0.745928 0.201110
0.568770 0.751773 0.208627
0.654121 0.759450 0.218747
0.717785 0.768873 0.231743
0.775806 0.779909 0.247907
0.816336 0.792400 0.267032
0.311195 0.792740 0.209076
0.332342 0.793233 0.209835
0.398602 0.794996 0.212559
0.496689 0.798209 0.217563
0.589604 0.802940 0.225030
0.666796 0.809196 0.235398
0.727191 0.816938 0.248623
0.781182 0.825238 0.264735
0.820689 0.832981 0.283804
0.070006 0.087516 0.324778
0.078880 0.090547 0.325371
0.142318 0.101349 0.327498
0.305101 0.125503 0.331399
0.477895 0.169024 0.337208
0.602145 0.235616 0.345005
0.688808 0.317770 0.354838
0.754612 0.404511 0.366732
0.803289 0.479877 0.380689
0.071122 0.099387 0.325300
0.080113 0.102437 0.325892
0.145093 0.114710 0.328018
0.307681 0.143314 0.331918
0.479334 0.185803 0.337723
0.602938 0.256209 0.345516
0.689242 0.334896 0.355345
0.754951 0.417562 0.367233
0.803480 0.490835 0.381184
0.074629 0.156677 0.327171
0.085105 0.160972 0.327763
0.154994 0.176049 0.329884
0.316904 0.208852 0.333777
0.484471 0.260635 0.339572
0.605771 0.322911 0.347351
0.690794 0.394502 0.357163
0.756166 0.461580 0.369031
0.804165 0.528896 0.382960
0.082663 0.286311 0.330606
0.096569 0.290794 0.331195
0.173766 0.306738 0.333309
0.333712 0.335475 0.337189
0.493801 0.377200 0.342964
0.610928 0.426083 0.350719
0.693625 0.476878 0.360500
0.758389 0.532836 0.372333
0.805418 0.577551 0.386222
0.100329 0.441055 0.335721
0.120653 0.444216 0.336307
0.203325 0.454892 0.338411
0.356519 0.473758 0.342271
0.507480 0.501057 0.348019
0.618513 0.536405 0.355737
0.697803 0.566921 0.365473
0.761680 0.601125 0.377254
0.807278 0.638177 0.391085
0.132968 0.569373 0.342593
0.155162 0.571075 0.343176
0.247015 0.577133 0.345266
0.385987 0.588060 0.349101
0.525470 0.603909 0.354811
0.628528 0.624467 0.362481
0.703343 0.646570 0.372158
0.766068 0.668807 0.383871
0.809763 0.693403 0.397624
0.180238 0.663640 0.351269
0.204977 0.664690 0.351846
0.296343 0.668435 0.353919
0.420871 0.675218 0.357723
0.547607 0.685113 0.363389
0.640900 0.698043 0.370999
0.710224 0.713819 0.380604
0.771508 0.732182 0.392232
0.812878 0.749818 0.405057
0.245899 0.740657 0.361773
0.272623 0.741312 0.362345
0.348179 0.743653 0.364398
0.461637 0.747757 0.368166
0.570133 0.753557 0.373779
0.654945 0.761178 0.381319
0.718394 0.770535 0.390840
0.776153 0.781498 0.402097
0.816616 0.793911 0.413460
0.315218 0.794249 0.374114
0.336304 0.794739 0.374680
0.401813 0.796492 0.376711
0.498870 0.799686 0.380438
0.590889 0.804390 0.385991
0.667582 0.810611 0.393453
0.727778 0.818311 0.402525
0.781519 0.826220 0.412103
0.820963 0.833922 0.423309
0.072551 0.101334 0.501221
0.081799 0.104679 0.501630
0.148822 0.117359 0.503098
0.311144 0.146161 0.505793
0.481264 0.189039 0.508867
0.604002 0.259465 0.512768
0.689824 0.337598 0.517680
0.755407 0.419618 0.523608
0.803737 0.492563 0.530544
0.073468 0.114689 0.501581
0.083318 0.118870 0.501990
0.151577 0.133956 0.503457
0.313711 0.163402 0.506150
0.482694 0.210223 0.509125
0.604791 0.279802 0.513024
0.690256 0.354439 0.517933
0.755745 0.432405 0.523857
0.803927 0.503331 0.530790
0.077236 0.176027 0.502873
0.088708 0.180335 0.503281
0.161375 0.198056 0.504746
0.322893 0.233071 0.507148
0.487800 0.284144 0.510050
0.607610 0.342651 0.513941
0.691802 0.411142 0.518840
0.756957 0.474601 0.524752
0.804611 0.539803 0.531671
0.086009 0.306716 0.505244
0.102200 0.311112 0.505651
0.180826 0.326760 0.506914
0.339489 0.355008 0.508857
0.497076 0.396109 0.511748
0.612742 0.440760 0.515624
0.694622 0.489618 0.520504
0.759173 0.542568 0.526394
0.805861 0.585157 0.533288
0.106083 0.454878 0.508122
0.126431 0.457766 0.508416
0.210640 0.468041 0.509469
0.361756 0.486554 0.511401
0.510678 0.513381 0.514275
0.620291 0.545068 0.518129
0.698784 0.574718 0.522982
0.762456 0.608335 0.528839
0.807717 0.643357 0.535696
0.138974 0.577125 0.511562
0.161540 0.578796 0.511854
0.254766 0.584747 0.512899
0.391064 0.595485 0.514815
0.528574 0.611074 0.517667
0.630259 0.631318 0.521491
0.704304 0.651617 0.526307
0.766832 0.673524 0.532122
0.810196 0.697790 0.538930
0.187270 0.668430 0.515898
0.212479 0.669465 0.516187
0.302426 0.673157 0.517222
0.425560 0.679845 0.519120
0.550602 0.689608 0.521943
0.642577 0.702373 0.525731
0.711160 0.717959 0.530502
0.772038 0.736117 0.536264
0.813304 0.752503 0.543010
0.253650 0.743649 0.521138
0.278826 0.744297 0.521423
0.353461 0.746552 0.522446
0.466145 0.750466 0.524322
0.572162 0.756202 0.527113
0.656174 0.763740 0.530857
0.719301 0.773000 0.535575
0.776670 0.783856 0.541273
0.817034 0.796155 0.547946
0.321215 0.796490 0.527279
0.341825 0.796976 0.527561
0.406595 0.798713 0.528569
0.502116 0.801879 0.530420
0.592804 0.806543 0.533173
0.668755 0.812712 0.536868
0.728655 0.820351 0.541524
0.782022 0.827679 0.547149
0.821371 0.835320 0.553740
0.075733 0.123871 0.616977
0.086360 0.127762 0.617144
0.157514 0.144307 0.617746
0.319265 0.172733 0.618849
0.485784 0.222090 0.620492
0.606496 0.290360 0.622699
0.691191 0.363875 0.625486
0.756478 0.439552 0.628858
0.804340 0.509359 0.632817
0.076811 0.141418 0.617124
0.087870 0.145956 0.617292
0.160231 0.161660 0.617893
0.321817 0.190490 0.618995
0.487202 0.242840 0.620638
0.607279 0.307919 0.622844
0.691621 0.380369 0.625629
0.756815 0.451675 0.629000
0.804530 0.519887 0.632957
0.081091 0.206639 0.617653
0.094646 0.211957 0.617820
0.170464 0.230917 0.618420
0.330945 0.265270 0.619521
0.492268 0.311680 0.621161
0.610080 0.368822 0.623364
0.693159 0.431301 0.626145
0.758022 0.491818 0.629510
0.805211 0.551011 0.633461
0.091563 0.333688 0.618624
0.109833 0.337980 0.618791
0.190318 0.353272 0.619389
0.346685 0.380926 0.620487
0.501472 0.417719 0.622122
0.615179 0.459259 0.624318
0.695964 0.506481 0.627091
0.760230 0.553701 0.630447
0.806458 0.595226 0.634387
0.113620 0.472587 0.620071
0.134032 0.475401 0.620237
0.221105 0.485418 0.620833
0.368789 0.503488 0.621925
0.514973 0.529720 0.623553
0.622679 0.556133 0.625740
0.700104 0.585031 0.628501
0.763500 0.617896 0.631843
0.808308 0.650226 0.635766
0.147520 0.587381 0.622017
0.170649 0.589013 0.622181
0.265242 0.594825 0.622773
0.397595 0.605322 0.623860
0.532743 0.620578 0.625478
0.632587 0.639613 0.627652
0.705597 0.658313 0.630397
0.767860 0.679793 0.633720
0.810780 0.703632 0.637621
0.196727 0.674795 0.624474
0.222944 0.675811 0.624638
0.310602 0.679433 0.625225
0.431862 0.685999 0.626303
0.554627 0.695589 0.627910
0.644833 0.708139 0.630068
0.712419 0.723477 0.632793
0.772753 0.741200 0.636092
0.813878 0.756085 0.639966
0.264126 0.747510 0.627452
0.287157 0.748103 0.627614
0.360553 0.750224 0.628196
0.471679 0.754078 0.629265
0.574885 0.759729 0.630857
0.657826 0.767159 0.632996
0.720523 0.776292 0.635697
0.777367 0.787007 0.638967
0.817597 0.799155 0.642809
0.329276 0.799487 0.630952
0.349003 0.799967 0.631112
0.413020 0.801684 0.631688
0.506474 0.804813 0.632746
0.595375 0.809424 0.634321
0.670332 0.815525 0.636438
0.729834 0.823006 0.639112
0.782699 0.829631 0.642349
0.821922 0.837192 0.646153
0.080412 0.158814 0.702331
0.093638 0.163078 0.702430
0.168769 0.178190 0.702783
0.329524 0.211487 0.703432
0.491480 0.263193 0.704400
0.609644 0.325060 0.705701
0.692919 0.396533 0.707347
0.757834 0.462999 0.709344
0.805105 0.530189 0.711694
0.081663 0.175447 0.702418
0.095426 0.179761 0.702516
0.171791 0.197338 0.702870
0.332057 0.232369 0.703518
0.492885 0.283492 0.704486
0.610421 0.342079 0.705787
0.693346 0.410700 0.707432
0.758169 0.474224 0.709428
0.805294 0.539557 0.711777
0.086795 0.248107 0.702729
0.103655 0.253296 0.702827
0.182603 0.271823 0.703180
0.340837 0.302861 0.703828
0.497900 0.345730 0.704794
0.613198 0.401360 0.706093
0.694873 0.455564 0.707737
0.759371 0.513136 0.709730
0.805973 0.564835 0.712077
0.099477 0.367119 0.703300
0.119804 0.371296 0.703398
0.202318 0.386192 0.703750
0.355758 0.411144 0.704396
0.507015 0.443046 0.705360
0.618255 0.481563 0.706657
0.697660 0.527389 0.708297
0.761568 0.567435 0.710286
0.807215 0.607708 0.712628
0.123757 0.494474 0.704152
0.144650 0.497203 0.704250
0.234419 0.506922 0.704600
0.377663 0.524478 0.705245
0.520391 0.546373 0.706205
0.625696 0.569789 0.707498
0.701774 0.597802 0.709132
0.764823 0.629773 0.711115
0.809057 0.658755 0.713449
0.158577 0.600084 0.705298
0.182787 0.601669 0.705396
0.276833 0.607318 0.705745
0.405836 0.617528 0.706386
0.538005 0.632387 0.707343
0.635527 0.648425 0.708629
0.707231 0.666636 0.710257
0.769163 0.687602 0.712231
0.811519 0.710924 0.714555
0.208872 0.682719 0.706749
0.236259 0.683711 0.706846
0.320926 0.687250 0.707193
0.439820 0.693668 0.707831
0.559710 0.703049 0.708782
0.647684 0.715338 0.710061
0.714013 0.730376 0.711680
0.773658 0.746273 0.713643
0.814606 0.760564 0.715954
0.275941 0.752151 0.708510
0.297672 0.752734 0.708607
0.369500 0.754814 0.708951
0.477521 0.758594 0.709585
0.578318 0.764141 0.710529
0.659912 0.771439 0.711800
0.722068 0.780416 0.713408
0.778250 0.790958 0.715358
0.818312 0.802921 0.717654
0.339338 0.803247 0.710586
0.358055 0.803720 0.710681
0.421130 0.805412 0.711023
0.511970 0.808497 0.711652
0.598619 0.813042 0.712588
0.672324 0.819059 0.713849
0.731328 0.825551 0.715444
0.783557 0.832085 0.717379
0.822621 0.839546 0.719657
0.087229 0.203127 0.766100
0.104468 0.208458 0.766159
0.183602 0.227458 0.766371
0.341595 0.261876 0.766759
0.498363 0.308789 0.767339
0.613455 0.366068 0.768120
0.695015 0.429185 0.769109
0.759482 0.490009 0.770311
0.806036 0.549835 0.771728
0.089179 0.224117 0.766152
0.106881 0.229378 0.766211
0.186598 0.248145 0.766422
0.343866 0.282189 0.766811
0.499750 0.326052 0.767391
0.614224 0.382534 0.768172
0.695438 0.441813 0.769160
0.759815 0.500814 0.770361
0.806224 0.556852 0.771778
0.095819 0.295897 0.766338
0.115552 0.300338 0.766397
0.197315 0.316140 0.766608
0.351979 0.344643 0.766996
0.504706 0.386070 0.767576
0.616973 0.432978 0.768356
0.696953 0.482860 0.769344
0.761010 0.538093 0.770544
0.806899 0.581122 0.771959
0.111382 0.405949 0.766680
0.131826 0.409263 0.766739
0.218034 0.421042 0.766950
0.366731 0.442239 0.767337
0.513716 0.471105 0.767916
0.621980 0.507887 0.768694
0.699718 0.547913 0.769680
0.763194 0.583625 0.770879
0.808135 0.622499 0.772291
0.135761 0.520345 0.767191
0.158195 0.522980 0.767249
0.250691 0.532373 0.767460
0.388403 0.545912 0.767846
0.526944 0.563387 0.768423
0.629350 0.585890 0.769200
0.703799 0.612917 0.770183
0.766430 0.642313 0.771378
0.809969 0.668881 0.772788
0.172651 0.615124 0.767878
0.197497 0.616657 0.767937
0.289775 0.622122 0.768146
0.415809 0.632010 0.768532
0.544374 0.644288 0.769106
0.639090 0.658872 0.769881
0.709215 0.676527 0.770861
0.770746 0.696905 0.772052
0.812419 0.719631 0.773456
0.225133 0.692154 0.768750
0.252532 0.693119 0.768808
0.333435 0.696563 0.769017
0.449460 0.702810 0.769400
0.564636 0.711952 0.769972
0.651138 0.723939 0.770743
0.715946 0.738629 0.771719
0.774758 0.751961 0.772905
0.815492 0.765925 0.774304
0.288892 0.757702 0.769809
0.310399 0.758271 0.769867
0.380324 0.760304 0.770075
0.484576 0.763999 0.770456
0.582468 0.769424 0.771025
0.662438 0.776568 0.771792
0.723945 0.785363 0.772763
0.779323 0.795701 0.773942
0.819180 0.807447 0.775334
0.350497 0.807767 0.771059
0.369002 0.808232 0.771117
0.430948 0.809895 0.771323
0.518615 0.812925 0.771702
0.602543 0.817394 0.772268
0.674738 0.823176 0.773030
0.733141 0.828612 0.773995
0.784599 0.835037 0.775167
0.823470 0.842380 0.776550
0.098393 0.263076 0.813483
0.118728 0.268225 0.813529
0.201044 0.286294 0.813697
0.354797 0.315570 0.814005
0.506428 0.357977 0.814464
0.617929 0.411083 0.815084
0.697480 0.463875 0.815870
0.761426 0.520805 0.816825
0.807134 0.569791 0.817954
0.100906 0.283376 0.813524
0.121229 0.287934 0.813570
0.204011 0.303921 0.813738
0.357037 0.332730 0.814046
0.507796 0.374546 0.814505
0.618689 0.424018 0.815125
0.697900 0.475086 0.815910
0.761757 0.531176 0.816865
0.807321 0.576481 0.817994
0.109599 0.345633 0.813671
0.130003 0.349883 0.813718
0.215517 0.365027 0.813885
0.365040 0.392436 0.814193
0.512684 0.426787 0.814652
0.621406 0.467241 0.815271
0.699400 0.513952 0.816056
0.762943 0.558618 0.817011
0.807993 0.599687 0.818138
0.125926 0.442974 0.813942
0.147108 0.446128 0.813989
0.237344 0.456646 0.814156
0.379603 0.475464 0.814463
0.521574 0.502699 0.814922
0.626356 0.537798 0.815540
0.702139 0.567960 0.816324
0.765113 0.602085 0.817277
0.809221 0.638867 0.818404
0.151503 0.546332 0.814347
0.175007 0.548132 0.814393
0.269977 0.554533 0.814560
0.400555 0.566055 0.814867
0.534633 0.582719 0.815324
0.633643 0.604257 0.815941
0.706183 0.630229 0.816724
0.768327 0.654911 0.817675
0.811045 0.680514 0.818800
0.190204 0.632354 0.814892
0.215720 0.633830 0.814939
0.304964 0.638583 0.815105
0.427516 0.646011 0.815411
0.551851 0.656810 0.815867
0.643277 0.670855 0.816483
0.711551 0.687902 0.817263
0.772260 0.707633 0.818212
0.813482 0.729700 0.819334
0.244446 0.703028 0.815584
0.271457 0.703963 0.815630
0.347186 0.707301 0.815796
0.460789 0.713361 0.816101
0.569751 0.722236 0.816556
0.654714 0.733889 0.817169
0.718223 0.746456 0.817947
0.776055 0.758541 0.818893
0.816538 0.772140 0.820011
0.304091 0.764128 0.816426
0.325350 0.764682 0.816472
0.392931 0.766662 0.816637
0.492836 0.770262 0.816941
0.587333 0.775551 0.817394
0.665407 0.782520 0.818005
0.726155 0.791110 0.818780
0.780588 0.801219 0.819722
0.820207 0.812717 0.820835
0.363578 0.813031 0.817421
0.381845 0.813487 0.817467
0.442480 0.815116 0.817631
0.526410 0.818086 0.817934
0.607149 0.822466 0.818385
0.677576 0.826852 0.818993
0.735278 0.832179 0.819764
0.785830 0.838481 0.820702
0.824475 0.845689 0.821810
