negative-gold-200/Gold200_Modern_Soft.cube
TITLE "Kodak Gold 200 Modern Soft"
# Adobe RGB in/out. REPLACES AgX. Kodak Gold 200 Modern Soft.
LUT_3D_SIZE 33
DOMAIN_MIN 0.0 0.0 0.0
DOMAIN_MAX 1.0 1.0 1.0
0.062396 0.069107 0.086480
0.067452 0.070469 0.087257
0.076170 0.073105 0.088325
0.089375 0.076473 0.089568
0.109615 0.080701 0.091077
0.149404 0.086949 0.092812
0.208400 0.093496 0.094559
0.289019 0.100686 0.096705
0.363911 0.109272 0.098575
0.419237 0.122042 0.100238
0.466463 0.132937 0.102430
0.508674 0.156133 0.104909
0.544259 0.177042 0.107189
0.577150 0.204253 0.109427
0.599563 0.236769 0.112135
0.619224 0.270956 0.114675
0.637277 0.301810 0.117064
0.653873 0.329437 0.119318
0.669661 0.359632 0.122099
0.684703 0.383200 0.124826
0.699056 0.406602 0.127822
0.709693 0.429851 0.130697
0.718931 0.450614 0.133568
0.727761 0.466560 0.137199
0.736209 0.482157 0.140723
0.744300 0.497408 0.144143
0.752057 0.512318 0.147464
0.759497 0.525903 0.151121
0.766640 0.535834 0.154992
0.773501 0.545460 0.158768
0.779793 0.554792 0.162452
0.785374 0.563839 0.166043
0.789474 0.572610 0.170329
0.063542 0.072100 0.087128
0.065928 0.071708 0.087239
0.073218 0.073763 0.088034
0.086205 0.077119 0.089420
0.105520 0.081410 0.090884
0.142608 0.087524 0.092679
0.198579 0.094008 0.094421
0.283168 0.101189 0.096563
0.358752 0.109799 0.098473
0.416182 0.122744 0.100162
0.463669 0.134018 0.102322
0.506248 0.157148 0.104821
0.542502 0.178012 0.107117
0.575607 0.205614 0.109344
0.598675 0.238128 0.112064
0.618443 0.272125 0.114613
0.636630 0.302950 0.117011
0.653297 0.330303 0.119271
0.669144 0.360417 0.122043
0.684237 0.383948 0.124768
0.698633 0.407316 0.127769
0.709424 0.430536 0.130649
0.718687 0.451075 0.133509
0.727539 0.466997 0.137145
0.736007 0.482572 0.140673
0.744116 0.497804 0.144098
0.751888 0.512696 0.147422
0.759342 0.526156 0.151074
0.766497 0.536074 0.154948
0.773369 0.545688 0.158727
0.779686 0.555010 0.162414
0.785274 0.564047 0.166008
0.789406 0.572809 0.170284
0.065277 0.077965 0.087814
0.067673 0.077499 0.087949
0.071960 0.076696 0.088269
0.080360 0.078785 0.089168
0.095881 0.083075 0.090421
0.125842 0.089044 0.092296
0.179553 0.095496 0.094004
0.255127 0.103016 0.096124
0.342208 0.112494 0.098146
0.405762 0.125020 0.099911
0.453735 0.138642 0.101960
0.497982 0.160664 0.104525
0.536453 0.181448 0.106871
0.570258 0.210403 0.109058
0.595577 0.242924 0.111817
0.615708 0.276255 0.114399
0.634355 0.306990 0.116822
0.651263 0.333620 0.119104
0.667316 0.363203 0.121845
0.682585 0.386606 0.124575
0.697133 0.409857 0.127581
0.708467 0.432976 0.130480
0.717820 0.452716 0.133301
0.726751 0.468556 0.136954
0.735288 0.484055 0.140498
0.743458 0.499217 0.143936
0.751284 0.514045 0.147274
0.758787 0.527059 0.150905
0.765986 0.536932 0.154791
0.772897 0.546506 0.158582
0.779301 0.555789 0.162278
0.784918 0.564791 0.165882
0.789165 0.573521 0.170125
0.067584 0.086582 0.089043
0.069505 0.086180 0.089105
0.074370 0.084991 0.089273
0.080128 0.083905 0.089507
0.089676 0.085954 0.090258
0.112024 0.091161 0.091916
0.154510 0.098076 0.093524
0.218369 0.106019 0.095561
0.305205 0.117057 0.097689
0.384918 0.128403 0.099538
0.436467 0.146562 0.101431
0.484434 0.166704 0.104053
0.526311 0.188152 0.106469
0.561155 0.218863 0.108683
0.590223 0.251446 0.111401
0.610940 0.283602 0.114032
0.630359 0.314208 0.116498
0.647671 0.341072 0.118815
0.664071 0.368193 0.121499
0.679641 0.391382 0.124262
0.694454 0.414435 0.127251
0.706751 0.437385 0.130180
0.716263 0.455680 0.132994
0.725332 0.471375 0.136614
0.733992 0.486742 0.140185
0.742270 0.501782 0.143648
0.750193 0.516498 0.147007
0.757783 0.528701 0.150601
0.765059 0.538494 0.154509
0.772040 0.547994 0.158319
0.778602 0.557210 0.162033
0.784270 0.566149 0.165654
0.788727 0.574821 0.169838
0.070539 0.098533 0.090217
0.072417 0.098106 0.090263
0.077369 0.096731 0.090403
0.084427 0.094942 0.090682
0.091958 0.093845 0.091101
0.105810 0.095680 0.091954
0.137303 0.102071 0.093312
0.186492 0.110214 0.095151
0.274598 0.122606 0.097275
0.356549 0.132897 0.099154
0.417356 0.155083 0.100932
0.467534 0.175020 0.103496
0.512372 0.199917 0.105973
0.549117 0.230862 0.108243
0.582973 0.263600 0.110859
0.604394 0.294084 0.113546
0.624570 0.322489 0.116060
0.642636 0.351823 0.118420
0.659488 0.375367 0.121021
0.675456 0.398275 0.123826
0.690630 0.421076 0.126789
0.704289 0.443733 0.129758
0.714018 0.459991 0.132608
0.723281 0.475488 0.136131
0.732112 0.490671 0.139739
0.740544 0.505540 0.143235
0.748604 0.520098 0.146625
0.756317 0.531111 0.150165
0.763705 0.540790 0.154102
0.770786 0.550185 0.157940
0.777578 0.559304 0.161680
0.783319 0.568153 0.165324
0.788083 0.576741 0.169422
0.075243 0.125727 0.092285
0.077100 0.124967 0.092316
0.083123 0.122020 0.092406
0.090962 0.116890 0.092507
0.099797 0.110055 0.092591
0.111244 0.107818 0.092860
0.130382 0.109155 0.093522
0.176384 0.119240 0.095111
0.244379 0.129148 0.097071
0.329073 0.146680 0.098882
0.399998 0.165787 0.100532
0.448461 0.185805 0.102973
0.495006 0.214993 0.105473
0.535375 0.246238 0.107776
0.570515 0.277959 0.110262
0.596535 0.307503 0.112994
0.617342 0.332933 0.115551
0.636417 0.361918 0.117951
0.653769 0.384590 0.120447
0.670189 0.407177 0.123294
0.685791 0.429702 0.126222
0.700660 0.450032 0.129236
0.711142 0.465606 0.132127
0.720640 0.480862 0.135526
0.729683 0.495820 0.139177
0.738306 0.510480 0.142713
0.746537 0.524467 0.146139
0.754406 0.534285 0.149608
0.761934 0.543822 0.153581
0.769143 0.553084 0.157453
0.776053 0.562078 0.161224
0.782069 0.570812 0.164897
0.787235 0.579292 0.168883
0.080761 0.172785 0.094058
0.082890 0.173403 0.094156
0.088803 0.167468 0.094199
0.097645 0.155336 0.094155
0.108274 0.140007 0.094105
0.121622 0.131014 0.094244
0.140740 0.128903 0.094640
0.168693 0.129428 0.095470
0.225318 0.143186 0.097160
0.301880 0.160890 0.098810
0.377158 0.179099 0.100370
0.429360 0.204010 0.102596
0.477946 0.233573 0.105059
0.521252 0.265034 0.107353
0.556803 0.294256 0.109689
0.587937 0.321822 0.112439
0.609279 0.349885 0.115022
0.629366 0.373379 0.117451
0.647199 0.395694 0.119821
0.664084 0.417957 0.122708
0.680134 0.440195 0.125588
0.695416 0.457182 0.128645
0.707724 0.472448 0.131577
0.717484 0.487434 0.134830
0.726766 0.502137 0.138525
0.735606 0.516557 0.142103
0.744035 0.528561 0.145568
0.752083 0.538200 0.148951
0.759776 0.547568 0.152964
0.767135 0.556673 0.156873
0.774182 0.565521 0.160680
0.780534 0.574118 0.164386
0.786190 0.582469 0.168237
0.086096 0.238526 0.096054
0.088051 0.239393 0.096157
0.094483 0.235200 0.096321
0.104463 0.213030 0.096154
0.117145 0.190627 0.096051
0.132933 0.176379 0.096112
0.155843 0.168162 0.096395
0.183201 0.164675 0.096911
0.218540 0.165332 0.097619
0.287651 0.178665 0.098963
0.359285 0.199997 0.100379
0.415286 0.226878 0.102445
0.462649 0.256184 0.104806
0.506001 0.285152 0.107040
0.543346 0.313436 0.109216
0.577695 0.338008 0.111947
0.600877 0.364665 0.114528
0.621432 0.386608 0.116966
0.640112 0.408545 0.119271
0.657431 0.430499 0.122111
0.673902 0.450238 0.124933
0.689584 0.465465 0.128024
0.703883 0.480425 0.130991
0.713914 0.495121 0.134081
0.723446 0.509550 0.137816
0.732516 0.523673 0.141434
0.741158 0.533376 0.144938
0.749402 0.542815 0.148333
0.757275 0.551996 0.152274
0.764800 0.560926 0.156221
0.772001 0.569608 0.160065
0.778737 0.578050 0.163807
0.784553 0.586255 0.167501
0.092022 0.315558 0.098016
0.093980 0.316140 0.098095
0.100978 0.309297 0.098135
0.111693 0.289480 0.098003
0.126259 0.267211 0.097904
0.146800 0.244399 0.097903
0.171345 0.227011 0.098050
0.196325 0.216088 0.098370
0.238806 0.211450 0.098858
0.285751 0.212245 0.099484
0.348409 0.229302 0.100562
0.404883 0.255031 0.102554
0.448772 0.281681 0.104757
0.491918 0.308039 0.106884
0.530959 0.331230 0.108918
0.565010 0.358765 0.111573
0.592593 0.380101 0.114118
0.613370 0.401556 0.116538
0.632869 0.423117 0.118844
0.650532 0.444437 0.121552
0.667355 0.459943 0.124351
0.683391 0.474820 0.127414
0.698688 0.489458 0.130405
0.710046 0.503849 0.133321
0.719823 0.517988 0.137088
0.729123 0.529385 0.140739
0.737980 0.538861 0.144277
0.746426 0.548086 0.147706
0.754486 0.557066 0.151541
0.762187 0.565806 0.155524
0.769550 0.574309 0.159403
0.776597 0.582581 0.163180
0.782654 0.590625 0.166856
0.099670 0.382995 0.099780
0.101588 0.381286 0.099781
0.108107 0.372512 0.099708
0.119674 0.358606 0.099607
0.136419 0.336970 0.099521
0.160006 0.318446 0.099494
0.183358 0.300273 0.099567
0.217726 0.285898 0.099765
0.260401 0.276841 0.100098
0.300986 0.272929 0.100557
0.348854 0.273554 0.101365
0.397434 0.286447 0.102912
0.437486 0.309632 0.104925
0.480294 0.330480 0.106908
0.520173 0.356584 0.108837
0.553530 0.376805 0.111359
0.584818 0.397417 0.113834
0.605654 0.418330 0.116214
0.625622 0.439437 0.118496
0.643673 0.455980 0.121074
0.660751 0.470684 0.123868
0.677063 0.485192 0.126856
0.692648 0.499486 0.129856
0.706003 0.513555 0.132747
0.716004 0.526252 0.136382
0.725521 0.535730 0.140055
0.734586 0.544968 0.143618
0.743228 0.553969 0.147073
0.751475 0.562737 0.150794
0.759352 0.571276 0.154809
0.766881 0.579588 0.158720
0.774083 0.587680 0.162528
0.780570 0.595553 0.166236
0.107535 0.437316 0.101432
0.109325 0.435023 0.101407
0.116229 0.427232 0.101329
0.128398 0.414524 0.101217
0.148327 0.398721 0.101111
0.173195 0.382015 0.101060
0.198465 0.366359 0.101108
0.238448 0.352993 0.101287
0.282124 0.338769 0.101634
0.321560 0.330582 0.102242
0.361080 0.327705 0.103031
0.399339 0.328155 0.103973
0.429324 0.337397 0.105294
0.471212 0.359602 0.107114
0.510007 0.377917 0.108914
0.543645 0.397066 0.111333
0.575737 0.416843 0.113713
0.598583 0.437068 0.116025
0.618529 0.453850 0.118259
0.637108 0.468211 0.120715
0.654323 0.482459 0.123480
0.670815 0.496557 0.126387
0.686609 0.510477 0.129378
0.701734 0.524017 0.132267
0.712100 0.533455 0.135734
0.721808 0.542668 0.139416
0.731060 0.551657 0.142992
0.739885 0.560424 0.146464
0.748309 0.568971 0.150068
0.756355 0.577299 0.154106
0.764046 0.585413 0.158041
0.771402 0.593314 0.161876
0.778338 0.601007 0.165611
0.116277 0.476695 0.103627
0.118224 0.475310 0.103605
0.125123 0.470544 0.103531
0.138948 0.462554 0.103422
0.160080 0.452209 0.103312
0.183329 0.438858 0.103247
0.216762 0.422684 0.103268
0.258260 0.408119 0.103410
0.295832 0.396123 0.103700
0.342113 0.387230 0.104149
0.375109 0.381609 0.104755
0.407512 0.379150 0.105508
0.433135 0.379560 0.106384
0.464517 0.384907 0.107488
0.501657 0.401836 0.109227
0.535592 0.419790 0.111512
0.566820 0.438548 0.113772
0.592359 0.454070 0.115990
0.612118 0.467796 0.118153
0.631035 0.481558 0.120504
0.648264 0.495283 0.123218
0.664831 0.508918 0.126039
0.680745 0.522421 0.129001
0.696023 0.532100 0.131872
0.708213 0.541235 0.135182
0.718077 0.550169 0.138855
0.727489 0.558897 0.142431
0.736475 0.567419 0.145908
0.745058 0.575735 0.149395
0.753260 0.583845 0.153445
0.761103 0.591751 0.157396
0.768606 0.599456 0.161250
0.775787 0.606961 0.165005
0.125877 0.512402 0.105653
0.127974 0.511208 0.105637
0.135555 0.507067 0.105581
0.151084 0.500019 0.105496
0.172374 0.490679 0.105407
0.195168 0.479963 0.105346
0.234314 0.468856 0.105347
0.277266 0.458251 0.105440
0.314906 0.448753 0.105646
0.354653 0.439551 0.105982
0.389829 0.431552 0.106452
0.415634 0.426565 0.107055
0.441888 0.424486 0.107779
0.469262 0.425071 0.108609
0.495565 0.428385 0.109764
0.529340 0.444664 0.111888
0.559574 0.457356 0.114012
0.587088 0.470044 0.116119
0.606523 0.482981 0.118192
0.625413 0.496057 0.120461
0.642724 0.509185 0.123101
0.659261 0.522293 0.125838
0.675202 0.531796 0.128750
0.690552 0.540768 0.131584
0.704437 0.549578 0.134756
0.714416 0.558212 0.138403
0.723953 0.566665 0.141962
0.733071 0.574929 0.145430
0.741790 0.583004 0.148807
0.750129 0.590887 0.152854
0.758108 0.598578 0.156811
0.765745 0.606078 0.160673
0.773058 0.613388 0.164441
0.137326 0.539736 0.107508
0.139815 0.539017 0.107495
0.148461 0.536505 0.107452
0.163301 0.532167 0.107386
0.183271 0.526289 0.107315
0.211582 0.517551 0.107263
0.251278 0.506997 0.107257
0.290206 0.496560 0.107320
0.333333 0.486905 0.107473
0.366784 0.478547 0.107732
0.401022 0.471836 0.108104
0.423478 0.466964 0.108592
0.450876 0.463986 0.109280
0.476355 0.462842 0.110249
0.501579 0.463393 0.111342
0.525722 0.465454 0.112539
0.553931 0.475612 0.114424
0.582788 0.487336 0.116408
0.601802 0.499412 0.118378
0.620373 0.511729 0.120594
0.637802 0.524008 0.123142
0.654212 0.532754 0.125800
0.670092 0.541434 0.128643
0.685434 0.550016 0.131424
0.700237 0.558473 0.134481
0.710899 0.566788 0.138084
0.720524 0.574945 0.141610
0.729741 0.582938 0.145055
0.738567 0.590759 0.148416
0.747019 0.598404 0.152359
0.755115 0.605871 0.156309
0.762870 0.613159 0.160170
0.770301 0.620268 0.163942
0.150933 0.562474 0.109315
0.153272 0.561856 0.109302
0.161441 0.559689 0.109257
0.176580 0.555914 0.109188
0.193682 0.550728 0.109113
0.228156 0.544492 0.109056
0.268131 0.537647 0.109047
0.304784 0.530649 0.109112
0.347545 0.523918 0.109277
0.380346 0.515364 0.109559
0.409211 0.507974 0.109973
0.432679 0.502132 0.110526
0.459524 0.497966 0.111217
0.483560 0.495500 0.112041
0.508148 0.494673 0.112988
0.530587 0.495365 0.114042
0.551790 0.497424 0.115186
0.578051 0.505880 0.116847
0.597951 0.517059 0.118706
0.616131 0.527073 0.120905
0.633548 0.535250 0.123347
0.649752 0.543469 0.125934
0.665492 0.551679 0.128692
0.680751 0.559839 0.131403
0.695521 0.567916 0.134377
0.707590 0.575886 0.137918
0.717261 0.583730 0.141394
0.726542 0.591433 0.144801
0.735445 0.598986 0.148133
0.743984 0.606381 0.151984
0.752173 0.613614 0.155914
0.760027 0.620682 0.159762
0.767559 0.627581 0.163526
0.164531 0.584069 0.111503
0.166911 0.583535 0.111493
0.175333 0.581656 0.111460
0.183697 0.578358 0.111408
0.210584 0.573777 0.111352
0.244648 0.568189 0.111310
0.283747 0.561942 0.111305
0.320980 0.555416 0.111360
0.358091 0.548971 0.111496
0.393222 0.542929 0.111730
0.416714 0.537552 0.112074
0.441541 0.533035 0.112537
0.466998 0.529511 0.113122
0.490663 0.527044 0.113828
0.514768 0.525644 0.114650
0.535588 0.525274 0.115576
0.556249 0.525864 0.116596
0.577167 0.527320 0.117694
0.594919 0.532157 0.119165
0.612667 0.539567 0.121383
0.629970 0.547136 0.123710
0.645908 0.554804 0.126241
0.661445 0.562517 0.128902
0.676559 0.570228 0.131530
0.691234 0.577899 0.134455
0.704535 0.585501 0.137918
0.714214 0.593009 0.141330
0.723523 0.600405 0.144684
0.732471 0.607675 0.147974
0.741069 0.614807 0.151747
0.749327 0.621795 0.155644
0.757258 0.628632 0.159468
0.764873 0.635314 0.163214
0.179273 0.604598 0.113548
0.181551 0.604134 0.113541
0.183486 0.602497 0.113516
0.201338 0.599606 0.113479
0.227860 0.595556 0.113439
0.261380 0.590554 0.113411
0.293982 0.584879 0.113414
0.337028 0.578843 0.113466
0.368633 0.572756 0.113584
0.401723 0.566903 0.113784
0.423579 0.561527 0.114077
0.449885 0.556824 0.114473
0.474091 0.552937 0.114976
0.497506 0.549957 0.115587
0.520594 0.547926 0.116304
0.540578 0.546845 0.117122
0.560785 0.546678 0.118030
0.581226 0.547363 0.119019
0.595034 0.548823 0.120270
0.609927 0.552652 0.122016
0.626956 0.559615 0.124224
0.642677 0.566722 0.126715
0.657965 0.573921 0.129269
0.672883 0.581163 0.131805
0.687411 0.588407 0.134720
0.701535 0.595620 0.138092
0.711417 0.602774 0.141427
0.720721 0.609845 0.144716
0.729684 0.616815 0.147951
0.738312 0.623671 0.151664
0.746614 0.630401 0.155515
0.754599 0.636997 0.159302
0.762276 0.643453 0.163019
0.188668 0.624127 0.115462
0.191462 0.623722 0.115457
0.201419 0.622290 0.115441
0.219429 0.619749 0.115415
0.245122 0.616163 0.115389
0.278327 0.611690 0.115375
0.309535 0.606552 0.115386
0.348554 0.601005 0.115438
0.380121 0.595312 0.115547
0.408548 0.589725 0.115724
0.431345 0.584464 0.115981
0.457684 0.579717 0.116327
0.480740 0.575630 0.116766
0.503985 0.572306 0.117302
0.525762 0.569811 0.117933
0.545435 0.568169 0.118658
0.565278 0.567375 0.119470
0.584198 0.567394 0.120649
0.597418 0.568174 0.121934
0.610607 0.569650 0.123303
0.624471 0.572618 0.124910
0.640027 0.579171 0.127347
0.655037 0.585851 0.129789
0.669724 0.592614 0.132225
0.684066 0.599418 0.135173
0.698047 0.606227 0.138443
0.708893 0.613009 0.141689
0.718162 0.619739 0.144902
0.727110 0.626396 0.148072
0.735742 0.632961 0.151744
0.744063 0.639421 0.155538
0.752080 0.645766 0.159277
0.759799 0.649854 0.162954
0.207769 0.642714 0.117259
0.210497 0.642359 0.117255
0.220232 0.641103 0.117245
0.237561 0.638865 0.117229
0.262659 0.635686 0.117216
0.290130 0.631687 0.117213
0.325122 0.627046 0.117233
0.358072 0.621973 0.117289
0.391181 0.616690 0.117392
0.414861 0.611416 0.117554
0.438675 0.606350 0.117786
0.463970 0.601666 0.118094
0.486921 0.597506 0.118484
0.510042 0.593979 0.118960
0.530629 0.591163 0.119531
0.550068 0.589100 0.120393
0.569625 0.587807 0.121367
0.586835 0.587273 0.122445
0.599792 0.587466 0.123619
0.612714 0.588341 0.124913
0.625598 0.589842 0.126463
0.637912 0.592084 0.128121
0.652632 0.598256 0.130450
0.667065 0.604541 0.132783
0.681194 0.610900 0.135806
0.694999 0.617295 0.138968
0.706652 0.623695 0.142117
0.715860 0.630072 0.145244
0.724768 0.636402 0.148340
0.733380 0.642665 0.151995
0.741697 0.647892 0.155721
0.749724 0.651689 0.159401
0.757465 0.655406 0.163029
0.227118 0.655098 0.118946
0.229713 0.654905 0.118944
0.238978 0.654218 0.118939
0.255791 0.652989 0.118932
0.280405 0.651233 0.118928
0.304077 0.649003 0.118936
0.340782 0.646387 0.118965
0.367680 0.641819 0.119025
0.399604 0.636947 0.119127
0.420647 0.632013 0.119280
0.445538 0.627194 0.119493
0.469796 0.622649 0.119864
0.492638 0.618514 0.120334
0.515651 0.614897 0.120906
0.535152 0.611881 0.121582
0.554411 0.609523 0.122363
0.573747 0.607850 0.123248
0.589363 0.606872 0.124231
0.602099 0.606576 0.125411
0.614791 0.606932 0.126760
0.627442 0.607901 0.128199
0.639287 0.609435 0.129719
0.651010 0.611482 0.131309
0.664875 0.616894 0.133573
0.678774 0.622810 0.136612
0.692383 0.628791 0.139660
0.704695 0.634804 0.142707
0.713820 0.640821 0.145741
0.722668 0.646622 0.148755
0.731238 0.650341 0.152418
0.739530 0.654009 0.156068
0.747548 0.657617 0.159681
0.755293 0.661158 0.163250
0.246213 0.665244 0.120876
0.248740 0.665087 0.120876
0.257768 0.664529 0.120874
0.274186 0.663528 0.120874
0.291841 0.662090 0.120881
0.320065 0.660155 0.120905
0.350744 0.657825 0.120954
0.378477 0.655222 0.121041
0.405718 0.652442 0.121178
0.426618 0.649585 0.121374
0.451977 0.646748 0.121642
0.475199 0.642666 0.121989
0.497908 0.638629 0.122422
0.520220 0.635011 0.122947
0.539313 0.631897 0.123566
0.558427 0.629348 0.124281
0.577589 0.627404 0.125160
0.591737 0.626085 0.126208
0.604292 0.625394 0.127359
0.616790 0.625316 0.128609
0.629178 0.625826 0.129949
0.640775 0.626887 0.131371
0.652309 0.628459 0.132865
0.663771 0.630498 0.134869
0.676774 0.635102 0.137577
0.690175 0.640675 0.140510
0.703011 0.646301 0.143450
0.712039 0.649835 0.146388
0.720810 0.653360 0.149429
0.729321 0.656859 0.153013
0.737571 0.660322 0.156578
0.745561 0.663591 0.160117
0.753293 0.666720 0.163620
0.265395 0.674388 0.122872
0.267855 0.674251 0.122873
0.276651 0.673763 0.122876
0.288447 0.672886 0.122884
0.307343 0.671622 0.122902
0.336200 0.670001 0.122936
0.360194 0.668072 0.122996
0.389037 0.665900 0.123091
0.411583 0.663559 0.123230
0.432991 0.661094 0.123424
0.457990 0.658472 0.123681
0.480216 0.655918 0.124010
0.502759 0.653504 0.124415
0.524139 0.651294 0.124941
0.543110 0.649339 0.125607
0.562098 0.647683 0.126374
0.581118 0.646355 0.127244
0.593930 0.644822 0.128215
0.606336 0.643826 0.129284
0.618672 0.643397 0.130447
0.630778 0.643522 0.131698
0.642207 0.644176 0.133030
0.653571 0.645329 0.134887
0.664868 0.646703 0.136892
0.676091 0.647979 0.138983
0.688346 0.650424 0.141505
0.701281 0.653694 0.144339
0.710508 0.656983 0.147178
0.719189 0.660275 0.150289
0.727627 0.663421 0.153775
0.735821 0.666453 0.157251
0.743769 0.669453 0.160709
0.751473 0.672412 0.164139
0.283524 0.683012 0.124775
0.284988 0.682892 0.124777
0.290189 0.682465 0.124785
0.302657 0.681696 0.124802
0.323937 0.680584 0.124834
0.348216 0.679152 0.124885
0.370204 0.677439 0.124966
0.398117 0.675497 0.125085
0.417011 0.673390 0.125251
0.439067 0.671182 0.125476
0.462926 0.668942 0.125766
0.484880 0.666734 0.126132
0.507222 0.664619 0.126578
0.527709 0.662651 0.127112
0.546552 0.660823 0.127736
0.565420 0.659165 0.128454
0.583541 0.657789 0.129267
0.595921 0.656715 0.130173
0.608204 0.655958 0.131172
0.620406 0.655523 0.132260
0.632265 0.655407 0.133524
0.643550 0.655601 0.135226
0.654767 0.656093 0.137032
0.665915 0.656864 0.138935
0.676993 0.657894 0.140927
0.687994 0.659163 0.142997
0.699605 0.661228 0.145361
0.709210 0.664094 0.148101
0.717793 0.666947 0.151313
0.726149 0.669800 0.154697
0.734275 0.672642 0.158080
0.742170 0.675462 0.161453
0.749834 0.678251 0.164806
0.295780 0.691149 0.126847
0.297932 0.691044 0.126850
0.305632 0.690670 0.126862
0.319666 0.689996 0.126886
0.340563 0.689018 0.126926
0.357974 0.687753 0.126988
0.381025 0.686233 0.127080
0.404099 0.684501 0.127207
0.422184 0.682608 0.127380
0.444869 0.680611 0.127606
0.467577 0.678568 0.127893
0.489221 0.676534 0.128248
0.511325 0.674563 0.128678
0.530954 0.672705 0.129187
0.549654 0.671003 0.129779
0.568400 0.669493 0.130457
0.585422 0.668205 0.131222
0.597702 0.667161 0.132074
0.609880 0.666377 0.133013
0.621969 0.665860 0.134345
0.633615 0.665614 0.135848
0.644778 0.665635 0.137459
0.655867 0.665916 0.139174
0.666886 0.666444 0.140984
0.677834 0.667205 0.142883
0.688708 0.668183 0.144863
0.699503 0.669361 0.146915
0.708129 0.670995 0.149220
0.716609 0.673643 0.152489
0.724876 0.676301 0.155771
0.732927 0.678956 0.159060
0.740760 0.681599 0.162344
0.748373 0.684221 0.165617
0.313324 0.698829 0.128811
0.315412 0.698737 0.128815
0.322918 0.698409 0.128830
0.336695 0.697817 0.128860
0.351144 0.696957 0.128909
0.367869 0.695841 0.128980
0.391615 0.694495 0.129080
0.409877 0.692953 0.129217
0.427883 0.691259 0.129396
0.450413 0.689459 0.129625
0.471967 0.687604 0.129910
0.493266 0.685743 0.130259
0.515098 0.683922 0.130676
0.533896 0.682187 0.131166
0.552437 0.680576 0.131732
0.571051 0.679124 0.132378
0.587083 0.677859 0.133104
0.599271 0.676805 0.134176
0.611357 0.675978 0.135385
0.623349 0.675389 0.136705
0.634810 0.675044 0.138133
0.645869 0.674942 0.139665
0.656851 0.675081 0.141298
0.667758 0.675453 0.143025
0.678592 0.676046 0.144839
0.689353 0.676849 0.146735
0.700037 0.677847 0.148704
0.708181 0.679024 0.151184
0.715620 0.680432 0.153805
0.723794 0.682902 0.156987
0.731764 0.685377 0.160179
0.739529 0.687848 0.163375
0.747085 0.690306 0.166564
0.330758 0.706076 0.130672
0.332805 0.705996 0.130677
0.340134 0.705709 0.130696
0.348981 0.705189 0.130731
0.361041 0.704434 0.130786
0.378954 0.703450 0.130865
0.399660 0.702260 0.130974
0.415323 0.700891 0.131119
0.433742 0.699379 0.131304
0.455713 0.697765 0.131537
0.476115 0.696090 0.131822
0.497040 0.694396 0.132167
0.518357 0.692727 0.132575
0.536558 0.691121 0.133050
0.554922 0.689614 0.133748
0.573389 0.688238 0.134590
0.588532 0.687020 0.135536
0.600631 0.685982 0.136586
0.612632 0.685143 0.137743
0.624538 0.684513 0.139004
0.635839 0.684102 0.140368
0.646810 0.683912 0.141832
0.657699 0.683943 0.143392
0.668510 0.684190 0.145044
0.679246 0.684645 0.146782
0.689907 0.685300 0.148601
0.700493 0.686143 0.150880
0.708434 0.687162 0.153300
0.715748 0.688342 0.155803
0.722970 0.689673 0.158381
0.730775 0.691885 0.161431
0.738466 0.694190 0.164537
0.745961 0.696488 0.167761
0.345565 0.712915 0.132435
0.346793 0.712845 0.132441
0.351170 0.712594 0.132462
0.359089 0.712139 0.132501
0.371639 0.711476 0.132563
0.389757 0.710611 0.132649
0.405618 0.709561 0.132766
0.420450 0.708349 0.132918
0.439376 0.707005 0.133110
0.460366 0.705562 0.133408
0.480033 0.704057 0.133798
0.500561 0.702527 0.134263
0.521004 0.701007 0.134809
0.538962 0.699534 0.135441
0.557128 0.698139 0.136164
0.575432 0.696852 0.136982
0.589779 0.695698 0.137897
0.601788 0.694698 0.138910
0.613706 0.693870 0.140023
0.625534 0.693228 0.141235
0.636695 0.692779 0.142544
0.647590 0.692531 0.143948
0.658400 0.692483 0.145445
0.669129 0.692634 0.147031
0.679780 0.692980 0.148700
