negative-gold-200/Gold200_Modern_Normal.cube
TITLE "Kodak Gold 200 Modern Normal"
# Adobe RGB in/out. REPLACES AgX. Kodak Gold 200 Modern Normal.
LUT_3D_SIZE 9
DOMAIN_MIN 0.0 0.0 0.0
DOMAIN_MAX 1.0 1.0 1.0
0.078266 0.080889 0.091315
0.110821 0.083206 0.091315
0.339698 0.113356 0.091315
0.587589 0.185263 0.092157
0.749913 0.287815 0.094489
0.839375 0.394479 0.099307
0.892598 0.489871 0.107233
0.921319 0.569662 0.118814
0.937735 0.635438 0.132827
0.078574 0.100454 0.091315
0.092114 0.095485 0.091315
0.261366 0.128509 0.091315
0.537853 0.205232 0.091913
0.729977 0.308732 0.094137
0.828644 0.410533 0.098657
0.887610 0.501148 0.106444
0.919441 0.579573 0.118011
0.936369 0.641980 0.132042
0.092169 0.300624 0.091315
0.128519 0.256363 0.091315
0.235001 0.213787 0.091315
0.445750 0.269272 0.091711
0.671131 0.365293 0.093570
0.797522 0.460728 0.097530
0.872523 0.537865 0.104452
0.912979 0.610955 0.115704
0.931939 0.664111 0.129693
0.128090 0.530257 0.091860
0.175658 0.501160 0.091820
0.296464 0.443200 0.091859
0.436897 0.414326 0.092296
0.612928 0.456659 0.093547
0.758481 0.525886 0.096984
0.847360 0.597339 0.103380
0.899393 0.651935 0.113728
0.925412 0.700632 0.127391
0.182481 0.686607 0.093448
0.226738 0.672023 0.093425
0.344424 0.635670 0.093456
0.482011 0.604196 0.093756
0.614947 0.591449 0.094898
0.733824 0.614958 0.097474
0.824546 0.660560 0.103364
0.884653 0.704430 0.113040
0.918527 0.733562 0.126094
0.240540 0.770325 0.096007
0.278341 0.764352 0.096009
0.385345 0.747367 0.096140
0.518462 0.728309 0.096687
0.643199 0.716078 0.097891
0.737175 0.714358 0.100641
0.811088 0.724467 0.104711
0.873764 0.748970 0.114137
0.912064 0.773127 0.126642
0.295357 0.829368 0.099927
0.325434 0.827195 0.099989
0.419013 0.820540 0.100294
0.541421 0.806234 0.101095
0.661233 0.794486 0.102612
0.746026 0.789054 0.105156
0.813379 0.790987 0.110538
0.867239 0.799463 0.117744
0.905840 0.818676 0.129354
0.341943 0.859976 0.104223
0.367843 0.858723 0.104317
0.447301 0.854769 0.104738
0.557535 0.849302 0.106136
0.669549 0.844224 0.108521
0.750874 0.841141 0.112025
0.815705 0.840927 0.117256
0.867653 0.843663 0.125056
0.901729 0.848871 0.135390
0.382606 0.883910 0.109969
0.404203 0.883223 0.110170
0.471267 0.881019 0.110917
0.568811 0.877869 0.112376
0.673050 0.874820 0.114688
0.751515 0.872899 0.119051
0.815099 0.872795 0.124901
0.866556 0.874760 0.132811
0.900091 0.878676 0.143706
0.078266 0.081194 0.109154
0.116898 0.087254 0.110266
0.341257 0.118294 0.112162
0.574972 0.185272 0.113784
0.741338 0.283683 0.119732
0.833667 0.389973 0.127868
0.889821 0.486745 0.139066
0.920273 0.567204 0.152014
0.936998 0.634092 0.166684
0.078624 0.099172 0.098319
0.085850 0.089696 0.092967
0.248260 0.127302 0.099518
0.521659 0.201152 0.106904
0.718109 0.302263 0.114886
0.822845 0.405176 0.124950
0.884823 0.497707 0.136564
0.918398 0.576957 0.150049
0.935638 0.640579 0.165018
0.091019 0.279528 0.108951
0.119828 0.232123 0.101576
0.209009 0.193453 0.096111
0.420897 0.253231 0.099475
0.658093 0.354583 0.106980
0.790109 0.453233 0.117439
0.869654 0.533493 0.129747
0.911757 0.608614 0.144591
0.931229 0.662556 0.160402
0.124247 0.511836 0.111902
0.168076 0.483909 0.108014
0.281234 0.422862 0.102080
0.417340 0.395526 0.100072
0.597522 0.443710 0.103294
0.751724 0.518329 0.112050
0.843478 0.592102 0.123998
0.897579 0.649295 0.138448
0.924751 0.699168 0.154754
0.179071 0.677227 0.114423
0.221951 0.662924 0.112714
0.336491 0.626921 0.108548
0.471152 0.592874 0.105459
0.603948 0.581283 0.105753
0.728016 0.609510 0.110754
0.821363 0.656627 0.121099
0.883101 0.702622 0.134363
0.917954 0.732443 0.150330
0.238139 0.766483 0.118138
0.275320 0.760576 0.117080
0.380826 0.743718 0.114496
0.512535 0.724725 0.112758
0.636883 0.712637 0.112771
0.733646 0.711357 0.115130
0.808909 0.722416 0.121880
0.872566 0.747513 0.133881
0.911537 0.772193 0.148891
0.293925 0.827993 0.122338
0.323700 0.825838 0.121909
0.416702 0.818333 0.120779
0.538715 0.804118 0.119933
0.658866 0.792470 0.120518
0.744029 0.787224 0.123243
0.811915 0.789480 0.128240
0.866486 0.798507 0.136969
0.905296 0.818061 0.150994
0.341129 0.859214 0.126421
0.366893 0.857972 0.126325
0.446080 0.854051 0.126157
0.556133 0.848626 0.126411
0.668339 0.843598 0.127722
0.749853 0.840575 0.130925
0.814940 0.840465 0.136817
0.867211 0.843344 0.145144
0.901429 0.848701 0.156502
0.382290 0.883531 0.130286
0.403860 0.882851 0.130404
0.470754 0.880669 0.130920
0.568207 0.877553 0.132195
0.672526 0.874549 0.134673
0.751086 0.872682 0.138831
0.814795 0.872648 0.144903
0.866401 0.874700 0.153583
0.900020 0.878712 0.164880
0.079089 0.092649 0.368776
0.122294 0.101227 0.370850
0.359036 0.140798 0.378297
0.599231 0.214964 0.358926
0.740968 0.300913 0.327087
0.829150 0.396360 0.317317
0.886173 0.488093 0.315817
0.918484 0.566807 0.318311
0.935509 0.633385 0.323058
0.081806 0.133623 0.370601
0.127281 0.141993 0.359818
0.308750 0.165510 0.306491
0.536001 0.223679 0.294984
0.714637 0.314616 0.296086
0.817554 0.409071 0.300262
0.880959 0.497926 0.305602
0.916565 0.575935 0.311694
0.934136 0.639620 0.318534
0.089096 0.239291 0.258153
0.111479 0.209783 0.208208
0.166026 0.162546 0.139322
0.400629 0.247383 0.185611
0.640556 0.350854 0.222842
0.780400 0.449201 0.251519
0.864401 0.530161 0.273129
0.909208 0.606342 0.290149
0.929699 0.660814 0.304307
0.118910 0.475695 0.281783
0.154657 0.450179 0.252312
0.253533 0.387932 0.197189
0.376228 0.360273 0.166611
0.569330 0.422868 0.183310
0.739033 0.506857 0.211727
0.835748 0.584099 0.237500
0.893671 0.645127 0.261939
0.923215 0.696413 0.282844
0.171954 0.655237 0.282523
0.211650 0.642139 0.267414
0.319165 0.607897 0.230001
0.446523 0.568271 0.199971
0.577719 0.558203 0.186172
0.713061 0.595563 0.194919
0.813863 0.648358 0.216671
0.879320 0.698281 0.239585
0.916507 0.730158 0.263244
0.232492 0.756455 0.273215
0.268043 0.750846 0.265455
0.369672 0.734607 0.243578
0.497678 0.715920 0.220846
0.620547 0.703912 0.206764
0.722156 0.703559 0.202423
0.802520 0.717411 0.209696
0.869357 0.743990 0.228858
0.910101 0.769995 0.250857
0.290074 0.824144 0.261281
0.319220 0.822067 0.257340
0.410542 0.812328 0.245538
0.531385 0.798465 0.231435
0.650906 0.787092 0.220794
0.738396 0.782283 0.216474
0.807708 0.785374 0.218533
0.863476 0.796034 0.227255
0.903733 0.816520 0.246774
0.339015 0.856984 0.249197
0.364364 0.855783 0.247323
0.442691 0.851983 0.241550
0.552153 0.846714 0.234397
0.664850 0.841846 0.228723
0.746857 0.838995 0.226602
0.812671 0.839176 0.229258
0.865705 0.842468 0.236878
0.900523 0.848272 0.249905
0.381535 0.882391 0.237655
0.402996 0.881736 0.237002
0.469346 0.879632 0.235018
0.566467 0.876635 0.232603
0.670985 0.873774 0.231225
0.749805 0.872080 0.232277
0.813879 0.872260 0.236711
0.865776 0.874577 0.245532
0.899811 0.878889 0.258681
0.083988 0.122934 0.646887
0.134872 0.134879 0.647765
0.369767 0.182566 0.650912
0.637844 0.274997 0.656672
0.762356 0.354616 0.607962
0.835934 0.430081 0.567931
0.886935 0.505296 0.546517
0.917945 0.577676 0.532821
0.934617 0.638585 0.523045
0.087998 0.174085 0.647660
0.142988 0.187690 0.648537
0.376556 0.236267 0.651681
0.604253 0.302807 0.619895
0.738346 0.363073 0.573224
0.823497 0.440032 0.549792
0.881401 0.513638 0.535677
0.915855 0.585862 0.525938
0.933205 0.644373 0.518469
0.095581 0.278957 0.541348
0.128456 0.267987 0.517742
0.257848 0.264461 0.472902
0.455452 0.311415 0.470542
0.660762 0.385113 0.485292
0.783585 0.468605 0.496207
0.863294 0.540973 0.501636
0.907450 0.611523 0.503018
0.928633 0.664111 0.502015
0.117035 0.448346 0.504365
0.148189 0.427216 0.478014
0.239236 0.374929 0.411136
0.334063 0.328724 0.317641
0.559350 0.424356 0.387846
0.734038 0.509957 0.430834
0.831646 0.586692 0.454029
0.891011 0.646560 0.468308
0.921954 0.697551 0.476623
0.166092 0.632151 0.510014
0.202373 0.621110 0.494225
0.303052 0.586043 0.452203
0.421980 0.545866 0.403202
0.548815 0.534653 0.364488
0.698813 0.584423 0.385812
0.807121 0.643692 0.418781
0.875818 0.695867 0.438390
0.914844 0.729466 0.452441
0.226968 0.744428 0.501451
0.260503 0.739398 0.492663
0.357507 0.724496 0.467460
0.481161 0.706525 0.435764
0.601488 0.691737 0.408940
0.707383 0.692326 0.390797
0.794197 0.712705 0.399541
0.865474 0.741044 0.420128
0.907696 0.768488 0.434972
0.286008 0.818202 0.484281
0.314300 0.814972 0.479597
0.403314 0.804997 0.464974
0.522544 0.791861 0.444981
0.639228 0.780916 0.426200
0.731084 0.776551 0.413230
0.801293 0.780576 0.408101
0.859603 0.793606 0.412937
0.901767 0.815234 0.425993
0.336864 0.853995 0.463683
0.361612 0.852873 0.461168
0.438628 0.849307 0.453109
0.547145 0.844333 0.441530
0.660351 0.839705 0.429871
0.742910 0.837127 0.421192
0.809615 0.837676 0.417277
0.863085 0.841507 0.418420
0.899325 0.847966 0.423811
0.381062 0.880838 0.441769
0.402287 0.880226 0.440542
0.467801 0.878263 0.436567
0.564316 0.875473 0.430759
0.668994 0.872851 0.424866
0.748100 0.871418 0.420647
0.812648 0.871907 0.419338
0.864868 0.874602 0.421451
0.899553 0.879349 0.426815
0.094545 0.182496 0.821687
0.154392 0.196419 0.821979
0.385629 0.245543 0.823028
0.646747 0.337792 0.824947
0.794916 0.438953 0.819030
0.852171 0.485624 0.777022
0.892634 0.540725 0.741616
0.919197 0.602708 0.714770
0.934855 0.651790 0.694952
0.100588 0.236194 0.821944
0.163395 0.250898 0.822236
0.392351 0.302917 0.823284
0.650515 0.384828 0.825202
0.771594 0.445086 0.796537
0.839561 0.492003 0.761443
0.886916 0.547762 0.729396
0.917115 0.608833 0.706961
0.933396 0.657031 0.689770
0.120133 0.400877 0.809354
0.179339 0.397587 0.799404
0.351307 0.396829 0.774438
0.544962 0.416351 0.742335
0.701736 0.460309 0.718808
0.801839 0.510932 0.703598
0.869019 0.570464 0.692280
0.909095 0.627144 0.682504
0.928653 0.674945 0.671706
0.125103 0.467855 0.692466
0.160724 0.458492 0.678860
0.271366 0.434505 0.631208
0.421575 0.434357 0.597245
0.600432 0.479124 0.602493
0.745543 0.540475 0.620119
0.835344 0.607061 0.632867
0.891469 0.657570 0.638763
0.921655 0.703758 0.639219
0.165629 0.618376 0.673491
0.199464 0.609882 0.658939
0.296401 0.579163 0.615744
0.411532 0.541875 0.562533
0.521313 0.514930 0.517156
0.695138 0.590062 0.552922
0.805491 0.649346 0.578691
0.874541 0.700705 0.596499
0.914003 0.732361 0.606665
0.223938 0.733772 0.666810
0.255484 0.729514 0.657822
0.348098 0.716556 0.630012
0.467782 0.699712 0.592489
0.584472 0.681079 0.559683
0.692492 0.681056 0.542258
0.787333 0.710559 0.552536
0.861564 0.740840 0.569383
0.905784 0.769307 0.581908
0.283363 0.809928 0.650511
0.310628 0.807085 0.645192
0.396961 0.798189 0.628235
0.513018 0.786174 0.604014
0.628174 0.775831 0.579727
0.721837 0.771634 0.562799
0.793995 0.776449 0.555052
0.855939 0.792417 0.558821
0.899968 0.815231 0.569044
0.335695 0.850894 0.626747
0.359741 0.849885 0.623715
0.435117 0.846661 0.613844
0.542402 0.842126 0.599152
0.655928 0.837857 0.583434
0.738913 0.835588 0.571121
0.806423 0.836494 0.563717
0.860321 0.840883 0.561684
0.898324 0.848324 0.564541
0.381523 0.879232 0.598966
0.402354 0.878683 0.597362
0.466832 0.876918 0.592076
0.562455 0.874420 0.584032
0.667103 0.872120 0.575603
0.746423 0.871015 0.568585
0.811420 0.871861 0.564208
0.863982 0.874984 0.563142
0.899354 0.880230 0.565209
0.114545 0.268957 0.902528
0.182644 0.283470 0.902648
0.405887 0.332785 0.903077
0.657655 0.410636 0.903864
0.808108 0.506384 0.905035
0.870336 0.553308 0.882202
0.901496 0.592435 0.857646
0.921921 0.632666 0.836966
0.936194 0.673066 0.815265
0.120986 0.325000 0.902634
0.191331 0.337239 0.902753
0.411811 0.380037 0.903182
0.660207 0.454620 0.903969
0.805733 0.532838 0.902475
0.859990 0.558378 0.873236
0.895815 0.598332 0.851795
0.919815 0.637366 0.830673
0.934704 0.677748 0.811015
0.149923 0.481905 0.903011
0.221994 0.490393 0.903131
0.432766 0.520130 0.903559
0.622301 0.524491 0.882754
0.745402 0.541436 0.862313
0.823525 0.573508 0.845985
0.878024 0.614495 0.826552
0.912392 0.653078 0.810553
0.929830 0.693777 0.797179
0.153290 0.538233 0.846390
0.198541 0.534849 0.841455
0.331631 0.528742 0.824699
0.502018 0.533093 0.807027
0.663356 0.556550 0.795645
0.770302 0.597073 0.789779
0.846850 0.637697 0.785876
0.895429 0.679263 0.781741
0.922538 0.714349 0.776645
0.176311 0.626795 0.796132
0.210021 0.621474 0.790102
0.310461 0.606433 0.771808
0.441066 0.588024 0.740128
0.581575 0.592825 0.720709
0.717821 0.627407 0.725425
0.812703 0.671303 0.737061
0.876844 0.711283 0.745234
0.914462 0.739964 0.748497
0.226022 0.728273 0.784407
0.256040 0.724918 0.779960
0.345634 0.714498 0.764535
0.463810 0.700373 0.733906
0.578433 0.682206 0.702027
0.678594 0.672495 0.674486
0.786231 0.714916 0.697282
0.861162 0.745740 0.712830
0.905356 0.773770 0.722280
0.283511 0.803514 0.775909
0.309636 0.801122 0.773067
0.392872 0.793539 0.761701
0.506464 0.783000 0.741112
0.620156 0.773420 0.718932
0.714089 0.768802 0.700478
0.787069 0.773608 0.691263
0.853204 0.793318 0.697447
0.898811 0.817348 0.706584
0.336285 0.848225 0.761210
0.359589 0.847352 0.758658
0.433078 0.844552 0.750237
0.538864 0.840553 0.737346
0.650947 0.836772 0.722948
0.735512 0.834816 0.710200
0.802974 0.835971 0.701638
0.857752 0.840862 0.698510
0.897541 0.849377 0.700938
0.383401 0.877870 0.737634
0.403657 0.877396 0.736208
0.466972 0.875876 0.731460
0.561401 0.873737 0.724069
0.665718 0.871829 0.715638
0.745101 0.871100 0.707981
0.810432 0.872319 0.702582
0.863310 0.875876 0.700230
0.899304 0.881641 0.700802
0.145159 0.372230 0.949716
0.217267 0.383936 0.949758
0.429528 0.425078 0.949907
0.667851 0.489645 0.950182
0.812404 0.569538 0.950592
0.883263 0.626391 0.944256
0.910725 0.643731 0.924551
0.925422 0.669801 0.901919
0.938288 0.700913 0.884340
0.153617 0.417906 0.949753
0.225682 0.429188 0.949794
0.435296 0.466892 0.949944
0.670343 0.522375 0.950219
0.813459 0.599693 0.950628
0.875670 0.629268 0.939917
0.905798 0.647391 0.918577
0.923346 0.673823 0.897828
0.936794 0.703736 0.881470
0.185519 0.546666 0.949884
0.255262 0.554581 0.949926
0.455723 0.582442 0.950076
0.678636 0.624684 0.950177
0.779052 0.626205 0.937616
0.845222 0.638069 0.918163
0.888465 0.659253 0.899588
0.916605 0.687332 0.884558
0.931877 0.713348 0.871999
0.200261 0.629012 0.928880
0.251138 0.627597 0.925938
0.397638 0.624676 0.916841
0.568025 0.625361 0.904432
0.708194 0.634254 0.892078
0.798605 0.652535 0.881402
0.862522 0.678647 0.872425
0.901904 0.706846 0.864689
0.924418 0.729540 0.857611
0.202442 0.663511 0.878089
0.238398 0.660965 0.875546
0.347034 0.654386 0.867785
0.493149 0.650393 0.857921
0.639407 0.656916 0.850131
0.747882 0.676992 0.846178
0.826746 0.704970 0.844669
0.882320 0.728442 0.842914
0.916242 0.752373 0.840001
0.236710 0.732370 0.858082
0.266159 0.730064 0.855772
0.355509 0.722972 0.848298
0.477612 0.714003 0.832975
0.600886 0.708369 0.815625
0.710938 0.713576 0.806453
0.798718 0.733063 0.808991
0.866272 0.758006 0.814421
0.906960 0.782807 0.817736
0.288111 0.801016 0.849951
0.313007 0.799119 0.848297
0.394036 0.793052 0.841718
0.505945 0.784470 0.828049
0.619111 0.776377 0.812486
0.712110 0.771669 0.798014
0.780913 0.772405 0.786802
0.853239 0.798493 0.796572
0.898952 0.821876 0.802856
0.339419 0.846549 0.840577
0.362007 0.845827 0.838877
0.433447 0.843500 0.833182
0.537497 0.840142 0.824246
0.648234 0.836952 0.813890
0.733454 0.835313 0.804193
0.800261 0.836470 0.797057
0.855598 0.841600 0.794249
0.897138 0.851294 0.796881
0.387127 0.877029 0.824521
0.406606 0.876638 0.823525
0.468691 0.875390 0.820183
0.561602 0.873656 0.814898
0.665187 0.872190 0.808718
0.744415 0.871864 0.802909
0.809884 0.873441 0.798598
0.863005 0.877392 0.796510
0.899477 0.883666 0.796661
0.188414 0.476261 0.974011
0.257954 0.484814 0.974020
0.457596 0.514763 0.974055
0.680038 0.567558 0.974118
0.817558 0.632614 0.974212
0.893838 0.690341 0.973544
0.916413 0.696510 0.959175
0.929008 0.708342 0.946552
0.940660 0.723292 0.936075
0.197037 0.509556 0.974019
0.265989 0.517745 0.974029
0.463194 0.546725 0.974063
0.682475 0.597777 0.974126
0.818593 0.653545 0.974221
0.886920 0.692252 0.970147
0.913165 0.699399 0.956492
0.927002 0.710643 0.944492
0.939210 0.725698 0.934507
0.227551 0.616646 0.974049
0.294281 0.622190 0.974059
0.482999 0.641583 0.974093
0.691125 0.675595 0.974157
0.806473 0.696760 0.970022
0.864464 0.698345 0.958217
0.898609 0.706113 0.947235
0.920443 0.718300 0.937726
0.934337 0.733971 0.924798
0.256708 0.705096 0.967007
0.309294 0.704117 0.965756
0.456609 0.701489 0.961665
0.624704 0.699086 0.955453
0.744006 0.700542 0.947822
0.820925 0.706385 0.940319
0.874847 0.716933 0.932354
0.909360 0.731267 0.920328
0.926856 0.748220 0.909624
0.242010 0.712677 0.938576
0.280198 0.711854 0.937651
0.395087 0.709773 0.934689
0.543844 0.708797 0.926272
0.680980 0.711782 0.917393
0.774025 0.720070 0.909672
0.842675 0.733294 0.903314
0.889443 0.749992 0.897800
0.918501 0.768564 0.892524
0.258752 0.748485 0.909808
0.288683 0.747183 0.908116
0.380034 0.743359 0.902649
0.507964 0.739287 0.894741
0.637848 0.738676 0.886932
0.738714 0.744764 0.881494
0.814613 0.758084 0.878973
0.872584 0.776140 0.877982
0.910129 0.796085 0.876924
0.298758 0.804644 0.895161
0.322905 0.803281 0.893772
0.402565 0.798955 0.889149
0.514841 0.793011 0.881930
0.629839 0.788041 0.873636
0.723981 0.787241 0.866402
0.797325 0.794789 0.862853
0.859379 0.811988 0.863776
0.900952 0.827581 0.865428
0.346014 0.846481 0.886024
0.367980 0.845917 0.885072
0.437308 0.844097 0.881842
0.539459 0.841496 0.876661
0.649576 0.839059 0.870492
0.734021 0.837942 0.864461
0.800300 0.839105 0.859567
0.854023 0.843184 0.856519
0.897557 0.854536 0.859542
0.393170 0.876986 0.876214
0.411612 0.876682 0.875628
0.472465 0.875716 0.873652
0.563516 0.874411 0.870488
0.665872 0.873416 0.866719
0.744669 0.873508 0.863085
0.810011 0.875409 0.860295
0.863230 0.879651 0.858887
0.899941 0.886374 0.859045
0.237981 0.569363 0.980449
0.303303 0.577078 0.980455
0.489789 0.604270 0.980477
0.694108 0.640891 0.980517
0.823589 0.691117 0.980577
0.901242 0.735293 0.980657
0.920325 0.734074 0.976462
0.932189 0.738285 0.970621
0.942120 0.747353 0.959822
0.246208 0.599523 0.980455
0.310424 0.606620 0.980461
0.495167 0.626628 0.980482
0.696472 0.661522 0.980522
0.824610 0.706891 0.980582
0.895538 0.736832 0.979757
0.917785 0.735496 0.975735
0.930276 0.740123 0.968750
0.941270 0.749410 0.958455
0.275114 0.676756 0.980474
0.335988 0.681722 0.980480
0.514256 0.699229 0.980501
0.704861 0.720310 0.980541
0.823395 0.743353 0.980085
0.875784 0.739167 0.976600
0.907361 0.740295 0.972602
0.923986 0.746410 0.962567
0.936777 0.756536 0.953783
0.316050 0.754786 0.979787
0.367588 0.753653 0.979449
0.511813 0.750229 0.978314
0.668082 0.746053 0.976503
0.769452 0.743410 0.974218
0.838836 0.744071 0.967831
0.884624 0.748771 0.960112
0.914058 0.757320 0.952891
0.929385 0.768977 0.946072
0.289683 0.753098 0.967412
0.327055 0.752515 0.966669
0.441982 0.750916 0.964196
0.587891 0.749609 0.960317
0.713218 0.750390 0.955710
0.797103 0.754542 0.950650
0.857644 0.762404 0.945813
0.896703 0.773526 0.941330
0.920979 0.787082 0.937142
0.291261 0.773779 0.948065
0.320072 0.773106 0.947433
0.413439 0.771211 0.945354
0.541863 0.769512 0.942199
0.669424 0.770155 0.938703
0.759512 0.774833 0.935520
0.828597 0.783997 0.931200
0.879446 0.796862 0.926900
0.912759 0.811990 0.922837
0.316548 0.815661 0.936836
0.340793 0.814815 0.936287
0.419143 0.812203 0.934221
0.531888 0.808949 0.928612
0.650625 0.807158 0.922128
0.739885 0.809193 0.916463
0.810754 0.816724 0.912754
0.867415 0.825861 0.910925
0.904176 0.835126 0.909788
0.357061 0.848605 0.926557
0.378567 0.848201 0.925725
0.445782 0.846912 0.922918
0.545905 0.845138 0.918409
0.656204 0.843695 0.913005
0.738528 0.843565 0.907733
0.806040 0.845750 0.903662
0.860713 0.851276 0.901879
0.899456 0.859795 0.902120
0.401514 0.878005 0.916223
0.419091 0.877785 0.915696
0.478761 0.877102 0.913913
0.567605 0.876229 0.911034
0.668138 0.875721 0.907563
0.746197 0.876253 0.904160
0.811130 0.878470 0.901477
0.864304 0.882883 0.900048
0.900757 0.889782 0.900236
