negative-gold-200/Gold200_Classic_Punchy.cube
TITLE "Kodak Gold 200 Classic Punchy"
# Adobe RGB in/out. REPLACES AgX. Kodak Gold 200 Classic Punchy.
LUT_3D_SIZE 33
DOMAIN_MIN 0.0 0.0 0.0
DOMAIN_MAX 1.0 1.0 1.0
0.072541 0.084015 0.079839
0.075914 0.084442 0.080218
0.077370 0.084585 0.080301
0.086825 0.085137 0.080594
0.118015 0.086152 0.080874
0.136855 0.086701 0.081203
0.191850 0.087917 0.081871
0.277541 0.089692 0.082669
0.329246 0.090677 0.083068
0.403828 0.092108 0.083837
0.504321 0.094485 0.084958
0.561389 0.095933 0.085733
0.608382 0.097129 0.086416
0.656835 0.100186 0.087367
0.693309 0.104078 0.088744
0.719693 0.106730 0.089576
0.742872 0.109403 0.090354
0.760325 0.112521 0.091262
0.773453 0.116747 0.093183
0.785229 0.118834 0.094725
0.795113 0.120983 0.096403
0.803440 0.123822 0.098511
0.811373 0.127059 0.101106
0.819088 0.127307 0.103330
0.824829 0.127853 0.106555
0.829947 0.127391 0.111440
0.836424 0.120958 0.119046
0.840152 0.122414 0.154791
0.848989 0.141337 0.397039
0.848988 0.141314 0.397007
0.848988 0.141313 0.397005
0.848988 0.141313 0.397004
0.853111 0.237229 0.526487
0.072878 0.085380 0.080107
0.074456 0.085376 0.080267
0.078863 0.084867 0.080260
0.089684 0.085364 0.080643
0.118879 0.086521 0.080945
0.135620 0.086976 0.081297
0.187169 0.088142 0.081935
0.269190 0.089968 0.082736
0.321033 0.090958 0.083116
0.395588 0.092330 0.083892
0.496699 0.094724 0.084998
0.556428 0.096132 0.085775
0.604229 0.097447 0.086450
0.654373 0.100530 0.087405
0.691542 0.104390 0.088776
0.718319 0.107101 0.089603
0.741815 0.109743 0.090376
0.759787 0.112877 0.091282
0.773058 0.117093 0.093220
0.784936 0.119159 0.094756
0.794898 0.121340 0.096429
0.803283 0.124333 0.098536
0.811259 0.127558 0.101122
0.819008 0.127792 0.103336
0.824773 0.128321 0.106540
0.829909 0.127838 0.111384
0.836396 0.121211 0.118802
0.840126 0.122431 0.153209
0.848989 0.141338 0.397040
0.848988 0.141314 0.397007
0.848988 0.141313 0.397005
0.848988 0.141313 0.397004
0.853111 0.237230 0.526486
0.073028 0.085991 0.080193
0.073327 0.086084 0.080374
0.075404 0.085990 0.080424
0.083547 0.086673 0.080767
0.103049 0.087899 0.081261
0.124121 0.088058 0.081530
0.171242 0.089469 0.082167
0.246447 0.091433 0.082990
0.294852 0.092043 0.083366
0.366986 0.093356 0.084096
0.468898 0.095621 0.085143
0.537848 0.096910 0.085927
0.588545 0.098897 0.086575
0.642887 0.101806 0.087543
0.684814 0.105716 0.088891
0.713096 0.108468 0.089700
0.737810 0.110990 0.090459
0.757752 0.114214 0.091352
0.771569 0.118359 0.093355
0.783835 0.120349 0.094870
0.794091 0.122646 0.096522
0.802696 0.126205 0.098628
0.810837 0.129385 0.101185
0.818711 0.129569 0.103362
0.824567 0.130038 0.106494
0.829765 0.129479 0.111196
0.836292 0.122158 0.117986
0.840034 0.122575 0.147801
0.848989 0.141339 0.397042
0.848988 0.141314 0.397007
0.848988 0.141313 0.397005
0.848988 0.141314 0.397004
0.853111 0.237232 0.526486
0.073904 0.088915 0.080518
0.074208 0.089054 0.080634
0.075795 0.089196 0.080786
0.079181 0.088971 0.080930
0.090820 0.091051 0.081692
0.103808 0.090494 0.081881
0.135677 0.091845 0.082545
0.198013 0.093768 0.083382
0.249397 0.094161 0.083791
0.319546 0.095310 0.084449
0.419917 0.097836 0.085481
0.496962 0.100097 0.086220
0.556912 0.101795 0.086812
0.616509 0.104323 0.087806
0.670683 0.108687 0.089110
0.702194 0.111132 0.089885
0.729492 0.113533 0.090616
0.753547 0.116795 0.091485
0.768518 0.120794 0.093611
0.781591 0.122916 0.095086
0.792457 0.125899 0.096701
0.801515 0.129807 0.098807
0.809992 0.132896 0.101312
0.818118 0.132981 0.103423
0.824156 0.133338 0.106440
0.829480 0.132652 0.110905
0.836091 0.124257 0.116697
0.839866 0.123188 0.139030
0.848989 0.141344 0.397048
0.848988 0.141315 0.397008
0.848988 0.141313 0.397006
0.848988 0.141316 0.397004
0.853111 0.237233 0.526485
0.075674 0.095283 0.080873
0.075949 0.095438 0.081023
0.077239 0.095847 0.081389
0.080383 0.095791 0.081775
0.086677 0.095467 0.082176
0.095002 0.094216 0.082328
0.114291 0.095402 0.082935
0.153305 0.097071 0.083920
0.196019 0.096966 0.084287
0.261171 0.098488 0.084876
0.360486 0.102723 0.086004
0.437340 0.104379 0.086646
0.510727 0.106039 0.087257
0.574285 0.109215 0.088208
0.640836 0.113825 0.089453
0.682239 0.115984 0.090174
0.714298 0.118092 0.090860
0.743028 0.121005 0.091828
0.763040 0.126177 0.094012
0.777603 0.128915 0.095428
0.789586 0.131925 0.096987
0.799465 0.135606 0.099098
0.808538 0.138533 0.101528
0.817103 0.138460 0.103551
0.823458 0.138645 0.106428
0.828999 0.137786 0.110589
0.835755 0.129013 0.115222
0.839614 0.125540 0.131949
0.848990 0.141352 0.397059
0.848988 0.141316 0.397009
0.848988 0.141313 0.397006
0.848989 0.141339 0.397004
0.853111 0.237233 0.526485
0.076440 0.099245 0.081222
0.076644 0.099398 0.081365
0.077659 0.100377 0.081623
0.079768 0.100682 0.082041
0.084158 0.100278 0.082371
0.090457 0.099667 0.082831
0.103884 0.101965 0.083508
0.129229 0.105089 0.084585
0.157417 0.103769 0.084798
0.206355 0.104786 0.085341
0.292646 0.109303 0.086525
0.369668 0.110972 0.087210
0.445337 0.112295 0.087860
0.527768 0.115182 0.088728
0.600116 0.119724 0.089882
0.655494 0.122056 0.090547
0.691479 0.125118 0.091192
0.723371 0.130602 0.092396
0.753332 0.136607 0.094593
0.770618 0.138613 0.095925
0.784640 0.141317 0.097406
0.795996 0.145087 0.099536
0.806112 0.148143 0.101871
0.815425 0.147778 0.103789
0.822316 0.147699 0.106537
0.828218 0.146471 0.110366
0.835215 0.136531 0.113942
0.839250 0.131046 0.125699
0.848991 0.141369 0.397080
0.848988 0.141318 0.397012
0.848988 0.141314 0.397008
0.852607 0.207355 0.397005
0.853111 0.237233 0.526484
0.078355 0.111393 0.081933
0.078500 0.111513 0.082022
0.079375 0.112522 0.082392
0.081558 0.113447 0.082798
0.085210 0.113477 0.083217
0.090456 0.112768 0.083739
0.099682 0.111991 0.084290
0.118452 0.116343 0.085235
0.136699 0.113372 0.085445
0.172393 0.113886 0.086031
0.238064 0.118568 0.087206
0.306237 0.119763 0.087944
0.377185 0.120233 0.088467
0.462471 0.122899 0.089276
0.550881 0.130232 0.090395
0.610926 0.133862 0.091023
0.665121 0.136157 0.091645
0.703705 0.140795 0.093167
0.737533 0.148506 0.095284
0.761074 0.151746 0.096556
0.776627 0.155759 0.098021
0.789903 0.160010 0.100170
0.801937 0.162518 0.102391
0.812575 0.161714 0.104197
0.820408 0.161199 0.106868
0.826924 0.159694 0.110386
0.834322 0.149422 0.113318
0.838690 0.141323 0.121122
0.848993 0.141411 0.397131
0.848988 0.141322 0.397018
0.848988 0.141316 0.397011
0.852609 0.207394 0.397006
0.853111 0.237234 0.526484
0.080913 0.131605 0.082818
0.081115 0.131789 0.082904
0.082218 0.133832 0.083269
0.084096 0.135519 0.083853
0.086883 0.136351 0.084389
0.092379 0.135930 0.084954
0.100233 0.134537 0.085438
0.112457 0.133015 0.086035
0.124745 0.126437 0.086194
0.150997 0.126237 0.086732
0.200972 0.133793 0.088049
0.256025 0.134346 0.088692
0.317354 0.134020 0.089158
0.397608 0.137378 0.089903
0.495235 0.145314 0.090944
0.562834 0.148038 0.091503
0.624200 0.150700 0.092518
0.675552 0.156312 0.094127
0.715186 0.163847 0.096141
0.749001 0.165646 0.097298
0.768843 0.168578 0.098843
0.784001 0.173109 0.100901
0.796962 0.177526 0.103052
0.808397 0.179022 0.104793
0.816985 0.181193 0.107552
0.824638 0.179389 0.110821
0.832711 0.170162 0.113614
0.837714 0.160891 0.119210
0.849002 0.141580 0.397308
0.848989 0.141337 0.397038
0.848988 0.141322 0.397019
0.852609 0.207397 0.397010
0.853111 0.237234 0.526484
0.082458 0.146348 0.083231
0.082606 0.146497 0.083330
0.083335 0.147961 0.083704
0.084823 0.150355 0.084234
0.087005 0.152006 0.084753
0.091091 0.152224 0.085224
0.097760 0.151389 0.085851
0.106096 0.149703 0.086376
0.119320 0.148036 0.086897
0.138376 0.147061 0.087562
0.178524 0.155937 0.088894
0.219777 0.155283 0.089455
0.271733 0.153624 0.089878
0.340871 0.156325 0.090546
0.432827 0.164100 0.091556
0.512378 0.165850 0.092530
0.575480 0.167903 0.093644
0.641173 0.172780 0.095153
0.690291 0.180040 0.097079
0.726830 0.182525 0.098267
0.756140 0.186704 0.099888
0.775364 0.190835 0.101811
0.791176 0.195236 0.103837
0.804577 0.195933 0.105580
0.814455 0.197846 0.108275
0.822390 0.199925 0.111440
0.830596 0.195756 0.114630
0.835936 0.192560 0.119857
0.849245 0.145996 0.399335
0.848998 0.141513 0.397242
0.848990 0.141361 0.397074
0.852609 0.207400 0.397026
0.853111 0.237234 0.526484
0.084488 0.169484 0.084044
0.084602 0.169603 0.084118
0.085125 0.170639 0.084396
0.086308 0.173194 0.084853
0.088304 0.175138 0.085357
0.092160 0.176199 0.085965
0.097671 0.175865 0.086548
0.104676 0.174622 0.087139
0.115959 0.172943 0.087792
0.130424 0.171349 0.088418
0.162731 0.180648 0.089687
0.196972 0.179117 0.090226
0.237778 0.176034 0.090575
0.297144 0.177737 0.091209
0.379075 0.185283 0.092781
0.452484 0.186220 0.093817
0.527940 0.187548 0.094849
0.594751 0.192800 0.096262
0.660809 0.202759 0.098210
0.701654 0.205389 0.099499
0.739161 0.208192 0.100960
0.764618 0.214596 0.102823
0.782449 0.221781 0.104791
0.798294 0.222727 0.106743
0.810423 0.223113 0.109235
0.819809 0.224067 0.112176
0.829023 0.218510 0.115204
0.834985 0.213761 0.119772
0.841020 0.202304 0.126418
0.845351 0.192183 0.148689
0.851073 0.192035 0.356015
0.852618 0.207930 0.400020
0.853111 0.237234 0.526484
0.087193 0.210490 0.085138
0.087296 0.210653 0.085194
0.087840 0.211843 0.085459
0.089240 0.216272 0.085995
0.091715 0.219484 0.086564
0.095383 0.221239 0.087224
0.100184 0.221815 0.087974
0.107282 0.220687 0.088665
0.117744 0.218561 0.089288
0.131380 0.215995 0.089893
0.152909 0.213789 0.090478
0.181493 0.210276 0.090949
0.213990 0.204748 0.091284
0.264369 0.205902 0.092141
0.335539 0.216140 0.094202
0.402513 0.215603 0.095166
0.474442 0.215474 0.096080
0.549277 0.220390 0.097404
0.620935 0.231330 0.099612
0.674311 0.232520 0.100783
0.714655 0.236333 0.102181
0.750616 0.243452 0.103961
0.773186 0.248606 0.106041
0.791460 0.250002 0.107995
0.804939 0.253708 0.110398
0.815472 0.258605 0.113203
0.826421 0.251502 0.116190
0.833446 0.244910 0.120194
0.840091 0.231487 0.125611
0.844794 0.215521 0.136848
0.850575 0.192628 0.290088
0.852647 0.209614 0.409327
0.852658 0.210255 0.412679
0.089379 0.245235 0.085926
0.089481 0.245380 0.085988
0.089911 0.246347 0.086216
0.091466 0.250178 0.086660
0.093668 0.253351 0.087253
0.096849 0.256354 0.087990
0.101028 0.258164 0.088735
0.107283 0.257739 0.089390
0.116469 0.256126 0.090008
0.127721 0.253780 0.090581
0.146061 0.251079 0.091129
0.170755 0.248890 0.091796
0.197997 0.240808 0.092297
0.240160 0.241771 0.093608
0.302409 0.252271 0.095622
0.360446 0.249988 0.096492
0.426751 0.248803 0.097370
0.505626 0.253144 0.098852
0.578123 0.263607 0.101007
0.640497 0.263884 0.102115
0.687806 0.268054 0.103486
0.729054 0.273503 0.105150
0.760962 0.280614 0.107583
0.781859 0.283364 0.109456
0.798784 0.284779 0.111683
0.811580 0.287956 0.114514
0.823365 0.285848 0.117426
0.831080 0.285193 0.121316
0.838440 0.275627 0.126260
0.843897 0.255900 0.133689
0.849678 0.205957 0.214023
0.852647 0.209627 0.409374
0.852668 0.210869 0.415850
0.091696 0.277512 0.086546
0.091817 0.277637 0.086599
0.092316 0.278417 0.086791
0.093522 0.281343 0.087251
0.095473 0.285309 0.087888
0.098195 0.288876 0.088578
0.101628 0.290868 0.089253
0.107273 0.291478 0.089911
0.115390 0.290734 0.090514
0.124611 0.288696 0.091076
0.140013 0.286210 0.091677
0.159771 0.283414 0.092659
0.187271 0.281239 0.093815
0.221831 0.281183 0.095018
0.277213 0.292489 0.097040
0.328002 0.288891 0.097853
0.386694 0.286274 0.098856
0.459113 0.289941 0.100432
0.539466 0.300352 0.102569
0.599265 0.299389 0.103524
0.659541 0.302253 0.104760
0.704273 0.308540 0.106867
0.744323 0.316870 0.109250
0.771605 0.317327 0.110935
0.790639 0.321627 0.113106
0.805372 0.328052 0.116230
0.819707 0.323319 0.118837
0.828925 0.320386 0.122522
0.836952 0.314312 0.127105
0.842697 0.305619 0.133575
0.847576 0.294016 0.151578
0.852648 0.209715 0.409434
0.852683 0.211791 0.420436
0.094750 0.321301 0.087431
0.094855 0.321428 0.087491
0.095276 0.322149 0.087712
0.096254 0.324654 0.088136
0.098073 0.329901 0.088754
0.100309 0.333262 0.089378
0.103698 0.335898 0.090012
0.109196 0.337533 0.090651
0.116374 0.337589 0.091255
0.124546 0.336002 0.092025
0.138210 0.333614 0.093129
0.155894 0.330885 0.094283
0.180128 0.327916 0.095341
0.209362 0.325579 0.096435
0.257605 0.337402 0.098526
0.302879 0.332987 0.099563
0.354796 0.328470 0.100491
0.420592 0.331066 0.101945
0.501111 0.341426 0.104041
0.561671 0.339886 0.104997
0.623616 0.341672 0.106547
0.678494 0.347806 0.108646
0.722232 0.354886 0.110906
0.758613 0.356849 0.112545
0.780785 0.361689 0.114903
0.799024 0.365864 0.117908
0.814981 0.365234 0.120476
0.825413 0.366937 0.124160
0.835019 0.358695 0.128231
0.841703 0.347167 0.133556
0.847067 0.331153 0.145045
0.851171 0.322675 0.216162
0.853771 0.338200 0.424899
0.098408 0.380453 0.088652
0.098502 0.380602 0.088706
0.098873 0.381346 0.088901
0.099701 0.383631 0.089273
0.101374 0.389609 0.089862
0.103682 0.392688 0.090425
0.107498 0.396618 0.091055
0.112877 0.398581 0.091758
0.119343 0.399307 0.092983
0.127731 0.398715 0.094239
0.141122 0.397140 0.095455
0.157508 0.394543 0.096549
0.180456 0.391446 0.097643
0.207172 0.388474 0.098889
0.243091 0.385949 0.100218
0.282923 0.380017 0.101160
0.329385 0.374917 0.102105
0.388856 0.376814 0.103519
0.462619 0.386717 0.105694
0.527984 0.383877 0.106897
0.587159 0.385007 0.108466
0.651951 0.390776 0.110511
0.698519 0.397085 0.112649
0.740157 0.399320 0.114397
0.769726 0.402242 0.116832
0.790377 0.408229 0.119786
0.809247 0.407860 0.122477
0.822087 0.407039 0.125858
0.832624 0.405128 0.129709
0.840047 0.401757 0.134480
0.846240 0.384700 0.143090
0.850583 0.361851 0.177418
0.853732 0.349054 0.415796
0.100823 0.421314 0.089362
0.100905 0.421427 0.089409
0.101223 0.421975 0.089580
0.102024 0.423589 0.089904
0.103728 0.427662 0.090414
0.106022 0.431314 0.090971
0.110112 0.435688 0.091666
0.114601 0.437205 0.092762
0.120331 0.438380 0.094052
0.128147 0.438677 0.095351
0.140007 0.437398 0.096495
0.154664 0.435378 0.097611
0.175001 0.433051 0.098921
0.199012 0.430292 0.100230
0.229513 0.427899 0.101481
0.267941 0.425854 0.102754
0.309094 0.420515 0.103629
0.362761 0.421655 0.105040
0.430792 0.430345 0.107763
0.493712 0.427179 0.108925
0.554302 0.426915 0.110356
0.617238 0.431379 0.112365
0.674639 0.436645 0.114676
0.717971 0.437918 0.116520
0.756692 0.441476 0.118875
0.780510 0.447629 0.121973
0.802494 0.447224 0.124537
0.817211 0.449609 0.127845
0.829789 0.447585 0.131390
0.838604 0.441725 0.135538
0.845279 0.434571 0.143551
0.849802 0.427658 0.164134
0.853395 0.389770 0.356048
0.103553 0.460281 0.090008
0.103644 0.460374 0.090049
0.103994 0.460807 0.090200
0.104740 0.462037 0.090485
0.106288 0.465045 0.090931
0.109028 0.469278 0.091485
0.112231 0.471893 0.092488
0.116430 0.474411 0.093775
0.121630 0.475956 0.095050
0.128862 0.476353 0.096287
0.139643 0.475955 0.097481
0.153034 0.474669 0.098799
0.171206 0.472664 0.100131
0.192652 0.470420 0.101450
0.219059 0.467961 0.102699
0.253524 0.465817 0.103905
0.293586 0.464137 0.105145
0.341593 0.464833 0.107028
0.404492 0.472408 0.109759
0.461614 0.468745 0.110858
0.526028 0.468131 0.112288
0.585311 0.471591 0.114397
0.649927 0.476130 0.116964
0.695236 0.476564 0.118698
0.738087 0.479359 0.121118
0.769452 0.483174 0.124259
0.793914 0.484222 0.126748
0.811729 0.485344 0.129828
0.826378 0.485195 0.133199
0.836363 0.484399 0.137072
0.844216 0.478454 0.144576
0.849373 0.468901 0.159043
0.852673 0.468231 0.241707
0.107135 0.497177 0.090751
0.107241 0.497247 0.090788
0.107644 0.497558 0.090923
0.108488 0.498384 0.091177
0.110036 0.500296 0.091610
0.112754 0.504180 0.092713
0.115369 0.505480 0.093801
0.119409 0.508134 0.095130
0.124001 0.509467 0.096367
0.131223 0.509977 0.097554
0.141504 0.509984 0.099001
0.153940 0.509248 0.100433
0.170937 0.508070 0.101829
0.190580 0.506346 0.103076
0.214655 0.504660 0.104364
0.245735 0.502908 0.105739
0.282405 0.501316 0.107342
0.325006 0.500214 0.108997
0.382003 0.505792 0.111710
0.435076 0.502681 0.112776
0.496592 0.501557 0.114304
0.557069 0.503967 0.116715
0.618552 0.507283 0.119251
0.672883 0.507318 0.121021
0.716847 0.510088 0.123615
0.757015 0.513639 0.126642
0.784232 0.514891 0.128999
0.805006 0.516344 0.131924
0.821858 0.518191 0.135197
0.834145 0.515771 0.139222
0.842942 0.513311 0.146475
0.848648 0.510780 0.158226
0.852362 0.502251 0.202778
0.111790 0.535032 0.091678
0.111889 0.535110 0.091739
0.112264 0.535434 0.091960
0.113034 0.536220 0.092409
0.114408 0.537895 0.093217
0.116788 0.541246 0.094374
0.119388 0.543294 0.095485
0.123012 0.545786 0.096758
0.128039 0.547262 0.098012
0.135692 0.548539 0.099599
0.145710 0.548816 0.101086
0.157502 0.548470 0.102575
0.173648 0.547403 0.103940
0.192310 0.546019 0.105309
0.214773 0.544288 0.107001
0.244554 0.542709 0.108756
0.278401 0.541167 0.110390
0.317752 0.539617 0.111949
0.363892 0.538749 0.113623
0.412950 0.535468 0.114904
0.469299 0.534289 0.116616
0.532398 0.536068 0.118996
0.590305 0.539049 0.121697
0.650328 0.538852 0.123567
0.695622 0.540985 0.126071
0.739910 0.544582 0.129054
0.773391 0.545616 0.131266
0.796851 0.548083 0.134120
0.817084 0.549109 0.137129
0.831140 0.549101 0.142091
0.841435 0.548031 0.148851
0.848107 0.543516 0.158488
0.852139 0.541517 0.186872
0.115260 0.566245 0.092535
0.115349 0.566306 0.092605
0.115682 0.566562 0.092861
0.116360 0.567174 0.093341
0.117549 0.568467 0.094086
0.119560 0.571028 0.095146
0.122153 0.573621 0.096313
0.125237 0.575207 0.097458
0.130783 0.577181 0.098962
0.138136 0.578458 0.100539
0.146875 0.578649 0.101978
0.157586 0.578470 0.103433
0.172574 0.577735 0.104836
0.189852 0.576560 0.106561
0.210359 0.575147 0.108323
0.236971 0.573450 0.109982
0.268164 0.571973 0.111665
0.304249 0.570664 0.113280
0.345621 0.569351 0.115132
0.394262 0.568711 0.117155
0.446321 0.567026 0.118819
0.509144 0.568760 0.121376
0.565390 0.571274 0.124276
0.622052 0.570903 0.126069
0.675422 0.572686 0.128532
0.720008 0.575815 0.131431
0.761299 0.576907 0.133546
0.787540 0.579611 0.136320
0.810958 0.581135 0.139999
0.827443 0.582172 0.145058
0.839739 0.581217 0.151268
0.847291 0.580310 0.160079
0.851994 0.577165 0.179921
0.118820 0.598731 0.093559
0.118901 0.598785 0.093625
0.119203 0.599006 0.093864
0.119811 0.599520 0.094313
0.120860 0.600571 0.095006
0.122596 0.602596 0.095990
0.125384 0.605115 0.097227
0.128835 0.605825 0.098390
0.134501 0.607497 0.100079
0.140853 0.607842 0.101483
0.149366 0.608373 0.103013
0.159990 0.608465 0.104496
0.173610 0.607980 0.106184
0.189460 0.607201 0.107986
0.208339 0.606334 0.109791
0.232815 0.605317 0.111507
0.261417 0.604208 0.113131
0.294424 0.602951 0.115066
0.332983 0.601869 0.117081
0.376739 0.600818 0.118977
0.427248 0.600384 0.121077
0.484942 0.601258 0.123814
0.543321 0.603673 0.126701
0.596755 0.603310 0.128523
0.655247 0.604408 0.130928
0.700694 0.606449 0.133810
0.747019 0.607197 0.135822
0.777302 0.608809 0.138890
0.803527 0.610489 0.143311
0.823217 0.611111 0.147977
0.837500 0.611854 0.153979
0.846476 0.611036 0.161863
0.851846 0.610477 0.177703
0.122536 0.623908 0.094709
0.122611 0.623947 0.094771
0.122892 0.624102 0.094997
0.123452 0.624442 0.095420
0.124402 0.625096 0.096073
0.126397 0.626287 0.096995
0.129879 0.628392 0.098355
0.133153 0.629221 0.099678
0.138556 0.630380 0.101228
0.145011 0.631196 0.102746
0.153107 0.631808 0.104293
0.162881 0.631790 0.105941
0.175898 0.631580 0.107919
0.191054 0.630998 0.109810
0.208733 0.630150 0.111580
0.231502 0.629288 0.113375
0.258390 0.628289 0.115432
0.289211 0.627316 0.117484
0.324645 0.626393 0.119482
0.366064 0.625796 0.121702
0.412389 0.625261 0.123915
0.464441 0.625085 0.126164
0.524195 0.626274 0.129032
0.574160 0.626081 0.130789
0.631131 0.626784 0.133215
0.681938 0.628551 0.136098
0.728259 0.629434 0.138237
0.766156 0.630890 0.142337
0.795036 0.632663 0.146628
0.817943 0.633642 0.151030
0.834938 0.634637 0.156681
0.845462 0.634727 0.164071
0.851670 0.635376 0.177590
0.126804 0.647962 0.095688
0.126902 0.647998 0.095747
0.127265 0.648139 0.095963
0.127983 0.648439 0.096368
0.129190 0.648992 0.096991
0.131119 0.649958 0.097881
0.134342 0.651608 0.099390
0.138414 0.652841 0.100861
0.143095 0.653623 0.102304
0.149703 0.654751 0.103967
0.156477 0.654951 0.105480
0.166976 0.655200 0.107562
0.179563 0.655177 0.109648
0.193193 0.654593 0.111510
0.209792 0.653831 0.113309
0.231164 0.652990 0.115499
0.256672 0.652115 0.117719
0.285760 0.651204 0.119834
0.318923 0.650333 0.122144
0.357208 0.649533 0.124459
0.401033 0.649086 0.126761
0.449084 0.648780 0.129014
0.504574 0.648765 0.131239
0.554341 0.648525 0.132964
0.607840 0.648992 0.135359
0.663669 0.650398 0.138544
0.709717 0.651367 0.141588
0.754347 0.652675 0.145636
0.785750 0.654445 0.149893
0.811644 0.655801 0.154145
0.831861 0.656889 0.159329
0.844190 0.657900 0.166609
0.851557 0.658318 0.178227
0.131546 0.671713 0.096038
0.131634 0.671737 0.096096
0.131963 0.671833 0.096305
0.132608 0.672037 0.096698
0.133752 0.672413 0.097302
0.135746 0.673073 0.098241
0.138885 0.674202 0.099701
0.143119 0.675516 0.101358
0.147139 0.675919 0.102718
0.153231 0.676781 0.104412
0.160117 0.676950 0.106157
0.170384 0.677135 0.108343
0.181054 0.676844 0.110298
0.194401 0.676458 0.112319
0.210551 0.675794 0.114434
0.230108 0.674914 0.116642
0.253653 0.674034 0.118883
0.280727 0.673138 0.121172
0.311712 0.672305 0.123612
0.347146 0.671552 0.125947
0.387937 0.670957 0.128255
0.432899 0.670631 0.130493
0.484054 0.670594 0.132753
0.536926 0.670823 0.134982
0.587032 0.670948 0.137374
0.644377 0.672005 0.141727
0.691848 0.673062 0.144708
0.737646 0.674136 0.148756
0.775287 0.675851 0.152860
0.804368 0.677435 0.157259
0.828085 0.678832 0.162035
0.842776 0.679822 0.168792
0.851406 0.681160 0.179528
0.136624 0.693854 0.096448
0.136721 0.693878 0.096504
0.137082 0.693972 0.096708
0.137786 0.694162 0.097088
0.138952 0.694494 0.097675
0.140771 0.695045 0.098684
0.143588 0.695939 0.100100
0.148038 0.697381 0.101966
0.151593 0.697642 0.103260
0.156828 0.698179 0.104861
0.164816 0.698625 0.107054
0.173502 0.698541 0.109105
0.184308 0.698391 0.111239
0.196903 0.698019 0.113333
0.211346 0.697376 0.115663
0.230276 0.696621 0.118037
0.252899 0.695763 0.120378
0.278599 0.694847 0.122981
0.307496 0.694000 0.125442
0.340542 0.693258 0.127867
0.378231 0.692651 0.130186
0.420590 0.692249 0.132462
0.467565 0.692026 0.134676
0.521002 0.692206 0.136955
0.568538 0.692619 0.140062
0.622369 0.693243 0.144670
0.675106 0.694561 0.147578
0.719894 0.695280 0.151546
0.764149 0.696944 0.155660
0.795978 0.698484 0.159788
0.823557 0.700233 0.164750
0.841128 0.701413 0.170999
0.851219 0.702808 0.180932
0.141940 0.714439 0.096708
0.142032 0.714462 0.096764
0.142373 0.714549 0.096964
0.143035 0.714720 0.097339
0.144121 0.715002 0.097941
0.145798 0.715441 0.098978
0.148358 0.716111 0.100377
0.152337 0.717135 0.102219
0.156269 0.717662 0.103766
0.161712 0.717983 0.105372
0.170109 0.718546 0.107978
0.177637 0.718358 0.109926
0.188564 0.718258 0.112266
0.199364 0.717819 0.114422
0.214132 0.717320 0.117070
0.232170 0.716654 0.119515
0.252869 0.715923 0.122133
0.276949 0.715115 0.124808
0.304338 0.714293 0.127380
0.335480 0.713584 0.129872
0.370932 0.712993 0.132290
0.411101 0.712578 0.134636
0.454908 0.712323 0.136902
0.505185 0.712256 0.139918
0.552128 0.712595 0.143604
0.602511 0.713132 0.147262
0.658605 0.714662 0.150092
0.702974 0.715098 0.154115
0.752575 0.716505 0.158026
0.786575 0.717841 0.162155
0.817890 0.719501 0.167073
0.839125 0.721011 0.173030
0.851172 0.722573 0.182369
0.147686 0.738712 0.095612
0.147766 0.738721 0.095670
0.148061 0.738752 0.095879
0.148635 0.738812 0.096271
0.149573 0.738905 0.096879
0.151024 0.739043 0.097740
0.153246 0.739250 0.099206
0.156727 0.739577 0.101189
0.161859 0.739831 0.103186
0.166671 0.739770 0.104717
0.173833 0.739765 0.107181
0.181842 0.739538 0.109574
0.191079 0.739094 0.111847
0.202155 0.738528 0.114273
0.215979 0.737801 0.117009
0.232624 0.737052 0.119548
0.252966 0.736240 0.122409
0.275683 0.735390 0.125182
0.300869 0.734547 0.127813
0.329827 0.733786 0.130371
0.363034 0.733166 0.132850
0.400844 0.732707 0.135255
0.442365 0.732447 0.137590
0.489490 0.732407 0.141106
