negative-gold-200/Gold200_Modern_Punchy.cube
TITLE "Kodak Gold 200 Modern Punchy"
# Adobe RGB in/out. REPLACES AgX. Kodak Gold 200 Modern Punchy.
LUT_3D_SIZE 5
DOMAIN_MIN 0.0 0.0 0.0
DOMAIN_MAX 1.0 1.0 1.0
0.072541 0.084015 0.079839
0.617783 0.102957 0.086666
0.887687 0.164840 0.102624
0.913414 0.198035 0.134833
0.911046 0.363947 0.674069
0.097018 0.313149 0.087274
0.149224 0.202900 0.089633
0.724958 0.257478 0.103328
0.894569 0.311192 0.130419
0.904328 0.343925 0.651105
0.141041 0.672066 0.100546
0.167182 0.634821 0.106905
0.366135 0.544945 0.114449
0.791287 0.551741 0.135123
0.883863 0.536506 0.293597
0.190147 0.814250 0.107783
0.205426 0.805596 0.117301
0.315905 0.767602 0.135297
0.615150 0.730685 0.154721
0.863942 0.728113 0.194240
0.199961 0.841811 0.087715
0.233974 0.851338 0.087553
0.287953 0.843263 0.102605
0.478530 0.827318 0.131238
0.856520 0.823044 0.140597
0.087233 0.114223 0.317042
0.638353 0.248835 0.589027
0.890604 0.251907 0.467827
0.909859 0.286446 0.494020
0.908538 0.356368 0.665449
0.108241 0.244819 0.241078
0.198748 0.182425 0.184714
0.785143 0.283534 0.267284
0.890751 0.343360 0.339454
0.901809 0.336665 0.642655
0.159815 0.635477 0.254261
0.198334 0.596504 0.238372
0.455915 0.517508 0.218055
0.817785 0.547895 0.250404
0.881275 0.557315 0.486491
0.203457 0.804818 0.219589
0.225085 0.796148 0.229263
0.353325 0.753604 0.240106
0.671903 0.723480 0.250418
0.862942 0.726148 0.284721
0.204169 0.845300 0.106445
0.237870 0.854469 0.105638
0.298987 0.841563 0.148807
0.499471 0.826561 0.206799
0.858134 0.823033 0.220967
0.121407 0.271799 0.746765
0.520070 0.474719 0.843892
0.904656 0.508589 0.838888
0.912603 0.461503 0.787638
0.907713 0.396570 0.767707
0.160191 0.454656 0.741233
0.360072 0.484953 0.763539
0.824547 0.479277 0.736231
0.893787 0.488302 0.731445
0.900542 0.369663 0.737572
0.182149 0.606107 0.594173
0.231422 0.571496 0.561608
0.517783 0.507503 0.506621
0.826721 0.575420 0.584925
0.878219 0.602849 0.690412
0.228313 0.788746 0.577427
0.258066 0.774583 0.564453
0.412552 0.738363 0.535388
0.728870 0.716650 0.522665
0.861015 0.735314 0.602777
0.230569 0.851649 0.639101
0.237226 0.851611 0.631673
0.327308 0.837588 0.532827
0.541628 0.825626 0.520704
0.858378 0.825092 0.524184
0.201512 0.534380 0.909777
0.421152 0.610714 0.921325
0.902558 0.637727 0.922143
0.921730 0.595635 0.893543
0.910902 0.444916 0.851829
0.247867 0.631067 0.912634
0.433251 0.664262 0.920490
0.866467 0.650980 0.904308
0.905357 0.608970 0.876733
0.903525 0.420311 0.835975
0.233001 0.660618 0.828077
0.304963 0.657776 0.826559
0.654214 0.646271 0.816882
0.851913 0.649274 0.814009
0.880495 0.643544 0.813083
0.247784 0.782021 0.778741
0.282344 0.772490 0.770224
0.456310 0.746232 0.753168
0.749520 0.724547 0.738080
0.860688 0.754402 0.780308
0.230633 0.846882 0.728542
0.239248 0.848044 0.723854
0.333430 0.837921 0.734300
0.552486 0.828172 0.722888
0.859136 0.832924 0.757592
0.439685 0.679817 0.951953
0.778808 0.686899 0.951955
0.929069 0.707499 0.952009
0.934691 0.670820 0.943550
0.915247 0.526668 0.922099
0.483246 0.720848 0.951694
0.762047 0.727215 0.951721
0.924104 0.740142 0.950790
0.921424 0.674174 0.936194
0.908175 0.516357 0.916713
0.423574 0.760106 0.932242
0.573307 0.752325 0.930175
0.850079 0.733498 0.918251
0.885173 0.708691 0.904856
0.888141 0.657163 0.894577
0.318088 0.805135 0.892071
0.370235 0.801208 0.889069
0.676542 0.788189 0.881109
0.838403 0.775466 0.874858
0.866235 0.768104 0.872988
0.230676 0.841556 0.827158
0.252004 0.847534 0.836472
0.319930 0.848214 0.855963
0.549005 0.841343 0.863639
0.860257 0.842272 0.861661
