negative-gold-200/Gold200_Modern_Soft.cube
TITLE "Kodak Gold 200 Modern Soft"
# Adobe RGB in/out. REPLACES AgX. Kodak Gold 200 Modern Soft.
LUT_3D_SIZE 5
DOMAIN_MIN 0.0 0.0 0.0
DOMAIN_MAX 1.0 1.0 1.0
0.062396 0.069107 0.086480
0.363911 0.109272 0.098575
0.637277 0.301810 0.117064
0.736209 0.482157 0.140723
0.789474 0.572610 0.170329
0.092022 0.315558 0.098016
0.238806 0.211450 0.098858
0.592593 0.380101 0.114118
0.719823 0.517988 0.137088
0.782654 0.590625 0.166856
0.179273 0.604598 0.113548
0.368633 0.572756 0.113584
0.560785 0.546678 0.118030
0.687411 0.588407 0.134720
0.762276 0.643453 0.163019
0.313324 0.698829 0.128811
0.427883 0.691259 0.129396
0.587083 0.677859 0.133104
0.678592 0.676046 0.144839
0.747085 0.690306 0.166564
0.403999 0.746421 0.144131
0.466989 0.743886 0.145311
0.593654 0.738454 0.150272
0.679957 0.736679 0.161708
0.742363 0.741832 0.182582
0.072733 0.091262 0.382269
0.384190 0.131344 0.390351
0.631594 0.315806 0.348038
0.730932 0.480810 0.339117
0.787208 0.571311 0.344863
0.088462 0.245882 0.292649
0.162810 0.154751 0.177696
0.576028 0.366895 0.259666
0.713826 0.512332 0.305803
0.779540 0.588566 0.329951
0.168631 0.585075 0.313973
0.345504 0.555116 0.266750
0.538232 0.530052 0.221847
0.678976 0.580757 0.252916
0.759126 0.640327 0.297139
0.306132 0.694328 0.295410
0.421696 0.687054 0.281439
0.582103 0.674025 0.257435
0.674092 0.673132 0.254958
0.745354 0.689202 0.282543
0.403326 0.745089 0.274286
0.465718 0.742671 0.271693
0.592512 0.737537 0.267957
0.678989 0.736210 0.273358
0.742134 0.742020 0.293116
0.094079 0.174490 0.699861
0.405896 0.253658 0.700812
0.665721 0.445856 0.697976
0.736238 0.520083 0.644943
0.786543 0.582913 0.616827
0.118792 0.412379 0.691102
0.375962 0.408726 0.665016
0.609350 0.459644 0.631903
0.717036 0.536236 0.615129
0.778087 0.597372 0.602895
0.162440 0.561788 0.603736
0.314816 0.540586 0.572943
0.499747 0.501015 0.503077
0.672346 0.581378 0.550827
0.755823 0.642350 0.567607
0.297317 0.685822 0.592825
0.412895 0.679774 0.580236
0.568684 0.668143 0.551543
0.665143 0.668468 0.533882
0.742262 0.688542 0.543933
0.403319 0.742320 0.563059
0.464053 0.740292 0.558971
0.590354 0.736087 0.548623
0.677038 0.735861 0.540466
0.741758 0.743195 0.541185
0.142472 0.386423 0.804455
0.436133 0.434129 0.804731
0.677819 0.535772 0.805716
0.751549 0.577845 0.775703
0.790037 0.613642 0.747229
0.182347 0.524176 0.804697
0.456489 0.542218 0.804973
0.655741 0.566757 0.787124
0.732814 0.587590 0.758050
0.782569 0.624899 0.737997
0.195710 0.590251 0.742579
0.371412 0.584542 0.734825
0.575349 0.586127 0.721515
0.689139 0.617302 0.716176
0.758749 0.655304 0.712837
0.303547 0.681234 0.721379
0.411112 0.677116 0.714056
0.563278 0.668430 0.693328
0.656915 0.666340 0.675027
0.741428 0.692376 0.686478
0.406833 0.740389 0.701871
0.465285 0.738953 0.698794
0.589288 0.736149 0.690649
0.675819 0.737245 0.683445
0.741859 0.746207 0.682064
0.242784 0.535683 0.863790
0.479222 0.552973 0.863890
0.686659 0.607383 0.864250
0.765085 0.643923 0.849500
0.794809 0.652434 0.819568
0.289102 0.598497 0.863878
0.495189 0.612379 0.863979
0.686506 0.650143 0.862476
0.748334 0.648388 0.838495
0.788499 0.657680 0.810315
0.305616 0.655718 0.831480
0.445845 0.654472 0.826423
0.615566 0.654172 0.813146
0.710111 0.661020 0.798847
0.766109 0.674020 0.786447
0.343144 0.688763 0.786012
0.427985 0.686989 0.782622
0.581964 0.684398 0.773993
0.676510 0.689307 0.767370
0.745718 0.703789 0.765272
0.415833 0.741244 0.769822
0.471939 0.740453 0.768190
0.590930 0.739243 0.763698
0.676807 0.741652 0.759388
0.742911 0.751606 0.758509
