negative-gold-200/Gold200_Modern_ExtraSoft.cube
TITLE "Kodak Gold 200 Modern ExtraSoft"
# Adobe RGB in/out. REPLACES AgX. Kodak Gold 200 Modern ExtraSoft.
LUT_3D_SIZE 5
DOMAIN_MIN 0.0 0.0 0.0
DOMAIN_MAX 1.0 1.0 1.0
0.058206 0.064417 0.080741
0.572069 0.082271 0.088349
0.786977 0.131875 0.103321
0.811108 0.167724 0.127344
0.808587 0.371996 0.637943
0.071373 0.314788 0.088941
0.107672 0.173148 0.091634
0.658445 0.241921 0.104036
0.792232 0.312603 0.123725
0.801442 0.349334 0.623165
0.101328 0.646122 0.101208
0.122004 0.619072 0.107172
0.378102 0.540964 0.112549
0.703258 0.546391 0.127626
0.784054 0.534205 0.276564
0.144259 0.740337 0.107819
0.160966 0.731887 0.114686
0.312979 0.707642 0.127794
0.570351 0.686870 0.140362
0.762889 0.685056 0.171322
0.154025 0.767291 0.089395
0.198171 0.775305 0.089206
0.276075 0.768713 0.103301
0.475051 0.753109 0.124282
0.754515 0.748930 0.131908
0.065718 0.092116 0.302333
0.585417 0.230459 0.582343
0.789205 0.234519 0.469879
0.807323 0.281480 0.493543
0.805918 0.363402 0.632415
0.078778 0.224929 0.218701
0.152811 0.151313 0.163006
0.698565 0.277424 0.247217
0.789317 0.348697 0.327256
0.798766 0.341153 0.617685
0.115516 0.619551 0.232568
0.152396 0.581826 0.215751
0.456361 0.518914 0.193894
0.723439 0.543322 0.228499
0.782075 0.550833 0.486754
0.158496 0.731127 0.195337
0.186229 0.722670 0.205570
0.361270 0.700350 0.217682
0.611903 0.681783 0.228514
0.761760 0.683668 0.266892
0.159387 0.770444 0.106832
0.203476 0.777825 0.106236
0.291564 0.767048 0.136857
0.492223 0.752368 0.183242
0.756334 0.748919 0.196634
0.087288 0.261257 0.691360
0.506749 0.472515 0.765792
0.801791 0.510140 0.762383
0.810244 0.461103 0.717730
0.805041 0.404365 0.704923
0.115758 0.455174 0.687758
0.370114 0.483739 0.702233
0.728573 0.477422 0.684494
0.791635 0.487471 0.681366
0.797420 0.378492 0.685370
0.136411 0.590118 0.585779
0.194714 0.562097 0.555579
0.505178 0.508923 0.504882
0.730223 0.565203 0.579598
0.779053 0.586807 0.652567
0.190532 0.718548 0.571997
0.231755 0.711257 0.558530
0.420070 0.692277 0.530654
0.661011 0.676950 0.519281
0.759584 0.690132 0.591501
0.193564 0.775555 0.615373
0.202596 0.775525 0.610528
0.327602 0.763157 0.528369
0.521452 0.751455 0.517524
0.756609 0.750932 0.520642
0.155839 0.532500 0.826296
0.427317 0.595275 0.837724
0.799561 0.621196 0.838366
0.819971 0.581144 0.807954
0.808433 0.446715 0.771188
0.217301 0.616323 0.829533
0.437471 0.640485 0.837069
0.765742 0.630855 0.820108
0.802536 0.593323 0.789046
0.800589 0.425244 0.760397
0.196850 0.637848 0.752708
0.299090 0.635788 0.751220
0.596440 0.627428 0.741860
0.749599 0.629614 0.739233
0.781478 0.625442 0.738386
0.217186 0.715093 0.712025
0.267537 0.710175 0.706546
0.456689 0.696485 0.695519
0.671870 0.682537 0.685702
0.759215 0.700767 0.713032
0.193649 0.771718 0.679465
0.205361 0.772653 0.676390
0.335466 0.763483 0.683233
0.528792 0.753944 0.675756
0.757465 0.758592 0.698386
0.442850 0.651685 0.880355
0.693721 0.656420 0.880359
0.827806 0.670455 0.880455
0.833870 0.645223 0.865599
0.813060 0.526301 0.838332
0.478929 0.679922 0.879894
0.680878 0.684422 0.879943
0.822504 0.693281 0.878290
0.819644 0.647640 0.854304
0.805532 0.517984 0.834103
0.429354 0.703744 0.848261
0.542748 0.699680 0.845010
0.747909 0.688853 0.835311
0.785055 0.671302 0.820728
0.787324 0.635344 0.809120
0.315766 0.731437 0.806294
0.383524 0.727605 0.802912
0.615977 0.718262 0.793959
0.739077 0.711713 0.786942
0.765481 0.707902 0.785513
0.193707 0.767041 0.751807
0.223122 0.772243 0.760736
0.318124 0.772790 0.773994
0.526443 0.766833 0.779195
0.758729 0.767743 0.777856
