negative-gold-200/Gold200_Modern_ExtraSoft.cube
TITLE "Kodak Gold 200 Modern ExtraSoft"
# Adobe RGB in/out. REPLACES AgX. Kodak Gold 200 Modern ExtraSoft.
LUT_3D_SIZE 9
DOMAIN_MIN 0.0 0.0 0.0
DOMAIN_MAX 1.0 1.0 1.0
0.058206 0.064417 0.080741
0.147788 0.069882 0.083552
0.572069 0.082271 0.088349
0.729089 0.102499 0.094895
0.786977 0.131875 0.103321
0.804595 0.161367 0.112969
0.811108 0.167724 0.127344
0.814543 0.185073 0.556535
0.808587 0.371996 0.637943
0.061563 0.092029 0.083266
0.069957 0.083334 0.084443
0.307836 0.093457 0.088590
0.658661 0.117168 0.094972
0.762113 0.151434 0.103186
0.796599 0.183099 0.112589
0.807022 0.188004 0.125421
0.812188 0.181140 0.549994
0.806911 0.366574 0.634455
0.071373 0.314788 0.088941
0.075010 0.268559 0.090616
0.107672 0.173148 0.091634
0.392701 0.187923 0.096290
0.658445 0.241921 0.104036
0.757231 0.297719 0.112721
0.792232 0.312603 0.123725
0.804835 0.177817 0.531780
0.801442 0.349334 0.623165
0.084977 0.538208 0.095360
0.087319 0.521721 0.096857
0.109304 0.458780 0.098891
0.215860 0.397630 0.100733
0.484242 0.395382 0.106721
0.674640 0.421111 0.114605
0.760539 0.442995 0.124381
0.788389 0.432260 0.140429
0.792963 0.284288 0.514221
0.101328 0.646122 0.101208
0.103887 0.639193 0.103091
0.122004 0.619072 0.107172
0.194162 0.576938 0.109959
0.378102 0.540964 0.112549
0.559334 0.533521 0.118590
0.703258 0.546391 0.127626
0.768838 0.552023 0.140753
0.784054 0.534205 0.276564
0.121541 0.704045 0.106572
0.123850 0.700751 0.108018
0.142116 0.691894 0.112605
0.198617 0.671210 0.117571
0.331891 0.649295 0.121424
0.491521 0.632333 0.125375
0.634768 0.626594 0.133095
0.738837 0.631613 0.145080
0.772808 0.629996 0.176465
0.144259 0.740337 0.107819
0.145997 0.738164 0.109180
0.160966 0.731887 0.114686
0.210176 0.720866 0.121573
0.312979 0.707642 0.127794
0.442702 0.695925 0.134227
0.570351 0.686870 0.140362
0.698005 0.682564 0.150344
0.762889 0.685056 0.171322
0.167294 0.772737 0.097786
0.167584 0.771016 0.098896
0.181108 0.763780 0.108245
0.219725 0.754379 0.117683
0.300369 0.743487 0.126542
0.410293 0.733278 0.135707
0.524302 0.725751 0.143586
0.656658 0.721921 0.152759
0.756114 0.720532 0.167083
0.154025 0.767291 0.089395
0.153302 0.766347 0.089349
0.198171 0.775305 0.089206
0.192764 0.772064 0.093082
0.276075 0.768713 0.103301
0.376283 0.759808 0.115881
0.475051 0.753109 0.124282
0.581470 0.749461 0.130395
0.754515 0.748930 0.131908
0.060921 0.072225 0.117497
0.123476 0.099657 0.241138
0.601627 0.094904 0.140302
0.744756 0.113104 0.131120
0.787983 0.139865 0.124829
0.802757 0.166790 0.128477
0.809312 0.173643 0.145085
0.813281 0.182969 0.553033
0.807718 0.369182 0.636135
0.064186 0.089180 0.106768
0.078765 0.083078 0.101365
0.418367 0.098506 0.112733
0.687668 0.127353 0.121643
0.767672 0.158292 0.122548
0.795199 0.187649 0.126732
0.805265 0.193432 0.140633
0.810930 0.179097 0.546546
0.806048 0.363807 0.632666
0.074668 0.273786 0.115048
0.081114 0.219077 0.111312
0.129575 0.154272 0.106515
0.468866 0.185975 0.112712
0.679483 0.245971 0.119232
0.760444 0.299144 0.124889
0.791004 0.313790 0.136401
0.803637 0.178560 0.529410
0.800606 0.346761 0.621450
0.088192 0.517029 0.117085
0.091582 0.493726 0.117179
0.120039 0.432807 0.115671
0.259869 0.376696 0.114900
0.518508 0.387784 0.118953
0.685875 0.418849 0.125073
0.761523 0.441240 0.135847
0.787371 0.432035 0.154268
0.792488 0.322628 0.604947
0.104668 0.635993 0.116488
0.107872 0.629113 0.118019
0.130208 0.607013 0.121028
0.214518 0.564856 0.122492
0.402411 0.533381 0.124413
0.576029 0.529593 0.128675
0.709407 0.544051 0.138287
0.768386 0.550333 0.153133
0.783468 0.537229 0.327164
0.124005 0.699484 0.116359
0.126824 0.696269 0.118016
0.146511 0.685864 0.123232
0.209231 0.665841 0.128211
0.347382 0.644800 0.132586
0.505760 0.629277 0.137240
0.645880 0.624836 0.143565
0.741043 0.630361 0.156712
0.772105 0.629658 0.192056
0.145756 0.737722 0.114696
0.147751 0.735566 0.116418
0.164509 0.729282 0.122751
0.216473 0.718423 0.130952
0.321466 0.705563 0.138130
0.451504 0.694322 0.145070
0.578844 0.685352 0.152937
0.702543 0.681642 0.161400
0.762583 0.684540 0.184459
0.167396 0.771330 0.101271
0.168071 0.769662 0.103113
0.183077 0.762357 0.113177
0.223264 0.753073 0.123909
0.305060 0.742365 0.135269
0.414931 0.732381 0.145168
0.528956 0.725105 0.154710
0.662020 0.721475 0.163652
0.756268 0.720257 0.179576
0.161084 0.771743 0.107062
0.160069 0.770966 0.106922
0.205687 0.779025 0.106454
0.198298 0.774889 0.105712
0.278254 0.768377 0.107016
0.379221 0.759521 0.121035
0.477938 0.752928 0.131307
0.584670 0.749383 0.137773
0.755414 0.748901 0.139148
0.065718 0.092116 0.302333
0.160541 0.228158 0.603414
0.585417 0.230459 0.582343
0.752293 0.230107 0.524943
0.789205 0.234519 0.469879
0.801625 0.262764 0.463138
0.807323 0.281480 0.493543
0.811151 0.189195 0.561569
0.805918 0.363402 0.632415
0.072098 0.126142 0.314899
0.111575 0.157979 0.414031
0.484410 0.169573 0.417103
0.700971 0.192266 0.399438
0.771400 0.229025 0.390098
0.794260 0.265671 0.407565
0.803145 0.284888 0.451931
0.808780 0.187580 0.556783
0.804236 0.358055 0.628921
0.078778 0.224929 0.218701
0.085703 0.188733 0.190905
0.152811 0.151313 0.163006
0.520373 0.201429 0.202307
0.698565 0.277424 0.247217
0.764492 0.331272 0.290178
0.789317 0.348697 0.327256
0.801042 0.243976 0.535136
0.798766 0.341153 0.617685
0.094988 0.475288 0.236343
0.101655 0.454041 0.222900
0.141085 0.399208 0.191804
0.319721 0.342014 0.174242
0.569874 0.381611 0.194560
0.706593 0.425360 0.228982
0.763286 0.449272 0.254640
0.785425 0.446769 0.330284
0.790648 0.317344 0.601252
0.115516 0.619551 0.232568
0.121257 0.612472 0.228510
0.152396 0.581826 0.215751
0.270025 0.543840 0.200197
0.456361 0.518914 0.193894
0.625780 0.524894 0.208915
0.723439 0.543322 0.228499
0.767579 0.550770 0.266968
0.782075 0.550833 0.486754
0.139434 0.690031 0.223046
0.143528 0.685775 0.222815
0.171294 0.673512 0.222745
0.254777 0.654676 0.218420
0.400351 0.635320 0.214172
0.543223 0.622840 0.214911
0.674263 0.621938 0.221829
0.746445 0.628640 0.248898
0.770350 0.630810 0.312623
0.158496 0.731127 0.195337
0.162428 0.729030 0.197176
0.186229 0.722670 0.205570
0.249024 0.712229 0.213106
0.361270 0.700350 0.217682
0.489695 0.689676 0.222023
0.611903 0.681783 0.228514
0.717351 0.679761 0.243511
0.761760 0.683668 0.266892
0.176664 0.764474 0.160192
0.179137 0.762838 0.163216
0.199975 0.757256 0.181066
0.246380 0.748841 0.197045
0.331756 0.738934 0.211541
0.439341 0.729759 0.222193
0.551465 0.723320 0.231659
0.679310 0.720301 0.242090
0.756557 0.719626 0.250585
0.159387 0.770444 0.106832
0.208103 0.780191 0.106694
0.203476 0.777825 0.106236
0.196338 0.773752 0.105516
0.291564 0.767048 0.136857
0.391485 0.758570 0.165081
0.492223 0.752368 0.183242
0.599744 0.749177 0.193265
0.756334 0.748919 0.196634
0.073762 0.139988 0.564475
0.135656 0.326732 0.684119
0.551851 0.386536 0.704198
0.751348 0.407621 0.699646
0.794593 0.401610 0.674839
0.803781 0.396447 0.655028
0.807514 0.392319 0.650910
0.809165 0.334972 0.666444
0.804807 0.373120 0.654885
0.081813 0.199309 0.578003
0.124989 0.309285 0.642831
0.517413 0.396138 0.685426
0.718144 0.395540 0.669059
0.779924 0.388721 0.644100
0.796293 0.394692 0.632010
0.803229 0.396087 0.635780
0.806492 0.341281 0.660416
0.803082 0.367636 0.651447
0.088239 0.304128 0.486932
0.101996 0.297893 0.478806
0.259616 0.296261 0.486137
0.562851 0.320931 0.503568
0.710480 0.369357 0.529550
0.767381 0.406722 0.552212
0.789087 0.422636 0.582957
0.797059 0.415413 0.622301
0.797467 0.350310 0.640425
0.101381 0.452177 0.442011
0.109012 0.436864 0.423166
0.154913 0.392195 0.376337
0.351286 0.343856 0.333569
0.592482 0.401759 0.394599
0.712332 0.446584 0.444937
0.762970 0.475882 0.487734
0.784090 0.486291 0.553604
0.789134 0.325353 0.623180
0.126592 0.600693 0.448127
0.133949 0.591441 0.437411
0.174057 0.564269 0.408383
0.305575 0.529083 0.374380
0.489193 0.504237 0.350566
0.648150 0.524066 0.382074
0.727547 0.547463 0.417830
0.765626 0.559834 0.469325
0.780351 0.568533 0.595399
0.151817 0.678228 0.436642
0.157681 0.674341 0.431654
0.196237 0.662799 0.417836
0.292574 0.644819 0.397952
0.433007 0.626968 0.381475
0.571634 0.616901 0.374865
0.688447 0.620284 0.388420
0.747193 0.628621 0.416253
0.768677 0.638259 0.525100
0.175279 0.724275 0.413423
0.180510 0.722301 0.411670
0.210754 0.716193 0.407654
0.284256 0.706404 0.400084
0.397380 0.695458 0.391569
0.519630 0.684669 0.386285
0.641993 0.678475 0.386654
0.725974 0.678512 0.396297
0.760611 0.685174 0.453245
0.189852 0.758829 0.377989
0.193675 0.757369 0.378207
0.217975 0.752458 0.382374
0.270940 0.744639 0.384249
0.360258 0.735527 0.384699
0.465913 0.727212 0.384672
0.575712 0.721589 0.386279
0.695306 0.719309 0.390868
0.756324 0.719713 0.411253
0.183273 0.775211 0.366056
0.211870 0.780344 0.363970
0.207357 0.778108 0.357049
0.232100 0.775164 0.258400
0.313710 0.764725 0.342855
0.407854 0.757200 0.354444
0.509961 0.751706 0.362971
0.622378 0.749005 0.369014
0.756549 0.749355 0.374809
0.087288 0.261257 0.691360
0.126522 0.386327 0.731531
0.506749 0.472515 0.765792
0.734780 0.494582 0.766228
0.801791 0.510140 0.762383
0.809063 0.482294 0.734427
0.810244 0.461103 0.717730
0.809544 0.414544 0.709478
0.805041 0.404365 0.704923
0.093750 0.324769 0.696309
0.132252 0.408571 0.726360
0.482295 0.487918 0.761834
0.720498 0.511957 0.763362
0.788488 0.499238 0.743869
0.801705 0.480429 0.722208
0.805906 0.464303 0.709374
0.806820 0.420490 0.704316
0.803255 0.399399 0.700281
0.115758 0.455174 0.687758
0.142816 0.463808 0.690600
0.370114 0.483739 0.702233
0.614563 0.478213 0.693935
0.728573 0.477422 0.684494
0.776085 0.486162 0.680835
0.791635 0.487471 0.681366
0.797602 0.469173 0.685880
0.797420 0.378492 0.685370
0.114483 0.485171 0.602319
0.126273 0.478182 0.596544
0.207787 0.461818 0.586681
0.436872 0.452609 0.584257
0.627077 0.470260 0.595556
0.722089 0.502452 0.614450
0.765935 0.523535 0.633445
0.784358 0.527197 0.656231
0.789324 0.445656 0.670886
0.136411 0.590118 0.585779
0.144781 0.583301 0.580003
0.194714 0.562097 0.555579
0.331904 0.531597 0.524732
0.505178 0.508923 0.504882
0.661096 0.538248 0.540782
0.730223 0.565203 0.579598
0.765181 0.581390 0.609570
0.779053 0.586807 0.652567
0.164874 0.669533 0.582368
0.173012 0.666220 0.578295
0.217863 0.656152 0.561717
0.318265 0.639611 0.539414
0.456262 0.622866 0.519898
0.587621 0.614029 0.511736
0.694755 0.622598 0.530806
0.746836 0.633834 0.564136
0.767265 0.646582 0.623962
0.190532 0.718548 0.571997
0.197303 0.716799 0.568547
0.231755 0.711257 0.558530
0.308501 0.702348 0.544418
0.420070 0.692277 0.530654
0.539458 0.681673 0.521216
0.661011 0.676950 0.519281
0.729677 0.679476 0.530713
0.759584 0.690132 0.591501
0.202257 0.754381 0.556306
0.206891 0.753040 0.553960
0.234216 0.748504 0.547675
0.291723 0.741356 0.538648
0.385730 0.733016 0.529623
0.489937 0.725511 0.522652
0.597150 0.720662 0.519176
0.706366 0.719208 0.520266
0.755994 0.721545 0.549518
0.193564 0.775555 0.615373
0.196642 0.775753 0.614261
0.202596 0.775525 0.610528
0.251546 0.770558 0.539430
0.327602 0.763157 0.528369
0.420169 0.756371 0.521573
0.521452 0.751455 0.517524
0.639952 0.749315 0.516431
0.756609 0.750932 0.520642
0.110107 0.412846 0.771944
0.144781 0.467069 0.786732
0.469555 0.541624 0.803551
0.716713 0.556888 0.804359
0.801527 0.574517 0.805074
0.815494 0.555333 0.787557
0.814708 0.528211 0.769341
0.811907 0.478404 0.754830
0.806331 0.420750 0.734237
0.116787 0.443315 0.774035
0.151347 0.488969 0.786443
0.458390 0.553611 0.802564
0.706021 0.569325 0.803721
0.796599 0.583003 0.802539
0.808541 0.553655 0.780241
0.810458 0.530160 0.764574
0.809172 0.484329 0.750359
0.804516 0.416247 0.731227
0.155155 0.548662 0.776801
0.195179 0.563571 0.782852
0.435882 0.602974 0.797020
0.649118 0.585729 0.783909
0.747997 0.567905 0.769087
0.785840 0.555382 0.756087
0.796465 0.544009 0.744271
0.800013 0.522707 0.735731
0.798553 0.401722 0.721373
0.148138 0.557682 0.716842
0.165498 0.557410 0.716279
0.298176 0.561319 0.718938
0.508671 0.558153 0.716092
0.666243 0.557390 0.711757
0.737752 0.561574 0.710203
0.773156 0.566677 0.711161
0.786541 0.561600 0.713115
0.790065 0.499136 0.707052
0.153527 0.606353 0.674913
0.165144 0.602239 0.672115
0.236284 0.591654 0.665875
0.391165 0.575897 0.658107
0.549492 0.568936 0.654225
0.677256 0.580083 0.662336
0.737463 0.598154 0.673794
0.767517 0.608811 0.685905
0.779431 0.608206 0.695534
0.178697 0.666649 0.663478
0.188808 0.664141 0.660931
0.239236 0.656314 0.651675
0.343535 0.642891 0.638292
0.477570 0.627820 0.624896
0.597110 0.617607 0.615451
0.699974 0.632455 0.636229
0.748029 0.645156 0.659324
0.766895 0.655559 0.680160
0.203680 0.715057 0.656772
0.211312 0.713552 0.654240
0.249304 0.708790 0.646806
0.328150 0.701009 0.636512
0.437870 0.691871 0.626464
0.553551 0.681937 0.619045
0.667768 0.678116 0.617739
0.731349 0.684001 0.630717
0.758923 0.695439 0.665789
0.211646 0.751496 0.649474
0.216891 0.750293 0.647492
0.246721 0.746189 0.641432
0.305674 0.739697 0.633105
0.398605 0.732135 0.624957
0.505689 0.725364 0.618673
0.612485 0.721163 0.615404
0.712366 0.720485 0.616373
0.755827 0.725269 0.645522
0.194153 0.773807 0.641721
0.196872 0.773974 0.642308
0.201968 0.773696 0.644949
0.257211 0.769746 0.636474
0.335197 0.762644 0.626201
0.427223 0.756451 0.619096
0.528052 0.752133 0.614606
0.650017 0.750485 0.612583
0.756856 0.754036 0.627912
0.155839 0.532500 0.826296
0.192763 0.555966 0.834559
0.427317 0.595275 0.837724
0.706307 0.609419 0.837966
0.799561 0.621196 0.838366
0.822012 0.617199 0.830423
0.819971 0.581144 0.807954
0.815324 0.535622 0.790250
0.808433 0.446715 0.771188
0.165733 0.548629 0.827371
0.201027 0.568613 0.834382
0.429008 0.606702 0.837699
0.698328 0.618202 0.838003
0.796879 0.628654 0.838418
0.815689 0.615480 0.823769
0.815915 0.582528 0.803465
0.812643 0.539498 0.787252
0.806611 0.441724 0.768746
0.217301 0.616323 0.829533
0.251646 0.623041 0.833336
0.437471 0.640485 0.837069
0.671892 0.649017 0.837672
0.765742 0.630855 0.820108
0.794833 0.615034 0.802984
0.802536 0.593323 0.789046
0.803689 0.564290 0.777510
0.800589 0.425244 0.760397
0.222394 0.633668 0.798479
0.246652 0.634183 0.798685
0.377067 0.636241 0.797523
0.552429 0.630484 0.790569
0.692062 0.623403 0.781957
0.755865 0.617917 0.774283
0.782546 0.611968 0.768025
0.790302 0.597622 0.762755
0.791805 0.556852 0.752705
0.196850 0.637848 0.752708
0.212764 0.636984 0.752140
0.299090 0.635788 0.751220
0.447295 0.631314 0.746972
0.596440 0.627428 0.741860
0.699010 0.627562 0.739268
0.749599 0.629614 0.739233
0.772743 0.630048 0.740207
0.781478 0.625442 0.738386
0.203875 0.674181 0.724940
0.215074 0.672568 0.723601
0.272898 0.668010 0.720256
0.386415 0.660111 0.714836
0.514607 0.651553 0.708427
0.634788 0.648092 0.705596
0.711870 0.653269 0.710372
0.752696 0.660015 0.718254
0.768219 0.665586 0.724390
0.217186 0.715093 0.712025
0.225753 0.713917 0.710599
0.267537 0.710175 0.706546
0.348790 0.703917 0.701111
0.456689 0.696485 0.695519
0.567868 0.688677 0.690122
0.671870 0.682537 0.685702
0.734050 0.692821 0.698764
0.759215 0.700767 0.713032
0.217809 0.750976 0.703520
0.223423 0.749899 0.702240
0.255255 0.746176 0.698281
0.315477 0.740390 0.692981
0.407963 0.733660 0.687956
0.514222 0.727582 0.684144
0.622437 0.723837 0.682363
0.715427 0.723719 0.684309
0.755894 0.729838 0.704139
0.193649 0.771718 0.679465
0.199639 0.772637 0.678725
0.205361 0.772653 0.676390
0.253582 0.770550 0.689976
0.335466 0.763483 0.683233
0.427997 0.757775 0.678720
0.528792 0.753944 0.675756
0.650196 0.752763 0.674401
0.757465 0.758592 0.698386
0.244214 0.619947 0.859849
0.258125 0.622179 0.860407
0.465099 0.633009 0.860181
0.721468 0.641263 0.860221
0.804338 0.650413 0.860442
0.829673 0.653653 0.858404
0.825665 0.624233 0.843181
0.819412 0.576203 0.827937
0.810875 0.486852 0.802722
0.251287 0.626642 0.859803
0.266424 0.628846 0.860334
0.469441 0.639824 0.860253
0.715370 0.647960 0.860297
0.802423 0.656625 0.860510
0.824092 0.651702 0.854639
0.821926 0.624507 0.840144
0.816836 0.579605 0.824840
0.809099 0.484596 0.800470
0.298510 0.660725 0.859608
0.316771 0.662240 0.859982
0.489563 0.669966 0.860275
0.693053 0.676193 0.860407
0.786473 0.670495 0.854598
0.805406 0.651425 0.842219
0.809476 0.631032 0.828630
0.808231 0.601452 0.814573
0.803354 0.497555 0.792999
0.323970 0.686940 0.850302
0.340584 0.685455 0.849428
0.454163 0.682219 0.845911
0.612119 0.672982 0.838958
0.726068 0.662393 0.829447
0.776201 0.652169 0.817980
0.790841 0.640617 0.807743
0.795241 0.624875 0.799106
0.794364 0.587246 0.789029
0.277568 0.677324 0.810700
0.292885 0.676557 0.810119
0.385049 0.675030 0.807468
0.514779 0.669732 0.802005
0.653853 0.663972 0.795747
0.726566 0.659573 0.790120
0.764166 0.655595 0.785570
0.780436 0.649244 0.781996
0.783936 0.639694 0.777363
0.253858 0.693799 0.781551
0.266926 0.693173 0.781280
0.329923 0.691290 0.780022
0.433138 0.685688 0.776227
0.558523 0.679514 0.771491
0.673208 0.676177 0.768020
0.730155 0.675761 0.766595
0.760380 0.675598 0.766627
0.771287 0.675991 0.766029
0.242578 0.720524 0.764270
0.252122 0.719755 0.764045
0.299914 0.717535 0.763667
0.385782 0.713134 0.762049
0.491188 0.707336 0.758026
0.599337 0.702286 0.752567
0.692296 0.700645 0.750089
0.742175 0.702756 0.752839
0.761231 0.706760 0.756031
0.223199 0.754275 0.749268
0.229072 0.753279 0.748579
0.264003 0.749741 0.746885
0.326729 0.744681 0.745158
0.419420 0.739025 0.744031
0.524976 0.733905 0.742638
0.635337 0.730391 0.740970
0.717538 0.728172 0.738726
0.756590 0.734580 0.748733
0.193583 0.769620 0.722106
0.211786 0.773208 0.722148
0.212735 0.772322 0.724672
0.249284 0.771605 0.729380
0.326755 0.766224 0.726024
0.421620 0.760900 0.723743
0.522646 0.757495 0.722613
0.638263 0.756590 0.722009
0.758061 0.763157 0.746457
0.442850 0.651685 0.880355
0.498786 0.652641 0.880356
0.693721 0.656420 0.880359
0.799452 0.662920 0.880389
0.827806 0.670455 0.880455
0.843023 0.676592 0.880587
0.833870 0.645223 0.865599
0.824394 0.591246 0.852953
0.813060 0.526301 0.838332
0.448654 0.656367 0.880277
0.501717 0.657338 0.880279
0.690991 0.661169 0.880287
0.798256 0.667731 0.880325
0.827286 0.675293 0.880399
0.838761 0.674612 0.877288
0.830550 0.644437 0.862960
0.821979 0.591351 0.851017
0.811370 0.530962 0.839406
0.478929 0.679922 0.879894
0.515403 0.680842 0.879905
0.680878 0.684422 0.879943
0.792544 0.690534 0.880027
0.822504 0.693281 0.878290
0.823707 0.672000 0.865749
0.819644 0.647640 0.854304
0.813981 0.605018 0.844353
0.805532 0.517984 0.834103
0.505972 0.712909 0.876777
0.524290 0.711341 0.875570
0.644277 0.706347 0.871526
0.755813 0.698705 0.865085
0.792001 0.688250 0.857255
0.801401 0.674249 0.849092
0.803210 0.657741 0.840746
0.801762 0.631705 0.832462
0.797426 0.597371 0.822941
0.429354 0.703744 0.848261
0.447783 0.702756 0.847533
0.542748 0.699680 0.845010
0.684107 0.695119 0.840588
0.747909 0.688853 0.835311
0.775224 0.680965 0.828072
0.785055 0.671302 0.820728
0.788117 0.656137 0.814234
0.787324 0.635344 0.809120
0.367794 0.710206 0.823512
0.385363 0.709328 0.822595
0.455603 0.706615 0.819570
0.589680 0.702735 0.814874
0.693286 0.698666 0.809595
0.739624 0.695002 0.804765
0.762087 0.690641 0.800835
0.772842 0.682248 0.797787
0.776154 0.675952 0.795742
0.315766 0.731437 0.806294
0.325561 0.730535 0.805523
0.383524 0.727605 0.802912
0.491884 0.723077 0.798749
0.615977 0.718262 0.793959
0.699820 0.714427 0.789702
0.739077 0.711713 0.786942
0.758385 0.708328 0.785652
0.765481 0.707902 0.785513
0.270138 0.761662 0.795721
0.276170 0.760904 0.795565
0.304630 0.757925 0.794248
0.381979 0.752729 0.791210
0.492588 0.746944 0.787341
0.617269 0.742088 0.783416
0.707131 0.739008 0.780317
0.746779 0.736901 0.778970
0.759565 0.736563 0.779486
0.193707 0.767041 0.751807
0.225974 0.773685 0.762134
0.223122 0.772243 0.760736
0.227841 0.770356 0.757695
0.318124 0.772790 0.773994
0.425246 0.770062 0.780760
0.526443 0.766833 0.779195
0.650683 0.765989 0.778067
0.758729 0.767743 0.777856
