negative-gold-200/Gold200_Modern_ExtraPunchy.cube
TITLE "Kodak Gold 200 Modern ExtraPunchy"
# Adobe RGB in/out. REPLACES AgX. Kodak Gold 200 Modern ExtraPunchy.
LUT_3D_SIZE 5
DOMAIN_MIN 0.0 0.0 0.0
DOMAIN_MAX 1.0 1.0 1.0
0.069662 0.073299 0.081842
0.603068 0.087432 0.079636
0.854532 0.143595 0.087075
0.881002 0.178008 0.113022
0.878463 0.361586 0.653687
0.073015 0.308395 0.079838
0.103402 0.182596 0.080691
0.694920 0.245215 0.087439
0.860537 0.306355 0.108673
0.871068 0.340565 0.636567
0.096242 0.677751 0.085995
0.119517 0.641560 0.089761
0.356991 0.553131 0.095097
0.760963 0.559089 0.113310
0.851193 0.545717 0.284262
0.141080 0.813455 0.090350
0.158188 0.801112 0.097128
0.297546 0.765963 0.113481
0.601048 0.736773 0.128982
0.829549 0.734092 0.164155
0.152081 0.845198 0.079969
0.190794 0.855355 0.079921
0.262962 0.846745 0.087066
0.477904 0.829760 0.109477
0.819338 0.825210 0.118287
0.070035 0.096842 0.310536
0.618785 0.235007 0.589560
0.857078 0.238625 0.469794
0.877190 0.280036 0.501779
0.875775 0.353621 0.647277
0.077178 0.230288 0.219341
0.150692 0.163204 0.155316
0.753890 0.276495 0.252147
0.857206 0.339973 0.331836
0.868007 0.332961 0.630233
0.112976 0.642198 0.235563
0.150218 0.598094 0.215975
0.455680 0.525653 0.190436
0.785659 0.555718 0.230711
0.848933 0.563968 0.492547
0.156108 0.800005 0.192330
0.180539 0.787704 0.204408
0.342660 0.755468 0.218178
0.650207 0.729263 0.230728
0.828171 0.732044 0.273703
0.156859 0.848917 0.089453
0.195342 0.858695 0.088918
0.277316 0.844933 0.124515
0.495274 0.828953 0.176964
0.821555 0.825199 0.194038
0.083779 0.262317 0.718606
0.513175 0.473703 0.804017
0.871466 0.514711 0.799010
0.880132 0.461319 0.751018
0.874891 0.396029 0.735249
0.113308 0.454894 0.714195
0.350198 0.485909 0.731943
0.791172 0.479037 0.710203
0.859855 0.489973 0.706379
0.866468 0.367600 0.711274
0.133027 0.607247 0.593500
0.187833 0.576354 0.563974
0.510678 0.513381 0.514275
0.792942 0.579774 0.586283
0.846262 0.603591 0.670679
0.184243 0.781725 0.579114
0.220890 0.771179 0.566698
0.408646 0.743853 0.539796
0.697969 0.722149 0.528530
0.825518 0.741380 0.600068
0.186846 0.855686 0.627563
0.194587 0.855646 0.621971
0.311355 0.840698 0.537530
0.536761 0.827959 0.526791
0.821890 0.827390 0.529877
0.153865 0.543848 0.871201
0.417940 0.612945 0.883108
0.868916 0.644386 0.883952
0.889923 0.597341 0.854484
0.878308 0.445660 0.811962
0.207164 0.637908 0.874146
0.431045 0.670174 0.882247
0.833032 0.657271 0.865567
0.872319 0.610787 0.836906
0.870092 0.420949 0.796096
0.189662 0.666634 0.788197
0.284426 0.663874 0.786679
0.631795 0.652694 0.777138
0.813742 0.655613 0.774459
0.848251 0.650043 0.773596
0.207056 0.776723 0.743988
0.254859 0.769616 0.737245
0.456111 0.749920 0.723703
0.714013 0.730376 0.711680
0.825068 0.756067 0.745227
0.186919 0.850603 0.704057
0.196957 0.851842 0.700304
0.318780 0.841053 0.708660
0.548678 0.830669 0.699530
0.822933 0.835729 0.727221
0.438027 0.685272 0.928803
0.746609 0.692142 0.928808
0.897802 0.712619 0.928909
0.903898 0.676541 0.913112
0.882967 0.536933 0.883906
0.481827 0.726521 0.928313
0.727401 0.733156 0.928365
0.892471 0.745296 0.926607
0.889593 0.679796 0.901102
0.875386 0.524238 0.878352
0.420561 0.760348 0.894678
0.568693 0.754506 0.891324
0.811928 0.739705 0.879938
0.852337 0.713860 0.866132
0.854929 0.663279 0.855548
0.300178 0.800457 0.852969
0.361593 0.794877 0.849880
0.654818 0.781311 0.841694
0.802448 0.771837 0.834841
0.832712 0.766338 0.833162
0.186969 0.844926 0.787279
0.212692 0.851299 0.796593
0.302405 0.852023 0.816102
0.544854 0.844699 0.823792
0.824475 0.845689 0.821810
