negative-gold-200/Gold200_Classic_Normal.cube
TITLE "Kodak Gold 200 Classic Normal"
# Adobe RGB in/out. REPLACES AgX. Kodak Gold 200 Classic Normal.
LUT_3D_SIZE 5
DOMAIN_MIN 0.0 0.0 0.0
DOMAIN_MAX 1.0 1.0 1.0
0.075187 0.075821 0.088847
0.338794 0.088764 0.091088
0.733070 0.116190 0.095848
0.815315 0.140544 0.111278
0.840051 0.256868 0.528490
0.081312 0.161837 0.091171
0.113762 0.163677 0.093251
0.569918 0.185749 0.098414
0.806519 0.218106 0.112889
0.840052 0.256873 0.528488
0.098560 0.460255 0.095552
0.116275 0.472977 0.099715
0.303760 0.463388 0.109957
0.729025 0.476479 0.126423
0.839500 0.466667 0.249318
0.132262 0.705004 0.101028
0.149298 0.707755 0.107551
0.261326 0.706391 0.125774
0.563087 0.704106 0.149013
0.837674 0.711627 0.189123
0.164248 0.794384 0.092836
0.197544 0.813552 0.092841
0.259755 0.818240 0.103422
0.454072 0.812464 0.133036
0.841902 0.818854 0.147902
0.078893 0.093762 0.159623
0.343623 0.137569 0.312730
0.745695 0.156671 0.268591
0.816259 0.192099 0.328027
0.840052 0.256879 0.528512
0.087782 0.164588 0.159917
0.194293 0.193038 0.192995
0.680999 0.214306 0.203675
0.809920 0.246310 0.240165
0.840052 0.256873 0.528489
0.109704 0.449742 0.166839
0.141777 0.460945 0.179620
0.406097 0.465618 0.199689
0.766650 0.486634 0.222648
0.840268 0.492059 0.425206
0.144947 0.700660 0.165364
0.168169 0.702879 0.180536
0.302485 0.703227 0.209968
0.631794 0.704117 0.236220
0.838778 0.712859 0.274461
0.169884 0.802161 0.104535
0.202609 0.820724 0.104533
0.272846 0.818190 0.144968
0.474157 0.813018 0.205216
0.844656 0.819464 0.226283
0.088330 0.145511 0.463847
0.259754 0.229114 0.589102
0.733350 0.259727 0.591191
0.815656 0.293614 0.607953
0.840612 0.287889 0.644493
0.100825 0.227928 0.473769
0.204698 0.277055 0.540465
0.686419 0.317119 0.564562
0.811020 0.352378 0.592356
0.840564 0.285104 0.632418
0.130219 0.468647 0.459668
0.183503 0.478945 0.470531
0.511841 0.505513 0.511401
0.785574 0.525453 0.537819
0.841151 0.542374 0.630230
0.173153 0.701521 0.468085
0.204164 0.703464 0.472769
0.371801 0.705902 0.487993
0.706267 0.710426 0.509028
0.840939 0.725104 0.582794
0.197691 0.818886 0.575529
0.206770 0.822682 0.575526
0.306217 0.818345 0.502524
0.522908 0.815648 0.510728
0.846035 0.822619 0.524037
0.111982 0.271621 0.722366
0.207344 0.330951 0.746930
0.719538 0.358092 0.748689
0.814738 0.380665 0.752213
0.841131 0.320082 0.744908
0.126704 0.351311 0.728396
0.213237 0.385689 0.745137
0.686125 0.412812 0.748783
0.811319 0.436191 0.752838
0.841110 0.318990 0.742137
0.165306 0.529364 0.712397
0.227186 0.545513 0.726287
0.555654 0.567535 0.742115
0.794160 0.587164 0.750573
0.841863 0.592383 0.759412
0.199954 0.714140 0.700135
0.237326 0.716524 0.703952
0.423096 0.721568 0.718659
0.738863 0.728630 0.734103
0.842958 0.742308 0.762671
0.203941 0.821446 0.686535
0.214496 0.825004 0.686807
0.318635 0.823519 0.709322
0.538926 0.822424 0.711920
0.848015 0.830273 0.752167
0.216370 0.402294 0.839911
0.499599 0.409959 0.839920
0.777685 0.433209 0.840116
0.824413 0.444838 0.841135
0.842003 0.378896 0.837705
0.239483 0.449336 0.838969
0.472558 0.457099 0.839070
0.771611 0.476456 0.839479
0.823812 0.485674 0.840625
0.842109 0.388777 0.842694
0.274695 0.602945 0.837234
0.397175 0.606421 0.837586
0.742836 0.615914 0.838367
0.820972 0.622268 0.839692
0.844798 0.596795 0.843753
0.266408 0.742137 0.837501
0.318993 0.742631 0.837984
0.625936 0.744695 0.838960
0.810990 0.748056 0.840279
0.846734 0.748408 0.843345
0.209811 0.822258 0.791233
0.233058 0.829312 0.802741
0.310739 0.835484 0.828104
0.539064 0.835459 0.842992
0.849873 0.838757 0.844366
