negative-gold-200/Gold200_Classic_ExtraPunchy.cube
TITLE "Kodak Gold 200 Classic ExtraPunchy"
# Adobe RGB in/out. REPLACES AgX. Kodak Gold 200 Classic ExtraPunchy.
LUT_3D_SIZE 5
DOMAIN_MIN 0.0 0.0 0.0
DOMAIN_MAX 1.0 1.0 1.0
0.069662 0.073299 0.081842
0.135423 0.085862 0.078768
0.474054 0.146621 0.081573
0.687594 0.294866 0.089689
0.802780 0.465219 0.109222
0.072124 0.133200 0.078658
0.147685 0.154047 0.079556
0.480675 0.233609 0.082549
0.689646 0.373032 0.091117
0.803658 0.515206 0.111245
0.094698 0.424411 0.081217
0.195429 0.439136 0.082005
0.503835 0.486838 0.086326
0.696686 0.557907 0.096443
0.806780 0.630928 0.118869
0.172234 0.658126 0.087666
0.289414 0.663003 0.089101
0.544196 0.679948 0.094997
0.709160 0.709069 0.109146
0.812394 0.746738 0.133139
0.308392 0.791686 0.103114
0.396365 0.793952 0.105574
0.588708 0.801928 0.113882
0.726782 0.815980 0.130328
0.820499 0.832325 0.158087
0.068363 0.078530 0.149929
0.138264 0.091984 0.152804
0.475632 0.156019 0.162956
0.688101 0.304315 0.183319
0.802989 0.471266 0.217899
0.073189 0.143080 0.152460
0.150692 0.163204 0.155316
0.482234 0.244737 0.165403
0.690117 0.381876 0.186417
0.803866 0.520848 0.220953
0.096612 0.431279 0.161413
0.198670 0.445873 0.164203
0.505332 0.492701 0.174760
0.697145 0.561626 0.197510
0.806984 0.634079 0.232085
0.175520 0.660398 0.178807
0.292259 0.665240 0.182106
0.545597 0.682075 0.194725
0.709597 0.711024 0.217786
0.812593 0.748005 0.252866
0.311195 0.792740 0.209076
0.398602 0.794996 0.212559
0.589604 0.802940 0.225030
0.727191 0.816938 0.248623
0.820689 0.832981 0.283804
0.072551 0.101334 0.501221
0.148822 0.117359 0.503098
0.481264 0.189039 0.508867
0.689824 0.337598 0.517680
0.803737 0.492563 0.530544
0.077236 0.176027 0.502873
0.161375 0.198056 0.504746
0.487800 0.284144 0.510050
0.691802 0.411142 0.518840
0.804611 0.539803 0.531671
0.106083 0.454878 0.508122
0.210640 0.468041 0.509469
0.510678 0.513381 0.514275
0.698784 0.574718 0.522982
0.807717 0.643357 0.535696
0.187270 0.668430 0.515898
0.302426 0.673157 0.517222
0.550602 0.689608 0.521943
0.711160 0.717959 0.530502
0.813304 0.752503 0.543010
0.321215 0.796490 0.527279
0.406595 0.798713 0.528569
0.592804 0.806543 0.533173
0.728655 0.820351 0.541524
0.821371 0.835320 0.553740
0.080412 0.158814 0.702331
0.168769 0.178190 0.702783
0.491480 0.263193 0.704400
0.692919 0.396533 0.707347
0.805105 0.530189 0.711694
0.086795 0.248107 0.702729
0.182603 0.271823 0.703180
0.497900 0.345730 0.704794
0.694873 0.455564 0.707737
0.805973 0.564835 0.712077
0.123757 0.494474 0.704152
0.234419 0.506922 0.704600
0.520391 0.546373 0.706205
0.701774 0.597802 0.709132
0.809057 0.658755 0.713449
0.208872 0.682719 0.706749
0.320926 0.687250 0.707193
0.559710 0.703049 0.708782
0.714013 0.730376 0.711680
0.814606 0.760564 0.715954
0.339338 0.803247 0.710586
0.421130 0.805412 0.711023
0.598619 0.813042 0.712588
0.731328 0.825551 0.715444
0.822621 0.839546 0.719657
0.098393 0.263076 0.813483
0.201044 0.286294 0.813697
0.506428 0.357977 0.814464
0.697480 0.463875 0.815870
0.807134 0.569791 0.817954
0.109599 0.345633 0.813671
0.215517 0.365027 0.813885
0.512684 0.426787 0.814652
0.699400 0.513952 0.816056
0.807993 0.599687 0.818138
0.151503 0.546332 0.814347
0.269977 0.554533 0.814560
0.534633 0.582719 0.815324
0.706183 0.630229 0.816724
0.811045 0.680514 0.818800
0.244446 0.703028 0.815584
0.347186 0.707301 0.815796
0.569751 0.722236 0.816556
0.718223 0.746456 0.817947
0.816538 0.772140 0.820011
0.363578 0.813031 0.817421
0.442480 0.815116 0.817631
0.607149 0.822466 0.818385
0.735278 0.832179 0.819764
0.824475 0.845689 0.821810
