negative-gold-200/Gold200_Modern_Soft.cube
TITLE "Kodak Gold 200 Modern Soft"
# Adobe RGB in/out. REPLACES AgX. Kodak Gold 200 Modern Soft.
LUT_3D_SIZE 9
DOMAIN_MIN 0.0 0.0 0.0
DOMAIN_MAX 1.0 1.0 1.0
0.062396 0.069107 0.086480
0.109615 0.080701 0.091077
0.363911 0.109272 0.098575
0.544259 0.177042 0.107189
0.637277 0.301810 0.117064
0.699056 0.406602 0.127822
0.736209 0.482157 0.140723
0.766640 0.535834 0.154992
0.789474 0.572610 0.170329
0.070539 0.098533 0.090217
0.091958 0.093845 0.091101
0.274598 0.122606 0.097275
0.512372 0.199917 0.105973
0.624570 0.322489 0.116060
0.690630 0.421076 0.126789
0.732112 0.490671 0.139739
0.763705 0.540790 0.154102
0.788083 0.576741 0.169422
0.092022 0.315558 0.098016
0.126259 0.267211 0.097904
0.238806 0.211450 0.098858
0.448772 0.281681 0.104757
0.592593 0.380101 0.114118
0.667355 0.459943 0.124351
0.719823 0.517988 0.137088
0.754486 0.557066 0.151541
0.782654 0.590625 0.166856
0.125877 0.512402 0.105653
0.172374 0.490679 0.105407
0.314906 0.448753 0.105646
0.441888 0.424486 0.107779
0.559574 0.457356 0.114012
0.642724 0.509185 0.123101
0.704437 0.549578 0.134756
0.741790 0.583004 0.148807
0.773058 0.613388 0.164441
0.179273 0.604598 0.113548
0.227860 0.595556 0.113439
0.368633 0.572756 0.113584
0.474091 0.552937 0.114976
0.560785 0.546678 0.118030
0.626956 0.559615 0.124224
0.687411 0.588407 0.134720
0.729684 0.616815 0.147951
0.762276 0.643453 0.163019
0.246213 0.665244 0.120876
0.291841 0.662090 0.120881
0.405718 0.652442 0.121178
0.497908 0.638629 0.122422
0.577589 0.627404 0.125160
0.629178 0.625826 0.129949
0.676774 0.635102 0.137577
0.720810 0.653360 0.149429
0.753293 0.666720 0.163620
0.313324 0.698829 0.128811
0.351144 0.696957 0.128909
0.427883 0.691259 0.129396
0.515098 0.683922 0.130676
0.587083 0.677859 0.133104
0.634810 0.675044 0.138133
0.678592 0.676046 0.144839
0.715620 0.680432 0.153805
0.747085 0.690306 0.166564
0.365991 0.725450 0.136590
0.393565 0.724352 0.136794
0.449975 0.720891 0.137610
0.525657 0.716105 0.139355
0.591714 0.711660 0.142327
0.637889 0.708972 0.146689
0.680438 0.708787 0.153265
0.715949 0.711169 0.161878
0.743709 0.715727 0.173288
0.403999 0.746421 0.144131
0.417584 0.745819 0.144380
0.466989 0.743886 0.145311
0.532725 0.741125 0.147126
0.593654 0.738454 0.150272
0.638296 0.736770 0.155255
0.679957 0.736679 0.161708
0.715076 0.738401 0.170310
0.742363 0.741832 0.182582
0.066249 0.076169 0.143116
0.115513 0.086036 0.144500
0.365300 0.114065 0.146860
0.536549 0.177050 0.148890
0.631829 0.297322 0.156007
0.694575 0.402527 0.164964
0.733928 0.479790 0.177411
0.765004 0.534598 0.191238
0.788724 0.571758 0.205085
0.070845 0.097310 0.126151
0.084779 0.088866 0.111311
0.256630 0.121638 0.128158
0.499970 0.194478 0.140312
0.618202 0.316962 0.150575
0.686074 0.416254 0.161762
0.729823 0.488077 0.174613
0.762075 0.539486 0.189304
0.787339 0.575858 0.203699
0.090687 0.292814 0.142863
0.118465 0.236728 0.131444
0.204293 0.184852 0.121113
0.429365 0.263275 0.128089
0.585328 0.370311 0.140407
0.662702 0.455203 0.153468
0.717541 0.514780 0.166903
0.752893 0.555574 0.183566
0.781667 0.589655 0.199435
0.122768 0.498698 0.146536
0.164717 0.477638 0.141696
0.294531 0.432144 0.132251
0.426566 0.407549 0.129042
0.550289 0.449100 0.134567
0.638430 0.503556 0.146721
0.702276 0.547000 0.160714
0.740300 0.581346 0.176720
0.772020 0.612341 0.193927
0.175824 0.598789 0.149867
0.221481 0.589884 0.147546
0.361048 0.567212 0.142361
0.466913 0.547381 0.138510
0.554172 0.541641 0.138877
0.623521 0.556145 0.145108
0.684910 0.585946 0.157519
0.728409 0.615184 0.172102
0.761383 0.642426 0.189581
0.242995 0.663216 0.154242
0.289277 0.659980 0.153069
0.402880 0.650352 0.149978
0.494074 0.635339 0.147602
0.573855 0.624247 0.147617
0.626834 0.623073 0.150902
0.675045 0.633219 0.158381
0.719857 0.652526 0.171546
0.752606 0.666228 0.188162
0.311281 0.697644 0.158887
0.349586 0.695788 0.158413
0.426063 0.690130 0.157165
0.513031 0.682833 0.156230
0.585761 0.676815 0.156877
0.633541 0.674094 0.159883
0.677431 0.675265 0.165371
0.715020 0.679938 0.175066
0.746639 0.689991 0.190236
0.365186 0.724783 0.163377
0.392554 0.723695 0.163272
0.449028 0.720262 0.163087
0.524775 0.715513 0.163366
0.591042 0.711113 0.164803
0.637239 0.708484 0.168130
0.679831 0.708389 0.174896
0.715597 0.710890 0.184180
0.743462 0.715579 0.195636
0.403800 0.746088 0.167390
0.417361 0.745492 0.167526
0.466650 0.743580 0.168124
0.532347 0.740849 0.169598
0.593364 0.738216 0.172460
0.638024 0.736580 0.177148
0.679716 0.736550 0.183912
0.714953 0.738348 0.192779
0.742305 0.741864 0.203584
0.072733 0.091262 0.382269
0.121110 0.099270 0.384033
0.384190 0.131344 0.390351
0.551323 0.213049 0.373869
0.631594 0.315806 0.348038
0.691027 0.408302 0.340320
0.730932 0.480810 0.339117
0.762210 0.534398 0.341108
0.787208 0.571311 0.344863
0.078615 0.126403 0.383821
0.125177 0.132157 0.374631
0.332735 0.157687 0.331600
0.510956 0.224991 0.323119
0.616331 0.327498 0.323896
0.681904 0.419761 0.326887
0.726649 0.488243 0.330930
0.759218 0.538976 0.335795
0.785715 0.575252 0.341284
0.088462 0.245882 0.292649
0.110254 0.206031 0.243624
0.162810 0.154751 0.177696
0.415255 0.255954 0.221322
0.576028 0.366895 0.259666
0.656591 0.452661 0.286769
0.713826 0.512332 0.305803
0.749851 0.554123 0.319699
0.779540 0.588566 0.329951
0.117483 0.471391 0.313331
0.152175 0.453279 0.287474
0.263824 0.400679 0.232538
0.399979 0.375517 0.205025
0.533049 0.432149 0.219219
0.630362 0.494963 0.247490
0.696208 0.543041 0.274134
0.737091 0.578724 0.295990
0.769610 0.610647 0.314251
0.168631 0.585075 0.313973
0.207772 0.576841 0.300803
0.345504 0.555116 0.266750
0.449371 0.535135 0.235220
0.538232 0.530052 0.221847
0.615481 0.548705 0.230345
0.678976 0.580757 0.252916
0.725303 0.611796 0.276104
0.759126 0.640327 0.297139
0.235470 0.657633 0.305878
0.283077 0.654432 0.299083
0.395512 0.644413 0.279686
0.484398 0.627258 0.257492
0.564137 0.616348 0.242036
0.620378 0.616029 0.237579
0.670487 0.628626 0.245259
0.717304 0.650508 0.265621
0.750736 0.665070 0.286180
0.306132 0.694328 0.295410
0.345553 0.692540 0.291931
0.421696 0.687054 0.281439
0.507421 0.679917 0.268164
0.582103 0.674025 0.257435
0.629956 0.671524 0.252700
0.674092 0.673132 0.254958
0.713318 0.678660 0.264037
0.745354 0.689202 0.282543
0.363301 0.722830 0.284703
0.389861 0.721778 0.283032
0.446397 0.718451 0.277869
0.522266 0.713839 0.271082
0.589100 0.709580 0.265487
0.635337 0.707123 0.263390
0.678030 0.707279 0.266015
0.714542 0.710123 0.273523
0.742718 0.715203 0.285334
0.403326 0.745089 0.274286
0.416798 0.744515 0.273644
0.465718 0.742671 0.271693
0.531259 0.740044 0.269316
0.592512 0.737537 0.267957
0.637209 0.736052 0.268994
0.678989 0.736210 0.273358
0.714581 0.738240 0.281434
0.742134 0.742020 0.293116
0.081976 0.118122 0.591028
0.131896 0.127273 0.591509
0.395613 0.174554 0.593017
0.574424 0.287899 0.595768
0.645183 0.370342 0.568372
0.696355 0.438606 0.543136
0.731557 0.493790 0.527461
0.761369 0.539845 0.516826
0.786300 0.574599 0.508380
0.087280 0.166229 0.591459
0.140259 0.179279 0.591879
0.400186 0.242137 0.593385
0.554356 0.317427 0.575372
0.629924 0.378074 0.546924
0.686586 0.446593 0.529997
0.727012 0.500048 0.519049
0.758242 0.543915 0.510984
0.784417 0.578249 0.504259
0.094988 0.292194 0.523454
0.126203 0.280277 0.503604
0.269746 0.276427 0.469578
0.456280 0.324775 0.467768
0.586820 0.398125 0.479040
0.658598 0.465979 0.487076
0.713218 0.520264 0.490879
0.748407 0.557429 0.491845
0.778060 0.590626 0.491144
0.115646 0.452121 0.492786
0.145565 0.436043 0.473489
0.244463 0.388878 0.413848
0.358878 0.343433 0.340577
0.526798 0.433483 0.397470
0.627101 0.497290 0.432866
0.692987 0.544327 0.455054
0.734905 0.579626 0.466054
0.767634 0.611347 0.472425
0.162870 0.570529 0.496725
0.195619 0.563523 0.485683
0.324412 0.544005 0.453641
0.430216 0.523766 0.407856
0.520158 0.515632 0.378617
0.607762 0.543202 0.396085
0.673626 0.577820 0.420800
0.722444 0.610310 0.440430
0.756921 0.639692 0.453826
0.228163 0.650759 0.490749
0.273405 0.647873 0.484528
0.382562 0.635129 0.465403
0.473529 0.618706 0.437802
0.552687 0.607765 0.411951
0.612412 0.608129 0.399477
0.665270 0.624309 0.405392
0.714415 0.648818 0.422149
0.748609 0.664275 0.437009
0.300785 0.690064 0.478270
0.340821 0.688410 0.474697
0.417005 0.683285 0.463493
0.500635 0.676500 0.447028
0.575243 0.670812 0.428228
0.625163 0.668521 0.415656
0.669718 0.670634 0.411225
0.711188 0.677404 0.415403
0.743740 0.688544 0.428020
0.361381 0.720213 0.462500
0.386932 0.719230 0.460563
0.443236 0.716109 0.454342
0.519102 0.711755 0.443573
0.586590 0.707735 0.431903
0.632829 0.705513 0.423214
0.675605 0.705986 0.419301
0.713103 0.709287 0.420439
0.741734 0.714935 0.425836
0.403029 0.743728 0.443812
0.416336 0.743191 0.442584
0.464695 0.741471 0.438605
0.529913 0.739026 0.432792
0.591406 0.736728 0.426893
0.636127 0.735472 0.422668
0.678012 0.735901 0.421358
0.714082 0.738263 0.423474
0.741922 0.742423 0.428843
0.094079 0.174490 0.699861
0.151903 0.188220 0.700069
0.405896 0.253658 0.700812
0.579682 0.354900 0.702173
0.665721 0.445856 0.697976
0.707094 0.478939 0.667154
0.736238 0.520083 0.644943
0.763322 0.552209 0.629361
0.786543 0.582913 0.616827
0.099978 0.242047 0.700044
0.160362 0.260351 0.700251
0.410074 0.317521 0.700994
0.581899 0.397867 0.702353
0.651032 0.450036 0.681975
0.699202 0.483770 0.656056
0.731542 0.524737 0.638042
0.760074 0.555713 0.624434
0.784684 0.586199 0.613533
0.118792 0.412379 0.691102
0.176095 0.409410 0.684019
0.375962 0.408726 0.665016
0.517719 0.426304 0.645348
0.609350 0.459644 0.631903
0.670060 0.498020 0.622307
0.717036 0.536236 0.615129
0.749758 0.567353 0.608867
0.778087 0.597372 0.602895
0.123452 0.465405 0.615248
0.157875 0.458506 0.606424
0.285912 0.442582 0.581964
0.429897 0.442447 0.562040
0.552049 0.474001 0.565146
0.634503 0.519899 0.575503
0.695891 0.554582 0.582927
0.735282 0.586536 0.586342
0.767167 0.616208 0.586605
0.162440 0.561788 0.603736
0.191815 0.556382 0.596847
0.314816 0.540586 0.572943
0.422336 0.520924 0.539263
0.499747 0.501015 0.503077
0.605762 0.545993 0.532346
0.672346 0.581378 0.550827
0.721428 0.613454 0.561598
0.755823 0.642350 0.567607
0.224151 0.643646 0.600582
0.266497 0.639736 0.596316
0.372545 0.627842 0.581270
0.464682 0.612675 0.559217
0.542359 0.601177 0.537216
0.604319 0.601163 0.524160
0.660957 0.622347 0.532068
0.712267 0.648701 0.544176
0.747039 0.664707 0.552905
0.297317 0.685822 0.592825
0.335490 0.684360 0.590052
0.412895 0.679774 0.580236
0.494387 0.673548 0.566044
0.568684 0.668143 0.551543
0.620206 0.665934 0.539455
0.665143 0.668468 0.533882
0.709171 0.676787 0.536596
0.742262 0.688542 0.543933
0.360338 0.717498 0.579370
0.384941 0.716615 0.577603
0.440500 0.713793 0.571828
0.515847 0.709824 0.563170
0.584117 0.706142 0.553818
0.630285 0.704187 0.545420
0.673072 0.704968 0.540114
0.711584 0.708750 0.538654
0.740912 0.715249 0.540705
0.403319 0.742320 0.563059
0.416380 0.741838 0.562109
0.464053 0.740292 0.558971
0.528747 0.738103 0.554176
0.590354 0.736087 0.548623
0.635062 0.735119 0.543604
0.677038 0.735861 0.540466
0.713596 0.738597 0.539701
0.741758 0.743195 0.541185
0.113230 0.281337 0.760133
0.179438 0.297091 0.760218
0.418679 0.348826 0.760522
0.585083 0.421169 0.761079
0.674410 0.494608 0.761909
0.718083 0.527566 0.745672
0.743517 0.547164 0.727184
0.767583 0.570855 0.710683
0.787905 0.596204 0.695303
0.119707 0.338505 0.760208
0.183422 0.354391 0.760293
0.422516 0.393520 0.760596
0.586510 0.456076 0.761153
0.672525 0.514299 0.760096
0.711401 0.530141 0.738928
0.738851 0.550065 0.722771
0.764288 0.573828 0.706229
0.786389 0.599112 0.692283
0.147335 0.476116 0.760475
0.221539 0.482552 0.760560
0.438664 0.504901 0.760863
0.565184 0.508153 0.746086
0.634413 0.520603 0.730702
0.686608 0.537762 0.717683
0.724238 0.559321 0.703310
0.753721 0.583721 0.691955
0.779722 0.609023 0.682433
0.150775 0.518258 0.718147
0.190612 0.515776 0.713869
0.356702 0.511288 0.701997
0.487234 0.514486 0.689447
0.588267 0.529214 0.681339
0.650215 0.549447 0.677153
0.704155 0.574037 0.674365
0.738535 0.600052 0.671057
0.768549 0.625817 0.666842
0.173034 0.567131 0.681687
0.205624 0.563754 0.677384
0.335245 0.554181 0.662840
0.445133 0.544986 0.644105
0.540591 0.547357 0.633098
0.618047 0.567520 0.635790
0.678056 0.595108 0.642375
0.723269 0.623004 0.646978
0.756422 0.648198 0.648811
0.226916 0.638596 0.673262
0.267261 0.635516 0.669584
0.369921 0.625954 0.657780
0.462046 0.613154 0.640593
0.538670 0.601875 0.621313
0.596707 0.595850 0.604204
0.660263 0.626337 0.618306
0.712046 0.651511 0.628138
0.746688 0.667059 0.634004
0.297511 0.682522 0.666233
0.334034 0.681288 0.663882
0.410395 0.677369 0.656199
0.490131 0.671897 0.644659
0.563903 0.666874 0.631981
0.616035 0.664440 0.620332
0.660791 0.666974 0.614483
0.707664 0.677254 0.618410
0.741312 0.689626 0.624196
0.360864 0.715161 0.655925
0.384779 0.714398 0.654501
0.438909 0.711947 0.649787
0.513145 0.708465 0.642536
0.582118 0.705207 0.634384
0.628105 0.703522 0.626480
0.670771 0.704518 0.621067
0.710170 0.708732 0.619084
0.740269 0.716170 0.620624
0.404499 0.741126 0.642699
0.417228 0.740711 0.641894
0.464146 0.739378 0.639210
0.528085 0.737504 0.635021
0.589583 0.735833 0.629908
0.634222 0.735194 0.625079
0.676254 0.736262 0.621664
0.713226 0.739378 0.620175
0.741717 0.744431 0.620537
0.142472 0.386423 0.804455
0.215219 0.397058 0.804515
0.436133 0.434129 0.804731
0.590770 0.481986 0.805126
0.677819 0.535772 0.805716
0.728542 0.566875 0.796615
0.751549 0.577845 0.775703
0.773074 0.594173 0.759701
0.790037 0.613642 0.747229
0.151109 0.427700 0.804508
0.226470 0.437807 0.804568
0.440639 0.464668 0.804783
0.592156 0.506576 0.805179
0.678656 0.550733 0.805768
0.722326 0.568702 0.790408
0.747051 0.580149 0.771485
0.769815 0.596675 0.756802
0.788516 0.616188 0.745121
0.182347 0.524176 0.804697
0.266192 0.528214 0.804757
0.456489 0.542218 0.804973
0.596729 0.565790 0.805119
0.655741 0.566757 0.787124
0.703254 0.574273 0.771193
0.732814 0.587590 0.758050
0.759280 0.605047 0.747384
0.782569 0.624899 0.737997
0.192856 0.568539 0.778757
0.260550 0.567641 0.776682
0.413300 0.565785 0.770259
0.532234 0.566221 0.761481
0.612850 0.571860 0.752724
0.668035 0.583380 0.745070
0.712794 0.599670 0.738317
0.743852 0.618995 0.732493
0.771498 0.639760 0.727158
0.195710 0.590251 0.742579
0.243341 0.588660 0.740666
0.371412 0.584542 0.734825
0.481430 0.582036 0.727392
0.575349 0.586127 0.721515
0.635988 0.598643 0.717904
0.689139 0.617302 0.716176
0.727767 0.638751 0.714905
0.758749 0.655304 0.712837
0.241085 0.642359 0.727513
0.281241 0.640240 0.725771
0.380436 0.633730 0.720131
0.471178 0.625500 0.707859
0.552323 0.620370 0.695559
0.614334 0.625108 0.689038
0.668105 0.642995 0.690844
0.714853 0.658517 0.694703
0.748005 0.671797 0.697057
0.303547 0.681234 0.721379
0.338950 0.680254 0.720130
0.411112 0.677116 0.714056
0.489794 0.672662 0.704371
0.563278 0.668430 0.693328
0.614967 0.665952 0.683028
0.656915 0.666340 0.675027
0.707683 0.679931 0.682000
0.741428 0.692376 0.686478
0.363662 0.713695 0.713246
0.387352 0.713063 0.712038
0.439196 0.711026 0.708005
0.512100 0.708111 0.701676
0.580557 0.705362 0.694326
0.626703 0.703950 0.687430
0.669072 0.704947 0.682346
0.708983 0.709367 0.680344
0.739938 0.717848 0.682221
0.406833 0.740389 0.701871
0.419145 0.740047 0.701165
0.465285 0.738953 0.698794
0.528211 0.737434 0.695042
0.589288 0.736149 0.690649
0.633786 0.735863 0.686516
0.675819 0.737245 0.683445
0.713059 0.740707 0.681956
0.741859 0.746207 0.682064
0.183280 0.471822 0.841212
0.269891 0.478325 0.841240
0.457906 0.500890 0.841343
0.597500 0.534777 0.841531
0.681908 0.570822 0.841812
0.737228 0.606904 0.839826
0.758980 0.610706 0.818556
0.778580 0.620345 0.799909
0.792476 0.634024 0.784927
0.188656 0.496988 0.841237
0.281004 0.503119 0.841266
0.461636 0.524206 0.841368
0.598838 0.549793 0.841556
0.682728 0.584014 0.841837
0.731545 0.608083 0.835793
0.754729 0.612483 0.814365
0.775558 0.622423 0.796953
0.790976 0.636232 0.782829
0.228932 0.560689 0.841327
0.311788 0.564208 0.841356
0.474744 0.576491 0.841458
0.603573 0.597776 0.841646
0.673111 0.610860 0.835595
0.713860 0.611835 0.817059
0.741146 0.618334 0.800889
0.765271 0.629442 0.787281
0.785995 0.643829 0.775877
0.268178 0.617416 0.830842
0.333532 0.616532 0.828874
0.457173 0.614161 0.822453
0.566617 0.612290 0.812746
0.633526 0.613307 0.801731
0.684566 0.618580 0.790982
0.721672 0.628188 0.781267
0.749976 0.641346 0.772722
0.775328 0.652930 0.765157
0.248187 0.624284 0.788493
0.293415 0.623528 0.787173
0.411759 0.621637 0.782961
0.516947 0.620756 0.776918
0.598017 0.623462 0.770649
0.652569 0.631066 0.765190
0.701645 0.643208 0.760690
0.733618 0.653944 0.756782
0.762236 0.664315 0.753041
0.270991 0.653082 0.765287
0.304301 0.652337 0.764089
0.402381 0.650146 0.760219
0.491106 0.647809 0.754614
0.574426 0.647458 0.749070
0.630159 0.650952 0.745139
0.679572 0.658562 0.743243
0.719872 0.668305 0.742499
0.750772 0.678687 0.741703
0.318190 0.683104 0.754911
0.348871 0.682402 0.753926
0.416517 0.680169 0.750645
0.495568 0.677095 0.745467
0.569675 0.674518 0.739229
0.621358 0.674102 0.733783
0.667232 0.678016 0.731109
0.711066 0.686879 0.731805
0.743071 0.697289 0.733049
0.370326 0.713635 0.748425
0.393711 0.713141 0.747749
0.442208 0.711549 0.745400
0.513600 0.709278 0.741505
0.581347 0.707178 0.736863
0.627090 0.706216 0.732321
0.669096 0.707218 0.728632
0.708116 0.710750 0.726334
0.740282 0.720687 0.728614
0.410579 0.740351 0.741169
0.422388 0.740085 0.740728
0.467781 0.739239 0.739241
0.529412 0.738095 0.736859
0.589669 0.737223 0.734021
0.633947 0.737304 0.731284
0.675920 0.738969 0.729181
0.713183 0.742687 0.728120
0.742240 0.748581 0.728240
0.242784 0.535683 0.863790
0.324777 0.539546 0.863812
0.479222 0.552973 0.863890
0.605200 0.576054 0.864035
0.686659 0.607383 0.864250
0.743309 0.645044 0.864540
0.765085 0.643923 0.849500
0.783003 0.647233 0.836499
0.794809 0.652434 0.819568
0.253846 0.550649 0.863809
0.335190 0.554301 0.863831
0.482753 0.567025 0.863910
0.606488 0.589009 0.864054
0.687461 0.619036 0.864269
0.738623 0.646398 0.861295
0.761119 0.645230 0.846915
0.780343 0.648289 0.833589
0.793349 0.653611 0.817431
0.289102 0.598497 0.863878
0.360599 0.601576 0.863900
0.495189 0.612379 0.863979
0.611046 0.631286 0.864123
0.686506 0.650143 0.862476
0.722417 0.647740 0.849991
0.748334 0.648388 0.838495
0.770819 0.651894 0.823867
0.788499 0.657680 0.810315
0.342694 0.656681 0.861406
0.393293 0.656035 0.860189
0.493606 0.654079 0.856116
0.590899 0.651690 0.849646
0.649678 0.650175 0.841827
0.698633 0.650555 0.832141
0.729660 0.653245 0.820021
0.755895 0.658126 0.809028
0.779104 0.664533 0.799219
0.305616 0.655718 0.831480
0.352600 0.655385 0.830310
0.445845 0.654472 0.826423
0.544442 0.653725 0.820342
0.615566 0.654172 0.813146
0.667093 0.656542 0.805800
0.710111 0.661020 0.798847
0.739581 0.666930 0.792427
0.766109 0.674020 0.786447
0.307696 0.667063 0.802081
0.346321 0.666709 0.801173
0.423568 0.665711 0.798190
0.515436 0.664815 0.793670
0.591645 0.665154 0.788674
0.643379 0.667618 0.784137
0.690593 0.672416 0.780431
0.725407 0.679088 0.777360
0.754200 0.686880 0.774494
0.343144 0.688763 0.786012
0.364887 0.688329 0.785229
0.427985 0.686989 0.782622
0.507807 0.685318 0.778568
0.581964 0.684398 0.773993
0.630904 0.685444 0.769992
0.676510 0.689307 0.767370
0.715759 0.695808 0.766077
0.745718 0.703789 0.765272
0.382088 0.715494 0.777118
0.401456 0.715141 0.776532
0.448797 0.714013 0.774551
0.518317 0.712460 0.771367
0.584271 0.711197 0.767548
0.630040 0.711083 0.763818
0.672768 0.712995 0.760936
0.711799 0.717832 0.759674
0.741842 0.725291 0.759844
0.415833 0.741244 0.769822
0.427944 0.741052 0.769450
0.471939 0.740453 0.768190
0.531971 0.739688 0.766154
0.590930 0.739243 0.763698
0.634918 0.739709 0.761289
0.676807 0.741652 0.759388
0.713772 0.745520 0.758376
0.742911 0.751606 0.758509
