negative-gold-200/Gold200_Classic_Normal.cube
TITLE "Kodak Gold 200 Classic Normal"
# Adobe RGB in/out. REPLACES AgX. Kodak Gold 200 Classic Normal.
LUT_3D_SIZE 33
DOMAIN_MIN 0.0 0.0 0.0
DOMAIN_MAX 1.0 1.0 1.0
0.075187 0.075821 0.088847
0.077317 0.077008 0.089253
0.078348 0.077382 0.089319
0.084634 0.078891 0.089568
0.112346 0.081021 0.089810
0.132508 0.081897 0.090059
0.195071 0.084357 0.090451
0.287514 0.087222 0.090857
0.338794 0.088764 0.091088
0.409528 0.091380 0.091393
0.499237 0.095872 0.092024
0.556051 0.098497 0.092471
0.602290 0.100773 0.092922
0.652155 0.104195 0.093491
0.687273 0.109772 0.094486
0.711892 0.113010 0.095188
0.733070 0.116190 0.095848
0.748620 0.121079 0.096916
0.762691 0.126898 0.098177
0.775331 0.129787 0.099409
0.785954 0.132872 0.100986
0.794912 0.136753 0.102825
0.803454 0.139799 0.104796
0.810449 0.140032 0.107641
0.815315 0.140544 0.111278
0.819649 0.140111 0.116149
0.825128 0.132837 0.124445
0.828279 0.134873 0.162656
0.835739 0.156375 0.399944
0.835738 0.156350 0.399911
0.835738 0.156348 0.399909
0.835738 0.156349 0.399907
0.840051 0.256868 0.528490
0.075535 0.079606 0.089149
0.076614 0.079595 0.089299
0.079206 0.078162 0.089292
0.086836 0.079563 0.089613
0.113283 0.081609 0.089900
0.131195 0.082392 0.090114
0.189760 0.084905 0.090489
0.278632 0.087697 0.090896
0.330747 0.089186 0.091116
0.402442 0.091891 0.091413
0.492489 0.096303 0.092051
0.551168 0.098861 0.092492
0.598204 0.101164 0.092946
0.648831 0.104686 0.093510
0.685622 0.110223 0.094513
0.710611 0.113420 0.095211
0.732300 0.116720 0.095875
0.748043 0.121578 0.096939
0.762267 0.127376 0.098196
0.775017 0.130238 0.099439
0.785723 0.133370 0.101010
0.794743 0.137234 0.102843
0.803331 0.140267 0.104817
0.810382 0.140488 0.107648
0.815268 0.140984 0.111264
0.819616 0.140530 0.116077
0.825104 0.133191 0.124197
0.828257 0.134896 0.161198
0.835739 0.156376 0.399945
0.835738 0.156350 0.399911
0.835738 0.156348 0.399909
0.835738 0.156349 0.399907
0.840052 0.256869 0.528490
0.075660 0.080764 0.089230
0.075951 0.080912 0.089363
0.077030 0.080763 0.089410
0.082063 0.081852 0.089719
0.098052 0.084314 0.090093
0.118993 0.084699 0.090251
0.171809 0.086890 0.090610
0.254480 0.089899 0.091043
0.305007 0.091230 0.091220
0.375410 0.093847 0.091487
0.467783 0.097928 0.092152
0.532879 0.100369 0.092587
0.582774 0.102618 0.093031
0.636226 0.106507 0.093580
0.679335 0.111891 0.094610
0.705742 0.114929 0.095293
0.728768 0.118671 0.095972
0.745864 0.123411 0.097021
0.760671 0.129129 0.098265
0.773834 0.131893 0.099546
0.784855 0.135197 0.101098
0.794111 0.138997 0.102911
0.802877 0.141981 0.104898
0.810129 0.142153 0.107681
0.815093 0.142610 0.111222
0.819495 0.142070 0.115838
0.825016 0.134514 0.123365
0.828179 0.135097 0.156202
0.835740 0.156378 0.399947
0.835738 0.156350 0.399911
0.835738 0.156349 0.399909
0.835738 0.156350 0.399907
0.840052 0.256871 0.528489
0.076231 0.086070 0.089497
0.076431 0.086276 0.089605
0.077209 0.086486 0.089733
0.079400 0.086152 0.089881
0.087657 0.089325 0.090346
0.098818 0.088491 0.090457
0.131256 0.090775 0.090784
0.202087 0.094583 0.091226
0.257609 0.095289 0.091376
0.329288 0.097363 0.091672
0.423867 0.101554 0.092342
0.492723 0.104069 0.092788
0.551644 0.106491 0.093193
0.610283 0.110126 0.093714
0.666086 0.115170 0.094795
0.695569 0.118893 0.095448
0.721023 0.122477 0.096156
0.741362 0.126965 0.097177
0.757398 0.132604 0.098397
0.771425 0.135576 0.099749
0.783099 0.138708 0.101266
0.792841 0.142376 0.103042
0.801967 0.146160 0.105059
0.809626 0.146266 0.107760
0.814745 0.146711 0.111171
0.819254 0.145857 0.115467
0.824846 0.137162 0.122051
0.828037 0.135956 0.148051
0.835740 0.156382 0.399953
0.835738 0.156351 0.399912
0.835738 0.156349 0.399909
0.835739 0.156353 0.399908
0.840052 0.256872 0.528489
0.077146 0.097315 0.089808
0.077350 0.097597 0.089953
0.078273 0.098341 0.090168
0.080085 0.098239 0.090395
0.084496 0.097650 0.090613
0.090412 0.095389 0.090674
0.108487 0.097531 0.091011
0.151375 0.100666 0.091423
0.199813 0.100471 0.091560
0.270109 0.102208 0.091967
0.369119 0.107822 0.092640
0.439549 0.110207 0.093080
0.504899 0.112247 0.093435
0.568742 0.115897 0.094032
0.634208 0.122877 0.095084
0.676927 0.125845 0.095692
0.706862 0.128759 0.096444
0.733184 0.132903 0.097422
0.751528 0.138970 0.098739
0.767144 0.141541 0.100070
0.780013 0.144954 0.101534
0.790635 0.149536 0.103256
0.800401 0.153191 0.105335
0.808766 0.153100 0.107924
0.814153 0.153331 0.111160
0.818846 0.152258 0.115063
0.824562 0.141633 0.120547
0.827824 0.138371 0.139311
0.835740 0.156391 0.399964
0.835738 0.156352 0.399913
0.835738 0.156349 0.399910
0.835740 0.156377 0.399908
0.840052 0.256873 0.528488
0.077797 0.102967 0.090070
0.077931 0.103120 0.090154
0.078514 0.104467 0.090306
0.079756 0.104903 0.090550
0.082484 0.104327 0.090692
0.087416 0.103458 0.090951
0.098895 0.106735 0.091272
0.123700 0.111200 0.091766
0.156385 0.109326 0.091913
0.211410 0.110795 0.092271
0.302834 0.116034 0.092997
0.378004 0.118642 0.093410
0.446723 0.120723 0.093741
0.522955 0.124740 0.094472
0.594158 0.131023 0.095446
0.650344 0.134371 0.096076
0.685563 0.137974 0.096833
0.715320 0.143311 0.097770
0.741132 0.150785 0.099285
0.759650 0.153291 0.100537
0.774699 0.156354 0.101927
0.786903 0.160463 0.103577
0.797789 0.163793 0.105773
0.807342 0.163395 0.108229
0.813186 0.163309 0.111262
0.818185 0.161971 0.114843
0.824106 0.150690 0.119241
0.827516 0.143862 0.131197
0.835741 0.156410 0.399986
0.835739 0.156354 0.399916
0.835738 0.156350 0.399911
0.839418 0.226824 0.399909
0.840052 0.256873 0.528488
0.078912 0.119303 0.090487
0.078995 0.119492 0.090540
0.079517 0.121082 0.090700
0.080689 0.122359 0.090931
0.083205 0.122399 0.091166
0.087416 0.121429 0.091357
0.094180 0.120245 0.091562
0.112820 0.126341 0.092215
0.132342 0.122255 0.092324
0.173100 0.122961 0.092658
0.245593 0.129418 0.093408
0.316214 0.131078 0.093809
0.385269 0.131731 0.094252
0.462049 0.135551 0.094935
0.545708 0.142851 0.095897
0.604792 0.147363 0.096634
0.660910 0.150223 0.097303
0.696979 0.155784 0.098168
0.728510 0.164188 0.099935
0.749422 0.167718 0.101130
0.766097 0.172088 0.102464
0.780353 0.176715 0.104041
0.793295 0.179445 0.106438
0.804749 0.178569 0.108753
0.811568 0.178009 0.111572
0.817090 0.176371 0.114861
0.823350 0.165187 0.118551
0.827043 0.156360 0.126426
0.835743 0.156456 0.400039
0.835739 0.156358 0.399922
0.835739 0.156352 0.399914
0.839420 0.226859 0.399910
0.840052 0.256873 0.528488
0.080302 0.144556 0.090943
0.080385 0.144785 0.090993
0.081147 0.147325 0.091185
0.082441 0.149427 0.091399
0.084688 0.150465 0.091631
0.088689 0.149940 0.092021
0.094878 0.148203 0.092320
0.106839 0.146309 0.092661
0.119674 0.139215 0.092770
0.148577 0.139027 0.093139
0.205494 0.147276 0.093898
0.264644 0.147965 0.094442
0.327137 0.147560 0.094835
0.404181 0.151748 0.095463
0.491192 0.160710 0.096542
0.557473 0.163678 0.097199
0.617848 0.166578 0.097833
0.670673 0.172690 0.098847
0.707690 0.180944 0.100740
0.737533 0.183074 0.101826
0.757747 0.186550 0.103068
0.774013 0.191930 0.104575
0.787943 0.197184 0.107285
0.800248 0.198966 0.109519
0.808665 0.201554 0.112213
0.815153 0.199404 0.115359
0.821988 0.188429 0.118906
0.826218 0.177674 0.124613
0.835750 0.156639 0.400222
0.835739 0.156375 0.399943
0.835739 0.156359 0.399923
0.839420 0.226862 0.399914
0.840052 0.256873 0.528488
0.081312 0.161837 0.091171
0.081414 0.162000 0.091207
0.081918 0.163595 0.091344
0.082940 0.166203 0.091538
0.084801 0.168000 0.091882
0.087837 0.168238 0.092207
0.092208 0.167328 0.092535
0.101112 0.165492 0.092895
0.113762 0.163677 0.093251
0.134126 0.162614 0.093590
0.179993 0.172282 0.094612
0.226236 0.171569 0.095086
0.281335 0.169763 0.095442
0.350096 0.172703 0.096074
0.435493 0.181243 0.097245
0.506357 0.183316 0.097839
0.569918 0.185749 0.098414
0.634540 0.191538 0.099812
0.684454 0.200180 0.101620
0.718543 0.203143 0.102645
0.744138 0.207802 0.103835
0.764742 0.211634 0.105697
0.781722 0.215701 0.108291
0.796136 0.216344 0.110365
0.806519 0.218106 0.112889
0.813248 0.220018 0.116149
0.820198 0.216181 0.119942
0.824715 0.213230 0.125272
0.835955 0.161454 0.402322
0.835747 0.156567 0.400154
0.835740 0.156402 0.399980
0.839420 0.226865 0.399931
0.840052 0.256873 0.528488
0.082711 0.187624 0.091469
0.082789 0.187765 0.091496
0.083147 0.188995 0.091635
0.084153 0.192031 0.091952
0.085749 0.194343 0.092279
0.088544 0.195605 0.092613
0.092150 0.195208 0.093013
0.099696 0.193729 0.093374
0.110119 0.191733 0.093707
0.125173 0.189838 0.094210
0.162296 0.200905 0.095282
0.200899 0.199079 0.095736
0.245290 0.195408 0.096109
0.307265 0.197435 0.096853
0.387094 0.206435 0.097969
0.453124 0.207352 0.098555
0.523124 0.208586 0.099526
0.588880 0.213452 0.100853
0.656897 0.222618 0.102604
0.695065 0.225027 0.103550
0.730025 0.227588 0.104618
0.753219 0.233472 0.106991
0.772346 0.240874 0.109517
0.789375 0.241855 0.111455
0.802431 0.242255 0.113786
0.811061 0.243244 0.117089
0.818867 0.237481 0.120528
0.823911 0.232708 0.125185
0.829012 0.222202 0.132126
0.832669 0.212881 0.157025
0.837498 0.212744 0.357520
0.839432 0.227349 0.403031
0.840052 0.256873 0.528488
0.084976 0.229715 0.092148
0.085062 0.229864 0.092187
0.085433 0.230954 0.092331
0.086417 0.235159 0.092633
0.088250 0.238492 0.093024
0.090661 0.240313 0.093418
0.094816 0.240909 0.093835
0.102181 0.239740 0.094419
0.112052 0.237534 0.094945
0.126354 0.234871 0.095455
0.150895 0.232734 0.095994
0.183341 0.229518 0.096548
0.219711 0.224440 0.096941
0.273507 0.225496 0.097625
0.344915 0.235022 0.098917
0.408399 0.234464 0.099824
0.472722 0.234330 0.100682
0.544129 0.239431 0.101925
0.614637 0.250767 0.103633
0.669512 0.251998 0.104489
0.707196 0.255942 0.106170
0.738708 0.263297 0.108450
0.762405 0.268601 0.110797
0.782026 0.270034 0.112627
0.796525 0.273835 0.114873
0.807382 0.278855 0.118403
0.816664 0.271573 0.121534
0.822610 0.264803 0.125612
0.828227 0.250929 0.131084
0.832199 0.234379 0.145735
0.837077 0.213292 0.298849
0.839468 0.228911 0.412676
0.839482 0.229499 0.416142
0.086548 0.265138 0.092586
0.086644 0.265288 0.092629
0.087051 0.266283 0.092785
0.088085 0.270215 0.093089
0.089538 0.273469 0.093433
0.091616 0.276548 0.093848
0.095886 0.278403 0.094478
0.102182 0.277967 0.095032
0.110670 0.276315 0.095552
0.122046 0.273910 0.096116
0.142624 0.271139 0.096760
0.171263 0.268893 0.097401
0.202068 0.260567 0.097719
0.247814 0.261562 0.098396
0.312448 0.272362 0.100253
0.369080 0.270020 0.101069
0.430026 0.268804 0.101894
0.500391 0.273257 0.103075
0.572519 0.283976 0.104670
0.633876 0.284260 0.106085
0.682130 0.288526 0.107840
0.720615 0.294095 0.109961
0.749302 0.301354 0.112241
0.771713 0.304160 0.113993
0.789902 0.305602 0.116459
0.803677 0.308841 0.119824
0.814074 0.306692 0.122794
0.820608 0.306024 0.126597
0.826832 0.296265 0.131921
0.831442 0.276083 0.141587
0.836320 0.225546 0.221790
0.839469 0.228924 0.412725
0.839494 0.230061 0.418998
0.088237 0.298189 0.093012
0.088318 0.298316 0.093048
0.088647 0.299113 0.093179
0.089442 0.302099 0.093431
0.090720 0.306142 0.093762
0.092490 0.309777 0.094345
0.096618 0.311776 0.094915
0.102173 0.312375 0.095470
0.109503 0.311645 0.096037
0.119528 0.309595 0.096697
0.135871 0.307061 0.097324
0.159000 0.304210 0.097906
0.189876 0.301992 0.098553
0.228408 0.301935 0.099684
0.287165 0.313365 0.101584
0.337582 0.309793 0.102341
0.394448 0.307126 0.103079
0.459051 0.310862 0.104232
0.534472 0.320883 0.106665
0.593321 0.320062 0.107889
0.655716 0.322501 0.109476
0.697510 0.327838 0.111571
0.734128 0.334876 0.113800
0.760709 0.335261 0.115505
0.781145 0.338879 0.118279
0.796992 0.344265 0.121575
0.810974 0.340300 0.124232
0.818784 0.337835 0.127655
0.825574 0.332719 0.133014
0.830429 0.325362 0.141437
0.834547 0.314862 0.159694
0.839469 0.229004 0.412786
0.839513 0.230906 0.423124
0.090247 0.338605 0.093523
0.090316 0.338712 0.093554
0.090591 0.339317 0.093666
0.091229 0.341419 0.093972
0.092411 0.345812 0.094495
0.094974 0.348617 0.095021
0.098708 0.350814 0.095555
0.103906 0.352175 0.096197
0.110567 0.352221 0.096907
0.119457 0.350901 0.097549
0.133949 0.348911 0.098149
0.154527 0.346633 0.098994
0.181801 0.344151 0.099989
0.214575 0.342194 0.101016
0.266321 0.352066 0.102836
0.312910 0.348388 0.103597
0.363606 0.344615 0.104276
0.424476 0.346785 0.105868
0.496396 0.355410 0.108552
0.556329 0.354131 0.109781
0.617273 0.355614 0.111271
0.673425 0.360695 0.113236
0.714259 0.366537 0.115467
0.746785 0.368153 0.117561
0.770559 0.372129 0.120221
0.790161 0.375549 0.123286
0.806965 0.375034 0.125859
0.815809 0.376427 0.129220
0.823940 0.369671 0.134472
0.829589 0.360167 0.141412
0.834118 0.346857 0.153648
0.837614 0.339759 0.223863
0.840880 0.352729 0.427134
0.092627 0.387441 0.094408
0.092707 0.387562 0.094454
0.093157 0.388166 0.094618
0.094204 0.390020 0.094932
0.096327 0.394858 0.095429
0.098691 0.397343 0.095932
0.102376 0.400555 0.096672
0.107217 0.402382 0.097376
0.113787 0.403057 0.098074
0.122055 0.402506 0.098952
0.137054 0.401041 0.100095
0.156485 0.398839 0.101123
0.182171 0.396341 0.102149
0.212269 0.393940 0.103103
0.250921 0.391897 0.104077
0.293242 0.387087 0.104865
0.338930 0.382940 0.106073
0.396533 0.384484 0.107883
0.462182 0.392519 0.110471
0.523168 0.390219 0.111599
0.581410 0.391135 0.113068
0.645565 0.395800 0.114978
0.692138 0.400989 0.117694
0.730952 0.403069 0.119704
0.758694 0.405788 0.122188
0.780863 0.411352 0.125200
0.801165 0.411009 0.127616
0.812992 0.410247 0.131403
0.821914 0.408471 0.136392
0.828190 0.405337 0.142623
0.833420 0.390885 0.151832
0.837084 0.372261 0.185635
0.840832 0.361726 0.418950
0.095625 0.423492 0.095008
0.095730 0.423598 0.095047
0.096135 0.424105 0.095191
0.097017 0.425601 0.095465
0.098738 0.429371 0.095919
0.101045 0.432751 0.096573
0.104730 0.436795 0.097317
0.108766 0.438197 0.097959
0.114861 0.439282 0.098776
0.122437 0.439557 0.099998
0.135864 0.438375 0.101072
0.153028 0.436508 0.102119
0.176029 0.434357 0.103126
0.203236 0.431805 0.104085
0.236536 0.429591 0.105275
0.277304 0.427698 0.106903
0.319022 0.422752 0.108025
0.371321 0.423809 0.109837
0.433662 0.431855 0.112410
0.489842 0.428925 0.113496
0.549076 0.428680 0.114833
0.611001 0.432811 0.117331
0.669819 0.437679 0.119990
0.710287 0.438856 0.121871
0.744729 0.442142 0.124271
0.770264 0.447820 0.127174
0.793894 0.447446 0.129699
0.808857 0.449739 0.133972
0.819515 0.447779 0.138581
0.826971 0.442372 0.144012
0.832608 0.435762 0.152261
0.836425 0.429368 0.172417
0.840408 0.394988 0.357554
0.098560 0.460255 0.095552
0.098652 0.460347 0.095587
0.099006 0.460716 0.095714
0.099760 0.461704 0.096003
0.101286 0.464116 0.096527
0.103754 0.467505 0.097177
0.106636 0.469595 0.097818
0.110627 0.471606 0.098516
0.116275 0.472977 0.099715
0.123247 0.473385 0.100877
0.135477 0.472975 0.101998
0.151047 0.471812 0.103036
0.171769 0.470211 0.104013
0.195982 0.468418 0.105236
0.225477 0.466450 0.106832
0.261989 0.464734 0.108379
0.303760 0.463388 0.109957
0.350797 0.463945 0.111722
0.410098 0.470006 0.114276
0.461285 0.467078 0.115407
0.521137 0.466587 0.117232
0.579592 0.469353 0.119705
0.643148 0.473155 0.122323
0.689073 0.473602 0.124091
0.729025 0.476479 0.126423
0.758401 0.480405 0.129341
0.784665 0.481484 0.132552
0.803838 0.482640 0.136547
0.816627 0.482486 0.140945
0.825076 0.481667 0.146031
0.831711 0.475547 0.153212
0.836063 0.467203 0.167058
0.839500 0.466667 0.249318
0.102049 0.494829 0.096315
0.102144 0.494901 0.096358
0.102508 0.495221 0.096517
0.103268 0.496073 0.096815
0.104662 0.498044 0.097280
0.107106 0.502048 0.097934
0.109480 0.503388 0.098540
0.113859 0.506124 0.099790
0.118862 0.507500 0.100953
0.126160 0.508026 0.102066
0.137461 0.508033 0.103185
0.152147 0.507274 0.104233
0.171467 0.506059 0.105719
0.193628 0.504280 0.107315
0.220473 0.502542 0.108968
0.253725 0.500736 0.110514
0.292691 0.499095 0.112015
0.334644 0.497959 0.113564
0.389921 0.503710 0.116494
0.437514 0.500502 0.117857
0.492394 0.499343 0.119610
0.551800 0.501828 0.122069
0.612292 0.505248 0.124655
0.668175 0.505283 0.126338
0.709239 0.508140 0.128666
0.745075 0.511803 0.132415
0.774261 0.513095 0.135469
0.796598 0.514594 0.139278
0.812797 0.516501 0.143564
0.823200 0.514003 0.148230
0.830635 0.511465 0.154974
0.835451 0.508854 0.166187
0.839111 0.500059 0.210735
0.106239 0.533891 0.097324
0.106329 0.533972 0.097364
0.106666 0.534307 0.097507
0.107358 0.535118 0.097777
0.108592 0.536849 0.098194
0.111015 0.540313 0.099079
0.113836 0.542430 0.100124
0.117782 0.545006 0.101319
0.122338 0.546533 0.102458
0.131271 0.547854 0.103623
0.142202 0.548140 0.104771
0.156479 0.547782 0.106673
0.174509 0.546678 0.108423
0.195594 0.545247 0.110111
0.220608 0.543457 0.111697
0.252473 0.541826 0.113339
0.288429 0.540231 0.114865
0.327527 0.538630 0.116798
0.372416 0.537732 0.118915
0.417578 0.534341 0.120222
0.468141 0.533124 0.121968
0.527514 0.534962 0.124395
0.584505 0.538042 0.126931
0.643542 0.537838 0.128618
0.689433 0.540044 0.131678
0.730722 0.543762 0.135541
0.762624 0.544831 0.138419
0.787823 0.547382 0.142151
0.808750 0.548442 0.146106
0.820658 0.548434 0.150903
0.829362 0.547328 0.157174
0.834996 0.542660 0.166467
0.838830 0.540594 0.195012
0.109362 0.566174 0.097842
0.109458 0.566238 0.097878
0.109819 0.566502 0.098010
0.110552 0.567136 0.098258
0.111840 0.568475 0.098808
0.114023 0.571127 0.099805
0.116845 0.573812 0.100902
0.120071 0.575455 0.101975
0.125615 0.577499 0.103156
0.133871 0.578822 0.104311
0.143602 0.579020 0.105910
0.156572 0.578835 0.107772
0.173303 0.578073 0.109574
0.192803 0.576857 0.111284
0.215624 0.575393 0.112934
0.244435 0.573635 0.114484
0.277541 0.572105 0.116436
0.314258 0.570750 0.118503
0.354707 0.569390 0.120455
0.401300 0.568727 0.122518
0.447605 0.566982 0.124214
0.503501 0.568778 0.126650
0.559988 0.571381 0.129362
0.615735 0.570997 0.131674
0.670551 0.572844 0.134863
0.712185 0.576085 0.138635
0.749663 0.577216 0.141398
0.777815 0.580017 0.145040
0.803007 0.581596 0.148954
0.817529 0.582672 0.153660
0.827930 0.581681 0.159408
0.834306 0.580741 0.168161
0.838647 0.577483 0.188120
0.113219 0.599840 0.098370
0.113307 0.599896 0.098404
0.113635 0.600126 0.098599
0.114296 0.600659 0.099021
0.115437 0.601749 0.099674
0.117328 0.603850 0.100598
0.120187 0.606649 0.101759
0.123215 0.607452 0.102736
0.130007 0.609343 0.103974
0.136766 0.609733 0.105278
0.146604 0.610334 0.107234
0.159244 0.610438 0.109138
0.174466 0.609889 0.110931
0.192358 0.609008 0.112619
0.213498 0.608028 0.114306
0.240033 0.606877 0.116235
0.270371 0.605623 0.118311
0.304586 0.604218 0.120387
0.342430 0.603096 0.122443
0.384838 0.602006 0.124376
0.430473 0.601555 0.126387
0.482059 0.602462 0.128869
0.538267 0.604968 0.132491
0.590852 0.604591 0.134851
0.650011 0.605850 0.137979
0.694169 0.608157 0.141745
0.736091 0.609003 0.144385
0.766820 0.610828 0.147920
0.795005 0.612729 0.152037
0.813949 0.613432 0.156365
0.826038 0.614274 0.161908
0.833619 0.613348 0.170062
0.838461 0.612715 0.185918
0.117262 0.627940 0.099394
0.117345 0.627985 0.099453
0.117651 0.628160 0.099665
0.118262 0.628547 0.100063
0.119300 0.629289 0.100676
0.120983 0.630641 0.101542
0.124499 0.633033 0.102710
0.128551 0.633975 0.103681
0.134318 0.635291 0.104952
0.141363 0.636220 0.106893
0.151135 0.636915 0.108877
0.162463 0.636894 0.110703
0.177038 0.636656 0.112555
0.194167 0.635994 0.114323
0.213913 0.635030 0.116327
0.238642 0.634050 0.118623
0.267156 0.632915 0.120760
0.299447 0.631810 0.122853
0.334290 0.630762 0.124891
0.374517 0.630084 0.126936
0.417071 0.629476 0.128971
0.463808 0.629276 0.131797
0.518985 0.630626 0.135513
0.568619 0.630407 0.137797
0.624664 0.631205 0.140966
0.676645 0.633214 0.144748
0.719874 0.634216 0.147325
0.754867 0.635872 0.151132
0.785871 0.637887 0.155116
0.809478 0.639000 0.159188
0.823871 0.640133 0.164542
0.832763 0.640235 0.172353
0.838241 0.640973 0.185806
0.121302 0.655311 0.100314
0.121379 0.655353 0.100370
0.121664 0.655514 0.100573
0.122286 0.655856 0.100953
0.123651 0.656486 0.101538
0.126031 0.657589 0.102362
0.129838 0.659471 0.103470
0.134167 0.660880 0.104546
0.139159 0.661772 0.106327
0.147011 0.663060 0.108458
0.155251 0.663289 0.110271
0.167033 0.663573 0.112221
0.181164 0.663547 0.114172
0.196597 0.662880 0.116238
0.215028 0.662010 0.118539
0.238284 0.661049 0.120829
0.265331 0.660051 0.123093
0.296043 0.659011 0.125249
0.328677 0.658017 0.127324
0.365943 0.657104 0.129598
0.407127 0.656594 0.132570
0.450080 0.656245 0.135489
0.499460 0.656227 0.138384
0.549114 0.655954 0.140638
0.601756 0.656486 0.143776
0.659559 0.658090 0.147598
0.702589 0.659197 0.150435
0.742218 0.660690 0.154196
0.775891 0.662711 0.158138
0.803746 0.664259 0.162061
0.821268 0.665503 0.167363
0.831689 0.666658 0.174884
0.838098 0.667136 0.186439
0.126559 0.682465 0.100643
0.126668 0.682494 0.100698
0.127075 0.682604 0.100894
0.127874 0.682837 0.101262
0.129211 0.683268 0.101829
0.131329 0.684025 0.102627
0.134669 0.685319 0.103698
0.139186 0.686825 0.105118
0.143920 0.687288 0.106857
0.151285 0.688277 0.109030
0.159385 0.688470 0.110905
0.170847 0.688682 0.112952
0.182846 0.688348 0.114779
0.197972 0.687906 0.117272
0.215826 0.687144 0.119742
0.237167 0.686135 0.121995
0.262126 0.685126 0.124280
0.290904 0.684099 0.126470
0.321595 0.683144 0.128664
0.356188 0.682281 0.131517
0.395647 0.681600 0.134504
0.435558 0.681226 0.137413
0.481271 0.681184 0.140361
0.531972 0.681446 0.143282
0.581285 0.681589 0.146428
0.637691 0.682801 0.150564
0.685908 0.684012 0.153335
0.728615 0.685243 0.157086
0.764659 0.687209 0.160876
0.795911 0.689027 0.165158
0.818072 0.690629 0.170245
0.830495 0.691765 0.177058
0.837908 0.693301 0.187730
0.132262 0.705004 0.101028
0.132366 0.705022 0.101081
0.132749 0.705090 0.101272
0.133499 0.705228 0.101629
0.134740 0.705469 0.102179
0.136679 0.705870 0.102952
0.139686 0.706519 0.103990
0.145002 0.707566 0.105894
0.149298 0.707755 0.107551
0.155722 0.708145 0.109607
0.164620 0.708468 0.111746
0.174345 0.708408 0.113665
0.186522 0.708298 0.115892
0.200821 0.708029 0.118571
0.216684 0.707562 0.120996
0.237344 0.707014 0.123417
0.261326 0.706391 0.125774
0.288639 0.705725 0.128057
0.317451 0.705111 0.130865
0.349776 0.704571 0.134000
0.386279 0.704130 0.137013
0.424474 0.703837 0.139981
0.466595 0.703675 0.142880
0.515237 0.703806 0.145877
0.563087 0.704106 0.149013
0.616047 0.704560 0.153299
0.670255 0.705518 0.155996
0.712079 0.706040 0.159665
0.752716 0.707248 0.163455
0.786884 0.708366 0.167851
0.814237 0.709635 0.173031
0.829103 0.710542 0.179255
0.837674 0.711627 0.189123
0.137926 0.720656 0.101272
0.138025 0.720674 0.101324
0.138388 0.720742 0.101512
0.139095 0.720874 0.101864
0.140296 0.721093 0.102406
0.142307 0.721433 0.103168
0.145388 0.721952 0.104192
0.150201 0.722744 0.106218
0.154984 0.723153 0.108200
0.161161 0.723401 0.110170
0.170539 0.723837 0.112611
0.178995 0.723691 0.114432
0.191341 0.723613 0.117204
0.203641 0.723274 0.119731
0.219874 0.722888 0.122431
0.239349 0.722372 0.124923
0.261294 0.721806 0.127314
0.286884 0.721180 0.130048
0.314346 0.720544 0.133369
0.344858 0.719994 0.136604
0.379226 0.719536 0.139757
0.415907 0.719214 0.142827
0.455293 0.719016 0.145806
0.500001 0.718964 0.148879
0.546936 0.719227 0.152309
0.596514 0.719644 0.155704
0.654549 0.720829 0.158321
0.696297 0.721167 0.162033
0.740322 0.722256 0.165975
0.776778 0.723291 0.170373
0.809433 0.724576 0.175346
0.827411 0.725744 0.181274
0.837615 0.726951 0.190549
0.144579 0.739391 0.100243
0.144675 0.739398 0.100297
0.145031 0.739422 0.100494
0.145722 0.739468 0.100862
0.146855 0.739540 0.101432
0.148610 0.739646 0.102240
0.151304 0.739805 0.103335
0.155585 0.740056 0.104902
0.161324 0.740251 0.107456
0.166693 0.740205 0.109422
0.174716 0.740201 0.111865
0.183735 0.740026 0.114103
0.194196 0.739685 0.116669
0.206860 0.739250 0.119578
0.221990 0.738691 0.122369
0.239831 0.738115 0.124957
0.261397 0.737490 0.127556
0.285537 0.736836 0.130530
0.310933 0.736187 0.133931
0.339360 0.735601 0.137254
0.371585 0.735123 0.140488
0.406965 0.734770 0.143641
0.444058 0.734570 0.146713
0.486097 0.734539 0.149986
