negative-gold-200/Gold200_Classic_Soft.cube
TITLE "Kodak Gold 200 Classic Soft"
# Adobe RGB in/out. REPLACES AgX. Kodak Gold 200 Classic Soft.
LUT_3D_SIZE 5
DOMAIN_MIN 0.0 0.0 0.0
DOMAIN_MAX 1.0 1.0 1.0
0.062396 0.069107 0.086480
0.134369 0.083466 0.091435
0.470177 0.127571 0.099901
0.647315 0.286856 0.112846
0.741338 0.464189 0.130206
0.073069 0.119245 0.090989
0.147300 0.131715 0.093810
0.476163 0.213913 0.101497
0.649050 0.373213 0.114439
0.742083 0.506098 0.131736
0.099725 0.424853 0.098954
0.189013 0.441426 0.100602
0.497046 0.482395 0.107912
0.655170 0.540820 0.119478
0.744734 0.599062 0.138246
0.171831 0.625264 0.110196
0.295151 0.630200 0.112189
0.530520 0.646971 0.118297
0.666002 0.665067 0.130149
0.749500 0.687847 0.150102
0.321087 0.723157 0.125524
0.410665 0.724929 0.127422
0.571374 0.731162 0.133908
0.681281 0.742121 0.147602
0.756375 0.757431 0.169475
0.066313 0.076798 0.162996
0.137463 0.088916 0.165093
0.471604 0.132803 0.174196
0.647728 0.298370 0.191570
0.741515 0.469294 0.216656
0.074851 0.125568 0.164843
0.150328 0.142089 0.166914
0.477572 0.226965 0.176563
0.649460 0.381338 0.193816
0.742260 0.510788 0.219148
0.101615 0.432574 0.172701
0.193051 0.447675 0.175403
0.498393 0.487310 0.184925
0.655568 0.543816 0.201767
0.744908 0.601548 0.228482
0.175017 0.627563 0.188103
0.299003 0.632467 0.190680
0.531555 0.648320 0.199784
0.666381 0.666205 0.216564
0.749668 0.688847 0.246636
0.325000 0.723981 0.209913
0.412261 0.725746 0.212339
0.572302 0.731952 0.222524
0.681635 0.742867 0.242602
0.756536 0.758120 0.276000
0.073745 0.096003 0.493826
0.148445 0.107234 0.495342
0.476695 0.169595 0.500754
0.649205 0.334783 0.510572
0.742150 0.487195 0.523544
0.081366 0.156857 0.495160
0.161088 0.176810 0.496673
0.482597 0.273901 0.502071
0.650925 0.409979 0.511865
0.742892 0.526187 0.524633
0.108861 0.455435 0.499925
0.207650 0.466573 0.501424
0.503200 0.504579 0.506776
0.656993 0.554337 0.516231
0.745530 0.610327 0.528524
0.183334 0.635698 0.508585
0.312866 0.640488 0.510060
0.535248 0.653088 0.515227
0.667738 0.670233 0.523503
0.750272 0.692393 0.535311
0.339087 0.726913 0.520387
0.417699 0.728651 0.521635
0.575619 0.734764 0.526086
0.682903 0.745524 0.533970
0.757115 0.760578 0.544977
0.085453 0.136110 0.680131
0.168468 0.159064 0.680540
0.485917 0.248969 0.682006
0.651896 0.394772 0.684678
0.743312 0.518536 0.688616
0.092363 0.230950 0.680491
0.181880 0.259406 0.680900
0.491703 0.345567 0.682363
0.653594 0.456016 0.685031
0.744049 0.546398 0.688964
0.123571 0.488795 0.681781
0.234631 0.499197 0.682188
0.511922 0.531507 0.683643
0.659590 0.572789 0.686295
0.746668 0.625900 0.690206
0.205644 0.648729 0.684136
0.338680 0.651597 0.684538
0.541947 0.661551 0.685978
0.670213 0.677409 0.688604
0.751377 0.698740 0.692476
0.356072 0.732192 0.687613
0.428270 0.733882 0.688009
0.581651 0.739832 0.689427
0.685218 0.750319 0.692013
0.758174 0.765022 0.695829
0.103117 0.248829 0.767499
0.196021 0.276489 0.767649
0.499379 0.359345 0.768190
0.655860 0.463053 0.769180
0.745035 0.550383 0.770647
0.111844 0.345439 0.767631
0.213199 0.365845 0.767782
0.505003 0.427522 0.768322
0.657528 0.505054 0.769311
0.745764 0.574291 0.770777
0.151145 0.531474 0.768107
0.275004 0.538099 0.768258
0.523436 0.560746 0.768796
0.663419 0.598509 0.769781
0.748355 0.647330 0.771242
0.245932 0.661538 0.768979
0.363651 0.664036 0.769128
0.551748 0.672710 0.769663
0.673864 0.687625 0.770643
0.753016 0.707838 0.772095
0.382217 0.739824 0.770272
0.445676 0.741448 0.770420
0.587604 0.747170 0.770951
0.688637 0.757278 0.771921
0.759746 0.771422 0.773360
