negative-gold-200/Gold200_Classic_Soft.cube
TITLE "Kodak Gold 200 Classic Soft"
# Adobe RGB in/out. REPLACES AgX. Kodak Gold 200 Classic Soft.
LUT_3D_SIZE 33
DOMAIN_MIN 0.0 0.0 0.0
DOMAIN_MAX 1.0 1.0 1.0
0.062396 0.069107 0.086480
0.064345 0.069589 0.086788
0.067868 0.070475 0.087189
0.072785 0.071779 0.087626
0.079167 0.073455 0.088290
0.087466 0.075346 0.089032
0.098195 0.077697 0.089674
0.113518 0.080217 0.090431
0.134369 0.083466 0.091435
0.165697 0.087132 0.092343
0.200316 0.090548 0.093163
0.254578 0.094753 0.094145
0.307113 0.099403 0.095310
0.359905 0.104698 0.096566
0.403961 0.110652 0.097744
0.435823 0.119633 0.098853
0.470177 0.127571 0.099901
0.501800 0.137442 0.101040
0.530784 0.154047 0.102635
0.557024 0.169167 0.104293
0.582752 0.185165 0.105890
0.599698 0.208352 0.107432
0.616314 0.233668 0.108923
0.632343 0.260727 0.110904
0.647315 0.286856 0.112846
0.662009 0.312947 0.114740
0.676441 0.335444 0.116590
0.690624 0.361789 0.118399
0.703910 0.383064 0.120390
0.713559 0.404778 0.122703
0.723006 0.426923 0.125030
0.732262 0.448024 0.127634
0.741338 0.464189 0.130206
0.062832 0.070352 0.086768
0.064512 0.070575 0.086928
0.067963 0.071363 0.087274
0.072858 0.072515 0.087663
0.079252 0.074063 0.088352
0.087534 0.075928 0.089070
0.098281 0.078230 0.089712
0.113614 0.080788 0.090458
0.134504 0.084023 0.091466
0.165836 0.087582 0.092367
0.200493 0.090966 0.093182
0.254755 0.095174 0.094167
0.307281 0.099829 0.095337
0.360009 0.105175 0.096589
0.404032 0.111350 0.097763
0.435900 0.120218 0.098869
0.470239 0.128044 0.099916
0.501858 0.138531 0.101058
0.530829 0.154879 0.102656
0.557066 0.169978 0.104312
0.582778 0.186011 0.105907
0.599722 0.209495 0.107448
0.616336 0.234825 0.108938
0.632362 0.261898 0.110922
0.647333 0.287871 0.112863
0.662026 0.313959 0.114756
0.676456 0.336507 0.116605
0.690639 0.362517 0.118412
0.703920 0.383775 0.120407
0.713568 0.405473 0.122719
0.723015 0.427604 0.125048
0.732270 0.448526 0.127651
0.741345 0.464641 0.130222
0.063673 0.073030 0.087149
0.064994 0.073183 0.087234
0.068287 0.073683 0.087498
0.073116 0.074702 0.087803
0.079554 0.076050 0.088554
0.087778 0.077860 0.089200
0.098588 0.079895 0.089842
0.113955 0.082647 0.090604
0.134988 0.085883 0.091577
0.166337 0.089110 0.092454
0.201129 0.092668 0.093256
0.255394 0.096821 0.094245
0.307885 0.101355 0.095431
0.360382 0.106851 0.096669
0.404286 0.113824 0.097832
0.436175 0.122295 0.098929
0.470462 0.129723 0.099969
0.502066 0.142445 0.101126
0.530991 0.157860 0.102732
0.557217 0.172886 0.104380
0.582871 0.189930 0.105969
0.599808 0.213607 0.107504
0.616415 0.238987 0.109002
0.632432 0.266109 0.110988
0.647398 0.291515 0.112923
0.662086 0.317023 0.114812
0.676513 0.340324 0.116658
0.690692 0.365125 0.118462
0.703955 0.386325 0.120469
0.713601 0.407968 0.122777
0.723046 0.430047 0.125112
0.732300 0.450325 0.127711
0.741373 0.466261 0.130280
0.064787 0.076723 0.087563
0.065831 0.076847 0.087610
0.068851 0.077338 0.087751
0.073629 0.078247 0.088288
0.080096 0.079438 0.088869
0.088219 0.081152 0.089414
0.099148 0.083312 0.090064
0.114580 0.086069 0.090858
0.135879 0.088853 0.091773
0.167259 0.091896 0.092609
0.202299 0.095543 0.093425
0.256569 0.099747 0.094384
0.308996 0.104560 0.095601
0.361068 0.109801 0.096813
0.404754 0.118142 0.097957
0.436682 0.125815 0.099038
0.470873 0.132735 0.100064
0.502450 0.149028 0.101249
0.531289 0.163305 0.102870
0.557494 0.178201 0.104505
0.583042 0.197424 0.106082
0.599965 0.221194 0.107608
0.616562 0.246665 0.109132
0.632559 0.273359 0.111108
0.647517 0.298216 0.113035
0.662197 0.322269 0.114916
0.676617 0.347352 0.116754
0.690790 0.369905 0.118552
0.704020 0.391000 0.120582
0.713662 0.412542 0.122884
0.723103 0.434527 0.125229
0.732354 0.453395 0.127822
0.741424 0.469226 0.130386
0.066061 0.081777 0.088098
0.067041 0.081906 0.088177
0.069781 0.082361 0.088431
0.074415 0.083157 0.088810
0.080880 0.084533 0.089245
0.088868 0.086237 0.089740
0.099977 0.088185 0.090361
0.115510 0.090305 0.091208
0.137209 0.093120 0.092048
0.168636 0.096312 0.092830
0.204051 0.099986 0.093668
0.258328 0.104315 0.094601
0.310658 0.109101 0.095848
0.362093 0.116455 0.097025
0.405452 0.123870 0.098140
0.437440 0.130473 0.099198
0.471487 0.142956 0.100206
0.503024 0.157278 0.101431
0.531733 0.171359 0.103074
0.557909 0.186442 0.104690
0.583297 0.208690 0.106250
0.600201 0.232596 0.107761
0.616780 0.258200 0.109326
0.632750 0.283401 0.111287
0.647694 0.308231 0.113201
0.662363 0.330069 0.115071
0.676773 0.356534 0.116898
0.690936 0.377010 0.118687
0.704117 0.397950 0.120750
0.713753 0.419348 0.123043
0.723189 0.441193 0.125403
0.732435 0.457948 0.127988
0.741500 0.473628 0.130543
0.067515 0.088340 0.088838
0.068292 0.088447 0.088887
0.071109 0.088827 0.089051
0.075388 0.089505 0.089315
0.081888 0.090474 0.089672
0.089891 0.092012 0.090187
0.101079 0.093957 0.090845
0.116754 0.096264 0.091633
0.139001 0.099071 0.092389
0.170495 0.102232 0.093108
0.206422 0.106228 0.093979
0.260708 0.110627 0.094978
0.312904 0.117640 0.096170
0.363476 0.124298 0.097303
0.406393 0.130304 0.098381
0.438462 0.141311 0.099410
0.472315 0.155064 0.100392
0.503798 0.168244 0.101702
0.532333 0.182181 0.103346
0.558468 0.201592 0.104936
0.583641 0.224019 0.106475
0.600519 0.248100 0.107966
0.617075 0.273358 0.109585
0.633007 0.296953 0.111527
0.647934 0.320287 0.113424
0.662588 0.343347 0.115278
0.676983 0.366261 0.117092
0.691134 0.386526 0.118868
0.704248 0.407267 0.120976
0.713876 0.428474 0.123257
0.723305 0.448509 0.125638
0.732544 0.464029 0.128211
0.741603 0.479512 0.130756
0.069067 0.095671 0.089446
0.069829 0.095792 0.089480
0.072531 0.096222 0.089604
0.076681 0.096998 0.089881
0.083098 0.098128 0.090241
0.091147 0.099597 0.090758
0.102529 0.101425 0.091429
0.118425 0.103977 0.092110
0.141273 0.106916 0.092782
0.172855 0.110209 0.093501
0.209443 0.115883 0.094349
0.263738 0.121512 0.095433
0.315764 0.126979 0.096561
0.365232 0.132305 0.097642
0.407587 0.144870 0.098678
0.439759 0.156827 0.099671
0.473366 0.169029 0.100644
0.504780 0.182006 0.102078
0.533095 0.200008 0.103686
0.559178 0.221038 0.105244
0.584077 0.243679 0.106756
0.600923 0.267970 0.108223
0.617450 0.290610 0.109911
0.633333 0.314162 0.111829
0.648238 0.334042 0.113704
0.662872 0.358975 0.115539
0.677250 0.378486 0.117336
0.691385 0.398496 0.119096
0.704415 0.418994 0.121263
0.714033 0.439970 0.123527
0.723452 0.456511 0.125935
0.732682 0.471651 0.128493
0.741734 0.486894 0.131025
0.071077 0.105185 0.090144
0.071809 0.105304 0.090179
0.074128 0.105732 0.090300
0.078314 0.106510 0.090534
0.084681 0.107652 0.090965
0.092621 0.109157 0.091475
0.104404 0.111641 0.092035
0.120507 0.115230 0.092619
0.144036 0.119142 0.093211
0.175732 0.123325 0.093992
0.213141 0.127475 0.094862
0.267445 0.131796 0.095954
0.319259 0.141241 0.097013
0.367736 0.152192 0.098037
0.409041 0.162628 0.099026
0.441339 0.173796 0.099979
0.474647 0.186017 0.101042
0.505978 0.204063 0.102526
0.534023 0.223772 0.104091
0.560044 0.245048 0.105613
0.584610 0.267931 0.107093
0.601415 0.289337 0.108532
0.617908 0.311643 0.110304
0.633731 0.330754 0.112193
0.648610 0.355326 0.114043
0.663220 0.374006 0.115855
0.677576 0.393210 0.117631
0.691691 0.412928 0.119373
0.704618 0.433146 0.121609
0.714223 0.451236 0.123855
0.723631 0.465955 0.126295
0.732851 0.480801 0.128836
0.741894 0.495766 0.131351
0.073069 0.119245 0.090989
0.073714 0.119393 0.091029
0.075920 0.119926 0.091171
0.080388 0.120898 0.091419
0.086494 0.122338 0.091760
0.094415 0.124254 0.092175
0.106573 0.126362 0.092643
0.122942 0.128848 0.093145
0.147300 0.131715 0.093810
0.179138 0.137602 0.094518
0.217543 0.146612 0.095522
0.271854 0.154494 0.096530
0.323452 0.163084 0.097518
0.370767 0.172438 0.098482
0.410759 0.182668 0.099420
0.443210 0.196947 0.100330
0.476163 0.213913 0.101497
0.507396 0.232363 0.103041
0.535123 0.252339 0.104560
0.561069 0.273365 0.106041
0.585240 0.293243 0.107484
0.601998 0.314305 0.108892
0.618449 0.331850 0.110762
0.634203 0.355438 0.112618
0.649050 0.373213 0.114439
0.663631 0.391542 0.116225
0.677962 0.410409 0.117977
0.692054 0.429803 0.119764
0.704859 0.448187 0.122017
0.714450 0.462553 0.124240
0.723844 0.476927 0.126719
0.733052 0.491444 0.129240
0.742083 0.506098 0.131736
0.075256 0.134258 0.091892
0.075823 0.134533 0.091924
0.078175 0.135521 0.092035
0.082540 0.137340 0.092232
0.088447 0.140061 0.092507
0.096853 0.143740 0.092850
0.109020 0.148080 0.093244
0.125776 0.152479 0.093825
0.151071 0.157657 0.094438
0.183085 0.163617 0.095300
0.222674 0.170356 0.096225
0.276987 0.177869 0.097150
0.328331 0.186549 0.098067
0.374281 0.199570 0.098970
0.412739 0.213956 0.099855
0.445376 0.229748 0.100782
0.477918 0.246988 0.102120
0.509038 0.265717 0.103620
0.536395 0.283776 0.105088
0.562257 0.302418 0.106524
0.585970 0.320670 0.107928
0.602674 0.338593 0.109430
0.619077 0.359377 0.111284
0.634750 0.376185 0.113104
0.649560 0.393575 0.114892
0.664109 0.411531 0.116648
0.678410 0.430038 0.118374
0.692475 0.447716 0.120260
0.705139 0.461539 0.122486
0.714712 0.475368 0.124688
0.724091 0.489368 0.127208
0.733285 0.503531 0.129706
0.742303 0.517846 0.132180
0.077726 0.164447 0.092708
0.078436 0.164654 0.092734
0.080901 0.165396 0.092823
0.084984 0.166760 0.092983
0.090851 0.168793 0.093209
0.099657 0.171531 0.093582
0.112178 0.174996 0.094033
0.129313 0.179205 0.094535
0.155353 0.184402 0.095304
0.183391 0.191904 0.096119
0.228472 0.201292 0.096956
0.282466 0.211934 0.097803
0.333914 0.223871 0.098650
0.378286 0.237144 0.099493
0.414896 0.251792 0.100324
0.447841 0.267855 0.101396
0.479915 0.283261 0.102818
0.510908 0.299516 0.104257
0.537845 0.316501 0.105671
0.563610 0.331037 0.107059
0.586801 0.351275 0.108421
0.603444 0.367154 0.110058
0.619791 0.382947 0.111867
0.635373 0.399347 0.113648
0.650142 0.416339 0.115400
0.664653 0.433907 0.117124
0.678920 0.449937 0.118820
0.692955 0.462967 0.120819
0.705457 0.476185 0.123015
0.715011 0.489604 0.125269
0.724373 0.503212 0.127761
0.733551 0.517000 0.130233
0.742554 0.528746 0.132683
0.080808 0.197786 0.093526
0.081443 0.198073 0.093554
0.083592 0.199105 0.093654
0.087620 0.201005 0.093831
0.093450 0.203851 0.094086
0.102776 0.207704 0.094411
0.115679 0.212615 0.094905
0.133234 0.218631 0.095535
0.160147 0.225796 0.096221
0.186884 0.234153 0.096949
0.234958 0.243741 0.097705
0.286527 0.254600 0.098479
0.340217 0.266770 0.099260
0.382790 0.278889 0.100044
0.417313 0.291677 0.100933
0.450608 0.305588 0.102179
0.482156 0.319414 0.103570
0.513007 0.332063 0.104946
0.539472 0.350131 0.106305
0.565130 0.364630 0.107643
0.587734 0.378729 0.108961
0.604308 0.393473 0.110747
0.620595 0.408847 0.112509
0.636074 0.424835 0.114248
0.650796 0.441422 0.115961
0.665265 0.454547 0.117650
0.679495 0.466850 0.119315
0.693496 0.479400 0.121440
0.705816 0.492180 0.123603
0.715348 0.505179 0.125916
0.724690 0.518383 0.128378
0.733849 0.529322 0.130820
0.742837 0.538769 0.133269
0.083835 0.245101 0.094452
0.084482 0.245394 0.094475
0.086675 0.246450 0.094560
0.090559 0.248394 0.094776
0.096848 0.251306 0.095088
0.106438 0.255245 0.095490
0.119693 0.260266 0.095972
0.138649 0.266413 0.096523
0.165518 0.273234 0.097131
0.194111 0.280584 0.097782
0.242215 0.288975 0.098465
0.291027 0.298427 0.099170
0.345114 0.308957 0.099890
0.387797 0.319372 0.100633
0.419989 0.329329 0.101725
0.453678 0.342736 0.103049
0.484643 0.357004 0.104370
0.515338 0.368655 0.105683
0.541278 0.380996 0.106984
0.566818 0.394013 0.108271
0.588770 0.407692 0.109762
0.605268 0.422019 0.111494
0.621487 0.436979 0.113207
0.636852 0.450327 0.114901
0.651523 0.461599 0.116574
0.665946 0.473160 0.118226
0.680134 0.484996 0.119975
0.694097 0.497092 0.122121
0.706215 0.509433 0.124249
0.715723 0.522006 0.126628
0.725042 0.531428 0.129056
0.734182 0.540458 0.131468
0.743151 0.549559 0.134110
0.087189 0.294549 0.095651
0.087755 0.294805 0.095679
0.089861 0.295726 0.095781
0.093792 0.297418 0.095965
0.100709 0.299950 0.096233
0.110484 0.303370 0.096581
0.124179 0.307719 0.097001
0.144711 0.313028 0.097486
0.171849 0.318387 0.098026
0.202141 0.324121 0.098609
0.250265 0.330636 0.099227
0.297119 0.339821 0.099871
0.349919 0.350876 0.100533
0.393314 0.360125 0.101489
0.422923 0.369265 0.102711
0.457052 0.379121 0.103958
0.487376 0.389684 0.105210
0.517804 0.400942 0.106459
0.543264 0.412885 0.107703
0.568675 0.425499 0.108938
0.589909 0.438774 0.110619
0.606324 0.450425 0.112295
0.622470 0.460565 0.113957
0.637709 0.471039 0.115604
0.652323 0.481829 0.117234
0.666696 0.492921 0.118847
0.680838 0.504298 0.120755
0.694759 0.515946 0.122861
0.706655 0.526575 0.124997
0.716136 0.535048 0.127403
0.725431 0.543624 0.129796
0.734549 0.552293 0.132175
0.743498 0.561047 0.135029
0.090738 0.340427 0.096817
0.091342 0.340695 0.096841
0.093426 0.341660 0.096929
0.098006 0.343435 0.097088
0.105080 0.346092 0.097321
0.115261 0.349683 0.097624
0.129440 0.354040 0.097993
0.151291 0.357883 0.098422
0.178754 0.362423 0.098903
0.210998 0.367669 0.099427
0.259127 0.373628 0.099987
0.305485 0.380301 0.100575
0.355153 0.387689 0.101456
0.398105 0.395789 0.102567
0.426608 0.404596 0.103726
0.460327 0.414105 0.104900
0.490355 0.424308 0.106084
0.520127 0.435196 0.107272
0.545429 0.445966 0.108459
0.570701 0.454823 0.109901
0.591151 0.463769 0.111526
0.607476 0.473085 0.113145
0.623542 0.482754 0.114755
0.638645 0.492761 0.116354
0.653198 0.503090 0.117941
0.667515 0.513727 0.119518
0.681607 0.524339 0.121594
0.695483 0.532173 0.123657
0.707135 0.540142 0.125874
0.716588 0.548236 0.128240
0.725857 0.556445 0.130596
0.734950 0.564759 0.132939
0.743877 0.573169 0.136025
0.094671 0.383884 0.097915
0.095338 0.384064 0.097937
0.097963 0.384708 0.098013
0.102592 0.385893 0.098152
0.109834 0.387664 0.098355
0.120563 0.390051 0.098621
0.135622 0.393078 0.098948
0.158382 0.396764 0.099329
0.183326 0.401122 0.099760
0.220705 0.406162 0.100232
0.268822 0.411891 0.100813
0.314618 0.418312 0.101602
0.360814 0.425427 0.102623
0.401994 0.433236 0.103679
0.430832 0.441735 0.104763
0.463770 0.449097 0.105868
0.493578 0.456074 0.106987
0.522640 0.463389 0.108114
0.547775 0.471114 0.109354
0.572896 0.479234 0.110915
0.592496 0.487737 0.112479
0.608725 0.496608 0.114041
0.624705 0.505832 0.115598
0.639660 0.515395 0.117148
0.654147 0.524778 0.118689
0.668404 0.531906 0.120460
0.682442 0.539201 0.122488
0.696270 0.546650 0.124507
0.707657 0.554244 0.126813
0.717078 0.561971 0.129137
0.726319 0.569823 0.131453
0.735386 0.577788 0.133969
0.744289 0.585860 0.137098
0.099725 0.424853 0.098954
0.100414 0.425026 0.098973
0.102959 0.425645 0.099040
0.107790 0.426783 0.099162
0.115482 0.428484 0.099341
0.126443 0.430777 0.099577
0.143496 0.433687 0.099867
0.166090 0.437232 0.100208
0.189013 0.441426 0.100602
0.231133 0.445602 0.101222
0.279369 0.449756 0.101979
0.324582 0.454123 0.102876
0.367170 0.458901 0.103820
0.406160 0.464124 0.104803
0.435373 0.469787 0.105818
0.467469 0.475880 0.106856
0.497046 0.482395 0.107912
0.525342 0.489320 0.108990
0.550299 0.496646 0.110475
0.575261 0.504359 0.111970
0.593944 0.512450 0.113473
0.610070 0.520904 0.114977
0.625958 0.527875 0.116481
0.640754 0.534251 0.117982
0.655170 0.540820 0.119478
0.669364 0.547572 0.121455
0.683344 0.554494 0.123434
0.697119 0.561578 0.125527
0.708221 0.568812 0.127811
0.717608 0.576186 0.130091
0.726818 0.583692 0.132366
0.735857 0.591320 0.135159
0.744734 0.599062 0.138246
0.105229 0.460608 0.099940
0.105958 0.460723 0.099957
0.108523 0.461136 0.100016
0.113729 0.461895 0.100124
0.121700 0.463029 0.100283
0.133229 0.464556 0.100493
0.151870 0.466492 0.100831
0.174908 0.468845 0.101275
0.200188 0.471625 0.101840
0.242312 0.474834 0.102546
0.287305 0.478474 0.103317
0.335402 0.482547 0.104144
0.374961 0.487048 0.105019
0.410601 0.491976 0.105934
0.440225 0.497325 0.106883
0.471423 0.503088 0.107859
0.500755 0.509258 0.108856
0.528233 0.515826 0.110214
0.553000 0.522784 0.111630
0.577793 0.528163 0.113061
0.595494 0.533538 0.114502
0.611510 0.539138 0.115950
0.627301 0.544952 0.117402
0.641927 0.550972 0.118853
0.656268 0.557185 0.120570
0.670393 0.563583 0.122500
0.684312 0.570155 0.124430
0.698030 0.576891 0.126629
0.708826 0.583782 0.128865
0.718177 0.590819 0.131100
0.727354 0.597992 0.133390
0.736364 0.605294 0.136423
0.745213 0.612717 0.139466
0.111342 0.490646 0.101013
0.112145 0.490754 0.101035
0.114982 0.491143 0.101111
0.120316 0.491856 0.101251
0.128679 0.492921 0.101458
0.142240 0.494357 0.101776
0.160735 0.496178 0.102201
0.183233 0.498393 0.102705
0.212275 0.501010 0.103283
0.254374 0.504033 0.103930
0.295199 0.507467 0.104639
0.344981 0.511310 0.105402
0.383278 0.515564 0.106214
0.415188 0.520224 0.107068
0.445387 0.524780 0.107956
0.475627 0.528603 0.108873
0.504704 0.532687 0.110138
0.531309 0.537025 0.111464
0.555878 0.541610 0.112813
0.580493 0.546434 0.114182
0.597144 0.551487 0.115564
0.613046 0.556761 0.116956
0.628705 0.562247 0.118355
0.643179 0.567936 0.119844
0.657439 0.573818 0.121715
0.671493 0.579884 0.123592
0.685346 0.586126 0.125601
0.699005 0.592534 0.127785
0.709472 0.599100 0.129973
0.718785 0.605815 0.132162
0.727927 0.612671 0.134774
0.736905 0.619660 0.137759
0.745725 0.626775 0.140757
0.118293 0.520861 0.102508
0.119129 0.520963 0.102532
0.122095 0.521329 0.102618
0.127682 0.522002 0.102776
0.137148 0.523006 0.103010
0.151855 0.524130 0.103320
0.170556 0.525334 0.103706
0.188986 0.526798 0.104166
0.225298 0.528526 0.104695
0.267341 0.530521 0.105289
0.307407 0.532784 0.105942
0.352657 0.535314 0.106649
0.392121 0.538110 0.107403
0.419935 0.541170 0.108199
0.450854 0.544489 0.109060
0.480078 0.548063 0.110248
0.508889 0.551887 0.111475
0.534568 0.555956 0.112735
0.558930 0.560261 0.114021
0.582912 0.564797 0.115328
0.598895 0.569557 0.116653
0.614675 0.574531 0.117991
0.630129 0.579714 0.119339
0.644509 0.585096 0.121090
0.658685 0.590669 0.122904
0.672662 0.596426 0.124738
0.686446 0.602358 0.126861
0.700042 0.608457 0.128993
0.710160 0.614715 0.131131
0.719433 0.621124 0.133310
0.728538 0.627678 0.136229
0.737481 0.634368 0.139165
0.746271 0.641187 0.142116
0.126011 0.542839 0.104078
0.126912 0.542906 0.104100
0.130119 0.543145 0.104178
0.136542 0.543584 0.104322
0.147471 0.544239 0.104534
0.161939 0.545123 0.104816
0.181282 0.546243 0.105169
0.202650 0.547606 0.105589
0.238925 0.549216 0.106075
0.281231 0.551076 0.106622
0.320455 0.553187 0.107226
0.360746 0.555550 0.107881
0.399383 0.558163 0.108583
0.425149 0.561025 0.109467
0.456622 0.564133 0.110543
0.484772 0.567484 0.111665
0.513307 0.571074 0.112827
0.538009 0.574897 0.114023
0.562155 0.578948 0.115248
0.584903 0.583222 0.116497
0.600745 0.587712 0.117766
0.616398 0.592411 0.119051
0.631635 0.597313 0.120631
0.645917 0.602411 0.122375
0.660004 0.607697 0.124133
0.673901 0.613165 0.126102
0.687611 0.618807 0.128170
0.701141 0.624615 0.130249
0.710890 0.630583 0.132338
0.720119 0.636704 0.134885
0.729185 0.642970 0.137751
0.738093 0.648223 0.140638
0.746850 0.652301 0.143542
0.135112 0.563767 0.105593
0.136229 0.563829 0.105613
0.140225 0.564052 0.105685
0.147508 0.564462 0.105816
0.158245 0.565074 0.106010
0.173173 0.565899 0.106268
0.186812 0.566945 0.106591
0.217298 0.568218 0.106977
0.253493 0.569723 0.107425
0.290500 0.571462 0.107930
0.334484 0.573438 0.108489
0.369973 0.575650 0.109151
0.405237 0.578099 0.110053
0.431552 0.580784 0.111014
0.462017 0.583702 0.112027
0.489705 0.586851 0.113087
0.517849 0.590228 0.114188
0.541627 0.593828 0.115324
0.565549 0.597648 0.116491
0.586997 0.601682 0.117685
0.602692 0.605924 0.118900
0.618214 0.610370 0.120344
0.633222 0.615013 0.122009
0.647401 0.619848 0.123695
0.661396 0.624868 0.125517
0.675208 0.630066 0.127512
0.688843 0.635436 0.129524
0.702303 0.640972 0.131551
0.711660 0.646529 0.133738
0.720845 0.650183 0.136527
0.729870 0.653916 0.139340
0.738740 0.657723 0.142176
0.747462 0.661600 0.145032
0.146743 0.584473 0.107059
0.147839 0.584531 0.107077
0.151759 0.584740 0.107143
0.158910 0.585123 0.107263
0.169882 0.585696 0.107441
0.183277 0.586469 0.107678
0.202159 0.587448 0.107975
0.232760 0.588641 0.108331
0.269022 0.590052 0.108744
0.303296 0.591683 0.109308
0.346430 0.593537 0.110023
0.380645 0.595614 0.110807
0.411338 0.597916 0.111652
0.438252 0.600440 0.112555
0.467504 0.603187 0.113510
0.494872 0.606153 0.114511
0.521897 0.609336 0.115555
0.545419 0.612734 0.116635
0.569111 0.616341 0.117747
0.589193 0.620155 0.118887
0.604735 0.624171 0.120234
0.620120 0.628383 0.121813
0.634889 0.632787 0.123419
0.648962 0.637378 0.125110
0.662860 0.642150 0.127024
0.676585 0.646798 0.128962
0.690140 0.649995 0.130920
0.703172 0.653285 0.132895
0.712472 0.656663 0.135498
0.721610 0.660124 0.138231
0.730592 0.663523 0.140991
0.739423 0.666888 0.143776
0.748108 0.670318 0.146583
0.158792 0.604968 0.108479
0.159868 0.605023 0.108495
0.163716 0.605218 0.108556
0.171272 0.605579 0.108666
0.182613 0.606116 0.108830
0.193518 0.606842 0.109083
0.218541 0.607762 0.109461
0.249007 0.608883 0.109914
0.284101 0.610209 0.110442
0.318767 0.611743 0.111042
0.356105 0.613487 0.111711
0.391838 0.615443 0.112444
0.417449 0.617611 0.113238
0.445242 0.619990 0.114088
0.473227 0.622581 0.114988
0.500267 0.625380 0.115936
0.526122 0.628387 0.116925
0.549382 0.631599 0.117952
0.572837 0.635013 0.119012
0.591487 0.638625 0.120301
0.606872 0.642432 0.121787
0.622115 0.646380 0.123307
0.636636 0.648996 0.124887
0.650598 0.651718 0.126714
0.664396 0.654544 0.128570
0.678030 0.657469 0.130451
0.691501 0.660488 0.132355
0.704078 0.663461 0.134674
0.713325 0.666438 0.137319
0.722414 0.669491 0.139996
0.731350 0.672617 0.142702
0.740140 0.675812 0.145436
0.748787 0.679072 0.148194
0.171831 0.625264 0.110196
0.172982 0.625315 0.110217
0.177109 0.625500 0.110294
0.183251 0.625838 0.110435
0.191077 0.626345 0.110643
0.210683 0.627028 0.110923
0.235708 0.627895 0.111274
0.266257 0.628951 0.111696
0.295151 0.630200 0.112189
0.335282 0.631646 0.112749
0.366290 0.633291 0.113375
0.400607 0.635137 0.114063
0.423720 0.637183 0.114809
0.452516 0.639431 0.115610
0.479179 0.641879 0.116461
0.505886 0.644527 0.117358
0.530520 0.646971 0.118297
0.553513 0.648873 0.119274
0.576725 0.650892 0.120545
0.593877 0.653027 0.121933
0.609101 0.655273 0.123361
0.624198 0.657630 0.124849
0.638460 0.660092 0.126582
0.652308 0.662585 0.128350
0.666002 0.665067 0.130149
0.679542 0.667637 0.131975
0.692927 0.670294 0.134060
0.705027 0.673033 0.136609
0.714218 0.675851 0.139196
0.723256 0.678745 0.141818
0.732145 0.681711 0.144471
0.740892 0.684746 0.147153
0.749500 0.687847 0.150102
0.183310 0.645370 0.112046
0.183365 0.645419 0.112066
0.184952 0.645593 0.112137
0.194577 0.645913 0.112268
0.209096 0.646356 0.112462
0.228842 0.646760 0.112722
0.253735 0.647272 0.113050
0.283486 0.647895 0.113444
0.312257 0.648633 0.113904
0.348486 0.649486 0.114429
0.378794 0.650456 0.115016
0.407819 0.651544 0.115663
0.431615 0.652750 0.116365
0.459752 0.654073 0.117121
0.485353 0.655514 0.117926
0.511723 0.657071 0.118776
0.535087 0.658743 0.119724
0.557808 0.660528 0.120962
0.580771 0.662368 0.122249
0.596362 0.664237 0.123580
0.611421 0.666205 0.124998
0.626368 0.668270 0.126631
0.640362 0.670430 0.128305
0.654092 0.672683 0.130016
0.667679 0.675025 0.131759
0.681120 0.677453 0.133660
0.694416 0.679965 0.136107
0.706019 0.682558 0.138597
0.715151 0.685229 0.141127
0.724136 0.687974 0.143694
0.732977 0.690791 0.146294
0.741679 0.693676 0.148949
0.750246 0.696627 0.152225
0.197045 0.658130 0.113852
0.198509 0.658158 0.113871
0.203782 0.658260 0.113937
0.213532 0.658447 0.114059
0.228156 0.658727 0.114241
0.247697 0.659105 0.114484
0.272807 0.659584 0.114790
0.295887 0.660167 0.115159
0.330383 0.660858 0.115590
0.359684 0.661653 0.116082
0.391807 0.662499 0.116634
0.415123 0.663448 0.117242
0.439825 0.664500 0.117905
0.466511 0.665656 0.118619
0.491744 0.666915 0.119381
0.517697 0.668275 0.120416
0.539817 0.669737 0.121546
0.562262 0.671299 0.122729
0.583972 0.672960 0.123962
0.598939 0.674718 0.125331
0.613828 0.676572 0.126861
0.628602 0.678518 0.128436
0.642339 0.680556 0.130053
0.655948 0.682683 0.131708
