negative-gold-200/Gold200_Classic_Punchy.cube
TITLE "Kodak Gold 200 Classic Punchy"
# Adobe RGB in/out. REPLACES AgX. Kodak Gold 200 Classic Punchy.
LUT_3D_SIZE 5
DOMAIN_MIN 0.0 0.0 0.0
DOMAIN_MAX 1.0 1.0 1.0
0.072541 0.084015 0.079839
0.329246 0.090677 0.083068
0.742872 0.109403 0.090354
0.824829 0.127853 0.106555
0.853111 0.237229 0.526487
0.082458 0.146348 0.083231
0.119320 0.148036 0.086897
0.575480 0.167903 0.093644
0.814455 0.197846 0.108275
0.853111 0.237234 0.526484
0.103553 0.460281 0.090008
0.121630 0.475956 0.095050
0.293586 0.464137 0.105145
0.738087 0.479359 0.121118
0.852673 0.468231 0.241707
0.136624 0.693854 0.096448
0.151593 0.697642 0.103260
0.252899 0.695763 0.120378
0.568538 0.692619 0.140062
0.851219 0.702808 0.180932
0.164482 0.803561 0.086289
0.194025 0.816735 0.086297
0.251419 0.819942 0.099325
0.453544 0.815990 0.127122
0.854583 0.820362 0.138870
0.078322 0.093308 0.151502
0.334211 0.124689 0.305823
0.757594 0.141608 0.260165
0.825943 0.173252 0.323341
0.853111 0.237240 0.526512
0.091008 0.148873 0.151820
0.191165 0.174041 0.184837
0.686594 0.193724 0.195628
0.818464 0.227026 0.232899
0.853111 0.237234 0.526485
0.115576 0.449611 0.158838
0.145356 0.461091 0.171367
0.399834 0.466920 0.191597
0.777143 0.489223 0.214908
0.853284 0.494489 0.422753
0.147992 0.687884 0.157453
0.167992 0.690932 0.172288
0.292292 0.691410 0.202002
0.638381 0.692634 0.228941
0.852098 0.704392 0.265710
0.169524 0.808919 0.100847
0.198468 0.821680 0.100844
0.263747 0.819908 0.136265
0.476054 0.816369 0.197188
0.856761 0.820779 0.218661
0.091837 0.132374 0.463352
0.251418 0.209835 0.587829
0.743256 0.239995 0.589802
0.825231 0.273032 0.605617
0.853557 0.267431 0.640013
0.105777 0.208565 0.472339
0.200281 0.256848 0.540305
0.692395 0.296321 0.564627
0.819761 0.337777 0.590902
0.853519 0.264709 0.628658
0.134701 0.470707 0.459563
0.181636 0.481756 0.469408
0.518105 0.507540 0.506524
0.794760 0.526863 0.537395
0.853986 0.543240 0.626600
0.172441 0.689066 0.467193
0.199818 0.691736 0.471434
0.363257 0.695090 0.485191
0.713659 0.701264 0.504135
0.853817 0.720184 0.581871
0.194154 0.820383 0.575002
0.202078 0.823934 0.575000
0.296080 0.820014 0.498285
0.527720 0.818170 0.505740
0.857856 0.823860 0.521274
0.117680 0.251548 0.714619
0.202575 0.312218 0.738042
0.727898 0.344661 0.739718
0.824149 0.372126 0.743076
0.853970 0.299412 0.736115
0.131664 0.336494 0.720371
0.208092 0.378296 0.736333
0.692081 0.409800 0.739808
0.820114 0.435035 0.743672
0.853953 0.298232 0.733474
0.165430 0.530649 0.705105
0.220676 0.546276 0.718360
0.560986 0.567560 0.733453
0.802741 0.586506 0.741513
0.854553 0.591541 0.749934
0.196142 0.706041 0.693396
0.230259 0.709111 0.697042
0.419062 0.715616 0.711082
0.750830 0.724746 0.725814
0.855423 0.742508 0.753038
0.199624 0.822510 0.680401
0.209287 0.826606 0.680661
0.308700 0.824897 0.702169
0.543990 0.823637 0.704650
0.859429 0.832678 0.743033
0.211067 0.398486 0.841727
0.504730 0.406729 0.841737
0.787420 0.431809 0.841925
0.835579 0.444397 0.842906
0.854664 0.369958 0.839605
0.232296 0.449199 0.840822
0.474258 0.457078 0.840918
0.781764 0.479337 0.841312
0.834868 0.488291 0.842415
0.854748 0.382099 0.844405
0.265487 0.601724 0.839152
0.389522 0.604914 0.839490
0.754924 0.613302 0.840242
0.831511 0.618909 0.841517
0.856874 0.595795 0.845424
0.257686 0.742284 0.839409
0.309065 0.742928 0.839874
0.632424 0.745617 0.840813
0.819726 0.750001 0.842082
0.858412 0.750460 0.845031
0.204836 0.823445 0.792006
0.226227 0.831569 0.805011
0.300673 0.838687 0.830365
0.544131 0.838658 0.844692
0.860904 0.842464 0.846014
