negative-gold-200/Gold200_Classic_ExtraSoft.cube
TITLE "Kodak Gold 200 Classic ExtraSoft"
# Adobe RGB in/out. REPLACES AgX. Kodak Gold 200 Classic ExtraSoft.
LUT_3D_SIZE 5
DOMAIN_MIN 0.0 0.0 0.0
DOMAIN_MAX 1.0 1.0 1.0
0.058206 0.064417 0.080741
0.142103 0.080943 0.087046
0.470371 0.136074 0.096688
0.636912 0.302316 0.111066
0.723596 0.464244 0.130741
0.070408 0.124634 0.086629
0.153520 0.143520 0.089871
0.476459 0.231394 0.098495
0.638941 0.386004 0.112576
0.724337 0.506581 0.132693
0.101452 0.429078 0.095388
0.209127 0.441777 0.097643
0.497706 0.482631 0.106017
0.646110 0.539722 0.119048
0.726974 0.600194 0.139320
0.181874 0.622394 0.108554
0.309353 0.625721 0.110443
0.522294 0.637230 0.117502
0.658830 0.656452 0.130667
0.731713 0.680830 0.153890
0.329435 0.712113 0.125020
0.413382 0.713530 0.127204
0.553514 0.718510 0.135226
0.670008 0.727247 0.150910
0.738551 0.739411 0.176692
0.062508 0.073624 0.168420
0.144850 0.087819 0.171341
0.471823 0.145501 0.181610
0.637395 0.312390 0.199982
0.723772 0.469399 0.230213
0.072252 0.132534 0.170991
0.156636 0.152739 0.173887
0.477892 0.243882 0.184075
0.639421 0.395157 0.202731
0.724513 0.511321 0.232838
0.103848 0.435009 0.180052
0.212951 0.447566 0.182867
0.499077 0.487597 0.192783
0.646577 0.542827 0.212506
0.727146 0.602781 0.242674
0.185719 0.623945 0.196093
0.312364 0.627246 0.198894
0.523091 0.638669 0.210062
0.659276 0.657668 0.230116
0.731881 0.681901 0.261146
0.332400 0.712772 0.222590
0.415112 0.714183 0.225606
0.554217 0.719141 0.236400
0.670259 0.727841 0.257334
0.738712 0.739958 0.288700
0.071145 0.095969 0.490657
0.154523 0.110593 0.491922
0.477000 0.182087 0.496436
0.639122 0.347971 0.504605
0.724404 0.487481 0.516515
0.079963 0.167250 0.491770
0.169463 0.190739 0.493033
0.483004 0.288718 0.497533
0.641136 0.417580 0.505679
0.725142 0.524566 0.517558
0.111970 0.455405 0.495745
0.226684 0.466651 0.496995
0.502960 0.505046 0.501449
0.648248 0.553735 0.509515
0.727765 0.611918 0.521281
0.199529 0.629416 0.502954
0.323124 0.632627 0.504180
0.525933 0.643755 0.508554
0.660407 0.661975 0.516477
0.732481 0.685703 0.527775
0.342998 0.715116 0.513494
0.421069 0.716505 0.514688
0.556730 0.721384 0.518948
0.671155 0.729955 0.526494
0.739287 0.741906 0.537018
0.084645 0.148314 0.659620
0.177966 0.169814 0.659931
0.486381 0.264755 0.661044
0.642273 0.405722 0.663072
0.725559 0.518204 0.666059
0.092007 0.247678 0.659893
0.194032 0.274582 0.660204
0.492268 0.356686 0.661315
0.644263 0.455992 0.663340
0.726292 0.545503 0.666322
0.129695 0.489097 0.660873
0.251937 0.499607 0.661182
0.508614 0.530074 0.662287
0.651296 0.572886 0.664299
0.728896 0.622824 0.667263
0.224805 0.639104 0.662661
0.342693 0.642165 0.662966
0.531077 0.652699 0.664058
0.662166 0.669652 0.666049
0.733580 0.692511 0.668982
0.362289 0.719332 0.665298
0.431686 0.720681 0.665598
0.561290 0.725424 0.666673
0.672789 0.733766 0.668632
0.740341 0.745425 0.671518
0.105566 0.264622 0.744288
0.215756 0.291517 0.744462
0.500081 0.369826 0.745086
0.646919 0.463097 0.746228
0.727273 0.549634 0.747921
0.114865 0.356582 0.744441
0.231867 0.377398 0.744615
0.504132 0.431131 0.745239
0.648876 0.505527 0.746379
0.727998 0.574446 0.748071
0.157605 0.530040 0.744990
0.288770 0.536902 0.745164
0.516828 0.560384 0.745785
0.655793 0.599620 0.746922
0.730574 0.637613 0.748608
0.262577 0.652686 0.745996
0.371462 0.655351 0.746168
0.538579 0.664624 0.746786
0.664757 0.680592 0.747916
0.735210 0.699834 0.749592
0.388655 0.725417 0.747488
0.447091 0.726710 0.747659
0.567967 0.731264 0.748271
0.675201 0.739290 0.749391
0.741905 0.750540 0.751053
