negative-gold-200/Gold200_Modern_Normal.cube
TITLE "Kodak Gold 200 Modern Normal"
# Adobe RGB in/out. REPLACES AgX. Kodak Gold 200 Modern Normal.
LUT_3D_SIZE 5
DOMAIN_MIN 0.0 0.0 0.0
DOMAIN_MAX 1.0 1.0 1.0
0.078266 0.080889 0.091315
0.339698 0.113356 0.091315
0.749913 0.287815 0.094489
0.892598 0.489871 0.107233
0.937735 0.635438 0.132827
0.092169 0.300624 0.091315
0.235001 0.213787 0.091315
0.671131 0.365293 0.093570
0.872523 0.537865 0.104452
0.931939 0.664111 0.129693
0.182481 0.686607 0.093448
0.344424 0.635670 0.093456
0.614947 0.591449 0.094898
0.824546 0.660560 0.103364
0.918527 0.733562 0.126094
0.295357 0.829368 0.099927
0.419013 0.820540 0.100294
0.661233 0.794486 0.102612
0.813379 0.790987 0.110538
0.905840 0.818676 0.129354
0.382606 0.883910 0.109969
0.471267 0.881019 0.110917
0.673050 0.874820 0.114688
0.815099 0.872795 0.124901
0.900091 0.878676 0.143706
0.079089 0.092649 0.368776
0.359036 0.140798 0.378297
0.740968 0.300913 0.327087
0.886173 0.488093 0.315817
0.935509 0.633385 0.323058
0.089096 0.239291 0.258153
0.166026 0.162546 0.139322
0.640556 0.350854 0.222842
0.864401 0.530161 0.273129
0.929699 0.660814 0.304307
0.171954 0.655237 0.282523
0.319165 0.607897 0.230001
0.577719 0.558203 0.186172
0.813863 0.648358 0.216671
0.916507 0.730158 0.263244
0.290074 0.824144 0.261281
0.410542 0.812328 0.245538
0.650906 0.787092 0.220794
0.807708 0.785374 0.218533
0.903733 0.816520 0.246774
0.381535 0.882391 0.237655
0.469346 0.879632 0.235018
0.670985 0.873774 0.231225
0.813879 0.872260 0.236711
0.899811 0.878889 0.258681
0.094545 0.182496 0.821687
0.385629 0.245543 0.823028
0.794916 0.438953 0.819030
0.892634 0.540725 0.741616
0.934855 0.651790 0.694952
0.120133 0.400877 0.809354
0.351307 0.396829 0.774438
0.701736 0.460309 0.718808
0.869019 0.570464 0.692280
0.928653 0.674945 0.671706
0.165629 0.618376 0.673491
0.296401 0.579163 0.615744
0.521313 0.514930 0.517156
0.805491 0.649346 0.578691
0.914003 0.732361 0.606665
0.283363 0.809928 0.650511
0.396961 0.798189 0.628235
0.628174 0.775831 0.579727
0.793995 0.776449 0.555052
0.899968 0.815231 0.569044
0.381523 0.879232 0.598966
0.466832 0.876918 0.592076
0.667103 0.872120 0.575603
0.811420 0.871861 0.564208
0.899354 0.880230 0.565209
0.145159 0.372230 0.949716
0.429528 0.425078 0.949907
0.812404 0.569538 0.950592
0.910725 0.643731 0.924551
0.938288 0.700913 0.884340
0.185519 0.546666 0.949884
0.455723 0.582442 0.950076
0.779052 0.626205 0.937616
0.888465 0.659253 0.899588
0.931877 0.713348 0.871999
0.202442 0.663511 0.878089
0.347034 0.654386 0.867785
0.639407 0.656916 0.850131
0.826746 0.704970 0.844669
0.916242 0.752373 0.840001
0.288111 0.801016 0.849951
0.394036 0.793052 0.841718
0.619111 0.776377 0.812486
0.780913 0.772405 0.786802
0.898952 0.821876 0.802856
0.387127 0.877029 0.824521
0.468691 0.875390 0.820183
0.665187 0.872190 0.808718
0.809884 0.873441 0.798598
0.899477 0.883666 0.796661
0.237981 0.569363 0.980449
0.489789 0.604270 0.980477
0.823589 0.691117 0.980577
0.920325 0.734074 0.976462
0.942120 0.747353 0.959822
0.275114 0.676756 0.980474
0.514256 0.699229 0.980501
0.823395 0.743353 0.980085
0.907361 0.740295 0.972602
0.936777 0.756536 0.953783
0.289683 0.753098 0.967412
0.441982 0.750916 0.964196
0.713218 0.750390 0.955710
0.857644 0.762404 0.945813
0.920979 0.787082 0.937142
0.316548 0.815661 0.936836
0.419143 0.812203 0.934221
0.650625 0.807158 0.922128
0.810754 0.816724 0.912754
0.904176 0.835126 0.909788
0.401514 0.878005 0.916223
0.478761 0.877102 0.913913
0.668138 0.875721 0.907563
0.811130 0.878470 0.901477
0.900757 0.889782 0.900236
