negative-gold-200/Gold200_Modern_Punchy.cube
TITLE "Kodak Gold 200 Modern Punchy"
# Adobe RGB in/out. REPLACES AgX. Kodak Gold 200 Modern Punchy.
LUT_3D_SIZE 33
DOMAIN_MIN 0.0 0.0 0.0
DOMAIN_MAX 1.0 1.0 1.0
0.072541 0.084015 0.079839
0.081079 0.085129 0.080574
0.084723 0.085370 0.080694
0.106380 0.086963 0.081326
0.193711 0.089599 0.082117
0.255312 0.091419 0.082828
0.391696 0.094890 0.084272
0.550398 0.099822 0.085850
0.617783 0.102957 0.086666
0.691829 0.107972 0.088062
0.764922 0.116557 0.090096
0.798447 0.122028 0.091231
0.825226 0.128244 0.092621
0.852102 0.137279 0.095057
0.868408 0.150714 0.098262
0.879023 0.158170 0.100525
0.887687 0.164840 0.102624
0.895203 0.172980 0.105196
0.900691 0.182995 0.109502
0.904497 0.187239 0.112003
0.907294 0.192284 0.115112
0.909287 0.198326 0.119383
0.911065 0.202365 0.124502
0.912716 0.199865 0.128887
0.913414 0.198035 0.134833
0.913811 0.194122 0.145604
0.914830 0.177705 0.163489
0.914562 0.179023 0.234266
0.916640 0.213785 0.562530
0.914650 0.210364 0.556804
0.912668 0.207188 0.551176
0.910693 0.204144 0.544736
0.911046 0.363947 0.674069
0.073469 0.087294 0.080295
0.076012 0.086478 0.080404
0.084946 0.085646 0.080498
0.109097 0.087364 0.081257
0.186125 0.090104 0.082152
0.241913 0.091791 0.082841
0.369601 0.095214 0.084277
0.529771 0.100406 0.085856
0.599622 0.103423 0.086669
0.680741 0.108486 0.088061
0.758453 0.117086 0.090088
0.793159 0.122568 0.091223
0.820917 0.128971 0.092605
0.849118 0.137962 0.095042
0.866783 0.151484 0.098244
0.877714 0.158899 0.100507
0.886629 0.165532 0.102607
0.894345 0.173651 0.105173
0.900188 0.183659 0.109476
0.904081 0.188064 0.111976
0.906947 0.193090 0.115073
0.908996 0.199124 0.119338
0.910818 0.203160 0.124438
0.912504 0.200647 0.128804
0.913231 0.198796 0.134714
0.913650 0.194848 0.145294
0.914688 0.178162 0.162714
0.914433 0.178938 0.231474
0.916532 0.213602 0.562221
0.914551 0.210199 0.556524
0.912578 0.207048 0.550902
0.910610 0.204017 0.544467
0.910970 0.363716 0.673805
0.073965 0.088375 0.080440
0.074677 0.088142 0.080629
0.077180 0.087324 0.080563
0.089209 0.088600 0.081116
0.127708 0.091899 0.082091
0.188774 0.093250 0.082794
0.303677 0.096503 0.084298
0.457886 0.103117 0.085953
0.542566 0.105587 0.086723
0.637597 0.110622 0.088090
0.727557 0.119216 0.090079
0.773984 0.125226 0.091206
0.805188 0.131802 0.092568
0.836382 0.140773 0.095005
0.860822 0.154417 0.098193
0.872923 0.161650 0.100456
0.882763 0.168129 0.102556
0.891222 0.176155 0.105099
0.898342 0.186315 0.109392
0.902579 0.191125 0.111885
0.905697 0.196076 0.114944
0.907946 0.202072 0.119185
0.909928 0.206090 0.124220
0.911744 0.203530 0.128521
0.912575 0.201601 0.134303
0.913077 0.197533 0.144230
0.914179 0.179893 0.160166
0.913970 0.178834 0.221952
0.916148 0.212950 0.561120
0.914200 0.209608 0.555524
0.912256 0.206550 0.549846
0.910315 0.203566 0.543506
0.910698 0.362887 0.672860
0.075963 0.094787 0.080860
0.076357 0.094658 0.081078
0.078451 0.093735 0.081322
0.083275 0.092056 0.081362
0.099619 0.094918 0.082176
0.124726 0.095556 0.082817
0.200070 0.100039 0.084268
0.332396 0.107322 0.085971
0.433889 0.109991 0.086785
0.550617 0.115000 0.088181
0.669371 0.124808 0.090133
0.732202 0.132423 0.091226
0.775282 0.137996 0.092583
0.811877 0.147203 0.094997
0.846938 0.160542 0.098158
0.863668 0.167295 0.100408
0.875347 0.173383 0.102497
0.885279 0.181163 0.105028
0.893558 0.192621 0.109271
0.899760 0.197180 0.111747
0.903365 0.201947 0.114741
0.906001 0.207843 0.118937
0.908287 0.211997 0.123859
0.910346 0.209147 0.128050
0.911371 0.207069 0.133615
0.912027 0.202796 0.142462
0.913250 0.183436 0.156084
0.913132 0.179458 0.206648
0.915450 0.211773 0.559128
0.913562 0.208582 0.553711
0.911670 0.205646 0.547928
0.909777 0.202750 0.541761
0.910201 0.361378 0.671144
0.079337 0.114106 0.081869
0.079784 0.113817 0.082079
0.082113 0.112448 0.082420
0.086385 0.108436 0.082691
0.094434 0.104019 0.082939
0.105072 0.100673 0.083041
0.141675 0.105976 0.084337
0.223722 0.113968 0.086021
0.311866 0.116036 0.086874
0.429683 0.120714 0.088292
0.577291 0.134360 0.090271
0.666264 0.141439 0.091317
0.725205 0.147833 0.092719
0.774695 0.157840 0.095096
0.815059 0.171746 0.098241
0.845546 0.177342 0.100440
0.863255 0.182532 0.102492
0.875730 0.190963 0.104990
0.885995 0.203359 0.109172
0.894151 0.207367 0.111612
0.899769 0.211919 0.114520
0.903033 0.217989 0.118647
0.905806 0.222101 0.123417
0.908248 0.219046 0.127462
0.909575 0.216549 0.132742
0.910468 0.211663 0.140235
0.911877 0.190774 0.151222
0.911903 0.182264 0.188761
0.914429 0.210062 0.556222
0.912626 0.207128 0.551061
0.910811 0.204326 0.545124
0.908987 0.201588 0.539204
0.909471 0.359167 0.668626
0.082726 0.137890 0.082793
0.083037 0.136996 0.082961
0.084536 0.135311 0.083195
0.087316 0.127932 0.083735
0.092526 0.119078 0.083725
0.100906 0.113591 0.084003
0.120080 0.115672 0.084722
0.169277 0.124040 0.086392
0.224933 0.124770 0.087079
0.317210 0.131535 0.088424
0.458402 0.146493 0.090364
0.568097 0.154083 0.091426
0.656569 0.160009 0.093006
0.723803 0.169106 0.095318
0.779192 0.182337 0.098382
0.813238 0.189615 0.100542
0.842013 0.197589 0.102575
0.861145 0.208781 0.105060
0.874579 0.221660 0.109188
0.885092 0.224718 0.111562
0.893060 0.228512 0.114376
0.898830 0.234014 0.118403
0.902351 0.237787 0.123001
0.905365 0.234368 0.126880
0.907136 0.231442 0.131838
0.908366 0.226176 0.137926
0.910038 0.203721 0.146549
0.910280 0.190263 0.172076
0.913089 0.207939 0.552438
0.911396 0.205231 0.547038
0.909680 0.202600 0.541452
0.909924 0.316888 0.535847
0.908507 0.356266 0.665313
0.087321 0.190787 0.084471
0.087737 0.191348 0.084682
0.089136 0.187891 0.085131
0.091998 0.177585 0.085414
0.096804 0.162670 0.085567
0.103592 0.148751 0.085642
0.115926 0.138668 0.085929
0.143223 0.143776 0.086950
0.179952 0.141698 0.087616
0.243351 0.147397 0.088777
0.353410 0.163013 0.090604
0.461335 0.169654 0.091705
0.559462 0.173711 0.093254
0.655574 0.182244 0.095526
0.729983 0.199156 0.098664
0.774871 0.208100 0.100828
0.809826 0.213930 0.102735
0.841054 0.224270 0.105132
0.861439 0.239501 0.109227
0.873603 0.245093 0.111592
0.883094 0.251914 0.114395
0.890742 0.258869 0.118335
0.897303 0.261873 0.122762
0.901511 0.257779 0.126474
0.903947 0.254131 0.131110
0.905661 0.248387 0.136630
0.907693 0.225551 0.143043
0.908247 0.207673 0.159771
0.911452 0.205476 0.547347
0.909889 0.202929 0.542137
0.908291 0.200497 0.536968
0.908639 0.313540 0.531730
0.907317 0.352714 0.661244
0.093740 0.269474 0.086308
0.094166 0.270031 0.086497
0.096034 0.270532 0.087174
0.098117 0.253537 0.087593
0.101768 0.231822 0.087789
0.109274 0.209507 0.088046
0.119895 0.191265 0.088172
0.136583 0.179375 0.088477
0.155842 0.164701 0.088336
0.199630 0.167322 0.089276
0.283214 0.182336 0.090967
0.368423 0.187549 0.092174
0.462235 0.191265 0.093744
0.565881 0.201510 0.095922
0.667078 0.219756 0.099018
0.726736 0.227430 0.101066
0.772560 0.234265 0.102976
0.807679 0.246368 0.105454
0.839762 0.261962 0.109450
0.860587 0.265308 0.111700
0.872801 0.270499 0.114414
0.882141 0.278558 0.118282
0.889709 0.285984 0.122650
0.896008 0.287003 0.126321
0.899719 0.289102 0.130812
0.902180 0.282831 0.135962
0.904718 0.261685 0.141643
0.905740 0.240991 0.153300
0.909548 0.202842 0.541336
0.908128 0.200285 0.536472
0.906663 0.198063 0.531749
0.907129 0.309581 0.526932
0.905917 0.348574 0.656480
0.097018 0.313149 0.087274
0.097334 0.313575 0.087461
0.098331 0.309739 0.087965
0.100026 0.296073 0.088439
0.103159 0.277125 0.088762
0.108947 0.255324 0.088953
0.117754 0.234442 0.089181
0.129410 0.216291 0.089351
0.149224 0.202900 0.089633
0.177653 0.194257 0.089993
0.237699 0.210059 0.091433
0.304675 0.214376 0.092950
0.380349 0.216473 0.094416
0.480783 0.225886 0.096424
0.588366 0.244399 0.099562
0.667329 0.251010 0.101506
0.724958 0.257478 0.103328
0.772842 0.268877 0.105832
0.809836 0.284596 0.109749
0.839106 0.290115 0.111978
0.858929 0.298291 0.114748
0.871409 0.304459 0.118453
0.881248 0.310555 0.122669
0.889187 0.310069 0.126151
0.894569 0.311192 0.130419
0.898464 0.312231 0.135464
0.901264 0.302888 0.141511
0.902626 0.294998 0.152377
0.907520 0.207059 0.536651
0.906151 0.197612 0.530339
0.904826 0.195401 0.525956
0.905420 0.305153 0.521555
0.904328 0.343925 0.651105
0.101405 0.380957 0.088816
0.101505 0.378865 0.088906
0.102037 0.370254 0.089185
0.103771 0.358595 0.089638
0.106764 0.340498 0.090001
0.112192 0.318807 0.090255
0.119305 0.295425 0.090471
0.129402 0.274154 0.090657
0.146094 0.256190 0.090863
0.169149 0.242147 0.091129
0.212322 0.250386 0.092733
0.261838 0.247045 0.093946
0.322096 0.246579 0.095182
0.404652 0.254430 0.097081
0.517646 0.272929 0.100254
0.595214 0.278261 0.102064
0.669675 0.283428 0.103807
0.729558 0.294077 0.106369
0.777148 0.311915 0.110244
0.809889 0.317442 0.112395
0.839541 0.322597 0.115060
0.859140 0.332408 0.118741
0.870670 0.342705 0.122977
0.880546 0.343048 0.126315
0.887703 0.342083 0.130317
0.892841 0.341559 0.135048
0.897656 0.331047 0.140179
0.899706 0.321542 0.149569
0.901458 0.301481 0.161878
0.902335 0.283427 0.201218
0.903753 0.280518 0.475513
0.903546 0.301139 0.518829
0.902575 0.338859 0.645215
0.109017 0.466661 0.090723
0.109074 0.464153 0.090774
0.109572 0.456716 0.090977
0.111685 0.448536 0.091400
0.114689 0.433262 0.091948
0.118990 0.413228 0.092545
0.125377 0.390716 0.093108
0.136707 0.365095 0.093558
0.152362 0.341633 0.093950
0.174364 0.321578 0.094445
0.201927 0.305780 0.095054
0.237671 0.291305 0.095543
0.281828 0.280716 0.096124
0.349663 0.286936 0.097856
0.444638 0.305848 0.101095
0.530524 0.309515 0.102794
0.604652 0.313210 0.104385
0.678465 0.323506 0.107028
0.740454 0.341943 0.110864
0.779446 0.345732 0.112893
0.811788 0.352663 0.115643
0.839826 0.363780 0.119240
0.859708 0.371397 0.123319
0.871465 0.372958 0.126552
0.879781 0.377314 0.130485
0.885930 0.382864 0.135051
0.892112 0.370747 0.139627
0.895585 0.359087 0.147797
0.898581 0.337472 0.157531
0.899783 0.312261 0.180326
0.901372 0.276479 0.397607
0.901547 0.298486 0.522205
0.900383 0.296417 0.521963
0.113978 0.508711 0.091814
0.114029 0.507026 0.091891
0.114406 0.501811 0.092190
0.116017 0.495728 0.092986
0.118335 0.485030 0.093762
0.122115 0.470729 0.094531
0.128626 0.450826 0.095236
0.138436 0.428481 0.095708
0.151986 0.406696 0.096138
0.170819 0.385360 0.096555
0.194661 0.365500 0.097034
0.225458 0.349685 0.097635
0.259554 0.328816 0.097699
0.310086 0.324581 0.098996
0.390285 0.342995 0.102074
0.466502 0.344511 0.103610
0.544929 0.347108 0.105155
0.623031 0.356765 0.107949
0.693667 0.374411 0.111539
0.746356 0.377485 0.113507
0.782766 0.385335 0.116416
0.815225 0.394354 0.119822
0.842959 0.403883 0.123940
0.860623 0.407334 0.127112
0.871418 0.408660 0.130813
0.879259 0.411629 0.135142
0.886202 0.407820 0.139523
0.890338 0.405379 0.147171
0.894061 0.391324 0.156016
0.896417 0.361699 0.170292
0.898713 0.290242 0.284648
0.899425 0.293174 0.515584
0.898386 0.292267 0.518910
0.117816 0.541501 0.093218
0.117861 0.540045 0.093303
0.118157 0.535405 0.093630
0.119320 0.529331 0.094315
0.121456 0.520985 0.095149
0.124694 0.509638 0.095958
0.130641 0.495166 0.096632
0.139472 0.479086 0.097223
0.151324 0.458819 0.097692
0.167365 0.437901 0.098193
0.187932 0.418970 0.098753
0.212739 0.402350 0.099329
0.246836 0.387818 0.100078
0.288921 0.377626 0.101015
0.350158 0.384139 0.103193
0.414854 0.384049 0.104596
0.489720 0.384893 0.106294
0.567022 0.393663 0.109015
0.650427 0.408589 0.112564
0.702669 0.410226 0.114515
0.753925 0.415596 0.117198
0.788748 0.424260 0.120661
0.819694 0.434660 0.124791
0.847345 0.435781 0.127706
0.861861 0.440639 0.131369
0.871149 0.447328 0.135647
0.879915 0.441226 0.139749
0.885201 0.436692 0.146649
0.889536 0.428331 0.154834
0.892262 0.416772 0.166959
0.894289 0.401740 0.193660
0.896768 0.287956 0.508830
0.895527 0.288454 0.517021
0.122631 0.583452 0.095152
0.122673 0.582171 0.095229
0.122923 0.577999 0.095523
0.123819 0.572105 0.096125
0.126400 0.565869 0.097030
0.130003 0.555022 0.097806
0.135476 0.541866 0.098690
0.143828 0.527145 0.099527
0.154249 0.511226 0.100238
0.168801 0.494807 0.100800
0.187118 0.479172 0.101321
0.209501 0.462010 0.101925
0.239008 0.445881 0.102503
0.275378 0.432629 0.103240
0.329055 0.436186 0.105281
0.377011 0.424138 0.106041
0.440274 0.421597 0.107619
0.520880 0.427662 0.110116
0.597161 0.441671 0.113581
0.662681 0.442927 0.115771
0.714378 0.447267 0.118309
0.762169 0.455736 0.121734
0.796111 0.464724 0.125680
0.826058 0.467807 0.128557
0.850509 0.473413 0.132099
0.863072 0.477253 0.136103
0.873030 0.476361 0.140367
0.879250 0.477011 0.146923
0.884746 0.467483 0.154175
0.888227 0.453653 0.163865
0.890723 0.434709 0.181560
0.892313 0.423464 0.274569
0.893601 0.437275 0.514821
0.130173 0.626806 0.097644
0.130236 0.626024 0.097717
0.130563 0.623429 0.098033
0.131615 0.619554 0.098729
0.134707 0.616057 0.099923
0.138145 0.608722 0.100865
0.143926 0.599409 0.101896
0.151385 0.585471 0.102746
0.161658 0.570149 0.103541
0.175838 0.554092 0.104200
0.193098 0.538193 0.104835
0.213977 0.522991 0.105458
0.241863 0.509106 0.106296
0.274915 0.496941 0.107118
0.314038 0.486644 0.108117
0.355752 0.474941 0.108669
0.404361 0.462386 0.109340
0.473552 0.464491 0.111440
0.552842 0.476929 0.115037
0.616401 0.476951 0.117046
0.677251 0.479801 0.119534
0.729487 0.485970 0.123053
0.771941 0.492322 0.126800
0.803630 0.495329 0.129580
0.831952 0.498581 0.132908
0.853354 0.504189 0.136859
0.865650 0.503749 0.141288
0.873522 0.502547 0.147326
0.879737 0.500036 0.154198
0.883822 0.495908 0.162795
0.886977 0.480630 0.175844
0.888836 0.456945 0.219013
0.890619 0.441602 0.499336
0.135498 0.650022 0.099167
0.135566 0.649338 0.099251
0.135899 0.647039 0.099565
0.136908 0.643466 0.100188
0.139539 0.639787 0.101235
0.143003 0.634081 0.102281
0.148596 0.627611 0.103452
0.154625 0.618244 0.104259
0.164244 0.608314 0.105077
0.177144 0.595338 0.106174
0.192295 0.579667 0.106991
0.210725 0.564430 0.107807
0.235490 0.550266 0.108629
0.265292 0.537155 0.109458
0.299608 0.525805 0.110308
0.339965 0.516093 0.111302
0.382663 0.504719 0.111814
0.438817 0.499988 0.113215
0.516180 0.506185 0.116669
0.574061 0.505560 0.118573
0.639271 0.507243 0.120941
0.694675 0.512767 0.124475
0.746521 0.518720 0.128104
0.781352 0.520945 0.130711
0.811889 0.524800 0.133931
0.837762 0.530531 0.137745
0.857816 0.530287 0.142378
0.866972 0.532170 0.148308
0.874572 0.529760 0.154641
0.879638 0.523837 0.162073
0.883211 0.516496 0.173430
0.885307 0.509081 0.199232
0.887388 0.475210 0.430553
0.141041 0.672066 0.100546
0.141104 0.671465 0.100623
0.141399 0.669421 0.100909
0.142243 0.666147 0.101470
0.144345 0.662475 0.102398
0.147904 0.658163 0.103540
0.151990 0.651359 0.104540
0.157957 0.643619 0.105676
0.167182 0.634821 0.106905
0.178515 0.625059 0.108011
0.192156 0.614807 0.109024
0.208787 0.604399 0.109898
0.231013 0.590288 0.110701
0.257296 0.576953 0.111557
0.288408 0.564709 0.112393
0.324361 0.554026 0.113263
0.366135 0.544945 0.114449
0.416059 0.539055 0.116085
0.481790 0.540148 0.118971
0.538480 0.534440 0.120097
0.598346 0.535653 0.122655
0.662778 0.540332 0.126024
0.713723 0.545976 0.129562
0.759250 0.547643 0.132006
0.791287 0.551741 0.135123
0.820354 0.556710 0.139316
0.846597 0.558173 0.143826
0.860233 0.559389 0.149358
0.869204 0.558809 0.155386
0.875085 0.557161 0.162317
0.879483 0.549295 0.171839
0.882072 0.538685 0.189630
0.883863 0.536506 0.293597
0.147530 0.697112 0.102246
0.147592 0.696585 0.102318
0.147870 0.694779 0.102583
0.148615 0.691817 0.103097
0.150375 0.688293 0.103936
0.154135 0.685195 0.105209
0.157359 0.678428 0.106415
0.164370 0.672046 0.107973
0.172501 0.663876 0.109257
0.182502 0.654731 0.110381
0.195045 0.645207 0.111496
0.210658 0.635347 0.112471
0.231301 0.625621 0.113420
0.255170 0.616080 0.114366
0.283725 0.607311 0.115503
0.316282 0.597307 0.116576
0.354259 0.587142 0.117687
0.398228 0.578602 0.118970
0.457530 0.578642 0.122054
0.512572 0.569533 0.122821
0.563498 0.564705 0.124383
0.627138 0.568876 0.127678
0.683778 0.573939 0.131128
0.731429 0.575106 0.133434
0.770913 0.579141 0.136453
0.802072 0.583804 0.141182
0.831116 0.585570 0.145457
0.852469 0.587259 0.150710
0.863332 0.589083 0.156565
0.870701 0.585746 0.162769
0.875752 0.582063 0.171452
0.878761 0.578009 0.185657
0.880802 0.566917 0.237915
0.155002 0.723194 0.104337
0.155067 0.722769 0.104405
0.155347 0.721304 0.104653
0.156049 0.718857 0.105144
0.157762 0.715818 0.106207
0.161731 0.712968 0.107802
0.165820 0.707916 0.109167
0.172167 0.702403 0.110734
0.179462 0.695089 0.112089
0.189372 0.687120 0.113440
0.201197 0.678209 0.114866
0.216417 0.668932 0.116300
0.235579 0.659408 0.117509
0.258225 0.650133 0.118660
0.284576 0.641186 0.119716
0.315713 0.633035 0.121057
0.350455 0.625601 0.122370
0.390768 0.618833 0.123667
0.437826 0.613244 0.125223
0.487438 0.606317 0.125868
0.539354 0.600624 0.127150
0.592715 0.598095 0.129397
0.656032 0.602586 0.132733
0.702655 0.603389 0.134947
0.750582 0.605785 0.137874
0.783536 0.609038 0.143238
0.814941 0.610106 0.147241
0.839708 0.612105 0.152356
0.857505 0.612773 0.157727
0.866008 0.612427 0.163719
0.872030 0.611043 0.171750
0.875692 0.606763 0.183209
0.877929 0.604253 0.215798
0.160557 0.741913 0.105066
0.160630 0.741530 0.105141
0.160934 0.740199 0.105467
0.161675 0.737937 0.106093
0.163274 0.735022 0.107095
0.166543 0.732024 0.108582
0.170906 0.728042 0.110154
0.175842 0.722412 0.111569
0.183123 0.716503 0.113125
0.192088 0.709653 0.114830
0.202166 0.701780 0.116307
0.215905 0.693162 0.117784
0.233580 0.684216 0.119160
0.254447 0.675289 0.120451
0.278766 0.666660 0.121844
0.306850 0.658366 0.123131
0.338719 0.650850 0.124536
0.375561 0.644075 0.125921
0.417475 0.637888 0.127248
0.466696 0.632784 0.128800
0.519701 0.627376 0.129978
0.568848 0.625066 0.132153
0.624389 0.623733 0.134522
0.676571 0.623616 0.136500
0.723258 0.625486 0.140195
0.765142 0.628260 0.145374
0.797980 0.629329 0.149180
0.825528 0.631463 0.154132
0.849965 0.632517 0.159190
0.861077 0.633011 0.164907
0.868358 0.631793 0.172196
0.872598 0.630418 0.182540
0.875253 0.627148 0.204854
0.166694 0.760683 0.106093
0.166764 0.760341 0.106179
0.167049 0.759147 0.106494
0.167721 0.757092 0.107097
0.169121 0.754371 0.108054
0.171895 0.751399 0.109459
0.176585 0.748328 0.111255
0.180554 0.742824 0.112558
0.187973 0.737818 0.114548
0.194895 0.730903 0.116136
0.204993 0.723982 0.117906
0.218251 0.716529 0.119548
0.234302 0.708561 0.121132
0.253280 0.700523 0.122631
0.275694 0.692176 0.124159
0.301645 0.684117 0.125586
0.330648 0.676470 0.126923
0.364162 0.669495 0.128323
0.403151 0.663317 0.129770
0.447089 0.657685 0.131138
0.498612 0.653014 0.132682
0.548373 0.649781 0.134780
0.599906 0.648100 0.137094
0.653120 0.644676 0.138646
0.697951 0.645126 0.142551
0.745480 0.647603 0.147656
0.780910 0.648582 0.151249
0.810843 0.650345 0.155940
0.838086 0.652023 0.160845
0.855968 0.652402 0.166135
0.864527 0.652734 0.173102
0.869660 0.651221 0.182233
0.872711 0.649799 0.199666
0.173192 0.779606 0.107372
0.173263 0.779307 0.107456
0.173546 0.778259 0.107764
0.174190 0.776438 0.108349
0.175476 0.773978 0.109273
0.177927 0.771181 0.110620
0.182519 0.768560 0.112507
0.186357 0.763742 0.113975
0.192374 0.758708 0.116045
0.199652 0.752862 0.117968
0.209717 0.746521 0.119882
0.221078 0.739381 0.121715
0.236463 0.732068 0.123606
0.254618 0.724514 0.125339
0.275404 0.716939 0.126881
0.299418 0.709691 0.128492
0.326561 0.702697 0.129934
0.357690 0.695846 0.131369
0.393317 0.689369 0.132793
0.434757 0.683729 0.134293
0.481034 0.678618 0.135727
0.530578 0.674329 0.137261
0.578456 0.671900 0.140570
0.628764 0.668341 0.142349
0.676247 0.666053 0.145376
0.720915 0.666767 0.149915
0.764162 0.667808 0.153373
0.795657 0.669340 0.157908
0.825512 0.671072 0.162597
0.849036 0.671813 0.167628
0.860675 0.672411 0.174102
0.866760 0.671883 0.182487
0.870288 0.671772 0.197057
0.179590 0.796982 0.108301
0.179660 0.796843 0.108385
0.179937 0.796353 0.108689
0.180548 0.795494 0.109266
0.181729 0.793295 0.110173
0.183912 0.790638 0.111485
0.187881 0.787949 0.113310
0.192254 0.784089 0.115361
0.197246 0.779151 0.117317
0.205072 0.774160 0.119626
0.213449 0.767853 0.121565
0.225338 0.761445 0.123773
0.240255 0.754714 0.125946
0.256315 0.747470 0.127718
0.275545 0.740224 0.129384
0.297910 0.733163 0.131041
0.323579 0.726392 0.132685
0.352821 0.719950 0.134227
0.385997 0.713940 0.135712
0.424043 0.708401 0.137190
0.467486 0.703616 0.139273
0.516767 0.699269 0.141688
0.559461 0.695382 0.144155
0.606371 0.691607 0.145856
0.657614 0.688902 0.148809
0.699740 0.687470 0.152715
0.745934 0.686829 0.155403
0.780195 0.688125 0.159804
0.812500 0.689792 0.164466
0.838997 0.690889 0.169294
0.856681 0.691562 0.175148
0.863861 0.691999 0.183123
0.868065 0.691651 0.195452
0.185095 0.806271 0.107985
0.185158 0.806143 0.108069
0.185405 0.805691 0.108373
0.185943 0.804888 0.108949
0.186970 0.803763 0.109850
0.188843 0.802389 0.111149
0.192202 0.800903 0.112946
0.196958 0.799179 0.115339
0.201060 0.796638 0.117213
0.208544 0.792950 0.119669
0.216332 0.787094 0.121828
0.228154 0.781067 0.124312
0.240375 0.774457 0.126362
0.256204 0.767778 0.128491
0.274845 0.760927 0.130453
0.295092 0.754052 0.132128
0.318611 0.747438 0.133854
0.345655 0.741114 0.135483
0.376532 0.735189 0.137081
0.411541 0.729697 0.139097
0.451823 0.724722 0.141532
0.497100 0.720363 0.143931
0.541367 0.716627 0.146458
0.586375 0.713466 0.149026
0.636510 0.710489 0.151966
0.681479 0.708689 0.155836
0.725109 0.707117 0.158009
0.764790 0.706247 0.161593
0.798637 0.707673 0.166124
0.828284 0.708864 0.171056
0.851897 0.709753 0.176366
0.861031 0.710115 0.183483
0.865950 0.710678 0.194724
0.190147 0.814250 0.107783
0.190209 0.814138 0.107866
0.190447 0.813741 0.108169
0.190957 0.813032 0.108742
0.191905 0.812026 0.109637
0.193589 0.810773 0.110921
0.196539 0.809365 0.112691
0.201735 0.807951 0.115482
0.205426 0.805596 0.117301
0.211845 0.803173 0.119650
0.220386 0.800526 0.122364
0.230167 0.797464 0.124712
0.242746 0.793272 0.127149
0.257612 0.786977 0.129486
0.273793 0.780468 0.131465
0.293341 0.773987 0.133423
0.315905 0.767602 0.135297
0.341458 0.761408 0.137091
0.370076 0.755570 0.139327
0.402563 0.750142 0.141933
0.439507 0.745165 0.144423
0.481445 0.740708 0.146912
0.526236 0.736738 0.149374
0.567763 0.733460 0.152033
0.615150 0.730685 0.154721
0.663972 0.728369 0.158600
0.706410 0.726957 0.160658
0.750565 0.725164 0.163957
0.784410 0.724584 0.167684
0.816740 0.725667 0.172236
0.844600 0.726845 0.177578
0.858206 0.727424 0.183980
0.863942 0.728113 0.194240
0.194899 0.821611 0.107287
0.194960 0.821513 0.107371
0.195193 0.821166 0.107677
0.195681 0.820542 0.108255
0.196569 0.819648 0.109156
0.198109 0.818515 0.110448
0.200749 0.817203 0.112223
0.205489 0.815812 0.114895
0.210125 0.813871 0.117265
0.215592 0.811593 0.119547
0.225152 0.809290 0.122855
0.233342 0.806419 0.125115
0.246217 0.803522 0.127974
0.258581 0.800391 0.130190
0.274989 0.797228 0.132594
0.293261 0.792716 0.134708
0.313650 0.786647 0.136684
0.337413 0.780695 0.139105
0.364424 0.774963 0.141985
0.394931 0.769614 0.144769
0.429453 0.764669 0.147481
0.468635 0.760192 0.150128
0.513100 0.756167 0.152707
0.552047 0.752613 0.155264
0.595811 0.749745 0.158064
0.645898 0.747327 0.160873
0.688700 0.746164 0.162822
0.731526 0.744060 0.166302
0.771436 0.743145 0.169714
0.804574 0.742314 0.173404
0.836008 0.743303 0.178379
0.855160 0.744194 0.184394
0.862187 0.745022 0.193918
0.200111 0.831129 0.104445
0.200159 0.831034 0.104511
0.200344 0.830697 0.104750
0.200734 0.830086 0.105239
0.201451 0.829192 0.106209
0.202714 0.828024 0.107607
0.205058 0.826610 0.109541
0.209319 0.825002 0.112170
0.214603 0.823116 0.115091
0.219174 0.820846 0.117418
0.227252 0.818446 0.120444
0.236272 0.815793 0.123503
0.246788 0.812930 0.126322
0.259678 0.809949 0.129105
0.274580 0.806864 0.131697
0.291101 0.803786 0.134003
0.311169 0.800721 0.136308
0.333432 0.797705 0.138773
0.358045 0.794200 0.141833
0.386271 0.788931 0.144801
0.418372 0.784049 0.147673
0.454969 0.779589 0.150471
0.496574 0.775592 0.153205
0.537249 0.772074 0.155889
