negative-gold-200/Gold200_Classic_Soft.cube
TITLE "Kodak Gold 200 Classic Soft"
# Adobe RGB in/out. REPLACES AgX. Kodak Gold 200 Classic Soft.
LUT_3D_SIZE 9
DOMAIN_MIN 0.0 0.0 0.0
DOMAIN_MAX 1.0 1.0 1.0
0.062396 0.069107 0.086480
0.079167 0.073455 0.088290
0.134369 0.083466 0.091435
0.307113 0.099403 0.095310
0.470177 0.127571 0.099901
0.582752 0.185165 0.105890
0.647315 0.286856 0.112846
0.703910 0.383064 0.120390
0.741338 0.464189 0.130206
0.066061 0.081777 0.088098
0.080880 0.084533 0.089245
0.137209 0.093120 0.092048
0.310658 0.109101 0.095848
0.471487 0.142956 0.100206
0.583297 0.208690 0.106250
0.647694 0.308231 0.113201
0.704117 0.397950 0.120750
0.741500 0.473628 0.130543
0.073069 0.119245 0.090989
0.086494 0.122338 0.091760
0.147300 0.131715 0.093810
0.323452 0.163084 0.097518
0.476163 0.213913 0.101497
0.585240 0.293243 0.107484
0.649050 0.373213 0.114439
0.704859 0.448187 0.122017
0.742083 0.506098 0.131736
0.083835 0.245101 0.094452
0.096848 0.251306 0.095088
0.165518 0.273234 0.097131
0.345114 0.308957 0.099890
0.484643 0.357004 0.104370
0.588770 0.407692 0.109762
0.651523 0.461599 0.116574
0.706215 0.509433 0.124249
0.743151 0.549559 0.134110
0.099725 0.424853 0.098954
0.115482 0.428484 0.099341
0.189013 0.441426 0.100602
0.367170 0.458901 0.103820
0.497046 0.482395 0.107912
0.593944 0.512450 0.113473
0.655170 0.540820 0.119478
0.708221 0.568812 0.127811
0.744734 0.599062 0.138246
0.126011 0.542839 0.104078
0.147471 0.544239 0.104534
0.238925 0.549216 0.106075
0.399383 0.558163 0.108583
0.513307 0.571074 0.112827
0.600745 0.587712 0.117766
0.660004 0.607697 0.124133
0.710890 0.630583 0.132338
0.746850 0.652301 0.143542
0.171831 0.625264 0.110196
0.191077 0.626345 0.110643
0.295151 0.630200 0.112189
0.423720 0.637183 0.114809
0.530520 0.646971 0.118297
0.609101 0.655273 0.123361
0.666002 0.665067 0.130149
0.714218 0.675851 0.139196
0.749500 0.687847 0.150102
0.237669 0.680797 0.117346
0.268733 0.681286 0.117686
0.358799 0.683031 0.118875
0.457023 0.686199 0.121412
0.549751 0.690834 0.125274
0.618901 0.696913 0.130635
0.673117 0.704360 0.138042
0.718188 0.713063 0.147216
0.752680 0.722889 0.159006
0.321087 0.723157 0.125524
0.347405 0.723544 0.125944
0.410665 0.724929 0.127422
0.489243 0.727451 0.130035
0.571374 0.731162 0.133908
0.629898 0.736064 0.140197
0.681281 0.742121 0.147602
0.722772 0.749271 0.157598
0.756375 0.757431 0.169475
0.063734 0.071560 0.106830
0.079588 0.074902 0.107217
0.135044 0.084810 0.108537
0.307954 0.100446 0.111400
0.470488 0.128735 0.115338
0.582882 0.187533 0.119990
0.647405 0.289365 0.126783
0.703959 0.384821 0.135215
0.741376 0.465306 0.146333
0.066688 0.082991 0.107171
0.081264 0.085797 0.107550
0.137881 0.094212 0.108845
0.311499 0.110283 0.111776
0.471797 0.145651 0.115661
0.583425 0.211518 0.120354
0.647784 0.310734 0.127143
0.704166 0.399681 0.135637
0.741539 0.474722 0.146706
0.073439 0.120691 0.108341
0.086847 0.123744 0.108694
0.147961 0.132829 0.110268
0.324304 0.165109 0.113082
0.476470 0.216748 0.116790
0.585367 0.295750 0.121633
0.649139 0.374988 0.128416
0.704908 0.449426 0.137137
0.742122 0.507123 0.148032
0.084227 0.247977 0.110813
0.097285 0.254190 0.111250
0.166217 0.275746 0.112760
0.345644 0.311460 0.115326
0.484945 0.358811 0.118751
0.588895 0.409406 0.123886
0.651611 0.462721 0.130678
0.706263 0.510451 0.139829
0.743189 0.550195 0.150796
0.100141 0.426539 0.114383
0.115950 0.430164 0.114764
0.189891 0.443086 0.116087
0.367786 0.460030 0.118361
0.497339 0.483469 0.122090
0.594066 0.513462 0.127420
0.655257 0.541475 0.134147
0.708268 0.569409 0.143710
0.744772 0.599605 0.155086
0.126555 0.543490 0.118543
0.148131 0.544887 0.118868
0.239808 0.549853 0.120176
0.399742 0.558781 0.122818
0.513591 0.571667 0.126764
0.600864 0.588274 0.131979
0.660089 0.608226 0.139689
0.710936 0.631078 0.148706
0.746887 0.652587 0.160684
0.172526 0.625766 0.124242
0.191956 0.626845 0.124614
0.295989 0.630695 0.126124
0.424069 0.637668 0.128802
0.530746 0.647266 0.132566
0.609215 0.655555 0.138750
0.666085 0.665315 0.146270
0.714264 0.676085 0.156082
0.749537 0.688065 0.167581
0.238551 0.681024 0.131518
0.269628 0.681512 0.131891
0.359319 0.683256 0.133225
0.457393 0.686419 0.136418
0.549965 0.691049 0.140985
0.619010 0.697120 0.146808
0.673197 0.704559 0.154873
0.718233 0.713253 0.164634
0.752716 0.723069 0.178365
0.321939 0.723336 0.141251
0.347934 0.723723 0.141699
0.411013 0.725107 0.143289
0.489541 0.727627 0.146144
0.571576 0.731334 0.150589
0.629996 0.736232 0.157136
0.681358 0.742284 0.165052
0.722815 0.749428 0.176640
0.756410 0.757581 0.190713
0.066313 0.076798 0.162996
0.081025 0.079506 0.163455
0.137463 0.088916 0.165093
0.310975 0.104633 0.168326
0.471604 0.132803 0.174196
0.583345 0.197596 0.181958
0.647728 0.298370 0.191570
0.704136 0.391107 0.202961
0.741515 0.469294 0.216656
0.068404 0.087465 0.163400
0.082582 0.089700 0.163858
0.140288 0.098192 0.165492
0.314522 0.116364 0.168853
0.472910 0.153393 0.174713
0.583888 0.221709 0.182462
0.648106 0.318694 0.192061
0.704343 0.405873 0.203436
0.741677 0.478633 0.217199
0.074851 0.125568 0.164843
0.088073 0.128115 0.165296
0.150328 0.142089 0.166914
0.327367 0.172328 0.170738
0.477572 0.226965 0.176563
0.585826 0.304749 0.184268
0.649460 0.381338 0.193816
0.705084 0.453615 0.205136
0.742260 0.510788 0.219148
0.085587 0.258341 0.167517
0.098831 0.264581 0.168117
0.168722 0.284765 0.170265
0.347546 0.319264 0.174177
0.486026 0.365273 0.179939
0.589346 0.415540 0.187566
0.651928 0.466732 0.197023
0.706437 0.514093 0.208244
0.743326 0.552469 0.222795
0.101615 0.432574 0.172701
0.117648 0.436178 0.173291
0.193051 0.447675 0.175403
0.369997 0.464063 0.179252
0.498393 0.487310 0.184925
0.594506 0.517083 0.192439
0.655568 0.543816 0.201767
0.708440 0.571544 0.212881
0.744908 0.601548 0.228482
0.128498 0.545815 0.179571
0.150498 0.547201 0.180149
0.242983 0.552129 0.182216
0.401027 0.560991 0.185985
0.514610 0.573787 0.191544
0.601290 0.590286 0.198917
0.660393 0.610119 0.208080
0.711105 0.632847 0.220145
0.747021 0.653612 0.236115
0.175017 0.627563 0.188103
0.195120 0.628637 0.188666
0.299003 0.632467 0.190680
0.425477 0.639404 0.194356
0.531555 0.648320 0.199784
0.609626 0.656564 0.206990
0.666381 0.666205 0.216564
0.714429 0.676921 0.229822
0.749668 0.688847 0.246636
0.241724 0.681837 0.198241
0.272845 0.682323 0.198788
0.361186 0.684059 0.200745
0.458587 0.687208 0.204318
0.550734 0.691818 0.209599
0.619403 0.697864 0.217348
0.673485 0.705272 0.228196
0.718394 0.713934 0.241921
0.752845 0.723715 0.260092
0.325000 0.723981 0.209913
0.349830 0.724367 0.210443
0.412261 0.725746 0.212339
0.490612 0.728257 0.216381
0.572302 0.731952 0.222524
0.630346 0.736834 0.231248
0.681635 0.742867 0.242602
0.722972 0.749990 0.257912
0.756536 0.758120 0.276000
0.069504 0.085198 0.319623
0.083414 0.087723 0.320219
0.141887 0.096016 0.322359
0.316539 0.113149 0.326284
0.473651 0.149419 0.332130
0.584196 0.216255 0.339980
0.648321 0.314915 0.349758
0.704460 0.402568 0.361587
0.741770 0.476546 0.376855
0.071521 0.094535 0.320148
0.085055 0.096925 0.320744
0.144691 0.105682 0.322882
0.320096 0.125702 0.326806
0.474951 0.166865 0.332649
0.584736 0.240592 0.340489
0.648698 0.331598 0.350262
0.704666 0.417168 0.362085
0.741932 0.485747 0.377404
0.077335 0.133234 0.322030
0.090461 0.139037 0.322625
0.154660 0.156878 0.324760
0.333009 0.185724 0.328677
0.479592 0.245894 0.334510
0.586666 0.319924 0.342314
0.650048 0.392913 0.352070
0.705406 0.461112 0.363959
0.742514 0.517464 0.379374
0.087909 0.276510 0.325485
0.101573 0.281922 0.326078
0.173317 0.301336 0.328206
0.351033 0.332161 0.332111
0.488010 0.377044 0.337926
0.590173 0.426731 0.345662
0.652509 0.474022 0.355389
0.706757 0.520728 0.367607
0.743578 0.556608 0.382993
0.104574 0.443575 0.330633
0.120969 0.446266 0.331224
0.198883 0.455447 0.333342
0.374056 0.471395 0.337228
0.500325 0.494301 0.342978
0.595314 0.523653 0.350651
0.656140 0.548076 0.360335
0.708755 0.575436 0.373051
0.745157 0.605093 0.388396
0.132029 0.550046 0.337552
0.154829 0.551413 0.338139
0.248837 0.556273 0.340241
0.403380 0.565017 0.344053
0.516478 0.577651 0.349731
0.602073 0.593956 0.357358
0.660953 0.613575 0.367414
0.711415 0.636080 0.380384
0.747267 0.655483 0.395251
0.179590 0.630845 0.346209
0.200960 0.631909 0.346783
0.304552 0.635703 0.348845
0.428057 0.642577 0.352627
0.533039 0.650245 0.358262
0.610380 0.658405 0.366132
0.666926 0.667830 0.376762
0.714732 0.678450 0.389672
0.749911 0.690276 0.402690
0.247575 0.683324 0.356654
0.278777 0.683806 0.357223
0.364609 0.685527 0.359265
0.460695 0.688651 0.363013
0.552143 0.693223 0.369205
0.620125 0.699223 0.377554
0.674012 0.706578 0.388124
0.718689 0.715179 0.399523
0.753082 0.724897 0.411693
0.330639 0.725161 0.369576
0.353306 0.725545 0.370202
0.414458 0.726915 0.372449
0.492576 0.729411 0.376577
0.573635 0.733084 0.382736
0.630989 0.737937 0.391030
0.682144 0.743936 0.399981
0.723258 0.751021 0.410238
0.756768 0.759109 0.422282
0.073745 0.096003 0.493826
0.087102 0.098437 0.494157
0.148445 0.107234 0.495342
0.324929 0.127311 0.497517
0.476695 0.169595 0.500754
0.585461 0.244490 0.505097
0.649205 0.334783 0.510572
0.704944 0.419473 0.516837
0.742150 0.487195 0.523544
0.075335 0.105669 0.494117
0.088521 0.108114 0.494447
0.151219 0.119746 0.495632
0.328524 0.142360 0.497806
0.477987 0.187038 0.501041
0.585998 0.269137 0.505382
0.649580 0.356079 0.510853
0.705150 0.433841 0.517078
0.742312 0.496200 0.523781
0.081366 0.156857 0.495160
0.094002 0.161258 0.495490
0.161088 0.176810 0.496673
0.341461 0.213286 0.498842
0.482597 0.273901 0.502071
0.587917 0.341475 0.506403
0.650925 0.409979 0.511865
0.705887 0.472105 0.517943
0.742892 0.526187 0.524633
0.091478 0.301309 0.497075
0.105976 0.306706 0.497403
0.180159 0.323674 0.498582
0.356218 0.356604 0.500743
0.490961 0.394384 0.503961
0.591404 0.443258 0.508278
0.653376 0.484726 0.513722
0.707233 0.528427 0.519531
0.743954 0.562696 0.526197
0.108861 0.455435 0.499925
0.125867 0.457883 0.500252
0.207650 0.466573 0.501424
0.380109 0.482156 0.503575
0.503200 0.504579 0.506776
0.596516 0.530451 0.511071
0.656993 0.554337 0.516231
0.709226 0.581169 0.521896
0.745530 0.610327 0.528524
0.138236 0.556267 0.503754
0.161255 0.557606 0.504078
0.257623 0.562368 0.505242
0.406873 0.570943 0.507378
0.518933 0.583344 0.510557
0.603238 0.599369 0.514789
0.661787 0.618678 0.519447
0.711877 0.640860 0.525070
0.747635 0.658246 0.531630
0.183334 0.635698 0.508585
0.209740 0.636746 0.508906
0.312866 0.640488 0.510060
0.431895 0.646906 0.512177
0.535248 0.653088 0.515227
0.611502 0.661126 0.518890
0.667738 0.670233 0.523503
0.715184 0.680712 0.529073
0.750272 0.692393 0.535311
0.256356 0.685524 0.514429
0.285410 0.686001 0.514724
0.370526 0.687701 0.515713
0.463828 0.690787 0.517527
0.554241 0.695306 0.520226
0.621200 0.701238 0.523846
0.674799 0.708513 0.528407
0.719130 0.717027 0.533744
0.753437 0.726651 0.539760
0.339087 0.726913 0.520387
0.358475 0.727293 0.520659
0.417699 0.728651 0.521635
0.495499 0.731124 0.523424
0.575619 0.734764 0.526086
0.631948 0.739575 0.529657
0.682903 0.745524 0.533970
0.723686 0.752552 0.539041
0.757115 0.760578 0.544977
0.078949 0.111621 0.604323
0.091873 0.115266 0.604474
0.157198 0.126265 0.605017
0.336334 0.153428 0.606014
0.480777 0.200579 0.607499
0.587159 0.281397 0.609492
0.650393 0.364783 0.612008
0.705595 0.441894 0.615051
0.742663 0.501229 0.618622
0.080681 0.124623 0.604456
0.093339 0.127196 0.604607
0.159935 0.139975 0.605150
0.339938 0.170758 0.606147
0.482057 0.224729 0.607630
0.587692 0.302784 0.609623
0.650767 0.379955 0.612137
0.705800 0.452717 0.615179
0.742824 0.509989 0.618749
0.086313 0.183848 0.604934
0.099674 0.189005 0.605085
0.170113 0.210780 0.605627
0.348603 0.251473 0.606622
0.486627 0.307405 0.608103
0.589596 0.369339 0.610092
0.652104 0.432599 0.612602
0.706534 0.486570 0.615640
0.743402 0.535256 0.619204
0.096623 0.330422 0.605811
0.112047 0.335288 0.605962
0.183475 0.355000 0.606502
0.363167 0.380467 0.607494
0.494919 0.417344 0.608970
0.593056 0.459147 0.610954
0.654542 0.498829 0.613456
0.707875 0.537428 0.616484
0.744461 0.570736 0.620038
0.115243 0.470408 0.607119
0.133031 0.472779 0.607268
0.219578 0.481203 0.607806
0.388251 0.496332 0.608793
0.507059 0.518147 0.610263
0.598130 0.539390 0.612238
0.658140 0.562596 0.614729
0.709859 0.588754 0.617744
0.746032 0.617271 0.621282
0.147134 0.564474 0.608875
0.170293 0.565778 0.609024
0.269550 0.570417 0.609559
0.411543 0.578775 0.610540
0.522033 0.590878 0.612001
0.604804 0.606544 0.613963
0.662909 0.625453 0.616440
0.712499 0.646873 0.619437
0.748130 0.661895 0.622954
0.190629 0.642148 0.611094
0.221684 0.643178 0.611242
0.324171 0.646644 0.611773
0.437040 0.650806 0.612746
0.538212 0.656861 0.614196
0.613011 0.664525 0.616143
0.668831 0.673428 0.618601
0.715793 0.683723 0.621575
0.750759 0.695214 0.625067
0.268277 0.688456 0.613782
0.292718 0.688924 0.613928
0.378718 0.690597 0.614454
0.468028 0.693633 0.615418
0.557059 0.698083 0.616854
0.622645 0.703926 0.618784
0.675858 0.711097 0.621219
0.719723 0.719495 0.624167
0.753915 0.728996 0.627628
0.347136 0.729255 0.616940
0.365403 0.729630 0.617085
0.422033 0.730971 0.617605
0.499420 0.733414 0.618558
0.578286 0.737011 0.619979
0.633236 0.741767 0.621888
0.683925 0.747649 0.624297
0.724263 0.754602 0.627214
0.757582 0.762546 0.630640
0.085453 0.136110 0.680131
0.098676 0.141915 0.680220
0.168468 0.159064 0.680540
0.347354 0.188471 0.681129
0.485917 0.248969 0.682006
0.589300 0.322019 0.683186
0.651896 0.394772 0.684678
0.706420 0.462312 0.686487
0.743312 0.518536 0.688616
0.086966 0.156264 0.680209
0.100444 0.160670 0.680298
0.171401 0.176237 0.680619
0.349580 0.212468 0.681207
0.487183 0.273175 0.682084
0.589828 0.340716 0.683263
0.652267 0.409484 0.684755
0.706624 0.471788 0.686563
0.743473 0.525987 0.688692
0.092363 0.230950 0.680491
0.107060 0.237116 0.680580
0.181880 0.259406 0.680900
0.357521 0.296591 0.681487
0.491703 0.345567 0.682363
0.591713 0.399187 0.683541
0.653594 0.456016 0.685031
0.707353 0.504375 0.686837
0.744049 0.546398 0.688964
0.103934 0.367771 0.681009
0.120256 0.371616 0.681098
0.197617 0.385298 0.681417
0.373177 0.409981 0.682003
0.499907 0.445270 0.682877
0.595139 0.477964 0.684052
0.656016 0.516215 0.685538
0.708687 0.548490 0.687341
0.745103 0.580670 0.689462
0.123571 0.488795 0.681781
0.144245 0.491079 0.681870
0.234631 0.499197 0.682188
0.397632 0.513801 0.682772
0.511922 0.531507 0.683643
0.600165 0.550380 0.684814
0.659590 0.572789 0.686295
0.710661 0.598149 0.688092
0.746668 0.625900 0.690206
0.158269 0.574607 0.682820
0.182058 0.575869 0.682909
0.283657 0.580361 0.683225
0.417186 0.588463 0.683807
0.525938 0.600213 0.684673
0.606779 0.615450 0.685840
0.664329 0.633880 0.687314
0.713287 0.651820 0.689103
0.748758 0.666147 0.691208
0.205644 0.648729 0.684136
0.236701 0.649357 0.684223
0.338680 0.651597 0.684538
0.443517 0.655650 0.685116
0.541947 0.661551 0.685978
0.614914 0.668713 0.687137
0.670213 0.677409 0.688604
0.716564 0.687480 0.690382
0.751377 0.698740 0.692476
0.282872 0.692115 0.685732
0.306363 0.692574 0.685819
0.389076 0.694213 0.686132
0.473313 0.697190 0.686706
0.560612 0.701553 0.687561
0.624469 0.707288 0.688713
0.677197 0.714331 0.690169
0.720475 0.722587 0.691935
0.754520 0.731937 0.694015
0.356072 0.732192 0.687613
0.375830 0.732561 0.687699
0.428270 0.733882 0.688009
0.504361 0.736288 0.688578
0.581651 0.739832 0.689427
0.634863 0.744518 0.690569
0.685218 0.750319 0.692013
0.724993 0.757178 0.693766
0.758174 0.765022 0.695829
0.092852 0.180868 0.732953
0.107664 0.185389 0.732999
0.182848 0.206770 0.733161
0.358253 0.247385 0.733458
0.492120 0.303852 0.733903
0.591887 0.366803 0.734501
0.653717 0.430219 0.735258
0.707421 0.485054 0.736178
0.744102 0.534306 0.737262
0.094397 0.202912 0.732993
0.109485 0.208993 0.733038
0.183303 0.230995 0.733200
0.360446 0.271793 0.733498
0.493369 0.322985 0.733942
0.592409 0.381942 0.734540
0.654085 0.444220 0.735297
0.707623 0.494098 0.736217
0.744262 0.539970 0.737301
0.100832 0.288108 0.733136
0.116728 0.293512 0.733181
0.191361 0.312903 0.733343
0.368815 0.344120 0.733640
0.497830 0.385187 0.734084
0.594271 0.434486 0.734681
0.655402 0.479054 0.735438
0.708348 0.524800 0.736356
0.744835 0.559468 0.737439
0.113388 0.404173 0.733398
0.130953 0.407876 0.733443
0.216069 0.421070 0.733604
0.385867 0.444583 0.733901
0.505930 0.469158 0.734344
0.597657 0.500001 0.734940
0.657804 0.532752 0.735695
0.709673 0.561471 0.736612
0.745885 0.592399 0.737693
0.134737 0.510370 0.733789
0.157884 0.512558 0.733834
0.252999 0.520345 0.733995
0.405041 0.531134 0.734291
0.517719 0.545233 0.734733
0.602626 0.563283 0.735327
0.661349 0.584807 0.736080
0.711634 0.609272 0.736995
0.747441 0.636155 0.738073
0.172235 0.586557 0.734316
0.191588 0.587772 0.734360
0.295638 0.592100 0.734521
0.423906 0.599915 0.734816
0.530651 0.611268 0.735256
0.609167 0.626019 0.735849
0.666050 0.643904 0.736599
0.714244 0.657689 0.737510
0.749521 0.671203 0.738584
0.224193 0.654695 0.734983
0.255087 0.655304 0.735027
0.350790 0.657474 0.735187
0.451331 0.661401 0.735481
0.546460 0.666745 0.735919
0.617218 0.673695 0.736509
0.671890 0.682154 0.737256
0.717501 0.691966 0.738163
0.752128 0.702956 0.739232
0.294445 0.696487 0.735794
0.323888 0.696935 0.735838
0.399474 0.698535 0.735997
0.479686 0.701442 0.736289
0.564909 0.705706 0.736725
0.626678 0.711313 0.737311
0.678823 0.718207 0.738054
0.721389 0.726297 0.738956
0.755257 0.735469 0.740020
0.367106 0.735719 0.736751
0.388498 0.736082 0.736795
0.436295 0.737378 0.736953
0.510329 0.739741 0.737243
0.584467 0.743222 0.737675
0.636834 0.747828 0.738258
0.686788 0.753532 0.738996
0.725880 0.760281 0.739892
0.758894 0.768004 0.740949
0.103117 0.248829 0.767499
0.119350 0.255044 0.767531
0.196021 0.276489 0.767649
0.372067 0.312200 0.767866
0.499379 0.359345 0.768190
0.594918 0.409912 0.768627
0.655860 0.463053 0.769180
0.708601 0.510752 0.769853
0.745035 0.550383 0.770647
0.105007 0.273053 0.767527
0.121452 0.278466 0.767560
0.199744 0.297887 0.767678
0.374654 0.329488 0.767895
0.500609 0.374605 0.768219
0.595432 0.424411 0.768656
0.656224 0.472513 0.769209
0.708802 0.519353 0.769881
0.745194 0.555751 0.770676
0.111844 0.345439 0.767631
0.129236 0.351107 0.767664
0.213199 0.365845 0.767782
0.383910 0.391021 0.767999
0.505003 0.427522 0.768322
0.597270 0.465897 0.768759
0.657528 0.505054 0.769311
0.709521 0.541393 0.769983
0.745764 0.574291 0.770777
0.125390 0.445209 0.767822
0.146719 0.447892 0.767855
0.237922 0.456934 0.767973
0.398975 0.472832 0.768189
0.512984 0.495672 0.768512
0.600610 0.524561 0.768948
0.659907 0.548911 0.769500
0.710836 0.576200 0.770171
0.746807 0.605790 0.770964
0.151145 0.531474 0.768107
0.174520 0.532929 0.768140
0.275004 0.538099 0.768258
0.413604 0.547380 0.768474
0.523436 0.560746 0.768796
0.605513 0.577928 0.769231
0.663419 0.598509 0.769781
0.712782 0.622010 0.770451
0.748355 0.647330 0.771242
0.183469 0.600187 0.768492
0.213429 0.601352 0.768524
0.316350 0.605504 0.768641
0.433494 0.613009 0.768857
0.536168 0.623932 0.769178
0.611971 0.638155 0.769612
0.668077 0.652009 0.770161
0.715373 0.664230 0.770829
0.750423 0.677020 0.771618
0.245932 0.661538 0.768979
0.277112 0.662088 0.769011
0.363651 0.664036 0.769128
0.460105 0.667564 0.769343
0.551748 0.672710 0.769663
0.619923 0.679432 0.770095
0.673864 0.687625 0.770643
0.718606 0.697148 0.771308
0.753016 0.707838 0.772095
0.315151 0.701544 0.769572
0.343679 0.701979 0.769604
0.408211 0.703535 0.769720
0.487140 0.706364 0.769934
0.569949 0.710515 0.770253
0.629211 0.715980 0.770683
0.680738 0.722706 0.771228
0.722466 0.730608 0.771891
0.756127 0.739579 0.772674
0.382217 0.739824 0.770272
0.400525 0.740178 0.770305
0.445676 0.741448 0.770420
0.517320 0.743761 0.770633
0.587604 0.747170 0.770951
0.639151 0.751684 0.771378
0.688637 0.757278 0.771921
0.726927 0.763902 0.772580
0.759746 0.771422 0.773360
