negative-gold-200/Gold200_Modern_ExtraSoft.cube
TITLE "Kodak Gold 200 Modern ExtraSoft"
# Adobe RGB in/out. REPLACES AgX. Kodak Gold 200 Modern ExtraSoft.
LUT_3D_SIZE 33
DOMAIN_MIN 0.0 0.0 0.0
DOMAIN_MAX 1.0 1.0 1.0
0.058206 0.064417 0.080741
0.062350 0.065371 0.081638
0.064353 0.065718 0.081916
0.077565 0.067438 0.082672
0.147788 0.069882 0.083552
0.227818 0.071650 0.084308
0.402389 0.075193 0.085904
0.527384 0.080053 0.087501
0.572069 0.082271 0.088349
0.629398 0.086961 0.089799
0.683084 0.093843 0.092175
0.708720 0.097755 0.093505
0.729089 0.102499 0.094895
0.749813 0.109299 0.096786
0.767937 0.119649 0.099350
0.779966 0.126091 0.101187
0.786977 0.131875 0.103321
0.792716 0.140707 0.105909
0.797578 0.151960 0.109081
0.801621 0.156345 0.110909
0.804595 0.161367 0.112969
0.806715 0.168048 0.116312
0.808607 0.172550 0.119820
0.810364 0.169759 0.122719
0.811108 0.167724 0.127344
0.811530 0.163392 0.134938
0.812615 0.145986 0.147192
0.812331 0.147468 0.211149
0.814543 0.185073 0.556535
0.812423 0.181458 0.550598
0.810313 0.177962 0.544764
0.808211 0.174541 0.539000
0.808587 0.371996 0.637943
0.058705 0.067725 0.081214
0.059985 0.066888 0.081379
0.064475 0.066037 0.081522
0.079334 0.067786 0.082619
0.140299 0.070459 0.083580
0.209025 0.071986 0.084324
0.382685 0.075656 0.085910
0.513387 0.080421 0.087506
0.560174 0.082670 0.088353
0.619665 0.087400 0.089798
0.678119 0.094233 0.092166
0.704687 0.098300 0.093495
0.725818 0.102990 0.094883
0.747183 0.109831 0.096775
0.766100 0.120314 0.099337
0.778480 0.126722 0.101170
0.786168 0.132491 0.103304
0.792061 0.141453 0.105891
0.797045 0.152713 0.109062
0.801180 0.157078 0.110889
0.804226 0.162254 0.112939
0.806405 0.168935 0.116277
0.808344 0.173439 0.119778
0.810139 0.170631 0.122664
0.810913 0.168570 0.127228
0.811359 0.164194 0.134751
0.812464 0.146500 0.146585
0.812193 0.147373 0.208032
0.814429 0.184880 0.556215
0.812319 0.181283 0.550307
0.810217 0.177804 0.544500
0.808123 0.174399 0.538760
0.808506 0.371734 0.637774
0.058961 0.068735 0.081433
0.059300 0.068546 0.081750
0.060545 0.067751 0.081621
0.066898 0.068907 0.082512
0.091179 0.072084 0.083530
0.142904 0.073500 0.084267
0.297466 0.077512 0.085933
0.457996 0.082397 0.087586
0.522088 0.084927 0.088415
0.584929 0.089225 0.089832
0.660316 0.095806 0.092155
0.690029 0.100455 0.093475
0.713856 0.105029 0.094854
0.737546 0.111874 0.096746
0.759366 0.122845 0.099298
0.773049 0.129106 0.101118
0.783213 0.135340 0.103251
0.789677 0.144248 0.105836
0.795111 0.155523 0.109001
0.799584 0.160092 0.110823
0.802897 0.165552 0.112838
0.805288 0.172222 0.116158
0.807397 0.176726 0.119632
0.809329 0.173853 0.122478
0.810214 0.171696 0.126830
0.810748 0.167167 0.134110
0.811922 0.148449 0.144533
0.811700 0.147256 0.197562
0.814019 0.184190 0.555073
0.811944 0.180661 0.549270
0.809874 0.177243 0.543558
0.807808 0.173894 0.537902
0.808216 0.370793 0.637169
0.059960 0.075046 0.082232
0.060161 0.074862 0.082483
0.061190 0.073956 0.082669
0.063560 0.072231 0.082699
0.072788 0.075232 0.083600
0.089417 0.076147 0.084295
0.154135 0.080190 0.085899
0.334136 0.086407 0.087601
0.438004 0.088686 0.088487
0.527531 0.092691 0.089939
0.609763 0.100171 0.092219
0.662772 0.105513 0.093499
0.691023 0.109858 0.094866
0.718948 0.116626 0.096740
0.745535 0.128146 0.099271
0.762580 0.134423 0.101068
0.775796 0.141155 0.103191
0.785136 0.149884 0.105763
0.791460 0.161738 0.108912
0.796590 0.166775 0.110722
0.800419 0.172082 0.112717
0.803220 0.178700 0.115965
0.805651 0.183182 0.119392
0.807842 0.180172 0.122168
0.808933 0.177828 0.126164
0.809631 0.173032 0.133041
0.810933 0.152460 0.141238
0.810807 0.147959 0.183098
0.813276 0.182945 0.553007
0.811265 0.179534 0.547391
0.809251 0.176227 0.541848
0.807236 0.172980 0.536344
0.807688 0.369081 0.636070
0.061563 0.092029 0.083266
0.061728 0.091816 0.083516
0.062921 0.090787 0.083812
0.065258 0.087357 0.084142
0.069957 0.083334 0.084443
0.076607 0.080590 0.084567
0.101819 0.085259 0.085978
0.184422 0.091927 0.087643
0.307836 0.093457 0.088590
0.434482 0.096910 0.090068
0.545401 0.107024 0.092380
0.607033 0.112326 0.093605
0.658661 0.117168 0.094972
0.690573 0.125805 0.096816
0.721367 0.139335 0.099334
0.744483 0.145579 0.101101
0.762113 0.151434 0.103186
0.776230 0.159914 0.105725
0.785683 0.173661 0.108839
0.791913 0.178164 0.110624
0.796599 0.183099 0.112589
0.800066 0.189592 0.115738
0.803013 0.194610 0.119098
0.805609 0.190879 0.121780
0.807022 0.188004 0.125421
0.807971 0.182830 0.131688
0.809471 0.159707 0.138294
0.809499 0.151130 0.166138
0.812188 0.181140 0.549994
0.810268 0.177894 0.544645
0.808337 0.174745 0.539347
0.806396 0.171681 0.534061
0.806911 0.366574 0.634455
0.063259 0.109775 0.084266
0.063429 0.109078 0.084469
0.064251 0.107765 0.084744
0.065755 0.102288 0.085302
0.068905 0.095703 0.085290
0.073485 0.091648 0.085603
0.086434 0.093188 0.086409
0.123998 0.099649 0.088032
0.186027 0.100144 0.088773
0.314645 0.104821 0.090222
0.458424 0.116015 0.092488
0.539270 0.122557 0.093733
0.598511 0.127683 0.095195
0.657432 0.136416 0.096988
0.694015 0.151213 0.099441
0.719982 0.158457 0.101205
0.741809 0.167230 0.103270
0.759731 0.179758 0.105796
0.774925 0.194071 0.108851
0.784994 0.197830 0.110588
0.791080 0.202856 0.112506
0.795603 0.210218 0.115548
0.799341 0.215318 0.118820
0.802544 0.210696 0.121396
0.804427 0.206766 0.124737
0.805736 0.199756 0.130276
0.807514 0.174067 0.135506
0.807771 0.159146 0.153629
0.810762 0.178809 0.546072
0.808959 0.175761 0.541055
0.807134 0.172812 0.536069
0.807393 0.318965 0.531063
0.805885 0.363286 0.632328
0.065757 0.159721 0.086128
0.065935 0.160337 0.086364
0.066840 0.156924 0.086869
0.068613 0.145851 0.087138
0.071256 0.129991 0.087265
0.075371 0.117958 0.087328
0.083758 0.110381 0.087566
0.103017 0.113907 0.088661
0.134272 0.112501 0.089280
0.211013 0.116792 0.090634
0.361381 0.130289 0.092770
0.460854 0.137021 0.094076
0.533484 0.141520 0.095388
0.597636 0.151108 0.097149
0.661599 0.168971 0.099654
0.690708 0.178990 0.101496
0.717387 0.185227 0.103433
0.741083 0.197271 0.105861
0.760063 0.217648 0.108880
0.773819 0.225306 0.110609
0.783465 0.234529 0.112517
0.789310 0.243780 0.115494
0.794318 0.247808 0.118661
0.798449 0.242322 0.121128
0.801037 0.237466 0.124185
0.802859 0.229839 0.129086
0.805019 0.198929 0.133393
0.805608 0.178509 0.144215
0.809019 0.176036 0.541330
0.807355 0.173181 0.536681
0.805655 0.170464 0.532063
0.806026 0.315224 0.527390
0.804620 0.359265 0.629710
0.069575 0.258087 0.087935
0.069810 0.258845 0.088154
0.070835 0.259529 0.088855
0.071972 0.236678 0.089253
0.073921 0.207275 0.089482
0.079449 0.180554 0.089781
0.086315 0.160246 0.089928
0.097884 0.147865 0.090283
0.112822 0.131755 0.090120
0.153694 0.134453 0.091217
0.268855 0.151212 0.093195
0.381126 0.156620 0.094534
0.461600 0.160246 0.095769
0.537788 0.171595 0.097454
0.607748 0.191744 0.099920
0.659882 0.201418 0.101738
0.688938 0.210557 0.103678
0.715753 0.227060 0.106099
0.740105 0.247928 0.109043
0.759102 0.252438 0.110688
0.772911 0.259483 0.112528
0.782737 0.270534 0.115453
0.788521 0.280835 0.118586
0.793330 0.282258 0.121026
0.796546 0.285195 0.123982
0.799159 0.276447 0.128439
0.801856 0.247556 0.132544
0.802943 0.219680 0.139524
0.806993 0.173084 0.535965
0.805482 0.170228 0.531621
0.803924 0.167756 0.527407
0.804420 0.310807 0.523103
0.803131 0.354584 0.626639
0.071373 0.314788 0.088941
0.071545 0.315263 0.089102
0.072089 0.310982 0.089687
0.073008 0.294695 0.090240
0.075010 0.268559 0.090616
0.079236 0.239051 0.090839
0.084937 0.210795 0.091106
0.092488 0.187730 0.091304
0.107672 0.173148 0.091634
0.132044 0.163542 0.092055
0.203242 0.181136 0.093741
0.298725 0.185699 0.095151
0.392701 0.187923 0.096290
0.476904 0.199373 0.097842
0.552748 0.224351 0.100330
0.607969 0.233335 0.102184
0.658445 0.241921 0.104036
0.689155 0.257276 0.106379
0.717394 0.278901 0.109263
0.739609 0.286613 0.110891
0.757231 0.297719 0.112721
0.771334 0.305100 0.115586
0.782054 0.311893 0.118599
0.788123 0.311350 0.120914
0.792232 0.312603 0.123725
0.795214 0.313763 0.127955
0.798187 0.303351 0.132464
0.799634 0.293232 0.138978
0.804835 0.177817 0.531780
0.803379 0.167255 0.526148
0.801972 0.164805 0.522229
0.802603 0.305872 0.518286
0.801442 0.349334 0.623165
0.073754 0.391358 0.090680
0.073808 0.388972 0.090785
0.074093 0.379164 0.091110
0.075520 0.365925 0.091640
0.077816 0.345470 0.092065
0.081342 0.321112 0.092361
0.085936 0.293812 0.092614
0.092482 0.264478 0.092832
0.105242 0.240204 0.093073
0.123876 0.221261 0.093385
0.169724 0.232511 0.094982
0.237188 0.227991 0.095926
0.320899 0.227349 0.096883
0.413393 0.237863 0.098349
0.505085 0.262801 0.100912
0.557271 0.270123 0.102751
0.610030 0.277276 0.104522
0.661375 0.291981 0.106776
0.692451 0.313411 0.109625
0.717435 0.319585 0.111195
0.739939 0.325356 0.112929
0.757469 0.336365 0.115811
0.770498 0.347958 0.118804
0.781517 0.348345 0.121022
0.786989 0.347257 0.123658
0.790913 0.346667 0.127552
0.794588 0.334836 0.131653
0.796532 0.324174 0.137311
0.798393 0.301787 0.145912
0.799324 0.277275 0.177938
0.800831 0.273242 0.476836
0.800611 0.301406 0.515843
0.799579 0.343623 0.619348
0.079282 0.465562 0.092909
0.079319 0.463395 0.092969
0.079642 0.456959 0.093207
0.081013 0.449862 0.093702
0.082958 0.436566 0.094313
0.085733 0.419032 0.094836
0.089727 0.399853 0.095274
0.097979 0.373300 0.095624
0.110111 0.346750 0.095929
0.128871 0.324214 0.096312
0.156404 0.306570 0.096784
0.203204 0.288221 0.097162
0.266757 0.273515 0.097611
0.356489 0.282165 0.099043
0.446983 0.306646 0.101767
0.513901 0.310733 0.103493
0.563479 0.314857 0.105111
0.617666 0.326374 0.107262
0.667118 0.347099 0.110078
0.694209 0.351374 0.111557
0.718880 0.359207 0.113387
0.740154 0.371807 0.116201
0.758110 0.380464 0.119033
0.771398 0.382241 0.121179
0.780826 0.387203 0.123767
0.785634 0.393535 0.127555
0.790356 0.379725 0.131317
0.793007 0.366483 0.136253
0.795338 0.342062 0.142408
0.796614 0.313796 0.159763
0.798302 0.267670 0.396851
0.798488 0.297985 0.518870
0.797252 0.295163 0.518652
0.082499 0.510276 0.094183
0.082531 0.508390 0.094258
0.082775 0.502554 0.094549
0.083816 0.495757 0.095179
0.085311 0.483825 0.095782
0.087743 0.469074 0.096379
0.091885 0.451851 0.096925
0.099315 0.432392 0.097289
0.109819 0.413291 0.097621
0.125470 0.395741 0.097943
0.148733 0.373760 0.098312
0.186724 0.355840 0.098837
0.233892 0.332329 0.098898
0.305574 0.327579 0.099903
0.401187 0.348286 0.102762
0.465129 0.349996 0.104323
0.523688 0.352927 0.105878
0.575487 0.363851 0.107941
0.631010 0.383896 0.110571
0.670214 0.387399 0.112003
0.696749 0.395721 0.113993
0.721493 0.402637 0.116654
0.742525 0.410814 0.119446
0.759142 0.413852 0.121549
0.771344 0.415018 0.123983
0.780234 0.417627 0.127643
0.785842 0.414280 0.131253
0.789002 0.412132 0.135879
0.791844 0.400318 0.141184
0.793642 0.369445 0.152296
0.795478 0.286784 0.266813
0.796235 0.290755 0.512932
0.795144 0.289525 0.515915
0.084977 0.538208 0.095360
0.085006 0.537042 0.095426
0.085196 0.533322 0.095680
0.085946 0.528443 0.096212
0.087319 0.521721 0.096857
0.089396 0.511315 0.097482
0.093436 0.495130 0.098002
0.100115 0.477209 0.098457
0.109304 0.458780 0.098891
0.122178 0.440610 0.099298
0.142075 0.424069 0.099721
0.170260 0.409463 0.100154
0.215860 0.397630 0.100733
0.277559 0.387559 0.101685
0.357134 0.394801 0.103899
0.422012 0.394732 0.105325
0.484242 0.395382 0.106721
0.538551 0.402108 0.108724
0.593193 0.414956 0.111317
0.638907 0.416395 0.112587
0.674640 0.421111 0.114605
0.701320 0.428701 0.117255
0.724889 0.437786 0.120012
0.745843 0.438762 0.121941
0.760539 0.442995 0.124381
0.771040 0.448811 0.128133
0.780979 0.443506 0.131391
0.785076 0.439557 0.135565
0.788389 0.432260 0.140429
0.790471 0.422141 0.149800
0.792018 0.408926 0.170772
0.793910 0.283590 0.506868
0.792963 0.284288 0.514221
0.088074 0.571550 0.096859
0.088101 0.570539 0.096919
0.088261 0.567243 0.097147
0.088836 0.562579 0.097611
0.090197 0.557634 0.098309
0.092945 0.549007 0.099001
0.097030 0.538500 0.099673
0.103485 0.526684 0.100303
0.111581 0.513094 0.100895
0.123544 0.494728 0.101467
0.141274 0.477305 0.101996
0.166120 0.461541 0.102610
0.205032 0.447554 0.103198
0.257074 0.436014 0.103947
0.329847 0.439116 0.105971
0.389841 0.428594 0.106534
0.443342 0.426370 0.107698
0.507304 0.431675 0.109531
0.558554 0.443893 0.112047
0.603884 0.444985 0.113487
0.649173 0.448759 0.115474
0.680972 0.456110 0.117974
0.706939 0.463888 0.120602
0.729720 0.466552 0.122502
0.748234 0.471388 0.124934
0.761906 0.475172 0.128576
0.773170 0.474180 0.131768
0.780224 0.474902 0.135730
0.784729 0.466272 0.140040
0.787389 0.454304 0.147475
0.789295 0.437828 0.160676
0.790509 0.428004 0.255735
0.791493 0.440065 0.512247
0.093076 0.613199 0.098846
0.093124 0.612453 0.098915
0.093376 0.609537 0.099177
0.094186 0.605186 0.099703
0.096437 0.601263 0.100601
0.099090 0.593045 0.101533
0.103562 0.584108 0.102581
0.109352 0.573142 0.103444
0.116783 0.561029 0.104253
0.130291 0.548266 0.104922
0.147180 0.535558 0.105568
0.171853 0.523338 0.106103
0.208956 0.510719 0.106722
0.256384 0.497112 0.107329
0.310599 0.485623 0.108065
0.364446 0.472706 0.108470
0.413146 0.461867 0.108962
0.470950 0.463687 0.110498
0.529032 0.474811 0.112911
0.571167 0.474836 0.114486
0.616600 0.478005 0.116430
0.661338 0.484872 0.118855
0.688465 0.491954 0.121343
0.712670 0.495311 0.123174
0.734190 0.498943 0.125546
0.751221 0.505214 0.129308
0.764820 0.504722 0.132329
0.773727 0.503377 0.135971
0.780776 0.500569 0.140054
0.784022 0.495957 0.146650
0.786434 0.478927 0.156436
0.787854 0.457157 0.194794
0.789216 0.443832 0.498330
0.097047 0.630158 0.100033
0.097100 0.629660 0.100096
0.097357 0.627987 0.100332
0.098135 0.625384 0.100845
0.100167 0.622701 0.101908
0.102847 0.618530 0.102972
0.107184 0.613790 0.104162
0.111873 0.603716 0.104982
0.119220 0.592588 0.105813
0.131551 0.580910 0.106632
0.146384 0.568561 0.107235
0.167680 0.556491 0.107837
0.200233 0.545215 0.108441
0.242204 0.534726 0.109049
0.292344 0.525605 0.109672
0.343895 0.517771 0.110398
0.394681 0.505808 0.110771
0.442125 0.500516 0.111791
0.504151 0.507447 0.114191
0.543250 0.506749 0.115680
0.586010 0.508632 0.117443
0.631894 0.514821 0.119802
0.670301 0.519893 0.122204
0.695667 0.521688 0.123916
0.718956 0.524796 0.126470
0.738592 0.529407 0.130165
0.755977 0.529212 0.132990
0.766314 0.530724 0.136559
0.774917 0.528788 0.140315
0.780664 0.524020 0.146069
0.783556 0.518097 0.154638
0.785158 0.510691 0.176053
0.786748 0.472938 0.429426
0.101328 0.646122 0.101208
0.101377 0.645688 0.101287
0.101605 0.644213 0.101578
0.102258 0.641848 0.102148
0.103887 0.639193 0.103091
0.106647 0.636069 0.104251
0.109822 0.631130 0.105267
0.114322 0.625496 0.106263
0.122004 0.619072 0.107172
0.132878 0.611368 0.107987
0.146246 0.599862 0.108731
0.165212 0.588208 0.109371
0.194162 0.576938 0.109959
0.230651 0.566416 0.110583
0.276772 0.556713 0.111193
0.323808 0.548213 0.111825
0.378102 0.540964 0.112549
0.423029 0.536248 0.113734
0.477732 0.537124 0.115991
0.519316 0.532547 0.116869
0.559334 0.533521 0.118590
0.603969 0.537272 0.120829
0.648599 0.541788 0.123163
0.678731 0.543120 0.124863
0.703258 0.546391 0.127626
0.725390 0.550352 0.131127
0.745277 0.551516 0.133866
0.758702 0.552484 0.137185
0.768838 0.552023 0.140753
0.775498 0.550711 0.146265
0.780488 0.544440 0.153452
0.782685 0.535952 0.166960
0.784054 0.534205 0.276564
0.106356 0.663221 0.102936
0.106405 0.662871 0.103009
0.106620 0.661670 0.103278
0.107199 0.659699 0.103801
0.108567 0.657350 0.104654
0.111492 0.655282 0.105918
0.113938 0.650704 0.106810
0.119339 0.646106 0.107959
0.127081 0.640206 0.108902
0.136755 0.633579 0.109725
0.149115 0.626654 0.110540
0.167595 0.619456 0.111250
0.194550 0.612000 0.111940
0.227615 0.601289 0.112501
0.269630 0.591465 0.113277
0.313460 0.582458 0.114118
0.362492 0.574460 0.114988
0.407945 0.567719 0.115990
0.457701 0.567751 0.118188
0.502278 0.560540 0.118700
0.536192 0.556710 0.119741
0.578156 0.560020 0.121923
0.622330 0.564031 0.124198
0.662364 0.564955 0.125988
0.687676 0.568146 0.128915
0.711483 0.571827 0.132264
0.733556 0.573220 0.134849
0.750225 0.574552 0.137990
0.762200 0.575989 0.141627
0.770532 0.573359 0.146629
0.776255 0.570453 0.153163
0.779669 0.567250 0.163702
0.781713 0.558466 0.215237
0.112167 0.681581 0.105061
0.112218 0.681281 0.105130
0.112436 0.680245 0.105383
0.112983 0.678513 0.105870
0.114197 0.676360 0.106656
0.116851 0.674339 0.107833
0.120712 0.670752 0.108836
0.126761 0.666829 0.109983
0.133797 0.661876 0.110971
0.143493 0.656567 0.111954
0.155410 0.650546 0.112788
0.175008 0.643859 0.113902
0.200355 0.636971 0.114849
0.231983 0.630239 0.115748
0.270922 0.623721 0.116572
0.312734 0.617765 0.117520
0.357522 0.611977 0.118399
0.401599 0.604377 0.119265
0.441297 0.598109 0.120299
0.482371 0.590353 0.120726
0.519909 0.585061 0.121574
0.555623 0.583076 0.123054
0.598039 0.586600 0.125414
0.638895 0.587230 0.127455
0.672425 0.589759 0.130245
0.697337 0.593399 0.133511
0.721277 0.594594 0.135920
0.740065 0.596833 0.138966
0.755625 0.597582 0.142565
0.765223 0.597194 0.147366
0.772037 0.595644 0.153385
0.776187 0.590853 0.161895
0.778725 0.588045 0.191770
0.115992 0.694214 0.105802
0.116039 0.694012 0.105868
0.116234 0.693310 0.106109
0.116799 0.691977 0.106572
0.118304 0.689926 0.107312
0.121397 0.687814 0.108406
0.125553 0.685006 0.109559
0.130295 0.681028 0.110593
0.137361 0.676846 0.111726
0.146178 0.671986 0.112768
0.156732 0.666386 0.113907
0.174344 0.660594 0.115064
0.197635 0.654627 0.116138
0.226586 0.648444 0.117114
0.262144 0.642219 0.118048
0.301474 0.636216 0.118907
0.342285 0.630760 0.119843
0.388598 0.625829 0.120762
0.424222 0.621314 0.121639
0.465290 0.617581 0.122662
0.506495 0.613617 0.123436
0.539772 0.611377 0.124975
0.576370 0.609879 0.127043
0.616002 0.609748 0.128960
0.656955 0.611848 0.131663
0.683253 0.614266 0.134800
0.708364 0.615049 0.137080
0.729318 0.616614 0.140015
0.747823 0.617385 0.143746
0.759655 0.617747 0.148259
0.767881 0.616855 0.153718
0.772681 0.615848 0.161401
0.775689 0.613450 0.181392
0.121541 0.704045 0.106572
0.121607 0.703867 0.106636
0.121877 0.703244 0.106869
0.122516 0.702172 0.107313
0.123850 0.700751 0.108018
0.126501 0.699196 0.109050
0.131011 0.697586 0.110363
0.134858 0.694693 0.111313
0.142116 0.691894 0.112605
0.148966 0.687024 0.113773
0.160422 0.682138 0.115159
0.177395 0.676864 0.116441
0.198617 0.671210 0.117571
0.224929 0.665490 0.118574
0.257546 0.659938 0.119592
0.294906 0.654561 0.120539
0.331891 0.649295 0.121424
0.375498 0.644267 0.122347
0.412121 0.639802 0.123299
0.449024 0.635722 0.124206
0.491521 0.632333 0.125375
0.526016 0.629983 0.127292
0.560361 0.628760 0.129536
0.595478 0.626266 0.130717
0.634768 0.626594 0.133095
0.669755 0.628398 0.136169
0.695329 0.629111 0.138310
0.718161 0.630393 0.141122
0.738837 0.631613 0.145080
0.753946 0.631888 0.149182
0.763550 0.632129 0.154394
0.769354 0.631030 0.161174
0.772808 0.629996 0.176465
0.127744 0.713849 0.107516
0.127812 0.713695 0.107578
0.128084 0.713155 0.107804
0.128703 0.712215 0.108235
0.129941 0.710944 0.108914
0.132309 0.709497 0.109899
0.136771 0.708139 0.111276
0.140527 0.705637 0.112275
0.146462 0.703016 0.113702
0.153716 0.699962 0.115208
0.166396 0.696637 0.116702
0.180937 0.692879 0.117961
0.201556 0.687845 0.119224
0.226829 0.682514 0.120376
0.257113 0.677154 0.121396
0.292106 0.672013 0.122459
0.326639 0.667039 0.123406
0.366987 0.662380 0.124381
0.403769 0.658067 0.125460
0.438731 0.654302 0.126820
0.477110 0.650841 0.128210
0.513938 0.647752 0.129698
0.546176 0.646001 0.131891
0.579211 0.643433 0.132972
0.615718 0.641780 0.134801
0.654902 0.642296 0.137517
0.682501 0.643048 0.139567
0.706593 0.644154 0.142712
0.729305 0.645404 0.146491
0.747121 0.645939 0.150301
0.759201 0.646370 0.155140
0.766074 0.645989 0.161362
0.770064 0.645909 0.173990
0.133921 0.723483 0.108200
0.133989 0.723348 0.108261
0.134258 0.722870 0.108485
0.134851 0.722032 0.108908
0.136001 0.720878 0.109573
0.138131 0.719517 0.110532
0.142025 0.718139 0.111860
0.146343 0.716157 0.113165
0.151309 0.713615 0.114698
0.160520 0.711039 0.116502
0.171173 0.707772 0.117860
0.186565 0.704442 0.119335
0.206742 0.700930 0.120778
0.229249 0.697135 0.121949
0.257323 0.693324 0.123046
0.290212 0.688616 0.124132
0.322803 0.683841 0.125378
0.360610 0.679286 0.126757
0.397529 0.675029 0.128196
0.429748 0.671097 0.129629
0.465943 0.667693 0.131100
0.504480 0.664654 0.132571
0.533484 0.662071 0.134065
0.564607 0.659559 0.135089
0.599429 0.657756 0.136858
0.636337 0.656801 0.139178
0.669993 0.656373 0.140763
0.694782 0.657238 0.144241
0.719421 0.658349 0.147928
0.739526 0.659080 0.151549
0.754697 0.659529 0.155918
0.762798 0.659820 0.161832
0.767549 0.659588 0.172469
0.139289 0.732546 0.107967
0.139351 0.732421 0.108029
0.139593 0.731980 0.108253
0.140121 0.731196 0.108675
0.141129 0.730098 0.109336
0.142972 0.728758 0.110286
0.146291 0.727308 0.111595
0.151022 0.725626 0.113148
0.155224 0.723148 0.114617
0.164904 0.720701 0.116536
0.174898 0.717701 0.118037
0.190320 0.714602 0.119693
0.206908 0.711192 0.121053
0.229090 0.707733 0.122458
0.256280 0.704172 0.123747
0.286682 0.700584 0.124956
0.316435 0.697119 0.126395
0.351272 0.693793 0.127974
0.389430 0.690044 0.129523
0.419217 0.686173 0.130993
0.452963 0.682661 0.132477
0.490285 0.679579 0.133930
0.521275 0.676933 0.135451
0.551431 0.674692 0.136988
0.584227 0.672580 0.138735
0.620313 0.671301 0.141038
0.658577 0.670183 0.142793
0.682983 0.669565 0.145682
0.708865 0.670579 0.149173
0.731409 0.671426 0.152867
0.749581 0.672057 0.156824
0.759603 0.672314 0.162097
0.765159 0.672713 0.171779
0.144259 0.740337 0.107819
0.144320 0.740228 0.107880
0.144555 0.739839 0.108103
0.145059 0.739147 0.108524
0.145997 0.738164 0.109180
0.147668 0.736941 0.110120
0.150603 0.735566 0.111410
0.156143 0.734185 0.113261
0.160966 0.731887 0.114686
0.169112 0.729522 0.116520
0.180029 0.726940 0.118395
0.193022 0.723953 0.119960
0.210176 0.720866 0.121573
0.231104 0.717641 0.123113
0.254715 0.714294 0.124454
0.284371 0.710949 0.125978
0.312979 0.707642 0.127794
0.345828 0.704423 0.129533
0.383313 0.701377 0.131134
0.411623 0.698537 0.132720
0.442702 0.695925 0.134227
0.477449 0.693579 0.135723
0.510973 0.691134 0.137195
0.539047 0.688826 0.138775
0.570351 0.686870 0.140362
0.605019 0.685236 0.143270
0.642187 0.684240 0.144929
0.672416 0.682973 0.147545
0.698005 0.682564 0.150344
0.722644 0.683329 0.153748
0.743767 0.684161 0.157724
0.756416 0.684569 0.162465
0.762889 0.685056 0.171322
0.148970 0.747529 0.107454
0.149030 0.747434 0.107516
0.149262 0.747094 0.107741
0.149748 0.746485 0.108166
0.150633 0.745611 0.108828
0.152171 0.744504 0.109774
0.154816 0.743222 0.111069
0.161045 0.741862 0.112805
0.166914 0.739966 0.114658
0.173939 0.737742 0.116440
0.186318 0.735493 0.118723
0.197313 0.732691 0.120227
0.214996 0.729863 0.122118
0.232494 0.726808 0.123574
0.256495 0.723723 0.125309
0.284247 0.720581 0.127223
0.310105 0.717471 0.129138
0.340598 0.714410 0.130998
0.375844 0.711454 0.132751
0.405143 0.708685 0.134435
0.434289 0.706119 0.136064
0.466892 0.703789 0.137644
0.502553 0.701689 0.139174
0.528496 0.699831 0.140682
0.557664 0.698329 0.142838
0.590281 0.697060 0.145103
0.626652 0.696450 0.146671
0.662415 0.695344 0.149307
0.688077 0.694862 0.151863
0.713389 0.694425 0.154619
0.737264 0.694945 0.158319
0.753144 0.695414 0.162770
0.760907 0.695849 0.171016
0.154176 0.756836 0.105171
0.154224 0.756744 0.105238
0.154409 0.756414 0.105481
0.154801 0.755816 0.105940
0.155756 0.754941 0.106658
0.157480 0.753799 0.107689
0.160504 0.752416 0.109110
0.165889 0.750844 0.111030
0.172660 0.749000 0.112953
0.178533 0.746781 0.114777
0.189115 0.744436 0.117109
0.201296 0.741844 0.119155
0.215793 0.739047 0.121027
0.234070 0.736137 0.122862
0.255886 0.733125 0.124630
0.280911 0.730121 0.126540
0.306950 0.727130 0.128774
0.335468 0.724188 0.130795
0.367452 0.721340 0.132659
0.397763 0.718643 0.134454
0.424977 0.716137 0.136179
0.455575 0.713841 0.137848
0.489855 0.711778 0.139468
0.518480 0.709959 0.141081
