negative-gold-200/Gold200_Modern_ExtraPunchy.cube
TITLE "Kodak Gold 200 Modern ExtraPunchy"
# Adobe RGB in/out. REPLACES AgX. Kodak Gold 200 Modern ExtraPunchy.
LUT_3D_SIZE 9
DOMAIN_MIN 0.0 0.0 0.0
DOMAIN_MAX 1.0 1.0 1.0
0.069662 0.073299 0.081842
0.144968 0.075077 0.078160
0.603068 0.087432 0.079636
0.791725 0.109498 0.081981
0.854532 0.143595 0.087075
0.874442 0.172668 0.095570
0.881002 0.178008 0.113022
0.884460 0.194354 0.564856
0.878463 0.361586 0.653687
0.068184 0.096730 0.078069
0.072203 0.088456 0.078401
0.292688 0.098576 0.079717
0.695113 0.125897 0.082028
0.828603 0.163325 0.087007
0.865530 0.192232 0.095148
0.876887 0.197504 0.110959
0.882089 0.190127 0.558815
0.876775 0.356562 0.649641
0.073015 0.308395 0.079838
0.075276 0.268734 0.080352
0.103402 0.182596 0.080691
0.372981 0.197417 0.082830
0.694920 0.245215 0.087439
0.822648 0.292929 0.095310
0.860537 0.306355 0.108673
0.874684 0.186559 0.540912
0.871068 0.340565 0.636567
0.081488 0.550107 0.082264
0.083811 0.529930 0.083175
0.105376 0.458801 0.084478
0.205927 0.386737 0.085751
0.487201 0.383650 0.089352
0.718123 0.416215 0.097054
0.826682 0.441365 0.109606
0.856146 0.429003 0.129067
0.861373 0.282484 0.523522
0.096242 0.677751 0.085995
0.098854 0.668439 0.086958
0.119517 0.641560 0.089761
0.187359 0.592703 0.092298
0.356991 0.553131 0.095097
0.588112 0.544967 0.101085
0.760963 0.559089 0.113310
0.836812 0.565276 0.129483
0.851193 0.545717 0.284262
0.119081 0.760781 0.089216
0.121251 0.756044 0.090531
0.138845 0.743411 0.095167
0.191175 0.713724 0.099750
0.315405 0.682025 0.105245
0.494565 0.659247 0.110899
0.672791 0.651580 0.119772
0.802190 0.658285 0.133589
0.841448 0.656124 0.169208
0.141080 0.813455 0.090350
0.142933 0.810277 0.091589
0.158188 0.801112 0.097128
0.201077 0.785086 0.105466
0.297546 0.765963 0.113481
0.437834 0.749117 0.121194
0.601048 0.736773 0.128982
0.753047 0.730414 0.139631
0.829549 0.734092 0.164155
0.163498 0.851953 0.083738
0.163740 0.849674 0.084481
0.176120 0.841376 0.090737
0.209466 0.831143 0.099852
0.285635 0.818068 0.112205
0.396117 0.803141 0.123060
0.541376 0.792180 0.132196
0.693330 0.786617 0.142591
0.821286 0.784601 0.159992
0.152081 0.845198 0.079969
0.151253 0.844170 0.079957
0.190794 0.855355 0.079921
0.186159 0.851062 0.081263
0.262962 0.846745 0.087066
0.355445 0.837052 0.098214
0.477904 0.829760 0.109477
0.614132 0.825788 0.116400
0.819338 0.825210 0.118287
0.067920 0.077453 0.099682
0.120901 0.106554 0.245349
0.637927 0.100454 0.128905
0.808544 0.121443 0.117303
0.855682 0.151764 0.110189
0.872572 0.177215 0.114178
0.879193 0.183013 0.133593
0.883189 0.192093 0.561622
0.877588 0.358979 0.651589
0.069231 0.093544 0.089394
0.077172 0.088234 0.086075
0.406469 0.105360 0.095326
0.737538 0.137884 0.105570
0.835387 0.170147 0.106915
0.863929 0.197122 0.112398
0.875117 0.202756 0.129328
0.880822 0.187934 0.555544
0.875906 0.353998 0.647568
0.075101 0.273314 0.097456
0.078646 0.225273 0.093570
0.126624 0.166151 0.089164
0.471648 0.195323 0.095299
0.725322 0.248811 0.102022
0.826566 0.294014 0.110266
0.859135 0.307464 0.123938
0.873476 0.187357 0.538563
0.870111 0.338174 0.634584
0.084695 0.522787 0.099308
0.087742 0.496790 0.099393
0.117670 0.429632 0.098022
0.247581 0.365938 0.097322
0.532007 0.376195 0.101615
0.734857 0.413627 0.110505
0.827882 0.439341 0.123237
0.854983 0.428744 0.144449
0.860830 0.315710 0.615537
0.099790 0.664148 0.098765
0.103643 0.654943 0.100257
0.127217 0.625925 0.104660
0.204782 0.579391 0.106831
0.385840 0.544814 0.109648
0.607726 0.540662 0.114381
0.770260 0.556519 0.126331
0.836260 0.563419 0.143051
0.850524 0.549033 0.331758
0.121397 0.754223 0.098648
0.124044 0.749610 0.100252
0.143517 0.735286 0.107935
0.200269 0.705869 0.113907
0.330028 0.675972 0.119135
0.511603 0.655162 0.125001
0.683393 0.649236 0.132177
0.804558 0.656611 0.147469
0.840804 0.655672 0.188030
0.142660 0.809630 0.097137
0.144926 0.806481 0.098701
0.161164 0.797317 0.107217
0.206449 0.781544 0.117094
0.305561 0.762966 0.126132
0.449316 0.746820 0.133580
0.611039 0.734529 0.142810
0.759885 0.729055 0.153305
0.829176 0.733330 0.178432
0.163583 0.850089 0.086027
0.164147 0.847882 0.086970
0.177821 0.839827 0.095757
0.212827 0.829721 0.108949
0.290067 0.816424 0.122507
0.402066 0.801833 0.133671
0.548945 0.791241 0.144995
0.699456 0.785970 0.156126
0.821474 0.784203 0.172559
0.158288 0.850636 0.089661
0.157433 0.849608 0.089534
0.197236 0.860333 0.089109
0.190903 0.854804 0.088507
0.265030 0.846380 0.089619
0.357941 0.836740 0.104670
0.480824 0.829563 0.117537
0.617904 0.825703 0.125679
0.820433 0.825178 0.127430
0.070035 0.096842 0.310536
0.157830 0.233046 0.613771
0.618785 0.235007 0.589560
0.816633 0.234708 0.534134
0.857078 0.238625 0.469794
0.871276 0.263643 0.463088
0.877190 0.280036 0.501779
0.881046 0.198775 0.569502
0.875775 0.353621 0.647277
0.073428 0.136361 0.321310
0.108135 0.169835 0.414488
0.487371 0.179576 0.417530
0.757514 0.201662 0.399919
0.839942 0.233786 0.388951
0.862856 0.266199 0.408085
0.872981 0.283006 0.452002
0.878658 0.197048 0.565086
0.874080 0.348662 0.643228
0.077178 0.230288 0.219341
0.082175 0.198287 0.186527
0.150692 0.163204 0.155316
0.535016 0.210012 0.200718
0.753890 0.276495 0.252147
0.831506 0.323765 0.299166
0.857206 0.339973 0.331836
0.870610 0.247041 0.544239
0.868007 0.332961 0.630233
0.090964 0.476717 0.239998
0.096504 0.453668 0.224144
0.137770 0.388908 0.187701
0.303913 0.333761 0.167023
0.600488 0.370486 0.191310
0.766002 0.421083 0.231286
0.830033 0.448511 0.260361
0.852760 0.445723 0.334405
0.858728 0.310781 0.611281
0.112976 0.642198 0.235563
0.118815 0.631969 0.230723
0.150218 0.598094 0.215975
0.257221 0.556288 0.198336
0.455680 0.525653 0.190436
0.664201 0.534778 0.208201
0.785659 0.555718 0.230711
0.835274 0.563899 0.273786
0.848933 0.563968 0.492547
0.136051 0.741264 0.224311
0.140318 0.735155 0.224046
0.167007 0.717099 0.223966
0.242748 0.689610 0.219021
0.383101 0.663247 0.214177
0.569249 0.646576 0.215018
0.717563 0.645374 0.222918
0.810356 0.654311 0.254030
0.838660 0.657212 0.319364
0.156108 0.800005 0.192330
0.159417 0.796950 0.194753
0.180539 0.787704 0.204408
0.237287 0.772583 0.212964
0.342660 0.755468 0.218178
0.492717 0.740855 0.223139
0.650207 0.729263 0.230728
0.779122 0.726285 0.248001
0.828171 0.732044 0.273703
0.172058 0.842131 0.151795
0.174383 0.840350 0.155579
0.192337 0.834275 0.174347
0.234777 0.825113 0.194579
0.315277 0.811402 0.211183
0.433469 0.798011 0.223335
0.578891 0.788648 0.234478
0.725065 0.784266 0.246412
0.821827 0.783287 0.255921
0.156859 0.848917 0.089453
0.199304 0.862108 0.089327
0.195342 0.858695 0.088918
0.189224 0.853297 0.088353
0.277316 0.844933 0.124515
0.371380 0.835705 0.157923
0.495274 0.828953 0.176964
0.635701 0.825480 0.189612
0.821555 0.825199 0.194038
0.074523 0.151887 0.572182
0.132321 0.319536 0.709744
0.579342 0.375042 0.734358
0.815619 0.400543 0.728767
0.863236 0.392220 0.698411
0.873621 0.385112 0.673544
0.877382 0.380386 0.668751
0.879045 0.327210 0.688183
0.874656 0.362628 0.673377
0.079146 0.208164 0.584643
0.122321 0.303255 0.659361
0.530244 0.384688 0.711342
0.779973 0.383868 0.691367
0.846933 0.377062 0.660834
0.865180 0.382704 0.646807
0.873065 0.384617 0.651178
0.876353 0.333080 0.680312
0.872917 0.357546 0.669376
0.084743 0.298436 0.492789
0.096777 0.293062 0.481796
0.247342 0.291818 0.491711
0.592238 0.314127 0.512973
0.771744 0.359142 0.538702
0.835033 0.399296 0.560864
0.856944 0.417961 0.590264
0.866055 0.409700 0.635568
0.866522 0.341472 0.656566
0.096284 0.451649 0.442187
0.105022 0.434299 0.423534
0.153081 0.380271 0.373033
0.333712 0.335475 0.337189
0.627120 0.392426 0.394231
0.773732 0.445509 0.445082
0.829648 0.477363 0.493877
0.851235 0.488688 0.562150
0.856997 0.318251 0.636585
0.123826 0.618933 0.448239
0.130722 0.608708 0.437635
0.169606 0.578746 0.408896
0.290553 0.540103 0.371408
0.492209 0.508261 0.351519
0.685558 0.533512 0.379565
0.790070 0.560266 0.418251
0.832890 0.573865 0.469206
0.847262 0.583441 0.604549
0.149558 0.724028 0.436873
0.155421 0.718317 0.431936
0.189137 0.701429 0.418257
0.278270 0.675998 0.398171
0.425272 0.652079 0.378865
0.602556 0.638676 0.371811
0.738704 0.643173 0.386986
0.811160 0.654286 0.416690
0.836616 0.667186 0.534289
0.170756 0.790035 0.413887
0.175603 0.787168 0.412151
0.201571 0.778315 0.408173
0.270547 0.764178 0.400675
0.379162 0.748448 0.390675
0.533817 0.733520 0.384487
0.679687 0.724393 0.384918
0.788381 0.724446 0.396226
0.826770 0.734267 0.453302
0.183658 0.835987 0.374799
0.186942 0.834397 0.375053
0.207804 0.829051 0.379915
0.258088 0.819757 0.382105
0.341796 0.806424 0.382631
0.468262 0.794305 0.382600
0.607353 0.786135 0.384479
0.748989 0.782828 0.389853
0.821542 0.783414 0.411738
0.177990 0.855230 0.364480
0.202523 0.862341 0.362740
0.198666 0.859070 0.356955
0.221218 0.855168 0.264451
0.298236 0.842404 0.345032
0.392998 0.834213 0.354772
0.518295 0.828232 0.361906
0.660946 0.825292 0.366945
0.821817 0.825673 0.371765
0.083779 0.262317 0.718606
0.123760 0.374848 0.766605
0.513175 0.473703 0.804017
0.797835 0.497723 0.804658
0.871466 0.514711 0.799010
0.878942 0.484336 0.769559
0.880132 0.461319 0.751018
0.879427 0.408708 0.740852
0.874891 0.396029 0.735249
0.089793 0.317706 0.724673
0.129133 0.401864 0.761331
0.485231 0.490460 0.798204
0.782501 0.516698 0.800447
0.856259 0.502802 0.779186
0.871368 0.482307 0.756722
0.875763 0.464789 0.740724
0.876683 0.415504 0.734504
0.873092 0.389172 0.729546
0.113308 0.454894 0.714195
0.139575 0.464253 0.717675
0.350198 0.485909 0.731943
0.653463 0.479897 0.721761
0.791172 0.479037 0.710203
0.843976 0.488548 0.705730
0.859855 0.489973 0.706379
0.866676 0.470074 0.711898
0.866468 0.367600 0.711274
0.111689 0.487468 0.612510
0.123527 0.479864 0.605865
0.199034 0.462094 0.594535
0.430270 0.452117 0.591754
0.665441 0.471255 0.604729
0.784209 0.506311 0.626497
0.833267 0.532699 0.648470
0.851540 0.538037 0.674945
0.857215 0.444436 0.693592
0.133027 0.607247 0.593500
0.141625 0.599721 0.586861
0.187833 0.576354 0.563974
0.315416 0.542858 0.533925
0.510678 0.513381 0.514275
0.698094 0.550151 0.549833
0.792942 0.579774 0.586283
0.832347 0.597612 0.620866
0.846262 0.603591 0.670679
0.161471 0.711268 0.589589
0.168624 0.706423 0.584911
0.207698 0.691753 0.569639
0.302538 0.669000 0.548477
0.455551 0.646610 0.529141
0.621384 0.634330 0.521061
0.748162 0.646253 0.539947
0.810776 0.661257 0.571870
0.834891 0.678371 0.637489
0.184243 0.781725 0.579114
0.190050 0.779192 0.575936
0.220890 0.771179 0.566698
0.293317 0.758340 0.553436
0.408646 0.743853 0.539796
0.564849 0.729101 0.530444
0.697969 0.722149 0.528530
0.792357 0.725865 0.539854
0.825518 0.741380 0.600068
0.194296 0.831145 0.564645
0.198268 0.829685 0.562479
0.223228 0.824746 0.556661
0.277466 0.814946 0.547719
0.363826 0.802759 0.538774
0.492962 0.791830 0.531865
0.632634 0.784790 0.528426
0.765659 0.782681 0.529505
0.821140 0.786071 0.558375
0.186846 0.855686 0.627563
0.189485 0.855948 0.626278
0.194587 0.855646 0.621971
0.239680 0.849067 0.548493
0.311355 0.840698 0.537530
0.408771 0.833311 0.530798
0.536761 0.827959 0.526791
0.677740 0.825629 0.525709
0.821890 0.827390 0.529877
0.106350 0.406770 0.813078
0.141625 0.467790 0.834635
0.472346 0.553856 0.850464
0.778437 0.570625 0.851202
0.871165 0.590034 0.851854
0.885417 0.568914 0.835445
0.884626 0.539148 0.809241
0.881806 0.480105 0.790359
0.876191 0.415802 0.769365
0.114609 0.441734 0.816162
0.149021 0.491604 0.834351
0.458346 0.567021 0.849562
0.765137 0.584313 0.850619
0.865530 0.599392 0.849539
0.878417 0.567069 0.825342
0.880347 0.541283 0.802228
0.879052 0.486551 0.785802
0.874363 0.410653 0.766295
0.153286 0.561583 0.820251
0.188231 0.577977 0.829212
0.428987 0.621457 0.844494
0.686480 0.602401 0.830780
0.812022 0.582749 0.808866
0.853234 0.568969 0.791640
0.865376 0.556473 0.779597
0.869433 0.531434 0.770889
0.867764 0.392375 0.755617
0.145365 0.571498 0.749923
0.161994 0.571199 0.749229
0.283563 0.575498 0.752507
0.516237 0.572015 0.748998
0.705686 0.571177 0.743657
0.801025 0.575780 0.741744
0.841716 0.581397 0.742924
0.854034 0.575808 0.745330
0.858062 0.502691 0.737866
0.151511 0.625195 0.698502
0.161697 0.620643 0.695089
0.225191 0.608943 0.687491
0.370959 0.591555 0.677129
0.576581 0.583885 0.672609
0.722009 0.596171 0.683187
0.800715 0.616127 0.697136
0.835198 0.627915 0.711928
0.846553 0.627245 0.723722
0.173969 0.707050 0.684574
0.182760 0.703387 0.681124
0.227994 0.691989 0.669642
0.326396 0.673406 0.654091
0.480452 0.653217 0.638570
0.632587 0.639613 0.627652
0.756011 0.659412 0.651698
0.812057 0.676451 0.678592
0.834440 0.690891 0.704906
0.195517 0.776671 0.675575
0.202048 0.774494 0.672627
0.237552 0.767618 0.663979
0.311873 0.756415 0.652026
0.431562 0.743385 0.640385
0.581333 0.729490 0.631805
0.707940 0.723864 0.630295
0.794151 0.732535 0.645309
0.824711 0.748420 0.687385
0.202332 0.828003 0.667081
0.206805 0.826694 0.664777
0.235100 0.822030 0.657736
0.290647 0.812518 0.648077
0.380785 0.801474 0.638640
0.511489 0.791617 0.631375
0.650939 0.785517 0.627598
0.773769 0.784533 0.628718
0.820936 0.791479 0.662486
0.187351 0.853369 0.658072
0.189681 0.853591 0.658753
0.194048 0.853223 0.661821
0.245058 0.847993 0.651983
0.318525 0.840139 0.640080
0.417818 0.833398 0.631863
0.547473 0.828697 0.626676
0.687337 0.826903 0.624342
0.822190 0.830769 0.642060
0.153865 0.543848 0.871201
0.186159 0.569610 0.878951
0.417940 0.612945 0.883108
0.765569 0.628588 0.883426
0.868916 0.644386 0.883952
0.891976 0.639071 0.874955
0.889923 0.597341 0.854484
0.885246 0.547270 0.838087
0.878308 0.445660 0.811962
0.162191 0.561547 0.872179
0.193241 0.583529 0.878718
0.420115 0.625581 0.883074
0.753534 0.640404 0.883474
0.865850 0.654331 0.884020
0.885613 0.636788 0.868901
0.885841 0.598868 0.850385
0.882547 0.551522 0.835145
0.876473 0.439899 0.808364
0.207164 0.637908 0.874146
0.239776 0.646844 0.877603
0.431045 0.670174 0.882247
0.714046 0.681651 0.883040
0.833032 0.657271 0.865567
0.863511 0.636038 0.849946
0.872319 0.610787 0.836906
0.873529 0.578769 0.821299
0.870092 0.420949 0.796096
0.212001 0.661035 0.845828
0.235034 0.661724 0.846017
0.356111 0.664480 0.844955
0.580020 0.656775 0.838401
0.744119 0.647326 0.827884
0.820983 0.640026 0.816529
0.849471 0.631411 0.807303
0.858332 0.615538 0.799555
0.860050 0.570585 0.788193
0.189662 0.666634 0.788197
0.203287 0.665477 0.787617
0.284426 0.663874 0.786679
0.443816 0.657886 0.782350
0.631795 0.652694 0.777138
0.754561 0.652872 0.774495
0.813742 0.655613 0.774459
0.841398 0.656193 0.775453
0.848251 0.650043 0.773596
0.195684 0.718081 0.759882
0.205257 0.715715 0.758516
0.259947 0.709040 0.754138
0.364723 0.697511 0.747450
0.525732 0.685081 0.739559
0.672810 0.680405 0.736077
0.773235 0.687568 0.741952
0.817121 0.697372 0.751664
0.836055 0.705496 0.759320
0.207056 0.776723 0.743988
0.215191 0.775023 0.742231
0.254859 0.769616 0.737245
0.331356 0.760597 0.730566
0.456111 0.749920 0.723703
0.598130 0.739444 0.717090
0.714013 0.730376 0.711680
0.797051 0.744589 0.727684
0.825068 0.756067 0.745227
0.207646 0.827437 0.733525
0.212978 0.826265 0.731952
0.243202 0.822011 0.727091
0.299906 0.813532 0.720592
0.393137 0.803698 0.714438
0.525114 0.794842 0.709775
0.661003 0.789398 0.707597
0.777056 0.789227 0.709976
0.821018 0.798127 0.734285
0.186919 0.850603 0.704057
0.192049 0.851821 0.703154
0.196957 0.851842 0.700304
0.241613 0.849058 0.716910
0.318780 0.841053 0.708660
0.418814 0.834839 0.703147
0.548678 0.830669 0.699530
0.687507 0.829383 0.697876
0.822933 0.835729 0.727221
0.232720 0.642725 0.906998
0.245926 0.645695 0.907591
0.467186 0.660152 0.907351
0.783542 0.671218 0.907394
0.874183 0.683533 0.907628
0.899680 0.688125 0.905462
0.895650 0.648431 0.889626
0.889360 0.591893 0.872694
0.880767 0.489299 0.849707
0.239435 0.651644 0.906949
0.253802 0.654586 0.907514
0.472230 0.669286 0.907427
0.776995 0.680227 0.907474
0.872189 0.692441 0.907700
0.894068 0.685297 0.901458
0.891889 0.648797 0.886289
0.886767 0.595644 0.869876
0.878978 0.486842 0.847648
0.283879 0.698406 0.906742
0.301127 0.700614 0.907139
0.492584 0.711902 0.907451
0.745606 0.721037 0.907591
0.853957 0.712678 0.901415
0.875259 0.684898 0.888733
0.879359 0.657508 0.873325
0.878104 0.619773 0.860523
0.873192 0.500966 0.840785
0.307925 0.736876 0.896847
0.323611 0.734682 0.895918
0.452797 0.729906 0.892179
0.650478 0.716323 0.884729
0.788481 0.700837 0.874068
0.844065 0.685973 0.863628
0.858948 0.670351 0.854292
0.863977 0.649288 0.846402
0.862974 0.604076 0.836890
0.264379 0.722699 0.856990
0.278564 0.721572 0.856460
0.362935 0.719328 0.854040
0.526008 0.711559 0.849051
0.690831 0.703139 0.843330
0.789016 0.696728 0.837960
0.831108 0.690944 0.833247
0.847327 0.681956 0.827942
0.851059 0.669111 0.821082
0.241875 0.746071 0.827282
0.254279 0.745130 0.826881
0.313547 0.742715 0.825017
0.425441 0.735026 0.819402
0.587161 0.725922 0.812409
0.715997 0.721013 0.807295
0.792870 0.720402 0.805198
0.826488 0.720162 0.805246
0.839804 0.720739 0.804367
0.231167 0.784589 0.801780
0.240227 0.783474 0.801450
0.285205 0.780258 0.800895
0.363894 0.773890 0.798520
0.494228 0.765521 0.793616
0.635220 0.758250 0.788053
0.744470 0.755892 0.785527
0.805773 0.758927 0.788330
0.827527 0.764691 0.791583
0.212765 0.831029 0.784691
0.218343 0.829945 0.783988
0.251505 0.826094 0.782261
0.310530 0.819818 0.780501
0.407815 0.811536 0.779351
0.542471 0.804055 0.777931
0.673334 0.798933 0.776231
0.779323 0.795701 0.773942
0.821866 0.805041 0.784144
0.186862 0.847827 0.756588
0.202452 0.852576 0.756642
0.203262 0.851403 0.759609
0.237533 0.850453 0.764411
0.310555 0.844036 0.760988
0.410629 0.838241 0.758660
0.538693 0.834534 0.757258
0.676128 0.833549 0.756458
0.823660 0.840697 0.781825
0.438027 0.685272 0.928803
0.501914 0.686657 0.928804
0.746609 0.692142 0.928808
0.868791 0.701605 0.928839
0.897802 0.712619 0.928909
0.912328 0.721622 0.929050
0.903898 0.676541 0.913112
0.894372 0.608492 0.899667
0.882967 0.536933 0.883906
0.445590 0.692066 0.928720
0.505192 0.693478 0.928722
0.742514 0.699052 0.928731
0.867424 0.708631 0.928771
0.897280 0.719714 0.928849
0.908811 0.718714 0.925541
0.900561 0.675484 0.910306
0.891942 0.608608 0.897607
0.881266 0.542162 0.885318
0.481827 0.726521 0.928313
0.527010 0.727876 0.928325
0.727401 0.733156 0.928365
0.860894 0.741843 0.928455
0.892471 0.745296 0.926607
0.893681 0.714882 0.913272
0.889593 0.679796 0.901102
0.883894 0.623718 0.890715
0.875386 0.524238 0.878352
0.511940 0.773565 0.924998
0.541357 0.771299 0.923714
0.681866 0.764096 0.919414
0.820920 0.753106 0.912566
0.860274 0.738812 0.904240
0.871020 0.718181 0.895562
0.873046 0.694063 0.887080
0.871434 0.658408 0.876809
0.866475 0.615261 0.868147
0.420561 0.760348 0.894678
0.444453 0.758927 0.893903
0.568693 0.754506 0.891324
0.732217 0.747962 0.886872
0.811928 0.739705 0.879938
0.843311 0.728059 0.872816
0.852337 0.713860 0.866132
0.855835 0.691731 0.860213
0.854929 0.663279 0.855548
0.348222 0.769661 0.868667
0.363346 0.768394 0.867832
0.454686 0.764482 0.865077
0.623813 0.758897 0.860797
0.745955 0.753050 0.855981
0.803035 0.747794 0.851572
0.828571 0.741966 0.847982
0.841474 0.729949 0.845196
0.844029 0.720683 0.843325
0.300178 0.800457 0.852969
0.309428 0.799142 0.852264
0.361593 0.794877 0.849880
0.494932 0.788295 0.846075
0.654818 0.781311 0.841694
0.755779 0.775759 0.837550
0.802448 0.771837 0.834841
0.824055 0.766952 0.833368
0.832712 0.766338 0.833162
0.257328 0.839071 0.843307
0.263052 0.838245 0.843163
0.289660 0.835003 0.841959
0.360283 0.829346 0.839030
0.495644 0.823047 0.835233
0.656055 0.816018 0.830049
0.766815 0.811511 0.825454
0.810715 0.808430 0.823459
0.825494 0.807937 0.824223
0.186969 0.844926 0.787279
0.215401 0.853208 0.798644
0.212692 0.851299 0.796593
0.217174 0.848800 0.793279
0.302405 0.852023 0.816102
0.415278 0.848411 0.826110
0.544854 0.844699 0.823792
0.687971 0.843780 0.822122
0.824475 0.845689 0.821810
