trix_modern/TriX_Orange21_ExtraPunchy.cube
TITLE "Tri-X Orange21 ExtraPunchy"
# Adobe RGB in/out. REPLACES AgX. R=0.7239 G=0.2761 B=0.0000
LUT_3D_SIZE 65
DOMAIN_MIN 0.0 0.0 0.0
DOMAIN_MAX 1.0 1.0 1.0
0.092237 0.092237 0.092237
0.092237 0.092237 0.092237
0.092237 0.092237 0.092237
0.092237 0.092237 0.092237
0.092237 0.092237 0.092237
0.092237 0.092237 0.092237
0.092237 0.092237 0.092237
0.092237 0.092237 0.092237
0.092237 0.092237 0.092237
0.092237 0.092237 0.092237
0.092237 0.092237 0.092237
0.092237 0.092237 0.092237
0.092237 0.092237 0.092237
0.092237 0.092237 0.092237
0.092237 0.092237 0.092237
0.092237 0.092237 0.092237
0.092237 0.092237 0.092237
0.092237 0.092237 0.092237
0.092237 0.092237 0.092237
0.092237 0.092237 0.092237
0.092237 0.092237 0.092237
0.092237 0.092237 0.092237
0.092237 0.092237 0.092237
0.092237 0.092237 0.092237
0.092237 0.092237 0.092237
0.092237 0.092237 0.092237
0.092237 0.092237 0.092237
0.092237 0.092237 0.092237
0.092237 0.092237 0.092237
0.092237 0.092237 0.092237
0.092237 0.092237 0.092237
0.092237 0.092237 0.092237
0.092237 0.092237 0.092237
0.092237 0.092237 0.092237
0.092237 0.092237 0.092237
0.092237 0.092237 0.092237
0.092237 0.092237 0.092237
0.092237 0.092237 0.092237
0.092237 0.092237 0.092237
0.092237 0.092237 0.092237
0.092237 0.092237 0.092237
0.092237 0.092237 0.092237
0.092237 0.092237 0.092237
0.092237 0.092237 0.092237
0.092237 0.092237 0.092237
0.092237 0.092237 0.092237
0.092237 0.092237 0.092237
0.092237 0.092237 0.092237
0.092237 0.092237 0.092237
0.092237 0.092237 0.092237
0.092237 0.092237 0.092237
0.092237 0.092237 0.092237
0.092237 0.092237 0.092237
0.092237 0.092237 0.092237
0.092237 0.092237 0.092237
0.092237 0.092237 0.092237
0.092237 0.092237 0.092237
0.092237 0.092237 0.092237
0.092237 0.092237 0.092237
0.092237 0.092237 0.092237
0.092237 0.092237 0.092237
0.092237 0.092237 0.092237
0.092237 0.092237 0.092237
0.092237 0.092237 0.092237
0.092237 0.092237 0.092237
0.092237 0.092237 0.092237
0.092237 0.092237 0.092237
0.092237 0.092237 0.092237
0.092237 0.092237 0.092237
0.092237 0.092237 0.092237
0.092258 0.092258 0.092258
0.092338 0.092338 0.092338
0.092414 0.092414 0.092414
0.092520 0.092520 0.092520
0.092634 0.092634 0.092634
0.092812 0.092812 0.092812
0.093277 0.093277 0.093277
0.093860 0.093860 0.093860
0.094365 0.094365 0.094365
0.095485 0.095485 0.095485
0.096789 0.096789 0.096789
0.098391 0.098391 0.098391
0.100733 0.100733 0.100733
0.102972 0.102972 0.102972
0.105692 0.105692 0.105692
0.109138 0.109138 0.109138
0.113281 0.113281 0.113281
0.117937 0.117937 0.117937
0.123505 0.123505 0.123505
0.129018 0.129018 0.129018
0.134473 0.134473 0.134473
0.140018 0.140018 0.140018
0.146477 0.146477 0.146477
0.152905 0.152905 0.152905
0.159297 0.159297 0.159297
0.165650 0.165650 0.165650
0.171958 0.171958 0.171958
0.178219 0.178219 0.178219
0.184434 0.184434 0.184434
0.190619 0.190619 0.190619
0.196748 0.196748 0.196748
0.202820 0.202820 0.202820
0.208830 0.208830 0.208830
0.215004 0.215004 0.215004
0.221313 0.221313 0.221313
0.227563 0.227563 0.227563
0.233760 0.233760 0.233760
0.239912 0.239912 0.239912
0.246017 0.246017 0.246017
0.252073 0.252073 0.252073
0.258077 0.258077 0.258077
0.264029 0.264029 0.264029
0.269927 0.269927 0.269927
0.275769 0.275769 0.275769
0.281553 0.281553 0.281553
0.287108 0.287108 0.287108
0.292439 0.292439 0.292439
0.297706 0.297706 0.297706
0.302909 0.302909 0.302909
0.308047 0.308047 0.308047
0.313120 0.313120 0.313120
0.318127 0.318127 0.318127
0.323067 0.323067 0.323067
0.327939 0.327939 0.327939
0.332744 0.332744 0.332744
0.337481 0.337481 0.337481
0.342149 0.342149 0.342149
0.346749 0.346749 0.346749
0.351279 0.351279 0.351279
0.355739 0.355739 0.355739
0.092237 0.092237 0.092237
0.092237 0.092237 0.092237
0.092237 0.092237 0.092237
0.092237 0.092237 0.092237
0.092237 0.092237 0.092237
0.092315 0.092315 0.092315
0.092423 0.092423 0.092423
0.092577 0.092577 0.092577
0.092756 0.092756 0.092756
0.093201 0.093201 0.093201
0.094066 0.094066 0.094066
0.095445 0.095445 0.095445
0.097368 0.097368 0.097368
0.100460 0.100460 0.100460
0.103591 0.103591 0.103591
0.108081 0.108081 0.108081
0.113800 0.113800 0.113800
0.121064 0.121064 0.121064
0.129074 0.129074 0.129074
0.137033 0.137033 0.137033
0.146157 0.146157 0.146157
0.155734 0.155734 0.155734
0.165324 0.165324 0.165324
0.174914 0.174914 0.174914
0.184497 0.184497 0.184497
0.194100 0.194100 0.194100
0.203673 0.203673 0.203673
0.213323 0.213323 0.213323
0.223499 0.223499 0.223499
0.233649 0.233649 0.233649
0.243763 0.243763 0.243763
0.253834 0.253834 0.253834
0.263855 0.263855 0.263855
0.273818 0.273818 0.273818
0.283719 0.283719 0.283719
0.293008 0.293008 0.293008
0.302174 0.302174 0.302174
0.311249 0.311249 0.311249
0.320231 0.320231 0.320231
0.329117 0.329117 0.329117
0.337905 0.337905 0.337905
0.346605 0.346605 0.346605
0.355227 0.355227 0.355227
0.363770 0.363770 0.363770
0.372231 0.372231 0.372231
0.380609 0.380609 0.380609
0.388901 0.388901 0.388901
0.397107 0.397107 0.397107
0.405190 0.405190 0.405190
0.413133 0.413133 0.413133
0.421202 0.421202 0.421202
0.429245 0.429245 0.429245
0.437196 0.437196 0.437196
0.445053 0.445053 0.445053
0.452815 0.452815 0.452815
0.460481 0.460481 0.460481
0.468050 0.468050 0.468050
0.475521 0.475521 0.475521
0.482892 0.482892 0.482892
0.490164 0.490164 0.490164
0.497335 0.497335 0.497335
0.504404 0.504404 0.504404
0.511372 0.511372 0.511372
0.517983 0.517983 0.517983
0.524339 0.524339 0.524339
0.092237 0.092237 0.092237
0.092237 0.092237 0.092237
0.092237 0.092237 0.092237
0.092237 0.092237 0.092237
0.092237 0.092237 0.092237
0.092313 0.092313 0.092313
0.092439 0.092439 0.092439
0.092625 0.092625 0.092625
0.092864 0.092864 0.092864
0.093773 0.093773 0.093773
0.095170 0.095170 0.095170
0.097619 0.097619 0.097619
0.101858 0.101858 0.101858
0.106581 0.106581 0.106581
0.113433 0.113433 0.113433
0.122555 0.122555 0.122555
0.132532 0.132532 0.132532
0.143134 0.143134 0.143134
0.155132 0.155132 0.155132
0.167188 0.167188 0.167188
0.179281 0.179281 0.179281
0.191432 0.191432 0.191432
0.203609 0.203609 0.203609
0.216077 0.216077 0.216077
0.229121 0.229121 0.229121
0.242178 0.242178 0.242178
0.255234 0.255234 0.255234
0.268274 0.268274 0.268274
0.281286 0.281286 0.281286
0.293674 0.293674 0.293674
0.305808 0.305808 0.305808
0.317856 0.317856 0.317856
0.329813 0.329813 0.329813
0.341672 0.341672 0.341672
0.353429 0.353429 0.353429
0.365077 0.365077 0.365077
0.376614 0.376614 0.376614
0.388034 0.388034 0.388034
0.399335 0.399335 0.399335
0.410424 0.410424 0.410424
0.421589 0.421589 0.421589
0.432813 0.432813 0.432813
0.443941 0.443941 0.443941
0.454972 0.454972 0.454972
0.465903 0.465903 0.465903
0.476730 0.476730 0.476730
0.487452 0.487452 0.487452
0.498066 0.498066 0.498066
0.508570 0.508570 0.508570
0.518665 0.518665 0.518665
0.528324 0.528324 0.528324
0.537862 0.537862 0.537862
0.547280 0.547280 0.547280
0.556576 0.556576 0.556576
0.565750 0.565750 0.565750
0.574800 0.574800 0.574800
0.583726 0.583726 0.583726
0.592528 0.592528 0.592528
0.601204 0.601204 0.601204
0.609754 0.609754 0.609754
0.618178 0.618178 0.618178
0.626475 0.626475 0.626475
0.634645 0.634645 0.634645
0.642471 0.642471 0.642471
0.649244 0.649244 0.649244
0.092237 0.092237 0.092237
0.092237 0.092237 0.092237
0.092237 0.092237 0.092237
0.092237 0.092237 0.092237
0.092237 0.092237 0.092237
0.092307 0.092307 0.092307
0.092426 0.092426 0.092426
0.092619 0.092619 0.092619
0.092915 0.092915 0.092915
0.093941 0.093941 0.093941
0.095911 0.095911 0.095911
0.099513 0.099513 0.099513
0.104249 0.104249 0.104249
0.111886 0.111886 0.111886
0.122337 0.122337 0.122337
0.134135 0.134135 0.134135
0.147259 0.147259 0.147259
0.161496 0.161496 0.161496
0.175811 0.175811 0.175811
0.190209 0.190209 0.190209
0.204677 0.204677 0.204677
0.219700 0.219700 0.219700
0.235265 0.235265 0.235265
0.250875 0.250875 0.250875
0.266510 0.266510 0.266510
0.282150 0.282150 0.282150
0.296982 0.296982 0.296982
0.311617 0.311617 0.311617
0.326173 0.326173 0.326173
0.340638 0.340638 0.340638
0.355005 0.355005 0.355005
0.369265 0.369265 0.369265
0.383411 0.383411 0.383411
0.397437 0.397437 0.397437
0.411239 0.411239 0.411239
0.425219 0.425219 0.425219
0.439203 0.439203 0.439203
0.453053 0.453053 0.453053
0.466766 0.466766 0.466766
0.480336 0.480336 0.480336
0.493762 0.493762 0.493762
0.507065 0.507065 0.507065
0.519880 0.519880 0.519880
0.532159 0.532159 0.532159
0.544306 0.544306 0.544306
0.556320 0.556320 0.556320
0.568198 0.568198 0.568198
0.579940 0.579940 0.579940
0.591543 0.591543 0.591543
0.603008 0.603008 0.603008
0.614331 0.614331 0.614331
0.625512 0.625512 0.625512
0.636551 0.636551 0.636551
0.646543 0.646543 0.646543
0.655729 0.655729 0.655729
0.664769 0.664769 0.664769
0.673664 0.673664 0.673664
0.682415 0.682415 0.682415
0.691023 0.691023 0.691023
0.699487 0.699487 0.699487
0.707809 0.707809 0.707809
0.715989 0.715989 0.715989
0.724028 0.724028 0.724028
0.730043 0.730043 0.730043
0.735690 0.735690 0.735690
0.092237 0.092237 0.092237
0.092237 0.092237 0.092237
0.092237 0.092237 0.092237
0.092237 0.092237 0.092237
0.092293 0.092293 0.092293
0.092356 0.092356 0.092356
0.092424 0.092424 0.092424
0.092604 0.092604 0.092604
0.092854 0.092854 0.092854
0.093910 0.093910 0.093910
0.095973 0.095973 0.095973
0.100008 0.100008 0.100008
0.105746 0.105746 0.105746
0.114903 0.114903 0.114903
0.127919 0.127919 0.127919
0.141729 0.141729 0.141729
0.157924 0.157924 0.157924
0.174260 0.174260 0.174260
0.190729 0.190729 0.190729
0.207309 0.207309 0.207309
0.224818 0.224818 0.224818
0.242729 0.242729 0.242729
0.260714 0.260714 0.260714
0.278745 0.278745 0.278745
0.296061 0.296061 0.296061
0.312995 0.312995 0.312995
0.329855 0.329855 0.329855
0.346627 0.346627 0.346627
0.363301 0.363301 0.363301
0.379864 0.379864 0.379864
0.396307 0.396307 0.396307
0.412510 0.412510 0.412510
0.429008 0.429008 0.429008
0.445463 0.445463 0.445463
0.461778 0.461778 0.461778
0.477948 0.477948 0.477948
0.493967 0.493967 0.493967
0.509828 0.509828 0.509828
0.524837 0.524837 0.524837
0.539419 0.539419 0.539419
0.553821 0.553821 0.553821
0.568069 0.568069 0.568069
0.582169 0.582169 0.582169
0.596118 0.596118 0.596118
0.609914 0.609914 0.609914
0.623556 0.623556 0.623556
0.637040 0.637040 0.637040
0.649043 0.649043 0.649043
0.660284 0.660284 0.660284
0.671358 0.671358 0.671358
0.682263 0.682263 0.682263
0.693002 0.693002 0.693002
0.703575 0.703575 0.703575
0.713982 0.713982 0.713982
0.724224 0.724224 0.724224
0.731774 0.731774 0.731774
0.738981 0.738981 0.738981
0.746045 0.746045 0.746045
0.752968 0.752968 0.752968
0.759752 0.759752 0.759752
0.766399 0.766399 0.766399
0.772912 0.772912 0.772912
0.779292 0.779292 0.779292
0.785542 0.785542 0.785542
0.791662 0.791662 0.791662
0.092237 0.092237 0.092237
0.092237 0.092237 0.092237
0.092237 0.092237 0.092237
0.092250 0.092250 0.092250
0.092345 0.092345 0.092345
0.092418 0.092418 0.092418
0.092512 0.092512 0.092512
0.092608 0.092608 0.092608
0.092839 0.092839 0.092839
0.093835 0.093835 0.093835
0.095770 0.095770 0.095770
0.099831 0.099831 0.099831
0.105996 0.105996 0.105996
0.116007 0.116007 0.116007
0.130593 0.130593 0.130593
0.146516 0.146516 0.146516
0.164440 0.164440 0.164440
0.182593 0.182593 0.182593
0.200989 0.200989 0.200989
0.220071 0.220071 0.220071
0.240063 0.240063 0.240063
0.260197 0.260197 0.260197
0.280430 0.280430 0.280430
0.299749 0.299749 0.299749
0.318797 0.318797 0.318797
0.337779 0.337779 0.337779
0.356676 0.356676 0.356676
0.375472 0.375472 0.375472
0.394153 0.394153 0.394153
0.412594 0.412594 0.412594
0.431388 0.431388 0.431388
0.450136 0.450136 0.450136
0.468740 0.468740 0.468740
0.487193 0.487193 0.487193
0.505486 0.505486 0.505486
0.523036 0.523036 0.523036
0.539889 0.539889 0.539889
0.556541 0.556541 0.556541
0.572988 0.572988 0.572988
0.589228 0.589228 0.589228
0.605270 0.605270 0.605270
0.621141 0.621141 0.621141
0.636842 0.636842 0.636842
0.650755 0.650755 0.650755
0.663855 0.663855 0.663855
0.676763 0.676763 0.676763
0.689479 0.689479 0.689479
0.702006 0.702006 0.702006
0.714343 0.714343 0.714343
0.726079 0.726079 0.726079
0.734796 0.734796 0.734796
0.743339 0.743339 0.743339
0.751714 0.751714 0.751714
0.759923 0.759923 0.759923
0.767968 0.767968 0.767968
0.775853 0.775853 0.775853
0.783581 0.783581 0.783581
0.791153 0.791153 0.791153
0.798573 0.798573 0.798573
0.805315 0.805315 0.805315
0.809985 0.809985 0.809985
0.814546 0.814546 0.814546
0.819000 0.819000 0.819000
0.823350 0.823350 0.823350
0.827598 0.827598 0.827598
0.092237 0.092237 0.092237
0.092237 0.092237 0.092237
0.092237 0.092237 0.092237
0.092282 0.092282 0.092282
0.092389 0.092389 0.092389
0.092502 0.092502 0.092502
0.092612 0.092612 0.092612
0.092741 0.092741 0.092741
0.092903 0.092903 0.092903
0.093848 0.093848 0.093848
0.095673 0.095673 0.095673
0.099604 0.099604 0.099604
0.105803 0.105803 0.105803
0.116174 0.116174 0.116174
0.131533 0.131533 0.131533
0.148755 0.148755 0.148755
0.167985 0.167985 0.167985
0.187609 0.187609 0.187609
0.207586 0.207586 0.207586
0.228945 0.228945 0.228945
0.250859 0.250859 0.250859
0.272984 0.272984 0.272984
0.294616 0.294616 0.294616
0.315604 0.315604 0.315604
0.336563 0.336563 0.336563
0.357463 0.357463 0.357463
0.378279 0.378279 0.378279
0.398992 0.398992 0.398992
0.419555 0.419555 0.419555
0.440532 0.440532 0.440532
0.461378 0.461378 0.461378
0.482077 0.482077 0.482077
0.502618 0.502618 0.502618
0.522452 0.522452 0.522452
0.541410 0.541410 0.541410
0.560150 0.560150 0.560150
0.578669 0.578669 0.578669
0.596963 0.596963 0.596963
0.615029 0.615029 0.615029
0.632864 0.632864 0.632864
0.649147 0.649147 0.649147
0.664025 0.664025 0.664025
0.678685 0.678685 0.678685
0.693129 0.693129 0.693129
0.707358 0.707358 0.707358
0.721374 0.721374 0.721374
0.732412 0.732412 0.732412
0.742282 0.742282 0.742282
0.751954 0.751954 0.751954
0.761432 0.761432 0.761432
0.770720 0.770720 0.770720
0.779821 0.779821 0.779821
0.788739 0.788739 0.788739
0.797478 0.797478 0.797478
0.805445 0.805445 0.805445
0.810944 0.810944 0.810944
0.816313 0.816313 0.816313
0.821555 0.821555 0.821555
0.826674 0.826674 0.826674
0.831672 0.831672 0.831672
0.836553 0.836553 0.836553
0.841318 0.841318 0.841318
0.845972 0.845972 0.845972
0.850515 0.850515 0.850515
0.854952 0.854952 0.854952
0.092237 0.092237 0.092237
0.092237 0.092237 0.092237
0.092237 0.092237 0.092237
0.092320 0.092320 0.092320
0.092447 0.092447 0.092447
0.092604 0.092604 0.092604
0.092771 0.092771 0.092771
0.093053 0.093053 0.093053
0.093605 0.093605 0.093605
0.094122 0.094122 0.094122
0.095858 0.095858 0.095858
0.099681 0.099681 0.099681
0.105743 0.105743 0.105743
0.116090 0.116090 0.116090
0.131721 0.131721 0.131721
0.149583 0.149583 0.149583
0.169651 0.169651 0.169651
0.190324 0.190324 0.190324
0.211506 0.211506 0.211506
0.234605 0.234605 0.234605
0.258120 0.258120 0.258120
0.281952 0.281952 0.281952
0.304719 0.304719 0.304719
0.327405 0.327405 0.327405
0.350100 0.350100 0.350100
0.372764 0.372764 0.372764
0.395364 0.395364 0.395364
0.417802 0.417802 0.417802
0.440766 0.440766 0.440766
0.463617 0.463617 0.463617
0.486334 0.486334 0.486334
0.508900 0.508900 0.508900
0.530257 0.530257 0.530257
0.551094 0.551094 0.551094
0.571701 0.571701 0.571701
0.592073 0.592073 0.592073
0.612203 0.612203 0.612203
0.632087 0.632087 0.632087
0.650200 0.650200 0.650200
0.666734 0.666734 0.666734
0.683016 0.683016 0.683016
0.699057 0.699057 0.699057
0.714857 0.714857 0.714857
0.728945 0.728945 0.728945
0.740090 0.740090 0.740090
0.751005 0.751005 0.751005
0.761695 0.761695 0.761695
0.772166 0.772166 0.772166
0.782423 0.782423 0.782423
0.792470 0.792470 0.792470
0.802312 0.802312 0.802312
0.809323 0.809323 0.809323
0.815496 0.815496 0.815496
0.821520 0.821520 0.821520
0.827399 0.827399 0.827399
0.833137 0.833137 0.833137
0.838738 0.838738 0.838738
0.844204 0.844204 0.844204
0.849541 0.849541 0.849541
0.854751 0.854751 0.854751
0.859836 0.859836 0.859836
0.864801 0.864801 0.864801
0.869648 0.869648 0.869648
0.873740 0.873740 0.873740
0.877274 0.877274 0.877274
0.092237 0.092237 0.092237
0.092237 0.092237 0.092237
0.092237 0.092237 0.092237
0.092374 0.092374 0.092374
0.092552 0.092552 0.092552
0.092762 0.092762 0.092762
0.093207 0.093207 0.093207
0.093839 0.093839 0.093839
0.094327 0.094327 0.094327
0.095367 0.095367 0.095367
0.096818 0.096818 0.096818
0.100163 0.100163 0.100163
0.106117 0.106117 0.106117
0.116365 0.116365 0.116365
0.131887 0.131887 0.131887
0.149918 0.149918 0.149918
0.170374 0.170374 0.170374
0.191663 0.191663 0.191663
0.213804 0.213804 0.213804
0.237980 0.237980 0.237980
0.262734 0.262734 0.262734
0.287736 0.287736 0.287736
0.311744 0.311744 0.311744
0.335892 0.335892 0.335892
0.360114 0.360114 0.360114
0.384358 0.384358 0.384358
0.408509 0.408509 0.408509
0.433043 0.433043 0.433043
0.457743 0.457743 0.457743
0.482346 0.482346 0.482346
0.506827 0.506827 0.506827
0.530129 0.530129 0.530129
0.552793 0.552793 0.552793
0.575226 0.575226 0.575226
0.597419 0.597419 0.597419
0.619364 0.619364 0.619364
0.641051 0.641051 0.641051
0.659382 0.659382 0.659382
0.677383 0.677383 0.677383
0.695088 0.695088 0.695088
0.712528 0.712528 0.712528
0.728424 0.728424 0.728424
0.740725 0.740725 0.740725
0.752765 0.752765 0.752765
0.764551 0.764551 0.764551
0.776090 0.776090 0.776090
0.787387 0.787387 0.787387
0.798449 0.798449 0.798449
0.807571 0.807571 0.807571
0.814510 0.814510 0.814510
0.821276 0.821276 0.821276
0.827873 0.827873 0.827873
0.834308 0.834308 0.834308
0.840586 0.840586 0.840586
0.846709 0.846709 0.846709
0.852684 0.852684 0.852684
0.858514 0.858514 0.858514
0.864204 0.864204 0.864204
0.869756 0.869756 0.869756
0.874349 0.874349 0.874349
0.878394 0.878394 0.878394
0.882328 0.882328 0.882328
0.886154 0.886154 0.886154
0.889883 0.889883 0.889883
0.893518 0.893518 0.893518
0.092237 0.092237 0.092237
0.092237 0.092237 0.092237
0.092253 0.092253 0.092253
0.092423 0.092423 0.092423
0.092653 0.092653 0.092653
0.093023 0.093023 0.093023
0.093865 0.093865 0.093865
0.094519 0.094519 0.094519
0.095941 0.095941 0.095941
0.097256 0.097256 0.097256
0.099520 0.099520 0.099520
0.102293 0.102293 0.102293
0.106977 0.106977 0.106977
0.117312 0.117312 0.117312
0.132470 0.132470 0.132470
0.150405 0.150405 0.150405
0.170870 0.170870 0.170870
0.192391 0.192391 0.192391
0.215048 0.215048 0.215048
0.239903 0.239903 0.239903
0.265524 0.265524 0.265524
0.291336 0.291336 0.291336
0.316432 0.316432 0.316432
0.341777 0.341777 0.341777
0.367290 0.367290 0.367290
0.392899 0.392899 0.392899
0.418494 0.418494 0.418494
0.444789 0.444789 0.444789
0.471064 0.471064 0.471064
0.497276 0.497276 0.497276
0.522830 0.522830 0.522830
0.547220 0.547220 0.547220
0.571397 0.571397 0.571397
0.595346 0.595346 0.595346
0.619051 0.619051 0.619051
0.642312 0.642312 0.642312
0.662119 0.662119 0.662119
0.681596 0.681596 0.681596
0.700746 0.700746 0.700746
0.719601 0.719601 0.719601
0.734591 0.734591 0.734591
0.747847 0.747847 0.747847
0.760817 0.760817 0.760817
0.773508 0.773508 0.773508
0.785928 0.785928 0.785928
0.798083 0.798083 0.798083
0.808030 0.808030 0.808030
0.815645 0.815645 0.815645
0.823064 0.823064 0.823064
0.830294 0.830294 0.830294
0.837340 0.837340 0.837340
0.844209 0.844209 0.844209
0.850906 0.850906 0.850906
0.857436 0.857436 0.857436
0.863805 0.863805 0.863805
0.870017 0.870017 0.870017
0.875040 0.875040 0.875040
0.879560 0.879560 0.879560
0.883948 0.883948 0.883948
0.888219 0.888219 0.888219
0.892380 0.892380 0.892380
0.896434 0.896434 0.896434
0.900385 0.900385 0.900385
0.904234 0.904234 0.904234
0.907985 0.907985 0.907985
0.092237 0.092237 0.092237
0.092237 0.092237 0.092237
0.092284 0.092284 0.092284
0.092486 0.092486 0.092486
0.092763 0.092763 0.092763
0.093530 0.093530 0.093530
0.094399 0.094399 0.094399
0.096125 0.096125 0.096125
0.097637 0.097637 0.097637
0.100329 0.100329 0.100329
0.102922 0.102922 0.102922
0.106375 0.106375 0.106375
0.111292 0.111292 0.111292
0.118946 0.118946 0.118946
0.133648 0.133648 0.133648
0.151409 0.151409 0.151409
0.171621 0.171621 0.171621
0.193069 0.193069 0.193069
0.215893 0.215893 0.215893
0.241072 0.241072 0.241072
0.267208 0.267208 0.267208
0.293572 0.293572 0.293572
0.319459 0.319459 0.319459
0.345724 0.345724 0.345724
0.372270 0.372270 0.372270
0.399010 0.399010 0.399010
0.426004 0.426004 0.426004
0.453628 0.453628 0.453628
0.481295 0.481295 0.481295
0.508951 0.508951 0.508951
0.535190 0.535190 0.535190
0.560966 0.560966 0.560966
0.586548 0.586548 0.586548
0.611915 0.611915 0.611915
0.637046 0.637046 0.637046
0.658912 0.658912 0.658912
0.679849 0.679849 0.679849
0.700445 0.700445 0.700445
0.720716 0.720716 0.720716
0.736419 0.736419 0.736419
0.750662 0.750662 0.750662
0.764593 0.764593 0.764593
0.778222 0.778222 0.778222
0.791556 0.791556 0.791556
0.804501 0.804501 0.804501
0.812865 0.812865 0.812865
0.821007 0.821007 0.821007
0.828934 0.828934 0.828934
0.836655 0.836655 0.836655
0.844176 0.844176 0.844176
0.851504 0.851504 0.851504
0.858645 0.858645 0.858645
0.865605 0.865605 0.865605
0.872217 0.872217 0.872217
0.877280 0.877280 0.877280
0.882200 0.882200 0.882200
0.886977 0.886977 0.886977
0.891628 0.891628 0.891628
0.896157 0.896157 0.896157
0.900568 0.900568 0.900568
0.904864 0.904864 0.904864
0.909049 0.909049 0.909049
0.913126 0.913126 0.913126
0.916720 0.916720 0.916720
0.919601 0.919601 0.919601
0.092237 0.092237 0.092237
0.092237 0.092237 0.092237
0.092308 0.092308 0.092308
0.092539 0.092539 0.092539
0.092847 0.092847 0.092847
0.093929 0.093929 0.093929
0.095455 0.095455 0.095455
0.097471 0.097471 0.097471
0.100589 0.100589 0.100589
0.103458 0.103458 0.103458
0.107297 0.107297 0.107297
0.112245 0.112245 0.112245
0.118549 0.118549 0.118549
0.126631 0.126631 0.126631
0.135405 0.135405 0.135405
0.153060 0.153060 0.153060
0.172882 0.172882 0.172882
0.194057 0.194057 0.194057
0.216809 0.216809 0.216809
0.242021 0.242021 0.242021
0.268366 0.268366 0.268366
0.295020 0.295020 0.295020
0.321413 0.321413 0.321413
0.348325 0.348325 0.348325
0.375645 0.375645 0.375645
0.403259 0.403259 0.403259
0.431387 0.431387 0.431387
0.460123 0.460123 0.460123
0.488981 0.488981 0.488981
0.517664 0.517664 0.517664
0.544816 0.544816 0.544816
0.571841 0.571841 0.571841
0.598705 0.598705 0.598705
0.625377 0.625377 0.625377
0.650296 0.650296 0.650296
0.672641 0.672641 0.672641
0.694646 0.694646 0.694646
0.716311 0.716311 0.716311
0.734223 0.734223 0.734223
0.749475 0.749475 0.749475
0.764393 0.764393 0.764393
0.778985 0.778985 0.778985
0.793261 0.793261 0.793261
0.806223 0.806223 0.806223
0.815164 0.815164 0.815164
0.823862 0.823862 0.823862
0.832327 0.832327 0.832327
0.840567 0.840567 0.840567
0.848590 0.848590 0.848590
0.856403 0.856403 0.856403
0.864013 0.864013 0.864013
0.871427 0.871427 0.871427
0.877010 0.877010 0.877010
0.882381 0.882381 0.882381
0.887592 0.887592 0.887592
0.892663 0.892663 0.892663
0.897597 0.897597 0.897597
0.902401 0.902401 0.902401
0.907077 0.907077 0.907077
0.911630 0.911630 0.911630
0.915950 0.915950 0.915950
0.919166 0.919166 0.919166
0.922294 0.922294 0.922294
0.925337 0.925337 0.925337
0.928298 0.928298 0.928298
0.092237 0.092237 0.092237
0.092237 0.092237 0.092237
0.092326 0.092326 0.092326
0.092579 0.092579 0.092579
0.093042 0.093042 0.093042
0.094238 0.094238 0.094238
0.096462 0.096462 0.096462
0.099595 0.099595 0.099595
0.103174 0.103174 0.103174
0.107556 0.107556 0.107556
0.113014 0.113014 0.113014
0.119689 0.119689 0.119689
0.127528 0.127528 0.127528
0.135672 0.135672 0.135672
0.145300 0.145300 0.145300
0.156309 0.156309 0.156309
0.174729 0.174729 0.174729
0.195538 0.195538 0.195538
0.218087 0.218087 0.218087
0.243123 0.243123 0.243123
0.269435 0.269435 0.269435
0.296137 0.296137 0.296137
0.322782 0.322782 0.322782
0.350087 0.350087 0.350087
0.377931 0.377931 0.377931
0.406162 0.406162 0.406162
0.435175 0.435175 0.435175
0.464798 0.464798 0.464798
0.494637 0.494637 0.494637
0.523982 0.523982 0.523982
0.552179 0.552179 0.552179
0.580302 0.580302 0.580302
0.608308 0.608308 0.608308
0.636160 0.636160 0.636160
0.660532 0.660532 0.660532
0.683866 0.683866 0.683866
0.706869 0.706869 0.706869
0.728319 0.728319 0.728319
