trix_modern/TriX_NoFilter_Normal.cube
TITLE "Tri-X NoFilter Normal"
# Adobe RGB in/out. REPLACES AgX. R=0.2974 G=0.2859 B=0.4167
LUT_3D_SIZE 9
DOMAIN_MIN 0.0 0.0 0.0
DOMAIN_MAX 1.0 1.0 1.0
0.093230 0.093230 0.093230
0.093230 0.093230 0.093230
0.093230 0.093230 0.093230
0.093230 0.093230 0.093230
0.093230 0.093230 0.093230
0.093230 0.093230 0.093230
0.093230 0.093230 0.093230
0.093230 0.093230 0.093230
0.093230 0.093230 0.093230
0.093230 0.093230 0.093230
0.093230 0.093230 0.093230
0.093230 0.093230 0.093230
0.093230 0.093230 0.093230
0.093230 0.093230 0.093230
0.093230 0.093230 0.093230
0.093230 0.093230 0.093230
0.093230 0.093230 0.093230
0.093230 0.093230 0.093230
0.093230 0.093230 0.093230
0.093230 0.093230 0.093230
0.093230 0.093230 0.093230
0.093230 0.093230 0.093230
0.093230 0.093230 0.093230
0.093230 0.093230 0.093230
0.093230 0.093230 0.093230
0.093230 0.093230 0.093230
0.093230 0.093230 0.093230
0.093230 0.093230 0.093230
0.093230 0.093230 0.093230
0.093230 0.093230 0.093230
0.093230 0.093230 0.093230
0.093230 0.093230 0.093230
0.093230 0.093230 0.093230
0.093230 0.093230 0.093230
0.093230 0.093230 0.093230
0.093230 0.093230 0.093230
0.093230 0.093230 0.093230
0.093230 0.093230 0.093230
0.093230 0.093230 0.093230
0.093230 0.093230 0.093230
0.093230 0.093230 0.093230
0.093230 0.093230 0.093230
0.093230 0.093230 0.093230
0.093230 0.093230 0.093230
0.093230 0.093230 0.093230
0.093230 0.093230 0.093230
0.093230 0.093230 0.093230
0.093230 0.093230 0.093230
0.093230 0.093230 0.093230
0.093230 0.093230 0.093230
0.093230 0.093230 0.093230
0.093230 0.093230 0.093230
0.093230 0.093230 0.093230
0.093230 0.093230 0.093230
0.093230 0.093230 0.093230
0.093230 0.093230 0.093230
0.093230 0.093230 0.093230
0.093230 0.093230 0.093230
0.093230 0.093230 0.093230
0.093230 0.093230 0.093230
0.093230 0.093230 0.093230
0.093230 0.093230 0.093230
0.093230 0.093230 0.093230
0.093230 0.093230 0.093230
0.093230 0.093230 0.093230
0.093230 0.093230 0.093230
0.093230 0.093230 0.093230
0.093230 0.093230 0.093230
0.093230 0.093230 0.093230
0.093230 0.093230 0.093230
0.093230 0.093230 0.093230
0.093230 0.093230 0.093230
0.093230 0.093230 0.093230
0.093230 0.093230 0.093230
0.093230 0.093230 0.093230
0.093230 0.093230 0.093230
0.093230 0.093230 0.093230
0.093230 0.093230 0.093230
0.093230 0.093230 0.093230
0.093230 0.093230 0.093230
0.093230 0.093230 0.093230
0.093230 0.093230 0.093230
0.093230 0.093230 0.093230
0.093230 0.093230 0.093230
0.093230 0.093230 0.093230
0.093230 0.093230 0.093230
0.093230 0.093230 0.093230
0.093230 0.093230 0.093230
0.093230 0.093230 0.093230
0.093230 0.093230 0.093230
0.093230 0.093230 0.093230
0.097009 0.097009 0.097009
0.145998 0.145998 0.145998
0.197332 0.197332 0.197332
0.227660 0.227660 0.227660
0.245460 0.245460 0.245460
0.255664 0.255664 0.255664
0.260810 0.260810 0.260810
0.262396 0.262396 0.262396
0.093230 0.093230 0.093230
0.155175 0.155175 0.155175
0.159985 0.159985 0.159985
0.209545 0.209545 0.209545
0.262324 0.262324 0.262324
0.291704 0.291704 0.291704
0.309139 0.309139 0.309139
0.319385 0.319385 0.319385
0.324625 0.324625 0.324625
0.093230 0.093230 0.093230
0.201189 0.201189 0.201189
0.229666 0.229666 0.229666
0.238353 0.238353 0.238353
0.271216 0.271216 0.271216
0.303330 0.303330 0.303330
0.328038 0.328038 0.328038
0.345251 0.345251 0.345251
0.356414 0.356414 0.356414
0.093230 0.093230 0.093230
0.220552 0.220552 0.220552
0.272189 0.272189 0.272189
0.284647 0.284647 0.284647
0.293682 0.293682 0.293682
0.311453 0.311453 0.311453
0.337232 0.337232 0.337232
0.358547 0.358547 0.358547
0.374036 0.374036 0.374036
0.093230 0.093230 0.093230
0.226829 0.226829 0.226829
0.287511 0.287511 0.287511
0.309862 0.309862 0.309862
0.321905 0.321905 0.321905
0.332481 0.332481 0.332481
0.346568 0.346568 0.346568
0.368310 0.368310 0.368310
0.385673 0.385673 0.385673
0.093230 0.093230 0.093230
0.225826 0.225826 0.225826
0.292485 0.292485 0.292485
0.322501 0.322501 0.322501
0.340071 0.340071 0.340071
0.353448 0.353448 0.353448
0.365766 0.365766 0.365766
0.378382 0.378382 0.378382
0.395977 0.395977 0.395977
0.093230 0.093230 0.093230
0.220400 0.220400 0.220400
0.290796 0.290796 0.290796
0.325924 0.325924 0.325924
0.349088 0.349088 0.349088
0.366360 0.366360 0.366360
0.380737 0.380737 0.380737
0.394034 0.394034 0.394034
0.406791 0.406791 0.406791
0.093230 0.093230 0.093230
0.212139 0.212139 0.212139
0.284821 0.284821 0.284821
0.322928 0.322928 0.322928
0.350062 0.350062 0.350062
0.371182 0.371182 0.371182
0.388488 0.388488 0.388488
0.403763 0.403763 0.403763
0.417862 0.417862 0.417862
0.093230 0.093230 0.093230
0.093230 0.093230 0.093230
0.093230 0.093230 0.093230
0.093230 0.093230 0.093230
0.093230 0.093230 0.093230
0.093230 0.093230 0.093230
0.093230 0.093230 0.093230
0.093230 0.093230 0.093230
0.093230 0.093230 0.093230
0.093230 0.093230 0.093230
0.231739 0.231739 0.231739
0.278003 0.278003 0.278003
0.308606 0.308606 0.308606
0.332930 0.332930 0.332930
0.350487 0.350487 0.350487
0.362087 0.362087 0.362087
0.368737 0.368737 0.368737
0.371547 0.371547 0.371547
0.093230 0.093230 0.093230
0.212210 0.212210 0.212210
0.204394 0.204394 0.204394
0.301908 0.301908 0.301908
0.363944 0.363944 0.363944
0.407046 0.407046 0.407046
0.434166 0.434166 0.434166
0.450112 0.450112 0.450112
0.458887 0.458887 0.458887
0.093230 0.093230 0.093230
0.282350 0.282350 0.282350
0.312011 0.312011 0.312011
0.319878 0.319878 0.319878
0.366598 0.366598 0.366598
0.420473 0.420473 0.420473
0.458798 0.458798 0.458798
0.485073 0.485073 0.485073
0.501832 0.501832 0.501832
0.093230 0.093230 0.093230
0.312680 0.312680 0.312680
0.368999 0.368999 0.368999
0.386861 0.386861 0.386861
0.400832 0.400832 0.400832
0.432327 0.432327 0.432327
0.471400 0.471400 0.471400
0.502649 0.502649 0.502649
0.524936 0.524936 0.524936
0.093230 0.093230 0.093230
0.325480 0.325480 0.325480
0.398996 0.398996 0.398996
0.431278 0.431278 0.431278
0.447940 0.447940 0.447940
0.463625 0.463625 0.463625
0.485986 0.485986 0.485986
0.516673 0.516673 0.516673
0.540387 0.540387 0.540387
0.093230 0.093230 0.093230
0.328087 0.328087 0.328087
0.410902 0.410902 0.410902
0.453443 0.453443 0.453443
0.477963 0.477963 0.477963
0.496093 0.496093 0.496093
0.513327 0.513327 0.513327
0.531309 0.531309 0.531309
0.554667 0.554667 0.554667
0.093230 0.093230 0.093230
0.324429 0.324429 0.324429
0.411360 0.411360 0.411360
0.461210 0.461210 0.461210
0.493089 0.493089 0.493089
0.516278 0.516278 0.516278
0.535029 0.535029 0.535029
0.552577 0.552577 0.552577
0.569539 0.569539 0.569539
0.093230 0.093230 0.093230
0.316697 0.316697 0.316697
0.404405 0.404405 0.404405
0.459013 0.459013 0.459013
0.496456 0.496456 0.496456
0.524435 0.524435 0.524435
0.546739 0.546739 0.546739
0.566520 0.566520 0.566520
0.584853 0.584853 0.584853
0.093230 0.093230 0.093230
0.093230 0.093230 0.093230
0.093230 0.093230 0.093230
0.093230 0.093230 0.093230
0.093230 0.093230 0.093230
0.093230 0.093230 0.093230
0.093230 0.093230 0.093230
0.093230 0.093230 0.093230
0.093230 0.093230 0.093230
0.093230 0.093230 0.093230
0.300774 0.300774 0.300774
0.388042 0.388042 0.388042
0.425375 0.425375 0.425375
0.430768 0.430768 0.430768
0.439016 0.439016 0.439016
0.446612 0.446612 0.446612
0.451870 0.451870 0.451870
0.454366 0.454366 0.454366
0.093230 0.093230 0.093230
0.302385 0.302385 0.302385
0.357361 0.357361 0.357361
0.410696 0.410696 0.410696
0.461644 0.461644 0.461644
0.500546 0.500546 0.500546
0.527317 0.527317 0.527317
0.544313 0.544313 0.544313
0.554272 0.554272 0.554272
0.093230 0.093230 0.093230
0.321820 0.321820 0.321820
0.362489 0.362489 0.362489
0.357462 0.357462 0.357462
0.442396 0.442396 0.442396
0.506363 0.506363 0.506363
0.551755 0.551755 0.551755
0.582880 0.582880 0.582880
0.603136 0.603136 0.603136
0.093230 0.093230 0.093230
0.362711 0.362711 0.362711
0.431974 0.431974 0.431974
0.451117 0.451117 0.451117
0.465873 0.465873 0.465873
0.512331 0.512331 0.512331
0.562184 0.562184 0.562184
0.601268 0.601268 0.601268
0.629475 0.629475 0.629475
0.093230 0.093230 0.093230
0.386072 0.386072 0.386072
0.472230 0.472230 0.472230
0.509377 0.509377 0.509377
0.528646 0.528646 0.528646
0.547760 0.547760 0.547760
0.579014 0.579014 0.579014
0.617193 0.617193 0.617193
0.648161 0.648161 0.648161
0.093230 0.093230 0.093230
0.394931 0.394931 0.394931
0.491258 0.491258 0.491258
0.540836 0.540836 0.540836
0.569431 0.569431 0.569431
0.590830 0.590830 0.590830
0.612028 0.612028 0.612028
0.636787 0.636787 0.636787
0.666708 0.666708 0.666708
0.093230 0.093230 0.093230
0.394151 0.394151 0.394151
0.495964 0.495964 0.495964
0.553974 0.553974 0.553974
0.591255 0.591255 0.591255
0.618568 0.618568 0.618568
0.641942 0.641942 0.641942
0.664344 0.664344 0.664344
0.684002 0.684002 0.684002
0.093230 0.093230 0.093230
0.386940 0.386940 0.386940
0.491084 0.491084 0.491084
0.554476 0.554476 0.554476
0.598289 0.598289 0.598289
0.631569 0.631569 0.631569
0.659183 0.659183 0.659183
0.681885 0.681885 0.681885
0.701971 0.701971 0.701971
0.093230 0.093230 0.093230
0.093230 0.093230 0.093230
0.093230 0.093230 0.093230
0.093230 0.093230 0.093230
0.093230 0.093230 0.093230
0.093230 0.093230 0.093230
0.093230 0.093230 0.093230
0.093230 0.093230 0.093230
0.093230 0.093230 0.093230
0.093230 0.093230 0.093230
0.347918 0.347918 0.347918
0.449743 0.449743 0.449743
0.518663 0.518663 0.518663
0.531585 0.531585 0.531585
0.525175 0.525175 0.525175
0.523521 0.523521 0.523521
0.523533 0.523533 0.523533
0.523213 0.523213 0.523213
0.093230 0.093230 0.093230
0.420618 0.420618 0.420618
0.503650 0.503650 0.503650
0.543081 0.543081 0.543081
0.571070 0.571070 0.571070
0.594333 0.594333 0.594333
0.612751 0.612751 0.612751
0.625969 0.625969 0.625969
0.634195 0.634195 0.634195
0.093230 0.093230 0.093230
0.375220 0.375220 0.375220
0.448725 0.448725 0.448725
0.488564 0.488564 0.488564
0.540555 0.540555 0.540555
0.593497 0.593497 0.593497
0.636354 0.636354 0.636354
0.667605 0.667605 0.667605
0.685975 0.685975 0.685975
0.093230 0.093230 0.093230
0.401059 0.401059 0.401059
0.480112 0.480112 0.480112
0.504207 0.504207 0.504207
0.508013 0.508013 0.508013
0.580929 0.580929 0.580929
0.639686 0.639686 0.639686
0.682357 0.682357 0.682357
0.710292 0.710292 0.710292
0.093230 0.093230 0.093230
0.429934 0.429934 0.429934
0.524815 0.524815 0.524815
0.566287 0.566287 0.566287
0.586868 0.586868 0.586868
0.608145 0.608145 0.608145
0.652162 0.652162 0.652162
0.694989 0.694989 0.694989
0.727297 0.727297 0.727297
0.093230 0.093230 0.093230
0.444438 0.444438 0.444438
0.550142 0.550142 0.550142
0.605876 0.605876 0.605876
0.638868 0.638868 0.638868
0.663440 0.663440 0.663440
0.686120 0.686120 0.686120
0.714485 0.714485 0.714485
0.745589 0.745589 0.745589
0.093230 0.093230 0.093230
0.447911 0.447911 0.447911
0.559777 0.559777 0.559777
0.625182 0.625182 0.625182
0.668248 0.668248 0.668248
0.695783 0.695783 0.695783
0.719533 0.719533 0.719533
0.742751 0.742751 0.742751
0.766229 0.766229 0.766229
0.093230 0.093230 0.093230
0.443438 0.443438 0.443438
0.558070 0.558070 0.558070
0.629429 0.629429 0.629429
0.678405 0.678405 0.678405
0.711838 0.711838 0.711838
0.739680 0.739680 0.739680
0.764613 0.764613 0.764613
0.784786 0.784786 0.784786
0.093230 0.093230 0.093230
0.093230 0.093230 0.093230
0.093230 0.093230 0.093230
0.093230 0.093230 0.093230
0.093230 0.093230 0.093230
0.093230 0.093230 0.093230
0.093230 0.093230 0.093230
0.093230 0.093230 0.093230
0.093230 0.093230 0.093230
0.093230 0.093230 0.093230
0.391359 0.391359 0.391359
0.502068 0.502068 0.502068
0.576398 0.576398 0.576398
0.629457 0.629457 0.629457
0.610460 0.610460 0.610460
0.598106 0.598106 0.598106
0.590468 0.590468 0.590468
0.585130 0.585130 0.585130
0.093230 0.093230 0.093230
0.497355 0.497355 0.497355
0.629461 0.629461 0.629461
0.669932 0.669932 0.669932
0.682968 0.682968 0.682968
0.690192 0.690192 0.690192
0.695901 0.695901 0.695901
0.700435 0.700435 0.700435
0.703241 0.703241 0.703241
0.093230 0.093230 0.093230
0.456767 0.456767 0.456767
0.557882 0.557882 0.557882
0.612706 0.612706 0.612706
0.654916 0.654916 0.654916
0.689506 0.689506 0.689506
0.717398 0.717398 0.717398
0.739017 0.739017 0.739017
0.754269 0.754269 0.754269
0.093230 0.093230 0.093230
0.443689 0.443689 0.443689
0.539238 0.539238 0.539238
0.583346 0.583346 0.583346
0.619295 0.619295 0.619295
0.669511 0.669511 0.669511
0.714544 0.714544 0.714544
0.751429 0.751429 0.751429
0.777825 0.777825 0.777825
0.093230 0.093230 0.093230
0.464318 0.464318 0.464318
0.568514 0.568514 0.568514
0.617658 0.617658 0.617658
0.641232 0.641232 0.641232
0.654911 0.654911 0.654911
0.713442 0.713442 0.713442
0.759395 0.759395 0.759395
0.788979 0.788979 0.788979
0.093230 0.093230 0.093230
0.482416 0.482416 0.482416
0.596832 0.596832 0.596832
0.659518 0.659518 0.659518
0.693050 0.693050 0.693050
0.716017 0.716017 0.716017
0.740335 0.740335 0.740335
0.775928 0.775928 0.775928
0.801420 0.801420 0.801420
0.093230 0.093230 0.093230
0.490172 0.490172 0.490172
0.611251 0.611251 0.611251
0.681966 0.681966 0.681966
0.723819 0.723819 0.723819
0.754582 0.754582 0.754582
0.779660 0.779660 0.779660
0.797992 0.797992 0.797992
0.817598 0.817598 0.817598
0.093230 0.093230 0.093230
0.488782 0.488782 0.488782
0.613203 0.613203 0.613203
0.689258 0.689258 0.689258
0.738017 0.738017 0.738017
0.774519 0.774519 0.774519
0.797159 0.797159 0.797159
0.816647 0.816647 0.816647
0.835107 0.835107 0.835107
0.093230 0.093230 0.093230
0.093230 0.093230 0.093230
0.093230 0.093230 0.093230
0.093230 0.093230 0.093230
0.093230 0.093230 0.093230
0.093230 0.093230 0.093230
0.093230 0.093230 0.093230
0.093230 0.093230 0.093230
0.093230 0.093230 0.093230
0.093230 0.093230 0.093230
0.430381 0.430381 0.430381
0.547940 0.547940 0.547940
0.628311 0.628311 0.628311
0.689162 0.689162 0.689162
0.690030 0.690030 0.690030
0.671418 0.671418 0.671418
0.656228 0.656228 0.656228
0.644703 0.644703 0.644703
0.093230 0.093230 0.093230
0.543006 0.543006 0.543006
0.683767 0.683767 0.683767
0.768848 0.768848 0.768848
0.776393 0.776393 0.776393
0.774531 0.774531 0.774531
0.770884 0.770884 0.770884
0.767612 0.767612 0.767612
0.764658 0.764658 0.764658
0.093230 0.093230 0.093230
0.543184 0.543184 0.543184
0.665229 0.665229 0.665229
0.721772 0.721772 0.721772
0.755265 0.755265 0.755265
0.777488 0.777488 0.777488
0.790035 0.790035 0.790035
0.799383 0.799383 0.799383
0.806019 0.806019 0.806019
0.093230 0.093230 0.093230
0.500525 0.500525 0.500525
0.615861 0.615861 0.615861
0.679257 0.679257 0.679257
0.719867 0.719867 0.719867
0.756841 0.756841 0.756841
0.786785 0.786785 0.786785
0.807166 0.807166 0.807166
0.822915 0.822915 0.822915
0.093230 0.093230 0.093230
0.500555 0.500555 0.500555
0.616144 0.616144 0.616144
0.676844 0.676844 0.676844
0.710062 0.710062 0.710062
0.742009 0.742009 0.742009
0.781386 0.781386 0.781386
0.809614 0.809614 0.809614
0.832439 0.832439 0.832439
0.093230 0.093230 0.093230
0.515705 0.515705 0.515705
0.638435 0.638435 0.638435
0.703285 0.703285 0.703285
0.740303 0.740303 0.740303
0.765025 0.765025 0.765025
0.782937 0.782937 0.782937
0.816397 0.816397 0.816397
0.843018 0.843018 0.843018
0.093230 0.093230 0.093230
0.525753 0.525753 0.525753
0.655317 0.655317 0.655317
0.726012 0.726012 0.726012
0.771475 0.771475 0.771475
0.796683 0.796683 0.796683
0.816284 0.816284 0.816284
0.836181 0.836181 0.836181
0.859081 0.859081 0.859081
0.093230 0.093230 0.093230
0.527394 0.527394 0.527394
0.660761 0.660761 0.660761
0.736405 0.736405 0.736405
0.785451 0.785451 0.785451
0.813473 0.813473 0.813473
0.836817 0.836817 0.836817
0.858119 0.858119 0.858119
0.878576 0.878576 0.878576
0.093230 0.093230 0.093230
0.093230 0.093230 0.093230
0.093230 0.093230 0.093230
0.093230 0.093230 0.093230
0.093230 0.093230 0.093230
0.093230 0.093230 0.093230
0.093230 0.093230 0.093230
0.093230 0.093230 0.093230
0.093230 0.093230 0.093230
0.093230 0.093230 0.093230
0.464379 0.464379 0.464379
0.589383 0.589383 0.589383
0.674824 0.674824 0.674824
0.734230 0.734230 0.734230
0.755642 0.755642 0.755642
0.732027 0.732027 0.732027
0.712678 0.712678 0.712678
0.697449 0.697449 0.697449
0.093230 0.093230 0.093230
0.584077 0.584077 0.584077
0.728483 0.728483 0.728483
0.806512 0.806512 0.806512
0.834059 0.834059 0.834059
0.829487 0.829487 0.829487
0.822207 0.822207 0.822207
0.815092 0.815092 0.815092
0.808835 0.808835 0.808835
0.093230 0.093230 0.093230
0.622493 0.622493 0.622493
0.750720 0.750720 0.750720
0.801674 0.801674 0.801674
0.823807 0.823807 0.823807
0.835493 0.835493 0.835493
0.842127 0.842127 0.842127
0.846152 0.846152 0.846152
0.848451 0.848451 0.848451
0.093230 0.093230 0.093230
0.565047 0.565047 0.565047
0.695452 0.695452 0.695452
0.763228 0.763228 0.763228
0.798160 0.798160 0.798160
0.820901 0.820901 0.820901
0.839220 0.839220 0.839220
0.854113 0.854113 0.854113
0.865653 0.865653 0.865653
0.093230 0.093230 0.093230
0.543685 0.543685 0.543685
0.673166 0.673166 0.673166
0.739761 0.739761 0.739761
0.782254 0.782254 0.782254
0.808021 0.808021 0.808021
0.832460 0.832460 0.832460
0.855104 0.855104 0.855104
0.874214 0.874214 0.874214
0.093230 0.093230 0.093230
0.547726 0.547726 0.547726
0.679055 0.679055 0.679055
0.747582 0.747582 0.747582
0.787162 0.787162 0.787162
0.809978 0.809978 0.809978
0.832606 0.832606 0.832606
0.858686 0.858686 0.858686
0.881954 0.881954 0.881954
0.093230 0.093230 0.093230
0.556841 0.556841 0.556841
0.691738 0.691738 0.691738
0.765930 0.765930 0.765930
0.804185 0.804185 0.804185
0.829554 0.829554 0.829554
0.850305 0.850305 0.850305
0.869617 0.869617 0.869617
0.892085 0.892085 0.892085
0.093230 0.093230 0.093230
0.560573 0.560573 0.560573
0.698368 0.698368 0.698368
0.777231 0.777231 0.777231
0.816883 0.816883 0.816883
0.846888 0.846888 0.846888
0.871943 0.871943 0.871943
0.890711 0.890711 0.890711
0.906951 0.906951 0.906951
0.093230 0.093230 0.093230
0.093230 0.093230 0.093230
0.093230 0.093230 0.093230
0.093230 0.093230 0.093230
0.093230 0.093230 0.093230
0.093230 0.093230 0.093230
0.093230 0.093230 0.093230
0.093230 0.093230 0.093230
0.093230 0.093230 0.093230
0.093230 0.093230 0.093230
0.495993 0.495993 0.495993
0.627809 0.627809 0.627809
0.712888 0.712888 0.712888
0.774785 0.774785 0.774785
0.801210 0.801210 0.801210
0.783507 0.783507 0.783507
0.763297 0.763297 0.763297
0.743903 0.743903 0.743903
0.093230 0.093230 0.093230
0.622156 0.622156 0.622156
0.769055 0.769055 0.769055
0.837667 0.837667 0.837667
0.880863 0.880863 0.880863
0.876089 0.876089 0.876089
0.866258 0.866258 0.866258
0.855765 0.855765 0.855765
0.846076 0.846076 0.846076
0.093230 0.093230 0.093230
0.688651 0.688651 0.688651
0.808795 0.808795 0.808795
0.854963 0.854963 0.854963
0.877200 0.877200 0.877200
0.884697 0.884697 0.884697
0.886853 0.886853 0.886853
0.886777 0.886777 0.886777
0.885628 0.885628 0.885628
0.093230 0.093230 0.093230
0.629096 0.629096 0.629096
0.764924 0.764924 0.764924
0.820512 0.820512 0.820512
0.852391 0.852391 0.852391
0.873244 0.873244 0.873244
0.885526 0.885526 0.885526
0.893195 0.893195 0.893195
0.898682 0.898682 0.898682
0.093230 0.093230 0.093230
0.592622 0.592622 0.592622
0.728728 0.728728 0.728728
0.796270 0.796270 0.796270
0.831747 0.831747 0.831747
0.858292 0.858292 0.858292
0.879931 0.879931 0.879931
0.893451 0.893451 0.893451
0.904558 0.904558 0.904558
0.093230 0.093230 0.093230
0.582994 0.582994 0.582994
0.719354 0.719354 0.719354
0.790022 0.790022 0.790022
0.825986 0.825986 0.825986
0.853449 0.853449 0.853449
0.877698 0.877698 0.877698
0.894893 0.894893 0.894893
0.909874 0.909874 0.909874
0.093230 0.093230 0.093230
0.586941 0.586941 0.586941
0.725357 0.725357 0.725357
0.796446 0.796446 0.796446
0.834404 0.834404 0.834404
0.862741 0.862741 0.862741
0.884634 0.884634 0.884634
0.901529 0.901529 0.901529
0.918505 0.918505 0.918505
0.093230 0.093230 0.093230
0.590946 0.590946 0.590946
0.731779 0.731779 0.731779
0.803890 0.803890 0.803890
0.845448 0.845448 0.845448
0.877450 0.877450 0.877450
0.897498 0.897498 0.897498
0.915124 0.915124 0.915124
0.932292 0.932292 0.932292
