trix_modern/TriX_Blue47_ExtraPunchy.cube
TITLE "Tri-X Blue47 ExtraPunchy"
# Adobe RGB in/out. REPLACES AgX. R=0.0336 G=0.0311 B=0.9353
LUT_3D_SIZE 9
DOMAIN_MIN 0.0 0.0 0.0
DOMAIN_MAX 1.0 1.0 1.0
0.092237 0.092237 0.092237
0.092237 0.092237 0.092237
0.092237 0.092237 0.092237
0.092237 0.092237 0.092237
0.092237 0.092237 0.092237
0.092237 0.092237 0.092237
0.092237 0.092237 0.092237
0.092237 0.092237 0.092237
0.092237 0.092237 0.092237
0.092237 0.092237 0.092237
0.092237 0.092237 0.092237
0.092237 0.092237 0.092237
0.092237 0.092237 0.092237
0.092237 0.092237 0.092237
0.092237 0.092237 0.092237
0.092237 0.092237 0.092237
0.092237 0.092237 0.092237
0.092237 0.092237 0.092237
0.092237 0.092237 0.092237
0.092237 0.092237 0.092237
0.092237 0.092237 0.092237
0.092237 0.092237 0.092237
0.092237 0.092237 0.092237
0.092237 0.092237 0.092237
0.092237 0.092237 0.092237
0.092237 0.092237 0.092237
0.092237 0.092237 0.092237
0.092237 0.092237 0.092237
0.092237 0.092237 0.092237
0.092237 0.092237 0.092237
0.092237 0.092237 0.092237
0.092237 0.092237 0.092237
0.092237 0.092237 0.092237
0.092237 0.092237 0.092237
0.092237 0.092237 0.092237
0.092237 0.092237 0.092237
0.092237 0.092237 0.092237
0.092237 0.092237 0.092237
0.092237 0.092237 0.092237
0.092237 0.092237 0.092237
0.092237 0.092237 0.092237
0.092237 0.092237 0.092237
0.092237 0.092237 0.092237
0.092237 0.092237 0.092237
0.092237 0.092237 0.092237
0.092237 0.092237 0.092237
0.092237 0.092237 0.092237
0.092237 0.092237 0.092237
0.092237 0.092237 0.092237
0.092237 0.092237 0.092237
0.092237 0.092237 0.092237
0.092237 0.092237 0.092237
0.092237 0.092237 0.092237
0.092237 0.092237 0.092237
0.092237 0.092237 0.092237
0.092237 0.092237 0.092237
0.092237 0.092237 0.092237
0.092237 0.092237 0.092237
0.092237 0.092237 0.092237
0.092237 0.092237 0.092237
0.092237 0.092237 0.092237
0.092237 0.092237 0.092237
0.092237 0.092237 0.092237
0.092237 0.092237 0.092237
0.092237 0.092237 0.092237
0.092237 0.092237 0.092237
0.092237 0.092237 0.092237
0.092237 0.092237 0.092237
0.092237 0.092237 0.092237
0.092237 0.092237 0.092237
0.092237 0.092237 0.092237
0.092237 0.092237 0.092237
0.092237 0.092237 0.092237
0.092237 0.092237 0.092237
0.092237 0.092237 0.092237
0.092237 0.092237 0.092237
0.092237 0.092237 0.092237
0.092237 0.092237 0.092237
0.092237 0.092237 0.092237
0.092237 0.092237 0.092237
0.092237 0.092237 0.092237
0.092237 0.092237 0.092237
0.092237 0.092237 0.092237
0.092237 0.092237 0.092237
0.092237 0.092237 0.092237
0.092237 0.092237 0.092237
0.092237 0.092237 0.092237
0.092237 0.092237 0.092237
0.092237 0.092237 0.092237
0.092237 0.092237 0.092237
0.092237 0.092237 0.092237
0.092694 0.092694 0.092694
0.095183 0.095183 0.095183
0.097399 0.097399 0.097399
0.097862 0.097862 0.097862
0.097419 0.097419 0.097419
0.096783 0.096783 0.096783
0.095997 0.095997 0.095997
0.095129 0.095129 0.095129
0.092237 0.092237 0.092237
0.096469 0.096469 0.096469
0.093682 0.093682 0.093682
0.094177 0.094177 0.094177
0.095297 0.095297 0.095297
0.095962 0.095962 0.095962
0.095963 0.095963 0.095963
0.095586 0.095586 0.095586
0.094988 0.094988 0.094988
0.092237 0.092237 0.092237
0.098360 0.098360 0.098360
0.095201 0.095201 0.095201
0.093974 0.093974 0.093974
0.094021 0.094021 0.094021
0.094333 0.094333 0.094333
0.094511 0.094511 0.094511
0.094524 0.094524 0.094524
0.094417 0.094417 0.094417
0.092237 0.092237 0.092237
0.097547 0.097547 0.097547
0.096144 0.096144 0.096144
0.094426 0.094426 0.094426
0.093968 0.093968 0.093968
0.093878 0.093878 0.093878
0.094036 0.094036 0.094036
0.094108 0.094108 0.094108
0.094092 0.094092 0.094092
0.092237 0.092237 0.092237
0.096445 0.096445 0.096445
0.095859 0.095859 0.095859
0.094624 0.094624 0.094624
0.094138 0.094138 0.094138
0.093854 0.093854 0.093854
0.093727 0.093727 0.093727
0.093792 0.093792 0.093792
0.093803 0.093803 0.093803
0.092237 0.092237 0.092237
0.095084 0.095084 0.095084
0.094971 0.094971 0.094971
0.094428 0.094428 0.094428
0.094130 0.094130 0.094130
0.093879 0.093879 0.093879
0.093693 0.093693 0.093693
0.093571 0.093571 0.093571
0.093577 0.093577 0.093577
0.092237 0.092237 0.092237
0.094196 0.094196 0.094196
0.094252 0.094252 0.094252
0.094142 0.094142 0.094142
0.093965 0.093965 0.093965
0.093782 0.093782 0.093782
0.093626 0.093626 0.093626
0.093507 0.093507 0.093507
0.093419 0.093419 0.093419
0.092237 0.092237 0.092237
0.093684 0.093684 0.093684
0.093798 0.093798 0.093798
0.093773 0.093773 0.093773
0.093684 0.093684 0.093684
0.093573 0.093573 0.093573
0.093467 0.093467 0.093467
0.093377 0.093377 0.093377
0.093306 0.093306 0.093306
0.092237 0.092237 0.092237
0.092237 0.092237 0.092237
0.092237 0.092237 0.092237
0.092237 0.092237 0.092237
0.092237 0.092237 0.092237
0.092237 0.092237 0.092237
0.092237 0.092237 0.092237
0.092237 0.092237 0.092237
0.092237 0.092237 0.092237
0.092237 0.092237 0.092237
0.326058 0.326058 0.326058
0.287357 0.287357 0.287357
0.275633 0.275633 0.275633
0.268105 0.268105 0.268105
0.258342 0.258342 0.258342
0.246310 0.246310 0.246310
0.232885 0.232885 0.232885
0.218814 0.218814 0.218814
0.092237 0.092237 0.092237
0.201367 0.201367 0.201367
0.134598 0.134598 0.134598
0.183750 0.183750 0.183750
0.214164 0.214164 0.214164
0.228114 0.228114 0.228114
0.230175 0.230175 0.230175
0.225226 0.225226 0.225226
0.216323 0.216323 0.216323
0.092237 0.092237 0.092237
0.240540 0.240540 0.240540
0.195445 0.195445 0.195445
0.164642 0.164642 0.164642
0.176219 0.176219 0.176219
0.194451 0.194451 0.194451
0.204462 0.204462 0.204462
0.207079 0.207079 0.207079
0.204403 0.204403 0.204403
0.092237 0.092237 0.092237
0.246449 0.246449 0.246449
0.222152 0.222152 0.222152
0.192763 0.192763 0.192763
0.175267 0.175267 0.175267
0.175970 0.175970 0.175970
0.184925 0.184925 0.184925
0.189991 0.189991 0.189991
0.190745 0.190745 0.190745
0.092237 0.092237 0.092237
0.234362 0.234362 0.234362
0.224495 0.224495 0.224495
0.204648 0.204648 0.204648
0.187518 0.187518 0.187518
0.176741 0.176741 0.176741
0.173855 0.173855 0.173855
0.177714 0.177714 0.177714
0.179234 0.179234 0.179234
0.092237 0.092237 0.092237
0.215278 0.215278 0.215278
0.213654 0.213654 0.213654
0.202979 0.202979 0.202979
0.190669 0.190669 0.190669
0.180547 0.180547 0.180547
0.173785 0.173785 0.173785
0.170175 0.170175 0.170175
0.171082 0.171082 0.171082
0.092237 0.092237 0.092237
0.195195 0.195195 0.195195
0.197791 0.197791 0.197791
0.193145 0.193145 0.193145
0.185812 0.185812 0.185812
0.178561 0.178561 0.178561
0.172739 0.172739 0.172739
0.168598 0.168598 0.168598
0.165750 0.165750 0.165750
0.092237 0.092237 0.092237
0.175312 0.175312 0.175312
0.179946 0.179946 0.179946
0.179061 0.179061 0.179061
0.175670 0.175670 0.175670
0.171530 0.171530 0.171530
0.167694 0.167694 0.167694
0.164612 0.164612 0.164612
0.162288 0.162288 0.162288
0.092237 0.092237 0.092237
0.092237 0.092237 0.092237
0.092237 0.092237 0.092237
0.092237 0.092237 0.092237
0.092237 0.092237 0.092237
0.092237 0.092237 0.092237
0.092237 0.092237 0.092237
0.092237 0.092237 0.092237
0.092237 0.092237 0.092237
0.092237 0.092237 0.092237
0.705679 0.705679 0.705679
0.731180 0.731180 0.731180
0.693074 0.693074 0.693074
0.618776 0.618776 0.618776
0.569493 0.569493 0.569493
0.533600 0.533600 0.533600
0.502014 0.502014 0.502014
0.471385 0.471385 0.471385
0.092237 0.092237 0.092237
0.513699 0.513699 0.513699
0.467044 0.467044 0.467044
0.469913 0.469913 0.469913
0.490895 0.490895 0.490895
0.500581 0.500581 0.500581
0.497135 0.497135 0.497135
0.484285 0.484285 0.484285
0.465462 0.465462 0.465462
0.092237 0.092237 0.092237
0.461873 0.461873 0.461873
0.387218 0.387218 0.387218
0.305507 0.305507 0.305507
0.369696 0.369696 0.369696
0.412957 0.412957 0.412957
0.436306 0.436306 0.436306
0.443263 0.443263 0.443263
0.438606 0.438606 0.438606
0.092237 0.092237 0.092237
0.484692 0.484692 0.484692
0.443002 0.443002 0.443002
0.384152 0.384152 0.384152
0.348355 0.348355 0.348355
0.363689 0.363689 0.363689
0.388918 0.388918 0.388918
0.403665 0.403665 0.403665
0.407830 0.407830 0.407830
0.092237 0.092237 0.092237
0.477246 0.477246 0.477246
0.460138 0.460138 0.460138
0.421158 0.421158 0.421158
0.385747 0.385747 0.385747
0.364964 0.364964 0.364964
0.365543 0.365543 0.365543
0.377173 0.377173 0.377173
0.383210 0.383210 0.383210
0.092237 0.092237 0.092237
0.450028 0.450028 0.450028
0.447916 0.447916 0.447916
0.426235 0.426235 0.426235
0.400776 0.400776 0.400776
0.380105 0.380105 0.380105
0.367314 0.367314 0.367314
0.363113 0.363113 0.363113
0.366946 0.366946 0.366946
0.092237 0.092237 0.092237
0.413778 0.413778 0.413778
0.420031 0.420031 0.420031
0.410770 0.410770 0.410770
0.395867 0.395867 0.395867
0.380983 0.380983 0.380983
0.369364 0.369364 0.369364
0.361696 0.361696 0.361696
0.357061 0.357061 0.357061
0.092237 0.092237 0.092237
0.375399 0.375399 0.375399
0.385774 0.385774 0.385774
0.384342 0.384342 0.384342
0.377541 0.377541 0.377541
0.369161 0.369161 0.369161
0.361533 0.361533 0.361533
0.355675 0.355675 0.355675
0.351565 0.351565 0.351565
0.092237 0.092237 0.092237
0.092237 0.092237 0.092237
0.092237 0.092237 0.092237
0.092237 0.092237 0.092237
0.092237 0.092237 0.092237
0.092237 0.092237 0.092237
0.092237 0.092237 0.092237
0.092237 0.092237 0.092237
0.092237 0.092237 0.092237
0.092237 0.092237 0.092237
0.907513 0.907513 0.907513
0.919216 0.919216 0.919216
0.924906 0.924906 0.924906
0.898018 0.898018 0.898018
0.857462 0.857462 0.857462
0.823397 0.823397 0.823397
0.793451 0.793451 0.793451
0.759773 0.759773 0.759773
0.092237 0.092237 0.092237
0.892948 0.892948 0.892948
0.876242 0.876242 0.876242
0.849106 0.849106 0.849106
0.827982 0.827982 0.827982
0.812500 0.812500 0.812500
0.796070 0.796070 0.796070
0.775241 0.775241 0.775241
0.753255 0.753255 0.753255
0.092237 0.092237 0.092237
0.754234 0.754234 0.754234
0.718149 0.718149 0.718149
0.677509 0.677509 0.677509
0.690180 0.690180 0.690180
0.717574 0.717574 0.717574
0.731284 0.731284 0.731284
0.732679 0.732679 0.732679
0.725769 0.725769 0.725769
0.092237 0.092237 0.092237
0.735575 0.735575 0.735575
0.699132 0.699132 0.699132
0.624681 0.624681 0.624681
0.545947 0.545947 0.545947
0.611666 0.611666 0.611666
0.654581 0.654581 0.654581
0.675575 0.675575 0.675575
0.681727 0.681727 0.681727
0.092237 0.092237 0.092237
0.734594 0.734594 0.734594
0.721433 0.721433 0.721433
0.675139 0.675139 0.675139
0.624816 0.624816 0.624816
0.592410 0.592410 0.592410
0.608072 0.608072 0.608072
0.632834 0.632834 0.632834
0.645545 0.645545 0.645545
0.092237 0.092237 0.092237
0.715956 0.715956 0.715956
0.715559 0.715559 0.715559
0.689964 0.689964 0.689964
0.657347 0.657347 0.657347
0.628133 0.628133 0.628133
0.610193 0.610193 0.610193
0.610681 0.610681 0.610681
0.620203 0.620203 0.620203
0.092237 0.092237 0.092237
0.678140 0.678140 0.678140
0.687644 0.687644 0.687644
0.676767 0.676767 0.676767
0.657733 0.657733 0.657733
0.638006 0.638006 0.638006
0.620861 0.620861 0.620861
0.610767 0.610767 0.610767
0.606989 0.606989 0.606989
0.092237 0.092237 0.092237
0.630426 0.630426 0.630426
0.646998 0.646998 0.646998
0.645978 0.645978 0.645978
0.637017 0.637017 0.637017
0.624693 0.624693 0.624693
0.613668 0.613668 0.613668
0.605745 0.605745 0.605745
0.600886 0.600886 0.600886
0.092237 0.092237 0.092237
0.092237 0.092237 0.092237
0.092237 0.092237 0.092237
0.092237 0.092237 0.092237
0.092237 0.092237 0.092237
0.092237 0.092237 0.092237
0.092237 0.092237 0.092237
0.092237 0.092237 0.092237
0.092237 0.092237 0.092237
0.092237 0.092237 0.092237
0.979373 0.979373 0.979373
0.981444 0.981444 0.981444
0.982657 0.982657 0.982657
0.982808 0.982808 0.982808
0.968473 0.968473 0.968473
0.949711 0.949711 0.949711
0.927604 0.927604 0.927604
0.907573 0.907573 0.907573
0.092237 0.092237 0.092237
0.981293 0.981293 0.981293
0.983368 0.983368 0.983368
0.978232 0.978232 0.978232
0.964655 0.964655 0.964655
0.950567 0.950567 0.950567
0.933604 0.933604 0.933604
0.919300 0.919300 0.919300
0.903284 0.903284 0.903284
0.092237 0.092237 0.092237
0.932547 0.932547 0.932547
0.927851 0.927851 0.927851
0.917659 0.917659 0.917659
0.908809 0.908809 0.908809
0.903664 0.903664 0.903664
0.899343 0.899343 0.899343
0.893590 0.893590 0.893590
0.885744 0.885744 0.885744
0.092237 0.092237 0.092237
0.884227 0.884227 0.884227
0.875355 0.875355 0.875355
0.850556 0.850556 0.850556
0.834973 0.834973 0.834973
0.841712 0.841712 0.841712
0.853813 0.853813 0.853813
0.860901 0.860901 0.860901
0.861684 0.861684 0.861684
0.092237 0.092237 0.092237
0.874338 0.874338 0.874338
0.869347 0.869347 0.869347
0.846166 0.846166 0.846166
0.817736 0.817736 0.817736
0.785523 0.785523 0.785523
0.814985 0.814985 0.814985
0.829815 0.829815 0.829815
0.837086 0.837086 0.837086
0.092237 0.092237 0.092237
0.865354 0.865354 0.865354
0.866842 0.866842 0.866842
0.853836 0.853836 0.853836
0.835439 0.835439 0.835439
0.818435 0.818435 0.818435
0.809209 0.809209 0.809209
0.814490 0.814490 0.814490
0.821572 0.821572 0.821572
0.092237 0.092237 0.092237
0.847749 0.847749 0.847749
0.854335 0.854335 0.854335
0.849042 0.849042 0.849042
0.838626 0.838626 0.838626
0.827568 0.827568 0.827568
0.819093 0.819093 0.819093
0.814832 0.814832 0.814832
0.815097 0.815097 0.815097
0.092237 0.092237 0.092237
0.823502 0.823502 0.823502
0.833352 0.833352 0.833352
0.833469 0.833469 0.833469
0.829111 0.829111 0.829111
0.823314 0.823314 0.823314
0.818159 0.818159 0.818159
0.814772 0.814772 0.814772
0.813209 0.813209 0.813209
0.092237 0.092237 0.092237
0.092237 0.092237 0.092237
0.092237 0.092237 0.092237
0.092237 0.092237 0.092237
0.092237 0.092237 0.092237
0.092237 0.092237 0.092237
0.092237 0.092237 0.092237
0.092237 0.092237 0.092237
0.092237 0.092237 0.092237
0.092237 0.092237 0.092237
0.992062 0.992062 0.992062
0.992644 0.992644 0.992644
0.992985 0.992985 0.992985
0.993227 0.993227 0.993227
0.991786 0.991786 0.991786
0.986836 0.986836 0.986836
0.981348 0.981348 0.981348
0.972961 0.972961 0.972961
0.092237 0.092237 0.092237
0.992602 0.992602 0.992602
0.993184 0.993184 0.993184
0.993501 0.993501 0.993501
0.991864 0.991864 0.991864
0.988385 0.988385 0.988385
0.983647 0.983647 0.983647
0.979619 0.979619 0.979619
0.971041 0.971041 0.971041
0.092237 0.092237 0.092237
0.987321 0.987321 0.987321
0.986937 0.986937 0.986937
0.984717 0.984717 0.984717
0.982050 0.982050 0.982050
0.979547 0.979547 0.979547
0.974271 0.974271 0.974271
0.968633 0.968633 0.968633
0.963102 0.963102 0.963102
0.092237 0.092237 0.092237
0.966597 0.966597 0.966597
0.966279 0.966279 0.966279
0.961866 0.961866 0.961866
0.957817 0.957817 0.957817
0.955506 0.955506 0.955506
0.954383 0.954383 0.954383
0.953036 0.953036 0.953036
0.950080 0.950080 0.950080
0.092237 0.092237 0.092237
0.950355 0.950355 0.950355
0.949936 0.949936 0.949936
0.940315 0.940315 0.940315
0.928754 0.928754 0.928754
0.922782 0.922782 0.922782
0.925867 0.925867 0.925867
0.930676 0.930676 0.930676
0.933036 0.933036 0.933036
0.092237 0.092237 0.092237
0.941247 0.941247 0.941247
0.943443 0.943443 0.943443
0.937088 0.937088 0.937088
0.927008 0.927008 0.927008
0.916491 0.916491 0.916491
0.905124 0.905124 0.905124
0.916368 0.916368 0.916368
0.921314 0.921314 0.921314
0.092237 0.092237 0.092237
0.931762 0.931762 0.931762
0.936512 0.936512 0.936512
0.934113 0.934113 0.934113
0.928447 0.928447 0.928447
0.922033 0.922033 0.922033
0.916862 0.916862 0.916862
0.914333 0.914333 0.914333
0.916501 0.916501 0.916501
0.092237 0.092237 0.092237
0.918654 0.918654 0.918654
0.925239 0.925239 0.925239
0.925853 0.925853 0.925853
0.923707 0.923707 0.923707
0.920614 0.920614 0.920614
0.917882 0.917882 0.917882
0.916320 0.916320 0.916320
0.916055 0.916055 0.916055
0.092237 0.092237 0.092237
0.092237 0.092237 0.092237
0.092237 0.092237 0.092237
0.092237 0.092237 0.092237
0.092237 0.092237 0.092237
0.092237 0.092237 0.092237
0.092237 0.092237 0.092237
0.092237 0.092237 0.092237
0.092237 0.092237 0.092237
0.092237 0.092237 0.092237
0.995612 0.995612 0.995612
0.995612 0.995612 0.995612
0.995612 0.995612 0.995612
0.995612 0.995612 0.995612
0.995612 0.995612 0.995612
0.994083 0.994083 0.994083
0.992384 0.992384 0.992384
0.990516 0.990516 0.990516
0.092237 0.092237 0.092237
0.995612 0.995612 0.995612
0.995612 0.995612 0.995612
0.995612 0.995612 0.995612
0.995612 0.995612 0.995612
0.994795 0.994795 0.994795
0.993265 0.993265 0.993265
0.991929 0.991929 0.991929
0.989868 0.989868 0.989868
0.092237 0.092237 0.092237
0.995032 0.995032 0.995032
0.994973 0.994973 0.994973
0.994328 0.994328 0.994328
0.993429 0.993429 0.993429
0.992473 0.992473 0.992473
0.991561 0.991561 0.991561
0.989711 0.989711 0.989711
0.987005 0.987005 0.987005
0.092237 0.092237 0.092237
0.990874 0.990874 0.990874
0.991197 0.991197 0.991197
0.990278 0.990278 0.990278
0.988746 0.988746 0.988746
0.987205 0.987205 0.987205
0.985801 0.985801 0.985801
0.984474 0.984474 0.984474
0.983089 0.983089 0.983089
0.092237 0.092237 0.092237
0.982907 0.982907 0.982907
0.983473 0.983473 0.983473
0.982465 0.982465 0.982465
0.981065 0.981065 0.981065
0.980061 0.980061 0.980061
0.979674 0.979674 0.979674
0.979562 0.979562 0.979562
0.979315 0.979315 0.979315
0.092237 0.092237 0.092237
0.979354 0.979354 0.979354
0.980123 0.980123 0.980123
0.979281 0.979281 0.979281
0.975471 0.975471 0.975471
0.971387 0.971387 0.971387
0.969547 0.969547 0.969547
0.970657 0.970657 0.970657
0.971997 0.971997 0.971997
0.092237 0.092237 0.092237
0.973850 0.973850 0.973850
0.976965 0.976965 0.976965
0.976188 0.976188 0.976188
0.973571 0.973571 0.973571
0.970373 0.970373 0.970373
0.967531 0.967531 0.967531
0.965686 0.965686 0.965686
0.968059 0.968059 0.968059
0.092237 0.092237 0.092237
0.967079 0.967079 0.967079
0.971083 0.971083 0.971083
0.971769 0.971769 0.971769
0.970915 0.970915 0.970915
0.969493 0.969493 0.969493
0.968221 0.968221 0.968221
0.967607 0.967607 0.967607
0.967850 0.967850 0.967850
0.092237 0.092237 0.092237
0.092237 0.092237 0.092237
0.092237 0.092237 0.092237
0.092237 0.092237 0.092237
0.092237 0.092237 0.092237
0.092237 0.092237 0.092237
0.092237 0.092237 0.092237
0.092237 0.092237 0.092237
0.092237 0.092237 0.092237
0.092237 0.092237 0.092237
0.995612 0.995612 0.995612
0.995612 0.995612 0.995612
0.995612 0.995612 0.995612
0.995612 0.995612 0.995612
0.995612 0.995612 0.995612
0.995612 0.995612 0.995612
0.995612 0.995612 0.995612
0.994325 0.994325 0.994325
0.092237 0.092237 0.092237
0.995612 0.995612 0.995612
0.995612 0.995612 0.995612
0.995612 0.995612 0.995612
0.995612 0.995612 0.995612
0.995612 0.995612 0.995612
0.995612 0.995612 0.995612
0.995454 0.995454 0.995454
0.994151 0.994151 0.994151
0.092237 0.092237 0.092237
0.995612 0.995612 0.995612
0.995612 0.995612 0.995612
0.995612 0.995612 0.995612
0.995612 0.995612 0.995612
0.995612 0.995612 0.995612
0.995310 0.995310 0.995310
0.994286 0.994286 0.994286
0.993338 0.993338 0.993338
0.092237 0.092237 0.092237
0.995163 0.995163 0.995163
0.995357 0.995357 0.995357
0.995082 0.995082 0.995082
0.994582 0.994582 0.994582
0.993996 0.993996 0.993996
0.993398 0.993398 0.993398
0.992813 0.992813 0.992813
0.992239 0.992239 0.992239
0.092237 0.092237 0.092237
0.992421 0.992421 0.992421
0.992692 0.992692 0.992692
0.992555 0.992555 0.992555
0.992257 0.992257 0.992257
0.991939 0.991939 0.991939
0.991657 0.991657 0.991657
0.991405 0.991405 0.991405
0.991144 0.991144 0.991144
0.092237 0.092237 0.092237
0.990322 0.990322 0.990322
0.991202 0.991202 0.991202
0.991019 0.991019 0.991019
0.990125 0.990125 0.990125
0.989205 0.989205 0.989205
0.988614 0.988614 0.988614
0.988375 0.988375 0.988375
0.988212 0.988212 0.988212
0.092237 0.092237 0.092237
0.987463 0.987463 0.987463
0.988735 0.988735 0.988735
0.988696 0.988696 0.988696
0.988056 0.988056 0.988056
0.987175 0.987175 0.987175
0.986446 0.986446 0.986446
0.986202 0.986202 0.986202
0.986398 0.986398 0.986398
0.092237 0.092237 0.092237
0.984955 0.984955 0.984955
0.986526 0.986526 0.986526
0.986907 0.986907 0.986907
0.986738 0.986738 0.986738
0.986351 0.986351 0.986351
0.985993 0.985993 0.985993
0.985844 0.985844 0.985844
0.986028 0.986028 0.986028
