trix_modern/TriX_Red25_Normal.cube
TITLE "Tri-X Red25 Normal"
# Adobe RGB in/out. REPLACES AgX. R=0.9735 G=0.0265 B=0.0000
LUT_3D_SIZE 9
DOMAIN_MIN 0.0 0.0 0.0
DOMAIN_MAX 1.0 1.0 1.0
0.093230 0.093230 0.093230
0.093230 0.093230 0.093230
0.093230 0.093230 0.093230
0.093230 0.093230 0.093230
0.093230 0.093230 0.093230
0.093230 0.093230 0.093230
0.093230 0.093230 0.093230
0.093230 0.093230 0.093230
0.093230 0.093230 0.093230
0.093230 0.093230 0.093230
0.103670 0.103670 0.103670
0.311446 0.311446 0.311446
0.540716 0.540716 0.540716
0.730283 0.730283 0.730283
0.848057 0.848057 0.848057
0.920247 0.920247 0.920247
0.959601 0.959601 0.959601
0.975654 0.975654 0.975654
0.093230 0.093230 0.093230
0.130715 0.130715 0.130715
0.282044 0.282044 0.282044
0.464853 0.464853 0.464853
0.669950 0.669950 0.669950
0.817079 0.817079 0.817079
0.905426 0.905426 0.905426
0.954880 0.954880 0.954880
0.974767 0.974767 0.974767
0.093230 0.093230 0.093230
0.134275 0.134275 0.134275
0.310025 0.310025 0.310025
0.447288 0.447288 0.447288
0.607645 0.607645 0.607645
0.776754 0.776754 0.776754
0.880353 0.880353 0.880353
0.944185 0.944185 0.944185
0.971663 0.971663 0.971663
0.093230 0.093230 0.093230
0.128427 0.128427 0.128427
0.316025 0.316025 0.316025
0.464760 0.464760 0.464760
0.598543 0.598543 0.598543
0.736098 0.736098 0.736098
0.849431 0.849431 0.849431
0.924260 0.924260 0.924260
0.964033 0.964033 0.964033
0.093230 0.093230 0.093230
0.120351 0.120351 0.120351
0.309007 0.309007 0.309007
0.467423 0.467423 0.467423
0.606516 0.606516 0.606516
0.731188 0.731188 0.731188
0.827678 0.827678 0.827678
0.906983 0.906983 0.906983
0.955065 0.955065 0.955065
0.093230 0.093230 0.093230
0.113744 0.113744 0.113744
0.295597 0.295597 0.295597
0.457583 0.457583 0.457583
0.602730 0.602730 0.602730
0.730337 0.730337 0.730337
0.824103 0.824103 0.824103
0.894710 0.894710 0.894710
0.947998 0.947998 0.947998
0.093230 0.093230 0.093230
0.107549 0.107549 0.107549
0.279469 0.279469 0.279469
0.439879 0.439879 0.439879
0.588288 0.588288 0.588288
0.720622 0.720622 0.720622
0.818561 0.818561 0.818561
0.890737 0.890737 0.890737
0.942649 0.942649 0.942649
0.093230 0.093230 0.093230
0.103720 0.103720 0.103720
0.259769 0.259769 0.259769
0.417374 0.417374 0.417374
0.566227 0.566227 0.566227
0.702738 0.702738 0.702738
0.807609 0.807609 0.807609
0.883546 0.883546 0.883546
0.936673 0.936673 0.936673
0.093230 0.093230 0.093230
0.093230 0.093230 0.093230
0.093230 0.093230 0.093230
0.093230 0.093230 0.093230
0.093230 0.093230 0.093230
0.093230 0.093230 0.093230
0.093230 0.093230 0.093230
0.093230 0.093230 0.093230
0.093230 0.093230 0.093230
0.093230 0.093230 0.093230
0.097009 0.097009 0.097009
0.299593 0.299593 0.299593
0.525115 0.525115 0.525115
0.716407 0.716407 0.716407
0.840365 0.840365 0.840365
0.916140 0.916140 0.916140
0.958005 0.958005 0.958005
0.975213 0.975213 0.975213
0.093230 0.093230 0.093230
0.119753 0.119753 0.119753
0.256338 0.256338 0.256338
0.443563 0.443563 0.443563
0.652742 0.652742 0.652742
0.809261 0.809261 0.809261
0.901332 0.901332 0.901332
0.953307 0.953307 0.953307
0.974336 0.974336 0.974336
0.093230 0.093230 0.093230
0.128701 0.128701 0.128701
0.297990 0.297990 0.297990
0.430780 0.430780 0.430780
0.593448 0.593448 0.593448
0.767023 0.767023 0.767023
0.875456 0.875456 0.875456
0.942153 0.942153 0.942153
0.971259 0.971259 0.971259
0.093230 0.093230 0.093230
0.125674 0.125674 0.125674
0.310008 0.310008 0.310008
0.455885 0.455885 0.455885
0.588501 0.588501 0.588501
0.728551 0.728551 0.728551
0.845160 0.845160 0.845160
0.921939 0.921939 0.921939
0.963144 0.963144 0.963144
0.093230 0.093230 0.093230
0.118916 0.118916 0.118916
0.305806 0.305806 0.305806
0.462677 0.462677 0.462677
0.600785 0.600785 0.600785
0.725890 0.725890 0.725890
0.824719 0.824719 0.824719
0.905243 0.905243 0.905243
0.954373 0.954373 0.954373
0.093230 0.093230 0.093230
0.113186 0.113186 0.113186
0.293849 0.293849 0.293849
0.454996 0.454996 0.454996
0.599577 0.599577 0.599577
0.727283 0.727283 0.727283
0.822091 0.822091 0.822091
0.893595 0.893595 0.893595
0.947537 0.947537 0.947537
0.093230 0.093230 0.093230
0.107244 0.107244 0.107244
0.278556 0.278556 0.278556
0.438483 0.438483 0.438483
0.586603 0.586603 0.586603
0.718988 0.718988 0.718988
0.817465 0.817465 0.817465
0.890059 0.890059 0.890059
0.942205 0.942205 0.942205
0.093230 0.093230 0.093230
0.103629 0.103629 0.103629
0.259134 0.259134 0.259134
0.416621 0.416621 0.416621
0.565397 0.565397 0.565397
0.701961 0.701961 0.701961
0.807112 0.807112 0.807112
0.883266 0.883266 0.883266
0.936519 0.936519 0.936519
0.093230 0.093230 0.093230
0.093230 0.093230 0.093230
0.093230 0.093230 0.093230
0.093230 0.093230 0.093230
0.093230 0.093230 0.093230
0.093230 0.093230 0.093230
0.093230 0.093230 0.093230
0.093230 0.093230 0.093230
0.093230 0.093230 0.093230
0.093230 0.093230 0.093230
0.145403 0.145403 0.145403
0.345337 0.345337 0.345337
0.535811 0.535811 0.535811
0.710941 0.710941 0.710941
0.832773 0.832773 0.832773
0.910204 0.910204 0.910204
0.955120 0.955120 0.955120
0.974284 0.974284 0.974284
0.093230 0.093230 0.093230
0.108559 0.108559 0.108559
0.204394 0.204394 0.204394
0.424522 0.424522 0.424522
0.634438 0.634438 0.634438
0.798568 0.798568 0.798568
0.894461 0.894461 0.894461
0.950228 0.950228 0.950228
0.973387 0.973387 0.973387
0.093230 0.093230 0.093230
0.117742 0.117742 0.117742
0.275119 0.275119 0.275119
0.394919 0.394919 0.394919
0.566725 0.566725 0.566725
0.747788 0.747788 0.747788
0.864831 0.864831 0.864831
0.936769 0.936769 0.936769
0.970304 0.970304 0.970304
0.093230 0.093230 0.093230
0.118977 0.118977 0.118977
0.295941 0.295941 0.295941
0.435106 0.435106 0.435106
0.564113 0.564113 0.564113
0.710726 0.710726 0.710726
0.834887 0.834887 0.834887
0.916202 0.916202 0.916202
0.960862 0.960862 0.960862
0.093230 0.093230 0.093230
0.116077 0.116077 0.116077
0.297330 0.297330 0.297330
0.450293 0.450293 0.450293
0.585627 0.585627 0.585627
0.711544 0.711544 0.711544
0.816809 0.816809 0.816809
0.900515 0.900515 0.900515
0.952459 0.952459 0.952459
0.093230 0.093230 0.093230
0.111554 0.111554 0.111554
0.288828 0.288828 0.288828
0.447660 0.447660 0.447660
0.590644 0.590644 0.590644
0.718520 0.718520 0.718520
0.816224 0.816224 0.816224
0.890379 0.890379 0.890379
0.946188 0.946188 0.946188
0.093230 0.093230 0.093230
0.106595 0.106595 0.106595
0.275777 0.275777 0.275777
0.434281 0.434281 0.434281
0.581554 0.581554 0.581554
0.714076 0.714076 0.714076
0.814138 0.814138 0.814138
0.887982 0.887982 0.887982
0.940836 0.940836 0.940836
0.093230 0.093230 0.093230
0.103340 0.103340 0.103340
0.257122 0.257122 0.257122
0.414250 0.414250 0.414250
0.562795 0.562795 0.562795
0.699528 0.699528 0.699528
0.805553 0.805553 0.805553
0.882383 0.882383 0.882383
0.936018 0.936018 0.936018
0.093230 0.093230 0.093230
0.093230 0.093230 0.093230
0.093230 0.093230 0.093230
0.093230 0.093230 0.093230
0.093230 0.093230 0.093230
0.093230 0.093230 0.093230
0.093230 0.093230 0.093230
0.093230 0.093230 0.093230
0.093230 0.093230 0.093230
0.093230 0.093230 0.093230
0.149154 0.149154 0.149154
0.393403 0.393403 0.393403
0.592552 0.592552 0.592552
0.736936 0.736936 0.736936
0.839019 0.839019 0.839019
0.910082 0.910082 0.910082
0.953884 0.953884 0.953884
0.973646 0.973646 0.973646
0.093230 0.093230 0.093230
0.116954 0.116954 0.116954
0.290816 0.290816 0.290816
0.466077 0.466077 0.466077
0.651703 0.651703 0.651703
0.800504 0.800504 0.800504
0.892671 0.892671 0.892671
0.948540 0.948540 0.948540
0.972670 0.972670 0.972670
0.093230 0.093230 0.093230
0.110994 0.110994 0.110994
0.256707 0.256707 0.256707
0.357462 0.357462 0.357462
0.555220 0.555220 0.555220
0.738748 0.738748 0.738748
0.858534 0.858534 0.858534
0.932389 0.932389 0.932389
0.968201 0.968201 0.968201
0.093230 0.093230 0.093230
0.113415 0.113415 0.113415
0.280933 0.280933 0.280933
0.412253 0.412253 0.412253
0.536061 0.536061 0.536061
0.693069 0.693069 0.693069
0.825205 0.825205 0.825205
0.910673 0.910673 0.910673
0.958525 0.958525 0.958525
0.093230 0.093230 0.093230
0.112471 0.112471 0.112471
0.286814 0.286814 0.286814
0.435436 0.435436 0.435436
0.567186 0.567186 0.567186
0.693551 0.693551 0.693551
0.807470 0.807470 0.807470
0.894983 0.894983 0.894983
0.950199 0.950199 0.950199
0.093230 0.093230 0.093230
0.109289 0.109289 0.109289
0.282072 0.282072 0.282072
0.438006 0.438006 0.438006
0.579012 0.579012 0.579012
0.706940 0.706940 0.706940
0.808328 0.808328 0.808328
0.886209 0.886209 0.886209
0.944423 0.944423 0.944423
0.093230 0.093230 0.093230
0.105782 0.105782 0.105782
0.271778 0.271778 0.271778
0.428347 0.428347 0.428347
0.574527 0.574527 0.574527
0.707242 0.707242 0.707242
0.809460 0.809460 0.809460
0.885033 0.885033 0.885033
0.938930 0.938930 0.938930
0.093230 0.093230 0.093230
0.102898 0.102898 0.102898
0.254084 0.254084 0.254084
0.410705 0.410705 0.410705
0.558949 0.558949 0.558949
0.695956 0.695956 0.695956
0.803259 0.803259 0.803259
0.881079 0.881079 0.881079
0.935279 0.935279 0.935279
0.093230 0.093230 0.093230
0.093230 0.093230 0.093230
0.093230 0.093230 0.093230
0.093230 0.093230 0.093230
0.093230 0.093230 0.093230
0.093230 0.093230 0.093230
0.093230 0.093230 0.093230
0.093230 0.093230 0.093230
0.093230 0.093230 0.093230
0.093230 0.093230 0.093230
0.149154 0.149154 0.149154
0.393403 0.393403 0.393403
0.625565 0.625565 0.625565
0.779464 0.779464 0.779464
0.857561 0.857561 0.857561
0.916831 0.916831 0.916831
0.955168 0.955168 0.955168
0.973621 0.973621 0.973621
0.093230 0.093230 0.093230
0.142556 0.142556 0.142556
0.353663 0.353663 0.353663
0.534094 0.534094 0.534094
0.696054 0.696054 0.696054
0.817177 0.817177 0.817177
0.898212 0.898212 0.898212
0.949382 0.949382 0.949382
0.972544 0.972544 0.972544
0.093230 0.093230 0.093230
0.111387 0.111387 0.111387
0.276678 0.276678 0.276678
0.423935 0.423935 0.423935
0.588338 0.588338 0.588338
0.752915 0.752915 0.752915
0.861931 0.861931 0.861931
0.932243 0.932243 0.932243
0.967413 0.967413 0.967413
0.093230 0.093230 0.093230
0.109019 0.109019 0.109019
0.271096 0.271096 0.271096
0.398973 0.398973 0.398973
0.508013 0.508013 0.508013
0.686609 0.686609 0.686609
0.821784 0.821784 0.821784
0.908121 0.908121 0.908121
0.957138 0.957138 0.957138
0.093230 0.093230 0.093230
0.108792 0.108792 0.108792
0.276799 0.276799 0.276799
0.421556 0.421556 0.421556
0.549549 0.549549 0.549549
0.674830 0.674830 0.674830
0.799224 0.799224 0.799224
0.890506 0.890506 0.890506
0.948364 0.948364 0.948364
0.093230 0.093230 0.093230
0.106864 0.106864 0.106864
0.274945 0.274945 0.274945
0.427845 0.427845 0.427845
0.566974 0.566974 0.566974
0.694666 0.694666 0.694666
0.799742 0.799742 0.799742
0.882004 0.882004 0.882004
0.942120 0.942120 0.942120
0.093230 0.093230 0.093230
0.104821 0.104821 0.104821
0.265838 0.265838 0.265838
0.421497 0.421497 0.421497
0.566742 0.566742 0.566742
0.699708 0.699708 0.699708
0.804238 0.804238 0.804238
0.881721 0.881721 0.881721
0.937114 0.937114 0.937114
0.093230 0.093230 0.093230
0.102354 0.102354 0.102354
0.250419 0.250419 0.250419
0.406478 0.406478 0.406478
0.554436 0.554436 0.554436
0.691814 0.691814 0.691814
0.800611 0.800611 0.800611
0.879577 0.879577 0.879577
0.934442 0.934442 0.934442
0.093230 0.093230 0.093230
0.093230 0.093230 0.093230
0.093230 0.093230 0.093230
0.093230 0.093230 0.093230
0.093230 0.093230 0.093230
0.093230 0.093230 0.093230
0.093230 0.093230 0.093230
0.093230 0.093230 0.093230
0.093230 0.093230 0.093230
0.093230 0.093230 0.093230
0.149154 0.149154 0.149154
0.393403 0.393403 0.393403
0.625565 0.625565 0.625565
0.809716 0.809716 0.809716
0.880583 0.880583 0.880583
0.928034 0.928034 0.928034
0.958552 0.958552 0.958552
0.974200 0.974200 0.974200
0.093230 0.093230 0.093230
0.153367 0.153367 0.153367
0.402653 0.402653 0.402653
0.593087 0.593087 0.593087
0.744016 0.744016 0.744016
0.841503 0.841503 0.841503
0.909265 0.909265 0.909265
0.952563 0.952563 0.952563
0.973051 0.973051 0.973051
0.093230 0.093230 0.093230
0.118931 0.118931 0.118931
0.309539 0.309539 0.309539
0.479722 0.479722 0.479722
0.641409 0.641409 0.641409
0.782787 0.782787 0.782787
0.874993 0.874993 0.874993
0.936857 0.936857 0.936857
0.968269 0.968269 0.968269
0.093230 0.093230 0.093230
0.107892 0.107892 0.107892
0.273207 0.273207 0.273207
0.416808 0.416808 0.416808
0.557263 0.557263 0.557263
0.708840 0.708840 0.708840
0.829341 0.829341 0.829341
0.910294 0.910294 0.910294
0.957261 0.957261 0.957261
0.093230 0.093230 0.093230
0.106327 0.106327 0.106327
0.269239 0.269239 0.269239
0.412855 0.412855 0.412855
0.540312 0.540312 0.540312
0.654911 0.654911 0.654911
0.796429 0.796429 0.796429
0.889124 0.889124 0.889124
0.947587 0.947587 0.947587
0.093230 0.093230 0.093230
0.105411 0.105411 0.105411
0.267320 0.267320 0.267320
0.418365 0.418365 0.418365
0.556514 0.556514 0.556514
0.683389 0.683389 0.683389
0.791145 0.791145 0.791145
0.878075 0.878075 0.878075
0.939901 0.939901 0.939901
0.093230 0.093230 0.093230
0.103838 0.103838 0.103838
0.259330 0.259330 0.259330
0.414265 0.414265 0.414265
0.559087 0.559087 0.559087
0.692350 0.692350 0.692350
0.799008 0.799008 0.799008
0.877962 0.877962 0.877962
0.935275 0.935275 0.935275
0.093230 0.093230 0.093230
0.101754 0.101754 0.101754
0.246448 0.246448 0.246448
0.401949 0.401949 0.401949
0.549685 0.549685 0.549685
0.687527 0.687527 0.687527
0.797892 0.797892 0.797892
0.877536 0.877536 0.877536
0.933630 0.933630 0.933630
0.093230 0.093230 0.093230
0.093230 0.093230 0.093230
0.093230 0.093230 0.093230
0.093230 0.093230 0.093230
0.093230 0.093230 0.093230
0.093230 0.093230 0.093230
0.093230 0.093230 0.093230
0.093230 0.093230 0.093230
0.093230 0.093230 0.093230
0.093230 0.093230 0.093230
0.149154 0.149154 0.149154
0.393403 0.393403 0.393403
0.625565 0.625565 0.625565
0.814126 0.814126 0.814126
0.896645 0.896645 0.896645
0.940029 0.940029 0.940029
0.963003 0.963003 0.963003
0.975187 0.975187 0.975187
0.093230 0.093230 0.093230
0.153367 0.153367 0.153367
0.402653 0.402653 0.402653
0.638024 0.638024 0.638024
0.782750 0.782750 0.782750
0.865947 0.865947 0.865947
0.922333 0.922333 0.922333
0.957094 0.957094 0.957094
0.974019 0.974019 0.974019
0.093230 0.093230 0.093230
0.131297 0.131297 0.131297
0.340517 0.340517 0.340517
0.526110 0.526110 0.526110
0.688173 0.688173 0.688173
0.808328 0.808328 0.808328
0.889323 0.889323 0.889323
0.943858 0.943858 0.943858
0.970373 0.970373 0.970373
0.093230 0.093230 0.093230
0.110654 0.110654 0.110654
0.286722 0.286722 0.286722
0.448124 0.448124 0.448124
0.600965 0.600965 0.600965
0.743458 0.743458 0.743458
0.845220 0.845220 0.845220
0.916831 0.916831 0.916831
0.958914 0.958914 0.958914
0.093230 0.093230 0.093230
0.105563 0.105563 0.105563
0.267052 0.267052 0.267052
0.416189 0.416189 0.416189
0.553937 0.553937 0.553937
0.688448 0.688448 0.688448
0.806968 0.806968 0.806968
0.892724 0.892724 0.892724
0.948294 0.948294 0.948294
0.093230 0.093230 0.093230
0.104232 0.104232 0.104232
0.260306 0.260306 0.260306
0.411771 0.411771 0.411771
0.550801 0.550801 0.550801
0.677706 0.677706 0.677706
0.782937 0.782937 0.782937
0.876462 0.876462 0.876462
0.939188 0.939188 0.939188
0.093230 0.093230 0.093230
0.102924 0.102924 0.102924
0.253321 0.253321 0.253321
0.407760 0.407760 0.407760
0.552497 0.552497 0.552497
0.686173 0.686173 0.686173
0.794350 0.794350 0.794350
0.873580 0.873580 0.873580
0.933730 0.933730 0.933730
0.093230 0.093230 0.093230
0.101143 0.101143 0.101143
0.242470 0.242470 0.242470
0.397458 0.397458 0.397458
0.545073 0.545073 0.545073
0.683459 0.683459 0.683459
0.795343 0.795343 0.795343
0.875595 0.875595 0.875595
0.932941 0.932941 0.932941
0.093230 0.093230 0.093230
0.093230 0.093230 0.093230
0.093230 0.093230 0.093230
0.093230 0.093230 0.093230
0.093230 0.093230 0.093230
0.093230 0.093230 0.093230
0.093230 0.093230 0.093230
0.093230 0.093230 0.093230
0.093230 0.093230 0.093230
0.093230 0.093230 0.093230
0.149154 0.149154 0.149154
0.393403 0.393403 0.393403
0.625565 0.625565 0.625565
0.814126 0.814126 0.814126
0.909193 0.909193 0.909193
0.947428 0.947428 0.947428
0.967473 0.967473 0.967473
0.976311 0.976311 0.976311
0.093230 0.093230 0.093230
0.153367 0.153367 0.153367
0.402653 0.402653 0.402653
0.638743 0.638743 0.638743
0.804270 0.804270 0.804270
0.884554 0.884554 0.884554
0.934578 0.934578 0.934578
0.961853 0.961853 0.961853
0.975176 0.975176 0.975176
0.093230 0.093230 0.093230
0.142372 0.142372 0.142372
0.366343 0.366343 0.366343
0.561209 0.561209 0.561209
0.723586 0.723586 0.723586
0.831122 0.831122 0.831122
0.902505 0.902505 0.902505
0.948804 0.948804 0.948804
0.971527 0.971527 0.971527
0.093230 0.093230 0.093230
0.115225 0.115225 0.115225
0.303870 0.303870 0.303870
0.477809 0.477809 0.477809
0.638323 0.638323 0.638323
0.775222 0.775222 0.775222
0.862953 0.862953 0.862953
0.925448 0.925448 0.925448
0.961548 0.961548 0.961548
0.093230 0.093230 0.093230
0.106017 0.106017 0.106017
0.272678 0.272678 0.272678
0.429637 0.429637 0.429637
0.578014 0.578014 0.578014
0.716454 0.716454 0.716454
0.822909 0.822909 0.822909
0.899883 0.899883 0.899883
0.950267 0.950267 0.950267
0.093230 0.093230 0.093230
0.103592 0.103592 0.103592
0.257099 0.257099 0.257099
0.410576 0.410576 0.410576
0.553542 0.553542 0.553542
0.686206 0.686206 0.686206
0.796961 0.796961 0.796961
0.881603 0.881603 0.881603
0.940705 0.940705 0.940705
0.093230 0.093230 0.093230
0.102159 0.102159 0.102159
0.248512 0.248512 0.248512
0.402879 0.402879 0.402879
0.548180 0.548180 0.548180
0.682880 0.682880 0.682880
0.792033 0.792033 0.792033
0.869617 0.869617 0.869617
0.933162 0.933162 0.933162
0.093230 0.093230 0.093230
0.100788 0.100788 0.100788
0.238777 0.238777 0.238777
0.393351 0.393351 0.393351
0.540986 0.540986 0.540986
0.680005 0.680005 0.680005
0.793250 0.793250 0.793250
0.874005 0.874005 0.874005
0.932468 0.932468 0.932468
0.093230 0.093230 0.093230
0.093230 0.093230 0.093230
0.093230 0.093230 0.093230
0.093230 0.093230 0.093230
0.093230 0.093230 0.093230
0.093230 0.093230 0.093230
0.093230 0.093230 0.093230
0.093230 0.093230 0.093230
0.093230 0.093230 0.093230
0.093230 0.093230 0.093230
0.149154 0.149154 0.149154
0.393403 0.393403 0.393403
0.625565 0.625565 0.625565
0.814126 0.814126 0.814126
0.917454 0.917454 0.917454
0.951952 0.951952 0.951952
0.970655 0.970655 0.970655
0.977332 0.977332 0.977332
0.093230 0.093230 0.093230
0.153367 0.153367 0.153367
0.402653 0.402653 0.402653
0.638743 0.638743 0.638743
0.818295 0.818295 0.818295
0.895472 0.895472 0.895472
0.943608 0.943608 0.943608
0.966003 0.966003 0.966003
0.976269 0.976269 0.976269
0.093230 0.093230 0.093230
0.150670 0.150670 0.150670
0.384679 0.384679 0.384679
0.586502 0.586502 0.586502
0.750144 0.750144 0.750144
0.849185 0.849185 0.849185
0.913752 0.913752 0.913752
0.953369 0.953369 0.953369
0.972682 0.972682 0.972682
0.093230 0.093230 0.093230
0.120089 0.120089 0.120089
0.319378 0.319378 0.319378
0.502594 0.502594 0.502594
0.668568 0.668568 0.668568
0.794915 0.794915 0.794915
0.878917 0.878917 0.878917
0.933968 0.933968 0.933968
0.964416 0.964416 0.964416
0.093230 0.093230 0.093230
0.107443 0.107443 0.107443
0.280659 0.280659 0.280659
0.445482 0.445482 0.445482
0.601045 0.601045 0.601045
0.740129 0.740129 0.740129
0.837655 0.837655 0.837655
0.907658 0.907658 0.907658
0.952744 0.952744 0.952744
0.093230 0.093230 0.093230
0.103554 0.103554 0.103554
0.258261 0.258261 0.258261
0.414947 0.414947 0.414947
0.563070 0.563070 0.563070
0.700638 0.700638 0.700638
0.808876 0.808876 0.808876
0.887934 0.887934 0.887934
0.943588 0.943588 0.943588
0.093230 0.093230 0.093230
0.101643 0.101643 0.101643
0.245538 0.245538 0.245538
0.400454 0.400454 0.400454
0.547255 0.547255 0.547255
0.684190 0.684190 0.684190
0.795074 0.795074 0.795074
0.875916 0.875916 0.875916
0.934507 0.934507 0.934507
0.093230 0.093230 0.093230
0.100499 0.100499 0.100499
0.235642 0.235642 0.235642
0.389962 0.389962 0.389962
0.537813 0.537813 0.537813
0.677597 0.677597 0.677597
0.792001 0.792001 0.792001
0.873163 0.873163 0.873163
0.932292 0.932292 0.932292
