trix_modern/TriX_Orange21_Soft.cube
TITLE "Tri-X Orange21 Soft"
# Adobe RGB in/out. REPLACES AgX. R=0.7239 G=0.2761 B=0.0000
LUT_3D_SIZE 5
DOMAIN_MIN 0.0 0.0 0.0
DOMAIN_MAX 1.0 1.0 1.0
0.097688 0.097688 0.097688
0.097688 0.097688 0.097688
0.097688 0.097688 0.097688
0.097688 0.097688 0.097688
0.097688 0.097688 0.097688
0.097688 0.097688 0.097688
0.305272 0.305272 0.305272
0.535336 0.535336 0.535336
0.708723 0.708723 0.708723
0.817430 0.817430 0.817430
0.097688 0.097688 0.097688
0.404518 0.404518 0.404518
0.575137 0.575137 0.575137
0.752667 0.752667 0.752667
0.889080 0.889080 0.889080
0.097688 0.097688 0.097688
0.423034 0.423034 0.423034
0.638776 0.638776 0.638776
0.792235 0.792235 0.792235
0.907792 0.907792 0.907792
0.097688 0.097688 0.097688
0.411774 0.411774 0.411774
0.649207 0.649207 0.649207
0.820292 0.820292 0.820292
0.926299 0.926299 0.926299
0.097688 0.097688 0.097688
0.097688 0.097688 0.097688
0.097688 0.097688 0.097688
0.097688 0.097688 0.097688
0.097688 0.097688 0.097688
0.097688 0.097688 0.097688
0.241770 0.241770 0.241770
0.510625 0.510625 0.510625
0.692468 0.692468 0.692468
0.808555 0.808555 0.808555
0.097688 0.097688 0.097688
0.382251 0.382251 0.382251
0.546523 0.546523 0.546523
0.734838 0.734838 0.734838
0.883407 0.883407 0.883407
0.097688 0.097688 0.097688
0.415340 0.415340 0.415340
0.627728 0.627728 0.627728
0.783056 0.783056 0.783056
0.904428 0.904428 0.904428
0.097688 0.097688 0.097688
0.409238 0.409238 0.409238
0.645913 0.645913 0.645913
0.817759 0.817759 0.817759
0.925609 0.925609 0.925609
0.097688 0.097688 0.097688
0.097688 0.097688 0.097688
0.097688 0.097688 0.097688
0.097688 0.097688 0.097688
0.097688 0.097688 0.097688
0.097688 0.097688 0.097688
0.371769 0.371769 0.371769
0.556013 0.556013 0.556013
0.698008 0.698008 0.698008
0.803168 0.803168 0.803168
0.097688 0.097688 0.097688
0.353945 0.353945 0.353945
0.499564 0.499564 0.499564
0.718878 0.718878 0.718878
0.873189 0.873189 0.873189
0.097688 0.097688 0.097688
0.398204 0.398204 0.398204
0.605998 0.605998 0.605998
0.761760 0.761760 0.761760
0.897936 0.897936 0.897936
0.097688 0.097688 0.097688
0.402275 0.402275 0.402275
0.637665 0.637665 0.637665
0.811678 0.811678 0.811678
0.923960 0.923960 0.923960
0.097688 0.097688 0.097688
0.097688 0.097688 0.097688
0.097688 0.097688 0.097688
0.097688 0.097688 0.097688
0.097688 0.097688 0.097688
0.097688 0.097688 0.097688
0.413267 0.413267 0.413267
0.626978 0.626978 0.626978
0.734027 0.734027 0.734027
0.812606 0.812606 0.812606
0.097688 0.097688 0.097688
0.371962 0.371962 0.371962
0.577141 0.577141 0.577141
0.747492 0.747492 0.747492
0.878128 0.878128 0.878128
0.097688 0.097688 0.097688
0.382845 0.382845 0.382845
0.591078 0.591078 0.591078
0.739633 0.739633 0.739633
0.894661 0.894661 0.894661
0.097688 0.097688 0.097688
0.393933 0.393933 0.393933
0.628379 0.628379 0.628379
0.805203 0.805203 0.805203
0.922389 0.922389 0.922389
0.097688 0.097688 0.097688
0.097688 0.097688 0.097688
0.097688 0.097688 0.097688
0.097688 0.097688 0.097688
0.097688 0.097688 0.097688
0.097688 0.097688 0.097688
0.413267 0.413267 0.413267
0.667568 0.667568 0.667568
0.767691 0.767691 0.767691
0.827187 0.827187 0.827187
0.097688 0.097688 0.097688
0.408215 0.408215 0.408215
0.632694 0.632694 0.632694
0.787889 0.787889 0.787889
0.889766 0.889766 0.889766
0.097688 0.097688 0.097688
0.380888 0.380888 0.380888
0.602402 0.602402 0.602402
0.773863 0.773863 0.773863
0.899607 0.899607 0.899607
0.097688 0.097688 0.097688
0.386691 0.386691 0.386691
0.621162 0.621162 0.621162
0.801100 0.801100 0.801100
0.921710 0.921710 0.921710
