trix_modern/TriX_Blue47_ExtraSoft.cube
TITLE "Tri-X Blue47 ExtraSoft"
# Adobe RGB in/out. REPLACES AgX. R=0.0336 G=0.0311 B=0.9353
LUT_3D_SIZE 5
DOMAIN_MIN 0.0 0.0 0.0
DOMAIN_MAX 1.0 1.0 1.0
0.121260 0.121260 0.121260
0.121260 0.121260 0.121260
0.121260 0.121260 0.121260
0.121260 0.121260 0.121260
0.121260 0.121260 0.121260
0.121260 0.121260 0.121260
0.121260 0.121260 0.121260
0.121260 0.121260 0.121260
0.121260 0.121260 0.121260
0.121260 0.121260 0.121260
0.121260 0.121260 0.121260
0.121260 0.121260 0.121260
0.121260 0.121260 0.121260
0.121260 0.121260 0.121260
0.121260 0.121260 0.121260
0.121260 0.121260 0.121260
0.121260 0.121260 0.121260
0.121260 0.121260 0.121260
0.121260 0.121260 0.121260
0.121260 0.121260 0.121260
0.121260 0.121260 0.121260
0.121260 0.121260 0.121260
0.121260 0.121260 0.121260
0.121260 0.121260 0.121260
0.121260 0.121260 0.121260
0.121260 0.121260 0.121260
0.121260 0.121260 0.121260
0.121260 0.121260 0.121260
0.121260 0.121260 0.121260
0.121260 0.121260 0.121260
0.121260 0.121260 0.121260
0.262816 0.262816 0.262816
0.324826 0.324826 0.324826
0.335116 0.335116 0.335116
0.326282 0.326282 0.326282
0.121260 0.121260 0.121260
0.330174 0.330174 0.330174
0.297026 0.297026 0.297026
0.304246 0.304246 0.304246
0.308479 0.308479 0.308479
0.121260 0.121260 0.121260
0.324482 0.324482 0.324482
0.308424 0.308424 0.308424
0.295898 0.295898 0.295898
0.293828 0.293828 0.293828
0.121260 0.121260 0.121260
0.300553 0.300553 0.300553
0.297332 0.297332 0.297332
0.291207 0.291207 0.291207
0.286963 0.286963 0.286963
0.121260 0.121260 0.121260
0.121260 0.121260 0.121260
0.121260 0.121260 0.121260
0.121260 0.121260 0.121260
0.121260 0.121260 0.121260
0.121260 0.121260 0.121260
0.730115 0.730115 0.730115
0.681659 0.681659 0.681659
0.648973 0.648973 0.648973
0.616884 0.616884 0.616884
0.121260 0.121260 0.121260
0.581288 0.581288 0.581288
0.504596 0.504596 0.504596
0.557632 0.557632 0.557632
0.572109 0.572109 0.572109
0.121260 0.121260 0.121260
0.590407 0.590407 0.590407
0.559117 0.559117 0.559117
0.535864 0.535864 0.535864
0.540597 0.540597 0.540597
0.121260 0.121260 0.121260
0.553548 0.553548 0.553548
0.548469 0.548469 0.548469
0.537511 0.537511 0.537511
0.531432 0.531432 0.531432
0.121260 0.121260 0.121260
0.121260 0.121260 0.121260
0.121260 0.121260 0.121260
0.121260 0.121260 0.121260
0.121260 0.121260 0.121260
0.121260 0.121260 0.121260
0.973453 0.973453 0.973453
0.960557 0.960557 0.960557
0.914156 0.914156 0.914156
0.872593 0.872593 0.872593
0.121260 0.121260 0.121260
0.863131 0.863131 0.863131
0.843168 0.843168 0.843168
0.836559 0.836559 0.836559
0.830427 0.830427 0.830427
0.121260 0.121260 0.121260
0.821006 0.821006 0.821006
0.797850 0.797850 0.797850
0.767470 0.767470 0.767470
0.789888 0.789888 0.789888
0.121260 0.121260 0.121260
0.795374 0.795374 0.795374
0.793231 0.793231 0.793231
0.785104 0.785104 0.785104
0.781975 0.781975 0.781975
0.121260 0.121260 0.121260
0.121260 0.121260 0.121260
0.121260 0.121260 0.121260
0.121260 0.121260 0.121260
0.121260 0.121260 0.121260
0.121260 0.121260 0.121260
0.995324 0.995324 0.995324
0.995595 0.995595 0.995595
0.991279 0.991279 0.991279
0.982993 0.982993 0.982993
0.121260 0.121260 0.121260
0.987232 0.987232 0.987232
0.985234 0.985234 0.985234
0.975550 0.975550 0.975550
0.964200 0.964200 0.964200
0.121260 0.121260 0.121260
0.952002 0.952002 0.952002
0.946218 0.946218 0.946218
0.939137 0.939137 0.939137
0.937257 0.937257 0.937257
0.121260 0.121260 0.121260
0.929415 0.929415 0.929415
0.930399 0.930399 0.930399
0.926946 0.926946 0.926946
0.927107 0.927107 0.927107
