trix_modern/TriX_Green58_Soft.cube
TITLE "Tri-X Green58 Soft"
# Adobe RGB in/out. REPLACES AgX. Tri-X Green58 Soft.
LUT_3D_SIZE 5
DOMAIN_MIN 0.0 0.0 0.0
DOMAIN_MAX 1.0 1.0 1.0
0.093873 0.093873 0.093873
0.099393 0.099393 0.099393
0.212485 0.212485 0.212485
0.265341 0.265341 0.265341
0.321059 0.321059 0.321059
0.391309 0.391309 0.391309
0.258610 0.258610 0.258610
0.313110 0.313110 0.313110
0.361428 0.361428 0.361428
0.308535 0.308535 0.308535
0.729415 0.729415 0.729415
0.645928 0.645928 0.645928
0.536832 0.536832 0.536832
0.543621 0.543621 0.543621
0.507658 0.507658 0.507658
0.907528 0.907528 0.907528
0.885266 0.885266 0.885266
0.811057 0.811057 0.811057
0.759828 0.759828 0.759828
0.745784 0.745784 0.745784
0.937097 0.937097 0.937097
0.943456 0.943456 0.943456
0.934103 0.934103 0.934103
0.912728 0.912728 0.912728
0.906346 0.906346 0.906346
0.096460 0.096460 0.096460
0.149565 0.149565 0.149565
0.247163 0.247163 0.247163
0.281399 0.281399 0.281399
0.316340 0.316340 0.316340
0.313261 0.313261 0.313261
0.233250 0.233250 0.233250
0.327648 0.327648 0.327648
0.369816 0.369816 0.369816
0.303939 0.303939 0.303939
0.676281 0.676281 0.676281
0.608123 0.608123 0.608123
0.520276 0.520276 0.520276
0.543406 0.543406 0.543406
0.510095 0.510095 0.510095
0.891373 0.891373 0.891373
0.865741 0.865741 0.865741
0.799199 0.799199 0.799199
0.754382 0.754382 0.754382
0.742579 0.742579 0.742579
0.937357 0.937357 0.937357
0.943667 0.943667 0.943667
0.930318 0.930318 0.930318
0.910114 0.910114 0.910114
0.904852 0.904852 0.904852
0.215720 0.215720 0.215720
0.290509 0.290509 0.290509
0.358316 0.358316 0.358316
0.349818 0.349818 0.349818
0.314240 0.314240 0.314240
0.424284 0.424284 0.424284
0.411823 0.411823 0.411823
0.406476 0.406476 0.406476
0.415808 0.415808 0.415808
0.301181 0.301181 0.301181
0.614672 0.614672 0.614672
0.571176 0.571176 0.571176
0.499564 0.499564 0.499564
0.550735 0.550735 0.550735
0.530052 0.530052 0.530052
0.855474 0.855474 0.855474
0.832316 0.832316 0.832316
0.778905 0.778905 0.778905
0.742865 0.742865 0.742865
0.741760 0.741760 0.741760
0.938547 0.938547 0.938547
0.937765 0.937765 0.937765
0.921577 0.921577 0.921577
0.904941 0.904941 0.904941
0.903615 0.903615 0.903615
0.357531 0.357531 0.357531
0.414076 0.414076 0.414076
0.465803 0.465803 0.465803
0.445631 0.445631 0.445631
0.319682 0.319682 0.319682
0.510446 0.510446 0.510446
0.534695 0.534695 0.534695
0.529665 0.529665 0.529665
0.493602 0.493602 0.493602
0.305900 0.305900 0.305900
0.649076 0.649076 0.649076
0.631981 0.631981 0.631981
0.603318 0.603318 0.603318
0.602021 0.602021 0.602021
0.567608 0.567608 0.567608
0.834357 0.834357 0.834357
0.817228 0.817228 0.817228
0.774418 0.774418 0.774418
0.737280 0.737280 0.737280
0.752103 0.752103 0.752103
0.930858 0.930858 0.930858
0.931337 0.931337 0.931337
0.918130 0.918130 0.918130
0.904225 0.904225 0.904225
0.906444 0.906444 0.906444
0.412814 0.412814 0.412814
0.432119 0.432119 0.432119
0.485367 0.485367 0.485367
0.465900 0.465900 0.465900
0.341328 0.341328 0.341328
0.527341 0.527341 0.527341
0.542839 0.542839 0.542839
0.580086 0.580086 0.580086
0.518984 0.518984 0.518984
0.333024 0.333024 0.333024
0.725664 0.725664 0.725664
0.714739 0.714739 0.714739
0.691302 0.691302 0.691302
0.658145 0.658145 0.658145
0.533594 0.533594 0.533594
0.845172 0.845172 0.845172
0.833411 0.833411 0.833411
0.808449 0.808449 0.808449
0.792620 0.792620 0.792620
0.746813 0.746813 0.746813
0.919598 0.919598 0.919598
0.924678 0.924678 0.924678
0.922456 0.922456 0.922456
0.910566 0.910566 0.910566
0.912373 0.912373 0.912373
