trix_modern/TriX_Yellow8_Hard.cube
TITLE "Tri-X Yellow8 Hard"
# Adobe RGB in/out. REPLACES AgX. R=0.5015 G=0.4679 B=0.0307
LUT_3D_SIZE 5
DOMAIN_MIN 0.0 0.0 0.0
DOMAIN_MAX 1.0 1.0 1.0
0.093288 0.093288 0.093288
0.093288 0.093288 0.093288
0.093288 0.093288 0.093288
0.093288 0.093288 0.093288
0.093288 0.093288 0.093288
0.093288 0.093288 0.093288
0.093288 0.093288 0.093288
0.093288 0.093288 0.093288
0.093288 0.093288 0.093288
0.093288 0.093288 0.093288
0.093288 0.093288 0.093288
0.093288 0.093288 0.093288
0.093288 0.093288 0.093288
0.093288 0.093288 0.093288
0.093288 0.093288 0.093288
0.093288 0.093288 0.093288
0.093288 0.093288 0.093288
0.093288 0.093288 0.093288
0.093288 0.093288 0.093288
0.093288 0.093288 0.093288
0.093288 0.093288 0.093288
0.093288 0.093288 0.093288
0.093288 0.093288 0.093288
0.093288 0.093288 0.093288
0.093288 0.093288 0.093288
0.093288 0.093288 0.093288
0.093288 0.093288 0.093288
0.093288 0.093288 0.093288
0.093288 0.093288 0.093288
0.093288 0.093288 0.093288
0.093288 0.093288 0.093288
0.100098 0.100098 0.100098
0.397124 0.397124 0.397124
0.742725 0.742725 0.742725
0.861274 0.861274 0.861274
0.093288 0.093288 0.093288
0.391139 0.391139 0.391139
0.705336 0.705336 0.705336
0.931836 0.931836 0.931836
0.983869 0.983869 0.983869
0.093288 0.093288 0.093288
0.627030 0.627030 0.627030
0.933518 0.933518 0.933518
0.983462 0.983462 0.983462
0.993576 0.993576 0.993576
0.093288 0.093288 0.093288
0.691092 0.691092 0.691092
0.971643 0.971643 0.971643
0.992771 0.992771 0.992771
0.997768 0.997768 0.997768
0.093288 0.093288 0.093288
0.093288 0.093288 0.093288
0.093288 0.093288 0.093288
0.093288 0.093288 0.093288
0.093288 0.093288 0.093288
0.093288 0.093288 0.093288
0.247552 0.247552 0.247552
0.549694 0.549694 0.549694
0.781057 0.781057 0.781057
0.874494 0.874494 0.874494
0.093288 0.093288 0.093288
0.328110 0.328110 0.328110
0.588577 0.588577 0.588577
0.930609 0.930609 0.930609
0.984515 0.984515 0.984515
0.093288 0.093288 0.093288
0.591762 0.591762 0.591762
0.924356 0.924356 0.924356
0.981885 0.981885 0.981885
0.993897 0.993897 0.993897
0.093288 0.093288 0.093288
0.699169 0.699169 0.699169
0.973290 0.973290 0.973290
0.993287 0.993287 0.993287
0.997934 0.997934 0.997934
0.093288 0.093288 0.093288
0.093288 0.093288 0.093288
0.093288 0.093288 0.093288
0.093288 0.093288 0.093288
0.093288 0.093288 0.093288
0.093288 0.093288 0.093288
0.361727 0.361727 0.361727
0.769115 0.769115 0.769115
0.851019 0.851019 0.851019
0.895462 0.895462 0.895462
0.093288 0.093288 0.093288
0.401247 0.401247 0.401247
0.824771 0.824771 0.824771
0.958722 0.958722 0.958722
0.986304 0.986304 0.986304
0.093288 0.093288 0.093288
0.549909 0.549909 0.549909
0.915864 0.915864 0.915864
0.978028 0.978028 0.978028
0.994130 0.994130 0.994130
0.093288 0.093288 0.093288
0.686083 0.686083 0.686083
0.972764 0.972764 0.972764
0.993403 0.993403 0.993403
0.998005 0.998005 0.998005
0.093288 0.093288 0.093288
0.093288 0.093288 0.093288
0.093288 0.093288 0.093288
0.093288 0.093288 0.093288
0.093288 0.093288 0.093288
0.093288 0.093288 0.093288
0.372515 0.372515 0.372515
0.849935 0.849935 0.849935
0.900456 0.900456 0.900456
0.919446 0.919446 0.919446
0.093288 0.093288 0.093288
0.538539 0.538539 0.538539
0.916396 0.916396 0.916396
0.977953 0.977953 0.977953
0.989086 0.989086 0.989086
0.093288 0.093288 0.093288
0.556125 0.556125 0.556125
0.933754 0.933754 0.933754
0.986175 0.986175 0.986175
0.994945 0.994945 0.994945
0.093288 0.093288 0.093288
0.671096 0.671096 0.671096
0.972153 0.972153 0.972153
0.993514 0.993514 0.993514
0.998062 0.998062 0.998062
