trix_modern/TriX_Orange21_ExtraSoft.cube
TITLE "Tri-X Orange21 ExtraSoft"
# Adobe RGB in/out. REPLACES AgX. R=0.7239 G=0.2761 B=0.0000
LUT_3D_SIZE 65
DOMAIN_MIN 0.0 0.0 0.0
DOMAIN_MAX 1.0 1.0 1.0
0.121260 0.121260 0.121260
0.121260 0.121260 0.121260
0.121260 0.121260 0.121260
0.121260 0.121260 0.121260
0.121260 0.121260 0.121260
0.121260 0.121260 0.121260
0.121260 0.121260 0.121260
0.121260 0.121260 0.121260
0.121260 0.121260 0.121260
0.121260 0.121260 0.121260
0.121260 0.121260 0.121260
0.121260 0.121260 0.121260
0.121260 0.121260 0.121260
0.121260 0.121260 0.121260
0.121260 0.121260 0.121260
0.121260 0.121260 0.121260
0.121260 0.121260 0.121260
0.121260 0.121260 0.121260
0.121260 0.121260 0.121260
0.121260 0.121260 0.121260
0.121260 0.121260 0.121260
0.121260 0.121260 0.121260
0.121260 0.121260 0.121260
0.121260 0.121260 0.121260
0.121260 0.121260 0.121260
0.121260 0.121260 0.121260
0.121260 0.121260 0.121260
0.121260 0.121260 0.121260
0.121260 0.121260 0.121260
0.121260 0.121260 0.121260
0.121260 0.121260 0.121260
0.121260 0.121260 0.121260
0.121260 0.121260 0.121260
0.121260 0.121260 0.121260
0.121260 0.121260 0.121260
0.121260 0.121260 0.121260
0.121260 0.121260 0.121260
0.121260 0.121260 0.121260
0.121260 0.121260 0.121260
0.121260 0.121260 0.121260
0.121260 0.121260 0.121260
0.121260 0.121260 0.121260
0.121260 0.121260 0.121260
0.121260 0.121260 0.121260
0.121260 0.121260 0.121260
0.121260 0.121260 0.121260
0.121260 0.121260 0.121260
0.121260 0.121260 0.121260
0.121260 0.121260 0.121260
0.121260 0.121260 0.121260
0.121260 0.121260 0.121260
0.121260 0.121260 0.121260
0.121260 0.121260 0.121260
0.121260 0.121260 0.121260
0.121260 0.121260 0.121260
0.121260 0.121260 0.121260
0.121260 0.121260 0.121260
0.121260 0.121260 0.121260
0.121260 0.121260 0.121260
0.121260 0.121260 0.121260
0.121260 0.121260 0.121260
0.121260 0.121260 0.121260
0.121260 0.121260 0.121260
0.121260 0.121260 0.121260
0.121260 0.121260 0.121260
0.121260 0.121260 0.121260
0.121260 0.121260 0.121260
0.121260 0.121260 0.121260
0.121260 0.121260 0.121260
0.121587 0.121587 0.121587
0.125013 0.125013 0.125013
0.128690 0.128690 0.128690
0.132269 0.132269 0.132269
0.137430 0.137430 0.137430
0.143235 0.143235 0.143235
0.152437 0.152437 0.152437
0.160603 0.160603 0.160603
0.169264 0.169264 0.169264
0.177094 0.177094 0.177094
0.185796 0.185796 0.185796
0.194019 0.194019 0.194019
0.201941 0.201941 0.201941
0.209615 0.209615 0.209615
0.217050 0.217050 0.217050
0.224253 0.224253 0.224253
0.231425 0.231425 0.231425
0.238065 0.238065 0.238065
0.244502 0.244502 0.244502
0.250745 0.250745 0.250745
0.256802 0.256802 0.256802
0.262681 0.262681 0.262681
0.268390 0.268390 0.268390
0.273934 0.273934 0.273934
0.279322 0.279322 0.279322
0.284558 0.284558 0.284558
0.289611 0.289611 0.289611
0.294501 0.294501 0.294501
0.299258 0.299258 0.299258
0.303885 0.303885 0.303885
0.308388 0.308388 0.308388
0.312771 0.312771 0.312771
0.317038 0.317038 0.317038
0.321194 0.321194 0.321194
0.325394 0.325394 0.325394
0.329618 0.329618 0.329618
0.333537 0.333537 0.333537
0.337267 0.337267 0.337267
0.340912 0.340912 0.340912
0.344476 0.344476 0.344476
0.347961 0.347961 0.347961
0.351368 0.351368 0.351368
0.354699 0.354699 0.354699
0.357957 0.357957 0.357957
0.361144 0.361144 0.361144
0.364260 0.364260 0.364260
0.367243 0.367243 0.367243
0.370135 0.370135 0.370135
0.372962 0.372962 0.372962
0.375727 0.375727 0.375727
0.378431 0.378431 0.378431
0.381075 0.381075 0.381075
0.383661 0.383661 0.383661
0.386189 0.386189 0.386189
0.388661 0.388661 0.388661
0.391079 0.391079 0.391079
0.393442 0.393442 0.393442
0.395753 0.395753 0.395753
0.398012 0.398012 0.398012
0.400221 0.400221 0.400221
0.402379 0.402379 0.402379
0.121260 0.121260 0.121260
0.121260 0.121260 0.121260
0.121260 0.121260 0.121260
0.121260 0.121260 0.121260
0.122639 0.122639 0.122639
0.127612 0.127612 0.127612
0.132685 0.132685 0.132685
0.140325 0.140325 0.140325
0.149696 0.149696 0.149696
0.159508 0.159508 0.159508
0.172428 0.172428 0.172428
0.185539 0.185539 0.185539
0.197730 0.197730 0.197730
0.208715 0.208715 0.208715
0.219119 0.219119 0.219119
0.229234 0.229234 0.229234
0.238868 0.238868 0.238868
0.248024 0.248024 0.248024
0.256863 0.256863 0.256863
0.265404 0.265404 0.265404
0.273663 0.273663 0.273663
0.281653 0.281653 0.281653
0.289356 0.289356 0.289356
0.296758 0.296758 0.296758
0.303931 0.303931 0.303931
0.310886 0.310886 0.310886
0.317632 0.317632 0.317632
0.324257 0.324257 0.324257
0.331058 0.331058 0.331058
0.337200 0.337200 0.337200
0.343166 0.343166 0.343166
0.348965 0.348965 0.348965
0.354602 0.354602 0.354602
0.360084 0.360084 0.360084
0.365409 0.365409 0.365409
0.370442 0.370442 0.370442
0.375338 0.375338 0.375338
0.380103 0.380103 0.380103
0.384740 0.384740 0.384740
0.389256 0.389256 0.389256
0.393653 0.393653 0.393653
0.397942 0.397942 0.397942
0.402132 0.402132 0.402132
0.406227 0.406227 0.406227
0.410228 0.410228 0.410228
0.414223 0.414223 0.414223
0.419087 0.419087 0.419087
0.423853 0.423853 0.423853
0.428523 0.428523 0.428523
0.433100 0.433100 0.433100
0.437709 0.437709 0.437709
0.442264 0.442264 0.442264
0.446728 0.446728 0.446728
0.451104 0.451104 0.451104
0.455393 0.455393 0.455393
0.459596 0.459596 0.459596
0.463715 0.463715 0.463715
0.467752 0.467752 0.467752
0.471706 0.471706 0.471706
0.475580 0.475580 0.475580
0.479375 0.479375 0.479375
0.483093 0.483093 0.483093
0.486733 0.486733 0.486733
0.490298 0.490298 0.490298
0.493703 0.493703 0.493703
0.121260 0.121260 0.121260
0.121260 0.121260 0.121260
0.121260 0.121260 0.121260
0.121260 0.121260 0.121260
0.122312 0.122312 0.122312
0.127493 0.127493 0.127493
0.133463 0.133463 0.133463
0.142772 0.142772 0.142772
0.154699 0.154699 0.154699
0.167950 0.167950 0.167950
0.183792 0.183792 0.183792
0.199358 0.199358 0.199358
0.213336 0.213336 0.213336
0.226108 0.226108 0.226108
0.238301 0.238301 0.238301
0.249689 0.249689 0.249689
0.260602 0.260602 0.260602
0.271081 0.271081 0.271081
0.281159 0.281159 0.281159
0.290812 0.290812 0.290812
0.300055 0.300055 0.300055
0.308973 0.308973 0.308973
0.317588 0.317588 0.317588
0.326117 0.326117 0.326117
0.334480 0.334480 0.334480
0.342241 0.342241 0.342241
0.349760 0.349760 0.349760
0.357048 0.357048 0.357048
0.364117 0.364117 0.364117
0.370801 0.370801 0.370801
0.377256 0.377256 0.377256
0.383521 0.383521 0.383521
0.389606 0.389606 0.389606
0.395518 0.395518 0.395518
0.401263 0.401263 0.401263
0.406848 0.406848 0.406848
0.412280 0.412280 0.412280
0.418580 0.418580 0.418580
0.425139 0.425139 0.425139
0.431544 0.431544 0.431544
0.437930 0.437930 0.437930
0.444272 0.444272 0.444272
0.450488 0.450488 0.450488
0.456579 0.456579 0.456579
0.462550 0.462550 0.462550
0.468402 0.468402 0.468402
0.474138 0.474138 0.474138
0.479761 0.479761 0.479761
0.485272 0.485272 0.485272
0.490673 0.490673 0.490673
0.495727 0.495727 0.495727
0.500544 0.500544 0.500544
0.505262 0.505262 0.505262
0.509882 0.509882 0.509882
0.514406 0.514406 0.514406
0.518837 0.518837 0.518837
0.523176 0.523176 0.523176
0.527424 0.527424 0.527424
0.531584 0.531584 0.531584
0.535656 0.535656 0.535656
0.539642 0.539642 0.539642
0.543545 0.543545 0.543545
0.547364 0.547364 0.547364
0.551102 0.551102 0.551102
0.554759 0.554759 0.554759
0.121260 0.121260 0.121260
0.121260 0.121260 0.121260
0.121260 0.121260 0.121260
0.121359 0.121359 0.121359
0.123709 0.123709 0.123709
0.127231 0.127231 0.127231
0.132822 0.132822 0.132822
0.142475 0.142475 0.142475
0.155416 0.155416 0.155416
0.170505 0.170505 0.170505
0.188486 0.188486 0.188486
0.205603 0.205603 0.205603
0.221243 0.221243 0.221243
0.235905 0.235905 0.235905
0.249446 0.249446 0.249446
0.262321 0.262321 0.262321
0.274597 0.274597 0.274597
0.286332 0.286332 0.286332
0.297439 0.297439 0.297439
0.308092 0.308092 0.308092
0.318330 0.318330 0.318330
0.328544 0.328544 0.328544
0.338164 0.338164 0.338164
0.347276 0.347276 0.347276
0.356075 0.356075 0.356075
0.364579 0.364579 0.364579
0.372575 0.372575 0.372575
0.380294 0.380294 0.380294
0.387767 0.387767 0.387767
0.395007 0.395007 0.395007
0.402025 0.402025 0.402025
0.408831 0.408831 0.408831
0.415872 0.415872 0.415872
0.424044 0.424044 0.424044
0.432013 0.432013 0.432013
0.439989 0.439989 0.439989
0.447850 0.447850 0.447850
0.455524 0.455524 0.455524
0.463019 0.463019 0.463019
0.470338 0.470338 0.470338
0.477488 0.477488 0.477488
0.484486 0.484486 0.484486
0.491342 0.491342 0.491342
0.497669 0.497669 0.497669
0.503776 0.503776 0.503776
0.509755 0.509755 0.509755
0.515608 0.515608 0.515608
0.521339 0.521339 0.521339
0.526950 0.526950 0.526950
0.532445 0.532445 0.532445
0.537825 0.537825 0.537825
0.543093 0.543093 0.543093
0.548252 0.548252 0.548252
0.553303 0.553303 0.553303
0.558248 0.558248 0.558248
0.563091 0.563091 0.563091
0.567832 0.567832 0.567832
0.572474 0.572474 0.572474
0.577018 0.577018 0.577018
0.581486 0.581486 0.581486
0.586114 0.586114 0.586114
0.590645 0.590645 0.590645
0.595081 0.595081 0.595081
0.599425 0.599425 0.599425
0.603676 0.603676 0.603676
0.121260 0.121260 0.121260
0.121260 0.121260 0.121260
0.121260 0.121260 0.121260
0.123101 0.123101 0.123101
0.126572 0.126572 0.126572
0.129525 0.129525 0.129525
0.132761 0.132761 0.132761
0.141692 0.141692 0.141692
0.154437 0.154437 0.154437
0.170033 0.170033 0.170033
0.188875 0.188875 0.188875
0.207228 0.207228 0.207228
0.224366 0.224366 0.224366
0.240569 0.240569 0.240569
0.255605 0.255605 0.255605
0.269872 0.269872 0.269872
0.283442 0.283442 0.283442
0.296261 0.296261 0.296261
0.308467 0.308467 0.308467
0.320148 0.320148 0.320148
0.331866 0.331866 0.331866
0.342563 0.342563 0.342563
0.352849 0.352849 0.352849
0.362752 0.362752 0.362752
0.372082 0.372082 0.372082
0.381010 0.381010 0.381010
0.389628 0.389628 0.389628
0.397953 0.397953 0.397953
0.406003 0.406003 0.406003
0.413793 0.413793 0.413793
0.423390 0.423390 0.423390
0.432743 0.432743 0.432743
0.442130 0.442130 0.442130
0.451332 0.451332 0.451332
0.460305 0.460305 0.460305
0.469057 0.469057 0.469057
0.477596 0.477596 0.477596
0.485928 0.485928 0.485928
0.493956 0.493956 0.493956
0.501326 0.501326 0.501326
0.508516 0.508516 0.508516
0.515545 0.515545 0.515545
0.522421 0.522421 0.522421
0.529149 0.529149 0.529149
0.535732 0.535732 0.535732
0.542174 0.542174 0.542174
0.548479 0.548479 0.548479
0.554651 0.554651 0.554651
0.560692 0.560692 0.560692
0.566605 0.566605 0.566605
0.572393 0.572393 0.572393
0.578060 0.578060 0.578060
0.583762 0.583762 0.583762
0.589535 0.589535 0.589535
0.595190 0.595190 0.595190
0.600728 0.600728 0.600728
0.606153 0.606153 0.606153
0.611465 0.611465 0.611465
0.616668 0.616668 0.616668
0.621763 0.621763 0.621763
0.626751 0.626751 0.626751
0.631635 0.631635 0.631635
0.636416 0.636416 0.636416
0.641096 0.641096 0.641096
0.645676 0.645676 0.645676
0.121260 0.121260 0.121260
0.121260 0.121260 0.121260
0.121260 0.121260 0.121260
0.124626 0.124626 0.124626
0.128982 0.128982 0.128982
0.132474 0.132474 0.132474
0.137067 0.137067 0.137067
0.141897 0.141897 0.141897
0.153721 0.153721 0.153721
0.168892 0.168892 0.168892
0.187610 0.187610 0.187610
0.206644 0.206644 0.206644
0.224887 0.224887 0.224887
0.242268 0.242268 0.242268
0.258512 0.258512 0.258512
0.273967 0.273967 0.273967
0.288662 0.288662 0.288662
0.302525 0.302525 0.302525
0.315759 0.315759 0.315759
0.328791 0.328791 0.328791
0.341001 0.341001 0.341001
0.352559 0.352559 0.352559
0.363658 0.363658 0.363658
0.374051 0.374051 0.374051
0.384005 0.384005 0.384005
0.393590 0.393590 0.393590
0.402830 0.402830 0.402830
0.411746 0.411746 0.411746
0.422142 0.422142 0.422142
0.432791 0.432791 0.432791
0.443471 0.443471 0.443471
0.453917 0.453917 0.453917
0.464090 0.464090 0.464090
0.474001 0.474001 0.474001
0.483659 0.483659 0.483659
0.493040 0.493040 0.493040
0.501562 0.501562 0.501562
0.509864 0.509864 0.509864
0.517952 0.517952 0.517952
0.525835 0.525835 0.525835
0.533523 0.533523 0.533523
0.541039 0.541039 0.541039
0.548387 0.548387 0.548387
0.555573 0.555573 0.555573
0.562602 0.562602 0.562602
0.569478 0.569478 0.569478
0.576204 0.576204 0.576204
0.582889 0.582889 0.582889
0.589735 0.589735 0.589735
0.596438 0.596438 0.596438
0.603003 0.603003 0.603003
0.609431 0.609431 0.609431
0.615726 0.615726 0.615726
0.621891 0.621891 0.621891
0.627928 0.627928 0.627928
0.633839 0.633839 0.633839
0.639628 0.639628 0.639628
0.645295 0.645295 0.645295
0.650845 0.650845 0.650845
0.656278 0.656278 0.656278
0.661596 0.661596 0.661596
0.666803 0.666803 0.666803
0.671899 0.671899 0.671899
0.676886 0.676886 0.676886
0.681286 0.681286 0.681286
0.121260 0.121260 0.121260
0.121260 0.121260 0.121260
0.121260 0.121260 0.121260
0.126083 0.126083 0.126083
0.131090 0.131090 0.131090
0.136557 0.136557 0.136557
0.142098 0.142098 0.142098
0.148880 0.148880 0.148880
0.155259 0.155259 0.155259
0.169082 0.169082 0.169082
0.186999 0.186999 0.186999
0.205901 0.205901 0.205901
0.224486 0.224486 0.224486
0.242496 0.242496 0.242496
0.259527 0.259527 0.259527
0.275858 0.275858 0.275858
0.291433 0.291433 0.291433
0.306207 0.306207 0.306207
0.320339 0.320339 0.320339
0.334373 0.334373 0.334373
0.347267 0.347267 0.347267
0.359630 0.359630 0.359630
0.371307 0.371307 0.371307
0.382361 0.382361 0.382361
0.392986 0.392986 0.392986
0.403209 0.403209 0.403209
0.413056 0.413056 0.413056
0.424941 0.424941 0.424941
0.436772 0.436772 0.436772
0.448591 0.448591 0.448591
0.460086 0.460086 0.460086
0.471270 0.471270 0.471270
0.482155 0.482155 0.482155
0.492742 0.492742 0.492742
0.502325 0.502325 0.502325
0.511648 0.511648 0.511648
0.520721 0.520721 0.520721
0.529554 0.529554 0.529554
0.538155 0.538155 0.538155
0.546533 0.546533 0.546533
0.554707 0.554707 0.554707
0.562693 0.562693 0.562693
0.570498 0.570498 0.570498
0.578126 0.578126 0.578126
0.585864 0.585864 0.585864
0.593619 0.593619 0.593619
0.601208 0.601208 0.601208
0.608636 0.608636 0.608636
0.615907 0.615907 0.615907
0.623024 0.623024 0.623024
0.629991 0.629991 0.629991
0.636812 0.636812 0.636812
0.643489 0.643489 0.643489
0.650026 0.650026 0.650026
0.656425 0.656425 0.656425
0.662690 0.662690 0.662690
0.668823 0.668823 0.668823
0.674827 0.674827 0.674827
0.680389 0.680389 0.680389
0.685242 0.685242 0.685242
0.689985 0.689985 0.689985
0.694621 0.694621 0.694621
0.699152 0.699152 0.699152
0.703581 0.703581 0.703581
0.707909 0.707909 0.707909
0.121260 0.121260 0.121260
0.121260 0.121260 0.121260
0.121847 0.121847 0.121847
0.127856 0.127856 0.127856
0.133853 0.133853 0.133853
0.141710 0.141710 0.141710
0.150512 0.150512 0.150512
0.157385 0.157385 0.157385
0.165431 0.165431 0.165431
0.173297 0.173297 0.173297
0.188159 0.188159 0.188159
0.206154 0.206154 0.206154
0.224359 0.224359 0.224359
0.242396 0.242396 0.242396
0.259730 0.259730 0.259730
0.276553 0.276553 0.276553
0.292725 0.292725 0.292725
0.308175 0.308175 0.308175
0.323023 0.323023 0.323023
0.337771 0.337771 0.337771
0.351392 0.351392 0.351392
0.364473 0.364473 0.364473
0.376682 0.376682 0.376682
0.388391 0.388391 0.388391
0.399647 0.399647 0.399647
0.410478 0.410478 0.410478
0.422845 0.422845 0.422845
0.435772 0.435772 0.435772
0.448721 0.448721 0.448721
0.461307 0.461307 0.461307
0.473543 0.473543 0.473543
0.485444 0.485444 0.485444
0.496707 0.496707 0.496707
0.507161 0.507161 0.507161
0.517323 0.517323 0.517323
0.527205 0.527205 0.527205
0.536817 0.536817 0.536817
0.546171 0.546171 0.546171
0.555275 0.555275 0.555275
0.564140 0.564140 0.564140
0.572791 0.572791 0.572791
0.581247 0.581247 0.581247
0.590019 0.590019 0.590019
0.598597 0.598597 0.598597
0.606987 0.606987 0.606987
0.615193 0.615193 0.615193
0.623221 0.623221 0.623221
0.631075 0.631075 0.631075
0.638760 0.638760 0.638760
0.646280 0.646280 0.646280
0.653639 0.653639 0.653639
0.660841 0.660841 0.660841
0.667889 0.667889 0.667889
0.674787 0.674787 0.674787
0.681093 0.681093 0.681093
0.686665 0.686665 0.686665
0.692110 0.692110 0.692110
0.697431 0.697431 0.697431
0.702631 0.702631 0.702631
0.707713 0.707713 0.707713
0.712680 0.712680 0.712680
0.717533 0.717533 0.717533
0.722276 0.722276 0.722276
0.726911 0.726911 0.726911
0.731439 0.731439 0.731439
0.121260 0.121260 0.121260
0.121260 0.121260 0.121260
0.123162 0.123162 0.123162
0.130343 0.130343 0.130343
0.139054 0.139054 0.139054
0.150009 0.150009 0.150009
0.159587 0.159587 0.159587
0.168946 0.168946 0.168946
0.176493 0.176493 0.176493
0.185042 0.185042 0.185042
0.194204 0.194204 0.194204
0.207737 0.207737 0.207737
0.225140 0.225140 0.225140
0.242715 0.242715 0.242715
0.259908 0.259908 0.259908
0.276834 0.276834 0.276834
0.293282 0.293282 0.293282
0.309140 0.309140 0.309140
0.324583 0.324583 0.324583
0.339773 0.339773 0.339773
0.353978 0.353978 0.353978
0.367586 0.367586 0.367586
0.380360 0.380360 0.380360
0.392651 0.392651 0.392651
0.404481 0.404481 0.404481
0.416428 0.416428 0.416428
0.430441 0.430441 0.430441
0.444401 0.444401 0.444401
0.458099 0.458099 0.458099
0.471414 0.471414 0.471414
0.484361 0.484361 0.484361
0.496642 0.496642 0.496642
0.508005 0.508005 0.508005
0.519045 0.519045 0.519045
0.529773 0.529773 0.529773
0.540201 0.540201 0.540201
0.550343 0.550343 0.550343
0.560208 0.560208 0.560208
0.569807 0.569807 0.569807
0.579157 0.579157 0.579157
0.588730 0.588730 0.588730
0.598205 0.598205 0.598205
0.607465 0.607465 0.607465
0.616516 0.616516 0.616516
0.625364 0.625364 0.625364
0.634016 0.634016 0.634016
0.642477 0.642477 0.642477
0.650751 0.650751 0.650751
0.658845 0.658845 0.658845
0.666762 0.666762 0.666762
0.674507 0.674507 0.674507
0.681554 0.681554 0.681554
0.687803 0.687803 0.687803
0.693908 0.693908 0.693908
0.699871 0.699871 0.699871
0.705697 0.705697 0.705697
0.711388 0.711388 0.711388
0.716949 0.716949 0.716949
0.722382 0.722382 0.722382
0.727690 0.727690 0.727690
0.732876 0.732876 0.732876
0.737933 0.737933 0.737933
0.742862 0.742862 0.742862
0.747677 0.747677 0.747677
0.752381 0.752381 0.752381
0.121260 0.121260 0.121260
0.121260 0.121260 0.121260
0.124762 0.124762 0.124762
0.132696 0.132696 0.132696
0.144219 0.144219 0.144219
0.156954 0.156954 0.156954
0.169348 0.169348 0.169348
0.179548 0.179548 0.179548
0.188674 0.188674 0.188674
0.197011 0.197011 0.197011
0.205626 0.205626 0.205626
0.214782 0.214782 0.214782
0.226933 0.226933 0.226933
0.243793 0.243793 0.243793
0.260536 0.260536 0.260536
0.277241 0.277241 0.277241
0.293665 0.293665 0.293665
0.309663 0.309663 0.309663
0.325424 0.325424 0.325424
0.340907 0.340907 0.340907
0.355529 0.355529 0.355529
0.369539 0.369539 0.369539
0.382788 0.382788 0.382788
0.395570 0.395570 0.395570
0.407897 0.407897 0.407897
0.421415 0.421415 0.421415
0.436167 0.436167 0.436167
0.450958 0.450958 0.450958
0.465347 0.465347 0.465347
0.479345 0.479345 0.479345
0.492935 0.492935 0.492935
0.505231 0.505231 0.505231
0.517175 0.517175 0.517175
0.528778 0.528778 0.528778
0.540054 0.540054 0.540054
0.551016 0.551016 0.551016
0.561674 0.561674 0.561674
0.572040 0.572040 0.572040
0.582188 0.582188 0.582188
0.592640 0.592640 0.592640
0.602849 0.602849 0.602849
0.612820 0.612820 0.612820
0.622562 0.622562 0.622562
0.632081 0.632081 0.632081
0.641385 0.641385 0.641385
0.650478 0.650478 0.650478
0.659368 0.659368 0.659368
0.668060 0.668060 0.668060
0.676558 0.676558 0.676558
0.683903 0.683903 0.683903
0.690750 0.690750 0.690750
0.697435 0.697435 0.697435
0.703962 0.703962 0.703962
0.710335 0.710335 0.710335
0.716559 0.716559 0.716559
0.722638 0.722638 0.722638
0.728575 0.728575 0.728575
0.734374 0.734374 0.734374
0.740018 0.740018 0.740018
0.745527 0.745527 0.745527
0.750907 0.750907 0.750907
0.756163 0.756163 0.756163
0.761296 0.761296 0.761296
0.766310 0.766310 0.766310
0.771207 0.771207 0.771207
0.121260 0.121260 0.121260
0.121260 0.121260 0.121260
0.126178 0.126178 0.126178
0.135753 0.135753 0.135753
0.150048 0.150048 0.150048
0.164320 0.164320 0.164320
0.177630 0.177630 0.177630
0.189824 0.189824 0.189824
0.199472 0.199472 0.199472
0.208281 0.208281 0.208281
0.216881 0.216881 0.216881
0.225679 0.225679 0.225679
0.234982 0.234982 0.234982
0.245643 0.245643 0.245643
0.261800 0.261800 0.261800
0.278079 0.278079 0.278079
0.294243 0.294243 0.294243
0.310149 0.310149 0.310149
0.325993 0.325993 0.325993
0.341593 0.341593 0.341593
0.356460 0.356460 0.356460
0.370745 0.370745 0.370745
0.384345 0.384345 0.384345
0.397511 0.397511 0.397511
0.410246 0.410246 0.410246
0.424952 0.424952 0.424952
0.440433 0.440433 0.440433
0.455841 0.455841 0.455841
0.470851 0.470851 0.470851
0.485471 0.485471 0.485471
0.499198 0.499198 0.499198
0.512051 0.512051 0.512051
0.524541 0.524541 0.524541
0.536681 0.536681 0.536681
0.548482 0.548482 0.548482
0.559956 0.559956 0.559956
0.571115 0.571115 0.571115
0.582020 0.582020 0.582020
0.593255 0.593255 0.593255
0.604224 0.604224 0.604224
0.614935 0.614935 0.614935
0.625396 0.625396 0.625396
0.635614 0.635614 0.635614
0.645597 0.645597 0.645597
0.655351 0.655351 0.655351
0.664882 0.664882 0.664882
0.674198 0.674198 0.674198
0.682583 0.682583 0.682583
0.690084 0.690084 0.690084
0.697403 0.697403 0.697403
0.704545 0.704545 0.704545
0.711515 0.711515 0.711515
0.718319 0.718319 0.718319
0.724962 0.724962 0.724962
0.731446 0.731446 0.731446
0.737768 0.737768 0.737768
0.743924 0.743924 0.743924
0.749934 0.749934 0.749934
0.755804 0.755804 0.755804
0.761535 0.761535 0.761535
0.767132 0.767132 0.767132
0.772598 0.772598 0.772598
0.777935 0.777935 0.777935
0.783147 0.783147 0.783147
0.787500 0.787500 0.787500
0.121260 0.121260 0.121260
0.121260 0.121260 0.121260
0.127257 0.127257 0.127257
0.138386 0.138386 0.138386
0.154107 0.154107 0.154107
0.170321 0.170321 0.170321
0.185605 0.185605 0.185605
0.198398 0.198398 0.198398
0.209139 0.209139 0.209139
0.218675 0.218675 0.218675
0.227601 0.227601 0.227601
0.236462 0.236462 0.236462
0.245195 0.245195 0.245195
0.254195 0.254195 0.254195
0.263676 0.263676 0.263676
0.279450 0.279450 0.279450
0.295209 0.295209 0.295209
0.310856 0.310856 0.310856
0.326609 0.326609 0.326609
0.342149 0.342149 0.342149
0.357099 0.357099 0.357099
0.371524 0.371524 0.371524
0.385345 0.385345 0.385345
0.398783 0.398783 0.398783
0.411827 0.411827 0.411827
0.427404 0.427404 0.427404
0.443471 0.443471 0.443471
0.459401 0.459401 0.459401
0.474952 0.474952 0.474952
0.490122 0.490122 0.490122
0.504031 0.504031 0.504031
0.517392 0.517392 0.517392
0.530388 0.530388 0.530388
0.543030 0.543030 0.543030
0.555326 0.555326 0.555326
0.567287 0.567287 0.567287
0.578924 0.578924 0.578924
0.590823 0.590823 0.590823
0.602572 0.602572 0.602572
0.614044 0.614044 0.614044
0.625246 0.625246 0.625246
0.636186 0.636186 0.636186
0.646872 0.646872 0.646872
0.657311 0.657311 0.657311
0.667509 0.667509 0.667509
0.677474 0.677474 0.677474
0.685878 0.685878 0.685878
0.693889 0.693889 0.693889
0.701703 0.701703 0.701703
0.709326 0.709326 0.709326
0.716763 0.716763 0.716763
0.724019 0.724019 0.724019
0.731100 0.731100 0.731100
0.738001 0.738001 0.738001
0.744718 0.744718 0.744718
0.751273 0.751273 0.751273
0.757673 0.757673 0.757673
0.763921 0.763921 0.763921
0.770021 0.770021 0.770021
0.775976 0.775976 0.775976
0.781790 0.781790 0.781790
0.786893 0.786893 0.786893
0.791257 0.791257 0.791257
0.795511 0.795511 0.795511
0.799659 0.799659 0.799659
0.121260 0.121260 0.121260
0.121260 0.121260 0.121260
0.128114 0.128114 0.128114
0.140409 0.140409 0.140409
0.157227 0.157227 0.157227
0.175093 0.175093 0.175093
0.191951 0.191951 0.191951
0.205870 0.205870 0.205870
0.217722 0.217722 0.217722
0.228141 0.228141 0.228141
0.237653 0.237653 0.237653
0.246481 0.246481 0.246481
0.255177 0.255177 0.255177
0.263959 0.263959 0.263959
0.272934 0.272934 0.272934
0.282125 0.282125 0.282125
0.296617 0.296617 0.296617
0.311911 0.311911 0.311911
0.327466 0.327466 0.327466
0.342794 0.342794 0.342794
0.357687 0.357687 0.357687
0.372123 0.372123 0.372123
0.386044 0.386044 0.386044
0.399641 0.399641 0.399641
0.412894 0.412894 0.412894
0.429085 0.429085 0.429085
0.445597 0.445597 0.445597
0.461950 0.461950 0.461950
0.477951 0.477951 0.477951
0.493522 0.493522 0.493522
0.507701 0.507701 0.507701
0.521515 0.521515 0.521515
0.534969 0.534969 0.534969
0.548070 0.548070 0.548070
0.560824 0.560824 0.560824
0.573241 0.573241 0.573241
0.585592 0.585592 0.585592
0.598126 0.598126 0.598126
