trix_modern/TriX_Blue47_Normal.cube
TITLE "Tri-X Blue47 Normal"
# Adobe RGB in/out. REPLACES AgX. R=0.0336 G=0.0311 B=0.9353
LUT_3D_SIZE 5
DOMAIN_MIN 0.0 0.0 0.0
DOMAIN_MAX 1.0 1.0 1.0
0.095875 0.095875 0.095875
0.095875 0.095875 0.095875
0.095875 0.095875 0.095875
0.095875 0.095875 0.095875
0.095875 0.095875 0.095875
0.095875 0.095875 0.095875
0.095875 0.095875 0.095875
0.095875 0.095875 0.095875
0.095875 0.095875 0.095875
0.095875 0.095875 0.095875
0.095875 0.095875 0.095875
0.095875 0.095875 0.095875
0.095875 0.095875 0.095875
0.095875 0.095875 0.095875
0.095875 0.095875 0.095875
0.095875 0.095875 0.095875
0.095875 0.095875 0.095875
0.095875 0.095875 0.095875
0.095875 0.095875 0.095875
0.095875 0.095875 0.095875
0.095875 0.095875 0.095875
0.095875 0.095875 0.095875
0.095875 0.095875 0.095875
0.095875 0.095875 0.095875
0.095875 0.095875 0.095875
0.095875 0.095875 0.095875
0.095875 0.095875 0.095875
0.095875 0.095875 0.095875
0.095875 0.095875 0.095875
0.095875 0.095875 0.095875
0.095875 0.095875 0.095875
0.213592 0.213592 0.213592
0.294935 0.294935 0.294935
0.306775 0.306775 0.306775
0.296554 0.296554 0.296554
0.095875 0.095875 0.095875
0.300890 0.300890 0.300890
0.261988 0.261988 0.261988
0.272221 0.272221 0.272221
0.276865 0.276865 0.276865
0.095875 0.095875 0.095875
0.294551 0.294551 0.294551
0.276805 0.276805 0.276805
0.260315 0.260315 0.260315
0.257256 0.257256 0.257256
0.095875 0.095875 0.095875
0.267245 0.267245 0.267245
0.262442 0.262442 0.262442
0.253405 0.253405 0.253405
0.247220 0.247220 0.247220
0.095875 0.095875 0.095875
0.095875 0.095875 0.095875
0.095875 0.095875 0.095875
0.095875 0.095875 0.095875
0.095875 0.095875 0.095875
0.095875 0.095875 0.095875
0.746799 0.746799 0.746799
0.694634 0.694634 0.694634
0.663856 0.663856 0.663856
0.630238 0.630238 0.630238
0.095875 0.095875 0.095875
0.592996 0.592996 0.592996
0.508013 0.508013 0.508013
0.566776 0.566776 0.566776
0.582817 0.582817 0.582817
0.095875 0.095875 0.095875
0.602531 0.602531 0.602531
0.568420 0.568420 0.568420
0.542727 0.542727 0.542727
0.547949 0.547949 0.547949
0.095875 0.095875 0.095875
0.562258 0.562258 0.562258
0.556642 0.556642 0.556642
0.544544 0.544544 0.544544
0.537841 0.537841 0.537841
0.095875 0.095875 0.095875
0.095875 0.095875 0.095875
0.095875 0.095875 0.095875
0.095875 0.095875 0.095875
0.095875 0.095875 0.095875
0.095875 0.095875 0.095875
0.983645 0.983645 0.983645
0.968187 0.968187 0.968187
0.928681 0.928681 0.928681
0.888125 0.888125 0.888125
0.095875 0.095875 0.095875
0.878676 0.878676 0.878676
0.856493 0.856493 0.856493
0.849929 0.849929 0.849929
0.843837 0.843837 0.843837
0.095875 0.095875 0.095875
0.834476 0.834476 0.834476
0.811458 0.811458 0.811458
0.784842 0.784842 0.784842
0.803540 0.803540 0.803540
0.095875 0.095875 0.095875
0.808996 0.808996 0.808996
0.806864 0.806864 0.806864
0.798782 0.798782 0.798782
0.796253 0.796253 0.796253
0.095875 0.095875 0.095875
0.095875 0.095875 0.095875
0.095875 0.095875 0.095875
0.095875 0.095875 0.095875
0.095875 0.095875 0.095875
0.095875 0.095875 0.095875
0.995956 0.995956 0.995956
0.993918 0.993918 0.993918
0.988842 0.988842 0.988842
0.980038 0.980038 0.980038
0.095875 0.095875 0.095875
0.985650 0.985650 0.985650
0.982040 0.982040 0.982040
0.976544 0.976544 0.976544
0.971190 0.971190 0.971190
0.095875 0.095875 0.095875
0.960505 0.960505 0.960505
0.956336 0.956336 0.956336
0.951224 0.951224 0.951224
0.949865 0.949865 0.949865
0.095875 0.095875 0.095875
0.944187 0.944187 0.944187
0.944900 0.944900 0.944900
0.941640 0.941640 0.941640
0.941833 0.941833 0.941833
