trix_modern/TriX_Orange21_ExtraSoft.cube
TITLE "Tri-X Orange21 ExtraSoft"
# Adobe RGB in/out. REPLACES AgX. R=0.7239 G=0.2761 B=0.0000
LUT_3D_SIZE 9
DOMAIN_MIN 0.0 0.0 0.0
DOMAIN_MAX 1.0 1.0 1.0
0.121260 0.121260 0.121260
0.121260 0.121260 0.121260
0.121260 0.121260 0.121260
0.121260 0.121260 0.121260
0.121260 0.121260 0.121260
0.121260 0.121260 0.121260
0.121260 0.121260 0.121260
0.121260 0.121260 0.121260
0.121260 0.121260 0.121260
0.121260 0.121260 0.121260
0.165431 0.165431 0.165431
0.292725 0.292725 0.292725
0.399647 0.399647 0.399647
0.496707 0.496707 0.496707
0.572791 0.572791 0.572791
0.638760 0.638760 0.638760
0.692110 0.692110 0.692110
0.731439 0.731439 0.731439
0.121260 0.121260 0.121260
0.237978 0.237978 0.237978
0.317287 0.317287 0.317287
0.415146 0.415146 0.415146
0.543251 0.543251 0.543251
0.652811 0.652811 0.652811
0.735738 0.735738 0.735738
0.796886 0.796886 0.796886
0.838181 0.838181 0.838181
0.121260 0.121260 0.121260
0.265296 0.265296 0.265296
0.372300 0.372300 0.372300
0.447820 0.447820 0.447820
0.551761 0.551761 0.551761
0.673343 0.673343 0.673343
0.767274 0.767274 0.767274
0.832782 0.832782 0.832782
0.876495 0.876495 0.876495
0.121260 0.121260 0.121260
0.274840 0.274840 0.274840
0.401332 0.401332 0.401332
0.502813 0.502813 0.502813
0.586956 0.586956 0.586956
0.684385 0.684385 0.684385
0.780847 0.780847 0.780847
0.849096 0.849096 0.849096
0.893452 0.893452 0.893452
0.121260 0.121260 0.121260
0.276893 0.276893 0.276893
0.414396 0.414396 0.414396
0.535702 0.535702 0.535702
0.632621 0.632621 0.632621
0.716557 0.716557 0.716557
0.791888 0.791888 0.791888
0.859287 0.859287 0.859287
0.903979 0.903979 0.903979
0.121260 0.121260 0.121260
0.274840 0.274840 0.274840
0.418343 0.418343 0.418343
0.551367 0.551367 0.551367
0.661397 0.661397 0.661397
0.746970 0.746970 0.746970
0.815085 0.815085 0.815085
0.867923 0.867923 0.867923
0.913058 0.913058 0.913058
0.121260 0.121260 0.121260
0.270221 0.270221 0.270221
0.414529 0.414529 0.414529
0.554338 0.554338 0.554338
0.674102 0.674102 0.674102
0.764565 0.764565 0.764565
0.832438 0.832438 0.832438
0.882144 0.882144 0.882144
0.922669 0.922669 0.922669
0.121260 0.121260 0.121260
0.263859 0.263859 0.263859
0.407409 0.407409 0.407409
0.548433 0.548433 0.548433
0.673843 0.673843 0.673843
0.770194 0.770194 0.770194
0.840800 0.840800 0.840800
0.890466 0.890466 0.890466
0.931009 0.931009 0.931009
0.121260 0.121260 0.121260
0.121260 0.121260 0.121260
0.121260 0.121260 0.121260
0.121260 0.121260 0.121260
0.121260 0.121260 0.121260
0.121260 0.121260 0.121260
0.121260 0.121260 0.121260
0.121260 0.121260 0.121260
0.121260 0.121260 0.121260
0.121260 0.121260 0.121260
0.146378 0.146378 0.146378
0.284450 0.284450 0.284450
0.390918 0.390918 0.390918
0.486245 0.486245 0.486245
0.564826 0.564826 0.564826
0.632418 0.632418 0.632418
0.688139 0.688139 0.688139
0.728543 0.728543 0.728543
0.121260 0.121260 0.121260
0.224360 0.224360 0.224360
0.298332 0.298332 0.298332
0.401031 0.401031 0.401031
0.530172 0.530172 0.530172
0.642641 0.642641 0.642641
0.729484 0.729484 0.729484
0.793329 0.793329 0.793329
0.835637 0.835637 0.835637
0.121260 0.121260 0.121260
0.258012 0.258012 0.258012
0.361883 0.361883 0.361883
0.432142 0.432142 0.432142
0.539859 0.539859 0.539859
0.663283 0.663283 0.663283
0.761024 0.761024 0.761024
0.829244 0.829244 0.829244
0.874630 0.874630 0.874630
0.121260 0.121260 0.121260
0.270957 0.270957 0.270957
0.395891 0.395891 0.395891
0.494310 0.494310 0.494310
0.577529 0.577529 0.577529
0.677518 0.677518 0.677518
0.775462 0.775462 0.775462
0.845945 0.845945 0.845945
0.891785 0.891785 0.891785
0.121260 0.121260 0.121260
0.274721 0.274721 0.274721
0.411224 0.411224 0.411224
0.530888 0.530888 0.530888
0.626762 0.626762 0.626762
0.711611 0.711611 0.711611
0.788822 0.788822 0.788822
0.857469 0.857469 0.857469
0.902653 0.902653 0.902653
0.121260 0.121260 0.121260
0.273596 0.273596 0.273596
0.416112 0.416112 0.416112
0.548608 0.548608 0.548608
0.658005 0.658005 0.658005
0.744007 0.744007 0.744007
0.812930 0.812930 0.812930
0.866730 0.866730 0.866730
0.912159 0.912159 0.912159
0.121260 0.121260 0.121260
0.269516 0.269516 0.269516
0.413383 0.413383 0.413383
0.552783 0.552783 0.552783
0.672210 0.672210 0.672210
0.762920 0.762920 0.762920
0.831231 0.831231 0.831231
0.881403 0.881403 0.881403
0.922138 0.922138 0.922138
0.121260 0.121260 0.121260
0.263481 0.263481 0.263481
0.406876 0.406876 0.406876
0.547615 0.547615 0.547615
0.672875 0.672875 0.672875
0.769386 0.769386 0.769386
0.840240 0.840240 0.840240
0.890155 0.890155 0.890155
0.930869 0.930869 0.930869
0.121260 0.121260 0.121260
0.121260 0.121260 0.121260
0.121260 0.121260 0.121260
0.121260 0.121260 0.121260
0.121260 0.121260 0.121260
0.121260 0.121260 0.121260
0.121260 0.121260 0.121260
0.121260 0.121260 0.121260
0.121260 0.121260 0.121260
0.121260 0.121260 0.121260
0.217053 0.217053 0.217053
0.315715 0.315715 0.315715
0.396909 0.396909 0.396909
0.482008 0.482008 0.482008
0.557002 0.557002 0.557002
0.623313 0.623313 0.623313
0.680999 0.680999 0.680999
0.722486 0.722486 0.722486
0.121260 0.121260 0.121260
0.205086 0.205086 0.205086
0.262816 0.262816 0.262816
0.388502 0.388502 0.388502
0.516444 0.516444 0.516444
0.628832 0.628832 0.628832
0.719043 0.719043 0.719043
0.786391 0.786391 0.786391
0.830054 0.830054 0.830054
0.121260 0.121260 0.121260
0.242834 0.242834 0.242834
0.341086 0.341086 0.341086
0.403403 0.403403 0.403403
0.517396 0.517396 0.517396
0.644172 0.644172 0.644172
0.748371 0.748371 0.748371
0.821496 0.821496 0.821496
0.870225 0.870225 0.870225
0.121260 0.121260 0.121260
0.261385 0.261385 0.261385
0.383051 0.383051 0.383051
0.472961 0.472961 0.472961
0.555417 0.555417 0.555417
0.658849 0.658849 0.658849
0.762549 0.762549 0.762549
0.838169 0.838169 0.838169
0.887512 0.887512 0.887512
0.121260 0.121260 0.121260
0.268794 0.268794 0.268794
0.403098 0.403098 0.403098
0.518299 0.518299 0.518299
0.611261 0.611261 0.611261
0.698209 0.698209 0.698209
0.779533 0.779533 0.779533
0.851288 0.851288 0.851288
0.898992 0.898992 0.898992
0.121260 0.121260 0.121260
0.269964 0.269964 0.269964
0.410569 0.410569 0.410569
0.540777 0.540777 0.540777
0.648397 0.648397 0.648397
0.735503 0.735503 0.735503
0.806651 0.806651 0.806651
0.863290 0.863290 0.863290
0.909531 0.909531 0.909531
0.121260 0.121260 0.121260
0.267351 0.267351 0.267351
0.410346 0.410346 0.410346
0.548094 0.548094 0.548094
0.666540 0.666540 0.666540
0.757976 0.757976 0.757976
0.827570 0.827570 0.827570
0.879135 0.879135 0.879135
0.920501 0.920501 0.920501
0.121260 0.121260 0.121260
0.262275 0.262275 0.262275
0.405183 0.405183 0.405183
0.545035 0.545035 0.545035
0.669839 0.669839 0.669839
0.766857 0.766857 0.766857
0.838482 0.838482 0.838482
0.889174 0.889174 0.889174
0.930423 0.930423 0.930423
0.121260 0.121260 0.121260
0.121260 0.121260 0.121260
0.121260 0.121260 0.121260
0.121260 0.121260 0.121260
0.121260 0.121260 0.121260
0.121260 0.121260 0.121260
0.121260 0.121260 0.121260
0.121260 0.121260 0.121260
0.121260 0.121260 0.121260
0.121260 0.121260 0.121260
0.265926 0.265926 0.265926
0.367881 0.367881 0.367881
0.432201 0.432201 0.432201
0.501512 0.501512 0.501512
0.563436 0.563436 0.563436
0.623126 0.623126 0.623126
0.677826 0.677826 0.677826
0.718351 0.718351 0.718351
0.121260 0.121260 0.121260
0.219943 0.219943 0.219943
0.324662 0.324662 0.324662
0.416151 0.416151 0.416151
0.529394 0.529394 0.529394
0.631323 0.631323 0.631323
0.716334 0.716334 0.716334
0.782030 0.782030 0.782030
0.825851 0.825851 0.825851
0.121260 0.121260 0.121260
0.229897 0.229897 0.229897
0.326916 0.326916 0.326916
0.377097 0.377097 0.377097
0.507700 0.507700 0.507700
0.635395 0.635395 0.635395
0.740899 0.740899 0.740899
0.815801 0.815801 0.815801
0.866389 0.866389 0.866389
0.121260 0.121260 0.121260
0.250258 0.250258 0.250258
0.369087 0.369087 0.369087
0.450034 0.450034 0.450034
0.529891 0.529891 0.529891
0.640415 0.640415 0.640415
0.750432 0.750432 0.750432
0.830699 0.830699 0.830699
0.883148 0.883148 0.883148
0.121260 0.121260 0.121260
0.261097 0.261097 0.261097
0.392923 0.392923 0.392923
0.503144 0.503144 0.503144
0.592391 0.592391 0.592391
0.681381 0.681381 0.681381
0.767321 0.767321 0.767321
0.843565 0.843565 0.843565
0.894678 0.894678 0.894678
0.121260 0.121260 0.121260
0.264915 0.264915 0.264915
0.403694 0.403694 0.403694
0.530448 0.530448 0.530448
0.635880 0.635880 0.635880
0.724207 0.724207 0.724207
0.798204 0.798204 0.798204
0.858830 0.858830 0.858830
0.906101 0.906101 0.906101
0.121260 0.121260 0.121260
0.264183 0.264183 0.264183
0.405962 0.405962 0.405962
0.541464 0.541464 0.541464
0.658645 0.658645 0.658645
0.751095 0.751095 0.751095
0.822422 0.822422 0.822422
0.875914 0.875914 0.875914
0.918224 0.918224 0.918224
0.121260 0.121260 0.121260
0.260430 0.260430 0.260430
0.402615 0.402615 0.402615
0.541173 0.541173 0.541173
0.665353 0.665353 0.665353
0.763142 0.763142 0.763142
0.835898 0.835898 0.835898
0.887724 0.887724 0.887724
0.929765 0.929765 0.929765
0.121260 0.121260 0.121260
0.121260 0.121260 0.121260
0.121260 0.121260 0.121260
0.121260 0.121260 0.121260
0.121260 0.121260 0.121260
0.121260 0.121260 0.121260
0.121260 0.121260 0.121260
0.121260 0.121260 0.121260
0.121260 0.121260 0.121260
0.121260 0.121260 0.121260
0.290515 0.290515 0.290515
0.404221 0.404221 0.404221
0.478668 0.478668 0.478668
0.533359 0.533359 0.533359
0.582785 0.582785 0.582785
0.633483 0.633483 0.633483
0.681119 0.681119 0.681119
0.718187 0.718187 0.718187
0.121260 0.121260 0.121260
0.251158 0.251158 0.251158
0.374380 0.374380 0.374380
0.473692 0.473692 0.473692
0.565751 0.565751 0.565751
0.652939 0.652939 0.652939
0.724734 0.724734 0.724734
0.784421 0.784421 0.784421
0.825116 0.825116 0.825116
0.121260 0.121260 0.121260
0.230705 0.230705 0.230705
0.342550 0.342550 0.342550
0.425827 0.425827 0.425827
0.535570 0.535570 0.535570
0.649156 0.649156 0.649156
0.744927 0.744927 0.744927
0.815613 0.815613 0.815613
0.864962 0.864962 0.864962
0.121260 0.121260 0.121260
0.241316 0.241316 0.241316
0.359365 0.359365 0.359365
0.437099 0.437099 0.437099
0.504596 0.504596 0.504596
0.633686 0.633686 0.633686
0.746165 0.746165 0.746165
0.827259 0.827259 0.827259
0.880563 0.880563 0.880563
0.121260 0.121260 0.121260
0.253225 0.253225 0.253225
0.382916 0.382916 0.382916
0.488802 0.488802 0.488802
0.574730 0.574730 0.574730
0.661154 0.661154 0.661154
0.756583 0.756583 0.756583
0.837331 0.837331 0.837331
0.891185 0.891185 0.891185
0.121260 0.121260 0.121260
0.259274 0.259274 0.259274
0.396167 0.396167 0.396167
0.519548 0.519548 0.519548
0.622921 0.622921 0.622921
0.712226 0.712226 0.712226
0.789029 0.789029 0.789029
0.853707 0.853707 0.853707
0.902729 0.902729 0.902729
0.121260 0.121260 0.121260
0.260457 0.260457 0.260457
0.400870 0.400870 0.400870
0.533953 0.533953 0.533953
0.649897 0.649897 0.649897
0.743505 0.743505 0.743505
0.816679 0.816679 0.816679
0.872300 0.872300 0.872300
0.916054 0.916054 0.916054
0.121260 0.121260 0.121260
0.258173 0.258173 0.258173
0.399498 0.399498 0.399498
0.536560 0.536560 0.536560
0.660088 0.660088 0.660088
0.758835 0.758835 0.758835
0.832915 0.832915 0.832915
0.886055 0.886055 0.886055
0.929021 0.929021 0.929021
0.121260 0.121260 0.121260
0.121260 0.121260 0.121260
0.121260 0.121260 0.121260
0.121260 0.121260 0.121260
0.121260 0.121260 0.121260
0.121260 0.121260 0.121260
0.121260 0.121260 0.121260
0.121260 0.121260 0.121260
0.121260 0.121260 0.121260
0.121260 0.121260 0.121260
0.300149 0.300149 0.300149
0.428220 0.428220 0.428220
0.513788 0.513788 0.513788
0.565505 0.565505 0.565505
0.609024 0.609024 0.609024
0.650882 0.650882 0.650882
0.689496 0.689496 0.689496
0.721943 0.721943 0.721943
0.121260 0.121260 0.121260
0.275806 0.275806 0.275806
0.409909 0.409909 0.409909
0.523203 0.523203 0.523203
0.608893 0.608893 0.608893
0.683996 0.683996 0.683996
0.741600 0.741600 0.741600
0.791648 0.791648 0.791648
0.828082 0.828082 0.828082
0.121260 0.121260 0.121260
0.244977 0.244977 0.244977
0.371885 0.371885 0.371885
0.478685 0.478685 0.478685
0.579980 0.579980 0.579980
0.680797 0.680797 0.680797
0.760471 0.760471 0.760471
0.821622 0.821622 0.821622
0.866512 0.866512 0.866512
0.121260 0.121260 0.121260
0.239020 0.239020 0.239020
0.361485 0.361485 0.361485
0.454459 0.454459 0.454459
0.549193 0.549193 0.549193
0.656877 0.656877 0.656877
0.755602 0.755602 0.755602
0.830188 0.830188 0.830188
0.880792 0.880792 0.880792
0.121260 0.121260 0.121260
0.246931 0.246931 0.246931
0.375602 0.375602 0.375602
0.479806 0.479806 0.479806
0.565813 0.565813 0.565813
0.641082 0.641082 0.641082
0.752952 0.752952 0.752952
0.835409 0.835409 0.835409
0.889706 0.889706 0.889706
0.121260 0.121260 0.121260
0.253803 0.253803 0.253803
0.389034 0.389034 0.389034
0.509718 0.509718 0.509718
0.611656 0.611656 0.611656
0.701208 0.701208 0.701208
0.778539 0.778539 0.778539
0.848612 0.848612 0.848612
0.900132 0.900132 0.900132
0.121260 0.121260 0.121260
0.256548 0.256548 0.256548
0.395590 0.395590 0.395590
0.526362 0.526362 0.526362
0.641293 0.641293 0.641293
0.736088 0.736088 0.736088
0.810931 0.810931 0.810931
0.868631 0.868631 0.868631
0.914015 0.914015 0.914015
0.121260 0.121260 0.121260
0.255693 0.255693 0.255693
0.396098 0.396098 0.396098
0.531608 0.531608 0.531608
0.654544 0.654544 0.654544
0.754374 0.754374 0.754374
0.829852 0.829852 0.829852
0.884354 0.884354 0.884354
0.928297 0.928297 0.928297
0.121260 0.121260 0.121260
0.121260 0.121260 0.121260
0.121260 0.121260 0.121260
0.121260 0.121260 0.121260
0.121260 0.121260 0.121260
0.121260 0.121260 0.121260
0.121260 0.121260 0.121260
0.121260 0.121260 0.121260
0.121260 0.121260 0.121260
0.121260 0.121260 0.121260
0.301454 0.301454 0.301454
0.440368 0.440368 0.440368
0.535771 0.535771 0.535771
0.591889 0.591889 0.591889
0.634085 0.634085 0.634085
0.670381 0.670381 0.670381
0.700630 0.700630 0.700630
0.728375 0.728375 0.728375
0.121260 0.121260 0.121260
0.291794 0.291794 0.291794
0.439566 0.439566 0.439566
0.559664 0.559664 0.559664
0.647515 0.647515 0.647515
0.711545 0.711545 0.711545
0.761717 0.761717 0.761717
0.801912 0.801912 0.801912
0.833764 0.833764 0.833764
0.121260 0.121260 0.121260
0.261417 0.261417 0.261417
0.397935 0.397935 0.397935
0.520811 0.520811 0.520811
0.624032 0.624032 0.624032
0.711617 0.711617 0.711617
0.782002 0.782002 0.782002
0.831997 0.831997 0.831997
0.870542 0.870542 0.870542
0.121260 0.121260 0.121260
0.244645 0.244645 0.244645
0.374540 0.374540 0.374540
0.486425 0.486425 0.486425
0.589285 0.589285 0.589285
0.690902 0.690902 0.690902
0.775537 0.775537 0.775537
0.839021 0.839021 0.839021
0.883874 0.883874 0.883874
0.121260 0.121260 0.121260
0.244174 0.244174 0.244174
0.373968 0.373968 0.373968
0.483255 0.483255 0.483255
0.578961 0.578961 0.578961
0.676223 0.676223 0.676223
0.766667 0.766667 0.766667
0.840416 0.840416 0.840416
0.891051 0.891051 0.891051
0.121260 0.121260 0.121260
0.249368 0.249368 0.249368
0.383541 0.383541 0.383541
0.503061 0.503061 0.503061
0.605501 0.605501 0.605501
0.695653 0.695653 0.695653
0.767470 0.767470 0.767470
0.846924 0.846924 0.846924
0.899298 0.899298 0.899298
0.121260 0.121260 0.121260
0.252847 0.252847 0.252847
0.390660 0.390660 0.390660
0.519513 0.519513 0.519513
0.633884 0.633884 0.633884
0.729833 0.729833 0.729833
0.805814 0.805814 0.805814
0.865128 0.865128 0.865128
0.912350 0.912350 0.912350
0.121260 0.121260 0.121260
0.253173 0.253173 0.253173
0.392664 0.392664 0.392664
0.526689 0.526689 0.526689
0.649161 0.649161 0.649161
0.750140 0.750140 0.750140
0.826982 0.826982 0.826982
0.882774 0.882774 0.882774
0.927685 0.927685 0.927685
0.121260 0.121260 0.121260
0.121260 0.121260 0.121260
0.121260 0.121260 0.121260
0.121260 0.121260 0.121260
0.121260 0.121260 0.121260
0.121260 0.121260 0.121260
0.121260 0.121260 0.121260
0.121260 0.121260 0.121260
0.121260 0.121260 0.121260
0.121260 0.121260 0.121260
0.298119 0.298119 0.298119
0.442270 0.442270 0.442270
0.546824 0.546824 0.546824
0.610300 0.610300 0.610300
0.654053 0.654053 0.654053
0.686595 0.686595 0.686595
0.711937 0.711937 0.711937
0.735766 0.735766 0.735766
0.121260 0.121260 0.121260
0.300478 0.300478 0.300478
0.458629 0.458629 0.458629
0.584385 0.584385 0.584385
0.676841 0.676841 0.676841
0.734861 0.734861 0.734861
0.780794 0.780794 0.780794
0.812781 0.812781 0.812781
0.840606 0.840606 0.840606
0.121260 0.121260 0.121260
0.274880 0.274880 0.274880
0.419284 0.419284 0.419284
0.552779 0.552779 0.552779
0.660374 0.660374 0.660374
0.739420 0.739420 0.739420
0.799802 0.799802 0.799802
0.843886 0.843886 0.843886
0.875867 0.875867 0.875867
0.121260 0.121260 0.121260
0.253932 0.253932 0.253932
0.390310 0.390310 0.390310
0.515280 0.515280 0.515280
0.625163 0.625163 0.625163
0.719774 0.719774 0.719774
0.795154 0.795154 0.795154
0.850711 0.850711 0.850711
0.888797 0.888797 0.888797
0.121260 0.121260 0.121260
0.245809 0.245809 0.245809
0.378715 0.378715 0.378715
0.497212 0.497212 0.497212
0.603472 0.603472 0.603472
0.702798 0.702798 0.702798
0.786949 0.786949 0.786949
0.850404 0.850404 0.850404
0.894809 0.894809 0.894809
0.121260 0.121260 0.121260
0.246858 0.246858 0.246858
0.381006 0.381006 0.381006
0.501853 0.501853 0.501853
0.608454 0.608454 0.608454
0.703961 0.703961 0.703961
0.786059 0.786059 0.786059
0.853134 0.853134 0.853134
0.901073 0.901073 0.901073
0.121260 0.121260 0.121260
0.249767 0.249767 0.249767
0.386675 0.386675 0.386675
0.514362 0.514362 0.514362
0.629030 0.629030 0.629030
0.726497 0.726497 0.726497
0.803269 0.803269 0.803269
0.861957 0.861957 0.861957
0.911737 0.911737 0.911737
0.121260 0.121260 0.121260
0.250797 0.250797 0.250797
0.389454 0.389454 0.389454
0.522182 0.522182 0.522182
0.644390 0.644390 0.644390
0.746544 0.746544 0.746544
0.824626 0.824626 0.824626
0.881479 0.881479 0.881479
0.927263 0.927263 0.927263
0.121260 0.121260 0.121260
0.121260 0.121260 0.121260
0.121260 0.121260 0.121260
0.121260 0.121260 0.121260
0.121260 0.121260 0.121260
0.121260 0.121260 0.121260
0.121260 0.121260 0.121260
0.121260 0.121260 0.121260
0.121260 0.121260 0.121260
0.121260 0.121260 0.121260
0.292180 0.292180 0.292180
0.437293 0.437293 0.437293
0.549200 0.549200 0.549200
0.619923 0.619923 0.619923
0.667385 0.667385 0.667385
0.697996 0.697996 0.697996
0.721480 0.721480 0.721480
0.742502 0.742502 0.742502
0.121260 0.121260 0.121260
0.303761 0.303761 0.303761
0.467627 0.467627 0.467627
0.599264 0.599264 0.599264
0.693463 0.693463 0.693463
0.751969 0.751969 0.751969
0.793817 0.793817 0.793817
0.822336 0.822336 0.822336
0.847105 0.847105 0.847105
0.121260 0.121260 0.121260
0.284274 0.284274 0.284274
0.437377 0.437377 0.437377
0.575719 0.575719 0.575719
0.686355 0.686355 0.686355
0.761575 0.761575 0.761575
0.814587 0.814587 0.814587
0.854952 0.854952 0.854952
0.881222 0.881222 0.881222
0.121260 0.121260 0.121260
0.262987 0.262987 0.262987
0.404350 0.404350 0.404350
0.538853 0.538853 0.538853
0.654236 0.654236 0.654236
0.743866 0.743866 0.743866
0.811093 0.811093 0.811093
0.860757 0.860757 0.860757
0.894170 0.894170 0.894170
0.121260 0.121260 0.121260
0.250336 0.250336 0.250336
0.386836 0.386836 0.386836
0.513398 0.513398 0.513398
0.627028 0.627028 0.627028
0.724901 0.724901 0.724901
0.802228 0.802228 0.802228
0.859992 0.859992 0.859992
0.899537 0.899537 0.899537
0.121260 0.121260 0.121260
0.246710 0.246710 0.246710
0.381926 0.381926 0.381926
0.506269 0.506269 0.506269
0.618717 0.618717 0.618717
0.718057 0.718057 0.718057
0.798791 0.798791 0.798791
0.860674 0.860674 0.860674
0.904479 0.904479 0.904479
0.121260 0.121260 0.121260
0.247695 0.247695 0.247695
0.384193 0.384193 0.384193
0.511799 0.511799 0.511799
0.627989 0.627989 0.627989
0.727825 0.727825 0.727825
0.806608 0.806608 0.806608
0.866996 0.866996 0.866996
0.913187 0.913187 0.913187
0.121260 0.121260 0.121260
0.248740 0.248740 0.248740
0.386711 0.386711 0.386711
0.518457 0.518457 0.518457
0.640686 0.640686 0.640686
0.744037 0.744037 0.744037
0.823220 0.823220 0.823220
0.880794 0.880794 0.880794
0.927107 0.927107 0.927107
