trix_modern/TriX_Green58_Hard.cube
TITLE "Tri-X Green58 Hard"
# Adobe RGB in/out. REPLACES AgX. Tri-X Green58 Hard.
LUT_3D_SIZE 33
DOMAIN_MIN 0.0 0.0 0.0
DOMAIN_MAX 1.0 1.0 1.0
0.093024 0.093024 0.093024
0.093024 0.093024 0.093024
0.093024 0.093024 0.093024
0.093024 0.093024 0.093024
0.093056 0.093056 0.093056
0.093080 0.093080 0.093080
0.093157 0.093157 0.093157
0.093265 0.093265 0.093265
0.093319 0.093319 0.093319
0.093391 0.093391 0.093391
0.093635 0.093635 0.093635
0.093861 0.093861 0.093861
0.094130 0.094130 0.094130
0.094724 0.094724 0.094724
0.095749 0.095749 0.095749
0.096389 0.096389 0.096389
0.096975 0.096975 0.096975
0.098205 0.098205 0.098205
0.099982 0.099982 0.099982
0.100682 0.100682 0.100682
0.102101 0.102101 0.102101
0.104138 0.104138 0.104138
0.105624 0.105624 0.105624
0.105299 0.105299 0.105299
0.105179 0.105179 0.105179
0.104463 0.104463 0.104463
0.100375 0.100375 0.100375
0.098998 0.098998 0.098998
0.095236 0.095236 0.095236
0.095084 0.095084 0.095084
0.094974 0.094974 0.094974
0.094886 0.094886 0.094886
0.151459 0.151459 0.151459
0.093025 0.093025 0.093025
0.093024 0.093024 0.093024
0.093024 0.093024 0.093024
0.093024 0.093024 0.093024
0.093064 0.093064 0.093064
0.093088 0.093088 0.093088
0.093166 0.093166 0.093166
0.093275 0.093275 0.093275
0.093327 0.093327 0.093327
0.093397 0.093397 0.093397
0.093658 0.093658 0.093658
0.093880 0.093880 0.093880
0.094179 0.094179 0.094179
0.094768 0.094768 0.094768
0.095815 0.095815 0.095815
0.096453 0.096453 0.096453
0.097034 0.097034 0.097034
0.098325 0.098325 0.098325
0.100095 0.100095 0.100095
0.100790 0.100790 0.100790
0.102351 0.102351 0.102351
0.104382 0.104382 0.104382
0.106021 0.106021 0.106021
0.105535 0.105535 0.105535
0.105409 0.105409 0.105409
0.104688 0.104688 0.104688
0.100464 0.100464 0.100464
0.099079 0.099079 0.099079
0.095228 0.095228 0.095228
0.095076 0.095076 0.095076
0.094970 0.094970 0.094970
0.094883 0.094883 0.094883
0.151298 0.151298 0.151298
0.093046 0.093046 0.093046
0.093038 0.093038 0.093038
0.093024 0.093024 0.093024
0.093041 0.093041 0.093041
0.093089 0.093089 0.093089
0.093117 0.093117 0.093117
0.093204 0.093204 0.093204
0.093322 0.093322 0.093322
0.093361 0.093361 0.093361
0.093423 0.093423 0.093423
0.093749 0.093749 0.093749
0.093955 0.093955 0.093955
0.094367 0.094367 0.094367
0.094932 0.094932 0.094932
0.096064 0.096064 0.096064
0.096693 0.096693 0.096693
0.097309 0.097309 0.097309
0.098766 0.098766 0.098766
0.100514 0.100514 0.100514
0.101597 0.101597 0.101597
0.103273 0.103273 0.103273
0.105279 0.105279 0.105279
0.107690 0.107690 0.107690
0.107034 0.107034 0.107034
0.106754 0.106754 0.106754
0.105511 0.105511 0.105511
0.100791 0.100791 0.100791
0.099381 0.099381 0.099381
0.095199 0.095199 0.095199
0.095050 0.095050 0.095050
0.094956 0.094956 0.094956
0.094870 0.094870 0.094870
0.150723 0.150723 0.150723
0.093184 0.093184 0.093184
0.093171 0.093171 0.093171
0.093127 0.093127 0.093127
0.093090 0.093090 0.093090
0.093153 0.093153 0.093153
0.093173 0.093173 0.093173
0.093267 0.093267 0.093267
0.093381 0.093381 0.093381
0.093415 0.093415 0.093415
0.093565 0.093565 0.093565
0.093944 0.093944 0.093944
0.094404 0.094404 0.094404
0.094765 0.094765 0.094765
0.095436 0.095436 0.095436
0.096587 0.096587 0.096587
0.097172 0.097172 0.097172
0.098250 0.098250 0.098250
0.099635 0.099635 0.099635
0.101947 0.101947 0.101947
0.103467 0.103467 0.103467
0.105065 0.105065 0.105065
0.108205 0.108205 0.108205
0.110943 0.110943 0.110943
0.110212 0.110212 0.110212
0.109848 0.109848 0.109848
0.108362 0.108362 0.108362
0.102167 0.102167 0.102167
0.099966 0.099966 0.099966
0.095148 0.095148 0.095148
0.095014 0.095014 0.095014
0.094930 0.094930 0.094930
0.094846 0.094846 0.094846
0.149675 0.149675 0.149675
0.093749 0.093749 0.093749
0.093683 0.093683 0.093683
0.093494 0.093494 0.093494
0.093388 0.093388 0.093388
0.093326 0.093326 0.093326
0.093271 0.093271 0.093271
0.093360 0.093360 0.093360
0.093506 0.093506 0.093506
0.093602 0.093602 0.093602
0.093806 0.093806 0.093806
0.094518 0.094518 0.094518
0.094954 0.094954 0.094954
0.095477 0.095477 0.095477
0.096336 0.096336 0.096336
0.097905 0.097905 0.097905
0.098915 0.098915 0.098915
0.099836 0.099836 0.099836
0.101337 0.101337 0.101337
0.105227 0.105227 0.105227
0.107319 0.107319 0.107319
0.110078 0.110078 0.110078
0.113636 0.113636 0.113636
0.117059 0.117059 0.117059
0.115843 0.115843 0.115843
0.115123 0.115123 0.115123
0.113286 0.113286 0.113286
0.104658 0.104658 0.104658
0.100956 0.100956 0.100956
0.095072 0.095072 0.095072
0.094972 0.094972 0.094972
0.094892 0.094892 0.094892
0.094813 0.094813 0.094813
0.148144 0.148144 0.148144
0.095682 0.095682 0.095682
0.095423 0.095423 0.095423
0.094849 0.094849 0.094849
0.094113 0.094113 0.094113
0.093701 0.093701 0.093701
0.093458 0.093458 0.093458
0.093555 0.093555 0.093555
0.093896 0.093896 0.093896
0.093922 0.093922 0.093922
0.094302 0.094302 0.094302
0.095314 0.095314 0.095314
0.095984 0.095984 0.095984
0.096501 0.096501 0.096501
0.097382 0.097382 0.097382
0.099732 0.099732 0.099732
0.100831 0.100831 0.100831
0.103268 0.103268 0.103268
0.107666 0.107666 0.107666
0.114837 0.114837 0.114837
0.117431 0.117431 0.117431
0.120666 0.120666 0.120666
0.125308 0.125308 0.125308
0.128850 0.128850 0.128850
0.127260 0.127260 0.127260
0.126161 0.126161 0.126161
0.123542 0.123542 0.123542
0.111015 0.111015 0.111015
0.104512 0.104512 0.104512
0.094997 0.094997 0.094997
0.094918 0.094918 0.094918
0.094841 0.094841 0.094841
0.149738 0.149738 0.149738
0.146143 0.146143 0.146143
0.109914 0.109914 0.109914
0.108984 0.108984 0.108984
0.103978 0.103978 0.103978
0.099438 0.099438 0.099438
0.096669 0.096669 0.096669
0.095345 0.095345 0.095345
0.094666 0.094666 0.094666
0.094962 0.094962 0.094962
0.094875 0.094875 0.094875
0.095315 0.095315 0.095315
0.096682 0.096682 0.096682
0.097347 0.097347 0.097347
0.098118 0.098118 0.098118
0.099642 0.099642 0.099642
0.103527 0.103527 0.103527
0.106854 0.106854 0.106854
0.110135 0.110135 0.110135
0.116348 0.116348 0.116348
0.128136 0.128136 0.128136
0.132929 0.132929 0.132929
0.139837 0.139837 0.139837
0.147124 0.147124 0.147124
0.150871 0.150871 0.150871
0.148077 0.148077 0.148077
0.145906 0.145906 0.145906
0.142057 0.142057 0.142057
0.125698 0.125698 0.125698
0.113913 0.113913 0.113913
0.094928 0.094928 0.094928
0.094851 0.094851 0.094851
0.094780 0.094780 0.094780
0.147114 0.147114 0.147114
0.143710 0.143710 0.143710
0.197720 0.197720 0.197720
0.195250 0.195250 0.195250
0.183888 0.183888 0.183888
0.150873 0.150873 0.150873
0.123363 0.123363 0.123363
0.106398 0.106398 0.106398
0.100512 0.100512 0.100512
0.098678 0.098678 0.098678
0.096698 0.096698 0.096698
0.096956 0.096956 0.096956
0.099398 0.099398 0.099398
0.100280 0.100280 0.100280
0.100824 0.100824 0.100824
0.103993 0.103993 0.103993
0.112661 0.112661 0.112661
0.117931 0.117931 0.117931
0.123322 0.123322 0.123322
0.133018 0.133018 0.133018
0.148277 0.148277 0.148277
0.152006 0.152006 0.152006
0.157676 0.157676 0.157676
0.167509 0.167509 0.167509
0.177402 0.177402 0.177402
0.179954 0.179954 0.179954
0.184027 0.184027 0.184027
0.178201 0.178201 0.178201
0.157321 0.157321 0.157321
0.139805 0.139805 0.139805
0.094858 0.094858 0.094858
0.094774 0.094774 0.094774
0.094707 0.094707 0.094707
0.144014 0.144014 0.144014
0.140893 0.140893 0.140893
0.270788 0.270788 0.270788
0.268144 0.268144 0.268144
0.249295 0.249295 0.249295
0.211582 0.211582 0.211582
0.172470 0.172470 0.172470
0.141677 0.141677 0.141677
0.121100 0.121100 0.121100
0.108820 0.108820 0.108820
0.103430 0.103430 0.103430
0.100896 0.100896 0.100896
0.105954 0.105954 0.105954
0.108563 0.108563 0.108563
0.109998 0.109998 0.109998
0.115619 0.115619 0.115619
0.129977 0.129977 0.129977
0.136139 0.136139 0.136139
0.142676 0.142676 0.142676
0.154188 0.154188 0.154188
0.172316 0.172316 0.172316
0.179607 0.179607 0.179607
0.190164 0.190164 0.190164
0.199065 0.199065 0.199065
0.208236 0.208236 0.208236
0.208949 0.208949 0.208949
0.212020 0.212020 0.212020
0.215248 0.215248 0.215248
0.205809 0.205809 0.205809
0.197956 0.197956 0.197956
0.095275 0.095275 0.095275
0.094701 0.094701 0.094701
0.094629 0.094629 0.094629
0.140575 0.140575 0.140575
0.137758 0.137758 0.137758
0.411445 0.411445 0.411445
0.402567 0.402567 0.402567
0.369156 0.369156 0.369156
0.323649 0.323649 0.323649
0.271094 0.271094 0.271094
0.223736 0.223736 0.223736
0.184213 0.184213 0.184213
0.155816 0.155816 0.155816
0.137253 0.137253 0.137253
0.125498 0.125498 0.125498
0.132062 0.132062 0.132062
0.129919 0.129919 0.129919
0.130034 0.130034 0.130034
0.137531 0.137531 0.137531
0.156048 0.156048 0.156048
0.162289 0.162289 0.162289
0.169026 0.169026 0.169026
0.182442 0.182442 0.182442
0.206042 0.206042 0.206042
0.214216 0.214216 0.214216
0.222117 0.222117 0.222117
0.236882 0.236882 0.236882
0.252964 0.252964 0.252964
0.254800 0.254800 0.254800
0.254918 0.254918 0.254918
0.255926 0.255926 0.255926
0.243445 0.243445 0.243445
0.232447 0.232447 0.232447
0.208617 0.208617 0.208617
0.182356 0.182356 0.182356
0.124851 0.124851 0.124851
0.136880 0.136880 0.136880
0.134374 0.134374 0.134374
0.622274 0.622274 0.622274
0.611352 0.611352 0.611352
0.576997 0.576997 0.576997
0.530713 0.530713 0.530713
0.470273 0.470273 0.470273
0.403555 0.403555 0.403555
0.337489 0.337489 0.337489
0.283074 0.283074 0.283074
0.242182 0.242182 0.242182
0.212101 0.212101 0.212101
0.190881 0.190881 0.190881
0.173863 0.173863 0.173863
0.161952 0.161952 0.161952
0.170042 0.170042 0.170042
0.193861 0.193861 0.193861
0.199529 0.199529 0.199529
0.205264 0.205264 0.205264
0.220136 0.220136 0.220136
0.247398 0.247398 0.247398
0.253819 0.253819 0.253819
0.265098 0.265098 0.265098
0.283713 0.283713 0.283713
0.297521 0.297521 0.297521
0.301466 0.301466 0.301466
0.310324 0.310324 0.310324
0.321525 0.321525 0.321525
0.303501 0.303501 0.303501
0.286747 0.286747 0.286747
0.256802 0.256802 0.256802
0.221645 0.221645 0.221645
0.134684 0.134684 0.134684
0.133014 0.133014 0.133014
0.131033 0.131033 0.131033
0.748526 0.748526 0.748526
0.739904 0.739904 0.739904
0.711092 0.711092 0.711092
0.670106 0.670106 0.670106
0.613886 0.613886 0.613886
0.545178 0.545178 0.545178
0.479352 0.479352 0.479352
0.417406 0.417406 0.417406
0.358115 0.358115 0.358115
0.311792 0.311792 0.311792
0.276479 0.276479 0.276479
0.251870 0.251870 0.251870
0.222094 0.222094 0.222094
0.216967 0.216967 0.216967
0.244092 0.244092 0.244092
0.247245 0.247245 0.247245
0.252031 0.252031 0.252031
0.267596 0.267596 0.267596
0.297447 0.297447 0.297447
0.303628 0.303628 0.303628
0.318112 0.318112 0.318112
0.335141 0.335141 0.335141
0.355803 0.355803 0.355803
0.364453 0.364453 0.364453
0.368784 0.368784 0.368784
0.376843 0.376843 0.376843
0.370625 0.370625 0.370625
0.367244 0.367244 0.367244
0.341631 0.341631 0.341631
0.292803 0.292803 0.292803
0.169143 0.169143 0.169143
0.129567 0.129567 0.129567
0.127988 0.127988 0.127988
0.817616 0.817616 0.817616
0.813842 0.813842 0.813842
0.798699 0.798699 0.798699
0.771994 0.771994 0.771994
0.732319 0.732319 0.732319
0.672759 0.672759 0.672759
0.608520 0.608520 0.608520
0.539952 0.539952 0.539952
0.479765 0.479765 0.479765
0.428577 0.428577 0.428577
0.379801 0.379801 0.379801
0.341630 0.341630 0.341630
0.313678 0.313678 0.313678
0.296602 0.296602 0.296602
0.308730 0.308730 0.308730
0.309421 0.309421 0.309421
0.311842 0.311842 0.311842
0.328373 0.328373 0.328373
0.360441 0.360441 0.360441
0.365019 0.365019 0.365019
0.377902 0.377902 0.377902
0.398657 0.398657 0.398657
0.424128 0.424128 0.424128
0.428000 0.428000 0.428000
0.439031 0.439031 0.439031
0.453680 0.453680 0.453680
0.442750 0.442750 0.442750
0.435006 0.435006 0.435006
0.418041 0.418041 0.418041
0.392095 0.392095 0.392095
0.354252 0.354252 0.354252
0.126327 0.126327 0.126327
0.124937 0.124937 0.124937
0.882845 0.882845 0.882845
0.880286 0.880286 0.880286
0.870795 0.870795 0.870795
0.852671 0.852671 0.852671
0.830494 0.830494 0.830494
0.799264 0.799264 0.799264
0.755944 0.755944 0.755944
0.695172 0.695172 0.695172
0.634868 0.634868 0.634868
0.572892 0.572892 0.572892
0.518822 0.518822 0.518822
0.474992 0.474992 0.474992
0.439434 0.439434 0.439434
0.409035 0.409035 0.409035
0.418145 0.418145 0.418145
0.390685 0.390685 0.390685
0.385693 0.385693 0.385693
0.400672 0.400672 0.400672
0.434338 0.434338 0.434338
0.437744 0.437744 0.437744
0.447485 0.447485 0.447485
0.466053 0.466053 0.466053
0.486108 0.486108 0.486108
0.493596 0.493596 0.493596
0.506666 0.506666 0.506666
0.517267 0.517267 0.517267
0.515645 0.515645 0.515645
0.518203 0.518203 0.518203
0.497200 0.497200 0.497200
0.467909 0.467909 0.467909
0.425658 0.425658 0.425658
0.364417 0.364417 0.364417
0.300069 0.300069 0.300069
0.940349 0.940349 0.940349
0.938684 0.938684 0.938684
0.932961 0.932961 0.932961
0.923513 0.923513 0.923513
0.910242 0.910242 0.910242
0.889105 0.889105 0.889105
0.863931 0.863931 0.863931
0.831938 0.831938 0.831938
0.797280 0.797280 0.797280
0.755219 0.755219 0.755219
0.701468 0.701468 0.701468
0.651594 0.651594 0.651594
0.607338 0.607338 0.607338
0.567068 0.567068 0.567068
0.535333 0.535333 0.535333
0.501605 0.501605 0.501605
0.474811 0.474811 0.474811
0.480059 0.480059 0.480059
0.509223 0.509223 0.509223
0.509994 0.509994 0.509994
0.519010 0.519010 0.519010
0.537968 0.537968 0.537968
0.557859 0.557859 0.557859
0.567678 0.567678 0.567678
0.578430 0.578430 0.578430
0.596558 0.596558 0.596558
0.595686 0.595686 0.595686
0.592314 0.592314 0.592314
0.584304 0.584304 0.584304
0.570256 0.570256 0.570256
0.521193 0.521193 0.521193
0.451006 0.451006 0.451006
0.312002 0.312002 0.312002
0.962600 0.962600 0.962600
0.961675 0.961675 0.961675
0.958467 0.958467 0.958467
0.953049 0.953049 0.953049
0.945002 0.945002 0.945002
0.931285 0.931285 0.931285
0.915450 0.915450 0.915450
0.891650 0.891650 0.891650
0.865924 0.865924 0.865924
0.835864 0.835864 0.835864
0.806172 0.806172 0.806172
0.769350 0.769350 0.769350
0.731440 0.731440 0.731440
0.689249 0.689249 0.689249
0.654896 0.654896 0.654896
0.627071 0.627071 0.627071
0.591009 0.591009 0.591009
0.576712 0.576712 0.576712
0.597127 0.597127 0.597127
0.595567 0.595567 0.595567
0.601518 0.601518 0.601518
0.620074 0.620074 0.620074
0.637591 0.637591 0.637591
0.644223 0.644223 0.644223
0.655513 0.655513 0.655513
0.672151 0.672151 0.672151
0.671546 0.671546 0.671546
0.676763 0.676763 0.676763
0.669119 0.669119 0.669119
0.650656 0.650656 0.650656
0.625564 0.625564 0.625564
0.587771 0.587771 0.587771
0.403540 0.403540 0.403540
0.975012 0.975012 0.975012
0.974641 0.974641 0.974641
0.973346 0.973346 0.973346
0.971120 0.971120 0.971120
0.966026 0.966026 0.966026
0.958457 0.958457 0.958457
0.948998 0.948998 0.948998
0.933454 0.933454 0.933454
0.916364 0.916364 0.916364
0.893693 0.893693 0.893693
0.870848 0.870848 0.870848
0.843456 0.843456 0.843456
0.818322 0.818322 0.818322
0.791611 0.791611 0.791611
0.764476 0.764476 0.764476
0.738448 0.738448 0.738448
0.710448 0.710448 0.710448
0.693035 0.693035 0.693035
0.696919 0.696919 0.696919
0.680308 0.680308 0.680308
0.684077 0.684077 0.684077
0.698240 0.698240 0.698240
0.715412 0.715412 0.715412
0.720589 0.720589 0.720589
0.733152 0.733152 0.733152
0.748284 0.748284 0.748284
0.751043 0.751043 0.751043
0.753183 0.753183 0.753183
0.751112 0.751112 0.751112
0.745027 0.745027 0.745027
0.715709 0.715709 0.715709
0.672615 0.672615 0.672615
0.616834 0.616834 0.616834
0.983723 0.983723 0.983723
0.983581 0.983581 0.983581
0.982830 0.982830 0.982830
0.980894 0.980894 0.980894
0.978282 0.978282 0.978282
0.975307 0.975307 0.975307
0.971237 0.971237 0.971237
0.963509 0.963509 0.963509
0.953452 0.953452 0.953452
0.940049 0.940049 0.940049
0.924044 0.924044 0.924044
0.905276 0.905276 0.905276
0.885712 0.885712 0.885712
0.865405 0.865405 0.865405
0.844377 0.844377 0.844377
0.825751 0.825751 0.825751
0.809671 0.809671 0.809671
0.792154 0.792154 0.792154
0.792461 0.792461 0.792461
0.773476 0.773476 0.773476
0.763618 0.763618 0.763618
0.772288 0.772288 0.772288
0.782842 0.782842 0.782842
0.785182 0.785182 0.785182
0.793509 0.793509 0.793509
0.803147 0.803147 0.803147
0.806418 0.806418 0.806418
0.808957 0.808957 0.808957
0.810829 0.810829 0.810829
0.803032 0.803032 0.803032
0.791110 0.791110 0.791110
0.774317 0.774317 0.774317
0.716702 0.716702 0.716702
0.988148 0.988148 0.988148
0.988028 0.988028 0.988028
0.987605 0.987605 0.987605
0.986862 0.986862 0.986862
0.985838 0.985838 0.985838
0.984639 0.984639 0.984639
0.982853 0.982853 0.982853
0.979048 0.979048 0.979048
0.974836 0.974836 0.974836
0.970441 0.970441 0.970441
0.961107 0.961107 0.961107
0.951482 0.951482 0.951482
0.938602 0.938602 0.938602
0.924881 0.924881 0.924881
0.910160 0.910160 0.910160
0.895036 0.895036 0.895036
0.881626 0.881626 0.881626
0.868274 0.868274 0.868274
0.855672 0.855672 0.855672
0.840243 0.840243 0.840243
0.829895 0.829895 0.829895
0.826154 0.826154 0.826154
0.832899 0.832899 0.832899
0.833907 0.833907 0.833907
0.838665 0.838665 0.838665
0.845572 0.845572 0.845572
0.847468 0.847468 0.847468
0.851320 0.851320 0.851320
0.851793 0.851793 0.851793
0.849399 0.849399 0.849399
0.843117 0.843117 0.843117
0.827680 0.827680 0.827680
0.806629 0.806629 0.806629
0.991296 0.991296 0.991296
0.991191 0.991191 0.991191
0.990819 0.990819 0.990819
0.990160 0.990160 0.990160
0.989237 0.989237 0.989237
0.988120 0.988120 0.988120
0.986781 0.986781 0.986781
0.985180 0.985180 0.985180
0.983486 0.983486 0.983486
0.979692 0.979692 0.979692
0.975431 0.975431 0.975431
0.971183 0.971183 0.971183
0.963449 0.963449 0.963449
0.954795 0.954795 0.954795
0.945773 0.945773 0.945773
0.933960 0.933960 0.933960
0.923548 0.923548 0.923548
0.913179 0.913179 0.913179
0.902120 0.902120 0.902120
0.893143 0.893143 0.893143
0.883738 0.883738 0.883738
0.879799 0.879799 0.879799
0.877545 0.877545 0.877545
0.877063 0.877063 0.877063
0.880025 0.880025 0.880025
0.884535 0.884535 0.884535
0.885925 0.885925 0.885925
0.889104 0.889104 0.889104
0.890075 0.890075 0.890075
0.889619 0.889619 0.889619
0.884995 0.884995 0.884995
0.878007 0.878007 0.878007
0.857708 0.857708 0.857708
0.993159 0.993159 0.993159
0.993118 0.993118 0.993118
0.992972 0.992972 0.992972
0.992711 0.992711 0.992711
0.992341 0.992341 0.992341
0.991523 0.991523 0.991523
0.990361 0.990361 0.990361
0.988897 0.988897 0.988897
0.987386 0.987386 0.987386
0.985677 0.985677 0.985677
0.983946 0.983946 0.983946
0.980811 0.980811 0.980811
0.976842 0.976842 0.976842
0.972955 0.972955 0.972955
0.968371 0.968371 0.968371
0.960926 0.960926 0.960926
0.954033 0.954033 0.954033
0.947594 0.947594 0.947594
0.939169 0.939169 0.939169
0.931596 0.931596 0.931596
0.925368 0.925368 0.925368
0.921128 0.921128 0.921128
0.918909 0.918909 0.918909
0.913190 0.913190 0.913190
0.913699 0.913699 0.913699
0.917677 0.917677 0.917677
0.918560 0.918560 0.918560
0.920450 0.920450 0.920450
0.921981 0.921981 0.921981
0.921492 0.921492 0.921492
0.920085 0.920085 0.920085
0.913737 0.913737 0.913737
0.901159 0.901159 0.901159
0.994497 0.994497 0.994497
0.994462 0.994462 0.994462
0.994337 0.994337 0.994337
0.994112 0.994112 0.994112
0.993791 0.993791 0.993791
0.993385 0.993385 0.993385
0.992924 0.992924 0.992924
0.992346 0.992346 0.992346
0.991157 0.991157 0.991157
0.989650 0.989650 0.989650
0.988066 0.988066 0.988066
0.986430 0.986430 0.986430
0.984787 0.984787 0.984787
0.982977 0.982977 0.982977
0.979423 0.979423 0.979423
0.976105 0.976105 0.976105
0.972963 0.972963 0.972963
0.970027 0.970027 0.970027
0.964380 0.964380 0.964380
0.959469 0.959469 0.959469
0.955059 0.955059 0.955059
0.951361 0.951361 0.951361
0.949278 0.949278 0.949278
0.944984 0.944984 0.944984
0.941891 0.941891 0.941891
0.942617 0.942617 0.942617
0.943506 0.943506 0.943506
0.945070 0.945070 0.945070
0.946683 0.946683 0.946683
0.946696 0.946696 0.946696
0.945748 0.945748 0.945748
0.941891 0.941891 0.941891
0.934832 0.934832 0.934832
0.995787 0.995787 0.995787
0.995757 0.995757 0.995757
0.995649 0.995649 0.995649
0.995453 0.995453 0.995453
0.995171 0.995171 0.995171
0.994811 0.994811 0.994811
0.994389 0.994389 0.994389
0.993890 0.993890 0.993890
0.993318 0.993318 0.993318
0.992715 0.992715 0.992715
0.991896 0.991896 0.991896
0.990405 0.990405 0.990405
0.988899 0.988899 0.988899
0.987366 0.987366 0.987366
0.985860 0.985860 0.985860
0.984421 0.984421 0.984421
0.982799 0.982799 0.982799
0.979970 0.979970 0.979970
0.977361 0.977361 0.977361
0.974975 0.974975 0.974975
0.972921 0.972921 0.972921
0.971095 0.971095 0.971095
0.968917 0.968917 0.968917
0.965618 0.965618 0.965618
0.963272 0.963272 0.963272
0.962003 0.962003 0.962003
0.961210 0.961210 0.961210
0.961997 0.961997 0.961997
0.962977 0.962977 0.962977
0.963323 0.963323 0.963323
0.962867 0.962867 0.962867
0.961414 0.961414 0.961414
0.956982 0.956982 0.956982
0.996991 0.996991 0.996991
0.996964 0.996964 0.996964
0.996867 0.996867 0.996867
0.996693 0.996693 0.996693
0.996438 0.996438 0.996438
0.996107 0.996107 0.996107
0.995710 0.995710 0.995710
0.995257 0.995257 0.995257
0.994731 0.994731 0.994731
0.994170 0.994170 0.994170
0.993564 0.993564 0.993564
0.992933 0.992933 0.992933
0.992295 0.992295 0.992295
0.991018 0.991018 0.991018
0.989600 0.989600 0.989600
0.988223 0.988223 0.988223
0.986918 0.986918 0.986918
0.985686 0.985686 0.985686
0.984542 0.984542 0.984542
0.983489 0.983489 0.983489
0.981626 0.981626 0.981626
0.979777 0.979777 0.979777
0.978187 0.978187 0.978187
0.976831 0.976831 0.976831
0.975561 0.975561 0.975561
0.974782 0.974782 0.974782
0.974030 0.974030 0.974030
0.973576 0.973576 0.973576
0.973977 0.973977 0.973977
0.974229 0.974229 0.974229
0.974176 0.974176 0.974176
0.973580 0.973580 0.973580
0.972105 0.972105 0.972105
0.997837 0.997837 0.997837
0.997832 0.997832 0.997832
0.997817 0.997817 0.997817
0.997729 0.997729 0.997729
0.997507 0.997507 0.997507
0.997217 0.997217 0.997217
0.996863 0.996863 0.996863
0.996459 0.996459 0.996459
0.995991 0.995991 0.995991
0.995481 0.995481 0.995481
0.994938 0.994938 0.994938
0.994360 0.994360 0.994360
0.993772 0.993772 0.993772
0.993179 0.993179 0.993179
0.992588 0.992588 0.992588
0.991799 0.991799 0.991799
0.990553 0.990553 0.990553
0.989364 0.989364 0.989364
0.988255 0.988255 0.988255
0.987232 0.987232 0.987232
0.986297 0.986297 0.986297
0.985461 0.985461 0.985461
0.984714 0.984714 0.984714
0.984092 0.984092 0.984092
0.983559 0.983559 0.983559
0.982917 0.982917 0.982917
0.982238 0.982238 0.982238
0.981428 0.981428 0.981428
0.981063 0.981063 0.981063
0.981284 0.981284 0.981284
0.981408 0.981408 0.981408
0.981005 0.981005 0.981005
0.979828 0.979828 0.979828
0.997995 0.997995 0.997995
0.997992 0.997992 0.997992
0.997980 0.997980 0.997980
0.997957 0.997957 0.997957
0.997923 0.997923 0.997923
0.997877 0.997877 0.997877
0.997821 0.997821 0.997821
0.997533 0.997533 0.997533
0.997123 0.997123 0.997123
0.996669 0.996669 0.996669
0.996180 0.996180 0.996180
0.995662 0.995662 0.995662
0.995120 0.995120 0.995120
0.994579 0.994579 0.994579
0.994032 0.994032 0.994032
0.993493 0.993493 0.993493
0.992971 0.992971 0.992971
0.992465 0.992465 0.992465
0.991745 0.991745 0.991745
0.990754 0.990754 0.990754
0.989841 0.989841 0.989841
0.989017 0.989017 0.989017
0.988273 0.988273 0.988273
0.987613 0.987613 0.987613
0.987075 0.987075 0.987075
0.986612 0.986612 0.986612
0.986360 0.986360 0.986360
0.985948 0.985948 0.985948
0.985732 0.985732 0.985732
0.985515 0.985515 0.985515
0.985563 0.985563 0.985563
0.985488 0.985488 0.985488
0.985070 0.985070 0.985070
0.998182 0.998182 0.998182
0.998179 0.998179 0.998179
0.998169 0.998169 0.998169
0.998150 0.998150 0.998150
0.998122 0.998122 0.998122
0.998083 0.998083 0.998083
0.998035 0.998035 0.998035
0.997976 0.997976 0.997976
0.997904 0.997904 0.997904
0.997828 0.997828 0.997828
0.997474 0.997474 0.997474
0.996989 0.996989 0.996989
0.996484 0.996484 0.996484
0.995968 0.995968 0.995968
0.995450 0.995450 0.995450
0.994945 0.994945 0.994945
0.994447 0.994447 0.994447
0.993967 0.993967 0.993967
0.993510 0.993510 0.993510
0.993080 0.993080 0.993080
0.992683 0.992683 0.992683
0.992320 0.992320 0.992320
0.991769 0.991769 0.991769
0.991129 0.991129 0.991129
0.990578 0.990578 0.990578
