trix_modern/TriX_Orange21_ExtraSoft.cube
TITLE "Tri-X Orange21 ExtraSoft"
# Adobe RGB in/out. REPLACES AgX. R=0.7239 G=0.2761 B=0.0000
LUT_3D_SIZE 5
DOMAIN_MIN 0.0 0.0 0.0
DOMAIN_MAX 1.0 1.0 1.0
0.121260 0.121260 0.121260
0.121260 0.121260 0.121260
0.121260 0.121260 0.121260
0.121260 0.121260 0.121260
0.121260 0.121260 0.121260
0.121260 0.121260 0.121260
0.317287 0.317287 0.317287
0.543251 0.543251 0.543251
0.735738 0.735738 0.735738
0.838181 0.838181 0.838181
0.121260 0.121260 0.121260
0.401332 0.401332 0.401332
0.586956 0.586956 0.586956
0.780847 0.780847 0.780847
0.893452 0.893452 0.893452
0.121260 0.121260 0.121260
0.418343 0.418343 0.418343
0.661397 0.661397 0.661397
0.815085 0.815085 0.815085
0.913058 0.913058 0.913058
0.121260 0.121260 0.121260
0.407409 0.407409 0.407409
0.673843 0.673843 0.673843
0.840800 0.840800 0.840800
0.931009 0.931009 0.931009
0.121260 0.121260 0.121260
0.121260 0.121260 0.121260
0.121260 0.121260 0.121260
0.121260 0.121260 0.121260
0.121260 0.121260 0.121260
0.121260 0.121260 0.121260
0.262816 0.262816 0.262816
0.516444 0.516444 0.516444
0.719043 0.719043 0.719043
0.830054 0.830054 0.830054
0.121260 0.121260 0.121260
0.383051 0.383051 0.383051
0.555417 0.555417 0.555417
0.762549 0.762549 0.762549
0.887512 0.887512 0.887512
0.121260 0.121260 0.121260
0.410569 0.410569 0.410569
0.648397 0.648397 0.648397
0.806651 0.806651 0.806651
0.909531 0.909531 0.909531
0.121260 0.121260 0.121260
0.405183 0.405183 0.405183
0.669839 0.669839 0.669839
0.838482 0.838482 0.838482
0.930423 0.930423 0.930423
0.121260 0.121260 0.121260
0.121260 0.121260 0.121260
0.121260 0.121260 0.121260
0.121260 0.121260 0.121260
0.121260 0.121260 0.121260
0.121260 0.121260 0.121260
0.374380 0.374380 0.374380
0.565751 0.565751 0.565751
0.724734 0.724734 0.724734
0.825116 0.825116 0.825116
0.121260 0.121260 0.121260
0.359365 0.359365 0.359365
0.504596 0.504596 0.504596
0.746165 0.746165 0.746165
0.880563 0.880563 0.880563
0.121260 0.121260 0.121260
0.396167 0.396167 0.396167
0.622921 0.622921 0.622921
0.789029 0.789029 0.789029
0.902729 0.902729 0.902729
0.121260 0.121260 0.121260
0.399498 0.399498 0.399498
0.660088 0.660088 0.660088
0.832915 0.832915 0.832915
0.929021 0.929021 0.929021
0.121260 0.121260 0.121260
0.121260 0.121260 0.121260
0.121260 0.121260 0.121260
0.121260 0.121260 0.121260
0.121260 0.121260 0.121260
0.121260 0.121260 0.121260
0.439566 0.439566 0.439566
0.647515 0.647515 0.647515
0.761717 0.761717 0.761717
0.833764 0.833764 0.833764
0.121260 0.121260 0.121260
0.374540 0.374540 0.374540
0.589285 0.589285 0.589285
0.775537 0.775537 0.775537
0.883874 0.883874 0.883874
0.121260 0.121260 0.121260
0.383541 0.383541 0.383541
0.605501 0.605501 0.605501
0.767470 0.767470 0.767470
0.899298 0.899298 0.899298
0.121260 0.121260 0.121260
0.392664 0.392664 0.392664
0.649161 0.649161 0.649161
0.826982 0.826982 0.826982
0.927685 0.927685 0.927685
0.121260 0.121260 0.121260
0.121260 0.121260 0.121260
0.121260 0.121260 0.121260
0.121260 0.121260 0.121260
0.121260 0.121260 0.121260
0.121260 0.121260 0.121260
0.467627 0.467627 0.467627
0.693463 0.693463 0.693463
0.793817 0.793817 0.793817
0.847105 0.847105 0.847105
0.121260 0.121260 0.121260
0.404350 0.404350 0.404350
0.654236 0.654236 0.654236
0.811093 0.811093 0.811093
0.894170 0.894170 0.894170
0.121260 0.121260 0.121260
0.381926 0.381926 0.381926
0.618717 0.618717 0.618717
0.798791 0.798791 0.798791
0.904479 0.904479 0.904479
0.121260 0.121260 0.121260
0.386711 0.386711 0.386711
0.640686 0.640686 0.640686
0.823220 0.823220 0.823220
0.927107 0.927107 0.927107
