trix_modern/TriX_Orange21_Normal.cube
TITLE "Tri-X Orange21 Normal"
# Adobe RGB in/out. REPLACES AgX. R=0.7239 G=0.2761 B=0.0000
LUT_3D_SIZE 9
DOMAIN_MIN 0.0 0.0 0.0
DOMAIN_MAX 1.0 1.0 1.0
0.095875 0.095875 0.095875
0.095875 0.095875 0.095875
0.095875 0.095875 0.095875
0.095875 0.095875 0.095875
0.095875 0.095875 0.095875
0.095875 0.095875 0.095875
0.095875 0.095875 0.095875
0.095875 0.095875 0.095875
0.095875 0.095875 0.095875
0.095875 0.095875 0.095875
0.108397 0.108397 0.108397
0.255632 0.255632 0.255632
0.390948 0.390948 0.390948
0.499043 0.499043 0.499043
0.583574 0.583574 0.583574
0.653152 0.653152 0.653152
0.705868 0.705868 0.705868
0.748227 0.748227 0.748227
0.095875 0.095875 0.095875
0.179828 0.179828 0.179828
0.286575 0.286575 0.286575
0.412356 0.412356 0.412356
0.550879 0.550879 0.550879
0.667879 0.667879 0.667879
0.752864 0.752864 0.752864
0.810499 0.810499 0.810499
0.851540 0.851540 0.851540
0.095875 0.095875 0.095875
0.216955 0.216955 0.216955
0.353348 0.353348 0.353348
0.447288 0.447288 0.447288
0.560281 0.560281 0.560281
0.686591 0.686591 0.686591
0.784687 0.784687 0.784687
0.846177 0.846177 0.846177
0.891936 0.891936 0.891936
0.095875 0.095875 0.095875
0.230088 0.230088 0.230088
0.393300 0.393300 0.393300
0.505984 0.505984 0.505984
0.598923 0.598923 0.598923
0.697563 0.697563 0.697563
0.795368 0.795368 0.795368
0.862380 0.862380 0.862380
0.908489 0.908489 0.908489
0.095875 0.095875 0.095875
0.232954 0.232954 0.232954
0.411518 0.411518 0.411518
0.542549 0.542549 0.542549
0.646720 0.646720 0.646720
0.732184 0.732184 0.732184
0.805529 0.805529 0.805529
0.873551 0.873551 0.873551
0.918758 0.918758 0.918758
0.095875 0.095875 0.095875
0.230088 0.230088 0.230088
0.415923 0.415923 0.415923
0.559845 0.559845 0.559845
0.675734 0.675734 0.675734
0.764988 0.764988 0.764988
0.828592 0.828592 0.828592
0.883563 0.883563 0.883563
0.927611 0.927611 0.927611
0.095875 0.095875 0.095875
0.223694 0.223694 0.223694
0.411667 0.411667 0.411667
0.563132 0.563132 0.563132
0.687280 0.687280 0.687280
0.782550 0.782550 0.782550
0.845835 0.845835 0.845835
0.897452 0.897452 0.897452
0.936979 0.936979 0.936979
0.095875 0.095875 0.095875
0.215004 0.215004 0.215004
0.401824 0.401824 0.401824
0.556603 0.556603 0.556603
0.687044 0.687044 0.687044
0.786988 0.786988 0.786988
0.854141 0.854141 0.854141
0.905575 0.905575 0.905575
0.945342 0.945342 0.945342
0.095875 0.095875 0.095875
0.095875 0.095875 0.095875
0.095875 0.095875 0.095875
0.095875 0.095875 0.095875
0.095875 0.095875 0.095875
0.095875 0.095875 0.095875
0.095875 0.095875 0.095875
0.095875 0.095875 0.095875
0.095875 0.095875 0.095875
0.095875 0.095875 0.095875
0.100863 0.100863 0.100863
0.243622 0.243622 0.243622
0.378822 0.378822 0.378822
0.487683 0.487683 0.487683
0.574742 0.574742 0.574742
0.646506 0.646506 0.646506
0.701598 0.701598 0.701598
0.745103 0.745103 0.745103
0.095875 0.095875 0.095875
0.162740 0.162740 0.162740
0.263929 0.263929 0.263929
0.392880 0.392880 0.392880
0.536453 0.536453 0.536453
0.657218 0.657218 0.657218
0.746117 0.746117 0.746117
0.806962 0.806962 0.806962
0.849013 0.849013 0.849013
0.095875 0.095875 0.095875
0.207139 0.207139 0.207139
0.339501 0.339501 0.339501
0.430855 0.430855 0.430855
0.547134 0.547134 0.547134
0.677450 0.677450 0.677450
0.779754 0.779754 0.779754
0.842662 0.842662 0.842662
0.890115 0.890115 0.890115
0.095875 0.095875 0.095875
0.224707 0.224707 0.224707
0.385717 0.385717 0.385717
0.496321 0.496321 0.496321
0.588831 0.588831 0.588831
0.690380 0.690380 0.690380
0.791135 0.791135 0.791135
0.859251 0.859251 0.859251
0.906862 0.906862 0.906862
0.095875 0.095875 0.095875
0.229923 0.229923 0.229923
0.407202 0.407202 0.407202
0.537242 0.537242 0.537242
0.640582 0.640582 0.640582
0.726856 0.726856 0.726856
0.802480 0.802480 0.802480
0.871129 0.871129 0.871129
0.917465 0.917465 0.917465
0.095875 0.095875 0.095875
0.228360 0.228360 0.228360
0.413432 0.413432 0.413432
0.556796 0.556796 0.556796
0.672648 0.672648 0.672648
0.761789 0.761789 0.761789
0.826450 0.826450 0.826450
0.882398 0.882398 0.882398
0.926735 0.926735 0.926735
0.095875 0.095875 0.095875
0.222724 0.222724 0.222724
0.410255 0.410255 0.410255
0.561411 0.561411 0.561411
0.685562 0.685562 0.685562
0.781252 0.781252 0.781252
0.844636 0.844636 0.844636
0.896729 0.896729 0.896729
0.936462 0.936462 0.936462
0.095875 0.095875 0.095875
0.214492 0.214492 0.214492
0.401074 0.401074 0.401074
0.555699 0.555699 0.555699
0.686166 0.686166 0.686166
0.786352 0.786352 0.786352
0.853585 0.853585 0.853585
0.905272 0.905272 0.905272
0.945240 0.945240 0.945240
0.095875 0.095875 0.095875
0.095875 0.095875 0.095875
0.095875 0.095875 0.095875
0.095875 0.095875 0.095875
0.095875 0.095875 0.095875
0.095875 0.095875 0.095875
0.095875 0.095875 0.095875
0.095875 0.095875 0.095875
0.095875 0.095875 0.095875
0.095875 0.095875 0.095875
0.154517 0.154517 0.154517
0.284838 0.284838 0.284838
0.387132 0.387132 0.387132
0.483221 0.483221 0.483221
0.566079 0.566079 0.566079
0.636969 0.636969 0.636969
0.693925 0.693925 0.693925
0.738572 0.738572 0.738572
0.095875 0.095875 0.095875
0.141387 0.141387 0.141387
0.213592 0.213592 0.213592
0.375487 0.375487 0.375487
0.521345 0.521345 0.521345
0.642750 0.642750 0.642750
0.734862 0.734862 0.734862
0.800062 0.800062 0.800062
0.843466 0.843466 0.843466
0.095875 0.095875 0.095875
0.186370 0.186370 0.186370
0.314005 0.314005 0.314005
0.396199 0.396199 0.396199
0.522392 0.522392 0.522392
0.658823 0.658823 0.658823
0.766501 0.766501 0.766501
0.834963 0.834963 0.834963
0.885813 0.885813 0.885813
0.095875 0.095875 0.095875
0.211662 0.211662 0.211662
0.367994 0.367994 0.367994
0.473699 0.473699 0.473699
0.564326 0.564326 0.564326
0.673416 0.673416 0.673416
0.780959 0.780959 0.780959
0.851528 0.851528 0.851528
0.902692 0.902692 0.902692
0.095875 0.095875 0.095875
0.221733 0.221733 0.221733
0.395772 0.395772 0.395772
0.523385 0.523385 0.523385
0.624350 0.624350 0.624350
0.712429 0.712429 0.712429
0.794335 0.794335 0.794335
0.864557 0.864557 0.864557
0.913894 0.913894 0.913894
0.095875 0.095875 0.095875
0.223340 0.223340 0.223340
0.406278 0.406278 0.406278
0.548148 0.548148 0.548148
0.663252 0.663252 0.663252
0.752610 0.752610 0.752610
0.820208 0.820208 0.820208
0.878889 0.878889 0.878889
0.924173 0.924173 0.924173
0.095875 0.095875 0.095875
0.219756 0.219756 0.219756
0.405963 0.405963 0.405963
0.556228 0.556228 0.556228
0.680411 0.680411 0.680411
0.776878 0.776878 0.776878
0.840999 0.840999 0.840999
0.894514 0.894514 0.894514
0.934867 0.934867 0.934867
0.095875 0.095875 0.095875
0.212861 0.212861 0.212861
0.398696 0.398696 0.398696
0.552848 0.552848 0.552848
0.683409 0.683409 0.683409
0.784358 0.784358 0.784358
0.851839 0.851839 0.851839
0.904314 0.904314 0.904314
0.944917 0.944917 0.944917
0.095875 0.095875 0.095875
0.095875 0.095875 0.095875
0.095875 0.095875 0.095875
0.095875 0.095875 0.095875
0.095875 0.095875 0.095875
0.095875 0.095875 0.095875
0.095875 0.095875 0.095875
0.095875 0.095875 0.095875
0.095875 0.095875 0.095875
0.095875 0.095875 0.095875
0.158292 0.158292 0.158292
0.320489 0.320489 0.320489
0.430917 0.430917 0.430917
0.504505 0.504505 0.504505
0.573202 0.573202 0.573202
0.636774 0.636774 0.636774
0.690659 0.690659 0.690659
0.734116 0.734116 0.734116
0.095875 0.095875 0.095875
0.157752 0.157752 0.157752
0.294752 0.294752 0.294752
0.413476 0.413476 0.413476
0.535595 0.535595 0.535595
0.645359 0.645359 0.645359
0.731943 0.731943 0.731943
0.796296 0.796296 0.796296
0.839290 0.839290 0.839290
0.095875 0.095875 0.095875
0.169293 0.169293 0.169293
0.297259 0.297259 0.297259
0.359861 0.359861 0.359861
0.511547 0.511547 0.511547
0.649625 0.649625 0.649625
0.758434 0.758434 0.758434
0.829304 0.829304 0.829304
0.882065 0.882065 0.882065
0.095875 0.095875 0.095875
0.196568 0.196568 0.196568
0.349006 0.349006 0.349006
0.449611 0.449611 0.449611
0.536143 0.536143 0.536143
0.654886 0.654886 0.654886
0.768727 0.768727 0.768727
0.844108 0.844108 0.844108
0.898432 0.898432 0.898432
0.095875 0.095875 0.095875
0.211274 0.211274 0.211274
0.381597 0.381597 0.381597
0.506361 0.506361 0.506361
0.604606 0.604606 0.604606
0.694336 0.694336 0.694336
0.784724 0.784724 0.784724
0.856887 0.856887 0.856887
0.909685 0.909685 0.909685
0.095875 0.095875 0.095875
0.216437 0.216437 0.216437
0.396607 0.396607 0.396607
0.536757 0.536757 0.536757
0.650133 0.650133 0.650133
0.740428 0.740428 0.740428
0.811811 0.811811 0.811811
0.872942 0.872942 0.872942
0.920828 0.920828 0.920828
0.095875 0.095875 0.095875
0.215443 0.215443 0.215443
0.399789 0.399789 0.399789
0.548906 0.548906 0.548906
0.673231 0.673231 0.673231
0.769443 0.769443 0.769443
0.835883 0.835883 0.835883
0.891369 0.891369 0.891369
0.932647 0.932647 0.932647
0.095875 0.095875 0.095875
0.210378 0.210378 0.210378
0.395096 0.395096 0.395096
0.548584 0.548584 0.548584
0.679332 0.679332 0.679332
0.781427 0.781427 0.781427
0.849272 0.849272 0.849272
0.902899 0.902899 0.902899
0.944440 0.944440 0.944440
0.095875 0.095875 0.095875
0.095875 0.095875 0.095875
0.095875 0.095875 0.095875
0.095875 0.095875 0.095875
0.095875 0.095875 0.095875
0.095875 0.095875 0.095875
0.095875 0.095875 0.095875
0.095875 0.095875 0.095875
0.095875 0.095875 0.095875
0.095875 0.095875 0.095875
0.158292 0.158292 0.158292
0.320489 0.320489 0.320489
0.455903 0.455903 0.455903
0.539965 0.539965 0.539965
0.594561 0.594561 0.594561
0.647623 0.647623 0.647623
0.694053 0.694053 0.694053
0.733939 0.733939 0.733939
0.095875 0.095875 0.095875
0.197819 0.197819 0.197819
0.356168 0.356168 0.356168
0.474468 0.474468 0.474468
0.575767 0.575767 0.575767
0.668013 0.668013 0.668013
0.740996 0.740996 0.740996
0.798173 0.798173 0.798173
0.838561 0.838561 0.838561
0.095875 0.095875 0.095875
0.170272 0.170272 0.170272
0.315783 0.315783 0.315783
0.424244 0.424244 0.424244
0.542403 0.542403 0.542403
0.664048 0.664048 0.664048
0.762783 0.762783 0.762783
0.829117 0.829117 0.829117
0.880671 0.880671 0.880671
0.095875 0.095875 0.095875
0.184315 0.184315 0.184315
0.336389 0.336389 0.336389
0.436048 0.436048 0.436048
0.508013 0.508013 0.508013
0.647835 0.647835 0.647835
0.764118 0.764118 0.764118
0.840689 0.840689 0.840689
0.895908 0.895908 0.895908
0.095875 0.095875 0.095875
0.200710 0.200710 0.200710
0.367809 0.367809 0.367809
0.490377 0.490377 0.490377
0.585725 0.585725 0.585725
0.675513 0.675513 0.675513
0.775372 0.775372 0.775372
0.850696 0.850696 0.850696
0.906276 0.906276 0.906276
0.095875 0.095875 0.095875
0.208826 0.208826 0.208826
0.386099 0.386099 0.386099
0.524758 0.524758 0.524758
0.636559 0.636559 0.636559
0.727517 0.727517 0.727517
0.802685 0.802685 0.802685
0.866959 0.866959 0.866959
0.917539 0.917539 0.917539
0.095875 0.095875 0.095875
0.210413 0.210413 0.210413
0.392654 0.392654 0.392654
0.540620 0.540620 0.540620
0.664825 0.664825 0.664825
0.761247 0.761247 0.761247
0.830177 0.830177 0.830177
0.887839 0.887839 0.887839
0.930532 0.930532 0.930532
0.095875 0.095875 0.095875
0.207354 0.207354 0.207354
0.390740 0.390740 0.390740
0.543495 0.543495 0.543495
0.674543 0.674543 0.674543
0.777806 0.777806 0.777806
0.846309 0.846309 0.846309
0.901270 0.901270 0.901270
0.943901 0.943901 0.943901
0.095875 0.095875 0.095875
0.095875 0.095875 0.095875
0.095875 0.095875 0.095875
0.095875 0.095875 0.095875
0.095875 0.095875 0.095875
0.095875 0.095875 0.095875
0.095875 0.095875 0.095875
0.095875 0.095875 0.095875
0.095875 0.095875 0.095875
0.095875 0.095875 0.095875
0.158292 0.158292 0.158292
0.320489 0.320489 0.320489
0.455903 0.455903 0.455903
0.575495 0.575495 0.575495
0.622009 0.622009 0.622009
0.665857 0.665857 0.665857
0.703058 0.703058 0.703058
0.737987 0.737987 0.737987
0.095875 0.095875 0.095875
0.212878 0.212878 0.212878
0.403687 0.403687 0.403687
0.528779 0.528779 0.528779
0.621873 0.621873 0.621873
0.697145 0.697145 0.697145
0.759190 0.759190 0.759190
0.805290 0.805290 0.805290
0.841507 0.841507 0.841507
0.095875 0.095875 0.095875
0.189289 0.189289 0.189289
0.352787 0.352787 0.352787
0.479722 0.479722 0.479722
0.591553 0.591553 0.591553
0.693708 0.693708 0.693708
0.779317 0.779317 0.779317
0.835088 0.835088 0.835088
0.882185 0.882185 0.882185
0.095875 0.095875 0.095875
0.181223 0.181223 0.181223
0.339009 0.339009 0.339009
0.454255 0.454255 0.454255
0.557443 0.557443 0.557443
0.671622 0.671622 0.671622
0.774312 0.774312 0.774312
0.843600 0.843600 0.843600
0.896132 0.896132 0.896132
0.095875 0.095875 0.095875
0.191969 0.191969 0.191969
0.357828 0.357828 0.357828
0.480902 0.480902 0.480902
0.575836 0.575836 0.575836
0.655584 0.655584 0.655584
0.771449 0.771449 0.771449
0.848787 0.848787 0.848787
0.904834 0.904834 0.904834
0.095875 0.095875 0.095875
0.201520 0.201520 0.201520
0.376221 0.376221 0.376221
0.513846 0.513846 0.513846
0.624764 0.624764 0.624764
0.715656 0.715656 0.715656
0.793554 0.793554 0.793554
0.861900 0.861900 0.861900
0.915005 0.915005 0.915005
0.095875 0.095875 0.095875
0.205189 0.205189 0.205189
0.385298 0.385298 0.385298
0.532256 0.532256 0.532256
0.655806 0.655806 0.655806
0.753242 0.753242 0.753242
0.824463 0.824463 0.824463
0.884255 0.884255 0.884255
0.928544 0.928544 0.928544
0.095875 0.095875 0.095875
0.204052 0.204052 0.204052
0.386003 0.386003 0.386003
0.538035 0.538035 0.538035
0.669497 0.669497 0.669497
0.772985 0.772985 0.772985
0.843266 0.843266 0.843266
0.899610 0.899610 0.899610
0.943263 0.943263 0.943263
0.095875 0.095875 0.095875
0.095875 0.095875 0.095875
0.095875 0.095875 0.095875
0.095875 0.095875 0.095875
0.095875 0.095875 0.095875
0.095875 0.095875 0.095875
0.095875 0.095875 0.095875
0.095875 0.095875 0.095875
0.095875 0.095875 0.095875
0.095875 0.095875 0.095875
0.158292 0.158292 0.158292
0.320489 0.320489 0.320489
0.455903 0.455903 0.455903
0.580751 0.580751 0.580751
0.648253 0.648253 0.648253
0.683901 0.683901 0.683901
0.715034 0.715034 0.715034
0.744921 0.744921 0.744921
0.095875 0.095875 0.095875
0.212878 0.212878 0.212878
0.403687 0.403687 0.403687
0.569025 0.569025 0.569025
0.662328 0.662328 0.662328
0.726784 0.726784 0.726784
0.780301 0.780301 0.780301
0.815497 0.815497 0.815497
0.847153 0.847153 0.847153
0.095875 0.095875 0.095875
0.211705 0.211705 0.211705
0.388560 0.388560 0.388560
0.526148 0.526148 0.526148
0.637723 0.637723 0.637723
0.726862 0.726862 0.726862
0.796275 0.796275 0.796275
0.845397 0.845397 0.845397
0.886123 0.886123 0.886123
0.095875 0.095875 0.095875
0.188836 0.188836 0.188836
0.356385 0.356385 0.356385
0.487872 0.487872 0.487872
0.601357 0.601357 0.601357
0.704569 0.704569 0.704569
0.791194 0.791194 0.791194
0.852374 0.852374 0.852374
0.899141 0.899141 0.899141
0.095875 0.095875 0.095875
0.188193 0.188193 0.188193
0.355608 0.355608 0.355608
0.484534 0.484534 0.484534
0.590422 0.590422 0.590422
0.689204 0.689204 0.689204
0.784208 0.784208 0.784208
0.853760 0.853760 0.853760
0.906146 0.906146 0.906146
0.095875 0.095875 0.095875
0.195333 0.195333 0.195333
0.368665 0.368665 0.368665
0.506266 0.506266 0.506266
0.618322 0.618322 0.618322
0.709679 0.709679 0.709679
0.784842 0.784842 0.784842
0.860223 0.860223 0.860223
0.914192 0.914192 0.914192
0.095875 0.095875 0.095875
0.200179 0.200179 0.200179
0.378466 0.378466 0.378466
0.524720 0.524720 0.524720
0.648042 0.648042 0.648042
0.746495 0.746495 0.746495
0.819376 0.819376 0.819376
0.880833 0.880833 0.880833
0.926921 0.926921 0.926921
0.095875 0.095875 0.095875
0.200636 0.200636 0.200636
0.381239 0.381239 0.381239
0.532616 0.532616 0.532616
0.664053 0.664053 0.664053
0.768412 0.768412 0.768412
0.840415 0.840415 0.840415
0.898067 0.898067 0.898067
0.942527 0.942527 0.942527
0.095875 0.095875 0.095875
0.095875 0.095875 0.095875
0.095875 0.095875 0.095875
0.095875 0.095875 0.095875
0.095875 0.095875 0.095875
0.095875 0.095875 0.095875
0.095875 0.095875 0.095875
0.095875 0.095875 0.095875
0.095875 0.095875 0.095875
0.095875 0.095875 0.095875
0.158292 0.158292 0.158292
0.320489 0.320489 0.320489
0.455903 0.455903 0.455903
0.580751 0.580751 0.580751
0.669050 0.669050 0.669050
0.699939 0.699939 0.699939
0.727207 0.727207 0.727207
0.752895 0.752895 0.752895
0.095875 0.095875 0.095875
0.212878 0.212878 0.212878
0.403687 0.403687 0.403687
0.569670 0.569670 0.569670
0.689765 0.689765 0.689765
0.751918 0.751918 0.751918
0.795326 0.795326 0.795326
0.826302 0.826302 0.826302
0.853949 0.853949 0.853949
0.095875 0.095875 0.095875
0.230145 0.230145 0.230145
0.416972 0.416972 0.416972
0.561407 0.561407 0.561407
0.674804 0.674804 0.674804
0.756838 0.756838 0.756838
0.813399 0.813399 0.813399
0.857206 0.857206 0.857206
0.891323 0.891323 0.891323
0.095875 0.095875 0.095875
0.201702 0.201702 0.201702
0.377982 0.377982 0.377982
0.520066 0.520066 0.520066
0.638907 0.638907 0.638907
0.735649 0.735649 0.735649
0.808777 0.808777 0.808777
0.863983 0.863983 0.863983
0.903946 0.903946 0.903946
0.095875 0.095875 0.095875
0.190429 0.190429 0.190429
0.362066 0.362066 0.362066
0.499617 0.499617 0.499617
0.616199 0.616199 0.616199
0.717366 0.717366 0.717366
0.800616 0.800616 0.800616
0.863679 0.863679 0.863679
0.909813 0.909813 0.909813
0.095875 0.095875 0.095875
0.191868 0.191868 0.191868
0.365194 0.365194 0.365194
0.504892 0.504892 0.504892
0.621413 0.621413 0.621413
0.718618 0.718618 0.718618
0.799731 0.799731 0.799731
0.866389 0.866389 0.866389
0.915924 0.915924 0.915924
0.095875 0.095875 0.095875
0.195886 0.195886 0.195886
0.372970 0.372970 0.372970
0.519058 0.519058 0.519058
0.642957 0.642957 0.642957
0.742897 0.742897 0.742897
0.816846 0.816846 0.816846
0.877111 0.877111 0.877111
0.926324 0.926324 0.926324
0.095875 0.095875 0.095875
0.197317 0.197317 0.197317
0.376800 0.376800 0.376800
0.527655 0.527655 0.527655
0.659052 0.659052 0.659052
0.764529 0.764529 0.764529
0.838074 0.838074 0.838074
0.896803 0.896803 0.896803
0.942021 0.942021 0.942021
0.095875 0.095875 0.095875
0.095875 0.095875 0.095875
0.095875 0.095875 0.095875
0.095875 0.095875 0.095875
0.095875 0.095875 0.095875
0.095875 0.095875 0.095875
0.095875 0.095875 0.095875
0.095875 0.095875 0.095875
0.095875 0.095875 0.095875
0.095875 0.095875 0.095875
0.158292 0.158292 0.158292
0.320489 0.320489 0.320489
0.455903 0.455903 0.455903
0.580751 0.580751 0.580751
0.681179 0.681179 0.681179
0.712200 0.712200 0.712200
0.737488 0.737488 0.737488
0.760164 0.760164 0.760164
0.095875 0.095875 0.095875
0.212878 0.212878 0.212878
0.403687 0.403687 0.403687
0.569670 0.569670 0.569670
0.707324 0.707324 0.707324
0.770387 0.770387 0.770387
0.807447 0.807447 0.807447
0.835798 0.835798 0.835798
0.860403 0.860403 0.860403
0.095875 0.095875 0.095875
0.243371 0.243371 0.243371
0.436338 0.436338 0.436338
0.586822 0.586822 0.586822
0.699681 0.699681 0.699681
0.780190 0.780190 0.780190
0.828097 0.828097 0.828097
0.868194 0.868194 0.868194
0.896552 0.896552 0.896552
0.095875 0.095875 0.095875
0.213824 0.213824 0.213824
0.397526 0.397526 0.397526
0.546025 0.546025 0.546025
0.669217 0.669217 0.669217
0.761637 0.761637 0.761637
0.824624 0.824624 0.824624
0.875510 0.875510 0.875510
0.909190 0.909190 0.909190
0.095875 0.095875 0.095875
0.196676 0.196676 0.196676
0.373192 0.373192 0.373192
0.517998 0.517998 0.517998
0.640860 0.640860 0.640860
0.741176 0.741176 0.741176
0.815811 0.815811 0.815811
0.874490 0.874490 0.874490
0.914426 0.914426 0.914426
0.095875 0.095875 0.095875
0.191665 0.191665 0.191665
0.366452 0.366452 0.366452
0.509918 0.509918 0.509918
0.632156 0.632156 0.632156
0.733800 0.733800 0.733800
0.812393 0.812393 0.812393
0.875400 0.875400 0.875400
0.919246 0.919246 0.919246
0.095875 0.095875 0.095875
0.193020 0.193020 0.193020
0.369560 0.369560 0.369560
0.516219 0.516219 0.516219
0.641867 0.641867 0.641867
0.744328 0.744328 0.744328
0.820166 0.820166 0.820166
0.882658 0.882658 0.882658
0.927737 0.927737 0.927737
0.095875 0.095875 0.095875
0.194463 0.194463 0.194463
0.373019 0.373019 0.373019
0.523559 0.523559 0.523559
0.655170 0.655170 0.655170
0.761821 0.761821 0.761821
0.836677 0.836677 0.836677
0.896134 0.896134 0.896134
0.941833 0.941833 0.941833
