trix_modern/TriX_Red25_ExtraPunchy.cube
TITLE "Tri-X Red25 ExtraPunchy"
# Adobe RGB in/out. REPLACES AgX. R=0.9735 G=0.0265 B=0.0000
LUT_3D_SIZE 9
DOMAIN_MIN 0.0 0.0 0.0
DOMAIN_MAX 1.0 1.0 1.0
0.092237 0.092237 0.092237
0.092237 0.092237 0.092237
0.092237 0.092237 0.092237
0.092237 0.092237 0.092237
0.092237 0.092237 0.092237
0.092237 0.092237 0.092237
0.092237 0.092237 0.092237
0.092237 0.092237 0.092237
0.092237 0.092237 0.092237
0.092237 0.092237 0.092237
0.092856 0.092856 0.092856
0.236634 0.236634 0.236634
0.606355 0.606355 0.606355
0.861999 0.861999 0.861999
0.953062 0.953062 0.953062
0.982106 0.982106 0.982106
0.991086 0.991086 0.991086
0.993205 0.993205 0.993205
0.092237 0.092237 0.092237
0.096871 0.096871 0.096871
0.197330 0.197330 0.197330
0.469586 0.469586 0.469586
0.804189 0.804189 0.804189
0.931037 0.931037 0.931037
0.979369 0.979369 0.979369
0.989695 0.989695 0.989695
0.993014 0.993014 0.993014
0.092237 0.092237 0.092237
0.097452 0.097452 0.097452
0.234662 0.234662 0.234662
0.439149 0.439149 0.439149
0.724417 0.724417 0.724417
0.897742 0.897742 0.897742
0.967039 0.967039 0.967039
0.986526 0.986526 0.986526
0.992341 0.992341 0.992341
0.092237 0.092237 0.092237
0.096491 0.096491 0.096491
0.243047 0.243047 0.243047
0.469424 0.469424 0.469424
0.708673 0.708673 0.708673
0.867516 0.867516 0.867516
0.954032 0.954032 0.954032
0.982841 0.982841 0.982841
0.991507 0.991507 0.991507
0.092237 0.092237 0.092237
0.095106 0.095106 0.095106
0.233252 0.233252 0.233252
0.474113 0.474113 0.474113
0.722459 0.722459 0.722459
0.862858 0.862858 0.862858
0.938607 0.938607 0.938607
0.979659 0.979659 0.979659
0.989750 0.989750 0.989750
0.092237 0.092237 0.092237
0.094154 0.094154 0.094154
0.215046 0.215046 0.215046
0.456885 0.456885 0.456885
0.715902 0.715902 0.715902
0.862050 0.862050 0.862050
0.936058 0.936058 0.936058
0.974417 0.974417 0.974417
0.987658 0.987658 0.987658
0.092237 0.092237 0.092237
0.093516 0.093516 0.093516
0.194044 0.194044 0.194044
0.426572 0.426572 0.426572
0.691064 0.691064 0.691064
0.852813 0.852813 0.852813
0.932097 0.932097 0.932097
0.972382 0.972382 0.972382
0.986174 0.986174 0.986174
0.092237 0.092237 0.092237
0.092862 0.092862 0.092862
0.173301 0.173301 0.173301
0.389855 0.389855 0.389855
0.653659 0.653659 0.653659
0.835745 0.835745 0.835745
0.924242 0.924242 0.924242
0.968685 0.968685 0.968685
0.985097 0.985097 0.985097
0.092237 0.092237 0.092237
0.092237 0.092237 0.092237
0.092237 0.092237 0.092237
0.092237 0.092237 0.092237
0.092237 0.092237 0.092237
0.092237 0.092237 0.092237
0.092237 0.092237 0.092237
0.092237 0.092237 0.092237
0.092237 0.092237 0.092237
0.092237 0.092237 0.092237
0.092317 0.092317 0.092317
0.220401 0.220401 0.220401
0.576925 0.576925 0.576925
0.848798 0.848798 0.848798
0.947621 0.947621 0.947621
0.981351 0.981351 0.981351
0.990616 0.990616 0.990616
0.993110 0.993110 0.993110
0.092237 0.092237 0.092237
0.095001 0.095001 0.095001
0.170273 0.170273 0.170273
0.432807 0.432807 0.432807
0.781900 0.781900 0.781900
0.925429 0.925429 0.925429
0.977800 0.977800 0.977800
0.989230 0.989230 0.989230
0.992920 0.992920 0.992920
0.092237 0.092237 0.092237
0.096537 0.096537 0.096537
0.218246 0.218246 0.218246
0.411339 0.411339 0.411339
0.699906 0.699906 0.699906
0.890794 0.890794 0.890794
0.965059 0.965059 0.965059
0.986085 0.986085 0.986085
0.992254 0.992254 0.992254
0.092237 0.092237 0.092237
0.096027 0.096027 0.096027
0.234638 0.234638 0.234638
0.453938 0.453938 0.453938
0.691429 0.691429 0.691429
0.860354 0.860354 0.860354
0.951015 0.951015 0.951015
0.982416 0.982416 0.982416
0.991430 0.991430 0.991430
0.092237 0.092237 0.092237
0.094852 0.094852 0.094852
0.228846 0.228846 0.228846
0.465770 0.465770 0.465770
0.712540 0.712540 0.712540
0.857825 0.857825 0.857825
0.936497 0.936497 0.936497
0.979335 0.979335 0.979335
0.989545 0.989545 0.989545
0.092237 0.092237 0.092237
0.094098 0.094098 0.094098
0.212723 0.212723 0.212723
0.452400 0.452400 0.452400
0.710455 0.710455 0.710455
0.859149 0.859149 0.859149
0.934621 0.934621 0.934621
0.973847 0.973847 0.973847
0.987522 0.987522 0.987522
0.092237 0.092237 0.092237
0.093484 0.093484 0.093484
0.192883 0.192883 0.192883
0.424221 0.424221 0.424221
0.688184 0.688184 0.688184
0.851257 0.851257 0.851257
0.931313 0.931313 0.931313
0.972034 0.972034 0.972034
0.986094 0.986094 0.986094
0.092237 0.092237 0.092237
0.092854 0.092854 0.092854
0.172740 0.172740 0.172740
0.388700 0.388700 0.388700
0.652264 0.652264 0.652264
0.835001 0.835001 0.835001
0.923885 0.923885 0.923885
0.968541 0.968541 0.968541
0.985069 0.985069 0.985069
0.092237 0.092237 0.092237
0.092237 0.092237 0.092237
0.092237 0.092237 0.092237
0.092237 0.092237 0.092237
0.092237 0.092237 0.092237
0.092237 0.092237 0.092237
0.092237 0.092237 0.092237
0.092237 0.092237 0.092237
0.092237 0.092237 0.092237
0.092237 0.092237 0.092237
0.100482 0.100482 0.100482
0.285496 0.285496 0.285496
0.597036 0.597036 0.597036
0.843584 0.843584 0.843584
0.942233 0.942233 0.942233
0.980256 0.980256 0.980256
0.989766 0.989766 0.989766
0.992909 0.992909 0.992909
0.092237 0.092237 0.092237
0.093622 0.093622 0.093622
0.128236 0.128236 0.128236
0.400988 0.400988 0.400988
0.758597 0.758597 0.758597
0.917728 0.917728 0.917728
0.974290 0.974290 0.974290
0.988319 0.988319 0.988319
0.992715 0.992715 0.992715
0.092237 0.092237 0.092237
0.094573 0.094573 0.094573
0.188547 0.188547 0.188547
0.355966 0.355966 0.355966
0.654495 0.654495 0.654495
0.876957 0.876957 0.876957
0.961014 0.961014 0.961014
0.985114 0.985114 0.985114
0.992046 0.992046 0.992046
0.092237 0.092237 0.092237
0.094863 0.094863 0.094863
0.215504 0.215504 0.215504
0.418552 0.418552 0.418552
0.650109 0.650109 0.650109
0.843378 0.843378 0.843378
0.943736 0.943736 0.943736
0.981363 0.981363 0.981363
0.991233 0.991233 0.991233
0.092237 0.092237 0.092237
0.094386 0.094386 0.094386
0.217361 0.217361 0.217361
0.444295 0.444295 0.444295
0.686518 0.686518 0.686518
0.844159 0.844159 0.844159
0.930844 0.930844 0.930844
0.977383 0.977383 0.977383
0.988980 0.988980 0.988980
0.092237 0.092237 0.092237
0.093932 0.093932 0.093932
0.206112 0.206112 0.206112
0.439786 0.439786 0.439786
0.695098 0.695098 0.695098
0.850811 0.850811 0.850811
0.930425 0.930425 0.930425
0.972198 0.972198 0.972198
0.987121 0.987121 0.987121
0.092237 0.092237 0.092237
0.093385 0.093385 0.093385
0.189374 0.189374 0.189374
0.417172 0.417172 0.417172
0.679578 0.679578 0.679578
0.846575 0.846575 0.846575
0.928930 0.928930 0.928930
0.970967 0.970967 0.970967
0.985848 0.985848 0.985848
0.092237 0.092237 0.092237
0.092838 0.092838 0.092838
0.170963 0.170963 0.170963
0.385068 0.385068 0.385068
0.647897 0.647897 0.647897
0.832672 0.832672 0.832672
0.922763 0.922763 0.922763
0.968086 0.968086 0.968086
0.984978 0.984978 0.984978
0.092237 0.092237 0.092237
0.092237 0.092237 0.092237
0.092237 0.092237 0.092237
0.092237 0.092237 0.092237
0.092237 0.092237 0.092237
0.092237 0.092237 0.092237
0.092237 0.092237 0.092237
0.092237 0.092237 0.092237
0.092237 0.092237 0.092237
0.092237 0.092237 0.092237
0.101519 0.101519 0.101519
0.353722 0.353722 0.353722
0.698368 0.698368 0.698368
0.868311 0.868311 0.868311
0.946667 0.946667 0.946667
0.980233 0.980233 0.980233
0.989401 0.989401 0.989401
0.992771 0.992771 0.992771
0.092237 0.092237 0.092237
0.094472 0.094472 0.094472
0.208718 0.208718 0.208718
0.471739 0.471739 0.471739
0.780577 0.780577 0.780577
0.919125 0.919125 0.919125
0.973373 0.973373 0.973373
0.987819 0.987819 0.987819
0.992559 0.992559 0.992559
0.092237 0.092237 0.092237
0.093875 0.093875 0.093875
0.170597 0.170597 0.170597
0.302165 0.302165 0.302165
0.634253 0.634253 0.634253
0.870028 0.870028 0.870028
0.958601 0.958601 0.958601
0.984321 0.984321 0.984321
0.991865 0.991865 0.991865
0.092237 0.092237 0.092237
0.094121 0.094121 0.094121
0.195910 0.195910 0.195910
0.382021 0.382021 0.382021
0.597510 0.597510 0.597510
0.826481 0.826481 0.826481
0.936844 0.936844 0.936844
0.980342 0.980342 0.980342
0.990769 0.990769 0.990769
0.092237 0.092237 0.092237
0.094025 0.094025 0.094025
0.203487 0.203487 0.203487
0.419105 0.419105 0.419105
0.655271 0.655271 0.655271
0.826943 0.826943 0.826943
0.924142 0.924142 0.924142
0.974557 0.974557 0.974557
0.988311 0.988311 0.988311
0.092237 0.092237 0.092237
0.093698 0.093698 0.093698
0.197367 0.197367 0.197367
0.423418 0.423418 0.423418
0.675258 0.675258 0.675258
0.839762 0.839762 0.839762
0.924759 0.924759 0.924759
0.970056 0.970056 0.970056
0.986596 0.986596 0.986596
0.092237 0.092237 0.092237
0.093238 0.093238 0.093238
0.184374 0.184374 0.184374
0.407305 0.407305 0.407305
0.667655 0.667655 0.667655
0.840051 0.840051 0.840051
0.925572 0.925572 0.925572
0.969451 0.969451 0.969451
0.985505 0.985505 0.985505
0.092237 0.092237 0.092237
0.092814 0.092814 0.092814
0.168290 0.168290 0.168290
0.379665 0.379665 0.379665
0.641461 0.641461 0.641461
0.829249 0.829249 0.829249
0.921111 0.921111 0.921111
0.967413 0.967413 0.967413
0.984845 0.984845 0.984845
0.092237 0.092237 0.092237
0.092237 0.092237 0.092237
0.092237 0.092237 0.092237
0.092237 0.092237 0.092237
0.092237 0.092237 0.092237
0.092237 0.092237 0.092237
0.092237 0.092237 0.092237
0.092237 0.092237 0.092237
0.092237 0.092237 0.092237
0.092237 0.092237 0.092237
0.101519 0.101519 0.101519
0.353722 0.353722 0.353722
0.747316 0.747316 0.747316
0.899893 0.899893 0.899893
0.958227 0.958227 0.958227
0.981479 0.981479 0.981479
0.989780 0.989780 0.989780
0.992765 0.992765 0.992765
0.092237 0.092237 0.092237
0.099685 0.099685 0.099685
0.296902 0.296902 0.296902
0.593789 0.593789 0.593789
0.829344 0.829344 0.829344
0.931107 0.931107 0.931107
0.976208 0.976208 0.976208
0.988069 0.988069 0.988069
0.992532 0.992532 0.992532
0.092237 0.092237 0.092237
0.093915 0.093915 0.093915
0.190508 0.190508 0.190508
0.400014 0.400014 0.400014
0.691149 0.691149 0.691149
0.880658 0.880658 0.880658
0.959904 0.959904 0.959904
0.984295 0.984295 0.984295
0.991797 0.991797 0.991797
0.092237 0.092237 0.092237
0.093670 0.093670 0.093670
0.183527 0.183527 0.183527
0.361995 0.361995 0.361995
0.545947 0.545947 0.545947
0.820278 0.820278 0.820278
0.934402 0.934402 0.934402
0.979870 0.979870 0.979870
0.990361 0.990361 0.990361
0.092237 0.092237 0.092237
0.093647 0.093647 0.093647
0.190661 0.190661 0.190661
0.396300 0.396300 0.396300
0.623284 0.623284 0.623284
0.808938 0.808938 0.808938
0.918201 0.918201 0.918201
0.972263 0.972263 0.972263
0.987767 0.987767 0.987767
0.092237 0.092237 0.092237
0.093433 0.093433 0.093433
0.188328 0.188328 0.188328
0.406475 0.406475 0.406475
0.654915 0.654915 0.654915
0.828013 0.828013 0.828013
0.918575 0.918575 0.918575
0.967890 0.967890 0.967890
0.986079 0.986079 0.986079
0.092237 0.092237 0.092237
0.093063 0.093063 0.093063
0.178691 0.178691 0.178691
0.396208 0.396208 0.396208
0.654524 0.654524 0.654524
0.832845 0.832845 0.832845
0.921816 0.921816 0.921816
0.967744 0.967744 0.967744
0.985177 0.985177 0.985177
0.092237 0.092237 0.092237
0.092785 0.092785 0.092785
0.165078 0.165078 0.165078
0.373261 0.373261 0.373261
0.632732 0.632732 0.632732
0.825277 0.825277 0.825277
0.919202 0.919202 0.919202
0.966638 0.966638 0.966638
0.984693 0.984693 0.984693
0.092237 0.092237 0.092237
0.092237 0.092237 0.092237
0.092237 0.092237 0.092237
0.092237 0.092237 0.092237
0.092237 0.092237 0.092237
0.092237 0.092237 0.092237
0.092237 0.092237 0.092237
0.092237 0.092237 0.092237
0.092237 0.092237 0.092237
0.092237 0.092237 0.092237
0.101519 0.101519 0.101519
0.353722 0.353722 0.353722
0.747316 0.747316 0.747316
0.925756 0.925756 0.925756
0.967157 0.967157 0.967157
0.983529 0.983529 0.983529
0.990777 0.990777 0.990777
0.992891 0.992891 0.992891
0.092237 0.092237 0.092237
0.102664 0.102664 0.102664
0.367502 0.367502 0.367502
0.699287 0.699287 0.699287
0.874228 0.874228 0.874228
0.948427 0.948427 0.948427
0.980082 0.980082 0.980082
0.989010 0.989010 0.989010
0.992642 0.992642 0.992642
0.092237 0.092237 0.092237
0.094855 0.094855 0.094855
0.233988 0.233988 0.233988
0.496027 0.496027 0.496027
0.767467 0.767467 0.767467
0.903125 0.903125 0.903125
0.964883 0.964883 0.964883
0.985130 0.985130 0.985130
0.991871 0.991871 0.991871
0.092237 0.092237 0.092237
0.093552 0.093552 0.093552
0.186154 0.186154 0.186154
0.388986 0.388986 0.388986
0.638225 0.638225 0.638225
0.841577 0.841577 0.841577
0.939791 0.939791 0.939791
0.980272 0.980272 0.980272
0.990397 0.990397 0.990397
0.092237 0.092237 0.092237
0.093336 0.093336 0.093336
0.181728 0.181728 0.181728
0.382938 0.382938 0.382938
0.605584 0.605584 0.605584
0.784665 0.784665 0.784665
0.916182 0.916182 0.916182
0.971554 0.971554 0.971554
0.987536 0.987536 0.987536
0.092237 0.092237 0.092237
0.093171 0.093171 0.093171
0.180013 0.180013 0.180013
0.391379 0.391379 0.391379
0.636769 0.636769 0.636769
0.817182 0.817182 0.817182
0.911248 0.911248 0.911248
0.966051 0.966051 0.966051
0.985679 0.985679 0.985679
0.092237 0.092237 0.092237
0.092884 0.092884 0.092884
0.172913 0.172913 0.172913
0.385092 0.385092 0.385092
0.641692 0.641692 0.641692
0.825792 0.825792 0.825792
0.918045 0.918045 0.918045
0.966009 0.966009 0.966009
0.984844 0.984844 0.984844
0.092237 0.092237 0.092237
0.092752 0.092752 0.092752
0.161617 0.161617 0.161617
0.366446 0.366446 0.366446
0.623547 0.623547 0.623547
0.821160 0.821160 0.821160
0.917239 0.917239 0.917239
0.965847 0.965847 0.965847
0.984546 0.984546 0.984546
0.092237 0.092237 0.092237
0.092237 0.092237 0.092237
0.092237 0.092237 0.092237
0.092237 0.092237 0.092237
0.092237 0.092237 0.092237
0.092237 0.092237 0.092237
0.092237 0.092237 0.092237
0.092237 0.092237 0.092237
0.092237 0.092237 0.092237
0.092237 0.092237 0.092237
0.101519 0.101519 0.101519
0.353722 0.353722 0.353722
0.747316 0.747316 0.747316
0.928921 0.928921 0.928921
0.975407 0.975407 0.975407
0.985703 0.985703 0.985703
0.991418 0.991418 0.991418
0.993104 0.993104 0.993104
0.092237 0.092237 0.092237
0.102664 0.102664 0.102664
0.367502 0.367502 0.367502
0.763159 0.763159 0.763159
0.903090 0.903090 0.903090
0.961440 0.961440 0.961440
0.982488 0.982488 0.982488
0.990348 0.990348 0.990348
0.992852 0.992852 0.992852
0.092237 0.092237 0.092237
0.096967 0.096967 0.096967
0.278645 0.278645 0.278645
0.578783 0.578783 0.578783
0.821781 0.821781 0.821781
0.924759 0.924759 0.924759
0.971656 0.971656 0.971656
0.986428 0.986428 0.986428
0.992061 0.992061 0.992061
0.092237 0.092237 0.092237
0.093840 0.093840 0.093840
0.203367 0.203367 0.203367
0.440580 0.440580 0.440580
0.712852 0.712852 0.712852
0.873824 0.873824 0.873824
0.951058 0.951058 0.951058
0.981479 0.981479 0.981479
0.990884 0.990884 0.990884
0.092237 0.092237 0.092237
0.093198 0.093198 0.093198
0.179774 0.179774 0.179774
0.388037 0.388037 0.388037
0.631765 0.631765 0.631765
0.822045 0.822045 0.822045
0.923781 0.923781 0.923781
0.973400 0.973400 0.973400
0.987746 0.987746 0.987746
0.092237 0.092237 0.092237
0.092956 0.092956 0.092956
0.173777 0.173777 0.173777
0.381286 0.381286 0.381286
0.625699 0.625699 0.625699
0.811710 0.811710 0.811710
0.903272 0.903272 0.903272
0.965440 0.965440 0.965440
0.985551 0.985551 0.985551
0.092237 0.092237 0.092237
0.092816 0.092816 0.092816
0.167620 0.167620 0.167620
0.375198 0.375198 0.375198
0.628976 0.628976 0.628976
0.819859 0.819859 0.819859
0.914359 0.914359 0.914359
0.964347 0.964347 0.964347
0.984564 0.984564 0.984564
0.092237 0.092237 0.092237
0.092719 0.092719 0.092719
0.158166 0.158166 0.158166
0.359737 0.359737 0.359737
0.614681 0.614681 0.614681
0.817249 0.817249 0.817249
0.915322 0.915322 0.915322
0.965112 0.965112 0.965112
0.984421 0.984421 0.984421
0.092237 0.092237 0.092237
0.092237 0.092237 0.092237
0.092237 0.092237 0.092237
0.092237 0.092237 0.092237
0.092237 0.092237 0.092237
0.092237 0.092237 0.092237
0.092237 0.092237 0.092237
0.092237 0.092237 0.092237
0.092237 0.092237 0.092237
0.092237 0.092237 0.092237
0.101519 0.101519 0.101519
0.353722 0.353722 0.353722
0.747316 0.747316 0.747316
0.928921 0.928921 0.928921
0.980069 0.980069 0.980069
0.987489 0.987489 0.987489
0.991803 0.991803 0.991803
0.993347 0.993347 0.993347
0.092237 0.092237 0.092237
0.102664 0.102664 0.102664
0.367502 0.367502 0.367502
0.764074 0.764074 0.764074
0.921840 0.921840 0.921840
0.969204 0.969204 0.969204
0.984718 0.984718 0.984718
0.991319 0.991319 0.991319
0.993102 0.993102 0.993102
0.092237 0.092237 0.092237
0.099633 0.099633 0.099633
0.314608 0.314608 0.314608
0.645241 0.645241 0.645241
0.855634 0.855634 0.855634
0.941059 0.941059 0.941059
0.978398 0.978398 0.978398
0.987897 0.987897 0.987897
0.992312 0.992312 0.992312
0.092237 0.092237 0.092237
0.094302 0.094302 0.094302
0.226198 0.226198 0.226198
0.492591 0.492591 0.492591
0.763539 0.763539 0.763539
0.896651 0.896651 0.896651
0.960296 0.960296 0.960296
0.983058 0.983058 0.983058
0.991292 0.991292 0.991292
0.092237 0.092237 0.092237
0.093280 0.093280 0.093280
0.185494 0.185494 0.185494
0.409442 0.409442 0.409442
0.673563 0.673563 0.673563
0.848843 0.848843 0.848843
0.935205 0.935205 0.935205
0.977061 0.977061 0.977061
0.988331 0.988331 0.988331
0.092237 0.092237 0.092237
0.092852 0.092852 0.092852
0.170943 0.170943 0.170943
0.379469 0.379469 0.379469
0.631000 0.631000 0.631000
0.819890 0.819890 0.819890
0.916567 0.916567 0.916567
0.967684 0.967684 0.967684
0.985824 0.985824 0.985824
0.092237 0.092237 0.092237
0.092774 0.092774 0.092774
0.163414 0.163414 0.163414
0.367842 0.367842 0.367842
0.620647 0.620647 0.620647
0.816692 0.816692 0.816692
0.912110 0.912110 0.912110
0.962840 0.962840 0.962840
0.984461 0.984461 0.984461
0.092237 0.092237 0.092237
0.092687 0.092687 0.092687
0.154980 0.154980 0.154980
0.353645 0.353645 0.353645
0.606869 0.606869 0.606869
0.813925 0.813925 0.813925
0.913291 0.913291 0.913291
0.964509 0.964509 0.964509
0.984335 0.984335 0.984335
0.092237 0.092237 0.092237
0.092237 0.092237 0.092237
0.092237 0.092237 0.092237
0.092237 0.092237 0.092237
0.092237 0.092237 0.092237
0.092237 0.092237 0.092237
0.092237 0.092237 0.092237
0.092237 0.092237 0.092237
0.092237 0.092237 0.092237
0.092237 0.092237 0.092237
0.101519 0.101519 0.101519
0.353722 0.353722 0.353722
0.747316 0.747316 0.747316
0.928921 0.928921 0.928921
0.981593 0.981593 0.981593
0.988830 0.988830 0.988830
0.992123 0.992123 0.992123
0.993568 0.993568 0.993568
0.092237 0.092237 0.092237
0.102664 0.102664 0.102664
0.367502 0.367502 0.367502
0.764074 0.764074 0.764074
0.931907 0.931907 0.931907
0.974807 0.974807 0.974807
0.986354 0.986354 0.986354
0.991676 0.991676 0.991676
0.993338 0.993338 0.993338
0.092237 0.092237 0.092237
0.101933 0.101933 0.101933
0.340917 0.340917 0.340917
0.688012 0.688012 0.688012
0.878659 0.878659 0.878659
0.953858 0.953858 0.953858
0.980911 0.980911 0.980911
0.989249 0.989249 0.989249
0.992562 0.992562 0.992562
0.092237 0.092237 0.092237
0.095060 0.095060 0.095060
0.247791 0.247791 0.247791
0.536447 0.536447 0.536447
0.802157 0.802157 0.802157
0.914907 0.914907 0.914907
0.966370 0.966370 0.966370
0.984607 0.984607 0.984607
0.991540 0.991540 0.991540
0.092237 0.092237 0.092237
0.093505 0.093505 0.093505
0.195560 0.195560 0.195560
0.436070 0.436070 0.436070
0.712990 0.712990 0.712990
0.871336 0.871336 0.871336
0.945700 0.945700 0.945700
0.979784 0.979784 0.979784
0.989064 0.989064 0.989064
0.092237 0.092237 0.092237
0.092850 0.092850 0.092850
0.171968 0.171968 0.171968
0.386134 0.386134 0.386134
0.648360 0.648360 0.648360
0.833735 0.833735 0.833735
0.925153 0.925153 0.925153
0.970943 0.970943 0.970943
0.986348 0.986348 0.986348
0.092237 0.092237 0.092237
0.092746 0.092746 0.092746
0.160826 0.160826 0.160826
0.364208 0.364208 0.364208
0.618868 0.618868 0.618868
0.817953 0.817953 0.817953
0.915061 0.915061 0.915061
0.965234 0.965234 0.965234
0.984705 0.984705 0.984705
0.092237 0.092237 0.092237
0.092659 0.092659 0.092659
0.152288 0.152288 0.152288
0.348650 0.348650 0.348650
0.600832 0.600832 0.600832
0.811605 0.811605 0.811605
0.912078 0.912078 0.912078
0.964189 0.964189 0.964189
0.984304 0.984304 0.984304
