trix_modern/TriX_Blue47_Punchy.cube
TITLE "Tri-X Blue47 Punchy"
# Adobe RGB in/out. REPLACES AgX. R=0.0336 G=0.0311 B=0.9353
LUT_3D_SIZE 5
DOMAIN_MIN 0.0 0.0 0.0
DOMAIN_MAX 1.0 1.0 1.0
0.092306 0.092306 0.092306
0.092306 0.092306 0.092306
0.092306 0.092306 0.092306
0.092306 0.092306 0.092306
0.092306 0.092306 0.092306
0.092306 0.092306 0.092306
0.092306 0.092306 0.092306
0.092306 0.092306 0.092306
0.092306 0.092306 0.092306
0.092306 0.092306 0.092306
0.092306 0.092306 0.092306
0.092306 0.092306 0.092306
0.092306 0.092306 0.092306
0.092306 0.092306 0.092306
0.092306 0.092306 0.092306
0.092306 0.092306 0.092306
0.092306 0.092306 0.092306
0.092306 0.092306 0.092306
0.092306 0.092306 0.092306
0.092306 0.092306 0.092306
0.092306 0.092306 0.092306
0.092306 0.092306 0.092306
0.092306 0.092306 0.092306
0.092306 0.092306 0.092306
0.092306 0.092306 0.092306
0.092306 0.092306 0.092306
0.092306 0.092306 0.092306
0.092306 0.092306 0.092306
0.092306 0.092306 0.092306
0.092306 0.092306 0.092306
0.092306 0.092306 0.092306
0.160896 0.160896 0.160896
0.250494 0.250494 0.250494
0.267225 0.267225 0.267225
0.252758 0.252758 0.252758
0.092306 0.092306 0.092306
0.258857 0.258857 0.258857
0.207051 0.207051 0.207051
0.218145 0.218145 0.218145
0.224796 0.224796 0.224796
0.092306 0.092306 0.092306
0.249960 0.249960 0.249960
0.224709 0.224709 0.224709
0.205346 0.205346 0.205346
0.202236 0.202236 0.202236
0.092306 0.092306 0.092306
0.212432 0.212432 0.212432
0.207515 0.207515 0.207515
0.198336 0.198336 0.198336
0.192108 0.192108 0.192108
0.092306 0.092306 0.092306
0.092306 0.092306 0.092306
0.092306 0.092306 0.092306
0.092306 0.092306 0.092306
0.092306 0.092306 0.092306
0.092306 0.092306 0.092306
0.765329 0.765329 0.765329
0.711910 0.711910 0.711910
0.677208 0.677208 0.677208
0.642597 0.642597 0.642597
0.092306 0.092306 0.092306
0.604277 0.604277 0.604277
0.513339 0.513339 0.513339
0.577311 0.577311 0.577311
0.593807 0.593807 0.593807
0.092306 0.092306 0.092306
0.614087 0.614087 0.614087
0.579001 0.579001 0.579001
0.552589 0.552589 0.552589
0.557956 0.557956 0.557956
0.092306 0.092306 0.092306
0.572666 0.572666 0.572666
0.566892 0.566892 0.566892
0.554456 0.554456 0.554456
0.547564 0.547564 0.547564
0.092306 0.092306 0.092306
0.092306 0.092306 0.092306
0.092306 0.092306 0.092306
0.092306 0.092306 0.092306
0.092306 0.092306 0.092306
0.092306 0.092306 0.092306
0.984925 0.984925 0.984925
0.979889 0.979889 0.979889
0.953320 0.953320 0.953320
0.918364 0.918364 0.918364
0.092306 0.092306 0.092306
0.907252 0.907252 0.907252
0.887707 0.887707 0.887707
0.881909 0.881909 0.881909
0.876523 0.876523 0.876523
0.092306 0.092306 0.092306
0.865955 0.865955 0.865955
0.838987 0.838987 0.838987
0.806640 0.806640 0.806640
0.829732 0.829732 0.829732
0.092306 0.092306 0.092306
0.836108 0.836108 0.836108
0.833616 0.833616 0.833616
0.824177 0.824177 0.824177
0.821226 0.821226 0.821226
0.092306 0.092306 0.092306
0.092306 0.092306 0.092306
0.092306 0.092306 0.092306
0.092306 0.092306 0.092306
0.092306 0.092306 0.092306
0.092306 0.092306 0.092306
0.997043 0.997043 0.997043
0.997207 0.997207 0.997207
0.994866 0.994866 0.994866
0.987641 0.987641 0.987641
0.092306 0.092306 0.092306
0.990835 0.990835 0.990835
0.988845 0.988845 0.988845
0.985523 0.985523 0.985523
0.982272 0.982272 0.982272
0.092306 0.092306 0.092306
0.975395 0.975395 0.975395
0.972950 0.972950 0.972950
0.969339 0.969339 0.969339
0.968123 0.968123 0.968123
0.092306 0.092306 0.092306
0.963043 0.963043 0.963043
0.963681 0.963681 0.963681
0.961440 0.961440 0.961440
0.961544 0.961544 0.961544
