trix_modern/TriX_NoFilter_Normal.cube
TITLE "Tri-X NoFilter Normal"
# Adobe RGB in/out. REPLACES AgX. R=0.2974 G=0.2859 B=0.4167
LUT_3D_SIZE 5
DOMAIN_MIN 0.0 0.0 0.0
DOMAIN_MAX 1.0 1.0 1.0
0.093230 0.093230 0.093230
0.093230 0.093230 0.093230
0.093230 0.093230 0.093230
0.093230 0.093230 0.093230
0.093230 0.093230 0.093230
0.093230 0.093230 0.093230
0.093230 0.093230 0.093230
0.093230 0.093230 0.093230
0.093230 0.093230 0.093230
0.093230 0.093230 0.093230
0.093230 0.093230 0.093230
0.093230 0.093230 0.093230
0.093230 0.093230 0.093230
0.093230 0.093230 0.093230
0.093230 0.093230 0.093230
0.093230 0.093230 0.093230
0.093230 0.093230 0.093230
0.093230 0.093230 0.093230
0.093230 0.093230 0.093230
0.093230 0.093230 0.093230
0.093230 0.093230 0.093230
0.093230 0.093230 0.093230
0.093230 0.093230 0.093230
0.093230 0.093230 0.093230
0.093230 0.093230 0.093230
0.093230 0.093230 0.093230
0.093230 0.093230 0.093230
0.093230 0.093230 0.093230
0.093230 0.093230 0.093230
0.093230 0.093230 0.093230
0.093230 0.093230 0.093230
0.204394 0.204394 0.204394
0.363944 0.363944 0.363944
0.434166 0.434166 0.434166
0.458887 0.458887 0.458887
0.093230 0.093230 0.093230
0.368999 0.368999 0.368999
0.400832 0.400832 0.400832
0.471400 0.471400 0.471400
0.524936 0.524936 0.524936
0.093230 0.093230 0.093230
0.410902 0.410902 0.410902
0.477963 0.477963 0.477963
0.513327 0.513327 0.513327
0.554667 0.554667 0.554667
0.093230 0.093230 0.093230
0.404405 0.404405 0.404405
0.496456 0.496456 0.496456
0.546739 0.546739 0.546739
0.584853 0.584853 0.584853
0.093230 0.093230 0.093230
0.093230 0.093230 0.093230
0.093230 0.093230 0.093230
0.093230 0.093230 0.093230
0.093230 0.093230 0.093230
0.093230 0.093230 0.093230
0.503650 0.503650 0.503650
0.571070 0.571070 0.571070
0.612751 0.612751 0.612751
0.634195 0.634195 0.634195
0.093230 0.093230 0.093230
0.480112 0.480112 0.480112
0.508013 0.508013 0.508013
0.639686 0.639686 0.639686
0.710292 0.710292 0.710292
0.093230 0.093230 0.093230
0.550142 0.550142 0.550142
0.638868 0.638868 0.638868
0.686120 0.686120 0.686120
0.745589 0.745589 0.745589
0.093230 0.093230 0.093230
0.558070 0.558070 0.558070
0.678405 0.678405 0.678405
0.739680 0.739680 0.739680
0.784786 0.784786 0.784786
0.093230 0.093230 0.093230
0.093230 0.093230 0.093230
0.093230 0.093230 0.093230
0.093230 0.093230 0.093230
0.093230 0.093230 0.093230
0.093230 0.093230 0.093230
0.683767 0.683767 0.683767
0.776393 0.776393 0.776393
0.770884 0.770884 0.770884
0.764658 0.764658 0.764658
0.093230 0.093230 0.093230
0.615861 0.615861 0.615861
0.719867 0.719867 0.719867
0.786785 0.786785 0.786785
0.822915 0.822915 0.822915
0.093230 0.093230 0.093230
0.638435 0.638435 0.638435
0.740303 0.740303 0.740303
0.782937 0.782937 0.782937
0.843018 0.843018 0.843018
0.093230 0.093230 0.093230
0.660761 0.660761 0.660761
0.785451 0.785451 0.785451
0.836817 0.836817 0.836817
0.878576 0.878576 0.878576
0.093230 0.093230 0.093230
0.093230 0.093230 0.093230
0.093230 0.093230 0.093230
0.093230 0.093230 0.093230
0.093230 0.093230 0.093230
0.093230 0.093230 0.093230
0.769055 0.769055 0.769055
0.880863 0.880863 0.880863
0.866258 0.866258 0.866258
0.846076 0.846076 0.846076
0.093230 0.093230 0.093230
0.764924 0.764924 0.764924
0.852391 0.852391 0.852391
0.885526 0.885526 0.885526
0.898682 0.898682 0.898682
0.093230 0.093230 0.093230
0.719354 0.719354 0.719354
0.825986 0.825986 0.825986
0.877698 0.877698 0.877698
0.909874 0.909874 0.909874
0.093230 0.093230 0.093230
0.731779 0.731779 0.731779
0.845448 0.845448 0.845448
0.897498 0.897498 0.897498
0.932292 0.932292 0.932292
