trix_modern/TriX_Yellow8_Punchy.cube
TITLE "Tri-X Yellow8 Punchy"
# Adobe RGB in/out. REPLACES AgX. R=0.5015 G=0.4679 B=0.0307
LUT_3D_SIZE 5
DOMAIN_MIN 0.0 0.0 0.0
DOMAIN_MAX 1.0 1.0 1.0
0.091936 0.091936 0.091936
0.091936 0.091936 0.091936
0.091936 0.091936 0.091936
0.091936 0.091936 0.091936
0.091936 0.091936 0.091936
0.091936 0.091936 0.091936
0.091936 0.091936 0.091936
0.091936 0.091936 0.091936
0.091936 0.091936 0.091936
0.091936 0.091936 0.091936
0.091936 0.091936 0.091936
0.091936 0.091936 0.091936
0.091936 0.091936 0.091936
0.091936 0.091936 0.091936
0.091936 0.091936 0.091936
0.091936 0.091936 0.091936
0.091936 0.091936 0.091936
0.091936 0.091936 0.091936
0.091936 0.091936 0.091936
0.091936 0.091936 0.091936
0.091936 0.091936 0.091936
0.091936 0.091936 0.091936
0.091936 0.091936 0.091936
0.091936 0.091936 0.091936
0.091936 0.091936 0.091936
0.091936 0.091936 0.091936
0.091936 0.091936 0.091936
0.091936 0.091936 0.091936
0.091936 0.091936 0.091936
0.091936 0.091936 0.091936
0.091936 0.091936 0.091936
0.152941 0.152941 0.152941
0.432154 0.432154 0.432154
0.574478 0.574478 0.574478
0.648295 0.648295 0.648295
0.091936 0.091936 0.091936
0.429655 0.429655 0.429655
0.560752 0.560752 0.560752
0.716809 0.716809 0.716809
0.825717 0.825717 0.825717
0.091936 0.091936 0.091936
0.528483 0.528483 0.528483
0.718721 0.718721 0.718721
0.822928 0.822928 0.822928
0.899279 0.899279 0.899279
0.091936 0.091936 0.091936
0.555422 0.555422 0.555422
0.780955 0.780955 0.780955
0.889392 0.889392 0.889392
0.943668 0.943668 0.943668
0.091936 0.091936 0.091936
0.091936 0.091936 0.091936
0.091936 0.091936 0.091936
0.091936 0.091936 0.091936
0.091936 0.091936 0.091936
0.091936 0.091936 0.091936
0.345716 0.345716 0.345716
0.497740 0.497740 0.497740
0.594325 0.594325 0.594325
0.658145 0.658145 0.658145
0.091936 0.091936 0.091936
0.398168 0.398168 0.398168
0.513339 0.513339 0.513339
0.715416 0.715416 0.715416
0.830156 0.830156 0.830156
0.091936 0.091936 0.091936
0.514592 0.514592 0.514592
0.708327 0.708327 0.708327
0.817431 0.817431 0.817431
0.903253 0.903253 0.903253
0.091936 0.091936 0.091936
0.558452 0.558452 0.558452
0.786842 0.786842 0.786842
0.895718 0.895718 0.895718
0.950113 0.950113 0.950113
0.091936 0.091936 0.091936
0.091936 0.091936 0.091936
0.091936 0.091936 0.091936
0.091936 0.091936 0.091936
0.091936 0.091936 0.091936
0.091936 0.091936 0.091936
0.416709 0.416709 0.416709
0.587869 0.587869 0.587869
0.640702 0.640702 0.640702
0.678488 0.678488 0.678488
0.091936 0.091936 0.091936
0.433844 0.433844 0.433844
0.621261 0.621261 0.621261
0.754302 0.754302 0.754302
0.842564 0.842564 0.842564
0.091936 0.091936 0.091936
0.497828 0.497828 0.497828
0.698412 0.698412 0.698412
0.803966 0.803966 0.803966
0.906144 0.906144 0.906144
0.091936 0.091936 0.091936
0.553533 0.553533 0.553533
0.784958 0.784958 0.784958
0.897142 0.897142 0.897142
0.953450 0.953450 0.953450
0.091936 0.091936 0.091936
0.091936 0.091936 0.091936
0.091936 0.091936 0.091936
0.091936 0.091936 0.091936
0.091936 0.091936 0.091936
0.091936 0.091936 0.091936
0.421529 0.421529 0.421529
0.639900 0.639900 0.639900
0.683353 0.683353 0.683353
0.702492 0.702492 0.702492
0.091936 0.091936 0.091936
0.493153 0.493153 0.493153
0.698933 0.698933 0.698933
0.803693 0.803693 0.803693
0.862182 0.862182 0.862182
0.091936 0.091936 0.091936
0.500361 0.500361 0.500361
0.718990 0.718990 0.718990
0.841667 0.841667 0.841667
0.916329 0.916329 0.916329
0.091936 0.091936 0.091936
0.547839 0.547839 0.547839
0.782774 0.782774 0.782774
0.898516 0.898516 0.898516
0.956150 0.956150 0.956150
