trix_modern/TriX_Red25_Punchy.cube
TITLE "Tri-X Red25 Punchy"
# Adobe RGB in/out. REPLACES AgX. R=0.9735 G=0.0265 B=0.0000
LUT_3D_SIZE 33
DOMAIN_MIN 0.0 0.0 0.0
DOMAIN_MAX 1.0 1.0 1.0
0.091936 0.091936 0.091936
0.091936 0.091936 0.091936
0.091936 0.091936 0.091936
0.091936 0.091936 0.091936
0.091936 0.091936 0.091936
0.091936 0.091936 0.091936
0.091936 0.091936 0.091936
0.091936 0.091936 0.091936
0.091936 0.091936 0.091936
0.091936 0.091936 0.091936
0.091936 0.091936 0.091936
0.091936 0.091936 0.091936
0.091936 0.091936 0.091936
0.091936 0.091936 0.091936
0.091936 0.091936 0.091936
0.091936 0.091936 0.091936
0.091936 0.091936 0.091936
0.091936 0.091936 0.091936
0.091936 0.091936 0.091936
0.091936 0.091936 0.091936
0.091936 0.091936 0.091936
0.091936 0.091936 0.091936
0.091936 0.091936 0.091936
0.091936 0.091936 0.091936
0.091936 0.091936 0.091936
0.091936 0.091936 0.091936
0.091936 0.091936 0.091936
0.091936 0.091936 0.091936
0.091936 0.091936 0.091936
0.091936 0.091936 0.091936
0.091936 0.091936 0.091936
0.091936 0.091936 0.091936
0.091936 0.091936 0.091936
0.091936 0.091936 0.091936
0.091936 0.091936 0.091936
0.091983 0.091983 0.091983
0.093411 0.093411 0.093411
0.103425 0.103425 0.103425
0.136517 0.136517 0.136517
0.198705 0.198705 0.198705
0.269890 0.269890 0.269890
0.342592 0.342592 0.342592
0.410807 0.410807 0.410807
0.466414 0.466414 0.466414
0.521708 0.521708 0.521708
0.573104 0.573104 0.573104
0.620677 0.620677 0.620677
0.667372 0.667372 0.667372
0.711947 0.711947 0.711947
0.750300 0.750300 0.750300
0.787076 0.787076 0.787076
0.819966 0.819966 0.819966
0.847188 0.847188 0.847188
0.873398 0.873398 0.873398
0.892842 0.892842 0.892842
0.911098 0.911098 0.911098
0.928121 0.928121 0.928121
0.939177 0.939177 0.939177
0.949761 0.949761 0.949761
0.958950 0.958950 0.958950
0.965020 0.965020 0.965020
0.970823 0.970823 0.970823
0.974570 0.974570 0.974570
0.978056 0.978056 0.978056
0.981389 0.981389 0.981389
0.983149 0.983149 0.983149
0.091936 0.091936 0.091936
0.091936 0.091936 0.091936
0.091966 0.091966 0.091966
0.092064 0.092064 0.092064
0.098227 0.098227 0.098227
0.122047 0.122047 0.122047
0.178994 0.178994 0.178994
0.253828 0.253828 0.253828
0.332562 0.332562 0.332562
0.404468 0.404468 0.404468
0.464303 0.464303 0.464303
0.522253 0.522253 0.522253
0.575715 0.575715 0.575715
0.625224 0.625224 0.625224
0.673700 0.673700 0.673700
0.718791 0.718791 0.718791
0.758396 0.758396 0.758396
0.795811 0.795811 0.795811
0.827998 0.827998 0.827998
0.855924 0.855924 0.855924
0.880910 0.880910 0.880910
0.900315 0.900315 0.900315
0.918948 0.918948 0.918948
0.933492 0.933492 0.933492
0.944725 0.944725 0.944725
0.955471 0.955471 0.955471
0.962611 0.962611 0.962611
0.968753 0.968753 0.968753
0.973418 0.973418 0.973418
0.977102 0.977102 0.977102
0.980620 0.980620 0.980620
0.982904 0.982904 0.982904
0.984223 0.984223 0.984223
0.091936 0.091936 0.091936
0.091936 0.091936 0.091936
0.091982 0.091982 0.091982
0.092056 0.092056 0.092056
0.094792 0.094792 0.094792
0.108606 0.108606 0.108606
0.153291 0.153291 0.153291
0.223979 0.223979 0.223979
0.306126 0.306126 0.306126
0.382464 0.382464 0.382464
0.449218 0.449218 0.449218
0.509572 0.509572 0.509572
0.566629 0.566629 0.566629
0.618093 0.618093 0.618093
0.668359 0.668359 0.668359
0.715622 0.715622 0.715622
0.756545 0.756545 0.756545
0.795196 0.795196 0.795196
0.828344 0.828344 0.828344
0.857043 0.857043 0.857043
0.882282 0.882282 0.882282
0.902170 0.902170 0.902170
0.921239 0.921239 0.921239
0.935249 0.935249 0.935249
0.946704 0.946704 0.946704
0.957415 0.957415 0.957415
0.964085 0.964085 0.964085
0.970325 0.970325 0.970325
0.974508 0.974508 0.974508
0.978242 0.978242 0.978242
0.981805 0.981805 0.981805
0.983408 0.983408 0.983408
0.984741 0.984741 0.984741
0.091936 0.091936 0.091936
0.091938 0.091938 0.091938
0.091995 0.091995 0.091995
0.092488 0.092488 0.092488
0.095614 0.095614 0.095614
0.103639 0.103639 0.103639
0.133651 0.133651 0.133651
0.195189 0.195189 0.195189
0.273941 0.273941 0.273941
0.354412 0.354412 0.354412
0.427615 0.427615 0.427615
0.489481 0.489481 0.489481
0.550522 0.550522 0.550522
0.603723 0.603723 0.603723
0.655674 0.655674 0.655674
0.706111 0.706111 0.706111
0.748416 0.748416 0.748416
0.788731 0.788731 0.788731
0.823942 0.823942 0.823942
0.853524 0.853524 0.853524
0.880254 0.880254 0.880254
0.900726 0.900726 0.900726
0.920322 0.920322 0.920322
0.934961 0.934961 0.934961
0.946700 0.946700 0.946700
0.957588 0.957588 0.957588
0.964384 0.964384 0.964384
0.970752 0.970752 0.970752
0.974865 0.974865 0.974865
0.978666 0.978666 0.978666
0.982210 0.982210 0.982210
0.983630 0.983630 0.983630
0.984983 0.984983 0.984983
0.091936 0.091936 0.091936
0.091943 0.091943 0.091943
0.092019 0.092019 0.092019
0.093542 0.093542 0.093542
0.098437 0.098437 0.098437
0.106476 0.106476 0.106476
0.125192 0.125192 0.125192
0.175393 0.175393 0.175393
0.247085 0.247085 0.247085
0.327505 0.327505 0.327505
0.402561 0.402561 0.402561
0.466476 0.466476 0.466476
0.528610 0.528610 0.528610
0.585114 0.585114 0.585114
0.638322 0.638322 0.638322
0.690342 0.690342 0.690342
0.735895 0.735895 0.735895
0.778010 0.778010 0.778010
0.816070 0.816070 0.816070
0.846591 0.846591 0.846591
0.875719 0.875719 0.875719
0.896853 0.896853 0.896853
0.917050 0.917050 0.917050
0.933179 0.933179 0.933179
0.945255 0.945255 0.945255
0.956761 0.956761 0.956761
0.963845 0.963845 0.963845
0.970370 0.970370 0.970370
0.974708 0.974708 0.974708
0.978594 0.978594 0.978594
0.982212 0.982212 0.982212
0.983660 0.983660 0.983660
0.985040 0.985040 0.985040
0.091936 0.091936 0.091936
0.091945 0.091945 0.091945
0.092035 0.092035 0.092035
0.094570 0.094570 0.094570
0.101528 0.101528 0.101528
0.112558 0.112558 0.112558
0.132660 0.132660 0.132660
0.165288 0.165288 0.165288
0.227861 0.227861 0.227861
0.302860 0.302860 0.302860
0.376554 0.376554 0.376554
0.444081 0.444081 0.444081
0.505503 0.505503 0.505503
0.564846 0.564846 0.564846
0.618611 0.618611 0.618611
0.671430 0.671430 0.671430
0.720535 0.720535 0.720535
0.763679 0.763679 0.763679
0.803947 0.803947 0.803947
0.837142 0.837142 0.837142
0.867348 0.867348 0.867348
0.891111 0.891111 0.891111
0.911949 0.911949 0.911949
0.930226 0.930226 0.930226
0.942675 0.942675 0.942675
0.954523 0.954523 0.954523
0.962643 0.962643 0.962643
0.969350 0.969350 0.969350
0.974146 0.974146 0.974146
0.978132 0.978132 0.978132
0.981925 0.981925 0.981925
0.983542 0.983542 0.983542
0.984953 0.984953 0.984953
0.091936 0.091936 0.091936
0.091946 0.091946 0.091946
0.092042 0.092042 0.092042
0.095329 0.095329 0.095329
0.103692 0.103692 0.103692
0.118983 0.118983 0.118983
0.144608 0.144608 0.144608
0.177086 0.177086 0.177086
0.218735 0.218735 0.218735
0.284310 0.284310 0.284310
0.355797 0.355797 0.355797
0.424507 0.424507 0.424507
0.484017 0.484017 0.484017
0.544620 0.544620 0.544620
0.598477 0.598477 0.598477
0.651429 0.651429 0.651429
0.703590 0.703590 0.703590
0.747555 0.747555 0.747555
0.789491 0.789491 0.789491
0.825978 0.825978 0.825978
0.857020 0.857020 0.857020
0.883980 0.883980 0.883980
0.905453 0.905453 0.905453
0.925970 0.925970 0.925970
0.939198 0.939198 0.939198
0.951407 0.951407 0.951407
0.960906 0.960906 0.960906
0.967811 0.967811 0.967811
0.973255 0.973255 0.973255
0.977352 0.977352 0.977352
0.981246 0.981246 0.981246
0.983302 0.983302 0.983302
0.984748 0.984748 0.984748
0.091936 0.091936 0.091936
0.091946 0.091946 0.091946
0.092042 0.092042 0.092042
0.095699 0.095699 0.095699
0.105443 0.105443 0.105443
0.124589 0.124589 0.124589
0.154931 0.154931 0.154931
0.190298 0.190298 0.190298
0.232313 0.232313 0.232313
0.278121 0.278121 0.278121
0.340386 0.340386 0.340386
0.407666 0.407666 0.407666
0.465501 0.465501 0.465501
0.524166 0.524166 0.524166
0.579367 0.579367 0.579367
0.631772 0.631772 0.631772
0.683760 0.683760 0.683760
0.730750 0.730750 0.730750
0.773835 0.773835 0.773835
0.813765 0.813765 0.813765
0.845563 0.845563 0.845563
0.875897 0.875897 0.875897
0.897960 0.897960 0.897960
0.919045 0.919045 0.919045
0.935032 0.935032 0.935032
0.947605 0.947605 0.947605
0.958741 0.958741 0.958741
0.965854 0.965854 0.965854
0.972094 0.972094 0.972094
0.976309 0.976309 0.976309
0.980313 0.980313 0.980313
0.982960 0.982960 0.982960
0.984445 0.984445 0.984445
0.091936 0.091936 0.091936
0.091946 0.091946 0.091946
0.092041 0.092041 0.092041
0.095831 0.095831 0.095831
0.106517 0.106517 0.106517
0.128603 0.128603 0.128603
0.163011 0.163011 0.163011
0.201901 0.201901 0.201901
0.245269 0.245269 0.245269
0.290843 0.290843 0.290843
0.337537 0.337537 0.337537
0.392291 0.392291 0.392291
0.450363 0.450363 0.450363
0.506526 0.506526 0.506526
0.562190 0.562190 0.562190
0.613473 0.613473 0.613473
0.664768 0.664768 0.664768
0.714260 0.714260 0.714260
0.757519 0.757519 0.757519
0.798706 0.798706 0.798706
0.833574 0.833574 0.833574
0.864680 0.864680 0.864680
0.889839 0.889839 0.889839
0.911429 0.911429 0.911429
0.930373 0.930373 0.930373
0.943294 0.943294 0.943294
0.955587 0.955587 0.955587
0.963568 0.963568 0.963568
0.970514 0.970514 0.970514
0.975055 0.975055 0.975055
0.979171 0.979171 0.979171
0.982534 0.982534 0.982534
0.984060 0.984060 0.984060
0.091936 0.091936 0.091936
0.091945 0.091945 0.091945
0.092038 0.092038 0.092038
0.095807 0.095807 0.095807
0.107013 0.107013 0.107013
0.131144 0.131144 0.131144
0.168832 0.168832 0.168832
0.211231 0.211231 0.211231
0.256279 0.256279 0.256279
0.302883 0.302883 0.302883
0.347493 0.347493 0.347493
0.391781 0.391781 0.391781
0.438373 0.438373 0.438373
0.491934 0.491934 0.491934
0.547334 0.547334 0.547334
0.597200 0.597200 0.597200
0.647472 0.647472 0.647472
0.697869 0.697869 0.697869
0.741865 0.741865 0.741865
0.783945 0.783945 0.783945
0.821572 0.821572 0.821572
0.853040 0.853040 0.853040
0.881427 0.881427 0.881427
0.903432 0.903432 0.903432
0.924522 0.924522 0.924522
0.938641 0.938641 0.938641
0.951241 0.951241 0.951241
0.961040 0.961040 0.961040
0.968174 0.968174 0.968174
0.973635 0.973635 0.973635
0.977864 0.977864 0.977864
0.981880 0.981880 0.981880
0.983608 0.983608 0.983608
0.091936 0.091936 0.091936
0.091944 0.091944 0.091944
0.092035 0.092035 0.092035
0.095676 0.095676 0.095676
0.107099 0.107099 0.107099
0.132822 0.132822 0.132822
0.172638 0.172638 0.172638
0.218148 0.218148 0.218148
0.265205 0.265205 0.265205
0.313418 0.313418 0.313418
0.356733 0.356733 0.356733
0.400803 0.400803 0.400803
0.439730 0.439730 0.439730
0.480182 0.480182 0.480182
0.533434 0.533434 0.533434
0.583335 0.583335 0.583335
0.632294 0.632294 0.632294
0.681661 0.681661 0.681661
0.727378 0.727378 0.727378
0.769453 0.769453 0.769453
0.809113 0.809113 0.809113
0.841609 0.841609 0.841609
0.872296 0.872296 0.872296
0.895330 0.895330 0.895330
0.916757 0.916757 0.916757
0.933801 0.933801 0.933801
0.946672 0.946672 0.946672
0.958311 0.958311 0.958311
0.965660 0.965660 0.965660
0.972094 0.972094 0.972094
0.976432 0.976432 0.976432
0.980552 0.980552 0.980552
0.983104 0.983104 0.983104
0.091936 0.091936 0.091936
0.091944 0.091944 0.091944
0.092032 0.092032 0.092032
0.095471 0.095471 0.095471
0.106890 0.106890 0.106890
0.133335 0.133335 0.133335
0.174753 0.174753 0.174753
0.222797 0.222797 0.222797
0.271893 0.271893 0.271893
0.321743 0.321743 0.321743
0.364764 0.364764 0.364764
0.409183 0.409183 0.409183
0.446159 0.446159 0.446159
0.483447 0.483447 0.483447
0.522260 0.522260 0.522260
0.571834 0.571834 0.571834
0.619348 0.619348 0.619348
0.667478 0.667478 0.667478
0.714364 0.714364 0.714364
0.755901 0.755901 0.755901
0.796003 0.796003 0.796003
0.830707 0.830707 0.830707
0.861475 0.861475 0.861475
0.887356 0.887356 0.887356
0.909020 0.909020 0.909020
0.928911 0.928911 0.928911
0.942008 0.942008 0.942008
0.954512 0.954512 0.954512
0.963042 0.963042 0.963042
0.970142 0.970142 0.970142
0.974913 0.974913 0.974913
0.979132 0.979132 0.979132
0.982559 0.982559 0.982559
0.091936 0.091936 0.091936
0.091943 0.091943 0.091943
0.092028 0.092028 0.092028
0.095213 0.095213 0.095213
0.106467 0.106467 0.106467
0.132934 0.132934 0.132934
0.175510 0.175510 0.175510
0.225493 0.225493 0.225493
0.276518 0.276518 0.276518
0.327241 0.327241 0.327241
0.371489 0.371489 0.371489
0.415792 0.415792 0.415792
0.452215 0.452215 0.452215
0.489312 0.489312 0.489312
0.527299 0.527299 0.527299
0.563926 0.563926 0.563926
0.608528 0.608528 0.608528
0.655343 0.655343 0.655343
0.702692 0.702692 0.702692
0.743771 0.743771 0.743771
0.784039 0.784039 0.784039
0.820564 0.820564 0.820564
0.851255 0.851255 0.851255
0.879699 0.879699 0.879699
0.901500 0.901500 0.901500
0.922522 0.922522 0.922522
0.937363 0.937363 0.937363
0.950054 0.950054 0.950054
0.960381 0.960381 0.960381
0.967617 0.967617 0.967617
0.973344 0.973344 0.973344
0.977653 0.977653 0.977653
0.981752 0.981752 0.981752
0.091936 0.091936 0.091936
0.091942 0.091942 0.091942
0.092024 0.092024 0.092024
0.094923 0.094923 0.094923
0.105903 0.105903 0.105903
0.131902 0.131902 0.131902
0.175268 0.175268 0.175268
0.226652 0.226652 0.226652
0.279383 0.279383 0.279383
0.331175 0.331175 0.331175
0.376758 0.376758 0.376758
0.420758 0.420758 0.420758
0.457573 0.457573 0.457573
0.494756 0.494756 0.494756
0.532552 0.532552 0.532552
0.568236 0.568236 0.568236
0.602700 0.602700 0.602700
0.645120 0.645120 0.645120
0.691276 0.691276 0.691276
0.733121 0.733121 0.733121
0.773002 0.773002 0.773002
0.810735 0.810735 0.810735
0.841800 0.841800 0.841800
0.871608 0.871608 0.871608
0.894339 0.894339 0.894339
0.915453 0.915453 0.915453
0.932832 0.932832 0.932832
0.945664 0.945664 0.945664
0.957626 0.957626 0.957626
0.965084 0.965084 0.965084
0.971756 0.971756 0.971756
0.976146 0.976146 0.976146
0.980325 0.980325 0.980325
0.091936 0.091936 0.091936
0.091941 0.091941 0.091941
0.092021 0.092021 0.092021
0.094610 0.094610 0.094610
0.105240 0.105240 0.105240
0.130607 0.130607 0.130607
0.174243 0.174243 0.174243
0.226524 0.226524 0.226524
0.280671 0.280671 0.280671
0.333615 0.333615 0.333615
0.380515 0.380515 0.380515
0.424611 0.424611 0.424611
0.462010 0.462010 0.462010
0.499509 0.499509 0.499509
0.537346 0.537346 0.537346
0.572313 0.572313 0.572313
0.606485 0.606485 0.606485
0.641123 0.641123 0.641123
0.681581 0.681581 0.681581
0.723905 0.723905 0.723905
0.763038 0.763038 0.763038
0.800744 0.800744 0.800744
0.833204 0.833204 0.833204
0.862793 0.862793 0.862793
0.887641 0.887641 0.887641
0.908766 0.908766 0.908766
0.928489 0.928489 0.928489
0.941418 0.941418 0.941418
0.953823 0.953823 0.953823
0.962587 0.962587 0.962587
0.969694 0.969694 0.969694
0.974638 0.974638 0.974638
0.978887 0.978887 0.978887
0.091936 0.091936 0.091936
0.091941 0.091941 0.091941
0.092018 0.092018 0.092018
0.094281 0.094281 0.094281
0.104502 0.104502 0.104502
0.129178 0.129178 0.129178
0.172600 0.172600 0.172600
0.225331 0.225331 0.225331
0.280590 0.280590 0.280590
0.334689 0.334689 0.334689
0.382802 0.382802 0.382802
0.427308 0.427308 0.427308
0.465399 0.465399 0.465399
0.503378 0.503378 0.503378
0.541452 0.541452 0.541452
0.575953 0.575953 0.575953
0.609983 0.609983 0.609983
0.644372 0.644372 0.644372
0.679175 0.679175 0.679175
0.716000 0.716000 0.716000
0.754371 0.754371 0.754371
0.791924 0.791924 0.791924
0.825496 0.825496 0.825496
0.854787 0.854787 0.854787
0.881469 0.881469 0.881469
0.902536 0.902536 0.902536
0.922979 0.922979 0.922979
0.937372 0.937372 0.937372
0.949852 0.949852 0.949852
0.960165 0.960165 0.960165
0.967348 0.967348 0.967348
0.973152 0.973152 0.973152
0.977461 0.977461 0.977461
0.091936 0.091936 0.091936
0.091940 0.091940 0.091940
0.092014 0.092014 0.092014
0.093939 0.093939 0.093939
0.103802 0.103802 0.103802
0.127543 0.127543 0.127543
0.170474 0.170474 0.170474
0.223271 0.223271 0.223271
0.279345 0.279345 0.279345
0.334552 0.334552 0.334552
0.383721 0.383721 0.383721
0.428874 0.428874 0.428874
0.467696 0.467696 0.467696
0.506254 0.506254 0.506254
0.544711 0.544711 0.544711
0.578989 0.578989 0.578989
0.613023 0.613023 0.613023
0.647290 0.647290 0.647290
0.681881 0.681881 0.681881
0.715106 0.715106 0.715106
0.746878 0.746878 0.746878
0.784205 0.784205 0.784205
0.818656 0.818656 0.818656
0.847598 0.847598 0.847598
0.875853 0.875853 0.875853
0.896805 0.896805 0.896805
0.917182 0.917182 0.917182
0.933569 0.933569 0.933569
0.946086 0.946086 0.946086
0.957751 0.957751 0.957751
0.965085 0.965085 0.965085
0.971707 0.971707 0.971707
0.976065 0.976065 0.976065
0.091936 0.091936 0.091936
0.091939 0.091939 0.091939
0.092011 0.092011 0.092011
0.093766 0.093766 0.093766
0.103207 0.103207 0.103207
0.125753 0.125753 0.125753
0.167974 0.167974 0.167974
0.220516 0.220516 0.220516
0.277126 0.277126 0.277126
0.333362 0.333362 0.333362
0.383404 0.383404 0.383404
0.429375 0.429375 0.429375
0.468913 0.468913 0.468913
0.508092 0.508092 0.508092
0.547024 0.547024 0.547024
0.581301 0.581301 0.581301
0.615465 0.615465 0.615465
0.649734 0.649734 0.649734
0.684221 0.684221 0.684221
0.716957 0.716957 0.716957
0.746965 0.746965 0.746965
0.777383 0.777383 0.777383
0.812313 0.812313 0.812313
0.841196 0.841196 0.841196
0.869342 0.869342 0.869342
0.891587 0.891587 0.891587
0.911853 0.911853 0.911853
0.930035 0.930035 0.930035
0.942557 0.942557 0.942557
0.954633 0.954633 0.954633
0.962929 0.962929 0.962929
0.969908 0.969908 0.969908
0.974717 0.974717 0.974717
0.091936 0.091936 0.091936
0.091939 0.091939 0.091939
0.092008 0.092008 0.092008
0.093638 0.093638 0.093638
0.102588 0.102588 0.102588
0.123966 0.123966 0.123966
0.165185 0.165185 0.165185
0.217207 0.217207 0.217207
0.274104 0.274104 0.274104
0.331270 0.331270 0.331270
0.381992 0.381992 0.381992
0.428900 0.428900 0.428900
0.469102 0.469102 0.469102
0.508898 0.508898 0.508898
0.548261 0.548261 0.548261
0.582818 0.582818 0.582818
0.617207 0.617207 0.617207
0.651582 0.651582 0.651582
0.686070 0.686070 0.686070
0.718467 0.718467 0.718467
0.748334 0.748334 0.748334
0.778258 0.778258 0.778258
0.806612 0.806612 0.806612
0.835522 0.835522 0.835522
0.863334 0.863334 0.863334
0.886871 0.886871 0.886871
0.906995 0.906995 0.906995
0.926614 0.926614 0.926614
0.939280 0.939280 0.939280
0.951355 0.951355 0.951355
0.960894 0.960894 0.960894
0.967904 0.967904 0.967904
0.973426 0.973426 0.973426
0.091936 0.091936 0.091936
0.091938 0.091938 0.091938
0.092004 0.092004 0.092004
0.093508 0.093508 0.093508
0.101950 0.101950 0.101950
0.122101 0.122101 0.122101
0.162180 0.162180 0.162180
0.213463 0.213463 0.213463
0.270427 0.270427 0.270427
0.328416 0.328416 0.328416
0.379627 0.379627 0.379627
0.427548 0.427548 0.427548
0.468338 0.468338 0.468338
0.508713 0.508713 0.508713
0.548564 0.548564 0.548564
0.583507 0.583507 0.583507
0.618186 0.618186 0.618186
0.652751 0.652751 0.652751
0.687328 0.687328 0.687328
0.719546 0.719546 0.719546
0.749342 0.749342 0.749342
0.779148 0.779148 0.779148
0.807312 0.807312 0.807312
0.831751 0.831751 0.831751
0.857980 0.857980 0.857980
0.882631 0.882631 0.882631
0.902594 0.902594 0.902594
0.922084 0.922084 0.922084
0.936260 0.936260 0.936260
0.948314 0.948314 0.948314
0.958991 0.958991 0.958991
0.966017 0.966017 0.966017
0.972203 0.972203 0.972203
0.091936 0.091936 0.091936
0.091937 0.091937 0.091937
0.092001 0.092001 0.092001
0.093376 0.093376 0.093376
0.101298 0.101298 0.101298
0.120177 0.120177 0.120177
0.159012 0.159012 0.159012
0.209384 0.209384 0.209384
0.266221 0.266221 0.266221
0.324922 0.324922 0.324922
0.376442 0.376442 0.376442
0.425419 0.425419 0.425419
0.466706 0.466706 0.466706
0.507600 0.507600 0.507600
0.548027 0.548027 0.548027
0.583368 0.583368 0.583368
0.618376 0.618376 0.618376
0.653185 0.653185 0.653185
0.687922 0.687922 0.687922
0.720120 0.720120 0.720120
0.749914 0.749914 0.749914
0.779635 0.779635 0.779635
0.807709 0.807709 0.807709
0.831981 0.831981 0.831981
0.854995 0.854995 0.854995
0.878827 0.878827 0.878827
0.898620 0.898620 0.898620
0.917967 0.917967 0.917967
0.933494 0.933494 0.933494
0.945509 0.945509 0.945509
0.957061 0.957061 0.957061
0.964253 0.964253 0.964253
0.971022 0.971022 0.971022
0.091936 0.091936 0.091936
0.091936 0.091936 0.091936
0.091998 0.091998 0.091998
0.093242 0.093242 0.093242
0.100633 0.100633 0.100633
0.118209 0.118209 0.118209
0.155728 0.155728 0.155728
0.205050 0.205050 0.205050
0.261593 0.261593 0.261593
0.320897 0.320897 0.320897
0.372558 0.372558 0.372558
0.422608 0.422608 0.422608
0.464296 0.464296 0.464296
0.505634 0.505634 0.505634
0.546579 0.546579 0.546579
0.582426 0.582426 0.582426
0.617774 0.617774 0.617774
0.652862 0.652862 0.652862
0.687806 0.687806 0.687806
0.720136 0.720136 0.720136
0.749986 0.749986 0.749986
0.779704 0.779704 0.779704
0.807738 0.807738 0.807738
0.831946 0.831946 0.831946
0.854883 0.854883 0.854883
0.877056 0.877056 0.877056
0.895037 0.895037 0.895037
0.914235 0.914235 0.914235
0.930969 0.930969 0.930969
0.942934 0.942934 0.942934
0.954532 0.954532 0.954532
0.962614 0.962614 0.962614
0.969386 0.969386 0.969386
0.091936 0.091936 0.091936
0.091936 0.091936 0.091936
0.091994 0.091994 0.091994
0.093107 0.093107 0.093107
0.099960 0.099960 0.099960
0.116212 0.116212 0.116212
0.152361 0.152361 0.152361
0.200526 0.200526 0.200526
0.256634 0.256634 0.256634
0.315616 0.315616 0.315616
0.368084 0.368084 0.368084
0.419205 0.419205 0.419205
0.461196 0.461196 0.461196
0.502893 0.502893 0.502893
0.544239 0.544239 0.544239
0.580720 0.580720 0.580720
0.616400 0.616400 0.616400
0.651779 0.651779 0.651779
0.686960 0.686960 0.686960
0.719563 0.719563 0.719563
0.749514 0.749514 0.749514
0.779307 0.779307 0.779307
0.807347 0.807347 0.807347
0.831600 0.831600 0.831600
0.854494 0.854494 0.854494
0.876719 0.876719 0.876719
0.893640 0.893640 0.893640
0.910853 0.910853 0.910853
0.928667 0.928667 0.928667
0.940575 0.940575 0.940575
0.952131 0.952131 0.952131
0.961096 0.961096 0.961096
0.967865 0.967865 0.967865
0.091936 0.091936 0.091936
0.091936 0.091936 0.091936
0.091991 0.091991 0.091991
0.092970 0.092970 0.092970
0.099279 0.099279 0.099279
0.114581 0.114581 0.114581
0.148941 0.148941 0.148941
0.195867 0.195867 0.195867
0.251419 0.251419 0.251419
0.309849 0.309849 0.309849
0.363117 0.363117 0.363117
0.415290 0.415290 0.415290
0.457487 0.457487 0.457487
0.499460 0.499460 0.499460
0.541138 0.541138 0.541138
0.578300 0.578300 0.578300
0.614291 0.614291 0.614291
0.649955 0.649955 0.649955
0.685383 0.685383 0.685383
0.718384 0.718384 0.718384
0.748471 0.748471 0.748471
0.778367 0.778367 0.778367
0.806495 0.806495 0.806495
0.830907 0.830907 0.830907
0.853790 0.853790 0.853790
0.876167 0.876167 0.876167
0.893059 0.893059 0.893059
0.909723 0.909723 0.909723
0.926291 0.926291 0.926291
0.938417 0.938417 0.938417
0.949924 0.949924 0.949924
0.959695 0.959695 0.959695
0.966453 0.966453 0.966453
0.091936 0.091936 0.091936
0.091936 0.091936 0.091936
0.091988 0.091988 0.091988
0.092832 0.092832 0.092832
0.098655 0.098655 0.098655
0.113125 0.113125 0.113125
0.145491 0.145491 0.145491
0.191116 0.191116 0.191116
0.246011 0.246011 0.246011
0.303758 0.303758 0.303758
0.357741 0.357741 0.357741
0.410553 0.410553 0.410553
0.453248 0.453248 0.453248
0.495409 0.495409 0.495409
0.537348 0.537348 0.537348
0.575221 0.575221 0.575221
0.611489 0.611489 0.611489
0.647419 0.647419 0.647419
0.683092 0.683092 0.683092
0.716600 0.716600 0.716600
0.746845 0.746845 0.746845
0.776860 0.776860 0.776860
0.805151 0.805151 0.805151
0.829837 0.829837 0.829837
0.852739 0.852739 0.852739
0.875375 0.875375 0.875375
0.892259 0.892259 0.892259
0.908907 0.908907 0.908907
0.925330 0.925330 0.925330
0.936552 0.936552 0.936552
0.947896 0.947896 0.947896
0.958366 0.958366 0.958366
0.965147 0.965147 0.965147
0.091936 0.091936 0.091936
0.091936 0.091936 0.091936
0.091986 0.091986 0.091986
0.092694 0.092694 0.092694
0.098230 0.098230 0.098230
0.111660 0.111660 0.111660
0.142028 0.142028 0.142028
0.186309 0.186309 0.186309
0.240463 0.240463 0.240463
0.297415 0.297415 0.297415
0.352028 0.352028 0.352028
0.404593 0.404593 0.404593
0.448550 0.448550 0.448550
0.490816 0.490816 0.490816
0.532941 0.532941 0.532941
0.571540 0.571540 0.571540
0.608044 0.608044 0.608044
0.644212 0.644212 0.644212
0.680113 0.680113 0.680113
0.714222 0.714222 0.714222
0.744637 0.744637 0.744637
0.774789 0.774789 0.774789
0.803298 0.803298 0.803298
0.828370 0.828370 0.828370
0.851317 0.851317 0.851317
