trix_modern/TriX_NoFilter_ExtraSoft.cube
TITLE "Tri-X NoFilter ExtraSoft"
# Adobe RGB in/out. REPLACES AgX. R=0.2974 G=0.2859 B=0.4167
LUT_3D_SIZE 9
DOMAIN_MIN 0.0 0.0 0.0
DOMAIN_MAX 1.0 1.0 1.0
0.121260 0.121260 0.121260
0.121260 0.121260 0.121260
0.121260 0.121260 0.121260
0.121260 0.121260 0.121260
0.121260 0.121260 0.121260
0.121260 0.121260 0.121260
0.121260 0.121260 0.121260
0.121260 0.121260 0.121260
0.121260 0.121260 0.121260
0.121260 0.121260 0.121260
0.121260 0.121260 0.121260
0.121260 0.121260 0.121260
0.121260 0.121260 0.121260
0.121260 0.121260 0.121260
0.121260 0.121260 0.121260
0.121260 0.121260 0.121260
0.121260 0.121260 0.121260
0.121260 0.121260 0.121260
0.121260 0.121260 0.121260
0.121260 0.121260 0.121260
0.121260 0.121260 0.121260
0.121260 0.121260 0.121260
0.121260 0.121260 0.121260
0.121260 0.121260 0.121260
0.121260 0.121260 0.121260
0.121260 0.121260 0.121260
0.121260 0.121260 0.121260
0.121260 0.121260 0.121260
0.121260 0.121260 0.121260
0.121260 0.121260 0.121260
0.121260 0.121260 0.121260
0.121260 0.121260 0.121260
0.121260 0.121260 0.121260
0.121260 0.121260 0.121260
0.121260 0.121260 0.121260
0.121260 0.121260 0.121260
0.121260 0.121260 0.121260
0.121260 0.121260 0.121260
0.121260 0.121260 0.121260
0.121260 0.121260 0.121260
0.121260 0.121260 0.121260
0.121260 0.121260 0.121260
0.121260 0.121260 0.121260
0.121260 0.121260 0.121260
0.121260 0.121260 0.121260
0.121260 0.121260 0.121260
0.121260 0.121260 0.121260
0.121260 0.121260 0.121260
0.121260 0.121260 0.121260
0.121260 0.121260 0.121260
0.121260 0.121260 0.121260
0.121260 0.121260 0.121260
0.121260 0.121260 0.121260
0.121260 0.121260 0.121260
0.121260 0.121260 0.121260
0.121260 0.121260 0.121260
0.121260 0.121260 0.121260
0.121260 0.121260 0.121260
0.121260 0.121260 0.121260
0.121260 0.121260 0.121260
0.121260 0.121260 0.121260
0.121260 0.121260 0.121260
0.121260 0.121260 0.121260
0.121260 0.121260 0.121260
0.121260 0.121260 0.121260
0.121260 0.121260 0.121260
0.121260 0.121260 0.121260
0.121260 0.121260 0.121260
0.121260 0.121260 0.121260
0.121260 0.121260 0.121260
0.121260 0.121260 0.121260
0.121260 0.121260 0.121260
0.121260 0.121260 0.121260
0.121260 0.121260 0.121260
0.121260 0.121260 0.121260
0.121260 0.121260 0.121260
0.121260 0.121260 0.121260
0.121260 0.121260 0.121260
0.121260 0.121260 0.121260
0.121260 0.121260 0.121260
0.121260 0.121260 0.121260
0.121260 0.121260 0.121260
0.121260 0.121260 0.121260
0.121260 0.121260 0.121260
0.121260 0.121260 0.121260
0.121260 0.121260 0.121260
0.121260 0.121260 0.121260
0.121260 0.121260 0.121260
0.121260 0.121260 0.121260
0.121260 0.121260 0.121260
0.121260 0.121260 0.121260
0.146378 0.146378 0.146378
0.217590 0.217590 0.217590
0.257877 0.257877 0.257877
0.279229 0.279229 0.279229
0.291236 0.291236 0.291236
0.297896 0.297896 0.297896
0.301210 0.301210 0.301210
0.302225 0.302225 0.302225
0.121260 0.121260 0.121260
0.225766 0.225766 0.225766
0.230106 0.230106 0.230106
0.266517 0.266517 0.266517
0.302179 0.302179 0.302179
0.325443 0.325443 0.325443
0.339978 0.339978 0.339978
0.348189 0.348189 0.348189
0.352361 0.352361 0.352361
0.121260 0.121260 0.121260
0.260528 0.260528 0.260528
0.280608 0.280608 0.280608
0.286524 0.286524 0.286524
0.307947 0.307947 0.307947
0.335291 0.335291 0.335291
0.355068 0.355068 0.355068
0.368332 0.368332 0.368332
0.376349 0.376349 0.376349
0.121260 0.121260 0.121260
0.274296 0.274296 0.274296
0.308789 0.308789 0.308789
0.319470 0.319470 0.319470
0.327182 0.327182 0.327182
0.341839 0.341839 0.341839
0.362325 0.362325 0.362325
0.377871 0.377871 0.377871
0.388842 0.388842 0.388842
0.121260 0.121260 0.121260
0.278655 0.278655 0.278655
0.321835 0.321835 0.321835
0.340560 0.340560 0.340560
0.350198 0.350198 0.350198
0.358582 0.358582 0.358582
0.369281 0.369281 0.369281
0.384804 0.384804 0.384804
0.396988 0.396988 0.396988
0.121260 0.121260 0.121260
0.277962 0.277962 0.277962
0.326130 0.326130 0.326130
0.350672 0.350672 0.350672
0.364555 0.364555 0.364555
0.374226 0.374226 0.374226
0.383003 0.383003 0.383003
0.391893 0.391893 0.391893
0.404134 0.404134 0.404134
0.121260 0.121260 0.121260
0.274189 0.274189 0.274189
0.324645 0.324645 0.324645
0.353393 0.353393 0.353393
0.371097 0.371097 0.371097
0.383424 0.383424 0.383424
0.393542 0.393542 0.393542
0.402792 0.402792 0.402792
0.411571 0.411571 0.411571
0.121260 0.121260 0.121260
0.268366 0.268366 0.268366
0.319614 0.319614 0.319614
0.351012 0.351012 0.351012
0.371796 0.371796 0.371796
0.386832 0.386832 0.386832
0.398946 0.398946 0.398946
0.409495 0.409495 0.409495
0.420560 0.420560 0.420560
0.121260 0.121260 0.121260
0.121260 0.121260 0.121260
0.121260 0.121260 0.121260
0.121260 0.121260 0.121260
0.121260 0.121260 0.121260
0.121260 0.121260 0.121260
0.121260 0.121260 0.121260
0.121260 0.121260 0.121260
0.121260 0.121260 0.121260
0.121260 0.121260 0.121260
0.282029 0.282029 0.282029
0.313811 0.313811 0.313811
0.339550 0.339550 0.339550
0.358936 0.358936 0.358936
0.372102 0.372102 0.372102
0.380392 0.380392 0.380392
0.385105 0.385105 0.385105
0.387089 0.387089 0.387089
0.121260 0.121260 0.121260
0.268417 0.268417 0.268417
0.262816 0.262816 0.262816
0.334140 0.334140 0.334140
0.381711 0.381711 0.381711
0.411745 0.411745 0.411745
0.435303 0.435303 0.435303
0.450511 0.450511 0.450511
0.458870 0.458870 0.458870
0.121260 0.121260 0.121260
0.317550 0.317550 0.317550
0.342287 0.342287 0.342287
0.348582 0.348582 0.348582
0.383592 0.383592 0.383592
0.422818 0.422818 0.422818
0.458785 0.458785 0.458785
0.483767 0.483767 0.483767
0.499162 0.499162 0.499162
0.121260 0.121260 0.121260
0.342824 0.342824 0.342824
0.385291 0.385291 0.385291
0.397815 0.397815 0.397815
0.407481 0.407481 0.407481
0.433568 0.433568 0.433568
0.470775 0.470775 0.470775
0.499880 0.499880 0.499880
0.519740 0.519740 0.519740
0.121260 0.121260 0.121260
0.353040 0.353040 0.353040
0.406217 0.406217 0.406217
0.432602 0.432602 0.432602
0.448442 0.448442 0.448442
0.463379 0.463379 0.463379
0.484634 0.484634 0.484634
0.512197 0.512197 0.512197
0.533834 0.533834 0.533834
0.121260 0.121260 0.121260
0.355108 0.355108 0.355108
0.414530 0.414530 0.414530
0.453685 0.453685 0.453685
0.477014 0.477014 0.477014
0.494109 0.494109 0.494109
0.509262 0.509262 0.509262
0.525557 0.525557 0.525557
0.546833 0.546833 0.546833
0.121260 0.121260 0.121260
0.352205 0.352205 0.352205
0.414927 0.414927 0.414927
0.461081 0.461081 0.461081
0.491376 0.491376 0.491376
0.511851 0.511851 0.511851
0.528950 0.528950 0.528950
0.544932 0.544932 0.544932
0.560343 0.560343 0.560343
0.121260 0.121260 0.121260
0.346042 0.346042 0.346042
0.409935 0.409935 0.409935
0.458990 0.458990 0.458990
0.494429 0.494429 0.494429
0.519282 0.519282 0.519282
0.539619 0.539619 0.539619
0.557603 0.557603 0.557603
0.574226 0.574226 0.574226
0.121260 0.121260 0.121260
0.121260 0.121260 0.121260
0.121260 0.121260 0.121260
0.121260 0.121260 0.121260
0.121260 0.121260 0.121260
0.121260 0.121260 0.121260
0.121260 0.121260 0.121260
0.121260 0.121260 0.121260
0.121260 0.121260 0.121260
0.121260 0.121260 0.121260
0.333221 0.333221 0.333221
0.398636 0.398636 0.398636
0.427156 0.427156 0.427156
0.432131 0.432131 0.432131
0.439932 0.439932 0.439932
0.447176 0.447176 0.447176
0.452187 0.452187 0.452187
0.454565 0.454565 0.454565
0.121260 0.121260 0.121260
0.334527 0.334527 0.334527
0.377025 0.377025 0.377025
0.414352 0.414352 0.414352
0.461494 0.461494 0.461494
0.498030 0.498030 0.498030
0.521914 0.521914 0.521914
0.537411 0.537411 0.537411
0.546474 0.546474 0.546474
0.121260 0.121260 0.121260
0.350130 0.350130 0.350130
0.380678 0.380678 0.380678
0.377097 0.377097 0.377097
0.443155 0.443155 0.443155
0.503146 0.503146 0.503146
0.544184 0.544184 0.544184
0.572439 0.572439 0.572439
0.591371 0.591371 0.591371
0.121260 0.121260 0.121260
0.380835 0.380835 0.380835
0.433243 0.433243 0.433243
0.451469 0.451469 0.451469
0.465519 0.465519 0.465519
0.508388 0.508388 0.508388
0.553665 0.553665 0.553665
0.589575 0.589575 0.589575
0.616669 0.616669 0.616669
0.121260 0.121260 0.121260
0.397266 0.397266 0.397266
0.471564 0.471564 0.471564
0.505794 0.505794 0.505794
0.523127 0.523127 0.523127
0.540549 0.540549 0.540549
0.568936 0.568936 0.568936
0.604875 0.604875 0.604875
0.634605 0.634605 0.634605
0.121260 0.121260 0.121260
0.403412 0.403412 0.403412
0.489638 0.489638 0.489638
0.534243 0.534243 0.534243
0.560245 0.560245 0.560245
0.579637 0.579637 0.579637
0.599914 0.599914 0.599914
0.623689 0.623689 0.623689
0.652397 0.652397 0.652397
0.121260 0.121260 0.121260
0.402873 0.402873 0.402873
0.493995 0.493995 0.493995
0.546202 0.546202 0.546202
0.580021 0.580021 0.580021
0.606196 0.606196 0.606196
0.628637 0.628637 0.628637
0.650130 0.650130 0.650130
0.671299 0.671299 0.671299
0.121260 0.121260 0.121260
0.397870 0.397870 0.397870
0.489473 0.489473 0.489473
0.546659 0.546659 0.546659
0.586713 0.586713 0.586713
0.618680 0.618680 0.618680
0.645179 0.645179 0.645179
0.668955 0.668955 0.668955
0.689259 0.689259 0.689259
0.121260 0.121260 0.121260
0.121260 0.121260 0.121260
0.121260 0.121260 0.121260
0.121260 0.121260 0.121260
0.121260 0.121260 0.121260
0.121260 0.121260 0.121260
0.121260 0.121260 0.121260
0.121260 0.121260 0.121260
0.121260 0.121260 0.121260
0.121260 0.121260 0.121260
0.370254 0.370254 0.370254
0.450160 0.450160 0.450160
0.514008 0.514008 0.514008
0.525809 0.525809 0.525809
0.519958 0.519958 0.519958
0.518447 0.518447 0.518447
0.518458 0.518458 0.518458
0.518165 0.518165 0.518165
0.121260 0.121260 0.121260
0.422943 0.422943 0.422943
0.500760 0.500760 0.500760
0.536288 0.536288 0.536288
0.561732 0.561732 0.561732
0.582910 0.582910 0.582910
0.600609 0.600609 0.600609
0.613304 0.613304 0.613304
0.621201 0.621201 0.621201
0.121260 0.121260 0.121260
0.389674 0.389674 0.389674
0.449190 0.449190 0.449190
0.487082 0.487082 0.487082
0.533988 0.533988 0.533988
0.582106 0.582106 0.582106
0.623274 0.623274 0.623274
0.653257 0.653257 0.653257
0.673483 0.673483 0.673483
0.121260 0.121260 0.121260
0.407637 0.407637 0.407637
0.479055 0.479055 0.479055
0.501251 0.501251 0.501251
0.504596 0.504596 0.504596
0.570671 0.570671 0.570671
0.626471 0.626471 0.626471
0.669478 0.669478 0.669478
0.697039 0.697039 0.697039
0.121260 0.121260 0.121260
0.431362 0.431362 0.431362
0.519629 0.519629 0.519629
0.557391 0.557391 0.557391
0.576051 0.576051 0.576051
0.596183 0.596183 0.596183
0.638444 0.638444 0.638444
0.682727 0.682727 0.682727
0.712925 0.712925 0.712925
0.121260 0.121260 0.121260
0.445103 0.445103 0.445103
0.542716 0.542716 0.542716
0.594003 0.594003 0.594003
0.625687 0.625687 0.625687
0.649263 0.649263 0.649263
0.673644 0.673644 0.673644
0.700957 0.700957 0.700957
0.729995 0.729995 0.729995
0.121260 0.121260 0.121260
0.448414 0.448414 0.448414
0.551478 0.551478 0.551478
0.612548 0.612548 0.612548
0.653883 0.653883 0.653883
0.683470 0.683470 0.683470
0.705674 0.705674 0.705674
0.727347 0.727347 0.727347
0.749497 0.749497 0.749497
0.121260 0.121260 0.121260
0.444150 0.444150 0.444150
0.549927 0.549927 0.549927
0.616626 0.616626 0.616626
0.665106 0.665106 0.665106
0.698484 0.698484 0.698484
0.724482 0.724482 0.724482
0.747910 0.747910 0.747910
0.769960 0.769960 0.769960
0.121260 0.121260 0.121260
0.121260 0.121260 0.121260
0.121260 0.121260 0.121260
0.121260 0.121260 0.121260
0.121260 0.121260 0.121260
0.121260 0.121260 0.121260
0.121260 0.121260 0.121260
0.121260 0.121260 0.121260
0.121260 0.121260 0.121260
0.121260 0.121260 0.121260
0.400939 0.400939 0.400939
0.499369 0.499369 0.499369
0.566565 0.566565 0.566565
0.616652 0.616652 0.616652
0.598407 0.598407 0.598407
0.586537 0.586537 0.586537
0.579310 0.579310 0.579310
0.574477 0.574477 0.574477
0.121260 0.121260 0.121260
0.495220 0.495220 0.495220
0.616657 0.616657 0.616657
0.655742 0.655742 0.655742
0.670154 0.670154 0.670154
0.678156 0.678156 0.678156
0.683580 0.683580 0.683580
0.687822 0.687822 0.687822
0.690446 0.690446 0.690446
0.121260 0.121260 0.121260
0.456851 0.456851 0.456851
0.549756 0.549756 0.549756
0.600565 0.600565 0.600565
0.641086 0.641086 0.641086
0.677395 0.677395 0.677395
0.703679 0.703679 0.703679
0.723864 0.723864 0.723864
0.738076 0.738076 0.738076
0.121260 0.121260 0.121260
0.444389 0.444389 0.444389
0.532787 0.532787 0.532787
0.572861 0.572861 0.572861
0.606894 0.606894 0.606894
0.655278 0.655278 0.655278
0.701013 0.701013 0.701013
0.735440 0.735440 0.735440
0.760885 0.760885 0.760885
0.121260 0.121260 0.121260
0.464039 0.464039 0.464039
0.559413 0.559413 0.559413
0.605322 0.605322 0.605322
0.627956 0.627956 0.627956
0.641082 0.641082 0.641082
0.699983 0.699983 0.699983
0.742832 0.742832 0.742832
0.775613 0.775613 0.775613
0.121260 0.121260 0.121260
0.481244 0.481244 0.481244
0.585312 0.585312 0.585312
0.645501 0.645501 0.645501
0.680913 0.680913 0.680913
0.702389 0.702389 0.702389
0.725094 0.725094 0.725094
0.759021 0.759021 0.759021
0.790821 0.790821 0.790821
0.121260 0.121260 0.121260
0.488608 0.488608 0.488608
0.599167 0.599167 0.599167
0.669045 0.669045 0.669045
0.709678 0.709678 0.709678
0.738367 0.738367 0.738367
0.763063 0.763063 0.763063
0.787160 0.787160 0.787160
0.808120 0.808120 0.808120
0.121260 0.121260 0.121260
0.487288 0.487288 0.487288
0.601043 0.601043 0.601043
0.677120 0.677120 0.677120
0.722931 0.722931 0.722931
0.757638 0.757638 0.757638
0.786270 0.786270 0.786270
0.807103 0.807103 0.807103
0.826875 0.826875 0.826875
0.121260 0.121260 0.121260
0.121260 0.121260 0.121260
0.121260 0.121260 0.121260
0.121260 0.121260 0.121260
0.121260 0.121260 0.121260
0.121260 0.121260 0.121260
0.121260 0.121260 0.121260
0.121260 0.121260 0.121260
0.121260 0.121260 0.121260
0.121260 0.121260 0.121260
0.431774 0.431774 0.431774
0.540713 0.540713 0.540713
0.615552 0.615552 0.615552
0.677014 0.677014 0.677014
0.677976 0.677976 0.677976
0.657384 0.657384 0.657384
0.642345 0.642345 0.642345
0.631286 0.631286 0.631286
0.121260 0.121260 0.121260
0.536221 0.536221 0.536221
0.671039 0.671039 0.671039
0.752068 0.752068 0.752068
0.759478 0.759478 0.759478
0.757649 0.757649 0.757649
0.754068 0.754068 0.754068
0.750855 0.750855 0.750855
0.747954 0.747954 0.747954
0.121260 0.121260 0.121260
0.536383 0.536383 0.536383
0.650978 0.650978 0.650978
0.707766 0.707766 0.707766
0.739001 0.739001 0.739001
0.760554 0.760554 0.760554
0.777039 0.777039 0.777039
0.788645 0.788645 0.788645
0.795736 0.795736 0.795736
0.121260 0.121260 0.121260
0.498012 0.498012 0.498012
0.603596 0.603596 0.603596
0.666048 0.666048 0.666048
0.705986 0.705986 0.705986
0.740462 0.740462 0.740462
0.772654 0.772654 0.772654
0.796962 0.796962 0.796962
0.813812 0.813812 0.813812
0.121260 0.121260 0.121260
0.498038 0.498038 0.498038
0.603868 0.603868 0.603868
0.663380 0.663380 0.663380
0.696824 0.696824 0.696824
0.726656 0.726656 0.726656
0.765384 0.765384 0.765384
0.799580 0.799580 0.799580
0.824014 0.824014 0.824014
0.121260 0.121260 0.121260
0.511348 0.511348 0.511348
0.625271 0.625271 0.625271
0.690487 0.690487 0.690487
0.725064 0.725064 0.725064
0.748315 0.748315 0.748315
0.767470 0.767470 0.767470
0.806836 0.806836 0.806836
0.835359 0.835359 0.835359
0.121260 0.121260 0.121260
0.520485 0.520485 0.520485
0.641471 0.641471 0.641471
0.711725 0.711725 0.711725
0.754648 0.754648 0.754648
0.785762 0.785762 0.785762
0.806714 0.806714 0.806714
0.828026 0.828026 0.828026
0.852606 0.852606 0.852606
0.121260 0.121260 0.121260
0.521984 0.521984 0.521984
0.646693 0.646693 0.646693
0.721427 0.721427 0.721427
0.770855 0.770855 0.770855
0.803707 0.803707 0.803707
0.828708 0.828708 0.828708
0.851573 0.851573 0.851573
0.869121 0.869121 0.869121
0.121260 0.121260 0.121260
0.121260 0.121260 0.121260
0.121260 0.121260 0.121260
0.121260 0.121260 0.121260
0.121260 0.121260 0.121260
0.121260 0.121260 0.121260
0.121260 0.121260 0.121260
0.121260 0.121260 0.121260
0.121260 0.121260 0.121260
0.121260 0.121260 0.121260
0.464097 0.464097 0.464097
0.578328 0.578328 0.578328
0.661146 0.661146 0.661146
0.719397 0.719397 0.719397
0.739350 0.739350 0.739350
0.717341 0.717341 0.717341
0.699269 0.699269 0.699269
0.685028 0.685028 0.685028
0.121260 0.121260 0.121260
0.573523 0.573523 0.573523
0.714032 0.714032 0.714032
0.796263 0.796263 0.796263
0.825752 0.825752 0.825752
0.820852 0.820852 0.820852
0.813054 0.813054 0.813054
0.805438 0.805438 0.805438
0.798746 0.798746 0.798746
0.121260 0.121260 0.121260
0.609965 0.609965 0.609965
0.734778 0.734778 0.734778
0.791093 0.791093 0.791093
0.814767 0.814767 0.814767
0.827289 0.827289 0.827289
0.834403 0.834403 0.834403
0.838722 0.838722 0.838722
0.841190 0.841190 0.841190
0.121260 0.121260 0.121260
0.556266 0.556266 0.556266
0.683160 0.683160 0.683160
0.746550 0.746550 0.746550
0.787340 0.787340 0.787340
0.811656 0.811656 0.811656
0.831284 0.831284 0.831284
0.847269 0.847269 0.847269
0.858783 0.858783 0.858783
0.121260 0.121260 0.121260
0.536839 0.536839 0.536839
0.659315 0.659315 0.659315
0.724558 0.724558 0.724558
0.766551 0.766551 0.766551
0.797876 0.797876 0.797876
0.824038 0.824038 0.824038
0.848334 0.848334 0.848334
0.865635 0.865635 0.865635
0.121260 0.121260 0.121260
0.540518 0.540518 0.540518
0.665825 0.665825 0.665825
0.731853 0.731853 0.731853
0.773162 0.773162 0.773162
0.799969 0.799969 0.799969
0.824194 0.824194 0.824194
0.852182 0.852182 0.852182
0.872554 0.872554 0.872554
0.121260 0.121260 0.121260
0.548809 0.548809 0.548809
0.679684 0.679684 0.679684
0.749203 0.749203 0.749203
0.793776 0.793776 0.793776
0.820924 0.820924 0.820924
0.843180 0.843180 0.843180
0.861957 0.861957 0.861957
0.883617 0.883617 0.883617
0.121260 0.121260 0.121260
0.552202 0.552202 0.552202
0.685889 0.685889 0.685889
0.760301 0.760301 0.760301
0.807355 0.807355 0.807355
0.839512 0.839512 0.839512
0.863818 0.863818 0.863818
0.882115 0.882115 0.882115
0.899875 0.899875 0.899875
0.121260 0.121260 0.121260
0.121260 0.121260 0.121260
0.121260 0.121260 0.121260
0.121260 0.121260 0.121260
0.121260 0.121260 0.121260
0.121260 0.121260 0.121260
0.121260 0.121260 0.121260
0.121260 0.121260 0.121260
0.121260 0.121260 0.121260
0.121260 0.121260 0.121260
0.494021 0.494021 0.494021
0.615070 0.615070 0.615070
0.699465 0.699465 0.699465
0.757899 0.757899 0.757899
0.790597 0.790597 0.790597
0.768237 0.768237 0.768237
0.746617 0.746617 0.746617
0.728422 0.728422 0.728422
0.121260 0.121260 0.121260
0.609642 0.609642 0.609642
0.752272 0.752272 0.752272
0.829619 0.829619 0.829619
0.871364 0.871364 0.871364
0.867134 0.867134 0.867134
0.859267 0.859267 0.859267
0.849044 0.849044 0.849044
0.838640 0.838640 0.838640
0.121260 0.121260 0.121260
0.676448 0.676448 0.676448
0.798703 0.798703 0.798703
0.848182 0.848182 0.848182
0.868022 0.868022 0.868022
0.875548 0.875548 0.875548
0.877902 0.877902 0.877902
0.877819 0.877819 0.877819
0.876565 0.876565 0.876565
0.121260 0.121260 0.121260
0.616306 0.616306 0.616306
0.748215 0.748215 0.748215
0.811239 0.811239 0.811239
0.845419 0.845419 0.845419
0.864859 0.864859 0.864859
0.876453 0.876453 0.876453
0.884830 0.884830 0.884830
0.890828 0.890828 0.890828
0.121260 0.121260 0.121260
0.581266 0.581266 0.581266
0.714261 0.714261 0.714261
0.785320 0.785320 0.785320
0.823273 0.823273 0.823273
0.851759 0.851759 0.851759
0.870347 0.870347 0.870347
0.885110 0.885110 0.885110
0.897256 0.897256 0.897256
0.121260 0.121260 0.121260
0.572542 0.572542 0.572542
0.705506 0.705506 0.705506
0.777021 0.777021 0.777021
0.817100 0.817100 0.817100
0.846556 0.846556 0.846556
0.868419 0.868419 0.868419
0.886686 0.886686 0.886686
0.903075 0.903075 0.903075
0.121260 0.121260 0.121260
0.576116 0.576116 0.576116
0.711114 0.711114 0.711114
0.785509 0.785509 0.785509
0.826121 0.826121 0.826121
0.856449 0.856449 0.856449
0.875479 0.875479 0.875479
0.893942 0.893942 0.893942
0.912529 0.912529 0.912529
0.121260 0.121260 0.121260
0.579742 0.579742 0.579742
0.717110 0.717110 0.717110
0.793461 0.793461 0.793461
0.837967 0.837967 0.837967
0.868221 0.868221 0.868221
0.889533 0.889533 0.889533
0.908825 0.908825 0.908825
0.927107 0.927107 0.927107
