trix_modern/TriX_Orange21_Hard.cube
TITLE "Tri-X Orange21 Hard"
# Adobe RGB in/out. REPLACES AgX. Tri-X Orange21 Hard.
LUT_3D_SIZE 33
DOMAIN_MIN 0.0 0.0 0.0
DOMAIN_MAX 1.0 1.0 1.0
0.093024 0.093024 0.093024
0.093024 0.093024 0.093024
0.093024 0.093024 0.093024
0.093068 0.093068 0.093068
0.093273 0.093273 0.093273
0.093395 0.093395 0.093395
0.094121 0.094121 0.094121
0.096992 0.096992 0.096992
0.100022 0.100022 0.100022
0.113739 0.113739 0.113739
0.174330 0.174330 0.174330
0.240972 0.240972 0.240972
0.316570 0.316570 0.316570
0.437850 0.437850 0.437850
0.601786 0.601786 0.601786
0.725009 0.725009 0.725009
0.815907 0.815907 0.815907
0.884194 0.884194 0.884194
0.937032 0.937032 0.937032
0.965541 0.965541 0.965541
0.978513 0.978513 0.978513
0.985441 0.985441 0.985441
0.989626 0.989626 0.989626
0.992847 0.992847 0.992847
0.994218 0.994218 0.994218
0.995450 0.995450 0.995450
0.997112 0.997112 0.997112
0.997823 0.997823 0.997823
0.998220 0.998220 0.998220
0.998153 0.998153 0.998153
0.998086 0.998086 0.998086
0.998019 0.998019 0.998019
0.998547 0.998547 0.998547
0.093024 0.093024 0.093024
0.093024 0.093024 0.093024
0.093024 0.093024 0.093024
0.093090 0.093090 0.093090
0.093319 0.093319 0.093319
0.093420 0.093420 0.093420
0.094300 0.094300 0.094300
0.097194 0.097194 0.097194
0.100339 0.100339 0.100339
0.115039 0.115039 0.115039
0.176362 0.176362 0.176362
0.242747 0.242747 0.242747
0.317840 0.317840 0.317840
0.438243 0.438243 0.438243
0.601189 0.601189 0.601189
0.723678 0.723678 0.723678
0.814955 0.814955 0.814955
0.883309 0.883309 0.883309
0.936324 0.936324 0.936324
0.965054 0.965054 0.965054
0.978293 0.978293 0.978293
0.985351 0.985351 0.985351
0.989544 0.989544 0.989544
0.992813 0.992813 0.992813
0.994188 0.994188 0.994188
0.995424 0.995424 0.995424
0.997087 0.997087 0.997087
0.997820 0.997820 0.997820
0.998217 0.998217 0.998217
0.998150 0.998150 0.998150
0.998083 0.998083 0.998083
0.998016 0.998016 0.998016
0.998545 0.998545 0.998545
0.093024 0.093024 0.093024
0.093024 0.093024 0.093024
0.093025 0.093025 0.093025
0.093101 0.093101 0.093101
0.093365 0.093365 0.093365
0.093625 0.093625 0.093625
0.094927 0.094927 0.094927
0.099315 0.099315 0.099315
0.103066 0.103066 0.103066
0.122166 0.122166 0.122166
0.185703 0.185703 0.185703
0.250971 0.250971 0.250971
0.324038 0.324038 0.324038
0.440920 0.440920 0.440920
0.600256 0.600256 0.600256
0.719785 0.719785 0.719785
0.811872 0.811872 0.811872
0.880326 0.880326 0.880326
0.933890 0.933890 0.933890
0.963356 0.963356 0.963356
0.977520 0.977520 0.977520
0.985033 0.985033 0.985033
0.989254 0.989254 0.989254
0.992692 0.992692 0.992692
0.994082 0.994082 0.994082
0.995331 0.995331 0.995331
0.996998 0.996998 0.996998
0.997806 0.997806 0.997806
0.998204 0.998204 0.998204
0.998138 0.998138 0.998138
0.998072 0.998072 0.998072
0.998006 0.998006 0.998006
0.998535 0.998535 0.998535
0.093024 0.093024 0.093024
0.093031 0.093031 0.093031
0.093069 0.093069 0.093069
0.093111 0.093111 0.093111
0.093329 0.093329 0.093329
0.093540 0.093540 0.093540
0.095109 0.095109 0.095109
0.100457 0.100457 0.100457
0.108530 0.108530 0.108530
0.135248 0.135248 0.135248
0.211465 0.211465 0.211465
0.274938 0.274938 0.274938
0.342835 0.342835 0.342835
0.451317 0.451317 0.451317
0.603660 0.603660 0.603660
0.716320 0.716320 0.716320
0.807556 0.807556 0.807556
0.875670 0.875670 0.875670
0.929876 0.929876 0.929876
0.960440 0.960440 0.960440
0.976163 0.976163 0.976163
0.984470 0.984470 0.984470
0.988738 0.988738 0.988738
0.992475 0.992475 0.992475
0.993892 0.993892 0.993892
0.995164 0.995164 0.995164
0.996838 0.996838 0.996838
0.997682 0.997682 0.997682
0.998180 0.998180 0.998180
0.998116 0.998116 0.998116
0.998052 0.998052 0.998052
0.997988 0.997988 0.997988
0.998518 0.998518 0.998518
0.093066 0.093066 0.093066
0.093083 0.093083 0.093083
0.093170 0.093170 0.093170
0.093286 0.093286 0.093286
0.093381 0.093381 0.093381
0.093463 0.093463 0.093463
0.094840 0.094840 0.094840
0.100085 0.100085 0.100085
0.110198 0.110198 0.110198
0.143182 0.143182 0.143182
0.229174 0.229174 0.229174
0.294382 0.294382 0.294382
0.366166 0.366166 0.366166
0.473408 0.473408 0.473408
0.622322 0.622322 0.622322
0.720644 0.720644 0.720644
0.803751 0.803751 0.803751
0.869791 0.869791 0.869791
0.925051 0.925051 0.925051
0.956604 0.956604 0.956604
0.974304 0.974304 0.974304
0.983683 0.983683 0.983683
0.988005 0.988005 0.988005
0.992146 0.992146 0.992146
0.993619 0.993619 0.993619
0.994923 0.994923 0.994923
0.996605 0.996605 0.996605
0.997487 0.997487 0.997487
0.998146 0.998146 0.998146
0.998085 0.998085 0.998085
0.998023 0.998023 0.998023
0.997959 0.997959 0.997959
0.998494 0.998494 0.998494
0.093118 0.093118 0.093118
0.093141 0.093141 0.093141
0.093238 0.093238 0.093238
0.093355 0.093355 0.093355
0.093433 0.093433 0.093433
0.093696 0.093696 0.093696
0.094750 0.094750 0.094750
0.099401 0.099401 0.099401
0.107494 0.107494 0.107494
0.142065 0.142065 0.142065
0.229882 0.229882 0.229882
0.306325 0.306325 0.306325
0.384455 0.384455 0.384455
0.486348 0.486348 0.486348
0.627174 0.627174 0.627174
0.723408 0.723408 0.723408
0.802848 0.802848 0.802848
0.866709 0.866709 0.866709
0.921005 0.921005 0.921005
0.952523 0.952523 0.952523
0.972140 0.972140 0.972140
0.982047 0.982047 0.982047
0.987092 0.987092 0.987092
0.991266 0.991266 0.991266
0.993270 0.993270 0.993270
0.994615 0.994615 0.994615
0.996306 0.996306 0.996306
0.997237 0.997237 0.997237
0.998101 0.998101 0.998101
0.998043 0.998043 0.998043
0.997985 0.997985 0.997985
0.998520 0.998520 0.998520
0.998461 0.998461 0.998461
0.093248 0.093248 0.093248
0.093277 0.093277 0.093277
0.093375 0.093375 0.093375
0.093584 0.093584 0.093584
0.093922 0.093922 0.093922
0.094622 0.094622 0.094622
0.095613 0.095613 0.095613
0.099251 0.099251 0.099251
0.105458 0.105458 0.105458
0.136505 0.136505 0.136505
0.223076 0.223076 0.223076
0.305266 0.305266 0.305266
0.386212 0.386212 0.386212
0.491848 0.491848 0.491848
0.635587 0.635587 0.635587
0.732290 0.732290 0.732290
0.799618 0.799618 0.799618
0.859410 0.859410 0.859410
0.915433 0.915433 0.915433
0.948447 0.948447 0.948447
0.969844 0.969844 0.969844
0.979801 0.979801 0.979801
0.986069 0.986069 0.986069
0.990236 0.990236 0.990236
0.992859 0.992859 0.992859
0.994253 0.994253 0.994253
0.995946 0.995946 0.995946
0.996943 0.996943 0.996943
0.998045 0.998045 0.998045
0.997992 0.997992 0.997992
0.997932 0.997932 0.997932
0.998477 0.998477 0.998477
0.998420 0.998420 0.998420
0.093396 0.093396 0.093396
0.093419 0.093419 0.093419
0.093703 0.093703 0.093703
0.094197 0.094197 0.094197
0.095261 0.095261 0.095261
0.096683 0.096683 0.096683
0.098853 0.098853 0.098853
0.102578 0.102578 0.102578
0.106111 0.106111 0.106111
0.132894 0.132894 0.132894
0.214303 0.214303 0.214303
0.293181 0.293181 0.293181
0.376772 0.376772 0.376772
0.488840 0.488840 0.488840
0.636115 0.636115 0.636115
0.728529 0.728529 0.728529
0.797416 0.797416 0.797416
0.856897 0.856897 0.856897
0.910803 0.910803 0.910803
0.942252 0.942252 0.942252
0.964848 0.964848 0.964848
0.977400 0.977400 0.977400
0.984994 0.984994 0.984994
0.989126 0.989126 0.989126
0.992406 0.992406 0.992406
0.993851 0.993851 0.993851
0.995533 0.995533 0.995533
0.996619 0.996619 0.996619
0.997982 0.997982 0.997982
0.997926 0.997926 0.997926
0.997871 0.997871 0.997871
0.998425 0.998425 0.998425
0.998372 0.998372 0.998372
0.093512 0.093512 0.093512
0.093585 0.093585 0.093585
0.093825 0.093825 0.093825
0.094487 0.094487 0.094487
0.095696 0.095696 0.095696
0.097132 0.097132 0.097132
0.099900 0.099900 0.099900
0.104628 0.104628 0.104628
0.116353 0.116353 0.116353
0.136997 0.136997 0.136997
0.209599 0.209599 0.209599
0.283554 0.283554 0.283554
0.365515 0.365515 0.365515
0.478134 0.478134 0.478134
0.628069 0.628069 0.628069
0.722592 0.722592 0.722592
0.794735 0.794735 0.794735
0.853202 0.853202 0.853202
0.906125 0.906125 0.906125
0.937543 0.937543 0.937543
0.961061 0.961061 0.961061
0.975221 0.975221 0.975221
0.983926 0.983926 0.983926
0.988006 0.988006 0.988006
0.991621 0.991621 0.991621
0.993416 0.993416 0.993416
0.995090 0.995090 0.995090
0.996277 0.996277 0.996277
0.997941 0.997941 0.997941
0.997853 0.997853 0.997853
0.997794 0.997794 0.997794
0.998367 0.998367 0.998367
0.998318 0.998318 0.998318
0.093864 0.093864 0.093864
0.093908 0.093908 0.093908
0.094252 0.094252 0.094252
0.095122 0.095122 0.095122
0.096601 0.096601 0.096601
0.099181 0.099181 0.099181
0.103594 0.103594 0.103594
0.113778 0.113778 0.113778
0.131086 0.131086 0.131086
0.154944 0.154944 0.154944
0.219737 0.219737 0.219737
0.278870 0.278870 0.278870
0.355507 0.355507 0.355507
0.465870 0.465870 0.465870
0.615870 0.615870 0.615870
0.712754 0.712754 0.712754
0.788931 0.788931 0.788931
0.848721 0.848721 0.848721
0.903301 0.903301 0.903301
0.933957 0.933957 0.933957
0.957207 0.957207 0.957207
0.973281 0.973281 0.973281
0.982605 0.982605 0.982605
0.986936 0.986936 0.986936
0.990562 0.990562 0.990562
0.992969 0.992969 0.992969
0.994655 0.994655 0.994655
0.995888 0.995888 0.995888
0.997324 0.997324 0.997324
0.997919 0.997919 0.997919
0.998140 0.998140 0.998140
0.998303 0.998303 0.998303
0.998258 0.998258 0.998258
0.094905 0.094905 0.094905
0.094998 0.094998 0.094998
0.095589 0.095589 0.095589
0.096930 0.096930 0.096930
0.099736 0.099736 0.099736
0.105383 0.105383 0.105383
0.121576 0.121576 0.121576
0.143866 0.143866 0.143866
0.171772 0.171772 0.171772
0.206897 0.206897 0.206897
0.249252 0.249252 0.249252
0.295598 0.295598 0.295598
0.350869 0.350869 0.350869
0.457171 0.457171 0.457171
0.603249 0.603249 0.603249
0.700789 0.700789 0.700789
0.781116 0.781116 0.781116
0.843938 0.843938 0.843938
0.900568 0.900568 0.900568
0.930452 0.930452 0.930452
0.954610 0.954610 0.954610
0.971794 0.971794 0.971794
0.980663 0.980663 0.980663
0.985937 0.985937 0.985937
0.989554 0.989554 0.989554
0.992536 0.992536 0.992536
0.994218 0.994218 0.994218
0.995500 0.995500 0.995500
0.996941 0.996941 0.996941
0.997856 0.997856 0.997856
0.998073 0.998073 0.998073
0.998233 0.998233 0.998233
0.998193 0.998193 0.998193
0.095944 0.095944 0.095944
0.096073 0.096073 0.096073
0.096588 0.096588 0.096588
0.098353 0.098353 0.098353
0.101388 0.101388 0.101388
0.111817 0.111817 0.111817
0.132915 0.132915 0.132915
0.159047 0.159047 0.159047
0.192689 0.192689 0.192689
0.232027 0.232027 0.232027
0.276675 0.276675 0.276675
0.330653 0.330653 0.330653
0.373800 0.373800 0.373800
0.453472 0.453472 0.453472
0.594075 0.594075 0.594075
0.689497 0.689497 0.689497
0.773840 0.773840 0.773840
0.839272 0.839272 0.839272
0.897071 0.897071 0.897071
0.927696 0.927696 0.927696
0.952806 0.952806 0.952806
0.970480 0.970480 0.970480
0.979172 0.979172 0.979172
0.985105 0.985105 0.985105
0.988632 0.988632 0.988632
0.992042 0.992042 0.992042
0.993788 0.993788 0.993788
0.995118 0.995118 0.995118
0.996561 0.996561 0.996561
0.997762 0.997762 0.997762
0.998013 0.998013 0.998013
0.998161 0.998161 0.998161
0.998125 0.998125 0.998125
0.096818 0.096818 0.096818
0.096934 0.096934 0.096934
0.097573 0.097573 0.097573
0.099588 0.099588 0.099588
0.104192 0.104192 0.104192
0.117887 0.117887 0.117887
0.140438 0.140438 0.140438
0.170007 0.170007 0.170007
0.207546 0.207546 0.207546
0.249098 0.249098 0.249098
0.295916 0.295916 0.295916
0.349124 0.349124 0.349124
0.412474 0.412474 0.412474
0.480578 0.480578 0.480578
0.590488 0.590488 0.590488
0.683988 0.683988 0.683988
0.768370 0.768370 0.768370
0.835163 0.835163 0.835163
0.893763 0.893763 0.893763
0.925338 0.925338 0.925338
0.950926 0.950926 0.950926
0.969084 0.969084 0.969084
0.978115 0.978115 0.978115
0.984395 0.984395 0.984395
0.987844 0.987844 0.987844
0.991220 0.991220 0.991220
0.993381 0.993381 0.993381
0.994728 0.994728 0.994728
0.996182 0.996182 0.996182
0.997432 0.997432 0.997432
0.997975 0.997975 0.997975
0.998085 0.998085 0.998085
0.998054 0.998054 0.998054
0.098814 0.098814 0.098814
0.099030 0.099030 0.099030
0.099847 0.099847 0.099847
0.102436 0.102436 0.102436
0.112007 0.112007 0.112007
0.129589 0.129589 0.129589
0.155805 0.155805 0.155805
0.191936 0.191936 0.191936
0.234555 0.234555 0.234555
0.280507 0.280507 0.280507
0.333338 0.333338 0.333338
0.392664 0.392664 0.392664
0.453815 0.453815 0.453815
0.516747 0.516747 0.516747
0.626312 0.626312 0.626312
0.686119 0.686119 0.686119
0.765119 0.765119 0.765119
0.831228 0.831228 0.831228
0.890528 0.890528 0.890528
0.923344 0.923344 0.923344
0.949593 0.949593 0.949593
0.967747 0.967747 0.967747
0.977223 0.977223 0.977223
0.983881 0.983881 0.983881
0.987213 0.987213 0.987213
0.990497 0.990497 0.990497
0.993013 0.993013 0.993013
0.994363 0.994363 0.994363
0.995819 0.995819 0.995819
0.997092 0.997092 0.997092
0.997914 0.997914 0.997914
0.998114 0.998114 0.998114
0.998305 0.998305 0.998305
0.103375 0.103375 0.103375
0.103840 0.103840 0.103840
0.105595 0.105595 0.105595
0.112405 0.112405 0.112405
0.129929 0.129929 0.129929
0.151626 0.151626 0.151626
0.186323 0.186323 0.186323
0.230267 0.230267 0.230267
0.280082 0.280082 0.280082
0.337466 0.337466 0.337466
0.400982 0.400982 0.400982
0.462326 0.462326 0.462326
0.524083 0.524083 0.524083
0.591884 0.591884 0.591884
0.660475 0.660475 0.660475
0.718743 0.718743 0.718743
0.770393 0.770393 0.770393
0.829807 0.829807 0.829807
0.888544 0.888544 0.888544
0.921619 0.921619 0.921619
0.948576 0.948576 0.948576
0.966823 0.966823 0.966823
0.976666 0.976666 0.976666
0.983537 0.983537 0.983537
0.986726 0.986726 0.986726
0.989928 0.989928 0.989928
0.992697 0.992697 0.992697
0.994038 0.994038 0.994038
0.995479 0.995479 0.995479
0.996773 0.996773 0.996773
0.997857 0.997857 0.997857
0.998063 0.998063 0.998063
0.998242 0.998242 0.998242
0.109664 0.109664 0.109664
0.110468 0.110468 0.110468
0.113505 0.113505 0.113505
0.121958 0.121958 0.121958
0.139693 0.139693 0.139693
0.164560 0.164560 0.164560
0.204964 0.204964 0.204964
0.247178 0.247178 0.247178
0.300091 0.300091 0.300091
0.361966 0.361966 0.361966
0.428147 0.428147 0.428147
0.487029 0.487029 0.487029
0.551749 0.551749 0.551749
0.621453 0.621453 0.621453
0.684875 0.684875 0.684875
0.751883 0.751883 0.751883
0.792382 0.792382 0.792382
0.835765 0.835765 0.835765
0.887721 0.887721 0.887721
0.920891 0.920891 0.920891
0.947522 0.947522 0.947522
0.966080 0.966080 0.966080
0.976328 0.976328 0.976328
0.983299 0.983299 0.983299
0.986409 0.986409 0.986409
0.989511 0.989511 0.989511
0.992436 0.992436 0.992436
0.993753 0.993753 0.993753
0.995172 0.995172 0.995172
0.996464 0.996464 0.996464
0.997794 0.997794 0.997794
0.998016 0.998016 0.998016
0.998196 0.998196 0.998196
0.119307 0.119307 0.119307
0.120372 0.120372 0.120372
0.124390 0.124390 0.124390
0.132785 0.132785 0.132785
0.151018 0.151018 0.151018
0.180642 0.180642 0.180642
0.216521 0.216521 0.216521
0.262692 0.262692 0.262692
0.319637 0.319637 0.319637
0.383261 0.383261 0.383261
0.448796 0.448796 0.448796
0.510653 0.510653 0.510653
0.578418 0.578418 0.578418
0.644249 0.644249 0.644249
0.708604 0.708604 0.708604
0.767512 0.767512 0.767512
0.813115 0.813115 0.813115
0.851208 0.851208 0.851208
0.893535 0.893535 0.893535
0.920381 0.920381 0.920381
0.946946 0.946946 0.946946
0.965515 0.965515 0.965515
0.976102 0.976102 0.976102
0.983022 0.983022 0.983022
0.986236 0.986236 0.986236
0.989235 0.989235 0.989235
0.992237 0.992237 0.992237
0.993512 0.993512 0.993512
0.994901 0.994901 0.994901
0.996179 0.996179 0.996179
0.997503 0.997503 0.997503
0.997967 0.997967 0.997967
0.998172 0.998172 0.998172
0.134720 0.134720 0.134720
0.135994 0.135994 0.135994
0.140791 0.140791 0.140791
0.150597 0.150597 0.150597
0.169462 0.169462 0.169462
0.206081 0.206081 0.206081
0.239715 0.239715 0.239715
0.293082 0.293082 0.293082
0.351856 0.351856 0.351856
0.417650 0.417650 0.417650
0.481660 0.481660 0.481660
0.548219 0.548219 0.548219
0.620109 0.620109 0.620109
0.681427 0.681427 0.681427
0.747857 0.747857 0.747857
0.793235 0.793235 0.793235
0.831498 0.831498 0.831498
0.866787 0.866787 0.866787
0.904566 0.904566 0.904566
0.925966 0.925966 0.925966
0.946836 0.946836 0.946836
0.965339 0.965339 0.965339
0.975977 0.975977 0.975977
0.982858 0.982858 0.982858
0.986164 0.986164 0.986164
0.989093 0.989093 0.989093
0.992026 0.992026 0.992026
0.993333 0.993333 0.993333
0.994666 0.994666 0.994666
0.995934 0.995934 0.995934
0.997240 0.997240 0.997240
0.997919 0.997919 0.997919
0.998128 0.998128 0.998128
0.158801 0.158801 0.158801
0.160170 0.160170 0.160170
0.165914 0.165914 0.165914
0.177586 0.177586 0.177586
0.198785 0.198785 0.198785
0.236850 0.236850 0.236850
0.276704 0.276704 0.276704
0.333946 0.333946 0.333946
0.395265 0.395265 0.395265
0.464200 0.464200 0.464200
0.531932 0.531932 0.531932
0.603774 0.603774 0.603774
0.669179 0.669179 0.669179
0.734393 0.734393 0.734393
0.783954 0.783954 0.783954
0.824665 0.824665 0.824665
0.858028 0.858028 0.858028
0.888182 0.888182 0.888182
0.915410 0.915410 0.915410
0.933766 0.933766 0.933766
0.951489 0.951489 0.951489
0.965483 0.965483 0.965483
0.975986 0.975986 0.975986
0.982863 0.982863 0.982863
0.986122 0.986122 0.986122
0.989041 0.989041 0.989041
0.991864 0.991864 0.991864
0.993214 0.993214 0.993214
0.994495 0.994495 0.994495
0.995720 0.995720 0.995720
0.997008 0.997008 0.997008
0.997875 0.997875 0.997875
0.998087 0.998087 0.998087
0.178117 0.178117 0.178117
0.179644 0.179644 0.179644
0.185349 0.185349 0.185349
0.197311 0.197311 0.197311
0.218451 0.218451 0.218451
0.254224 0.254224 0.254224
0.300532 0.300532 0.300532
0.351799 0.351799 0.351799
0.419975 0.419975 0.419975
0.485538 0.485538 0.485538
0.550146 0.550146 0.550146
0.622852 0.622852 0.622852
0.687814 0.687814 0.687814
0.752701 0.752701 0.752701
0.798556 0.798556 0.798556
0.834759 0.834759 0.834759
0.868212 0.868212 0.868212
0.895903 0.895903 0.895903
0.921120 0.921120 0.921120
0.941518 0.941518 0.941518
0.956125 0.956125 0.956125
0.969842 0.969842 0.969842
0.976303 0.976303 0.976303
0.982988 0.982988 0.982988
0.986174 0.986174 0.986174
0.989045 0.989045 0.989045
0.991801 0.991801 0.991801
0.993147 0.993147 0.993147
0.994368 0.994368 0.994368
0.995541 0.995541 0.995541
0.996804 0.996804 0.996804
0.997835 0.997835 0.997835
0.998049 0.998049 0.998049
0.201869 0.201869 0.201869
0.203504 0.203504 0.203504
0.209593 0.209593 0.209593
0.221750 0.221750 0.221750
0.242574 0.242574 0.242574
0.277137 0.277137 0.277137
0.331142 0.331142 0.331142
0.378502 0.378502 0.378502
0.450800 0.450800 0.450800
0.506222 0.506222 0.506222
0.577615 0.577615 0.577615
0.650234 0.650234 0.650234
0.714451 0.714451 0.714451
0.770384 0.770384 0.770384
0.814068 0.814068 0.814068
0.847776 0.847776 0.847776
0.879199 0.879199 0.879199
0.904841 0.904841 0.904841
0.928002 0.928002 0.928002
0.947510 0.947510 0.947510
0.960753 0.960753 0.960753
0.971899 0.971899 0.971899
0.978174 0.978174 0.978174
0.983427 0.983427 0.983427
0.986255 0.986255 0.986255
0.989129 0.989129 0.989129
0.991834 0.991834 0.991834
0.993130 0.993130 0.993130
0.994288 0.994288 0.994288
0.995412 0.995412 0.995412
0.996625 0.996625 0.996625
0.997782 0.997782 0.997782
0.998013 0.998013 0.998013
0.232316 0.232316 0.232316
0.234001 0.234001 0.234001
0.240255 0.240255 0.240255
0.252639 0.252639 0.252639
0.273631 0.273631 0.273631
0.308867 0.308867 0.308867
0.366527 0.366527 0.366527
0.416711 0.416711 0.416711
0.476864 0.476864 0.476864
0.540686 0.540686 0.540686
0.615910 0.615910 0.615910
0.677317 0.677317 0.677317
0.745412 0.745412 0.745412
0.792817 0.792817 0.792817
0.830288 0.830288 0.830288
0.863643 0.863643 0.863643
0.891438 0.891438 0.891438
0.916831 0.916831 0.916831
0.936259 0.936259 0.936259
0.953242 0.953242 0.953242
0.965512 0.965512 0.965512
0.973804 0.973804 0.973804
0.979920 0.979920 0.979920
0.984215 0.984215 0.984215
0.986614 0.986614 0.986614
0.989232 0.989232 0.989232
0.991941 0.991941 0.991941
0.993158 0.993158 0.993158
0.994262 0.994262 0.994262
0.995328 0.995328 0.995328
0.996487 0.996487 0.996487
0.997613 0.997613 0.997613
0.997979 0.997979 0.997979
0.266791 0.266791 0.266791
0.268524 0.268524 0.268524
0.275064 0.275064 0.275064
0.288205 0.288205 0.288205
0.310203 0.310203 0.310203
0.345230 0.345230 0.345230
0.401064 0.401064 0.401064
0.455900 0.455900 0.455900
0.509273 0.509273 0.509273
0.582175 0.582175 0.582175
0.644481 0.644481 0.644481
0.711686 0.711686 0.711686
0.771294 0.771294 0.771294
0.813051 0.813051 0.813051
0.845960 0.845960 0.845960
0.878038 0.878038 0.878038
0.903527 0.903527 0.903527
0.926065 0.926065 0.926065
0.944983 0.944983 0.944983
0.958404 0.958404 0.958404
0.970317 0.970317 0.970317
0.975952 0.975952 0.975952
0.981603 0.981603 0.981603
0.984961 0.984961 0.984961
0.987337 0.987337 0.987337
0.989652 0.989652 0.989652
0.992083 0.992083 0.992083
0.993212 0.993212 0.993212
0.994289 0.994289 0.994289
0.995294 0.995294 0.995294
0.996390 0.996390 0.996390
0.997465 0.997465 0.997465
0.997948 0.997948 0.997948
0.300737 0.300737 0.300737
0.302551 0.302551 0.302551
0.309253 0.309253 0.309253
0.322381 0.322381 0.322381
0.344160 0.344160 0.344160
0.378367 0.378367 0.378367
0.431444 0.431444 0.431444
0.489237 0.489237 0.489237
0.538199 0.538199 0.538199
0.611068 0.611068 0.611068
0.669542 0.669542 0.669542
0.740592 0.740592 0.740592
0.784652 0.784652 0.784652
0.824927 0.824927 0.824927
0.859188 0.859188 0.859188
0.887225 0.887225 0.887225
0.912072 0.912072 0.912072
0.932215 0.932215 0.932215
0.950022 0.950022 0.950022
0.962061 0.962061 0.962061
0.971966 0.971966 0.971966
0.977477 0.977477 0.977477
0.983042 0.983042 0.983042
0.985674 0.985674 0.985674
0.988009 0.988009 0.988009
0.990304 0.990304 0.990304
0.992360 0.992360 0.992360
0.993286 0.993286 0.993286
0.994343 0.994343 0.994343
0.995306 0.995306 0.995306
0.996335 0.996335 0.996335
0.997354 0.997354 0.997354
0.997921 0.997921 0.997921
0.339622 0.339622 0.339622
0.341460 0.341460 0.341460
0.348235 0.348235 0.348235
0.361441 0.361441 0.361441
0.383165 0.383165 0.383165
0.416867 0.416867 0.416867
0.461902 0.461902 0.461902
0.527870 0.527870 0.527870
0.573670 0.573670 0.573670
0.637078 0.637078 0.637078
0.701958 0.701958 0.701958
0.758586 0.758586 0.758586
0.804441 0.804441 0.804441
0.838913 0.838913 0.838913
0.870233 0.870233 0.870233
0.896433 0.896433 0.896433
0.920754 0.920754 0.920754
0.939372 0.939372 0.939372
0.954303 0.954303 0.954303
0.966038 0.966038 0.966038
0.973629 0.973629 0.973629
0.979022 0.979022 0.979022
0.983784 0.983784 0.983784
0.986225 0.986225 0.986225
0.988638 0.988638 0.988638
0.990893 0.990893 0.990893
0.992649 0.992649 0.992649
0.993523 0.993523 0.993523
0.994425 0.994425 0.994425
0.995360 0.995360 0.995360
0.996326 0.996326 0.996326
0.997284 0.997284 0.997284
0.997897 0.997897 0.997897
0.383914 0.383914 0.383914
0.385770 0.385770 0.385770
0.392600 0.392600 0.392600
0.405856 0.405856 0.405856
0.427512 0.427512 0.427512
0.455429 0.455429 0.455429
0.496631 0.496631 0.496631
0.559055 0.559055 0.559055
0.614991 0.614991 0.614991
0.667124 0.667124 0.667124
0.740293 0.740293 0.740293
0.779055 0.779055 0.779055
0.822496 0.822496 0.822496
0.851432 0.851432 0.851432
0.882462 0.882462 0.882462
0.907097 0.907097 0.907097
0.927618 0.927618 0.927618
0.945797 0.945797 0.945797
0.958295 0.958295 0.958295
0.969845 0.969845 0.969845
0.975287 0.975287 0.975287
0.980578 0.980578 0.980578
0.984426 0.984426 0.984426
0.986768 0.986768 0.986768
0.989128 0.989128 0.989128
0.991433 0.991433 0.991433
0.992916 0.992916 0.992916
0.993790 0.993790 0.993790
0.994677 0.994677 0.994677
0.995458 0.995458 0.995458
0.996349 0.996349 0.996349
0.997247 0.997247 0.997247
0.997883 0.997883 0.997883
0.436536 0.436536 0.436536
0.438025 0.438025 0.438025
0.443492 0.443492 0.443492
0.454051 0.454051 0.454051
0.471171 0.471171 0.471171
0.497203 0.497203 0.497203
0.536245 0.536245 0.536245
0.595632 0.595632 0.595632
0.656570 0.656570 0.656570
0.702499 0.702499 0.702499
0.761037 0.761037 0.761037
0.803041 0.803041 0.803041
0.834821 0.834821 0.834821
0.866860 0.866860 0.866860
0.892947 0.892947 0.892947
0.916282 0.916282 0.916282
0.935192 0.935192 0.935192
0.951350 0.951350 0.951350
0.962371 0.962371 0.962371
0.971702 0.971702 0.971702
0.976922 0.976922 0.976922
0.982142 0.982142 0.982142
0.985114 0.985114 0.985114
0.987446 0.987446 0.987446
0.989779 0.989779 0.989779
