trix_modern/TriX_Green58_Hard.cube
TITLE "Tri-X Green58 Hard"
# Adobe RGB in/out. REPLACES AgX. Tri-X Green58 Hard.
LUT_3D_SIZE 9
DOMAIN_MIN 0.0 0.0 0.0
DOMAIN_MAX 1.0 1.0 1.0
0.093024 0.093024 0.093024
0.093056 0.093056 0.093056
0.093319 0.093319 0.093319
0.094130 0.094130 0.094130
0.096975 0.096975 0.096975
0.102101 0.102101 0.102101
0.105179 0.105179 0.105179
0.095236 0.095236 0.095236
0.151459 0.151459 0.151459
0.093749 0.093749 0.093749
0.093326 0.093326 0.093326
0.093602 0.093602 0.093602
0.095477 0.095477 0.095477
0.099836 0.099836 0.099836
0.110078 0.110078 0.110078
0.115123 0.115123 0.115123
0.095072 0.095072 0.095072
0.148144 0.148144 0.148144
0.270788 0.270788 0.270788
0.172470 0.172470 0.172470
0.103430 0.103430 0.103430
0.109998 0.109998 0.109998
0.142676 0.142676 0.142676
0.190164 0.190164 0.190164
0.212020 0.212020 0.212020
0.095275 0.095275 0.095275
0.137758 0.137758 0.137758
0.817616 0.817616 0.817616
0.732319 0.732319 0.732319
0.479765 0.479765 0.479765
0.313678 0.313678 0.313678
0.311842 0.311842 0.311842
0.377902 0.377902 0.377902
0.439031 0.439031 0.439031
0.418041 0.418041 0.418041
0.124937 0.124937 0.124937
0.975012 0.975012 0.975012
0.966026 0.966026 0.966026
0.916364 0.916364 0.916364
0.818322 0.818322 0.818322
0.710448 0.710448 0.710448
0.684077 0.684077 0.684077
0.733152 0.733152 0.733152
0.751112 0.751112 0.751112
0.616834 0.616834 0.616834
0.993159 0.993159 0.993159
0.992341 0.992341 0.992341
0.987386 0.987386 0.987386
0.976842 0.976842 0.976842
0.954033 0.954033 0.954033
0.925368 0.925368 0.925368
0.913699 0.913699 0.913699
0.921981 0.921981 0.921981
0.901159 0.901159 0.901159
0.997837 0.997837 0.997837
0.997507 0.997507 0.997507
0.995991 0.995991 0.995991
0.993772 0.993772 0.993772
0.990553 0.990553 0.990553
0.986297 0.986297 0.986297
0.983559 0.983559 0.983559
0.981063 0.981063 0.981063
0.979828 0.979828 0.979828
0.998482 0.998482 0.998482
0.998431 0.998431 0.998431
0.998225 0.998225 0.998225
0.997962 0.997962 0.997962
0.996921 0.996921 0.996921
0.995344 0.995344 0.995344
0.994195 0.994195 0.994195
0.993586 0.993586 0.993586
0.993189 0.993189 0.993189
0.998310 0.998310 0.998310
0.998290 0.998290 0.998290
0.998441 0.998441 0.998441
0.998343 0.998343 0.998343
0.998255 0.998255 0.998255
0.998069 0.998069 0.998069
0.997919 0.997919 0.997919
0.997830 0.997830 0.997830
0.997818 0.997818 0.997818
0.093045 0.093045 0.093045
0.093145 0.093145 0.093145
0.093423 0.093423 0.093423
0.094736 0.094736 0.094736
0.097621 0.097621 0.097621
0.102916 0.102916 0.102916
0.105818 0.105818 0.105818
0.095149 0.095149 0.095149
0.149736 0.149736 0.149736
0.093442 0.093442 0.093442
0.093321 0.093321 0.093321
0.093828 0.093828 0.093828
0.096303 0.096303 0.096303
0.100624 0.100624 0.100624
0.111415 0.111415 0.111415
0.116464 0.116464 0.116464
0.095005 0.095005 0.095005
0.146460 0.146460 0.146460
0.212673 0.212673 0.212673
0.140942 0.140942 0.140942
0.100324 0.100324 0.100324
0.110286 0.110286 0.110286
0.146347 0.146347 0.146347
0.191509 0.191509 0.191509
0.212171 0.212171 0.212171
0.095398 0.095398 0.095398
0.136229 0.136229 0.136229
0.763996 0.763996 0.763996
0.664371 0.664371 0.664371
0.438215 0.438215 0.438215
0.292977 0.292977 0.292977
0.306593 0.306593 0.306593
0.375949 0.375949 0.375949
0.436305 0.436305 0.436305
0.415847 0.415847 0.415847
0.123827 0.123827 0.123827
0.969661 0.969661 0.969661
0.956084 0.956084 0.956084
0.900157 0.900157 0.900157
0.802555 0.802555 0.802555
0.694814 0.694814 0.694814
0.676886 0.676886 0.676886
0.728593 0.728593 0.728593
0.747922 0.747922 0.747922
0.617008 0.617008 0.617008
0.992526 0.992526 0.992526
0.991219 0.991219 0.991219
0.986241 0.986241 0.986241
0.974808 0.974808 0.974808
0.950884 0.950884 0.950884
0.922411 0.922411 0.922411
0.911709 0.911709 0.911709
0.920720 0.920720 0.920720
0.900079 0.900079 0.900079
0.997622 0.997622 0.997622
0.997154 0.997154 0.997154
0.995674 0.995674 0.995674
0.993506 0.993506 0.993506
0.990089 0.990089 0.990089
0.985965 0.985965 0.985965
0.983345 0.983345 0.983345
0.980800 0.980800 0.980800
0.979560 0.979560 0.979560
0.998445 0.998445 0.998445
0.998395 0.998395 0.998395
0.998193 0.998193 0.998193
0.997931 0.997931 0.997931
0.996786 0.996786 0.996786
0.995241 0.995241 0.995241
0.994125 0.994125 0.994125
0.993537 0.993537 0.993537
0.993143 0.993143 0.993143
0.998349 0.998349 0.998349
0.998329 0.998329 0.998329
0.998477 0.998477 0.998477
0.998369 0.998369 0.998369
0.998244 0.998244 0.998244
0.998059 0.998059 0.998059
0.997911 0.997911 0.997911
0.997824 0.997824 0.997824
0.997813 0.997813 0.997813
0.093250 0.093250 0.093250
0.093419 0.093419 0.093419
0.094088 0.094088 0.094088
0.096721 0.096721 0.096721
0.100697 0.100697 0.100697
0.110860 0.110860 0.110860
0.113741 0.113741 0.113741
0.095403 0.095403 0.095403
0.146207 0.146207 0.146207
0.095101 0.095101 0.095101
0.095616 0.095616 0.095616
0.095817 0.095817 0.095817
0.098851 0.098851 0.098851
0.107221 0.107221 0.107221
0.124155 0.124155 0.124155
0.127394 0.127394 0.127394
0.095392 0.095392 0.095392
0.142978 0.142978 0.142978
0.142840 0.142840 0.142840
0.113888 0.113888 0.113888
0.099130 0.099130 0.099130
0.112694 0.112694 0.112694
0.158971 0.158971 0.158971
0.211058 0.211058 0.211058
0.227544 0.227544 0.227544
0.100952 0.100952 0.100952
0.132918 0.132918 0.132918
0.621862 0.621862 0.621862
0.536975 0.536975 0.536975
0.354575 0.354575 0.354575
0.247743 0.247743 0.247743
0.298646 0.298646 0.298646
0.390425 0.390425 0.390425
0.447871 0.447871 0.447871
0.423782 0.423782 0.423782
0.121296 0.121296 0.121296
0.946766 0.946766 0.946766
0.928935 0.928935 0.928935
0.865173 0.865173 0.865173
0.760633 0.760633 0.760633
0.656868 0.656868 0.656868
0.670653 0.670653 0.670653
0.732425 0.732425 0.732425
0.746894 0.746894 0.746894
0.625164 0.625164 0.625164
0.989668 0.989668 0.989668
0.988146 0.988146 0.988146
0.983609 0.983609 0.983609
0.970233 0.970233 0.970233
0.941489 0.941489 0.941489
0.915319 0.915319 0.915319
0.909818 0.909818 0.909818
0.919811 0.919811 0.919811
0.898296 0.898296 0.898296
0.996543 0.996543 0.996543
0.996122 0.996122 0.996122
0.994779 0.994779 0.994779
0.992787 0.992787 0.992787
0.988890 0.988890 0.988890
0.985144 0.985144 0.985144
0.982325 0.982325 0.982325
0.980426 0.980426 0.980426
0.978892 0.978892 0.978892
0.998265 0.998265 0.998265
0.998222 0.998222 0.998222
0.998065 0.998065 0.998065
0.997823 0.997823 0.997823
0.996336 0.996336 0.996336
0.994915 0.994915 0.994915
0.993909 0.993909 0.993909
0.993392 0.993392 0.993392
0.993001 0.993001 0.993001
0.998315 0.998315 0.998315
0.998511 0.998511 0.998511
0.998445 0.998445 0.998445
0.998340 0.998340 0.998340
0.998196 0.998196 0.998196
0.998020 0.998020 0.998020
0.997878 0.997878 0.997878
0.997780 0.997780 0.997780
0.997748 0.997748 0.997748
0.093846 0.093846 0.093846
0.095390 0.095390 0.095390
0.097540 0.097540 0.097540
0.106241 0.106241 0.106241
0.124488 0.124488 0.124488
0.137648 0.137648 0.137648
0.138062 0.138062 0.138062
0.102148 0.102148 0.102148
0.143898 0.143898 0.143898
0.098409 0.098409 0.098409
0.101221 0.101221 0.101221
0.110503 0.110503 0.110503
0.124657 0.124657 0.124657
0.139855 0.139855 0.139855
0.155004 0.155004 0.155004
0.154990 0.154990 0.154990
0.105648 0.105648 0.105648
0.140633 0.140633 0.140633
0.181108 0.181108 0.181108
0.165645 0.165645 0.165645
0.143724 0.143724 0.143724
0.155431 0.155431 0.155431
0.200967 0.200967 0.200967
0.247720 0.247720 0.247720
0.260643 0.260643 0.260643
0.209741 0.209741 0.209741
0.130732 0.130732 0.130732
0.507800 0.507800 0.507800
0.456421 0.456421 0.456421
0.316735 0.316735 0.316735
0.233474 0.233474 0.233474
0.309759 0.309759 0.309759
0.411310 0.411310 0.411310
0.468450 0.468450 0.468450
0.448323 0.448323 0.448323
0.119146 0.119146 0.119146
0.908143 0.908143 0.908143
0.889061 0.889061 0.889061
0.823091 0.823091 0.823091
0.701928 0.701928 0.701928
0.606912 0.606912 0.606912
0.657584 0.657584 0.657584
0.732531 0.732531 0.732531
0.750646 0.750646 0.750646
0.647887 0.647887 0.647887
0.985903 0.985903 0.985903
0.984588 0.984588 0.984588
0.977269 0.977269 0.977269
0.958781 0.958781 0.958781
0.927072 0.927072 0.927072
0.901599 0.901599 0.901599
0.905279 0.905279 0.905279
0.917560 0.917560 0.917560
0.899645 0.899645 0.899645
0.995299 0.995299 0.995299
0.994923 0.994923 0.994923
0.993718 0.993718 0.993718
0.991590 0.991590 0.991590
0.987357 0.987357 0.987357
0.983991 0.983991 0.983991
0.980627 0.980627 0.980627
0.979659 0.979659 0.979659
0.978419 0.978419 0.978419
0.998108 0.998108 0.998108
0.998069 0.998069 0.998069
0.997929 0.997929 0.997929
0.997230 0.997230 0.997230
0.995797 0.995797 0.995797
0.994509 0.994509 0.994509
0.993619 0.993619 0.993619
0.993198 0.993198 0.993198
0.992857 0.992857 0.992857
0.998371 0.998371 0.998371
0.998476 0.998476 0.998476
0.998413 0.998413 0.998413
0.998350 0.998350 0.998350
0.998119 0.998119 0.998119
0.997961 0.997961 0.997961
0.997832 0.997832 0.997832
0.997591 0.997591 0.997591
0.997632 0.997632 0.997632
0.097136 0.097136 0.097136
0.100546 0.100546 0.100546
0.121120 0.121120 0.121120
0.156905 0.156905 0.156905
0.206448 0.206448 0.206448
0.205398 0.205398 0.205398
0.191737 0.191737 0.191737
0.132933 0.132933 0.132933
0.143905 0.143905 0.143905
0.111198 0.111198 0.111198
0.127396 0.127396 0.127396
0.164197 0.164197 0.164197
0.212747 0.212747 0.212747
0.229660 0.229660 0.229660
0.228853 0.228853 0.228853
0.214589 0.214589 0.214589
0.147109 0.147109 0.147109
0.140541 0.140541 0.140541
0.354390 0.354390 0.354390
0.347042 0.347042 0.347042
0.319406 0.319406 0.319406
0.297973 0.297973 0.297973
0.305831 0.305831 0.305831
0.332868 0.332868 0.332868
0.330313 0.330313 0.330313
0.271559 0.271559 0.271559
0.130383 0.130383 0.130383
0.542658 0.542658 0.542658
0.512657 0.512657 0.512657
0.439576 0.439576 0.439576
0.385410 0.385410 0.385410
0.415990 0.415990 0.415990
0.482518 0.482518 0.482518
0.524254 0.524254 0.524254
0.498841 0.498841 0.498841
0.228384 0.228384 0.228384
0.875798 0.875798 0.875798
0.857933 0.857933 0.857933
0.801039 0.801039 0.801039
0.682499 0.682499 0.682499
0.588577 0.588577 0.588577
0.674824 0.674824 0.674824
0.754203 0.754203 0.754203
0.769096 0.769096 0.769096
0.688202 0.688202 0.688202
0.981895 0.981895 0.981895
0.979422 0.979422 0.979422
0.971747 0.971747 0.971747
0.949754 0.949754 0.949754
0.914555 0.914555 0.914555
0.888649 0.888649 0.888649
0.903048 0.903048 0.903048
0.918605 0.918605 0.918605
0.906244 0.906244 0.906244
0.994169 0.994169 0.994169
0.993839 0.993839 0.993839
0.992766 0.992766 0.992766
0.989871 0.989871 0.989871
0.985994 0.985994 0.985994
0.982455 0.982455 0.982455
0.978975 0.978975 0.978975
0.979122 0.979122 0.979122
0.978652 0.978652 0.978652
0.997974 0.997974 0.997974
0.997934 0.997934 0.997934
0.997766 0.997766 0.997766
0.996614 0.996614 0.996614
0.995302 0.995302 0.995302
0.994132 0.994132 0.994132
0.993350 0.993350 0.993350
0.993038 0.993038 0.993038
0.992823 0.992823 0.992823
0.998340 0.998340 0.998340
0.998340 0.998340 0.998340
0.998324 0.998324 0.998324
0.998215 0.998215 0.998215
0.998059 0.998059 0.998059
0.997912 0.997912 0.997912
0.997756 0.997756 0.997756
0.997463 0.997463 0.997463
0.997638 0.997638 0.997638
0.120138 0.120138 0.120138
0.132564 0.132564 0.132564
0.202492 0.202492 0.202492
0.256602 0.256602 0.256602
0.336023 0.336023 0.336023
0.328984 0.328984 0.328984
0.286810 0.286810 0.286810
0.199510 0.199510 0.199510
0.146147 0.146147 0.146147
0.160701 0.160701 0.160701
0.180133 0.180133 0.180133
0.262795 0.262795 0.262795
0.323554 0.323554 0.323554
0.400372 0.400372 0.400372
0.357662 0.357662 0.357662
0.314640 0.314640 0.314640
0.221162 0.221162 0.221162
0.142670 0.142670 0.142670
0.505917 0.505917 0.505917
0.521886 0.521886 0.521886
0.583983 0.583983 0.583983
0.527214 0.527214 0.527214
0.491417 0.491417 0.491417
0.470041 0.470041 0.470041
0.442542 0.442542 0.442542
0.362935 0.362935 0.362935
0.131847 0.131847 0.131847
0.703464 0.703464 0.703464
0.688186 0.688186 0.688186
0.654239 0.654239 0.654239
0.611993 0.611993 0.611993
0.599989 0.599989 0.599989
0.612406 0.612406 0.612406
0.624219 0.624219 0.624219
0.580253 0.580253 0.580253
0.313730 0.313730 0.313730
0.880504 0.880504 0.880504
0.869844 0.869844 0.869844
0.833978 0.833978 0.833978
0.780194 0.780194 0.780194
0.747456 0.747456 0.747456
0.765965 0.765965 0.765965
0.801104 0.801104 0.801104
0.807084 0.807084 0.807084
0.746750 0.746750 0.746750
0.977448 0.977448 0.977448
0.975467 0.975467 0.975467
0.968080 0.968080 0.968080
0.947257 0.947257 0.947257
0.913453 0.913453 0.913453
0.883957 0.883957 0.883957
0.911261 0.911261 0.911261
0.926098 0.926098 0.926098
0.918520 0.918520 0.918520
0.993315 0.993315 0.993315
0.993026 0.993026 0.993026
0.991965 0.991965 0.991965
0.988742 0.988742 0.988742
0.985182 0.985182 0.985182
0.980914 0.980914 0.980914
0.977797 0.977797 0.977797
0.979396 0.979396 0.979396
0.979721 0.979721 0.979721
0.997860 0.997860 0.997860
0.997824 0.997824 0.997824
0.997225 0.997225 0.997225
0.996168 0.996168 0.996168
0.994965 0.994965 0.994965
0.993890 0.993890 0.993890
0.993189 0.993189 0.993189
0.992967 0.992967 0.992967
0.992910 0.992910 0.992910
0.998280 0.998280 0.998280
0.998280 0.998280 0.998280
0.998261 0.998261 0.998261
0.998167 0.998167 0.998167
0.998020 0.998020 0.998020
0.997881 0.997881 0.997881
0.997665 0.997665 0.997665
0.997437 0.997437 0.997437
0.997723 0.997723 0.997723
0.205058 0.205058 0.205058
0.218432 0.218432 0.218432
0.325541 0.325541 0.325541
0.394257 0.394257 0.394257
0.480001 0.480001 0.480001
0.501896 0.501896 0.501896
0.420546 0.420546 0.420546
0.291739 0.291739 0.291739
0.149915 0.149915 0.149915
0.263017 0.263017 0.263017
0.279023 0.279023 0.279023
0.396918 0.396918 0.396918
0.463865 0.463865 0.463865
0.547932 0.547932 0.547932
0.525896 0.525896 0.525896
0.449280 0.449280 0.449280
0.319279 0.319279 0.319279
0.146341 0.146341 0.146341
0.626242 0.626242 0.626242
0.637038 0.637038 0.637038
0.703388 0.703388 0.703388
0.751039 0.751039 0.751039
0.686944 0.686944 0.686944
0.633446 0.633446 0.633446
0.568318 0.568318 0.568318
0.469899 0.469899 0.469899
0.134971 0.134971 0.134971
0.849461 0.849461 0.849461
0.842987 0.842987 0.842987
0.830098 0.830098 0.830098
0.804849 0.804849 0.804849
0.779270 0.779270 0.779270
0.762416 0.762416 0.762416
0.738478 0.738478 0.738478
0.674730 0.674730 0.674730
0.467986 0.467986 0.467986
0.919845 0.919845 0.919845
0.914475 0.914475 0.914475
0.898266 0.898266 0.898266
0.875857 0.875857 0.875857
0.857033 0.857033 0.857033
0.853625 0.853625 0.853625
0.854839 0.854839 0.854839
0.845819 0.845819 0.845819
0.792782 0.792782 0.792782
0.977869 0.977869 0.977869
0.976370 0.976370 0.976370
0.971692 0.971692 0.971692
0.958359 0.958359 0.958359
0.941102 0.941102 0.941102
0.930760 0.930760 0.930760
0.935946 0.935946 0.935946
0.941771 0.941771 0.941771
0.931177 0.931177 0.931177
0.992891 0.992891 0.992891
0.992645 0.992645 0.992645
0.991410 0.991410 0.991410
0.988594 0.988594 0.988594
0.985426 0.985426 0.985426
0.981744 0.981744 0.981744
0.977336 0.977336 0.977336
0.981226 0.981226 0.981226
0.981666 0.981666 0.981666
0.997769 0.997769 0.997769
0.997590 0.997590 0.997590
0.996947 0.996947 0.996947
0.995979 0.995979 0.995979
0.994870 0.994870 0.994870
0.993865 0.993865 0.993865
0.993200 0.993200 0.993200
0.993022 0.993022 0.993022
0.993102 0.993102 0.993102
0.998205 0.998205 0.998205
0.998221 0.998221 0.998221
0.998212 0.998212 0.998212
0.998152 0.998152 0.998152
0.998005 0.998005 0.998005
0.997875 0.997875 0.997875
0.997693 0.997693 0.997693
0.997526 0.997526 0.997526
0.997819 0.997819 0.997819
0.341013 0.341013 0.341013
0.349577 0.349577 0.349577
0.441161 0.441161 0.441161
0.511456 0.511456 0.511456
0.597277 0.597277 0.597277
0.651458 0.651458 0.651458
0.536018 0.536018 0.536018
0.369455 0.369455 0.369455
0.168048 0.168048 0.168048
0.410360 0.410360 0.410360
0.420219 0.420219 0.420219
0.505172 0.505172 0.505172
0.578149 0.578149 0.578149
0.660397 0.660397 0.660397
0.671552 0.671552 0.671552
0.563699 0.563699 0.563699
0.401421 0.401421 0.401421
0.168229 0.168229 0.168229
0.756874 0.756874 0.756874
0.760371 0.760371 0.760371
0.795607 0.795607 0.795607
0.824092 0.824092 0.824092
0.821063 0.821063 0.821063
0.770889 0.770889 0.770889
0.690801 0.690801 0.690801
0.551005 0.551005 0.551005
0.204751 0.204751 0.204751
0.930112 0.930112 0.930112
0.925769 0.925769 0.925769
0.916579 0.916579 0.916579
0.894603 0.894603 0.894603
0.873224 0.873224 0.873224
0.847562 0.847562 0.847562
0.817196 0.817196 0.817196
0.752533 0.752533 0.752533
0.532932 0.532932 0.532932
0.957823 0.957823 0.957823
0.955506 0.955506 0.955506
0.949641 0.949641 0.949641
0.936247 0.936247 0.936247
0.924086 0.924086 0.924086
0.915001 0.915001 0.915001
0.903636 0.903636 0.903636
0.881816 0.881816 0.881816
0.821106 0.821106 0.821106
0.983095 0.983095 0.983095
0.981994 0.981994 0.981994
0.978704 0.978704 0.978704
0.973676 0.973676 0.973676
0.967792 0.967792 0.967792
0.962346 0.962346 0.962346
0.960340 0.960340 0.960340
0.956744 0.956744 0.956744
0.942404 0.942404 0.942404
0.993004 0.993004 0.993004
0.992802 0.992802 0.992802
0.992069 0.992069 0.992069
0.989746 0.989746 0.989746
0.987157 0.987157 0.987157
0.985076 0.985076 0.985076
0.984217 0.984217 0.984217
0.984346 0.984346 0.984346
0.983573 0.983573 0.983573
0.997811 0.997811 0.997811
0.997676 0.997676 0.997676
0.997036 0.997036 0.997036
0.996118 0.996118 0.996118
0.995089 0.995089 0.995089
0.994165 0.994165 0.994165
0.993519 0.993519 0.993519
0.993074 0.993074 0.993074
0.993365 0.993365 0.993365
0.998118 0.998118 0.998118
0.998192 0.998192 0.998192
0.998161 0.998161 0.998161
0.998138 0.998138 0.998138
0.998021 0.998021 0.998021
0.997901 0.997901 0.997901
0.997817 0.997817 0.997817
0.997744 0.997744 0.997744
0.997861 0.997861 0.997861
0.322095 0.322095 0.322095
0.332949 0.332949 0.332949
0.377737 0.377737 0.377737
0.455075 0.455075 0.455075
0.541094 0.541094 0.541094
0.615686 0.615686 0.615686
0.480293 0.480293 0.480293
0.240177 0.240177 0.240177
0.178333 0.178333 0.178333
0.379050 0.379050 0.379050
0.391140 0.391140 0.391140
0.438835 0.438835 0.438835
0.513007 0.513007 0.513007
0.604595 0.604595 0.604595
0.642727 0.642727 0.642727
0.507867 0.507867 0.507867
0.258131 0.258131 0.258131
0.181638 0.181638 0.181638
0.679423 0.679423 0.679423
0.689790 0.689790 0.689790
0.730515 0.730515 0.730515
0.782977 0.782977 0.782977
0.817856 0.817856 0.817856
0.765127 0.765127 0.765127
0.652791 0.652791 0.652791
0.397652 0.397652 0.397652
0.166137 0.166137 0.166137
0.950438 0.950438 0.950438
0.948470 0.948470 0.948470
0.939156 0.939156 0.939156
0.925904 0.925904 0.925904
0.906931 0.906931 0.906931
0.880007 0.880007 0.880007
0.832456 0.832456 0.832456
0.700309 0.700309 0.700309
0.434012 0.434012 0.434012
0.973896 0.973896 0.973896
0.973108 0.973108 0.973108
0.970621 0.970621 0.970621
0.964264 0.964264 0.964264
0.956758 0.956758 0.956758
0.947868 0.947868 0.947868
0.928855 0.928855 0.928855
0.883650 0.883650 0.883650
0.699769 0.699769 0.699769
0.986198 0.986198 0.986198
0.985834 0.985834 0.985834
0.984664 0.984664 0.984664
0.983005 0.983005 0.983005
0.979875 0.979875 0.979875
0.977071 0.977071 0.977071
0.973781 0.973781 0.973781
0.964031 0.964031 0.964031
0.915474 0.915474 0.915474
0.993549 0.993549 0.993549
0.993384 0.993384 0.993384
0.992833 0.992833 0.992833
0.991876 0.991876 0.991876
0.990189 0.990189 0.990189
0.988900 0.988900 0.988900
0.987957 0.987957 0.987957
0.986492 0.986492 0.986492
0.980128 0.980128 0.980128
0.997811 0.997811 0.997811
0.997710 0.997710 0.997710
0.997207 0.997207 0.997207
0.996404 0.996404 0.996404
0.995565 0.995565 0.995565
0.994888 0.994888 0.994888
0.994474 0.994474 0.994474
0.994197 0.994197 0.994197
0.993070 0.993070 0.993070
0.998028 0.998028 0.998028
0.998146 0.998146 0.998146
0.998108 0.998108 0.998108
0.998060 0.998060 0.998060
0.998073 0.998073 0.998073
0.997961 0.997961 0.997961
0.997885 0.997885 0.997885
0.997869 0.997869 0.997869
0.997914 0.997914 0.997914
