trix_modern/TriX_Orange21_Normal.cube
TITLE "Tri-X Orange21 Normal"
# Adobe RGB in/out. REPLACES AgX. R=0.7239 G=0.2761 B=0.0000
LUT_3D_SIZE 65
DOMAIN_MIN 0.0 0.0 0.0
DOMAIN_MAX 1.0 1.0 1.0
0.095875 0.095875 0.095875
0.095875 0.095875 0.095875
0.095875 0.095875 0.095875
0.095875 0.095875 0.095875
0.095875 0.095875 0.095875
0.095875 0.095875 0.095875
0.095875 0.095875 0.095875
0.095875 0.095875 0.095875
0.095875 0.095875 0.095875
0.095875 0.095875 0.095875
0.095875 0.095875 0.095875
0.095875 0.095875 0.095875
0.095875 0.095875 0.095875
0.095875 0.095875 0.095875
0.095875 0.095875 0.095875
0.095875 0.095875 0.095875
0.095875 0.095875 0.095875
0.095875 0.095875 0.095875
0.095875 0.095875 0.095875
0.095875 0.095875 0.095875
0.095875 0.095875 0.095875
0.095875 0.095875 0.095875
0.095875 0.095875 0.095875
0.095875 0.095875 0.095875
0.095875 0.095875 0.095875
0.095875 0.095875 0.095875
0.095875 0.095875 0.095875
0.095875 0.095875 0.095875
0.095875 0.095875 0.095875
0.095875 0.095875 0.095875
0.095875 0.095875 0.095875
0.095875 0.095875 0.095875
0.095875 0.095875 0.095875
0.095875 0.095875 0.095875
0.095875 0.095875 0.095875
0.095875 0.095875 0.095875
0.095875 0.095875 0.095875
0.095875 0.095875 0.095875
0.095875 0.095875 0.095875
0.095875 0.095875 0.095875
0.095875 0.095875 0.095875
0.095875 0.095875 0.095875
0.095875 0.095875 0.095875
0.095875 0.095875 0.095875
0.095875 0.095875 0.095875
0.095875 0.095875 0.095875
0.095875 0.095875 0.095875
0.095875 0.095875 0.095875
0.095875 0.095875 0.095875
0.095875 0.095875 0.095875
0.095875 0.095875 0.095875
0.095875 0.095875 0.095875
0.095875 0.095875 0.095875
0.095875 0.095875 0.095875
0.095875 0.095875 0.095875
0.095875 0.095875 0.095875
0.095875 0.095875 0.095875
0.095875 0.095875 0.095875
0.095875 0.095875 0.095875
0.095875 0.095875 0.095875
0.095875 0.095875 0.095875
0.095875 0.095875 0.095875
0.095875 0.095875 0.095875
0.095875 0.095875 0.095875
0.095875 0.095875 0.095875
0.095875 0.095875 0.095875
0.095875 0.095875 0.095875
0.095875 0.095875 0.095875
0.095875 0.095875 0.095875
0.095917 0.095917 0.095917
0.096428 0.096428 0.096428
0.097228 0.097228 0.097228
0.097991 0.097991 0.097991
0.099066 0.099066 0.099066
0.100241 0.100241 0.100241
0.102851 0.102851 0.102851
0.105999 0.105999 0.105999
0.110850 0.110850 0.110850
0.115860 0.115860 0.115860
0.122522 0.122522 0.122522
0.130217 0.130217 0.130217
0.138007 0.138007 0.138007
0.146307 0.146307 0.146307
0.154514 0.154514 0.154514
0.162619 0.162619 0.162619
0.171161 0.171161 0.171161
0.179945 0.179945 0.179945
0.188641 0.188641 0.188641
0.197245 0.197245 0.197245
0.205527 0.205527 0.205527
0.213411 0.213411 0.213411
0.221179 0.221179 0.221179
0.228829 0.228829 0.228829
0.236362 0.236362 0.236362
0.243776 0.243776 0.243776
0.251072 0.251072 0.251072
0.258249 0.258249 0.258249
0.265309 0.265309 0.265309
0.271826 0.271826 0.271826
0.276766 0.276766 0.276766
0.281589 0.281589 0.281589
0.286300 0.286300 0.286300
0.290901 0.290901 0.290901
0.295566 0.295566 0.295566
0.300270 0.300270 0.300270
0.304870 0.304870 0.304870
0.309375 0.309375 0.309375
0.313793 0.313793 0.313793
0.318128 0.318128 0.318128
0.322379 0.322379 0.322379
0.326549 0.326549 0.326549
0.330639 0.330639 0.330639
0.334651 0.334651 0.334651
0.338586 0.338586 0.338586
0.342548 0.342548 0.342548
0.346522 0.346522 0.346522
0.350420 0.350420 0.350420
0.354245 0.354245 0.354245
0.357997 0.357997 0.357997
0.361678 0.361678 0.361678
0.365288 0.365288 0.365288
0.368829 0.368829 0.368829
0.372302 0.372302 0.372302
0.375707 0.375707 0.375707
0.379045 0.379045 0.379045
0.382317 0.382317 0.382317
0.385524 0.385524 0.385524
0.388668 0.388668 0.388668
0.391748 0.391748 0.391748
0.394766 0.394766 0.394766
0.095875 0.095875 0.095875
0.095875 0.095875 0.095875
0.095875 0.095875 0.095875
0.095875 0.095875 0.095875
0.096049 0.096049 0.096049
0.096996 0.096996 0.096996
0.098079 0.098079 0.098079
0.099656 0.099656 0.099656
0.101827 0.101827 0.101827
0.105581 0.105581 0.105581
0.112876 0.112876 0.112876
0.122289 0.122289 0.122289
0.133754 0.133754 0.133754
0.145325 0.145325 0.145325
0.156827 0.156827 0.156827
0.168492 0.168492 0.168492
0.181020 0.181020 0.181020
0.193474 0.193474 0.193474
0.205608 0.205608 0.205608
0.217102 0.217102 0.217102
0.228452 0.228452 0.228452
0.239652 0.239652 0.239652
0.250699 0.250699 0.250699
0.261590 0.261590 0.261590
0.271877 0.271877 0.271877
0.279513 0.279513 0.279513
0.286957 0.286957 0.286957
0.294302 0.294302 0.294302
0.301885 0.301885 0.301885
0.309294 0.309294 0.309294
0.316533 0.316533 0.316533
0.323607 0.323607 0.323607
0.330520 0.330520 0.330520
0.337277 0.337277 0.337277
0.344055 0.344055 0.344055
0.350835 0.350835 0.350835
0.357469 0.357469 0.357469
0.363960 0.363960 0.363960
0.370311 0.370311 0.370311
0.376526 0.376526 0.376526
0.382609 0.382609 0.382609
0.388569 0.388569 0.388569
0.394420 0.394420 0.394420
0.400161 0.400161 0.400161
0.405796 0.405796 0.405796
0.411326 0.411326 0.411326
0.416753 0.416753 0.416753
0.422078 0.422078 0.422078
0.427067 0.427067 0.427067
0.431859 0.431859 0.431859
0.436687 0.436687 0.436687
0.441461 0.441461 0.441461
0.446143 0.446143 0.446143
0.450734 0.450734 0.450734
0.455236 0.455236 0.455236
0.459650 0.459650 0.459650
0.463978 0.463978 0.463978
0.468220 0.468220 0.468220
0.472379 0.472379 0.472379
0.476455 0.476455 0.476455
0.480449 0.480449 0.480449
0.484363 0.484363 0.484363
0.488197 0.488197 0.488197
0.491953 0.491953 0.491953
0.495632 0.495632 0.495632
0.095875 0.095875 0.095875
0.095875 0.095875 0.095875
0.095875 0.095875 0.095875
0.095875 0.095875 0.095875
0.096008 0.096008 0.096008
0.096970 0.096970 0.096970
0.098243 0.098243 0.098243
0.100148 0.100148 0.100148
0.103730 0.103730 0.103730
0.110010 0.110010 0.110010
0.120715 0.120715 0.120715
0.135314 0.135314 0.135314
0.150394 0.150394 0.150394
0.164732 0.164732 0.164732
0.180260 0.180260 0.180260
0.195777 0.195777 0.195777
0.210609 0.210609 0.210609
0.224880 0.224880 0.224880
0.238954 0.238954 0.238954
0.252828 0.252828 0.252828
0.266500 0.266500 0.266500
0.277409 0.277409 0.277409
0.286908 0.286908 0.286908
0.296370 0.296370 0.296370
0.306008 0.306008 0.306008
0.315408 0.315408 0.315408
0.324580 0.324580 0.324580
0.333531 0.333531 0.333531
0.342362 0.342362 0.342362
0.351320 0.351320 0.351320
0.360077 0.360077 0.360077
0.368639 0.368639 0.368639
0.377010 0.377010 0.377010
0.385197 0.385197 0.385197
0.393204 0.393204 0.393204
0.401035 0.401035 0.401035
0.408695 0.408695 0.408695
0.416187 0.416187 0.416187
0.423517 0.423517 0.423517
0.430229 0.430229 0.430229
0.436918 0.436918 0.436918
0.443566 0.443566 0.443566
0.450087 0.450087 0.450087
0.456481 0.456481 0.456481
0.462753 0.462753 0.462753
0.468905 0.468905 0.468905
0.474938 0.474938 0.474938
0.480855 0.480855 0.480855
0.486658 0.486658 0.486658
0.492349 0.492349 0.492349
0.497930 0.497930 0.497930
0.503403 0.503403 0.503403
0.508771 0.508771 0.508771
0.514033 0.514033 0.514033
0.519106 0.519106 0.519106
0.523976 0.523976 0.523976
0.528749 0.528749 0.528749
0.533426 0.533426 0.533426
0.538008 0.538008 0.538008
0.542498 0.542498 0.542498
0.546895 0.546895 0.546895
0.551203 0.551203 0.551203
0.555422 0.555422 0.555422
0.559553 0.559553 0.559553
0.563598 0.563598 0.563598
0.095875 0.095875 0.095875
0.095875 0.095875 0.095875
0.095875 0.095875 0.095875
0.095888 0.095888 0.095888
0.096183 0.096183 0.096183
0.096913 0.096913 0.096913
0.098108 0.098108 0.098108
0.100089 0.100089 0.100089
0.104007 0.104007 0.104007
0.111645 0.111645 0.111645
0.124995 0.124995 0.124995
0.141945 0.141945 0.141945
0.159214 0.159214 0.159214
0.177067 0.177067 0.177067
0.195441 0.195441 0.195441
0.212923 0.212923 0.212923
0.229751 0.229751 0.229751
0.246309 0.246309 0.246309
0.262600 0.262600 0.262600
0.276440 0.276440 0.276440
0.287729 0.287729 0.287729
0.299073 0.299073 0.299073
0.310461 0.310461 0.310461
0.321542 0.321542 0.321542
0.332332 0.332332 0.332332
0.342964 0.342964 0.342964
0.353721 0.353721 0.353721
0.364221 0.364221 0.364221
0.374474 0.374474 0.374474
0.384488 0.384488 0.384488
0.394269 0.394269 0.394269
0.403826 0.403826 0.403826
0.413165 0.413165 0.413165
0.422292 0.422292 0.422292
0.430720 0.430720 0.430720
0.439076 0.439076 0.439076
0.447319 0.447319 0.447319
0.455374 0.455374 0.455374
0.463246 0.463246 0.463246
0.470940 0.470940 0.470940
0.478462 0.478462 0.478462
0.485830 0.485830 0.485830
0.493053 0.493053 0.493053
0.500136 0.500136 0.500136
0.507080 0.507080 0.507080
0.513888 0.513888 0.513888
0.520426 0.520426 0.520426
0.526728 0.526728 0.526728
0.532904 0.532904 0.532904
0.538958 0.538958 0.538958
0.544890 0.544890 0.544890
0.550704 0.550704 0.550704
0.556402 0.556402 0.556402
0.561986 0.561986 0.561986
0.567458 0.567458 0.567458
0.572820 0.572820 0.572820
0.578074 0.578074 0.578074
0.583221 0.583221 0.583221
0.588264 0.588264 0.588264
0.593203 0.593203 0.593203
0.598042 0.598042 0.598042
0.602780 0.602780 0.602780
0.607420 0.607420 0.607420
0.611964 0.611964 0.611964
0.616412 0.616412 0.616412
0.095875 0.095875 0.095875
0.095875 0.095875 0.095875
0.095875 0.095875 0.095875
0.096107 0.096107 0.096107
0.096770 0.096770 0.096770
0.097408 0.097408 0.097408
0.098095 0.098095 0.098095
0.099932 0.099932 0.099932
0.103628 0.103628 0.103628
0.111343 0.111343 0.111343
0.125360 0.125360 0.125360
0.143707 0.143707 0.143707
0.162747 0.162747 0.162747
0.183306 0.183306 0.183306
0.203935 0.203935 0.203935
0.223213 0.223213 0.223213
0.242189 0.242189 0.242189
0.260852 0.260852 0.260852
0.276853 0.276853 0.276853
0.289742 0.289742 0.289742
0.302857 0.302857 0.302857
0.315799 0.315799 0.315799
0.328366 0.328366 0.328366
0.340587 0.340587 0.340587
0.353053 0.353053 0.353053
0.365200 0.365200 0.365200
0.377040 0.377040 0.377040
0.388585 0.388585 0.388585
0.399847 0.399847 0.399847
0.410836 0.410836 0.410836
0.421561 0.421561 0.421561
0.431485 0.431485 0.431485
0.441321 0.441321 0.441321
0.450973 0.450973 0.450973
0.460394 0.460394 0.460394
0.469593 0.469593 0.469593
0.478576 0.478576 0.478576
0.487349 0.487349 0.487349
0.495920 0.495920 0.495920
0.504293 0.504293 0.504293
0.512477 0.512477 0.512477
0.520357 0.520357 0.520357
0.527919 0.527919 0.527919
0.535326 0.535326 0.535326
0.542582 0.542582 0.542582
0.549690 0.549690 0.549690
0.556654 0.556654 0.556654
0.563478 0.563478 0.563478
0.570163 0.570163 0.570163
0.576714 0.576714 0.576714
0.583132 0.583132 0.583132
0.589420 0.589420 0.589420
0.595582 0.595582 0.595582
0.601619 0.601619 0.601619
0.607534 0.607534 0.607534
0.613328 0.613328 0.613328
0.619004 0.619004 0.619004
0.624565 0.624565 0.624565
0.630011 0.630011 0.630011
0.635346 0.635346 0.635346
0.640570 0.640570 0.640570
0.645686 0.645686 0.645686
0.650695 0.650695 0.650695
0.655599 0.655599 0.655599
0.660400 0.660400 0.660400
0.095875 0.095875 0.095875
0.095875 0.095875 0.095875
0.095875 0.095875 0.095875
0.096343 0.096343 0.096343
0.097291 0.097291 0.097291
0.098035 0.098035 0.098035
0.098991 0.098991 0.098991
0.099973 0.099973 0.099973
0.103350 0.103350 0.103350
0.110613 0.110613 0.110613
0.124174 0.124174 0.124174
0.143073 0.143073 0.143073
0.163339 0.163339 0.163339
0.185603 0.185603 0.185603
0.207807 0.207807 0.207807
0.228875 0.228875 0.228875
0.249688 0.249688 0.249688
0.270204 0.270204 0.270204
0.284887 0.284887 0.284887
0.299348 0.299348 0.299348
0.313901 0.313901 0.313901
0.328011 0.328011 0.328011
0.341765 0.341765 0.341765
0.355722 0.355722 0.355722
0.369302 0.369302 0.369302
0.382522 0.382522 0.382522
0.395397 0.395397 0.395397
0.407941 0.407941 0.407941
0.420166 0.420166 0.420166
0.431535 0.431535 0.431535
0.442727 0.442727 0.442727
0.453686 0.453686 0.453686
0.464371 0.464371 0.464371
0.474793 0.474793 0.474793
0.484959 0.484959 0.484959
0.494880 0.494880 0.494880
0.504562 0.504562 0.504562
0.514013 0.514013 0.514013
0.523004 0.523004 0.523004
0.531676 0.531676 0.531676
0.540147 0.540147 0.540147
0.548437 0.548437 0.548437
0.556552 0.556552 0.556552
0.564498 0.564498 0.564498
0.572279 0.572279 0.572279
0.579899 0.579899 0.579899
0.587361 0.587361 0.587361
0.594670 0.594670 0.594670
0.601828 0.601828 0.601828
0.608840 0.608840 0.608840
0.615708 0.615708 0.615708
0.622436 0.622436 0.622436
0.629025 0.629025 0.629025
0.635480 0.635480 0.635480
0.641803 0.641803 0.641803
0.647995 0.647995 0.647995
0.654061 0.654061 0.654061
0.660001 0.660001 0.660001
0.665818 0.665818 0.665818
0.671076 0.671076 0.671076
0.675916 0.675916 0.675916
0.680650 0.680650 0.680650
0.685279 0.685279 0.685279
0.689806 0.689806 0.689806
0.694233 0.694233 0.694233
0.095875 0.095875 0.095875
0.095875 0.095875 0.095875
0.095875 0.095875 0.095875
0.096663 0.096663 0.096663
0.097742 0.097742 0.097742
0.098886 0.098886 0.098886
0.100014 0.100014 0.100014
0.101550 0.101550 0.101550
0.103947 0.103947 0.103947
0.110734 0.110734 0.110734
0.123610 0.123610 0.123610
0.142268 0.142268 0.142268
0.162883 0.162883 0.162883
0.185912 0.185912 0.185912
0.209166 0.209166 0.209166
0.231508 0.231508 0.231508
0.253737 0.253737 0.253737
0.274371 0.274371 0.274371
0.289954 0.289954 0.289954
0.305879 0.305879 0.305879
0.321531 0.321531 0.321531
0.336715 0.336715 0.336715
0.352005 0.352005 0.352005
0.367048 0.367048 0.367048
0.381684 0.381684 0.381684
0.395927 0.395927 0.395927
0.409793 0.409793 0.409793
0.423295 0.423295 0.423295
0.435705 0.435705 0.435705
0.448097 0.448097 0.448097
0.460164 0.460164 0.460164
0.471920 0.471920 0.471920
0.483376 0.483376 0.483376
0.494542 0.494542 0.494542
0.505429 0.505429 0.505429
0.516047 0.516047 0.516047
0.526049 0.526049 0.526049
0.535772 0.535772 0.535772
0.545255 0.545255 0.545255
0.554504 0.554504 0.554504
0.563540 0.563540 0.563540
0.572380 0.572380 0.572380
0.581029 0.581029 0.581029
0.589495 0.589495 0.589495
0.597780 0.597780 0.597780
0.605890 0.605890 0.605890
0.613830 0.613830 0.613830
0.621603 0.621603 0.621603
0.629214 0.629214 0.629214
0.636667 0.636667 0.636667
0.643964 0.643964 0.643964
0.651110 0.651110 0.651110
0.658107 0.658107 0.658107
0.664959 0.664959 0.664959
0.671210 0.671210 0.671210
0.676911 0.676911 0.676911
0.682486 0.682486 0.682486
0.687938 0.687938 0.687938
0.693270 0.693270 0.693270
0.698484 0.698484 0.698484
0.703583 0.703583 0.703583
0.708568 0.708568 0.708568
0.713443 0.713443 0.713443
0.718210 0.718210 0.718210
0.722869 0.722869 0.722869
0.095875 0.095875 0.095875
0.095875 0.095875 0.095875
0.095950 0.095950 0.095950
0.097048 0.097048 0.097048
0.098324 0.098324 0.098324
0.099936 0.099936 0.099936
0.102103 0.102103 0.102103
0.104766 0.104766 0.104766
0.108397 0.108397 0.108397
0.113432 0.113432 0.113432
0.124688 0.124688 0.124688
0.142542 0.142542 0.142542
0.162740 0.162740 0.162740
0.185776 0.185776 0.185776
0.209438 0.209438 0.209438
0.232479 0.232479 0.232479
0.255632 0.255632 0.255632
0.276531 0.276531 0.276531
0.292931 0.292931 0.292931
0.309985 0.309985 0.309985
0.326579 0.326579 0.326579
0.342826 0.342826 0.342826
0.359297 0.359297 0.359297
0.375334 0.375334 0.375334
0.390948 0.390948 0.390948
0.406149 0.406149 0.406149
0.420951 0.420951 0.420951
0.434658 0.434658 0.434658
0.448233 0.448233 0.448233
0.461447 0.461447 0.461447
0.474311 0.474311 0.474311
0.486839 0.486839 0.486839
0.499043 0.499043 0.499043
0.510934 0.510934 0.510934
0.522312 0.522312 0.522312
0.533185 0.533185 0.533185
0.543779 0.543779 0.543779
0.554103 0.554103 0.554103
0.564168 0.564168 0.564168
0.573983 0.573983 0.573983
0.583574 0.583574 0.583574
0.592953 0.592953 0.592953
0.602126 0.602126 0.602126
0.611099 0.611099 0.611099
0.619878 0.619878 0.619878
0.628468 0.628468 0.628468
0.636873 0.636873 0.636873
0.645100 0.645100 0.645100
0.653152 0.653152 0.653152
0.661033 0.661033 0.661033
0.668673 0.668673 0.668673
0.675229 0.675229 0.675229
0.681637 0.681637 0.681637
0.687902 0.687902 0.687902
0.694026 0.694026 0.694026
0.700014 0.700014 0.700014
0.705868 0.705868 0.705868
0.711591 0.711591 0.711591
0.717187 0.717187 0.717187
0.722658 0.722658 0.722658
0.728006 0.728006 0.728006
0.733235 0.733235 0.733235
0.738346 0.738346 0.738346
0.743343 0.743343 0.743343
0.748227 0.748227 0.748227
0.095875 0.095875 0.095875
0.095875 0.095875 0.095875
0.096115 0.096115 0.096115
0.097583 0.097583 0.097583
0.099398 0.099398 0.099398
0.101933 0.101933 0.101933
0.105611 0.105611 0.105611
0.110647 0.110647 0.110647
0.115475 0.115475 0.115475
0.121841 0.121841 0.121841
0.130392 0.130392 0.130392
0.144259 0.144259 0.144259
0.163627 0.163627 0.163627
0.186208 0.186208 0.186208
0.209677 0.209677 0.209677
0.232871 0.232871 0.232871
0.256453 0.256453 0.256453
0.277592 0.277592 0.277592
0.294664 0.294664 0.294664
0.312411 0.312411 0.312411
0.329753 0.329753 0.329753
0.346983 0.346983 0.346983
0.364312 0.364312 0.364312
0.381221 0.381221 0.381221
0.397711 0.397711 0.397711
0.413785 0.413785 0.413785
0.429074 0.429074 0.429074
0.443702 0.443702 0.443702
0.458077 0.458077 0.458077
0.472072 0.472072 0.472072
0.485698 0.485698 0.485698
0.498969 0.498969 0.498969
0.511895 0.511895 0.511895
0.524205 0.524205 0.524205
0.536013 0.536013 0.536013
0.547512 0.547512 0.547512
0.558714 0.558714 0.558714
0.569628 0.569628 0.569628
0.580263 0.580263 0.580263
0.590638 0.590638 0.590638
0.600777 0.600777 0.600777
0.610688 0.610688 0.610688
0.620377 0.620377 0.620377
0.629852 0.629852 0.629852
0.639118 0.639118 0.639118
0.648181 0.648181 0.648181
0.657047 0.657047 0.657047
0.665720 0.665720 0.665720
0.673413 0.673413 0.673413
0.680613 0.680613 0.680613
0.687647 0.687647 0.687647
0.694521 0.694521 0.694521
0.701237 0.701237 0.701237
0.707801 0.707801 0.707801
0.714217 0.714217 0.714217
0.720487 0.720487 0.720487
0.726615 0.726615 0.726615
0.732605 0.732605 0.732605
0.738460 0.738460 0.738460
0.744183 0.744183 0.744183
0.749777 0.749777 0.749777
0.755233 0.755233 0.755233
0.760553 0.760553 0.760553
0.765752 0.765752 0.765752
0.770832 0.770832 0.770832
0.095875 0.095875 0.095875
0.095875 0.095875 0.095875
0.096373 0.096373 0.096373
0.098081 0.098081 0.098081
0.100437 0.100437 0.100437
0.104601 0.104601 0.104601
0.110905 0.110905 0.110905
0.117429 0.117429 0.117429
0.125171 0.125171 0.125171
0.133066 0.133066 0.133066
0.141970 0.141970 0.141970
0.151994 0.151994 0.151994
0.165721 0.165721 0.165721
0.187674 0.187674 0.187674
0.210520 0.210520 0.210520
0.233442 0.233442 0.233442
0.257016 0.257016 0.257016
0.278167 0.278167 0.278167
0.295599 0.295599 0.295599
0.313787 0.313787 0.313787
0.331660 0.331660 0.331660
0.349616 0.349616 0.349616
0.367633 0.367633 0.367633
0.385269 0.385269 0.385269
0.402511 0.402511 0.402511
0.419353 0.419353 0.419353
0.435071 0.435071 0.435071
0.450581 0.450581 0.450581
0.465693 0.465693 0.465693
0.480416 0.480416 0.480416
0.494761 0.494761 0.494761
0.508736 0.508736 0.508736
0.522149 0.522149 0.522149
0.534917 0.534917 0.534917
0.547350 0.547350 0.547350
0.559458 0.559458 0.559458
0.571251 0.571251 0.571251
0.582740 0.582740 0.582740
0.593936 0.593936 0.593936
0.604867 0.604867 0.604867
0.615547 0.615547 0.615547
0.625983 0.625983 0.625983
0.636183 0.636183 0.636183
0.646154 0.646154 0.646154
0.655902 0.655902 0.655902
0.665434 0.665434 0.665434
0.673889 0.673889 0.673889
0.681792 0.681792 0.681792
0.689509 0.689509 0.689509
0.697045 0.697045 0.697045
0.704406 0.704406 0.704406
0.711596 0.711596 0.711596
0.718619 0.718619 0.718619
0.725481 0.725481 0.725481
0.732185 0.732185 0.732185
0.738736 0.738736 0.738736
0.745137 0.745137 0.745137
0.751392 0.751392 0.751392
0.757483 0.757483 0.757483
0.763430 0.763430 0.763430
0.769241 0.769241 0.769241
0.774919 0.774919 0.774919
0.779969 0.779969 0.779969
0.783927 0.783927 0.783927
0.787786 0.787786 0.787786
0.095875 0.095875 0.095875
0.095875 0.095875 0.095875
0.096684 0.096684 0.096684
0.098720 0.098720 0.098720
0.101947 0.101947 0.101947
0.107685 0.107685 0.107685
0.116203 0.116203 0.116203
0.126252 0.126252 0.126252
0.135424 0.135424 0.135424
0.144852 0.144852 0.144852
0.154325 0.154325 0.154325
0.164241 0.164241 0.164241
0.175843 0.175843 0.175843
0.190200 0.190200 0.190200
0.212221 0.212221 0.212221
0.234617 0.234617 0.234617
0.257868 0.257868 0.257868
0.278702 0.278702 0.278702
0.296232 0.296232 0.296232
0.314620 0.314620 0.314620
0.332807 0.332807 0.332807
0.351245 0.351245 0.351245
0.369768 0.369768 0.369768
0.387969 0.387969 0.387969
0.405822 0.405822 0.405822
0.423307 0.423307 0.423307
0.439542 0.439542 0.439542
0.455706 0.455706 0.455706
0.471480 0.471480 0.471480
0.486867 0.486867 0.486867
0.501874 0.501874 0.501874
0.516506 0.516506 0.516506
0.530252 0.530252 0.530252
0.543628 0.543628 0.543628
0.556657 0.556657 0.556657
0.569349 0.569349 0.569349
0.581714 0.581714 0.581714
0.593761 0.593761 0.593761
0.605510 0.605510 0.605510
0.616986 0.616986 0.616986
0.628197 0.628197 0.628197
0.639151 0.639151 0.639151
0.649855 0.649855 0.649855
0.660317 0.660317 0.660317
0.670232 0.670232 0.670232
0.678904 0.678904 0.678904
0.687367 0.687367 0.687367
0.695627 0.695627 0.695627
0.703690 0.703690 0.703690
0.711561 0.711561 0.711561
0.719247 0.719247 0.719247
0.726752 0.726752 0.726752
0.734082 0.734082 0.734082
0.741241 0.741241 0.741241
0.748234 0.748234 0.748234
0.755055 0.755055 0.755055
0.761699 0.761699 0.761699
0.768190 0.768190 0.768190
0.774530 0.774530 0.774530
0.780158 0.780158 0.780158
0.784575 0.784575 0.784575
0.788881 0.788881 0.788881
0.793080 0.793080 0.793080
0.797173 0.797173 0.797173
0.801165 0.801165 0.801165
0.095875 0.095875 0.095875
0.095875 0.095875 0.095875
0.096893 0.096893 0.096893
0.099262 0.099262 0.099262
0.103500 0.103500 0.103500
0.111528 0.111528 0.111528
0.122349 0.122349 0.122349
0.134393 0.134393 0.134393
0.145786 0.145786 0.145786
0.156330 0.156330 0.156330
0.166524 0.166524 0.166524
0.177806 0.177806 0.177806
0.189587 0.189587 0.189587
0.202068 0.202068 0.202068
0.214756 0.214756 0.214756
0.236543 0.236543 0.236543
0.259295 0.259295 0.259295
0.279480 0.279480 0.279480
0.296917 0.296917 0.296917
0.315296 0.315296 0.315296
0.333593 0.333593 0.333593
0.352298 0.352298 0.352298
0.371142 0.371142 0.371142
0.389741 0.389741 0.389741
0.408055 0.408055 0.408055
0.425895 0.425895 0.425895
0.442726 0.442726 0.442726
0.459445 0.459445 0.459445
0.475793 0.475793 0.475793
0.491768 0.491768 0.491768
0.507370 0.507370 0.507370
0.522387 0.522387 0.522387
0.536691 0.536691 0.536691
0.550634 0.550634 0.550634
0.564225 0.564225 0.564225
0.577470 0.577470 0.577470
0.590380 0.590380 0.590380
0.602967 0.602967 0.602967
0.615257 0.615257 0.615257
0.627264 0.627264 0.627264
0.638994 0.638994 0.638994
0.650454 0.650454 0.650454
0.661653 0.661653 0.661653
0.672016 0.672016 0.672016
0.681292 0.681292 0.681292
0.690340 0.690340 0.690340
0.699168 0.699168 0.699168
0.707782 0.707782 0.707782
0.716189 0.716189 0.716189
0.724394 0.724394 0.724394
0.732405 0.732405 0.732405
0.740225 0.740225 0.740225
0.747861 0.747861 0.747861
0.755306 0.755306 0.755306
0.762556 0.762556 0.762556
0.769636 0.769636 0.769636
0.776551 0.776551 0.776551
0.782042 0.782042 0.782042
0.786852 0.786852 0.786852
0.791539 0.791539 0.791539
0.796108 0.796108 0.796108
0.800561 0.800561 0.800561
0.804901 0.804901 0.804901
0.809132 0.809132 0.809132
0.813257 0.813257 0.813257
0.095875 0.095875 0.095875
0.095875 0.095875 0.095875
0.097015 0.097015 0.097015
0.099656 0.099656 0.099656
0.104706 0.104706 0.104706
0.114580 0.114580 0.114580
0.128258 0.128258 0.128258
0.142235 0.142235 0.142235
0.155264 0.155264 0.155264
0.167173 0.167173 0.167173
0.179394 0.179394 0.179394
0.191350 0.191350 0.191350
0.203368 0.203368 0.203368
0.215140 0.215140 0.215140
0.227441 0.227441 0.227441
0.240320 0.240320 0.240320
0.261381 0.261381 0.261381
0.280642 0.280642 0.280642
0.297872 0.297872 0.297872
0.316079 0.316079 0.316079
0.334318 0.334318 0.334318
0.353108 0.353108 0.353108
0.372102 0.372102 0.372102
0.390939 0.390939 0.390939
0.409563 0.409563 0.409563
0.427655 0.427655 0.427655
0.444956 0.444956 0.444956
0.462122 0.462122 0.462122
0.478949 0.478949 0.478949
0.495426 0.495426 0.495426
0.511548 0.511548 0.511548
0.526922 0.526922 0.526922
0.541740 0.541740 0.541740
0.556201 0.556201 0.556201
0.570310 0.570310 0.570310
0.584072 0.584072 0.584072
0.597496 0.597496 0.597496
0.610605 0.610605 0.610605
