trix_modern/TriX_Blue47_Soft.cube
TITLE "Tri-X Blue47 Soft"
# Adobe RGB in/out. REPLACES AgX. R=0.0336 G=0.0311 B=0.9353
LUT_3D_SIZE 5
DOMAIN_MIN 0.0 0.0 0.0
DOMAIN_MAX 1.0 1.0 1.0
0.097688 0.097688 0.097688
0.097688 0.097688 0.097688
0.097688 0.097688 0.097688
0.097688 0.097688 0.097688
0.097688 0.097688 0.097688
0.097688 0.097688 0.097688
0.097688 0.097688 0.097688
0.097688 0.097688 0.097688
0.097688 0.097688 0.097688
0.097688 0.097688 0.097688
0.097688 0.097688 0.097688
0.097688 0.097688 0.097688
0.097688 0.097688 0.097688
0.097688 0.097688 0.097688
0.097688 0.097688 0.097688
0.097688 0.097688 0.097688
0.097688 0.097688 0.097688
0.097688 0.097688 0.097688
0.097688 0.097688 0.097688
0.097688 0.097688 0.097688
0.097688 0.097688 0.097688
0.097688 0.097688 0.097688
0.097688 0.097688 0.097688
0.097688 0.097688 0.097688
0.097688 0.097688 0.097688
0.097688 0.097688 0.097688
0.097688 0.097688 0.097688
0.097688 0.097688 0.097688
0.097688 0.097688 0.097688
0.097688 0.097688 0.097688
0.097688 0.097688 0.097688
0.241770 0.241770 0.241770
0.313652 0.313652 0.313652
0.325498 0.325498 0.325498
0.315274 0.315274 0.315274
0.097688 0.097688 0.097688
0.319613 0.319613 0.319613
0.282906 0.282906 0.282906
0.290849 0.290849 0.290849
0.295521 0.295521 0.295521
0.097688 0.097688 0.097688
0.313268 0.313268 0.313268
0.295460 0.295460 0.295460
0.281667 0.281667 0.281667
0.279396 0.279396 0.279396
0.097688 0.097688 0.097688
0.286783 0.286783 0.286783
0.283242 0.283242 0.283242
0.276524 0.276524 0.276524
0.271883 0.271883 0.271883
0.097688 0.097688 0.097688
0.097688 0.097688 0.097688
0.097688 0.097688 0.097688
0.097688 0.097688 0.097688
0.097688 0.097688 0.097688
0.097688 0.097688 0.097688
0.703248 0.703248 0.703248
0.656081 0.656081 0.656081
0.628218 0.628218 0.628218
0.600833 0.600833 0.600833
0.097688 0.097688 0.097688
0.570253 0.570253 0.570253
0.499564 0.499564 0.499564
0.548558 0.548558 0.548558
0.561847 0.561847 0.561847
0.097688 0.097688 0.097688
0.578108 0.578108 0.578108
0.549922 0.549922 0.549922
0.528535 0.528535 0.528535
0.532892 0.532892 0.532892
0.097688 0.097688 0.097688
0.544806 0.544806 0.544806
0.540135 0.540135 0.540135
0.530052 0.530052 0.530052
0.524450 0.524450 0.524450
0.097688 0.097688 0.097688
0.097688 0.097688 0.097688
0.097688 0.097688 0.097688
0.097688 0.097688 0.097688
0.097688 0.097688 0.097688
0.097688 0.097688 0.097688
0.969738 0.969738 0.969738
0.956614 0.956614 0.956614
0.908840 0.908840 0.908840
0.861344 0.861344 0.861344
0.097688 0.097688 0.097688
0.847351 0.847351 0.847351
0.822881 0.822881 0.822881
0.815658 0.815658 0.815658
0.808962 0.808962 0.808962
0.097688 0.097688 0.097688
0.798686 0.798686 0.798686
0.772696 0.772696 0.772696
0.739633 0.739633 0.739633
0.762824 0.762824 0.762824
0.097688 0.097688 0.097688
0.769623 0.769623 0.769623
0.766965 0.766965 0.766965
0.756906 0.756906 0.756906
0.753765 0.753765 0.753765
0.097688 0.097688 0.097688
0.097688 0.097688 0.097688
0.097688 0.097688 0.097688
0.097688 0.097688 0.097688
0.097688 0.097688 0.097688
0.097688 0.097688 0.097688
0.991668 0.991668 0.991668
0.992029 0.992029 0.992029
0.987051 0.987051 0.987051
0.978046 0.978046 0.978046
0.097688 0.097688 0.097688
0.982621 0.982621 0.982621
0.980435 0.980435 0.980435
0.971565 0.971565 0.971565
0.961672 0.961672 0.961672
0.097688 0.097688 0.097688
0.947165 0.947165 0.947165
0.942044 0.942044 0.942044
0.935772 0.935772 0.935772
0.933654 0.933654 0.933654
0.097688 0.097688 0.097688
0.924424 0.924424 0.924424
0.925581 0.925581 0.925581
0.921520 0.921520 0.921520
0.921710 0.921710 0.921710
