trix_modern/TriX_Yellow8_Normal.cube
TITLE "Tri-X Yellow8 Normal"
# Adobe RGB in/out. REPLACES AgX. R=0.5015 G=0.4679 B=0.0307
LUT_3D_SIZE 5
DOMAIN_MIN 0.0 0.0 0.0
DOMAIN_MAX 1.0 1.0 1.0
0.093230 0.093230 0.093230
0.093230 0.093230 0.093230
0.093230 0.093230 0.093230
0.093230 0.093230 0.093230
0.093230 0.093230 0.093230
0.093230 0.093230 0.093230
0.093230 0.093230 0.093230
0.093230 0.093230 0.093230
0.093230 0.093230 0.093230
0.093230 0.093230 0.093230
0.093230 0.093230 0.093230
0.093230 0.093230 0.093230
0.093230 0.093230 0.093230
0.093230 0.093230 0.093230
0.093230 0.093230 0.093230
0.093230 0.093230 0.093230
0.093230 0.093230 0.093230
0.093230 0.093230 0.093230
0.093230 0.093230 0.093230
0.093230 0.093230 0.093230
0.093230 0.093230 0.093230
0.093230 0.093230 0.093230
0.093230 0.093230 0.093230
0.093230 0.093230 0.093230
0.093230 0.093230 0.093230
0.093230 0.093230 0.093230
0.093230 0.093230 0.093230
0.093230 0.093230 0.093230
0.093230 0.093230 0.093230
0.093230 0.093230 0.093230
0.093230 0.093230 0.093230
0.204394 0.204394 0.204394
0.434526 0.434526 0.434526
0.564020 0.564020 0.564020
0.635773 0.635773 0.635773
0.093230 0.093230 0.093230
0.432244 0.432244 0.432244
0.550670 0.550670 0.550670
0.699418 0.699418 0.699418
0.800102 0.800102 0.800102
0.093230 0.093230 0.093230
0.521420 0.521420 0.521420
0.701285 0.701285 0.701285
0.797712 0.797712 0.797712
0.869616 0.869616 0.869616
0.093230 0.093230 0.093230
0.545484 0.545484 0.545484
0.762059 0.762059 0.762059
0.858402 0.858402 0.858402
0.916391 0.916391 0.916391
0.093230 0.093230 0.093230
0.093230 0.093230 0.093230
0.093230 0.093230 0.093230
0.093230 0.093230 0.093230
0.093230 0.093230 0.093230
0.093230 0.093230 0.093230
0.363301 0.363301 0.363301
0.493981 0.493981 0.493981
0.583320 0.583320 0.583320
0.645341 0.645341 0.645341
0.093230 0.093230 0.093230
0.404904 0.404904 0.404904
0.508013 0.508013 0.508013
0.698058 0.698058 0.698058
0.803903 0.803903 0.803903
0.093230 0.093230 0.093230
0.509138 0.509138 0.509138
0.691136 0.691136 0.691136
0.792999 0.792999 0.792999
0.874131 0.874131 0.874131
0.093230 0.093230 0.093230
0.548431 0.548431 0.548431
0.767807 0.767807 0.767807
0.865575 0.865575 0.865575
0.924593 0.924593 0.924593
0.093230 0.093230 0.093230
0.093230 0.093230 0.093230
0.093230 0.093230 0.093230
0.093230 0.093230 0.093230
0.093230 0.093230 0.093230
0.093230 0.093230 0.093230
0.420184 0.420184 0.420184
0.577043 0.577043 0.577043
0.628396 0.628396 0.628396
0.665099 0.665099 0.665099
0.093230 0.093230 0.093230
0.436068 0.436068 0.436068
0.609505 0.609505 0.609505
0.736030 0.736030 0.736030
0.814516 0.814516 0.814516
0.093230 0.093230 0.093230
0.494061 0.494061 0.494061
0.682288 0.682288 0.682288
0.782937 0.782937 0.782937
0.877417 0.877417 0.877417
0.093230 0.093230 0.093230
0.543646 0.543646 0.543646
0.765968 0.765968 0.765968
0.867191 0.867191 0.867191
0.928847 0.928847 0.928847
0.093230 0.093230 0.093230
0.093230 0.093230 0.093230
0.093230 0.093230 0.093230
0.093230 0.093230 0.093230
0.093230 0.093230 0.093230
0.093230 0.093230 0.093230
0.424818 0.424818 0.424818
0.627616 0.627616 0.627616
0.669607 0.669607 0.669607
0.685716 0.685716 0.685716
0.093230 0.093230 0.093230
0.489848 0.489848 0.489848
0.682726 0.682726 0.682726
0.782742 0.782742 0.782742
0.831261 0.831261 0.831261
0.093230 0.093230 0.093230
0.496342 0.496342 0.496342
0.701548 0.701548 0.701548
0.813750 0.813750 0.813750
0.886433 0.886433 0.886433
0.093230 0.093230 0.093230
0.538106 0.538106 0.538106
0.763835 0.763835 0.763835
0.868750 0.868750 0.868750
0.932292 0.932292 0.932292
