trix_modern/TriX_Orange21_Soft.cube
TITLE "Tri-X Orange21 Soft"
# Adobe RGB in/out. REPLACES AgX. R=0.7239 G=0.2761 B=0.0000
LUT_3D_SIZE 65
DOMAIN_MIN 0.0 0.0 0.0
DOMAIN_MAX 1.0 1.0 1.0
0.097688 0.097688 0.097688
0.097688 0.097688 0.097688
0.097688 0.097688 0.097688
0.097688 0.097688 0.097688
0.097688 0.097688 0.097688
0.097688 0.097688 0.097688
0.097688 0.097688 0.097688
0.097688 0.097688 0.097688
0.097688 0.097688 0.097688
0.097688 0.097688 0.097688
0.097688 0.097688 0.097688
0.097688 0.097688 0.097688
0.097688 0.097688 0.097688
0.097688 0.097688 0.097688
0.097688 0.097688 0.097688
0.097688 0.097688 0.097688
0.097688 0.097688 0.097688
0.097688 0.097688 0.097688
0.097688 0.097688 0.097688
0.097688 0.097688 0.097688
0.097688 0.097688 0.097688
0.097688 0.097688 0.097688
0.097688 0.097688 0.097688
0.097688 0.097688 0.097688
0.097688 0.097688 0.097688
0.097688 0.097688 0.097688
0.097688 0.097688 0.097688
0.097688 0.097688 0.097688
0.097688 0.097688 0.097688
0.097688 0.097688 0.097688
0.097688 0.097688 0.097688
0.097688 0.097688 0.097688
0.097688 0.097688 0.097688
0.097688 0.097688 0.097688
0.097688 0.097688 0.097688
0.097688 0.097688 0.097688
0.097688 0.097688 0.097688
0.097688 0.097688 0.097688
0.097688 0.097688 0.097688
0.097688 0.097688 0.097688
0.097688 0.097688 0.097688
0.097688 0.097688 0.097688
0.097688 0.097688 0.097688
0.097688 0.097688 0.097688
0.097688 0.097688 0.097688
0.097688 0.097688 0.097688
0.097688 0.097688 0.097688
0.097688 0.097688 0.097688
0.097688 0.097688 0.097688
0.097688 0.097688 0.097688
0.097688 0.097688 0.097688
0.097688 0.097688 0.097688
0.097688 0.097688 0.097688
0.097688 0.097688 0.097688
0.097688 0.097688 0.097688
0.097688 0.097688 0.097688
0.097688 0.097688 0.097688
0.097688 0.097688 0.097688
0.097688 0.097688 0.097688
0.097688 0.097688 0.097688
0.097688 0.097688 0.097688
0.097688 0.097688 0.097688
0.097688 0.097688 0.097688
0.097688 0.097688 0.097688
0.097688 0.097688 0.097688
0.097688 0.097688 0.097688
0.097688 0.097688 0.097688
0.097688 0.097688 0.097688
0.097688 0.097688 0.097688
0.097750 0.097750 0.097750
0.098675 0.098675 0.098675
0.099889 0.099889 0.099889
0.101051 0.101051 0.101051
0.103150 0.103150 0.103150
0.106241 0.106241 0.106241
0.112575 0.112575 0.112575
0.119709 0.119709 0.119709
0.127347 0.127347 0.127347
0.135686 0.135686 0.135686
0.145353 0.145353 0.145353
0.154926 0.154926 0.154926
0.164413 0.164413 0.164413
0.173804 0.173804 0.173804
0.183064 0.183064 0.183064
0.192186 0.192186 0.192186
0.201427 0.201427 0.201427
0.210773 0.210773 0.210773
0.219222 0.219222 0.219222
0.226843 0.226843 0.226843
0.234303 0.234303 0.234303
0.241603 0.241603 0.241603
0.248746 0.248746 0.248746
0.255737 0.255737 0.255737
0.262578 0.262578 0.262578
0.269272 0.269272 0.269272
0.274777 0.274777 0.274777
0.280134 0.280134 0.280134
0.285358 0.285358 0.285358
0.290452 0.290452 0.290452
0.295420 0.295420 0.295420
0.300267 0.300267 0.300267
0.304996 0.304996 0.304996
0.309611 0.309611 0.309611
0.314284 0.314284 0.314284
0.318993 0.318993 0.318993
0.323593 0.323593 0.323593
0.328095 0.328095 0.328095
0.332507 0.332507 0.332507
0.336733 0.336733 0.336733
0.340749 0.340749 0.340749
0.344683 0.344683 0.344683
0.348537 0.348537 0.348537
0.352312 0.352312 0.352312
0.356009 0.356009 0.356009
0.359631 0.359631 0.359631
0.363179 0.363179 0.363179
0.366655 0.366655 0.366655
0.370059 0.370059 0.370059
0.373393 0.373393 0.373393
0.376659 0.376659 0.376659
0.379858 0.379858 0.379858
0.382990 0.382990 0.382990
0.386058 0.386058 0.386058
0.389061 0.389061 0.389061
0.392002 0.392002 0.392002
0.394881 0.394881 0.394881
0.397700 0.397700 0.397700
0.400458 0.400458 0.400458
0.403158 0.403158 0.403158
0.405801 0.405801 0.405801
0.097688 0.097688 0.097688
0.097688 0.097688 0.097688
0.097688 0.097688 0.097688
0.097688 0.097688 0.097688
0.097948 0.097948 0.097948
0.099535 0.099535 0.099535
0.101185 0.101185 0.101185
0.104696 0.104696 0.104696
0.110303 0.110303 0.110303
0.118749 0.118749 0.118749
0.130588 0.130588 0.130588
0.145064 0.145064 0.145064
0.159337 0.159337 0.159337
0.172694 0.172694 0.172694
0.185669 0.185669 0.185669
0.198577 0.198577 0.198577
0.211915 0.211915 0.211915
0.223513 0.223513 0.223513
0.234378 0.234378 0.234378
0.245003 0.245003 0.245003
0.255393 0.255393 0.255393
0.265553 0.265553 0.265553
0.274498 0.274498 0.274498
0.282611 0.282611 0.282611
0.290503 0.290503 0.290503
0.298182 0.298182 0.298182
0.305655 0.305655 0.305655
0.313018 0.313018 0.313018
0.320609 0.320609 0.320609
0.328014 0.328014 0.328014
0.335225 0.335225 0.335225
0.341908 0.341908 0.341908
0.348425 0.348425 0.348425
0.354779 0.354779 0.354779
0.360978 0.360978 0.360978
0.367024 0.367024 0.367024
0.372924 0.372924 0.372924
0.378681 0.378681 0.378681
0.384300 0.384300 0.384300
0.389784 0.389784 0.389784
0.395138 0.395138 0.395138
0.400372 0.400372 0.400372
0.405498 0.405498 0.405498
0.410440 0.410440 0.410440
0.414954 0.414954 0.414954
0.419372 0.419372 0.419372
0.423694 0.423694 0.423694
0.427924 0.427924 0.427924
0.432064 0.432064 0.432064
0.436115 0.436115 0.436115
0.440189 0.440189 0.440189
0.444210 0.444210 0.444210
0.448147 0.448147 0.448147
0.452000 0.452000 0.452000
0.455773 0.455773 0.455773
0.459467 0.459467 0.459467
0.463082 0.463082 0.463082
0.466621 0.466621 0.466621
0.470084 0.470084 0.470084
0.473474 0.473474 0.473474
0.476791 0.476791 0.476791
0.480038 0.480038 0.480038
0.483214 0.483214 0.483214
0.486321 0.486321 0.486321
0.489361 0.489361 0.489361
0.097688 0.097688 0.097688
0.097688 0.097688 0.097688
0.097688 0.097688 0.097688
0.097688 0.097688 0.097688
0.097887 0.097887 0.097887
0.099496 0.099496 0.099496
0.101435 0.101435 0.101435
0.105996 0.105996 0.105996
0.114544 0.114544 0.114544
0.126184 0.126184 0.126184
0.143110 0.143110 0.143110
0.161290 0.161290 0.161290
0.178418 0.178418 0.178418
0.194557 0.194557 0.194557
0.211108 0.211108 0.211108
0.225549 0.225549 0.225549
0.239014 0.239014 0.239014
0.252134 0.252134 0.252134
0.264922 0.264922 0.264922
0.276092 0.276092 0.276092
0.286235 0.286235 0.286235
0.296067 0.296067 0.296067
0.305606 0.305606 0.305606
0.315090 0.315090 0.315090
0.324731 0.324731 0.324731
0.334118 0.334118 0.334118
0.342826 0.342826 0.342826
0.351258 0.351258 0.351258
0.359465 0.359465 0.359465
0.367456 0.367456 0.367456
0.375239 0.375239 0.375239
0.382821 0.382821 0.382821
0.390210 0.390210 0.390210
0.397412 0.397412 0.397412
0.404434 0.404434 0.404434
0.411141 0.411141 0.411141
0.417272 0.417272 0.417272
0.423245 0.423245 0.423245
0.429065 0.429065 0.429065
0.434737 0.434737 0.434737
0.440384 0.440384 0.440384
0.445981 0.445981 0.445981
0.451458 0.451458 0.451458
0.456816 0.456816 0.456816
0.462059 0.462059 0.462059
0.467191 0.467191 0.467191
0.472213 0.472213 0.472213
0.477128 0.477128 0.477128
0.481939 0.481939 0.481939
0.486648 0.486648 0.486648
0.491258 0.491258 0.491258
0.495770 0.495770 0.495770
0.500187 0.500187 0.500187
0.504511 0.504511 0.504511
0.508743 0.508743 0.508743
0.512834 0.512834 0.512834
0.516838 0.516838 0.516838
0.520756 0.520756 0.520756
0.524591 0.524591 0.524591
0.528343 0.528343 0.528343
0.532014 0.532014 0.532014
0.535606 0.535606 0.535606
0.539120 0.539120 0.539120
0.542557 0.542557 0.542557
0.545919 0.545919 0.545919
0.097688 0.097688 0.097688
0.097688 0.097688 0.097688
0.097688 0.097688 0.097688
0.097707 0.097707 0.097707
0.098221 0.098221 0.098221
0.099409 0.099409 0.099409
0.101229 0.101229 0.101229
0.105838 0.105838 0.105838
0.115170 0.115170 0.115170
0.128504 0.128504 0.128504
0.148427 0.148427 0.148427
0.168872 0.168872 0.168872
0.188356 0.188356 0.188356
0.207716 0.207716 0.207716
0.225252 0.225252 0.225252
0.241153 0.241153 0.241153
0.256576 0.256576 0.256576
0.271196 0.271196 0.271196
0.283359 0.283359 0.283359
0.295093 0.295093 0.295093
0.306429 0.306429 0.306429
0.317795 0.317795 0.317795
0.329179 0.329179 0.329179
0.339959 0.339959 0.339959
0.350130 0.350130 0.350130
0.360003 0.360003 0.360003
0.369593 0.369593 0.369593
0.378913 0.378913 0.378913
0.387975 0.387975 0.387975
0.396789 0.396789 0.396789
0.405367 0.405367 0.405367
0.413378 0.413378 0.413378
0.420838 0.420838 0.420838
0.428094 0.428094 0.428094
0.435153 0.435153 0.435153
0.442202 0.442202 0.442202
0.449134 0.449134 0.449134
0.455889 0.455889 0.455889
0.462471 0.462471 0.462471
0.468886 0.468886 0.468886
0.475142 0.475142 0.475142
0.481253 0.481253 0.481253
0.487231 0.487231 0.487231
0.493077 0.493077 0.493077
0.498796 0.498796 0.498796
0.504392 0.504392 0.504392
0.509853 0.509853 0.509853
0.515143 0.515143 0.515143
0.520319 0.520319 0.520319
0.525384 0.525384 0.525384
0.530340 0.530340 0.530340
0.535190 0.535190 0.535190
0.539936 0.539936 0.539936
0.544580 0.544580 0.544580
0.549124 0.549124 0.549124
0.553571 0.553571 0.553571
0.557923 0.557923 0.557923
0.562181 0.562181 0.562181
0.566347 0.566347 0.566347
0.570423 0.570423 0.570423
0.574411 0.574411 0.574411
0.578312 0.578312 0.578312
0.582129 0.582129 0.582129
0.585861 0.585861 0.585861
0.589511 0.589511 0.589511
0.097688 0.097688 0.097688
0.097688 0.097688 0.097688
0.097688 0.097688 0.097688
0.098035 0.098035 0.098035
0.099192 0.099192 0.099192
0.100161 0.100161 0.100161
0.101209 0.101209 0.101209
0.105423 0.105423 0.105423
0.114316 0.114316 0.114316
0.128029 0.128029 0.128029
0.148881 0.148881 0.148881
0.170865 0.170865 0.170865
0.192329 0.192329 0.192329
0.214339 0.214339 0.214339
0.232823 0.232823 0.232823
0.250610 0.250610 0.250610
0.267842 0.267842 0.267842
0.282065 0.282065 0.282065
0.295508 0.295508 0.295508
0.308449 0.308449 0.308449
0.321581 0.321581 0.321581
0.334508 0.334508 0.334508
0.346396 0.346396 0.346396
0.357878 0.357878 0.357878
0.368999 0.368999 0.368999
0.379779 0.379779 0.379779
0.390236 0.390236 0.390236
0.400386 0.400386 0.400386
0.410188 0.410188 0.410188
0.418981 0.418981 0.418981
0.427514 0.427514 0.427514
0.435799 0.435799 0.435799
0.444092 0.444092 0.444092
0.452201 0.452201 0.452201
0.460088 0.460088 0.460088
0.467764 0.467764 0.467764
0.475236 0.475236 0.475236
0.482512 0.482512 0.482512
0.489599 0.489599 0.489599
0.496503 0.496503 0.496503
0.503233 0.503233 0.503233
0.509795 0.509795 0.509795
0.516142 0.516142 0.516142
0.522346 0.522346 0.522346
0.528413 0.528413 0.528413
0.534344 0.534344 0.534344
0.540145 0.540145 0.540145
0.545819 0.545819 0.545819
0.551368 0.551368 0.551368
0.556797 0.556797 0.556797
0.562107 0.562107 0.562107
0.567302 0.567302 0.567302
0.572384 0.572384 0.572384
0.577357 0.577357 0.577357
0.582221 0.582221 0.582221
0.586981 0.586981 0.586981
0.591637 0.591637 0.591637
0.596192 0.596192 0.596192
0.600648 0.600648 0.600648
0.605008 0.605008 0.605008
0.609272 0.609272 0.609272
0.613443 0.613443 0.613443
0.617522 0.617522 0.617522
0.621511 0.621511 0.621511
0.625412 0.625412 0.625412
0.097688 0.097688 0.097688
0.097688 0.097688 0.097688
0.097688 0.097688 0.097688
0.098546 0.098546 0.098546
0.099984 0.099984 0.099984
0.101117 0.101117 0.101117
0.102956 0.102956 0.102956
0.105532 0.105532 0.105532
0.113692 0.113692 0.113692
0.127018 0.127018 0.127018
0.147407 0.147407 0.147407
0.170148 0.170148 0.170148
0.192995 0.192995 0.192995
0.216511 0.216511 0.216511
0.236419 0.236419 0.236419
0.255779 0.255779 0.255779
0.273739 0.273739 0.273739
0.288954 0.288954 0.288954
0.303578 0.303578 0.303578
0.318070 0.318070 0.318070
0.332614 0.332614 0.332614
0.346061 0.346061 0.346061
0.358931 0.358931 0.358931
0.371372 0.371372 0.371372
0.383408 0.383408 0.383408
0.395061 0.395061 0.395061
0.406353 0.406353 0.406353
0.416669 0.416669 0.416669
0.426407 0.426407 0.426407
0.435841 0.435841 0.435841
0.445275 0.445275 0.445275
0.454475 0.454475 0.454475
0.463410 0.463410 0.463410
0.472092 0.472092 0.472092
0.480532 0.480532 0.480532
0.488740 0.488740 0.488740
0.496724 0.496724 0.496724
0.504494 0.504494 0.504494
0.512018 0.512018 0.512018
0.519291 0.519291 0.519291
0.526378 0.526378 0.526378
0.533299 0.533299 0.533299
0.540061 0.540061 0.540061
0.546667 0.546667 0.546667
0.553123 0.553123 0.553123
0.559433 0.559433 0.559433
0.565602 0.565602 0.565602
0.571632 0.571632 0.571632
0.577529 0.577529 0.577529
0.583295 0.583295 0.583295
0.588934 0.588934 0.588934
0.594448 0.594448 0.594448
0.599842 0.599842 0.599842
0.605117 0.605117 0.605117
0.610277 0.610277 0.610277
0.615324 0.615324 0.615324
0.620260 0.620260 0.620260
0.625088 0.625088 0.625088
0.629811 0.629811 0.629811
0.634429 0.634429 0.634429
0.638946 0.638946 0.638946
0.643363 0.643363 0.643363
0.647608 0.647608 0.647608
0.651709 0.651709 0.651709
0.655718 0.655718 0.655718
0.097688 0.097688 0.097688
0.097688 0.097688 0.097688
0.097688 0.097688 0.097688
0.099030 0.099030 0.099030
0.100670 0.100670 0.100670
0.102682 0.102682 0.102682
0.105639 0.105639 0.105639
0.109692 0.109692 0.109692
0.115033 0.115033 0.115033
0.127187 0.127187 0.127187
0.146705 0.146705 0.146705
0.169237 0.169237 0.169237
0.192482 0.192482 0.192482
0.216788 0.216788 0.216788
0.237678 0.237678 0.237678
0.258175 0.258175 0.258175
0.276772 0.276772 0.276772
0.293012 0.293012 0.293012
0.308661 0.308661 0.308661
0.324602 0.324602 0.324602
0.339949 0.339949 0.339949
0.354252 0.354252 0.354252
0.368066 0.368066 0.368066
0.381415 0.381415 0.381415
0.394325 0.394325 0.394325
0.406817 0.406817 0.406817
0.418149 0.418149 0.418149
0.428889 0.428889 0.428889
0.439361 0.439361 0.439361
0.449788 0.449788 0.449788
0.459896 0.459896 0.459896
0.469702 0.469702 0.469702
0.479220 0.479220 0.479220
0.488461 0.488461 0.488461
0.497438 0.497438 0.497438
0.506163 0.506163 0.506163
0.514573 0.514573 0.514573
0.522720 0.522720 0.522720
0.530644 0.530644 0.530644
0.538355 0.538355 0.538355
0.545870 0.545870 0.545870
0.553206 0.553206 0.553206
0.560369 0.560369 0.560369
0.567363 0.567363 0.567363
0.574196 0.574196 0.574196
0.580871 0.580871 0.580871
0.587393 0.587393 0.587393
0.593767 0.593767 0.593767
0.599997 0.599997 0.599997
0.606086 0.606086 0.606086
0.612039 0.612039 0.612039
0.617859 0.617859 0.617859
0.623550 0.623550 0.623550
0.629114 0.629114 0.629114
0.634554 0.634554 0.634554
0.639874 0.639874 0.639874
0.645076 0.645076 0.645076
0.650017 0.650017 0.650017
0.654846 0.654846 0.654846
0.659567 0.659567 0.659567
0.664183 0.664183 0.664183
0.668695 0.668695 0.668695
0.673105 0.673105 0.673105
0.677416 0.677416 0.677416
0.681629 0.681629 0.681629
0.097688 0.097688 0.097688
0.097688 0.097688 0.097688
0.097799 0.097799 0.097799
0.099615 0.099615 0.099615
0.101560 0.101560 0.101560
0.105433 0.105433 0.105433
0.110914 0.110914 0.110914
0.116890 0.116890 0.116890
0.123959 0.123959 0.123959
0.131533 0.131533 0.131533
0.148046 0.148046 0.148046
0.169547 0.169547 0.169547
0.192321 0.192321 0.192321
0.216666 0.216666 0.216666
0.237931 0.237931 0.237931
0.259057 0.259057 0.259057
0.278187 0.278187 0.278187
0.295185 0.295185 0.295185
0.311644 0.311644 0.311644
0.328704 0.328704 0.328704
0.344711 0.344711 0.344711
0.359880 0.359880 0.359880
0.374547 0.374547 0.374547
0.388733 0.388733 0.388733
0.402457 0.402457 0.402457
0.415237 0.415237 0.415237
0.427030 0.427030 0.427030
0.438477 0.438477 0.438477
0.449902 0.449902 0.449902
0.460968 0.460968 0.460968
0.471692 0.471692 0.471692
0.482090 0.482090 0.482090
0.492176 0.492176 0.492176
0.501965 0.501965 0.501965
0.511437 0.511437 0.511437
0.520554 0.520554 0.520554
0.529412 0.529412 0.529412
0.538022 0.538022 0.538022
0.546392 0.546392 0.546392
0.554535 0.554535 0.554535
0.562472 0.562472 0.562472
0.570216 0.570216 0.570216
0.577774 0.577774 0.577774
0.585151 0.585151 0.585151
0.592353 0.592353 0.592353
0.599386 0.599386 0.599386
0.606255 0.606255 0.606255
0.612965 0.612965 0.612965
0.619521 0.619521 0.619521
0.625927 0.625927 0.625927
0.632187 0.632187 0.632187
0.638305 0.638305 0.638305
0.644285 0.644285 0.644285
0.649984 0.649984 0.649984
0.655531 0.655531 0.655531
0.660952 0.660952 0.660952
0.666251 0.666251 0.666251
0.671429 0.671429 0.671429
0.676491 0.676491 0.676491
0.681438 0.681438 0.681438
0.686272 0.686272 0.686272
0.690997 0.690997 0.690997
0.695615 0.695615 0.695615
0.700128 0.700128 0.700128
0.704538 0.704538 0.704538
0.097688 0.097688 0.097688
0.097688 0.097688 0.097688
0.098046 0.098046 0.098046
0.100428 0.100428 0.100428
0.104018 0.104018 0.104018
0.110537 0.110537 0.110537
0.118819 0.118819 0.118819
0.127066 0.127066 0.127066
0.135026 0.135026 0.135026
0.144507 0.144507 0.144507
0.155145 0.155145 0.155145
0.171489 0.171489 0.171489
0.193318 0.193318 0.193318
0.217052 0.217052 0.217052
0.238152 0.238152 0.238152
0.259413 0.259413 0.259413
0.278798 0.278798 0.278798
0.296251 0.296251 0.296251
0.313381 0.313381 0.313381
0.331127 0.331127 0.331127
0.347702 0.347702 0.347702
0.363591 0.363591 0.363591
0.378993 0.378993 0.378993
0.393917 0.393917 0.393917
0.408377 0.408377 0.408377
0.421333 0.421333 0.421333
0.433762 0.433762 0.433762
0.446095 0.446095 0.446095
0.458151 0.458151 0.458151
0.469829 0.469829 0.469829
0.481145 0.481145 0.481145
0.492115 0.492115 0.492115
0.502755 0.502755 0.502755
0.513026 0.513026 0.513026
0.522921 0.522921 0.522921
0.532528 0.532528 0.532528
0.541859 0.541859 0.541859
0.550924 0.550924 0.550924
0.559735 0.559735 0.559735
0.568307 0.568307 0.568307
0.576664 0.576664 0.576664
0.584813 0.584813 0.584813
0.592762 0.592762 0.592762
0.600518 0.600518 0.600518
0.608087 0.608087 0.608087
0.615475 0.615475 0.615475
0.622688 0.622688 0.622688
0.629731 0.629731 0.629731
0.636610 0.636610 0.636610
0.643329 0.643329 0.643329
0.649753 0.649753 0.649753
0.655979 0.655979 0.655979
0.662060 0.662060 0.662060
0.668001 0.668001 0.668001
0.673804 0.673804 0.673804
0.679475 0.679475 0.679475
0.685015 0.685015 0.685015
0.690429 0.690429 0.690429
0.695718 0.695718 0.695718
0.700887 0.700887 0.700887
0.705937 0.705937 0.705937
0.710861 0.710861 0.710861
0.715661 0.715661 0.715661
0.720351 0.720351 0.720351
0.724933 0.724933 0.724933
0.097688 0.097688 0.097688
0.097688 0.097688 0.097688
0.098591 0.098591 0.098591
0.101189 0.101189 0.101189
0.106761 0.106761 0.106761
0.116513 0.116513 0.116513
0.127422 0.127422 0.127422
0.138392 0.138392 0.138392
0.148646 0.148646 0.148646
0.158479 0.158479 0.158479
0.168900 0.168900 0.168900
0.180223 0.180223 0.180223
0.195615 0.195615 0.195615
0.218360 0.218360 0.218360
0.238932 0.238932 0.238932
0.259931 0.259931 0.259931
0.279217 0.279217 0.279217
0.296829 0.296829 0.296829
0.314317 0.314317 0.314317
0.332500 0.332500 0.332500
0.349498 0.349498 0.349498
0.365938 0.365938 0.365938
0.381933 0.381933 0.381933
0.397476 0.397476 0.397476
0.412325 0.412325 0.412325
0.425761 0.425761 0.425761
0.438826 0.438826 0.438826
0.451872 0.451872 0.451872
0.464513 0.464513 0.464513
0.476764 0.476764 0.476764
0.488642 0.488642 0.488642
0.500159 0.500159 0.500159
0.511300 0.511300 0.511300
0.522005 0.522005 0.522005
0.532393 0.532393 0.532393
0.542477 0.542477 0.542477
0.552270 0.552270 0.552270
0.561783 0.561783 0.561783
0.571028 0.571028 0.571028
0.580029 0.580029 0.580029
0.588801 0.588801 0.588801
0.597353 0.597353 0.597353
0.605691 0.605691 0.605691
0.613824 0.613824 0.613824
0.621758 0.621758 0.621758
0.629499 0.629499 0.629499
0.637054 0.637054 0.637054
0.644429 0.644429 0.644429
0.651440 0.651440 0.651440
0.658265 0.658265 0.658265
0.664928 0.664928 0.664928
0.671433 0.671433 0.671433
0.677786 0.677786 0.677786
0.683990 0.683990 0.683990
0.690049 0.690049 0.690049
0.695967 0.695967 0.695967
0.701748 0.701748 0.701748
0.707395 0.707395 0.707395
0.712892 0.712892 0.712892
0.718257 0.718257 0.718257
0.723498 0.723498 0.723498
0.728617 0.728617 0.728617
0.733618 0.733618 0.733618
0.738502 0.738502 0.738502
0.743273 0.743273 0.743273
0.097688 0.097688 0.097688
0.097688 0.097688 0.097688
0.099061 0.099061 0.099061
0.102250 0.102250 0.102250
0.110566 0.110566 0.110566
0.122978 0.122978 0.122978
0.136277 0.136277 0.136277
0.149990 0.149990 0.149990
0.161428 0.161428 0.161428
0.172159 0.172159 0.172159
0.182851 0.182851 0.182851
0.194007 0.194007 0.194007
0.206414 0.206414 0.206414
0.220609 0.220609 0.220609
0.240504 0.240504 0.240504
0.260996 0.260996 0.260996
0.279851 0.279851 0.279851
0.297366 0.297366 0.297366
0.314951 0.314951 0.314951
0.333332 0.333332 0.333332
0.350577 0.350577 0.350577
0.367390 0.367390 0.367390
0.383819 0.383819 0.383819
0.399845 0.399845 0.399845
0.414975 0.414975 0.414975
0.428899 0.428899 0.428899
0.442595 0.442595 0.442595
0.456167 0.456167 0.456167
0.469336 0.469336 0.469336
0.482113 0.482113 0.482113
0.494510 0.494510 0.494510
0.506540 0.506540 0.506540
0.518097 0.518097 0.518097
0.529287 0.529287 0.529287
0.540148 0.540148 0.540148
0.550693 0.550693 0.550693
0.560935 0.560935 0.560935
0.570883 0.570883 0.570883
0.580558 0.580558 0.580558
0.589982 0.589982 0.589982
0.599165 0.599165 0.599165
0.608114 0.608114 0.608114
0.616838 0.616838 0.616838
0.625345 0.625345 0.625345
0.633641 0.633641 0.633641
0.641735 0.641735 0.641735
0.649499 0.649499 0.649499
0.656980 0.656980 0.656980
0.664280 0.664280 0.664280
0.671402 0.671402 0.671402
0.678354 0.678354 0.678354
0.685139 0.685139 0.685139
0.691763 0.691763 0.691763
0.698230 0.698230 0.698230
0.704544 0.704544 0.704544
0.710701 0.710701 0.710701
0.716696 0.716696 0.716696
0.722550 0.722550 0.722550
0.728267 0.728267 0.728267
0.733850 0.733850 0.733850
0.739303 0.739303 0.739303
0.744628 0.744628 0.744628
0.749829 0.749829 0.749829
0.754908 0.754908 0.754908
0.759868 0.759868 0.759868
0.097688 0.097688 0.097688
0.097688 0.097688 0.097688
0.099379 0.099379 0.099379
0.103662 0.103662 0.103662
0.114029 0.114029 0.114029
0.128305 0.128305 0.128305
0.145139 0.145139 0.145139
0.160134 0.160134 0.160134
0.173216 0.173216 0.173216
0.185109 0.185109 0.185109
0.196474 0.196474 0.196474
0.208502 0.208502 0.208502
0.220064 0.220064 0.220064
0.231084 0.231084 0.231084
0.242843 0.242843 0.242843
0.262742 0.262742 0.262742
0.280911 0.280911 0.280911
0.298148 0.298148 0.298148
0.315638 0.315638 0.315638
0.334006 0.334006 0.334006
0.351317 0.351317 0.351317
0.368327 0.368327 0.368327
0.385033 0.385033 0.385033
0.401400 0.401400 0.401400
0.416761 0.416761 0.416761
0.431072 0.431072 0.431072
0.445274 0.445274 0.445274
0.459295 0.459295 0.459295
0.472924 0.472924 0.472924
0.486168 0.486168 0.486168
0.499035 0.499035 0.499035
0.511500 0.511500 0.511500
0.523489 0.523489 0.523489
0.535132 0.535132 0.535132
0.546439 0.546439 0.546439
0.557423 0.557423 0.557423
0.568094 0.568094 0.568094
0.578466 0.578466 0.578466
0.588564 0.588564 0.588564
0.598401 0.598401 0.598401
0.607985 0.607985 0.607985
0.617326 0.617326 0.617326
0.626430 0.626430 0.626430
0.635307 0.635307 0.635307
0.643962 0.643962 0.643962
0.652192 0.652192 0.652192
0.660186 0.660186 0.660186
0.667983 0.667983 0.667983
0.675588 0.675588 0.675588
0.683008 0.683008 0.683008
0.690247 0.690247 0.690247
0.697312 0.697312 0.697312
0.704207 0.704207 0.704207
0.710927 0.710927 0.710927
0.717469 0.717469 0.717469
0.723854 0.723854 0.723854
0.730088 0.730088 0.730088
0.736175 0.736175 0.736175
0.742117 0.742117 0.742117
0.747920 0.747920 0.747920
0.753585 0.753585 0.753585
0.759117 0.759117 0.759117
0.764519 0.764519 0.764519
0.769792 0.769792 0.769792
0.774942 0.774942 0.774942
0.097688 0.097688 0.097688
0.097688 0.097688 0.097688
0.099565 0.099565 0.099565
0.104696 0.104696 0.104696
0.116752 0.116752 0.116752
0.133492 0.133492 0.133492
0.152486 0.152486 0.152486
0.169200 0.169200 0.169200
0.183909 0.183909 0.183909
0.197168 0.197168 0.197168
0.210189 0.210189 0.210189
0.221630 0.221630 0.221630
0.232295 0.232295 0.232295
0.243197 0.243197 0.243197
0.254472 0.254472 0.254472
0.266156 0.266156 0.266156
0.282457 0.282457 0.282457
0.299316 0.299316 0.299316
0.316593 0.316593 0.316593
0.334788 0.334788 0.334788
0.351999 0.351999 0.351999
0.369048 0.369048 0.369048
0.385882 0.385882 0.385882
0.402450 0.402450 0.402450
0.417966 0.417966 0.417966
0.432561 0.432561 0.432561
0.447149 0.447149 0.447149
0.461533 0.461533 0.461533
0.475546 0.475546 0.475546
0.489191 0.489191 0.489191
0.502470 0.502470 0.502470
0.515305 0.515305 0.515305
0.527710 0.527710 0.527710
0.539768 0.539768 0.539768
0.551490 0.551490 0.551490
0.562885 0.562885 0.562885
0.573962 0.573962 0.573962
0.584745 0.584745 0.584745
