trix_modern/TriX_Red25_Normal.cube
TITLE "Tri-X Red25 Normal"
# Adobe RGB in/out. REPLACES AgX. R=0.9735 G=0.0265 B=0.0000
LUT_3D_SIZE 33
DOMAIN_MIN 0.0 0.0 0.0
DOMAIN_MAX 1.0 1.0 1.0
0.093230 0.093230 0.093230
0.093230 0.093230 0.093230
0.093230 0.093230 0.093230
0.093230 0.093230 0.093230
0.093230 0.093230 0.093230
0.093230 0.093230 0.093230
0.093230 0.093230 0.093230
0.093230 0.093230 0.093230
0.093230 0.093230 0.093230
0.093230 0.093230 0.093230
0.093230 0.093230 0.093230
0.093230 0.093230 0.093230
0.093230 0.093230 0.093230
0.093230 0.093230 0.093230
0.093230 0.093230 0.093230
0.093230 0.093230 0.093230
0.093230 0.093230 0.093230
0.093230 0.093230 0.093230
0.093230 0.093230 0.093230
0.093230 0.093230 0.093230
0.093230 0.093230 0.093230
0.093230 0.093230 0.093230
0.093230 0.093230 0.093230
0.093230 0.093230 0.093230
0.093230 0.093230 0.093230
0.093230 0.093230 0.093230
0.093230 0.093230 0.093230
0.093230 0.093230 0.093230
0.093230 0.093230 0.093230
0.093230 0.093230 0.093230
0.093230 0.093230 0.093230
0.093230 0.093230 0.093230
0.093230 0.093230 0.093230
0.093230 0.093230 0.093230
0.093230 0.093230 0.093230
0.093473 0.093473 0.093473
0.099033 0.099033 0.099033
0.125242 0.125242 0.125242
0.184174 0.184174 0.184174
0.253771 0.253771 0.253771
0.308633 0.308633 0.308633
0.360779 0.360779 0.360779
0.414734 0.414734 0.414734
0.465680 0.465680 0.465680
0.515524 0.515524 0.515524
0.562684 0.562684 0.562684
0.608937 0.608937 0.608937
0.654304 0.654304 0.654304
0.694671 0.694671 0.694671
0.732122 0.732122 0.732122
0.768036 0.768036 0.768036
0.795173 0.795173 0.795173
0.818467 0.818467 0.818467
0.840814 0.840814 0.840814
0.862313 0.862313 0.862313
0.882082 0.882082 0.882082
0.896675 0.896675 0.896675
0.910684 0.910684 0.910684
0.924144 0.924144 0.924144
0.937041 0.937041 0.937041
0.946396 0.946396 0.946396
0.952885 0.952885 0.952885
0.959097 0.959097 0.959097
0.965050 0.965050 0.965050
0.970478 0.970478 0.970478
0.972633 0.972633 0.972633
0.093230 0.093230 0.093230
0.093230 0.093230 0.093230
0.093293 0.093293 0.093293
0.095177 0.095177 0.095177
0.110632 0.110632 0.110632
0.162892 0.162892 0.162892
0.234047 0.234047 0.234047
0.297318 0.297318 0.297318
0.352644 0.352644 0.352644
0.409813 0.409813 0.409813
0.463767 0.463767 0.463767
0.516012 0.516012 0.516012
0.565223 0.565223 0.565223
0.613356 0.613356 0.613356
0.660449 0.660449 0.660449
0.701354 0.701354 0.701354
0.740029 0.740029 0.740029
0.776567 0.776567 0.776567
0.802055 0.802055 0.802055
0.825924 0.825924 0.825924
0.848799 0.848799 0.848799
0.870793 0.870793 0.870793
0.888611 0.888611 0.888611
0.903474 0.903474 0.903474
0.917734 0.917734 0.917734
0.931425 0.931425 0.931425
0.943704 0.943704 0.943704
0.950569 0.950569 0.950569
0.957135 0.957135 0.957135
0.963419 0.963419 0.963419
0.969438 0.969438 0.969438
0.972230 0.972230 0.972230
0.974402 0.974402 0.974402
0.093230 0.093230 0.093230
0.093230 0.093230 0.093230
0.093457 0.093457 0.093457
0.094860 0.094860 0.094860
0.101979 0.101979 0.101979
0.138648 0.138648 0.138648
0.204800 0.204800 0.204800
0.276299 0.276299 0.276299
0.333234 0.333234 0.333234
0.392590 0.392590 0.392590
0.450070 0.450070 0.450070
0.504628 0.504628 0.504628
0.556387 0.556387 0.556387
0.606425 0.606425 0.606425
0.655262 0.655262 0.655262
0.698259 0.698259 0.698259
0.738221 0.738221 0.738221
0.775966 0.775966 0.775966
0.802352 0.802352 0.802352
0.826879 0.826879 0.826879
0.850351 0.850351 0.850351
0.872900 0.872900 0.872900
0.890514 0.890514 0.890514
0.905701 0.905701 0.905701
0.920253 0.920253 0.920253
0.934210 0.934210 0.934210
0.945351 0.945351 0.945351
0.952327 0.952327 0.952327
0.958992 0.958992 0.958992
0.965368 0.965368 0.965368
0.970759 0.970759 0.970759
0.973059 0.973059 0.973059
0.975255 0.975255 0.975255
0.093230 0.093230 0.093230
0.093233 0.093233 0.093233
0.093594 0.093594 0.093594
0.096152 0.096152 0.096152
0.103670 0.103670 0.103670
0.125965 0.125965 0.125965
0.180601 0.180601 0.180601
0.250286 0.250286 0.250286
0.311446 0.311446 0.311446
0.370294 0.370294 0.370294
0.430382 0.430382 0.430382
0.486536 0.486536 0.486536
0.540716 0.540716 0.540716
0.592457 0.592457 0.592457
0.642941 0.642941 0.642941
0.688972 0.688972 0.688972
0.730283 0.730283 0.730283
0.769653 0.769653 0.769653
0.798580 0.798580 0.798580
0.823876 0.823876 0.823876
0.848057 0.848057 0.848057
0.871260 0.871260 0.871260
0.889753 0.889753 0.889753
0.905336 0.905336 0.905336
0.920247 0.920247 0.920247
0.934530 0.934530 0.934530
0.945686 0.945686 0.945686
0.952805 0.952805 0.952805
0.959601 0.959601 0.959601
0.966094 0.966094 0.966094
0.971088 0.971088 0.971088
0.973425 0.973425 0.973425
0.975654 0.975654 0.975654
0.093230 0.093230 0.093230
0.093240 0.093240 0.093240
0.093857 0.093857 0.093857
0.099458 0.099458 0.099458
0.111397 0.111397 0.111397
0.133251 0.133251 0.133251
0.167833 0.167833 0.167833
0.230204 0.230204 0.230204
0.292485 0.292485 0.292485
0.348520 0.348520 0.348520
0.408329 0.408329 0.408329
0.465737 0.465737 0.465737
0.521530 0.521530 0.521530
0.574364 0.574364 0.574364
0.626084 0.626084 0.626084
0.675497 0.675497 0.675497
0.718056 0.718056 0.718056
0.759183 0.759183 0.759183
0.791832 0.791832 0.791832
0.817957 0.817957 0.817957
0.842929 0.842929 0.842929
0.866862 0.866862 0.866862
0.887033 0.887033 0.887033
0.903078 0.903078 0.903078
0.918408 0.918408 0.918408
0.933072 0.933072 0.933072
0.945082 0.945082 0.945082
0.952378 0.952378 0.952378
0.959333 0.959333 0.959333
0.965970 0.965970 0.965970
0.971091 0.971091 0.971091
0.973475 0.973475 0.973475
0.975747 0.975747 0.975747
0.093230 0.093230 0.093230
0.093245 0.093245 0.093245
0.094095 0.094095 0.094095
0.101524 0.101524 0.101524
0.118974 0.118974 0.118974
0.146780 0.146780 0.146780
0.179364 0.179364 0.179364
0.218645 0.218645 0.218645
0.278986 0.278986 0.278986
0.331066 0.331066 0.331066
0.387925 0.387925 0.387925
0.445396 0.445396 0.445396
0.500969 0.500969 0.500969
0.554652 0.554652 0.554652
0.606929 0.606929 0.606929
0.658245 0.658245 0.658245
0.703057 0.703057 0.703057
0.745187 0.745187 0.745187
0.782923 0.782923 0.782923
0.809881 0.809881 0.809881
0.835663 0.835663 0.835663
0.860351 0.860351 0.860351
0.882790 0.882790 0.882790
0.899338 0.899338 0.899338
0.915128 0.915128 0.915128
0.930216 0.930216 0.930216
0.943740 0.943740 0.943740
0.951237 0.951237 0.951237
0.958375 0.958375 0.958375
0.965181 0.965181 0.965181
0.970840 0.970840 0.970840
0.973280 0.973280 0.973280
0.975604 0.975604 0.975604
0.093230 0.093230 0.093230
0.093245 0.093245 0.093245
0.094334 0.094334 0.094334
0.103082 0.103082 0.103082
0.126142 0.126142 0.126142
0.158239 0.158239 0.158239
0.194232 0.194232 0.194232
0.232111 0.232111 0.232111
0.272635 0.272635 0.272635
0.318569 0.318569 0.318569
0.371405 0.371405 0.371405
0.427541 0.427541 0.427541
0.481604 0.481604 0.481604
0.535313 0.535313 0.535313
0.587358 0.587358 0.587358
0.638817 0.638817 0.638817
0.686639 0.686639 0.686639
0.729442 0.729442 0.729442
0.770395 0.770395 0.770395
0.800325 0.800325 0.800325
0.826860 0.826860 0.826860
0.852272 0.852272 0.852272
0.876631 0.876631 0.876631
0.894443 0.894443 0.894443
0.910711 0.910711 0.910711
0.926242 0.926242 0.926242
0.940652 0.940652 0.940652
0.949516 0.949516 0.949516
0.956857 0.956857 0.956857
0.963847 0.963847 0.963847
0.970381 0.970381 0.970381
0.972885 0.972885 0.972885
0.975266 0.975266 0.975266
0.093230 0.093230 0.093230
0.093245 0.093245 0.093245
0.094347 0.094347 0.094347
0.103846 0.103846 0.103846
0.130715 0.130715 0.130715
0.166866 0.166866 0.166866
0.206701 0.206701 0.206701
0.245415 0.245415 0.245415
0.282044 0.282044 0.282044
0.314330 0.314330 0.314330
0.358994 0.358994 0.358994
0.412298 0.412298 0.412298
0.464853 0.464853 0.464853
0.517695 0.517695 0.517695
0.568776 0.568776 0.568776
0.619719 0.619719 0.619719
0.669950 0.669950 0.669950
0.713032 0.713032 0.713032
0.755105 0.755105 0.755105
0.789909 0.789909 0.789909
0.817079 0.817079 0.817079
0.843130 0.843130 0.843130
0.868119 0.868119 0.868119
0.888691 0.888691 0.888691
0.905426 0.905426 0.905426
0.921399 0.921399 0.921399
0.936655 0.936655 0.936655
0.947328 0.947328 0.947328
0.954880 0.954880 0.954880
0.962066 0.962066 0.962066
0.968912 0.968912 0.968912
0.972322 0.972322 0.972322
0.974767 0.974767 0.974767
0.093230 0.093230 0.093230
0.093245 0.093245 0.093245
0.094296 0.094296 0.094296
0.104120 0.104120 0.104120
0.133352 0.133352 0.133352
0.173314 0.173314 0.173314
0.216027 0.216027 0.216027
0.256926 0.256926 0.256926
0.291174 0.291174 0.291174
0.323006 0.323006 0.323006
0.356686 0.356686 0.356686
0.400309 0.400309 0.400309
0.451111 0.451111 0.451111
0.501889 0.501889 0.501889
0.552068 0.552068 0.552068
0.601935 0.601935 0.601935
0.651775 0.651775 0.651775
0.696929 0.696929 0.696929
0.739172 0.739172 0.739172
0.779185 0.779185 0.779185
0.806828 0.806828 0.806828
0.833390 0.833390 0.833390
0.858909 0.858909 0.858909
0.882358 0.882358 0.882358
0.899525 0.899525 0.899525
0.915914 0.915914 0.915914
0.931574 0.931574 0.931574
0.944773 0.944773 0.944773
0.952539 0.952539 0.952539
0.959925 0.959925 0.959925
0.966957 0.966957 0.966957
0.971622 0.971622 0.971622
0.974133 0.974133 0.974133
0.093230 0.093230 0.093230
0.093244 0.093244 0.093244
0.094208 0.094208 0.094208
0.104070 0.104070 0.104070
0.134581 0.134581 0.134581
0.177417 0.177417 0.177417
0.222709 0.222709 0.222709
0.266075 0.266075 0.266075
0.299063 0.299063 0.299063
0.331081 0.331081 0.331081
0.364733 0.364733 0.364733
0.399910 0.399910 0.399910
0.440198 0.440198 0.440198
0.488749 0.488749 0.488749
0.537643 0.537643 0.537643
0.586116 0.586116 0.586116
0.634973 0.634973 0.634973
0.681831 0.681831 0.681831
0.723886 0.723886 0.723886
0.764978 0.764978 0.764978
0.796549 0.796549 0.796549
0.823464 0.823464 0.823464
0.849383 0.849383 0.849383
0.874334 0.874334 0.874334
0.893241 0.893241 0.893241
0.910004 0.910004 0.910004
0.926031 0.926031 0.926031
0.940902 0.940902 0.940902
0.949922 0.949922 0.949922
0.957504 0.957504 0.957504
0.964722 0.964722 0.964722
0.970810 0.970810 0.970810
0.973389 0.973389 0.973389
0.093230 0.093230 0.093230
0.093243 0.093243 0.093243
0.094094 0.094094 0.094094
0.103799 0.103799 0.103799
0.134795 0.134795 0.134795
0.179566 0.179566 0.179566
0.227062 0.227062 0.227062
0.272223 0.272223 0.272223
0.305361 0.305361 0.305361
0.338044 0.338044 0.338044
0.372155 0.372155 0.372155
0.406960 0.406960 0.406960
0.441434 0.441434 0.441434
0.478139 0.478139 0.478139
0.525688 0.525688 0.525688
0.572634 0.572634 0.572634
0.620226 0.620226 0.620226
0.668180 0.668180 0.668180
0.709739 0.709739 0.709739
0.750827 0.750827 0.750827
0.786601 0.786601 0.786601
0.813700 0.813700 0.813700
0.839875 0.839875 0.839875
0.865134 0.865134 0.865134
0.886789 0.886789 0.886789
0.903866 0.903866 0.903866
0.920211 0.920211 0.920211
0.935862 0.935862 0.935862
0.947112 0.947112 0.947112
0.954879 0.954879 0.954879
0.962275 0.962275 0.962275
0.969321 0.969321 0.969321
0.972558 0.972558 0.972558
0.093230 0.093230 0.093230
0.093242 0.093242 0.093242
0.093991 0.093991 0.093991
0.103375 0.103375 0.103375
0.134275 0.134275 0.134275
0.180206 0.180206 0.180206
0.229474 0.229474 0.229474
0.275476 0.275476 0.275476
0.310025 0.310025 0.310025
0.343804 0.343804 0.343804
0.378569 0.378569 0.378569
0.413475 0.413475 0.413475
0.447288 0.447288 0.447288
0.481090 0.481090 0.481090
0.516019 0.516019 0.516019
0.561449 0.561449 0.561449
0.607645 0.607645 0.607645
0.654406 0.654406 0.654406
0.697031 0.697031 0.697031
0.737592 0.737592 0.737592
0.776754 0.776754 0.776754
0.804375 0.804375 0.804375
0.830658 0.830658 0.830658
0.856095 0.856095 0.856095
0.880353 0.880353 0.880353
0.897674 0.897674 0.897674
0.914281 0.914281 0.914281
0.930202 0.930202 0.930202
0.944185 0.944185 0.944185
0.952123 0.952123 0.952123
0.959684 0.959684 0.959684
0.966890 0.966890 0.966890
0.971663 0.971663 0.971663
0.093230 0.093230 0.093230
0.093240 0.093240 0.093240
0.093949 0.093949 0.093949
0.102844 0.102844 0.102844
0.133230 0.133230 0.133230
0.179706 0.179706 0.179706
0.230337 0.230337 0.230337
0.277349 0.277349 0.277349
0.313225 0.313225 0.313225
0.348305 0.348305 0.348305
0.383914 0.383914 0.383914
0.419287 0.419287 0.419287
0.452794 0.452794 0.452794
0.486384 0.486384 0.486384
0.520399 0.520399 0.520399
0.553756 0.553756 0.553756
0.597128 0.597128 0.597128
0.642620 0.642620 0.642620
0.685884 0.685884 0.685884
0.725747 0.725747 0.725747
0.765070 0.765070 0.765070
0.795685 0.795685 0.795685
0.821940 0.821940 0.821940
0.847429 0.847429 0.847429
0.872138 0.872138 0.872138
0.891580 0.891580 0.891580
0.908383 0.908383 0.908383
0.924518 0.924518 0.924518
0.939683 0.939683 0.939683
0.949299 0.949299 0.949299
0.957008 0.957008 0.957008
0.964362 0.964362 0.964362
0.970723 0.970723 0.970723
0.093230 0.093230 0.093230
0.093239 0.093239 0.093239
0.093906 0.093906 0.093906
0.102246 0.102246 0.102246
0.131842 0.131842 0.131842
0.178417 0.178417 0.178417
0.230061 0.230061 0.230061
0.278151 0.278151 0.278151
0.315197 0.315197 0.315197
0.351514 0.351514 0.351514
0.388087 0.388087 0.388087
0.424113 0.424113 0.424113
0.457662 0.457662 0.457662
0.491293 0.491293 0.491293
0.524928 0.524928 0.524928
0.557950 0.557950 0.557950
0.591463 0.591463 0.591463
0.632688 0.632688 0.632688
0.676284 0.676284 0.676284
0.715348 0.715348 0.715348
0.754292 0.754292 0.754292
0.787755 0.787755 0.787755
0.813864 0.813864 0.813864
0.839290 0.839290 0.839290
0.864010 0.864010 0.864010
0.885705 0.885705 0.885705
0.902637 0.902637 0.902637
0.918929 0.918929 0.918929
0.934598 0.934598 0.934598
0.946467 0.946467 0.946467
0.954305 0.954305 0.954305
0.961787 0.961787 0.961787
0.968933 0.968933 0.968933
0.093230 0.093230 0.093230
0.093238 0.093238 0.093238
0.093872 0.093872 0.093872
0.101605 0.101605 0.101605
0.130219 0.130219 0.130219
0.176548 0.176548 0.176548
0.228893 0.228893 0.228893
0.278062 0.278062 0.278062
0.316081 0.316081 0.316081
0.353500 0.353500 0.353500
0.391054 0.391054 0.391054
0.427636 0.427636 0.427636
0.461688 0.461688 0.461688
0.495574 0.495574 0.495574
0.529056 0.529056 0.529056
0.561915 0.561915 0.561915
0.595142 0.595142 0.595142
0.628805 0.628805 0.628805
0.668102 0.668102 0.668102
0.706348 0.706348 0.706348
0.744562 0.744562 0.744562
0.780640 0.780640 0.780640
0.806512 0.806512 0.806512
0.831781 0.831781 0.831781
0.856418 0.856418 0.856418
0.880142 0.880142 0.880142
0.897140 0.897140 0.897140
0.913530 0.913530 0.913530
0.929323 0.929323 0.929323
0.943678 0.943678 0.943678
0.951621 0.951621 0.951621
0.959213 0.959213 0.959213
0.966471 0.966471 0.966471
0.093230 0.093230 0.093230
0.093237 0.093237 0.093237
0.093838 0.093838 0.093838
0.100998 0.100998 0.100998
0.128427 0.128427 0.128427
0.174242 0.174242 0.174242
0.227019 0.227019 0.227019
0.277237 0.277237 0.277237
0.316025 0.316025 0.316025
0.354373 0.354373 0.354373
0.392856 0.392856 0.392856
0.430101 0.430101 0.430101
0.464760 0.464760 0.464760
0.499058 0.499058 0.499058
0.532589 0.532589 0.532589
0.565455 0.565455 0.565455
0.598543 0.598543 0.598543
0.631961 0.631961 0.631961
0.665766 0.665766 0.665766
0.698628 0.698628 0.698628
0.736098 0.736098 0.736098
0.772771 0.772771 0.772771
0.799912 0.799912 0.799912
0.824954 0.824954 0.824954
0.849431 0.849431 0.849431
0.873316 0.873316 0.873316
0.891960 0.891960 0.891960
0.908394 0.908394 0.908394
0.924260 0.924260 0.924260
0.939283 0.939283 0.939283
0.948998 0.948998 0.948998
0.956680 0.956680 0.956680
0.964033 0.964033 0.964033
0.093230 0.093230 0.093230
0.093236 0.093236 0.093236
0.093804 0.093804 0.093804
0.100600 0.100600 0.100600
0.126513 0.126513 0.126513
0.171608 0.171608 0.171608
0.224589 0.224589 0.224589
0.275806 0.275806 0.275806
0.315171 0.315171 0.315171
0.354262 0.354262 0.354262
0.393580 0.393580 0.393580
0.431531 0.431531 0.431531
0.466841 0.466841 0.466841
0.501645 0.501645 0.501645
0.535390 0.535390 0.535390
0.568408 0.568408 0.568408
0.601498 0.601498 0.601498
0.634797 0.634797 0.634797
0.668365 0.668365 0.668365
0.697755 0.697755 0.697755
0.728781 0.728781 0.728781
0.765232 0.765232 0.765232
0.794049 0.794049 0.794049
0.818817 0.818817 0.818817
0.843080 0.843080 0.843080
0.866808 0.866808 0.866808
0.887143 0.887143 0.887143
0.903572 0.903572 0.903572
0.919466 0.919466 0.919466
0.934829 0.934829 0.934829
0.946469 0.946469 0.946469
0.954221 0.954221 0.954221
0.961650 0.961650 0.961650
0.093230 0.093230 0.093230
0.093235 0.093235 0.093235
0.093769 0.093769 0.093769
0.100191 0.100191 0.100191
0.124513 0.124513 0.124513
0.168731 0.168731 0.168731
0.221726 0.221726 0.221726
0.273884 0.273884 0.273884
0.313645 0.313645 0.313645
0.353294 0.353294 0.353294
0.393330 0.393330 0.393330
0.431989 0.431989 0.431989
0.467944 0.467944 0.467944
0.503297 0.503297 0.503297
0.537378 0.537378 0.537378
0.570657 0.570657 0.570657
0.603871 0.603871 0.603871
0.637170 0.637170 0.637170
0.670339 0.670339 0.670339
0.699563 0.699563 0.699563
0.728866 0.728866 0.728866
0.758570 0.758570 0.758570
0.788877 0.788877 0.788877
0.813347 0.813347 0.813347
0.837360 0.837360 0.837360
0.860890 0.860890 0.860890
0.882710 0.882710 0.882710
0.899096 0.899096 0.899096
0.914977 0.914977 0.914977
0.930356 0.930356 0.930356
0.944060 0.944060 0.944060
0.951861 0.951861 0.951861
0.959348 0.959348 0.959348
0.093230 0.093230 0.093230
0.093234 0.093234 0.093234
0.093734 0.093734 0.093734
0.099773 0.099773 0.099773
0.122452 0.122452 0.122452
0.165870 0.165870 0.165870
0.218527 0.218527 0.218527
0.271561 0.271561 0.271561
0.311558 0.311558 0.311558
0.351592 0.351592 0.351592
0.392218 0.392218 0.392218
0.431555 0.431555 0.431555
0.468115 0.468115 0.468115
0.504022 0.504022 0.504022
0.538517 0.538517 0.538517
0.572132 0.572132 0.572132
0.605564 0.605564 0.605564
0.638966 0.638966 0.638966
0.671897 0.671897 0.671897
0.701037 0.701037 0.701037
0.730203 0.730203 0.730203
0.759425 0.759425 0.759425
0.784821 0.784821 0.784821
0.808495 0.808495 0.808495
0.832242 0.832242 0.832242
0.855546 0.855546 0.855546
0.878384 0.878384 0.878384
0.894978 0.894978 0.894978
0.910815 0.910815 0.910815
0.926176 0.926176 0.926176
0.940632 0.940632 0.940632
0.949620 0.949620 0.949620
0.957148 0.957148 0.957148
0.093230 0.093230 0.093230
0.093232 0.093232 0.093232
0.093698 0.093698 0.093698
0.099348 0.099348 0.099348
0.120351 0.120351 0.120351
0.162974 0.162974 0.162974
0.215071 0.215071 0.215071
0.268250 0.268250 0.268250
0.309007 0.309007 0.309007
0.349264 0.349264 0.349264
0.390353 0.390353 0.390353
0.430320 0.430320 0.430320
0.467423 0.467423 0.467423
0.503856 0.503856 0.503856
0.538811 0.538811 0.538811
0.572801 0.572801 0.572801
0.606516 0.606516 0.606516
0.640101 0.640101 0.640101
0.672958 0.672958 0.672958
0.702091 0.702091 0.702091
0.731188 0.731188 0.731188
0.760293 0.760293 0.760293
0.785320 0.785320 0.785320
0.805268 0.805268 0.805268
0.827678 0.827678 0.827678
0.850746 0.850746 0.850746
0.873381 0.873381 0.873381
0.891216 0.891216 0.891216
0.906983 0.906983 0.906983
0.922301 0.922301 0.922301
0.937116 0.937116 0.937116
0.947511 0.947511 0.947511
0.955065 0.955065 0.955065
0.093230 0.093230 0.093230
0.093231 0.093231 0.093231
0.093662 0.093662 0.093662
0.098919 0.098919 0.098919
0.118368 0.118368 0.118368
0.160050 0.160050 0.160050
0.211420 0.211420 0.211420
0.264271 0.264271 0.264271
0.306072 0.306072 0.306072
0.346409 0.346409 0.346409
0.387837 0.387837 0.387837
0.428375 0.428375 0.428375
0.465945 0.465945 0.465945
0.502855 0.502855 0.502855
0.538289 0.538289 0.538289
0.572667 0.572667 0.572667
0.606700 0.606700 0.606700
0.640524 0.640524 0.640524
0.673458 0.673458 0.673458
0.702651 0.702651 0.702651
0.731745 0.731745 0.731745
0.760769 0.760769 0.760769
0.785602 0.785602 0.785602
0.805465 0.805465 0.805465
0.825132 0.825132 0.825132
0.846442 0.846442 0.846442
0.868869 0.868869 0.868869
0.887795 0.887795 0.887795
0.903477 0.903477 0.903477
0.918731 0.918731 0.918731
0.933558 0.933558 0.933558
0.945539 0.945539 0.945539
0.953107 0.953107 0.953107
0.093230 0.093230 0.093230
0.093230 0.093230 0.093230
0.093626 0.093626 0.093626
0.098485 0.098485 0.098485
0.116836 0.116836 0.116836
0.157068 0.157068 0.157068
0.207623 0.207623 0.207623
0.260024 0.260024 0.260024
0.302822 0.302822 0.302822
0.343111 0.343111 0.343111
0.384762 0.384762 0.384762
0.425805 0.425805 0.425805
0.463761 0.463761 0.463761
0.501087 0.501087 0.501087
0.536995 0.536995 0.536995
0.571750 0.571750 0.571750
0.606115 0.606115 0.606115
0.640209 0.640209 0.640209
0.673360 0.673360 0.673360
0.702667 0.702667 0.702667
0.731816 0.731816 0.731816
0.760837 0.760837 0.760837
0.785623 0.785623 0.785623
0.805435 0.805435 0.805435
0.825036 0.825036 0.825036
0.844440 0.844440 0.844440
0.864802 0.864802 0.864802
0.884693 0.884693 0.884693
0.900278 0.900278 0.900278
0.915457 0.915457 0.915457
0.930227 0.930227 0.930227
0.943707 0.943707 0.943707
0.951277 0.951277 0.951277
0.093230 0.093230 0.093230
0.093230 0.093230 0.093230
0.093589 0.093589 0.093589
0.098047 0.098047 0.098047
0.115294 0.115294 0.115294
0.154048 0.154048 0.154048
0.203721 0.203721 0.203721
0.255570 0.255570 0.255570
0.299314 0.299314 0.299314
0.339485 0.339485 0.339485
0.381211 0.381211 0.381211
0.422626 0.422626 0.422626
0.460949 0.460949 0.460949
0.498621 0.498621 0.498621
0.534985 0.534985 0.534985
0.570091 0.570091 0.570091
0.604780 0.604780 0.604780
0.639157 0.639157 0.639157
0.672648 0.672648 0.672648
0.702107 0.702107 0.702107
0.731355 0.731355 0.731355
0.760449 0.760449 0.760449
0.785345 0.785345 0.785345
0.805139 0.805139 0.805139
0.824704 0.824704 0.824704
0.844059 0.844059 0.844059
0.863217 0.863217 0.863217
0.881878 0.881878 0.881878
0.897365 0.897365 0.897365
0.912460 0.912460 0.912460
0.927164 0.927164 0.927164
0.941005 0.941005 0.941005
0.949576 0.949576 0.949576
0.093230 0.093230 0.093230
0.093230 0.093230 0.093230
0.093552 0.093552 0.093552
0.097607 0.097607 0.097607
0.113744 0.113744 0.113744
0.151008 0.151008 0.151008
0.199601 0.199601 0.199601
0.250959 0.250959 0.250959
0.295597 0.295597 0.295597
0.335696 0.335696 0.335696
0.377256 0.377256 0.377256
0.418796 0.418796 0.418796
0.457583 0.457583 0.457583
0.495530 0.495530 0.495530
0.532319 0.532319 0.532319
0.567738 0.567738 0.567738
0.602730 0.602730 0.602730
0.637385 0.637385 0.637385
0.671319 0.671319 0.671319
0.700956 0.700956 0.700956
0.730337 0.730337 0.730337
0.759531 0.759531 0.759531
0.784738 0.784738 0.784738
0.804546 0.804546 0.804546
0.824103 0.824103 0.824103
0.843435 0.843435 0.843435
0.862559 0.862559 0.862559
0.880938 0.880938 0.880938
0.894710 0.894710 0.894710
0.909720 0.909720 0.909720
0.924352 0.924352 0.924352
0.938415 0.938415 0.938415
0.947998 0.947998 0.947998
0.093230 0.093230 0.093230
0.093230 0.093230 0.093230
0.093523 0.093523 0.093523
0.097164 0.097164 0.097164
0.112193 0.112193 0.112193
0.147961 0.147961 0.147961
0.195327 0.195327 0.195327
0.246231 0.246231 0.246231
0.291710 0.291710 0.291710
0.331663 0.331663 0.331663
0.372961 0.372961 0.372961
0.414536 0.414536 0.414536
0.453734 0.453734 0.453734
0.491882 0.491882 0.491882
0.529058 0.529058 0.529058
0.564743 0.564743 0.564743
0.600006 0.600006 0.600006
0.634922 0.634922 0.634922
0.669386 0.669386 0.669386
0.699214 0.699214 0.699214
0.728749 0.728749 0.728749
0.758060 0.758060 0.758060
0.783781 0.783781 0.783781
0.803630 0.803630 0.803630
0.823207 0.823207 0.823207
0.842540 0.842540 0.842540
0.861652 0.861652 0.861652
0.880259 0.880259 0.880259
0.893912 0.893912 0.893912
0.907353 0.907353 0.907353
0.921770 0.921770 0.921770
0.935964 0.935964 0.935964
0.946538 0.946538 0.946538
0.093230 0.093230 0.093230
0.093230 0.093230 0.093230
0.093499 0.093499 0.093499
0.096719 0.096719 0.096719
0.110641 0.110641 0.110641
0.144916 0.144916 0.144916
0.191030 0.191030 0.191030
0.241421 0.241421 0.241421
0.287688 0.287688 0.287688
0.327429 0.327429 0.327429
0.368382 0.368382 0.368382
0.409910 0.409910 0.409910
0.449463 0.449463 0.449463
0.487741 0.487741 0.487741
0.525263 0.525263 0.525263
0.561163 0.561163 0.561163
0.596658 0.596658 0.596658
0.631806 0.631806 0.631806
0.666676 0.666676 0.666676
0.696892 0.696892 0.696892
0.726592 0.726592 0.726592
0.756037 0.756037 0.756037
0.782461 0.782461 0.782461
0.802374 0.802374 0.802374
0.821993 0.821993 0.821993
