trix_modern/TriX_Red25_ExtraPunchy.cube
TITLE "Tri-X Red25 ExtraPunchy"
# Adobe RGB in/out. REPLACES AgX. R=0.9735 G=0.0265 B=0.0000
LUT_3D_SIZE 33
DOMAIN_MIN 0.0 0.0 0.0
DOMAIN_MAX 1.0 1.0 1.0
0.092237 0.092237 0.092237
0.092237 0.092237 0.092237
0.092237 0.092237 0.092237
0.092237 0.092237 0.092237
0.092237 0.092237 0.092237
0.092237 0.092237 0.092237
0.092237 0.092237 0.092237
0.092237 0.092237 0.092237
0.092237 0.092237 0.092237
0.092237 0.092237 0.092237
0.092237 0.092237 0.092237
0.092237 0.092237 0.092237
0.092237 0.092237 0.092237
0.092237 0.092237 0.092237
0.092237 0.092237 0.092237
0.092237 0.092237 0.092237
0.092237 0.092237 0.092237
0.092237 0.092237 0.092237
0.092237 0.092237 0.092237
0.092237 0.092237 0.092237
0.092237 0.092237 0.092237
0.092237 0.092237 0.092237
0.092237 0.092237 0.092237
0.092237 0.092237 0.092237
0.092237 0.092237 0.092237
0.092237 0.092237 0.092237
0.092237 0.092237 0.092237
0.092237 0.092237 0.092237
0.092237 0.092237 0.092237
0.092237 0.092237 0.092237
0.092237 0.092237 0.092237
0.092237 0.092237 0.092237
0.092237 0.092237 0.092237
0.092237 0.092237 0.092237
0.092237 0.092237 0.092237
0.092237 0.092237 0.092237
0.092516 0.092516 0.092516
0.095953 0.095953 0.095953
0.115321 0.115321 0.115321
0.168015 0.168015 0.168015
0.232735 0.232735 0.232735
0.306788 0.306788 0.306788
0.385808 0.385808 0.385808
0.471041 0.471041 0.471041
0.559222 0.559222 0.559222
0.647712 0.647712 0.647712
0.726202 0.726202 0.726202
0.783890 0.783890 0.783890
0.828017 0.828017 0.828017
0.863745 0.863745 0.863745
0.891519 0.891519 0.891519
0.915157 0.915157 0.915157
0.932030 0.932030 0.932030
0.947939 0.947939 0.947939
0.960051 0.960051 0.960051
0.967931 0.967931 0.967931
0.975422 0.975422 0.975422
0.980345 0.980345 0.980345
0.982820 0.982820 0.982820
0.985163 0.985163 0.985163
0.987183 0.987183 0.987183
0.989106 0.989106 0.989106
0.990938 0.990938 0.990938
0.991594 0.991594 0.991594
0.992084 0.992084 0.992084
0.992552 0.992552 0.992552
0.092237 0.092237 0.092237
0.092237 0.092237 0.092237
0.092237 0.092237 0.092237
0.092237 0.092237 0.092237
0.093837 0.093837 0.093837
0.105807 0.105807 0.105807
0.150922 0.150922 0.150922
0.217345 0.217345 0.217345
0.295497 0.295497 0.295497
0.378310 0.378310 0.378310
0.467679 0.467679 0.467679
0.560089 0.560089 0.560089
0.651972 0.651972 0.651972
0.731810 0.731810 0.731810
0.791725 0.791725 0.791725
0.834420 0.834420 0.834420
0.871242 0.871242 0.871242
0.897609 0.897609 0.897609
0.920243 0.920243 0.920243
0.937357 0.937357 0.937357
0.953586 0.953586 0.953586
0.963288 0.963288 0.963288
0.971290 0.971290 0.971290
0.978891 0.978891 0.978891
0.981645 0.981645 0.981645
0.984146 0.984146 0.984146
0.986382 0.986382 0.986382
0.988420 0.988420 0.988420
0.990360 0.990360 0.990360
0.991454 0.991454 0.991454
0.991971 0.991971 0.991971
0.992464 0.992464 0.992464
0.992935 0.992935 0.992935
0.092237 0.092237 0.092237
0.092237 0.092237 0.092237
0.092237 0.092237 0.092237
0.092237 0.092237 0.092237
0.092764 0.092764 0.092764
0.098575 0.098575 0.098575
0.128516 0.128516 0.128516
0.190030 0.190030 0.190030
0.267837 0.267837 0.267837
0.352521 0.352521 0.352521
0.443914 0.443914 0.443914
0.540006 0.540006 0.540006
0.636520 0.636520 0.636520
0.722302 0.722302 0.722302
0.785112 0.785112 0.785112
0.831457 0.831457 0.831457
0.869529 0.869529 0.869529
0.897181 0.897181 0.897181
0.920457 0.920457 0.920457
0.938038 0.938038 0.938038
0.954681 0.954681 0.954681
0.964089 0.964089 0.964089
0.972268 0.972268 0.972268
0.979420 0.979420 0.979420
0.982107 0.982107 0.982107
0.984651 0.984651 0.984651
0.986872 0.986872 0.986872
0.988941 0.988941 0.988941
0.990907 0.990907 0.990907
0.991622 0.991622 0.991622
0.992145 0.992145 0.992145
0.992644 0.992644 0.992644
0.993119 0.993119 0.993119
0.092237 0.092237 0.092237
0.092237 0.092237 0.092237
0.092237 0.092237 0.092237
0.092237 0.092237 0.092237
0.092856 0.092856 0.092856
0.096076 0.096076 0.096076
0.113598 0.113598 0.113598
0.164962 0.164962 0.164962
0.236634 0.236634 0.236634
0.320207 0.320207 0.320207
0.410677 0.410677 0.410677
0.508349 0.508349 0.508349
0.606355 0.606355 0.606355
0.698207 0.698207 0.698207
0.769417 0.769417 0.769417
0.822548 0.822548 0.822548
0.861999 0.861999 0.861999
0.892675 0.892675 0.892675
0.917736 0.917736 0.917736
0.935896 0.935896 0.935896
0.953062 0.953062 0.953062
0.963466 0.963466 0.963466
0.971877 0.971877 0.971877
0.979353 0.979353 0.979353
0.982106 0.982106 0.982106
0.984709 0.984709 0.984709
0.986972 0.986972 0.986972
0.989082 0.989082 0.989082
0.991086 0.991086 0.991086
0.991684 0.991684 0.991684
0.992216 0.992216 0.992216
0.992723 0.992723 0.992723
0.993205 0.993205 0.993205
0.092237 0.092237 0.092237
0.092237 0.092237 0.092237
0.092237 0.092237 0.092237
0.092558 0.092558 0.092558
0.093916 0.093916 0.093916
0.097286 0.097286 0.097286
0.107819 0.107819 0.107819
0.147645 0.147645 0.147645
0.210917 0.210917 0.210917
0.289836 0.289836 0.289836
0.376060 0.376060 0.376060
0.471141 0.471141 0.471141
0.570248 0.570248 0.570248
0.667380 0.667380 0.667380
0.747975 0.747975 0.747975
0.809581 0.809581 0.809581
0.850369 0.850369 0.850369
0.885170 0.885170 0.885170
0.911914 0.911914 0.911914
0.931665 0.931665 0.931665
0.949437 0.949437 0.949437
0.961790 0.961790 0.961790
0.970480 0.970480 0.970480
0.978689 0.978689 0.978689
0.981769 0.981769 0.981769
0.984445 0.984445 0.984445
0.986792 0.986792 0.986792
0.988956 0.988956 0.988956
0.991007 0.991007 0.991007
0.991673 0.991673 0.991673
0.992217 0.992217 0.992217
0.992734 0.992734 0.992734
0.993226 0.993226 0.993226
0.092237 0.092237 0.092237
0.092237 0.092237 0.092237
0.092237 0.092237 0.092237
0.092740 0.092740 0.092740
0.094863 0.094863 0.094863
0.100864 0.100864 0.100864
0.113000 0.113000 0.113000
0.138105 0.138105 0.138105
0.193429 0.193429 0.193429
0.264654 0.264654 0.264654
0.345660 0.345660 0.345660
0.435924 0.435924 0.435924
0.533611 0.533611 0.533611
0.633151 0.633151 0.633151
0.723175 0.723175 0.723175
0.788914 0.788914 0.788914
0.836049 0.836049 0.836049
0.875076 0.875076 0.875076
0.903258 0.903258 0.903258
0.925875 0.925875 0.925875
0.944286 0.944286 0.944286
0.959299 0.959299 0.959299
0.968296 0.968296 0.968296
0.976783 0.976783 0.976783
0.981165 0.981165 0.981165
0.983926 0.983926 0.983926
0.986393 0.986393 0.986393
0.988618 0.988618 0.988618
0.990725 0.990725 0.990725
0.991606 0.991606 0.991606
0.992163 0.992163 0.992163
0.992692 0.992692 0.992692
0.993194 0.993194 0.993194
0.092237 0.092237 0.092237
0.092237 0.092237 0.092237
0.092237 0.092237 0.092237
0.092824 0.092824 0.092824
0.096106 0.096106 0.096106
0.103965 0.103965 0.103965
0.121554 0.121554 0.121554
0.149269 0.149269 0.149269
0.185441 0.185441 0.185441
0.246643 0.246643 0.246643
0.321788 0.321788 0.321788
0.405974 0.405974 0.405974
0.499418 0.499418 0.499418
0.596093 0.596093 0.596093
0.689474 0.689474 0.689474
0.764169 0.764169 0.764169
0.820307 0.820307 0.820307
0.861201 0.861201 0.861201
0.893205 0.893205 0.893205
0.918996 0.918996 0.918996
0.938024 0.938024 0.938024
0.956036 0.956036 0.956036
0.965504 0.965504 0.965504
0.974281 0.974281 0.974281
0.980350 0.980350 0.980350
0.983203 0.983203 0.983203
0.985815 0.985815 0.985815
0.988109 0.988109 0.988109
0.990278 0.990278 0.990278
0.991491 0.991491 0.991491
0.992063 0.992063 0.992063
0.992606 0.992606 0.992606
0.993121 0.993121 0.993121
0.092237 0.092237 0.092237
0.092237 0.092237 0.092237
0.092237 0.092237 0.092237
0.092885 0.092885 0.092885
0.096871 0.096871 0.096871
0.107434 0.107434 0.107434
0.129829 0.129829 0.129829
0.160718 0.160718 0.160718
0.197330 0.197330 0.197330
0.240664 0.240664 0.240664
0.304298 0.304298 0.304298
0.382089 0.382089 0.382089
0.469586 0.469586 0.469586
0.563139 0.563139 0.563139
0.657947 0.657947 0.657947
0.739889 0.739889 0.739889
0.804189 0.804189 0.804189
0.845579 0.845579 0.845579
0.882236 0.882236 0.882236
0.910047 0.910047 0.910047
0.931037 0.931037 0.931037
0.949579 0.949579 0.949579
0.962269 0.962269 0.962269
0.971332 0.971332 0.971332
0.979369 0.979369 0.979369
0.982317 0.982317 0.982317
0.985094 0.985094 0.985094
0.987459 0.987459 0.987459
0.989695 0.989695 0.989695
0.991337 0.991337 0.991337
0.991926 0.991926 0.991926
0.992484 0.992484 0.992484
0.993014 0.993014 0.993014
0.092237 0.092237 0.092237
0.092237 0.092237 0.092237
0.092237 0.092237 0.092237
0.092935 0.092935 0.092935
0.097303 0.097303 0.097303
0.110060 0.110060 0.110060
0.136287 0.136287 0.136287
0.170791 0.170791 0.170791
0.209188 0.209188 0.209188
0.252971 0.252971 0.252971
0.301086 0.301086 0.301086
0.363992 0.363992 0.363992
0.445701 0.445701 0.445701
0.535216 0.535216 0.535216
0.628147 0.628147 0.628147
0.714528 0.714528 0.714528
0.780668 0.780668 0.780668
0.830183 0.830183 0.830183
0.870430 0.870430 0.870430
0.899621 0.899621 0.899621
0.923681 0.923681 0.923681
0.942672 0.942672 0.942672
0.958745 0.958745 0.958745
0.968073 0.968073 0.968073
0.976878 0.976878 0.976878
0.981310 0.981310 0.981310
0.984173 0.984173 0.984173
0.986700 0.986700 0.986700
0.989003 0.989003 0.989003
0.991152 0.991152 0.991152
0.991758 0.991758 0.991758
0.992332 0.992332 0.992332
0.992876 0.992876 0.992876
0.092237 0.092237 0.092237
0.092237 0.092237 0.092237
0.092237 0.092237 0.092237
0.092926 0.092926 0.092926
0.097501 0.097501 0.097501
0.112056 0.112056 0.112056
0.141304 0.141304 0.141304
0.178902 0.178902 0.178902
0.219686 0.219686 0.219686
0.264675 0.264675 0.264675
0.312338 0.312338 0.312338
0.363394 0.363394 0.363394
0.427110 0.427110 0.427110
0.512378 0.512378 0.512378
0.600510 0.600510 0.600510
0.687352 0.687352 0.687352
0.759278 0.759278 0.759278
0.815682 0.815682 0.815682
0.855919 0.855919 0.855919
0.889329 0.889329 0.889329
0.916269 0.916269 0.916269
0.935601 0.935601 0.935601
0.953998 0.953998 0.953998
0.964633 0.964633 0.964633
0.973665 0.973665 0.973665
0.980219 0.980219 0.980219
0.983164 0.983164 0.983164
0.985860 0.985860 0.985860
0.988229 0.988229 0.988229
0.990469 0.990469 0.990469
0.991566 0.991566 0.991566
0.992156 0.992156 0.992156
0.992715 0.992715 0.992715
0.092237 0.092237 0.092237
0.092237 0.092237 0.092237
0.092237 0.092237 0.092237
0.092876 0.092876 0.092876
0.097536 0.097536 0.097536
0.113098 0.113098 0.113098
0.144978 0.144978 0.144978
0.184928 0.184928 0.184928
0.228235 0.228235 0.228235
0.274961 0.274961 0.274961
0.322857 0.322857 0.322857
0.373988 0.373988 0.373988
0.429199 0.429199 0.429199
0.493183 0.493183 0.493183
0.577995 0.577995 0.577995
0.664456 0.664456 0.664456
0.740532 0.740532 0.740532
0.801587 0.801587 0.801587
0.842436 0.842436 0.842436
0.879152 0.879152 0.879152
0.906834 0.906834 0.906834
0.928616 0.928616 0.928616
0.947274 0.947274 0.947274
0.961130 0.961130 0.961130
0.970354 0.970354 0.970354
0.979079 0.979079 0.979079
0.982100 0.982100 0.982100
0.984950 0.984950 0.984950
0.987395 0.987395 0.987395
0.989695 0.989695 0.989695
0.991355 0.991355 0.991355
0.991961 0.991961 0.991961
0.992535 0.992535 0.992535
0.092237 0.092237 0.092237
0.092237 0.092237 0.092237
0.092237 0.092237 0.092237
0.092840 0.092840 0.092840
0.097452 0.097452 0.097452
0.113407 0.113407 0.113407
0.147025 0.147025 0.147025
0.188995 0.188995 0.188995
0.234662 0.234662 0.234662
0.283357 0.283357 0.283357
0.332057 0.332057 0.332057
0.383884 0.383884 0.383884
0.439149 0.439149 0.439149
0.498490 0.498490 0.498490
0.560100 0.560100 0.560100
0.645644 0.645644 0.645644
0.724417 0.724417 0.724417
0.784021 0.784021 0.784021
0.830280 0.830280 0.830280
0.868933 0.868933 0.868933
0.897742 0.897742 0.897742
0.921915 0.921915 0.921915
0.940729 0.940729 0.940729
0.957664 0.957664 0.957664
0.967039 0.967039 0.967039
0.975933 0.975933 0.975933
0.981009 0.981009 0.981009
0.983924 0.983924 0.983924
0.986526 0.986526 0.986526
0.988880 0.988880 0.988880
0.991110 0.991110 0.991110
0.991753 0.991753 0.991753
0.992341 0.992341 0.992341
0.092237 0.092237 0.092237
0.092237 0.092237 0.092237
0.092237 0.092237 0.092237
0.092811 0.092811 0.092811
0.097283 0.097283 0.097283
0.113165 0.113165 0.113165
0.147758 0.147758 0.147758
0.191356 0.191356 0.191356
0.239117 0.239117 0.239117
0.289541 0.289541 0.289541
0.339802 0.339802 0.339802
0.392797 0.392797 0.392797
0.448598 0.448598 0.448598
0.508072 0.508072 0.508072
0.568148 0.568148 0.568148
0.631415 0.631415 0.631415
0.706235 0.706235 0.706235
0.769008 0.769008 0.769008
0.819582 0.819582 0.819582
0.857689 0.857689 0.857689
0.889395 0.889395 0.889395
0.915645 0.915645 0.915645
0.934513 0.934513 0.934513
0.952618 0.952618 0.952618
0.963799 0.963799 0.963799
0.972814 0.972814 0.972814
0.979918 0.979918 0.979918
0.982888 0.982888 0.982888
0.985640 0.985640 0.985640
0.988044 0.988044 0.988044
0.990323 0.990323 0.990323
0.991535 0.991535 0.991535
0.992137 0.992137 0.992137
0.092237 0.092237 0.092237
0.092237 0.092237 0.092237
0.092237 0.092237 0.092237
0.092779 0.092779 0.092779
0.097056 0.097056 0.097056
0.112541 0.112541 0.112541
0.147524 0.147524 0.147524
0.192371 0.192371 0.192371
0.241881 0.241881 0.241881
0.293942 0.293942 0.293942
0.345897 0.345897 0.345897
0.400309 0.400309 0.400309
0.457021 0.457021 0.457021
0.516846 0.516846 0.516846
0.576577 0.576577 0.576577
0.639562 0.639562 0.639562
0.696502 0.696502 0.696502
0.756372 0.756372 0.756372
0.810339 0.810339 0.810339
0.847788 0.847788 0.847788
0.881651 0.881651 0.881651
0.907955 0.907955 0.907955
0.928733 0.928733 0.928733
0.946860 0.946860 0.946860
0.960700 0.960700 0.960700
0.969797 0.969797 0.969797
0.978465 0.978465 0.978465
0.981864 0.981864 0.981864
0.984722 0.984722 0.984722
0.987204 0.987204 0.987204
0.989525 0.989525 0.989525
0.991313 0.991313 0.991313
0.991928 0.991928 0.991928
0.092237 0.092237 0.092237
0.092237 0.092237 0.092237
0.092237 0.092237 0.092237
0.092744 0.092744 0.092744
0.096789 0.096789 0.096789
0.111634 0.111634 0.111634
0.146531 0.146531 0.146531
0.192258 0.192258 0.192258
0.243126 0.243126 0.243126
0.296677 0.296677 0.296677
0.350256 0.350256 0.350256
0.406131 0.406131 0.406131
0.464038 0.464038 0.464038
0.524238 0.524238 0.524238
0.584303 0.584303 0.584303
0.646424 0.646424 0.646424
0.702818 0.702818 0.702818
0.751434 0.751434 0.751434
0.801488 0.801488 0.801488
0.839197 0.839197 0.839197
0.874623 0.874623 0.874623
0.901037 0.901037 0.901037
0.923453 0.923453 0.923453
0.941528 0.941528 0.941528
0.957788 0.957788 0.957788
0.966930 0.966930 0.966930
0.975660 0.975660 0.975660
0.980870 0.980870 0.980870
0.983764 0.983764 0.983764
0.986374 0.986374 0.986374
0.988732 0.988732 0.988732
0.990972 0.990972 0.990972
0.991717 0.991717 0.991717
0.092237 0.092237 0.092237
0.092237 0.092237 0.092237
0.092237 0.092237 0.092237
0.092707 0.092707 0.092707
0.096491 0.096491 0.096491
0.110513 0.110513 0.110513
0.144942 0.144942 0.144942
0.191214 0.191214 0.191214
0.243047 0.243047 0.243047
0.297884 0.297884 0.297884
0.352915 0.352915 0.352915
0.410212 0.410212 0.410212
0.469424 0.469424 0.469424
0.530283 0.530283 0.530283
0.590949 0.590949 0.590949
0.652361 0.652361 0.652361
0.708673 0.708673 0.708673
0.755447 0.755447 0.755447
0.798507 0.798507 0.798507
0.831810 0.831810 0.831810
0.867516 0.867516 0.867516
0.894902 0.894902 0.894902
0.918698 0.918698 0.918698
0.936665 0.936665 0.936665
0.954032 0.954032 0.954032
0.964247 0.964247 0.964247
0.973009 0.973009 0.973009
0.979920 0.979920 0.979920
0.982841 0.982841 0.982841
0.985568 0.985568 0.985568
0.987955 0.987955 0.987955
0.990226 0.990226 0.990226
0.991507 0.991507 0.991507
0.092237 0.092237 0.092237
0.092237 0.092237 0.092237
0.092237 0.092237 0.092237
0.092669 0.092669 0.092669
0.096169 0.096169 0.096169
0.109314 0.109314 0.109314
0.142888 0.142888 0.142888
0.189411 0.189411 0.189411
0.241845 0.241845 0.241845
0.297729 0.297729 0.297729
0.353984 0.353984 0.353984
0.412588 0.412588 0.412588
0.473087 0.473087 0.473087
0.534790 0.534790 0.534790
0.596241 0.596241 0.596241
0.657327 0.657327 0.657327
0.713772 0.713772 0.713772
0.759053 0.759053 0.759053
0.801860 0.801860 0.801860
0.830974 0.830974 0.830974
0.860572 0.860572 0.860572
0.889511 0.889511 0.889511
0.914067 0.914067 0.914067
0.932281 0.932281 0.932281
0.949544 0.949544 0.949544
0.961769 0.961769 0.961769
0.970536 0.970536 0.970536
0.978941 0.978941 0.978941
0.981963 0.981963 0.981963
0.984763 0.984763 0.984763
0.987205 0.987205 0.987205
0.989500 0.989500 0.989500
0.991301 0.991301 0.991301
0.092237 0.092237 0.092237
0.092237 0.092237 0.092237
0.092237 0.092237 0.092237
0.092629 0.092629 0.092629
0.095828 0.095828 0.095828
0.108176 0.108176 0.108176
0.140478 0.140478 0.140478
0.186999 0.186999 0.186999
0.239704 0.239704 0.239704
0.296393 0.296393 0.296393
0.353615 0.353615 0.353615
0.413349 0.413349 0.413349
0.475032 0.475032 0.475032
0.537677 0.537677 0.537677
0.600006 0.600006 0.600006
0.661117 0.661117 0.661117
0.717876 0.717876 0.717876
0.762073 0.762073 0.762073
0.804604 0.804604 0.804604
0.832705 0.832705 0.832705
0.860653 0.860653 0.860653
0.884729 0.884729 0.884729
0.909045 0.909045 0.909045
0.928363 0.928363 0.928363
0.945491 0.945491 0.945491
0.959505 0.959505 0.959505
0.968255 0.968255 0.968255
0.976659 0.976659 0.976659
0.981137 0.981137 0.981137
0.983952 0.983952 0.983952
0.986488 0.986488 0.986488
0.988803 0.988803 0.988803
0.991012 0.991012 0.991012
0.092237 0.092237 0.092237
0.092237 0.092237 0.092237
0.092237 0.092237 0.092237
0.092589 0.092589 0.092589
0.095473 0.095473 0.095473
0.107036 0.107036 0.107036
0.138023 0.138023 0.138023
0.184104 0.184104 0.184104
0.236791 0.236791 0.236791
0.294048 0.294048 0.294048
0.351973 0.351973 0.351973
0.412627 0.412627 0.412627
0.475335 0.475335 0.475335
0.538944 0.538944 0.538944
0.602170 0.602170 0.602170
0.663606 0.663606 0.663606
0.720808 0.720808 0.720808
0.764358 0.764358 0.764358
0.806109 0.806109 0.806109
0.834117 0.834117 0.834117
0.861923 0.861923 0.861923
0.885344 0.885344 0.885344
0.905104 0.905104 0.905104
0.924879 0.924879 0.924879
0.941856 0.941856 0.941856
0.957452 0.957452 0.957452
0.966168 0.966168 0.966168
0.974555 0.974555 0.974555
0.980369 0.980369 0.980369
0.983191 0.983191 0.983191
0.985811 0.985811 0.985811
0.988139 0.988139 0.988139
0.990364 0.990364 0.990364
0.092237 0.092237 0.092237
0.092237 0.092237 0.092237
0.092237 0.092237 0.092237
0.092547 0.092547 0.092547
0.095106 0.095106 0.095106
0.105842 0.105842 0.105842
0.135624 0.135624 0.135624
0.180844 0.180844 0.180844
0.233252 0.233252 0.233252
0.290854 0.290854 0.290854
0.349225 0.349225 0.349225
0.410576 0.410576 0.410576
0.474113 0.474113 0.474113
0.538654 0.538654 0.538654
0.602729 0.602729 0.602729
0.664738 0.664738 0.664738
0.722459 0.722459 0.722459
0.765803 0.765803 0.765803
0.807132 0.807132 0.807132
0.835125 0.835125 0.835125
0.862858 0.862858 0.862858
0.885968 0.885968 0.885968
0.905589 0.905589 0.905589
0.922558 0.922558 0.922558
0.938607 0.938607 0.938607
0.954960 0.954960 0.954960
0.964272 0.964272 0.964272
0.972628 0.972628 0.972628
0.979659 0.979659 0.979659
0.982483 0.982483 0.982483
0.985177 0.985177 0.985177
0.987514 0.987514 0.987514
0.989750 0.989750 0.989750
0.092237 0.092237 0.092237
0.092237 0.092237 0.092237
0.092237 0.092237 0.092237
0.092505 0.092505 0.092505
0.094729 0.094729 0.094729
0.104604 0.104604 0.104604
0.133093 0.133093 0.133093
0.177296 0.177296 0.177296
0.229210 0.229210 0.229210
0.286954 0.286954 0.286954
0.345531 0.345531 0.345531
0.407352 0.407352 0.407352
0.471508 0.471508 0.471508
0.536904 0.536904 0.536904
0.601736 0.601736 0.601736
0.664510 0.664510 0.664510
0.722778 0.722778 0.722778
0.766340 0.766340 0.766340
0.807615 0.807615 0.807615
0.835661 0.835661 0.835661
0.863387 0.863387 0.863387
0.886309 0.886309 0.886309
0.905863 0.905863 0.905863
0.922700 0.922700 0.922700
0.936792 0.936792 0.936792
0.951921 0.951921 0.951921
0.962555 0.962555 0.962555
0.970872 0.970872 0.970872
0.978892 0.978892 0.978892
0.981828 0.981828 0.981828
0.984533 0.984533 0.984533
0.986928 0.986928 0.986928
0.989171 0.989171 0.989171
0.092237 0.092237 0.092237
0.092237 0.092237 0.092237
0.092237 0.092237 0.092237
0.092463 0.092463 0.092463
0.094461 0.094461 0.094461
0.103655 0.103655 0.103655
0.130466 0.130466 0.130466
0.173527 0.173527 0.173527
0.224771 0.224771 0.224771
0.282360 0.282360 0.282360
0.341037 0.341037 0.341037
0.403110 0.403110 0.403110
0.467669 0.467669 0.467669
0.533817 0.533817 0.533817
0.599280 0.599280 0.599280
0.662962 0.662962 0.662962
0.721763 0.721763 0.721763
0.765940 0.765940 0.765940
0.807521 0.807521 0.807521
0.835677 0.835677 0.835677
0.863454 0.863454 0.863454
0.886358 0.886358 0.886358
0.905883 0.905883 0.905883
0.922678 0.922678 0.922678
0.936723 0.936723 0.936723
0.950506 0.950506 0.950506
0.961003 0.961003 0.961003
0.969276 0.969276 0.969276
0.977262 0.977262 0.977262
0.981226 0.981226 0.981226
0.983928 0.983928 0.983928
0.986383 0.986383 0.986383
0.988630 0.988630 0.988630
0.092237 0.092237 0.092237
0.092237 0.092237 0.092237
0.092237 0.092237 0.092237
0.092420 0.092420 0.092420
0.094309 0.094309 0.094309
0.102847 0.102847 0.102847
0.127771 0.127771 0.127771
0.169597 0.169597 0.169597
0.220025 0.220025 0.220025
0.277112 0.277112 0.277112
0.335877 0.335877 0.335877
0.397954 0.397954 0.397954
0.462746 0.462746 0.462746
0.529524 0.529524 0.529524
0.595473 0.595473 0.595473
0.660163 0.660163 0.660163
0.719451 0.719451 0.719451
0.764601 0.764601 0.764601
0.806833 0.806833 0.806833
0.835141 0.835141 0.835141
0.863017 0.863017 0.863017
0.886080 0.886080 0.886080
0.905613 0.905613 0.905613
0.922465 0.922465 0.922465
0.936487 0.936487 0.936487
0.950236 0.950236 0.950236
0.960397 0.960397 0.960397
0.967826 0.967826 0.967826
0.975775 0.975775 0.975775
0.980673 0.980673 0.980673
0.983371 0.983371 0.983371
0.985878 0.985878 0.985878
0.988126 0.988126 0.988126
0.092237 0.092237 0.092237
0.092237 0.092237 0.092237
0.092237 0.092237 0.092237
0.092376 0.092376 0.092376
0.094154 0.094154 0.094154
0.102025 0.102025 0.102025
0.125031 0.125031 0.125031
0.165551 0.165551 0.165551
0.215046 0.215046 0.215046
0.271472 0.271472 0.271472
0.330166 0.330166 0.330166
0.392042 0.392042 0.392042
0.456885 0.456885 0.456885
0.524162 0.524162 0.524162
0.590439 0.590439 0.590439
0.656199 0.656199 0.656199
0.715902 0.715902 0.715902
0.762346 0.762346 0.762346
0.805550 0.805550 0.805550
0.834039 0.834039 0.834039
0.862050 0.862050 0.862050
0.885420 0.885420 0.885420
0.905023 0.905023 0.905023
0.922038 0.922038 0.922038
0.936058 0.936058 0.936058
0.949795 0.949795 0.949795
0.960145 0.960145 0.960145
0.967341 0.967341 0.967341
0.974417 0.974417 0.974417
0.980166 0.980166 0.980166
0.982858 0.982858 0.982858
0.985412 0.985412 0.985412
0.987658 0.987658 0.987658
0.092237 0.092237 0.092237
0.092237 0.092237 0.092237
0.092237 0.092237 0.092237
0.092332 0.092332 0.092332
0.093997 0.093997 0.093997
0.101191 0.101191 0.101191
0.122263 0.122263 0.122263
0.161428 0.161428 0.161428
0.209894 0.209894 0.209894
0.265528 0.265528 0.265528
0.324008 0.324008 0.324008
0.385506 0.385506 0.385506
0.450219 0.450219 0.450219
0.517860 0.517860 0.517860
0.584306 0.584306 0.584306
0.651166 0.651166 0.651166
0.711197 0.711197 0.711197
0.759213 0.759213 0.759213
0.803360 0.803360 0.803360
0.832371 0.832371 0.832371
0.860542 0.860542 0.860542
0.884363 0.884363 0.884363
0.904092 0.904092 0.904092
0.921378 0.921378 0.921378
0.935418 0.935418 0.935418
0.949162 0.949162 0.949162
0.959797 0.959797 0.959797
0.966990 0.966990 0.966990
0.974009 0.974009 0.974009
0.979727 0.979727 0.979727
0.982385 0.982385 0.982385
0.984969 0.984969 0.984969
0.987225 0.987225 0.987225
0.092237 0.092237 0.092237
0.092237 0.092237 0.092237
0.092237 0.092237 0.092237
0.092288 0.092288 0.092288
0.093838 0.093838 0.093838
0.100347 0.100347 0.100347
0.119482 0.119482 0.119482
0.157260 0.157260 0.157260
0.204623 0.204623 0.204623
0.259353 0.259353 0.259353
0.317492 0.317492 0.317492
0.378457 0.378457 0.378457
0.442872 0.442872 0.442872
0.510540 0.510540 0.510540
0.577201 0.577201 0.577201
0.645165 0.645165 0.645165
0.705425 0.705425 0.705425
0.755250 0.755250 0.755250
0.799668 0.799668 0.799668
0.830147 0.830147 0.830147
0.858493 0.858493 0.858493
0.882908 0.882908 0.882908
0.902808 0.902808 0.902808
0.920473 0.920473 0.920473
0.934551 0.934551 0.934551
