trix_modern/TriX_NoFilter_Hard.cube
TITLE "Tri-X NoFilter Hard"
# Adobe RGB in/out. REPLACES AgX. Tri-X NoFilter Hard.
LUT_3D_SIZE 9
DOMAIN_MIN 0.0 0.0 0.0
DOMAIN_MAX 1.0 1.0 1.0
0.093024 0.093024 0.093024
0.093079 0.093079 0.093079
0.093537 0.093537 0.093537
0.098565 0.098565 0.098565
0.176426 0.176426 0.176426
0.409882 0.409882 0.409882
0.671723 0.671723 0.671723
0.978264 0.978264 0.978264
0.989432 0.989432 0.989432
0.093137 0.093137 0.093137
0.093163 0.093163 0.093163
0.093861 0.093861 0.093861
0.100223 0.100223 0.100223
0.174069 0.174069 0.174069
0.387162 0.387162 0.387162
0.650295 0.650295 0.650295
0.976052 0.976052 0.976052
0.988710 0.988710 0.988710
0.095199 0.095199 0.095199
0.094765 0.094765 0.094765
0.094913 0.094913 0.094913
0.102874 0.102874 0.102874
0.183726 0.183726 0.183726
0.359025 0.359025 0.359025
0.604034 0.604034 0.604034
0.969750 0.969750 0.969750
0.986348 0.986348 0.986348
0.129454 0.129454 0.129454
0.121474 0.121474 0.121474
0.114283 0.114283 0.114283
0.126431 0.126431 0.126431
0.201528 0.201528 0.201528
0.368045 0.368045 0.368045
0.577837 0.577837 0.577837
0.784029 0.784029 0.784029
0.967893 0.967893 0.967893
0.271546 0.271546 0.271546
0.257764 0.257764 0.257764
0.240520 0.240520 0.240520
0.244584 0.244584 0.244584
0.290236 0.290236 0.290236
0.420940 0.420940 0.420940
0.608211 0.608211 0.608211
0.782875 0.782875 0.782875
0.922851 0.922851 0.922851
0.479986 0.479986 0.479986
0.466986 0.466986 0.466986
0.451998 0.451998 0.451998
0.446832 0.446832 0.446832
0.475920 0.475920 0.475920
0.552791 0.552791 0.552791
0.681007 0.681007 0.681007
0.812391 0.812391 0.812391
0.893286 0.893286 0.893286
0.679887 0.679887 0.679887
0.671190 0.671190 0.671190
0.659513 0.659513 0.659513
0.655753 0.655753 0.655753
0.675137 0.675137 0.675137
0.729293 0.729293 0.729293
0.799090 0.799090 0.799090
0.857642 0.857642 0.857642
0.913894 0.913894 0.913894
0.827808 0.827808 0.827808
0.822840 0.822840 0.822840
0.813665 0.813665 0.813665
0.811067 0.811067 0.811067
0.818339 0.818339 0.818339
0.839239 0.839239 0.839239
0.876265 0.876265 0.876265
0.917082 0.917082 0.917082
0.942275 0.942275 0.942275
0.803843 0.803843 0.803843
0.799835 0.799835 0.799835
0.862125 0.862125 0.862125
0.857200 0.857200 0.857200
0.890219 0.890219 0.890219
0.903959 0.903959 0.903959
0.925202 0.925202 0.925202
0.952209 0.952209 0.952209
0.967972 0.967972 0.967972
0.093339 0.093339 0.093339
0.139453 0.139453 0.139453
0.096163 0.096163 0.096163
0.101592 0.101592 0.101592
0.185701 0.185701 0.185701
0.417282 0.417282 0.417282
0.680036 0.680036 0.680036
0.977080 0.977080 0.977080
0.989058 0.989058 0.989058
0.093335 0.093335 0.093335
0.093321 0.093321 0.093321
0.094337 0.094337 0.094337
0.100777 0.100777 0.100777
0.177487 0.177487 0.177487
0.392151 0.392151 0.392151
0.655782 0.655782 0.655782
0.974873 0.974873 0.974873
0.988338 0.988338 0.988338
0.096592 0.096592 0.096592
0.095496 0.095496 0.095496
0.095167 0.095167 0.095167
0.103296 0.103296 0.103296
0.177802 0.177802 0.177802
0.357429 0.357429 0.357429
0.606505 0.606505 0.606505
0.967903 0.967903 0.967903
0.985986 0.985986 0.985986
0.140475 0.140475 0.140475
0.129677 0.129677 0.129677
0.118565 0.118565 0.118565
0.128346 0.128346 0.128346
0.201270 0.201270 0.201270
0.361972 0.361972 0.361972
0.577883 0.577883 0.577883
0.786016 0.786016 0.786016
0.981444 0.981444 0.981444
0.281719 0.281719 0.281719
0.267711 0.267711 0.267711
0.247918 0.247918 0.247918
0.249177 0.249177 0.249177
0.293912 0.293912 0.293912
0.420263 0.420263 0.420263
0.606734 0.606734 0.606734
0.784314 0.784314 0.784314
0.932585 0.932585 0.932585
0.484831 0.484831 0.484831
0.472619 0.472619 0.472619
0.457310 0.457310 0.457310
0.451332 0.451332 0.451332
0.479831 0.479831 0.479831
0.556688 0.556688 0.556688
0.682525 0.682525 0.682525
0.813708 0.813708 0.813708
0.895919 0.895919 0.895919
0.684227 0.684227 0.684227
0.675902 0.675902 0.675902
0.664640 0.664640 0.664640
0.660806 0.660806 0.660806
0.680007 0.680007 0.680007
0.734390 0.734390 0.734390
0.802287 0.802287 0.802287
0.859395 0.859395 0.859395
0.915795 0.915795 0.915795
0.827507 0.827507 0.827507
0.823117 0.823117 0.823117
0.815754 0.815754 0.815754
0.813688 0.813688 0.813688
0.821124 0.821124 0.821124
0.842115 0.842115 0.842115
0.878605 0.878605 0.878605
0.918700 0.918700 0.918700
0.943679 0.943679 0.943679
0.859172 0.859172 0.859172
0.856103 0.856103 0.856103
0.902750 0.902750 0.902750
0.889644 0.889644 0.889644
0.892085 0.892085 0.892085
0.906039 0.906039 0.906039
0.926908 0.926908 0.926908
0.953276 0.953276 0.953276
0.968757 0.968757 0.968757
0.100912 0.100912 0.100912
0.789751 0.789751 0.789751
0.734335 0.734335 0.734335
0.620781 0.620781 0.620781
0.609554 0.609554 0.609554
0.780821 0.780821 0.780821
0.907142 0.907142 0.907142
0.977074 0.977074 0.977074
0.988283 0.988283 0.988283
0.110120 0.110120 0.110120
0.237655 0.237655 0.237655
0.298409 0.298409 0.298409
0.325324 0.325324 0.325324
0.448806 0.448806 0.448806
0.684581 0.684581 0.684581
0.871759 0.871759 0.871759
0.975182 0.975182 0.975182
0.987556 0.987556 0.987556
0.103843 0.103843 0.103843
0.100121 0.100121 0.100121
0.099130 0.099130 0.099130
0.136848 0.136848 0.136848
0.265065 0.265065 0.265065
0.496288 0.496288 0.496288
0.753678 0.753678 0.753678
0.968116 0.968116 0.968116
0.985188 0.985188 0.985188
0.188118 0.188118 0.188118
0.170740 0.170740 0.170740
0.145097 0.145097 0.145097
0.147352 0.147352 0.147352
0.239953 0.239953 0.239953
0.430499 0.430499 0.430499
0.656186 0.656186 0.656186
0.851760 0.851760 0.851760
0.979659 0.979659 0.979659
0.361979 0.361979 0.361979
0.342509 0.342509 0.342509
0.305747 0.305747 0.305747
0.292646 0.292646 0.292646
0.330242 0.330242 0.330242
0.462770 0.462770 0.462770
0.650633 0.650633 0.650633
0.821462 0.821462 0.821462
0.963634 0.963634 0.963634
0.568825 0.568825 0.568825
0.553946 0.553946 0.553946
0.526476 0.526476 0.526476
0.509021 0.509021 0.509021
0.529084 0.529084 0.529084
0.600442 0.600442 0.600442
0.717994 0.717994 0.717994
0.835003 0.835003 0.835003
0.921452 0.921452 0.921452
0.749542 0.749542 0.749542
0.741214 0.741214 0.741214
0.724379 0.724379 0.724379
0.713613 0.713613 0.713613
0.727028 0.727028 0.727028
0.767642 0.767642 0.767642
0.821659 0.821659 0.821659
0.876026 0.876026 0.876026
0.927100 0.927100 0.927100
0.849499 0.849499 0.849499
0.846474 0.846474 0.846474
0.841969 0.841969 0.841969
0.838891 0.838891 0.838891
0.844575 0.844575 0.844575
0.863886 0.863886 0.863886
0.894235 0.894235 0.894235
0.928048 0.928048 0.928048
0.950687 0.950687 0.950687
0.854045 0.854045 0.854045
0.906978 0.906978 0.906978
0.898856 0.898856 0.898856
0.886107 0.886107 0.886107
0.904232 0.904232 0.904232
0.918357 0.918357 0.918357
0.936226 0.936226 0.936226
0.958731 0.958731 0.958731
0.971494 0.971494 0.971494
0.318964 0.318964 0.318964
0.922836 0.922836 0.922836
0.964902 0.964902 0.964902
0.968265 0.968265 0.968265
0.958136 0.958136 0.958136
0.964292 0.964292 0.964292
0.977963 0.977963 0.977963
0.988099 0.988099 0.988099
0.989839 0.989839 0.989839
0.393051 0.393051 0.393051
0.797349 0.797349 0.797349
0.940666 0.940666 0.940666
0.926071 0.926071 0.926071
0.916559 0.916559 0.916559
0.943944 0.943944 0.943944
0.972569 0.972569 0.972569
0.986725 0.986725 0.986725
0.989115 0.989115 0.989115
0.266447 0.266447 0.266447
0.280438 0.280438 0.280438
0.376946 0.376946 0.376946
0.493538 0.493538 0.493538
0.663800 0.663800 0.663800
0.825605 0.825605 0.825605
0.928870 0.928870 0.928870
0.978069 0.978069 0.978069
0.986757 0.986757 0.986757
0.296383 0.296383 0.296383
0.275700 0.275700 0.275700
0.236758 0.236758 0.236758
0.233474 0.233474 0.233474
0.396204 0.396204 0.396204
0.625349 0.625349 0.625349
0.828397 0.828397 0.828397
0.948390 0.948390 0.948390
0.982967 0.982967 0.982967
0.482238 0.482238 0.482238
0.462764 0.462764 0.462764
0.420333 0.420333 0.420333
0.388429 0.388429 0.388429
0.415506 0.415506 0.415506
0.563893 0.563893 0.563893
0.764545 0.764545 0.764545
0.892458 0.892458 0.892458
0.979610 0.979610 0.979610
0.674576 0.674576 0.674576
0.660812 0.660812 0.660812
0.631916 0.631916 0.631916
0.605490 0.605490 0.605490
0.615546 0.615546 0.615546
0.672536 0.672536 0.672536
0.783086 0.783086 0.783086
0.879202 0.879202 0.879202
0.968044 0.968044 0.968044
0.813110 0.813110 0.813110
0.808565 0.808565 0.808565
0.795484 0.795484 0.795484
0.784703 0.784703 0.784703
0.789313 0.789313 0.789313
0.815561 0.815561 0.815561
0.854819 0.854819 0.854819
0.901940 0.901940 0.901940
0.955920 0.955920 0.955920
0.885489 0.885489 0.885489
0.883273 0.883273 0.883273
0.879321 0.879321 0.879321
0.875839 0.875839 0.875839
0.878975 0.878975 0.878975
0.892474 0.892474 0.892474
0.918243 0.918243 0.918243
0.943854 0.943854 0.943854
0.963902 0.963902 0.963902
0.920705 0.920705 0.920705
0.939014 0.939014 0.939014
0.932979 0.932979 0.932979
0.926817 0.926817 0.926817
0.929481 0.929481 0.929481
0.938037 0.938037 0.938037
0.952615 0.952615 0.952615
0.969347 0.969347 0.969347
0.976163 0.976163 0.976163
0.785238 0.785238 0.785238
0.962116 0.962116 0.962116
0.989476 0.989476 0.989476
0.991125 0.991125 0.991125
0.992392 0.992392 0.992392
0.989915 0.989915 0.989915
0.990600 0.990600 0.990600
0.992617 0.992617 0.992617
0.993576 0.993576 0.993576
0.825455 0.825455 0.825455
0.953282 0.953282 0.953282
0.988004 0.988004 0.988004
0.990288 0.990288 0.990288
0.987949 0.987949 0.987949
0.986901 0.986901 0.986901
0.988692 0.988692 0.988692
0.991956 0.991956 0.991956
0.993151 0.993151 0.993151
0.835699 0.835699 0.835699
0.874815 0.874815 0.874815
0.944739 0.944739 0.944739
0.950149 0.950149 0.950149
0.953577 0.953577 0.953577
0.970119 0.970119 0.970119
0.981370 0.981370 0.981370
0.987901 0.987901 0.987901
0.991267 0.991267 0.991267
0.591507 0.591507 0.591507
0.587431 0.587431 0.587431
0.611878 0.611878 0.611878
0.676332 0.676332 0.676332
0.785743 0.785743 0.785743
0.883361 0.883361 0.883361
0.951694 0.951694 0.951694
0.980396 0.980396 0.980396
0.989112 0.989112 0.989112
0.659383 0.659383 0.659383
0.644737 0.644737 0.644737
0.610534 0.610534 0.610534
0.577083 0.577083 0.577083
0.588577 0.588577 0.588577
0.769761 0.769761 0.769761
0.889392 0.889392 0.889392
0.961879 0.961879 0.961879
0.986092 0.986092 0.986092
0.794615 0.794615 0.794615
0.785877 0.785877 0.785877
0.766567 0.766567 0.766567
0.748048 0.748048 0.748048
0.747655 0.747655 0.747655
0.781073 0.781073 0.781073
0.863340 0.863340 0.863340
0.938650 0.938650 0.938650
0.983152 0.983152 0.983152
0.873622 0.873622 0.873622
0.869430 0.869430 0.869430
0.859983 0.859983 0.859983
0.851599 0.851599 0.851599
0.853023 0.853023 0.853023
0.870837 0.870837 0.870837
0.899760 0.899760 0.899760
0.939738 0.939738 0.939738
0.978645 0.978645 0.978645
0.922830 0.922830 0.922830
0.921282 0.921282 0.921282
0.918340 0.918340 0.918340
0.915037 0.915037 0.915037
0.917504 0.917504 0.917504
0.926770 0.926770 0.926770
0.944615 0.944615 0.944615
0.961405 0.961405 0.961405
0.977762 0.977762 0.977762
0.954595 0.954595 0.954595
0.955198 0.955198 0.955198
0.955490 0.955490 0.955490
0.949740 0.949740 0.949740
0.951806 0.951806 0.951806
0.957130 0.957130 0.957130
0.967416 0.967416 0.967416
0.976006 0.976006 0.976006
0.983517 0.983517 0.983517
0.972889 0.972889 0.972889
0.988928 0.988928 0.988928
0.995657 0.995657 0.995657
0.996405 0.996405 0.996405
0.997548 0.997548 0.997548
0.996465 0.996465 0.996465
0.995519 0.995519 0.995519
0.995406 0.995406 0.995406
0.995186 0.995186 0.995186
0.976871 0.976871 0.976871
0.988978 0.988978 0.988978
0.995486 0.995486 0.995486
0.996357 0.996357 0.996357
0.997212 0.997212 0.997212
0.995342 0.995342 0.995342
0.994779 0.994779 0.994779
0.994918 0.994918 0.994918
0.994831 0.994831 0.994831
0.984158 0.984158 0.984158
0.988316 0.988316 0.988316
0.994579 0.994579 0.994579
0.993501 0.993501 0.993501
0.992201 0.992201 0.992201
0.991472 0.991472 0.991472
0.992419 0.992419 0.992419
0.993364 0.993364 0.993364
0.993658 0.993658 0.993658
0.924578 0.924578 0.924578
0.930718 0.930718 0.930718
0.955341 0.955341 0.955341
0.965960 0.965960 0.965960
0.971707 0.971707 0.971707
0.978097 0.978097 0.978097
0.985224 0.985224 0.985224
0.989800 0.989800 0.989800
0.992669 0.992669 0.992669
0.864098 0.864098 0.864098
0.861637 0.861637 0.861637
0.865712 0.865712 0.865712
0.874687 0.874687 0.874687
0.894839 0.894839 0.894839
0.935589 0.935589 0.935589
0.970799 0.970799 0.970799
0.984566 0.984566 0.984566
0.990693 0.990693 0.990693
0.889384 0.889384 0.889384
0.886155 0.886155 0.886155
0.879901 0.879901 0.879901
0.874110 0.874110 0.874110
0.873607 0.873607 0.873607
0.883957 0.883957 0.883957
0.945404 0.945404 0.945404
0.976691 0.976691 0.976691
0.988456 0.988456 0.988456
0.928104 0.928104 0.928104
0.926177 0.926177 0.926177
0.922189 0.922189 0.922189
0.918884 0.918884 0.918884
0.920212 0.920212 0.920212
0.928969 0.928969 0.928969
0.948596 0.948596 0.948596
0.972498 0.972498 0.972498
0.987477 0.987477 0.987477
0.954407 0.954407 0.954407
0.953589 0.953589 0.953589
0.952184 0.952184 0.952184
0.951000 0.951000 0.951000
0.952441 0.952441 0.952441
0.958134 0.958134 0.958134
0.968810 0.968810 0.968810
0.976507 0.976507 0.976507
0.987297 0.987297 0.987297
0.960840 0.960840 0.960840
0.961778 0.961778 0.961778
0.963554 0.963554 0.963554
0.967769 0.967769 0.967769
0.970051 0.970051 0.970051
0.972556 0.972556 0.972556
0.977140 0.977140 0.977140
0.983498 0.983498 0.983498
0.989016 0.989016 0.989016
0.995139 0.995139 0.995139
0.997533 0.997533 0.997533
0.998134 0.998134 0.998134
0.998244 0.998244 0.998244
0.998397 0.998397 0.998397
0.998378 0.998378 0.998378
0.998091 0.998091 0.998091
0.997920 0.997920 0.997920
0.997464 0.997464 0.997464
0.995567 0.995567 0.995567
0.997587 0.997587 0.997587
0.998137 0.998137 0.998137
0.998254 0.998254 0.998254
0.998408 0.998408 0.998408
0.998221 0.998221 0.998221
0.997983 0.997983 0.997983
0.997838 0.997838 0.997838
0.997089 0.997089 0.997089
0.996798 0.996798 0.996798
0.997815 0.997815 0.997815
0.998139 0.998139 0.998139
0.998286 0.998286 0.998286
0.997952 0.997952 0.997952
0.997270 0.997270 0.997270
0.996696 0.996696 0.996696
0.996576 0.996576 0.996576
0.995823 0.995823 0.995823
0.992729 0.992729 0.992729
0.993093 0.993093 0.993093
0.993901 0.993901 0.993901
0.993716 0.993716 0.993716
0.993258 0.993258 0.993258
0.993210 0.993210 0.993210
0.993714 0.993714 0.993714
0.994504 0.994504 0.994504
0.995136 0.995136 0.995136
0.976530 0.976530 0.976530
0.977281 0.977281 0.977281
0.980732 0.980732 0.980732
0.983140 0.983140 0.983140
0.984102 0.984102 0.984102
0.985881 0.985881 0.985881
0.988923 0.988923 0.988923
0.992372 0.992372 0.992372
0.993811 0.993811 0.993811
0.966177 0.966177 0.966177
0.965989 0.965989 0.965989
0.967725 0.967725 0.967725
0.970268 0.970268 0.970268
0.971790 0.971790 0.971790
0.975604 0.975604 0.975604
0.983761 0.983761 0.983761
0.988862 0.988862 0.988862
0.992818 0.992818 0.992818
0.970435 0.970435 0.970435
0.970155 0.970155 0.970155
0.969917 0.969917 0.969917
0.970366 0.970366 0.970366
0.971775 0.971775 0.971775
0.974040 0.974040 0.974040
0.977336 0.977336 0.977336
0.986683 0.986683 0.986683
0.992490 0.992490 0.992490
0.975226 0.975226 0.975226
0.974972 0.974972 0.974972
0.974752 0.974752 0.974752
0.974842 0.974842 0.974842
0.976124 0.976124 0.976124
0.979022 0.979022 0.979022
0.983496 0.983496 0.983496
0.986616 0.986616 0.986616
0.992810 0.992810 0.992810
0.971448 0.971448 0.971448
0.972213 0.972213 0.972213
0.972361 0.972361 0.972361
0.978845 0.978845 0.978845
0.980072 0.980072 0.980072
0.982639 0.982639 0.982639
0.984979 0.984979 0.984979
0.987756 0.987756 0.987756
0.993783 0.993783 0.993783
0.998620 0.998620 0.998620
0.998666 0.998666 0.998666
0.998753 0.998753 0.998753
0.998830 0.998830 0.998830
0.998957 0.998957 0.998957
0.999066 0.999066 0.999066
0.998699 0.998699 0.998699
0.998445 0.998445 0.998445
0.998157 0.998157 0.998157
0.998633 0.998633 0.998633
0.998676 0.998676 0.998676
0.998767 0.998767 0.998767
0.998846 0.998846 0.998846
0.998971 0.998971 0.998971
0.998927 0.998927 0.998927
0.998601 0.998601 0.998601
0.998376 0.998376 0.998376
0.998103 0.998103 0.998103
0.998708 0.998708 0.998708
0.998738 0.998738 0.998738
0.998828 0.998828 0.998828
0.998913 0.998913 0.998913
0.998798 0.998798 0.998798
0.998498 0.998498 0.998498
0.998293 0.998293 0.998293
0.998158 0.998158 0.998158
0.997941 0.997941 0.997941
0.998449 0.998449 0.998449
0.998430 0.998430 0.998430
0.998362 0.998362 0.998362
0.998202 0.998202 0.998202
0.998026 0.998026 0.998026
0.997892 0.997892 0.997892
0.997832 0.997832 0.997832
0.997822 0.997822 0.997822
0.997669 0.997669 0.997669
0.995365 0.995365 0.995365
0.995380 0.995380 0.995380
0.995403 0.995403 0.995403
0.995094 0.995094 0.995094
0.994796 0.994796 0.994796
0.994783 0.994783 0.994783
0.995194 0.995194 0.995194
0.995863 0.995863 0.995863
0.996325 0.996325 0.996325
0.991402 0.991402 0.991402
0.991556 0.991556 0.991556
0.992117 0.992117 0.992117
0.992028 0.992028 0.992028
0.991895 0.991895 0.991895
0.992312 0.992312 0.992312
0.993089 0.993089 0.993089
0.994267 0.994267 0.994267
0.995277 0.995277 0.995277
0.987891 0.987891 0.987891
0.988017 0.988017 0.988017
0.988796 0.988796 0.988796
0.989546 0.989546 0.989546
0.989969 0.989969 0.989969
0.990445 0.990445 0.990445
0.991868 0.991868 0.991868
0.993439 0.993439 0.993439
0.994863 0.994863 0.994863
0.986777 0.986777 0.986777
0.986768 0.986768 0.986768
0.987113 0.987113 0.987113
0.987859 0.987859 0.987859
0.989168 0.989168 0.989168
0.990748 0.990748 0.990748
0.992309 0.992309 0.992309
0.993074 0.993074 0.993074
0.995228 0.995228 0.995228
0.982257 0.982257 0.982257
0.984055 0.984055 0.984055
0.984428 0.984428 0.984428
0.986267 0.986267 0.986267
0.987181 0.987181 0.987181
0.988549 0.988549 0.988549
0.990585 0.990585 0.990585
0.992633 0.992633 0.992633
0.996293 0.996293 0.996293
0.999283 0.999283 0.999283
0.999287 0.999287 0.999287
0.999307 0.999307 0.999307
0.999371 0.999371 0.999371
0.999507 0.999507 0.999507
0.999693 0.999693 0.999693
0.999295 0.999295 0.999295
0.998962 0.998962 0.998962
0.998530 0.998530 0.998530
0.999294 0.999294 0.999294
0.999298 0.999298 0.999298
0.999319 0.999319 0.999319
0.999384 0.999384 0.999384
0.999518 0.999518 0.999518
0.999578 0.999578 0.999578
0.999203 0.999203 0.999203
0.998893 0.998893 0.998893
0.998529 0.998529 0.998529
0.999351 0.999351 0.999351
0.999356 0.999356 0.999356
0.999380 0.999380 0.999380
0.999445 0.999445 0.999445
0.999499 0.999499 0.999499
0.999186 0.999186 0.999186
0.998914 0.998914 0.998914
0.998679 0.998679 0.998679
0.998343 0.998343 0.998343
0.999369 0.999369 0.999369
0.999327 0.999327 0.999327
0.999194 0.999194 0.999194
0.999001 0.999001 0.999001
0.998799 0.998799 0.998799
0.998631 0.998631 0.998631
0.998494 0.998494 0.998494
0.998377 0.998377 0.998377
0.998261 0.998261 0.998261
0.998416 0.998416 0.998416
0.998392 0.998392 0.998392
0.998320 0.998320 0.998320
0.998221 0.998221 0.998221
0.998127 0.998127 0.998127
0.998072 0.998072 0.998072
0.998053 0.998053 0.998053
0.998050 0.998050 0.998050
0.998045 0.998045 0.998045
0.997812 0.997812 0.997812
0.997742 0.997742 0.997742
0.997443 0.997443 0.997443
0.997064 0.997064 0.997064
0.996746 0.996746 0.996746
0.996734 0.996734 0.996734
0.997056 0.997056 0.997056
0.997545 0.997545 0.997545
0.997841 0.997841 0.997841
0.996422 0.996422 0.996422
0.996335 0.996335 0.996335
0.996091 0.996091 0.996091
0.995783 0.995783 0.995783
0.995506 0.995506 0.995506
0.995462 0.995462 0.995462
0.995871 0.995871 0.995871
0.996621 0.996621 0.996621
0.997405 0.997405 0.997405
0.995991 0.995991 0.995991
0.996014 0.996014 0.996014
0.995985 0.995985 0.995985
0.995835 0.995835 0.995835
0.995698 0.995698 0.995698
0.995675 0.995675 0.995675
0.995903 0.995903 0.995903
0.996607 0.996607 0.996607
0.997527 0.997527 0.997527
0.987437 0.987437 0.987437
0.991337 0.991337 0.991337
0.990832 0.990832 0.990832
0.990323 0.990323 0.990323
0.994414 0.994414 0.994414
0.996350 0.996350 0.996350
0.996861 0.996861 0.996861
0.997612 0.997612 0.997612
0.997914 0.997914 0.997914
