trix_modern/TriX_Yellow8_Soft.cube
TITLE "Tri-X Yellow8 Soft"
# Adobe RGB in/out. REPLACES AgX. R=0.5015 G=0.4679 B=0.0307
LUT_3D_SIZE 5
DOMAIN_MIN 0.0 0.0 0.0
DOMAIN_MAX 1.0 1.0 1.0
0.097688 0.097688 0.097688
0.097688 0.097688 0.097688
0.097688 0.097688 0.097688
0.097688 0.097688 0.097688
0.097688 0.097688 0.097688
0.097688 0.097688 0.097688
0.097688 0.097688 0.097688
0.097688 0.097688 0.097688
0.097688 0.097688 0.097688
0.097688 0.097688 0.097688
0.097688 0.097688 0.097688
0.097688 0.097688 0.097688
0.097688 0.097688 0.097688
0.097688 0.097688 0.097688
0.097688 0.097688 0.097688
0.097688 0.097688 0.097688
0.097688 0.097688 0.097688
0.097688 0.097688 0.097688
0.097688 0.097688 0.097688
0.097688 0.097688 0.097688
0.097688 0.097688 0.097688
0.097688 0.097688 0.097688
0.097688 0.097688 0.097688
0.097688 0.097688 0.097688
0.097688 0.097688 0.097688
0.097688 0.097688 0.097688
0.097688 0.097688 0.097688
0.097688 0.097688 0.097688
0.097688 0.097688 0.097688
0.097688 0.097688 0.097688
0.097688 0.097688 0.097688
0.241770 0.241770 0.241770
0.438366 0.438366 0.438366
0.546446 0.546446 0.546446
0.605822 0.605822 0.605822
0.097688 0.097688 0.097688
0.436461 0.436461 0.436461
0.535286 0.535286 0.535286
0.661153 0.661153 0.661153
0.762236 0.762236 0.762236
0.097688 0.097688 0.097688
0.510702 0.510702 0.510702
0.662852 0.662852 0.662852
0.759077 0.759077 0.759077
0.845620 0.845620 0.845620
0.097688 0.097688 0.097688
0.530941 0.530941 0.530941
0.718135 0.718135 0.718135
0.832410 0.832410 0.832410
0.905077 0.905077 0.905077
0.097688 0.097688 0.097688
0.097688 0.097688 0.097688
0.097688 0.097688 0.097688
0.097688 0.097688 0.097688
0.097688 0.097688 0.097688
0.097688 0.097688 0.097688
0.380075 0.380075 0.380075
0.487997 0.487997 0.487997
0.562515 0.562515 0.562515
0.613668 0.613668 0.613668
0.097688 0.097688 0.097688
0.415011 0.415011 0.415011
0.499564 0.499564 0.499564
0.659914 0.659914 0.659914
0.767267 0.767267 0.767267
0.097688 0.097688 0.097688
0.500489 0.500489 0.500489
0.653612 0.653612 0.653612
0.752860 0.752860 0.752860
0.850949 0.850949 0.850949
0.097688 0.097688 0.097688
0.533411 0.533411 0.533411
0.723633 0.723633 0.723633
0.840856 0.840856 0.840856
0.913655 0.913655 0.913655
0.097688 0.097688 0.097688
0.097688 0.097688 0.097688
0.097688 0.097688 0.097688
0.097688 0.097688 0.097688
0.097688 0.097688 0.097688
0.097688 0.097688 0.097688
0.426785 0.426785 0.426785
0.557296 0.557296 0.557296
0.599763 0.599763 0.599763
0.629818 0.629818 0.629818
0.097688 0.097688 0.097688
0.439667 0.439667 0.439667
0.584199 0.584199 0.584199
0.694448 0.694448 0.694448
0.781069 0.781069 0.781069
0.097688 0.097688 0.097688
0.488063 0.488063 0.488063
0.645552 0.645552 0.645552
0.739633 0.739633 0.739633
0.854831 0.854831 0.854831
0.097688 0.097688 0.097688
0.529400 0.529400 0.529400
0.721874 0.721874 0.721874
0.842761 0.842761 0.842761
0.918105 0.918105 0.918105
0.097688 0.097688 0.097688
0.097688 0.097688 0.097688
0.097688 0.097688 0.097688
0.097688 0.097688 0.097688
0.097688 0.097688 0.097688
0.097688 0.097688 0.097688
0.430397 0.430397 0.430397
0.599122 0.599122 0.599122
0.633670 0.633670 0.633670
0.648676 0.648676 0.648676
0.097688 0.097688 0.097688
0.484580 0.484580 0.484580
0.645951 0.645951 0.645951
0.739377 0.739377 0.739377
0.800590 0.800590 0.800590
0.097688 0.097688 0.097688
0.489947 0.489947 0.489947
0.663091 0.663091 0.663091
0.780177 0.780177 0.780177
0.868548 0.868548 0.868548
0.097688 0.097688 0.097688
0.524749 0.524749 0.524749
0.719833 0.719833 0.719833
0.844599 0.844599 0.844599
0.921710 0.921710 0.921710
