trix_modern/TriX_Green58_Hard.cube
TITLE "Tri-X Green58 Hard"
# Adobe RGB in/out. REPLACES AgX. Tri-X Green58 Hard.
LUT_3D_SIZE 5
DOMAIN_MIN 0.0 0.0 0.0
DOMAIN_MAX 1.0 1.0 1.0
0.093024 0.093024 0.093024
0.093319 0.093319 0.093319
0.096975 0.096975 0.096975
0.105179 0.105179 0.105179
0.151459 0.151459 0.151459
0.270788 0.270788 0.270788
0.103430 0.103430 0.103430
0.142676 0.142676 0.142676
0.212020 0.212020 0.212020
0.137758 0.137758 0.137758
0.975012 0.975012 0.975012
0.916364 0.916364 0.916364
0.710448 0.710448 0.710448
0.733152 0.733152 0.733152
0.616834 0.616834 0.616834
0.997837 0.997837 0.997837
0.995991 0.995991 0.995991
0.990553 0.990553 0.990553
0.983559 0.983559 0.983559
0.979828 0.979828 0.979828
0.998310 0.998310 0.998310
0.998441 0.998441 0.998441
0.998255 0.998255 0.998255
0.997919 0.997919 0.997919
0.997818 0.997818 0.997818
0.093250 0.093250 0.093250
0.094088 0.094088 0.094088
0.100697 0.100697 0.100697
0.113741 0.113741 0.113741
0.146207 0.146207 0.146207
0.142840 0.142840 0.142840
0.099130 0.099130 0.099130
0.158971 0.158971 0.158971
0.227544 0.227544 0.227544
0.132918 0.132918 0.132918
0.946766 0.946766 0.946766
0.865173 0.865173 0.865173
0.656868 0.656868 0.656868
0.732425 0.732425 0.732425
0.625164 0.625164 0.625164
0.996543 0.996543 0.996543
0.994779 0.994779 0.994779
0.988890 0.988890 0.988890
0.982325 0.982325 0.982325
0.978892 0.978892 0.978892
0.998315 0.998315 0.998315
0.998445 0.998445 0.998445
0.998196 0.998196 0.998196
0.997878 0.997878 0.997878
0.997748 0.997748 0.997748
0.097136 0.097136 0.097136
0.121120 0.121120 0.121120
0.206448 0.206448 0.206448
0.191737 0.191737 0.191737
0.143905 0.143905 0.143905
0.354390 0.354390 0.354390
0.319406 0.319406 0.319406
0.305831 0.305831 0.305831
0.330313 0.330313 0.330313
0.130383 0.130383 0.130383
0.875798 0.875798 0.875798
0.801039 0.801039 0.801039
0.588577 0.588577 0.588577
0.754203 0.754203 0.754203
0.688202 0.688202 0.688202
0.994169 0.994169 0.994169
0.992766 0.992766 0.992766
0.985994 0.985994 0.985994
0.978975 0.978975 0.978975
0.978652 0.978652 0.978652
0.998340 0.998340 0.998340
0.998324 0.998324 0.998324
0.998059 0.998059 0.998059
0.997756 0.997756 0.997756
0.997638 0.997638 0.997638
0.205058 0.205058 0.205058
0.325541 0.325541 0.325541
0.480001 0.480001 0.480001
0.420546 0.420546 0.420546
0.149915 0.149915 0.149915
0.626242 0.626242 0.626242
0.703388 0.703388 0.703388
0.686944 0.686944 0.686944
0.568318 0.568318 0.568318
0.134971 0.134971 0.134971
0.919845 0.919845 0.919845
0.898266 0.898266 0.898266
0.857033 0.857033 0.857033
0.854839 0.854839 0.854839
0.792782 0.792782 0.792782
0.992891 0.992891 0.992891
0.991410 0.991410 0.991410
0.985426 0.985426 0.985426
0.977336 0.977336 0.977336
0.981666 0.981666 0.981666
0.998205 0.998205 0.998205
0.998212 0.998212 0.998212
0.998005 0.998005 0.998005
0.997693 0.997693 0.997693
0.997819 0.997819 0.997819
0.322095 0.322095 0.322095
0.377737 0.377737 0.377737
0.541094 0.541094 0.541094
0.480293 0.480293 0.480293
0.178333 0.178333 0.178333
0.679423 0.679423 0.679423
0.730515 0.730515 0.730515
0.817856 0.817856 0.817856
0.652791 0.652791 0.652791
0.166137 0.166137 0.166137
0.973896 0.973896 0.973896
0.970621 0.970621 0.970621
0.956758 0.956758 0.956758
0.928855 0.928855 0.928855
0.699769 0.699769 0.699769
0.993549 0.993549 0.993549
0.992833 0.992833 0.992833
0.990189 0.990189 0.990189
0.987957 0.987957 0.987957
0.980128 0.980128 0.980128
0.998028 0.998028 0.998028
0.998108 0.998108 0.998108
0.998073 0.998073 0.998073
0.997885 0.997885 0.997885
0.997914 0.997914 0.997914
