trix_modern/TriX_Red25_Soft.cube
TITLE "Tri-X Red25 Soft"
# Adobe RGB in/out. REPLACES AgX. R=0.9735 G=0.0265 B=0.0000
LUT_3D_SIZE 5
DOMAIN_MIN 0.0 0.0 0.0
DOMAIN_MAX 1.0 1.0 1.0
0.097688 0.097688 0.097688
0.097688 0.097688 0.097688
0.097688 0.097688 0.097688
0.097688 0.097688 0.097688
0.097688 0.097688 0.097688
0.097688 0.097688 0.097688
0.305272 0.305272 0.305272
0.633992 0.633992 0.633992
0.893618 0.893618 0.893618
0.976335 0.976335 0.976335
0.097688 0.097688 0.097688
0.337918 0.337918 0.337918
0.575137 0.575137 0.575137
0.821869 0.821869 0.821869
0.962046 0.962046 0.962046
0.097688 0.097688 0.097688
0.318151 0.318151 0.318151
0.578601 0.578601 0.578601
0.792235 0.792235 0.792235
0.940609 0.940609 0.940609
0.097688 0.097688 0.097688
0.286770 0.286770 0.286770
0.548287 0.548287 0.548287
0.772181 0.772181 0.772181
0.926299 0.926299 0.926299
0.097688 0.097688 0.097688
0.097688 0.097688 0.097688
0.097688 0.097688 0.097688
0.097688 0.097688 0.097688
0.097688 0.097688 0.097688
0.097688 0.097688 0.097688
0.241770 0.241770 0.241770
0.604727 0.604727 0.604727
0.881621 0.881621 0.881621
0.973489 0.973489 0.973489
0.097688 0.097688 0.097688
0.318487 0.318487 0.318487
0.546523 0.546523 0.546523
0.804829 0.804829 0.804829
0.958271 0.958271 0.958271
0.097688 0.097688 0.097688
0.311531 0.311531 0.311531
0.568593 0.568593 0.568593
0.783056 0.783056 0.783056
0.938130 0.938130 0.938130
0.097688 0.097688 0.097688
0.284897 0.284897 0.284897
0.545423 0.545423 0.545423
0.769453 0.769453 0.769453
0.925609 0.925609 0.925609
0.097688 0.097688 0.097688
0.097688 0.097688 0.097688
0.097688 0.097688 0.097688
0.097688 0.097688 0.097688
0.097688 0.097688 0.097688
0.097688 0.097688 0.097688
0.371769 0.371769 0.371769
0.658091 0.658091 0.658091
0.886083 0.886083 0.886083
0.971750 0.971750 0.971750
0.097688 0.097688 0.097688
0.294818 0.294818 0.294818
0.499564 0.499564 0.499564
0.789531 0.789531 0.789531
0.953149 0.953149 0.953149
0.097688 0.097688 0.097688
0.298499 0.298499 0.298499
0.548910 0.548910 0.548910
0.761760 0.761760 0.761760
0.932617 0.932617 0.932617
0.097688 0.097688 0.097688
0.280120 0.280120 0.280120
0.538438 0.538438 0.538438
0.762910 0.762910 0.762910
0.923960 0.923960 0.923960
0.097688 0.097688 0.097688
0.097688 0.097688 0.097688
0.097688 0.097688 0.097688
0.097688 0.097688 0.097688
0.097688 0.097688 0.097688
0.097688 0.097688 0.097688
0.413267 0.413267 0.413267
0.739387 0.739387 0.739387
0.911291 0.911291 0.911291
0.974791 0.974791 0.974791
0.097688 0.097688 0.097688
0.309600 0.309600 0.309600
0.577141 0.577141 0.577141
0.816929 0.816929 0.816929
0.955591 0.955591 0.955591
0.097688 0.097688 0.097688
0.287150 0.287150 0.287150
0.535396 0.535396 0.535396
0.739633 0.739633 0.739633
0.929216 0.929216 0.929216
0.097688 0.097688 0.097688
0.274395 0.274395 0.274395
0.530596 0.530596 0.530596
0.755950 0.755950 0.755950
0.922389 0.922389 0.922389
0.097688 0.097688 0.097688
0.097688 0.097688 0.097688
0.097688 0.097688 0.097688
0.097688 0.097688 0.097688
0.097688 0.097688 0.097688
0.097688 0.097688 0.097688
0.413267 0.413267 0.413267
0.785466 0.785466 0.785466
0.934312 0.934312 0.934312
0.979438 0.979438 0.979438
0.097688 0.097688 0.097688
0.341006 0.341006 0.341006
0.632694 0.632694 0.632694
0.856605 0.856605 0.856605
0.962357 0.962357 0.962357
0.097688 0.097688 0.097688
0.285704 0.285704 0.285704
0.545653 0.545653 0.545653
0.773863 0.773863 0.773863
0.934276 0.934276 0.934276
0.097688 0.097688 0.097688
0.269423 0.269423 0.269423
0.524503 0.524503 0.524503
0.751544 0.751544 0.751544
0.921710 0.921710 0.921710
