trix_modern/TriX_NoFilter_Punchy.cube
TITLE "Tri-X NoFilter Punchy"
# Adobe RGB in/out. REPLACES AgX. R=0.2974 G=0.2859 B=0.4167
LUT_3D_SIZE 9
DOMAIN_MIN 0.0 0.0 0.0
DOMAIN_MAX 1.0 1.0 1.0
0.092306 0.092306 0.092306
0.092306 0.092306 0.092306
0.092306 0.092306 0.092306
0.092306 0.092306 0.092306
0.092306 0.092306 0.092306
0.092306 0.092306 0.092306
0.092306 0.092306 0.092306
0.092306 0.092306 0.092306
0.092306 0.092306 0.092306
0.092306 0.092306 0.092306
0.092306 0.092306 0.092306
0.092306 0.092306 0.092306
0.092306 0.092306 0.092306
0.092306 0.092306 0.092306
0.092306 0.092306 0.092306
0.092306 0.092306 0.092306
0.092306 0.092306 0.092306
0.092306 0.092306 0.092306
0.092306 0.092306 0.092306
0.092306 0.092306 0.092306
0.092306 0.092306 0.092306
0.092306 0.092306 0.092306
0.092306 0.092306 0.092306
0.092306 0.092306 0.092306
0.092306 0.092306 0.092306
0.092306 0.092306 0.092306
0.092306 0.092306 0.092306
0.092306 0.092306 0.092306
0.092306 0.092306 0.092306
0.092306 0.092306 0.092306
0.092306 0.092306 0.092306
0.092306 0.092306 0.092306
0.092306 0.092306 0.092306
0.092306 0.092306 0.092306
0.092306 0.092306 0.092306
0.092306 0.092306 0.092306
0.092306 0.092306 0.092306
0.092306 0.092306 0.092306
0.092306 0.092306 0.092306
0.092306 0.092306 0.092306
0.092306 0.092306 0.092306
0.092306 0.092306 0.092306
0.092306 0.092306 0.092306
0.092306 0.092306 0.092306
0.092306 0.092306 0.092306
0.092306 0.092306 0.092306
0.092306 0.092306 0.092306
0.092306 0.092306 0.092306
0.092306 0.092306 0.092306
0.092306 0.092306 0.092306
0.092306 0.092306 0.092306
0.092306 0.092306 0.092306
0.092306 0.092306 0.092306
0.092306 0.092306 0.092306
0.092306 0.092306 0.092306
0.092306 0.092306 0.092306
0.092306 0.092306 0.092306
0.092306 0.092306 0.092306
0.092306 0.092306 0.092306
0.092306 0.092306 0.092306
0.092306 0.092306 0.092306
0.092306 0.092306 0.092306
0.092306 0.092306 0.092306
0.092306 0.092306 0.092306
0.092306 0.092306 0.092306
0.092306 0.092306 0.092306
0.092306 0.092306 0.092306
0.092306 0.092306 0.092306
0.092306 0.092306 0.092306
0.092306 0.092306 0.092306
0.092306 0.092306 0.092306
0.092306 0.092306 0.092306
0.092306 0.092306 0.092306
0.092306 0.092306 0.092306
0.092306 0.092306 0.092306
0.092306 0.092306 0.092306
0.092306 0.092306 0.092306
0.092306 0.092306 0.092306
0.092306 0.092306 0.092306
0.092306 0.092306 0.092306
0.092306 0.092306 0.092306
0.092306 0.092306 0.092306
0.092306 0.092306 0.092306
0.092306 0.092306 0.092306
0.092306 0.092306 0.092306
0.092306 0.092306 0.092306
0.092306 0.092306 0.092306
0.092306 0.092306 0.092306
0.092306 0.092306 0.092306
0.092306 0.092306 0.092306
0.092306 0.092306 0.092306
0.094164 0.094164 0.094164
0.116919 0.116919 0.116919
0.155154 0.155154 0.155154
0.181154 0.181154 0.181154
0.198379 0.198379 0.198379
0.208371 0.208371 0.208371
0.213442 0.213442 0.213442
0.215009 0.215009 0.215009
0.092306 0.092306 0.092306
0.122999 0.122999 0.122999
0.126260 0.126260 0.126260
0.165265 0.165265 0.165265
0.214938 0.214938 0.214938
0.251452 0.251452 0.251452
0.275698 0.275698 0.275698
0.290329 0.290329 0.290329
0.297919 0.297919 0.297919
0.092306 0.092306 0.092306
0.158224 0.158224 0.158224
0.183082 0.183082 0.183082
0.191470 0.191470 0.191470
0.223954 0.223954 0.223954
0.267528 0.267528 0.267528
0.302902 0.302902 0.302902
0.326852 0.326852 0.326852
0.340198 0.340198 0.340198
0.092306 0.092306 0.092306
0.174627 0.174627 0.174627
0.225288 0.225288 0.225288
0.242256 0.242256 0.242256
0.254161 0.254161 0.254161
0.278979 0.278979 0.278979
0.316475 0.316475 0.316475
0.342761 0.342761 0.342761
0.361487 0.361487 0.361487
0.092306 0.092306 0.092306
0.180357 0.180357 0.180357
0.245877 0.245877 0.245877
0.276722 0.276722 0.276722
0.293970 0.293970 0.293970
0.309434 0.309434 0.309434
0.328421 0.328421 0.328421
0.354541 0.354541 0.354541
0.375690 0.375690 0.375690
0.092306 0.092306 0.092306
0.179395 0.179395 0.179395
0.252520 0.252520 0.252520
0.294834 0.294834 0.294834
0.320680 0.320680 0.320680
0.336642 0.336642 0.336642
0.351464 0.351464 0.351464
0.366778 0.366778 0.366778
0.388356 0.388356 0.388356
0.092306 0.092306 0.092306
0.174498 0.174498 0.174498
0.250212 0.250212 0.250212
0.299812 0.299812 0.299812
0.331428 0.331428 0.331428
0.352181 0.352181 0.352181
0.369651 0.369651 0.369651
0.385962 0.385962 0.385962
0.401743 0.401743 0.401743
0.092306 0.092306 0.092306
0.167468 0.167468 0.167468
0.242475 0.242475 0.242475
0.295453 0.295453 0.295453
0.332590 0.332590 0.332590
0.358022 0.358022 0.358022
0.379141 0.379141 0.379141
0.397985 0.397985 0.397985
0.414883 0.414883 0.414883
0.092306 0.092306 0.092306
0.092306 0.092306 0.092306
0.092306 0.092306 0.092306
0.092306 0.092306 0.092306
0.092306 0.092306 0.092306
0.092306 0.092306 0.092306
0.092306 0.092306 0.092306
0.092306 0.092306 0.092306
0.092306 0.092306 0.092306
0.092306 0.092306 0.092306
0.185078 0.185078 0.185078
0.233327 0.233327 0.233327
0.274946 0.274946 0.274946
0.310096 0.310096 0.310096
0.333099 0.333099 0.333099
0.347023 0.347023 0.347023
0.355058 0.355058 0.355058
0.358465 0.358465 0.358465
0.092306 0.092306 0.092306
0.167529 0.167529 0.167529
0.160896 0.160896 0.160896
0.265543 0.265543 0.265543
0.349263 0.349263 0.349263
0.402059 0.402059 0.402059
0.431760 0.431760 0.431760
0.449264 0.449264 0.449264
0.458924 0.458924 0.458924
0.092306 0.092306 0.092306
0.239336 0.239336 0.239336
0.279772 0.279772 0.279772
0.291040 0.291040 0.291040
0.352469 0.352469 0.352469
0.417463 0.417463 0.417463
0.458826 0.458826 0.458826
0.487859 0.487859 0.487859
0.506462 0.506462 0.506462
0.092306 0.092306 0.092306
0.280724 0.280724 0.280724
0.355375 0.355375 0.355375
0.377146 0.377146 0.377146
0.394355 0.394355 0.394355
0.429769 0.429769 0.429769
0.472730 0.472730 0.472730
0.507371 0.507371 0.507371
0.532600 0.532600 0.532600
0.092306 0.092306 0.092306
0.299164 0.299164 0.299164
0.392084 0.392084 0.392084
0.428661 0.428661 0.428661
0.446876 0.446876 0.446876
0.464146 0.464146 0.464146
0.488871 0.488871 0.488871
0.522990 0.522990 0.522990
0.550288 0.550288 0.550288
0.092306 0.092306 0.092306
0.302974 0.302974 0.302974
0.406856 0.406856 0.406856
0.452928 0.452928 0.452928
0.479987 0.479987 0.479987
0.500085 0.500085 0.500085
0.519259 0.519259 0.519259
0.540034 0.540034 0.540034
0.565035 0.565035 0.565035
0.092306 0.092306 0.092306
0.297633 0.297633 0.297633
0.407426 0.407426 0.407426
0.461484 0.461484 0.461484
0.496749 0.496749 0.496749
0.522549 0.522549 0.522549
0.544381 0.544381 0.544381
0.562876 0.562876 0.562876
0.580398 0.580398 0.580398
0.092306 0.092306 0.092306
0.286464 0.286464 0.286464
0.398781 0.398781 0.398781
0.459063 0.459063 0.459063
0.500488 0.500488 0.500488
0.532015 0.532015 0.532015
0.556847 0.556847 0.556847
0.577278 0.577278 0.577278
0.596223 0.596223 0.596223
0.092306 0.092306 0.092306
0.092306 0.092306 0.092306
0.092306 0.092306 0.092306
0.092306 0.092306 0.092306
0.092306 0.092306 0.092306
0.092306 0.092306 0.092306
0.092306 0.092306 0.092306
0.092306 0.092306 0.092306
0.092306 0.092306 0.092306
0.092306 0.092306 0.092306
0.263963 0.263963 0.263963
0.378594 0.378594 0.378594
0.422423 0.422423 0.422423
0.428121 0.428121 0.428121
0.437077 0.437077 0.437077
0.445417 0.445417 0.445417
0.451198 0.451198 0.451198
0.453945 0.453945 0.453945
0.092306 0.092306 0.092306
0.266209 0.266209 0.266209
0.341336 0.341336 0.341336
0.406600 0.406600 0.406600
0.461962 0.461962 0.461962
0.505032 0.505032 0.505032
0.535376 0.535376 0.535376
0.554342 0.554342 0.554342
0.564626 0.564626 0.564626
0.092306 0.092306 0.092306
0.293847 0.293847 0.293847
0.347508 0.347508 0.347508
0.341457 0.341457 0.341457
0.440786 0.440786 0.440786
0.511502 0.511502 0.511502
0.562027 0.562027 0.562027
0.594183 0.594183 0.594183
0.615123 0.615123 0.615123
0.092306 0.092306 0.092306
0.347776 0.347776 0.347776
0.429397 0.429397 0.429397
0.450369 0.450369 0.450369
0.466627 0.466627 0.466627
0.518149 0.518149 0.518149
0.572798 0.572798 0.572798
0.613192 0.613192 0.613192
0.642366 0.642366 0.642366
0.092306 0.092306 0.092306
0.376178 0.376178 0.376178
0.473647 0.473647 0.473647
0.514858 0.514858 0.514858
0.536926 0.536926 0.536926
0.557902 0.557902 0.557902
0.590188 0.590188 0.590188
0.629661 0.629661 0.629661
0.661703 0.661703 0.661703
0.092306 0.092306 0.092306
0.387067 0.387067 0.387067
0.494717 0.494717 0.494717
0.550751 0.550751 0.550751
0.580285 0.580285 0.580285
0.602401 0.602401 0.602401
0.624319 0.624319 0.624319
0.649932 0.649932 0.649932
0.680905 0.680905 0.680905
0.092306 0.092306 0.092306
0.386106 0.386106 0.386106
0.499941 0.499941 0.499941
0.564318 0.564318 0.564318
0.602840 0.602840 0.602840
0.631083 0.631083 0.631083
0.655267 0.655267 0.655267
0.678457 0.678457 0.678457
0.701324 0.701324 0.701324
0.092306 0.092306 0.092306
0.377242 0.377242 0.377242
0.494524 0.494524 0.494524
0.564837 0.564837 0.564837
0.610112 0.610112 0.610112
0.644533 0.644533 0.644533
0.673113 0.673113 0.673113
0.698790 0.698790 0.698790
0.720274 0.720274 0.720274
0.092306 0.092306 0.092306
0.092306 0.092306 0.092306
0.092306 0.092306 0.092306
0.092306 0.092306 0.092306
0.092306 0.092306 0.092306
0.092306 0.092306 0.092306
0.092306 0.092306 0.092306
0.092306 0.092306 0.092306
0.092306 0.092306 0.092306
0.092306 0.092306 0.092306
0.330031 0.330031 0.330031
0.448858 0.448858 0.448858
0.525293 0.525293 0.525293
0.540357 0.540357 0.540357
0.532878 0.532878 0.532878
0.530950 0.530950 0.530950
0.530963 0.530963 0.530963
0.530591 0.530591 0.530591
0.092306 0.092306 0.092306
0.417606 0.417606 0.417606
0.508484 0.508484 0.508484
0.553070 0.553070 0.553070
0.581979 0.581979 0.581979
0.606022 0.606022 0.606022
0.625067 0.625067 0.625067
0.638740 0.638740 0.638740
0.647251 0.647251 0.647251
0.092306 0.092306 0.092306
0.362927 0.362927 0.362927
0.447739 0.447739 0.447739
0.491729 0.491729 0.491729
0.550462 0.550462 0.550462
0.605157 0.605157 0.605157
0.649485 0.649485 0.649485
0.681833 0.681833 0.681833
0.703685 0.703685 0.703685
0.092306 0.092306 0.092306
0.394636 0.394636 0.394636
0.482364 0.482364 0.482364
0.509104 0.509104 0.509104
0.513339 0.513339 0.513339
0.592167 0.592167 0.592167
0.652932 0.652932 0.652932
0.699355 0.699355 0.699355
0.728843 0.728843 0.728843
0.092306 0.092306 0.092306
0.427240 0.427240 0.427240
0.532458 0.532458 0.532458
0.577037 0.577037 0.577037
0.598305 0.598305 0.598305
0.620303 0.620303 0.620303
0.665845 0.665845 0.665845
0.713085 0.713085 0.713085
0.746355 0.746355 0.746355
0.092306 0.092306 0.092306
0.443028 0.443028 0.443028
0.560361 0.560361 0.560361
0.617957 0.617957 0.617957
0.652086 0.652086 0.652086
0.677521 0.677521 0.677521
0.703859 0.703859 0.703859
0.733161 0.733161 0.733161
0.765195 0.765195 0.765195
0.092306 0.092306 0.092306
0.446844 0.446844 0.446844
0.570312 0.570312 0.570312
0.637925 0.637925 0.637925
0.682509 0.682509 0.682509
0.713903 0.713903 0.713903
0.738360 0.738360 0.738360
0.762271 0.762271 0.762271
0.786749 0.786749 0.786749
0.092306 0.092306 0.092306
0.441930 0.441930 0.441930
0.568549 0.568549 0.568549
0.642319 0.642319 0.642319
0.694631 0.694631 0.694631
0.730435 0.730435 0.730435
0.759109 0.759109 0.759109
0.784994 0.784994 0.784994
0.809397 0.809397 0.809397
0.092306 0.092306 0.092306
0.092306 0.092306 0.092306
0.092306 0.092306 0.092306
0.092306 0.092306 0.092306
0.092306 0.092306 0.092306
0.092306 0.092306 0.092306
0.092306 0.092306 0.092306
0.092306 0.092306 0.092306
0.092306 0.092306 0.092306
0.092306 0.092306 0.092306
0.382669 0.382669 0.382669
0.506724 0.506724 0.506724
0.587485 0.587485 0.587485
0.642347 0.642347 0.642347
0.622697 0.622697 0.622697
0.609922 0.609922 0.609922
0.602027 0.602027 0.602027
0.596509 0.596509 0.596509
0.092306 0.092306 0.092306
0.501486 0.501486 0.501486
0.642352 0.642352 0.642352
0.684517 0.684517 0.684517
0.700086 0.700086 0.700086
0.708145 0.708145 0.708145
0.714023 0.714023 0.714023
0.718692 0.718692 0.718692
0.721582 0.721582 0.721582
0.092306 0.092306 0.092306
0.456588 0.456588 0.456588
0.568355 0.568355 0.568355
0.625019 0.625019 0.625019
0.668696 0.668696 0.668696
0.707439 0.707439 0.707439
0.736160 0.736160 0.736160
0.758426 0.758426 0.758426
0.774123 0.774123 0.774123
0.092306 0.092306 0.092306
0.442206 0.442206 0.442206
0.549102 0.549102 0.549102
0.594665 0.594665 0.594665
0.631835 0.631835 0.631835
0.684015 0.684015 0.684015
0.733221 0.733221 0.733221
0.771210 0.771210 0.771210
0.799349 0.799349 0.799349
0.092306 0.092306 0.092306
0.464911 0.464911 0.464911
0.579339 0.579339 0.579339
0.630142 0.630142 0.630142
0.654532 0.654532 0.654532
0.668691 0.668691 0.668691
0.732087 0.732087 0.732087
0.779380 0.779380 0.779380
0.815397 0.815397 0.815397
0.092306 0.092306 0.092306
0.484916 0.484916 0.484916
0.608606 0.608606 0.608606
0.673460 0.673460 0.673460
0.711088 0.711088 0.711088
0.734738 0.734738 0.734738
0.759784 0.759784 0.759784
0.797287 0.797287 0.797287
0.830816 0.830816 0.830816
0.092306 0.092306 0.092306
0.493513 0.493513 0.493513
0.623515 0.623515 0.623515
0.698888 0.698888 0.698888
0.742774 0.742774 0.742774
0.774445 0.774445 0.774445
0.801760 0.801760 0.801760
0.826563 0.826563 0.826563
0.850938 0.850938 0.850938
0.092306 0.092306 0.092306
0.491971 0.491971 0.491971
0.625534 0.625534 0.625534
0.707183 0.707183 0.707183
0.757396 0.757396 0.757396
0.795756 0.795756 0.795756
0.825530 0.825530 0.825530
0.849753 0.849753 0.849753
0.872803 0.872803 0.872803
0.092306 0.092306 0.092306
0.092306 0.092306 0.092306
0.092306 0.092306 0.092306
0.092306 0.092306 0.092306
0.092306 0.092306 0.092306
0.092306 0.092306 0.092306
0.092306 0.092306 0.092306
0.092306 0.092306 0.092306
0.092306 0.092306 0.092306
0.092306 0.092306 0.092306
0.427712 0.427712 0.427712
0.558087 0.558087 0.558087
0.641162 0.641162 0.641162
0.707084 0.707084 0.707084
0.707979 0.707979 0.707979
0.686290 0.686290 0.686290
0.670054 0.670054 0.670054
0.658124 0.658124 0.658124
0.092306 0.092306 0.092306
0.552993 0.552993 0.552993
0.701043 0.701043 0.701043
0.789594 0.789594 0.789594
0.797792 0.797792 0.797792
0.795768 0.795768 0.795768
0.791805 0.791805 0.791805
0.788251 0.788251 0.788251
0.785043 0.785043 0.785043
0.092306 0.092306 0.092306
0.553176 0.553176 0.553176
0.679373 0.679373 0.679373
0.740666 0.740666 0.740666
0.775145 0.775145 0.775145
0.798983 0.798983 0.798983
0.816704 0.816704 0.816704
0.828289 0.828289 0.828289
0.836528 0.836528 0.836528
0.092306 0.092306 0.092306
0.505010 0.505010 0.505010
0.628283 0.628283 0.628283
0.695649 0.695649 0.695649
0.738703 0.738703 0.738703
0.776761 0.776761 0.776761
0.812381 0.812381 0.812381
0.837954 0.837954 0.837954
0.857568 0.857568 0.857568
0.092306 0.092306 0.092306
0.505043 0.505043 0.505043
0.628576 0.628576 0.628576
0.692766 0.692766 0.692766
0.728606 0.728606 0.728606
0.761508 0.761508 0.761508
0.804330 0.804330 0.804330
0.840998 0.840998 0.840998
0.869465 0.869465 0.869465
0.092306 0.092306 0.092306
0.521910 0.521910 0.521910
0.651638 0.651638 0.651638
0.721627 0.721627 0.721627
0.759750 0.759750 0.759750
0.785442 0.785442 0.785442
0.806640 0.806640 0.806640
0.849442 0.849442 0.849442
0.880855 0.880855 0.880855
0.092306 0.092306 0.092306
0.533551 0.533551 0.533551
0.669111 0.669111 0.669111
0.745032 0.745032 0.745032
0.792448 0.792448 0.792448
0.824940 0.824940 0.824940
0.849300 0.849300 0.849300
0.874148 0.874148 0.874148
0.895974 0.895974 0.895974
0.092306 0.092306 0.092306
0.535465 0.535465 0.535465
0.674747 0.674747 0.674747
0.755736 0.755736 0.755736
0.810389 0.810389 0.810389
0.845800 0.845800 0.845800
0.874943 0.874943 0.874943
0.895070 0.895070 0.895070
0.914286 0.914286 0.914286
0.092306 0.092306 0.092306
0.092306 0.092306 0.092306
0.092306 0.092306 0.092306
0.092306 0.092306 0.092306
0.092306 0.092306 0.092306
0.092306 0.092306 0.092306
0.092306 0.092306 0.092306
0.092306 0.092306 0.092306
0.092306 0.092306 0.092306
0.092306 0.092306 0.092306
0.464979 0.464979 0.464979
0.600905 0.600905 0.600905
0.690354 0.690354 0.690354
0.753495 0.753495 0.753495
0.775531 0.775531 0.775531
0.751227 0.751227 0.751227
0.731301 0.731301 0.731301
0.715618 0.715618 0.715618
0.092306 0.092306 0.092306
0.595420 0.595420 0.595420
0.747577 0.747577 0.747577
0.837141 0.837141 0.837141
0.871493 0.871493 0.871493
0.865776 0.865776 0.865776
0.856685 0.856685 0.856685
0.847815 0.847815 0.847815
0.840029 0.840029 0.840029
0.092306 0.092306 0.092306
0.635143 0.635143 0.635143
0.770479 0.770479 0.770479
0.831131 0.831131 0.831131
0.858681 0.858681 0.858681
0.873287 0.873287 0.873287
0.880016 0.880016 0.880016
0.883808 0.883808 0.883808
0.885972 0.885972 0.885972
0.092306 0.092306 0.092306
0.575757 0.575757 0.575757
0.713561 0.713561 0.713561
0.783490 0.783490 0.783490
0.826772 0.826772 0.826772
0.855056 0.855056 0.855056
0.877276 0.877276 0.877276
0.891301 0.891301 0.891301
0.902152 0.902152 0.902152
0.092306 0.092306 0.092306
0.553694 0.553694 0.553694
0.688375 0.688375 0.688375
0.759192 0.759192 0.759192
0.805622 0.805622 0.805622
0.839016 0.839016 0.839016
0.869492 0.869492 0.869492
0.892234 0.892234 0.892234
0.910192 0.910192 0.910192
0.092306 0.092306 0.092306
0.557867 0.557867 0.557867
0.695408 0.695408 0.695408
0.767247 0.767247 0.767247
0.812944 0.812944 0.812944
0.841450 0.841450 0.841450
0.869674 0.869674 0.869674
0.895602 0.895602 0.895602
0.918319 0.918319 0.918319
0.092306 0.092306 0.092306
0.567279 0.567279 0.567279
0.709737 0.709737 0.709737
0.786425 0.786425 0.786425
0.834250 0.834250 0.834250
0.865859 0.865859 0.865859
0.887718 0.887718 0.887718
0.905876 0.905876 0.905876
0.929872 0.929872 0.929872
0.092306 0.092306 0.092306
0.571135 0.571135 0.571135
0.716564 0.716564 0.716564
0.798703 0.798703 0.798703
0.850047 0.850047 0.850047
0.884500 0.884500 0.884500
0.908060 0.908060 0.908060
0.928714 0.928714 0.928714
0.942382 0.942382 0.942382
0.092306 0.092306 0.092306
0.092306 0.092306 0.092306
0.092306 0.092306 0.092306
0.092306 0.092306 0.092306
0.092306 0.092306 0.092306
0.092306 0.092306 0.092306
0.092306 0.092306 0.092306
0.092306 0.092306 0.092306
0.092306 0.092306 0.092306
0.092306 0.092306 0.092306
0.499974 0.499974 0.499974
0.640643 0.640643 0.640643
0.731517 0.731517 0.731517
0.796044 0.796044 0.796044
0.830556 0.830556 0.830556
0.807489 0.807489 0.807489
0.783565 0.783565 0.783565
0.763459 0.763459 0.763459
0.092306 0.092306 0.092306
0.634795 0.634795 0.634795
0.789819 0.789819 0.789819
0.875813 0.875813 0.875813
0.916920 0.916920 0.916920
0.911952 0.911952 0.911952
0.902720 0.902720 0.902720
0.892855 0.892855 0.892855
0.883736 0.883736 0.883736
0.092306 0.092306 0.092306
0.706559 0.706559 0.706559
0.839979 0.839979 0.839979
0.892101 0.892101 0.892101
0.912995 0.912995 0.912995
0.921837 0.921837 0.921837
0.924605 0.924605 0.924605
0.924507 0.924507 0.924507
0.923033 0.923033 0.923033
0.092306 0.092306 0.092306
0.641974 0.641974 0.641974
0.785331 0.785331 0.785331
0.854571 0.854571 0.854571
0.889681 0.889681 0.889681
0.909281 0.909281 0.909281
0.922901 0.922901 0.922901
0.930807 0.930807 0.930807
0.935428 0.935428 0.935428
0.092306 0.092306 0.092306
0.604253 0.604253 0.604253
0.747829 0.747829 0.747829
0.824427 0.824427 0.824427
0.868600 0.868600 0.868600
0.895232 0.895232 0.895232
0.915725 0.915725 0.915725
0.931023 0.931023 0.931023
0.940371 0.940371 0.940371
0.092306 0.092306 0.092306
0.594301 0.594301 0.594301
0.738175 0.738175 0.738175
0.816688 0.816688 0.816688
0.861401 0.861401 0.861401
0.890676 0.890676 0.890676
0.913461 0.913461 0.913461
0.932238 0.932238 0.932238
0.944837 0.944837 0.944837
0.092306 0.092306 0.092306
0.598380 0.598380 0.598380
0.744357 0.744357 0.744357
0.824646 0.824646 0.824646
0.871924 0.871924 0.871924
0.899415 0.899415 0.899415
0.921757 0.921757 0.921757
0.937824 0.937824 0.937824
0.952077 0.952077 0.952077
0.092306 0.092306 0.092306
0.602521 0.602521 0.602521
0.750972 0.750972 0.750972
0.833883 0.833883 0.833883
0.883145 0.883145 0.883145
0.913229 0.913229 0.913229
0.934431 0.934431 0.934431
0.949242 0.949242 0.949242
0.961544 0.961544 0.961544
