trix_modern/TriX_Orange21_Hard.cube
TITLE "Tri-X Orange21 Hard"
# Adobe RGB in/out. REPLACES AgX. Tri-X Orange21 Hard.
LUT_3D_SIZE 5
DOMAIN_MIN 0.0 0.0 0.0
DOMAIN_MAX 1.0 1.0 1.0
0.093024 0.093024 0.093024
0.100022 0.100022 0.100022
0.815907 0.815907 0.815907
0.994218 0.994218 0.994218
0.998547 0.998547 0.998547
0.093512 0.093512 0.093512
0.116353 0.116353 0.116353
0.794735 0.794735 0.794735
0.991621 0.991621 0.991621
0.998318 0.998318 0.998318
0.119307 0.119307 0.119307
0.319637 0.319637 0.319637
0.813115 0.813115 0.813115
0.986236 0.986236 0.986236
0.998172 0.998172 0.998172
0.339622 0.339622 0.339622
0.573670 0.573670 0.573670
0.920754 0.920754 0.920754
0.988638 0.988638 0.988638
0.997897 0.997897 0.997897
0.517844 0.517844 0.517844
0.882999 0.882999 0.882999
0.965868 0.965868 0.965868
0.991830 0.991830 0.991830
0.997941 0.997941 0.997941
0.093029 0.093029 0.093029
0.097973 0.097973 0.097973
0.759524 0.759524 0.759524
0.993271 0.993271 0.993271
0.998462 0.998462 0.998462
0.093775 0.093775 0.093775
0.099130 0.099130 0.099130
0.630072 0.630072 0.630072
0.989306 0.989306 0.989306
0.998232 0.998232 0.998232
0.149533 0.149533 0.149533
0.291479 0.291479 0.291479
0.731065 0.731065 0.731065
0.982113 0.982113 0.982113
0.998088 0.998088 0.998088
0.403014 0.403014 0.403014
0.596075 0.596075 0.596075
0.908498 0.908498 0.908498
0.987063 0.987063 0.987063
0.997852 0.997852 0.997852
0.507895 0.507895 0.507895
0.877998 0.877998 0.877998
0.965334 0.965334 0.965334
0.991828 0.991828 0.991828
0.997934 0.997934 0.997934
0.093181 0.093181 0.093181
0.139315 0.139315 0.139315
0.868897 0.868897 0.868897
0.993744 0.993744 0.993744
0.998423 0.998423 0.998423
0.096231 0.096231 0.096231
0.204950 0.204950 0.204950
0.761655 0.761655 0.761655
0.989808 0.989808 0.989808
0.998179 0.998179 0.998179
0.144890 0.144890 0.144890
0.248293 0.248293 0.248293
0.588577 0.588577 0.588577
0.976427 0.976427 0.976427
0.997981 0.997981 0.997981
0.435755 0.435755 0.435755
0.591291 0.591291 0.591291
0.885389 0.885389 0.885389
0.983823 0.983823 0.983823
0.997535 0.997535 0.997535
0.762022 0.762022 0.762022
0.829068 0.829068 0.829068
0.964660 0.964660 0.964660
0.991787 0.991787 0.991787
0.997924 0.997924 0.997924
0.093422 0.093422 0.093422
0.167015 0.167015 0.167015
0.910480 0.910480 0.910480
0.995745 0.995745 0.995745
0.998522 0.998522 0.998522
0.098516 0.098516 0.098516
0.295833 0.295833 0.295833
0.903834 0.903834 0.903834
0.993267 0.993267 0.993267
0.998271 0.998271 0.998271
0.168559 0.168559 0.168559
0.314091 0.314091 0.314091
0.799755 0.799755 0.799755
0.983739 0.983739 0.983739
0.998022 0.998022 0.998022
0.409193 0.409193 0.409193
0.555317 0.555317 0.555317
0.866177 0.866177 0.866177
0.977336 0.977336 0.977336
0.997279 0.997279 0.997279
0.750204 0.750204 0.750204
0.830616 0.830616 0.830616
0.961534 0.961534 0.961534
0.991346 0.991346 0.991346
0.997911 0.997911 0.997911
0.096223 0.096223 0.096223
0.113960 0.113960 0.113960
0.931235 0.931235 0.931235
0.997878 0.997878 0.997878
0.998654 0.998654 0.998654
0.113986 0.113986 0.113986
0.206663 0.206663 0.206663
0.946977 0.946977 0.946977
0.995985 0.995985 0.995985
0.998412 0.998412 0.998412
0.269686 0.269686 0.269686
0.415790 0.415790 0.415790
0.858152 0.858152 0.858152
0.989846 0.989846 0.989846
0.998289 0.998289 0.998289
0.394651 0.394651 0.394651
0.535305 0.535305 0.535305
0.864526 0.864526 0.864526
0.983553 0.983553 0.983553
0.997921 0.997921 0.997921
0.622376 0.622376 0.622376
0.825308 0.825308 0.825308
0.956814 0.956814 0.956814
0.990575 0.990575 0.990575
0.997914 0.997914 0.997914
