trix_modern/TriX_Blue47_Normal.cube
TITLE "Tri-X Blue47 Normal"
# Adobe RGB in/out. REPLACES AgX. R=0.0336 G=0.0311 B=0.9353
LUT_3D_SIZE 9
DOMAIN_MIN 0.0 0.0 0.0
DOMAIN_MAX 1.0 1.0 1.0
0.095875 0.095875 0.095875
0.095875 0.095875 0.095875
0.095875 0.095875 0.095875
0.095875 0.095875 0.095875
0.095875 0.095875 0.095875
0.095875 0.095875 0.095875
0.095875 0.095875 0.095875
0.095875 0.095875 0.095875
0.095875 0.095875 0.095875
0.095875 0.095875 0.095875
0.095875 0.095875 0.095875
0.095875 0.095875 0.095875
0.095875 0.095875 0.095875
0.095875 0.095875 0.095875
0.095875 0.095875 0.095875
0.095875 0.095875 0.095875
0.095875 0.095875 0.095875
0.095875 0.095875 0.095875
0.095875 0.095875 0.095875
0.095875 0.095875 0.095875
0.095875 0.095875 0.095875
0.095875 0.095875 0.095875
0.095875 0.095875 0.095875
0.095875 0.095875 0.095875
0.095875 0.095875 0.095875
0.095875 0.095875 0.095875
0.095875 0.095875 0.095875
0.095875 0.095875 0.095875
0.095875 0.095875 0.095875
0.095875 0.095875 0.095875
0.095875 0.095875 0.095875
0.095875 0.095875 0.095875
0.095875 0.095875 0.095875
0.095875 0.095875 0.095875
0.095875 0.095875 0.095875
0.095875 0.095875 0.095875
0.095875 0.095875 0.095875
0.095875 0.095875 0.095875
0.095875 0.095875 0.095875
0.095875 0.095875 0.095875
0.095875 0.095875 0.095875
0.095875 0.095875 0.095875
0.095875 0.095875 0.095875
0.095875 0.095875 0.095875
0.095875 0.095875 0.095875
0.095875 0.095875 0.095875
0.095875 0.095875 0.095875
0.095875 0.095875 0.095875
0.095875 0.095875 0.095875
0.095875 0.095875 0.095875
0.095875 0.095875 0.095875
0.095875 0.095875 0.095875
0.095875 0.095875 0.095875
0.095875 0.095875 0.095875
0.095875 0.095875 0.095875
0.095875 0.095875 0.095875
0.095875 0.095875 0.095875
0.095875 0.095875 0.095875
0.095875 0.095875 0.095875
0.095875 0.095875 0.095875
0.095875 0.095875 0.095875
0.095875 0.095875 0.095875
0.095875 0.095875 0.095875
0.095875 0.095875 0.095875
0.095875 0.095875 0.095875
0.095875 0.095875 0.095875
0.095875 0.095875 0.095875
0.095875 0.095875 0.095875
0.095875 0.095875 0.095875
0.095875 0.095875 0.095875
0.095875 0.095875 0.095875
0.095875 0.095875 0.095875
0.095875 0.095875 0.095875
0.095875 0.095875 0.095875
0.095875 0.095875 0.095875
0.095875 0.095875 0.095875
0.095875 0.095875 0.095875
0.095875 0.095875 0.095875
0.095875 0.095875 0.095875
0.095875 0.095875 0.095875
0.095875 0.095875 0.095875
0.095875 0.095875 0.095875
0.095875 0.095875 0.095875
0.095875 0.095875 0.095875
0.095875 0.095875 0.095875
0.095875 0.095875 0.095875
0.095875 0.095875 0.095875
0.095875 0.095875 0.095875
0.095875 0.095875 0.095875
0.095875 0.095875 0.095875
0.095875 0.095875 0.095875
0.100863 0.100863 0.100863
0.120789 0.120789 0.120789
0.133946 0.133946 0.133946
0.136172 0.136172 0.136172
0.134069 0.134069 0.134069
0.130185 0.130185 0.130185
0.125503 0.125503 0.125503
0.120485 0.120485 0.120485
0.095875 0.095875 0.095875
0.128299 0.128299 0.128299
0.109127 0.109127 0.109127
0.113971 0.113971 0.113971
0.121442 0.121442 0.121442
0.125295 0.125295 0.125295
0.125301 0.125301 0.125301
0.123104 0.123104 0.123104
0.119680 0.119680 0.119680
0.095875 0.095875 0.095875
0.137897 0.137897 0.137897
0.120892 0.120892 0.120892
0.111970 0.111970 0.111970
0.112428 0.112428 0.112428
0.115540 0.115540 0.115540
0.117352 0.117352 0.117352
0.117481 0.117481 0.117481
0.116389 0.116389 0.116389
0.095875 0.095875 0.095875
0.134865 0.134865 0.134865
0.126366 0.126366 0.126366
0.116477 0.116477 0.116477
0.111902 0.111902 0.111902
0.111024 0.111024 0.111024
0.112572 0.112572 0.112572
0.113284 0.113284 0.113284
0.113126 0.113126 0.113126
0.095875 0.095875 0.095875
0.128155 0.128155 0.128155
0.124691 0.124691 0.124691
0.117945 0.117945 0.117945
0.113585 0.113585 0.113585
0.110794 0.110794 0.110794
0.109563 0.109563 0.109563
0.110196 0.110196 0.110196
0.110297 0.110297 0.110297
0.095875 0.095875 0.095875
0.120225 0.120225 0.120225
0.119584 0.119584 0.119584
0.116502 0.116502 0.116502
0.113504 0.113504 0.113504
0.111034 0.111034 0.111034
0.109237 0.109237 0.109237
0.108067 0.108067 0.108067
0.108126 0.108126 0.108126
0.095875 0.095875 0.095875
0.114168 0.114168 0.114168
0.114725 0.114725 0.114725
0.113626 0.113626 0.113626
0.111880 0.111880 0.111880
0.110097 0.110097 0.110097
0.108597 0.108597 0.108597
0.107462 0.107462 0.107462
0.106784 0.106784 0.106784
0.095875 0.095875 0.095875
0.109152 0.109152 0.109152
0.110252 0.110252 0.110252
0.110009 0.110009 0.110009
0.109151 0.109151 0.109151
0.108092 0.108092 0.108092
0.107083 0.107083 0.107083
0.106554 0.106554 0.106554
0.106159 0.106159 0.106159
0.095875 0.095875 0.095875
0.095875 0.095875 0.095875
0.095875 0.095875 0.095875
0.095875 0.095875 0.095875
0.095875 0.095875 0.095875
0.095875 0.095875 0.095875
0.095875 0.095875 0.095875
0.095875 0.095875 0.095875
0.095875 0.095875 0.095875
0.095875 0.095875 0.095875
0.374394 0.374394 0.374394
0.346704 0.346704 0.346704
0.338495 0.338495 0.338495
0.333416 0.333416 0.333416
0.326732 0.326732 0.326732
0.318335 0.318335 0.318335
0.308741 0.308741 0.308741
0.298413 0.298413 0.298413
0.095875 0.095875 0.095875
0.285179 0.285179 0.285179
0.213592 0.213592 0.213592
0.271276 0.271276 0.271276
0.294935 0.294935 0.294935
0.305272 0.305272 0.305272
0.306775 0.306775 0.306775
0.303156 0.303156 0.303156
0.296554 0.296554 0.296554
0.095875 0.095875 0.095875
0.314241 0.314241 0.314241
0.280569 0.280569 0.280569
0.249919 0.249919 0.249919
0.263061 0.263061 0.263061
0.279789 0.279789 0.279789
0.287563 0.287563 0.287563
0.289568 0.289568 0.289568
0.287518 0.287518 0.287518
0.095875 0.095875 0.095875
0.318433 0.318433 0.318433
0.300890 0.300890 0.300890
0.278460 0.278460 0.278460
0.261988 0.261988 0.261988
0.262780 0.262780 0.262780
0.272221 0.272221 0.272221
0.276268 0.276268 0.276268
0.276865 0.276865 0.276865
0.095875 0.095875 0.095875
0.309809 0.309809 0.309809
0.302619 0.302619 0.302619
0.287706 0.287706 0.287706
0.274298 0.274298 0.274298
0.263648 0.263648 0.263648
0.260395 0.260395 0.260395
0.264741 0.264741 0.264741
0.266447 0.266447 0.266447
0.095875 0.095875 0.095875
0.295771 0.295771 0.295771
0.294551 0.294551 0.294551
0.286423 0.286423 0.286423
0.276805 0.276805 0.276805
0.267918 0.267918 0.267918
0.260315 0.260315 0.260315
0.256227 0.256227 0.256227
0.257256 0.257256 0.257256
0.095875 0.095875 0.095875
0.280373 0.280373 0.280373
0.282403 0.282403 0.282403
0.278762 0.278762 0.278762
0.272933 0.272933 0.272933
0.265692 0.265692 0.265692
0.259134 0.259134 0.259134
0.254435 0.254435 0.254435
0.251187 0.251187 0.251187
0.095875 0.095875 0.095875
0.262038 0.262038 0.262038
0.267245 0.267245 0.267245
0.266253 0.266253 0.266253
0.262442 0.262442 0.262442
0.257764 0.257764 0.257764
0.253405 0.253405 0.253405
0.249885 0.249885 0.249885
0.247220 0.247220 0.247220
0.095875 0.095875 0.095875
0.095875 0.095875 0.095875
0.095875 0.095875 0.095875
0.095875 0.095875 0.095875
0.095875 0.095875 0.095875
0.095875 0.095875 0.095875
0.095875 0.095875 0.095875
0.095875 0.095875 0.095875
0.095875 0.095875 0.095875
0.095875 0.095875 0.095875
0.743312 0.743312 0.743312
0.662548 0.662548 0.662548
0.589462 0.589462 0.589462
0.547207 0.547207 0.547207
0.521124 0.521124 0.521124
0.500963 0.500963 0.500963
0.483042 0.483042 0.483042
0.465875 0.465875 0.465875
0.095875 0.095875 0.095875
0.489473 0.489473 0.489473
0.463404 0.463404 0.463404
0.465039 0.465039 0.465039
0.476863 0.476863 0.476863
0.482249 0.482249 0.482249
0.480338 0.480338 0.480338
0.473162 0.473162 0.473162
0.462502 0.462502 0.462502
0.095875 0.095875 0.095875
0.460448 0.460448 0.460448
0.415654 0.415654 0.415654
0.359861 0.359861 0.359861
0.404113 0.404113 0.404113
0.431753 0.431753 0.431753
0.445621 0.445621 0.445621
0.449691 0.449691 0.449691
0.446969 0.446969 0.446969
0.095875 0.095875 0.095875
0.473390 0.473390 0.473390
0.449539 0.449539 0.449539
0.413650 0.413650 0.413650
0.389762 0.389762 0.389762
0.400107 0.400107 0.400107
0.416764 0.416764 0.416764
0.426142 0.426142 0.426142
0.428664 0.428664 0.428664
0.095875 0.095875 0.095875
0.469196 0.469196 0.469196
0.459453 0.459453 0.459453
0.436661 0.436661 0.436661
0.414694 0.414694 0.414694
0.400960 0.400960 0.400960
0.401346 0.401346 0.401346
0.409064 0.409064 0.409064
0.413033 0.413033 0.413033
0.095875 0.095875 0.095875
0.453624 0.453624 0.453624
0.452399 0.452399 0.452399
0.439679 0.439679 0.439679
0.424394 0.424394 0.424394
0.410994 0.410994 0.410994
0.402528 0.402528 0.402528
0.399722 0.399722 0.399722
0.402282 0.402282 0.402282
0.095875 0.095875 0.095875
0.432247 0.432247 0.432247
0.435989 0.435989 0.435989
0.430437 0.430437 0.430437
0.421276 0.421276 0.421276
0.411572 0.411572 0.411572
0.403892 0.403892 0.403892
0.398772 0.398772 0.398772
0.395657 0.395657 0.395657
0.095875 0.095875 0.095875
0.407893 0.407893 0.407893
0.414712 0.414712 0.414712
0.413774 0.413774 0.413774
0.409306 0.409306 0.409306
0.403758 0.403758 0.403758
0.398663 0.398663 0.398663
0.394722 0.394722 0.394722
0.391942 0.391942 0.391942
0.095875 0.095875 0.095875
0.095875 0.095875 0.095875
0.095875 0.095875 0.095875
0.095875 0.095875 0.095875
0.095875 0.095875 0.095875
0.095875 0.095875 0.095875
0.095875 0.095875 0.095875
0.095875 0.095875 0.095875
0.095875 0.095875 0.095875
0.095875 0.095875 0.095875
0.949093 0.949093 0.949093
0.902099 0.902099 0.902099
0.833991 0.833991 0.833991
0.777141 0.777141 0.777141
0.725508 0.725508 0.725508
0.689856 0.689856 0.689856
0.661802 0.661802 0.661802
0.635362 0.635362 0.635362
0.095875 0.095875 0.095875
0.770035 0.770035 0.770035
0.746799 0.746799 0.746799
0.716730 0.716730 0.716730
0.694634 0.694634 0.694634
0.678526 0.678526 0.678526
0.663856 0.663856 0.663856
0.647515 0.647515 0.647515
0.630238 0.630238 0.630238
0.095875 0.095875 0.095875
0.631007 0.631007 0.631007
0.604028 0.604028 0.604028
0.580337 0.580337 0.580337
0.587771 0.587771 0.587771
0.603697 0.603697 0.603697
0.612941 0.612941 0.612941
0.614041 0.614041 0.614041
0.608595 0.608595 0.608595
0.095875 0.095875 0.095875
0.616322 0.616322 0.616322
0.592996 0.592996 0.592996
0.550273 0.550273 0.550273
0.508013 0.508013 0.508013
0.543498 0.543498 0.543498
0.566776 0.566776 0.566776
0.579200 0.579200 0.579200
0.582817 0.582817 0.582817
0.095875 0.095875 0.095875
0.615549 0.615549 0.615549
0.605924 0.605924 0.605924
0.578943 0.578943 0.578943
0.550343 0.550343 0.550343
0.533364 0.533364 0.533364
0.541616 0.541616 0.541616
0.554489 0.554489 0.554489
0.561391 0.561391 0.561391
0.095875 0.095875 0.095875
0.602761 0.602761 0.602761
0.602531 0.602531 0.602531
0.587645 0.587645 0.587645
0.568420 0.568420 0.568420
0.552061 0.552061 0.552061
0.542727 0.542727 0.542727
0.542983 0.542983 0.542983
0.547949 0.547949 0.547949
0.095875 0.095875 0.095875
0.580709 0.580709 0.580709
0.586287 0.586287 0.586287
0.579901 0.579901 0.579901
0.568649 0.568649 0.568649
0.557151 0.557151 0.557151
0.548291 0.548291 0.548291
0.543028 0.543028 0.543028
0.541049 0.541049 0.541049
0.095875 0.095875 0.095875
0.553246 0.553246 0.553246
0.562258 0.562258 0.562258
0.561649 0.561649 0.561649
0.556642 0.556642 0.556642
0.550280 0.550280 0.550280
0.544544 0.544544 0.544544
0.540396 0.540396 0.540396
0.537841 0.537841 0.537841
0.095875 0.095875 0.095875
0.095875 0.095875 0.095875
0.095875 0.095875 0.095875
0.095875 0.095875 0.095875
0.095875 0.095875 0.095875
0.095875 0.095875 0.095875
0.095875 0.095875 0.095875
0.095875 0.095875 0.095875
0.095875 0.095875 0.095875
0.095875 0.095875 0.095875
0.987932 0.987932 0.987932
0.980801 0.980801 0.980801
0.963239 0.963239 0.963239
0.924080 0.924080 0.924080
0.883134 0.883134 0.883134
0.843316 0.843316 0.843316
0.812289 0.812289 0.812289
0.787361 0.787361 0.787361
0.095875 0.095875 0.095875
0.943233 0.943233 0.943233
0.928791 0.928791 0.928791
0.902180 0.902180 0.902180
0.874391 0.874391 0.874391
0.844526 0.844526 0.844526
0.820668 0.820668 0.820668
0.800747 0.800747 0.800747
0.782950 0.782950 0.782950
0.095875 0.095875 0.095875
0.819189 0.819189 0.819189
0.812634 0.812634 0.812634
0.798473 0.798473 0.798473
0.788635 0.788635 0.788635
0.783340 0.783340 0.783340
0.778899 0.778899 0.778899
0.770934 0.770934 0.770934
0.759981 0.759981 0.759981
0.095875 0.095875 0.095875
0.757871 0.757871 0.757871
0.745573 0.745573 0.745573
0.718252 0.718252 0.718252
0.701932 0.701932 0.701932
0.708981 0.708981 0.708981
0.721673 0.721673 0.721673
0.729127 0.729127 0.729127
0.729952 0.729952 0.729952
0.095875 0.095875 0.095875
0.744168 0.744168 0.744168
0.738029 0.738029 0.738029
0.713647 0.713647 0.713647
0.683966 0.683966 0.683966
0.655584 0.655584 0.655584
0.681106 0.681106 0.681106
0.696546 0.696546 0.696546
0.704141 0.704141 0.704141
0.095875 0.095875 0.095875
0.733818 0.733818 0.733818
0.735387 0.735387 0.735387
0.721697 0.721697 0.721697
0.702418 0.702418 0.702418
0.684692 0.684692 0.684692
0.675111 0.675111 0.675111
0.680592 0.680592 0.680592
0.687955 0.687955 0.687955
0.095875 0.095875 0.095875
0.715307 0.715307 0.715307
0.722221 0.722221 0.722221
0.716664 0.716664 0.716664
0.705751 0.705751 0.705751
0.694202 0.694202 0.694202
0.685376 0.685376 0.685376
0.680947 0.680947 0.680947
0.681222 0.681222 0.681222
0.095875 0.095875 0.095875
0.689965 0.689965 0.689965
0.700238 0.700238 0.700238
0.700361 0.700361 0.700361
0.695812 0.695812 0.695812
0.689769 0.689769 0.689769
0.684404 0.684404 0.684404
0.680885 0.680885 0.680885
0.679262 0.679262 0.679262
0.095875 0.095875 0.095875
0.095875 0.095875 0.095875
0.095875 0.095875 0.095875
0.095875 0.095875 0.095875
0.095875 0.095875 0.095875
0.095875 0.095875 0.095875
0.095875 0.095875 0.095875
0.095875 0.095875 0.095875
0.095875 0.095875 0.095875
0.095875 0.095875 0.095875
0.994549 0.994549 0.994549
0.992437 0.992437 0.992437
0.988505 0.988505 0.988505
0.979765 0.979765 0.979765
0.967282 0.967282 0.967282
0.945228 0.945228 0.945228
0.916122 0.916122 0.916122
0.891866 0.891866 0.891866
0.095875 0.095875 0.095875
0.986679 0.986679 0.986679
0.983645 0.983645 0.983645
0.977021 0.977021 0.977021
0.968187 0.968187 0.968187
0.950450 0.950450 0.950450
0.928681 0.928681 0.928681
0.906772 0.906772 0.906772
0.888125 0.888125 0.888125
0.095875 0.095875 0.095875
0.946862 0.946862 0.946862
0.945570 0.945570 0.945570
0.934573 0.934573 0.934573
0.919942 0.919942 0.919942
0.906384 0.906384 0.906384
0.894423 0.894423 0.894423
0.883446 0.883446 0.883446
0.870305 0.870305 0.870305
0.095875 0.095875 0.095875
0.879498 0.879498 0.879498
0.878676 0.878676 0.878676
0.867062 0.867062 0.867062
0.856493 0.856493 0.856493
0.851520 0.851520 0.851520
0.849929 0.849929 0.849929
0.848020 0.848020 0.848020
0.843837 0.843837 0.843837
0.095875 0.095875 0.095875
0.844226 0.844226 0.844226
0.843634 0.843634 0.843634
0.830077 0.830077 0.830077
0.813893 0.813893 0.813893
0.805580 0.805580 0.805580
0.809871 0.809871 0.809871
0.816575 0.816575 0.816575
0.819874 0.819874 0.819874
0.095875 0.095875 0.095875
0.831386 0.831386 0.831386
0.834476 0.834476 0.834476
0.825548 0.825548 0.825548
0.811458 0.811458 0.811458
0.796857 0.796857 0.796857
0.784842 0.784842 0.784842
0.796686 0.796686 0.796686
0.803540 0.803540 0.803540
0.095875 0.095875 0.095875
0.818092 0.818092 0.818092
0.824739 0.824739 0.824739
0.821380 0.821380 0.821380
0.813464 0.813464 0.813464
0.804539 0.804539 0.804539
0.797370 0.797370 0.797370
0.794323 0.794323 0.794323
0.796870 0.796870 0.796870
0.095875 0.095875 0.095875
0.799851 0.799851 0.799851
0.808996 0.808996 0.808996
0.809850 0.809850 0.809850
0.806864 0.806864 0.806864
0.802570 0.802570 0.802570
0.798782 0.798782 0.798782
0.796619 0.796619 0.796619
0.796253 0.796253 0.796253
0.095875 0.095875 0.095875
0.095875 0.095875 0.095875
0.095875 0.095875 0.095875
0.095875 0.095875 0.095875
0.095875 0.095875 0.095875
0.095875 0.095875 0.095875
0.095875 0.095875 0.095875
0.095875 0.095875 0.095875
0.095875 0.095875 0.095875
0.095875 0.095875 0.095875
0.996572 0.996572 0.996572
0.995886 0.995886 0.995886
0.994588 0.994588 0.994588
0.991215 0.991215 0.991215
0.987516 0.987516 0.987516
0.979720 0.979720 0.979720
0.971862 0.971862 0.971862
0.957664 0.957664 0.957664
0.095875 0.095875 0.095875
0.993595 0.993595 0.993595
0.992818 0.992818 0.992818
0.990803 0.990803 0.990803
0.988121 0.988121 0.988121
0.983030 0.983030 0.983030
0.975932 0.975932 0.975932
0.968942 0.968942 0.968942
0.955467 0.955467 0.955467
0.095875 0.095875 0.095875
0.984132 0.984132 0.984132
0.983858 0.983858 0.983858
0.980861 0.980861 0.980861
0.976688 0.976688 0.976688
0.972270 0.972270 0.972270
0.964658 0.964658 0.964658
0.954935 0.954935 0.954935
0.945798 0.945798 0.945798
0.095875 0.095875 0.095875
0.958880 0.958880 0.958880
0.960443 0.960443 0.960443
0.956858 0.956858 0.956858
0.951669 0.951669 0.951669
0.946472 0.946472 0.946472
0.940573 0.940573 0.940573
0.933234 0.933234 0.933234
0.925619 0.925619 0.925619
0.095875 0.095875 0.095875
0.924625 0.924625 0.924625
0.927724 0.927724 0.927724
0.922206 0.922206 0.922206
0.914585 0.914585 0.914585
0.909152 0.909152 0.909152
0.907067 0.907067 0.907067
0.906462 0.906462 0.906462
0.905134 0.905134 0.905134
0.095875 0.095875 0.095875
0.905344 0.905344 0.905344
0.909486 0.909486 0.909486
0.904951 0.904951 0.904951
0.896771 0.896771 0.896771
0.888798 0.888798 0.888798
0.885219 0.885219 0.885219
0.887378 0.887378 0.887378
0.889986 0.889986 0.889986
0.095875 0.095875 0.095875
0.893602 0.893602 0.893602
0.899695 0.899695 0.899695
0.898174 0.898174 0.898174
0.893058 0.893058 0.893058
0.886826 0.886826 0.886826
0.881308 0.881308 0.881308
0.877111 0.877111 0.877111
0.882331 0.882331 0.882331
0.095875 0.095875 0.095875
0.880431 0.880431 0.880431
0.888208 0.888208 0.888208
0.889542 0.889542 0.889542
0.887879 0.887879 0.887879
0.885115 0.885115 0.885115
0.882645 0.882645 0.882645
0.881454 0.881454 0.881454
0.881925 0.881925 0.881925
0.095875 0.095875 0.095875
0.095875 0.095875 0.095875
0.095875 0.095875 0.095875
0.095875 0.095875 0.095875
0.095875 0.095875 0.095875
0.095875 0.095875 0.095875
0.095875 0.095875 0.095875
0.095875 0.095875 0.095875
0.095875 0.095875 0.095875
0.095875 0.095875 0.095875
0.998146 0.998146 0.998146
0.997653 0.997653 0.997653
0.996570 0.996570 0.996570
0.995240 0.995240 0.995240
0.993103 0.993103 0.993103
0.990017 0.990017 0.990017
0.987152 0.987152 0.987152
0.980846 0.980846 0.980846
0.095875 0.095875 0.095875
0.996206 0.996206 0.996206
0.995956 0.995956 0.995956
0.995215 0.995215 0.995215
0.993918 0.993918 0.993918
0.991446 0.991446 0.991446
0.988842 0.988842 0.988842
0.986101 0.986101 0.986101
0.980038 0.980038 0.980038
0.095875 0.095875 0.095875
0.992255 0.992255 0.992255
0.992215 0.992215 0.992215
0.991272 0.991272 0.991272
0.989732 0.989732 0.989732
0.987993 0.987993 0.987993
0.985430 0.985430 0.985430
0.980664 0.980664 0.980664
0.976270 0.976270 0.976270
0.095875 0.095875 0.095875
0.984746 0.984746 0.984746
0.985650 0.985650 0.985650
0.984367 0.984367 0.984367
0.982040 0.982040 0.982040
0.979318 0.979318 0.979318
0.976544 0.976544 0.976544
0.973839 0.973839 0.973839
0.971190 0.971190 0.971190
0.095875 0.095875 0.095875
0.972031 0.972031 0.972031
0.973282 0.973282 0.973282
0.972648 0.972648 0.972648
0.971275 0.971275 0.971275
0.969057 0.969057 0.969057
0.965784 0.965784 0.965784
0.962857 0.962857 0.962857
0.959834 0.959834 0.959834
0.095875 0.095875 0.095875
0.957005 0.957005 0.957005
0.960505 0.960505 0.960505
0.959373 0.959373 0.959373
0.956336 0.956336 0.956336
0.953220 0.953220 0.953220
0.951224 0.951224 0.951224
0.950417 0.950417 0.950417
0.949865 0.949865 0.949865
0.095875 0.095875 0.095875
0.947339 0.947339 0.947339
0.951632 0.951632 0.951632
0.951501 0.951501 0.951501
0.949339 0.949339 0.949339
0.946369 0.946369 0.946369
0.943917 0.943917 0.943917
0.942804 0.942804 0.942804
0.943756 0.943756 0.943756
0.095875 0.095875 0.095875
0.935891 0.935891 0.935891
0.944187 0.944187 0.944187
0.945470 0.945470 0.945470
0.944900 0.944900 0.944900
0.943600 0.943600 0.943600
0.941640 0.941640 0.941640
0.940815 0.940815 0.940815
0.941833 0.941833 0.941833
