trix_modern/TriX_Green58_ExtraSoft.cube
TITLE "Tri-X Green58 ExtraSoft"
# Adobe RGB in/out. REPLACES AgX. R=0.1714 G=0.8069 B=0.0217
LUT_3D_SIZE 9
DOMAIN_MIN 0.0 0.0 0.0
DOMAIN_MAX 1.0 1.0 1.0
0.121260 0.121260 0.121260
0.121260 0.121260 0.121260
0.121260 0.121260 0.121260
0.121260 0.121260 0.121260
0.121260 0.121260 0.121260
0.121260 0.121260 0.121260
0.121260 0.121260 0.121260
0.121260 0.121260 0.121260
0.121260 0.121260 0.121260
0.121260 0.121260 0.121260
0.121260 0.121260 0.121260
0.121260 0.121260 0.121260
0.121260 0.121260 0.121260
0.121260 0.121260 0.121260
0.121260 0.121260 0.121260
0.121260 0.121260 0.121260
0.121260 0.121260 0.121260
0.121260 0.121260 0.121260
0.121260 0.121260 0.121260
0.121260 0.121260 0.121260
0.121260 0.121260 0.121260
0.121260 0.121260 0.121260
0.121260 0.121260 0.121260
0.121260 0.121260 0.121260
0.121260 0.121260 0.121260
0.121260 0.121260 0.121260
0.121260 0.121260 0.121260
0.121260 0.121260 0.121260
0.121260 0.121260 0.121260
0.121260 0.121260 0.121260
0.121260 0.121260 0.121260
0.121260 0.121260 0.121260
0.121260 0.121260 0.121260
0.121260 0.121260 0.121260
0.121260 0.121260 0.121260
0.121260 0.121260 0.121260
0.121260 0.121260 0.121260
0.121260 0.121260 0.121260
0.121260 0.121260 0.121260
0.121260 0.121260 0.121260
0.121260 0.121260 0.121260
0.121260 0.121260 0.121260
0.121260 0.121260 0.121260
0.121260 0.121260 0.121260
0.121260 0.121260 0.121260
0.121260 0.121260 0.121260
0.121260 0.121260 0.121260
0.121260 0.121260 0.121260
0.121260 0.121260 0.121260
0.121260 0.121260 0.121260
0.121260 0.121260 0.121260
0.121260 0.121260 0.121260
0.121260 0.121260 0.121260
0.121260 0.121260 0.121260
0.121260 0.121260 0.121260
0.121260 0.121260 0.121260
0.121260 0.121260 0.121260
0.121260 0.121260 0.121260
0.121260 0.121260 0.121260
0.121260 0.121260 0.121260
0.121260 0.121260 0.121260
0.121260 0.121260 0.121260
0.121260 0.121260 0.121260
0.121260 0.121260 0.121260
0.121260 0.121260 0.121260
0.121260 0.121260 0.121260
0.121260 0.121260 0.121260
0.121260 0.121260 0.121260
0.121260 0.121260 0.121260
0.121260 0.121260 0.121260
0.121260 0.121260 0.121260
0.121260 0.121260 0.121260
0.121260 0.121260 0.121260
0.121260 0.121260 0.121260
0.121260 0.121260 0.121260
0.121260 0.121260 0.121260
0.121260 0.121260 0.121260
0.121260 0.121260 0.121260
0.121260 0.121260 0.121260
0.121260 0.121260 0.121260
0.121260 0.121260 0.121260
0.121260 0.121260 0.121260
0.121260 0.121260 0.121260
0.121260 0.121260 0.121260
0.121260 0.121260 0.121260
0.121260 0.121260 0.121260
0.121260 0.121260 0.121260
0.121260 0.121260 0.121260
0.121260 0.121260 0.121260
0.121260 0.121260 0.121260
0.121260 0.121260 0.121260
0.146378 0.146378 0.146378
0.200832 0.200832 0.200832
0.227426 0.227426 0.227426
0.238628 0.238628 0.238628
0.242722 0.242722 0.242722
0.243262 0.243262 0.243262
0.241741 0.241741 0.241741
0.238922 0.238922 0.238922
0.121260 0.121260 0.121260
0.312479 0.312479 0.312479
0.294363 0.294363 0.294363
0.325262 0.325262 0.325262
0.357006 0.357006 0.357006
0.374411 0.374411 0.374411
0.382565 0.382565 0.382565
0.385067 0.385067 0.385067
0.383970 0.383970 0.383970
0.121260 0.121260 0.121260
0.436377 0.436377 0.436377
0.434030 0.434030 0.434030
0.421056 0.421056 0.421056
0.442418 0.442418 0.442418
0.476542 0.476542 0.476542
0.499114 0.499114 0.499114
0.510972 0.510972 0.510972
0.515443 0.515443 0.515443
0.121260 0.121260 0.121260
0.546729 0.546729 0.546729
0.573322 0.573322 0.573322
0.565676 0.565676 0.565676
0.559586 0.559586 0.559586
0.571784 0.571784 0.571784
0.599167 0.599167 0.599167
0.619066 0.619066 0.619066
0.630602 0.630602 0.630602
0.121260 0.121260 0.121260
0.632043 0.632043 0.632043
0.685345 0.685345 0.685345
0.692454 0.692454 0.692454
0.689447 0.689447 0.689447
0.688597 0.688597 0.688597
0.695572 0.695572 0.695572
0.714554 0.714554 0.714554
0.727818 0.727818 0.727818
0.121260 0.121260 0.121260
0.696909 0.696909 0.696909
0.759276 0.759276 0.759276
0.780818 0.780818 0.780818
0.786122 0.786122 0.786122
0.787517 0.787517 0.787517
0.789902 0.789902 0.789902
0.794210 0.794210 0.794210
0.805474 0.805474 0.805474
0.121260 0.121260 0.121260
0.740843 0.740843 0.740843
0.808378 0.808378 0.808378
0.834714 0.834714 0.834714
0.846927 0.846927 0.846927
0.853226 0.853226 0.853226
0.857482 0.857482 0.857482
0.861125 0.861125 0.861125
0.865092 0.865092 0.865092
0.121260 0.121260 0.121260
0.773193 0.773193 0.773193
0.840198 0.840198 0.840198
0.869220 0.869220 0.869220
0.883466 0.883466 0.883466
0.892346 0.892346 0.892346
0.898769 0.898769 0.898769
0.904251 0.904251 0.904251
0.909388 0.909388 0.909388
0.121260 0.121260 0.121260
0.121260 0.121260 0.121260
0.121260 0.121260 0.121260
0.121260 0.121260 0.121260
0.121260 0.121260 0.121260
0.121260 0.121260 0.121260
0.121260 0.121260 0.121260
0.121260 0.121260 0.121260
0.121260 0.121260 0.121260
0.121260 0.121260 0.121260
0.220076 0.220076 0.220076
0.226760 0.226760 0.226760
0.234511 0.234511 0.234511
0.240202 0.240202 0.240202
0.243105 0.243105 0.243105
0.243709 0.243709 0.243709
0.242606 0.242606 0.242606
0.240255 0.240255 0.240255
0.121260 0.121260 0.121260
0.290309 0.290309 0.290309
0.262816 0.262816 0.262816
0.318825 0.318825 0.318825
0.353873 0.353873 0.353873
0.372986 0.372986 0.372986
0.382475 0.382475 0.382475
0.386111 0.386111 0.386111
0.385942 0.385942 0.385942
0.121260 0.121260 0.121260
0.412511 0.412511 0.412511
0.410943 0.410943 0.410943
0.400369 0.400369 0.400369
0.430023 0.430023 0.430023
0.470560 0.470560 0.470560
0.497625 0.497625 0.497625
0.512228 0.512228 0.512228
0.518634 0.518634 0.518634
0.121260 0.121260 0.121260
0.532655 0.532655 0.532655
0.559427 0.559427 0.559427
0.551442 0.551442 0.551442
0.546721 0.546721 0.546721
0.565802 0.565802 0.565802
0.597250 0.597250 0.597250
0.620827 0.620827 0.620827
0.635067 0.635067 0.635067
0.121260 0.121260 0.121260
0.625626 0.625626 0.625626
0.680065 0.680065 0.680065
0.687368 0.687368 0.687368
0.684645 0.684645 0.684645
0.685263 0.685263 0.685263
0.696177 0.696177 0.696177
0.717629 0.717629 0.717629
0.733090 0.733090 0.733090
0.121260 0.121260 0.121260
0.697048 0.697048 0.697048
0.759831 0.759831 0.759831
0.781797 0.781797 0.781797
0.787195 0.787195 0.787195
0.789134 0.789134 0.789134
0.792563 0.792563 0.792563
0.798817 0.798817 0.798817
0.811333 0.811333 0.811333
0.121260 0.121260 0.121260
0.745085 0.745085 0.745085
0.812241 0.812241 0.812241
0.838995 0.838995 0.838995
0.851599 0.851599 0.851599
0.857800 0.857800 0.857800
0.861779 0.861779 0.861779
0.866059 0.866059 0.866059
0.870746 0.870746 0.870746
0.121260 0.121260 0.121260
0.780438 0.780438 0.780438
0.846545 0.846545 0.846545
0.874284 0.874284 0.874284
0.888832 0.888832 0.888832
0.898034 0.898034 0.898034
0.904837 0.904837 0.904837
0.910773 0.910773 0.910773
0.916418 0.916418 0.916418
0.121260 0.121260 0.121260
0.121260 0.121260 0.121260
0.121260 0.121260 0.121260
0.121260 0.121260 0.121260
0.121260 0.121260 0.121260
0.121260 0.121260 0.121260
0.121260 0.121260 0.121260
0.121260 0.121260 0.121260
0.121260 0.121260 0.121260
0.121260 0.121260 0.121260
0.225309 0.225309 0.225309
0.251052 0.251052 0.251052
0.256006 0.256006 0.256006
0.250177 0.250177 0.250177
0.247470 0.247470 0.247470
0.245590 0.245590 0.245590
0.243492 0.243492 0.243492
0.240841 0.240841 0.240841
0.121260 0.121260 0.121260
0.313097 0.313097 0.313097
0.327396 0.327396 0.327396
0.345118 0.345118 0.345118
0.364163 0.364163 0.364163
0.376958 0.376958 0.376958
0.384050 0.384050 0.384050
0.386864 0.386864 0.386864
0.386581 0.386581 0.386581
0.121260 0.121260 0.121260
0.394687 0.394687 0.394687
0.397701 0.397701 0.397701
0.377097 0.377097 0.377097
0.425716 0.425716 0.425716
0.468700 0.468700 0.468700
0.496630 0.496630 0.496630
0.511899 0.511899 0.511899
0.519061 0.519061 0.519061
0.121260 0.121260 0.121260
0.511052 0.511052 0.511052
0.539552 0.539552 0.539552
0.531447 0.531447 0.531447
0.526432 0.526432 0.526432
0.555999 0.555999 0.555999
0.591755 0.591755 0.591755
0.618537 0.618537 0.618537
0.634965 0.634965 0.634965
0.121260 0.121260 0.121260
0.609494 0.609494 0.609494
0.664581 0.664581 0.664581
0.674175 0.674175 0.674175
0.671131 0.671131 0.671131
0.673505 0.673505 0.673505
0.690923 0.690923 0.690923
0.715246 0.715246 0.715246
0.733139 0.733139 0.733139
0.121260 0.121260 0.121260
0.689126 0.689126 0.689126
0.752121 0.752121 0.752121
0.774808 0.774808 0.774808
0.781460 0.781460 0.781460
0.784671 0.784671 0.784671
0.789380 0.789380 0.789380
0.798464 0.798464 0.798464
0.812500 0.812500 0.812500
0.121260 0.121260 0.121260
0.742003 0.742003 0.742003
0.810010 0.810010 0.810010
0.837260 0.837260 0.837260
0.850410 0.850410 0.850410
0.857359 0.857359 0.857359
0.861948 0.861948 0.861948
0.867082 0.867082 0.867082
0.872814 0.872814 0.872814
0.121260 0.121260 0.121260
0.781148 0.781148 0.781148
0.847414 0.847414 0.847414
0.875259 0.875259 0.875259
0.890190 0.890190 0.890190
0.899826 0.899826 0.899826
0.907145 0.907145 0.907145
0.913710 0.913710 0.913710
0.920071 0.920071 0.920071
0.121260 0.121260 0.121260
0.121260 0.121260 0.121260
0.121260 0.121260 0.121260
0.121260 0.121260 0.121260
0.121260 0.121260 0.121260
0.121260 0.121260 0.121260
0.121260 0.121260 0.121260
0.121260 0.121260 0.121260
0.121260 0.121260 0.121260
0.121260 0.121260 0.121260
0.226606 0.226606 0.226606
0.252468 0.252468 0.252468
0.268753 0.268753 0.268753
0.265254 0.265254 0.265254
0.256155 0.256155 0.256155
0.250289 0.250289 0.250289
0.245959 0.245959 0.245959
0.242147 0.242147 0.242147
0.121260 0.121260 0.121260
0.358682 0.358682 0.358682
0.379244 0.379244 0.379244
0.383941 0.383941 0.383941
0.386589 0.386589 0.386589
0.388932 0.388932 0.388932
0.390238 0.390238 0.390238
0.390030 0.390030 0.390030
0.388257 0.388257 0.388257
0.121260 0.121260 0.121260
0.398040 0.398040 0.398040
0.419154 0.419154 0.419154
0.428735 0.428735 0.428735
0.453793 0.453793 0.453793
0.482374 0.482374 0.482374
0.502937 0.502937 0.502937
0.515094 0.515094 0.515094
0.520834 0.520834 0.520834
0.121260 0.121260 0.121260
0.493079 0.493079 0.493079
0.525965 0.525965 0.525965
0.520640 0.520640 0.520640
0.504596 0.504596 0.504596
0.554117 0.554117 0.554117
0.591859 0.591859 0.591859
0.618969 0.618969 0.618969
0.635619 0.635619 0.635619
0.121260 0.121260 0.121260
0.590949 0.590949 0.590949
0.647164 0.647164 0.647164
0.658722 0.658722 0.658722
0.655216 0.655216 0.655216
0.657594 0.657594 0.657594
0.685227 0.685227 0.685227
0.712697 0.712697 0.712697
0.732550 0.732550 0.732550
0.121260 0.121260 0.121260
0.677611 0.677611 0.677611
0.741140 0.741140 0.741140
0.765032 0.765032 0.765032
0.772556 0.772556 0.772556
0.776273 0.776273 0.776273
0.783689 0.783689 0.783689
0.796534 0.796534 0.796534
0.812186 0.812186 0.812186
0.121260 0.121260 0.121260
0.735413 0.735413 0.735413
0.804957 0.804957 0.804957
0.832896 0.832896 0.832896
0.846803 0.846803 0.846803
0.854853 0.854853 0.854853
0.860410 0.860410 0.860410
0.866480 0.866480 0.866480
0.873754 0.873754 0.873754
0.121260 0.121260 0.121260
0.778652 0.778652 0.778652
0.845653 0.845653 0.845653
0.874335 0.874335 0.874335
0.889756 0.889756 0.889756
0.899927 0.899927 0.899927
0.907848 0.907848 0.907848
0.915135 0.915135 0.915135
0.922332 0.922332 0.922332
0.121260 0.121260 0.121260
0.121260 0.121260 0.121260
0.121260 0.121260 0.121260
0.121260 0.121260 0.121260
0.121260 0.121260 0.121260
0.121260 0.121260 0.121260
0.121260 0.121260 0.121260
0.121260 0.121260 0.121260
0.121260 0.121260 0.121260
0.121260 0.121260 0.121260
0.227618 0.227618 0.227618
0.253573 0.253573 0.253573
0.269928 0.269928 0.269928
0.280152 0.280152 0.280152
0.266602 0.266602 0.266602
0.256952 0.256952 0.256952
0.249944 0.249944 0.249944
0.244424 0.244424 0.244424
0.121260 0.121260 0.121260
0.375554 0.375554 0.375554
0.416292 0.416292 0.416292
0.418178 0.418178 0.418178
0.411321 0.411321 0.411321
0.405222 0.405222 0.405222
0.400180 0.400180 0.400180
0.395805 0.395805 0.395805
0.391500 0.391500 0.391500
0.121260 0.121260 0.121260
0.425686 0.425686 0.425686
0.467815 0.467815 0.467815
0.484715 0.484715 0.484715
0.496808 0.496808 0.496808
0.508068 0.508068 0.508068
0.517321 0.517321 0.517321
0.523140 0.523140 0.523140
0.525274 0.525274 0.525274
0.121260 0.121260 0.121260
0.489916 0.489916 0.489916
0.532345 0.532345 0.532345
0.542574 0.542574 0.542574
0.551990 0.551990 0.551990
0.576102 0.576102 0.576102
0.604025 0.604025 0.604025
0.625646 0.625646 0.625646
0.639396 0.639396 0.639396
0.121260 0.121260 0.121260
0.576242 0.576242 0.576242
0.634568 0.634568 0.634568
0.650254 0.650254 0.650254
0.647908 0.647908 0.647908
0.641082 0.641082 0.641082
0.685039 0.685039 0.685039
0.713861 0.713861 0.713861
0.733814 0.733814 0.733814
0.121260 0.121260 0.121260
0.663546 0.663546 0.663546
0.729857 0.729857 0.729857
0.755510 0.755510 0.755510
0.764253 0.764253 0.764253
0.767793 0.767793 0.767793
0.775657 0.775657 0.775657
0.794619 0.794619 0.794619
0.811955 0.811955 0.811955
0.121260 0.121260 0.121260
0.727199 0.727199 0.727199
0.798670 0.798670 0.798670
0.827493 0.827493 0.827493
0.842363 0.842363 0.842363
0.851162 0.851162 0.851162
0.858177 0.858177 0.858177
0.865142 0.865142 0.865142
0.874138 0.874138 0.874138
0.121260 0.121260 0.121260
0.774383 0.774383 0.774383
0.842459 0.842459 0.842459
0.872411 0.872411 0.872411
0.888422 0.888422 0.888422
0.899209 0.899209 0.899209
0.907777 0.907777 0.907777
0.915819 0.915819 0.915819
0.923910 0.923910 0.923910
0.121260 0.121260 0.121260
0.121260 0.121260 0.121260
0.121260 0.121260 0.121260
0.121260 0.121260 0.121260
0.121260 0.121260 0.121260
0.121260 0.121260 0.121260
0.121260 0.121260 0.121260
0.121260 0.121260 0.121260
0.121260 0.121260 0.121260
0.121260 0.121260 0.121260
0.228493 0.228493 0.228493
0.254478 0.254478 0.254478
0.270893 0.270893 0.270893
0.283177 0.283177 0.283177
0.276422 0.276422 0.276422
0.264099 0.264099 0.264099
0.254714 0.254714 0.254714
0.247390 0.247390 0.247390
0.121260 0.121260 0.121260
0.376831 0.376831 0.376831
0.418091 0.418091 0.418091
0.451033 0.451033 0.451033
0.438124 0.438124 0.438124
0.423602 0.423602 0.423602
0.411502 0.411502 0.411502
0.403136 0.403136 0.403136
0.395963 0.395963 0.395963
0.121260 0.121260 0.121260
0.463517 0.463517 0.463517
0.512175 0.512175 0.512175
0.529095 0.529095 0.529095
0.534522 0.534522 0.534522
0.535991 0.535991 0.535991
0.535965 0.535965 0.535965
0.534758 0.534758 0.534758
0.532139 0.532139 0.532139
0.121260 0.121260 0.121260
0.505650 0.505650 0.505650
0.558052 0.558052 0.558052
0.580347 0.580347 0.580347
0.595093 0.595093 0.595093
0.610293 0.610293 0.610293
0.625781 0.625781 0.625781
0.638524 0.638524 0.638524
0.646776 0.646776 0.646776
0.121260 0.121260 0.121260
0.571125 0.571125 0.571125
0.633771 0.633771 0.633771
0.657764 0.657764 0.657764
0.666851 0.666851 0.666851
0.679129 0.679129 0.679129
0.700175 0.700175 0.700175
0.721998 0.721998 0.721998
0.738440 0.738440 0.738440
0.121260 0.121260 0.121260
0.652106 0.652106 0.652106
0.721240 0.721240 0.721240
0.749464 0.749464 0.749464
0.760598 0.760598 0.760598
0.764567 0.764567 0.764567
0.767470 0.767470 0.767470
0.795360 0.795360 0.795360
0.813322 0.813322 0.813322
0.121260 0.121260 0.121260
0.718918 0.718918 0.718918
0.792403 0.792403 0.792403
0.822295 0.822295 0.822295
0.838346 0.838346 0.838346
0.847952 0.847952 0.847952
0.855937 0.855937 0.855937
0.863534 0.863534 0.863534
0.874451 0.874451 0.874451
0.121260 0.121260 0.121260
0.769296 0.769296 0.769296
0.838614 0.838614 0.838614
0.870056 0.870056 0.870056
0.886733 0.886733 0.886733
0.898194 0.898194 0.898194
0.907411 0.907411 0.907411
0.916179 0.916179 0.916179
0.925098 0.925098 0.925098
0.121260 0.121260 0.121260
0.121260 0.121260 0.121260
0.121260 0.121260 0.121260
0.121260 0.121260 0.121260
0.121260 0.121260 0.121260
0.121260 0.121260 0.121260
0.121260 0.121260 0.121260
0.121260 0.121260 0.121260
0.121260 0.121260 0.121260
0.121260 0.121260 0.121260
0.229236 0.229236 0.229236
0.255247 0.255247 0.255247
0.271711 0.271711 0.271711
0.284032 0.284032 0.284032
0.284296 0.284296 0.284296
0.270532 0.270532 0.270532
0.259430 0.259430 0.259430
0.250548 0.250548 0.250548
0.121260 0.121260 0.121260
0.377914 0.377914 0.377914
0.419619 0.419619 0.419619
0.453247 0.453247 0.453247
0.459966 0.459966 0.459966
0.441585 0.441585 0.441585
0.424415 0.424415 0.424415
0.410663 0.410663 0.410663
0.400887 0.400887 0.400887
0.121260 0.121260 0.121260
0.495279 0.495279 0.495279
0.546025 0.546025 0.546025
0.563546 0.563546 0.563546
0.565752 0.565752 0.565752
0.561364 0.561364 0.561364
0.554725 0.554725 0.554725
0.547557 0.547557 0.547557
0.540244 0.540244 0.540244
0.121260 0.121260 0.121260
0.529919 0.529919 0.529919
0.589472 0.589472 0.589472
0.618658 0.618658 0.618658
0.633684 0.633684 0.633684
0.643004 0.643004 0.643004
0.649783 0.649783 0.649783
0.654426 0.654426 0.654426
0.656524 0.656524 0.656524
0.121260 0.121260 0.121260
0.577603 0.577603 0.577603
0.646651 0.646651 0.646651
0.679388 0.679388 0.679388
0.694827 0.694827 0.694827
0.707645 0.707645 0.707645
0.721588 0.721588 0.721588
0.735256 0.735256 0.735256
0.746079 0.746079 0.746079
0.121260 0.121260 0.121260
0.646404 0.646404 0.646404
0.718271 0.718271 0.718271
0.750204 0.750204 0.750204
0.766113 0.766113 0.766113
0.776087 0.776087 0.776087
0.788004 0.788004 0.788004
0.803175 0.803175 0.803175
0.817494 0.817494 0.817494
0.121260 0.121260 0.121260
0.712015 0.712015 0.712015
0.787380 0.787380 0.787380
0.818565 0.818565 0.818565
0.836149 0.836149 0.836149
0.846998 0.846998 0.846998
0.855346 0.855346 0.855346
0.861957 0.861957 0.861957
0.875477 0.875477 0.875477
0.121260 0.121260 0.121260
0.764182 0.764182 0.764182
0.834765 0.834765 0.834765
0.867735 0.867735 0.867735
0.885136 0.885136 0.885136
0.897313 0.897313 0.897313
0.907154 0.907154 0.907154
0.916524 0.916524 0.916524
0.926062 0.926062 0.926062
0.121260 0.121260 0.121260
0.121260 0.121260 0.121260
0.121260 0.121260 0.121260
0.121260 0.121260 0.121260
0.121260 0.121260 0.121260
0.121260 0.121260 0.121260
0.121260 0.121260 0.121260
0.121260 0.121260 0.121260
0.121260 0.121260 0.121260
0.121260 0.121260 0.121260
0.229881 0.229881 0.229881
0.255914 0.255914 0.255914
0.272421 0.272421 0.272421
0.284775 0.284775 0.284775
0.289690 0.289690 0.289690
0.275551 0.275551 0.275551
0.263446 0.263446 0.263446
0.253414 0.253414 0.253414
0.121260 0.121260 0.121260
0.378855 0.378855 0.378855
0.420946 0.420946 0.420946
0.454732 0.454732 0.454732
0.474862 0.474862 0.474862
0.455488 0.455488 0.455488
0.435637 0.435637 0.435637
0.418257 0.418257 0.418257
0.405495 0.405495 0.405495
0.121260 0.121260 0.121260
0.516601 0.516601 0.516601
0.570273 0.570273 0.570273
0.589197 0.589197 0.589197
0.590146 0.590146 0.590146
0.582046 0.582046 0.582046
0.571073 0.571073 0.571073
0.559476 0.559476 0.559476
0.548213 0.548213 0.548213
0.121260 0.121260 0.121260
0.553659 0.553659 0.553659
0.619163 0.619163 0.619163
0.650871 0.650871 0.650871
0.665299 0.665299 0.665299
0.670772 0.670772 0.670772
0.671695 0.671695 0.671695
0.670105 0.670105 0.670105
0.666727 0.666727 0.666727
0.121260 0.121260 0.121260
0.592472 0.592472 0.592472
0.666874 0.666874 0.666874
0.701108 0.701108 0.701108
0.719620 0.719620 0.719620
0.731894 0.731894 0.731894
0.741473 0.741473 0.741473
0.749249 0.749249 0.749249
0.754842 0.754842 0.754842
0.121260 0.121260 0.121260
0.648014 0.648014 0.648014
0.722140 0.722140 0.722140
0.758155 0.758155 0.758155
0.779076 0.779076 0.779076
0.791810 0.791810 0.791810
0.802485 0.802485 0.802485
0.813460 0.813460 0.813460
0.823402 0.823402 0.823402
0.121260 0.121260 0.121260
0.707774 0.707774 0.707774
0.784690 0.784690 0.784690
0.817439 0.817439 0.817439
0.837022 0.837022 0.837022
0.850032 0.850032 0.850032
0.859582 0.859582 0.859582
0.868382 0.868382 0.868382
0.878271 0.878271 0.878271
0.121260 0.121260 0.121260
0.759726 0.759726 0.759726
0.831478 0.831478 0.831478
0.865860 0.865860 0.865860
0.884027 0.884027 0.884027
0.896970 0.896970 0.896970
0.907448 0.907448 0.907448
0.917275 0.917275 0.917275
0.927107 0.927107 0.927107
