trix_modern/TriX_NoFilter_ExtraPunchy.cube
TITLE "Tri-X NoFilter ExtraPunchy"
# Adobe RGB in/out. REPLACES AgX. R=0.2974 G=0.2859 B=0.4167
LUT_3D_SIZE 9
DOMAIN_MIN 0.0 0.0 0.0
DOMAIN_MAX 1.0 1.0 1.0
0.092237 0.092237 0.092237
0.092237 0.092237 0.092237
0.092237 0.092237 0.092237
0.092237 0.092237 0.092237
0.092237 0.092237 0.092237
0.092237 0.092237 0.092237
0.092237 0.092237 0.092237
0.092237 0.092237 0.092237
0.092237 0.092237 0.092237
0.092237 0.092237 0.092237
0.092237 0.092237 0.092237
0.092237 0.092237 0.092237
0.092237 0.092237 0.092237
0.092237 0.092237 0.092237
0.092237 0.092237 0.092237
0.092237 0.092237 0.092237
0.092237 0.092237 0.092237
0.092237 0.092237 0.092237
0.092237 0.092237 0.092237
0.092237 0.092237 0.092237
0.092237 0.092237 0.092237
0.092237 0.092237 0.092237
0.092237 0.092237 0.092237
0.092237 0.092237 0.092237
0.092237 0.092237 0.092237
0.092237 0.092237 0.092237
0.092237 0.092237 0.092237
0.092237 0.092237 0.092237
0.092237 0.092237 0.092237
0.092237 0.092237 0.092237
0.092237 0.092237 0.092237
0.092237 0.092237 0.092237
0.092237 0.092237 0.092237
0.092237 0.092237 0.092237
0.092237 0.092237 0.092237
0.092237 0.092237 0.092237
0.092237 0.092237 0.092237
0.092237 0.092237 0.092237
0.092237 0.092237 0.092237
0.092237 0.092237 0.092237
0.092237 0.092237 0.092237
0.092237 0.092237 0.092237
0.092237 0.092237 0.092237
0.092237 0.092237 0.092237
0.092237 0.092237 0.092237
0.092237 0.092237 0.092237
0.092237 0.092237 0.092237
0.092237 0.092237 0.092237
0.092237 0.092237 0.092237
0.092237 0.092237 0.092237
0.092237 0.092237 0.092237
0.092237 0.092237 0.092237
0.092237 0.092237 0.092237
0.092237 0.092237 0.092237
0.092237 0.092237 0.092237
0.092237 0.092237 0.092237
0.092237 0.092237 0.092237
0.092237 0.092237 0.092237
0.092237 0.092237 0.092237
0.092237 0.092237 0.092237
0.092237 0.092237 0.092237
0.092237 0.092237 0.092237
0.092237 0.092237 0.092237
0.092237 0.092237 0.092237
0.092237 0.092237 0.092237
0.092237 0.092237 0.092237
0.092237 0.092237 0.092237
0.092237 0.092237 0.092237
0.092237 0.092237 0.092237
0.092237 0.092237 0.092237
0.092237 0.092237 0.092237
0.092237 0.092237 0.092237
0.092237 0.092237 0.092237
0.092237 0.092237 0.092237
0.092237 0.092237 0.092237
0.092237 0.092237 0.092237
0.092237 0.092237 0.092237
0.092237 0.092237 0.092237
0.092237 0.092237 0.092237
0.092237 0.092237 0.092237
0.092237 0.092237 0.092237
0.092237 0.092237 0.092237
0.092237 0.092237 0.092237
0.092237 0.092237 0.092237
0.092237 0.092237 0.092237
0.092237 0.092237 0.092237
0.092237 0.092237 0.092237
0.092237 0.092237 0.092237
0.092237 0.092237 0.092237
0.092237 0.092237 0.092237
0.092237 0.092237 0.092237
0.092694 0.092694 0.092694
0.103134 0.103134 0.103134
0.130008 0.130008 0.130008
0.152792 0.152792 0.152792
0.167732 0.167732 0.167732
0.176415 0.176415 0.176415
0.180825 0.180825 0.180825
0.182189 0.182189 0.182189
0.092237 0.092237 0.092237
0.106417 0.106417 0.106417
0.108499 0.108499 0.108499
0.138087 0.138087 0.138087
0.182127 0.182127 0.182127
0.215077 0.215077 0.215077
0.238327 0.238327 0.238327
0.252473 0.252473 0.252473
0.259843 0.259843 0.259843
0.092237 0.092237 0.092237
0.132463 0.132463 0.132463
0.154462 0.154462 0.154462
0.161735 0.161735 0.161735
0.190009 0.190009 0.190009
0.230465 0.230465 0.230465
0.264694 0.264694 0.264694
0.289107 0.289107 0.289107
0.304086 0.304086 0.304086
0.092237 0.092237 0.092237
0.146903 0.146903 0.146903
0.191176 0.191176 0.191176
0.206325 0.206325 0.206325
0.217663 0.217663 0.217663
0.241492 0.241492 0.241492
0.277953 0.277953 0.277953
0.306980 0.306980 0.306980
0.328297 0.328297 0.328297
0.092237 0.092237 0.092237
0.152101 0.152101 0.152101
0.209767 0.209767 0.209767
0.239314 0.239314 0.239314
0.256006 0.256006 0.256006
0.271066 0.271066 0.271066
0.290860 0.290860 0.290860
0.320355 0.320355 0.320355
0.344659 0.344659 0.344659
0.092237 0.092237 0.092237
0.151268 0.151268 0.151268
0.216097 0.216097 0.216097
0.256845 0.256845 0.256845
0.282104 0.282104 0.282104
0.300079 0.300079 0.300079
0.316849 0.316849 0.316849
0.334372 0.334372 0.334372
0.359390 0.359390 0.359390
0.092237 0.092237 0.092237
0.146778 0.146778 0.146778
0.213895 0.213895 0.213895
0.261685 0.261685 0.261685
0.294225 0.294225 0.294225
0.317666 0.317666 0.317666
0.337682 0.337682 0.337682
0.356595 0.356595 0.356595
0.375096 0.375096 0.375096
0.092237 0.092237 0.092237
0.139991 0.139991 0.139991
0.206533 0.206533 0.206533
0.257446 0.257446 0.257446
0.295528 0.295528 0.295528
0.324330 0.324330 0.324330
0.348660 0.348660 0.348660
0.370672 0.370672 0.370672
0.391429 0.391429 0.391429
0.092237 0.092237 0.092237
0.092237 0.092237 0.092237
0.092237 0.092237 0.092237
0.092237 0.092237 0.092237
0.092237 0.092237 0.092237
0.092237 0.092237 0.092237
0.092237 0.092237 0.092237
0.092237 0.092237 0.092237
0.092237 0.092237 0.092237
0.092237 0.092237 0.092237
0.156192 0.156192 0.156192
0.198219 0.198219 0.198219
0.237602 0.237602 0.237602
0.271714 0.271714 0.271714
0.296098 0.296098 0.296098
0.311805 0.311805 0.311805
0.320944 0.320944 0.320944
0.324836 0.324836 0.324836
0.092237 0.092237 0.092237
0.140050 0.140050 0.140050
0.134598 0.134598 0.134598
0.228559 0.228559 0.228559
0.314347 0.314347 0.314347
0.375468 0.375468 0.375468
0.416981 0.416981 0.416981
0.443984 0.443984 0.443984
0.459152 0.459152 0.459152
0.092237 0.092237 0.092237
0.203554 0.203554 0.203554
0.242257 0.242257 0.242257
0.253162 0.253162 0.253162
0.317994 0.317994 0.317994
0.395319 0.395319 0.395319
0.458997 0.458997 0.458997
0.505691 0.505691 0.505691
0.535117 0.535117 0.535117
0.092237 0.092237 0.092237
0.243176 0.243176 0.243176
0.321306 0.321306 0.321306
0.346346 0.346346 0.346346
0.366411 0.366411 0.366411
0.413949 0.413949 0.413949
0.481152 0.481152 0.481152
0.536543 0.536543 0.536543
0.576652 0.576652 0.576652
0.092237 0.092237 0.092237
0.261054 0.261054 0.261054
0.363749 0.363749 0.363749
0.412264 0.412264 0.412264
0.440264 0.440264 0.440264
0.467430 0.467430 0.467430
0.507348 0.507348 0.507348
0.561263 0.561263 0.561263
0.605922 0.605922 0.605922
0.092237 0.092237 0.092237
0.264764 0.264764 0.264764
0.381131 0.381131 0.381131
0.449716 0.449716 0.449716
0.492867 0.492867 0.492867
0.525137 0.525137 0.525137
0.555326 0.555326 0.555326
0.588651 0.588651 0.588651
0.633507 0.633507 0.633507
0.092237 0.092237 0.092237
0.259565 0.259565 0.259565
0.381804 0.381804 0.381804
0.463203 0.463203 0.463203
0.519942 0.519942 0.519942
0.560561 0.560561 0.560561
0.595704 0.595704 0.595704
0.629437 0.629437 0.629437
0.659635 0.659635 0.659635
0.092237 0.092237 0.092237
0.248728 0.248728 0.248728
0.371609 0.371609 0.371609
0.459372 0.459372 0.459372
0.525766 0.525766 0.525766
0.575712 0.575712 0.575712
0.618129 0.618129 0.618129
0.654527 0.654527 0.654527
0.685730 0.685730 0.685730
0.092237 0.092237 0.092237
0.092237 0.092237 0.092237
0.092237 0.092237 0.092237
0.092237 0.092237 0.092237
0.092237 0.092237 0.092237
0.092237 0.092237 0.092237
0.092237 0.092237 0.092237
0.092237 0.092237 0.092237
0.092237 0.092237 0.092237
0.092237 0.092237 0.092237
0.348404 0.348404 0.348404
0.399267 0.399267 0.399267
0.402831 0.402831 0.402831
0.411444 0.411444 0.411444
0.425118 0.425118 0.425118
0.437996 0.437996 0.437996
0.447006 0.447006 0.447006
0.451311 0.451311 0.451311
0.092237 0.092237 0.092237
0.229199 0.229199 0.229199
0.305370 0.305370 0.305370
0.380827 0.380827 0.380827
0.463961 0.463961 0.463961
0.532873 0.532873 0.532873
0.581124 0.581124 0.581124
0.613456 0.613456 0.613456
0.632737 0.632737 0.632737
0.092237 0.092237 0.092237
0.255886 0.255886 0.255886
0.312355 0.312355 0.312355
0.305507 0.305507 0.305507
0.430827 0.430827 0.430827
0.543047 0.543047 0.543047
0.627840 0.627840 0.627840
0.682350 0.682350 0.682350
0.717302 0.717302 0.717302
0.092237 0.092237 0.092237
0.312659 0.312659 0.312659
0.413382 0.413382 0.413382
0.445711 0.445711 0.445711
0.471381 0.471381 0.471381
0.553563 0.553563 0.553563
0.647214 0.647214 0.647214
0.714055 0.714055 0.714055
0.752970 0.752970 0.752970
0.092237 0.092237 0.092237
0.345225 0.345225 0.345225
0.482627 0.482627 0.482627
0.548348 0.548348 0.548348
0.583625 0.583625 0.583625
0.620102 0.620102 0.620102
0.675742 0.675742 0.675742
0.737284 0.737284 0.737284
0.776875 0.776875 0.776875
0.092237 0.092237 0.092237
0.357885 0.357885 0.357885
0.516785 0.516785 0.516785
0.606781 0.606781 0.606781
0.659450 0.659450 0.659450
0.696002 0.696002 0.696002
0.730694 0.730694 0.730694
0.762319 0.762319 0.762319
0.800650 0.800650 0.800650
0.092237 0.092237 0.092237
0.356763 0.356763 0.356763
0.524913 0.524913 0.524913
0.632155 0.632155 0.632155
0.696734 0.696734 0.696734
0.739039 0.739039 0.739039
0.768913 0.768913 0.768913
0.797617 0.797617 0.797617
0.818476 0.818476 0.818476
0.092237 0.092237 0.092237
0.346457 0.346457 0.346457
0.516486 0.516486 0.516486
0.633134 0.633134 0.633134
0.708889 0.708889 0.708889
0.755647 0.755647 0.755647
0.790998 0.790998 0.790998
0.816428 0.816428 0.816428
0.835806 0.835806 0.835806
0.092237 0.092237 0.092237
0.092237 0.092237 0.092237
0.092237 0.092237 0.092237
0.092237 0.092237 0.092237
0.092237 0.092237 0.092237
0.092237 0.092237 0.092237
0.092237 0.092237 0.092237
0.092237 0.092237 0.092237
0.092237 0.092237 0.092237
0.092237 0.092237 0.092237
0.541854 0.541854 0.541854
0.631899 0.631899 0.631899
0.614012 0.614012 0.614012
0.589175 0.589175 0.589175
0.577100 0.577100 0.577100
0.574001 0.574001 0.574001
0.574023 0.574023 0.574023
0.573424 0.573424 0.573424
0.092237 0.092237 0.092237
0.395535 0.395535 0.395535
0.538293 0.538293 0.538293
0.611087 0.611087 0.611087
0.662229 0.662229 0.662229
0.702044 0.702044 0.702044
0.731616 0.731616 0.731616
0.748490 0.748490 0.748490
0.759004 0.759004 0.759004
0.092237 0.092237 0.092237
0.329948 0.329948 0.329948
0.441608 0.441608 0.441608
0.512041 0.512041 0.512041
0.606245 0.606245 0.606245
0.700600 0.700600 0.700600
0.761765 0.761765 0.761765
0.801801 0.801801 0.801801
0.820383 0.820383 0.820383
0.092237 0.092237 0.092237
0.366740 0.366740 0.366740
0.496728 0.496728 0.496728
0.539269 0.539269 0.539269
0.545947 0.545947 0.545947
0.679013 0.679013 0.679013
0.766026 0.766026 0.766026
0.816885 0.816885 0.816885
0.843802 0.843802 0.843802
0.092237 0.092237 0.092237
0.410108 0.410108 0.410108
0.576425 0.576425 0.576425
0.654133 0.654133 0.654133
0.689188 0.689188 0.689188
0.725741 0.725741 0.725741
0.782000 0.782000 0.782000
0.829083 0.829083 0.829083
0.860088 0.860088 0.860088
0.092237 0.092237 0.092237
0.434293 0.434293 0.434293
0.624710 0.624710 0.624710
0.722071 0.722071 0.722071
0.764980 0.764980 0.764980
0.796458 0.796458 0.796458
0.820523 0.820523 0.820523
0.847824 0.847824 0.847824
0.876148 0.876148 0.876148
0.092237 0.092237 0.092237
0.440214 0.440214 0.440214
0.643166 0.643166 0.643166
0.747484 0.747484 0.747484
0.802639 0.802639 0.802639
0.829848 0.829848 0.829848
0.852661 0.852661 0.852661
0.874081 0.874081 0.874081
0.891290 0.891290 0.891290
0.092237 0.092237 0.092237
0.432595 0.432595 0.432595
0.640154 0.640154 0.640154
0.752911 0.752911 0.752911
0.813060 0.813060 0.813060
0.845286 0.845286 0.845286
0.871842 0.871842 0.871842
0.890063 0.890063 0.890063
0.907031 0.907031 0.907031
0.092237 0.092237 0.092237
0.092237 0.092237 0.092237
0.092237 0.092237 0.092237
0.092237 0.092237 0.092237
0.092237 0.092237 0.092237
0.092237 0.092237 0.092237
0.092237 0.092237 0.092237
0.092237 0.092237 0.092237
0.092237 0.092237 0.092237
0.092237 0.092237 0.092237
0.688410 0.688410 0.688410
0.789501 0.789501 0.789501
0.781886 0.781886 0.781886
0.752946 0.752946 0.752946
0.728693 0.728693 0.728693
0.708571 0.708571 0.708571
0.695379 0.695379 0.695379
0.686206 0.686206 0.686206
0.092237 0.092237 0.092237
0.587609 0.587609 0.587609
0.756024 0.756024 0.756024
0.804845 0.804845 0.804845
0.817476 0.817476 0.817476
0.824456 0.824456 0.824456
0.829961 0.829961 0.829961
0.834328 0.834328 0.834328
0.837027 0.837027 0.837027
0.092237 0.092237 0.092237
0.455467 0.455467 0.455467
0.639787 0.639787 0.639787
0.731557 0.731557 0.731557
0.785529 0.785529 0.785529
0.823794 0.823794 0.823794
0.850616 0.850616 0.850616
0.871269 0.871269 0.871269
0.882439 0.882439 0.882439
0.092237 0.092237 0.092237
0.433021 0.433021 0.433021
0.603724 0.603724 0.603724
0.683148 0.683148 0.683148
0.739966 0.739966 0.739966
0.804436 0.804436 0.804436
0.847881 0.847881 0.847881
0.880389 0.880389 0.880389
0.900068 0.900068 0.900068
0.092237 0.092237 0.092237
0.468646 0.468646 0.468646
0.657899 0.657899 0.657899
0.737877 0.737877 0.737877
0.768006 0.768006 0.768006
0.785523 0.785523 0.785523
0.846824 0.846824 0.846824
0.886131 0.886131 0.886131
0.911354 0.911354 0.911354
0.092237 0.092237 0.092237
0.500883 0.500883 0.500883
0.706365 0.706365 0.706365
0.791428 0.791428 0.791428
0.827213 0.827213 0.827213
0.849293 0.849293 0.849293
0.872320 0.872320 0.872320
0.898635 0.898635 0.898635
0.921982 0.921982 0.921982
0.092237 0.092237 0.092237
0.514918 0.514918 0.514918
0.729702 0.729702 0.729702
0.816507 0.816507 0.816507
0.856763 0.856763 0.856763
0.882665 0.882665 0.882665
0.901742 0.901742 0.901742
0.919357 0.919357 0.919357
0.934320 0.934320 0.934320
0.092237 0.092237 0.092237
0.512438 0.512438 0.512438
0.732192 0.732192 0.732192
0.823554 0.823554 0.823554
0.870316 0.870316 0.870316
0.897570 0.897570 0.897570
0.918718 0.918718 0.918718
0.933597 0.933597 0.933597
0.947581 0.947581 0.947581
0.092237 0.092237 0.092237
0.092237 0.092237 0.092237
0.092237 0.092237 0.092237
0.092237 0.092237 0.092237
0.092237 0.092237 0.092237
0.092237 0.092237 0.092237
0.092237 0.092237 0.092237
0.092237 0.092237 0.092237
0.092237 0.092237 0.092237
0.092237 0.092237 0.092237
0.769986 0.769986 0.769986
0.861296 0.861296 0.861296
0.865950 0.865950 0.865950
0.846445 0.846445 0.846445
0.824300 0.824300 0.824300
0.806288 0.806288 0.806288
0.787210 0.787210 0.787210
0.772447 0.772447 0.772447
0.092237 0.092237 0.092237
0.742618 0.742618 0.742618
0.864866 0.864866 0.864866
0.893276 0.893276 0.893276
0.898986 0.898986 0.898986
0.897579 0.897579 0.897579
0.894819 0.894819 0.894819
0.892339 0.892339 0.892339
0.890097 0.890097 0.890097
0.092237 0.092237 0.092237
0.611286 0.611286 0.611286
0.798752 0.798752 0.798752
0.854805 0.854805 0.854805
0.883158 0.883158 0.883158
0.899814 0.899814 0.899814
0.912442 0.912442 0.912442
0.920423 0.920423 0.920423
0.925498 0.925498 0.925498
0.092237 0.092237 0.092237
0.532838 0.532838 0.532838
0.735583 0.735583 0.735583
0.813885 0.813885 0.813885
0.852981 0.852981 0.852981
0.884293 0.884293 0.884293
0.909092 0.909092 0.909092
0.926374 0.926374 0.926374
0.938357 0.938357 0.938357
0.092237 0.092237 0.092237
0.532890 0.532890 0.532890
0.735945 0.735945 0.735945
0.811548 0.811548 0.811548
0.843581 0.843581 0.843581
0.873541 0.873541 0.873541
0.903524 0.903524 0.903524
0.928241 0.928241 0.928241
0.945566 0.945566 0.945566
0.092237 0.092237 0.092237
0.559543 0.559543 0.559543
0.764427 0.764427 0.764427
0.837070 0.837070 0.837070
0.872297 0.872297 0.872297
0.890376 0.890376 0.890376
0.905124 0.905124 0.905124
0.933407 0.933407 0.933407
0.953542 0.953542 0.953542
0.092237 0.092237 0.092237
0.578184 0.578184 0.578184
0.786042 0.786042 0.786042
0.858860 0.858860 0.858860
0.895267 0.895267 0.895267
0.918354 0.918354 0.918354
0.933321 0.933321 0.933321
0.948391 0.948391 0.948391
0.961409 0.961409 0.961409
0.092237 0.092237 0.092237
0.581268 0.581268 0.581268
0.793021 0.793021 0.793021
0.868780 0.868780 0.868780
0.907716 0.907716 0.907716
0.931182 0.931182 0.931182
0.948871 0.948871 0.948871
0.961017 0.961017 0.961017
0.969297 0.969297 0.969297
0.092237 0.092237 0.092237
0.092237 0.092237 0.092237
0.092237 0.092237 0.092237
0.092237 0.092237 0.092237
0.092237 0.092237 0.092237
0.092237 0.092237 0.092237
0.092237 0.092237 0.092237
0.092237 0.092237 0.092237
0.092237 0.092237 0.092237
0.092237 0.092237 0.092237
0.814471 0.814471 0.814471
0.900262 0.900262 0.900262
0.912627 0.912627 0.912627
0.901293 0.901293 0.901293
0.883429 0.883429 0.883429
0.864605 0.864605 0.864605
0.846092 0.846092 0.846092
0.831453 0.831453 0.831453
0.092237 0.092237 0.092237
0.824708 0.824708 0.824708
0.920282 0.920282 0.920282
0.942797 0.942797 0.942797
0.946790 0.946790 0.946790
0.943335 0.943335 0.943335
0.937820 0.937820 0.937820
0.932414 0.932414 0.932414
0.927647 0.927647 0.927647
0.092237 0.092237 0.092237
0.744050 0.744050 0.744050
0.879875 0.879875 0.879875
0.922176 0.922176 0.922176
0.939033 0.939033 0.939033
0.947872 0.947872 0.947872
0.952872 0.952872 0.952872
0.955898 0.955898 0.955898
0.957060 0.957060 0.957060
0.092237 0.092237 0.092237
0.652041 0.652041 0.652041
0.829529 0.829529 0.829529
0.889011 0.889011 0.889011
0.919486 0.919486 0.919486
0.936829 0.936829 0.936829
0.950682 0.950682 0.950682
0.959381 0.959381 0.959381
0.964081 0.964081 0.964081
0.092237 0.092237 0.092237
0.612248 0.612248 0.612248
0.807983 0.807983 0.807983
0.871901 0.871901 0.871901
0.904419 0.904419 0.904419
0.927026 0.927026 0.927026
0.945582 0.945582 0.945582
0.959786 0.959786 0.959786
0.967542 0.967542 0.967542
0.092237 0.092237 0.092237
0.620036 0.620036 0.620036
0.813690 0.813690 0.813690
0.877596 0.877596 0.877596
0.909480 0.909480 0.909480
0.928519 0.928519 0.928519
0.945692 0.945692 0.945692
0.961248 0.961248 0.961248
0.971022 0.971022 0.971022
0.092237 0.092237 0.092237
0.637750 0.637750 0.637750
0.825947 0.825947 0.825947
0.891063 0.891063 0.891063
0.924096 0.924096 0.924096
0.943386 0.943386 0.943386
0.957821 0.957821 0.957821
0.965686 0.965686 0.965686
0.976554 0.976554 0.976554
0.092237 0.092237 0.092237
0.644505 0.644505 0.644505
0.832338 0.832338 0.832338
0.899620 0.899620 0.899620
0.933776 0.933776 0.933776
0.956418 0.956418 0.956418
0.966626 0.966626 0.966626
0.975805 0.975805 0.975805
0.981096 0.981096 0.981096
0.092237 0.092237 0.092237
0.092237 0.092237 0.092237
0.092237 0.092237 0.092237
0.092237 0.092237 0.092237
0.092237 0.092237 0.092237
0.092237 0.092237 0.092237
0.092237 0.092237 0.092237
0.092237 0.092237 0.092237
0.092237 0.092237 0.092237
0.092237 0.092237 0.092237
0.836170 0.836170 0.836170
0.923022 0.923022 0.923022
0.938465 0.938465 0.938465
0.933954 0.933954 0.933954
0.921822 0.921822 0.921822
0.905711 0.905711 0.905711
0.889063 0.889063 0.889063
0.874920 0.874920 0.874920
0.092237 0.092237 0.092237
0.870537 0.870537 0.870537
0.951177 0.951177 0.951177
0.967514 0.967514 0.967514
0.970424 0.970424 0.970424
0.968297 0.968297 0.968297
0.964326 0.964326 0.964326
0.960056 0.960056 0.960056
0.955841 0.955841 0.955841
0.092237 0.092237 0.092237
0.822968 0.822968 0.822968
0.927616 0.927616 0.927616
0.959729 0.959729 0.959729
0.968744 0.968744 0.968744
0.972522 0.972522 0.972522
0.973701 0.973701 0.973701
0.973659 0.973659 0.973659
0.973032 0.973032 0.973032
0.092237 0.092237 0.092237
0.752485 0.752485 0.752485
0.890299 0.890299 0.890299
0.936533 0.936533 0.936533
0.958676 0.958676 0.958676
0.967151 0.967151 0.967151
0.972976 0.972976 0.972976
0.977158 0.977158 0.977158
0.979463 0.979463 0.979463
0.092237 0.092237 0.092237
0.699091 0.699091 0.699091
0.861455 0.861455 0.861455
0.918037 0.918037 0.918037
0.945043 0.945043 0.945043
0.961088 0.961088 0.961088
0.969913 0.969913 0.969913
0.977298 0.977298 0.977298
0.980625 0.980625 0.980625
0.092237 0.092237 0.092237
0.682545 0.682545 0.682545
0.852489 0.852489 0.852489
0.912429 0.912429 0.912429
0.940684 0.940684 0.940684
0.959109 0.959109 0.959109
0.968944 0.968944 0.968944
0.978082 0.978082 0.978082
0.981671 0.981671 0.981671
0.092237 0.092237 0.092237
0.689312 0.689312 0.689312
0.858233 0.858233 0.858233
0.918172 0.918172 0.918172
0.947050 0.947050 0.947050
0.962899 0.962899 0.962899
0.972488 0.972488 0.972488
0.980027 0.980027 0.980027
0.983358 0.983358 0.983358
0.092237 0.092237 0.092237
0.696202 0.696202 0.696202
0.864368 0.864368 0.864368
0.923871 0.923871 0.923871
0.955369 0.955369 0.955369
0.968844 0.968844 0.968844
0.979228 0.979228 0.979228
0.982699 0.982699 0.982699
0.986028 0.986028 0.986028
