trix_modern/TriX_Red25_Hard.cube
TITLE "Tri-X Red25 Hard"
# Adobe RGB in/out. REPLACES AgX. R=0.9735 G=0.0265 B=0.0000
LUT_3D_SIZE 5
DOMAIN_MIN 0.0 0.0 0.0
DOMAIN_MAX 1.0 1.0 1.0
0.093288 0.093288 0.093288
0.093288 0.093288 0.093288
0.093288 0.093288 0.093288
0.093288 0.093288 0.093288
0.093288 0.093288 0.093288
0.093288 0.093288 0.093288
0.134311 0.134311 0.134311
0.900873 0.900873 0.900873
0.996745 0.996745 0.996745
0.999312 0.999312 0.999312
0.093288 0.093288 0.093288
0.173195 0.173195 0.173195
0.809550 0.809550 0.809550
0.992051 0.992051 0.992051
0.998829 0.998829 0.998829
0.093288 0.093288 0.093288
0.148210 0.148210 0.148210
0.815363 0.815363 0.815363
0.987903 0.987903 0.987903
0.998382 0.998382 0.998382
0.093288 0.093288 0.093288
0.117958 0.117958 0.117958
0.748668 0.748668 0.748668
0.985142 0.985142 0.985142
0.998134 0.998134 0.998134
0.093288 0.093288 0.093288
0.093288 0.093288 0.093288
0.093288 0.093288 0.093288
0.093288 0.093288 0.093288
0.093288 0.093288 0.093288
0.093288 0.093288 0.093288
0.100098 0.100098 0.100098
0.859418 0.859418 0.859418
0.995710 0.995710 0.995710
0.999217 0.999217 0.999217
0.093288 0.093288 0.093288
0.148584 0.148584 0.148584
0.742989 0.742989 0.742989
0.989682 0.989682 0.989682
0.998741 0.998741 0.998741
0.093288 0.093288 0.093288
0.140967 0.140967 0.140967
0.795060 0.795060 0.795060
0.986590 0.986590 0.986590
0.998331 0.998331 0.998331
0.093288 0.093288 0.093288
0.116389 0.116389 0.116389
0.739248 0.739248 0.739248
0.984794 0.984794 0.984794
0.998123 0.998123 0.998123
0.093288 0.093288 0.093288
0.093288 0.093288 0.093288
0.093288 0.093288 0.093288
0.093288 0.093288 0.093288
0.093288 0.093288 0.093288
0.093288 0.093288 0.093288
0.231265 0.231265 0.231265
0.928801 0.928801 0.928801
0.996065 0.996065 0.996065
0.999158 0.999158 0.999158
0.093288 0.093288 0.093288
0.124818 0.124818 0.124818
0.588577 0.588577 0.588577
0.987517 0.987517 0.987517
0.998638 0.998638 0.998638
0.093288 0.093288 0.093288
0.128022 0.128022 0.128022
0.750076 0.750076 0.750076
0.983808 0.983808 0.983808
0.998232 0.998232 0.998232
0.093288 0.093288 0.093288
0.112984 0.112984 0.112984
0.715778 0.715778 0.715778
0.983956 0.983956 0.983956
0.998097 0.998097 0.998097
0.093288 0.093288 0.093288
0.093288 0.093288 0.093288
0.093288 0.093288 0.093288
0.093288 0.093288 0.093288
0.093288 0.093288 0.093288
0.093288 0.093288 0.093288
0.323327 0.323327 0.323327
0.977956 0.977956 0.977956
0.997897 0.997897 0.997897
0.999260 0.999260 0.999260
0.093288 0.093288 0.093288
0.138894 0.138894 0.138894
0.812913 0.812913 0.812913
0.991368 0.991368 0.991368
0.998687 0.998687 0.998687
0.093288 0.093288 0.093288
0.118277 0.118277 0.118277
0.705699 0.705699 0.705699
0.978028 0.978028 0.978028
0.998179 0.998179 0.998179
0.093288 0.093288 0.093288
0.109621 0.109621 0.109621
0.689970 0.689970 0.689970
0.982779 0.982779 0.982779
0.998072 0.998072 0.998072
0.093288 0.093288 0.093288
0.093288 0.093288 0.093288
0.093288 0.093288 0.093288
0.093288 0.093288 0.093288
0.093288 0.093288 0.093288
0.093288 0.093288 0.093288
0.323327 0.323327 0.323327
0.986936 0.986936 0.986936
0.998259 0.998259 0.998259
0.999416 0.999416 0.999416
0.093288 0.093288 0.093288
0.177844 0.177844 0.177844
0.899192 0.899192 0.899192
0.994236 0.994236 0.994236
0.998840 0.998840 0.998840
0.093288 0.093288 0.093288
0.117063 0.117063 0.117063
0.740030 0.740030 0.740030
0.985356 0.985356 0.985356
0.998258 0.998258 0.998258
0.093288 0.093288 0.093288
0.106726 0.106726 0.106726
0.670307 0.670307 0.670307
0.981504 0.981504 0.981504
0.998062 0.998062 0.998062
