trix_modern/TriX_Orange21_ExtraPunchy.cube
TITLE "Tri-X Orange21 ExtraPunchy"
# Adobe RGB in/out. REPLACES AgX. R=0.7239 G=0.2761 B=0.0000
LUT_3D_SIZE 5
DOMAIN_MIN 0.0 0.0 0.0
DOMAIN_MAX 1.0 1.0 1.0
0.092237 0.092237 0.092237
0.092237 0.092237 0.092237
0.092237 0.092237 0.092237
0.092237 0.092237 0.092237
0.092237 0.092237 0.092237
0.092237 0.092237 0.092237
0.203176 0.203176 0.203176
0.625850 0.625850 0.625850
0.880621 0.880621 0.880621
0.955519 0.955519 0.955519
0.092237 0.092237 0.092237
0.353571 0.353571 0.353571
0.709328 0.709328 0.709328
0.915346 0.915346 0.915346
0.979938 0.979938 0.979938
0.092237 0.092237 0.092237
0.387629 0.387629 0.387629
0.809810 0.809810 0.809810
0.939258 0.939258 0.939258
0.983452 0.983452 0.983452
0.092237 0.092237 0.092237
0.366259 0.366259 0.366259
0.820696 0.820696 0.820696
0.956911 0.956911 0.956911
0.986870 0.986870 0.986870
0.092237 0.092237 0.092237
0.092237 0.092237 0.092237
0.092237 0.092237 0.092237
0.092237 0.092237 0.092237
0.092237 0.092237 0.092237
0.092237 0.092237 0.092237
0.134598 0.134598 0.134598
0.569903 0.569903 0.569903
0.866345 0.866345 0.866345
0.949817 0.949817 0.949817
0.092237 0.092237 0.092237
0.316942 0.316942 0.316942
0.650465 0.650465 0.650465
0.901347 0.901347 0.901347
0.978493 0.978493 0.978493
0.092237 0.092237 0.092237
0.372958 0.372958 0.372958
0.795300 0.795300 0.795300
0.933275 0.933275 0.933275
0.982825 0.982825 0.982825
0.092237 0.092237 0.092237
0.361582 0.361582 0.361582
0.817201 0.817201 0.817201
0.955730 0.955730 0.955730
0.986743 0.986743 0.986743
0.092237 0.092237 0.092237
0.092237 0.092237 0.092237
0.092237 0.092237 0.092237
0.092237 0.092237 0.092237
0.092237 0.092237 0.092237
0.092237 0.092237 0.092237
0.300368 0.300368 0.300368
0.669755 0.669755 0.669755
0.872039 0.872039 0.872039
0.946343 0.946343 0.946343
0.092237 0.092237 0.092237
0.272500 0.272500 0.272500
0.545947 0.545947 0.545947
0.888712 0.888712 0.888712
0.975030 0.975030 0.975030
0.092237 0.092237 0.092237
0.342989 0.342989 0.342989
0.761295 0.761295 0.761295
0.920698 0.920698 0.920698
0.981609 0.981609 0.981609
0.092237 0.092237 0.092237
0.349793 0.349793 0.349793
0.808661 0.808661 0.808661
0.951827 0.951827 0.951827
0.986441 0.986441 0.986441
0.092237 0.092237 0.092237
0.092237 0.092237 0.092237
0.092237 0.092237 0.092237
0.092237 0.092237 0.092237
0.092237 0.092237 0.092237
0.092237 0.092237 0.092237
0.424472 0.424472 0.424472
0.794121 0.794121 0.794121
0.900708 0.900708 0.900708
0.952423 0.952423 0.952423
0.092237 0.092237 0.092237
0.300669 0.300669 0.300669
0.713530 0.713530 0.713530
0.911295 0.911295 0.911295
0.976682 0.976682 0.976682
0.092237 0.092237 0.092237
0.317893 0.317893 0.317893
0.738115 0.738115 0.738115
0.905124 0.905124 0.905124
0.980993 0.980993 0.980993
0.092237 0.092237 0.092237
0.335918 0.335918 0.335918
0.796322 0.796322 0.796322
0.947657 0.947657 0.947657
0.986152 0.986152 0.986152
0.092237 0.092237 0.092237
0.092237 0.092237 0.092237
0.092237 0.092237 0.092237
0.092237 0.092237 0.092237
0.092237 0.092237 0.092237
0.092237 0.092237 0.092237
0.475289 0.475289 0.475289
0.840129 0.840129 0.840129
0.924126 0.924126 0.924126
0.959318 0.959318 0.959318
0.092237 0.092237 0.092237
0.359840 0.359840 0.359840
0.803111 0.803111 0.803111
0.936429 0.936429 0.936429
0.980068 0.980068 0.980068
0.092237 0.092237 0.092237
0.314762 0.314762 0.314762
0.755695 0.755695 0.755695
0.927679 0.927679 0.927679
0.981923 0.981923 0.981923
0.092237 0.092237 0.092237
0.324091 0.324091 0.324091
0.784994 0.784994 0.784994
0.945006 0.945006 0.945006
0.986028 0.986028 0.986028
