trix_modern/TriX_Blue47_ExtraSoft.cube
TITLE "Tri-X Blue47 ExtraSoft"
# Adobe RGB in/out. REPLACES AgX. R=0.0336 G=0.0311 B=0.9353
LUT_3D_SIZE 9
DOMAIN_MIN 0.0 0.0 0.0
DOMAIN_MAX 1.0 1.0 1.0
0.121260 0.121260 0.121260
0.121260 0.121260 0.121260
0.121260 0.121260 0.121260
0.121260 0.121260 0.121260
0.121260 0.121260 0.121260
0.121260 0.121260 0.121260
0.121260 0.121260 0.121260
0.121260 0.121260 0.121260
0.121260 0.121260 0.121260
0.121260 0.121260 0.121260
0.121260 0.121260 0.121260
0.121260 0.121260 0.121260
0.121260 0.121260 0.121260
0.121260 0.121260 0.121260
0.121260 0.121260 0.121260
0.121260 0.121260 0.121260
0.121260 0.121260 0.121260
0.121260 0.121260 0.121260
0.121260 0.121260 0.121260
0.121260 0.121260 0.121260
0.121260 0.121260 0.121260
0.121260 0.121260 0.121260
0.121260 0.121260 0.121260
0.121260 0.121260 0.121260
0.121260 0.121260 0.121260
0.121260 0.121260 0.121260
0.121260 0.121260 0.121260
0.121260 0.121260 0.121260
0.121260 0.121260 0.121260
0.121260 0.121260 0.121260
0.121260 0.121260 0.121260
0.121260 0.121260 0.121260
0.121260 0.121260 0.121260
0.121260 0.121260 0.121260
0.121260 0.121260 0.121260
0.121260 0.121260 0.121260
0.121260 0.121260 0.121260
0.121260 0.121260 0.121260
0.121260 0.121260 0.121260
0.121260 0.121260 0.121260
0.121260 0.121260 0.121260
0.121260 0.121260 0.121260
0.121260 0.121260 0.121260
0.121260 0.121260 0.121260
0.121260 0.121260 0.121260
0.121260 0.121260 0.121260
0.121260 0.121260 0.121260
0.121260 0.121260 0.121260
0.121260 0.121260 0.121260
0.121260 0.121260 0.121260
0.121260 0.121260 0.121260
0.121260 0.121260 0.121260
0.121260 0.121260 0.121260
0.121260 0.121260 0.121260
0.121260 0.121260 0.121260
0.121260 0.121260 0.121260
0.121260 0.121260 0.121260
0.121260 0.121260 0.121260
0.121260 0.121260 0.121260
0.121260 0.121260 0.121260
0.121260 0.121260 0.121260
0.121260 0.121260 0.121260
0.121260 0.121260 0.121260
0.121260 0.121260 0.121260
0.121260 0.121260 0.121260
0.121260 0.121260 0.121260
0.121260 0.121260 0.121260
0.121260 0.121260 0.121260
0.121260 0.121260 0.121260
0.121260 0.121260 0.121260
0.121260 0.121260 0.121260
0.121260 0.121260 0.121260
0.121260 0.121260 0.121260
0.121260 0.121260 0.121260
0.121260 0.121260 0.121260
0.121260 0.121260 0.121260
0.121260 0.121260 0.121260
0.121260 0.121260 0.121260
0.121260 0.121260 0.121260
0.121260 0.121260 0.121260
0.121260 0.121260 0.121260
0.121260 0.121260 0.121260
0.121260 0.121260 0.121260
0.121260 0.121260 0.121260
0.121260 0.121260 0.121260
0.121260 0.121260 0.121260
0.121260 0.121260 0.121260
0.121260 0.121260 0.121260
0.121260 0.121260 0.121260
0.121260 0.121260 0.121260
0.121260 0.121260 0.121260
0.146378 0.146378 0.146378
0.183874 0.183874 0.183874
0.197931 0.197931 0.197931
0.200222 0.200222 0.200222
0.198060 0.198060 0.198060
0.193985 0.193985 0.193985
0.189027 0.189027 0.189027
0.183536 0.183536 0.183536
0.121260 0.121260 0.121260
0.191995 0.191995 0.191995
0.166571 0.166571 0.166571
0.174141 0.174141 0.174141
0.184600 0.184600 0.184600
0.188805 0.188805 0.188805
0.188812 0.188812 0.188812
0.186440 0.186440 0.186440
0.182640 0.182640 0.182640
0.121260 0.121260 0.121260
0.201839 0.201839 0.201839
0.183989 0.183989 0.183989
0.171013 0.171013 0.171013
0.171728 0.171728 0.171728
0.176594 0.176594 0.176594
0.179427 0.179427 0.179427
0.179629 0.179629 0.179629
0.177922 0.177922 0.177922
0.121260 0.121260 0.121260
0.198890 0.198890 0.198890
0.189945 0.189945 0.189945
0.178059 0.178059 0.178059
0.170906 0.170906 0.170906
0.169534 0.169534 0.169534
0.171954 0.171954 0.171954
0.173067 0.173067 0.173067
0.172820 0.172820 0.172820
0.121260 0.121260 0.121260
0.191843 0.191843 0.191843
0.188162 0.188162 0.188162
0.180357 0.180357 0.180357
0.173537 0.173537 0.173537
0.169175 0.169175 0.169175
0.167252 0.167252 0.167252
0.168241 0.168241 0.168241
0.168398 0.168398 0.168398
0.121260 0.121260 0.121260
0.183247 0.183247 0.183247
0.182533 0.182533 0.182533
0.178099 0.178099 0.178099
0.173410 0.173410 0.173410
0.169550 0.169550 0.169550
0.166743 0.166743 0.166743
0.164917 0.164917 0.164917
0.165008 0.165008 0.165008
0.121260 0.121260 0.121260
0.174448 0.174448 0.174448
0.175319 0.175319 0.175319
0.173601 0.173601 0.173601
0.170873 0.170873 0.170873
0.168087 0.168087 0.168087
0.165744 0.165744 0.165744
0.163972 0.163972 0.163972
0.162669 0.162669 0.162669
0.121260 0.121260 0.121260
0.166610 0.166610 0.166610
0.168329 0.168329 0.168329
0.167949 0.167949 0.167949
0.166609 0.166609 0.166609
0.164955 0.164955 0.164955
0.163380 0.163380 0.163380
0.162063 0.162063 0.162063
0.161024 0.161024 0.161024
0.121260 0.121260 0.121260
0.121260 0.121260 0.121260
0.121260 0.121260 0.121260
0.121260 0.121260 0.121260
0.121260 0.121260 0.121260
0.121260 0.121260 0.121260
0.121260 0.121260 0.121260
0.121260 0.121260 0.121260
0.121260 0.121260 0.121260
0.121260 0.121260 0.121260
0.387709 0.387709 0.387709
0.367379 0.367379 0.367379
0.361070 0.361070 0.361070
0.356955 0.356955 0.356955
0.351517 0.351517 0.351517
0.344646 0.344646 0.344646
0.336743 0.336743 0.336743
0.327952 0.327952 0.327952
0.121260 0.121260 0.121260
0.316024 0.316024 0.316024
0.262816 0.262816 0.262816
0.303382 0.303382 0.303382
0.324826 0.324826 0.324826
0.333871 0.333871 0.333871
0.335116 0.335116 0.335116
0.332115 0.332115 0.332115
0.326282 0.326282 0.326282
0.121260 0.121260 0.121260
0.341281 0.341281 0.341281
0.311845 0.311845 0.311845
0.288820 0.288820 0.288820
0.297748 0.297748 0.297748
0.311137 0.311137 0.311137
0.318180 0.318180 0.318180
0.319990 0.319990 0.319990
0.318139 0.318139 0.318139
0.121260 0.121260 0.121260
0.344727 0.344727 0.344727
0.330174 0.330174 0.330174
0.309929 0.309929 0.309929
0.297026 0.297026 0.297026
0.297560 0.297560 0.297560
0.304246 0.304246 0.304246
0.307935 0.307935 0.307935
0.308479 0.308479 0.308479
0.121260 0.121260 0.121260
0.337626 0.337626 0.337626
0.331668 0.331668 0.331668
0.318309 0.318309 0.318309
0.306140 0.306140 0.306140
0.298143 0.298143 0.298143
0.295952 0.295952 0.295952
0.298877 0.298877 0.298877
0.300019 0.300019 0.300019
0.121260 0.121260 0.121260
0.325578 0.325578 0.325578
0.324482 0.324482 0.324482
0.317150 0.317150 0.317150
0.308424 0.308424 0.308424
0.301002 0.301002 0.301002
0.295898 0.295898 0.295898
0.293129 0.293129 0.293129
0.293828 0.293828 0.293828
0.121260 0.121260 0.121260
0.311667 0.311667 0.311667
0.313509 0.313509 0.313509
0.310204 0.310204 0.310204
0.304895 0.304895 0.304895
0.299514 0.299514 0.299514
0.295100 0.295100 0.295100
0.291909 0.291909 0.291909
0.289690 0.289690 0.289690
0.121260 0.121260 0.121260
0.297060 0.297060 0.297060
0.300553 0.300553 0.300553
0.299890 0.299890 0.299890
0.297332 0.297332 0.297332
0.294173 0.294173 0.294173
0.291207 0.291207 0.291207
0.288797 0.288797 0.288797
0.286963 0.286963 0.286963
0.121260 0.121260 0.121260
0.121260 0.121260 0.121260
0.121260 0.121260 0.121260
0.121260 0.121260 0.121260
0.121260 0.121260 0.121260
0.121260 0.121260 0.121260
0.121260 0.121260 0.121260
0.121260 0.121260 0.121260
0.121260 0.121260 0.121260
0.121260 0.121260 0.121260
0.584931 0.584931 0.584931
0.600281 0.600281 0.600281
0.578097 0.578097 0.578097
0.539925 0.539925 0.539925
0.516243 0.516243 0.516243
0.498397 0.498397 0.498397
0.481838 0.481838 0.481838
0.465521 0.465521 0.465521
0.121260 0.121260 0.121260
0.487944 0.487944 0.487944
0.463170 0.463170 0.463170
0.464725 0.464725 0.464725
0.475968 0.475968 0.475968
0.481085 0.481085 0.481085
0.479270 0.479270 0.479270
0.472450 0.472450 0.472450
0.462310 0.462310 0.462310
0.121260 0.121260 0.121260
0.460356 0.460356 0.460356
0.418103 0.418103 0.418103
0.377097 0.377097 0.377097
0.409035 0.409035 0.409035
0.432999 0.432999 0.432999
0.446231 0.446231 0.446231
0.450110 0.450110 0.450110
0.447516 0.447516 0.447516
0.121260 0.121260 0.121260
0.472667 0.472667 0.472667
0.449965 0.449965 0.449965
0.416307 0.416307 0.416307
0.398797 0.398797 0.398797
0.406188 0.406188 0.406188
0.419097 0.419097 0.419097
0.427640 0.427640 0.427640
0.430049 0.430049 0.430049
0.121260 0.121260 0.121260
0.468680 0.468680 0.468680
0.459409 0.459409 0.459409
0.437685 0.437685 0.437685
0.417242 0.417242 0.417242
0.406795 0.406795 0.406795
0.407070 0.407070 0.407070
0.412541 0.412541 0.412541
0.415754 0.415754 0.415754
0.121260 0.121260 0.121260
0.453857 0.453857 0.453857
0.452690 0.452690 0.452690
0.440564 0.440564 0.440564
0.425969 0.425969 0.425969
0.413926 0.413926 0.413926
0.407909 0.407909 0.407909
0.405914 0.405914 0.405914
0.407735 0.407735 0.407735
0.121260 0.121260 0.121260
0.433470 0.433470 0.433470
0.437043 0.437043 0.437043
0.431743 0.431743 0.431743
0.423136 0.423136 0.423136
0.414444 0.414444 0.414444
0.408878 0.408878 0.408878
0.405238 0.405238 0.405238
0.403016 0.403016 0.403016
0.121260 0.121260 0.121260
0.411712 0.411712 0.411712
0.417258 0.417258 0.417258
0.416418 0.416418 0.416418
0.412712 0.412712 0.412712
0.408782 0.408782 0.408782
0.405160 0.405160 0.405160
0.402348 0.402348 0.402348
0.400360 0.400360 0.400360
0.121260 0.121260 0.121260
0.121260 0.121260 0.121260
0.121260 0.121260 0.121260
0.121260 0.121260 0.121260
0.121260 0.121260 0.121260
0.121260 0.121260 0.121260
0.121260 0.121260 0.121260
0.121260 0.121260 0.121260
0.121260 0.121260 0.121260
0.121260 0.121260 0.121260
0.770589 0.770589 0.770589
0.786963 0.786963 0.786963
0.794908 0.794908 0.794908
0.758220 0.758220 0.758220
0.710360 0.710360 0.710360
0.676940 0.676940 0.676940
0.647014 0.647014 0.647014
0.621778 0.621778 0.621778
0.121260 0.121260 0.121260
0.751643 0.751643 0.751643
0.730115 0.730115 0.730115
0.702207 0.702207 0.702207
0.681659 0.681659 0.681659
0.664466 0.664466 0.664466
0.648973 0.648973 0.648973
0.633381 0.633381 0.633381
0.616884 0.616884 0.616884
0.121260 0.121260 0.121260
0.617619 0.617619 0.617619
0.591839 0.591839 0.591839
0.569874 0.569874 0.569874
0.576574 0.576574 0.576574
0.591521 0.591521 0.591521
0.600359 0.600359 0.600359
0.601409 0.601409 0.601409
0.596204 0.596204 0.596204
0.121260 0.121260 0.121260
0.603589 0.603589 0.603589
0.581288 0.581288 0.581288
0.542703 0.542703 0.542703
0.504596 0.504596 0.504596
0.536563 0.536563 0.536563
0.557632 0.557632 0.557632
0.568847 0.568847 0.568847
0.572109 0.572109 0.572109
0.121260 0.121260 0.121260
0.602851 0.602851 0.602851
0.593651 0.593651 0.593651
0.568616 0.568616 0.568616
0.542766 0.542766 0.542766
0.527367 0.527367 0.527367
0.534857 0.534857 0.534857
0.546520 0.546520 0.546520
0.552764 0.552764 0.552764
0.121260 0.121260 0.121260
0.590627 0.590627 0.590627
0.590407 0.590407 0.590407
0.576460 0.576460 0.576460
0.559117 0.559117 0.559117
0.544322 0.544322 0.544322
0.535864 0.535864 0.535864
0.536096 0.536096 0.536096
0.540597 0.540597 0.540597
0.121260 0.121260 0.121260
0.570208 0.570208 0.570208
0.575237 0.575237 0.575237
0.569480 0.569480 0.569480
0.559324 0.559324 0.559324
0.548929 0.548929 0.548929
0.540907 0.540907 0.540907
0.536137 0.536137 0.536137
0.534342 0.534342 0.534342
0.121260 0.121260 0.121260
0.545395 0.545395 0.545395
0.553548 0.553548 0.553548
0.552998 0.552998 0.552998
0.548469 0.548469 0.548469
0.542709 0.542709 0.542709
0.537511 0.537511 0.537511
0.533750 0.533750 0.533750
0.531432 0.531432 0.531432
0.121260 0.121260 0.121260
0.121260 0.121260 0.121260
0.121260 0.121260 0.121260
0.121260 0.121260 0.121260
0.121260 0.121260 0.121260
0.121260 0.121260 0.121260
0.121260 0.121260 0.121260
0.121260 0.121260 0.121260
0.121260 0.121260 0.121260
0.121260 0.121260 0.121260
0.890333 0.890333 0.890333
0.901810 0.901810 0.901810
0.908592 0.908592 0.908592
0.909437 0.909437 0.909437
0.867483 0.867483 0.867483
0.829903 0.829903 0.829903
0.798686 0.798686 0.798686
0.770668 0.770668 0.770668
0.121260 0.121260 0.121260
0.900967 0.900967 0.900967
0.912582 0.912582 0.912582
0.886987 0.886987 0.886987
0.859917 0.859917 0.859917
0.831120 0.831120 0.831120
0.807113 0.807113 0.807113
0.787080 0.787080 0.787080
0.765072 0.765072 0.765072
0.121260 0.121260 0.121260
0.805626 0.805626 0.805626
0.799032 0.799032 0.799032
0.784794 0.784794 0.784794
0.772284 0.772284 0.772284
0.765567 0.765567 0.765567
0.759942 0.759942 0.759942
0.752475 0.752475 0.752475
0.742333 0.742333 0.742333
0.121260 0.121260 0.121260
0.740378 0.740378 0.740378
0.728979 0.728979 0.728979
0.703621 0.703621 0.703621
0.688449 0.688449 0.688449
0.695004 0.695004 0.695004
0.706798 0.706798 0.706798
0.713720 0.713720 0.713720
0.714486 0.714486 0.714486
0.121260 0.121260 0.121260
0.727676 0.727676 0.727676
0.721982 0.721982 0.721982
0.699342 0.699342 0.699342
0.670452 0.670452 0.670452
0.641082 0.641082 0.641082
0.667305 0.667305 0.667305
0.683439 0.683439 0.683439
0.690503 0.690503 0.690503
0.121260 0.121260 0.121260
0.718074 0.718074 0.718074
0.719530 0.719530 0.719530
0.706821 0.706821 0.706821
0.688902 0.688902 0.688902
0.671252 0.671252 0.671252
0.660712 0.660712 0.660712
0.666739 0.666739 0.666739
0.674846 0.674846 0.674846
0.121260 0.121260 0.121260
0.700884 0.700884 0.700884
0.707307 0.707307 0.707307
0.702145 0.702145 0.702145
0.692001 0.692001 0.692001
0.681257 0.681257 0.681257
0.672005 0.672005 0.672005
0.667130 0.667130 0.667130
0.667433 0.667433 0.667433
0.121260 0.121260 0.121260
0.677061 0.677061 0.677061
0.686874 0.686874 0.686874
0.686987 0.686987 0.686987
0.682755 0.682755 0.682755
0.676844 0.676844 0.676844
0.670935 0.670935 0.670935
0.667062 0.667062 0.667062
0.665276 0.665276 0.665276
0.121260 0.121260 0.121260
0.121260 0.121260 0.121260
0.121260 0.121260 0.121260
0.121260 0.121260 0.121260
0.121260 0.121260 0.121260
0.121260 0.121260 0.121260
0.121260 0.121260 0.121260
0.121260 0.121260 0.121260
0.121260 0.121260 0.121260
0.121260 0.121260 0.121260
0.962478 0.962478 0.962478
0.968158 0.968158 0.968158
0.971495 0.971495 0.971495
0.973871 0.973871 0.973871
0.959803 0.959803 0.959803
0.930852 0.930852 0.930852
0.901276 0.901276 0.901276
0.876423 0.876423 0.876423
0.121260 0.121260 0.121260
0.967742 0.967742 0.967742
0.973453 0.973453 0.973453
0.976564 0.976564 0.976564
0.960557 0.960557 0.960557
0.938066 0.938066 0.938066
0.914156 0.914156 0.914156
0.891693 0.891693 0.891693
0.872593 0.872593 0.872593
0.121260 0.121260 0.121260
0.933107 0.933107 0.933107
0.931323 0.931323 0.931323
0.920200 0.920200 0.920200
0.905192 0.905192 0.905192
0.891295 0.891295 0.891295
0.879042 0.879042 0.879042
0.867802 0.867802 0.867802
0.856850 0.856850 0.856850
0.121260 0.121260 0.121260
0.863761 0.863761 0.863761
0.863131 0.863131 0.863131
0.853811 0.853811 0.853811
0.843168 0.843168 0.843168
0.838161 0.838161 0.838161
0.836559 0.836559 0.836559
0.834637 0.834637 0.834637
0.830427 0.830427 0.830427
0.121260 0.121260 0.121260
0.830818 0.830818 0.830818
0.830223 0.830223 0.830223
0.816579 0.816579 0.816579
0.800299 0.800299 0.800299
0.791939 0.791939 0.791939
0.796254 0.796254 0.796254
0.802997 0.802997 0.802997
0.806314 0.806314 0.806314
0.121260 0.121260 0.121260
0.817896 0.817896 0.817896
0.821006 0.821006 0.821006
0.812022 0.812022 0.812022
0.797850 0.797850 0.797850
0.782744 0.782744 0.782744
0.767470 0.767470 0.767470
0.782526 0.782526 0.782526
0.789888 0.789888 0.789888
0.121260 0.121260 0.121260
0.804522 0.804522 0.804522
0.811209 0.811209 0.811209
0.807829 0.807829 0.807829
0.799867 0.799867 0.799867
0.790893 0.790893 0.790893
0.783397 0.783397 0.783397
0.779518 0.779518 0.779518
0.782761 0.782761 0.782761
0.121260 0.121260 0.121260
0.786179 0.786179 0.786179
0.795374 0.795374 0.795374
0.796233 0.796233 0.796233
0.793231 0.793231 0.793231
0.788913 0.788913 0.788913
0.785104 0.785104 0.785104
0.782441 0.782441 0.782441
0.781975 0.781975 0.781975
0.121260 0.121260 0.121260
0.121260 0.121260 0.121260
0.121260 0.121260 0.121260
0.121260 0.121260 0.121260
0.121260 0.121260 0.121260
0.121260 0.121260 0.121260
0.121260 0.121260 0.121260
0.121260 0.121260 0.121260
0.121260 0.121260 0.121260
0.121260 0.121260 0.121260
0.988048 0.988048 0.988048
0.989558 0.989558 0.989558
0.990442 0.990442 0.990442
0.991069 0.991069 0.991069
0.989141 0.989141 0.989141
0.982313 0.982313 0.982313
0.965622 0.965622 0.965622
0.948058 0.948058 0.948058
0.121260 0.121260 0.121260
0.989447 0.989447 0.989447
0.990959 0.990959 0.990959
0.991844 0.991844 0.991844
0.990117 0.990117 0.990117
0.985782 0.985782 0.985782
0.974249 0.974249 0.974249
0.961186 0.961186 0.961186
0.945012 0.945012 0.945012
0.121260 0.121260 0.121260
0.986392 0.986392 0.986392
0.986241 0.986241 0.986241
0.984580 0.984580 0.984580
0.975855 0.975855 0.975855
0.966485 0.966485 0.966485
0.957617 0.957617 0.957617
0.944275 0.944275 0.944275
0.931638 0.931638 0.931638
0.121260 0.121260 0.121260
0.949746 0.949746 0.949746
0.951916 0.951916 0.951916
0.946940 0.946940 0.946940
0.939753 0.939753 0.939753
0.932569 0.932569 0.932569
0.926058 0.926058 0.926058
0.918826 0.918826 0.918826
0.911015 0.911015 0.911015
0.121260 0.121260 0.121260
0.909995 0.909995 0.909995
0.913174 0.913174 0.913174
0.907514 0.907514 0.907514
0.899701 0.899701 0.899701
0.894132 0.894132 0.894132
0.891995 0.891995 0.891995
0.891375 0.891375 0.891375
0.890014 0.890014 0.890014
0.121260 0.121260 0.121260
0.890229 0.890229 0.890229
0.894474 0.894474 0.894474
0.889827 0.889827 0.889827
0.881446 0.881446 0.881446
0.873282 0.873282 0.873282
0.869617 0.869617 0.869617
0.871827 0.871827 0.871827
0.874498 0.874498 0.874498
0.121260 0.121260 0.121260
0.878201 0.878201 0.878201
0.884441 0.884441 0.884441
0.882884 0.882884 0.882884
0.877643 0.877643 0.877643
0.871262 0.871262 0.871262
0.865613 0.865613 0.865613
0.861957 0.861957 0.861957
0.866661 0.866661 0.866661
0.121260 0.121260 0.121260
0.864716 0.864716 0.864716
0.872677 0.872677 0.872677
0.874043 0.874043 0.874043
0.872341 0.872341 0.872341
0.869511 0.869511 0.869511
0.866983 0.866983 0.866983
0.865763 0.865763 0.865763
0.866245 0.866245 0.866245
0.121260 0.121260 0.121260
0.121260 0.121260 0.121260
0.121260 0.121260 0.121260
0.121260 0.121260 0.121260
0.121260 0.121260 0.121260
0.121260 0.121260 0.121260
0.121260 0.121260 0.121260
0.121260 0.121260 0.121260
0.121260 0.121260 0.121260
0.121260 0.121260 0.121260
0.994348 0.994348 0.994348
0.994854 0.994854 0.994854
0.995151 0.995151 0.995151
0.995361 0.995361 0.995361
0.995109 0.995109 0.995109
0.993178 0.993178 0.993178
0.988553 0.988553 0.988553
0.984572 0.984572 0.984572
0.121260 0.121260 0.121260
0.994817 0.994817 0.994817
0.995324 0.995324 0.995324
0.995621 0.995621 0.995621
0.995595 0.995595 0.995595
0.994121 0.994121 0.994121
0.991279 0.991279 0.991279
0.987481 0.987481 0.987481
0.982993 0.982993 0.982993
0.121260 0.121260 0.121260
0.994604 0.994604 0.994604
0.994580 0.994580 0.994580
0.994017 0.994017 0.994017
0.992716 0.992716 0.992716
0.989911 0.989911 0.989911
0.987110 0.987110 0.987110
0.984328 0.984328 0.984328
0.974966 0.974966 0.974966
0.121260 0.121260 0.121260
0.986732 0.986732 0.986732
0.987232 0.987232 0.987232
0.986522 0.986522 0.986522
0.985234 0.985234 0.985234
0.981456 0.981456 0.981456
0.975550 0.975550 0.975550
0.969806 0.969806 0.969806
0.964200 0.964200 0.964200
0.121260 0.121260 0.121260
0.965979 0.965979 0.965979
0.968626 0.968626 0.968626
0.967285 0.967285 0.967285
0.964382 0.964382 0.964382
0.961282 0.961282 0.961282
0.958555 0.958555 0.958555
0.955270 0.955270 0.955270
0.951071 0.951071 0.951071
0.121260 0.121260 0.121260
0.947144 0.947144 0.947144
0.952002 0.952002 0.952002
0.950431 0.950431 0.950431
0.946218 0.946218 0.946218
0.941900 0.941900 0.941900
0.939137 0.939137 0.939137
0.938020 0.938020 0.938020
0.937257 0.937257 0.937257
0.121260 0.121260 0.121260
0.933766 0.933766 0.933766
0.939701 0.939701 0.939701
0.939520 0.939520 0.939520
0.936530 0.936530 0.936530
0.932427 0.932427 0.932427
0.929044 0.929044 0.929044
0.927915 0.927915 0.927915
0.928821 0.928821 0.928821
0.121260 0.121260 0.121260
0.921552 0.921552 0.921552
0.929415 0.929415 0.929415
0.931185 0.931185 0.931185
0.930399 0.930399 0.930399
0.928606 0.928606 0.928606
0.926946 0.926946 0.926946
0.926259 0.926259 0.926259
0.927107 0.927107 0.927107
