trix_modern/TriX_Orange21_Normal.cube
TITLE "Tri-X Orange21 Normal"
# Adobe RGB in/out. REPLACES AgX. R=0.7239 G=0.2761 B=0.0000
LUT_3D_SIZE 5
DOMAIN_MIN 0.0 0.0 0.0
DOMAIN_MAX 1.0 1.0 1.0
0.095875 0.095875 0.095875
0.095875 0.095875 0.095875
0.095875 0.095875 0.095875
0.095875 0.095875 0.095875
0.095875 0.095875 0.095875
0.095875 0.095875 0.095875
0.286575 0.286575 0.286575
0.550879 0.550879 0.550879
0.752864 0.752864 0.752864
0.851540 0.851540 0.851540
0.095875 0.095875 0.095875
0.393300 0.393300 0.393300
0.598923 0.598923 0.598923
0.795368 0.795368 0.795368
0.908489 0.908489 0.908489
0.095875 0.095875 0.095875
0.415923 0.415923 0.415923
0.675734 0.675734 0.675734
0.828592 0.828592 0.828592
0.927611 0.927611 0.927611
0.095875 0.095875 0.095875
0.401824 0.401824 0.401824
0.687044 0.687044 0.687044
0.854141 0.854141 0.854141
0.945342 0.945342 0.945342
0.095875 0.095875 0.095875
0.095875 0.095875 0.095875
0.095875 0.095875 0.095875
0.095875 0.095875 0.095875
0.095875 0.095875 0.095875
0.095875 0.095875 0.095875
0.213592 0.213592 0.213592
0.521345 0.521345 0.521345
0.734862 0.734862 0.734862
0.843466 0.843466 0.843466
0.095875 0.095875 0.095875
0.367994 0.367994 0.367994
0.564326 0.564326 0.564326
0.780959 0.780959 0.780959
0.902692 0.902692 0.902692
0.095875 0.095875 0.095875
0.406278 0.406278 0.406278
0.663252 0.663252 0.663252
0.820208 0.820208 0.820208
0.924173 0.924173 0.924173
0.095875 0.095875 0.095875
0.398696 0.398696 0.398696
0.683409 0.683409 0.683409
0.851839 0.851839 0.851839
0.944917 0.944917 0.944917
0.095875 0.095875 0.095875
0.095875 0.095875 0.095875
0.095875 0.095875 0.095875
0.095875 0.095875 0.095875
0.095875 0.095875 0.095875
0.095875 0.095875 0.095875
0.356168 0.356168 0.356168
0.575767 0.575767 0.575767
0.740996 0.740996 0.740996
0.838561 0.838561 0.838561
0.095875 0.095875 0.095875
0.336389 0.336389 0.336389
0.508013 0.508013 0.508013
0.764118 0.764118 0.764118
0.895908 0.895908 0.895908
0.095875 0.095875 0.095875
0.386099 0.386099 0.386099
0.636559 0.636559 0.636559
0.802685 0.802685 0.802685
0.917539 0.917539 0.917539
0.095875 0.095875 0.095875
0.390740 0.390740 0.390740
0.674543 0.674543 0.674543
0.846309 0.846309 0.846309
0.943901 0.943901 0.943901
0.095875 0.095875 0.095875
0.095875 0.095875 0.095875
0.095875 0.095875 0.095875
0.095875 0.095875 0.095875
0.095875 0.095875 0.095875
0.095875 0.095875 0.095875
0.403687 0.403687 0.403687
0.662328 0.662328 0.662328
0.780301 0.780301 0.780301
0.847153 0.847153 0.847153
0.095875 0.095875 0.095875
0.356385 0.356385 0.356385
0.601357 0.601357 0.601357
0.791194 0.791194 0.791194
0.899141 0.899141 0.899141
0.095875 0.095875 0.095875
0.368665 0.368665 0.368665
0.618322 0.618322 0.618322
0.784842 0.784842 0.784842
0.914192 0.914192 0.914192
0.095875 0.095875 0.095875
0.381239 0.381239 0.381239
0.664053 0.664053 0.664053
0.840415 0.840415 0.840415
0.942527 0.942527 0.942527
0.095875 0.095875 0.095875
0.095875 0.095875 0.095875
0.095875 0.095875 0.095875
0.095875 0.095875 0.095875
0.095875 0.095875 0.095875
0.095875 0.095875 0.095875
0.403687 0.403687 0.403687
0.707324 0.707324 0.707324
0.807447 0.807447 0.807447
0.860403 0.860403 0.860403
0.095875 0.095875 0.095875
0.397526 0.397526 0.397526
0.669217 0.669217 0.669217
0.824624 0.824624 0.824624
0.909190 0.909190 0.909190
0.095875 0.095875 0.095875
0.366452 0.366452 0.366452
0.632156 0.632156 0.632156
0.812393 0.812393 0.812393
0.919246 0.919246 0.919246
0.095875 0.095875 0.095875
0.373019 0.373019 0.373019
0.655170 0.655170 0.655170
0.836677 0.836677 0.836677
0.941833 0.941833 0.941833
