trix_modern/TriX_Green58_Normal.cube
TITLE "Tri-X Green58 Normal"
# Adobe RGB in/out. REPLACES AgX. R=0.1714 G=0.8069 B=0.0217
LUT_3D_SIZE 9
DOMAIN_MIN 0.0 0.0 0.0
DOMAIN_MAX 1.0 1.0 1.0
0.093230 0.093230 0.093230
0.093230 0.093230 0.093230
0.093230 0.093230 0.093230
0.093230 0.093230 0.093230
0.093230 0.093230 0.093230
0.093230 0.093230 0.093230
0.093230 0.093230 0.093230
0.093230 0.093230 0.093230
0.093230 0.093230 0.093230
0.093230 0.093230 0.093230
0.093230 0.093230 0.093230
0.093230 0.093230 0.093230
0.093230 0.093230 0.093230
0.093230 0.093230 0.093230
0.093230 0.093230 0.093230
0.093230 0.093230 0.093230
0.093230 0.093230 0.093230
0.093230 0.093230 0.093230
0.093230 0.093230 0.093230
0.093230 0.093230 0.093230
0.093230 0.093230 0.093230
0.093230 0.093230 0.093230
0.093230 0.093230 0.093230
0.093230 0.093230 0.093230
0.093230 0.093230 0.093230
0.093230 0.093230 0.093230
0.093230 0.093230 0.093230
0.093230 0.093230 0.093230
0.093230 0.093230 0.093230
0.093230 0.093230 0.093230
0.093230 0.093230 0.093230
0.093230 0.093230 0.093230
0.093230 0.093230 0.093230
0.093230 0.093230 0.093230
0.093230 0.093230 0.093230
0.093230 0.093230 0.093230
0.093230 0.093230 0.093230
0.093230 0.093230 0.093230
0.093230 0.093230 0.093230
0.093230 0.093230 0.093230
0.093230 0.093230 0.093230
0.093230 0.093230 0.093230
0.093230 0.093230 0.093230
0.093230 0.093230 0.093230
0.093230 0.093230 0.093230
0.093230 0.093230 0.093230
0.093230 0.093230 0.093230
0.093230 0.093230 0.093230
0.093230 0.093230 0.093230
0.093230 0.093230 0.093230
0.093230 0.093230 0.093230
0.093230 0.093230 0.093230
0.093230 0.093230 0.093230
0.093230 0.093230 0.093230
0.093230 0.093230 0.093230
0.093230 0.093230 0.093230
0.093230 0.093230 0.093230
0.093230 0.093230 0.093230
0.093230 0.093230 0.093230
0.093230 0.093230 0.093230
0.093230 0.093230 0.093230
0.093230 0.093230 0.093230
0.093230 0.093230 0.093230
0.093230 0.093230 0.093230
0.093230 0.093230 0.093230
0.093230 0.093230 0.093230
0.093230 0.093230 0.093230
0.093230 0.093230 0.093230
0.093230 0.093230 0.093230
0.093230 0.093230 0.093230
0.093230 0.093230 0.093230
0.093230 0.093230 0.093230
0.093230 0.093230 0.093230
0.093230 0.093230 0.093230
0.093230 0.093230 0.093230
0.093230 0.093230 0.093230
0.093230 0.093230 0.093230
0.093230 0.093230 0.093230
0.093230 0.093230 0.093230
0.093230 0.093230 0.093230
0.093230 0.093230 0.093230
0.093230 0.093230 0.093230
0.093230 0.093230 0.093230
0.093230 0.093230 0.093230
0.093230 0.093230 0.093230
0.093230 0.093230 0.093230
0.093230 0.093230 0.093230
0.093230 0.093230 0.093230
0.093230 0.093230 0.093230
0.093230 0.093230 0.093230
0.093230 0.093230 0.093230
0.097009 0.097009 0.097009
0.128640 0.128640 0.128640
0.157065 0.157065 0.157065
0.170380 0.170380 0.170380
0.175956 0.175956 0.175956
0.176698 0.176698 0.176698
0.174612 0.174612 0.174612
0.170778 0.170778 0.170778
0.093230 0.093230 0.093230
0.276458 0.276458 0.276458
0.250227 0.250227 0.250227
0.291498 0.291498 0.291498
0.330486 0.330486 0.330486
0.353706 0.353706 0.353706
0.365148 0.365148 0.365148
0.368682 0.368682 0.368682
0.367131 0.367131 0.367131
0.093230 0.093230 0.093230
0.435291 0.435291 0.435291
0.432828 0.432828 0.432828
0.418435 0.418435 0.418435
0.441622 0.441622 0.441622
0.477467 0.477467 0.477467
0.501778 0.501778 0.501778
0.515276 0.515276 0.515276
0.520233 0.520233 0.520233
0.093230 0.093230 0.093230
0.554553 0.554553 0.554553
0.583855 0.583855 0.583855
0.575417 0.575417 0.575417
0.568704 0.568704 0.568704
0.582157 0.582157 0.582157
0.611251 0.611251 0.611251
0.631971 0.631971 0.631971
0.643990 0.643990 0.643990
0.093230 0.093230 0.093230
0.645492 0.645492 0.645492
0.697788 0.697788 0.697788
0.705388 0.705388 0.705388
0.702172 0.702172 0.702172
0.701264 0.701264 0.701264
0.708723 0.708723 0.708723
0.729042 0.729042 0.729042
0.743255 0.743255 0.743255
0.093230 0.093230 0.093230
0.710154 0.710154 0.710154
0.776187 0.776187 0.776187
0.792831 0.792831 0.792831
0.797020 0.797020 0.797020
0.798327 0.798327 0.798327
0.800559 0.800559 0.800559
0.804591 0.804591 0.804591
0.815124 0.815124 0.815124
0.093230 0.093230 0.093230
0.757250 0.757250 0.757250
0.817839 0.817839 0.817839
0.842417 0.842417 0.842417
0.853795 0.853795 0.853795
0.859657 0.859657 0.859657
0.864029 0.864029 0.864029
0.868577 0.868577 0.868577
0.873534 0.873534 0.873534
0.093230 0.093230 0.093230
0.787185 0.787185 0.787185
0.847527 0.847527 0.847527
0.878699 0.878699 0.878699
0.891947 0.891947 0.891947
0.900070 0.900070 0.900070
0.905941 0.905941 0.905941
0.910948 0.910948 0.910948
0.915639 0.915639 0.915639
0.093230 0.093230 0.093230
0.093230 0.093230 0.093230
0.093230 0.093230 0.093230
0.093230 0.093230 0.093230
0.093230 0.093230 0.093230
0.093230 0.093230 0.093230
0.093230 0.093230 0.093230
0.093230 0.093230 0.093230
0.093230 0.093230 0.093230
0.093230 0.093230 0.093230
0.148765 0.148765 0.148765
0.156306 0.156306 0.156306
0.165104 0.165104 0.165104
0.172513 0.172513 0.172513
0.176481 0.176481 0.176481
0.177312 0.177312 0.177312
0.175796 0.175796 0.175796
0.172586 0.172586 0.172586
0.093230 0.093230 0.093230
0.244054 0.244054 0.244054
0.204394 0.204394 0.204394
0.283867 0.283867 0.283867
0.326530 0.326530 0.326530
0.351719 0.351719 0.351719
0.365022 0.365022 0.365022
0.370161 0.370161 0.370161
0.369921 0.369921 0.369921
0.093230 0.093230 0.093230
0.408166 0.408166 0.408166
0.405875 0.405875 0.405875
0.390537 0.390537 0.390537
0.428482 0.428482 0.428482
0.471174 0.471174 0.471174
0.500086 0.500086 0.500086
0.516708 0.516708 0.516708
0.523726 0.523726 0.523726
0.093230 0.093230 0.093230
0.539093 0.539093 0.539093
0.568530 0.568530 0.568530
0.559738 0.559738 0.559738
0.554544 0.554544 0.554544
0.575557 0.575557 0.575557
0.609255 0.609255 0.609255
0.633805 0.633805 0.633805
0.648642 0.648642 0.648642
0.093230 0.093230 0.093230
0.638805 0.638805 0.638805
0.692145 0.692145 0.692145
0.699949 0.699949 0.699949
0.697039 0.697039 0.697039
0.697699 0.697699 0.697699
0.709370 0.709370 0.709370
0.732335 0.732335 0.732335
0.748908 0.748908 0.748908
0.093230 0.093230 0.093230
0.710302 0.710302 0.710302
0.776752 0.776752 0.776752
0.793555 0.793555 0.793555
0.798025 0.798025 0.798025
0.799840 0.799840 0.799840
0.803049 0.803049 0.803049
0.808901 0.808901 0.808901
0.820599 0.820599 0.820599
0.093230 0.093230 0.093230
0.761737 0.761737 0.761737
0.821447 0.821447 0.821447
0.846407 0.846407 0.846407
0.858143 0.858143 0.858143
0.864426 0.864426 0.864426
0.869394 0.869394 0.869394
0.874744 0.874744 0.874744
0.880297 0.880297 0.880297
0.093230 0.093230 0.093230
0.792550 0.792550 0.792550
0.853439 0.853439 0.853439
0.883539 0.883539 0.883539
0.896856 0.896856 0.896856
0.905269 0.905269 0.905269
0.911484 0.911484 0.911484
0.916903 0.916903 0.916903
0.922053 0.922053 0.922053
0.093230 0.093230 0.093230
0.093230 0.093230 0.093230
0.093230 0.093230 0.093230
0.093230 0.093230 0.093230
0.093230 0.093230 0.093230
0.093230 0.093230 0.093230
0.093230 0.093230 0.093230
0.093230 0.093230 0.093230
0.093230 0.093230 0.093230
0.093230 0.093230 0.093230
0.154657 0.154657 0.154657
0.187561 0.187561 0.187561
0.194629 0.194629 0.194629
0.186325 0.186325 0.186325
0.182528 0.182528 0.182528
0.179911 0.179911 0.179911
0.177014 0.177014 0.177014
0.173383 0.173383 0.173383
0.093230 0.093230 0.093230
0.277174 0.277174 0.277174
0.293925 0.293925 0.293925
0.315543 0.315543 0.315543
0.339571 0.339571 0.339571
0.357268 0.357268 0.357268
0.367245 0.367245 0.367245
0.371227 0.371227 0.371227
0.370827 0.370827 0.370827
0.093230 0.093230 0.093230
0.382375 0.382375 0.382375
0.386697 0.386697 0.386697
0.357462 0.357462 0.357462
0.423816 0.423816 0.423816
0.469218 0.469218 0.469218
0.498955 0.498955 0.498955
0.516333 0.516333 0.516333
0.524193 0.524193 0.524193
0.093230 0.093230 0.093230
0.515367 0.515367 0.515367
0.546665 0.546665 0.546665
0.537767 0.537767 0.537767
0.532268 0.532268 0.532268
0.564754 0.564754 0.564754
0.603536 0.603536 0.603536
0.631420 0.631420 0.631420
0.648536 0.648536 0.648536
0.093230 0.093230 0.093230
0.622003 0.622003 0.622003
0.677930 0.677930 0.677930
0.686599 0.686599 0.686599
0.683850 0.683850 0.683850
0.685995 0.685995 0.685995
0.703750 0.703750 0.703750
0.729783 0.729783 0.729783
0.748962 0.748962 0.748962
0.093230 0.093230 0.093230
0.701829 0.701829 0.701829
0.768901 0.768901 0.768901
0.788382 0.788382 0.788382
0.793306 0.793306 0.793306
0.795679 0.795679 0.795679
0.800071 0.800071 0.800071
0.808571 0.808571 0.808571
0.821689 0.821689 0.821689
0.093230 0.093230 0.093230
0.758501 0.758501 0.758501
0.819363 0.819363 0.819363
0.844790 0.844790 0.844790
0.857037 0.857037 0.857037
0.863876 0.863876 0.863876
0.869605 0.869605 0.869605
0.876024 0.876024 0.876024
0.882192 0.882192 0.882192
0.093230 0.093230 0.093230
0.793075 0.793075 0.793075
0.854248 0.854248 0.854248
0.884432 0.884432 0.884432
0.898098 0.898098 0.898098
0.906907 0.906907 0.906907
0.913591 0.913591 0.913591
0.919582 0.919582 0.919582
0.925384 0.925384 0.925384
0.093230 0.093230 0.093230
0.093230 0.093230 0.093230
0.093230 0.093230 0.093230
0.093230 0.093230 0.093230
0.093230 0.093230 0.093230
0.093230 0.093230 0.093230
0.093230 0.093230 0.093230
0.093230 0.093230 0.093230
0.093230 0.093230 0.093230
0.093230 0.093230 0.093230
0.156131 0.156131 0.156131
0.189569 0.189569 0.189569
0.212683 0.212683 0.212683
0.207780 0.207780 0.207780
0.194844 0.194844 0.194844
0.186484 0.186484 0.186484
0.180424 0.180424 0.180424
0.175167 0.175167 0.175167
0.093230 0.093230 0.093230
0.332608 0.332608 0.332608
0.360473 0.360473 0.360473
0.367091 0.367091 0.367091
0.370837 0.370837 0.370837
0.374164 0.374164 0.374164
0.376022 0.376022 0.376022
0.375727 0.375727 0.375727
0.373204 0.373204 0.373204
0.093230 0.093230 0.093230
0.387185 0.387185 0.387185
0.416238 0.416238 0.416238
0.427086 0.427086 0.427086
0.453556 0.453556 0.453556
0.483605 0.483605 0.483605
0.506125 0.506125 0.506125
0.519851 0.519851 0.519851
0.526135 0.526135 0.526135
0.093230 0.093230 0.093230
0.494924 0.494924 0.494924
0.531756 0.531756 0.531756
0.525922 0.525922 0.525922
0.508013 0.508013 0.508013
0.562681 0.562681 0.562681
0.603644 0.603644 0.603644
0.631870 0.631870 0.631870
0.649218 0.649218 0.649218
0.093230 0.093230 0.093230
0.602698 0.602698 0.602698
0.661252 0.661252 0.661252
0.672630 0.672630 0.672630
0.669455 0.669455 0.669455
0.671609 0.671609 0.671609
0.697661 0.697661 0.697661
0.727052 0.727052 0.727052
0.748330 0.748330 0.748330
0.093230 0.093230 0.093230
0.689701 0.689701 0.689701
0.757571 0.757571 0.757571
0.781125 0.781125 0.781125
0.786712 0.786712 0.786712
0.789468 0.789468 0.789468
0.794953 0.794953 0.794953
0.806765 0.806765 0.806765
0.821396 0.821396 0.821396
0.093230 0.093230 0.093230
0.751400 0.751400 0.751400
0.814641 0.814641 0.814641
0.840722 0.840722 0.840722
0.853679 0.853679 0.853679
0.861171 0.861171 0.861171
0.867685 0.867685 0.867685
0.875271 0.875271 0.875271
0.883053 0.883053 0.883053
0.093230 0.093230 0.093230
0.791229 0.791229 0.791229
0.852608 0.852608 0.852608
0.883586 0.883586 0.883586
0.897702 0.897702 0.897702
0.906999 0.906999 0.906999
0.914233 0.914233 0.914233
0.920883 0.920883 0.920883
0.927446 0.927446 0.927446
0.093230 0.093230 0.093230
0.093230 0.093230 0.093230
0.093230 0.093230 0.093230
0.093230 0.093230 0.093230
0.093230 0.093230 0.093230
0.093230 0.093230 0.093230
0.093230 0.093230 0.093230
0.093230 0.093230 0.093230
0.093230 0.093230 0.093230
0.093230 0.093230 0.093230
0.157284 0.157284 0.157284
0.191142 0.191142 0.191142
0.214341 0.214341 0.214341
0.229001 0.229001 0.229001
0.209663 0.209663 0.209663
0.195994 0.195994 0.195994
0.185997 0.185997 0.185997
0.178298 0.178298 0.178298
0.093230 0.093230 0.093230
0.355302 0.355302 0.355302
0.412934 0.412934 0.412934
0.415110 0.415110 0.415110
0.406427 0.406427 0.406427
0.397552 0.397552 0.397552
0.390265 0.390265 0.390265
0.383976 0.383976 0.383976
0.377821 0.377821 0.377821
0.093230 0.093230 0.093230
0.423783 0.423783 0.423783
0.468287 0.468287 0.468287
0.486071 0.486071 0.486071
0.499158 0.499158 0.499158
0.511967 0.511967 0.511967
0.522288 0.522288 0.522288
0.528660 0.528660 0.528660
0.530999 0.530999 0.530999
0.093230 0.093230 0.093230
0.491551 0.491551 0.491551
0.538753 0.538753 0.538753
0.549985 0.549985 0.549985
0.560341 0.560341 0.560341
0.586925 0.586925 0.586925
0.616308 0.616308 0.616308
0.638826 0.638826 0.638826
0.653154 0.653154 0.653154
0.093230 0.093230 0.093230
0.587080 0.587080 0.587080
0.648122 0.648122 0.648122
0.664474 0.664474 0.664474
0.662027 0.662027 0.662027
0.654911 0.654911 0.654911
0.697460 0.697460 0.697460
0.728299 0.728299 0.728299
0.749685 0.749685 0.749685
0.093230 0.093230 0.093230
0.676994 0.676994 0.676994
0.745442 0.745442 0.745442
0.772352 0.772352 0.772352
0.780546 0.780546 0.780546
0.783177 0.783177 0.783177
0.789011 0.789011 0.789011
0.804973 0.804973 0.804973
0.821181 0.821181 0.821181
0.093230 0.093230 0.093230
0.742592 0.742592 0.742592
0.808763 0.808763 0.808763
0.835684 0.835684 0.835684
0.849544 0.849544 0.849544
0.857737 0.857737 0.857737
0.864896 0.864896 0.864896
0.873597 0.873597 0.873597
0.883406 0.883406 0.883406
0.093230 0.093230 0.093230
0.788067 0.788067 0.788067
0.849633 0.849633 0.849633
0.881824 0.881824 0.881824
0.896481 0.896481 0.896481
0.906343 0.906343 0.906343
0.914168 0.914168 0.914168
0.921507 0.921507 0.921507
0.928884 0.928884 0.928884
0.093230 0.093230 0.093230
0.093230 0.093230 0.093230
0.093230 0.093230 0.093230
0.093230 0.093230 0.093230
0.093230 0.093230 0.093230
0.093230 0.093230 0.093230
0.093230 0.093230 0.093230
0.093230 0.093230 0.093230
0.093230 0.093230 0.093230
0.093230 0.093230 0.093230
0.158233 0.158233 0.158233
0.192437 0.192437 0.192437
0.215706 0.215706 0.215706
0.233420 0.233420 0.233420
0.223604 0.223604 0.223604
0.206174 0.206174 0.206174
0.192774 0.192774 0.192774
0.182415 0.182415 0.182415
0.093230 0.093230 0.093230
0.357089 0.357089 0.357089
0.415011 0.415011 0.415011
0.450659 0.450659 0.450659
0.437122 0.437122 0.437122
0.421380 0.421380 0.421380
0.406691 0.406691 0.406691
0.394532 0.394532 0.394532
0.384203 0.384203 0.384203
0.093230 0.093230 0.093230
0.463769 0.463769 0.463769
0.516648 0.516648 0.516648
0.535188 0.535188 0.535188
0.541142 0.541142 0.541142
0.542754 0.542754 0.542754
0.542726 0.542726 0.542726
0.541401 0.541401 0.541401
0.538527 0.538527 0.538527
0.093230 0.093230 0.093230
0.509213 0.509213 0.509213
0.567015 0.567015 0.567015
0.591615 0.591615 0.591615
0.607010 0.607010 0.607010
0.622834 0.622834 0.622834
0.638966 0.638966 0.638966
0.652245 0.652245 0.652245
0.660847 0.660847 0.660847
0.093230 0.093230 0.093230
0.581430 0.581430 0.581430
0.647292 0.647292 0.647292
0.671762 0.671762 0.671762
0.679983 0.679983 0.679983
0.691145 0.691145 0.691145
0.713647 0.713647 0.713647
0.737017 0.737017 0.737017
0.754662 0.754662 0.754662
0.093230 0.093230 0.093230
0.666405 0.666405 0.666405
0.736205 0.736205 0.736205
0.766195 0.766195 0.766195
0.777533 0.777533 0.777533
0.780779 0.780779 0.780779
0.782937 0.782937 0.782937
0.805667 0.805667 0.805667
0.822457 0.822457 0.822457
0.093230 0.093230 0.093230
0.733716 0.733716 0.733716
0.802900 0.802900 0.802900
0.830835 0.830835 0.830835
0.845801 0.845801 0.845801
0.854749 0.854749 0.854749
0.862180 0.862180 0.862180
0.871587 0.871587 0.871587
0.883692 0.883692 0.883692
0.093230 0.093230 0.093230
0.784293 0.784293 0.784293
0.846051 0.846051 0.846051
0.879665 0.879665 0.879665
0.894936 0.894936 0.894936
0.905416 0.905416 0.905416
0.913834 0.913834 0.913834
0.921835 0.921835 0.921835
0.930035 0.930035 0.930035
0.093230 0.093230 0.093230
0.093230 0.093230 0.093230
0.093230 0.093230 0.093230
0.093230 0.093230 0.093230
0.093230 0.093230 0.093230
0.093230 0.093230 0.093230
0.093230 0.093230 0.093230
0.093230 0.093230 0.093230
0.093230 0.093230 0.093230
0.093230 0.093230 0.093230
0.159039 0.159039 0.159039
0.193538 0.193538 0.193538
0.216867 0.216867 0.216867
0.234676 0.234676 0.234676
0.235064 0.235064 0.235064
0.215196 0.215196 0.215196
0.199586 0.199586 0.199586
0.186849 0.186849 0.186849
0.093230 0.093230 0.093230
0.358607 0.358607 0.358607
0.416775 0.416775 0.416775
0.452983 0.452983 0.452983
0.460038 0.460038 0.460038
0.440750 0.440750 0.440750
0.422320 0.422320 0.422320
0.405467 0.405467 0.405467
0.391284 0.391284 0.391284
0.093230 0.093230 0.093230
0.497421 0.497421 0.497421
0.553778 0.553778 0.553778
0.573069 0.573069 0.573069
0.575502 0.575502 0.575502
0.570664 0.570664 0.570664
0.563351 0.563351 0.563351
0.555463 0.555463 0.555463
0.547425 0.547425 0.547425
0.093230 0.093230 0.093230
0.536092 0.536092 0.536092
0.601160 0.601160 0.601160
0.631546 0.631546 0.631546
0.647201 0.647201 0.647201
0.656915 0.656915 0.656915
0.663982 0.663982 0.663982
0.668739 0.668739 0.668739
0.670640 0.670640 0.670640
0.093230 0.093230 0.093230
0.588583 0.588583 0.588583
0.660717 0.660717 0.660717
0.691422 0.691422 0.691422
0.707926 0.707926 0.707926
0.721643 0.721643 0.721643
0.736578 0.736578 0.736578
0.751232 0.751232 0.751232
0.762748 0.762748 0.762748
0.093230 0.093230 0.093230
0.660460 0.660460 0.660460
0.733023 0.733023 0.733023
0.766949 0.766949 0.766949
0.781929 0.781929 0.781929
0.789330 0.789330 0.789330
0.798783 0.798783 0.798783
0.812976 0.812976 0.812976
0.826353 0.826353 0.826353
0.093230 0.093230 0.093230
0.726322 0.726322 0.726322
0.798199 0.798199 0.798199
0.827353 0.827353 0.827353
0.843754 0.843754 0.843754
0.853861 0.853861 0.853861
0.861630 0.861630 0.861630
0.869617 0.869617 0.869617
0.884632 0.884632 0.884632
0.093230 0.093230 0.093230
0.780493 0.780493 0.780493
0.842465 0.842465 0.842465
0.876841 0.876841 0.876841
0.893475 0.893475 0.893475
0.904610 0.904610 0.904610
0.913599 0.913599 0.913599
0.922149 0.922149 0.922149
0.931118 0.931118 0.931118
0.093230 0.093230 0.093230
0.093230 0.093230 0.093230
0.093230 0.093230 0.093230
0.093230 0.093230 0.093230
0.093230 0.093230 0.093230
0.093230 0.093230 0.093230
0.093230 0.093230 0.093230
0.093230 0.093230 0.093230
0.093230 0.093230 0.093230
0.093230 0.093230 0.093230
0.159741 0.159741 0.159741
0.194498 0.194498 0.194498
0.217877 0.217877 0.217877
0.235770 0.235770 0.235770
0.243117 0.243117 0.243117
0.222352 0.222352 0.222352
0.205267 0.205267 0.205267
0.190916 0.190916 0.190916
0.093230 0.093230 0.093230
0.359927 0.359927 0.359927
0.418309 0.418309 0.418309
0.454542 0.454542 0.454542
0.475699 0.475699 0.475699
0.455335 0.455335 0.455335
0.434516 0.434516 0.434516
0.415202 0.415202 0.415202
0.397948 0.397948 0.397948
0.093230 0.093230 0.093230
0.521501 0.521501 0.521501
0.580489 0.580489 0.580489
0.600874 0.600874 0.600874
0.601862 0.601862 0.601862
0.593434 0.593434 0.593434
0.581372 0.581372 0.581372
0.568583 0.568583 0.568583
0.556185 0.556185 0.556185
0.093230 0.093230 0.093230
0.562177 0.562177 0.562177
0.632072 0.632072 0.632072
0.665117 0.665117 0.665117
0.678580 0.678580 0.678580
0.683527 0.683527 0.683527
0.684360 0.684360 0.684360
0.682923 0.682923 0.682923
0.679871 0.679871 0.679871
0.093230 0.093230 0.093230
0.604283 0.604283 0.604283
0.680004 0.680004 0.680004
0.714646 0.714646 0.714646
0.734469 0.734469 0.734469
0.747626 0.747626 0.747626
0.757930 0.757930 0.757930
0.765977 0.765977 0.765977
0.771672 0.771672 0.771672
0.093230 0.093230 0.093230
0.662138 0.662138 0.662138
0.737170 0.737170 0.737170
0.775045 0.775045 0.775045
0.791542 0.791542 0.791542
0.802345 0.802345 0.802345
0.812330 0.812330 0.812330
0.822586 0.822586 0.822586
0.831867 0.831867 0.831867
0.093230 0.093230 0.093230
0.721782 0.721782 0.721782
0.795693 0.795693 0.795693
0.826301 0.826301 0.826301
0.844568 0.844568 0.844568
0.856685 0.856685 0.856685
0.866650 0.866650 0.866650
0.877650 0.877650 0.877650
0.887191 0.887191 0.887191
0.093230 0.093230 0.093230
0.776645 0.776645 0.776645
0.839400 0.839400 0.839400
0.874495 0.874495 0.874495
0.892460 0.892460 0.892460
0.904297 0.904297 0.904297
0.913868 0.913868 0.913868
0.922834 0.922834 0.922834
0.932292 0.932292 0.932292
