trix_modern/TriX_Green58_Soft.cube
TITLE "Tri-X Green58 Soft"
# Adobe RGB in/out. REPLACES AgX. Tri-X Green58 Soft.
LUT_3D_SIZE 9
DOMAIN_MIN 0.0 0.0 0.0
DOMAIN_MAX 1.0 1.0 1.0
0.093873 0.093873 0.093873
0.093914 0.093914 0.093914
0.099393 0.099393 0.099393
0.150631 0.150631 0.150631
0.212485 0.212485 0.212485
0.253537 0.253537 0.253537
0.265341 0.265341 0.265341
0.178970 0.178970 0.178970
0.321059 0.321059 0.321059
0.131220 0.131220 0.131220
0.099912 0.099912 0.099912
0.123046 0.123046 0.123046
0.183322 0.183322 0.183322
0.239439 0.239439 0.239439
0.275177 0.275177 0.275177
0.283376 0.283376 0.283376
0.176078 0.176078 0.176078
0.318091 0.318091 0.318091
0.391309 0.391309 0.391309
0.337430 0.337430 0.337430
0.258610 0.258610 0.258610
0.275039 0.275039 0.275039
0.313110 0.313110 0.313110
0.348884 0.348884 0.348884
0.361428 0.361428 0.361428
0.179678 0.179678 0.179678
0.308535 0.308535 0.308535
0.579942 0.579942 0.579942
0.543374 0.543374 0.543374
0.465724 0.465724 0.465724
0.409691 0.409691 0.409691
0.408953 0.408953 0.408953
0.432173 0.432173 0.432173
0.451728 0.451728 0.451728
0.444867 0.444867 0.444867
0.294955 0.294955 0.294955
0.729415 0.729415 0.729415
0.706218 0.706218 0.706218
0.645928 0.645928 0.645928
0.580362 0.580362 0.580362
0.536832 0.536832 0.536832
0.528781 0.528781 0.528781
0.543621 0.543621 0.543621
0.549369 0.549369 0.549369
0.507658 0.507658 0.507658
0.838750 0.838750 0.838750
0.825424 0.825424 0.825424
0.788610 0.788610 0.788610
0.735603 0.735603 0.735603
0.686949 0.686949 0.686949
0.654631 0.654631 0.654631
0.643894 0.643894 0.643894
0.651223 0.651223 0.651223
0.634212 0.634212 0.634212
0.907528 0.907528 0.907528
0.902144 0.902144 0.902144
0.885266 0.885266 0.885266
0.848865 0.848865 0.848865
0.811057 0.811057 0.811057
0.781021 0.781021 0.781021
0.759828 0.759828 0.759828
0.750026 0.750026 0.750026
0.745784 0.745784 0.745784
0.945472 0.945472 0.945472
0.942997 0.942997 0.942997
0.932141 0.932141 0.932141
0.915392 0.915392 0.915392
0.895577 0.895577 0.895577
0.875350 0.875350 0.875350
0.855922 0.855922 0.855922
0.845777 0.845777 0.845777
0.839237 0.839237 0.839237
0.937097 0.937097 0.937097
0.936111 0.936111 0.936111
0.943456 0.943456 0.943456
0.938685 0.938685 0.938685
0.934103 0.934103 0.934103
0.922202 0.922202 0.922202
0.912728 0.912728 0.912728
0.907118 0.907118 0.907118
0.906346 0.906346 0.906346
0.093881 0.093881 0.093881
0.094173 0.094173 0.094173
0.111528 0.111528 0.111528
0.166854 0.166854 0.166854
0.220401 0.220401 0.220401
0.256644 0.256644 0.256644
0.267575 0.267575 0.267575
0.177430 0.177430 0.177430
0.319521 0.319521 0.319521
0.115079 0.115079 0.115079
0.099556 0.099556 0.099556
0.136483 0.136483 0.136483
0.198909 0.198909 0.198909
0.246494 0.246494 0.246494
0.277456 0.277456 0.277456
0.284987 0.284987 0.284987
0.174583 0.174583 0.174583
0.316569 0.316569 0.316569
0.361789 0.361789 0.361789
0.311508 0.311508 0.311508
0.243798 0.243798 0.243798
0.275533 0.275533 0.275533
0.316466 0.316466 0.316466
0.349683 0.349683 0.349683
0.361511 0.361511 0.361511
0.181881 0.181881 0.181881
0.307094 0.307094 0.307094
0.555050 0.555050 0.555050
0.522642 0.522642 0.522642
0.451439 0.451439 0.451439
0.401066 0.401066 0.401066
0.406792 0.406792 0.406792
0.431531 0.431531 0.431531
0.450762 0.450762 0.450762
0.444197 0.444197 0.444197
0.293669 0.293669 0.293669
0.712117 0.712117 0.712117
0.690225 0.690225 0.690225
0.633439 0.633439 0.633439
0.571830 0.571830 0.571830
0.532081 0.532081 0.532081
0.526553 0.526553 0.526553
0.542268 0.542268 0.542268
0.547970 0.547970 0.547970
0.507707 0.507707 0.507707
0.828412 0.828412 0.828412
0.815847 0.815847 0.815847
0.780634 0.780634 0.780634
0.728731 0.728731 0.728731
0.681938 0.681938 0.681938
0.651655 0.651655 0.651655
0.642356 0.642356 0.642356
0.649956 0.649956 0.649956
0.633379 0.633379 0.633379
0.903428 0.903428 0.903428
0.898187 0.898187 0.898187
0.881001 0.881001 0.881001
0.844454 0.844454 0.844454
0.807735 0.807735 0.807735
0.778678 0.778678 0.778678
0.758172 0.758172 0.758172
0.749119 0.749119 0.749119
0.744864 0.744864 0.744864
0.943672 0.943672 0.943672
0.941229 0.941229 0.941229
0.930091 0.930091 0.930091
0.913478 0.913478 0.913478
0.894073 0.894073 0.894073
0.873594 0.873594 0.873594
0.854738 0.854738 0.854738
0.844980 0.844980 0.844980
0.838480 0.838480 0.838480
0.938998 0.938998 0.938998
0.938017 0.938017 0.938017
0.945224 0.945224 0.945224
0.939969 0.939969 0.939969
0.933371 0.933371 0.933371
0.921562 0.921562 0.921562
0.912186 0.912186 0.912186
0.906729 0.906729 0.906729
0.906039 0.906039 0.906039
0.096460 0.096460 0.096460
0.110743 0.110743 0.110743
0.149565 0.149565 0.149565
0.207261 0.207261 0.207261
0.247163 0.247163 0.247163
0.276511 0.276511 0.276511
0.281399 0.281399 0.281399
0.181982 0.181982 0.181982
0.316340 0.316340 0.316340
0.176577 0.176577 0.176577
0.185871 0.185871 0.185871
0.189604 0.189604 0.189604
0.230835 0.230835 0.230835
0.270277 0.270277 0.270277
0.294050 0.294050 0.294050
0.297781 0.297781 0.297781
0.181773 0.181773 0.181773
0.313389 0.313389 0.313389
0.313261 0.313261 0.313261
0.281649 0.281649 0.281649
0.233250 0.233250 0.233250
0.279628 0.279628 0.279628
0.327648 0.327648 0.327648
0.360895 0.360895 0.360895
0.369816 0.369816 0.369816
0.249178 0.249178 0.249178
0.303939 0.303939 0.303939
0.509069 0.509069 0.509069
0.484098 0.484098 0.484098
0.424347 0.424347 0.424347
0.380170 0.380170 0.380170
0.403472 0.403472 0.403472
0.436232 0.436232 0.436232
0.454836 0.454836 0.454836
0.446611 0.446611 0.446611
0.290715 0.290715 0.290715
0.676281 0.676281 0.676281
0.658226 0.658226 0.658226
0.608123 0.608123 0.608123
0.553571 0.553571 0.553571
0.520276 0.520276 0.520276
0.524611 0.524611 0.524611
0.543406 0.543406 0.543406
0.547669 0.547669 0.547669
0.510095 0.510095 0.510095
0.804729 0.804729 0.804729
0.793950 0.793950 0.793950
0.760214 0.760214 0.760214
0.713454 0.713454 0.713454
0.670923 0.670923 0.670923
0.645144 0.645144 0.645144
0.640896 0.640896 0.640896
0.649043 0.649043 0.649043
0.632003 0.632003 0.632003
0.891373 0.891373 0.891373
0.886708 0.886708 0.886708
0.865741 0.865741 0.865741
0.832658 0.832658 0.832658
0.799199 0.799199 0.799199
0.772199 0.772199 0.772199
0.754382 0.754382 0.754382
0.747834 0.747834 0.747834
0.742579 0.742579 0.742579
0.934754 0.934754 0.934754
0.931974 0.931974 0.931974
0.921947 0.921947 0.921947
0.906677 0.906677 0.906677
0.889078 0.889078 0.889078
0.868037 0.868037 0.868037
0.851143 0.851143 0.851143
0.842583 0.842583 0.842583
0.836156 0.836156 0.836156
0.937357 0.937357 0.937357
0.946910 0.946910 0.946910
0.943667 0.943667 0.943667
0.938536 0.938536 0.938536
0.930318 0.930318 0.930318
0.919103 0.919103 0.919103
0.910114 0.910114 0.910114
0.905209 0.905209 0.905209
0.904852 0.904852 0.904852
0.137748 0.137748 0.137748
0.181730 0.181730 0.181730
0.219729 0.219729 0.219729
0.268445 0.268445 0.268445
0.294436 0.294436 0.294436
0.308431 0.308431 0.308431
0.308821 0.308821 0.308821
0.253715 0.253715 0.253715
0.314233 0.314233 0.314233
0.227048 0.227048 0.227048
0.250199 0.250199 0.250199
0.275901 0.275901 0.275901
0.294632 0.294632 0.294632
0.310498 0.310498 0.310498
0.324191 0.324191 0.324191
0.324180 0.324180 0.324180
0.267159 0.267159 0.267159
0.311221 0.311221 0.311221
0.343143 0.343143 0.343143
0.332666 0.332666 0.332666
0.314073 0.314073 0.314073
0.324566 0.324566 0.324566
0.355199 0.355199 0.355199
0.380159 0.380159 0.380159
0.386488 0.386488 0.386488
0.360162 0.360162 0.360162
0.301576 0.301576 0.301576
0.474909 0.474909 0.474909
0.457803 0.457803 0.457803
0.410832 0.410832 0.410832
0.372918 0.372918 0.372918
0.408098 0.408098 0.408098
0.442801 0.442801 0.442801
0.461917 0.461917 0.461917
0.454993 0.454993 0.454993
0.288181 0.288181 0.288181
0.639602 0.639602 0.639602
0.624884 0.624884 0.624884
0.583200 0.583200 0.583200
0.534251 0.534251 0.534251
0.504844 0.504844 0.504844
0.520502 0.520502 0.520502
0.543437 0.543437 0.543437
0.549163 0.549163 0.549163
0.517422 0.517422 0.517422
0.778181 0.778181 0.778181
0.767835 0.767835 0.767835
0.737051 0.737051 0.737051
0.694543 0.694543 0.694543
0.656347 0.656347 0.656347
0.634552 0.634552 0.634552
0.637392 0.637392 0.637392
0.646826 0.646826 0.646826
0.633044 0.633044 0.633044
0.874581 0.874581 0.874581
0.868184 0.868184 0.868184
0.847965 0.847965 0.847965
0.818533 0.818533 0.818533
0.788405 0.788405 0.788405
0.763183 0.763183 0.763183
0.748526 0.748526 0.748526
0.745203 0.745203 0.745203
0.740965 0.740965 0.740965
0.924666 0.924666 0.924666
0.922208 0.922208 0.922208
0.913300 0.913300 0.913300
0.899029 0.899029 0.899029
0.883119 0.883119 0.883119
0.861180 0.861180 0.861180
0.846322 0.846322 0.846322
0.839392 0.839392 0.839392
0.833806 0.833806 0.833806
0.940036 0.940036 0.940036
0.945188 0.945188 0.945188
0.942086 0.942086 0.942086
0.939032 0.939032 0.939032
0.925339 0.925339 0.925339
0.915354 0.915354 0.915354
0.907215 0.907215 0.907215
0.903079 0.903079 0.903079
0.903543 0.903543 0.903543
0.215720 0.215720 0.215720
0.245795 0.245795 0.245795
0.290509 0.290509 0.290509
0.325854 0.325854 0.325854
0.358316 0.358316 0.358316
0.357723 0.357723 0.357723
0.349818 0.349818 0.349818
0.303954 0.303954 0.303954
0.314240 0.314240 0.314240
0.277086 0.277086 0.277086
0.297783 0.297783 0.297783
0.331610 0.331610 0.331610
0.361829 0.361829 0.361829
0.370929 0.370929 0.370929
0.370505 0.370505 0.370505
0.362844 0.362844 0.362844
0.317156 0.317156 0.317156
0.311136 0.311136 0.311136
0.424284 0.424284 0.424284
0.421742 0.421742 0.421742
0.411823 0.411823 0.411823
0.403187 0.403187 0.403187
0.406476 0.406476 0.406476
0.416728 0.416728 0.416728
0.415808 0.415808 0.415808
0.391671 0.391671 0.391671
0.301181 0.301181 0.301181
0.485848 0.485848 0.485848
0.476467 0.476467 0.476467
0.451921 0.451921 0.451921
0.434618 0.434618 0.434618
0.444240 0.444240 0.444240
0.466641 0.466641 0.466641
0.480136 0.480136 0.480136
0.472011 0.472011 0.472011
0.370258 0.370258 0.370258
0.614672 0.614672 0.614672
0.603849 0.603849 0.603849
0.571176 0.571176 0.571176
0.528293 0.528293 0.528293
0.499564 0.499564 0.499564
0.525912 0.525912 0.525912
0.550735 0.550735 0.550735
0.557288 0.557288 0.557288
0.530052 0.530052 0.530052
0.752894 0.752894 0.752894
0.744394 0.744394 0.744394
0.718483 0.718483 0.718483
0.680145 0.680145 0.680145
0.644555 0.644555 0.644555
0.624566 0.624566 0.624566
0.635669 0.635669 0.635669
0.647831 0.647831 0.647831
0.638137 0.638137 0.638137
0.855474 0.855474 0.855474
0.849973 0.849973 0.849973
0.832316 0.832316 0.832316
0.806179 0.806179 0.806179
0.778905 0.778905 0.778905
0.754830 0.754830 0.754830
0.742865 0.742865 0.742865
0.743368 0.743368 0.743368
0.741760 0.741760 0.741760
0.916135 0.916135 0.916135
0.913662 0.913662 0.913662
0.905053 0.905053 0.905053
0.892160 0.892160 0.892160
0.874639 0.874639 0.874639
0.854867 0.854867 0.854867
0.841886 0.841886 0.841886
0.836761 0.836761 0.836761
0.833254 0.833254 0.833254
0.938547 0.938547 0.938547
0.938571 0.938571 0.938571
0.937765 0.937765 0.937765
0.931519 0.931519 0.931519
0.921577 0.921577 0.921577
0.912231 0.912231 0.912231
0.904941 0.904941 0.904941
0.901646 0.901646 0.901646
0.903615 0.903615 0.903615
0.289354 0.289354 0.289354
0.303598 0.303598 0.303598
0.356072 0.356072 0.356072
0.384532 0.384532 0.384532
0.417857 0.417857 0.417857
0.415327 0.415327 0.415327
0.398412 0.398412 0.398412
0.354361 0.354361 0.354361
0.316285 0.316285 0.316285
0.329036 0.329036 0.329036
0.342507 0.342507 0.342507
0.387521 0.387521 0.387521
0.413350 0.413350 0.413350
0.439392 0.439392 0.439392
0.425403 0.425403 0.425403
0.410051 0.410051 0.410051
0.366416 0.366416 0.366416
0.313105 0.313105 0.313105
0.474303 0.474303 0.474303
0.479392 0.479392 0.479392
0.498224 0.498224 0.498224
0.481063 0.481063 0.481063
0.469584 0.469584 0.469584
0.462456 0.462456 0.462456
0.452967 0.452967 0.452967
0.427193 0.427193 0.427193
0.302833 0.302833 0.302833
0.534717 0.534717 0.534717
0.530047 0.530047 0.530047
0.519443 0.519443 0.519443
0.506289 0.506289 0.506289
0.502863 0.502863 0.502863
0.506406 0.506406 0.506406
0.509787 0.509787 0.509787
0.497131 0.497131 0.497131
0.409711 0.409711 0.409711
0.618293 0.618293 0.618293
0.610878 0.610878 0.610878
0.589667 0.589667 0.589667
0.562139 0.562139 0.562139
0.547834 0.547834 0.547834
0.555915 0.555915 0.555915
0.571204 0.571204 0.571204
0.573780 0.573780 0.573780
0.547627 0.547627 0.547627
0.737660 0.737660 0.737660
0.730950 0.730950 0.730950
0.709549 0.709549 0.709549
0.676781 0.676781 0.676781
0.643703 0.643703 0.643703
0.620952 0.620952 0.620952
0.642010 0.642010 0.642010
0.655366 0.655366 0.655366
0.647746 0.647746 0.647746
0.841313 0.841313 0.841313
0.836560 0.836560 0.836560
0.821249 0.821249 0.821249
0.798154 0.798154 0.798154
0.772495 0.772495 0.772495
0.749511 0.749511 0.749511
0.738846 0.738846 0.738846
0.744304 0.744304 0.744304
0.745417 0.745417 0.745417
0.908995 0.908995 0.908995
0.906769 0.906769 0.906769
0.898973 0.898973 0.898973
0.887226 0.887226 0.887226
0.868893 0.868893 0.868893
0.850831 0.850831 0.850831
0.839236 0.839236 0.839236
0.835606 0.835606 0.835606
0.834671 0.834671 0.834671
0.935645 0.935645 0.935645
0.935633 0.935633 0.935633
0.934495 0.934495 0.934495
0.928414 0.928414 0.928414
0.919102 0.919102 0.919102
0.910339 0.910339 0.910339
0.903912 0.903912 0.903912
0.901350 0.901350 0.901350
0.904568 0.904568 0.904568
0.357531 0.357531 0.357531
0.364941 0.364941 0.364941
0.414076 0.414076 0.414076
0.437456 0.437456 0.437456
0.465803 0.465803 0.465803
0.473003 0.473003 0.473003
0.445631 0.445631 0.445631
0.400536 0.400536 0.400536
0.319682 0.319682 0.319682
0.387628 0.387628 0.387628
0.395004 0.395004 0.395004
0.438301 0.438301 0.438301
0.460357 0.460357 0.460357
0.487461 0.487461 0.487461
0.480651 0.480651 0.480651
0.455327 0.455327 0.455327
0.411776 0.411776 0.411776
0.316461 0.316461 0.316461
0.510446 0.510446 0.510446
0.513944 0.513944 0.513944
0.534695 0.534695 0.534695
0.549337 0.549337 0.549337
0.529665 0.529665 0.529665
0.512784 0.512784 0.512784
0.493602 0.493602 0.493602
0.462408 0.462408 0.462408
0.305900 0.305900 0.305900
0.598841 0.598841 0.598841
0.595009 0.595009 0.595009
0.587364 0.587364 0.587364
0.572818 0.572818 0.572818
0.561736 0.561736 0.561736
0.554355 0.554355 0.554355
0.545195 0.545195 0.545195
0.525882 0.525882 0.525882
0.461760 0.461760 0.461760
0.649076 0.649076 0.649076
0.644494 0.644494 0.644494
0.631981 0.631981 0.631981
0.614717 0.614717 0.614717
0.603318 0.603318 0.603318
0.601304 0.601304 0.601304
0.602021 0.602021 0.602021
0.596686 0.596686 0.596686
0.567608 0.567608 0.567608
0.739093 0.739093 0.739093
0.734005 0.734005 0.734005
0.718299 0.718299 0.718299
0.693867 0.693867 0.693867
0.670530 0.670530 0.670530
0.660067 0.660067 0.660067
0.665308 0.665308 0.665308
0.671209 0.671209 0.671209
0.660488 0.660488 0.660488
0.834357 0.834357 0.834357
0.830347 0.830347 0.830347
0.817228 0.817228 0.817228
0.797107 0.797107 0.797107
0.774418 0.774418 0.774418
0.752373 0.752373 0.752373
0.737280 0.737280 0.737280
0.750589 0.750589 0.750589
0.752103 0.752103 0.752103
0.905089 0.905089 0.905089
0.903071 0.903071 0.903071
0.895873 0.895873 0.895873
0.885130 0.885130 0.885130
0.867285 0.867285 0.867285
0.850413 0.850413 0.850413
0.839423 0.839423 0.839423
0.836495 0.836495 0.836495
0.837815 0.837815 0.837815
0.930858 0.930858 0.930858
0.931919 0.931919 0.931919
0.931337 0.931337 0.931337
0.927455 0.927455 0.927455
0.918130 0.918130 0.918130
0.909966 0.909966 0.909966
0.904225 0.904225 0.904225
0.902355 0.902355 0.902355
0.906444 0.906444 0.906444
0.419627 0.419627 0.419627
0.422623 0.422623 0.422623
0.452481 0.452481 0.452481
0.476082 0.476082 0.476082
0.502083 0.502083 0.502083
0.518560 0.518560 0.518560
0.483802 0.483802 0.483802
0.429380 0.429380 0.429380
0.334406 0.334406 0.334406
0.442508 0.442508 0.442508
0.445531 0.445531 0.445531
0.474063 0.474063 0.474063
0.496512 0.496512 0.496512
0.521391 0.521391 0.521391
0.524892 0.524892 0.524892
0.492224 0.492224 0.492224
0.439721 0.439721 0.439721
0.334536 0.334536 0.334536
0.551914 0.551914 0.551914
0.553455 0.553455 0.553455
0.568830 0.568830 0.568830
0.583795 0.583795 0.583795
0.581994 0.581994 0.581994
0.558074 0.558074 0.558074
0.530851 0.530851 0.530851
0.488396 0.488396 0.488396
0.357357 0.357357 0.357357
0.659413 0.659413 0.659413
0.655035 0.655035 0.655035
0.646089 0.646089 0.646089
0.629155 0.629155 0.629155
0.612869 0.612869 0.612869
0.597717 0.597717 0.597717
0.579692 0.579692 0.579692
0.549997 0.549997 0.549997
0.482845 0.482845 0.482845
0.693007 0.693007 0.693007
0.689301 0.689301 0.689301
0.679965 0.679965 0.679965
0.665612 0.665612 0.665612
0.653341 0.653341 0.653341
0.644899 0.644899 0.644899
0.636123 0.636123 0.636123
0.619304 0.619304 0.619304
0.582019 0.582019 0.582019
0.757046 0.757046 0.757046
0.753238 0.753238 0.753238
0.741939 0.741939 0.741939
0.724925 0.724925 0.724925
0.709082 0.709082 0.709082
0.700275 0.700275 0.700275
0.697047 0.697047 0.697047
0.691280 0.691280 0.691280
0.671851 0.671851 0.671851
0.836202 0.836202 0.836202
0.832901 0.832901 0.832901
0.822005 0.822005 0.822005
0.805288 0.805288 0.805288
0.787012 0.787012 0.787012
0.771660 0.771660 0.771660
0.764945 0.764945 0.764945
0.765951 0.765951 0.765951
0.759940 0.759940 0.759940
0.905955 0.905955 0.905955
0.904036 0.904036 0.904036
0.896861 0.896861 0.896861
0.886670 0.886670 0.886670
0.870996 0.870996 0.870996
0.855409 0.855409 0.855409
0.844677 0.844677 0.844677
0.837347 0.837347 0.837347
0.842131 0.842131 0.842131
0.925314 0.925314 0.925314
0.930011 0.930011 0.930011
0.928067 0.928067 0.928067
0.926594 0.926594 0.926594
0.919162 0.919162 0.919162
0.911584 0.911584 0.911584
0.906309 0.906309 0.906309
0.904807 0.904807 0.904807
0.909060 0.909060 0.909060
0.412814 0.412814 0.412814
0.416757 0.416757 0.416757
0.432119 0.432119 0.432119
0.457338 0.457338 0.457338
0.485367 0.485367 0.485367
0.507334 0.507334 0.507334
0.465900 0.465900 0.465900
0.376361 0.376361 0.376361
0.341328 0.341328 0.341328
0.432549 0.432549 0.432549
0.436462 0.436462 0.436462
0.451659 0.451659 0.451659
0.476578 0.476578 0.476578
0.504183 0.504183 0.504183
0.515772 0.515772 0.515772
0.474931 0.474931 0.474931
0.385274 0.385274 0.385274
0.343487 0.343487 0.343487
0.527341 0.527341 0.527341
0.530541 0.530541 0.530541
0.542839 0.542839 0.542839
0.563351 0.563351 0.563351
0.580086 0.580086 0.580086
0.555547 0.555547 0.555547
0.518984 0.518984 0.518984
0.438533 0.438533 0.438533
0.333024 0.333024 0.333024
0.681230 0.681230 0.681230
0.678110 0.678110 0.678110
0.668558 0.668558 0.668558
0.655171 0.655171 0.655171
0.638667 0.638667 0.638667
0.617911 0.617911 0.617911
0.588764 0.588764 0.588764
0.533758 0.533758 0.533758
0.449946 0.449946 0.449946
0.725664 0.725664 0.725664
0.723023 0.723023 0.723023
0.714739 0.714739 0.714739
0.703369 0.703369 0.703369
0.691302 0.691302 0.691302
0.677402 0.677402 0.677402
0.658145 0.658145 0.658145
0.620716 0.620716 0.620716
0.533594 0.533594 0.533594
0.780336 0.780336 0.780336
0.777634 0.777634 0.777634
0.768435 0.768435 0.768435
0.756735 0.756735 0.756735
0.745943 0.745943 0.745943
0.736381 0.736381 0.736381
0.725278 0.725278 0.725278
0.702994 0.702994 0.702994
0.645260 0.645260 0.645260
0.845172 0.845172 0.845172
0.842456 0.842456 0.842456
0.833411 0.833411 0.833411
0.820599 0.820599 0.820599
0.808449 0.808449 0.808449
0.799274 0.799274 0.799274
0.792620 0.792620 0.792620
0.782378 0.782378 0.782378
0.746813 0.746813 0.746813
0.905958 0.905958 0.905958
0.904416 0.904416 0.904416
0.898777 0.898777 0.898777
0.889833 0.889833 0.889833
0.879132 0.879132 0.879132
0.867585 0.867585 0.867585
0.860600 0.860600 0.860600
0.855949 0.855949 0.855949
0.837285 0.837285 0.837285
0.919598 0.919598 0.919598
0.927064 0.927064 0.927064
0.924678 0.924678 0.924678
0.921619 0.921619 0.921619
0.922456 0.922456 0.922456
0.915340 0.915340 0.915340
0.910566 0.910566 0.910566
0.909555 0.909555 0.909555
0.912373 0.912373 0.912373
