trix_modern/TriX_Yellow8_Hard.cube
TITLE "Tri-X Yellow8 Hard"
# Adobe RGB in/out. REPLACES AgX. R=0.5015 G=0.4679 B=0.0307
LUT_3D_SIZE 9
DOMAIN_MIN 0.0 0.0 0.0
DOMAIN_MAX 1.0 1.0 1.0
0.093288 0.093288 0.093288
0.093288 0.093288 0.093288
0.093288 0.093288 0.093288
0.093288 0.093288 0.093288
0.093288 0.093288 0.093288
0.093288 0.093288 0.093288
0.093288 0.093288 0.093288
0.093288 0.093288 0.093288
0.093288 0.093288 0.093288
0.093288 0.093288 0.093288
0.093288 0.093288 0.093288
0.093288 0.093288 0.093288
0.093288 0.093288 0.093288
0.093288 0.093288 0.093288
0.093288 0.093288 0.093288
0.093288 0.093288 0.093288
0.093288 0.093288 0.093288
0.093288 0.093288 0.093288
0.093288 0.093288 0.093288
0.093288 0.093288 0.093288
0.093288 0.093288 0.093288
0.093288 0.093288 0.093288
0.093288 0.093288 0.093288
0.093288 0.093288 0.093288
0.093288 0.093288 0.093288
0.093288 0.093288 0.093288
0.093288 0.093288 0.093288
0.093288 0.093288 0.093288
0.093288 0.093288 0.093288
0.093288 0.093288 0.093288
0.093288 0.093288 0.093288
0.093288 0.093288 0.093288
0.093288 0.093288 0.093288
0.093288 0.093288 0.093288
0.093288 0.093288 0.093288
0.093288 0.093288 0.093288
0.093288 0.093288 0.093288
0.093288 0.093288 0.093288
0.093288 0.093288 0.093288
0.093288 0.093288 0.093288
0.093288 0.093288 0.093288
0.093288 0.093288 0.093288
0.093288 0.093288 0.093288
0.093288 0.093288 0.093288
0.093288 0.093288 0.093288
0.093288 0.093288 0.093288
0.093288 0.093288 0.093288
0.093288 0.093288 0.093288
0.093288 0.093288 0.093288
0.093288 0.093288 0.093288
0.093288 0.093288 0.093288
0.093288 0.093288 0.093288
0.093288 0.093288 0.093288
0.093288 0.093288 0.093288
0.093288 0.093288 0.093288
0.093288 0.093288 0.093288
0.093288 0.093288 0.093288
0.093288 0.093288 0.093288
0.093288 0.093288 0.093288
0.093288 0.093288 0.093288
0.093288 0.093288 0.093288
0.093288 0.093288 0.093288
0.093288 0.093288 0.093288
0.093288 0.093288 0.093288
0.093288 0.093288 0.093288
0.093288 0.093288 0.093288
0.093288 0.093288 0.093288
0.093288 0.093288 0.093288
0.093288 0.093288 0.093288
0.093288 0.093288 0.093288
0.093288 0.093288 0.093288
0.093288 0.093288 0.093288
0.093288 0.093288 0.093288
0.093288 0.093288 0.093288
0.093288 0.093288 0.093288
0.093288 0.093288 0.093288
0.093288 0.093288 0.093288
0.093288 0.093288 0.093288
0.093288 0.093288 0.093288
0.093288 0.093288 0.093288
0.093288 0.093288 0.093288
0.093288 0.093288 0.093288
0.093288 0.093288 0.093288
0.093288 0.093288 0.093288
0.093288 0.093288 0.093288
0.093288 0.093288 0.093288
0.093288 0.093288 0.093288
0.093288 0.093288 0.093288
0.093288 0.093288 0.093288
0.093288 0.093288 0.093288
0.093288 0.093288 0.093288
0.093403 0.093403 0.093403
0.097933 0.097933 0.097933
0.131897 0.131897 0.131897
0.199115 0.199115 0.199115
0.267834 0.267834 0.267834
0.329820 0.329820 0.329820
0.381785 0.381785 0.381785
0.424521 0.424521 0.424521
0.093288 0.093288 0.093288
0.098740 0.098740 0.098740
0.111862 0.111862 0.111862
0.209321 0.209321 0.209321
0.402378 0.402378 0.402378
0.589026 0.589026 0.589026
0.732071 0.732071 0.732071
0.809792 0.809792 0.809792
0.849159 0.849159 0.849159
0.093288 0.093288 0.093288
0.128368 0.128368 0.128368
0.244340 0.244340 0.244340
0.346293 0.346293 0.346293
0.534837 0.534837 0.534837
0.762703 0.762703 0.762703
0.872965 0.872965 0.872965
0.928579 0.928579 0.928579
0.956838 0.956838 0.956838
0.093288 0.093288 0.093288
0.170366 0.170366 0.170366
0.415076 0.415076 0.415076
0.591676 0.591676 0.591676
0.733570 0.733570 0.733570
0.845062 0.845062 0.845062
0.929789 0.929789 0.929789
0.969139 0.969139 0.969139
0.982003 0.982003 0.982003
0.093288 0.093288 0.093288
0.204033 0.204033 0.204033
0.536567 0.536567 0.536567
0.770579 0.770579 0.770579
0.867432 0.867432 0.867432
0.924609 0.924609 0.924609
0.961812 0.961812 0.961812
0.982241 0.982241 0.982241
0.988732 0.988732 0.988732
0.093288 0.093288 0.093288
0.224901 0.224901 0.224901
0.615283 0.615283 0.615283
0.843509 0.843509 0.843509
0.928532 0.928532 0.928532
0.966566 0.966566 0.966566
0.981465 0.981465 0.981465
0.987878 0.987878 0.987878
0.992900 0.992900 0.992900
0.093288 0.093288 0.093288
0.234354 0.234354 0.234354
0.652529 0.652529 0.652529
0.878991 0.878991 0.878991
0.955315 0.955315 0.955315
0.979842 0.979842 0.979842
0.988017 0.988017 0.988017
0.992770 0.992770 0.992770
0.994985 0.994985 0.994985
0.093288 0.093288 0.093288
0.234677 0.234677 0.234677
0.663934 0.663934 0.663934
0.892131 0.892131 0.892131
0.966231 0.966231 0.966231
0.984948 0.984948 0.984948
0.991771 0.991771 0.991771
0.994611 0.994611 0.994611
0.996913 0.996913 0.996913
0.093288 0.093288 0.093288
0.093288 0.093288 0.093288
0.093288 0.093288 0.093288
0.093288 0.093288 0.093288
0.093288 0.093288 0.093288
0.093288 0.093288 0.093288
0.093288 0.093288 0.093288
0.093288 0.093288 0.093288
0.093288 0.093288 0.093288
0.093288 0.093288 0.093288
0.095756 0.095756 0.095756
0.104842 0.104842 0.104842
0.145275 0.145275 0.145275
0.207903 0.207903 0.207903
0.274839 0.274839 0.274839
0.338971 0.338971 0.338971
0.394985 0.394985 0.394985
0.440751 0.440751 0.440751
0.093288 0.093288 0.093288
0.096774 0.096774 0.096774
0.100098 0.100098 0.100098
0.198980 0.198980 0.198980
0.397124 0.397124 0.397124
0.591964 0.591964 0.591964
0.742725 0.742725 0.742725
0.818651 0.818651 0.818651
0.861274 0.861274 0.861274
0.093288 0.093288 0.093288
0.116548 0.116548 0.116548
0.211001 0.211001 0.211001
0.294763 0.294763 0.294763
0.505806 0.505806 0.505806
0.756525 0.756525 0.756525
0.875849 0.875849 0.875849
0.933873 0.933873 0.933873
0.961804 0.961804 0.961804
0.093288 0.093288 0.093288
0.160973 0.160973 0.160973
0.391139 0.391139 0.391139
0.561437 0.561437 0.561437
0.705336 0.705336 0.705336
0.841262 0.841262 0.841262
0.931836 0.931836 0.931836
0.971351 0.971351 0.971351
0.983869 0.983869 0.983869
0.093288 0.093288 0.093288
0.202084 0.202084 0.202084
0.533389 0.533389 0.533389
0.768499 0.768499 0.768499
0.866157 0.866157 0.866157
0.925231 0.925231 0.925231
0.964746 0.964746 0.964746
0.983812 0.983812 0.983812
0.990025 0.990025 0.990025
0.093288 0.093288 0.093288
0.229551 0.229551 0.229551
0.627030 0.627030 0.627030
0.850929 0.850929 0.850929
0.933518 0.933518 0.933518
0.970130 0.970130 0.970130
0.983462 0.983462 0.983462
0.989185 0.989185 0.989185
0.993576 0.993576 0.993576
0.093288 0.093288 0.093288
0.243757 0.243757 0.243757
0.673030 0.673030 0.673030
0.889331 0.889331 0.889331
0.960917 0.960917 0.960917
0.982788 0.982788 0.982788
0.989440 0.989440 0.989440
0.993469 0.993469 0.993469
0.995748 0.995748 0.995748
0.093288 0.093288 0.093288
0.247135 0.247135 0.247135
0.691092 0.691092 0.691092
0.905549 0.905549 0.905549
0.971643 0.971643 0.971643
0.986596 0.986596 0.986596
0.992771 0.992771 0.992771
0.995425 0.995425 0.995425
0.997768 0.997768 0.997768
0.093288 0.093288 0.093288
0.093288 0.093288 0.093288
0.093288 0.093288 0.093288
0.093288 0.093288 0.093288
0.093288 0.093288 0.093288
0.093288 0.093288 0.093288
0.093288 0.093288 0.093288
0.093288 0.093288 0.093288
0.093288 0.093288 0.093288
0.093288 0.093288 0.093288
0.096160 0.096160 0.096160
0.127700 0.127700 0.127700
0.194684 0.194684 0.194684
0.243110 0.243110 0.243110
0.297126 0.297126 0.297126
0.352989 0.352989 0.352989
0.405578 0.405578 0.405578
0.448843 0.448843 0.448843
0.093288 0.093288 0.093288
0.099132 0.099132 0.099132
0.147789 0.147789 0.147789
0.266589 0.266589 0.266589
0.446363 0.446363 0.446363
0.619934 0.619934 0.619934
0.754709 0.754709 0.754709
0.824285 0.824285 0.824285
0.866858 0.866858 0.866858
0.093288 0.093288 0.093288
0.107881 0.107881 0.107881
0.188843 0.188843 0.188843
0.237605 0.237605 0.237605
0.497663 0.497663 0.497663
0.756645 0.756645 0.756645
0.877178 0.877178 0.877178
0.935744 0.935744 0.935744
0.963619 0.963619 0.963619
0.093288 0.093288 0.093288
0.146403 0.146403 0.146403
0.352827 0.352827 0.352827
0.512378 0.512378 0.512378
0.651395 0.651395 0.651395
0.828540 0.828540 0.828540
0.928921 0.928921 0.928921
0.971410 0.971410 0.971410
0.984191 0.984191 0.984191
0.093288 0.093288 0.093288
0.189625 0.189625 0.189625
0.507229 0.507229 0.507229
0.748982 0.748982 0.748982
0.850402 0.850402 0.850402
0.916634 0.916634 0.916634
0.962905 0.962905 0.962905
0.983819 0.983819 0.983819
0.990369 0.990369 0.990369
0.093288 0.093288 0.093288
0.223346 0.223346 0.223346
0.614691 0.614691 0.614691
0.845012 0.845012 0.845012
0.930351 0.930351 0.930351
0.968599 0.968599 0.968599
0.983291 0.983291 0.983291
0.989466 0.989466 0.989466
0.993811 0.993811 0.993811
0.093288 0.093288 0.093288
0.243118 0.243118 0.243118
0.672839 0.672839 0.672839
0.889971 0.889971 0.889971
0.961626 0.961626 0.961626
0.983310 0.983310 0.983310
0.989810 0.989810 0.989810
0.993712 0.993712 0.993712
0.996084 0.996084 0.996084
0.093288 0.093288 0.093288
0.250791 0.250791 0.250791
0.699610 0.699610 0.699610
0.910114 0.910114 0.910114
0.972947 0.972947 0.972947
0.987269 0.987269 0.987269
0.993120 0.993120 0.993120
0.995825 0.995825 0.995825
0.997880 0.997880 0.997880
0.093288 0.093288 0.093288
0.093288 0.093288 0.093288
0.093288 0.093288 0.093288
0.093288 0.093288 0.093288
0.093288 0.093288 0.093288
0.093288 0.093288 0.093288
0.093288 0.093288 0.093288
0.093288 0.093288 0.093288
0.093288 0.093288 0.093288
0.093288 0.093288 0.093288
0.096288 0.096288 0.096288
0.130080 0.130080 0.130080
0.233366 0.233366 0.233366
0.303182 0.303182 0.303182
0.340519 0.340519 0.340519
0.381916 0.381916 0.381916
0.425318 0.425318 0.425318
0.460062 0.460062 0.460062
0.093288 0.093288 0.093288
0.112665 0.112665 0.112665
0.247552 0.247552 0.247552
0.404537 0.404537 0.404537
0.549694 0.549694 0.549694
0.682660 0.682660 0.682660
0.781057 0.781057 0.781057
0.835972 0.835972 0.835972
0.874494 0.874494 0.874494
0.093288 0.093288 0.093288
0.109913 0.109913 0.109913
0.229398 0.229398 0.229398
0.381384 0.381384 0.381384
0.591526 0.591526 0.591526
0.791780 0.791780 0.791780
0.888689 0.888689 0.888689
0.941070 0.941070 0.941070
0.966028 0.966028 0.966028
0.093288 0.093288 0.093288
0.135196 0.135196 0.135196
0.328110 0.328110 0.328110
0.487826 0.487826 0.487826
0.588577 0.588577 0.588577
0.827889 0.827889 0.827889
0.930609 0.930609 0.930609
0.972062 0.972062 0.972062
0.984515 0.984515 0.984515
0.093288 0.093288 0.093288
0.175630 0.175630 0.175630
0.477051 0.477051 0.477051
0.716689 0.716689 0.716689
0.831775 0.831775 0.831775
0.901290 0.901290 0.901290
0.960329 0.960329 0.960329
0.983704 0.983704 0.983704
0.990529 0.990529 0.990529
0.093288 0.093288 0.093288
0.212793 0.212793 0.212793
0.591762 0.591762 0.591762
0.834241 0.834241 0.834241
0.924356 0.924356 0.924356
0.964897 0.964897 0.964897
0.981885 0.981885 0.981885
0.989399 0.989399 0.989399
0.993897 0.993897 0.993897
0.093288 0.093288 0.093288
0.237748 0.237748 0.237748
0.663159 0.663159 0.663159
0.886388 0.886388 0.886388
0.960307 0.960307 0.960307
0.982920 0.982920 0.982920
0.989747 0.989747 0.989747
0.993767 0.993767 0.993767
0.996275 0.996275 0.996275
0.093288 0.093288 0.093288
0.250103 0.250103 0.250103
0.699169 0.699169 0.699169
0.910637 0.910637 0.910637
0.973290 0.973290 0.973290
0.987527 0.987527 0.987527
0.993287 0.993287 0.993287
0.996054 0.996054 0.996054
0.997934 0.997934 0.997934
0.093288 0.093288 0.093288
0.093288 0.093288 0.093288
0.093288 0.093288 0.093288
0.093288 0.093288 0.093288
0.093288 0.093288 0.093288
0.093288 0.093288 0.093288
0.093288 0.093288 0.093288
0.093288 0.093288 0.093288
0.093288 0.093288 0.093288
0.093288 0.093288 0.093288
0.096389 0.096389 0.096389
0.131956 0.131956 0.131956
0.238535 0.238535 0.238535
0.373675 0.373675 0.373675
0.397657 0.397657 0.397657
0.424903 0.424903 0.424903
0.451068 0.451068 0.451068
0.476771 0.476771 0.476771
0.093288 0.093288 0.093288
0.125670 0.125670 0.125670
0.355053 0.355053 0.355053
0.543622 0.543622 0.543622
0.672203 0.672203 0.672203
0.763341 0.763341 0.763341
0.817772 0.817772 0.817772
0.854834 0.854834 0.854834
0.883671 0.883671 0.883671
0.093288 0.093288 0.093288
0.126158 0.126158 0.126158
0.318530 0.318530 0.318530
0.535457 0.535457 0.535457
0.730375 0.730375 0.730375
0.844103 0.844103 0.844103
0.911910 0.911910 0.911910
0.950467 0.950467 0.950467
0.970098 0.970098 0.970098
0.093288 0.093288 0.093288
0.133951 0.133951 0.133951
0.343212 0.343212 0.343212
0.549691 0.549691 0.549691
0.735889 0.735889 0.735889
0.866524 0.866524 0.866524
0.943286 0.943286 0.943286
0.974439 0.974439 0.974439
0.985194 0.985194 0.985194
0.093288 0.093288 0.093288
0.164741 0.164741 0.164741
0.455997 0.455997 0.455997
0.699974 0.699974 0.699974
0.823968 0.823968 0.823968
0.884667 0.884667 0.884667
0.961028 0.961028 0.961028
0.984050 0.984050 0.984050
0.990886 0.990886 0.990886
0.093288 0.093288 0.093288
0.201602 0.201602 0.201602
0.567692 0.567692 0.567692
0.823230 0.823230 0.823230
0.918476 0.918476 0.918476
0.960869 0.960869 0.960869
0.980026 0.980026 0.980026
0.989280 0.989280 0.989280
0.993965 0.993965 0.993965
0.093288 0.093288 0.093288
0.230278 0.230278 0.230278
0.649279 0.649279 0.649279
0.881002 0.881002 0.881002
0.958193 0.958193 0.958193
0.982120 0.982120 0.982120
0.989491 0.989491 0.989491
0.993733 0.993733 0.993733
0.996393 0.996393 0.996393
0.093288 0.093288 0.093288
0.247006 0.247006 0.247006
0.693812 0.693812 0.693812
0.909001 0.909001 0.909001
0.973139 0.973139 0.973139
0.987577 0.987577 0.987577
0.993365 0.993365 0.993365
0.996196 0.996196 0.996196
0.997973 0.997973 0.997973
0.093288 0.093288 0.093288
0.093288 0.093288 0.093288
0.093288 0.093288 0.093288
0.093288 0.093288 0.093288
0.093288 0.093288 0.093288
0.093288 0.093288 0.093288
0.093288 0.093288 0.093288
0.093288 0.093288 0.093288
0.093288 0.093288 0.093288
0.093288 0.093288 0.093288
0.096471 0.096471 0.096471
0.133707 0.133707 0.133707
0.242844 0.242844 0.242844
0.390952 0.390952 0.390952
0.454327 0.454327 0.454327
0.466901 0.466901 0.466901
0.481446 0.481446 0.481446
0.497854 0.497854 0.497854
0.093288 0.093288 0.093288
0.127149 0.127149 0.127149
0.361727 0.361727 0.361727
0.658648 0.658648 0.658648
0.769115 0.769115 0.769115
0.819739 0.819739 0.819739
0.851019 0.851019 0.851019
0.877192 0.877192 0.877192
0.895462 0.895462 0.895462
0.093288 0.093288 0.093288
0.152087 0.152087 0.152087
0.423430 0.423430 0.423430
0.673377 0.673377 0.673377
0.821255 0.821255 0.821255
0.892044 0.892044 0.892044
0.935228 0.935228 0.935228
0.959724 0.959724 0.959724
0.972959 0.972959 0.972959
0.093288 0.093288 0.093288
0.144891 0.144891 0.144891
0.401247 0.401247 0.401247
0.658356 0.658356 0.658356
0.824771 0.824771 0.824771
0.911115 0.911115 0.911115
0.958722 0.958722 0.958722
0.978527 0.978527 0.978527
0.986304 0.986304 0.986304
0.093288 0.093288 0.093288
0.161338 0.161338 0.161338
0.456648 0.456648 0.456648
0.720742 0.720742 0.720742
0.850824 0.850824 0.850824
0.925367 0.925367 0.925367
0.970646 0.970646 0.970646
0.985321 0.985321 0.985321
0.991665 0.991665 0.991665
0.093288 0.093288 0.093288
0.192757 0.192757 0.192757
0.549909 0.549909 0.549909
0.816577 0.816577 0.816577
0.915864 0.915864 0.915864
0.959684 0.959684 0.959684
0.978028 0.978028 0.978028
0.989550 0.989550 0.989550
0.994130 0.994130 0.994130
0.093288 0.093288 0.093288
0.222613 0.222613 0.222613
0.635046 0.635046 0.635046
0.875582 0.875582 0.875582
0.956200 0.956200 0.956200
0.981399 0.981399 0.981399
0.989212 0.989212 0.989212
0.993658 0.993658 0.993658
0.996490 0.996490 0.996490
0.093288 0.093288 0.093288
0.242753 0.242753 0.242753
0.686083 0.686083 0.686083
0.906338 0.906338 0.906338
0.972764 0.972764 0.972764
0.987537 0.987537 0.987537
0.993403 0.993403 0.993403
0.996295 0.996295 0.996295
0.998005 0.998005 0.998005
0.093288 0.093288 0.093288
0.093288 0.093288 0.093288
0.093288 0.093288 0.093288
0.093288 0.093288 0.093288
0.093288 0.093288 0.093288
0.093288 0.093288 0.093288
0.093288 0.093288 0.093288
0.093288 0.093288 0.093288
0.093288 0.093288 0.093288
0.093288 0.093288 0.093288
0.096540 0.096540 0.096540
0.135258 0.135258 0.135258
0.246547 0.246547 0.246547
0.397308 0.397308 0.397308
0.499023 0.499023 0.499023
0.506279 0.506279 0.506279
0.512582 0.512582 0.512582
0.520555 0.520555 0.520555
0.093288 0.093288 0.093288
0.128413 0.128413 0.128413
0.367468 0.367468 0.367468
0.667931 0.667931 0.667931
0.821248 0.821248 0.821248
0.857894 0.857894 0.857894
0.880546 0.880546 0.880546
0.895356 0.895356 0.895356
0.908175 0.908175 0.908175
0.093288 0.093288 0.093288
0.181258 0.181258 0.181258
0.508091 0.508091 0.508091
0.770936 0.770936 0.770936
0.875749 0.875749 0.875749
0.926170 0.926170 0.926170
0.953777 0.953777 0.953777
0.969628 0.969628 0.969628
0.976194 0.976194 0.976194
0.093288 0.093288 0.093288
0.164046 0.164046 0.164046
0.472540 0.472540 0.472540
0.756217 0.756217 0.756217
0.880380 0.880380 0.880380
0.942675 0.942675 0.942675
0.971607 0.971607 0.971607
0.983320 0.983320 0.983320
0.987683 0.987683 0.987683
0.093288 0.093288 0.093288
0.167381 0.167381 0.167381
0.482956 0.482956 0.482956
0.766927 0.766927 0.766927
0.889098 0.889098 0.889098
0.951750 0.951750 0.951750
0.977486 0.977486 0.977486
0.987250 0.987250 0.987250
0.992469 0.992469 0.992469
0.093288 0.093288 0.093288
0.188773 0.188773 0.188773
0.545136 0.545136 0.545136
0.818891 0.818891 0.818891
0.921913 0.921913 0.921913
0.966857 0.966857 0.966857
0.983772 0.983772 0.983772
0.990916 0.990916 0.990916
0.994481 0.994481 0.994481
0.093288 0.093288 0.093288
0.216360 0.216360 0.216360
0.623880 0.623880 0.623880
0.871126 0.871126 0.871126
0.955304 0.955304 0.955304
0.981367 0.981367 0.981367
0.989253 0.989253 0.989253
0.993576 0.993576 0.993576
0.996638 0.996638 0.996638
0.093288 0.093288 0.093288
0.238318 0.238318 0.238318
0.677965 0.677965 0.677965
0.903527 0.903527 0.903527
0.972375 0.972375 0.972375
0.987499 0.987499 0.987499
0.993439 0.993439 0.993439
0.996382 0.996382 0.996382
0.998033 0.998033 0.998033
0.093288 0.093288 0.093288
0.093288 0.093288 0.093288
0.093288 0.093288 0.093288
0.093288 0.093288 0.093288
0.093288 0.093288 0.093288
0.093288 0.093288 0.093288
0.093288 0.093288 0.093288
0.093288 0.093288 0.093288
0.093288 0.093288 0.093288
0.093288 0.093288 0.093288
0.096600 0.096600 0.096600
0.136617 0.136617 0.136617
0.249801 0.249801 0.249801
0.402962 0.402962 0.402962
0.532063 0.532063 0.532063
0.538881 0.538881 0.538881
0.540346 0.540346 0.540346
0.541781 0.541781 0.541781
0.093288 0.093288 0.093288
0.129518 0.129518 0.129518
0.372515 0.372515 0.372515
0.674657 0.674657 0.674657
0.849935 0.849935 0.849935
0.884029 0.884029 0.884029
0.900456 0.900456 0.900456
0.911420 0.911420 0.911420
0.919446 0.919446 0.919446
0.093288 0.093288 0.093288
0.206524 0.206524 0.206524
0.574741 0.574741 0.574741
0.821105 0.821105 0.821105
0.908077 0.908077 0.908077
0.948409 0.948409 0.948409
0.965683 0.965683 0.965683
0.974253 0.974253 0.974253
0.979309 0.979309 0.979309
0.093288 0.093288 0.093288
0.186881 0.186881 0.186881
0.538539 0.538539 0.538539
0.813453 0.813453 0.813453
0.916396 0.916396 0.916396
0.960694 0.960694 0.960694
0.977953 0.977953 0.977953
0.985406 0.985406 0.985406
0.989086 0.989086 0.989086
0.093288 0.093288 0.093288
0.180203 0.180203 0.180203
0.524844 0.524844 0.524844
0.810211 0.810211 0.810211
0.919554 0.919554 0.919554
0.966996 0.966996 0.966996
0.983469 0.983469 0.983469
0.989239 0.989239 0.989239
0.993046 0.993046 0.993046
0.093288 0.093288 0.093288
0.190855 0.190855 0.190855
0.556125 0.556125 0.556125
0.830867 0.830867 0.830867
0.933754 0.933754 0.933754
0.973588 0.973588 0.973588
0.986175 0.986175 0.986175
0.992387 0.992387 0.992387
0.994945 0.994945 0.994945
0.093288 0.093288 0.093288
0.212807 0.212807 0.212807
0.617910 0.617910 0.617910
0.870439 0.870439 0.870439
0.956372 0.956372 0.956372
0.982612 0.982612 0.982612
0.990160 0.990160 0.990160
0.994197 0.994197 0.994197
0.996934 0.996934 0.996934
0.093288 0.093288 0.093288
0.234485 0.234485 0.234485
0.671096 0.671096 0.671096
0.901319 0.901319 0.901319
0.972153 0.972153 0.972153
0.987545 0.987545 0.987545
0.993514 0.993514 0.993514
0.996495 0.996495 0.996495
0.998062 0.998062 0.998062
